Tylouw/Master_Thesis_Code/trial4/insertion_10_2026-01-23_13-51-39.csv
num_insertion,tcp_force_x[N],tcp_force_y[N],tcp_force_z[N],tcp_force_rx[Nm?],tcp_force_ry[Nm?],tcp_force_rz[Nm?],tcp_pose_x[m],tcp_pose_y[m],tcp_pose_z[m],tcp_pose_rx[rot_vec_x],tcp_pose_ry[rot_vec_y],tcp_pose_rz[rot_vec_z],tcp_velo_x[m/s],tcp_velo_y[m/s],tcp_velo_z[m/s],tcp_velo_rx[rot_vec_x/s],tcp_velo_ry[rot_vec_y/s],tcp_velo_rz[rot_vec_z/s],q1[rad],q2[rad],q3[rad],q4[rad],q5[rad],q6[rad],qd1[rad/s],qd2[rad/s],qd3[rad/s],qd4[rad/s],qd5[rad/s],qd6[rad/s],tool_acc_x,tool_acc_y,tool_acc_z,current_of_whole_robot[A],voltage_of_whole_robot[V],current_J1[A],current_J2[A],current_J3[A],current_J4[A],current_J5[A],current_J6[A],temp_J1[C],temp_J2[C],temp_J3[C],temp_J4[C],temp_J5[C],temp_J6[C]
1.0,0.025015939412184884,0.2896748796891971,-1.1103720455964166,0.009594703572843057,-0.051722525956811885,-0.0736175555614977,-0.5388815240239314,-0.32413523899699326,0.25999768892847586,-3.0786762882574608,0.6247459479788222,-5.954546363794481e-06,0.000910143053115806,-0.0008036716533005858,0.0015893568631531784,-0.0019481874397060373,0.00596541467383674,-0.0011377104791546158,0.3260105848312378,-1.152238355284073,1.6628926436053675,-2.0799113712706507,-1.5714057127581995,2.3008971214294434,0.0017264188500121236,-0.0031664660200476646,0.0019458455499261618,-0.005053678527474403,-7.256378012243658e-05,0.0028619004879146814,0.49799394607543945,-0.2106897532939911,-9.002198219299316,0.7665104269981384,47.69673538208008,-0.2880907654762268,-4.301263809204102,-2.423081159591675,-0.40287598967552185,0.0189172625541687,-0.0036253465805202723,25.5625,26.4375,25.5625,28.625,30.0,30.5625
1.0,0.3094153137386527,0.2797685484175704,-1.5328211219220853,0.028545774306782616,-0.056912917454118805,-0.07903065909287103,-0.5388592086027054,-0.324142931866203,0.260002201752372,-3.078679996266532,0.6246688285188943,-3.717830878084224e-05,3.0281493447941775e-05,-0.0007919316958261882,0.001969577430644772,-0.0019626358856417534,0.005996917111043067,0.0002621701479152282,0.32601043581962585,-1.1522379380515595,1.6628792921649378,-2.0798517666258753,-1.571345631276266,2.3009207248687744,0.0012469665380194783,-0.0020312517881393433,-0.0008629492367617786,-0.0034150145947933197,-7.141232345020398e-05,0.0009831259958446026,0.13407529890537262,0.019153613597154617,-9.193734169006348,0.7418897151947021,47.693153381347656,-0.2760689854621887,-4.353377342224121,-2.269839286804199,-0.40183472633361816,0.042277224361896515,-0.014257239177823067,25.5625,26.4375,25.5625,28.625,30.0,30.5625
1.0,-1.4658254953132372,-1.3304883803244785,-1.5917718468447524,-0.015987588627820275,-0.0230304656002025,-0.061255709389506106,-0.5388546578826175,-0.3241285287214545,0.25999654304359193,-3.078614045221692,0.624693805490073,-4.9057524400240775e-05,8.386607602625761e-05,-0.0006786161086893646,0.0016094682663301133,-0.00142798564089133,0.004421957419609103,0.0005385584646130638,0.32599833607673645,-1.152249888782837,1.662903134022848,-2.079826971093649,-1.5713933149920862,2.3009326457977295,0.0011004003463312984,-0.0016863007331267,-0.0008139524725265801,-0.0021457637194544077,-7.029670086922124e-05,0.0005607426282949746,-0.07661445438861847,0.19153612852096558,-9.21288776397705,0.7553206086158752,47.68867492675781,-0.23582321405410767,-4.428691864013672,-2.253697633743286,-0.41919273138046265,0.03274707868695259,0.005421200301498175,25.5625,26.4375,25.5625,28.625,30.0,30.5625
1.0,-2.7895871864897224,-2.188872669848289,-1.2459340099743323,-0.09415449537903456,0.04793380003020252,-0.06692055423520293,-0.5388418955109076,-0.32415002024284195,0.2600147979329615,-3.078656446328717,0.6246448674193058,-3.75380076341342e-05,0.00040550646600802967,-0.00047784908252786846,0.0008515624530013213,-0.00041899904601643364,0.0014753387653242973,0.0005409616728798113,0.326034277677536,-1.1522737306407471,1.6628921667682093,-2.0798145733275355,-1.571369473134176,2.3009326457977295,0.0009607655229046941,-0.0013307005865499377,-4.100489604752511e-05,-0.00015975891437847167,-7.603366975672543e-05,0.0004196451627649367,-0.24899697303771973,0.325611412525177,-9.289502143859863,0.8045620322227478,47.67524337768555,-0.2698880434036255,-3.949230670928955,-2.115389823913574,-0.48618197441101074,0.03409223258495331,0.012807546183466911,25.5625,26.4375,25.5625,28.625,30.0,30.5625
1.0,-3.217820334640582,-2.927360487870713,-1.306264096593058,-0.13307961527590761,0.11539859892622643,-0.07380109069483631,-0.5388504380372203,-0.3241335519579305,0.2600055478244268,-3.0786095727282827,0.6246542148946644,-4.331357701494607e-05,0.001628322296560795,3.292574414220465e-05,-0.0015554106688326764,0.0013162046188456172,-0.0036062779655283905,0.00047731989176940363,0.3260102868080139,-1.1522616308978577,1.6628935972796839,-2.0798026523985804,-1.5714057127581995,2.3009204864501953,0.0008161133155226707,-0.0008345911628566682,0.004683270119130611,-1.043111569742905e-05,-8.134169183904305e-05,0.00033925939351320267,-0.325611412525177,0.3064578175544739,-9.404424667358398,0.7016075849533081,47.67703628540039,-0.2717425227165222,-4.00233268737793,-2.111456871032715,-0.5255434513092041,0.03812985122203827,0.010174495168030262,25.5625,26.4375,25.5625,28.625,30.0,30.5625
1.0,-3.678174724382602,-3.182319396749026,-1.053983177970309,-0.12616600303781142,0.11795159855221711,-0.07497231143624133,-0.538852994655435,-0.32415123662155143,0.2600048710130691,-3.078623189611319,0.6246377990670408,-5.497036643938373e-05,0.002447899043880769,0.0003815431704618691,-0.0031622721960309534,0.0025556900613259615,-0.007249650141459987,0.0004247081530162429,0.32603418827056885,-1.152237431412079,1.662858788167135,-2.0797907314696253,-1.5713933149920862,2.3009324073791504,0.0007088736165314913,-0.0004940340295433998,0.0077462149783968925,0.0004344931512605399,-8.05497111286968e-05,0.0002851718454621732,-0.3447650372982025,0.325611412525177,-9.346963882446289,0.7060845494270325,47.694053649902344,-0.2448747158050537,-3.929934024810791,-2.503891944885254,-0.572393536567688,0.029461871832609177,0.0005220614839345217,25.5625,26.4375,25.5625,28.625,30.0,30.5625
1.0,-2.7840085041099973,-1.8662897965308123,-0.940075827803473,-0.08888516988026982,0.07956335940878023,-0.06787656217061086,-0.5388327322332189,-0.32415338889837014,0.2600025064313297,-3.0786559155894992,0.6246252706082039,-1.2313202384033639e-05,0.001050806598738535,-4.053113559665217e-05,-0.002284451826024385,0.00015506281341793538,-0.00021747696498205726,0.0003789223535696781,0.3260461986064911,-1.152272955780365,1.6629303137408655,-2.079865118066305,-1.5713813940631312,2.3009324073791504,0.0006265580304898322,0.0008090659976005554,0.005385105032473803,-0.005938147660344839,-7.939300121506676e-05,0.000246043928200379,-0.325611412525177,0.2298433631658554,-9.059659004211426,0.7665104269981384,47.6734504699707,-0.23753410577774048,-3.9902968406677246,-2.3194658756256104,-0.557062566280365,0.03277997300028801,0.019687635824084282,25.5625,26.4375,25.5625,28.625,30.0,30.5625
1.0,-1.0962385702758417,-0.21758333056138235,-1.1043976093543282,-0.02122314239205791,0.03034241312219453,-0.08066941843893555,-0.5388388402338584,-0.3241539233117903,0.26001759635068333,-3.078733682616077,0.6246023796922104,-5.132178311341338e-06,-6.88770785272853e-05,-0.00043380785545428253,-0.0008010232889756817,-0.002358879774301666,0.007126519473106788,0.000423017051313904,0.32603418827056885,-1.1522849959186097,1.6629160086261194,-2.079878946343893,-1.5713217894183558,2.300896167755127,0.0006435025134123862,0.0008498636307194829,0.003249411005526781,-0.011605635285377502,-6.856019899714738e-05,0.00021638695034198463,-0.28730422258377075,0.2106897532939911,-9.059659004211426,0.8381313681602478,47.71017074584961,-0.28829532861709595,-3.8948657512664795,-2.0866856575012207,-0.5228931903839111,0.036154866218566895,0.018115662038326263,25.5625,26.4375,25.5625,28.625,30.0,30.5625
1.0,-0.5714851967557717,0.5767333789965023,-1.2702279733241455,0.014520040469772871,-0.015721842233815442,-0.07192305519693247,-0.5388583833427627,-0.3241424966829281,0.26000539279014523,-3.078714093658828,0.6246559309862036,4.586470994649547e-05,-0.0004938039840770691,-0.0005461617653549249,-6.407817911374816e-05,-0.0034597526838767664,0.010347450775040682,0.00039477737893729064,0.32601019740104675,-1.1522490841201325,1.6629045645343226,-2.0799271068968714,-1.571345631276266,2.300908088684082,0.0005930819897912443,0.000583436107262969,0.0024880338460206985,-0.013981703668832779,-6.44916872261092e-05,0.00019312306540086865,-0.26815059781074524,0.19153612852096558,-9.059659004211426,0.7821771502494812,47.76659393310547,-0.25497275590896606,-3.7809228897094727,-1.9885090589523315,-0.5002806186676025,0.0339009165763855,0.02974649704992771,25.5625,26.4375,25.5625,28.625,30.0,30.5625
1.0,-0.888464493792331,0.3191348153686148,-1.031623759524077,0.0054175999074782535,-0.024862064456641117,-0.07172406320579716,-0.5388614041952539,-0.32414999185652943,0.25999688107990615,-3.07869986050669,0.6246729358341147,5.440019924675561e-05,-0.0002705673823213736,-0.0004372114689051144,-0.0006226963642897708,-0.0031705318845867544,0.00949283987361924,0.0003625875840483506,0.32602208852767944,-1.152225063448288,1.6628931204425257,-2.0799390278258265,-1.571357552205221,2.3009324073791504,0.000542163266800344,0.0007875118171796203,0.0035508752334862947,-0.01434639934450388,-6.338178354781121e-05,0.00017438460781704634,-0.1149216815829277,0.0,-8.96389102935791,0.7038487195968628,47.66718673706055,-0.2710544466972351,-3.742392063140869,-1.9677850008010864,-0.5020851492881775,0.022554587572813034,0.012994136661291122,25.5625,26.4375,25.5625,28.625,30.0,30.5625
1.0,-0.788304870454254,-0.1663794156524913,-0.9448510673702002,-0.025195011266566536,0.010610860839543839,-0.07604329114144562,-0.5388498635864211,-0.32415388342223184,0.2600107680446367,-3.0787212805888706,0.6246580099878978,0.00010313508563100227,5.6348303304754335e-05,-0.00029742741238828315,-0.001432112313141896,-0.0026067758919029902,0.007851233387870728,0.00033525102561769834,0.3260341286659241,-1.1522609454444428,1.6629169623004358,-2.0799628696837367,-1.571357552205221,2.3009324073791504,0.0004991898313164711,0.0011353840818628669,0.004887683782726526,-0.014295367524027824,-6.864628085168079e-05,0.00015896448167040944,-0.05746084079146385,-0.17238251864910126,-8.829815864562988,0.8045620322227478,47.72808074951172,-0.23336802423000336,-3.7190425395965576,-2.0091893672943115,-0.5349026322364807,0.02590271830558777,0.008394425734877586,25.5625,26.4375,25.5625,28.625,30.0,30.5625
1.0,-0.9813172778691197,-0.7768483085438301,-0.6415614736150084,-0.03246972696084602,0.035452508801140585,-0.08109423329115265,-0.5388503028094165,-0.32415525951883073,0.25998362723861773,-3.0787089503119516,0.6246746821093141,4.214314741762168e-05,-3.634972053657077e-05,-0.00030446263436362817,-0.002723661829235331,-0.0018537216681977927,0.005642532506415794,0.00031191198512563406,0.3260340988636017,-1.1522244375995179,1.6629303137408655,-2.0799747906126917,-1.571345631276266,2.3009443283081055,0.0004625298024620861,0.0030117935966700315,0.005160096101462841,-0.014110632240772247,-7.354420813499019e-05,0.00014605284377466887,0.05746084079146385,-0.3447650372982025,-8.9064302444458,0.7777001857757568,47.6949462890625,-0.27278080582618713,-3.6203997135162354,-1.974061131477356,-0.5404478311538696,0.02529522404074669,0.0030992627143859863,25.5625,26.4375,25.5625,28.625,30.0,30.5625
1.0,-0.9056239097020338,-0.1532151633905605,-0.7499452866521928,-0.026546413899341627,0.02156076720515357,-0.07923016945431388,-0.5388469178062523,-0.3241528579049454,0.2599843621756548,-3.0787189783611777,0.6246385022907665,8.642740490652174e-05,-0.0003369379037943259,-0.00038617714050284284,-0.00317485137949276,-0.001827914814772165,0.005556443563299552,0.00029112756448956053,0.3260340988636017,-1.1522357922843476,1.662952725087301,-2.0800115070738734,-1.571357552205221,2.3009204864501953,0.0004308866336941719,0.004173038061708212,0.004705952014774084,-0.014727918431162834,-7.293181261047721e-05,0.00013508222764357924,0.2298433631658554,-0.28730419278144836,-9.040505409240723,0.7597975730895996,47.69853210449219,-0.27444988489151,-3.781691074371338,-1.9096134901046753,-0.555722713470459,0.0200120247900486,0.01294391043484211,25.5625,26.4375,25.5625,28.625,30.0,30.5625
1.0,-0.15660938739704974,0.45930577177299575,-0.7679208358861258,0.005832259328823435,0.002561194725797322,-0.0812469326702795,-0.5388738690798899,-0.324138657056284,0.25998700455243795,-3.0787504744887877,0.6246636693993342,0.00018274717650789335,-0.00047132523060124684,-0.0004141166302587178,-0.002850343765686967,-0.002405364896868129,0.0072507672081859355,0.0002723219324728107,0.32599809765815735,-1.1522119504264374,1.6629298369037073,-2.080083509484762,-1.571357552205221,2.300896167755127,0.0004032982396893203,0.003911009524017572,0.004673214629292488,-0.016223181039094925,-7.198443927336484e-05,0.00012564596545416862,0.2106897532939911,-0.2298433631658554,-9.059659004211426,0.8224645853042603,47.734352111816406,-0.3304562568664551,-3.7084712982177734,-1.8178927898406982,-0.5667606592178345,0.02302498370409012,0.015171395614743233,25.5625,26.4375,25.5625,28.625,30.0,30.5625
1.0,-0.6283767103682256,0.5703451487751751,-1.0347149523212849,0.031364156325228126,-0.05161154586128971,-0.06747036442172728,-0.5388624553887814,-0.32412701216229656,0.25995344882399934,-3.078700392267304,0.6247307228720244,8.647197516171195e-05,-0.0005150506594822603,-0.0004133441654035719,-0.0026710102552556206,-0.00298354051323383,0.008946955292874632,0.00025547771296477673,0.3259861469268799,-1.1522001189044495,1.6629894415484827,-2.0800839863219203,-1.571357552205221,2.3009324073791504,0.0003790294867940247,0.003621615469455719,0.0051066274754703045,-0.018159225583076477,-7.103907410055399e-05,0.00011744342918973416,0.17238251864910126,-0.17238251864910126,-8.983044624328613,0.6948947906494141,47.704795837402344,-0.2670350968837738,-3.585407257080078,-1.799025535583496,-0.5181922316551208,0.023059573024511337,0.02145436778664589,25.5625,26.4375,25.5625,28.625,30.0,30.5625
1.0,0.35000916473449023,0.9565840518984063,-1.063165087659305,0.01016839104394486,-0.040817396310466596,-0.0810617594646153,-0.5388629284008101,-0.32415046632685907,0.25996293067546605,-3.0787367401281998,0.6246416269847105,0.0001345575199615899,-2.922118600335692e-05,-0.0002340542552585543,-0.0038743552645048966,-0.002176734981544004,0.006570445096787292,0.00024144307631485297,0.32602202892303467,-1.1521878999522706,1.6629536787616175,-2.0800959072508753,-1.571357552205221,2.300908088684082,0.00035751843824982643,0.0041634454391896725,0.007077420130372047,-0.018162120133638382,-7.011679554125294e-05,0.00011024642299162224,0.26815059781074524,-0.1149216815829277,-9.117119789123535,0.7575564384460449,47.68240737915039,-0.2849474549293518,-3.5362000465393066,-1.835944414138794,-0.5178054571151733,0.024264611303806305,-0.0022882800549268723,25.5625,26.4375,25.5625,28.625,30.0,30.5625
1.0,0.25759248873523843,-0.12915073885099462,-1.1739935463856652,-0.01769997560549037,-0.024197061546710887,-0.0808416999704774,-0.5388709189081439,-0.3241325798388441,0.25995941144608903,-3.0786897297926346,0.6246902634140301,0.00018665487305755913,0.0007153648865912122,4.4129008510875995e-05,-0.006454765083696894,0.00042894859302134705,-0.001067159165432233,0.00021916380318124035,0.3260101079940796,-1.1521752637675782,1.663050953541891,-2.080130239526266,-1.5713933149920862,2.300908088684082,0.0003210717113688588,0.006221411749720573,0.00917334109544754,-0.014246133156120777,-7.824697240721434e-05,9.821026469580829e-05,0.19153612852096558,0.05746084079146385,-9.155426979064941,0.7396538853645325,47.7164421081543,-0.29280006885528564,-3.620837688446045,-1.8545446395874023,-0.5586430430412292,0.02768506109714508,0.002357578370720148,25.5625,26.4375,25.5625,28.625,30.0,30.5625
1.0,-0.9779623518650128,-1.8769881885524156,-1.573927921057283,-0.054902386489377314,0.007811862709923487,-0.067598987515898,-0.5388457420084514,-0.32413561938388463,0.25988052128288985,-3.078659304784866,0.6246258586470139,-4.1365192832001466e-05,0.0010081154568741119,0.0001539631911485739,-0.007161049178079705,0.00126439475180736,-0.003520985288374224,0.00020941458758483463,0.3260101079940796,-1.152127133016922,1.6630633513080042,-2.0801297626891078,-1.571369473134176,2.300896167755127,0.0003055020933970809,0.006622347515076399,0.009879698045551777,-0.012761279009282589,-7.863884820835665e-05,9.312720794696361e-05,0.13407529890537262,0.17238251864910126,-9.251194953918457,0.7620334029197693,47.74509811401367,-0.3572182059288025,-3.4990832805633545,-1.80560302734375,-0.5958107709884644,0.030421510338783264,0.006639624480158091,25.5625,26.4375,25.5625,28.625,30.0,30.5625
1.0,-1.584370345770561,-1.6960147339795797,-1.5944769492532207,-0.060484740302648804,0.006798723020402693,-0.07310489891249995,-0.5388448574455903,-0.32411067735977994,0.25985766767498375,-3.078626523769812,0.6246769353859121,-6.33627552413002e-05,0.0009137746519693786,0.00013187326910586968,-0.007743400920289609,0.0014652508341213954,-0.004095010051155744,0.00019985756658720473,0.32597407698631287,-1.1521268349936982,1.6631229559527796,-2.0801664791502894,-1.5713813940631312,2.300896167755127,0.000291370291961357,0.007545435801148415,0.010016672313213348,-0.013213200494647026,-8.601042645750567e-05,8.854483166942373e-05,0.15322890877723694,0.2298433631658554,-9.251194953918457,0.7553206086158752,47.75315856933594,-0.31861257553100586,-3.5320067405700684,-1.875098705291748,-0.6154505014419556,0.02526598982512951,0.009687078185379505,25.5625,26.4375,25.5625,28.625,30.0,30.5625
1.0,-0.8125402200046582,-1.6275354890325797,-1.5784404310670497,-0.056349609004624726,0.01675709441604246,-0.07640598056967245,-0.5388513789792927,-0.3241322047086352,0.2598980925655343,-3.078711735283001,0.6247140514442394,6.991058091405708e-05,0.0010472927141386996,0.0001859792658131786,-0.008685846146377183,0.0017698760117006256,-0.004990866064113799,0.00019093857736286992,0.3259980380535126,-1.1521506172469635,1.6630752722369593,-2.0802141628661097,-1.571345631276266,2.3009324073791504,0.0002784894604701549,0.008417671546339989,0.011182960122823715,-0.01430549006909132,-8.760265336604789e-05,8.439223165623844e-05,0.13407528400421143,0.26815059781074524,-9.346963882446289,0.7575564384460449,47.730770111083984,-0.36504071950912476,-3.5218043327331543,-1.865235447883606,-0.609745442867279,0.03155141696333885,0.002024682704359293,25.5625,26.4375,25.5625,28.625,30.0,30.5625
1.0,-1.0578665825843885,-1.34697184520401,-1.4424083883123124,-0.05948501887264185,0.005043802292533487,-0.06729596800254213,-0.538846375924286,-0.32412549581787903,0.2598514548226698,-3.078632243062333,0.6246587930386664,-2.10339651637374e-05,0.0008489079864440238,0.00012603330686899813,-0.00848788343511633,0.0010171224583191223,-0.0027844102650213275,0.00018196412508957076,0.3259980380535126,-1.152102456693985,1.6631115118609827,-2.0802036724486292,-1.5713933149920862,2.300908088684082,0.0002666999935172498,0.008405088447034359,0.011303056962788105,-0.016744328662753105,-8.671983232488856e-05,8.061200060183182e-05,0.05746084079146385,0.3064578175544739,-9.308655738830566,0.7620334029197693,47.72808074951172,-0.32173630595207214,-3.4526619911193848,-1.8034169673919678,-0.6138036251068115,0.03501484543085098,0.012805748730897903,25.5625,26.4375,25.5625,28.625,30.0,30.5625
1.0,-0.5746617764105462,-1.6043238986606945,-1.5015740924246344,-0.05705677117876832,0.007796489792563956,-0.07641133921494642,-0.5388406149893045,-0.32412353308197855,0.25983108251826215,-3.078617928335088,0.6246948756234302,-3.957028927679465e-05,0.0011621357208993245,0.00023967862893138568,-0.009627615293257426,0.0013774277747853941,-0.003851356017550476,0.00017428790421042308,0.3259980380535126,-1.152090237741806,1.6631487051593226,-2.0802394352354945,-1.5713933149920862,2.3009324073791504,0.00025586754782125354,0.009134333580732346,0.013210007920861244,-0.018254388123750687,-8.56988990562968e-05,7.715565880062059e-05,0.13407529890537262,0.3447650372982025,-9.385271072387695,0.7597975730895996,47.7164421081543,-0.2951166033744812,-3.3612453937530518,-1.8822439908981323,-0.6157299280166626,0.027121618390083313,0.0038733072578907013,25.5625,26.4375,25.5625,28.625,30.0,30.5625
1.0,-0.8813460636723656,-1.7652445079614911,-1.392260146006634,-0.06915300142490094,0.0014651018064490984,-0.07715332433884507,-0.5388378183802283,-0.3241225806935815,0.25982424679656935,-3.0786281774602644,0.6246778715680962,-2.1670063139014075e-05,0.0008934798280917964,0.00015478042261937876,-0.010360350421994279,0.0014248609141181002,-0.004004403096360807,0.0001672050122708956,0.3259980380535126,-1.152089611893036,1.6631715933429163,-2.080276151696676,-1.5713933149920862,2.3009204864501953,0.0002458804228808731,0.010573521256446838,0.01314033754169941,-0.019463736563920975,-8.469152089674026e-05,7.398363231914118e-05,0.09576806426048279,0.26815059781074524,-9.404424667358398,0.7575564384460449,47.743309020996094,-0.34575334191322327,-3.4949216842651367,-1.8406903743743896,-0.6101973056793213,0.03674715384840965,0.010460523888468742,25.5625,26.4375,25.5625,28.625,30.0,30.5625
1.0,-0.6524075871826504,-1.7003037101190193,-1.4297127795962694,-0.07577860586378819,0.01632546404147015,-0.07744577042127308,-0.5388283376451066,-0.3241361564836654,0.2598105219678111,-3.078647426558173,0.6246625354435577,-1.6360553977855216e-05,0.0010230455923522998,0.00020569560311669115,-0.010938914879428677,0.001432766496894093,-0.004009044098915522,0.0001604733201055604,0.3260219991207123,-1.152077631359436,1.663196865712301,-2.0803243122496546,-1.5713813940631312,2.3009324073791504,0.00023664430773351341,0.010954382829368114,0.014257003553211689,-0.02095431089401245,-9.167074313154444e-05,7.106231350917369e-05,0.17238251864910126,0.26815059781074524,-9.308655738830566,0.7306999564170837,47.74061965942383,-0.3211284875869751,-3.4473204612731934,-1.841443657875061,-0.5965359210968018,0.031020548194646835,0.016690509393811226,25.5625,26.4375,25.5625,28.625,30.0,30.5625
1.0,-1.5238557007588516,-1.7319558035083205,-1.366219828415245,-0.06332352381893089,0.0029848958593559766,-0.06941980350955995,-0.5388196111204555,-0.3241331831692419,0.25977884580560945,-3.0786160170301757,0.6246370275548855,-0.00011297733870640419,0.0005508530126347935,5.112731665276706e-05,-0.010286562317784057,0.0005865441656272664,-0.0015077929951892387,0.00015390736149515185,0.3260219991207123,-1.152053640489914,1.6632326284991663,-2.0803128681578578,-1.5713813940631312,2.3009204864501953,0.00022807698405813426,0.010986583307385445,0.013071381486952305,-0.022441396489739418,-9.736400534166023e-05,6.836286775069311e-05,0.24899697303771973,0.24899697303771973,-9.251194953918457,0.7575564384460449,47.74509811401367,-0.30314376950263977,-3.4329335689544678,-1.7852731943130493,-0.5999630689620972,0.028942201286554337,-0.004427265375852585,25.5625,26.4375,25.5625,28.625,30.0,30.5625
1.0,-0.9910680117268328,-1.4102451036965844,-1.3756349977404128,-0.0498688457888941,0.010684586458311947,-0.0621242302140202,-0.5388379628580967,-0.3241148802233527,0.25974600948272164,-3.0786098703866713,0.6247124290949648,-5.211784501546146e-05,0.0003594708721608376,-8.890660368114434e-06,-0.010903940648258817,0.0003749942225915091,-0.0009001551572923959,0.0001477966902887238,0.3259861171245575,-1.1520053011230011,1.663266960774557,-2.080433507958883,-1.5713933149920862,2.3009324073791504,0.0002201080060331151,0.012055229395627975,0.013456372544169426,-0.02453843131661415,-9.579284233041108e-05,6.586125527974218e-05,0.26815059781074524,0.2298433631658554,-9.27034854888916,0.7351769208908081,47.72270965576172,-0.34702378511428833,-3.4592137336730957,-1.7916758060455322,-0.594034731388092,0.04064162075519562,-0.0002814383478835225,25.5625,26.4375,25.5625,28.625,30.0,30.5625
1.0,-1.0363828807794029,-1.0857661631965592,-1.330436702125519,-0.044132970870501366,0.00573384026576315,-0.07731155819177332,-0.5388270749737974,-0.3241201394241759,0.25970804243810036,-3.0785996775164515,0.6246332274202813,-0.0001587501010199261,0.00015855085022141568,-7.265796960522146e-05,-0.010578986671328106,-0.00032051800149408095,0.0011360141366776415,0.00014189580025995868,0.3259980082511902,-1.1519694787314911,1.6633032003985804,-2.0804339847960414,-1.5713813940631312,2.300896167755127,0.00021267741976771504,0.01192062720656395,0.013336344622075558,-0.026435483247041702,-9.382816642755643e-05,6.353607022901997e-05,0.17238251864910126,0.19153612852096558,-9.21288776397705,0.7083203792572021,47.725399017333984,-0.3445214033126831,-3.4350173473358154,-1.7776142358779907,-0.5687800049781799,0.0402001217007637,0.007025322411209345,25.5625,26.4375,25.5625,28.625,30.0,30.5625
1.0,-0.6733218389413245,-1.1181068201263171,-1.3303945297042956,-0.035664259262401306,0.010324045771024547,-0.0777756973500791,-0.5388375615488923,-0.3241224605966881,0.2597371728157968,-3.0786470489250717,0.6246818744608845,2.942540351212513e-05,4.1403186491922325e-05,-0.00010806139207263951,-0.011502490728751886,-0.00026079080979493174,0.0009444875455199193,0.00013666694180796313,0.3259980082511902,-1.1519929629615326,1.6632917563067835,-2.0805307827391566,-1.5713933149920862,2.3009204864501953,0.00020573216897901148,0.013255433179438114,0.01396932452917099,-0.028202712535858154,-9.191380377160385e-05,6.136963929748163e-05,0.19153612852096558,0.2298433631658554,-9.193734169006348,0.8135106563568115,47.74778747558594,-0.32640913128852844,-3.4276342391967773,-1.7515101432800293,-0.5557592511177063,0.022442884743213654,0.009971674531698227,25.5625,26.4375,25.5625,28.625,30.0,30.5625
1.0,-0.336474563164206,-0.5259899465824518,-1.3227247151038677,-0.046835667584348754,0.013771173303202253,-0.0830560529161897,-0.5388298472692107,-0.32412107897479286,0.25968655477611136,-3.0786172603598874,0.6247331770821051,-5.915465075439342e-05,-0.00017687966750853254,-0.00017837203695280222,-0.010870286626304468,-0.0010397989871744606,0.003228731894975035,0.00013145758255517595,0.3259980082511902,-1.1519451898387452,1.6633508841144007,-2.0805794201292933,-1.5713813940631312,2.3009562492370605,0.00019922554201912135,0.012781593017280102,0.013538070023059845,-0.029711049050092697,-9.007410699268803e-05,5.934591172263026e-05,0.1149216815829277,0.19153612852096558,-9.193734169006348,0.6590895652770996,47.67882537841797,-0.31854042410850525,-3.4352922439575195,-1.7781322002410889,-0.5496266484260559,0.030448313802480698,-0.0064636957831680775,25.5625,26.4375,25.5625,28.625,30.0,30.5625
1.0,-1.0563597205390591,-1.5699187729868633,-1.473087392835339,-0.02623460398810006,-0.0064773364310044814,-0.06700720935934,-0.5388403913998105,-0.3241349799794571,0.25968027346336436,-3.0786750157624523,0.6246683798453483,-1.610833927306788e-05,-0.00034734000001450523,-0.00023251663545681,-0.011327026830209542,-0.0011216139682986746,0.003456643452257146,0.0001268985579243003,0.3260100483894348,-1.1519089204123993,1.663327995930807,-2.0806385479369105,-1.571357552205221,2.3009204864501953,0.00019311865617055446,0.013655048795044422,0.013629398308694363,-0.030917953699827194,-8.830636215861887e-05,5.745152884628624e-05,0.15322890877723694,0.17238251864910126,-9.21288776397705,0.7642692923545837,47.7164421081543,-0.3369066119194031,-3.353172779083252,-1.694505214691162,-0.537445604801178,0.04099021106958389,-0.0018373385537415743,25.5625,26.4375,25.5625,28.625,30.0,30.5625
1.0,-0.5657064494078964,-0.6813881358719338,-1.3912354823167248,-0.04227017897247262,0.007123447388739851,-0.08225893168528324,-0.5388313352967957,-0.32412032207238906,0.2595997120795275,-3.078592006130931,0.6246508655753855,-0.0001334633388500825,-0.00024281618513256285,-0.00019336021067268942,-0.011619427598614018,-0.0011732679694828056,0.0036020293225179447,0.00012262093266969494,0.3259980082511902,-1.151836858396866,1.6634238401996058,-2.0806991062560023,-1.5713933149920862,2.300908088684082,0.0001873745204648003,0.013751995749771595,0.014384829439222813,-0.03192460909485817,-8.660682215122506e-05,5.5674237955827266e-05,0.13407529890537262,0.07661445438861847,-9.174580574035645,0.7821771502494812,47.7164421081543,-0.36382177472114563,-3.474841594696045,-1.7257335186004639,-0.5305435657501221,0.02282816916704178,0.011252814903855324,25.5625,26.4375,25.5625,28.625,30.0,30.5625
1.0,-0.4881121779959344,-0.45570421266958994,-1.1702807740068475,-0.041261807416423005,0.016964470449209026,-0.07910400641305268,-0.5388394382706109,-0.32412557997178887,0.2596107079077868,-3.078636339947799,0.624718052737013,-5.493131404613252e-05,-0.00039511777789788245,-0.0002417968545072355,-0.011808275734735783,-0.0014248128363023465,0.004331573591358421,0.00011842492896228503,0.3259980082511902,-1.151836709385254,1.6634123961078089,-2.080759664575094,-1.571369473134176,2.3009443283081055,0.00018196241580881178,0.014228804036974907,0.014444272965192795,-0.03323255106806755,-8.497149246977642e-05,5.400381996878423e-05,0.1149216815829277,0.2106897532939911,-9.232041358947754,0.7396538853645325,47.70121383666992,-0.3754996359348297,-3.3539140224456787,-1.6489217281341553,-0.5207445025444031,0.04646451771259308,0.00702241063117981,25.5625,26.4375,25.5625,28.625,30.0,30.5625
1.0,-0.8637298596156525,-0.31526466276609644,-1.1115847144618458,-0.033514616548551715,0.006514674342413642,-0.08147076430944214,-0.5388332422754717,-0.3241390232908336,0.25959844271448684,-3.078670166832001,0.6247056891114959,2.7505451984013095e-05,-0.00044016838859892366,-0.0002508431038481853,-0.012762654324272359,-0.001531164906694844,0.004624991575120548,0.000110786913636159,0.3259860873222351,-1.1518002909472962,1.6634963194476526,-2.0808922253050746,-1.571345631276266,2.3009324073791504,0.0001720254949759692,0.015399141237139702,0.015566124580800533,-0.035836782306432724,-8.187918137991801e-05,5.094657535664737e-05,0.15322890877723694,-0.019153613597154617,-9.174580574035645,0.6769921779632568,47.70838165283203,-0.35743170976638794,-3.347681760787964,-1.6824537515640259,-0.4784676432609558,0.04099758714437485,0.004365973174571991,25.5625,26.4375,25.5625,28.625,30.0,30.5625
1.0,-0.9733594585147262,-0.2130929914883867,-1.3032781771446786,-0.032081359801725134,0.006844543278554193,-0.08133426812860656,-0.538835207625677,-0.32411889614426886,0.2595644813306075,-3.078662601877159,0.6247235047345006,-5.7372036673817844e-05,-0.0006070884501209947,-0.0003048068669239736,-0.012645387637885152,-0.0018279815647050913,0.00549106422157761,0.000107294446071187,0.3259621262550354,-1.1517643493464966,1.6635077635394495,-2.0809642277159632,-1.5713933149920862,2.300908088684082,0.0001674531667958945,0.015543002635240555,0.015273748897016048,-0.036603789776563644,-8.04160808911547e-05,4.954422183800489e-05,0.09576806426048279,0.07661445438861847,-9.27034854888916,0.7486078143119812,47.72270965576172,-0.35090041160583496,-3.4548211097717285,-1.6907784938812256,-0.47802719473838806,0.027539711445569992,0.0008031396428123116,25.5625,26.4375,25.5625,28.625,30.0,30.5625
1.0,-0.5504753334448257,0.06236928635386041,-1.2201767358180537,-0.046115804066592,0.01880153095271278,-0.08685435831070393,-0.5388426156829729,-0.32412914043882085,0.25947525264966725,-3.078635354756909,0.6247371198710863,-0.000122903789138392,-0.0004622646556118388,-0.0002527631988116036,-0.013604206368374734,-0.00147077319622627,0.004430505962262802,0.00010417544690442988,0.3259980082511902,-1.1516682368567963,1.6635444800006312,-2.081024309197897,-1.571345631276266,2.3009562492370605,0.00016311735089402646,0.016437942162156105,0.016405142843723297,-0.037511032074689865,-7.900409400463104e-05,4.821699621970765e-05,0.1149216815829277,0.019153613597154617,-9.21288776397705,0.7553206086158752,47.6949462890625,-0.3669486343860626,-3.335439682006836,-1.68501877784729,-0.4697057604789734,0.02474408969283104,0.013230355456471443,25.5625,26.4375,25.5625,28.625,30.0,30.5625
1.0,-1.1421902258296,-0.5802912934576121,-1.2060843472774068,-0.03758281766474644,0.007044602278393512,-0.07567171921820554,-0.5388287952920779,-0.32412975239407654,0.2594636338177352,-3.0786384399072473,0.6246802211968338,-7.08961012041126e-05,-0.00043497294228865406,-0.00024097012255821688,-0.013496732392984472,-0.0015469458015507159,0.004651147438716358,0.00010124944662498098,0.3260100483894348,-1.1516802173903962,1.6636036078082483,-2.0810958347716273,-1.571369473134176,2.3009324073791504,0.0001590006286278367,0.016232015565037727,0.01646994799375534,-0.03760332986712456,-7.764102338114753e-05,4.6959026803961024e-05,0.07661445438861847,-0.019153613597154617,-9.327810287475586,0.6747510433197021,47.67792892456055,-0.42301851511001587,-3.415588140487671,-1.7115546464920044,-0.4590701758861542,0.024667130783200264,0.007087608799338341,25.5625,26.4375,25.5625,28.625,30.0,30.5625
1.0,-0.8592417389102723,-0.2713830567669915,-1.1911356135657978,-0.04915418456138719,0.021906945946443435,-0.08619772355235204,-0.5388509042847698,-0.32412171728414274,0.2594459600110419,-3.078644836256583,0.6247390686076897,-2.2928527473605567e-05,-0.00015359733173794175,-0.0001426513284185551,-0.014838027846282688,-0.0008057228312873067,0.002462744677906662,9.871405778254664e-05,0.3259860873222351,-1.1516317290118714,1.6635926405536097,-2.0811687908568324,-1.571369473134176,2.3009443283081055,0.00015508626529481262,0.017376963049173355,0.01799575611948967,-0.037963565438985825,-7.632416964042932e-05,4.57649803138338e-05,0.07661445438861847,0.05746084079146385,-9.308656692504883,0.7060845494270325,47.756744384765625,-0.4290086627006531,-3.388124942779541,-1.7074730396270752,-0.4494476318359375,0.03867555409669876,-0.004439716227352619,25.5625,26.4375,25.5625,28.625,30.0,30.5625
1.0,-1.8775938817342357,-0.8651535589213678,-1.2008363806730225,-0.036057271482783364,0.0022237404395033366,-0.06778364442342565,-0.5388357867570899,-0.32413087243371874,0.25941011319845264,-3.0786552495288877,0.624664591539734,1.5996595525600263e-06,-4.769817970934946e-05,-0.00010438094238176162,-0.014596943562925976,-0.0009932751308029003,0.00301303931611386,9.592751191625699e-05,0.3260100483894348,-1.1516080659678956,1.6636651198016565,-2.081276079217428,-1.5713813940631312,2.3009204864501953,0.00015136049478314817,0.016816172748804092,0.018305733799934387,-0.03829413279891014,-7.5051277235616e-05,4.463021468836814e-05,-0.019153613597154617,0.09576806426048279,-9.346963882446289,0.7195101380348206,47.734352111816406,-0.4198501408100128,-3.3083648681640625,-1.748659372329712,-0.4526325762271881,0.013306908309459686,-0.0064288657158613205,25.5625,26.4375,25.5625,28.625,30.0,30.5625
1.0,-0.6611630133771202,-0.6573233333203929,-1.4095662148015475,-0.03834726285210334,0.027989659663395398,-0.0783954183217512,-0.5388298010289401,-0.32413133216373874,0.2593820145259862,-3.0786505651794087,0.6247019100563375,-6.523558836430238e-05,-0.00018975969560614615,-0.00015048227975874383,-0.014930721590372642,-0.0008235458493737468,0.0025057357246087504,9.357894772952015e-05,0.3260100483894348,-1.1515837472728272,1.6637004057513636,-2.0813003979124964,-1.571357552205221,2.3009443283081055,0.00014780899800825864,0.017558837309479713,0.0180087648332119,-0.038204893469810486,-7.382007606793195e-05,4.355033888714388e-05,-0.019153613597154617,0.09576806426048279,-9.366117477416992,0.7597975730895996,47.736141204833984,-0.40430569648742676,-3.3470611572265625,-1.7924535274505615,-0.45406025648117065,0.02494801953434944,0.0007520589279010892,25.5625,26.4375,25.5625,28.625,30.0,30.5625
1.0,-1.0938929423527592,-0.7345054551523766,-1.2798629678822693,-0.038485469740629254,0.013945389273055449,-0.0708992772824295,-0.5388349770929194,-0.3241252720075607,0.2593437846796185,-3.0786521092357995,0.624663465441983,-8.211416042817219e-05,-3.5739093806794416e-05,-9.58877048917459e-05,-0.015800853706510805,-0.00024708733349632886,0.0008037899643800746,9.150575601810729e-05,0.3259980082511902,-1.151535616522171,1.6637361685382288,-2.081371923486227,-1.571357552205221,2.300908088684082,0.0001444205263396725,0.01839202269911766,0.0187765434384346,-0.03800893947482109,-7.262860162882134e-05,4.252151120454073e-05,0.05746084079146385,0.09576806426048279,-9.27034854888916,0.6165663003921509,47.71017074584961,-0.46886447072029114,-3.339977264404297,-1.7239556312561035,-0.46374237537384033,0.031092055141925812,0.00441731745377183,25.5625,26.4375,25.5625,28.625,30.0,30.5625
1.0,-0.7794662599840875,-0.8828572721838144,-1.426692123922479,-0.03699858800417796,0.015388210584559107,-0.0820227915756037,-0.5388372435372419,-0.3241351022779986,0.25930434513083667,-3.0786617629913087,0.624666061778316,-9.286473342014239e-05,-0.00015495256581470344,-0.00013448853493160405,-0.01563465766365954,-0.0004686695693784996,0.0014505418515992315,8.905738020878511e-05,0.3260100483894348,-1.1514756244472046,1.6637609640704554,-2.0814558468260707,-1.571345631276266,2.3009204864501953,0.00014118420949671417,0.018398480489850044,0.018480485305190086,-0.038402996957302094,-7.147504220483825e-05,4.154012640356086e-05,0.019153613597154617,0.09576806426048279,-9.251194953918457,0.6635612845420837,47.64479064941406,-0.43511390686035156,-3.330946922302246,-1.7049857378005981,-0.47807246446609497,0.025080854073166847,0.009922219440340996,25.5625,26.4375,25.5625,28.625,30.0,30.5625
1.0,-0.6857226410131885,-0.35293440710782287,-1.3667660449111125,-0.056275236891219445,0.012815725438541734,-0.07963879648617753,-0.5388400121133987,-0.32414128111923646,0.2593000977748583,-3.078678965662285,0.6246305746367579,7.650579381123193e-06,-3.194492694037289e-05,-9.060383275021366e-05,-0.016669487500013732,0.00019164416478635823,-0.0004993643526020481,8.722570222113193e-05,0.3260219693183899,-1.1514633160880585,1.6637724081622522,-2.0815397701659144,-1.571369473134176,2.300908088684082,0.00013808973017148674,0.01951167918741703,0.019231706857681274,-0.0382087416946888,-7.035746239125729e-05,4.060306309838779e-05,0.05746084079146385,0.1149216815829277,-9.289502143859863,0.7530794739723206,47.6949462890625,-0.43724215030670166,-3.4151110649108887,-1.7076339721679688,-0.48714742064476013,0.01974388398230076,0.005078512243926525,25.5625,26.4375,25.5625,28.625,30.0,30.5625
1.0,-0.8671294471054756,-1.0693692218893869,-1.3684095545081456,-0.03645899935708086,0.0014615495960118834,-0.0778965181155089,-0.5388329810572945,-0.3241336250477643,0.2592527220183494,-3.0786727498926942,0.6246684154464702,-6.305608059216176e-05,0.00012682072557766523,5.970532187461547e-06,-0.017430105229265393,0.0008652552785412752,-0.0024849004034094716,2.3039163005495496e-05,0.3260100185871124,-1.1514271062663575,1.6638453642474573,-2.0816108189024867,-1.571345631276266,2.3009204864501953,7.250627822941169e-05,0.020192094147205353,0.01982266642153263,-0.03738342970609665,-6.927435606485233e-05,3.970731995650567e-05,0.09576806426048279,0.19153612852096558,-9.308655738830566,0.6299919486045837,47.66718673706055,-0.41115522384643555,-3.3586912155151367,-1.6709336042404175,-0.4949612021446228,0.0349295437335968,-0.006029961630702019,25.5625,26.4375,25.5625,28.625,30.0,30.5625
1.0,-0.7764251866379055,-0.4625427772551601,-1.315790975422179,-0.04976168055875618,0.0024042028623398534,-0.07603036447689634,-0.538840750045556,-0.3241234266238857,0.259208939404314,-3.078601544958441,0.6246922972183562,-8.990615194987264e-05,0.00023652947171974863,6.468830929255274e-05,-0.017442902735634095,0.0008718661511626577,-0.0025060338655396776,-9.2959495894928e-06,0.3259979486465454,-1.1513670843890687,1.6638692061053675,-2.08164705852651,-1.5713933149920862,2.3009324073791504,3.936669236281887e-05,0.019950013607740402,0.02021871693432331,-0.03751526400446892,-6.822408613516018e-05,3.8850361306685954e-05,0.09576806426048279,0.17238251864910126,-9.232041358947754,0.7127973437309265,47.70121383666992,-0.4887208044528961,-3.3272705078125,-1.6710652112960815,-0.5122013688087463,0.02311672642827034,0.008538671769201756,25.5625,26.4375,25.5625,28.625,30.0,30.5625
1.0,-0.4802030482724986,-0.7065997464990026,-1.3480502974456101,-0.04029536602507365,0.006724218721147169,-0.07999145485780979,-0.5388456065086282,-0.3241250733514651,0.25917452666948854,-3.0786101400347636,0.6247132025742288,-5.645119765618583e-05,0.0001465871395688833,3.4871935027421455e-05,-0.01792582795237397,0.0010238211866871578,-0.0029611510712786743,-9.761032620562156e-06,0.3259979486465454,-1.1513188642314454,1.6639044920550745,-2.081755300561422,-1.5713933149920862,2.3009443283081055,3.810954876826145e-05,0.020750099793076515,0.02028772607445717,-0.03790455311536789,-6.72052483423613e-05,3.80294477508869e-05,0.07661445438861847,0.19153612852096558,-9.251194953918457,0.7396538853645325,47.7218132019043,-0.45793402194976807,-3.406606674194336,-1.73905348777771,-0.5439191460609436,0.04156070575118065,0.006808923557400703,25.5625,26.4375,25.5625,28.625,30.0,30.5625
1.0,-0.8590749059004695,-0.6051915181370503,-1.262415743453127,-0.04199305390615408,-0.008477815182125526,-0.07388607047423083,-0.5388406786824141,-0.3241439451277034,0.25913936504816526,-3.078687962476424,0.6245937057083306,-6.413770912523409e-05,0.0002051236212711114,5.532302122413452e-05,-0.018757212601108637,0.0013218509772144752,-0.003845818228323673,-9.857215338191638e-06,0.3260219097137451,-1.1512706142714997,1.6639412085162562,-2.081862588922018,-1.571345631276266,2.3008837699890137,3.731391916517168e-05,0.021671976894140244,0.02106061764061451,-0.038665808737277985,-6.621627835556865e-05,3.724253110704012e-05,0.17238251864910126,0.09576806426048279,-9.117119789123535,0.7105615139007568,47.70658874511719,-0.49040651321411133,-3.4030113220214844,-1.6941325664520264,-0.5337001085281372,0.037785813212394714,-0.006836864165961742,25.5625,26.4375,25.5625,28.625,30.0,30.5625
1.0,-0.9641913515542576,-0.7778348167895838,-1.264106185409295,-0.03405134458939882,-0.014070015957646748,-0.07217902884801046,-0.5388605924175275,-0.3241106213811791,0.25911895796680373,-3.078644259524709,0.6247586925851039,-5.415729937535942e-05,0.0002774187888636979,8.029325852373055e-05,-0.018780378596686288,0.001285876528530242,-0.0037430757216688117,-9.96627569306981e-06,0.3259620666503906,-1.1512467128089447,1.6639650503741663,-2.0819107494749964,-1.571357552205221,2.3009324073791504,3.6556033592205495e-05,0.021533267572522163,0.02136959880590439,-0.03894493728876114,-6.525607022922486e-05,3.64876541425474e-05,0.2106897532939911,0.1149216815829277,-9.27034854888916,0.8112748265266418,47.742408752441406,-0.48428821563720703,-3.3648736476898193,-1.7060692310333252,-0.5529699921607971,0.0405711755156517,-0.01019301451742649,25.5625,26.4375,25.5625,28.625,30.0,30.5625
1.0,-0.5610370681021891,-0.6862146280033954,-1.3556471998329185,-0.0398989522797312,-0.007127494968833817,-0.08214307578160271,-0.5388528673788624,-0.3241210442292459,0.25910264356718515,-3.0786649998941393,0.6247054090115086,4.6154332654496125e-05,0.00016675499543246616,5.447619765396412e-05,-0.01861123904943573,0.0012271735520579675,-0.003573299180581197,-2.7579814414749704e-05,0.32598602771759033,-1.151234732275345,1.6640122572528284,-2.082029958764547,-1.5713813940631312,2.3009204864501953,1.8159413230023347e-05,0.021551253274083138,0.020901046693325043,-0.0386740081012249,-6.432329973904416e-05,3.57626959157642e-05,0.15322890877723694,0.05746084079146385,-9.232041358947754,0.6948947906494141,47.71375274658203,-0.46575111150741577,-3.320862054824829,-1.7271326780319214,-0.5742496252059937,0.0368257500231266,0.0037831191439181566,25.5625,26.4375,25.5625,28.625,30.0,30.5625
1.0,-0.6594066371015673,-0.41283391038491063,-1.3552366319256117,-0.05304149076755136,-0.009262043473526382,-0.07310350476828444,-0.5388521871085624,-0.32412854004993386,0.2590301838488126,-3.0786312954834103,0.6247176890433993,-3.6853143809954506e-05,7.363748376576841e-05,2.3187962372223362e-05,-0.019269380883274612,0.0011564032681195726,-0.0033756460816460627,-2.7963483634743544e-05,0.3259979486465454,-1.1511383813670655,1.6640613714801233,-2.082114358941549,-1.5713813940631312,2.3009443283081055,1.7567856048117392e-05,0.02250322327017784,0.02145562320947647,-0.04039046913385391,-6.34168682154268e-05,3.506596476654522e-05,0.2106897532939911,0.07661445438861847,-9.174580574035645,0.7083203792572021,47.72002029418945,-0.5522565245628357,-3.364441394805908,-1.6257822513580322,-0.5753549933433533,0.03081662952899933,-0.012324797920882702,25.5625,26.4375,25.5625,28.625,30.0,30.5625
1.0,-0.6831086394463418,-0.8393201438764938,-1.2124172157313327,-0.04494222331566202,-0.002443655987783896,-0.08188044944734697,-0.5388401503596292,-0.324128188983769,0.2589841608429728,-3.0786337982044256,0.6246800623899527,-0.00016205481690254056,0.000345766629137293,0.00012717347407106562,-0.020663374117685505,0.002127915186216885,-0.006242403078800489,-4.3688047705401396e-05,0.3259979486465454,-1.1510780912688752,1.664168659840719,-2.0822459659972132,-1.571345631276266,2.3009324073791504,3.162151651636691e-09,0.023792000487446785,0.02271386981010437,-0.03991059586405754,-6.167845276650041e-05,3.37509554810822e-05,0.24899697303771973,0.15322890877723694,-9.174580574035645,0.7306999564170837,47.70658874511719,-0.48117250204086304,-3.3856420516967773,-1.6673638820648193,-0.6224664449691772,0.021480076014995575,-0.007642949931323528,25.5625,26.4375,25.5625,28.625,30.0,30.5625
1.0,-0.5398270137987451,-0.5067002721264776,-1.1747039167274202,-0.04723992138961997,0.006079491298261023,-0.08191811197245225,-0.5388445810516488,-0.32413250192879556,0.2589225043097415,-3.0786048391604863,0.6246739555409621,-9.380057376750508e-05,0.0003157649032162668,0.00011754833843748792,-0.020914382431603377,0.002406653891783513,-0.007047307044529117,-4.277436827687068e-05,0.32600998878479004,-1.1510180693915864,1.6641810576068323,-2.0823055706419886,-1.5713933149920862,2.3009324073791504,4.242430018397414e-11,0.024226831272244453,0.0225453432649374,-0.03932509943842888,-6.684096297249198e-05,3.312973058200441e-05,0.13407528400421143,0.1149216815829277,-9.174580574035645,0.7016075849533081,47.71375274658203,-0.50749272108078,-3.3222780227661133,-1.6523303985595703,-0.6676895618438721,0.03489161655306816,-0.010647471062839031,25.5625,26.4375,25.5625,28.625,30.0,30.5625
1.0,-1.2048092584103587,-0.8027349598440585,-1.10259205342146,-0.03730257482340596,-0.010371850202658366,-0.0730369364913661,-0.5388554309343525,-0.3241218827824313,0.2588779847541699,-3.0785943874255763,0.624748509563037,-0.00011906775320993303,0.00026693798673315587,0.00010149685399087382,-0.021333447122969074,0.0021781950767255213,-0.006366777454966499,-4.278375977965701e-05,0.32598602771759033,-1.1509578687003632,1.6642172972308558,-2.082390447656149,-1.5713813940631312,2.3009562492370605,5.69176108154712e-13,0.024758921936154366,0.023180659860372543,-0.041210345923900604,-7.163632835727185e-05,3.253094109822996e-05,0.2106897532939911,0.038307227194309235,-9.270349502563477,0.6881819367408752,47.734352111816406,-0.5242167711257935,-3.373445510864258,-1.659804344177246,-0.6824963092803955,0.02758031338453293,-0.003782817395403981,25.5625,26.4375,25.5625,28.625,30.0,30.5625
1.0,-0.8794000204159548,-1.069257092142702,-1.292186223944952,-0.03407374215488765,-0.00034831549206594016,-0.0712080480207669,-0.5388428440365328,-0.3241290814384332,0.25882508567200024,-3.078618249333246,0.6246961514863281,-0.00019594873871814301,0.0003326972257662721,0.00012383219147102156,-0.021487833324854554,0.0019762841297509123,-0.005775952282751519,-4.265568112857122e-05,0.3259979486465454,-1.1509097975543519,1.6642892996417444,-2.0824748478331507,-1.571345631276266,2.3009324073791504,7.636223942129698e-15,0.024744845926761627,0.023837875574827194,-0.04247786104679108,-7.106463453965262e-05,3.19534883601591e-05,0.13407528400421143,0.05746084079146385,-9.27034854888916,0.7418897151947021,47.749576568603516,-0.5012980699539185,-3.3303141593933105,-1.6892707347869873,-0.6863959431648254,0.021908434107899666,-0.0008375570178031921,25.5625,26.4375,25.5625,28.625,30.0,30.5625
1.0,-1.0199900315972803,-1.0486669040476382,-1.3463633096926126,-0.041371273922729636,-0.003076198185501663,-0.07354364720983811,-0.5388293522946138,-0.3241219849724349,0.25877866901808677,-3.078592216901997,0.6246908553121726,-0.0001933651214279763,0.00027067314592899716,0.00010263393614582695,-0.021423690500962076,0.0013782691881382774,-0.004023221390150659,-4.297991714772185e-05,0.3259979486465454,-1.1508858662894745,1.6643856207477015,-2.082583089868063,-1.571369473134176,2.3009324073791504,1.0244968052670189e-16,0.024645956233143806,0.024342006072402,-0.04473504424095154,-7.016544259386137e-05,3.139611362712458e-05,0.1149216815829277,0.09576806426048279,-9.136273384094238,0.7306999564170837,47.71375274658203,-0.4801538288593292,-3.35591459274292,-1.6517441272735596,-0.7039259076118469,0.011717377230525017,-0.004894013982266188,25.5625,26.4375,25.5625,28.625,30.0,30.5625
1.0,-0.762952847426928,-0.8282392276439183,-1.1929624837675759,-0.042644927367029774,0.0036989847494504017,-0.08040162901429336,-0.5388144256316025,-0.3241364665263171,0.25872214943618865,-3.07855225977369,0.6246058657712277,-0.00023172265418359194,0.00042916206592892456,0.0001565986376923582,-0.02236506367185761,0.0022989494404319667,-0.0067348901785177365,-4.165179088139055e-05,0.32603394985198975,-1.150825486784317,1.664445702229635,-2.082654138604635,-1.5714057127581995,2.3009204864501953,1.3744933502451702e-18,0.025654200464487076,0.02474503219127655,-0.043282609432935715,-6.926701462361962e-05,3.085788557655178e-05,0.15322890877723694,0.1149216815829277,-9.251194953918457,0.7329410910606384,47.70838165283203,-0.5523810982704163,-3.3541340827941895,-1.6279656887054443,-0.738877534866333,0.025482438504695892,-0.005796563345938921,25.5625,26.4375,25.5625,28.625,30.0,30.5625
1.0,-0.6360147007433347,-0.9328753104934532,-1.3038899446562966,-0.03615324659878443,0.008456259170883482,-0.0827209340000409,-0.5388345833038461,-0.32412499857843213,0.25867107799645866,-3.078560291298409,0.6246844335303642,-0.0003191583278726213,0.000561119218609088,0.00020154418185271727,-0.02355830822563668,0.0030712264632993223,-0.009015060677491521,-4.0726474051919683e-05,0.3259979486465454,-1.1507411760142823,1.6644576231585901,-2.0827142200865687,-1.571357552205221,2.3009324073791504,1.8440582964888998e-20,0.02697109431028366,0.025552166625857353,-0.04299923777580261,-6.838985427748412e-05,3.0337781936395913e-05,0.17238251864910126,0.13407529890537262,-9.21288776397705,0.7530794739723206,47.70748519897461,-0.5508733987808228,-3.358386516571045,-1.6436500549316406,-0.7796662449836731,0.01579425111413002,0.002825069008395076,25.5625,26.4375,25.5625,28.625,30.0,30.5625
1.0,-0.8131136599016747,-0.6302067260888111,-1.4702553071261575,-0.03995863342285264,0.010002286386656584,-0.08015580015865333,-0.5388389086130496,-0.3241239680059584,0.2586608493568242,-3.0785743290161145,0.6247255191304575,-0.00018606634176681212,0.0003645923156987168,0.00013463596933926364,-0.023742289273362784,0.0024704354603029078,-0.007258295396628707,-4.1212677729548986e-05,0.3259979486465454,-1.1507290464690705,1.6644938627826136,-2.082846780816549,-1.5713813940631312,2.3009562492370605,2.474039707341559e-22,0.027449004352092743,0.025913232937455177,-0.04569486901164055,-6.753455090802163e-05,2.9834951419616118e-05,0.07661445438861847,0.15322890877723694,-9.21288776397705,0.6456586718559265,47.731666564941406,-0.5345197916030884,-3.3897933959960938,-1.6824898719787598,-0.792451024055481,0.0295061357319355,-0.009432616643607616,25.5625,26.4375,25.5625,28.625,30.0,30.5625
1.0,-1.2335721685426075,-0.9640758537510072,-1.4722132794589835,-0.03656010570639699,0.009017880803648121,-0.0789966777068355,-0.5388249482670764,-0.32414257758991405,0.2585962380061356,-3.078569605511428,0.6246860120117352,-0.00022019486900021277,0.0002686077463644653,0.00010200912623757564,-0.0244288317054351,0.002316609673494064,-0.00681621857581872,-4.136741923138322e-05,0.32603394985198975,-1.1506567758372803,1.6645668188678187,-2.0829669437804164,-1.5713813940631312,2.3009681701660156,3.3192403326614224e-24,0.02842044271528721,0.0265982523560524,-0.04781939089298248,-6.670039874734357e-05,2.9348486350500025e-05,0.038307227194309235,0.07661445438861847,-9.289502143859863,0.7508436441421509,47.7244987487793,-0.5130903720855713,-3.311070203781128,-1.6813936233520508,-0.7913370132446289,0.028703100979328156,-0.004714735317975283,25.5625,26.4375,25.5625,28.625,30.0,30.5625
1.0,-1.2421272473583702,-0.904794042192197,-1.3440811882445145,-0.03996418173835104,0.012743325728418544,-0.07710273412447465,-0.5388380017612788,-0.3241273933682959,0.2585509253163022,-3.0785922450612015,0.624671997894205,-0.00027989140892273367,0.00021247173097467276,8.289250993152153e-05,-0.024945650022906957,0.00221854876128822,-0.006537254459298499,-4.135802793624597e-05,0.3259979486465454,-1.1505966049483796,1.6646021048175257,-2.0830394230284632,-1.571345631276266,2.3009204864501953,4.453184213069952e-26,0.02912130206823349,0.027142686769366264,-0.04936036840081215,-6.588661199202761e-05,2.8877633667434566e-05,-0.019153613597154617,0.05746084079146385,-9.289502143859863,0.7597975730895996,47.72002029418945,-0.5667393207550049,-3.3791794776916504,-1.7060661315917969,-0.8048325777053833,0.02510513924062252,-0.010122068226337433,25.5625,26.4375,25.5625,28.625,30.0,30.5625
1.0,-1.035181201541873,-0.8972574112896967,-1.2333036999172182,-0.041763658180624434,0.019274607496559133,-0.08299473488609774,-0.5388255263041308,-0.3241272049716361,0.2584855514255934,-3.0785403053365945,0.6246222182378983,-0.0003324984611535639,0.00020668472873752028,8.092168398150167e-05,-0.025485592659057223,0.002079297796729967,-0.006135734495141647,-4.1465701465286976e-05,0.32600998878479004,-1.1505364936641236,1.6646855513202112,-2.083123346368307,-1.5713813940631312,2.300908088684082,5.974514910296114e-28,0.029730966314673424,0.027931682765483856,-0.05118400231003761,-6.509237573482096e-05,2.8421660317690112e-05,0.019153613597154617,0.038307227194309235,-9.251194953918457,0.7575564384460449,47.72718811035156,-0.5395980477333069,-3.382594585418701,-1.7337226867675781,-0.8265877366065979,0.029742933809757233,-0.011207330971956253,25.5625,26.4375,25.5625,28.625,30.0,30.5625
1.0,-0.9315431710327325,-0.680858218770172,-1.3884860409007025,-0.042136396260220726,0.023116238563189666,-0.07532723844851578,-0.5388351934563052,-0.32413173931796174,0.2584581915621545,-3.078576221550491,0.6246494842247229,-0.0002607739299156394,1.747405308642014e-05,1.6538900733030575e-05,-0.025905385372157527,0.0017432196439189853,-0.005158080964335629,-4.174697527693136e-05,0.32600998878479004,-1.1504881840995331,1.6647103468524378,-2.0832563839354457,-1.571369473134176,2.3009204864501953,8.015574479161078e-30,0.03054189682006836,0.02824111096560955,-0.05333816260099411,-6.431712972698733e-05,2.7979853257420473e-05,0.0,0.05746084079146385,-9.308655738830566,0.7530794739723206,47.73524856567383,-0.5791422724723816,-3.4720945358276367,-1.7070941925048828,-0.8355532884597778,0.020935479551553726,-0.010668937116861343,25.5625,26.4375,25.5625,28.625,30.0,30.5625
1.0,-0.6778298867651236,-0.25059807136824297,-1.2381525729446377,-0.04416439856194891,0.022074038807504314,-0.08746452395040918,-0.5388296908661049,-0.3241245430072425,0.2583941370208691,-3.078577379494437,0.6246301314503024,-0.00034280980443990755,-9.05874469182831e-05,-2.0362995063304357e-05,-0.025426265732814125,0.0005743602566356607,-0.0017258671371638075,-4.282539689212505e-05,0.3259979486465454,-1.1504284006408234,1.6647942701922815,-2.083353658715719,-1.571345631276266,2.300896167755127,1.075391485345528e-31,0.02990598976612091,0.028857368975877762,-0.05694430321455002,-6.356005906127393e-05,2.7551610401133075e-05,0.038307227194309235,0.0,-9.27034854888916,0.6859408020973206,47.71464920043945,-0.5582966208457947,-3.3694090843200684,-1.727888584136963,-0.8247544765472412,0.015950080007314682,-0.0023333653807640076,25.5625,26.4375,25.5625,28.625,30.0,30.5625
1.0,-1.5542762133077328,-0.6581370108731337,-1.3421467361490806,-0.04061133995337882,0.006363012323926515,-0.07257160705473477,-0.5388378460916051,-0.3241326207577961,0.25831573023666404,-3.0785348493560956,0.6246212776487226,-0.00038626938184438745,-0.0003098094899407053,-9.502738076323105e-05,-0.025295023520214344,-0.000844914858264826,0.002436920590661443,-4.449211383496341e-05,0.32600998878479004,-1.1503086549094697,1.6648300329791468,-2.083463331262106,-1.571369473134176,2.300908088684082,1.4427750420698937e-33,0.029847942292690277,0.02984520047903061,-0.062272172421216965,-6.282063986873254e-05,2.7136273274663836e-05,0.05746084079146385,0.09576806426048279,-9.232041358947754,0.6255202293395996,47.72629165649414,-0.5817133188247681,-3.330259323120117,-1.7955873012542725,-0.7856109738349915,0.013669202104210854,-0.014067746698856354,25.5625,26.4375,25.5625,28.625,30.0,30.5625
1.0,-0.8002872472880513,-0.7919967765695495,-1.3532133950282672,-0.04539441768992371,0.03150915762833415,-0.0752415342353933,-0.5388286666360572,-0.32413073980984747,0.25825927212655975,-3.078524857798601,0.6246582966577433,-0.0004303084141810932,-0.00026849588242378893,-8.08252476308353e-05,-0.02687318802076158,-8.857349023277737e-05,0.00019998157651400264,-4.391463314933188e-05,0.32600998878479004,-1.150259868507721,1.6649144331561487,-2.0835710964598597,-1.571357552205221,2.3009324073791504,1.9356668315659794e-35,0.0318099707365036,0.03082359954714775,-0.06285125762224197,-6.209823186509311e-05,2.673321978363674e-05,0.038307227194309235,0.019153613597154617,-9.308656692504883,0.7262282371520996,47.71017074584961,-0.6287428140640259,-3.459847927093506,-1.799065351486206,-0.7662798166275024,0.024722836911678314,-0.007585981860756874,25.5625,26.4375,25.5625,28.625,30.0,30.5625
1.0,-1.3573369045452663,-1.3716425752764108,-1.4245017211194375,-0.039218638333826515,0.02356461192639445,-0.07249435367988621,-0.5388481853380935,-0.3241323269077966,0.25824405034626,-3.078550751856242,0.6245664656699221,-0.0002616250901875897,-0.0005455524789005375,-0.0001751266046021903,-0.026951920397788084,-0.0011806946873890536,0.003399497011047607,-4.519748915676447e-05,0.32600998878479004,-1.1502116483500977,1.6649144331561487,-2.0837155781187953,-1.5714057127581995,2.3008718490600586,2.5969441596873583e-37,0.03220665827393532,0.03144298866391182,-0.06724810600280762,-6.139225297374651e-05,2.63419915427221e-05,0.09576806426048279,0.05746084079146385,-9.289502143859863,0.7239871025085449,47.6895751953125,-0.642976701259613,-3.4993128776550293,-1.7867604494094849,-0.7471863031387329,0.01446955744177103,-0.004680973012000322,25.5625,26.4375,25.5625,28.625,30.0,30.5625
1.0,-1.2882503876188485,-0.757130641766968,-1.4362449688560146,-0.05620977195765793,0.031227690928387432,-0.08302673926145995,-0.5388381782605738,-0.3241353999013838,0.2581718992361576,-3.078522295525743,0.6245996923497082,-0.0002822865584320178,-0.0008316105608199833,-0.0002725698290343473,-0.026526492039658886,-0.003008460644284471,0.008763107461575466,-4.733443756854922e-05,0.3260219097137451,-1.150139943962433,1.665011231099264,-2.0838619671263636,-1.5714176336871546,2.300908088684082,3.484132449758652e-39,0.03184116631746292,0.032405391335487366,-0.073511503636837,-6.070215749787167e-05,2.596205558802467e-05,0.05746084079146385,0.09576806426048279,-9.27034854888916,0.7709873914718628,47.730770111083984,-0.5831733345985413,-3.5078771114349365,-1.8238862752914429,-0.6924190521240234,0.025593876838684082,-0.021549023687839508,25.5625,26.4375,25.5625,28.625,30.0,30.5625
1.0,-1.3428072834279796,-1.1796334101589285,-1.4724614000119975,-0.04543240622310515,0.01689752360166155,-0.06742612660982475,-0.5388292060303244,-0.32413738180318524,0.2580643162310923,-3.078572958409421,0.6245911205281768,-0.0003042229797068444,-0.0009494375944523387,-0.00031734274966196225,-0.027043131934387392,-0.0036483206316258697,0.010494105198792921,-4.792855981032878e-05,0.3260219097137451,-1.1500319701484223,1.6651671568499964,-2.0841380558409632,-1.571369473134176,2.300896167755127,6.2778171201751805e-43,0.03255380317568779,0.03338886424899101,-0.077052541077137,-1.5253694073180668e-05,2.5234116037609056e-05,0.05746084079146385,0.1149216815829277,-9.251194953918457,0.6837049722671509,47.7164421081543,-0.6329473257064819,-3.4321842193603516,-1.8504822254180908,-0.6409696340560913,0.022802064195275307,-0.010300599038600922,25.5625,26.4375,25.5625,28.625,30.0,30.5625
1.0,-1.315809762191541,-1.192002141194212,-1.5149521119028448,-0.04163828717770345,0.012148193770275123,-0.07626307382825079,-0.538844082156669,-0.32412687974884735,0.2580014160616979,-3.0785823650704134,0.6246705116918064,-0.00023766037736224453,-0.0012856447449766414,-0.00043312488973255153,-0.027384063372961825,-0.004389622271457393,0.012619139776745421,-4.884115516192023e-05,0.3259979486465454,-1.1499476593783875,1.6652386824237269,-2.0843430958189906,-1.571369473134176,2.3009204864501953,8.407790785948902e-45,0.03349241986870766,0.03363235294818878,-0.08048522472381592,-9.959571798390243e-07,2.4885302991606295e-05,0.038307227194309235,0.09576806426048279,-9.251194953918457,0.6926589012145996,47.71375274658203,-0.63163161277771,-3.3879828453063965,-1.8743412494659424,-0.5799412727355957,0.012680435553193092,-0.010574151761829853,25.5625,26.4375,25.5625,28.625,30.0,30.5625
1.0,-1.1015144366199434,-1.060098100333276,-1.4989100120035166,-0.048551063936628114,0.013822760120075155,-0.07510093006154299,-0.5388441911064417,-0.32413597539408523,0.2579561677805443,-3.078600372842297,0.6246931761861498,-0.0002156713203328742,-0.0014513096733389558,-0.000489539406198769,-0.027766081460883035,-0.004648585632533178,0.013370074962945233,-4.909121830967366e-05,0.32600998878479004,-1.1498874884894867,1.6652873198138636,-2.084475179711813,-1.571357552205221,2.3009443283081055,0.0,0.03423362970352173,0.03386780992150307,-0.08225622028112411,-6.502889249304644e-08,2.4545919586671516e-05,0.05746084079146385,0.07661445438861847,-9.289502143859863,0.6971306204795837,47.702110290527344,-0.6457879543304443,-3.461127758026123,-1.8306596279144287,-0.5343286991119385,0.011823402717709541,-0.013138816691935062,25.5625,26.4375,25.5625,28.625,30.0,30.5625
1.0,-0.9677083908204317,-0.7511932282263958,-1.4940079645073099,-0.0526930400467354,0.011816342528756359,-0.08216900457235371,-0.5388374444773091,-0.3241336696376987,0.25788348017763346,-3.0785994824097003,0.6246349715914707,-0.00024974008680244704,-0.0010637838897934952,-0.000357561886695466,-0.028888301029983954,-0.004011329735888594,0.011494087044004526,-4.864794314305699e-05,0.32600998878479004,-1.1498152774623414,1.6653841177569788,-2.08461918453359,-1.571357552205221,2.300908088684082,0.0,0.03488452360033989,0.03559989854693413,-0.08265793323516846,-4.245921836343314e-09,2.421571480226703e-05,0.019153613597154617,0.09576806426048279,-9.308655738830566,0.7933669090270996,47.73793411254883,-0.6495622396469116,-3.4781994819641113,-1.8934028148651123,-0.5063269734382629,0.01751926727592945,-0.016966700553894043,25.5625,26.4375,25.5625,28.625,30.0,30.5625
1.0,-0.5123053152498953,-0.751620869799368,-1.3637491863180717,-0.048947681046648234,0.016646405797894104,-0.08325815396386028,-0.5388505359221025,-0.3241302997098948,0.2578317285887036,-3.078631511935805,0.6247189844536883,-0.00012098186587855446,-0.0006418486691287959,-0.00021396036020321886,-0.029363197268062535,-0.003204762374730072,0.009128030692790563,-4.754305597830599e-05,0.3259979486465454,-1.1497434240630646,1.665455166493551,-2.0848571262755335,-1.571357552205221,2.3009443283081055,0.0,0.03475163131952286,0.03646526858210564,-0.08089065551757812,-2.772283513863272e-10,2.389424480497837e-05,-0.038307227194309235,0.17238251864910126,-9.308655738830566,0.6277561187744141,47.731666564941406,-0.648867130279541,-3.534501075744629,-1.9295036792755127,-0.49251121282577515,0.016102146357297897,-0.005303919315338135,25.5625,26.4375,25.5625,28.625,30.0,30.5625
1.0,-0.6690223503811756,-0.6130063411392324,-1.5336730163346297,-0.0386021489192214,0.002938627820575166,-0.08033780465161498,-0.5388526268321071,-0.3241218974740972,0.2577674338763573,-3.0786167096123314,0.6246773063976045,-0.00014574669336091137,-0.0009991629605243337,-5.256597390920399e-05,-0.029562193843971244,-0.002675838593588816,0.007570273908955908,-0.00048226740771278436,0.325985848903656,-1.1496710938266297,1.6655271689044397,-2.0849763355650843,-1.571369473134176,2.300908088684082,-0.0004358454025350511,0.035606950521469116,0.0352805033326149,-0.07891610264778137,-1.8101031090678177e-11,2.3581234927405603e-05,0.09576806426048279,0.05746084079146385,-9.27034854888916,0.6971306204795837,47.72897720336914,-0.642830491065979,-3.4711265563964844,-1.9099841117858887,-0.49406591057777405,0.02149338275194168,-0.003111109836027026,25.5625,26.4375,25.5625,28.625,30.0,30.5625
1.0,-0.7767296428200177,-0.42466699743939496,-1.3394803126652788,-0.02992711967115272,-0.005922560272017743,-0.08369251251426962,-0.5388587717910542,-0.32414347202342303,0.2577199737787932,-3.0786230721572836,0.6246983029328624,-5.521629210999488e-06,-0.0009821509750656302,-1.316529756063568e-06,-0.030296512054593657,-0.0014130077113841289,0.0038555251265739816,-0.0005503797097620967,0.3260217308998108,-1.1495869618705292,1.6655634085284632,-2.0851789913573207,-1.5714057127581995,2.3009562492370605,-0.0005057845264673233,0.03673039376735687,0.03459334000945091,-0.07542885094881058,-1.1818679715447367e-12,2.327630136278458e-05,0.1149216815829277,0.038307227194309235,-9.27034854888916,0.7418897151947021,47.711063385009766,-0.6406732797622681,-3.5245141983032227,-1.8315657377243042,-0.5344530344009399,0.024624498561024666,-0.0032353673595935106,25.5625,26.4375,25.5625,28.625,30.0,30.5625
1.0,-0.5411975180319278,-0.45980066464460945,-1.3759817191964963,-0.02329170017090521,-0.013508112049567228,-0.07992148772119871,-0.5388676049587037,-0.32412447405184075,0.25764525667013205,-3.0786360175198593,0.6246232542426133,-5.084479281176408e-05,-8.824460524949307e-05,0.0002807263487311644,-0.031765070661763935,7.299429694221454e-05,-0.0005080936461070882,-0.0005147767154258966,0.325985848903656,-1.149502770309784,1.6656478087054651,-2.0853215656676234,-1.5713933149920862,2.3008718490600586,-0.00047150341561064124,0.036943115293979645,0.03723409026861191,-0.07367261499166489,-7.716753397304238e-14,2.297916762472596e-05,0.24899697303771973,0.0,-9.21288776397705,0.7239871025085449,47.702110290527344,-0.6396830081939697,-3.5460638999938965,-1.8689067363739014,-0.5469359159469604,0.009780867956578732,-0.016008244827389717,25.5625,26.4375,25.5625,28.625,30.0,30.5625
1.0,-0.23054757003512955,-0.4178162957916091,-1.3060466231515435,-0.02335532987237213,-0.010723422864176494,-0.07939736649026718,-0.5388636763127144,-0.32414118095169225,0.2575731603682009,-3.0786366913684713,0.6246630465938199,-0.0001027734182676637,-9.049276321739288e-05,0.00028616300203266915,-0.03241246514443036,0.0008567501661446302,-0.0028152463850069096,-0.0005230826566588015,0.3260098099708557,-1.1494065684131165,1.6657069365130823,-2.0854526958861292,-1.571369473134176,2.3009204864501953,-0.00048092904035001993,0.03792131692171097,0.03694652393460274,-0.07192660868167877,-5.038487818832165e-15,2.2689489924232475e-05,0.15322890877723694,0.038307227194309235,-9.097966194152832,0.7418897151947021,47.74509811401367,-0.6669334173202515,-3.586520195007324,-1.883392333984375,-0.56382155418396,0.01101914793252945,-0.0008873918559402227,25.5625,26.4375,25.5625,28.625,30.0,30.5625
1.0,-0.7481251642741786,-0.41530720636326607,-1.2664477663322233,-0.030922295560687266,-0.02110891512270738,-0.08539195221367019,-0.5388679918381595,-0.3241232877751638,0.2575235451236851,-3.0785946014601753,0.6247119773153399,-7.507296800258978e-05,4.089459318251908e-05,0.0003225365239362066,-0.03264850449248326,0.0011468633191077722,-0.00366769425531025,-0.0005096951445727597,0.325985848903656,-1.149358646278717,1.6657798925982874,-2.0855728588499964,-1.5714057127581995,2.3009324073791504,-0.00046807483886368573,0.038008011877536774,0.03724771738052368,-0.0714140310883522,-3.289772205599664e-16,2.2407028154702857e-05,0.15322890877723694,0.0,-9.232041358947754,0.5852327942848206,47.7244987487793,-0.6896923780441284,-3.573601007461548,-1.8717741966247559,-0.5881386995315552,0.016288988292217255,-0.015838267281651497,25.5625,26.4375,25.5625,28.625,30.0,30.5625
1.0,-0.9449388604516065,-0.8627892640715509,-1.3535759140149757,-0.025616074161500954,-0.024416460001494895,-0.0687402271256594,-0.5388649372096594,-0.3241260418778557,0.2574767169553306,-3.0786445554842206,0.6246833010694459,-7.201847314411151e-05,-3.1043545509767086e-05,0.0003037344725404046,-0.03323564982799437,0.0015830225362867137,-0.004954885321611499,-0.0005176846312592132,0.325985848903656,-1.1493101877025147,1.6658509413348597,-2.0857159099974574,-1.571369473134176,2.300908088684082,-0.0004766882339026779,0.03897089138627052,0.03712198883295059,-0.0708921030163765,-2.14798621873075e-17,2.213155312347226e-05,0.28730422258377075,-0.038307227194309235,-9.27034854888916,0.7530794739723206,47.72270965576172,-0.6560934782028198,-3.535048007965088,-1.8840103149414062,-0.6041378974914551,0.017014719545841217,-0.020716607570648193,25.5625,26.4375,25.5625,28.625,30.0,30.5625
1.0,-0.08322085318518371,-0.4657824363316955,-1.209212732532687,-0.033116778036770655,-0.0027449177634442795,-0.07442729224212269,-0.53887023709543,-0.3241253336899011,0.2574025480323623,-3.0786164423567133,0.6247165855037706,-5.4813514649914555e-05,-0.00033574808833512255,0.0001939523979347806,-0.03401974623437654,0.0022137185827366098,-0.0068186250927182975,-0.0005071661555555177,0.325985848903656,-1.1492136877826233,1.6659224669085901,-2.0858828030028285,-1.5713933149920862,2.3009324073791504,-0.00046707704314030707,0.04073863849043846,0.03618108481168747,-0.06975138187408447,-1.4024815232587848e-18,2.1862761059310287e-05,0.26815059781074524,-0.09576806426048279,-9.174580574035645,0.7150384783744812,47.70658874511719,-0.6965913772583008,-3.7002012729644775,-1.7953959703445435,-0.632275402545929,0.012057850137352943,-0.00698221055790782,25.5625,26.4375,25.5625,28.625,30.0,30.5625
1.0,-0.5125082121947597,-0.7104310182056882,-1.2993057978923523,-0.020812194380056864,-0.017132081593584047,-0.0736615948322433,-0.5388656279635694,-0.3241237381248479,0.2573447325082312,-3.07860826010182,0.6246959069680248,-8.792152603742078e-05,-8.875238495384013e-05,0.0003755854857028369,-0.0339169837770878,0.0025331346265829256,-0.0075454118052193115,-0.0006461539319304604,0.3259858191013336,-1.149154083137848,1.665994946156637,-2.0859905682005824,-1.5713933149920862,2.3009204864501953,-0.000606774992775172,0.04005850479006767,0.03667822852730751,-0.06877733767032623,-6.637926708208397e-05,2.1600380932795815e-05,0.28730422258377075,0.1149216815829277,-8.983044624328613,0.6948947906494141,47.700321197509766,-0.6404169797897339,-3.5829391479492188,-1.7011630535125732,-0.6576701402664185,0.017771827057003975,-0.021749764680862427,25.5625,26.4375,25.5625,28.625,30.0,30.5625
1.0,-0.3647968352365518,-0.6882654708695803,-1.1401905780976285,-0.024129397964227504,-0.01829771208212619,-0.07497719129175157,-0.5388714485052863,-0.32411263303319054,0.25726154907065224,-3.0786111094487105,0.6247541751337695,-0.0001242663593812532,0.0005125652738611348,0.0006044590379087638,-0.03391064974957166,0.003090934801215872,-0.009146919341805525,-0.0006813516928449854,0.3259618282318115,-1.1490584176829834,1.6660907904254358,-2.0861693821349085,-1.571369473134176,2.3009324073791504,-0.0006428443593904376,0.038882505148649216,0.03794332593679428,-0.06717059761285782,-7.544327672803774e-05,2.1344259948818944e-05,0.2298433631658554,0.019153613597154617,-9.040505409240723,0.7396538853645325,47.730770111083984,-0.6382294297218323,-3.5459325313568115,-1.825881004333496,-0.6913578510284424,0.01693066582083702,-0.013675146736204624,25.5625,26.4375,25.5625,28.625,30.0,30.5625
1.0,-0.365848147328144,-1.0708213043168124,-1.1382832258302256,-0.016175219651568186,-0.015429137485161958,-0.07501980526102328,-0.5388607240113744,-0.3241297655928418,0.2571845615947,-3.0785745080403286,0.6246502158924665,-0.00020281690377634503,0.00020649227815908768,0.0005182489601940916,-0.034985398767100176,0.0033657190340118663,-0.009968873556448227,-0.0007086348197592067,0.3259977102279663,-1.1489618879607697,1.666149918233053,-2.0862533054747523,-1.5713933149920862,2.300908088684082,-0.0006702598184347153,0.040869925171136856,0.03784472495317459,-0.06819275766611099,-7.485294190701097e-05,2.1094119802000932e-05,0.24899697303771973,0.13407528400421143,-9.078812599182129,0.6635612845420837,47.7191276550293,-0.6518760919570923,-3.565244436264038,-1.806592345237732,-0.7214862108230591,0.026107655838131905,-0.013409050181508064,25.5625,26.4375,25.5625,28.625,30.0,30.5625
1.0,-0.8171561537832814,-0.6844599027397191,-1.1330702075794314,-0.03369571811676196,-0.027344290939348932,-0.0772492773266475,-0.5388552884096296,-0.3241369726005437,0.2571200226603061,-3.078586338138526,0.6246724036512674,-0.00019746616043213712,0.0005810255525138673,0.0006539207679758812,-0.03539783376688722,0.0043038313286248705,-0.012724842265798621,-0.0007201739590983683,0.32600975036621094,-1.1488899451545258,1.6662338415728968,-2.0864201984801234,-1.5713813940631312,2.3009324073791504,-0.0006831050268374383,0.04079679772257805,0.03831756114959717,-0.06568121165037155,-7.367096986854449e-05,2.0849780412390828e-05,0.19153612852096558,0.07661445438861847,-9.097966194152832,0.6971306204795837,47.73524856567383,-0.649990439414978,-3.5796821117401123,-1.770878553390503,-0.770145058631897,0.020946115255355835,-0.006016304716467857,25.5625,26.4375,25.5625,28.625,30.0,30.5625
1.0,-0.6665506467096136,-0.5359661875987947,-1.043044925884386,-0.04389491238108574,-0.013292598981931539,-0.07846092271788876,-0.5388520495975969,-0.32411907567493536,0.25704244441184365,-3.078540273848479,0.6246624226025741,-0.0002876739696171076,4.6735461976035354e-05,0.0005147892963169439,-0.036206700850420825,0.003214903110535026,-0.009550111180183151,-0.0007876273070372144,0.32600972056388855,-1.148757354622223,1.666438404713766,-2.0867096386351527,-1.5713813940631312,2.3009324073791504,-0.000748987018596381,0.04258568584918976,0.038979992270469666,-0.07148881256580353,-7.133814506232738e-05,2.0377725377329625e-05,0.2298433631658554,0.15322890877723694,-9.040505409240723,0.7351769208908081,47.71464920043945,-0.6359865665435791,-3.6751809120178223,-1.7652791738510132,-0.7907551527023315,0.018106535077095032,-0.004533302038908005,25.5625,26.4375,25.5625,28.625,30.0,30.5625
1.0,-1.0513749027177688,-1.3097468262400767,-1.1307228047599807,-0.053151470164913985,0.012869063873138992,-0.07822988939850788,-0.5388502110023683,-0.32410804664565174,0.25691114498811973,-3.0784861090034457,0.6247097814793124,-0.0003304943719627101,0.00045088862019291047,0.0006416323197626388,-0.03516067202350827,0.002782586691868548,-0.008269741896015712,-0.0007716577978180866,0.3259737491607666,-1.148674176340439,1.6664860884295862,-2.086769243279928,-1.5714176336871546,2.3009324073791504,-0.0007330438820645213,0.040388356894254684,0.0396265871822834,-0.07128946483135223,-7.022487261565402e-05,2.014960591623094e-05,0.17238251864910126,0.2106897532939911,-9.059659004211426,0.8045620322227478,47.748680114746094,-0.695247232913971,-3.452731132507324,-1.8298454284667969,-0.8159663677215576,0.025744246318936348,-0.011856848374009132,25.5625,26.4375,25.5625,28.625,30.0,30.5625
1.0,-1.1056509934300363,-1.1209566341757125,-1.020348944094473,-0.0633652869424884,0.020674036078757244,-0.072826419124338,-0.5388455371109401,-0.32410125827224406,0.2568356331343297,-3.0785050104191587,0.6246938851698199,-0.0003655255614383761,-9.924237296615706e-05,0.00042088529684393086,-0.036036008263628246,0.0022148472572077913,-0.0066016264544774645,-0.0007197440051745043,0.3259618282318115,-1.1486016672900696,1.6665948073016565,-2.0869389973082484,-1.5713933149920862,2.300908088684082,-0.0006801298004575074,0.0425012968480587,0.03952419385313988,-0.07506208121776581,-7.595716306241229e-05,1.9926554159610532e-05,0.09576806426048279,0.2298433631658554,-9.117119789123535,0.6725152134895325,47.745994567871094,-0.6751013994216919,-3.5227608680725098,-1.7581424713134766,-0.8301284313201904,0.0005469596944749355,-0.011928866617381573,25.5625,26.4375,25.5625,28.625,30.0,30.5625
1.0,-1.6320636900121237,-1.6850557124368968,-1.2200114550536645,-0.05526600734261336,0.018162972929390238,-0.07697492232431292,-0.5388300439914739,-0.3241205129818525,0.2567241944413519,-3.0784771556054187,0.6246116694789347,-0.0005209936532625322,-0.0001995830643615454,0.0004008641123893022,-0.036644271165006306,0.001415819091302952,-0.004245479408897858,-0.0007247708769779346,0.3259977102279663,-1.148469404583313,1.6666906515704554,-2.087059637109274,-1.5713813940631312,2.300896167755127,-0.0007008810061961412,0.043215081095695496,0.040963295847177505,-0.07970290631055832,-8.126109605655074e-05,2.5667550289654173e-06,0.07661445438861847,0.17238251864910126,-9.155426979064941,0.7262282371520996,47.704795837402344,-0.6880171298980713,-3.5882697105407715,-1.838414192199707,-0.8063958883285522,0.022438740357756615,-0.016791244968771935,25.5625,26.4375,25.5625,28.625,30.0,30.5625
1.0,-1.2949264376154883,-1.3974917820759312,-1.220695927414433,-0.06553459680260051,0.03114977369100953,-0.08291828928905977,-0.5388606119243925,-0.3240855112757457,0.25665538645638797,-3.0784524705082674,0.624818212381912,-0.0005134757158070668,-0.0005983248454352051,0.00022190327842290752,-0.03687850680898995,0.00032515008250379434,-0.0010542040575515286,-0.0006573555459680357,0.3259258568286896,-1.1483733516982575,1.6667512098895472,-2.087228914300436,-1.571369473134176,2.3009562492370605,-0.0006341390544548631,0.04411771893501282,0.04127625375986099,-0.0842910036444664,-8.047106530284509e-05,1.6759076970629394e-07,-0.019153613597154617,0.2106897532939911,-9.308656692504883,0.7038487195968628,47.70390319824219,-0.6611602306365967,-3.6491196155548096,-1.8731403350830078,-0.7743362784385681,0.01778685674071312,-0.01933344639837742,25.5625,26.4375,25.5625,28.625,30.0,30.5625
1.0,-1.523109352498944,-2.03227336160907,-1.3834219695873282,-0.059664651443607344,0.029808647715257684,-0.07059778367364819,-0.5388519585403551,-0.3241008574721734,0.25659396798066264,-3.078456939771135,0.6246842565889164,-0.00042397570389591616,-0.0007062058919462861,0.00020001554493983637,-0.036386615843573784,-0.0009108013644616146,0.002574740855699825,-0.000681954727920943,0.3259618282318115,-1.148301587705948,1.6668341795550745,-2.08742155651235,-1.5714176336871546,2.300908088684082,-0.0006572574493475258,0.0434361957013607,0.04198727756738663,-0.0881541520357132,-7.931657455628738e-05,1.0942479811149042e-08,0.05746084079146385,0.24899697303771973,-9.27034854888916,0.7687462568283081,47.711063385009766,-0.6322463750839233,-3.508519172668457,-1.8727855682373047,-0.7359992265701294,0.010853529907763004,-0.011618020944297314,25.5625,26.4375,25.5625,28.625,30.0,30.5625
1.0,-1.9887236193547433,-1.6246502524385624,-1.3967784078718466,-0.05808600997247018,0.019679856523101974,-0.07382791123555227,-0.5388435725351115,-0.3241251056322763,0.2565281735918937,-3.0785075440722856,0.6246570285812373,-0.0004186719876829013,-0.001311184254058705,-4.0890149348046974e-05,-0.03679980505326208,-0.002572025750652178,0.007435469770908666,-0.000630628004039013,0.3259977400302887,-1.1482171577266236,1.6669071356402796,-2.0876041851439417,-1.5713813940631312,2.3009204864501953,-0.0006032687961123884,0.044833213090896606,0.04259554296731949,-0.09529619663953781,-7.817029108991846e-05,7.144657088176132e-10,0.019153613597154617,0.24899697303771973,-9.308655738830566,0.7530794739723206,47.76032257080078,-0.674889326095581,-3.547168254852295,-1.9554897546768188,-0.6737109422683716,0.01102848444133997,-0.009409855119884014,25.5625,26.4375,25.5625,28.625,30.0,30.5625
1.0,-1.4734994276199738,-1.4590385353268174,-1.5818606398282056,-0.06305138343435857,0.03548639635417823,-0.08334499794138847,-0.5388542592666795,-0.32411062371695787,0.2564315709818209,-3.0784604006890577,0.6247240823169753,-0.0004322596712012265,-0.0013242560116623686,-7.570746131504505e-05,-0.03674310126784465,-0.002951501305519593,0.008546895818749376,-0.0005845618976161636,0.325973778963089,-1.1480972331813355,1.6670025030719202,-2.087795396844381,-1.5714057127581995,2.3009443283081055,-0.0005566273466683924,0.04474228620529175,0.042914632707834244,-0.09669878333806992,-7.70548649597913e-05,4.6649503704365713e-11,0.0,0.19153612852096558,-9.366117477416992,0.7530794739723206,47.73883056640625,-0.724571168422699,-3.6219000816345215,-1.8723912239074707,-0.6428985595703125,0.017551645636558533,-0.024855315685272217,25.5625,26.4375,25.5625,28.625,30.0,30.5625
1.0,-1.613318572889882,-0.9878388674284188,-1.3749840989956483,-0.07286805678447997,0.027046516751858256,-0.07820663604744181,-0.5388449824331107,-0.3241280796998571,0.256356032589333,-3.078536785306538,0.6246822845368694,-0.00040398223262200244,-0.0019045202226513102,-0.00029763174106585286,-0.03700869579853979,-0.004421744590341769,0.012848491588831551,-0.000549200074750231,0.3259977698326111,-1.1480128926089783,1.6671112219439905,-2.0880376301207484,-1.571357552205221,2.3009324073791504,-0.0005189759540371597,0.04595689848065376,0.04319443553686142,-0.1027391105890274,-7.597079820698127e-05,3.0458793039839227e-12,0.019153613597154617,0.2106897532939911,-9.366117477416992,0.6769921779632568,47.723602294921875,-0.6988741159439087,-3.6095361709594727,-1.856208086013794,-0.5965499877929688,0.010385027155280113,-0.0282804723829031,25.5625,26.4375,25.5625,28.625,30.0,30.5625
1.0,-1.3131575358731538,-1.0518244825812224,-1.5257804091874931,-0.06060291945835518,0.0320027340512381,-0.07897181229070026,-0.5388782255212625,-0.3241148385323371,0.25630719807934454,-3.0785608406308134,0.624725651554008,-0.00028105614659250155,-0.0019289928025043996,-0.000339128595223578,-0.03724172820166674,-0.004195056059530865,0.012178239994464836,-0.0004978830254525553,0.3259618878364563,-1.14791692913089,1.6671341101275843,-2.0882402859129847,-1.571369473134176,2.3009204864501953,-0.0004678716359194368,0.04639055207371712,0.04301758483052254,-0.10228836536407471,-7.491686847060919e-05,1.9887416095442506e-13,-0.019153613597154617,0.1149216815829277,-9.385271072387695,0.6725152134895325,47.702110290527344,-0.7373833060264587,-3.6304683685302734,-1.85957932472229,-0.5382852554321289,0.015031963586807251,-0.006680898834019899,25.5625,26.4375,25.5625,28.625,30.0,30.5625
1.0,-1.1633943480038524,-0.4286954659030776,-1.3301214560709456,-0.0655704058452261,0.025941019867608033,-0.08345243239041132,-0.5388688919797028,-0.32410510329592085,0.2562044549387896,-3.0785409806130857,0.624779191230761,-0.0003426579231656013,-0.0015900089746050644,-0.00025246377182253104,-0.03770965747000913,-0.003650025335879641,0.010575268010720175,-0.00045341595507852894,0.32594987750053406,-1.1478209358504792,1.6672795454608362,-2.0884434185423792,-1.571357552205221,2.3009443283081055,-0.0004238231049384922,0.046402689069509506,0.043885231018066406,-0.1014750525355339,-7.389175152638927e-05,1.298506251525347e-14,0.038307227194309235,0.09576806426048279,-9.385271072387695,0.6792280077934265,47.74061965942383,-0.7863430976867676,-3.6898810863494873,-1.873377799987793,-0.5483242273330688,0.015945443883538246,-0.007600340060889721,25.5625,26.4375,25.5625,28.625,30.0,30.5625
1.0,-0.853287567663499,-0.5936866993755956,-1.4013416524926479,-0.04110953660105028,0.013581465540426762,-0.08100337400698868,-0.5388610711811455,-0.32411423665096606,0.2561380919896028,-3.078535473419514,0.6247396819647765,-0.0002675200391793444,-0.0009179590413850247,2.04115557271772e-06,-0.03926674173762201,-0.001985909196541437,0.005680282101195895,-0.0004918947284912797,0.32597383856773376,-1.1477486950210114,1.667375389729635,-2.0886460743346156,-1.5713933149920862,2.3009443283081055,-0.0004636597295757383,0.04720933362841606,0.04573114961385727,-0.09895749390125275,-7.289434870472178e-05,8.478317522631203e-16,0.019153613597154617,0.13407529890537262,-9.366117477416992,0.7844129800796509,47.74061965942383,-0.7620759010314941,-3.634526014328003,-1.9397518634796143,-0.5558347105979919,7.251906208693981e-05,-0.010570144280791283,25.5625,26.4375,25.5625,28.625,30.0,30.5625
1.0,-0.8924332221625826,-0.23082174499280325,-1.484813929296749,-0.028820871273397757,-0.006516117125228122,-0.07396099144382094,-0.5388677320887134,-0.32412678795767685,0.25606516280774644,-3.078571735837917,0.6247279457553186,-0.0002533146697794677,-0.0015004985772901851,-0.0001788141221021203,-0.03854897583310781,-0.0017438770447308631,0.004964613465508696,-0.0005177908750961223,0.325985848903656,-1.1476407212070008,1.6674335638629358,-2.088836809197897,-1.571369473134176,2.3009443283081055,-0.0004906522226519883,0.047689832746982574,0.04267781227827072,-0.09562917053699493,-7.192340854089707e-05,5.535735188560462e-17,0.0,0.09576806426048279,-9.404424667358398,0.7127973437309265,47.70838165283203,-0.7517659068107605,-3.680150032043457,-1.804038643836975,-0.5648456811904907,0.0048324549570679665,-0.01152802724391222,25.5625,26.4375,25.5625,28.625,30.0,30.5625
1.0,0.2484490311326229,0.5166874167258373,-1.490140558431543,-0.03033938584569829,0.008654029736830385,-0.09213359956972682,-0.5388888872703396,-0.32411062143434033,0.255979484381765,-3.078580412640515,0.6247102629531055,-0.00024087864896379279,-0.0012690522469090667,-0.00011833606762550699,-0.03926039888157978,-0.00071019892641303,0.0019232863880067137,-0.0004885311880520036,0.32594987750053406,-1.1475203794291993,1.6675060431109827,-2.089038988152975,-1.571369473134176,2.300896167755127,-0.0004624859138857573,0.04833829402923584,0.042850323021411896,-0.09323795139789581,-7.097802154021338e-05,3.614439719215278e-18,0.07661445438861847,0.07661445438861847,-9.327810287475586,0.7284641265869141,47.72270965576172,-0.7463987469673157,-3.6857070922851562,-1.6683142185211182,-0.6016926169395447,0.0037621231749653816,-0.016153160482645035,25.5625,26.4375,25.5625,28.625,30.0,30.5625
1.0,-0.09547098647914481,0.40642372214660216,-1.5392544212975183,-0.019632696519996367,-0.010647078918032762,-0.08254047951934217,-0.5388849487532958,-0.32411049899469374,0.2558837875364715,-3.0785687788859466,0.6247271534847691,-0.00030047807747659905,-0.0007545414407452784,7.561083497711381e-05,-0.04040028268106851,0.0006722398483316898,-0.0021423323474175117,-0.0005164191120159388,0.32594984769821167,-1.1474125248244782,1.6676133314715784,-2.089217325250143,-1.571357552205221,2.300908088684082,-0.0004916245816275477,0.04893279820680618,0.044048506766557693,-0.09073641151189804,-7.005721272435039e-05,2.359970844538223e-19,0.09576806426048279,-0.09576806426048279,-9.308656692504883,0.7665104269981384,47.72629165649414,-0.7329070568084717,-3.733548641204834,-1.736388087272644,-0.6378183364868164,0.01732660084962845,-0.015447774901986122,25.5625,26.4375,25.5625,28.625,30.0,30.5625
1.0,-0.35714267289949103,0.0768580500315609,-1.434451195959849,-0.021532426492546122,-0.004015488522159914,-0.08337711154079645,-0.5389010336363769,-0.3241224892298474,0.25583286735391275,-3.0785973632766463,0.6247138287633168,-0.0001958860556112449,-0.0005418379389967759,0.00023232472235722084,-0.04099086734082896,0.0016498803856258315,-0.005017708339458174,-0.0006453560180655307,0.3259618282318115,-1.1473163825324555,1.667638127003805,-2.0894085369505824,-1.571369473134176,2.300908088684082,-0.0006216303445398808,0.04934815689921379,0.04426736757159233,-0.0883335992693901,-6.915997073519975e-05,1.5408922399029536e-20,0.1149216815829277,-0.13407529890537262,-9.385271072387695,0.7195101380348206,47.71375274658203,-0.7946480512619019,-3.7007710933685303,-1.7365999221801758,-0.6684545278549194,0.009090272709727287,-0.021985305473208427,25.5625,26.4375,25.5625,28.625,30.0,30.5625
1.0,-0.5857539277943753,0.20324820699728724,-1.2446039649319216,-0.0269018971593121,-0.001834954127699396,-0.08306838003518748,-0.5388841262477718,-0.32411015513317165,0.2557037320917752,-3.078517273561847,0.6247940997490536,-0.00040206945023782723,-0.00042461790134237917,0.0003662654641955511,-0.041307747065903955,0.002852993892252345,-0.008556758487350552,-0.0007888944683554333,0.32596179842948914,-1.1471244257739563,1.6678531805621546,-2.0897542438902796,-1.5713933149920862,2.300896167755127,-0.0007668197504244745,0.04972357675433159,0.04354703426361084,-0.08425072580575943,-6.743268750142306e-05,6.569065638828827e-23,0.2298433631658554,-0.24899697303771973,-9.27034854888916,0.6859408020973206,47.7191276550293,-0.7594595551490784,-3.674818515777588,-1.698166847229004,-0.793231725692749,-0.0022110245190560818,-0.02270510420203209,25.5625,26.4375,25.5625,28.625,30.0,30.5625
1.0,-0.5734606898411634,0.14417740042412175,-1.3152929062486043,-0.02166904120908714,-0.005503852625555779,-0.07991610216054773,-0.5388893773269489,-0.3241080925830944,0.25555655764160984,-3.0785063441223883,0.6247539411529648,-0.000342435306698668,-0.000687025535070821,0.0004648723284141913,-0.040979639505173054,0.002510064626605858,-0.007552136300238153,-0.0010787858129201965,0.32594966888427734,-1.1470164817622681,1.6679609457599085,-2.089909692803854,-1.5713933149920862,2.3009324073791504,-0.0010564371477812529,0.04962905868887901,0.04304204508662224,-0.08471275866031647,-6.660107464995235e-05,4.28913022170391e-24,0.24899697303771973,-0.2298433631658554,-9.289502143859863,0.7553206086158752,47.718231201171875,-0.7706542015075684,-3.5937376022338867,-1.5637359619140625,-0.8135188817977905,0.004766787402331829,-0.008227585814893246,25.5625,26.4375,25.5625,28.625,30.0,30.5625
1.0,-0.5804658380533408,0.4569754713378913,-1.1129002069389138,-0.032567924749170925,-0.0034878242159129425,-0.08190168491068722,-0.538896962239342,-0.3241041334883528,0.2554724078112986,-3.078509385976018,0.6247929813242703,-0.00035150956500660635,-0.0004055212834516189,0.000637651224888942,-0.04120990950826938,0.002301900081281733,-0.006941207517979176,-0.0011981767853140063,0.3259376883506775,-1.1469086867621918,1.6680453459369105,-2.090102335015768,-1.5713813940631312,2.3009443283081055,-0.001175188459455967,0.04916728660464287,0.04461108520627022,-0.08646544814109802,-6.578963802894577e-05,2.800495656579853e-25,0.19153612852096558,-0.1149216815829277,-9.232041358947754,0.7642692923545837,47.7218132019043,-0.7076301574707031,-3.67372989654541,-1.62897527217865,-0.8566981554031372,0.01266312226653099,-0.019052691757678986,25.5625,26.4375,25.5625,28.625,30.0,30.5625
1.0,-0.6509852150695921,-0.38184136639768085,-1.3515884191069258,-0.03165216260461593,0.006753964633507539,-0.0766813125245452,-0.5388836020290448,-0.32411133556022387,0.2554195653440313,-3.0784832057820686,0.6247683374820113,-0.00032120993626596106,-0.0004974677092935094,0.0006468499624925066,-0.04024445989280731,0.0009525179928416313,-0.002947810290721359,-0.0012610959582534929,0.3259616494178772,-1.1468612414649506,1.6681292692767542,-2.0902348957457484,-1.5714176336871546,2.3009562492370605,-0.001236576703377068,0.04783303663134575,0.045031093060970306,-0.08976640552282333,-7.304580503841862e-05,1.8285234952223248e-26,0.2106897532939911,-0.07661445438861847,-9.27034854888916,0.6971306204795837,47.704795837402344,-0.7809722423553467,-3.548007011413574,-1.671083927154541,-0.8458594083786011,0.0005586427287198603,-0.020418334752321243,25.5625,26.4375,25.5625,28.625,30.0,30.5625
1.0,-1.0145268733286847,-0.6330305240923861,-1.3741425393989384,-0.04060301247851894,0.01257028402318081,-0.07733473276232619,-0.5388852193865026,-0.32410134920961764,0.25532212741227095,-3.078504176839278,0.624753913831652,-0.0004245163878529399,-0.0010835675730136351,0.0004903830277767142,-0.041540379815805564,0.0005057616255947965,-0.0016512248500504534,-0.0013279093741673715,0.3259376585483551,-1.1467524033835907,1.668237034474508,-2.0904036960997523,-1.571369473134176,2.3009204864501953,-0.0013020673068240285,0.05048108845949173,0.045241307467222214,-0.09399604797363281,-7.474696030840278e-05,1.1938950466228277e-27,0.09576806426048279,-0.07661445438861847,-9.385271072387695,0.7463666796684265,47.742408752441406,-0.7388589382171631,-3.6128110885620117,-1.6268247365951538,-0.8220446705818176,0.0056720818392932415,-0.013612360693514347,25.5625,26.4375,25.5625,28.625,30.0,30.5625
1.0,-1.2368553377277063,-0.9453154193220471,-1.2810910460197966,-0.055859066198161014,0.02423407501808278,-0.08257989596396885,-0.5388904994833458,-0.32410962318447584,0.25525347258614384,-3.0785227017295114,0.6247386504128092,-0.00034749706779423225,-0.0013189125009814562,0.0004094711954953583,-0.04045103717704009,-0.0012080787409043188,0.0033861574651889363,-0.0013288808780942876,0.3259495794773102,-1.1466569167426606,1.6683090368853968,-2.090621133843893,-1.5713813940631312,2.3009204864501953,-0.0013010568218305707,0.049263015389442444,0.04544452205300331,-0.09830214083194733,-7.403625932056457e-05,7.795282098223758e-29,0.07661445438861847,0.07661445438861847,-9.385271072387695,0.7329410910606384,47.71554183959961,-0.7672066688537598,-3.5715677738189697,-1.505195140838623,-0.8105838298797607,0.012230094522237778,-0.020921293646097183,25.5625,26.4375,25.5625,28.625,30.0,30.5625
1.0,-1.4923540159446596,-1.499272893038271,-1.384054395965364,-0.06551776984438215,0.036576875853989166,-0.07527810250197552,-0.5388800319839268,-0.32410348167787156,0.25516729654942816,-3.078461128904848,0.6247643790044872,-0.0004209107224210761,-0.0016412944552718707,0.00032583958692437376,-0.0380149963706775,-0.0047023838715796185,0.013663069939727877,-0.0013735478712923925,0.3259495496749878,-1.1465738874724885,1.6684168020831507,-2.090743680993551,-1.5714057127581995,2.3009443283081055,-0.0013417690061032772,0.04614131152629852,0.04619232192635536,-0.10678297281265259,-7.318714051507413e-05,5.089762269116943e-30,0.1149216815829277,0.19153612852096558,-9.442731857299805,0.7284641265869141,47.72270965576172,-0.7687840461730957,-3.342653274536133,-1.608088493347168,-0.7253412008285522,0.01340226735919714,-0.020571839064359665,25.5625,26.4375,25.5625,28.625,30.0,30.5625
1.0,-1.3385952698727914,-1.8110487556415695,-1.5264000083855902,-0.07147672491497707,0.04908301016245262,-0.08327992658328208,-0.5388876474726769,-0.3240968420874478,0.2550600496149702,-3.078508095949146,0.6247352828685697,-0.0005008707355316368,-0.0018953204967054732,0.00015065880682106107,-0.03904473230232904,-0.005198098517569454,0.015103268419164574,-0.0012379809484658222,0.32592564821243286,-1.1464415949634095,1.6685250441180628,-2.0909606419005335,-1.571345631276266,2.300896167755127,-0.001204840955324471,0.04788919538259506,0.04702705144882202,-0.11088869720697403,-7.234742224682122e-05,3.3232511288565867e-31,0.07661445438861847,0.17238251864910126,-9.442731857299805,0.7127973437309265,47.749576568603516,-0.7483826875686646,-3.375225305557251,-1.5997469425201416,-0.6924322843551636,-0.009488081559538841,-0.010722323320806026,25.5625,26.4375,25.5625,28.625,30.0,30.5625
1.0,-1.7616157561465422,-1.6769782627586933,-1.620937263877965,-0.0843521680934593,0.04352249709710246,-0.07386880310328743,-0.5388903619542835,-0.32409800121957294,0.2549913318092361,-3.078472135604132,0.6247858672998696,-0.0003450344273148183,-0.0025252182155374157,-2.1480299408149116e-05,-0.03873776608387689,-0.006830251180517794,0.019914757686403554,-0.0013037881021851889,0.3259376585483551,-1.1463575822165986,1.6686213652240198,-2.0912138424315394,-1.5714176336871546,2.3009443283081055,-0.0012684505200013518,0.04842301458120346,0.04681064188480377,-0.11628687381744385,-8.04128430900164e-05,2.169845462993242e-32,0.019153613597154617,0.2298433631658554,-9.53849983215332,0.7127973437309265,47.71375274658203,-0.7543741464614868,-3.3212547302246094,-1.5698463916778564,-0.6237803101539612,-0.00015330733731389046,-0.012812245637178421,25.5625,26.4375,25.5625,28.625,30.0,30.5625
1.0,-1.8334565260736666,-1.867662740005926,-1.736627560044694,-0.08487400980336358,0.040504995740566374,-0.07569416593636977,-0.5389081584231245,-0.3240949801867452,0.2549373107970511,-3.0785099268603697,0.6247938412287849,-0.00020474639514528296,-0.002691727853860072,-3.7679372819275956e-05,-0.03970865642998686,-0.00714959744993306,0.020843128512235746,-0.0013668393960528263,0.3259256184101105,-1.14627297342334,1.668680493031637,-2.091454168359274,-1.5714295546161097,2.3009324073791504,-0.0013303933665156364,0.049813106656074524,0.04785366728901863,-0.11970174312591553,-8.0739519034978e-05,1.416754097082e-33,-0.019153613597154617,0.26815059781074524,-9.53849983215332,0.7374180555343628,47.764801025390625,-0.7656874656677246,-3.4031901359558105,-1.6013696193695068,-0.5854588150978088,0.011255096644163132,-0.022202622145414352,25.5625,26.4375,25.5625,28.625,30.0,30.5625
1.0,-1.6271648233336686,-1.7281981498020875,-1.7937413800019202,-0.07795330442624895,0.029663168116016124,-0.06686461824544769,-0.5388882997619155,-0.3241022111676978,0.25483244872845123,-3.0785599558986347,0.6247462608692861,-0.0002862401502240028,-0.002353773556888929,0.00029258134902428146,-0.0395010778334399,-0.007358427484699601,0.021461371333492275,-0.0016992355519405448,0.3259374797344208,-1.1461776357940217,1.6688373724566858,-2.0916816196837367,-1.571369473134176,2.300908088684082,-0.0016623723786324263,0.04857032746076584,0.04932514578104019,-0.12058300524950027,-7.992351311258972e-05,9.250392081677715e-35,-0.019153613597154617,0.3447650372982025,-9.461885452270508,0.7083203792572021,47.749576568603516,-0.7059104442596436,-3.341622829437256,-1.6656221151351929,-0.5482791066169739,0.0073185390792787075,-0.009950639680027962,25.5625,26.4375,25.5625,28.625,30.0,30.5625
1.0,-0.7207794401934856,-0.8059232252461394,-1.648032313345377,-0.07794760431920236,0.023309888572428793,-0.08473869735852183,-0.5389121485153988,-0.3240922582752803,0.2547637688767679,-3.0785524365687844,0.6248603916113015,-0.0001716013913212524,-0.00205057048525804,0.0004330650194883435,-0.03994876695365418,-0.006151732953185029,0.017734547944881433,-0.0017647546812362234,0.32591351866722107,-1.1460695427707215,1.668896500264303,-2.09191956142568,-1.5713933149920862,2.3009562492370605,-0.0017293852288275957,0.04875188693404198,0.04922278970479965,-0.11674542725086212,-2.0310773834353313e-05,6.039844803431717e-36,-0.038307227194309235,0.26815059781074524,-9.385271072387695,0.6904177665710449,47.72270965576172,-0.7184950113296509,-3.1879162788391113,-1.6809821128845215,-0.5727463960647583,0.012724471278488636,-0.013189233839511871,25.5625,26.4375,25.5625,28.625,30.0,30.5625
1.0,-0.5668040841941537,-0.7871775309325709,-1.6642455505754767,-0.054493762755577484,0.007068793545828067,-0.08063952176651479,-0.5389090626804591,-0.3241013181808622,0.2546729345890755,-3.078590870641585,0.6248304435031177,-0.00016144550037183668,-0.002202099772532206,0.0007389528679410032,-0.04127733600069932,-0.0050558920594225305,0.01477601557119666,-0.002300051116070479,0.3259252607822418,-1.145960972910263,1.6690056959735315,-2.092158933679098,-1.571369473134176,2.3009443283081055,-0.0022655813954770565,0.0505564846098423,0.04948047921061516,-0.11565373092889786,-0.00010818942246260121,3.943587051332913e-37,0.05746084079146385,0.2106897532939911,-9.366117477416992,0.7195101380348206,47.70927429199219,-0.6485519409179688,-3.3616814613342285,-1.6064356565475464,-0.5783555507659912,0.0033954062964767218,-0.014376533217728138,25.5625,26.4375,25.5625,28.625,30.0,30.5625
