Tylouw/Master_Thesis_Code/training_data_v2/rect_rod_t0.2/sample_33_session_1.csv
timestamp[s],tcp_force_x[N],tcp_force_y[N],tcp_force_z[N],tcp_force_rx[Nm?],tcp_force_ry[Nm?],tcp_force_rz[Nm?],tcp_pose_x[m],tcp_pose_y[m],tcp_pose_z[m],tcp_pose_rx[rot_vec_x],tcp_pose_ry[rot_vec_y],tcp_pose_rz[rot_vec_z],tcp_velo_x[m/s],tcp_velo_y[m/s],tcp_velo_z[m/s],tcp_velo_rx[rot_vec_x/s],tcp_velo_ry[rot_vec_y/s],tcp_velo_rz[rot_vec_z/s],q1[rad],q2[rad],q3[rad],q4[rad],q5[rad],q6[rad],qd1[rad/s],qd2[rad/s],qd3[rad/s],qd4[rad/s],qd5[rad/s],qd6[rad/s],tool_acc_x,tool_acc_y,tool_acc_z,current_of_whole_robot[A],voltage_of_whole_robot[V],current_J1[A],current_J2[A],current_J3[A],current_J4[A],current_J5[A],current_J6[A],temp_J1[C],temp_J2[C],temp_J3[C],temp_J4[C],temp_J5[C],temp_J6[C]
5.940001e-07,0.35658297,-0.15489928,1.0537084,-0.015399636,0.012868724,-0.022293642,-0.38932425,-0.3687209,0.060010303,-3.0787215,0.6249319,0.00016904474,0.00033487243,0.000211739,-0.0006241864,0.0008527897,-0.0017751365,-2.5758295e-06,0.50503284,-1.3816674,1.9042224,-2.0919034,-1.5708297,2.4800253,-0.0001152991,0.0010214271,-8.242235e-07,0.00094509975,0.000114756185,-0.0001128268,0.076614454,0.05746084,-8.561666,0.7665104,47.70211,-0.24264292,-3.1544623,-2.3432243,-0.2003875,0.0817557,0.011803334,28.5,29.8125,28.875,32.6875,35.0625,36.0625
0.002052614,0.7861478,0.13105717,1.0497622,-0.01652858,0.02808205,-0.022675892,-0.38933906,-0.36872298,0.06000695,-3.0787039,0.62488997,0.00020823782,-0.0011659266,-0.00062367786,-0.0016150277,-0.002180202,0.003678184,1.2168232e-05,0.50504476,-1.381631,1.904188,-2.0919077,-1.5708655,2.4800134,-0.00011241888,0.0023649777,0.0030865727,-0.009725859,0.00011236827,-0.00012460366,0.019153614,0.19153613,-8.599973,0.75084364,47.71286,-0.18672328,-3.031797,-2.3220408,-0.14546631,0.093276665,0.00781932,28.5,29.8125,28.875,32.6875,35.0625,36.0625
0.00405201,0.18136685,-0.115635015,0.9512696,-0.01621594,0.016132541,-0.017413707,-0.38935587,-0.3687252,0.060022965,-3.0787385,0.6249161,0.0002800649,-0.0019079777,-0.0010370963,-0.0014010567,-0.003291506,0.0056809965,1.5055194e-05,0.50503284,-1.381655,1.904188,-2.091944,-1.5708655,2.4800134,-0.00010967892,0.0026134308,0.0028225298,-0.012000734,0.00011007757,-0.00012435067,0.11492168,0.19153613,-8.714894,0.6971306,47.701214,-0.14398807,-3.3383458,-2.5705445,-0.04531615,0.08622897,0.001231054,28.5,29.8125,28.875,32.6875,35.0625,36.0625
0.006052209,0.3030527,0.022744896,1.0103116,0.0035776934,-0.0027643356,-0.008849634,-0.38933918,-0.3687248,0.059991226,-3.078714,0.62496847,0.00019695211,-0.0008951604,-0.00047454954,-0.0009849198,-0.0014827646,0.0024364274,1.5419351e-05,0.50503284,-1.3816192,1.9042228,-2.0919654,-1.5708417,2.4800491,-0.000107069216,0.0017371753,0.0015897925,-0.00617707,0.000107878484,-0.0001223615,0.095768064,0.24899697,-8.676587,0.7351769,47.711964,-0.18287973,-3.3311467,-2.5753975,-0.071662694,0.08758622,0.020646786,28.5,29.8125,28.875,32.6875,35.0625,36.0625
0.008052108,1.2538322,1.1674578,0.5495484,0.027728511,-0.010866299,-0.029971747,-0.3893336,-0.3687164,0.059996042,-3.0787272,0.62495255,0.00015657324,-0.00017347865,-7.350856e-05,-0.00024167496,-0.000533762,0.0007415581,1.5488295e-05,0.50500876,-1.3816438,1.9042352,-2.0919402,-1.5708174,2.4800134,-0.00010458086,0.00015174758,0.00079002924,-0.0018494144,0.00010576559,-0.00012032483,0.019153614,0.24899697,-8.810662,0.75084364,47.701214,-0.14558104,-3.1799386,-2.4503317,-0.08645201,0.09662706,0.0075092623,28.5,29.8125,28.875,32.6875,35.0625,36.0625
0.01005214,1.0806025,1.6050661,0.40336365,0.02152155,-0.011303964,-0.027959019,-0.38932523,-0.3687099,0.059979312,-3.0786748,0.6249225,0.0001098371,-0.0002843053,-0.00012785778,0.0002275431,-0.00038763412,0.00048395834,2.7565197e-06,0.5050208,-1.3816078,1.9042224,-2.0919034,-1.5708417,2.4800134,-0.000115649884,2.0358875e-06,-0.0004927724,-0.00012075354,0.00010373364,-0.00011834742,0.038307227,0.15322891,-9.097966,0.68146914,47.652847,-0.6730337,-2.7874289,-2.881677,-0.12184511,0.07773064,-0.028918367,28.5,29.8125,28.875,32.6875,35.0625,36.0625
0.012052093,0.5330771,0.28360233,0.02374101,-0.0015403104,0.005579526,-0.024851989,-0.38931742,-0.3687065,0.059972007,-3.0786288,0.6249321,0.00011679037,0.00066155306,0.00056755764,-9.347883e-06,0.0015583877,-0.0029952538,-0.0002331399,0.5050447,-1.3815958,1.9042219,-2.09189,-1.5708774,2.4800491,-0.00039460155,2.731403e-08,-0.0009623273,0.0043372624,9.343076e-05,-0.00016167102,0.0,0.038307227,-9.251195,0.6948948,47.67345,-0.8204644,-2.5580378,-3.0819387,-0.15672202,0.06751415,-0.080678806,28.5,29.8125,28.875,32.6875,35.0625,36.0625
0.014052053,0.055406626,-0.6363156,-0.13958307,-0.033112157,0.030427163,-0.029406048,-0.38934577,-0.36871028,0.05998388,-3.0786493,0.62497663,0.00014097118,-0.0028764256,0.0047145532,-0.0064522554,0.0070847766,-0.012984083,-0.004224812,0.5050171,-1.3815787,1.9041747,-2.0918906,-1.5708655,2.4800467,-0.010684724,0.0139514925,-0.0025746403,0.0034127464,8.380888e-05,-0.0064571262,-0.05746084,0.095768064,-9.308657,0.7463667,47.73883,-0.4181573,-3.1922114,-3.1427808,-0.13102551,0.06545235,-0.10120269,28.5,29.8125,28.875,32.6875,35.0625,36.0625
0.016052177,-0.586515,-0.71168655,-0.07321893,-0.062628046,0.050331697,-0.037801724,-0.38931915,-0.36869,0.059945185,-3.078627,0.6248725,5.4886314e-06,-0.005247757,0.0037008459,-0.0038394649,0.004065956,-0.007544375,0.002117716,0.504993,-1.3815552,1.9042324,-2.0918787,-1.5708417,2.4799604,-0.0111963395,0.012509112,-0.0066567343,0.0027151424,8.177108e-05,-0.013309758,-0.22984336,0.17238252,-9.3661175,0.7284641,47.746887,-0.5018716,-3.2552948,-3.1234677,-0.1040667,0.05429537,-0.03464344,28.5,29.8125,28.875,32.6875,35.0625,36.0625
0.018052295,-0.88001317,-0.9634528,-0.1665266,-0.06104212,0.07038398,-0.041989285,-0.3893026,-0.36869246,0.059925407,-3.07858,0.6248802,-0.000105765896,-0.0057368055,0.0032193966,-0.0022588728,0.0024563677,-0.0046375687,0.0057217404,0.5050051,-1.3815081,1.9042081,-2.0918186,-1.5708297,2.4799833,-0.010841702,0.010159078,-0.0074325115,0.002517981,8.027855e-05,-0.016559185,-0.38307226,0.22984336,-9.404425,0.7463667,47.72808,-0.6189821,-2.802095,-3.2177248,-0.090045035,0.047672972,-0.008577447,28.5,29.8125,28.875,32.6875,35.0625,36.0625
0.020052167,-1.3724966,-0.36171,-0.49460226,-0.029154267,0.06680695,-0.06179457,-0.38932532,-0.36867204,0.059926253,-3.0785666,0.6249348,-8.1067155e-05,-0.005423605,0.0038454677,-0.0027417026,0.004233919,-0.0078391805,0.006473318,0.50495696,-1.3815076,1.9042081,-2.0918295,-1.5708417,2.479971,-0.011601984,0.011404085,-0.0086222,0.0061242213,7.8869445e-05,-0.018070739,-0.51714754,0.2681506,-9.615114,0.75755644,47.698532,-0.8428407,-2.7465274,-3.4114676,-0.1064804,0.046755858,-0.0060753506,28.5,29.8125,28.875,32.6875,35.0625,36.0625
0.022052173,-1.4625037,-0.1810866,-0.9062079,0.006178951,0.05911501,-0.076846726,-0.38932842,-0.36866432,0.059885826,-3.0785248,0.6247747,-0.00015776562,-0.0072235973,0.0046685124,-0.0022355705,0.0041104015,-0.0076204054,0.0028369513,0.5049559,-1.3814112,1.9041833,-2.0918167,-1.5708655,2.4798753,-0.01467079,0.01228098,-0.011121184,0.0074947537,7.7510806e-05,-0.017502166,-0.51714754,0.2681506,-9.768343,0.7418897,47.690468,-0.8226211,-2.682663,-3.415237,-0.12481879,0.041640032,-0.019134276,28.5,29.8125,28.875,32.6875,35.0625,36.0625
0.02405215,-0.46963772,0.32779145,-0.62970525,-0.0073172315,0.074860685,-0.10179579,-0.38932323,-0.36867645,0.059894424,-3.0785615,0.62482136,-0.00021973901,-0.008406075,0.0046512377,-0.0029917527,0.004409264,-0.0081701,0.00088236906,0.50494367,-1.3814222,1.9041713,-2.0917933,-1.5708054,2.4798875,-0.015749192,0.0155199,-0.013078544,0.006840013,7.61982e-05,-0.016624598,-0.5363012,0.22984336,-9.672575,0.7620334,47.690468,-0.88092625,-2.7625544,-3.3788452,-0.09129016,0.020667538,-0.06926084,28.5,29.8125,28.875,32.6875,35.0625,36.0625
0.026052294,-1.4731618,-0.30316365,-0.67062515,-0.01377955,0.061067827,-0.099695876,-0.38933995,-0.36864617,0.05987957,-3.0784838,0.6247877,-0.00025546816,-0.009785654,0.004958157,-0.0030109095,0.0041992147,-0.007770412,-0.0012538503,0.5049071,-1.3813735,1.9041342,-2.0917337,-1.5708536,2.4798398,-0.017547512,0.017048074,-0.014776915,0.006558096,6.0938604e-05,-0.01628571,-0.7278373,0.05746084,-9.844957,0.7642693,47.72629,-0.8432928,-2.7641184,-3.4020684,-0.08707279,0.024268843,-0.0673354,28.5,29.8125,28.875,32.6875,35.0625,36.0625
0.028051736,-0.99189734,-0.04766223,-0.5979612,-0.033131883,0.097591095,-0.12567595,-0.38933542,-0.3686453,0.05985675,-3.0784786,0.62478656,-0.00032346338,-0.009738621,0.0052878205,-0.0034966897,0.0052098385,-0.009565571,-0.0019449308,0.504895,-1.381337,1.9041456,-2.0917451,-1.5708297,2.4798276,-0.018050043,0.018260652,-0.0154487025,0.008077799,4.6214016e-05,-0.016096829,-0.80445176,0.095768064,-9.80665,0.75084364,47.693153,-0.86364526,-2.8529098,-3.4236279,-0.08005282,-0.003998136,-0.078514636,28.5,29.8125,28.875,32.6875,35.0625,36.0625
0.030052494,-1.792961,-0.1992171,-0.6057029,-0.03554334,0.096399896,-0.13312507,-0.38936913,-0.36862123,0.05984915,-3.0784364,0.62487406,-0.00036765236,-0.010115451,0.005242528,-0.0033769796,0.0055984994,-0.010173534,-0.0029405106,0.50482285,-1.3812886,1.9040974,-2.0917084,-1.5708297,2.4798155,-0.018296339,0.019215614,-0.017191978,0.009586496,-1.2646001e-06,-0.015346752,-0.7852981,0.019153614,-9.80665,0.6926589,47.686886,-0.8965092,-2.785541,-3.451758,-0.10212727,0.005224009,-0.08391451,28.5,29.8125,28.875,32.6875,35.0625,36.0625
0.032051716,-1.3389312,0.241641,-0.5718223,-0.028065816,0.108408436,-0.1516614,-0.3893989,-0.36863676,0.059860364,-3.0785012,0.6248503,-0.0003471402,-0.011081057,0.0056186705,-0.0025899645,0.005042125,-0.009079804,-0.0052577704,0.50479853,-1.3812649,1.9040493,-2.0917323,-1.5707935,2.479768,-0.019804204,0.01852449,-0.018296605,0.010156648,-4.35647e-05,-0.014536997,-0.8236054,-0.05746084,-9.864111,0.7486078,47.71465,-0.95234215,-2.7500973,-3.4321146,-0.11743289,-0.0053623067,-0.10424327,28.5,29.8125,28.875,32.6875,35.0625,36.0625
0.03405215,-1.531552,0.14227112,-0.7639727,0.0033214495,0.093979456,-0.1479428,-0.3894486,-0.36861524,0.059864555,-3.0784593,0.62491924,-0.00031028592,-0.012253176,0.005422432,-0.0024105064,0.004655755,-0.008347588,-0.006630582,0.5047384,-1.3812163,1.9039768,-2.0917084,-1.5708297,2.4797564,-0.020555971,0.020025969,-0.02043746,0.0099679055,-6.495534e-05,-0.013914781,-0.8236054,-0.038307227,-9.691729,0.7105615,47.704796,-0.9587517,-2.8383527,-3.4056873,-0.100288674,0.0020958392,-0.1349244,28.5,29.8125,28.875,32.6875,35.0625,36.0625
0.036052324,-1.0966842,0.39163962,-0.7330176,0.02174985,0.084665276,-0.160594,-0.38943568,-0.36857948,0.059829503,-3.0783648,0.6249959,-0.00045231706,-0.013380499,0.0052003986,-0.002209865,0.0040240292,-0.007217431,-0.0069293077,0.5046903,-1.3811799,1.9040002,-2.0916493,-1.5708297,2.479768,-0.021237047,0.021195032,-0.022092348,0.009158957,-6.6258806e-05,-0.014296175,-0.63206923,-0.19153613,-9.749189,0.78888994,47.711063,-0.9367841,-2.6865506,-3.474864,-0.07488653,-0.008564208,-0.13596706,28.5,29.8125,28.875,32.6875,35.0625,36.0625
0.038052086,-0.7935296,0.036009625,-0.78271776,0.028332585,0.067099854,-0.16383179,-0.38950157,-0.3686006,0.05984904,-3.0784523,0.62497634,-0.00038992777,-0.015137867,0.005621125,-0.0015206106,0.0030714646,-0.0054628723,-0.008737291,0.5046416,-1.3811197,1.9038929,-2.0916855,-1.5707935,2.479696,-0.023572983,0.02139093,-0.023780158,0.008654993,-8.5033134e-05,-0.014823325,-0.4213795,-0.095768064,-9.768343,0.7239871,47.695843,-0.8667383,-2.713832,-3.3912978,-0.071645185,-0.035442684,-0.18483645,28.5,29.8125,28.875,32.6875,35.0625,36.0625
0.040052146,-0.99788547,-0.09999901,-0.5778517,0.01893166,0.046364974,-0.17275262,-0.389552,-0.36858603,0.05986954,-3.0784338,0.6250876,-0.0002940907,-0.016291173,0.0064928457,-0.001576723,0.0035316122,-0.0049385866,-0.00910074,0.50459284,-1.3811076,1.9038318,-2.0916855,-1.5708302,2.4797192,-0.025704894,0.021976499,-0.024269758,0.008324169,-0.0007433609,-0.016590258,-0.5746084,0.019153614,-9.672575,0.7172743,47.684196,-0.8589269,-2.7077618,-3.4724667,-0.06281412,-0.032279134,-0.16109046,28.5,29.8125,28.875,32.6875,35.0625,36.0625
0.042052258,-0.5908506,-0.3855473,-0.5845703,0.011604904,0.04823758,-0.17755796,-0.38957965,-0.3685496,0.059857383,-3.0783734,0.6251327,-0.00032789435,-0.017555404,0.006950784,-0.0013755355,0.0048126,-0.004035212,-0.008908529,0.5045208,-1.381071,1.903808,-2.0916493,-1.5708545,2.479683,-0.026681138,0.02325623,-0.026393779,0.009001945,-0.0023062103,-0.01775474,-0.34476504,0.019153614,-9.615114,0.7329411,47.70838,-0.8246201,-2.712519,-3.4198484,-0.05504311,-0.024393812,-0.17461708,28.5,29.8125,28.875,32.6875,35.0625,36.0625
0.044052117,-1.2155366,-0.6411285,-0.6516565,0.0131745385,0.027816035,-0.18253739,-0.38961455,-0.36854994,0.059848327,-3.0783486,0.6251279,-0.00034458365,-0.018872958,0.007252651,-0.0008765327,0.005693098,-0.0029642242,-0.008819955,0.50449646,-1.3809865,1.9037231,-2.0916245,-1.570867,2.4796588,-0.027612446,0.024244403,-0.0289359,0.010048226,-0.0035988202,-0.018771019,-0.2873042,0.038307227,-9.615114,0.7217513,47.670765,-0.81547964,-2.7475228,-3.3238997,-0.045038864,-0.023032818,-0.17968231,28.5,29.8125,28.875,32.6875,35.0625,36.0625
0.046052247,0.06318929,-0.14095238,-0.5907866,-0.009485726,0.04357627,-0.20926201,-0.38966274,-0.3685526,0.059862927,-3.0783803,0.62509596,-0.00032967413,-0.019302312,0.0076699113,-0.0010053371,0.0061591715,-0.00435763,-0.009502765,0.5044481,-1.3809382,1.9036273,-2.0916002,-1.5708545,2.4795866,-0.02887974,0.025246793,-0.03021972,0.011773761,-0.0033322058,-0.019355588,-0.15322891,0.0,-9.615114,0.7665104,47.71465,-0.85406846,-2.6549037,-3.4235349,-0.044723034,-0.0208939,-0.20459363,28.5,29.8125,28.875,32.6875,35.0625,36.0625
0.04805175,-0.20979992,-0.86799324,-0.62773424,-0.009833465,0.026530609,-0.1895501,-0.38968524,-0.3685238,0.059838537,-3.0783293,0.625201,-0.0004408727,-0.019689035,0.008337955,-0.0012153689,0.006379099,-0.005961105,-0.010083966,0.5043638,-1.380878,1.9036034,-2.091564,-1.5708307,2.4795742,-0.030726999,0.02587876,-0.030825794,0.013255842,-0.0027503183,-0.020622352,-0.11492168,0.038307227,-9.730036,0.784413,47.70211,-0.8722823,-2.735202,-3.385058,-0.07783227,-0.02333815,-0.21752536,28.5,29.8125,28.875,32.6875,35.0625,36.0625
0.050051857,-0.12738268,-0.9070026,-0.6211369,-0.016340222,0.013331005,-0.19377905,-0.38971642,-0.3684919,0.059823018,-3.0782802,0.6251897,-0.00044765975,-0.020648906,0.008684812,-0.00087936956,0.005661745,-0.005801287,-0.010114016,0.5043032,-1.3808299,1.9035791,-2.0915515,-1.5708665,2.479513,-0.03254726,0.026106829,-0.031954348,0.013666564,-0.002203164,-0.022413103,0.019153614,0.11492168,-9.691729,0.7933669,47.687782,-0.7576368,-2.611443,-3.4764476,-0.056742176,-0.041385323,-0.2245173,28.5,29.8125,28.875,32.6875,35.0625,36.0625
0.052051622,0.23314978,-0.74991685,-0.526736,-0.019155387,0.007128266,-0.18889718,-0.389785,-0.36848,0.059828058,-3.078296,0.62519205,-0.00041885723,-0.022174418,0.008394339,-8.529421e-05,0.004831109,-0.004436126,-0.008846285,0.50421906,-1.3807573,1.9034818,-2.091551,-1.5708665,2.4794283,-0.03351711,0.02710522,-0.035059292,0.014175759,-0.0021422396,-0.024649488,0.0,0.24899697,-9.557653,0.8112748,47.711964,-0.80167586,-2.6149707,-3.3553467,-0.07329338,-0.047987074,-0.20532292,28.5,29.8125,28.875,32.6875,35.0625,36.0625
0.054052472,0.6362252,-0.28069496,-0.33481798,-0.030064104,0.023000533,-0.18747514,-0.38982457,-0.36845893,0.059834134,-3.0782661,0.6253391,-0.00041872886,-0.02354177,0.008916222,0.00033698374,0.004801221,-0.0034822088,-0.008885048,0.50414664,-1.3807333,1.9034342,-2.0915277,-1.5708665,2.4794514,-0.035395518,0.027587814,-0.03665023,0.01443557,-0.002581091,-0.026487572,0.019153614,0.28730422,-9.442732,0.7620334,47.711964,-0.7233715,-2.5814662,-3.295937,-0.06836094,-0.056902885,-0.2172246,28.5,29.8125,28.875,32.6875,35.0625,36.0625
0.05605259,0.17210561,-0.21964714,-0.3277684,-0.032683384,0.025093712,-0.19193183,-0.38988203,-0.36843246,0.05986409,-3.0782475,0.6252775,-0.00032835032,-0.02450801,0.009801026,0.00025054291,0.006009017,-0.0031485665,-0.00888624,0.50408626,-1.380721,1.9033378,-2.0914676,-1.570927,2.479355,-0.03702173,0.028298104,-0.037358854,0.0147274835,-0.0038011298,-0.028109914,-0.05746084,0.40222588,-9.500193,0.7978386,47.70032,-0.6576027,-2.5361466,-3.3711126,-0.07532114,-0.04217413,-0.21197969,28.5,29.8125,28.875,32.6875,35.0625,36.0625
0.05805198,0.38098258,-0.668561,-0.39061037,-0.02797336,0.043608256,-0.18766794,-0.38991067,-0.36843517,0.05985459,-3.078251,0.6253736,-0.00043301441,-0.02488456,0.009205546,0.00055326696,0.0060595768,-0.0024542355,-0.007354479,0.50402653,-1.3806486,1.9032658,-2.0914319,-1.570867,2.4793549,-0.036128845,0.029177038,-0.039167993,0.015076885,-0.0041855467,-0.028747056,-0.038307227,0.34476504,-9.461885,0.7172743,47.711063,-0.7984529,-2.5494068,-3.3919244,-0.09350568,-0.038698502,-0.23087116,28.5,29.8125,28.875,32.6875,35.0625,36.0625
0.060051754,-0.55145127,-0.8935487,-0.43699312,-0.031201147,0.023859143,-0.17766075,-0.38997948,-0.36840722,0.059865464,-3.078228,0.6253884,-0.00041057132,-0.025618345,0.009222233,0.0005156645,0.0056732898,-0.002971933,-0.0071783285,0.5039304,-1.380588,1.9031585,-2.0913832,-1.5708913,2.479271,-0.037202097,0.030439233,-0.0406962,0.015606228,-0.003600563,-0.029996844,0.038307227,0.3256114,-9.461885,0.7553206,47.691364,-0.82953835,-2.5139353,-3.3906472,-0.09033696,-0.056404587,-0.23673066,28.5,29.8125,28.875,32.6875,35.0625,36.0625
0.062052567,0.35340595,-0.7378268,-0.25611418,-0.039543908,0.042730164,-0.18366514,-0.39004222,-0.36838314,0.059848722,-3.0782037,0.62538314,-0.00040053163,-0.026982177,0.009685843,0.0008450805,0.004865818,-0.0024182678,-0.008465372,0.5038459,-1.3804919,1.9030856,-2.0913951,-1.5709146,2.4791863,-0.039521564,0.030950064,-0.042043652,0.015565322,-0.0031650981,-0.031029465,-0.019153614,0.2681506,-9.385271,0.76874626,47.689575,-0.811136,-2.528788,-3.3550127,-0.10282965,-0.061701633,-0.24854395,28.5,29.8125,28.875,32.6875,35.0625,36.0625
0.0640526,-0.30825785,-0.7685254,-0.2604222,-0.028178817,0.026631441,-0.17582704,-0.3900922,-0.36840516,0.059880164,-3.078271,0.6253394,-0.0003531114,-0.02849797,0.009750122,0.0011216848,0.004408046,-0.0011289079,-0.008970955,0.5038214,-1.3804553,1.9029654,-2.0913718,-1.5708908,2.479126,-0.040898908,0.03222686,-0.044041548,0.0149375945,-0.0033911453,-0.0318999,-0.095768064,0.17238252,-9.385271,0.779936,47.703903,-0.7430385,-2.4773288,-3.3511493,-0.103406996,-0.074124455,-0.23342422,28.5,29.8125,28.875,32.6875,35.0625,36.0625
0.06605222,-0.5275272,-0.75297326,-0.21060772,-0.0143002365,0.026714114,-0.17016049,-0.3901546,-0.3683613,0.059867445,-3.07821,0.6254415,-0.0004245794,-0.029360455,0.009656972,0.0013336856,0.004372587,-0.00013387251,-0.008565379,0.5036896,-1.3803709,1.902881,-2.0913117,-1.5708913,2.4790657,-0.041256513,0.03307922,-0.04546193,0.014618111,-0.0038469227,-0.03266123,-0.17238252,0.24899697,-9.404425,0.7396539,47.66987,-0.79254895,-2.5232425,-3.3382373,-0.100305475,-0.07889094,-0.2824437,28.5,29.8125,28.875,32.6875,35.0625,36.0625
0.06805241,-0.63084716,-0.08141869,-0.20734313,-0.01711304,0.03608056,-0.17765243,-0.39019266,-0.3683493,0.059870403,-3.0782092,0.6253646,-0.00042706195,-0.030244503,0.010148703,0.0012492466,0.0048695784,4.400534e-05,-0.0085227555,0.50364107,-1.3803225,1.902809,-2.0912764,-1.5709027,2.4789693,-0.042578313,0.034009587,-0.046389874,0.014700842,-0.0043710996,-0.034024045,-0.17238252,0.19153613,-9.404425,0.73069996,47.705692,-0.81020486,-2.482449,-3.295662,-0.10474047,-0.08221432,-0.2894072,28.5,29.8125,28.875,32.6875,35.0625,36.0625
0.070052356,-0.187568,0.28250447,0.02776241,-0.010564167,0.061153747,-0.18510912,-0.39027438,-0.3683329,0.059893537,-3.0782,0.62547696,-0.00037153825,-0.031433925,0.010346049,0.0017876426,0.005228539,0.0012381404,-0.008974184,0.50354517,-1.3802623,1.9026769,-2.0912402,-1.5709156,2.4789448,-0.04345465,0.034630544,-0.048488304,0.015307949,-0.0052640983,-0.034446467,-0.19153613,0.17238252,-9.346964,0.7620334,47.684196,-0.74997103,-2.5115924,-3.3152764,-0.09216003,-0.053479537,-0.30272427,28.5,29.8125,28.875,32.6875,35.0625,36.0625
0.07205242,-0.43071052,0.3637344,0.10720285,-0.0024796014,0.06828793,-0.18581367,-0.39032423,-0.36829886,0.059867103,-3.07815,0.6255626,-0.00040210894,-0.03258313,0.010807889,0.0021907354,0.0053119836,0.0019754844,-0.008808599,0.50344884,-1.380178,1.9026402,-2.091252,-1.5709275,2.4789083,-0.045027662,0.03501886,-0.049980797,0.015806807,-0.005697301,-0.0361834,-0.24899697,0.19153613,-9.251195,0.72622824,47.705692,-0.8439312,-2.471582,-3.2978816,-0.094616726,-0.071162365,-0.30355838,28.5,29.8125,28.875,32.6875,35.0625,36.0625
0.074054256,-0.2655363,0.6093164,0.17424408,-0.011664233,0.07189752,-0.17902581,-0.39040515,-0.36830366,0.059912674,-3.0782127,0.6254776,-0.00029170327,-0.03294663,0.010795055,0.0019747955,0.00565934,0.0013856841,-0.0069374857,0.5033889,-1.3801416,1.9024853,-2.0912158,-1.5709394,2.4787874,-0.045325555,0.036299065,-0.05112864,0.016357433,-0.0057163113,-0.038352225,-0.30645782,0.15322891,-9.270349,0.7642693,47.72719,-0.82627547,-2.4156687,-3.2910423,-0.11626534,-0.060502574,-0.30650577,28.5,29.8125,28.875,32.6875,35.0625,36.0625
0.076052405,-0.4007663,0.39795545,0.13844652,-0.0091451015,0.064999916,-0.18039387,-0.3904788,-0.36829314,0.059903316,-3.0782237,0.62555856,-0.00033060345,-0.034103695,0.0121497745,0.0010418426,0.0067913537,-0.00014001885,-0.008955024,0.5032799,-1.3800325,1.9023775,-2.0912158,-1.5709032,2.4787276,-0.048514783,0.03839844,-0.051536035,0.016549435,-0.0059733065,-0.039522942,-0.40222588,0.0,-9.32781,0.800085,47.721813,-0.7770903,-2.4676628,-3.360106,-0.12035826,-0.054866984,-0.30732584,28.5,29.8125,28.875,32.6875,35.0625,36.0625
0.078052245,-0.13506049,0.3376545,0.13938929,-0.007301179,0.07343519,-0.17669895,-0.3905173,-0.3682689,0.05990095,-3.0781946,0.62555164,-0.00041368627,-0.03554989,0.011457277,0.0018973768,0.005871956,0.0009021173,-0.009605494,0.5031961,-1.379972,1.9022921,-2.0911314,-1.5708917,2.4786432,-0.048876785,0.03990684,-0.055523355,0.017670965,-0.0056789853,-0.03923296,-0.4213795,-0.019153614,-9.3661175,0.75755644,47.699425,-0.7508594,-2.4943416,-3.2914944,-0.13516518,-0.07844469,-0.3419507,28.5,29.8125,28.875,32.6875,35.0625,36.0625
0.080052376,-0.08128574,0.80703825,0.144211,-0.0130701,0.07458298,-0.18519928,-0.39061454,-0.36823234,0.059901055,-3.0781336,0.6256127,-0.0003280367,-0.03532651,0.011091041,0.0015916862,0.006549675,0.0006566224,-0.0051864083,0.50308883,-1.3798636,1.902161,-2.091119,-1.5709637,2.478582,-0.04774517,0.04089,-0.056002144,0.017705888,-0.006156782,-0.04251921,-0.4213795,0.038307227,-9.423578,0.75755644,47.703903,-0.8850516,-2.5118532,-3.1957579,-0.15285124,-0.06471035,-0.32155448,28.5,29.8125,28.875,32.6875,35.0625,36.0625
0.082051866,-0.4311437,0.40983528,0.06135191,0.004906936,0.07442626,-0.1732194,-0.3906807,-0.36821598,0.059916418,-3.0781467,0.62559676,-0.00034048824,-0.03558729,0.012594737,0.0004490803,0.007881901,-0.0017800961,-0.005766344,0.5029919,-1.379803,1.9020408,-2.09106,-1.5709513,2.4784734,-0.050516058,0.042039946,-0.05487822,0.018208493,-0.006147097,-0.044710517,-0.4405331,-0.05746084,-9.346964,0.73741806,47.71823,-0.8064395,-2.462376,-3.4086332,-0.15126333,-0.08079705,-0.32286885,28.5,29.8125,28.875,32.6875,35.0625,36.0625
0.08405166,0.070338026,0.33934686,0.10054964,0.012239624,0.08512305,-0.17741467,-0.39076138,-0.36818892,0.059929617,-3.0781536,0.62563556,-0.00031410973,-0.03753102,0.0128488615,0.0009148921,0.006876286,-0.0007413504,-0.0042596045,0.5028713,-1.3797427,1.901934,-2.0910356,-1.5709513,2.4783762,-0.052976225,0.043360587,-0.057475563,0.01808729,-0.0057740784,-0.048677016,-0.4213795,-0.1340753,-9.32781,0.7933669,47.698532,-0.8041688,-2.4612362,-3.351653,-0.16420406,-0.09651178,-0.29000542,28.5,29.8125,28.875,32.6875,35.0625,36.0625
0.08605279,-0.19778912,0.18943094,-0.043532364,0.012975009,0.07621585,-0.17176273,-0.39080712,-0.368157,0.059900895,-3.078105,0.6256054,-0.00041372838,-0.039904207,0.012654415,0.0019528025,0.0057960376,0.0016051246,-0.0048214616,0.5027749,-1.3796339,1.9018596,-2.090987,-1.5709513,2.4782672,-0.054729007,0.044770494,-0.06152423,0.0181493,-0.005971959,-0.049865212,-0.4405331,-0.1340753,-9.346964,0.7978386,47.71286,-0.6955805,-2.6049082,-3.1768706,-0.16190237,-0.09980051,-0.28080714,28.5,29.8125,28.875,32.6875,35.0625,36.0625
0.08805219,-0.22245646,0.32810128,0.21089393,0.0012827176,0.07249926,-0.17375027,-0.3908845,-0.3681272,0.059893247,-3.0780678,0.6256151,-0.00041942621,-0.038316138,0.012349313,0.0009084782,0.007018283,-0.0010574571,-0.002380038,0.5026679,-1.3795257,1.9017409,-2.0909512,-1.5709757,2.478171,-0.052862745,0.045611784,-0.060352817,0.01905588,-0.005757345,-0.05044111,-0.45968673,0.11492168,-9.385271,0.8179876,47.72002,-0.9071006,-2.3579998,-3.2436001,-0.17246415,-0.109900385,-0.29152232,28.5,29.8125,28.875,32.6875,35.0625,36.0625
0.09005205,-0.3477661,0.08719291,-0.035690296,-0.0011075682,0.07332905,-0.17480774,-0.39097527,-0.36811984,0.05990887,-3.0780973,0.625581,-0.00037803754,-0.039337024,0.013423138,0.00077835476,0.008528931,-0.0017998279,-0.00055985234,0.5025713,-1.3794291,1.9015855,-2.090927,-1.5709761,2.4780495,-0.0550055,0.046764813,-0.06180496,0.020735113,-0.006723726,-0.0544017,-0.40222588,0.05746084,-9.308657,0.7709874,47.716442,-0.93190956,-2.551447,-3.3573537,-0.20686841,-0.100494385,-0.277103,28.5,29.8125,28.875,32.6875,35.0625,36.0625
0.09205224,-1.0199912,0.14761153,-0.26255834,-0.010247103,0.053813882,-0.17420597,-0.3910634,-0.3680651,0.059909206,-3.0780544,0.6256471,-0.00031498197,-0.040611472,0.013937543,0.00071031525,0.009290971,-0.0016415644,0.001725981,0.5024272,-1.3793684,1.901513,-2.090927,-1.5710243,2.4779522,-0.056578726,0.048407268,-0.063705705,0.021219589,-0.0074730664,-0.05825836,-0.3256114,0.038307227,-9.423578,0.77545905,47.655537,-0.85217535,-2.4711776,-3.3177881,-0.22233358,-0.09977494,-0.22592847,28.5,29.8125,28.875,32.6875,35.0625,36.0625
0.09405387,-0.30301705,-0.029061282,-0.09462753,-0.019697977,0.06909613,-0.17412499,-0.39115047,-0.36805618,0.05991663,-3.0780435,0.6256244,-0.00034381886,-0.041362308,0.014007371,0.0011922678,0.009539961,-0.00052302657,0.004315691,0.5023312,-1.3792363,1.9013208,-2.090843,-1.5710243,2.4778435,-0.05690726,0.048569284,-0.065079175,0.021571722,-0.008235617,-0.06117434,-0.30645782,0.095768064,-9.404425,0.7172743,47.74241,-0.8393078,-2.4691467,-3.3157697,-0.23475964,-0.088522516,-0.17826447,28.5,29.8125,28.875,32.6875,35.0625,36.0625
0.096052215,0.022571992,0.009547313,-0.15030351,-0.03350015,0.0780397,-0.19030373,-0.39121193,-0.36802486,0.059899833,-3.0780237,0.62561816,-0.0004694512,-0.04212105,0.01438379,0.00043680888,0.010508434,-0.0013994438,0.005776046,0.50219905,-1.3791274,1.9012135,-2.0907705,-1.5709885,2.47771,-0.0579653,0.050960552,-0.0661839,0.021521553,-0.008671996,-0.06369039,-0.28730422,0.11492168,-9.519346,0.7732232,47.678825,-0.9390236,-2.4517648,-3.3246207,-0.21432675,-0.09762575,-0.14095208,28.5,29.8125,28.875,32.6875,35.0625,36.0625
0.09805192,-0.70187753,-0.40000206,-0.31795532,-0.022984453,0.05721388,-0.17891201,-0.39130163,-0.36799252,0.059892572,-3.07798,0.6256084,-0.00043598804,-0.04301823,0.014734956,1.0533073e-05,0.012070252,-0.0013860902,0.007245084,0.5020912,-1.3790064,1.9010814,-2.0907466,-1.5710367,2.4776018,-0.05851855,0.05309145,-0.06778998,0.021737078,-0.010053282,-0.06570868,-0.17238252,0.17238252,-9.442732,0.75084364,47.705692,-0.9535053,-2.5940294,-3.3896859,-0.24424183,-0.071003936,-0.14304776,28.5,29.8125,28.875,32.6875,35.0625,36.0625
0.10005173,-0.8514255,-0.17687984,-0.26726946,-0.030359983,0.042194407,-0.1850589,-0.39140248,-0.36793736,0.05988388,-3.077922,0.62559485,-0.00042891383,-0.04401178,0.015212741,0.0016042652,0.011703953,0.0011793867,0.007551004,0.501935,-1.3788873,1.9009494,-2.0906985,-1.5710853,2.4774446,-0.05965787,0.050778598,-0.06891177,0.022744533,-0.010970964,-0.06715162,-0.15322891,0.22984336,-9.519346,0.7396539,47.691364,-0.9848528,-2.444779,-3.3611174,-0.265385,-0.06804455,-0.086349025,28.5,29.8125,28.875,32.6875,35.0625,36.0625
0.10205275,-0.5852766,-0.5276421,-0.34918734,-0.031571377,0.035223138,-0.17610073,-0.39149502,-0.36792514,0.05992295,-3.0779545,0.62552494,-0.00030818663,-0.04440241,0.015210139,0.0008825056,0.011962409,-0.00068574055,0.007522252,0.5018511,-1.3788383,1.9007944,-2.0906627,-1.5711216,2.477313,-0.060424782,0.053213008,-0.070317365,0.023469085,-0.010297813,-0.067891076,-0.15322891,0.30645782,-9.481039,0.7284641,47.723602,-0.97357404,-2.3940475,-3.3078117,-0.29458377,-0.06121935,-0.07840779,28.5,29.8125,28.875,32.6875,35.0625,36.0625
0.10405173,0.08084655,-0.8192503,-0.25868362,-0.02611158,0.035871916,-0.17495793,-0.39156857,-0.36789656,0.059902694,-3.0779388,0.62542504,-0.00043486303,-0.04524706,0.015121199,0.00041459952,0.012082538,-0.00093846646,0.0065228054,0.5017192,-1.3786933,1.9006499,-2.0905788,-1.5710968,2.4771209,-0.06105215,0.055467874,-0.071823515,0.023000197,-0.010292287,-0.06751715,-0.095768064,0.28730422,-9.32781,0.7597976,47.678825,-1.0337665,-2.5388906,-3.3661847,-0.28188732,-0.066430576,-0.0596224,28.5,29.8125,28.875,32.6875,35.0625,36.0625
0.10605215,-0.058428694,-0.60027975,-0.4486109,-0.03275413,0.020205548,-0.17100751,-0.3916741,-0.36784863,0.059904814,-3.077882,0.6255296,-0.00041321723,-0.04620686,0.015323747,0.00013714173,0.011907695,-0.0017529649,0.004401282,0.5015629,-1.3785845,1.9005054,-2.090531,-1.5711325,2.4770372,-0.06260598,0.057339516,-0.07351429,0.023443718,-0.009751458,-0.06694958,0.019153614,0.22984336,-9.3661175,0.7284641,47.711063,-1.0216906,-2.5838485,-3.343997,-0.3008619,-0.040122434,-0.061518572,28.5,29.8125,28.875,32.6875,35.0625,36.0625
0.108052425,0.63521343,-0.6247759,-0.3436557,-0.036899127,0.021058474,-0.16963077,-0.3917551,-0.36782297,0.059885446,-3.0778477,0.6254457,-0.0004204853,-0.04688187,0.0151783805,0.0014257159,0.01003068,-0.0001664059,0.0023971477,0.50146675,-1.3784411,1.9003743,-2.0905073,-1.5711683,2.4768932,-0.063522786,0.055586826,-0.07447188,0.023854453,-0.008871645,-0.06586381,-0.038307227,0.24899697,-9.481039,0.7642693,47.723602,-1.0121683,-2.4443588,-3.3937736,-0.30098426,-0.064215995,-0.053085946,28.5,29.8125,28.875,32.6875,35.0625,36.0625
0.11005298,1.1542959,-0.41267958,-0.24148525,-0.040827192,0.035649095,-0.18704686,-0.39188012,-0.36780462,0.05991466,-3.0778635,0.62546927,-0.0003261192,-0.04800611,0.0154480245,0.0009333449,0.010608477,-0.0008403102,-0.00017890336,0.5013347,-1.3783321,1.9001707,-2.0904715,-1.5711921,2.476774,-0.064887956,0.058157977,-0.0764678,0.024146443,-0.009054074,-0.064651884,-0.076614454,0.22984336,-9.423578,0.8112748,47.683304,-1.0127904,-2.4686732,-3.375411,-0.31544724,-0.06710831,-0.077616334,28.5,29.8125,28.875,32.6875,35.0625,36.0625
0.11205175,-0.0123658925,-0.8881351,-0.34072503,-0.022704292,0.018659372,-0.16793405,-0.39194566,-0.36774775,0.059887834,-3.0777938,0.62549514,-0.00044219228,-0.048868347,0.016058642,0.00023686558,0.011228299,-0.0013249286,-0.003148451,0.50117856,-1.3782232,1.9000863,-2.090399,-1.5711926,2.4766428,-0.066504754,0.059977096,-0.07689102,0.023473782,-0.009373452,-0.063297026,0.038307227,0.28730422,-9.346964,0.8023209,47.689575,-1.0333102,-2.5201278,-3.3270106,-0.31487164,-0.056856588,-0.06997451,28.5,29.8125,28.875,32.6875,35.0625,36.0625
0.11405185,0.6862889,-0.2710928,-0.22734141,-0.026484285,0.039204407,-0.17429638,-0.3920536,-0.36772966,0.05989801,-3.0778053,0.62542033,-0.00036204018,-0.051400505,0.014945788,0.0020625524,0.008883683,0.0025385139,-0.0053280834,0.5010706,-1.3781029,1.899918,-2.0903876,-1.5712289,2.476487,-0.06708285,0.06089299,-0.082082346,0.023231301,-0.009182001,-0.061694015,0.0,0.24899697,-9.3661175,0.76874626,47.73077,-1.0883794,-2.5456514,-3.3200288,-0.3167374,-0.0551669,-0.12164184,28.5,29.8125,28.875,32.6875,35.0625,36.0625
0.11605205,0.49766946,-0.23689018,-0.31666014,-0.022225333,0.03660015,-0.1742862,-0.39218462,-0.36772496,0.05992576,-3.0778425,0.6255248,-0.0003150109,-0.051465455,0.015741568,0.0013856912,0.009679774,0.0017233137,-0.0077460604,0.5009264,-1.3779706,1.89969,-2.0903518,-1.571205,2.4764032,-0.06827133,0.061329104,-0.08096229,0.022774417,-0.00948318,-0.060464766,0.038307227,0.22984336,-9.3661175,0.7978386,47.668976,-1.0973686,-2.4489002,-3.2958615,-0.34220785,-0.05028146,-0.13007039,28.5,29.8125,28.875,32.6875,35.0625,36.0625
0.11805254,-0.041320525,-0.40389955,-0.53668004,-0.015127501,0.029889712,-0.16794327,-0.3922509,-0.36770907,0.059902947,-3.0778239,0.62546295,-0.00040271302,-0.052435983,0.015345935,0.0008799176,0.009854933,0.001054018,-0.008861007,0.5008305,-1.3778253,1.8995589,-2.0903037,-1.5711926,2.4762712,-0.068593815,0.06449766,-0.08360789,0.022922328,-0.009324366,-0.059670534,-0.076614454,0.15322891,-9.404425,0.78888994,47.703903,-1.0613394,-2.5298855,-3.3406935,-0.32398093,-0.054053545,-0.1629317,28.5,29.8125,28.875,32.6875,35.0625,36.0625
0.12005236,-0.47186053,-0.239533,-0.39187425,-0.02227084,0.028705707,-0.17446168,-0.39236882,-0.36765918,0.059903488,-3.0777612,0.6255082,-0.00035605946,-0.054298237,0.014894675,0.002697484,0.007717768,0.0035102812,-0.010643291,0.5006744,-1.3776934,1.8993906,-2.090256,-1.5712522,2.4761515,-0.069968075,0.064015366,-0.0874335,0.024042295,-0.008635238,-0.059262615,-0.19153613,0.17238252,-9.385271,0.76874626,47.698532,-1.1811063,-2.536823,-3.142904,-0.32620165,-0.06314122,-0.17505652,28.5,29.8125,28.875,32.6875,35.0625,36.0625
0.12205228,-0.08031078,-0.4624432,-0.58675057,-0.01678261,0.046741214,-0.17201549,-0.39247838,-0.3676269,0.059907086,-3.0777373,0.62558043,-0.00037348634,-0.05344012,0.015249685,0.0017430374,0.008350685,0.0010512846,-0.011247877,0.5005187,-1.377561,1.8992118,-2.0901954,-1.5712522,2.476044,-0.0701424,0.064586006,-0.08606264,0.02455851,-0.0080069,-0.058834177,-0.22984336,0.19153613,-9.442732,0.8023209,47.703903,-1.18772,-2.4649239,-3.3422613,-0.35105437,-0.06573826,-0.2281898,28.5,29.8125,28.875,32.6875,35.0625,36.0625
0.12405225,-0.1226937,-0.2569285,-0.55804586,-0.03027485,0.06061778,-0.1646879,-0.3925863,-0.3675797,0.059904974,-3.0776846,0.6255884,-0.00038021622,-0.055503435,0.015835688,0.001617813,0.0077324314,0.0009692138,-0.012363895,0.5003617,-1.3774282,1.899043,-2.090124,-1.571288,2.4758987,-0.07337443,0.06698308,-0.08860799,0.024475524,-0.007435096,-0.060949817,-0.28730422,0.22984336,-9.500193,0.8112748,47.70032,-1.1893941,-2.448192,-3.282227,-0.35898536,-0.08953009,-0.21829759,28.5,29.8125,28.875,32.6875,35.0625,36.0625
0.12605232,-0.3920942,-0.7196837,-0.43045738,-0.03141405,0.07476375,-0.17595744,-0.39268443,-0.3675698,0.05990501,-3.0776918,0.62555015,-0.0003811384,-0.055695463,0.0152288,0.0014548408,0.00810205,0.0013398452,-0.010885644,0.5002545,-1.3772833,1.8988632,-2.0900881,-1.5712885,2.475767,-0.07219974,0.06843587,-0.08989771,0.024165418,-0.00794134,-0.06125146,-0.4213795,0.19153613,-9.519346,0.8224646,47.686886,-1.1727854,-2.6126747,-3.280266,-0.3448108,-0.07907435,-0.24049073,28.5,29.8125,28.875,32.6875,35.0625,36.0625
0.1280519,-0.82508916,-0.35725915,-0.45959863,-0.032644626,0.07863079,-0.17501807,-0.39280248,-0.36753768,0.059920475,-3.0776863,0.6255683,-0.00035738086,-0.056196097,0.015320183,0.0021505654,0.006683114,0.0020375873,-0.012943358,0.5000984,-1.3771636,1.8986725,-2.0900276,-1.5712999,2.475623,-0.07336034,0.06735861,-0.09023861,0.02428618,-0.007030264,-0.060356565,-0.4213795,0.22984336,-9.442732,0.800085,47.70211,-1.3506829,-2.4293084,-3.313166,-0.34977978,-0.09503728,-0.2889087,28.5,29.8125,28.875,32.6875,35.0625,36.0625
0.13005245,-0.18982367,0.2947027,-0.33782306,-0.033097155,0.10209562,-0.18326522,-0.3929206,-0.36751613,0.05991464,-3.0776548,0.62564,-0.00038834338,-0.058122493,0.017072247,0.0012588039,0.008156616,0.0010789384,-0.016308933,0.4999532,-1.3769825,1.8984574,-2.089968,-1.5713004,2.4755266,-0.07754328,0.0699861,-0.091341026,0.024310391,-0.007868653,-0.061170995,-0.34476504,0.19153613,-9.481039,0.8023209,47.682407,-1.2331772,-2.4996111,-3.2949927,-0.36064613,-0.10466827,-0.33209133,28.5,29.8125,28.875,32.6875,35.0625,36.0625
0.13205232,-0.22427735,0.3167763,-0.4044386,-0.023706427,0.10380369,-0.1829823,-0.39301008,-0.36747327,0.059894923,-3.0776217,0.6256493,-0.00044595174,-0.05833095,0.016226564,0.0018852783,0.0077993516,0.0030574938,-0.012469118,0.49979845,-1.3768505,1.8983377,-2.0899327,-1.5713004,2.4753819,-0.07589527,0.069864966,-0.09248624,0.023668857,-0.008512607,-0.06336044,-0.36391866,0.17238252,-9.500193,0.79560274,47.66091,-1.316059,-2.4329176,-3.3652437,-0.33146918,-0.11123882,-0.3119269,28.5,29.8125,28.875,32.6875,35.0625,36.0625
0.1340523,-0.93306506,0.07323832,-0.37089804,-0.012840574,0.08395027,-0.16893855,-0.3931294,-0.36744735,0.059893116,-3.0776255,0.62576854,-0.0004540682,-0.061459433,0.015701627,0.003762325,0.00494372,0.0073363404,-0.017700655,0.49962977,-1.376706,1.898168,-2.0899212,-1.5712765,2.4752872,-0.078154765,0.07040748,-0.09719374,0.022710087,-0.008065299,-0.06038752,-0.47884035,0.1340753,-9.442732,0.7777002,47.688675,-1.2991732,-2.4477162,-3.2307754,-0.3094144,-0.116316974,-0.39031708,28.5,29.8125,28.875,32.6875,35.0625,36.0625
0.13605249,-0.5979596,0.32242197,-0.22791539,-0.0076637873,0.08288547,-0.16167367,-0.3932646,-0.36740854,0.059912704,-3.077594,0.6257787,-0.00042158828,-0.06099323,0.016725298,0.0022224921,0.0062650186,0.0047368384,-0.017060649,0.49946192,-1.3765616,1.8979305,-2.0898254,-1.5713123,2.4751298,-0.07947395,0.0716865,-0.09511386,0.022261005,-0.007977833,-0.0623475,-0.49799395,0.05746084,-9.385271,0.8940802,47.70211,-1.3106589,-2.3976302,-3.3628898,-0.340393,-0.1040498,-0.4204676,28.5,29.8125,28.875,32.6875,35.0625,36.0625
0.13805194,-0.92884314,0.15738323,-0.5324919,-0.0029864607,0.06970947,-0.16523373,-0.39336592,-0.36738548,0.0599018,-3.077572,0.6258119,-0.0004505069,-0.06375154,0.016147386,0.0038811741,0.0047795125,0.0084756315,-0.015659286,0.4993296,-1.3764049,1.8977612,-2.0897892,-1.5713123,2.4750211,-0.08071507,0.072795436,-0.10021279,0.022256596,-0.008478786,-0.06498643,-0.5363012,0.0,-9.5385,0.80679786,47.64389,-1.2708006,-2.373619,-3.3120863,-0.31857672,-0.112477124,-0.44387233,28.5,29.8125,28.875,32.6875,35.0625,36.0625
0.14005183,0.12689492,1.2900565,-0.24812618,-0.02858351,0.094684444,-0.18631528,-0.3935354,-0.36734146,0.059918854,-3.077579,0.6258506,-0.00027728596,-0.06474358,0.018279701,0.0029898454,0.00652889,0.0071457447,-0.01658987,0.49913687,-1.3762606,1.8975595,-2.0898254,-1.5713729,2.4748518,-0.084625706,0.07361634,-0.09920576,0.022429466,-0.009370838,-0.06796557,-0.4213795,-0.038307227,-9.557653,0.7597976,47.67345,-1.2440617,-2.3783352,-3.290594,-0.30904123,-0.10846929,-0.44243252,28.5,29.8125,28.875,32.6875,35.0625,36.0625
0.14205171,-0.8467089,0.36188307,-0.35503063,-0.002775276,0.07447084,-0.17090636,-0.3936713,-0.36732364,0.05996138,-3.0776026,0.6258515,-0.00023481162,-0.06524461,0.017244136,0.0035431415,0.0058743423,0.008306987,-0.011097547,0.4989816,-1.3761401,1.8972954,-2.0897176,-1.5713729,2.4746943,-0.083327375,0.07456882,-0.10163229,0.022566382,-0.00935702,-0.07215884,-0.49799395,-0.095768064,-9.519346,0.83813137,47.690468,-1.3553948,-2.2649298,-3.2778463,-0.28842583,-0.12556912,-0.45452243,28.5,29.8125,28.875,32.6875,35.0625,36.0625
0.14405169,-1.1133478,0.2576241,-0.39070252,0.00038906882,0.080532044,-0.16822316,-0.3937934,-0.3672803,0.0599301,-3.0775623,0.6258976,-0.00032035506,-0.06697579,0.018625783,0.0034533609,0.0066552437,0.008776401,-0.0077443216,0.49878907,-1.3759356,1.8971156,-2.0896814,-1.5713614,2.4745357,-0.0866437,0.075559676,-0.10260501,0.022507677,-0.01027861,-0.078825206,-0.40222588,-0.1340753,-9.519346,0.784413,47.72719,-1.4218473,-2.3570654,-3.3086646,-0.29303038,-0.10765612,-0.40116835,28.5,29.8125,28.875,32.6875,35.0625,36.0625
0.1460527,-0.2804343,0.47501993,-0.52943045,-0.008746157,0.107442796,-0.16440631,-0.39393044,-0.3672264,0.059943996,-3.0775208,0.62585115,-0.00018092679,-0.0689125,0.020156281,0.0033699065,0.0071539073,0.008942136,-0.0086691575,0.4986318,-1.3758152,1.8969358,-2.0896575,-1.5714573,2.474355,-0.09064985,0.076660715,-0.10375948,0.02264451,-0.01079689,-0.08190512,-0.4405331,-0.019153614,-9.519346,0.84484416,47.67614,-1.1339029,-2.2465463,-3.3476453,-0.26870775,-0.09512085,-0.37082183,28.5,29.8125,28.875,32.6875,35.0625,36.0625
0.14805217,-0.40022346,0.00040687967,-0.45275006,-0.004702098,0.10199151,-0.16529283,-0.39407602,-0.36717376,0.05993834,-3.0774784,0.62593347,-0.00020112414,-0.06855512,0.019920459,0.0026475864,0.0070712906,0.0068317675,-0.0018352565,0.49841636,-1.3756343,1.8967203,-2.089597,-1.5714687,2.4741964,-0.090560146,0.07820683,-0.10409965,0.023240415,-0.009721463,-0.0886512,-0.49799395,0.019153614,-9.500193,0.82694155,47.67345,-1.2030115,-2.3344822,-3.3709345,-0.2586283,-0.13476893,-0.32622382,28.5,29.8125,28.875,32.6875,35.0625,36.0625
0.15005219,-0.32324174,-0.040947787,-0.33077615,-0.019479264,0.10474807,-0.16746922,-0.39420253,-0.36715862,0.059968606,-3.0775306,0.6258857,-0.00018264221,-0.07055972,0.020756578,0.003207414,0.0071380166,0.007894017,-0.00089256844,0.49825963,-1.3755139,1.8964924,-2.0895255,-1.5714449,2.4740033,-0.09342587,0.07911372,-0.10661764,0.023950232,-0.010290911,-0.09245763,-0.61291564,0.076614454,-9.385271,0.78888994,47.67345,-1.1208184,-2.3144267,-3.3178806,-0.26324937,-0.101382926,-0.2519369,28.5,29.8125,28.875,32.6875,35.0625,36.0625
0.1520521,-0.5281656,0.044434533,-0.3741036,-0.01527951,0.09206686,-0.16822301,-0.3943531,-0.36711743,0.05997273,-3.0775123,0.62595737,-0.00013163716,-0.07209773,0.022088826,0.002692969,0.0081962645,0.0074056303,-0.00039383356,0.498067,-1.3753452,1.8962773,-2.0895016,-1.5714692,2.4738579,-0.09661074,0.080923,-0.10763886,0.024092395,-0.01098918,-0.09613927,-0.6512228,0.05746084,-9.461885,0.8291774,47.652847,-1.0235698,-2.2501264,-3.3879647,-0.238348,-0.13846892,-0.2094543,28.5,29.8125,28.875,32.6875,35.0625,36.0625
0.15405193,-0.742937,0.3157743,-0.42456624,-0.016276855,0.07958373,-0.1713683,-0.39451748,-0.36706373,0.05997671,-3.0774748,0.62590885,-7.317844e-05,-0.07317231,0.022430211,0.0026454704,0.0077326032,0.0071645374,0.00052379275,0.4978629,-1.3751526,1.896026,-2.0894415,-1.5715293,2.4736285,-0.098456465,0.08214368,-0.109027274,0.024238428,-0.010471026,-0.09890307,-0.47884035,0.038307227,-9.595961,0.7709874,47.690468,-0.9620936,-2.3449485,-3.320156,-0.23082224,-0.11709005,-0.1732526,28.5,29.8125,28.875,32.6875,35.0625,36.0625
0.15605196,-0.49842864,0.04449269,-0.3277194,-0.025034478,0.081876695,-0.1720238,-0.3946465,-0.36700526,0.0599793,-3.0774515,0.62594426,-0.000103385726,-0.07450108,0.023703687,0.0024549267,0.00841171,0.0071929423,-0.0015684724,0.4976461,-1.3750201,1.8958467,-2.08937,-1.5715293,2.4734368,-0.10140256,0.08292725,-0.10953991,0.024266075,-0.011084923,-0.09975496,-0.36391866,-0.019153614,-9.576807,0.8314132,47.685097,-0.85259366,-2.234211,-3.4370039,-0.21705934,-0.109379075,-0.15073563,28.5,29.8125,28.875,32.6875,35.0625,36.0625
0.15805219,-0.24937153,0.08481625,-0.21557266,-0.025050374,0.08315803,-0.17590813,-0.39478886,-0.36697608,0.059975073,-3.0774474,0.625962,-0.000105743165,-0.076387465,0.02318266,0.00245133,0.008012407,0.007684789,-0.0031450908,0.4974663,-1.3748267,1.8956183,-2.0893338,-1.5715293,2.4732687,-0.10229225,0.08643807,-0.113728374,0.024319196,-0.010976938,-0.099066086,-0.6703765,0.13407528,-9.308656,0.76874626,47.655537,-0.867578,-2.4211,-3.2959785,-0.1901185,-0.12749289,-0.14008403,28.5,29.8125,28.875,32.6875,35.0625,36.0625
0.16005225,-0.26748088,0.37547037,-0.13224198,-0.023679044,0.08443328,-0.17068182,-0.39496088,-0.36690655,0.059983887,-3.0774424,0.62600124,-1.3406058e-05,-0.0763381,0.024399089,0.0026949535,0.007921652,0.0074586915,-0.008021466,0.49721405,-1.3746833,1.8954281,-2.0893338,-1.5715655,2.4730418,-0.104369774,0.08431237,-0.11186113,0.024728501,-0.010776855,-0.09626933,-0.57460845,0.1340753,-9.308656,0.80456203,47.70032,-0.8316064,-2.24361,-3.430252,-0.18584956,-0.12211962,-0.13108343,28.5,29.8125,28.875,32.6875,35.0625,36.0625
0.16205256,-0.88749194,0.17744704,-0.25107962,-0.014683888,0.07721586,-0.1621944,-0.39509973,-0.3668827,0.05996096,-3.077412,0.6259583,-8.6717126e-05,-0.07815895,0.023797942,0.0034120416,0.0073828027,0.009056177,-0.012437627,0.49704653,-1.3744303,1.8951634,-2.0892618,-1.5715655,2.4728515,-0.10481004,0.08642157,-0.116131864,0.02523169,-0.011075298,-0.092290185,-0.53630114,0.11492168,-9.289502,0.7642693,47.71286,-0.8127016,-2.23381,-3.2686973,-0.17514247,-0.12939607,-0.19756094,28.5,29.8125,28.875,32.6875,35.0625,36.0625
0.16405262,-0.66147214,-0.21608426,-0.29255036,-0.0009032577,0.081726216,-0.168004,-0.3952744,-0.36682922,0.06001283,-3.0774367,0.62604135,7.612203e-05,-0.07795192,0.023977162,0.002319346,0.007840974,0.0067910356,-0.016770275,0.49681872,-1.3743454,1.8949364,-2.0892255,-1.5716013,2.4726725,-0.105306804,0.08835551,-0.11597535,0.025346067,-0.010384409,-0.08845674,-0.45968673,0.05746084,-9.308656,0.842603,47.704796,-0.83388907,-2.448745,-3.4313827,-0.15080972,-0.13742144,-0.25107372,28.5,29.8125,28.875,32.6875,35.0625,36.0625
0.16605277,-0.36265552,0.009155761,-0.08784742,-0.004598475,0.0768613,-0.16417533,-0.39540467,-0.366779,0.05997726,-3.0773728,0.62608576,-2.5639314e-05,-0.07942731,0.023773596,0.0031646003,0.0073098703,0.008114205,-0.018915135,0.4966149,-1.374117,1.8947324,-2.089166,-1.5716013,2.4725046,-0.106173396,0.08926552,-0.11920232,0.026246399,-0.010558835,-0.08717593,-0.38307226,0.1340753,-9.212888,0.784413,47.70211,-0.8541988,-2.199173,-3.389437,-0.11645125,-0.14048485,-0.2766167,28.5,29.8125,28.875,32.6875,35.0625,36.0625
0.16805206,0.005449484,0.45404238,-0.27464676,-0.005122723,0.062464103,-0.16335374,-0.3955783,-0.36673278,0.0600062,-3.0773668,0.62602574,0.000116334464,-0.07988265,0.023959229,0.0028750808,0.0090836715,0.007248924,-0.018260319,0.49642316,-1.3739601,1.8944691,-2.0891173,-1.5716738,2.4722764,-0.10615179,0.091248676,-0.12129865,0.027960572,-0.011701685,-0.0878063,-0.2681506,0.1340753,-9.193734,0.80456203,47.69763,-0.9245808,-2.3054516,-3.2469802,-0.11470762,-0.1292369,-0.2943015,28.5,29.8125,28.875,32.6875,35.0625,36.0625
0.17005202,0.6110953,0.053675335,-0.40034944,-0.0038944266,0.055920992,-0.16826217,-0.39577252,-0.36665106,0.05999273,-3.0772808,0.62627673,0.00010924448,-0.08079135,0.025284689,0.002540249,0.009420519,0.005743533,-0.020291867,0.49612287,-1.3737317,1.8942174,-2.0890687,-1.5716976,2.472144,-0.10941738,0.09196595,-0.12166354,0.029084181,-0.0112820035,-0.08904087,-0.19153613,0.17238252,-9.289502,0.80679786,47.687782,-0.9396335,-2.3020282,-3.3170881,-0.09697031,-0.11974482,-0.31754532,28.5,29.8125,28.875,32.6875,35.0625,36.0625
0.17205197,-0.42204788,-0.7335599,-0.2565221,-0.0077592907,0.019160287,-0.15793842,-0.39590466,-0.36662635,0.060002618,-3.0772753,0.62625396,0.000119453245,-0.08074996,0.02411961,0.002700905,0.010324739,0.005844859,-0.017152557,0.49596813,-1.3735629,1.893978,-2.0889966,-1.57171,2.4719758,-0.10686418,0.093832396,-0.12457392,0.030469056,-0.012129085,-0.08962381,-0.095768064,0.15322891,-9.3661175,0.784413,47.687782,-1.038208,-2.2915192,-3.1768742,-0.09319554,-0.13951178,-0.30829868,28.5,29.8125,28.875,32.6875,35.0625,36.0625
0.17405173,0.38891417,0.13391592,-0.29296967,-0.03820288,0.036411792,-0.17744024,-0.39608666,-0.36658436,0.060015474,-3.0772805,0.62633467,0.00018694947,-0.08302454,0.026324684,0.0026422013,0.01043344,0.005101294,-0.023896795,0.49573854,-1.3733704,1.8937143,-2.0889723,-1.5717219,2.471796,-0.11275994,0.09468372,-0.12568688,0.0314326,-0.011866348,-0.08877602,-0.11492168,0.19153613,-9.2703495,0.87617236,47.695843,-0.88209474,-2.369079,-3.3985896,-0.08260672,-0.11844893,-0.3643396,28.5,29.8125,28.875,32.6875,35.0625,36.0625
0.17605327,0.23174177,-0.36209065,-0.37333432,-0.030098004,0.028420664,-0.16074507,-0.39622033,-0.36651152,0.05999422,-3.0771759,0.6263854,0.00013046172,-0.08261272,0.02539088,0.0023761892,0.010926868,0.0042646164,-0.019230412,0.49552387,-1.3731776,1.8935117,-2.0888755,-1.5717701,2.4716265,-0.11075112,0.096347846,-0.12727857,0.032321434,-0.011913861,-0.09143169,-0.1340753,0.30645782,-9.232041,0.83365434,47.69763,-1.0062068,-2.2643356,-3.232738,-0.09214245,-0.09632267,-0.36795843,28.5,29.8125,28.875,32.6875,35.0625,36.0625
0.17805268,0.3040975,-0.8138312,-0.3822501,-0.023304095,0.034146547,-0.16022974,-0.39642134,-0.36645612,0.06002572,-3.077162,0.6264218,0.00026168837,-0.08360303,0.025281543,0.0023491993,0.010344309,0.0036294966,-0.02108031,0.49528387,-1.3729966,1.8932112,-2.0888164,-1.5718292,2.4714112,-0.11192576,0.09822195,-0.12963104,0.033071324,-0.011097175,-0.090757824,-0.019153614,0.24899697,-9.32781,0.8403672,47.69763,-0.99630165,-2.4201934,-3.2437797,-0.079409525,-0.13088907,-0.38453835,28.5,29.8125,28.875,32.6875,35.0625,36.0625
0.18004994,0.13808274,-0.6292968,-0.26174033,-0.028522775,0.025519826,-0.16483137,-0.39658743,-0.36641526,0.06002853,-3.0771527,0.62651056,0.00024715305,-0.08472592,0.02466643,0.0029223857,0.0093691945,0.0043310984,-0.014969445,0.49505624,-1.372792,1.892948,-2.0887563,-1.5718173,2.4712403,-0.112189315,0.099592425,-0.13272701,0.03370591,-0.010582827,-0.097132035,0.0,0.30645782,-9.346964,0.800085,47.67166,-0.9738023,-2.3325672,-3.1506057,-0.05390077,-0.11970602,-0.38950762,28.5,29.8125,28.875,32.6875,35.0625,36.0625
0.18205178,0.79403657,0.24042465,-0.21314022,-0.033167865,0.03825707,-0.18342279,-0.39673054,-0.36635488,0.060007498,-3.0770657,0.626531,0.00015317087,-0.08655618,0.025691375,0.0027542738,0.009838831,0.0037723503,-0.015278777,0.4948393,-1.3725631,1.8926963,-2.0886357,-1.5718416,2.4710474,-0.115438245,0.10171275,-0.13510695,0.034672983,-0.010745761,-0.100069106,-0.038307227,0.30645782,-9.212888,0.7530795,47.675243,-0.84882987,-2.4004407,-3.0987554,-0.06346528,-0.13426133,-0.35548154,28.5,29.8125,28.875,32.6875,35.0625,36.0625
0.18405262,1.1280818,-0.37931654,-0.5430575,-0.012608973,0.040268492,-0.17065726,-0.39692846,-0.3663047,0.060013883,-3.0770679,0.62658226,0.0002316642,-0.08554229,0.02440934,0.0021218644,0.010024691,0.0019156062,-0.0062573845,0.49458903,-1.3723463,1.8924211,-2.0886238,-1.571865,2.470829,-0.11275149,0.10367132,-0.13621366,0.035528753,-0.010028984,-0.106405236,0.05746084,0.24899697,-9.289502,0.80679786,47.73077,-1.1683534,-2.488887,-3.1195316,-0.049436733,-0.13376568,-0.28770375,28.5,29.8125,28.875,32.6875,35.0625,36.0625
0.18605284,1.0289156,0.11400168,-0.2866122,-0.03494388,0.041142292,-0.17740665,-0.39707127,-0.36628622,0.06002844,-3.0770917,0.6264698,0.00020189749,-0.08707969,0.02561369,0.0019420013,0.0101376595,0.0012267362,-0.0038794554,0.49442017,-1.3721534,1.8921341,-2.088516,-1.5718526,2.470587,-0.1162688,0.10495479,-0.13749763,0.03618143,-0.009809414,-0.11230023,0.05746084,0.3256114,-9.32781,0.8179876,47.690468,-0.9587064,-2.5203254,-3.0749784,-0.03064872,-0.13252458,-0.24744263,28.5,29.8125,28.875,32.6875,35.0625,36.0625
0.18805204,0.5733871,-0.30005628,-0.50712556,-0.03692345,0.03796826,-0.17128018,-0.39728266,-0.36622515,0.060039777,-3.0770752,0.626575,0.00024078353,-0.08715361,0.025572784,0.0019125252,0.011317905,0.0010844175,0.0043347273,0.49413314,-1.371925,1.8918227,-2.0884554,-1.5718654,2.470368,-0.11560211,0.10578732,-0.13867226,0.03719936,-0.010785478,-0.11984532,0.0,0.3256114,-9.423578,0.78888994,47.70032,-1.1228539,-2.5187993,-3.1757927,-0.035094842,-0.16204688,-0.14723781,28.5,29.8125,28.875,32.6875,35.0625,36.0625
0.19005193,-0.08721964,-1.0641624,-0.6355813,-0.029603831,0.031892672,-0.15259598,-0.3974065,-0.36617196,0.060017716,-3.0770175,0.6264494,0.00017267451,-0.08763855,0.026198925,0.0014681547,0.011704628,-0.00060081074,0.0023229118,0.49395293,-1.3717203,1.8916076,-2.0883596,-1.5719007,2.4701169,-0.11733737,0.10709182,-0.13950334,0.03838567,-0.010336822,-0.11956851,0.0,0.30645782,-9.500193,0.86498255,47.68599,-1.1634793,-2.4522808,-3.2674146,-0.04142005,-0.13542306,-0.092779696,28.5,29.8125,28.875,32.6875,35.0625,36.0625
0.19205199,-0.10056074,-0.32067508,-0.48365498,-0.056958593,0.051056094,-0.17465033,-0.39759573,-0.3661297,0.060019556,-3.0770113,0.6264262,0.00021152028,-0.08796,0.026646787,0.0013988093,0.012282692,-0.001565715,0.003473247,0.49372512,-1.37148,1.8913063,-2.088311,-1.5719255,2.4698756,-0.11829529,0.10772291,-0.14044237,0.03980969,-0.010388957,-0.12167649,-0.11492168,0.28730422,-9.442732,0.85826975,47.67614,-1.1053582,-2.4379146,-3.1676936,-0.024440704,-0.16066772,-0.07613359,28.5,29.8125,28.875,32.6875,35.0625,36.0625
0.19405189,0.519966,-0.86470306,-0.60407764,-0.03777381,0.07052051,-0.17005318,-0.39777225,-0.36604065,0.059999913,-3.0769217,0.62648714,0.00015498133,-0.08922041,0.02704646,0.002098923,0.013017677,-0.0013728351,-0.002241493,0.4934373,-1.3712513,1.8910569,-2.0882142,-1.5719613,2.4696374,-0.11959673,0.108604796,-0.1436789,0.04234363,-0.011136074,-0.117259495,-0.15322891,0.24899697,-9.3661175,0.7239871,47.691364,-1.1140622,-2.413712,-3.207234,-0.061134875,-0.14884727,-0.09245441,28.5,29.8125,28.875,32.6875,35.0625,36.0625
0.19605193,0.3613994,0.10919532,-0.42693934,-0.044175092,0.06246953,-0.17965692,-0.39796445,-0.36600742,0.060025614,-3.0769367,0.62643504,0.00021995587,-0.08808813,0.027598867,0.00071310485,0.013703044,-0.005096305,-0.0072921696,0.49322167,-1.3710349,1.8907217,-2.0881302,-1.5719851,2.4693875,-0.12016625,0.10954189,-0.14185585,0.04318398,-0.0099644475,-0.11278215,-0.24899697,0.17238252,-9.385271,0.842603,47.690468,-1.163361,-2.3106618,-3.3693347,-0.0559725,-0.16497615,-0.12119515,28.5,29.8125,28.875,32.6875,35.0625,36.0625
0.19805208,-0.32150012,-0.2542183,-0.5269497,-0.011239752,0.05080645,-0.1694418,-0.39812392,-0.36595947,0.060021445,-3.0769238,0.626511,0.00016343307,-0.08923058,0.02826803,0.0010744532,0.013194973,-0.0040163463,-0.01396095,0.49298134,-1.3708308,1.8904718,-2.0880587,-1.5719608,2.4691963,-0.12223445,0.109328486,-0.14233147,0.04268763,-0.010031594,-0.108181,-0.3256114,0.038307227,-9.385271,0.83589023,47.696735,-1.1625149,-2.3494785,-3.3625116,-0.057563998,-0.19109875,-0.19494623,28.5,29.8125,28.875,32.6875,35.0625,36.0625
0.20005193,0.3111476,0.6484839,-0.57013273,0.0008308657,0.064880945,-0.16821627,-0.39830413,-0.36590207,0.060028236,-3.0768826,0.6265816,0.00014272715,-0.08908133,0.02993901,-0.0009849865,0.016419359,-0.008648002,-0.020359084,0.49272916,-1.3706133,1.8901728,-2.0879505,-1.5719732,2.4689937,-0.124451846,0.11250078,-0.14190343,0.044697125,-0.010677356,-0.10399832,-0.24899697,0.0,-9.385271,0.81351066,47.685097,-1.1139228,-2.5413518,-3.4620886,-0.08313127,-0.16495429,-0.24555084,28.5,29.8125,28.875,32.6875,35.0625,36.0625
0.20205194,0.029602645,0.5152801,-0.418296,0.032685462,0.057101585,-0.16765527,-0.39849836,-0.365855,0.06002657,-3.0768793,0.6265822,0.0001933242,-0.09056485,0.03036431,0.00016886291,0.015617165,-0.007577313,-0.024292871,0.49248883,-1.3703736,1.8898853,-2.0879257,-1.571997,2.4687543,-0.12657505,0.11211569,-0.14445764,0.046310354,-0.010478218,-0.102187715,-0.2873042,-0.076614454,-9.404425,0.7642693,47.703903,-1.0194765,-2.2704494,-3.3472104,-0.08120802,-0.19063106,-0.2886191,28.5,29.8125,28.875,32.6875,35.0625,36.0625
0.20405188,0.2116273,1.2821649,-0.2411664,0.028001536,0.07025675,-0.16682208,-0.39867684,-0.3658151,0.060027853,-3.0768485,0.62671,9.421699e-05,-0.08968518,0.030443415,-0.00061285234,0.017219065,-0.011451316,-0.024893874,0.4922377,-1.3701204,1.8895506,-2.087793,-1.5719608,2.468587,-0.12611431,0.11389248,-0.14563043,0.04987847,-0.010061055,-0.10112606,-0.38307226,-0.19153613,-9.404425,0.83589023,47.723602,-1.0816095,-2.5236635,-3.6313362,-0.12575841,-0.1980045,-0.34737587,28.5,29.8125,28.875,32.6875,35.0625,36.0625
0.20605178,0.19703723,1.7425375,-0.27129617,0.023915194,0.07776878,-0.17858632,-0.39886653,-0.36573893,0.06002651,-3.0767653,0.6266739,0.00016043537,-0.09144171,0.031208495,-3.132078e-05,0.016920803,-0.010357682,-0.028278945,0.4919973,-1.369892,1.8892626,-2.0877092,-1.5720567,2.468335,-0.12877107,0.11436028,-0.14762612,0.050291486,-0.01032428,-0.10039611,-0.45968673,-0.21068975,-9.308657,0.8806493,47.690468,-0.938313,-2.3247917,-3.508233,-0.13875124,-0.2006228,-0.37267208,28.5,29.8125,28.875,32.6875,35.0625,36.0625
0.20805193,-0.18158454,1.7292876,-0.4335904,0.025021728,0.083133854,-0.17844337,-0.3990529,-0.36567932,0.06004018,-3.076732,0.62683934,0.00013133427,-0.09266354,0.03136525,0.0004329762,0.016701704,-0.010269316,-0.03057302,0.49172157,-1.3696876,1.8889631,-2.0876005,-1.5720452,2.4681668,-0.13016918,0.11547568,-0.15035616,0.051723875,-0.010180698,-0.0994993,-0.47884035,-0.21068975,-9.3661175,0.8247004,47.67345,-1.146596,-2.3630664,-3.445632,-0.14181633,-0.22780962,-0.4273036,28.5,29.8125,28.875,32.6875,35.0625,36.0625
0.21005224,-0.60964155,0.81926125,-0.53461915,0.03133523,0.08961864,-0.16930056,-0.3992417,-0.36558938,0.060013626,-3.0766141,0.62692803,3.4061766e-05,-0.0924816,0.031837806,0.0007663275,0.018507045,-0.011494312,-0.02871987,0.4914223,-1.3694113,1.8886641,-2.087468,-1.5720814,2.4679382,-0.13010462,0.11540815,-0.1518478,0.055209797,-0.011207425,-0.101283915,-0.53630114,-0.17238252,-9.423578,0.78888994,47.685097,-1.0770133,-2.2580216,-3.4147449,-0.19493866,-0.21878555,-0.47756743,28.5,29.8125,28.875,32.6875,35.0625,36.0625
0.21205232,-0.9745389,0.4599077,-0.30095083,0.019494217,0.096075,-0.15888517,-0.3994019,-0.3655468,0.060030174,-3.07659,0.6269587,6.5972256e-07,-0.09288276,0.032542992,-0.00090203556,0.021156706,-0.014592272,-0.025818298,0.49120632,-1.3692176,1.8883656,-2.0873358,-1.5720819,2.4677446,-0.13105473,0.11954785,-0.15330274,0.056502186,-0.012093883,-0.105131924,-0.53630114,-0.15322891,-9.5385,0.80456203,47.688675,-1.1875614,-2.3486345,-3.3814018,-0.22934046,-0.21271679,-0.47724128,28.5,29.8125,28.875,32.6875,35.0625,36.0625
0.21405229,-0.29890242,0.63067734,-0.6952668,0.007606539,0.115270734,-0.17512473,-0.39956912,-0.36546898,0.06001074,-3.0764694,0.6270236,-8.142764e-05,-0.09450386,0.0325545,0.001344512,0.019409282,-0.01082578,-0.018263036,0.49095446,-1.3689663,1.8880776,-2.0871918,-1.5721301,2.4675488,-0.13231947,0.11712418,-0.15569027,0.05714846,-0.012360278,-0.113949515,-0.51714754,0.0,-9.634268,0.8605109,47.703903,-1.1226686,-2.10812,-3.4160252,-0.26552013,-0.23085836,-0.43785292,28.5,29.8125,28.875,32.6875,35.0625,36.0625
0.21605222,-0.5827274,0.26103294,-0.6984651,-0.004470068,0.11227928,-0.17610367,-0.3997879,-0.36538848,0.06000753,-3.0764024,0.6271816,-0.00011772427,-0.09600458,0.034621134,-0.00080719695,0.022353534,-0.014507792,-0.01626722,0.4906296,-1.3687001,1.8877429,-2.087084,-1.5721425,2.4673314,-0.13652809,0.1220134,-0.1568645,0.05805757,-0.013241238,-0.12014997,-0.45968673,0.019153614,-9.595961,0.79560274,47.698532,-0.9941927,-2.4668753,-3.360123,-0.31810957,-0.2254684,-0.38484243,28.5,29.8125,28.875,32.6875,35.0625,36.0625
0.21805188,-0.8203894,-0.65653545,-0.7653148,-0.01873777,0.10366609,-0.166121,-0.3999883,-0.36531785,0.06002137,-3.0763595,0.62716407,-6.0280523e-05,-0.096295014,0.033481773,-0.0001172322,0.020577848,-0.012811185,-0.0048349993,0.49036688,-1.3684839,1.887432,-2.0869887,-1.5722016,2.4670634,-0.13527504,0.12191639,-0.15811184,0.05704073,-0.0124980975,-0.13033071,-0.61291564,0.05746084,-9.557653,0.84484416,47.691364,-1.0918301,-2.0749803,-3.4122472,-0.3477301,-0.22493823,-0.27956656,28.5,29.8125,28.875,32.6875,35.0625,36.0625
0.2200518,-0.95698744,-0.69194055,-0.761485,-0.04727687,0.1029559,-0.17664582,-0.40017277,-0.36526814,0.06002063,-3.076334,0.62715614,-0.00017042634,-0.09870619,0.033742476,-0.0001582712,0.020789657,-0.011744296,-0.0019471195,0.49010277,-1.3682188,1.887082,-2.0868332,-1.5721782,2.4667978,-0.13737926,0.12521529,-0.161905,0.05668866,-0.013217797,-0.13531798,-0.7469909,0.15322891,-9.653421,0.900793,47.691364,-0.9328665,-2.2169173,-3.1979218,-0.35236874,-0.2454856,-0.2063427,28.5,29.8125,28.875,32.6875,35.0625,36.0625
0.2220518,-1.613049,-1.3485789,-0.9800481,-0.0462371,0.09702868,-0.16390109,-0.4003804,-0.36517173,0.060020655,-3.0762653,0.6271403,-0.00015917236,-0.100757204,0.033357896,0.0006368397,0.019506084,-0.0096767545,0.00028707949,0.48979086,-1.3679899,1.8867844,-2.0867255,-1.5722378,2.466485,-0.1385961,0.12681115,-0.16555506,0.056296803,-0.01308302,-0.1387673,-0.80445176,0.22984336,-9.5385,0.83589023,47.69763,-1.0473378,-2.254238,-3.2347708,-0.38119942,-0.22373731,-0.15908897,28.5,29.8125,28.875,32.6875,35.0625,36.0625
0.22405182,-0.71988666,-0.9492327,-0.7071431,-0.0564475,0.123395585,-0.17627156,-0.40059066,-0.36511385,0.060040023,-3.0762265,0.62718874,-0.00012452852,-0.10222975,0.033607606,-0.0002950059,0.019731132,-0.0076150186,-0.0010099225,0.48952726,-1.3677487,1.8864259,-2.0866072,-1.5722746,2.4662569,-0.13954122,0.12927407,-0.16543211,0.051993683,-0.014265183,-0.13841142,-0.7278373,0.28730422,-9.500193,0.81351066,47.703903,-1.0950382,-2.3006763,-3.2596989,-0.35384393,-0.24030259,-0.13866861,28.5,29.8125,28.875,32.6875,35.0625,36.0625
0.22605176,-0.94740963,-1.0377051,-0.5662493,-0.06566028,0.12880008,-0.16620596,-0.4007838,-0.36503884,0.060028803,-3.0761857,0.6272024,-0.00019750452,-0.103782155,0.032796744,0.0007072004,0.017402556,-0.004189672,-0.0069306013,0.4892277,-1.3674965,1.8861259,-2.0865004,-1.5722746,2.4659712,-0.13977417,0.12941496,-0.16739099,0.04969698,-0.013833915,-0.13272323,-0.5554548,0.30645782,-9.500193,0.83589023,47.693153,-1.0933241,-2.2828417,-3.2257047,-0.34586662,-0.23675509,-0.16514719,28.5,29.8125,28.875,32.6875,35.0625,36.0625
0.22805214,-0.43531927,-1.3287872,-0.49195716,-0.063229285,0.12150331,-0.16635711,-0.401037,-0.36498395,0.06006782,-3.0761566,0.6272534,-5.8543425e-05,-0.105275474,0.0326112,0.00045277862,0.017203927,-0.0031382227,-0.010700407,0.48895225,-1.3672314,1.8856963,-2.0863926,-1.5723461,2.4657316,-0.14052603,0.13198626,-0.16960001,0.048306134,-0.014152041,-0.12970386,-0.45968673,0.38307226,-9.500193,0.8291774,47.677036,-1.1518637,-2.27332,-3.13796,-0.32821888,-0.24902672,-0.20909277,28.5,29.8125,28.875,32.6875,35.0625,36.0625
0.23005198,-0.83267045,-1.2515744,-0.55719924,-0.05651452,0.085800014,-0.1602505,-0.4012156,-0.36492947,0.060042102,-3.0761235,0.62722915,-0.00013146161,-0.10684935,0.031862166,0.0008119673,0.015587582,-0.0011490145,-0.015958803,0.48870048,-1.3669543,1.8854078,-2.086322,-1.5723461,2.4654691,-0.1409155,0.13376139,-0.1721896,0.046608124,-0.013671797,-0.124834195,-0.47884035,0.4405331,-9.442732,0.85826975,47.684196,-1.1834615,-2.3840766,-3.2096806,-0.32522398,-0.25229472,-0.27961814,28.5,29.8125,28.875,32.6875,35.0625,36.0625
0.23205183,0.04604869,-1.0989605,-0.53936946,-0.05613564,0.081731334,-0.16487047,-0.40144995,-0.36482552,0.060038395,-3.0760438,0.62734634,-8.960285e-05,-0.10741306,0.032589104,-0.0003127205,0.016091844,-0.0006657021,-0.017815705,0.48835298,-1.366702,1.8850988,-2.0862515,-1.5724062,2.4652052,-0.14213882,0.13506503,-0.17050049,0.04341668,-0.014351354,-0.124198705,-0.34476504,0.36391866,-9.481039,0.82694155,47.68062,-1.1854651,-2.2443583,-3.3277967,-0.28150266,-0.24619557,-0.30757695,28.5,29.8125,28.875,32.6875,35.0625,36.0625
0.2340519,0.49911955,-0.8859045,-0.5516894,-0.06572903,0.071410075,-0.17395246,-0.40168518,-0.36476916,0.060044415,-3.076012,0.6273963,-1.2986649e-05,-0.108406864,0.0320898,-0.00033572223,0.015276172,0.0015874113,-0.017777378,0.48807758,-1.366413,1.8847264,-2.0861924,-1.5724548,2.4649653,-0.14190003,0.13622162,-0.17123316,0.040612068,-0.01469458,-0.12399701,-0.21068975,0.40222588,-9.442732,0.8314132,47.704796,-1.26899,-2.4905715,-3.3832831,-0.23483399,-0.23630315,-0.3167397,28.5,29.8125,28.875,32.6875,35.0625,36.0625
0.23605208,0.13084354,-1.0970719,-0.23606303,-0.059907112,0.048557732,-0.16238658,-0.4019141,-0.36470625,0.060040366,-3.0759642,0.6274458,2.8809625e-06,-0.1100854,0.032936238,-0.0015424987,0.016446505,0.00037146802,-0.020874633,0.48778903,-1.3661113,1.8843559,-2.0861084,-1.5724906,2.464714,-0.144452,0.14027174,-0.1732834,0.040229052,-0.01516668,-0.123448774,-0.19153613,0.34476504,-9.32781,0.8537928,47.672558,-1.0974722,-2.4013088,-3.3653188,-0.21110357,-0.25743115,-0.35508195,28.5,29.8125,28.875,32.6875,35.0625,36.0625
0.23805214,0.77344227,-0.71999115,-0.059732396,-0.043976035,0.054434724,-0.16187066,-0.40216637,-0.3646589,0.0600688,-3.0760114,0.6275699,0.000104806015,-0.11272762,0.0343911,-0.00021889688,0.013611347,0.0029979474,-0.024630357,0.48747623,-1.3658599,1.8839854,-2.086085,-1.5724782,2.4644728,-0.1499457,0.13856316,-0.17400537,0.039000355,-0.013889313,-0.1251918,-0.076614454,0.36391866,-9.193734,0.8627467,47.71017,-1.0607104,-2.428276,-3.3656144,-0.17712104,-0.24153772,-0.36961845,28.5,29.8125,28.875,32.6875,35.0625,36.0625
0.24005213,1.0701542,0.3000578,0.059410956,-0.029828746,0.03620724,-0.17610173,-0.40238962,-0.3645862,0.06004515,-3.075966,0.6276136,0.0001235145,-0.113622285,0.033451315,0.00018255149,0.01254769,0.004085811,-0.019331457,0.48717707,-1.3655587,1.8836735,-2.0860612,-1.5725144,2.464207,-0.14934385,0.14008242,-0.17670871,0.03870679,-0.013474469,-0.12988867,0.1340753,0.19153613,-9.097966,0.85826975,47.69763,-1.0846932,-2.3947868,-3.3231697,-0.14221075,-0.27190953,-0.33914554,28.5,29.8125,28.875,32.6875,35.0625,36.0625
0.24205227,1.6219566,0.6278232,0.17628805,0.006767529,0.022722907,-0.18073677,-0.40261567,-0.36451456,0.06006545,-3.0759425,0.6276241,0.0001687657,-0.11493825,0.034176137,0.00015561905,0.012265461,0.0034051277,-0.0150320735,0.48687673,-1.3653183,1.8833154,-2.085953,-1.5725497,2.4639163,-0.15199292,0.14143237,-0.17849158,0.0395861,-0.012917297,-0.13683811,0.24899697,-0.019153614,-9.021352,0.83365434,47.696735,-0.94925714,-2.4789987,-3.3939543,-0.094513185,-0.28754264,-0.2857572,28.5,29.8125,28.875,32.6875,35.0625,36.0625
0.24405226,1.6295292,0.5133262,0.13048574,0.040066276,0.0050661513,-0.16855922,-0.40287715,-0.36445063,0.060075603,-3.0759406,0.62767434,0.00030141886,-0.11556854,0.03314146,-0.00021657074,0.012887349,0.0032637666,-0.0059268135,0.48656613,-1.3650286,1.882943,-2.085941,-1.5725983,2.4636376,-0.1504249,0.14485075,-0.18184777,0.03991696,-0.013408356,-0.14437324,0.095768064,-0.076614454,-8.944737,0.8403672,47.71823,-0.99247885,-2.5322702,-3.196443,-0.07784492,-0.26967114,-0.20398912,28.5,29.8125,28.875,32.6875,35.0625,36.0625
0.24605216,1.4142818,0.8201383,0.2201327,0.051406518,-0.001998265,-0.15706433,-0.40310907,-0.36440668,0.06008364,-3.075946,0.6276522,0.00027150585,-0.11665388,0.03314896,0.0015961266,0.011584223,0.005639208,0.0002725182,0.48627818,-1.3647171,1.8825248,-2.085821,-1.5725864,2.4633353,-0.15133177,0.14289723,-0.18397598,0.04127439,-0.013380029,-0.15147907,0.17238252,-0.11492168,-8.848969,0.8851263,47.70211,-1.0231874,-2.3684947,-3.3905306,-0.040564522,-0.2986731,-0.0976455,28.5,29.8125,28.875,32.6875,35.0625,36.0625
0.24805222,1.2050301,1.2490342,-0.0067920773,0.050567072,0.0027139578,-0.1615671,-0.40332508,-0.36430234,0.060063187,-3.0758662,0.62772954,0.00017768562,-0.11759852,0.034434915,0.0020598492,0.011684257,0.004804184,0.00040786524,0.48591787,-1.3644409,1.8822135,-2.0857003,-1.5725979,2.4630337,-0.1544167,0.1424472,-0.18504454,0.043564685,-0.013093061,-0.15469897,0.1340753,-0.038307227,-9.002198,0.947788,47.734352,-1.0934358,-2.3724296,-3.238544,-0.026833694,-0.30463237,-0.05199177,28.5,29.8125,28.875,32.6875,35.0625,36.0625
0.25005215,1.3775208,0.8981216,0.01919122,0.030078145,0.025900599,-0.16862936,-0.40355703,-0.36425975,0.060071018,-3.0758724,0.6276742,0.00022535301,-0.11755858,0.034052625,0.0022766965,0.012759454,0.0038736535,-0.003132685,0.48565492,-1.3641402,1.8818191,-2.0856273,-1.5726222,2.4627357,-0.15334252,0.14360264,-0.18756667,0.046259843,-0.013599596,-0.15008222,0.076614454,0.038307227,-8.90643,0.9791215,47.690468,-1.0937645,-2.1772017,-3.184957,-0.029992357,-0.29924613,-0.055161096,28.5,29.8125,28.875,32.6875,35.0625,36.0625
0.25205207,0.91852945,0.33309424,-0.17348011,0.007374728,0.041305948,-0.15847869,-0.4038002,-0.36415032,0.060064808,-3.0757658,0.62771297,0.00024702158,-0.11746204,0.035451096,0.0015392585,0.014866114,0.0007266208,-0.010105345,0.48530707,-1.3638515,1.8814605,-2.0855072,-1.5727066,2.462426,-0.15526804,0.1445934,-0.18778852,0.049251575,-0.013989692,-0.14503334,-0.076614454,0.11492168,-9.212888,0.8605109,47.65912,-1.1296769,-2.206163,-3.2423425,-0.03720148,-0.32982945,-0.10126861,28.5,29.8125,28.875,32.6875,35.0625,36.0625
0.2540518,1.2349434,0.29562896,-0.65560657,-0.015725018,0.06732066,-0.17986879,-0.40402701,-0.36411557,0.06009761,-3.075788,0.6276633,0.00029792075,-0.11810544,0.036780737,0.0013144537,0.016584104,-0.0012683377,-0.019822627,0.48505485,-1.363587,1.8810419,-2.085386,-1.572719,2.46214,-0.1576292,0.14560565,-0.18919227,0.052220576,-0.014562081,-0.13767563,-0.17238252,0.1340753,-9.308656,0.8560339,47.71286,-1.0947632,-2.1445973,-3.2569938,-0.058134668,-0.32276696,-0.15643205,28.5,29.8125,28.875,32.6875,35.0625,36.0625
0.25605264,0.4300093,-0.18608436,-0.91271615,-0.029921984,0.06836158,-0.16913223,-0.40424073,-0.3640395,0.06006907,-3.0756867,0.62773937,0.00025377725,-0.1188618,0.037205223,0.0010766342,0.017280284,-0.002706547,-0.025008587,0.48476714,-1.363262,1.8806957,-2.0852902,-1.5727671,2.461913,-0.15895936,0.1474897,-0.19138132,0.05411959,-0.014515388,-0.133818,-0.30645782,0.095768064,-9.557653,0.8806493,47.691364,-1.0078471,-2.213388,-3.2821426,-0.07623594,-0.317379,-0.22078079,28.5,29.8125,28.875,32.6875,35.0625,36.0625
0.25805238,-0.7078305,-1.0131676,-1.0413058,-0.042408835,0.06698897,-0.15446706,-0.40447235,-0.36395186,0.060065977,-3.075631,0.6278656,0.00016436665,-0.119683415,0.03806434,0.0010317455,0.017935984,-0.0038074956,-0.032094255,0.48440707,-1.3629736,1.8803242,-2.0851452,-1.5727547,2.4616392,-0.16098884,0.1484615,-0.19289447,0.05594774,-0.014586378,-0.12876019,-0.3256114,0.13407528,-9.691729,0.82694155,47.690468,-1.0084234,-2.2287247,-3.238548,-0.092432834,-0.3370159,-0.3248156,28.5,29.8125,28.875,32.6875,35.0625,36.0625
0.2600523,-0.64019394,-1.2807219,-1.1584507,-0.0389982,0.09260341,-0.15423639,-0.4047117,-0.36385658,0.060068116,-3.0755296,0.6279784,0.00016267724,-0.119392805,0.03813701,0.00023391838,0.018602896,-0.0053983005,-0.0340631,0.48407185,-1.3626847,1.8799409,-2.0850017,-1.5728143,2.4613876,-0.16084905,0.14989753,-0.19290529,0.056232467,-0.014442599,-0.12665117,-0.57460845,0.15322891,-9.749189,0.90527004,47.705692,-0.9922704,-2.1762726,-3.3210397,-0.0927487,-0.35150135,-0.38563353,28.5,29.8125,28.875,32.6875,35.0625,36.0625
0.2620524,-0.8491863,-0.8139678,-1.1423526,-0.042007793,0.117630765,-0.16437341,-0.4049229,-0.36378914,0.060055308,-3.0754533,0.6280788,5.5304346e-05,-0.12061468,0.03853307,-0.00044942315,0.018853901,-0.0057265875,-0.037571177,0.4837717,-1.3623711,1.8795589,-2.0848463,-1.5728143,2.4611602,-0.1624572,0.15247712,-0.19431686,0.055471964,-0.014528918,-0.12474884,-0.61291564,0.15322891,-9.902418,0.86498255,47.68062,-0.94415796,-2.4179919,-3.3791175,-0.07520804,-0.35477805,-0.4649294,28.5,29.8125,28.875,32.6875,35.0625,36.0625
0.26405245,-1.2370785,-0.36237445,-1.2111552,-0.048189163,0.12179291,-0.16316298,-0.40515137,-0.36370808,0.06004128,-3.075383,0.6281379,2.1522549e-06,-0.12078769,0.039555617,-0.0025162788,0.020571126,-0.009526603,-0.036919758,0.48344827,-1.362058,1.8791884,-2.084727,-1.5728382,2.460883,-0.16437444,0.15620007,-0.1941988,0.055780005,-0.014298595,-0.12731694,-0.49799395,0.24899697,-9.940725,0.92764956,47.691364,-1.1591448,-2.2850819,-3.521844,-0.07153685,-0.36875582,-0.51077056,28.5,29.8125,28.875,32.6875,35.0625,36.0625
0.26605245,-1.4781361,-0.58136004,-1.072389,-0.036929093,0.11918614,-0.15723304,-0.40540487,-0.3636545,0.060059063,-3.0753765,0.6281871,6.7540495e-05,-0.121741064,0.038290393,-0.0012533639,0.019786643,-0.0071337293,-0.026785398,0.48314947,-1.3617573,1.8787683,-2.0846426,-1.572863,2.4606159,-0.16273011,0.1568109,-0.19799654,0.056459844,-0.0147375,-0.13580476,-0.59376204,0.17238252,-9.80665,0.8806493,47.687782,-1.1621532,-2.3420014,-3.4928222,-0.07850625,-0.37997615,-0.45963222,28.5,29.8125,28.875,32.6875,35.0625,36.0625
0.26805252,-0.8513248,-0.37026256,-1.2019722,-0.023102615,0.11781957,-0.16928558,-0.40564686,-0.36359605,0.06007411,-3.0753722,0.62823695,7.599732e-05,-0.122008815,0.0387439,-0.0020617412,0.020855544,-0.008750491,-0.016906513,0.48283774,-1.3614683,1.878363,-2.084535,-1.572863,2.460336,-0.16349553,0.15877937,-0.1987078,0.057104655,-0.014955118,-0.14644809,-0.5746084,0.019153614,-9.921572,0.92764956,47.70211,-1.1199117,-2.4396987,-3.535402,-0.08573353,-0.3965634,-0.3779586,28.5,29.8125,28.875,32.6875,35.0625,36.0625
0.27005166,-1.0041583,-0.031849407,-1.0079489,-0.017011294,0.091355644,-0.16210364,-0.40588444,-0.36351076,0.060056087,-3.0752954,0.62827086,5.967823e-05,-0.12101396,0.039416373,-0.003810728,0.023622876,-0.012548986,-0.006127132,0.48251435,-1.3611432,1.877992,-2.084438,-1.5729107,2.460044,-0.16321209,0.16114397,-0.1979556,0.058604978,-0.015670013,-0.15694115,-0.38307226,-0.038307227,-9.787497,0.89631605,47.66271,-1.2094095,-2.4198546,-3.5391614,-0.07895302,-0.3926133,-0.2825831,28.5,29.8125,28.875,32.6875,35.0625,36.0625
0.27205276,-0.47930887,0.17303343,-0.8663173,-0.019970613,0.0934766,-0.16592418,-0.40613872,-0.36341786,0.060037583,-3.0752337,0.6282931,-2.0542375e-05,-0.122563794,0.04072275,-0.00453574,0.025381511,-0.014387964,-0.0022026494,0.48214206,-1.3607937,1.8775848,-2.084306,-1.5729231,2.4596937,-0.16620976,0.16426872,-0.20053251,0.060482044,-0.016409073,-0.16385855,-0.49799395,-0.095768064,-9.749189,0.85826975,47.652847,-1.1003628,-2.5959642,-3.6646285,-0.08281016,-0.38426763,-0.1810218,28.5,29.8125,28.875,32.6875,35.0625,36.0625
0.27405185,0.17335972,0.3787652,-0.5484464,-0.006786016,0.085966855,-0.1733671,-0.4064167,-0.36332828,0.06007974,-3.0751984,0.62832123,0.00015999639,-0.124498874,0.041619346,-0.002354384,0.024477411,-0.0116437245,-0.0023085428,0.48180613,-1.3605433,1.8771666,-2.0842097,-1.5730194,2.4593801,-0.16901559,0.16200756,-0.20329142,0.06262593,-0.016881706,-0.16655773,-0.4405331,0.019153614,-9.672575,0.8918391,47.71286,-1.1898868,-2.3196847,-3.6583114,-0.11450146,-0.4090209,-0.14283277,28.5,29.8125,28.875,32.6875,35.0625,36.0625
0.2760519,0.3913653,0.77091455,-0.2548398,0.0008533913,0.0692422,-0.16505349,-0.4066653,-0.36325884,0.06005631,-3.0751555,0.6283333,8.173848e-05,-0.1240581,0.0414046,-0.0028767495,0.026745029,-0.013632133,-0.005876563,0.48147127,-1.3601708,1.876748,-2.0841005,-1.5730199,2.4590585,-0.16749507,0.1641296,-0.20532192,0.06535709,-0.017977422,-0.16146375,-0.4405331,-0.076614454,-9.442732,0.9186956,47.65912,-1.2179778,-2.3400095,-3.5084472,-0.14098144,-0.3881892,-0.16339725,28.5,29.8125,28.875,32.6875,35.0625,36.0625
0.27805206,0.69391626,1.0088282,0.037093543,0.012051812,0.064785115,-0.16747852,-0.4069106,-0.36316538,0.060064077,-3.0750725,0.62839586,9.584473e-05,-0.12475463,0.04112031,-0.0024222566,0.027473716,-0.0149120325,-0.012705639,0.48113585,-1.3598822,1.8763512,-2.0839565,-1.57308,2.4587731,-0.16750059,0.16609369,-0.20961085,0.06915449,-0.018033067,-0.15463781,-0.36391866,-0.019153614,-9.308656,0.9298854,47.686886,-1.2867835,-2.458762,-3.3423212,-0.19706926,-0.3996535,-0.2128745,28.5,29.8125,28.875,32.6875,35.0625,36.0625
0.280052,0.68191713,1.0653269,0.13154687,0.013129977,0.06395893,-0.16749804,-0.40718326,-0.3631135,0.0600909,-3.0750904,0.6284013,0.00018792259,-0.12604235,0.040784176,-0.0013212488,0.026320633,-0.012336725,-0.01746031,0.4808239,-1.3595706,1.8758968,-2.0838716,-1.5731038,2.4584625,-0.1678575,0.16586772,-0.21179646,0.06875147,-0.018198917,-0.15023986,-0.4213795,-0.05746084,-9.193734,0.90750587,47.703903,-1.3509381,-2.38297,-3.301916,-0.1893328,-0.39880964,-0.28626004,28.5,29.8125,28.875,32.6875,35.0625,36.0625
0.28205177,0.43351528,0.70506793,0.12068412,0.019411601,0.059668932,-0.16660848,-0.40744263,-0.36303937,0.060074758,-3.0750134,0.62846375,0.00012374252,-0.12717189,0.04205463,-0.0008949732,0.027056355,-0.012822924,-0.021079117,0.48048693,-1.359187,1.87544,-2.0837276,-1.5731281,2.4581747,-0.17059575,0.16594815,-0.21344265,0.07108268,-0.018641561,-0.14935622,-0.26815057,0.0,-9.193734,0.8717007,47.672558,-1.365918,-2.2944798,-3.2598128,-0.21157894,-0.4036175,-0.31142396,28.5,29.8125,28.875,32.6875,35.0625,36.0625
0.28405166,0.23015425,0.3277999,-0.33486682,0.016943296,0.045982096,-0.16799447,-0.40768015,-0.3629207,0.060058497,-3.074907,0.62853795,3.8409024e-05,-0.12787381,0.04333601,-0.0006108634,0.02869271,-0.015358159,-0.02265628,0.48010215,-1.358887,1.875081,-2.0835707,-1.5731643,2.4578502,-0.17306994,0.16675273,-0.21621457,0.07604107,-0.01894195,-0.15024969,-0.05746084,0.019153614,-9.2703495,0.90527004,47.686886,-1.3110762,-2.2202003,-3.2646308,-0.2976768,-0.42557865,-0.36393327,28.5,29.8125,28.875,32.6875,35.0625,36.0625
0.28605247,0.44865954,0.06649223,-0.18252435,-0.01433235,0.047429163,-0.16923559,-0.4079798,-0.3628311,0.060095403,-3.0748396,0.6286595,0.00016340413,-0.13059936,0.044510577,-0.00041191757,0.028506141,-0.013018338,-0.026618883,0.47974098,-1.358575,1.8745898,-2.0834277,-1.5732483,2.457574,-0.17673306,0.16830756,-0.21818279,0.0742777,-0.019868532,-0.14994682,-0.19153613,0.1340753,-9.232041,0.9321212,47.67345,-1.2453488,-2.1040516,-3.2030659,-0.3169449,-0.39104956,-0.37416092,28.5,29.8125,28.875,32.6875,35.0625,36.0625
0.2880522,-0.04448733,-0.70583314,-0.033360273,-0.032484904,0.047722455,-0.16287741,-0.40822026,-0.3627371,0.060081113,-3.0747497,0.62867486,2.8045575e-05,-0.13147563,0.04484554,0.00046330554,0.029072003,-0.0107823005,-0.02054469,0.47938097,-1.3582273,1.8741583,-2.083224,-1.5732611,2.4572353,-0.17698985,0.16756654,-0.21936926,0.074463256,-0.021443764,-0.1562698,-0.13407528,0.17238252,-9.097966,0.86498255,47.67793,-1.2453125,-2.1730692,-3.205933,-0.31740367,-0.39321178,-0.3169722,28.5,29.8125,28.875,32.6875,35.0625,36.0625
0.2900521,0.70273036,-0.45519558,-0.3027138,-0.032535017,0.0737555,-0.1835658,-0.408468,-0.36264655,0.060075406,-3.0746703,0.62863564,3.7147383e-05,-0.13234675,0.04504638,0.0003635683,0.028499167,-0.010050425,-0.013863082,0.47905654,-1.3579032,1.873752,-2.083093,-1.5733327,2.456897,-0.17806686,0.16835757,-0.21986093,0.07321191,-0.021307902,-0.16402768,-0.038307227,0.17238252,-9.289502,0.86945957,47.66271,-1.1513443,-2.2007797,-3.304783,-0.3347206,-0.397003,-0.2610721,28.5,29.8125,28.875,32.6875,35.0625,36.0625
0.29205203,0.40354237,-0.15426849,-0.120001644,-0.046201736,0.076098904,-0.18443577,-0.40877777,-0.3625609,0.06012421,-3.0746505,0.62874115,0.00015716866,-0.13515507,0.044605132,0.0014833586,0.026027596,-0.0054946113,-0.005961448,0.478672,-1.3576032,1.873248,-2.0829504,-1.5733808,2.456581,-0.17968811,0.16938953,-0.22298618,0.07008191,-0.02124424,-0.17355078,-0.095768064,0.15322891,-9.270349,0.8940802,47.64479,-1.1513398,-2.0002296,-3.2372909,-0.3302384,-0.38304967,-0.16880572,28.5,29.8125,28.875,32.6875,35.0625,36.0625
0.29405212,0.095268145,-0.23987925,0.032698907,-0.04097992,0.0765668,-0.17784269,-0.40898353,-0.3624627,0.060080186,-3.0745466,0.6286792,-3.7326223e-05,-0.13713236,0.04497105,0.0016902165,0.024490265,-0.0031142351,-0.0037562915,0.47833532,-1.3572552,1.8728889,-2.082772,-1.5733927,2.4562194,-0.18206258,0.17028336,-0.2239662,0.06732539,-0.021028465,-0.17812721,-0.11492168,0.21068975,-9.232041,0.82694155,47.698532,-1.0840623,-2.0263066,-3.238866,-0.2916714,-0.37812,-0.0674123,28.5,29.8125,28.875,32.6875,35.0625,36.0625
0.29605207,-0.7065609,0.04384078,-0.28953153,-0.03125724,0.055853207,-0.17128173,-0.40929985,-0.36238408,0.06009844,-3.0745142,0.62881035,3.809969e-05,-0.13862494,0.0460482,0.0010964768,0.024211772,-0.0021255095,-0.007935508,0.47795,-1.356883,1.8723754,-2.0826652,-1.573429,2.4559205,-0.1848969,0.17146428,-0.22349586,0.064658366,-0.021237558,-0.17678225,-0.21068975,0.19153613,-9.32781,0.94331104,47.674347,-0.9251698,-1.9835947,-3.329342,-0.31105092,-0.37304854,-0.041630525,28.5,29.8125,28.875,32.6875,35.0625,36.0625
0.29805243,-0.20528457,-0.043954164,-0.36938336,-0.017205447,0.07728919,-0.1760458,-0.40955633,-0.3622849,0.06008633,-3.0744407,0.62879854,9.519587e-06,-0.14122334,0.046104237,0.0009778643,0.022377184,0.0014598088,-0.01628577,0.47758976,-1.3565464,1.8719682,-2.0825346,-1.5734767,2.4555626,-0.18711632,0.17362006,-0.22477213,0.059752624,-0.021272343,-0.17064908,-0.34476504,0.11492168,-9.385271,0.90750587,47.70032,-1.0287471,-2.159613,-3.4934714,-0.2279079,-0.38896373,-0.08806356,28.5,29.8125,28.875,32.6875,35.0625,36.0625
0.3000524,-0.45057297,-0.390386,-0.45858905,-0.0142982025,0.08125861,-0.16237213,-0.40984994,-0.36220214,0.060084727,-3.074394,0.62888646,4.2685497e-05,-0.14198193,0.04531434,-0.00014912746,0.02360972,0.0019868123,-0.021447368,0.47721815,-1.3561732,1.8715008,-2.0824401,-1.5735134,2.4552522,-0.18550885,0.17780387,-0.22686316,0.05776775,-0.022607012,-0.16387369,-0.2681506,0.05746084,-9.519346,0.9254084,47.703903,-1.0553168,-2.2471867,-3.4382277,-0.17618324,-0.3757591,-0.15452039,28.5,29.8125,28.875,32.6875,35.0625,36.0625
0.30205232,-0.5228539,0.08909109,-0.4774106,-0.030419061,0.08047322,-0.18198912,-0.41013965,-0.3621197,0.060119733,-3.0743673,0.6289031,0.0001147958,-0.14234193,0.04644369,-0.0010413085,0.025302075,-0.0006966521,-0.027612442,0.47685784,-1.3558611,1.8710102,-2.0822837,-1.5735615,2.454906,-0.1874207,0.17981051,-0.22776404,0.059820153,-0.022866406,-0.15961958,-0.38307226,0.11492168,-9.519346,0.9186956,47.690468,-1.010606,-2.2694983,-3.546706,-0.18682832,-0.353722,-0.2464691,28.5,29.8125,28.875,32.6875,35.0625,36.0625
0.30405223,-0.5333671,-0.28149405,-0.40493637,-0.0317393,0.08457193,-0.1655313,-0.41041362,-0.36201337,0.060096614,-3.074246,0.6290351,0.00011159742,-0.14433096,0.045498375,-0.0004961449,0.024239436,0.0028655515,-0.033795282,0.47648597,-1.3554884,1.8705896,-2.082177,-1.5736336,2.4546325,-0.18701504,0.18195647,-0.23109421,0.05735355,-0.023568274,-0.15302564,-0.51714754,0.17238252,-9.557653,0.88960326,47.705692,-1.0197011,-2.2546034,-3.4883943,-0.15123701,-0.34094563,-0.343306,28.5,29.8125,28.875,32.6875,35.0625,36.0625
0.30605233,-0.0012870941,0.037186492,-0.30192068,-0.054721005,0.10971975,-0.18679473,-0.41068667,-0.36192352,0.060091108,-3.0741892,0.62906337,7.276246e-05,-0.14505641,0.045366827,-0.0012274176,0.025187608,0.0026463652,-0.03720931,0.47611386,-1.3551279,1.8701352,-2.0820334,-1.5736583,2.4542856,-0.18683966,0.18483885,-0.2328569,0.056864277,-0.024318147,-0.14943127,-0.5554548,0.11492168,-9.5385,0.9186956,47.693153,-1.2025297,-2.3732815,-3.5278745,-0.11367901,-0.3315534,-0.4052242,28.5,29.8125,28.875,32.6875,35.0625,36.0625
0.30805275,-1.2197213,-0.30176127,-0.088915356,-0.05399026,0.09581676,-0.17764944,-0.41098866,-0.36182165,0.06008782,-3.0741057,0.62927425,0.00014222733,-0.1439947,0.045271765,-0.0018561104,0.026904017,0.0005313651,-0.03477538,0.4757184,-1.3547678,1.8696922,-2.081961,-1.5737184,2.454033,-0.18528233,0.1857222,-0.2329767,0.058748234,-0.024875253,-0.15030612,-0.63206923,0.114921674,-9.404425,0.8560339,47.7245,-1.4031179,-2.322155,-3.48328,-0.117565565,-0.3336174,-0.46779424,28.5,29.8125,28.875,32.6875,35.0625,36.0625
0.31005228,-0.39225394,-0.40409294,-0.20167409,-0.044380765,0.123366475,-0.1814397,-0.41127524,-0.36174485,0.060105704,-3.0740645,0.6292972,0.00018813985,-0.14469364,0.044269163,-0.0019823515,0.026584486,0.0007553223,-0.02517387,0.4753709,-1.3544191,1.8691987,-2.0818174,-1.5737661,2.4537053,-0.18417597,0.18835555,-0.2359044,0.05865556,-0.024723528,-0.15880063,-0.7469909,0.22984336,-9.385271,0.9298854,47.689575,-1.5206532,-2.3633506,-3.5404646,-0.1115178,-0.31727916,-0.45113432,28.5,29.8125,28.875,32.6875,35.0625,36.0625
0.31205228,-0.54068404,0.21550825,-0.46278894,-0.027131276,0.10573346,-0.18912464,-0.4115368,-0.36162284,0.060069162,-3.0739374,0.62936074,5.6992467e-05,-0.14571457,0.04475398,-0.001851774,0.026274553,0.0005046083,-0.016814215,0.47496277,-1.3540355,1.868781,-2.081649,-1.5738024,2.4533536,-0.18594955,0.18925767,-0.23752546,0.059408095,-0.024385452,-0.16893148,-0.38307226,0.1340753,-9.442732,0.9164598,47.694946,-1.5254707,-2.2661524,-3.5692377,-0.09016143,-0.31029868,-0.35372037,28.5,29.8125,28.875,32.6875,35.0625,36.0625
0.31405666,-0.14430179,0.18069373,-0.18255748,-0.028792562,0.09623192,-0.18516015,-0.4118583,-0.36156538,0.060098194,-3.0739408,0.62933755,0.00020047072,-0.14780286,0.04558415,-0.00044577863,0.025299309,0.00277989,-0.0086221015,0.4746255,-1.3536519,1.8682307,-2.0815537,-1.5738624,2.4530017,-0.1888761,0.18850353,-0.2400399,0.06015535,-0.024579398,-0.18005067,-0.30645782,0.24899697,-9.461885,0.8985519,47.68062,-1.4058497,-2.2918627,-3.5053036,-0.06025799,-0.32051378,-0.22031692,28.5,29.8125,28.875,32.6875,35.0625,36.0625
0.31605184,-0.1717499,0.08901259,-0.142263,-0.034587644,0.07244492,-0.18870573,-0.41218328,-0.36145946,0.060091954,-3.0738845,0.62941986,0.00027209372,-0.15014687,0.04588076,0.00068617484,0.025024187,0.005788939,-0.0046183052,0.47420484,-1.3532561,1.867751,-2.0814822,-1.573923,2.45264,-0.19053833,0.18928751,-0.24361065,0.06010501,-0.025731366,-0.18571147,-0.40222588,0.22984336,-9.289502,1.005978,47.721813,-1.335893,-2.2583547,-3.3724136,-0.0374203,-0.2653241,-0.16842599,28.5,29.8125,28.875,32.6875,35.0625,36.0625
0.3180521,0.3660013,0.04871892,-0.29230124,-0.021422261,0.06204908,-0.19562861,-0.41247612,-0.3613655,0.060098156,-3.0738263,0.6294292,0.0003112484,-0.15128393,0.048007704,-0.00015680074,0.027328888,0.0038806065,-0.009252353,0.4738319,-1.352896,1.8672723,-2.0813496,-1.5739831,2.4522808,-0.19421239,0.19100167,-0.24418274,0.06169983,-0.02691157,-0.1847464,-0.30645782,0.17238252,-9.3661175,0.87617236,47.73614,-1.3550625,-2.2461848,-3.356223,-0.019564722,-0.25655055,-0.12758654,28.5,29.8125,28.875,32.6875,35.0625,36.0625
0.32005212,0.5750859,0.33597344,-0.42616293,-0.016031513,0.05134112,-0.18274298,-0.41278234,-0.3612644,0.06009387,-3.0737722,0.6294205,0.00035004332,-0.15127838,0.04821677,-0.001063291,0.028949924,0.0011706713,-0.015780417,0.47343585,-1.352511,1.8667926,-2.081241,-1.5740432,2.4518867,-0.19429159,0.1937604,-0.2460256,0.06393562,-0.02710849,-0.17829557,-0.3256114,0.1340753,-9.3661175,0.8224646,47.691364,-1.3348029,-2.418511,-3.378352,-0.015277,-0.23865736,-0.17596474,28.5,29.8125,28.875,32.6875,35.0625,36.0625
0.32205203,0.12530498,0.48316085,-0.27884886,-0.032670986,0.03527601,-0.17848521,-0.41308993,-0.36117965,0.060094666,-3.0737102,0.6295068,0.00035081548,-0.15088592,0.0493181,-0.0017516415,0.030684289,-0.0020708363,-0.023061605,0.4730513,-1.3521034,1.8662657,-2.081096,-1.5740789,2.4515643,-0.1956113,0.19459024,-0.24622,0.06697959,-0.027163906,-0.17233326,-0.2681506,0.05746084,-9.404425,0.8314132,47.661808,-1.2678703,-2.127163,-3.3355699,-0.03772412,-0.21932177,-0.27103385,28.5,29.8125,28.875,32.6875,35.0625,36.0625
0.32405204,0.6571607,0.07376026,-0.036123667,-0.018859042,0.049177486,-0.19242787,-0.41340458,-0.3610733,0.060105987,-3.0736117,0.62958443,0.0003989914,-0.1527064,0.050486106,-0.0004424065,0.030927632,-0.0023505727,-0.028572302,0.4726543,-1.3517197,1.8657383,-2.0809267,-1.5741628,2.4512289,-0.19891845,0.1946855,-0.2503577,0.07136494,-0.02725736,-0.17012759,-0.17238252,0.038307227,-9.270349,0.8985519,47.67345,-1.1077468,-2.1988106,-3.3295035,-0.055124585,-0.22672608,-0.2829062,28.5,29.8125,28.875,32.6875,35.0625,36.0625
0.3260521,0.66996384,0.5908408,-0.08622967,-0.0021672563,0.04129102,-0.17820655,-0.41369918,-0.3609654,0.060090687,-3.0735235,0.6296635,0.00040705453,-0.15267591,0.051580157,-0.0012247462,0.032929406,-0.0061706225,-0.032043207,0.4722577,-1.3513354,1.8652838,-2.0808175,-1.5742229,2.4508934,-0.20054679,0.19660386,-0.25183475,0.07522216,-0.027305027,-0.1682833,-0.21068975,-0.038307227,-9.193734,0.9231726,47.674347,-1.0255895,-2.2681086,-3.4018664,-0.0770227,-0.18614799,-0.37942958,28.5,29.8125,28.875,32.6875,35.0625,36.0625
0.32805234,1.2408595,1.0776721,0.044511534,0.011201394,0.056715723,-0.18770726,-0.4140108,-0.36085907,0.060106754,-3.0734575,0.6297263,0.000450385,-0.15247107,0.052965883,-0.002159288,0.034530703,-0.010682788,-0.03381854,0.47184917,-1.3509752,1.8647765,-2.0806606,-1.5742825,2.450533,-0.20291059,0.19813375,-0.25249153,0.07907092,-0.026684247,-0.16887382,-0.095768064,0.05746084,-9.251195,0.95002913,47.72092,-0.9770529,-2.2503371,-3.3182366,-0.12158073,-0.18881746,-0.39621812,28.5,29.8125,28.875,32.6875,35.0625,36.0625
0.33005255,0.0050930805,0.40249464,-0.08900491,0.03563939,0.024619007,-0.17402293,-0.41431472,-0.3607856,0.0601005,-3.073436,0.6298359,0.0003882362,-0.15314095,0.053483203,-0.0007739627,0.03371631,-0.010697121,-0.028533367,0.4714516,-1.3505561,1.8642539,-2.080528,-1.5742587,2.4502068,-0.20462017,0.1965998,-0.25458455,0.082307555,-0.02598146,-0.17587046,0.038307227,-0.17238252,-9.155427,0.8627467,47.670765,-0.83705133,-2.1810212,-3.4273882,-0.14606377,-0.18644786,-0.33130807,28.5,29.8125,28.875,32.6875,35.0625,36.0625
0.33205262,0.82069576,1.0989196,0.27943745,0.023087176,0.043504715,-0.1899873,-0.41461197,-0.36065006,0.060082756,-3.0732722,0.62987167,0.00038356424,-0.15322524,0.05384634,-0.0009321079,0.033972252,-0.0132007515,-0.019293813,0.47104374,-1.3501601,1.8637747,-2.0803478,-1.5743784,2.449843,-0.20567745,0.19771062,-0.2562824,0.08517003,-0.025124008,-0.18616799,-0.1340753,-0.11492168,-9.078813,0.8873621,47.66987,-0.818493,-2.2099524,-3.4577222,-0.19725494,-0.17915103,-0.24209467,28.5,29.8125,28.875,32.6875,35.0625,36.0625
0.33405703,1.1618997,0.8842853,0.40757224,0.017288173,0.06887495,-0.19364771,-0.4149139,-0.36054808,0.06007824,-3.073206,0.6298301,0.00032521147,-0.15291871,0.052797128,-0.0009315208,0.03467101,-0.013818631,-0.0075618005,0.47063708,-1.3497516,1.8632473,-2.0801556,-1.5744141,2.4494193,-0.20327714,0.19938941,-0.25874645,0.08677379,-0.025517672,-0.19549549,-0.2681506,-0.095768064,-9.040505,0.8560339,47.703903,-1.0674918,-2.2045224,-3.4346142,-0.24144328,-0.16248064,-0.17567423,28.5,29.8125,28.875,32.6875,35.0625,36.0625
0.33605212,-0.2168424,0.6864354,0.054884784,0.019978382,0.053287163,-0.16691628,-0.41521257,-0.3604509,0.060080785,-3.0731242,0.6298309,0.00025317253,-0.15332447,0.051890533,-0.0013157827,0.034114476,-0.014646001,-0.005246768,0.47024152,-1.3493433,1.862696,-2.0799282,-1.5744499,2.4490352,-0.202472,0.20209007,-0.26128557,0.0870724,-0.024683278,-0.1970057,-0.1340753,-0.05746084,-9.097966,1.0015011,47.698532,-1.1901797,-2.138591,-3.3641407,-0.273338,-0.15644094,-0.084023185,28.5,29.8125,28.875,32.6875,35.0625,36.0625
0.3380522,-0.18353343,0.517913,0.11578017,0.010251567,0.069824256,-0.1789304,-0.4155169,-0.36034432,0.06005712,-3.073046,0.6297981,0.00020570983,-0.15267606,0.05202033,-0.0021709504,0.03503446,-0.017403875,-0.010970675,0.4698333,-1.348911,1.862194,-2.0797842,-1.574498,2.448617,-0.20224303,0.20356736,-0.26159722,0.08878398,-0.024261167,-0.1910527,-0.17238252,-0.05746084,-9.251195,0.8851263,47.711964,-1.2933097,-2.200211,-3.2251005,-0.30051187,-0.14845325,-0.08040646,28.5,29.8125,28.875,32.6875,35.0625,36.0625
0.34005225,-0.17387861,-0.14193402,-0.02012277,-0.013684297,0.07759915,-0.17846285,-0.41581148,-0.3602326,0.060057785,-3.0729427,0.62985826,0.00014736061,-0.15544108,0.051099796,-0.0012677908,0.032822717,-0.012214755,-0.019822648,0.4694251,-1.3485265,1.8616785,-2.07957,-1.5745462,2.44826,-0.20267586,0.20538375,-0.26501718,0.08477395,-0.02465741,-0.18262836,-0.24899697,0.019153614,-9.270349,0.87393653,47.66987,-1.294008,-2.2138338,-3.3942866,-0.31168318,-0.13617507,-0.20356402,28.5,29.8125,28.875,32.6875,35.0625,36.0625
0.34205246,0.5478089,0.16962357,0.030493002,-0.04607504,0.086060055,-0.1978148,-0.41610947,-0.36012238,0.060051214,-3.0728295,0.6299347,7.4126925e-05,-0.15852205,0.051090717,-0.000778278,0.031481985,-0.008505467,-0.029382609,0.46901655,-1.3481184,1.8611506,-2.0793555,-1.5745939,2.4479144,-0.20482786,0.2079135,-0.26863763,0.081961855,-0.02515839,-0.17521426,-0.30645782,0.076614454,-9.32781,0.8672237,47.681515,-1.1867949,-2.2968779,-3.3076572,-0.2674235,-0.1109947,-0.30064029,28.5,29.8125,28.875,32.6875,35.0625,36.0625
0.34405234,0.12375549,-1.0065866,-0.21908626,-0.048751794,0.07037057,-0.18362805,-0.41646054,-0.36000428,0.06006056,-3.072737,0.630111,0.00017284416,-0.16038676,0.05090596,-0.0010076652,0.030295122,-0.0071361815,-0.03646009,0.4685723,-1.3477097,1.8606075,-2.0792372,-1.5746783,2.4475925,-0.20619684,0.21062961,-0.27101743,0.07986318,-0.024717897,-0.16950698,-0.34476504,0.21068975,-9.423578,0.947788,47.70211,-1.3296057,-2.3308058,-3.1519418,-0.2791823,-0.113346905,-0.3729121,28.5,29.8125,28.875,32.6875,35.0625,36.0625
0.3460525,-0.050438855,-1.3313444,-0.30288863,-0.06258027,0.06705694,-0.18203923,-0.41676235,-0.35989854,0.060057912,-3.072622,0.6302033,0.00013431058,-0.16232698,0.050481685,-0.00093663123,0.028180797,-0.0030295586,-0.040390942,0.46817607,-1.3473014,1.860073,-2.0790346,-1.5747384,2.4472692,-0.2069868,0.21186061,-0.27155617,0.07454505,-0.024709277,-0.1663639,-0.40222588,0.28730422,-9.3661175,0.8806493,47.703903,-1.3456137,-2.3445299,-3.2742696,-0.20834088,-0.09884469,-0.47543,28.5,29.8125,28.875,32.6875,35.0625,36.0625
0.34805253,-0.49268016,-1.5343925,-0.52504504,-0.074756704,0.06873986,-0.1899816,-0.4171145,-0.35980412,0.06004707,-3.0725546,0.6303415,0.00020192767,-0.16317728,0.050775584,-0.0015404796,0.02739883,-0.0025638859,-0.039284196,0.4677557,-1.3468333,1.8595113,-2.078952,-1.5747975,2.4469442,-0.20830382,0.2131835,-0.27136368,0.07223024,-0.024238283,-0.16879012,-0.24899697,0.40222588,-9.576807,0.8918391,47.691364,-1.3063612,-2.3901274,-3.539704,-0.17355467,-0.09477387,-0.5109995,28.5,29.8125,28.875,32.6875,35.0625,36.0625
0.35005274,-0.5598194,-1.4554011,-0.4956271,-0.09676147,0.08384162,-0.1883306,-0.41739848,-0.35969868,0.060031243,-3.0724592,0.630354,4.7485733e-05,-0.16440001,0.051194288,-0.0010814335,0.02524862,-0.0013405778,-0.030774888,0.4673465,-1.3464142,1.8589848,-2.0787127,-1.5748094,2.4465556,-0.21067217,0.21275441,-0.27165514,0.07082968,-0.022936452,-0.17967096,-0.22984336,0.4405331,-9.595961,0.8985519,47.685097,-1.1884553,-2.2716124,-3.7365239,-0.14339167,-0.09294723,-0.4343514,28.5,29.8125,28.875,32.6875,35.0625,36.0625
0.35205188,-0.32505438,-2.001611,-0.31897834,-0.10834267,0.10292018,-0.19299923,-0.4177092,-0.35959527,0.059997376,-3.0723844,0.6304084,-2.1047626e-05,-0.16675058,0.0518621,-0.00037047436,0.02330761,0.0009428104,-0.021078154,0.46692553,-1.3459585,1.8584818,-2.078594,-1.5748333,2.4461787,-0.21399207,0.21316972,-0.27352238,0.069300205,-0.02229905,-0.19268867,-0.40222588,0.45968673,-9.5385,0.8918391,47.66987,-1.034708,-2.3510015,-3.7384305,-0.117580935,-0.10045093,-0.32080737,28.5,29.8125,28.875,32.6875,35.0625,36.0625
0.354052,-0.80837965,-1.691368,-0.19329251,-0.09844887,0.09360134,-0.18610582,-0.41807458,-0.35948497,0.060021263,-3.0723388,0.6304717,6.0408456e-05,-0.16807725,0.052573554,-5.9005233e-05,0.023130799,-0.0004950179,-0.013926286,0.46646896,-1.3455385,1.8578824,-2.078437,-1.5748929,2.4457679,-0.21657327,0.21467893,-0.27679458,0.07220386,-0.021526176,-0.20242499,-0.45968673,0.47884035,-9.519346,0.95897776,47.674347,-1.015913,-2.2690606,-3.770902,-0.1120363,-0.11700857,-0.21247447,28.5,29.8125,28.875,32.6875,35.0625,36.0625
0.35605207,-0.3857071,-0.98349106,-0.4809908,-0.06859979,0.09525026,-0.18571933,-0.4184034,-0.35937878,0.059987906,-3.0722868,0.6305184,6.245582e-05,-0.17005809,0.053181864,0.00021110126,0.02111645,0.0013441766,-0.016044764,0.46603602,-1.3450823,1.8573908,-2.0783784,-1.5749286,2.4453712,-0.21965575,0.21528889,-0.27774256,0.06997023,-0.020572957,-0.20339279,-0.38307226,0.40222588,-9.442732,1.0194036,47.679718,-0.923422,-2.1016455,-3.6010947,-0.08662753,-0.11265552,-0.13869593,28.5,29.8125,28.875,32.6875,35.0625,36.0625
0.3580522,-0.50308675,-0.76179785,-0.7257975,-0.028498776,0.070599616,-0.17946142,-0.41877088,-0.35925797,0.060001414,-3.0722086,0.6305837,0.00011172779,-0.17095429,0.05232989,0.0003733323,0.019882355,0.0021827559,-0.022810813,0.46556816,-1.3446382,1.8567804,-2.0781991,-1.5750002,2.4449546,-0.21923941,0.2171116,-0.28028357,0.06938938,-0.019836785,-0.19621265,-0.3256114,0.3256114,-9.595961,0.94331104,47.741516,-0.88514566,-2.1667442,-3.6161962,-0.048228096,-0.11277221,-0.17807765,28.5,29.8125,28.875,32.6875,35.0625,36.0625
0.36005208,-0.38220906,-0.5874801,-0.37216625,-0.022114933,0.06421737,-0.1708537,-0.41909346,-0.35918513,0.059999485,-3.0721834,0.63055897,0.00014003126,-0.17067832,0.0516676,-0.0005799523,0.02183186,-0.0011190103,-0.027117837,0.46519732,-1.3441935,1.8562168,-2.0780776,-1.5750369,2.444572,-0.21758538,0.22112599,-0.2838462,0.07277547,-0.020081565,-0.19024882,-0.6703765,0.2873042,-9.461885,0.9701675,47.723602,-1.1186792,-2.2044654,-3.6243868,-0.040521927,-0.11193082,-0.24844609,28.5,29.8125,28.875,32.6875,35.0625,36.0625
0.36205214,0.28213236,0.22632247,-0.1582879,-0.04374264,0.094381444,-0.19522548,-0.41944167,-0.3591075,0.060004305,-3.0721557,0.63061184,0.0001604407,-0.17290059,0.05069623,0.0007563711,0.019361459,0.0023160097,-0.031436436,0.46478918,-1.3437253,1.8556045,-2.077935,-1.5750602,2.4442008,-0.21804921,0.22225174,-0.2881128,0.071740426,-0.01941635,-0.18639581,-0.5554548,0.21068975,-9.346964,0.9410752,47.66987,-1.1295465,-2.2847667,-3.3614922,-0.03439101,-0.14237037,-0.33314517,28.5,29.8125,28.875,32.6875,35.0625,36.0625
0.36405206,0.1339008,0.29661447,-0.6277813,-0.00752674,0.077545546,-0.18381558,-0.41978195,-0.3590151,0.060002454,-3.0721266,0.63062763,0.00013468521,-0.17381567,0.050609794,0.0009926886,0.019246522,0.0019013844,-0.034389112,0.4643566,-1.343269,1.8550185,-2.0777786,-1.5750722,2.443782,-0.21865718,0.22390373,-0.2911286,0.07342255,-0.019130744,-0.18405095,-0.26815057,-0.076614454,-9.557653,0.9410752,47.698532,-1.1586028,-2.4145367,-3.3126392,-0.003698819,-0.13212568,-0.37632656,28.5,29.8125,28.875,32.6875,35.0625,36.0625
0.3660521,0.69544464,0.057640936,-0.33284014,-0.00091333204,0.08458934,-0.17526092,-0.4201446,-0.35889935,0.05998356,-3.0720522,0.63076293,0.00015949932,-0.17362188,0.05131201,9.9040735e-05,0.021286728,-0.0012970298,-0.032070722,0.4638887,-1.3427889,1.8544554,-2.0776813,-1.5751203,2.4434087,-0.21921921,0.22603405,-0.29244694,0.07635568,-0.019535612,-0.18692878,-0.11492168,-0.15322891,-9.557653,0.96569055,47.704796,-1.1797769,-2.5141327,-3.2885466,-0.008748749,-0.14834398,-0.40621305,28.5,29.8125,28.875,32.6875,35.0625,36.0625
0.3680521,0.20476921,0.26583627,-0.009478345,-0.012349536,0.06942837,-0.17341709,-0.42053047,-0.3587935,0.060007934,-3.0720003,0.63091725,0.00029670852,-0.17360276,0.05126153,0.00015336709,0.022124212,-0.0031448083,-0.021108018,0.46343264,-1.3423449,1.8538326,-2.0775607,-1.5751923,2.443056,-0.2189415,0.2272998,-0.29490596,0.07950711,-0.01948529,-0.19761461,-0.19153614,-0.11492168,-9.346964,0.8806493,47.70032,-1.2649294,-2.568392,-3.3689837,0.0019511251,-0.15028241,-0.31147122,28.5,29.8125,28.875,32.6875,35.0625,36.0625
0.370052,1.0050772,1.2065132,-0.5700087,0.019642115,0.058676496,-0.1853999,-0.42087355,-0.3586939,0.06001308,-3.0719361,0.6308972,0.00024817674,-0.17125931,0.052498408,-0.0026246887,0.026597245,-0.011238436,-0.010406154,0.4630013,-1.3418761,1.8531989,-2.0773318,-1.5752281,2.442621,-0.21859658,0.2304502,-0.29358628,0.084216975,-0.019910742,-0.20796876,0.038307227,-0.11492168,-9.423578,0.91198283,47.683304,-1.4477828,-2.4436069,-3.489955,-0.021753147,-0.14444144,-0.20337173,28.5,29.8125,28.875,32.6875,35.0625,36.0625
0.37205195,0.8920414,0.8899574,-0.6117846,0.056574572,0.031834293,-0.17808229,-0.42120406,-0.35859787,0.060017005,-3.0719085,0.63085085,0.00023256651,-0.1709336,0.054372113,-0.0033344564,0.02957903,-0.015642477,-0.0075919484,0.46258023,-1.3414438,1.8526253,-2.077162,-1.5752529,2.442175,-0.22082345,0.23136869,-0.29431012,0.089261405,-0.020635448,-0.21300583,-0.019153614,-0.21068975,-9.500193,0.84484416,47.660015,-1.3526824,-2.6107588,-3.5439758,-0.06359579,-0.14610887,-0.105154105,28.5,29.8125,28.875,32.6875,35.0625,36.0625
0.37405226,1.579746,0.90383685,-0.17808068,0.035542216,0.03642476,-0.17820522,-0.42155078,-0.35847566,0.059985064,-3.0717854,0.6309625,0.00018201521,-0.17111938,0.055559285,-0.0033134597,0.03077191,-0.018744178,-0.012009705,0.46212333,-1.3409405,1.8520492,-2.0770051,-1.5753125,2.4418042,-0.22294474,0.23196629,-0.2962242,0.093874015,-0.020336188,-0.21070877,0.038307227,-0.2681506,-9.385271,0.87617236,47.72271,-1.2128985,-2.5985727,-3.4217138,-0.108014405,-0.16426453,-0.090717435,28.5,29.8125,28.875,32.6875,35.0625,36.0625
