Tylouw/Master_Thesis_Code/training_data_v2/rect_rod_t0.2/sample_26_session_1.csv
timestamp[s],tcp_force_x[N],tcp_force_y[N],tcp_force_z[N],tcp_force_rx[Nm?],tcp_force_ry[Nm?],tcp_force_rz[Nm?],tcp_pose_x[m],tcp_pose_y[m],tcp_pose_z[m],tcp_pose_rx[rot_vec_x],tcp_pose_ry[rot_vec_y],tcp_pose_rz[rot_vec_z],tcp_velo_x[m/s],tcp_velo_y[m/s],tcp_velo_z[m/s],tcp_velo_rx[rot_vec_x/s],tcp_velo_ry[rot_vec_y/s],tcp_velo_rz[rot_vec_z/s],q1[rad],q2[rad],q3[rad],q4[rad],q5[rad],q6[rad],qd1[rad/s],qd2[rad/s],qd3[rad/s],qd4[rad/s],qd5[rad/s],qd6[rad/s],tool_acc_x,tool_acc_y,tool_acc_z,current_of_whole_robot[A],voltage_of_whole_robot[V],current_J1[A],current_J2[A],current_J3[A],current_J4[A],current_J5[A],current_J6[A],temp_J1[C],temp_J2[C],temp_J3[C],temp_J4[C],temp_J5[C],temp_J6[C]
6.9199996e-07,-0.615475,-0.677552,0.8810295,0.0008242792,-0.0070639583,-0.004463496,-0.38930857,-0.36871928,0.06000893,-3.0787065,0.6249287,0.00014065094,7.6255885e-05,3.7700524e-05,-2.559723e-05,1.0689345e-05,-0.0003280176,6.5482914e-06,0.5050448,-1.3816799,1.9042348,-2.0918796,-1.5708297,2.4800372,-8.577444e-05,-8.019083e-06,-3.884213e-07,0.0003000827,0.00015005616,-9.257612e-05,0.076614454,0.22984336,-8.580819,0.779936,47.704796,-0.16562578,-3.0924811,-2.306522,-0.17924324,0.10605898,0.021221846,28.4375,29.8125,28.875,32.625,35.0625,36.0
0.002055224,-0.29472855,-0.25434837,0.9974851,-0.0056070914,-0.0035872005,-0.009078154,-0.38933998,-0.36871812,0.059999183,-3.0787108,0.6249488,0.00018417482,-0.0012095316,-0.00067647913,-0.00045074572,-0.003103045,0.0052785943,6.2936415e-06,0.50502086,-1.3816319,1.9042119,-2.091931,-1.5708417,2.4800253,-8.443325e-05,-1.07586224e-07,0.0031221078,-0.009243541,0.00014699262,-9.123537e-05,0.038307227,0.24899697,-8.619126,0.7665104,47.684196,-0.15437418,-2.947264,-2.3548312,-0.14134303,0.10189855,-0.009810397,28.4375,29.8125,28.8125,32.625,35.0625,36.0625
0.004055203,-0.8120488,-0.6297387,1.0905555,0.00024159503,-0.01485395,-0.00044918092,-0.38933572,-0.36870962,0.060001735,-3.0786874,0.624963,0.00023415727,-0.00117697,-0.00065898953,-0.0018861762,-0.0023543364,0.0039250273,6.649762e-06,0.5050329,-1.381655,1.9042362,-2.0919435,-1.5708774,2.4800491,-8.313345e-05,0.0025953385,0.003688375,-0.010858414,0.00014405146,-8.993299e-05,0.1340753,0.19153613,-8.6574335,0.68146914,47.694054,-0.17024745,-3.3826237,-2.589645,-0.044056207,0.11203769,0.024533212,28.4375,29.8125,28.8125,32.625,35.0625,36.0625
0.006054813,-0.40458065,-0.7530721,0.8156605,0.024731113,-0.018520681,0.0047646686,-0.38933048,-0.36871114,0.060009364,-3.0786998,0.6249846,0.00023572001,-0.00043899074,-0.00024817802,-0.0013550643,-0.001043698,0.0015780478,6.480489e-06,0.5050329,-1.3816793,1.9042472,-2.0919416,-1.5708655,2.480061,-8.187305e-05,0.0016617471,0.00248946,-0.0060377717,0.00014122587,-8.8667395e-05,0.019153614,0.15322891,-8.580819,0.74413085,47.705692,-0.15624541,-3.291461,-2.541345,-0.070868164,0.09902699,0.0015204708,28.4375,29.8125,28.8125,32.625,35.0625,36.0625
0.008054943,-0.024659855,0.4625651,0.37451583,0.051171042,-0.04198768,0.0017188148,-0.3893207,-0.36870927,0.05998141,-3.0787082,0.6249677,0.00012787741,-0.00076990685,-0.00043172218,-0.0001389484,-0.0012325216,0.0019285863,6.9709913e-06,0.5050088,-1.3816437,1.904271,-2.091952,-1.5708174,2.4800253,-8.065023e-05,0.00073808053,0.00016787428,-0.003190636,0.00013850915,-8.743674e-05,0.019153614,0.19153613,-8.676587,0.7463667,47.704796,-0.08087744,-3.273122,-2.4057143,-0.109225154,0.098278664,0.012336804,28.4375,29.8125,28.8125,32.625,35.0625,36.0625
0.010054528,0.20777506,0.3364751,0.0188636,0.06352753,-0.03299958,-0.009978507,-0.38932216,-0.36871535,0.05999326,-3.0787091,0.6249483,0.00018136334,-0.00011995378,-6.448872e-05,0.00031390684,-0.00049292244,0.00060973706,3.862395e-06,0.5050329,-1.3816562,1.9042586,-2.0919511,-1.5708417,2.4800372,-8.818299e-05,-0.00056654966,2.2522477e-06,-0.00020832574,0.00013589482,-9.2310554e-05,-0.019153614,0.17238252,-8.90643,0.7284641,47.677036,-0.74558884,-2.7222955,-2.8436491,-0.12302514,0.1074039,-0.033164445,28.4375,29.8125,28.8125,32.625,35.0625,36.0625
0.012054493,-0.43628964,-0.3626464,-0.03990771,0.026684694,-0.023000794,-0.005890535,-0.38930756,-0.3687143,0.059963536,-3.0786588,0.6249191,7.975043e-05,0.0009169966,0.0005546529,-0.0010517439,0.0020043326,-0.0038870005,1.6121048e-05,0.50504476,-1.3815954,1.9042462,-2.0919144,-1.5708417,2.4800372,-0.00015962987,0.0014685851,3.0216775e-08,0.0029023862,0.00013337746,-0.00017602963,0.15322891,0.095768064,-9.078813,0.7620334,47.672558,-0.84206367,-2.6650953,-2.9730086,-0.14664432,0.11196179,-0.10561314,28.4375,29.8125,28.8125,32.625,35.0625,36.0625
0.014055157,-0.7811378,-1.4189748,-0.23297645,-0.013227935,0.0060506025,-0.00911516,-0.3893363,-0.36871073,0.05997809,-3.0786686,0.6249433,7.750236e-05,-0.004052215,0.0049984017,-0.005245979,0.005656459,-0.010504003,-0.0054907845,0.5050044,-1.3815795,1.9041861,-2.0918787,-1.5708297,2.4800107,-0.012290832,0.01226283,-0.0031999513,0.0028651955,0.00013095152,-0.0067972895,0.038307227,0.095768064,-9.193734,0.75084364,47.687782,-0.32472157,-3.2265353,-3.1201916,-0.15620142,0.09819906,-0.09739213,28.4375,29.8125,28.8125,32.625,35.0625,36.0625
0.016054813,-1.2816927,-1.6887333,-0.18405943,-0.040125016,0.030374637,-0.014124829,-0.38933912,-0.3686821,0.05995211,-3.0786154,0.62496716,4.774327e-05,-0.0058760545,0.004437116,-0.0031389506,0.003176519,-0.0060308734,-0.00036767474,0.50496846,-1.3815562,1.9042205,-2.091891,-1.5708536,2.4799964,-0.01305045,0.010508319,-0.0057336614,0.0020377424,0.00012861224,-0.012679174,-0.19153613,0.21068975,-9.346964,0.72622824,47.695843,-0.39905703,-3.1578197,-2.9000907,-0.1483673,0.12352958,-0.048072357,28.4375,29.8125,28.8125,32.625,35.0625,36.0625
0.018055312,-2.2782497,-1.708632,-0.4257324,-0.040235974,0.044403497,-0.021321148,-0.38931006,-0.36866555,0.059901897,-3.0785558,0.6249712,-0.00014603914,-0.0055211736,0.0038191637,-0.0021278388,0.002104806,-0.0040915306,0.004955199,0.5049451,-1.3814969,1.9042567,-2.0918553,-1.5708174,2.479983,-0.011676006,0.0083489185,-0.0053932904,0.0016409938,0.0001254986,-0.016628057,-0.53630114,0.15322891,-9.461885,0.7642693,47.688675,-0.7231351,-2.8778546,-3.0778708,-0.12587316,0.11845175,-0.015372886,28.4375,29.8125,28.8125,32.625,35.0625,36.0625
0.020054482,-2.2727816,-0.9901114,-0.6435502,-0.016944395,0.062105946,-0.04036922,-0.38931838,-0.368666,0.05990652,-3.0785303,0.6248704,-0.00011244549,-0.0062949033,0.004655222,-0.0026960566,0.002499231,-0.0048680925,0.0051231436,0.50496817,-1.3814725,1.904209,-2.091819,-1.5708655,2.4799466,-0.013825497,0.009521458,-0.0054238243,0.0013681343,0.0001546202,-0.018945316,-0.4213795,0.1340753,-9.672575,0.7620334,47.687782,-0.8253974,-2.8393507,-3.2604675,-0.13704115,0.13785288,-0.017777227,28.4375,29.8125,28.8125,32.625,35.0625,36.0625
0.022054996,-1.9113683,-0.41943458,-0.79586834,0.0099114515,0.06450334,-0.065991215,-0.38933653,-0.3686697,0.059912402,-3.0786023,0.62490654,-0.000115911025,-0.007458674,0.00497226,-0.0031179863,0.0018033684,-0.00590745,0.0023573274,0.5049196,-1.3814837,1.90422,-2.0918677,-1.570805,2.4799113,-0.01614098,0.011572688,-0.006882323,0.0013455808,0.0012639458,-0.018495893,-0.4213795,0.24899697,-9.864111,0.7866488,47.666286,-0.76443756,-2.872222,-3.4023967,-0.12334679,0.14106116,-0.015635097,28.4375,29.8125,28.8125,32.625,35.0625,36.0625
0.024055552,-1.9998431,-0.69776714,-0.9642453,0.022553468,0.047030542,-0.07589742,-0.3893362,-0.36866486,0.059900776,-3.078578,0.62482584,-0.00016191325,-0.008605272,0.0048190863,-0.0026434658,6.889848e-05,-0.0068093925,-0.0010785275,0.5049189,-1.3814473,1.9041952,-2.091831,-1.5708164,2.4798634,-0.018175203,0.012690479,-0.009643092,0.0029317199,0.0032154198,-0.01709652,-0.6512228,0.15322891,-9.787497,0.71951014,47.612545,-0.78842914,-2.7608764,-3.328715,-0.14760055,0.10574198,-0.05485583,28.4375,29.8125,28.8125,32.625,35.0625,36.0625
0.026054893,-1.8770738,-0.23785836,-1.0046957,0.011907927,0.044264413,-0.09543423,-0.38934627,-0.3686394,0.059871055,-3.0785108,0.6249283,-0.00027575408,-0.009335805,0.004257447,-0.002639165,-0.0006015071,-0.007040757,-0.0021093278,0.50485885,-1.3813866,1.9041828,-2.0917947,-1.570804,2.4798758,-0.018347155,0.014532292,-0.011894229,0.003217231,0.0039083324,-0.016238004,-0.842759,0.019153614,-9.768343,0.7642693,47.64121,-0.8059742,-2.827316,-3.332223,-0.13453498,0.09516927,-0.07271564,28.4375,29.8125,28.8125,32.625,35.0625,36.0625
0.028054327,-1.7054313,-0.6980116,-0.9448746,0.007960296,0.068378,-0.11456372,-0.3893878,-0.36862943,0.05987422,-3.0785053,0.6249848,-0.0002351925,-0.009907102,0.0043407083,-0.003097428,-4.5358142e-06,-0.0071265167,-0.0027641796,0.5048109,-1.3813499,1.9041351,-2.0918071,-1.5708164,2.479864,-0.018719211,0.016196145,-0.012707964,0.0027326918,0.0034245779,-0.015953612,-0.842759,-0.038307227,-9.864111,0.7709874,47.67614,-0.904224,-2.8535101,-3.3622465,-0.11590586,0.10051761,-0.08432707,28.4375,29.8125,28.8125,32.625,35.0625,36.0625
0.030054962,-2.7670193,-1.3463383,-1.0503469,-0.0021199265,0.07423466,-0.105041906,-0.38937667,-0.36861312,0.059855446,-3.0784802,0.6249613,-0.00031779442,-0.01151556,0.004572791,-0.0025782932,-0.0004067115,-0.005539197,-0.005252962,0.50478643,-1.3813378,1.904158,-2.0917833,-1.5708045,2.479828,-0.020351898,0.016960915,-0.014716207,0.0023942273,0.0030029782,-0.015095968,-0.7469909,-0.05746084,-9.921572,0.78217715,47.690468,-0.90899026,-2.8483462,-3.315412,-0.13113764,0.10498752,-0.103123985,28.4375,29.8125,28.8125,32.625,35.0625,36.0625
0.032054357,-2.5821283,-1.0642506,-0.7543689,-0.0128868455,0.09814878,-0.12859727,-0.38940415,-0.368613,0.059856676,-3.0784955,0.62502223,-0.00035464598,-0.01197144,0.005018787,-0.0028884294,0.00039794468,-0.0056880713,-0.0067561013,0.5047382,-1.3813013,1.9041094,-2.091771,-1.5707687,2.4798157,-0.021132696,0.017815478,-0.015012344,0.0023582885,0.0023699505,-0.014372209,-0.7661445,0.038307227,-9.844957,0.8179876,47.67166,-0.95446885,-2.8474052,-3.3637047,-0.13111854,0.1250403,-0.11896922,28.4375,29.8125,28.8125,32.625,35.0625,36.0625
0.034054596,-2.961086,-1.0502161,-0.85579294,0.0071613486,0.08034072,-0.13466427,-0.38945094,-0.36859512,0.059864383,-3.0784695,0.62499905,-0.00026467993,-0.0130408425,0.005145546,-0.0018502803,-0.00039656486,-0.004109287,-0.008286355,0.50470185,-1.3812658,1.9040498,-2.091771,-1.5708288,2.4797683,-0.022300316,0.01705722,-0.01661449,0.0029520988,0.0023001598,-0.014008921,-0.7086837,0.05746084,-9.883265,0.7642693,47.67345,-0.9921875,-2.7675624,-3.3211322,-0.13147496,0.1132409,-0.13292357,28.4375,29.8125,28.8125,32.625,35.0625,36.0625
0.036055107,-2.163811,-0.6395731,-1.0800512,0.030926866,0.07050133,-0.14251055,-0.38949108,-0.3685878,0.059848323,-3.0784888,0.62508065,-0.000288334,-0.014087277,0.0055645094,-0.0019800812,-0.000854668,-0.004435804,-0.009753414,0.5046293,-1.3812051,1.9040254,-2.0918186,-1.5707926,2.4797442,-0.024329439,0.018208012,-0.017673537,0.0029232677,0.0028563845,-0.014571339,-0.5554548,-0.038307227,-9.844957,0.7329411,47.694946,-0.87203014,-2.7536216,-3.3395953,-0.14042318,0.104189694,-0.15882,28.4375,29.8125,28.8125,32.625,35.0625,36.0625
0.038054917,-1.8949195,-0.18046288,-0.943353,0.03804898,0.03596889,-0.15630275,-0.38952196,-0.3685833,0.059852634,-3.078508,0.62506586,-0.00026053403,-0.015308375,0.005941563,-0.0016049206,-0.0020704004,-0.0038149734,-0.011246083,0.50459254,-1.3811811,1.9039901,-2.091831,-1.5707921,2.4796958,-0.026579041,0.018351763,-0.018623672,0.0025956915,0.0036176231,-0.015329108,-0.47884035,-0.05746084,-9.825804,0.800085,47.68062,-0.806748,-2.71626,-3.3316495,-0.11314629,0.09113474,-0.17656244,28.4375,29.8125,28.8125,32.625,35.0625,36.0625
0.04005445,-1.6573836,-0.6818283,-0.84998655,0.041183658,0.02080877,-0.15810375,-0.3895327,-0.36858642,0.059854068,-3.0785177,0.625029,-0.00028519903,-0.016658273,0.0054425327,-0.0009066872,-0.0038339575,-0.0022396448,-0.010632896,0.5045803,-1.3811569,1.903953,-2.0918076,-1.5707802,2.4796593,-0.027484732,0.019005721,-0.020832097,0.0019158237,0.004392771,-0.016848328,-0.4405331,-0.019153614,-9.749189,0.71951014,47.687782,-0.8639688,-2.7662702,-3.302175,-0.14040151,0.105870634,-0.16845977,28.4375,29.8125,28.8125,32.625,35.0625,36.0625
0.042054854,-1.1049224,-0.5108306,-0.7370638,0.019365644,0.031541158,-0.18668322,-0.38958725,-0.36856228,0.059848774,-3.0784748,0.625193,-0.00027438946,-0.017801292,0.0056701046,-0.00086275634,-0.0036184455,-0.0013645646,-0.010552456,0.5044961,-1.3810962,1.9038934,-2.0918076,-1.5707921,2.479683,-0.028548883,0.020184664,-0.022225486,0.0014707012,0.003776661,-0.017991025,-0.38307226,0.038307227,-9.768343,0.7620334,47.670765,-0.8682432,-2.7541168,-3.271103,-0.08726153,0.10876299,-0.16533026,28.4375,29.8125,28.8125,32.625,35.0625,36.0625
0.0440545,-1.5578319,-0.5762592,-0.72944266,0.004361143,0.023726521,-0.18531708,-0.38961992,-0.3685487,0.05984925,-3.0784686,0.6252311,-0.00029915434,-0.018688096,0.0062855934,-0.00049414986,-0.0037374492,-0.0004335759,-0.01123738,0.50443554,-1.3810606,1.9038447,-2.0917838,-1.5707806,2.479647,-0.030193953,0.019781597,-0.022557905,0.0013352692,0.0034293674,-0.018950503,-0.19153613,0.05746084,-9.710882,0.6658024,47.63673,-0.8522786,-2.662542,-3.3170354,-0.10030776,0.119908504,-0.19601293,28.4375,29.8125,28.8125,32.625,35.0625,36.0625
0.046054877,-1.4564531,-1.0478773,-0.69175804,0.0019635402,0.023963567,-0.18156771,-0.38968673,-0.36854002,0.059853293,-3.0785115,0.6252208,-0.00025483605,-0.020328443,0.0068028485,6.348501e-06,-0.004390387,0.0007822345,-0.012790718,0.5043511,-1.3810003,1.9037722,-2.091819,-1.5707687,2.4795506,-0.032580506,0.020234058,-0.024186734,0.0011322139,0.0034102448,-0.019782767,-0.1340753,0.019153614,-9.615114,0.78217715,47.70211,-0.837822,-2.6293273,-3.3019404,-0.091736704,0.11298923,-0.1962086,28.4375,29.8125,28.8125,32.625,35.0625,36.0625
0.048053965,-0.50520134,-0.35645816,-0.56097484,-0.007019304,0.025767708,-0.19377579,-0.38970733,-0.36852217,0.05985385,-3.0784936,0.62537044,-0.00032114817,-0.021376936,0.007005166,0.00022094997,-0.0045102118,0.00026019666,-0.012975391,0.50427884,-1.3809876,1.9037479,-2.0917833,-1.570732,2.479574,-0.034120783,0.021522459,-0.026526947,0.002582808,0.003764997,-0.021138074,-0.076614454,0.11492168,-9.576807,0.7665104,47.71465,-0.79860806,-2.697641,-3.228445,-0.091799974,0.121105954,-0.21659459,28.4375,29.8125,28.8125,32.625,35.0625,36.0625
0.050054204,-0.9011126,-1.3870689,-0.7885862,0.023746466,-0.0036397995,-0.16250734,-0.38978454,-0.36849695,0.05986507,-3.0784774,0.6253851,-0.0002289735,-0.021811273,0.0076353047,-6.75919e-05,-0.004311184,-0.0013613766,-0.012734052,0.5041943,-1.3809274,1.9036511,-2.0917828,-1.5707802,2.4795008,-0.035963397,0.022387514,-0.02719161,0.00389525,0.004376161,-0.023222683,-0.095768064,0.11492168,-9.5385,0.73069996,47.71286,-0.8039844,-2.650659,-3.254086,-0.11165343,0.10075671,-0.2072585,28.4375,29.8125,28.8125,32.625,35.0625,36.0625
0.052054957,-0.5071051,-1.0134506,-0.7088777,0.008537113,-0.005817,-0.1692509,-0.38980854,-0.36849055,0.059860073,-3.078496,0.6254276,-0.00024028379,-0.023223316,0.0081885345,0.00029116112,-0.0052204463,-0.0003149341,-0.013224769,0.5041456,-1.3809035,1.9036397,-2.0918071,-1.5707554,2.4794762,-0.038389824,0.0225497,-0.028050955,0.003236551,0.0046632267,-0.02515839,0.019153614,0.1340753,-9.557653,0.80679786,47.690468,-0.7396673,-2.630361,-3.2135763,-0.107882336,0.104226016,-0.23117444,28.4375,29.8125,28.8125,32.625,35.0625,36.0625
0.0540543,-0.91952103,-1.0888448,-0.5484485,-0.004970069,-0.01571116,-0.16847119,-0.38990337,-0.36846256,0.0598947,-3.0785081,0.62554455,-0.000115673225,-0.023801379,0.008373922,0.0005281234,-0.005313822,0.000719737,-0.012370736,0.50402546,-1.3808794,1.9035324,-2.0918071,-1.5707802,2.4794276,-0.038972892,0.022442749,-0.028337901,0.0026807066,0.0042454884,-0.02659426,0.019153614,0.21068975,-9.595961,0.72622824,47.66808,-0.6757996,-2.6364896,-3.3034883,-0.08854532,0.12975937,-0.21163082,28.4375,29.8125,28.8125,32.625,35.0625,36.0625
0.05605476,-0.85739756,-1.6795986,-0.4824328,-0.006379909,-0.002615305,-0.1652415,-0.3899216,-0.36845332,0.05987697,-3.0785074,0.6254857,-0.00019770027,-0.024601324,0.007970921,0.000584169,-0.005634657,0.0014388902,-0.010534169,0.5039777,-1.3808187,1.9034957,-2.0917833,-1.5707558,2.4793432,-0.0389951,0.023846488,-0.030009123,0.0021645161,0.004172777,-0.02845216,0.019153614,0.22984336,-9.423578,0.78217715,47.689575,-0.81362665,-2.6272535,-3.282071,-0.08114344,0.13561481,-0.2289263,28.4375,29.8125,28.8125,32.625,35.0625,36.0625
0.058055136,-1.1205593,-1.7755705,-0.53542435,-0.0016635953,0.0010014387,-0.15113355,-0.38997397,-0.36844337,0.059877276,-3.078512,0.6255456,-0.00019558427,-0.026260462,0.008533599,0.00093661307,-0.0062764757,0.0021384186,-0.012382026,0.5039049,-1.3807584,1.9034237,-2.0917833,-1.5707444,2.4793072,-0.041623816,0.024666063,-0.031790063,0.0022031863,0.004393725,-0.029232493,0.019153614,0.19153613,-9.423578,0.80679786,47.694946,-0.78806293,-2.645235,-3.2321,-0.07454379,0.11282151,-0.22262676,28.4375,29.8125,28.8125,32.625,35.0625,36.0625
0.060054496,-0.71274036,-0.8691058,-0.41207516,-0.008357528,0.0091518955,-0.16175063,-0.39003953,-0.36841854,0.05988385,-3.078508,0.62560177,-0.00015613166,-0.026928369,0.008546245,0.001171716,-0.0073037986,0.0015718444,-0.012849806,0.50380874,-1.3807102,1.9033517,-2.0917833,-1.5707554,2.4792466,-0.042994518,0.025230113,-0.03317926,0.00302431,0.005566826,-0.03013668,-0.05746084,0.2681506,-9.461885,0.81351066,47.704796,-0.74165165,-2.5458522,-3.2031517,-0.08494277,0.118348755,-0.23869136,28.4375,29.8125,28.8125,32.625,35.0625,36.0625
0.06205519,-0.29592273,-0.8506215,-0.36109108,-0.0030733156,0.018674698,-0.16201013,-0.3900628,-0.36840788,0.059868548,-3.0785308,0.62564504,-0.00027227183,-0.027416382,0.008895049,0.00095475424,-0.007311343,0.00038947695,-0.013124533,0.5037244,-1.3806618,1.9033264,-2.0917704,-1.5706838,2.4791863,-0.04439367,0.026249966,-0.034105107,0.0039626993,0.006143406,-0.03126184,-0.11492168,0.21068975,-9.3661175,0.7709874,47.67614,-0.71460056,-2.5266724,-3.2693505,-0.082154945,0.096899495,-0.24046087,28.4375,29.8125,28.8125,32.625,35.0625,36.0625
0.06405441,-1.1462868,-1.224801,-0.31305966,0.0038107417,0.007637359,-0.1554042,-0.39013112,-0.36839792,0.059898917,-3.0785835,0.62571245,-0.00021242222,-0.028341355,0.0088554695,0.0013084058,-0.0077996543,0.0012007537,-0.012796022,0.5036285,-1.3806497,1.903243,-2.0917704,-1.570659,2.4791257,-0.045204904,0.026824215,-0.035577938,0.003916358,0.006178673,-0.032400507,-0.095768064,0.30645782,-9.308656,0.78888994,47.652847,-0.7868238,-2.490662,-3.2379854,-0.09075937,0.113064006,-0.26434964,28.4375,29.8125,28.8125,32.625,35.0625,36.0625
0.06605454,-1.2869753,-1.107058,-0.31607795,0.0048235483,0.017015506,-0.16548498,-0.39018136,-0.36835927,0.059884213,-3.0785236,0.6257578,-0.00024410251,-0.029399233,0.009320806,0.0013070644,-0.007913593,0.0016445619,-0.0133240335,0.503532,-1.3805773,1.9031829,-2.0917351,-1.5706838,2.4790652,-0.04689607,0.027598538,-0.036403634,0.003524277,0.006060309,-0.033563264,-0.19153613,0.15322891,-9.270349,0.7911258,47.677036,-0.7829737,-2.4924133,-3.2359605,-0.0913337,0.11505002,-0.25914657,28.4375,29.8125,28.8125,32.625,35.0625,36.0625
0.068054914,-1.3583473,-0.69043297,-0.20573483,-0.0014153273,0.0279703,-0.16185898,-0.39022243,-0.36834824,0.05987793,-3.0785303,0.6257792,-0.00028454215,-0.030232668,0.009412925,0.0013877974,-0.008803268,0.0016084885,-0.01357539,0.50345963,-1.3805171,1.9031233,-2.0917232,-1.570659,2.4790053,-0.048318952,0.028338687,-0.037440967,0.003422233,0.006854218,-0.03473565,-0.22984336,0.095768064,-9.385271,0.75084364,47.68599,-0.7285548,-2.4631636,-3.2284646,-0.07203038,0.110053495,-0.26689452,28.4375,29.8125,28.8125,32.625,35.0625,36.0625
0.070054375,-0.8135398,-0.58018965,-0.10153822,-0.00070866355,0.051507924,-0.16117093,-0.39031622,-0.36835393,0.05991552,3.078608,-0.6258709,0.00019102186,-0.03089685,0.009100606,0.001586678,-0.009744805,0.0015725811,-0.014157209,0.50335175,-1.3804806,1.9030026,-2.0917585,-1.5706109,2.4789448,-0.048928417,0.029257722,-0.039037775,0.003676631,0.0076981676,-0.034763023,-0.22984336,0.15322891,-9.32781,0.78888994,47.709274,-0.79594487,-2.4905179,-3.2339308,-0.06275815,0.10640404,-0.2847586,28.4375,29.8125,28.8125,32.625,35.0625,36.0625
0.0720546,-1.3482108,-0.49709964,-0.14620112,0.009729794,0.044825662,-0.16062097,-0.39036885,-0.36834222,0.059905216,-3.0786066,0.6258515,-0.00020764094,-0.03245484,0.010411525,0.001602239,-0.00924793,0.0018335752,-0.015040797,0.50329065,-1.3803843,1.9029068,-2.0917346,-1.5706233,2.4788718,-0.05222924,0.029870147,-0.039847996,0.0038877383,0.007135005,-0.037179157,-0.38307226,0.05746084,-9.289503,0.7642693,47.66987,-0.70123136,-2.502043,-3.2130995,-0.07180695,0.10098221,-0.31203356,28.4375,29.8125,28.8125,32.625,35.0625,36.0625
0.07405467,-2.1358411,-0.42333046,-0.20421991,0.020693839,0.030175358,-0.15859215,-0.39043933,-0.36831194,0.05992482,3.0785854,-0.6258649,0.00017600329,-0.03232388,0.010019225,0.0014324394,-0.008827549,0.0015345073,-0.012137066,0.50315917,-1.380372,1.9028476,-2.0917346,-1.5705994,2.4787514,-0.051300175,0.030786287,-0.040617518,0.0042086774,0.0069124145,-0.039152723,-0.38307226,0.076614454,-9.251195,0.784413,47.67345,-0.78495336,-2.4316802,-3.240568,-0.06102148,0.099949256,-0.3003142,28.4375,29.8125,28.8125,32.625,35.0625,36.0625
0.07605405,-1.1388421,-0.12624362,-0.21014021,0.0162915,0.057046585,-0.16341159,-0.39050198,-0.36828518,0.059913732,3.078594,-0.62598187,0.00020615525,-0.03335464,0.010145495,0.0013329961,-0.008728906,0.0013701427,-0.012762861,0.50306314,-1.3802754,1.9027504,-2.091699,-1.5706114,2.4787273,-0.052459516,0.032504853,-0.042509373,0.004573819,0.0069010677,-0.039685495,-0.34476504,-0.019153614,-9.308656,0.7284641,47.694946,-0.9235225,-2.4866529,-3.2900941,-0.09504154,0.086384945,-0.31798652,28.4375,29.8125,28.8125,32.625,35.0625,36.0625
0.07805497,-0.8294512,-0.6423112,-0.15725397,0.028963998,0.06364983,-0.16286145,-0.39056352,-0.36825237,0.059913475,3.0785854,-0.62597954,0.00022010594,-0.034471452,0.010391118,0.0015933,-0.009813653,0.0019061272,-0.013999639,0.50294286,-1.3802271,1.9026912,-2.091687,-1.570599,2.4786067,-0.05433499,0.032928172,-0.043509107,0.004156631,0.0075905384,-0.04032477,-0.51714754,-0.019153614,-9.270349,0.800085,47.688675,-0.81024635,-2.4611907,-3.2357666,-0.074871585,0.08238302,-0.3414557,28.4375,29.8125,28.8125,32.625,35.0625,36.0625
0.080054194,-1.4943124,-0.020708727,-0.16759196,0.014643504,0.04544732,-0.16076215,-0.39062226,-0.3682477,0.059910946,3.0785542,-0.62599206,0.00025673475,-0.03632421,0.011267887,0.0018532783,-0.010334312,0.0027368446,-0.013544243,0.5028577,-1.3801427,1.9025944,-2.091675,-1.5705627,2.4785333,-0.05755979,0.03370089,-0.044946108,0.0038445336,0.0076427236,-0.04400431,-0.4405331,0.05746084,-9.32781,0.82694155,47.71823,-0.7464535,-2.491317,-3.234655,-0.06978158,0.06446106,-0.33323476,28.4375,29.8125,28.8125,32.625,35.0625,36.0625
0.08205503,-1.2656859,-0.1890835,-0.2941946,0.019384269,0.054799125,-0.1618219,-0.39069977,-0.36822394,0.059893135,3.07852,-0.62604064,0.00024097193,-0.036174346,0.0109007275,0.001883568,-0.010120672,0.0030710686,-0.010394368,0.50273836,-1.3800466,1.9025348,-2.0917346,-1.5705513,2.4784486,-0.056575596,0.033943564,-0.04528439,0.0037532419,0.0072952546,-0.046169102,-0.38307226,-0.11492168,-9.32781,0.72622824,47.65912,-0.74853504,-2.489221,-3.223823,-0.07116587,0.09982143,-0.31481013,28.4375,29.8125,28.8125,32.625,35.0625,36.0625
0.08405457,-1.5540931,-0.45232743,-0.21863393,0.014575261,0.05473395,-0.14940847,-0.3907819,-0.36820966,0.059924267,3.0784667,-0.6260655,0.00018297155,-0.036052074,0.01146572,0.0006956888,-0.008595901,0.0011279838,-0.006644408,0.5026305,-1.38001,1.9024152,-2.0917103,-1.5705394,2.478363,-0.057156082,0.03584305,-0.044854145,0.0038643025,0.006899757,-0.05049842,-0.45968673,-0.038307227,-9.385271,0.77545905,47.677036,-0.9689044,-2.4800258,-3.2835002,-0.08067855,0.08602081,-0.29603446,28.4375,29.8125,28.8125,32.625,35.0625,36.0625
0.0860547,-1.9050494,-0.14486453,-0.30195618,0.0058517326,0.044197742,-0.16307248,-0.3908644,-0.3681767,0.059928548,3.078466,-0.62610495,0.00019757186,-0.03788103,0.011534287,0.0011616413,-0.009642134,0.001568388,-0.009079312,0.5024979,-1.3799254,1.9022945,-2.0916626,-1.5705389,2.4782553,-0.05939877,0.037495412,-0.048010405,0.004476707,0.007599201,-0.05030586,-0.51714754,0.038307227,-9.3661175,0.8247004,47.68062,-0.8878546,-2.5659895,-3.315806,-0.07534678,0.084641926,-0.27973598,28.4375,29.8125,28.8125,32.625,35.0625,36.0625
0.08805466,-1.4999156,-0.55651295,-0.43566403,0.022570519,0.043990314,-0.15067625,-0.39093706,-0.36814308,0.05991395,3.0784798,-0.6260685,0.00023961814,-0.03852778,0.011495174,0.0013695557,-0.010082033,0.0017857375,-0.0077002607,0.502366,-1.3798289,1.9022111,-2.0916512,-1.5705265,2.4780989,-0.060097754,0.038073394,-0.049223773,0.004710766,0.007877447,-0.05238395,-0.3256114,0.1340753,-9.32781,0.800085,47.67345,-0.87446713,-2.4801598,-3.145803,-0.08700797,0.07964724,-0.3005596,28.4375,29.8125,28.8125,32.625,35.0625,36.0625
0.09005506,-1.1326338,-0.4268298,-0.46905375,0.018099114,0.043196812,-0.15761901,-0.39099973,-0.3681267,0.059911165,3.0784311,-0.62609446,0.00024852535,-0.03820589,0.012446879,0.00022088006,-0.008684101,-0.00018597349,-0.0048495852,0.5022578,-1.3797686,1.9021515,-2.091675,-1.5704907,2.478013,-0.0612217,0.03896618,-0.04765614,0.004656094,0.0076064165,-0.05635848,-0.3256114,0.095768064,-9.270349,0.80679786,47.690468,-0.9339227,-2.5328474,-3.292188,-0.07081325,0.08688207,-0.25126886,28.4375,29.8125,28.8125,32.625,35.0625,36.0625
0.09205466,-0.95730084,-0.13226432,-0.3071937,0.0045016813,0.04134561,-0.16461611,-0.39109513,-0.36810097,0.059920926,3.0784051,-0.62618333,0.00023455627,-0.039832786,0.012083819,0.0007027769,-0.009883308,0.0011446474,-0.0025245314,0.5021258,-1.3796722,1.902007,-2.0916388,-1.5704907,2.4779398,-0.062362596,0.040493995,-0.050456647,0.004185504,0.008011108,-0.059823524,-0.3256114,0.0,-9.308657,0.7933669,47.68062,-0.9156759,-2.5589695,-3.2617927,-0.065556526,0.08725415,-0.22906327,28.4375,29.8125,28.8125,32.625,35.0625,36.0625
0.09405409,-0.95357716,-0.49662086,-0.50870997,0.01337563,0.03338079,-0.15925878,-0.39118668,-0.36806956,0.05992537,3.078362,-0.6261343,0.00025570503,-0.040896315,0.012022308,0.0008887533,-0.010030185,0.001779642,-0.00052051956,0.50195783,-1.3795993,1.9019107,-2.0916388,-1.5704426,2.4777467,-0.063122116,0.04176691,-0.05239891,0.0042331326,0.007832589,-0.06258563,-0.15322891,0.076614454,-9.346964,0.7239871,47.691364,-0.9901316,-2.5905826,-3.2231603,-0.08410381,0.081265286,-0.16714638,28.4375,29.8125,28.8125,32.625,35.0625,36.0625
0.09605425,-1.1812981,-1.1048685,-0.4865668,0.01322295,0.02602217,-0.15576479,-0.39127755,-0.36803293,0.05992904,3.0783885,-0.62615824,0.00016573114,-0.042535335,0.012091841,0.001539518,-0.010666437,0.0034060436,0.000161374,0.50184953,-1.3795153,1.9018029,-2.0916388,-1.5705031,2.4776502,-0.06460762,0.04256495,-0.054796655,0.0040992536,0.0076047187,-0.06475141,-0.114921674,0.11492168,-9.3661175,0.81351066,47.711964,-0.95982885,-2.577392,-3.123536,-0.058139842,0.07879371,-0.15578414,28.4375,29.8125,28.8125,32.625,35.0625,36.0625
0.09805465,-1.0220643,-1.0104412,-0.39948452,-0.0029224348,0.02429387,-0.16252226,-0.3913495,-0.3680309,0.059938934,3.0783484,-0.6260912,0.00021471403,-0.04172877,0.012866686,0.0003621344,-0.008964884,0.0013994505,0.0018492494,0.5017418,-1.3794308,1.9016722,-2.091603,-1.570443,2.4775057,-0.06482582,0.043125134,-0.052787527,0.0041147233,0.0070839785,-0.066657394,-0.19153613,0.19153613,-9.423578,0.7866488,47.71823,-1.0674162,-2.5261006,-3.2793922,-0.08121955,0.09456638,-0.12489876,28.4375,29.8125,28.8125,32.625,35.0625,36.0625
0.10005421,-1.3086989,-1.4223269,-0.69784206,-0.0048874924,0.016819162,-0.15181157,-0.39141864,-0.3679715,0.059926335,3.078366,-0.62617075,0.00024612903,-0.04299471,0.013357029,0.00021372987,-0.008639799,0.0007335797,0.0013522087,0.5015854,-1.3793702,1.9016236,-2.0915782,-1.5704554,2.4773967,-0.06683587,0.04504811,-0.054950725,0.005095654,0.0071150945,-0.06816964,-0.1340753,0.24899697,-9.481039,0.7933669,47.709274,-1.0331209,-2.5571213,-3.3401918,-0.08302902,0.08536787,-0.09742361,28.4375,29.8125,28.8125,32.625,35.0625,36.0625
0.10205502,-0.8233586,-1.5625463,-0.54330486,-0.0127494605,0.019644609,-0.1535357,-0.3915095,-0.36794627,0.059914447,3.078389,-0.62613684,0.00024912113,-0.04388649,0.013187434,0.000828329,-0.0101104,0.001463666,0.00069960556,0.5014654,-1.379238,1.9014915,-2.0915668,-1.5704664,2.4772527,-0.06794688,0.04505701,-0.056381337,0.005167042,0.008050506,-0.06862895,-0.1340753,0.26815057,-9.385271,0.76874626,47.690468,-1.0693231,-2.6065702,-3.2549045,-0.10676957,0.09409175,-0.07018093,28.4375,29.8125,28.8125,32.625,35.0625,36.0625
0.10405399,-0.6897921,-1.1736699,-0.5332322,-0.023915399,0.014177443,-0.16245829,-0.39160317,-0.3679139,0.05992257,3.0783439,-0.62610865,0.00021561058,-0.04499844,0.013171162,0.00081147836,-0.010705092,0.0021768757,-0.0012652081,0.50130916,-1.3791776,1.9014071,-2.0915911,-1.5704426,2.4770846,-0.069046855,0.046364814,-0.05768608,0.004254779,0.008228538,-0.06776316,-0.095768064,0.3256114,-9.404425,0.7732232,47.70032,-1.0411984,-2.4552588,-3.2374985,-0.08669922,0.09604883,-0.07560642,28.4375,29.8125,28.8125,32.625,35.0625,36.0625
0.10605471,-0.61548316,-1.6778874,-0.6662123,-0.013702632,0.010150026,-0.15538666,-0.39169416,-0.36788878,0.05991702,3.0782943,-0.6261769,0.00026698748,-0.04616848,0.014085572,-0.00016744758,-0.009945568,0.0012142867,-0.004264293,0.50115275,-1.3790686,1.9012879,-2.0915787,-1.5703949,2.476977,-0.07152722,0.048831306,-0.058220427,0.0035369007,0.008022954,-0.067243494,0.019153614,0.30645782,-9.461885,0.80456203,47.688675,-1.0648432,-2.6018434,-3.2963076,-0.08981183,0.07637621,-0.055509087,28.4375,29.8125,28.8125,32.625,35.0625,36.0625
0.108054735,-0.14174238,-1.0786868,-0.63291436,-0.02903102,0.021677464,-0.1559204,-0.39182803,-0.36785933,0.05994646,3.0782948,-0.6260808,0.00011697677,-0.04725628,0.0137339,0.0014009742,-0.0120774,0.004067199,-0.0056778053,0.50100875,-1.3789732,1.9011081,-2.0915792,-1.5704426,2.4767733,-0.07223437,0.047083605,-0.05964088,0.00317479,0.008525028,-0.06653681,-0.019153614,0.2873042,-9.423578,0.800085,47.66987,-1.0272465,-2.5490634,-3.2665644,-0.06742698,0.09705126,-0.077954955,28.4375,29.8125,28.8125,32.625,35.0625,36.0625
0.11005486,-0.6733974,-1.1616148,-0.6004077,-0.022739615,0.002863909,-0.15225035,-0.3919328,-0.367859,0.059957087,3.0781991,-0.6261776,6.814399e-05,-0.048049483,0.013903479,0.0013542884,-0.012538882,0.0036413993,-0.008439056,0.5008885,-1.3788648,1.9009637,-2.091615,-1.5704063,2.4767256,-0.07361826,0.048160613,-0.060886465,0.0034960706,0.009137953,-0.06515899,-0.095768064,0.30645782,-9.385271,0.7553206,47.709274,-1.1250699,-2.41786,-3.2843843,-0.062263176,0.08585523,-0.07783793,28.4375,29.8125,28.8125,32.625,35.0625,36.0625
0.112054,-0.614088,-1.2920014,-0.5319575,-0.011786968,0.010529258,-0.1503957,-0.3920147,-0.36780632,0.05994565,3.078205,-0.62617946,0.00013904297,-0.04830523,0.013938426,0.00091636874,-0.012220896,0.0024028833,-0.0105416365,0.5007088,-1.37878,1.9008812,-2.0915787,-1.570382,2.4765463,-0.07409501,0.04973881,-0.06192095,0.004193065,0.009451814,-0.063533336,-0.11492168,0.24899697,-9.442732,0.7463667,47.6421,-1.101302,-2.5413494,-3.2662458,-0.08980416,0.082012996,-0.08046008,28.4375,29.8125,28.8125,32.625,35.0625,36.0625
0.11405458,-0.70804596,-0.72937757,-0.51454544,-0.015670786,0.010953035,-0.15005492,-0.3921056,-0.36779097,0.059934113,3.0781755,-0.62619406,0.00017818234,-0.048850097,0.014584073,-0.00024060645,-0.0112079475,-0.00032246998,-0.0141027635,0.5005765,-1.3786467,1.9007496,-2.0915782,-1.5703462,2.4764268,-0.0759321,0.052667473,-0.06299551,0.0052174777,0.00987183,-0.061809093,-0.076614454,0.24899697,-9.404425,0.7284641,47.674347,-1.1788275,-2.5920305,-3.2538764,-0.09774606,0.08985492,-0.11547089,28.4375,29.8125,28.8125,32.625,35.0625,36.0625
0.11605417,-0.8404439,-0.9337402,-0.64147687,-0.0050838776,0.02205005,-0.1592861,-0.39219388,-0.36777034,0.05993358,3.0781453,-0.6262464,0.00020329673,-0.049341187,0.014492727,3.176448e-05,-0.012366048,3.5401496e-05,-0.016183874,0.5004446,-1.3785387,1.9006175,-2.0915544,-1.5703214,2.4763315,-0.0767413,0.052627012,-0.06349778,0.004889834,0.010714831,-0.060538076,-0.17238252,0.17238252,-9.404425,0.73741806,47.704796,-1.2410662,-2.6945038,-3.3350797,-0.10064982,0.07775475,-0.15606615,28.4375,29.8125,28.8125,32.625,35.0625,36.0625
0.11805419,-0.93965155,-1.0109218,-0.59010285,0.0023038296,0.024948483,-0.15069208,-0.39229771,-0.3677253,0.059938263,3.0781426,-0.6262664,0.00014706692,-0.051701885,0.01471411,0.0020003284,-0.014607114,0.0044966023,-0.019305622,0.5002879,-1.3784554,1.9005083,-2.0915549,-1.5703458,2.4761877,-0.079167075,0.050859705,-0.06564183,0.0038123785,0.010536517,-0.05984091,-0.17238252,0.19153613,-9.3661175,0.77545905,47.689575,-1.113198,-2.392771,-3.2933474,-0.08670354,0.06410597,-0.17192,28.4375,29.8125,28.8125,32.625,35.0625,36.0625
0.12005427,-1.228411,-0.74790657,-0.4915746,0.0027249302,0.025249897,-0.14986217,-0.39240074,-0.3677049,0.05994541,3.078061,-0.62632513,0.00016742165,-0.051269986,0.014112067,0.0009043573,-0.014403831,0.0024949238,-0.018409925,0.50012076,-1.3783585,1.9003772,-2.0915549,-1.5702857,2.4760675,-0.078223504,0.05337742,-0.06608522,0.003594552,0.011320374,-0.059793077,-0.17238252,0.1340753,-9.346964,0.79560274,47.72629,-1.3544567,-2.5183623,-3.337101,-0.08855914,0.06558454,-0.20619996,28.4375,29.8125,28.8125,32.625,35.0625,36.0625
0.12205456,-0.9681302,-0.32239956,-0.38346395,0.0018271245,0.036811236,-0.15948021,-0.39251298,-0.36767238,0.059935227,3.0780005,-0.6264482,0.00019143836,-0.05323916,0.01564304,0.00070618495,-0.014579773,0.0019514983,-0.022518829,0.49993968,-1.3782258,1.900246,-2.0915673,-1.5702494,2.475971,-0.08285583,0.054662026,-0.0672175,0.0038377661,0.0117357895,-0.060316276,-0.22984336,-0.038307227,-9.385271,0.79560274,47.664497,-1.2276967,-2.5183356,-3.3171492,-0.07326208,0.04006187,-0.21647575,28.4375,29.8125,28.8125,32.625,35.0625,36.0625
0.12405423,-1.534131,-0.06882079,-0.4725626,0.009095428,0.028393427,-0.16222383,-0.39261088,-0.36765862,0.05993287,3.0779612,-0.6264575,0.00023982093,-0.05331203,0.015117005,0.0008831704,-0.014229685,0.0022427184,-0.019308161,0.4997963,-1.3780935,1.9000891,-2.091543,-1.5702018,2.4758384,-0.081740595,0.05540707,-0.06864562,0.004440305,0.01128896,-0.062410537,-0.24899697,-0.038307227,-9.404425,0.7329411,47.674347,-1.2170353,-2.5018725,-3.3015845,-0.088238195,0.056628548,-0.23374346,28.4375,29.8125,28.8125,32.625,35.0625,36.0625
0.1260543,-1.8217355,0.19110633,-0.31972826,0.016378906,0.025489146,-0.15993862,-0.39272776,-0.36762467,0.059950795,3.0778978,-0.6265225,0.00020810659,-0.054597873,0.015178791,0.0013756637,-0.015391295,0.0028801933,-0.022812242,0.49961606,-1.378009,1.8999456,-2.091531,-1.5701774,2.4757068,-0.08345352,0.056041695,-0.07055734,0.0046013556,0.012003421,-0.060618866,-0.28730422,0.0,-9.423578,0.7463667,47.689575,-1.3444676,-2.5290833,-3.3751154,-0.09385151,0.04719099,-0.27170524,28.4375,29.8125,28.8125,32.5625,35.0625,36.0625
0.12805451,-1.8176823,-0.09098381,-0.5361475,0.028121274,0.03565196,-0.1544883,-0.3928342,-0.3675963,0.05994386,3.0778675,-0.6265358,0.00024567218,-0.05620716,0.015492805,0.0016911682,-0.015407707,0.0036930183,-0.024648795,0.49944773,-1.3778765,1.8998016,-2.0915186,-1.5701417,2.4755507,-0.08521073,0.05745877,-0.0730397,0.00495081,0.01162551,-0.060537916,-0.3256114,-0.11492168,-9.442732,0.83365434,47.68599,-1.303982,-2.4281979,-3.1476529,-0.07059201,0.036281407,-0.30760533,28.4375,29.75,28.8125,32.5625,35.0625,36.0625
0.1300545,-1.6385533,-0.009263472,-0.5039399,0.025415666,0.0532109,-0.1578331,-0.39294183,-0.36754656,0.059936248,3.0778832,-0.6265943,0.00023717579,-0.056180034,0.016186172,0.00046955489,-0.014318685,0.0016276387,-0.022938108,0.49927983,-1.3777558,1.8996705,-2.0914948,-1.570166,2.4754174,-0.08635385,0.05923269,-0.07233899,0.004812768,0.011661225,-0.063391924,-0.47884035,-0.038307227,-9.500193,0.78217715,47.70211,-1.2680721,-2.6429067,-3.3201017,-0.07772571,0.031100836,-0.32439232,28.4375,29.75,28.8125,32.5625,35.0625,36.0625
0.13205497,-1.6177119,-0.011702794,-0.30424818,0.009002678,0.06554396,-0.16955164,-0.39302742,-0.3675249,0.05992875,3.0778606,-0.62659353,0.00031328914,-0.059923638,0.017014435,0.0028053354,-0.016563863,0.0061839023,-0.029277408,0.4991344,-1.377636,1.8995374,-2.091459,-1.5701178,2.4752743,-0.09104383,0.058296904,-0.07657025,0.004909345,0.011441927,-0.061741073,-0.59376204,-0.038307227,-9.423578,0.75755644,47.64658,-1.1690757,-2.3768647,-3.1941557,-0.09244972,0.049068533,-0.36049485,28.4375,29.75,28.8125,32.5625,35.0625,36.0625
0.13405435,-1.8115113,-0.35085538,-0.6256931,0.006045286,0.07013171,-0.15145807,-0.39317325,-0.36749864,0.059950717,3.0777664,-0.6267075,0.00018576901,-0.05908624,0.016399248,0.0024890418,-0.01623141,0.0050453427,-0.02773923,0.49895537,-1.3775277,1.8993701,-2.0915067,-1.5701174,2.4751785,-0.089370176,0.058908485,-0.076744035,0.005631466,0.011705063,-0.061604593,-0.7278373,-0.038307227,-9.442732,0.83365434,47.647476,-1.280268,-2.4248626,-3.1081018,-0.07180717,0.025474597,-0.4152618,28.4375,29.75,28.8125,32.5625,35.0625,36.0625
0.1360544,-1.9740453,-1.1093744,-0.7511767,0.014358561,0.080113836,-0.14683549,-0.39327294,-0.36745444,0.05995331,3.0777578,-0.6267827,0.00025644308,-0.06011853,0.01858579,5.0357186e-05,-0.01374283,0.00080045674,-0.029846372,0.49877426,-1.377418,1.8992151,-2.0914228,-1.5700935,2.4750454,-0.09388391,0.063166365,-0.07630169,0.0058550327,0.011552232,-0.064011,-0.842759,0.019153614,-9.519346,0.7665104,47.688675,-1.354763,-2.5592,-3.298272,-0.11372699,0.014589518,-0.45148623,28.4375,29.75,28.8125,32.5625,35.0625,36.0625
0.13805483,-1.6861988,-0.5689218,-0.7542179,-0.008185336,0.09686051,-0.16475622,-0.39338732,-0.3674307,0.05993907,3.0777192,-0.6268689,0.00030613915,-0.06156507,0.018223979,0.002073936,-0.015206345,0.004444657,-0.027042197,0.4986066,-1.3772507,1.8990463,-2.0914104,-1.5700577,2.4749365,-0.094294466,0.061420746,-0.07895995,0.006366575,0.011091728,-0.06722461,-0.6895301,0.0,-9.576807,0.83813137,47.682407,-1.2518045,-2.4793415,-3.2130656,-0.11027731,0.016872954,-0.44441968,28.4375,29.75,28.8125,32.5625,35.0625,36.0625
0.14005417,-1.7573404,-0.88626564,-0.68510234,-0.0020756756,0.08870403,-0.15042467,-0.3935308,-0.36737233,0.05996083,3.0776255,-0.6270405,0.00028641714,-0.06299527,0.01933232,0.0019348951,-0.015071174,0.0043695997,-0.027360499,0.49835405,-1.3771662,1.8988913,-2.0913866,-1.570022,2.474803,-0.09739378,0.06236096,-0.07976199,0.006366379,0.011014005,-0.07000456,-0.5363012,0.095768064,-9.519346,0.7866488,47.693153,-1.2316247,-2.4070382,-3.1267338,-0.12987152,0.02388201,-0.4532975,28.4375,29.75,28.8125,32.5625,35.0625,36.0625
0.14205417,-2.3682334,-1.164178,-0.6657291,0.0066567436,0.07596938,-0.1506306,-0.39365056,-0.36733675,0.059943326,3.0775957,-0.62705094,0.00032474316,-0.06426545,0.02073359,0.0011828819,-0.014164998,0.0037000193,-0.02320137,0.49816132,-1.3770095,1.8987483,-2.091399,-1.5699857,2.4746206,-0.10059744,0.063931316,-0.07981258,0.005879539,0.010541142,-0.07736654,-0.7469909,0.05746084,-9.500193,0.9030289,47.690468,-1.1470114,-2.4386277,-3.273561,-0.12360355,0.024727326,-0.41289753,28.4375,29.75,28.8125,32.5625,35.0625,36.0625
0.14405477,-2.0831501,-0.5880878,-0.50936043,-0.00084438035,0.08103179,-0.15003791,-0.39375964,-0.3672678,0.05990402,3.0776267,-0.62709445,0.0003968164,-0.06617314,0.021157121,0.0020727334,-0.014785693,0.006294773,-0.022094104,0.4979452,-1.3768533,1.8986524,-2.091399,-1.5699862,2.4744277,-0.10260253,0.06396117,-0.08172666,0.005194744,0.009839715,-0.08047788,-0.6703765,0.05746084,-9.557653,0.75755644,47.674347,-1.0652407,-2.4564009,-3.3109403,-0.112987466,0.025496423,-0.39986902,28.4375,29.75,28.8125,32.5625,35.0625,36.0625
0.14605449,-1.1026992,-0.28679892,-0.6854407,0.010100108,0.09416783,-0.16532198,-0.3939263,-0.36722594,0.059941344,3.077545,-0.6272294,0.00027030535,-0.06776695,0.021773113,0.002419648,-0.015629303,0.0067623267,-0.019587774,0.49772862,-1.376745,1.8984364,-2.091387,-1.5699977,2.4743059,-0.1053925,0.06466576,-0.08338907,0.0053420668,0.01036686,-0.08577308,-0.5554548,-0.095768064,-9.595961,0.8090337,47.684196,-1.0182261,-2.4072752,-3.266548,-0.119628444,0.021092156,-0.34136456,28.4375,29.75,28.8125,32.5625,35.0625,36.0625
0.14805493,-1.1990155,0.04136596,-0.48522463,0.004158439,0.07815403,-0.16258956,-0.39406857,-0.36719978,0.059950516,3.0774872,-0.6271746,0.00026148278,-0.0694441,0.022608561,0.0026272482,-0.015809948,0.0076106377,-0.014628594,0.49752414,-1.3766005,1.8982443,-2.091387,-1.56995,2.4740746,-0.10815337,0.06547009,-0.084767014,0.005096981,0.010127202,-0.09349172,-0.61291564,0.0,-9.576807,0.8247004,47.703903,-0.93034744,-2.4560518,-3.2794018,-0.10378705,0.029537797,-0.27619538,28.4375,29.75,28.8125,32.5625,35.0625,36.0625
0.15005453,-1.6249923,-0.24379648,-0.4339777,0.012652946,0.06617116,-0.16534187,-0.39419037,-0.36715838,0.059930008,3.0774684,-0.62720734,0.00032729053,-0.07043386,0.022865755,0.0025599666,-0.015403063,0.007834312,-0.013038782,0.49732032,-1.3764321,1.8980883,-2.091375,-1.5699142,2.4738936,-0.10917433,0.06688599,-0.08634171,0.0052625486,0.009661461,-0.09610143,-0.6895301,-0.038307227,-9.481039,0.80456203,47.719128,-0.89911026,-2.3657176,-3.1554093,-0.12652132,0.02924316,-0.23824528,28.4375,29.75,28.8125,32.5625,35.0625,36.0625
0.15205409,-1.6430223,-0.1903024,-0.5071879,0.017554354,0.07035682,-0.16162139,-0.3943283,-0.3670964,0.059938807,3.0774527,-0.62722164,0.00024595312,-0.070867755,0.023454498,0.0022326596,-0.01551664,0.007330061,-0.011107621,0.49710423,-1.3763356,1.8979567,-2.0913875,-1.5699381,2.4736886,-0.11074569,0.067303255,-0.08601838,0.004912285,0.010010842,-0.0996039,-0.5746084,0.0,-9.3661175,0.77545905,47.682407,-0.89360136,-2.3993843,-3.2870252,-0.1082399,0.032729533,-0.18142521,28.4375,29.75,28.8125,32.5625,35.0625,36.0625
0.15405488,-1.0325959,0.17440234,-0.40901774,0.014921927,0.08682985,-0.16340305,-0.39451963,-0.3670628,0.059975483,3.077368,-0.6272029,0.000115053364,-0.073588535,0.02240031,0.0043936917,-0.018252162,0.011906957,-0.010188429,0.49686444,-1.3761914,1.897705,-2.0913994,-1.5699257,2.473448,-0.1115609,0.067593426,-0.09117913,0.004459684,0.010237773,-0.101335205,-0.40222588,-0.076614454,-9.423578,0.7284641,47.661808,-0.93119097,-2.3488946,-3.1760454,-0.10475965,0.02208608,-0.14789109,28.4375,29.75,28.8125,32.5625,35.0625,36.0625
0.1560544,-1.4153286,0.12349945,-0.28231317,0.02017842,0.06951643,-0.1637964,-0.39463615,-0.36701107,0.05995692,3.0773501,-0.6273152,0.00021078195,-0.07293014,0.0235895,0.0025288516,-0.015890533,0.008652756,-0.011783659,0.49664855,-1.3760346,1.8975505,-2.0913517,-1.5698904,2.4733045,-0.11260103,0.069445886,-0.08918083,0.004602541,0.009715504,-0.10078065,-0.3256114,-0.11492168,-9.423578,0.7866488,47.691364,-0.87630093,-2.3102908,-3.209968,-0.10758509,0.025676133,-0.12845694,28.4375,29.75,28.8125,32.5625,35.0625,36.0625
0.1580545,-0.90765405,-0.28000987,-0.4454661,0.032328527,0.061153833,-0.15848716,-0.39480954,-0.36696932,0.059974752,3.0772812,-0.6273207,0.00017573197,-0.07381854,0.02339662,0.0031238694,-0.016730573,0.009371175,-0.015245242,0.49639687,-1.3758783,1.8973216,-2.0913389,-1.5698541,2.4730651,-0.113293655,0.069824055,-0.0911087,0.005122792,0.010117249,-0.09801073,-0.3256114,-0.019153614,-9.385271,0.80679786,47.66808,-0.9324839,-2.3237314,-3.2096934,-0.10953842,0.039471447,-0.12338132,28.4375,29.75,28.8125,32.5625,35.0625,36.0625
0.16005394,-0.6801426,-0.41454864,-0.5202665,0.03341994,0.046393737,-0.15134217,-0.39494768,-0.36690852,0.059966005,3.0772593,-0.62743443,0.0001773181,-0.075152546,0.024962207,0.0022339611,-0.014917764,0.008366198,-0.022185646,0.49616832,-1.3757336,1.8971671,-2.0913274,-1.5698546,2.4729104,-0.11641959,0.07196729,-0.09167955,0.005300363,0.009001992,-0.094194755,-0.2681506,-0.038307227,-9.404425,0.80456203,47.666286,-1.009089,-2.2828321,-3.231986,-0.11653666,0.055872843,-0.18826753,28.4375,29.75,28.8125,32.5625,35.0625,36.0625
0.16205473,-1.2247714,-1.0956863,-0.76921415,0.030023804,0.01281216,-0.13861856,-0.3951135,-0.36684287,0.059984844,3.0771956,-0.62759435,0.000120890356,-0.074362345,0.023955133,0.0022185391,-0.014344336,0.00816737,-0.023650376,0.49590605,-1.3756131,1.8969759,-2.0913036,-1.5698546,2.4727561,-0.11370791,0.07259582,-0.092555635,0.0059959907,0.008597592,-0.090017214,-0.21068975,0.038307227,-9.404425,0.8157518,47.666286,-1.0402961,-2.3808255,-3.2399173,-0.12255754,0.06713061,-0.23352164,28.4375,29.75,28.8125,32.5625,35.0625,36.0625
0.16405442,-0.6221228,-0.90683115,-0.6423842,0.0017576033,0.019745657,-0.15125883,-0.39528203,-0.36678892,0.059980582,3.0771677,-0.627631,2.620989e-05,-0.077054195,0.02603628,0.0017969925,-0.0146901775,0.007558399,-0.031769093,0.49567586,-1.3754444,1.8967961,-2.0913513,-1.5698785,2.4725525,-0.119997084,0.07450061,-0.093803465,0.005706405,0.009195332,-0.08818685,-0.19153613,0.095768064,-9.3661175,0.78888994,47.653748,-0.89945555,-2.3712044,-3.226161,-0.12876265,0.05911223,-0.27009064,28.4375,29.75,28.8125,32.5625,35.0625,36.0625
0.16605413,-0.6199949,-1.2059258,-0.7449057,-0.0038991221,0.012121533,-0.15023689,-0.39539695,-0.36675397,0.059976112,3.0771687,-0.62764865,9.4392e-05,-0.07703827,0.025162708,0.0021755272,-0.015472056,0.008213246,-0.03017331,0.49549684,-1.375288,1.8966044,-2.0912797,-1.5698541,2.4723845,-0.11871289,0.07474427,-0.09495547,0.0056696283,0.009568651,-0.088498615,-0.11492168,0.17238252,-9.442732,0.75084364,47.694946,-0.99439114,-2.353681,-3.2619638,-0.09294623,0.06148419,-0.31518033,28.4375,29.75,28.8125,32.5625,35.0625,36.0625
0.16805415,-0.26311037,-0.8987506,-0.6919907,-0.020690555,0.016379757,-0.15260032,-0.39560083,-0.36669073,0.060016204,3.0770178,-0.6278466,-7.9909805e-05,-0.07775825,0.025841516,0.0019292184,-0.014559464,0.0077629695,-0.03060343,0.4951971,-1.3751917,1.8964123,-2.0913384,-1.5698427,2.4722276,-0.12010172,0.07583287,-0.09583515,0.00629746,0.00899799,-0.08945503,0.0,0.19153614,-9.461885,0.8940802,47.709274,-0.9609985,-2.39077,-3.2783384,-0.11605665,0.09662062,-0.31525463,28.4375,29.75,28.8125,32.5625,35.0625,36.0625
0.17005467,-0.5577131,-1.2559034,-0.5961473,-0.014345216,0.014335908,-0.15134808,-0.39571825,-0.36664,0.059987415,3.0770397,-0.62786967,5.908896e-05,-0.07814359,0.025566893,0.001937104,-0.015242941,0.006742531,-0.029864097,0.49498165,-1.3749992,1.896233,-2.0912669,-1.569806,2.4720237,-0.12062885,0.07703424,-0.09753817,0.0073748576,0.010079229,-0.090722345,-0.038307227,0.24899697,-9.346964,0.8179876,47.689575,-1.0232383,-2.295175,-3.2570732,-0.13076279,0.09736331,-0.31915027,28.4375,29.75,28.8125,32.5625,35.0625,36.0625
0.17205423,-0.10969634,-1.5171512,-0.5880557,-0.010361229,0.020495294,-0.14162442,-0.3958886,-0.366594,0.06000825,3.0769641,-0.6279312,-2.7057276e-05,-0.077981286,0.025738137,0.00038927788,-0.014445304,0.0034691151,-0.031093793,0.49474132,-1.3748657,1.8960298,-2.0912788,-1.569794,2.4718316,-0.12125771,0.080186985,-0.09787259,0.007816018,0.010941854,-0.09012071,0.0,0.2681506,-9.442732,0.8112748,47.660015,-1.0053325,-2.4618108,-3.2879944,-0.1363256,0.09213266,-0.35630402,28.4375,29.75,28.8125,32.5625,35.0625,36.0625
0.17405456,-0.1136285,-1.2556275,-0.54995096,-0.021637568,0.019239264,-0.15338302,-0.39603573,-0.36653566,0.060003698,3.0769472,-0.62796414,-1.4996793e-05,-0.07975282,0.026751501,0.0019399757,-0.016275218,0.006485003,-0.031940706,0.49450132,-1.3747106,1.8958505,-2.091255,-1.5697817,2.4716144,-0.12464561,0.07761454,-0.09821614,0.0072144424,0.01112348,-0.09266207,0.076614454,0.2681506,-9.32781,0.8403672,47.67614,-1.096285,-2.3263817,-3.2496614,-0.1415571,0.0963193,-0.36521882,28.4375,29.75,28.8125,32.5625,35.0625,36.0625
0.17605484,-0.33944863,-1.3145899,-0.5316059,-0.02251737,0.014074101,-0.15026955,-0.3961797,-0.3664867,0.059972603,3.076906,-0.6280898,0.000105014115,-0.08095469,0.025225561,0.0027655128,-0.01839687,0.008176584,-0.031821802,0.49425003,-1.374494,1.8956584,-2.0912306,-1.5697211,2.4714468,-0.123786405,0.07927246,-0.10199219,0.006840836,0.012177949,-0.09192134,0.038307227,0.2681506,-9.385271,0.8179876,47.709274,-1.0541506,-2.1812706,-3.2588394,-0.13440514,0.10096842,-0.38407278,28.4375,29.75,28.8125,32.5625,35.0625,36.0625
0.17805415,-0.24675429,-1.3562531,-0.6405546,-0.017121375,0.008793495,-0.15483627,-0.39635658,-0.36642823,0.05999592,3.076846,-0.62820804,8.987898e-06,-0.07994481,0.026584694,-0.00059456733,-0.015133721,0.002310931,-0.028149122,0.4939982,-1.3743601,1.8954438,-2.0912192,-1.5697335,2.4712765,-0.1250586,0.08364776,-0.09953801,0.0067300727,0.012105602,-0.096865624,0.038307227,0.24899697,-9.385271,0.82022345,47.64479,-1.128895,-2.4874606,-3.4090133,-0.120102055,0.0970204,-0.4080346,28.4375,29.75,28.8125,32.5625,35.0625,36.0625
0.18005463,-0.30669394,-1.4796036,-0.49663565,-0.011994242,0.012275409,-0.156993,-0.39652744,-0.36636806,0.060003437,3.076802,-0.6282556,-2.2833325e-05,-0.08280577,0.026390305,0.0022138613,-0.018056821,0.007147459,-0.02627928,0.49373373,-1.3742046,1.8952392,-2.0912068,-1.5697211,2.4710474,-0.12746033,0.081895515,-0.10397437,0.007282127,0.012388683,-0.101135544,0.038307227,0.22984336,-9.270349,0.72622824,47.627773,-1.0555098,-2.2715383,-3.3669891,-0.14192033,0.09720984,-0.33299193,28.4375,29.75,28.8125,32.5625,35.0625,36.0625
0.18205474,-0.011906475,-1.2465711,-0.44755632,-0.0036728159,0.019180067,-0.15051134,-0.39671084,-0.36634088,0.060032852,3.0767102,-0.6282719,-0.00012585601,-0.08234836,0.026871337,0.00065151317,-0.017526694,0.0039552096,-0.02179785,0.49350595,-1.3740478,1.8949889,-2.0912192,-1.5696968,2.4708416,-0.12846029,0.08397166,-0.102877416,0.007178522,0.013455483,-0.10661631,0.019153614,0.21068975,-9.251195,0.7911258,47.67614,-1.0842311,-2.3464293,-3.4208841,-0.120560095,0.093214475,-0.286331,28.4375,29.75,28.8125,32.5625,35.0625,36.0625
0.18405402,-0.88365877,-1.1259689,-0.62664974,0.006142174,-0.002844664,-0.14756748,-0.39686558,-0.3662829,0.060031846,3.076636,-0.6284058,-6.42854e-05,-0.083507955,0.026758963,0.0011693004,-0.018033363,0.005247783,-0.016165907,0.4932305,-1.3738915,1.8947972,-2.091183,-1.5696367,2.4706593,-0.12917705,0.0846835,-0.10489993,0.0071283868,0.013294383,-0.11296408,0.019153614,0.19153613,-9.308656,0.87617236,47.66987,-1.109142,-2.3739717,-3.3466053,-0.1324079,0.09829244,-0.24757895,28.4375,29.75,28.8125,32.5625,35.0625,36.0625
0.18605497,-0.9103685,-0.8687858,-0.28282696,0.0021169775,0.015054075,-0.15841457,-0.39702034,-0.36622798,0.060011797,3.0766387,-0.6283449,-5.273804e-05,-0.08559445,0.02698721,0.0022178157,-0.019225763,0.0075543346,-0.0110852495,0.49299005,-1.3736991,1.894617,-2.0911953,-1.5696248,2.4703805,-0.13138597,0.0850134,-0.10765319,0.006968231,0.013256916,-0.120252535,-0.076614454,0.13407528,-9.270349,0.8537928,47.703903,-1.1089092,-2.3242192,-3.2455473,-0.14033921,0.10986264,-0.1778405,28.4375,29.75,28.8125,32.5625,35.0625,36.0625
0.18805477,-1.5733742,-0.564843,-0.6225297,0.016225033,0.011361968,-0.15585454,-0.39717892,-0.36620453,0.06000179,3.0765827,-0.62831384,9.263606e-06,-0.08628833,0.02766143,-8.8701134e-05,-0.017443914,0.0035430538,-0.012228827,0.49276188,-1.3734809,1.8943776,-2.091183,-1.5695528,2.4701402,-0.13330571,0.090476185,-0.10898063,0.007221312,0.013587679,-0.12102745,-0.1340753,0.21068975,-9.289502,0.8403672,47.703007,-1.082335,-2.374449,-3.2546704,-0.13801606,0.1174404,-0.09709713,28.4375,29.75,28.8125,32.5625,35.0625,36.0625
0.19005485,-1.6568354,-0.4926542,-0.5932022,0.013978895,0.029275203,-0.16013889,-0.39737228,-0.36613083,0.060015492,3.0765455,-0.6283807,-3.248252e-05,-0.08693894,0.027960833,0.00064492994,-0.018651718,0.0038705615,-0.011851843,0.4924621,-1.3733131,1.8941387,-2.0911467,-1.5695523,2.469887,-0.13490775,0.089584045,-0.1097919,0.008068216,0.014506914,-0.12300637,-0.3256114,0.22984336,-9.308656,0.7978386,47.681515,-1.0665464,-2.3028185,-3.3556104,-0.15415838,0.10937591,-0.07979168,28.4375,29.75,28.8125,32.5625,35.0625,36.0625
0.19205423,-1.5547845,-0.4928439,-0.24790448,0.001140359,0.04977272,-0.15427524,-0.39752266,-0.36607724,0.060005583,3.0765078,-0.62841463,5.8228707e-05,-0.08733242,0.028350083,-0.0007101754,-0.017262539,0.0012367823,-0.01759591,0.49219838,-1.3731319,1.8939351,-2.091099,-1.5694922,2.4696493,-0.13587989,0.093066014,-0.11103811,0.008815466,0.014521756,-0.11823388,-0.4213795,0.076614454,-9.346964,0.80679786,47.645687,-1.12398,-2.3626308,-3.1352105,-0.15175396,0.11593897,-0.080904454,28.4375,29.75,28.8125,32.5625,35.0625,36.0625
0.19405489,-1.3925279,-0.8125739,-0.3576816,0.00815588,0.07648539,-0.15028217,-0.39771852,-0.3660216,0.060006425,3.0764754,-0.62842965,-2.4491943e-05,-0.08867228,0.028271075,0.0008657003,-0.019246683,0.003915805,-0.023703234,0.4919346,-1.3729281,1.8936962,-2.0911224,-1.5695041,2.4693992,-0.13719904,0.09149709,-0.112768106,0.00881079,0.01500588,-0.11344469,-0.6703765,0.17238252,-9.308656,0.800085,47.66091,-1.0043083,-2.3655958,-3.4361544,-0.1508817,0.094121635,-0.12897189,28.4375,29.75,28.8125,32.5625,35.0625,36.0625
0.19605535,-2.6138644,-0.2874179,-0.3387035,0.0047893203,0.06095695,-0.15160677,-0.39787835,-0.36592332,0.05996836,3.0764878,-0.62855035,0.00010111518,-0.08996149,0.029738955,-4.8263646e-05,-0.017572453,0.0025857764,-0.030821357,0.49161002,-1.3727231,1.8935279,-2.0910742,-1.5694808,2.4691484,-0.14025015,0.093860134,-0.11362723,0.0092754215,0.014147547,-0.10937786,-0.80445176,0.05746084,-9.251195,0.82022345,47.689575,-1.0774515,-2.343689,-3.1494966,-0.184028,0.12739448,-0.19999719,28.4375,29.75,28.8125,32.5625,35.0625,36.0625
0.1980549,-1.902615,0.20790586,-0.17054285,-0.00013666434,0.09195176,-0.15843254,-0.39804038,-0.36589384,0.059986413,3.0763984,-0.6286843,0.00010646854,-0.08998439,0.028346475,-0.00014632988,-0.018051567,0.0024207723,-0.03248086,0.49138358,-1.3725542,1.8932751,-2.0910265,-1.5694321,2.469017,-0.1381859,0.09601903,-0.116021305,0.009431989,0.014645643,-0.10565263,-0.7661445,0.095768064,-9.308657,0.8537928,47.675243,-1.1113962,-2.4689248,-3.2657266,-0.18392646,0.10847052,-0.23522209,28.4375,29.75,28.8125,32.5625,35.0625,36.0625
0.20005395,-2.1677568,-0.12666602,-0.17021668,0.013070192,0.093054205,-0.15543486,-0.3982459,-0.36585057,0.05999937,3.0762877,-0.6287408,4.0965195e-05,-0.09145402,0.028584689,0.00018711729,-0.018372899,0.0031219306,-0.03598621,0.4910954,-1.3723615,1.8930248,-2.0910628,-1.5693845,2.4687784,-0.13982221,0.0972746,-0.11836139,0.009753684,0.014604935,-0.10378117,-0.80445176,0.1340753,-9.308656,0.8851263,47.683304,-1.190183,-2.4208417,-3.1761627,-0.18654898,0.132018,-0.286429,28.4375,29.75,28.8125,32.5625,35.0625,36.0625
0.2020541,-2.3587294,-0.16364396,-0.36424524,0.028697137,0.08203662,-0.14903757,-0.39842835,-0.3657935,0.05999322,3.0762432,-0.6288666,6.638496e-05,-0.092832424,0.02880478,0.00023693993,-0.019016212,0.0036131518,-0.03941526,0.4908194,-1.3721452,1.892773,-2.0910265,-1.5693601,2.4685867,-0.14158277,0.098706774,-0.120101094,0.009327901,0.01493722,-0.102111936,-0.8619126,0.15322891,-9.212888,0.8291774,47.66808,-1.1765302,-2.5153444,-3.1289618,-0.19220707,0.12302958,-0.34562665,28.4375,29.75,28.8125,32.5625,35.0625,36.0625
0.20405461,-2.3508937,-0.18492173,-0.43222627,0.027978087,0.073012404,-0.1454351,-0.39861363,-0.3657305,0.059991498,3.0761917,-0.6289515,6.123517e-05,-0.09390888,0.029252358,0.00021531124,-0.018178588,0.004293224,-0.041195963,0.4905316,-1.3719522,1.8925446,-2.0910146,-1.5693368,2.4683585,-0.14259043,0.09995002,-0.12155253,0.009340388,0.01387987,-0.10133744,-0.842759,0.05746084,-9.346964,0.8179876,47.66987,-1.1086622,-2.5124469,-3.1197414,-0.18930212,0.13781524,-0.37943396,28.4375,29.75,28.8125,32.5625,35.0625,36.0625
0.20605499,-2.2211561,-0.35357875,-0.29243731,0.018294828,0.06972241,-0.1532274,-0.39882526,-0.36568537,0.06002212,3.0760672,-0.6291203,-1.712165e-05,-0.09639235,0.030520322,0.0011441506,-0.01920487,0.0064553884,-0.046298288,0.49024257,-1.371772,1.892258,-2.0910027,-1.569301,2.468191,-0.14682361,0.09967381,-0.12325632,0.008936558,0.013774666,-0.10046636,-0.8619126,0.038307227,-9.308656,0.87393653,47.694946,-1.0074421,-2.4304917,-3.0800474,-0.19254816,0.15485315,-0.44068694,28.4375,29.75,28.8125,32.5625,35.0625,36.0625
0.20805454,-2.1205118,-0.48019746,-0.4833491,0.011265593,0.076379366,-0.15583201,-0.3989913,-0.3656011,0.059995323,3.0760558,-0.62928766,5.4787743e-05,-0.09658011,0.030376416,0.00061091705,-0.018059244,0.0056121284,-0.04401972,0.48994374,-1.3715672,1.8920668,-2.0909665,-1.5692891,2.467998,-0.14631386,0.10175983,-0.12469605,0.0095836045,0.013160386,-0.10223488,-0.91937345,-0.038307227,-9.32781,0.7978386,47.66091,-1.1692251,-2.4184093,-3.0601614,-0.1829605,0.1679459,-0.4730856,28.4375,29.75,28.8125,32.5625,35.0625,36.0625
0.21005483,-1.4376568,-0.15046036,-0.4649846,0.006027772,0.0946009,-0.15987152,-0.39920992,-0.36552495,0.059988186,3.0759804,-0.6294805,7.7625395e-05,-0.097090356,0.030452387,0.001108036,-0.018857514,0.006171753,-0.041116815,0.4895962,-1.3713274,1.8917922,-2.0909426,-1.5692528,2.4677806,-0.14710163,0.101362586,-0.12543803,0.009865682,0.013610762,-0.10592542,-0.7086837,0.019153614,-9.289502,0.91421866,47.661808,-1.1861489,-2.4027815,-3.1467297,-0.21261697,0.15890786,-0.48922914,28.4375,29.75,28.8125,32.5625,35.0625,36.0625
0.2120544,-1.8605622,-0.70943165,-0.5870482,0.020048711,0.082640484,-0.1437542,-0.39940175,-0.36546364,0.059986085,3.0759597,-0.62947035,3.579165e-05,-0.09768555,0.03117282,0.00018561193,-0.018186418,0.004553176,-0.0339457,0.4893203,-1.3711225,1.8915528,-2.0909426,-1.5692528,2.4675012,-0.14889766,0.10342881,-0.12584575,0.009967558,0.013796733,-0.11489175,-0.6512229,-0.019153614,-9.5385,0.80679786,47.664497,-1.1886513,-2.3815205,-3.2221925,-0.21811911,0.1825684,-0.45205238,28.4375,29.75,28.8125,32.5625,35.0625,36.0625
0.21405455,-1.5426614,-0.34108305,-0.44754466,0.009788964,0.08322702,-0.15140979,-0.39957303,-0.3653994,0.059959024,3.075911,-0.6295905,0.00014076362,-0.098203965,0.031144332,0.000898763,-0.019472227,0.005177588,-0.028646495,0.48902068,-1.3708944,1.8913373,-2.0909183,-1.5691923,2.4672828,-0.14977577,0.102690436,-0.12671372,0.010436159,0.014644306,-0.12106974,-0.4405331,-0.076614454,-9.519346,0.800085,47.66987,-1.2008693,-2.4173048,-3.1398416,-0.23138961,0.18430278,-0.39123642,28.4375,29.75,28.8125,32.5625,35.0625,36.0625
0.21605465,-1.636487,-0.6489506,-0.7041126,0.024324838,0.057944804,-0.15458252,-0.3997857,-0.3653338,0.05997247,3.0758257,-0.6296826,0.00010537493,-0.09948199,0.031134292,-0.00021887592,-0.01847785,0.0043440363,-0.019102132,0.48869705,-1.3707008,1.8910736,-2.0909069,-1.5691565,2.4670277,-0.15054344,0.10703,-0.12922731,0.009840022,0.014174714,-0.13137916,-0.22984336,0.0,-9.385271,0.82022345,47.675243,-1.2213926,-2.3645918,-3.2187338,-0.22832054,0.17674567,-0.2858948,28.4375,29.75,28.8125,32.5625,35.0625,36.0625
0.2180547,-0.9012416,-0.012481955,-0.71924937,0.014996562,0.050323326,-0.15367363,-0.3999741,-0.36525157,0.059957325,3.0758357,-0.6297968,0.00013715272,-0.099687,0.03197527,0.00048472662,-0.019232372,0.005654455,-0.015544398,0.48839712,-1.3704733,1.8908232,-2.0908473,-1.5691689,2.4667978,-0.15210813,0.10442953,-0.1276389,0.009351292,0.014233374,-0.13650317,-0.13407528,-0.05746084,-9.442732,0.90750587,47.675243,-1.2694396,-2.4287834,-3.3240116,-0.22474858,0.20171988,-0.21634808,28.4375,29.75,28.8125,32.5625,35.0625,36.0625
0.22005436,-0.44723558,-0.156878,-0.8380081,0.009227847,0.036772013,-0.15317191,-0.40021348,-0.36520758,0.05999473,3.0757134,-0.6298067,3.3904387e-06,-0.09948749,0.032339256,-0.001421922,-0.017104728,0.0025387409,-0.012161173,0.48808587,-1.3702799,1.8905133,-2.090871,-1.5691327,2.4665086,-0.15221581,0.10820512,-0.12787732,0.009580234,0.013843316,-0.13999143,-0.038307227,-0.038307227,-9.576807,0.8403672,47.698532,-1.2969495,-2.4271085,-3.294555,-0.23106912,0.22329123,-0.16411528,28.4375,29.75,28.8125,32.5625,35.0625,36.0625
0.22205447,-0.14810418,-0.6050657,-0.7634367,0.008666264,0.026939949,-0.1503483,-0.4004134,-0.36511162,0.059978418,3.0757143,-0.62982666,4.3432025e-05,-0.10061469,0.033073783,-0.00062850583,-0.01857769,0.0039348966,-0.014149214,0.4877375,-1.3700644,1.8902854,-2.0908353,-1.5691203,2.4661727,-0.15478607,0.10683155,-0.12795754,0.0091155805,0.014490019,-0.14057429,-0.114921674,0.019153614,-9.576807,0.82694155,47.652847,-1.2629536,-2.3843164,-3.4007454,-0.21879837,0.22388172,-0.14804009,28.4375,29.75,28.8125,32.5625,35.0625,36.0625
0.22405463,-0.36318296,-0.48729768,-0.7579089,-0.00029300392,0.013305528,-0.1496917,-0.40062505,-0.3650309,0.0599475,3.0756836,-0.6299793,4.3729557e-05,-0.10337531,0.03480976,-0.0008523786,-0.018429825,0.0041862465,-0.025348969,0.4874124,-1.3697993,1.890045,-2.0908592,-1.5691208,2.465947,-0.15994138,0.10906112,-0.13007271,0.008844357,0.014232446,-0.13452868,0.0,0.05746084,-9.461885,0.8784135,47.67614,-0.9853622,-2.469476,-3.520173,-0.22750205,0.24377553,-0.16219017,28.4375,29.75,28.8125,32.5625,35.0625,36.0625
0.22605488,0.20633447,-0.38009515,-0.8358638,-0.0025673597,0.010471025,-0.15375675,-0.40083832,-0.36496574,0.0599562,3.0756197,-0.63004315,3.982174e-05,-0.10256978,0.03542107,-0.0016929135,-0.018357871,0.0015394111,-0.03017652,0.48708913,-1.3695831,1.8897594,-2.090823,-1.569084,2.4656718,-0.16089706,0.10908287,-0.12835321,0.009474734,0.015416292,-0.13065729,0.15322891,0.15322891,-9.500193,0.8224646,47.698532,-1.0497484,-2.430521,-3.509489,-0.23616076,0.23988953,-0.21438566,28.4375,29.75,28.8125,32.5625,35.0625,36.0625
0.22805451,0.21825276,-0.6391168,-0.97101486,-0.002909872,-0.0014194773,-0.15594116,-0.40102407,-0.3648876,0.059937242,3.075612,-0.63010186,0.000107273736,-0.10555057,0.03535886,0.0007774284,-0.020725003,0.0061665764,-0.037303634,0.4867768,-1.3693551,1.8895196,-2.0907748,-1.5690602,2.4653971,-0.16333292,0.10812131,-0.13291301,0.009799616,0.015327082,-0.12596506,0.05746084,0.17238252,-9.481039,0.8403672,47.690468,-0.9320963,-2.2399702,-3.417772,-0.24599278,0.26398006,-0.2885832,28.4375,29.75,28.8125,32.5625,35.0625,36.0625
0.23005496,0.09702216,-1.0746967,-0.82914054,-0.00010657094,-0.0043578236,-0.14549237,-0.4012369,-0.36482158,0.059941262,3.0755067,-0.63029075,7.2619885e-05,-0.10572744,0.035795648,-0.0013139383,-0.019883709,0.0021619357,-0.039544955,0.48645312,-1.3691492,1.8892678,-2.0907872,-1.569024,2.465205,-0.16484764,0.11246322,-0.13337454,0.009856835,0.016465899,-0.12523691,0.038307227,0.21068975,-9.519346,0.8403672,47.66271,-1.0253028,-2.5214376,-3.5038059,-0.24032724,0.27072322,-0.31790078,28.4375,29.75,28.8125,32.5625,35.0625,36.0625
0.2320544,0.12469483,-1.1950117,-0.9705122,-0.0014671509,0.0071827215,-0.14839843,-0.40148205,-0.36475188,0.05997068,3.0754087,-0.63040286,2.237207e-05,-0.105643824,0.03463252,0.00061556516,-0.021771204,0.004674298,-0.03811412,0.48609456,-1.3689342,1.8889335,-2.090739,-1.5689877,2.464929,-0.16303541,0.109902464,-0.13495919,0.010907133,0.016972374,-0.12485433,0.038307227,0.24899697,-9.442732,0.8560339,47.681515,-1.116231,-2.261448,-3.4267678,-0.25799912,0.27683547,-0.3289246,28.4375,29.75,28.8125,32.5625,35.0625,36.0625
0.23405452,0.59248793,-1.298985,-1.1485296,-0.005541351,0.035886344,-0.15360928,-0.40167925,-0.3646773,0.059965916,3.0753517,-0.6305064,4.5408728e-05,-0.10628408,0.03516049,-0.0013517406,-0.020325175,0.0007902893,-0.04005402,0.4857708,-1.368728,1.8886932,-2.0907152,-1.5689515,2.4646773,-0.16475156,0.11492203,-0.13669011,0.011736034,0.017510783,-0.1246291,-0.019153614,0.2681506,-9.634268,0.8247004,47.66539,-1.0775049,-2.5395222,-3.3970857,-0.27982837,0.2627551,-0.35786426,28.4375,29.75,28.8125,32.5625,35.0625,36.0625
0.23605393,-0.49937218,-1.5779501,-1.1016308,-0.022469413,0.0328606,-0.14297038,-0.40188083,-0.36460766,0.05996249,3.0753036,-0.63064927,7.143058e-05,-0.10755497,0.035202373,-8.344704e-05,-0.022505404,0.0023945558,-0.03992237,0.4854586,-1.3685002,1.8884181,-2.0906665,-1.5689267,2.4644606,-0.16660495,0.11385233,-0.13839391,0.012081163,0.018693428,-0.12661384,0.15322891,0.34476507,-9.576807,0.8090337,47.70211,-1.061688,-2.3425493,-3.393865,-0.27263707,0.2818355,-0.37679386,28.4375,29.75,28.8125,32.5625,35.0625,36.0625
0.2380544,-0.35507712,-1.89946,-0.94161713,-0.03912584,0.04781728,-0.15000457,-0.4021059,-0.3645449,0.059987023,3.0752087,-0.63074124,4.8809663e-05,-0.108551316,0.03571788,-0.00015068757,-0.02272398,0.0019124653,-0.03689176,0.48512283,-1.3682959,1.8881077,-2.0906184,-1.5688785,2.4641945,-0.1685377,0.11499981,-0.1397573,0.0126416655,0.019128792,-0.13157555,-0.019153614,0.4405331,-9.557653,0.74413085,47.691364,-1.1017956,-2.3511133,-3.4974847,-0.28907865,0.28351253,-0.35783392,28.4375,29.75,28.8125,32.5625,35.0625,36.0625
0.24005394,-0.52591336,-1.8398199,-1.1205992,-0.049728338,0.041040104,-0.14900531,-0.40235424,-0.36446634,0.059985016,3.0751524,-0.6308218,3.0697915e-06,-0.110109195,0.036365908,-7.577636e-05,-0.023124786,0.002205877,-0.032211687,0.48476258,-1.3680311,1.8877963,-2.0906184,-1.5688671,2.463892,-0.17106098,0.1162996,-0.14151332,0.012672547,0.019364443,-0.13877723,-0.038307227,0.51714754,-9.634268,0.8179876,47.681515,-0.9265889,-2.3083653,-3.4109292,-0.31333125,0.28461677,-0.28857082,28.4375,29.75,28.8125,32.5625,35.0625,36.0625
0.24205446,-0.31603992,-2.1230257,-0.97568816,-0.052605923,0.046946894,-0.1544249,-0.40254596,-0.3643842,0.059960034,3.0751426,-0.63089216,7.289713e-05,-0.11161797,0.036746953,0.00010014841,-0.023985391,0.0024928157,-0.026651021,0.48443866,-1.3677903,1.8875574,-2.0905826,-1.5688423,2.4636133,-0.17335616,0.117590405,-0.14349212,0.012728096,0.019998739,-0.14663292,-0.095768064,0.45968673,-9.730036,0.94331104,47.651955,-0.94490147,-2.3140724,-3.361125,-0.31836832,0.27901018,-0.20734733,28.4375,29.75,28.8125,32.5625,35.0625,36.0625
0.24405485,-1.2108485,-1.8409078,-0.8394341,-0.06351296,0.03896345,-0.14632984,-0.40277734,-0.36431745,0.059985265,3.0750387,-0.63094217,1.675767e-05,-0.11393423,0.035856932,0.0014143968,-0.025825618,0.0057984632,-0.020665994,0.48409116,-1.3675977,1.8872675,-2.0905707,-1.5687941,2.4633105,-0.17389002,0.11901491,-0.14805385,0.0121093765,0.020104999,-0.1531482,-0.22984336,0.4213795,-9.691729,0.8537928,47.67614,-0.8656758,-2.3686266,-3.3549352,-0.32695323,0.31111002,-0.09156058,28.4375,29.75,28.8125,32.5625,35.0625,36.0625
0.24605459,-1.4117801,-1.8940312,-0.73728085,-0.031327654,0.04730701,-0.1364304,-0.4030149,-0.36426067,0.060017392,3.0749402,-0.63093936,-5.0547933e-05,-0.11400605,0.03629874,0.00092288136,-0.025983924,0.0048202486,-0.018781269,0.48375535,-1.3673934,1.8869451,-2.0905468,-1.5687464,2.4629858,-0.17497891,0.11951668,-0.14750083,0.011864702,0.020725835,-0.15612002,-0.28730422,0.36391866,-9.481039,0.8023209,47.701214,-0.92710596,-2.2720294,-3.2521977,-0.3302808,0.2948429,-0.060187727,28.4375,29.75,28.8125,32.5625,35.0625,36.0625
0.24805403,-1.0683391,-0.8580669,-0.53544104,-0.018650815,0.07269639,-0.14892891,-0.40324256,-0.36420056,0.059994765,3.0748703,-0.6310052,2.3255796e-05,-0.11596269,0.036236156,0.0007813445,-0.027438952,0.0048840847,-0.026192542,0.48340762,-1.3670921,1.8866342,-2.0905354,-1.568674,2.4626882,-0.17728132,0.12243705,-0.15056646,0.01128067,0.021973256,-0.15100937,-0.34476504,0.28730422,-9.461885,0.8806493,47.688675,-1.0772521,-2.4227786,-3.0766497,-0.33949345,0.2899284,-0.073545195,28.4375,29.75,28.8125,32.5625,35.0625,36.0625
0.25005472,-1.3577111,-0.69337857,-0.39532638,-0.0013850076,0.07857797,-0.14089593,-0.40346614,-0.36413556,0.05999545,3.0748174,-0.63109136,1.8908051e-05,-0.1161508,0.034691297,0.0009142336,-0.029174564,0.006201171,-0.029991927,0.48308492,-1.3668395,1.8863229,-2.0905,-1.5686492,2.4624262,-0.1753253,0.1236587,-0.15193878,0.009454335,0.022890486,-0.14525247,-0.40222588,0.21068975,-9.404425,0.8291774,47.709274,-1.0915798,-2.3443322,-3.0818024,-0.32523692,0.27173686,-0.11280686,28.4375,29.75,28.8125,32.5625,35.0625,36.0625
0.25205418,-1.5449938,-0.13502228,-0.17079237,0.0044188453,0.076426625,-0.15093015,-0.40369585,-0.36409387,0.06002907,3.074646,-0.6311351,1.0394497e-05,-0.11665856,0.03475129,-0.0007566049,-0.027979402,0.0039437884,-0.038072243,0.48273766,-1.3666457,1.8860124,-2.0904882,-1.5685295,2.4621284,-0.17577143,0.12800333,-0.15324996,0.008983769,0.022883877,-0.13761476,-0.4213795,0.1340753,-9.3661175,0.8493211,47.647476,-1.2146671,-2.4712572,-3.132637,-0.3135599,0.27564135,-0.19376558,28.4375,29.75,28.8125,32.5625,35.0625,36.0
0.2540546,-1.3067583,0.1198078,-0.010626039,0.008394139,0.08131436,-0.14580376,-0.40393773,-0.36401176,0.060007077,3.0745835,-0.63131493,-9.052208e-06,-0.11766059,0.034197822,0.0018033995,-0.030066255,0.008803834,-0.041246388,0.4823786,-1.3663588,1.8857249,-2.0905125,-1.568518,2.4618897,-0.17537406,0.12446286,-0.15482678,0.0088309925,0.022477107,-0.13404286,-0.47884035,0.095768064,-9.385271,0.82694155,47.666286,-1.2381299,-2.422309,-3.0233302,-0.30937767,0.28247276,-0.25136733,28.4375,29.75,28.8125,32.5625,35.0,36.0
0.25605425,-1.3382083,0.08908106,-0.04586372,0.019565143,0.07573249,-0.15175627,-0.4041671,-0.36393002,0.05999292,3.0745444,-0.6314222,-1.0285318e-05,-0.119133405,0.03432206,0.0011710083,-0.029692382,0.0082504,-0.044720035,0.48203084,-1.3660932,1.8854369,-2.0905006,-1.5685056,2.4616141,-0.17674203,0.12795697,-0.15758424,0.008763194,0.0224013,-0.13193546,-0.59376204,0.11492168,-9.212888,0.8627467,47.66091,-1.251673,-2.5607233,-3.1194732,-0.31422734,0.27838874,-0.35047817,28.4375,29.75,28.8125,32.5625,35.0,36.0
0.2580542,-1.0843003,0.16114411,-0.233483,0.0235663,0.07270616,-0.14038435,-0.40444398,-0.36387596,0.060040306,3.0743997,-0.6315283,-9.369569e-05,-0.1193161,0.035955273,0.00027002348,-0.02838036,0.0065244935,-0.050837934,0.48165873,-1.3658528,1.8850311,-2.090452,-1.568446,2.461327,-0.17931361,0.12832627,-0.15606536,0.009021845,0.022058317,-0.12838733,-0.4405331,-0.05746084,-9.270349,0.92764956,47.698532,-1.2069235,-2.441171,-3.2443767,-0.2940838,0.28440076,-0.4043994,28.4375,29.75,28.8125,32.5625,35.0,36.0
0.26005477,-1.4943749,0.21583049,0.05593056,0.02058978,0.053344876,-0.15199624,-0.40468675,-0.3638144,0.06005433,3.0742736,-0.6316553,-0.0001622755,-0.119261764,0.036218487,-6.1127736e-05,-0.027516466,0.005765613,-0.05247823,0.48131153,-1.3656243,1.8847317,-2.0904763,-1.5683979,2.4610755,-0.1793572,0.1290276,-0.15632434,0.009663771,0.021660326,-0.12678869,-0.38307226,-0.15322891,-9.3661175,0.82694155,47.719128,-1.3401388,-2.4500349,-3.263373,-0.3069821,0.30358958,-0.47903168,28.4375,29.75,28.8125,32.5625,35.0,36.0
0.26205438,-1.0498246,0.15604042,0.35900173,0.0122882,0.07435676,-0.14896233,-0.40490285,-0.36373994,0.060031198,3.0742016,-0.6318102,-5.948803e-05,-0.11954874,0.036078107,-0.0005546115,-0.027377063,0.005059896,-0.048350826,0.4809516,-1.3653476,1.8844451,-2.09044,-1.5683259,2.4608216,-0.17940846,0.13076282,-0.15730399,0.009624652,0.021872416,-0.13096729,-0.4405331,-0.15322891,-9.193734,0.8985519,47.666286,-1.3892748,-2.4780881,-3.312201,-0.31671438,0.299693,-0.49453244,28.4375,29.75,28.8125,32.5625,35.0,36.0
0.26405475,-1.4194899,0.36660153,0.1866748,0.022757955,0.065119125,-0.15424128,-0.40517753,-0.36365515,0.060044,3.0741177,-0.63196105,-0.00015901265,-0.12012821,0.036423977,-0.0013707065,-0.026938155,0.0037331928,-0.040746454,0.48056722,-1.3650825,1.8840989,-2.09044,-1.5683259,2.4605424,-0.18054195,0.13306627,-0.15825075,0.009675914,0.02213005,-0.13970265,-0.30645782,-0.076614454,-8.983045,0.87617236,47.690468,-1.4897773,-2.396104,-3.2724662,-0.31478095,0.2879889,-0.4463797,28.4375,29.75,28.8125,32.5625,35.0,36.0
0.26605427,-1.2071552,0.55519,-0.052794386,0.040451724,0.054998994,-0.15079734,-0.40538442,-0.36359647,0.060014106,3.0740826,-0.63196784,-4.242367e-05,-0.12164231,0.03749055,-0.0001757908,-0.028193949,0.0051675667,-0.033431318,0.480242,-1.3647828,1.8837999,-2.0904033,-1.5682534,2.460226,-0.18385887,0.13146695,-0.15926649,0.010480739,0.022602472,-0.15033536,-0.076614454,-0.2681506,-9.097966,0.8672237,47.70211,-1.4179056,-2.436175,-3.334382,-0.31603712,0.2984962,-0.37054947,28.4375,29.75,28.8125,32.5625,35.0,36.0
0.2680548,-0.5883548,0.70246816,0.1276492,0.042144112,0.0367716,-0.15125836,-0.40563935,-0.3635052,0.060015842,3.0739925,-0.6321374,-0.00011733072,-0.12336996,0.03838751,-0.0002023419,-0.028775498,0.0057479087,-0.027319036,0.47985733,-1.3645419,1.8835133,-2.090428,-1.5682415,2.459959,-0.18694293,0.13264064,-0.160476,0.009765785,0.022882985,-0.15952939,-0.19153614,-0.15322891,-9.097966,0.94331104,47.698532,-1.3482931,-2.4719963,-3.2884574,-0.31980827,0.30169076,-0.27266198,28.4375,29.75,28.8125,32.5625,35.0,36.0
0.27005434,-0.004238219,0.8210033,0.36632237,0.034008358,0.027181359,-0.15617348,-0.40590334,-0.3634115,0.060024895,3.0739546,-0.63216555,-0.00015022994,-0.1243299,0.03877385,0.0007693014,-0.029147537,0.008289283,-0.022868464,0.47946107,-1.3642782,1.8831662,-2.09038,-1.56823,2.4595854,-0.18781173,0.13133305,-0.16102295,0.009221226,0.022062628,-0.16484863,-0.24899697,-0.1340753,-8.925584,0.8672237,47.683304,-1.3570652,-2.2378702,-3.3625002,-0.30093345,0.3097929,-0.19725543,28.4375,29.75,28.8125,32.5625,35.0,36.0
0.27205384,-0.6155719,0.32992047,-0.11215648,0.048926163,-0.0033711395,-0.13959235,-0.4061364,-0.36335206,0.060018837,3.0738506,-0.63224095,-0.00013702351,-0.12586689,0.039731927,0.0009439604,-0.028599912,0.008219793,-0.02400593,0.47911224,-1.3640138,1.8828663,-2.0903919,-1.5681576,2.4592972,-0.19039124,0.13259307,-0.16325802,0.010535471,0.02162508,-0.16628915,-0.11492168,-0.1340753,-9.136273,0.84708,47.66091,-1.2539866,-2.160835,-3.2305913,-0.30306822,0.33700067,-0.12631577,28.4375,29.75,28.8125,32.5625,35.0,36.0
0.27405512,-0.33758968,0.2155785,-0.33894598,0.030791696,0.0053420966,-0.15028085,-0.4064152,-0.36324853,0.060029756,3.0737789,-0.63242203,-0.00014351956,-0.12785546,0.039930377,0.002196974,-0.03012933,0.009940339,-0.02988215,0.4786794,-1.3637376,1.8824943,-2.0903199,-1.5681337,2.4589868,-0.19268547,0.1327841,-0.16656041,0.0114172045,0.022189708,-0.16270511,-0.095768064,-0.15322891,-9.32781,0.83365434,47.634937,-1.2065839,-2.162447,-3.239811,-0.30218327,0.32907003,-0.17782965,28.4375,29.75,28.8125,32.5625,35.0,36.0
0.27605492,-0.28341076,-0.31741196,-0.24847141,0.009795967,0.024244493,-0.14370386,-0.40662557,-0.3631567,0.06000383,3.0737443,-0.6325354,-7.516269e-05,-0.12825441,0.040456142,0.0014408219,-0.030064981,0.007408986,-0.039459366,0.4783187,-1.3634844,1.8822445,-2.0902956,-1.5680975,2.4587014,-0.19449045,0.13478652,-0.16756204,0.012682698,0.023285039,-0.15493211,-0.24899697,0.0,-9.270349,0.86498255,47.675243,-1.1145138,-2.1784697,-3.2575512,-0.32183158,0.33222836,-0.26317233,28.4375,29.75,28.8125,32.5625,35.0,36.0
0.2780546,-0.72590953,-0.60541934,-0.34362492,-0.0046063936,0.036906116,-0.14349853,-0.40692052,-0.36308432,0.060028378,3.0736148,-0.632684,-0.0001424765,-0.12957056,0.041004483,0.0018844766,-0.030580413,0.0075529558,-0.044760313,0.47790956,-1.363196,1.8818377,-2.0902708,-1.5680493,2.458402,-0.19667244,0.13544287,-0.16962522,0.013731851,0.023690073,-0.15180998,-0.34476504,0.11492168,-9.385271,0.89631605,47.68599,-0.9835479,-2.0979269,-3.2498116,-0.32834083,0.3507259,-0.3163169,28.4375,29.75,28.8125,32.5625,35.0,36.0
0.28005493,-1.3156319,-0.7847639,-0.8272358,-0.015289636,0.060054794,-0.14984994,-0.40715992,-0.36297274,0.060008295,3.0736141,-0.632801,-9.877101e-05,-0.12995517,0.042344168,0.001044097,-0.029507127,0.005087378,-0.048481107,0.47751302,-1.3629191,1.8815378,-2.0902107,-1.5680493,2.4580786,-0.19925684,0.13674405,-0.16963162,0.015125832,0.023873229,-0.15067427,-0.34476507,0.15322891,-9.500193,0.84484416,47.685097,-0.9775557,-2.1205976,-3.2929578,-0.35648865,0.34623423,-0.3558366,28.4375,29.75,28.8125,32.5625,35.0,36.0
0.28205457,-1.5146352,-0.9943992,-0.84223205,-0.018952461,0.08561929,-0.1493962,-0.40741673,-0.36292428,0.060022995,3.0734704,-0.6328651,-7.703804e-05,-0.13046297,0.042392977,0.0009353139,-0.029870855,0.0045581223,-0.04762742,0.47714102,-1.3626426,1.8811678,-2.0901864,-1.5679411,2.4577653,-0.20001538,0.13782363,-0.17080626,0.015551655,0.02445864,-0.15228394,-0.45968673,0.24899697,-9.653421,0.92093146,47.66808,-1.0782489,-2.1909118,-3.2116487,-0.37895048,0.32851186,-0.37555957,28.4375,29.75,28.8125,32.5625,35.0,36.0
0.284055,-1.4085579,-1.2059277,-0.92206556,-0.037014317,0.09868011,-0.15695192,-0.40766507,-0.3627973,0.05999473,3.0734441,-0.63309103,2.1283866e-05,-0.13129883,0.042470355,0.00017860821,-0.030249424,0.002865857,-0.047890995,0.47669637,-1.362353,1.8808683,-2.0901144,-1.5679168,2.4574652,-0.20143671,0.14070503,-0.17265049,0.015858194,0.025569195,-0.1534413,-0.38307226,0.30645782,-9.730036,0.85155696,47.683304,-1.0092175,-2.408008,-3.3822372,-0.3882931,0.32358313,-0.39586848,28.4375,29.75,28.8125,32.5625,35.0,36.0
0.28605428,-1.4432456,-1.7367902,-1.0582504,-0.049173985,0.09750223,-0.16196536,-0.4079359,-0.3627257,0.060008474,3.0733137,-0.63321304,3.1650143e-05,-0.13166581,0.042293422,-0.001384192,-0.029826803,0.00060509733,-0.04141261,0.4762885,-1.3620757,1.8804969,-2.090079,-1.5678324,2.4571505,-0.20175092,0.14475329,-0.17385739,0.015260453,0.026257543,-0.16023086,-0.5554548,0.34476504,-9.768343,0.9365982,47.709274,-1.099473,-2.249701,-3.351625,-0.39782548,0.32233924,-0.33187014,28.4375,29.75,28.8125,32.5625,35.0,36.0
0.2880541,-1.8285391,-2.2058456,-1.1640694,-0.051547483,0.09181872,-0.15199323,-0.40818328,-0.36264595,0.06000598,3.0732665,-0.6332342,3.9074697e-05,-0.13141921,0.040866006,-0.00066663406,-0.0310052,0.002124556,-0.029403884,0.47591737,-1.3617994,1.8801631,-2.0900433,-1.5677966,2.4567988,-0.19925523,0.14453803,-0.17519364,0.014963661,0.02663625,-0.1697427,-0.6512228,0.40222588,-9.864111,0.88960326,47.694946,-1.1912552,-2.3536677,-3.3912437,-0.41805395,0.29732198,-0.24936715,28.4375,29.75,28.8125,32.5625,35.0,36.0
0.29005453,-1.9611158,-1.9114193,-0.94712275,-0.054428473,0.084949106,-0.15506688,-0.4084649,-0.36256388,0.060012054,3.0731661,-0.63334244,4.123215e-05,-0.13141647,0.03968258,-0.0014236745,-0.031427737,0.0015910871,-0.019229153,0.4754976,-1.3614984,1.8797802,-2.0900075,-1.567736,2.4564598,-0.19753103,0.14737856,-0.17668994,0.013944863,0.027285185,-0.17819056,-0.49799395,0.38307226,-9.9790325,0.9097417,47.691364,-1.3773768,-2.4338727,-3.418297,-0.4212429,0.306588,-0.13966629,28.4375,29.75,28.8125,32.5625,35.0,36.0
0.29205492,-1.0323024,-1.4368757,-0.9915827,-0.050328925,0.09600409,-0.15973638,-0.40873918,-0.3624918,0.060041513,3.073039,-0.63339263,-2.9264673e-05,-0.13274,0.03988676,-0.0015126322,-0.0335728,0.0015050347,-0.01942998,0.47510102,-1.3612576,1.8794221,-2.089996,-1.567675,2.4561112,-0.20009841,0.1486344,-0.1777821,0.012898276,0.029258179,-0.1805517,-0.4213795,0.3256114,-9.825804,0.8179876,47.66987,-1.4200965,-2.5015821,-3.3598197,-0.4045934,0.28141353,-0.070106335,28.4375,29.75,28.8125,32.5625,35.0,36.0
0.29405442,-1.0270365,-1.5207478,-1.1896137,-0.02969363,0.07322821,-0.1486889,-0.4090151,-0.3623958,0.060024504,3.0729647,-0.6334766,4.1270796e-05,-0.13400084,0.04073028,-0.0023492891,-0.033782855,0.0008770184,-0.025157008,0.47465646,-1.3609328,1.879063,-2.0899608,-1.567603,2.4557288,-0.2027575,0.15080667,-0.17825748,0.011678692,0.029727634,-0.17748283,-0.36391866,0.2681506,-9.710882,0.87393653,47.645687,-1.436912,-2.3862298,-3.432614,-0.4020924,0.253435,-0.078755796,28.4375,29.75,28.8125,32.5625,35.0,36.0
0.29605457,-0.7497707,-0.78582764,-0.8067142,-0.022249289,0.04480573,-0.15583245,-0.40932798,-0.36231086,0.0600517,3.0728276,-0.6336442,-0.00012481443,-0.13655639,0.04113453,-0.00084279844,-0.035568856,0.0047169128,-0.034395203,0.47423548,-1.3606571,1.8786787,-2.0899966,-1.5675911,2.4554305,-0.20540139,0.15032957,-0.1808746,0.010535686,0.029569605,-0.1708836,-0.22984336,0.15322891,-9.653421,0.83365434,47.67614,-1.3220986,-2.4427614,-3.2954016,-0.36753577,0.2522454,-0.11810461,28.4375,29.75,28.8125,32.5625,35.0,36.0
0.29805425,-0.6033035,-0.49378666,-0.6127916,-0.016555872,0.026828388,-0.15664156,-0.40959477,-0.36224416,0.060031835,3.0727036,-0.63375914,-4.814832e-05,-0.13860252,0.04215475,-0.0010518426,-0.03525892,0.0056103747,-0.045952477,0.4738269,-1.3603202,1.8783196,-2.089997,-1.5674838,2.4551098,-0.20831661,0.15232824,-0.18264763,0.009661331,0.0288693,-0.16224082,-0.1340753,0.22984336,-9.461885,0.8717007,47.6636,-1.2900764,-2.5614777,-3.3970544,-0.35308802,0.26080424,-0.21121578,28.4375,29.75,28.8125,32.5625,35.0,36.0
0.30005464,-0.0012710531,-0.48225173,-0.4488144,-0.0033086438,0.015364218,-0.1556101,-0.40987772,-0.3621611,0.060051702,3.0726366,-0.63382345,-0.00014997767,-0.13897881,0.042376503,-0.0015432826,-0.035610363,0.0051681823,-0.051214788,0.47344258,-1.3600445,1.8779382,-2.0899737,-1.5674833,2.4547746,-0.20919427,0.15338129,-0.18264616,0.0088351425,0.029391162,-0.157853,-0.019153614,0.21068975,-9.423578,0.90750587,47.695843,-1.3190844,-2.464064,-3.4464195,-0.33003974,0.23948812,-0.29696202,28.4375,29.75,28.8125,32.5625,35.0,36.0
0.30205467,0.0020686965,-0.81731653,-0.24389967,0.0009949417,0.0070436797,-0.15388027,-0.41014352,-0.3620466,0.060033053,3.0725355,-0.6340568,-1.0149698e-05,-0.14046699,0.042441875,-0.0016919847,-0.036704265,0.0044396026,-0.05780858,0.4729617,-1.3597437,1.8776029,-2.0899012,-1.5673865,2.4544525,-0.21123838,0.15591955,-0.18550637,0.009316805,0.030683352,-0.15330152,-0.038307227,0.095768064,-9.251195,0.88289046,47.684196,-1.1957259,-2.4798205,-3.4907312,-0.3072405,0.2189968,-0.40187192,28.4375,29.75,28.8125,32.5625,35.0,36.0
0.30405423,-0.09782155,-0.86190903,0.19661584,0.00035450052,0.0020010641,-0.16256543,-0.41045505,-0.36201096,0.060064126,3.072351,-0.6341145,-0.00015977869,-0.14170702,0.04306385,-0.00063477014,-0.037960302,0.005847698,-0.060783923,0.47258905,-1.3594325,1.8771724,-2.0899613,-1.5673145,2.4541402,-0.21350226,0.1547609,-0.18666416,0.009826032,0.031192482,-0.15258385,0.0,0.11492168,-9.193734,0.85155696,47.68062,-1.1015514,-2.4184263,-3.5484517,-0.305354,0.21618931,-0.4524531,28.4375,29.75,28.8125,32.5625,35.0,36.0
0.30605474,0.07158105,-0.10397156,-0.07422318,0.018837122,0.0020126828,-0.16736747,-0.41075408,-0.36191407,0.06008077,3.0721965,-0.63436943,-0.000205056,-0.14408484,0.04331201,0.0009814099,-0.040217023,0.008477297,-0.060511928,0.47213212,-1.3591567,1.8768009,-2.0899494,-1.5672544,2.4538627,-0.21632227,0.15444446,-0.1900659,0.010207171,0.03203205,-0.15567103,0.095768064,0.05746084,-9.193734,0.842603,47.689575,-1.07114,-2.3142762,-3.407271,-0.29714137,0.18907999,-0.4611826,28.4375,29.75,28.8125,32.5625,35.0,36.0
0.30805418,0.25958952,0.5052154,0.14040539,0.02671794,0.011861024,-0.16776854,-0.41101974,-0.36183316,0.06004983,3.0721195,-0.63446254,-0.00013512323,-0.14547482,0.04330863,0.0014014599,-0.041232053,0.00882615,-0.05099957,0.4717234,-1.3588088,1.8764528,-2.089949,-1.567182,2.4535222,-0.21784988,0.1558061,-0.19286719,0.01093577,0.032816477,-0.16670893,0.076614454,-0.076614454,-9.11712,0.92764956,47.666286,-0.945939,-2.2828298,-3.1804395,-0.2891183,0.16849405,-0.38988215,28.4375,29.75,28.8125,32.5625,35.0,36.0
0.31005442,0.34068048,0.7958764,0.24118721,0.04066145,0.025992565,-0.18094963,-0.41131374,-0.3617595,0.06007674,3.0719965,-0.6345263,-0.00016613588,-0.14571409,0.043900933,0.00050729065,-0.0404334,0.0061422093,-0.039694224,0.47130308,-1.3585203,1.8760341,-2.0899003,-1.56711,2.453158,-0.21924147,0.1580665,-0.19397634,0.012608485,0.033388454,-0.17940196,-0.038307227,0.0,-9.078813,0.8157518,47.690468,-0.9277772,-2.1833568,-3.170758,-0.2914902,0.15711403,-0.2723712,28.4375,29.75,28.8125,32.5625,35.0,36.0
0.31205493,-0.45495334,0.49272138,-0.14335217,0.047209285,0.03196804,-0.1709639,-0.41160643,-0.3616549,0.06008419,3.0718775,-0.6346911,-0.00020910295,-0.14647387,0.043981053,0.0023653049,-0.041672435,0.00867713,-0.033763587,0.47084692,-1.3582456,1.875687,-2.0898998,-1.5670618,2.4528203,-0.21986833,0.15549128,-0.19540587,0.013840207,0.033386674,-0.18595728,-0.2681506,0.095768064,-9.11712,0.8537928,47.661808,-0.95525765,-2.1549592,-3.2404175,-0.27873904,0.1245555,-0.18364404,28.4375,29.75,28.8125,32.5625,35.0,36.0
0.31405434,-1.8709342,-0.25275543,-0.11694663,0.04120398,0.043629915,-0.14997268,-0.411895,-0.36158183,0.060100637,3.0717497,-0.6347384,-0.00013581099,-0.14591733,0.04324789,0.002500157,-0.041287113,0.007845066,-0.0299156,0.47040343,-1.3579336,1.8752555,-2.089815,-1.5669416,2.452423,-0.2180396,0.15613046,-0.196944,0.015700163,0.03344584,-0.18797499,-0.45968673,0.019153614,-9.155427,0.83813137,47.64658,-1.1255007,-2.1536195,-3.2365456,-0.31557423,0.09726322,-0.13065118,28.4375,29.75,28.8125,32.5625,35.0,36.0
0.31605473,-1.8809171,-0.23399265,-0.2579513,0.0065132855,0.07984531,-0.16303618,-0.41217044,-0.36147636,0.060084194,3.0717397,-0.6348162,-9.674141e-05,-0.14549191,0.043777328,0.0016946468,-0.03950454,0.005740491,-0.03451742,0.4699836,-1.3575976,1.8748721,-2.089743,-1.5669302,2.4520533,-0.21802716,0.15739931,-0.19704191,0.017213855,0.032804646,-0.18336254,-0.45968673,0.11492168,-9.289503,0.8784135,47.70032,-1.2650555,-2.104079,-3.3131435,-0.3045011,0.07365406,-0.14325204,28.4375,29.75,28.8125,32.5625,35.0,36.0
0.31805483,-2.71549,-1.2940187,-0.11613314,-0.009595184,0.08438703,-0.15619452,-0.41243982,-0.3613982,0.060063142,3.071635,-0.634914,-1.8095128e-05,-0.14604251,0.044305347,0.0013709418,-0.038666964,0.0050924513,-0.042167757,0.46956316,-1.3572612,1.8745126,-2.089731,-1.5668339,2.4517076,-0.21895318,0.15867953,-0.19805689,0.017912371,0.032340873,-0.17663823,-0.4405331,0.17238252,-9.289502,0.9097417,47.71554,-1.3223941,-2.0560746,-3.1696658,-0.32083207,0.07603461,-0.21402997,28.4375,29.75,28.8125,32.5625,35.0,36.0
0.32005396,-1.6790614,-0.9850562,-0.21646237,-0.03459816,0.100964874,-0.16677304,-0.41274118,-0.36130798,0.060106833,3.071493,-0.6350799,-7.820473e-05,-0.14764681,0.04561196,0.0012918416,-0.037182674,0.0055824146,-0.048726145,0.4691182,-1.357009,1.8740939,-2.089659,-1.5667747,2.451385,-0.22141635,0.16008347,-0.19971918,0.018418966,0.030806135,-0.17254205,-0.40222588,0.1340753,-9.442732,0.9567419,47.689575,-1.3254039,-2.0103593,-3.2591238,-0.34107378,0.06547432,-0.3111815,28.4375,29.75,28.8125,32.5625,35.0,36.0
0.3220544,-1.1997545,-0.919505,-0.5876782,-0.036849003,0.07805475,-0.1682155,-0.41303545,-0.36121795,0.060087778,3.07142,-0.63518023,-5.969618e-05,-0.14794053,0.045312446,7.730335e-06,-0.035654772,0.0046898625,-0.05132641,0.46868688,-1.3566477,1.8736995,-2.089647,-1.566727,2.451026,-0.22042239,0.16371612,-0.20105872,0.017622981,0.029842636,-0.16894795,-0.4405331,0.17238252,-9.500193,0.92093146,47.72092,-1.4239035,-2.2094991,-3.37291,-0.29243612,0.073801644,-0.34421486,28.4375,29.75,28.8125,32.5625,35.0,36.0
0.3240547,-0.514529,-1.132905,-0.5130667,-0.027162913,0.075490996,-0.16954151,-0.41334885,-0.36109507,0.060071513,3.0713692,-0.63537985,-5.0979226e-05,-0.14976673,0.045923684,-0.00074573397,-0.03448126,0.005113102,-0.05224508,0.4682066,-1.3562871,1.8732914,-2.0895994,-1.5667156,2.4506772,-0.2220865,0.16723803,-0.20342956,0.016647702,0.028609036,-0.16969433,-0.38307226,0.19153613,-9.519346,0.9768804,47.675243,-1.4954358,-2.1527104,-3.2070236,-0.302309,0.07846816,-0.3947476,28.4375,29.75,28.8125,32.5625,35.0,36.0
0.32605493,-0.69149673,-0.62351024,-0.67115974,-0.014281496,0.0540631,-0.16729702,-0.41363686,-0.36102083,0.060075153,3.0712266,-0.63552034,-5.9246493e-05,-0.15146297,0.04660855,5.6586264e-06,-0.03502161,0.007885656,-0.049387075,0.4677857,-1.3559759,1.8729085,-2.0895998,-1.5666317,2.4503627,-0.22406974,0.16687252,-0.20444317,0.015357517,0.027872626,-0.17453483,-0.30645782,0.22984336,-9.691729,0.91421866,47.72629,-1.3523946,-2.1957397,-3.3155026,-0.2846697,0.0640756,-0.3832327,28.4375,29.75,28.8125,32.5625,35.0,36.0
0.32805416,-0.6328882,-0.28413737,-0.74136543,0.010354961,0.04355618,-0.17706676,-0.41393,-0.36094174,0.06008506,3.0711226,-0.6355146,-5.257796e-05,-0.15210512,0.04764308,-0.0013046577,-0.033749644,0.006713523,-0.041746754,0.46735254,-1.3556632,1.8725017,-2.089565,-1.5665478,2.4499397,-0.22584708,0.16922046,-0.20413026,0.014384642,0.027315598,-0.18395196,-0.19153613,0.19153613,-9.653421,0.9164598,47.699425,-1.259607,-2.3320704,-3.4284987,-0.26494068,0.076171145,-0.29325756,28.4375,29.75,28.8125,32.5625,35.0,36.0
0.33005452,-1.34471,-0.7137077,-0.41213685,0.014525043,0.04168216,-0.16245039,-0.41427642,-0.36082762,0.060110137,3.0710106,-0.6357168,-0.00016102691,-0.15404603,0.04901828,-0.0015233519,-0.03299876,0.007084445,-0.03474142,0.46685994,-1.3553388,1.8720459,-2.0895288,-1.5665363,2.4495883,-0.22913885,0.17105606,-0.20589763,0.014385108,0.026538035,-0.19424748,-0.2681506,0.17238252,-9.576807,0.80456203,47.683304,-1.1331928,-2.2793417,-3.481337,-0.2507115,0.070060626,-0.19299364,28.4375,29.75,28.8125,32.5625,35.0,36.0
0.3320548,-0.9487144,-0.57673967,-0.22805957,0.001596356,0.07863467,-0.1703513,-0.41456643,-0.3607179,0.060084853,3.0709355,-0.63579607,-6.4881904e-05,-0.15634894,0.050613917,-0.0014829702,-0.03234977,0.0075665386,-0.03423311,0.46637878,-1.3549906,1.8716754,-2.0894926,-1.5664524,2.4491665,-0.23312521,0.17274933,-0.20820735,0.014914097,0.025760727,-0.19874331,-0.34476504,0.19153613,-9.481039,0.8537928,47.652847,-1.1137805,-2.4407365,-3.410628,-0.26000687,0.08856425,-0.100595385,28.4375,29.75,28.8125,32.5625,35.0,36.0
0.334055,-1.6014884,-0.5875043,-0.14632693,0.002437611,0.076244675,-0.17215617,-0.4148991,-0.36065403,0.060108032,3.0707946,-0.6358656,-0.00012896812,-0.15751094,0.051692773,-0.0010929107,-0.03243209,0.007938895,-0.039393317,0.4659459,-1.3546307,1.8711838,-2.0894682,-1.5663804,2.4487958,-0.23568445,0.17259496,-0.20912004,0.0156259,0.025687834,-0.19613972,-0.38307226,0.15322891,-9.442732,0.8784135,47.66808,-0.966565,-2.2917511,-3.4321947,-0.23870541,0.06688764,-0.049461514,28.4375,29.75,28.8125,32.5625,35.0,36.0
0.33605453,-1.2452135,-1.1207502,-0.20151718,0.0048135333,0.072469026,-0.16131108,-0.41521552,-0.3605144,0.060108468,3.070723,-0.6360086,-0.00015233023,-0.15830253,0.052226402,-0.0015220329,-0.032027107,0.0070410925,-0.048989892,0.46542963,-1.3543302,1.8708123,-2.0894325,-1.5663565,2.4483783,-0.23708554,0.17437544,-0.21046337,0.016154539,0.025715597,-0.18794258,-0.4213795,0.17238252,-9.500193,0.9298854,47.695843,-1.0766519,-2.4320226,-3.4214735,-0.24998383,0.08936159,-0.14350979,28.4375,29.75,28.8125,32.5625,35.0,36.0
0.33805442,-1.1734666,-1.0284367,-0.12835397,-0.01609668,0.07091367,-0.16540374,-0.41554436,-0.36042708,0.060113374,3.0706286,-0.63612753,-0.00025897467,-0.15860887,0.051927216,-0.0016545921,-0.031256955,0.00717816,-0.056456707,0.46499798,-1.3539699,1.8703693,-2.089444,-1.5663446,2.4480336,-0.23620182,0.17587078,-0.2121053,0.016503274,0.024958592,-0.17959063,-0.49799395,0.13407528,-9.3661175,0.9298854,47.675243,-1.1137521,-2.4166322,-3.3333197,-0.23374109,0.099064715,-0.2637342,28.4375,29.75,28.8125,32.5625,35.0,36.0
0.34005412,-1.0971314,-0.7172626,0.16948187,-0.0130465645,0.06880629,-0.1630274,-0.41584644,-0.36032173,0.06011264,3.0705328,-0.6363207,-0.00021950218,-0.15972492,0.05110256,-0.00036254022,-0.03187833,0.010671926,-0.061343987,0.46453044,-1.3536348,1.8699507,-2.0893729,-1.5662855,2.4476993,-0.23496436,0.17573296,-0.21478464,0.01591718,0.023930594,-0.17346705,-0.49799395,0.095768064,-9.232041,0.8717007,47.70032,-1.2499647,-2.2449427,-3.3014562,-0.20326951,0.10768559,-0.3442727,28.4375,29.75,28.8125,32.5625,35.0,36.0
0.34205478,-1.4987173,-0.39450374,-0.48712075,0.024401046,0.03695156,-0.16955201,-0.41615057,-0.36024177,0.060119223,3.070371,-0.6364619,-0.00020526604,-0.16061622,0.051440034,-0.00034321772,-0.031248488,0.010939808,-0.06726692,0.4640742,-1.3533107,1.869542,-2.0893605,-1.5661772,2.4473526,-0.2356876,0.1769925,-0.21651979,0.016443547,0.023248442,-0.16826664,-0.4405331,0.17238252,-9.385271,0.87393653,47.717335,-1.2365267,-2.2173808,-3.4107742,-0.1927097,0.13584265,-0.4473635,28.4375,29.75,28.8125,32.5625,35.0,36.0
0.34405416,-1.0890794,-0.13793343,-0.09716105,0.02873259,0.044512775,-0.16825905,-0.41649732,-0.36012682,0.06010539,3.0702946,-0.6366744,-0.00023934465,-0.16158517,0.0512658,-0.00010793039,-0.031735204,0.011951709,-0.06574862,0.46358228,-1.3529029,1.8690757,-2.0893366,-1.5661653,2.4470036,-0.23601815,0.17810667,-0.21838282,0.016091667,0.023250949,-0.17011409,-0.19153613,0.076614454,-9.232042,0.90750587,47.647476,-1.3186789,-2.185799,-3.300675,-0.18347472,0.12641671,-0.4953371,28.4375,29.75,28.8125,32.5625,35.0,36.0
0.34605512,-0.8772038,0.24048993,0.053644687,0.018110344,0.04419802,-0.17457896,-0.41681206,-0.36002284,0.06007999,3.0702105,-0.6368236,-0.00022290468,-0.16144401,0.050829623,-0.0016855235,-0.030343756,0.009246758,-0.055005644,0.46311408,-1.3525175,1.868668,-2.0893366,-1.5661172,2.4466398,-0.23499869,0.18233018,-0.22011818,0.016709432,0.023264885,-0.1798362,-0.24899697,0.095768064,-9.11712,0.9321212,47.687782,-1.2967861,-2.3122227,-3.3603873,-0.16768631,0.12639537,-0.44181198,28.4375,29.75,28.8125,32.5625,35.0,36.0
0.34805495,-0.42786005,-0.18195184,-0.053621437,0.029215144,0.056484167,-0.18389872,-0.4171548,-0.35992533,0.06010813,3.0701015,-0.6368702,-0.00029755683,-0.16356558,0.05129294,-0.00017205095,-0.031397868,0.01214989,-0.044692352,0.46263385,-1.3521825,1.8681887,-2.089288,-1.5660695,2.4462032,-0.23718773,0.18187048,-0.22315612,0.017218217,0.022983912,-0.19233654,-0.13407528,0.05746084,-9.251195,0.9612189,47.687782,-1.3447832,-2.1268644,-3.257296,-0.13995269,0.14446548,-0.3373369,28.4375,29.75,28.8125,32.5625,35.0,36.0
0.3500547,-1.2619126,-0.59484,-0.055279985,0.024153506,0.037890393,-0.16284922,-0.41748226,-0.35984135,0.06013447,3.0699687,-0.6369915,-0.00038714078,-0.16525988,0.052009407,0.00076357485,-0.03198979,0.013913636,-0.036472637,0.4621892,-1.3518585,1.8677324,-2.0892642,-1.5660213,2.445852,-0.23950483,0.18170457,-0.22522911,0.017684696,0.022798335,-0.20287116,-0.095768064,0.076614454,-9.193734,0.9321212,47.71017,-1.3529465,-2.2497344,-3.2615879,-0.15565039,0.1689857,-0.21852712,28.4375,29.75,28.8125,32.5625,35.0,36.0
0.35205418,-0.40469992,-0.46963298,-0.099094175,0.010205319,0.04700387,-0.16924521,-0.41781157,-0.35969317,0.060114093,3.0699558,-0.6371418,-0.00038434306,-0.16583823,0.05330539,-0.00031756941,-0.030573634,0.01126104,-0.036324263,0.46167243,-1.3514861,1.8673147,-2.089204,-1.5660332,2.445431,-0.24192844,0.18402736,-0.22598901,0.019149262,0.022734953,-0.20544328,-0.095768064,0.095768064,-9.251195,0.90750587,47.645687,-1.3137131,-2.2083876,-3.253016,-0.14861423,0.16351417,-0.12373537,28.4375,29.75,28.8125,32.5625,35.0,36.0
0.3540544,-0.5801876,-1.0456746,-0.2607159,0.015924707,0.025656117,-0.16191868,-0.4181204,-0.35960186,0.060095925,3.0698626,-0.6371852,-0.00030803971,-0.16664949,0.054412566,-0.0009217028,-0.029765524,0.009776685,-0.04378366,0.46120286,-1.3511016,1.8668832,-2.0891678,-1.5659374,2.445001,-0.24422972,0.18564495,-0.22685833,0.020095576,0.022664547,-0.20028475,-0.19153613,0.17238252,-9.3661175,0.89631605,47.642998,-1.1692512,-2.3343086,-3.3053198,-0.15739924,0.19356695,-0.15364426,28.4375,29.75,28.8125,32.5625,35.0,36.0
0.35605484,-0.4622996,-0.8996122,-0.35017946,-0.0031967338,0.023537097,-0.16077365,-0.41847202,-0.35947788,0.06012387,3.0697458,-0.6373949,-0.0003920157,-0.16837803,0.05527906,-9.861898e-05,-0.030669618,0.01107131,-0.05320315,0.46068677,-1.3507779,1.8664149,-2.0891078,-1.5659131,2.4446313,-0.24705592,0.1855339,-0.22872877,0.020499142,0.022896659,-0.19368842,-0.34476504,0.22984336,-9.404425,0.8940802,47.650166,-1.073199,-2.1374047,-3.281327,-0.14632095,0.20189139,-0.22995454,28.4375,29.75,28.8125,32.5625,35.0,36.0
0.35805434,-0.44248274,-1.6403751,-0.2795481,-0.006536636,0.03664942,-0.16639557,-0.41880965,-0.35937944,0.060119875,3.0696628,-0.63751423,-0.000417109,-0.1687887,0.055762537,-0.0009737495,-0.03015585,0.009179521,-0.059358593,0.46021846,-1.3503817,1.8659366,-2.0890715,-1.5658773,2.4442487,-0.24823716,0.18777356,-0.22966294,0.021108713,0.023275016,-0.18871164,-0.21068975,0.22984336,-9.404425,0.9365982,47.667187,-1.1078439,-2.1761394,-3.3332276,-0.14039002,0.22008337,-0.30799928,28.4375,29.75,28.8125,32.5625,35.0,36.0
0.3600548,-1.2706729,-1.2826469,-0.62105614,-0.012913148,0.03450873,-0.16831914,-0.41915175,-0.35927036,0.06011765,3.0695639,-0.6376873,-0.00039017486,-0.16927397,0.05613108,-0.0012200718,-0.030109627,0.008824498,-0.06297099,0.4597143,-1.3499861,1.8654469,-2.089,-1.5658172,2.4438658,-0.24912299,0.18869995,-0.23030823,0.021175409,0.023393475,-0.18598406,-0.21068975,0.15322891,-9.232041,0.9410752,47.686886,-1.2061188,-2.132794,-3.430604,-0.14530958,0.22618186,-0.36496368,28.4375,29.75,28.8125,32.5625,35.0,36.0
0.36205426,-1.1978176,-1.1491566,-0.4030726,-0.011599369,0.0536958,-0.15773568,-0.41948545,-0.35914502,0.06008763,3.0694854,-0.63788027,-0.00034623066,-0.1708562,0.05618991,-0.00019724545,-0.03100392,0.010746329,-0.06195584,0.45919785,-1.3495783,1.8650159,-2.0889757,-1.5657696,2.4434803,-0.2503135,0.18900947,-0.23317365,0.021644283,0.023358077,-0.1881891,-0.34476504,0.2681506,-9.385271,0.9231726,47.698532,-1.0926889,-2.1141558,-3.4787269,-0.1191231,0.2722321,-0.3843692,28.4375,29.75,28.8125,32.5625,35.0,36.0
0.36405465,-1.2229868,-0.89223963,-0.33849102,-0.005476063,0.05091223,-0.16638185,-0.41983482,-0.3590435,0.06009485,3.0693674,-0.6379844,-0.0003536107,-0.17151468,0.05658093,-0.0010346031,-0.031511154,0.0085586645,-0.054517653,0.45869365,-1.3491937,1.8645233,-2.0889275,-1.5656971,2.4430568,-0.25220042,0.19151022,-0.23451361,0.022287708,0.02484274,-0.19750834,-0.19153613,0.22984336,-9.346964,0.90750587,47.687782,-1.124595,-2.269392,-3.4417958,-0.11505973,0.25565377,-0.33873594,28.4375,29.75,28.8125,32.5625,35.0,36.0
0.36605406,-1.1177189,-1.0256606,-0.49601808,0.0027814775,0.046854828,-0.16812018,-0.4201798,-0.3589021,0.06007478,3.06934,-0.6381267,-0.0003813331,-0.17076631,0.056055427,-0.0012236539,-0.032118663,0.007023645,-0.043681372,0.45817757,-1.3487976,1.8640808,-2.0888913,-1.5657085,2.4426334,-0.25126997,0.19186167,-0.23483719,0.023423804,0.02612392,-0.20741057,-0.22984336,0.076614454,-9.5385,0.8940802,47.675243,-1.2143173,-2.251163,-3.4562635,-0.11411765,0.25236723,-0.22172877,28.4375,29.75,28.8125,32.5625,35.0,36.0
0.36805475,-0.9217864,-0.7438955,-0.22542667,-0.0011906499,0.053260945,-0.16279276,-0.4205026,-0.35881868,0.060086444,3.0692005,-0.6381889,-0.00032660528,-0.17115898,0.05633461,-0.002747102,-0.030500704,0.004772855,-0.037797984,0.45769766,-1.3484372,1.863602,-2.0888197,-1.5655884,2.442211,-0.25161195,0.19578783,-0.23628494,0.02375072,0.025710946,-0.21363528,-0.45968673,0.019153614,-9.346964,0.9567419,47.689575,-1.3242899,-2.2450747,-3.6183224,-0.117100224,0.26508534,-0.116666086,28.4375,29.75,28.8125,32.5625,35.0,36.0
0.37005505,-0.019815063,0.25662276,-0.44016197,0.0008437536,0.077721596,-0.18437524,-0.42085257,-0.35868007,0.060076617,3.069127,-0.6383495,-0.00037659216,-0.1726626,0.05541242,-0.0015198715,-0.03262422,0.007192967,-0.03960531,0.4571686,-1.3480654,1.863171,-2.0888073,-1.565576,2.441792,-0.25161168,0.19641198,-0.23983835,0.023574721,0.026551364,-0.21182293,-0.40222588,0.038307227,-9.308656,0.90527004,47.66987,-1.2894446,-2.2957284,-3.5015006,-0.10477519,0.27580056,-0.0782546,28.4375,29.75,28.8125,32.5625,35.0,36.0
0.37205458,-0.85160863,0.09459405,-0.53319347,0.021254692,0.05276729,-0.15768872,-0.4212007,-0.35857752,0.06005891,3.069033,-0.6384476,-0.00033991726,-0.17326893,0.054595962,-0.0020306183,-0.033766042,0.0060075303,-0.046843998,0.45666534,-1.3476324,1.8626784,-2.0887716,-1.5655035,2.4413626,-0.25145665,0.19942622,-0.2424382,0.023704829,0.028076522,-0.20442289,-0.40222588,0.05746084,-9.3661175,0.92764956,47.64389,-1.3568795,-2.3539298,-3.3817177,-0.09952103,0.28042215,-0.13420445,28.4375,29.75,28.8125,32.5625,35.0,36.0
0.3740549,-1.7967855,-0.27955773,-0.36769798,0.014354928,0.04159211,-0.16566074,-0.42155197,-0.3584741,0.060072795,3.0689065,-0.6386928,-0.00036755065,-0.17406486,0.055505365,-0.0026301336,-0.03331477,0.005029391,-0.056688778,0.45617324,-1.3472481,1.8621649,-2.0886996,-1.5654553,2.4410405,-0.253425,0.20096007,-0.24303909,0.023830438,0.028087871,-0.19654448,-0.5554548,0.05746084,-9.32781,0.94331104,47.657326,-1.4927912,-2.4102302,-3.3869634,-0.089567214,0.27365944,-0.23950432,28.4375,29.75,28.8125,32.5625,35.0,36.0
