Tylouw/Master_Thesis_Code/training_data_v2/rect_rod_t0.2/sample_23_session_1.csv
timestamp[s],tcp_force_x[N],tcp_force_y[N],tcp_force_z[N],tcp_force_rx[Nm?],tcp_force_ry[Nm?],tcp_force_rz[Nm?],tcp_pose_x[m],tcp_pose_y[m],tcp_pose_z[m],tcp_pose_rx[rot_vec_x],tcp_pose_ry[rot_vec_y],tcp_pose_rz[rot_vec_z],tcp_velo_x[m/s],tcp_velo_y[m/s],tcp_velo_z[m/s],tcp_velo_rx[rot_vec_x/s],tcp_velo_ry[rot_vec_y/s],tcp_velo_rz[rot_vec_z/s],q1[rad],q2[rad],q3[rad],q4[rad],q5[rad],q6[rad],qd1[rad/s],qd2[rad/s],qd3[rad/s],qd4[rad/s],qd5[rad/s],qd6[rad/s],tool_acc_x,tool_acc_y,tool_acc_z,current_of_whole_robot[A],voltage_of_whole_robot[V],current_J1[A],current_J2[A],current_J3[A],current_J4[A],current_J5[A],current_J6[A],temp_J1[C],temp_J2[C],temp_J3[C],temp_J4[C],temp_J5[C],temp_J6[C]
1.0559997e-06,-0.20364009,0.1045876,0.9893581,-0.010244279,-0.008110086,-0.013290845,-0.38934442,-0.36873844,0.059995994,-3.0787477,0.6249374,0.00013002536,0.0004999194,0.00032887593,-0.00027089624,0.00088454655,-0.0018159224,-4.5251767e-05,0.5050208,-1.3815958,1.9041756,-2.0919268,-1.5707935,2.4800134,-0.00015374736,0.00016675223,-3.6977707e-07,0.0018504097,0.00010878651,-0.0001088228,0.019153614,0.11492168,-8.714894,0.79560274,47.717335,-0.15865178,-3.1172152,-2.2940505,-0.20042057,0.0934294,0.0024235987,28.5,29.75,28.875,32.5625,35.0,36.0
0.002055104,-0.41328102,0.16000715,0.93442637,-0.008832055,-0.0096152695,-0.009397391,-0.38932374,-0.36872062,0.059994712,-3.0787077,0.6249673,0.00015691012,-0.0009354759,-0.0004704242,-0.0010335309,-0.0021161179,0.0035817837,-4.4097054e-05,0.50503284,-1.3816435,1.9042357,-2.0919306,-1.5708297,2.4800491,-0.00015008496,0.0011029269,0.0028996372,-0.008161467,0.000106218686,-0.000106287254,0.05746084,0.15322891,-8.695741,0.7463667,47.696735,-0.14985968,-3.0463653,-2.294288,-0.17627037,0.086827114,-0.00052629865,28.5,29.75,28.875,32.5625,35.0,36.0
0.004054753,-0.3326348,-0.11382845,0.8674741,-0.01306627,-0.0009849161,-0.011706366,-0.389337,-0.36871472,0.060003687,-3.0786927,0.62494504,0.00020826339,-0.0014752875,-0.00077209057,-0.0017326603,-0.0028849451,0.00496334,-4.281967e-05,0.50503284,-1.3816429,1.9042124,-2.0919201,-1.5708655,2.4800372,-0.00014659263,0.0023961125,0.0038242878,-0.011960372,0.00010376913,-0.00010383666,0.038307227,0.19153613,-8.561666,0.7620334,47.690468,-0.13728604,-3.379983,-2.6781616,-0.038833898,0.10935588,0.00735627,28.5,29.75,28.875,32.5625,35.0,36.0
0.006054104,-0.40832952,0.12600538,1.0547502,-0.0042395587,-0.013419109,-0.008585469,-0.3893118,-0.368714,0.05997717,-3.078718,0.624873,0.00014094323,-0.00031710343,-0.00017422237,-0.0011620929,-0.0009380207,0.0014720666,3.3937642e-05,0.5050329,-1.3816434,1.9042834,-2.091965,-1.5708297,2.479989,-6.717011e-05,0.001201904,0.0024470403,-0.005391479,0.000101430065,-0.00010149489,0.32561144,0.19153613,-8.523358,0.72622824,47.704796,-0.15548764,-3.344759,-2.581742,-0.08389544,0.103884,-0.0045414367,28.5,29.75,28.875,32.5625,35.0,36.0
0.008055049,0.5567917,1.3317564,0.7623699,0.026983324,-0.022285253,-0.018436985,-0.38933977,-0.36872783,0.05999295,-3.078716,0.6249497,0.00022285937,5.457989e-05,2.691095e-05,0.00033710958,-0.0004419311,0.00059542287,4.3340297e-05,0.5050448,-1.3816202,1.9042224,-2.0919755,-1.5708536,2.4800491,-5.5455406e-05,-0.0009894564,0.00044513523,-0.00019097085,9.91941e-05,-9.925599e-05,-0.05746084,0.22984336,-8.580819,0.7486078,47.698532,-0.14448977,-3.1809988,-2.4802823,-0.097572565,0.09840326,-0.0012885223,28.5,29.75,28.875,32.5625,35.0,36.0
0.010053998,0.22357784,1.4137436,0.14470264,0.0414678,-0.03585914,-0.014019909,-0.389345,-0.36872092,0.0599873,-3.0786977,0.62496525,0.0001665729,0.000647384,0.00037023303,0.00024663145,0.0007203264,-0.001490828,2.8732855e-05,0.50502086,-1.3815962,1.9041985,-2.0919387,-1.5708417,2.4800372,-7.735202e-05,-0.0009855005,5.972057e-06,0.0026323958,9.7054646e-05,-0.00010666509,0.0,0.17238252,-8.944737,0.66803825,47.705692,-0.69361687,-2.7328205,-2.9400735,-0.16124196,0.07298078,-0.092459425,28.5,29.75,28.875,32.5625,35.0,36.0
0.012053997,-0.03154718,0.6415911,0.062265974,0.0039845547,-0.0094693275,-0.019820908,-0.3893215,-0.36872545,0.059977334,-3.0787127,0.6249107,5.7195954e-05,0.0007531023,0.0011214803,-0.0029203729,0.0036670528,-0.0067977016,-0.0005886107,0.5050204,-1.3815944,1.9042109,-2.0919025,-1.5707935,2.4800007,-0.0012392486,0.0051263003,8.012277e-08,0.002596569,8.5660264e-05,-0.0006502274,0.15322891,0.15322891,-9.193734,0.7486078,47.691364,-0.84014076,-2.663605,-3.1059453,-0.15471962,0.07639796,-0.15346879,28.5,29.75,28.875,32.5625,35.0,36.0
0.014053644,-0.82783186,-0.30009297,0.17918493,-0.041508228,0.014150953,-0.030563492,-0.38932148,-0.36869588,0.05994408,-3.0786285,0.62491065,-6.70633e-06,-0.004008533,0.004019208,-0.005013888,0.0050182776,-0.009244969,0.0020298848,0.50499326,-1.3815433,1.9042209,-2.0918791,-1.5708297,2.4799843,-0.010568188,0.012601288,-0.0038863278,0.0018019015,7.506334e-05,-0.012594787,0.019153614,0.15322891,-9.193734,0.75084364,47.65912,-0.4932509,-3.362066,-3.0822253,-0.12597913,0.07232993,-0.09162383,28.5,29.75,28.875,32.5625,35.0,36.0
0.016053397,-0.8946212,-0.5542094,0.06978775,-0.073711306,0.041783564,-0.043885592,-0.38933015,-0.36868447,0.059936546,-3.0785975,0.6249017,-8.476052e-06,-0.005939104,0.003684699,-0.0020938546,0.0020838708,-0.0039267126,0.007454982,0.5049808,-1.3815205,1.9042085,-2.0918677,-1.5708536,2.4799702,-0.011801962,0.009109609,-0.0063871616,0.0017190039,6.329117e-05,-0.019253165,-0.19153613,0.19153614,-9.423578,0.7732232,47.66271,-0.50074494,-3.048097,-3.1123667,-0.12152075,0.08295365,-0.039268035,28.5,29.75,28.875,32.5625,35.0,36.0
0.018053899,-1.4070908,-0.553554,-0.08577109,-0.062206753,0.059262767,-0.05544785,-0.3893165,-0.3686762,0.05991229,-3.0785751,0.624953,-0.000117771844,-0.0057422183,0.0035814494,-0.0018884912,0.0019073506,-0.0035967866,0.011238045,0.504957,-1.3814968,1.9042329,-2.0918553,-1.5708174,2.4799812,-0.01143981,0.008480146,-0.006104697,0.0016921608,5.67589e-05,-0.022674281,-0.45968673,0.2681506,-9.5385,0.7978386,47.670765,-0.7494713,-2.8676636,-3.1977086,-0.10093985,0.09253163,-0.019117197,28.5,29.75,28.875,32.5625,35.0,36.0
0.020054078,-1.4967173,0.26506227,-0.36603194,-0.028961994,0.06078276,-0.07608849,-0.38933623,-0.36867708,0.059934977,-3.0786278,0.6248885,-7.513402e-05,-0.0051628146,0.004762126,-0.0029070943,0.0045248284,-0.008304701,0.009454242,0.50493264,-1.3815203,1.9042085,-2.0918534,-1.5708054,2.47991,-0.0128831435,0.010104881,-0.006692462,0.0060421256,5.3233514e-05,-0.022333765,-0.45968673,0.22984336,-9.519346,0.8179876,47.687782,-0.8002746,-2.8607326,-3.3666532,-0.15384567,0.063999966,-0.036281228,28.5,29.75,28.875,32.5625,35.0,36.0
0.022053838,-1.3054593,0.4711445,-0.5988482,0.010014547,0.06066842,-0.09556732,-0.38931996,-0.36865607,0.05990025,-3.0785618,0.62481904,-0.00019092612,-0.0067699836,0.005284541,-0.0026556947,0.0042624427,-0.0078357635,0.0055021127,0.5049199,-1.3814718,1.9042195,-2.0918057,-1.5708174,2.4798622,-0.015265358,0.011282883,-0.008728703,0.0063629495,5.0249204e-05,-0.020762865,-0.47884035,0.17238252,-9.634268,0.82694155,47.72092,-0.8004968,-2.7766728,-3.429833,-0.14960939,0.07235712,-0.03948658,28.5,29.75,28.875,32.5625,35.0,36.0
0.024053648,-1.8464051,0.43360427,-0.61422145,0.0075515364,0.050927088,-0.10749998,-0.38934422,-0.36863872,0.059877258,-3.0785015,0.6248671,-0.00022342263,-0.009355065,0.005048749,-0.0024849563,0.0030336117,-0.005717946,0.0011319764,0.50488317,-1.3813986,1.9041828,-2.0917943,-1.5708417,2.4798632,-0.017312245,0.014195351,-0.0121104,0.0043838923,8.8779234e-05,-0.018437631,-0.57460845,0.21068975,-9.730036,0.8179876,47.70659,-0.83038914,-2.7862077,-3.344119,-0.1259183,0.07861237,-0.08589183,28.5,29.75,28.875,32.5625,35.0,36.0
0.026053326,-1.9549499,0.030180477,-0.708,-0.009647679,0.06485236,-0.12689129,-0.38936248,-0.36865073,0.05989931,-3.0785542,0.6248594,-0.0001904353,-0.01012462,0.004881772,-0.0025088585,0.002608057,-0.004957021,-0.00032065457,0.5048711,-1.3814104,1.9041466,-2.0917947,-1.5708174,2.4798396,-0.017751684,0.015222854,-0.013053531,0.0034282582,8.998064e-05,-0.017423786,-0.7661445,0.05746084,-9.710882,0.7463667,47.690468,-0.81759334,-2.8176785,-3.3473344,-0.113187954,0.073685735,-0.10285498,28.5,29.75,28.875,32.5625,35.0,36.0
0.028053543,-1.7394103,0.023549005,-0.7608505,-0.036876064,0.090664394,-0.13898496,-0.38935944,-0.36863008,0.059861522,-3.0785067,0.62477267,-0.00027796582,-0.011100184,0.004824836,-0.0028888353,0.0026745026,-0.0050815917,-0.0015953904,0.5048469,-1.3813494,1.904158,-2.0917833,-1.5708297,2.4797673,-0.018567657,0.017442254,-0.014717742,0.0030140942,8.604733e-05,-0.016963948,-0.7469909,0.076614454,-9.749189,0.7665104,47.687782,-0.8507503,-2.83191,-3.4067578,-0.09667401,0.0853609,-0.1443402,28.5,29.75,28.875,32.5625,35.0,36.0
0.030053413,-1.966492,-0.43736503,-0.6569493,-0.030367503,0.10247528,-0.14266244,-0.38939402,-0.3686304,0.05985159,-3.0784965,0.6247714,-0.000268105,-0.010901213,0.0053930185,-0.002867141,0.0036521573,-0.0068327547,-0.0026537224,0.5048225,-1.3812776,1.9040979,-2.0917933,-1.5708417,2.4797435,-0.01933406,0.01738028,-0.015294203,0.0056579635,8.214331e-05,-0.016672065,-0.82360536,0.019153614,-9.883265,0.82694155,47.660015,-0.9316205,-2.785345,-3.3583758,-0.101297915,0.059747383,-0.1348219,28.5,29.75,28.875,32.5625,35.0,36.0
0.032053944,-1.7996633,0.13775176,-0.48199323,-0.027081857,0.09600177,-0.16644982,-0.38940406,-0.36859316,0.05985434,-3.0784478,0.6248954,-0.00031022422,-0.011399864,0.0055850255,-0.0024604476,0.00392453,-0.007319909,-0.0023569015,0.50475043,-1.3813013,1.9041089,-2.0917451,-1.5708417,2.479755,-0.020121448,0.01771118,-0.017062401,0.007653244,7.855905e-05,-0.017755706,-0.80445176,-0.038307227,-9.749189,0.784413,47.698532,-0.94655764,-2.7865732,-3.3888211,-0.14193344,0.07524826,-0.18825948,28.5,29.75,28.875,32.5625,35.0,36.0
0.03405338,-2.1439917,0.16496737,-0.5493594,0.0065080365,0.06826165,-0.17065701,-0.38944367,-0.36859992,0.059845462,-3.078475,0.6249398,-0.00033345362,-0.012359072,0.0058167023,-0.002332694,0.0035428745,-0.0067021484,-0.002621352,0.5047021,-1.3812292,1.9040493,-2.0917695,-1.5708054,2.4797308,-0.021426572,0.01832632,-0.01798732,0.0072381534,0.00011034535,-0.018795919,-0.7278373,0.0,-9.80665,0.8157518,47.670765,-1.0097201,-2.7303016,-3.4619296,-0.12831,0.07431432,-0.17759684,28.5,29.75,28.875,32.5625,35.0,36.0
0.03605389,-2.0239222,0.52224326,-0.6297214,0.020849505,0.056508515,-0.18685716,-0.38948905,-0.36859977,0.059851386,-3.0784552,0.6249348,-0.000254793,-0.014352376,0.005946993,-0.0014466943,0.0019390174,-0.0038104958,-0.0027422612,0.50468946,-1.3811691,1.9039649,-2.09177,-1.5708536,2.4797177,-0.023506342,0.0183453,-0.019650435,0.00557442,0.00010820932,-0.020753916,-0.61291564,-0.019153614,-9.787497,0.779936,47.681515,-0.9475825,-2.7142363,-3.427805,-0.087688,0.07402355,-0.19598186,28.5,29.75,28.875,32.5625,35.0,36.0
0.03805422,-2.0527396,0.5555664,-0.79236495,0.015072759,0.038752448,-0.19190799,-0.38951972,-0.36859423,0.0598553,-3.0784822,0.62490195,-0.000305953,-0.016296593,0.0062745027,-0.0012258615,0.0012381718,-0.002549396,-0.0032739653,0.5046288,-1.3811325,1.9039048,-2.0917346,-1.5708174,2.479633,-0.025871607,0.019885145,-0.021780299,0.0047222287,0.00010418285,-0.022586267,-0.49799395,-0.019153614,-9.691729,0.72622824,47.690468,-0.9150063,-2.7550163,-3.381732,-0.08206883,0.07996456,-0.19740428,28.5,29.75,28.875,32.5625,35.0,36.0
0.040054,-1.4160552,0.5350264,-0.68260556,-0.0033560724,0.046168193,-0.20012443,-0.38953623,-0.3685614,0.059837166,-3.0784404,0.6249314,-0.00028302,-0.017221682,0.006101722,-0.0008169943,0.0007726704,-0.0017076876,-0.0026842547,0.50458074,-1.3811202,1.9039396,-2.09177,-1.5708536,2.4796088,-0.026443094,0.020585617,-0.023566918,0.004845537,0.000100320976,-0.023746632,-0.38307226,-0.019153614,-9.749189,0.82694155,47.70211,-0.8830775,-2.7579346,-3.3615832,-0.0697697,0.07714962,-0.2176846,28.5,29.75,28.875,32.5625,35.0,36.0
0.042053614,-1.0599049,0.13153693,-0.5194654,-0.0015527589,0.051076848,-0.19840385,-0.3895915,-0.36855185,0.05985484,-3.078439,0.6249318,-0.00025655673,-0.017525923,0.0067653535,-0.00079504563,0.0011957539,-0.0024625263,-0.0028251703,0.5045204,-1.3810723,1.9038318,-2.0917222,-1.5708655,2.479549,-0.027838705,0.020536548,-0.023825433,0.006017956,9.672705e-05,-0.025001347,-0.34476504,0.019153614,-9.634268,0.7911258,47.71823,-0.92515165,-2.6390104,-3.3833983,-0.08739356,0.0698929,-0.21900976,28.5,29.75,28.875,32.5625,35.0,36.0
0.044053447,-1.1371201,-0.27937868,-0.9216383,0.0034631793,0.033927057,-0.17671326,-0.3896233,-0.36851233,0.05984502,-3.0783975,0.6250172,-0.00030050913,-0.018272841,0.00701923,-0.0006387635,0.0014113607,-0.0028520857,-0.0016301781,0.50442415,-1.381048,1.9038199,-2.091698,-1.5708655,2.4795113,-0.028960517,0.021422291,-0.025510265,0.0072619184,9.338134e-05,-0.027317451,-0.1340753,0.038307227,-9.653421,0.7978386,47.679718,-0.9207696,-2.697351,-3.344359,-0.079126075,0.06619388,-0.24309859,28.5,29.75,28.875,32.5625,35.0,36.0
0.046054073,0.0323257,0.14851439,-0.63783216,-0.012228659,0.047494307,-0.19694696,-0.38967824,-0.36854875,0.05985946,-3.078496,0.62494016,-0.00023819905,-0.019673554,0.0071209273,-0.00025483407,0.000981393,-0.0020728065,-0.0005521376,0.50441176,-1.3809754,1.9037122,-2.0917456,-1.5708297,2.4794383,-0.03043535,0.022543794,-0.027766872,0.007507649,9.025927e-05,-0.02986924,-0.15322891,0.095768064,-9.615114,0.7463667,47.66987,-0.89031684,-2.701238,-3.3384166,-0.09297105,0.07959019,-0.21734822,28.5,29.75,28.875,32.5625,35.0,36.0
0.04805431,-0.7742806,0.15658364,-0.64553046,-0.018734794,0.012202597,-0.18244796,-0.38972273,-0.3685159,0.05985851,-3.0784733,0.624975,-0.000266452,-0.021191731,0.007955912,-0.00024026351,0.0008794748,-0.0018915285,-0.00069425773,0.5043149,-1.380939,1.903663,-2.0917094,-1.5708297,2.479366,-0.03325425,0.023588866,-0.029040609,0.007528018,8.733915e-05,-0.032545336,-0.17238252,0.11492168,-9.615114,0.7038487,47.70032,-0.84830296,-2.6734023,-3.3099675,-0.06262611,0.08317403,-0.23064658,28.5,29.75,28.875,32.5625,35.0,36.0
0.050053876,-0.32630187,-0.09187053,-0.58344275,-0.014838574,0.010277916,-0.18043369,-0.3897838,-0.36851415,0.0598837,-3.0785038,0.6250567,-0.00018182544,-0.021562852,0.008321751,-0.00020375011,0.0010532372,-0.002196177,-0.00015957937,0.5042549,-1.380915,1.9035801,-2.0917213,-1.5708297,2.4793532,-0.034210335,0.023790251,-0.029500205,0.00813674,8.4602165e-05,-0.034035932,0.019153614,0.17238252,-9.519346,0.80679786,47.70211,-0.8277176,-2.6812494,-3.335598,-0.078178175,0.08458689,-0.22140446,28.5,29.75,28.875,32.5625,35.0,36.0
0.052055158,-0.25666443,-0.34468722,-0.59630543,-0.019561188,0.0071873246,-0.17590271,-0.38979816,-0.36848167,0.05986378,-3.0784419,0.62504506,-0.0002689441,-0.022584135,0.008837022,-3.6945647e-05,0.00081357977,-0.0017675017,-0.0007201304,0.5041942,-1.3808668,1.9035548,-2.0916612,-1.5708417,2.479293,-0.036028773,0.024166962,-0.03031367,0.008081807,8.203148e-05,-0.035293426,-0.05746084,0.21068975,-9.519346,0.80456203,47.688675,-0.7781542,-2.58675,-3.4064481,-0.07713155,0.08064631,-0.26483265,28.5,29.75,28.875,32.5625,35.0,36.0
0.054053873,-0.36747992,-0.26237965,-0.50651944,-0.024278373,0.004040965,-0.18237329,-0.38985506,-0.3684676,0.05985505,-3.0784552,0.62506586,-0.0002668572,-0.024206378,0.00876911,0.0007004136,-6.5243345e-05,-0.00018157184,-0.00062663166,0.5041099,-1.3807945,1.9034947,-2.0916855,-1.5708297,2.4792202,-0.037423532,0.024939353,-0.032908786,0.00809163,7.961253e-05,-0.036780503,0.0,0.17238252,-9.461885,0.78217715,47.664497,-0.72135377,-2.6305072,-3.3229373,-0.0766075,0.092879355,-0.2723102,28.5,29.75,28.875,32.5625,35.0,36.0
0.056053333,-0.079969354,-0.24896471,-0.4921727,-0.026441272,0.01648433,-0.17590185,-0.38991484,-0.3684324,0.05985797,-3.0784426,0.62504315,-0.00026941896,-0.024854433,0.00841231,0.00094514404,-0.00033929182,0.00031138444,0.0005582327,0.5040023,-1.380746,1.9034227,-2.0916498,-1.5708417,2.4791,-0.03742238,0.025910636,-0.034664948,0.008311912,7.733212e-05,-0.037963368,0.0,0.2681506,-9.500193,0.86945957,47.681515,-0.8065729,-2.62178,-3.3189063,-0.08464808,0.08491786,-0.2824955,28.5,29.75,28.875,32.5625,35.0,36.0
0.058053482,-0.6051622,-0.65472466,-0.4670114,-0.017471833,0.009474175,-0.16330907,-0.38995945,-0.36844185,0.059890486,-3.0785038,0.62503564,-0.00024932082,-0.025463566,0.00863979,0.0010590134,-0.0001940612,5.394429e-05,0.001096116,0.50395393,-1.3807338,1.9033259,-2.091613,-1.5708054,2.4790392,-0.038368523,0.026581325,-0.035915576,0.009188651,7.517863e-05,-0.03944686,-0.038307227,0.22984336,-9.404425,0.7620334,47.71286,-0.8172234,-2.5738552,-3.2710307,-0.06389776,0.0712117,-0.29293177,28.5,29.75,28.875,32.5625,35.0,36.0
0.060054272,-0.32326388,-0.17522709,-0.24128558,-0.03165065,0.022115136,-0.17483483,-0.39003095,-0.3683975,0.059869353,-3.0784228,0.62503904,-0.00022093028,-0.026381813,0.009489166,0.00069059554,0.0002515388,-0.0007549104,-0.000107383676,0.50385743,-1.3806252,1.903243,-2.0916011,-1.5708774,2.4789553,-0.040648572,0.027763497,-0.03656564,0.009577008,7.314197e-05,-0.040523004,0.019153614,0.19153613,-9.346964,0.7933669,47.70211,-0.7462982,-2.6445951,-3.291916,-0.07486743,0.080166094,-0.30996242,28.5,29.75,28.875,32.5625,35.0,36.0
0.06205333,-0.5577464,-0.33388546,-0.4158692,-0.026862385,0.016271343,-0.16849607,-0.39007792,-0.3683778,0.059891623,-3.0784664,0.62502736,-0.00017513681,-0.02754678,0.009725458,0.0009970422,-9.9209305e-05,-0.000118460215,0.0005211426,0.50377303,-1.380637,1.9032062,-2.0916011,-1.5708655,2.478858,-0.04212772,0.028494367,-0.038156934,0.009710878,7.121273e-05,-0.04262992,-0.076614454,0.24899697,-9.251195,0.8291774,47.703903,-0.7939967,-2.528139,-3.3337913,-0.0654039,0.083021134,-0.32054937,28.5,29.75,28.875,32.5625,35.0,36.0
0.06405404,-0.56491953,-0.4647131,-0.23132512,-0.023175765,0.02511038,-0.17224425,-0.3901091,-0.3683798,0.059892364,-3.0784853,0.62499136,-0.00024115489,-0.028238358,0.009729855,0.0012083595,-0.00022615421,0.000107698484,0.0022912018,0.50372493,-1.3805767,1.9031223,-2.091553,-1.5708297,2.478785,-0.042776056,0.029198013,-0.039574575,0.010166747,6.93826e-05,-0.045047674,-0.11492168,0.24899697,-9.346964,0.8090337,47.690468,-0.74112606,-2.5698173,-3.30308,-0.0774675,0.0917136,-0.31480017,28.5,29.75,28.875,32.5625,35.0,36.0
0.066053495,-0.29803458,-0.08828032,-0.06825367,-0.025693739,0.03995838,-0.18433292,-0.39017373,-0.3683497,0.059880618,-3.0784602,0.6249865,-0.00023107784,-0.02925577,0.009972834,0.0015467815,-0.0004893672,0.0005826966,0.0015862633,0.50362885,-1.3804924,1.9030493,-2.0915525,-1.5708536,2.4786892,-0.044126965,0.029746182,-0.041091457,0.01059126,6.764421e-05,-0.045692988,-0.24899697,0.2681506,-9.385271,0.7038487,47.639416,-0.8342358,-2.5144448,-3.2774863,-0.06518244,0.10118932,-0.3224547,28.5,29.75,28.875,32.5625,35.0,36.0
0.06805376,-1.1212503,0.011418722,-0.28818452,-0.01347078,0.029903958,-0.16890469,-0.3902293,-0.36835805,0.05989738,-3.0785248,0.6249605,-0.00021206896,-0.030048154,0.01025046,0.0015512515,-0.00046941155,0.0005074486,0.0018371796,0.5035684,-1.380444,1.902954,-2.0915525,-1.5708174,2.4786043,-0.045339096,0.030643675,-0.04223778,0.0109170545,8.651555e-05,-0.047155492,-0.28730422,0.19153613,-9.404425,0.78888994,47.687782,-0.78458315,-2.5233102,-3.2984767,-0.08308532,0.1057939,-0.36324066,28.5,29.75,28.875,32.5625,35.0,36.0
0.07005348,-0.6058325,0.55313915,-0.0009836516,-0.01593047,0.049436465,-0.17868184,-0.39031872,-0.36831298,0.059886083,-3.0784843,0.62498885,-0.00021669548,-0.031064525,0.010425451,0.0017388901,-0.00085584365,0.0011197644,0.004264387,0.50342435,-1.3803358,1.9028462,-2.0915287,-1.5708417,2.4784832,-0.046595737,0.03137426,-0.043484706,0.01070883,0.00012423335,-0.050838772,-0.17238252,0.17238252,-9.423578,0.7911258,47.709274,-0.8057029,-2.4415786,-3.3085818,-0.07675553,0.08666691,-0.34312814,28.5,29.75,28.875,32.5625,35.0,36.0
0.07205334,-0.80216825,0.3957026,-0.11901192,-0.0069306702,0.05047176,-0.17910856,-0.3903525,-0.36830673,0.059897043,-3.0784943,0.6250457,-0.0002942689,-0.032052647,0.010441873,0.0018138548,-0.0010876703,0.001413029,0.0081923455,0.5033523,-1.3802992,1.9027618,-2.0914571,-1.5707935,2.4784453,-0.047575057,0.032638267,-0.04516126,0.010754444,0.0001795777,-0.055745278,-0.30645782,0.076614454,-9.232041,0.7486078,47.70032,-0.89220756,-2.4824123,-3.276635,-0.081513725,0.08538756,-0.345481,28.5,29.75,28.875,32.5625,35.0,36.0
0.074054144,-0.7795855,0.77228403,-0.11082724,-0.014278658,0.054812297,-0.18562976,-0.39044365,-0.36828092,0.05991001,-3.078542,0.6249588,-0.00021183658,-0.03359477,0.011428053,0.0019140623,-0.0012340287,0.0016254523,0.007982554,0.5032313,-1.380239,1.9026664,-2.091481,-1.5708054,2.478264,-0.050677877,0.033361048,-0.046276096,0.0108888,0.00020595649,-0.05863779,-0.34476504,0.076614454,-9.308656,0.8224646,47.679718,-0.7733913,-2.5005417,-3.2656877,-0.07236553,0.0920926,-0.2900493,28.5,29.75,28.875,32.5625,35.0,36.0
0.07605364,-1.1747108,0.22356687,-0.24244761,0.007265688,0.052649196,-0.16264947,-0.3904991,-0.36826015,0.059889566,-3.07852,0.62485707,-0.0002302729,-0.033513088,0.010764093,0.001811131,-0.0010168261,0.0011901857,0.010488481,0.5031598,-1.3801305,1.902582,-2.091469,-1.5708297,2.478132,-0.049489304,0.034651674,-0.04771542,0.011521925,0.00022153655,-0.059954464,-0.4405331,0.019153614,-9.308657,0.7866488,47.688675,-0.74016154,-2.4567552,-3.2876039,-0.081475385,0.09986505,-0.32852545,28.5,29.75,28.875,32.5625,35.0,36.0
0.07805331,-1.490771,1.0120417,0.009965246,-0.00845451,0.04866548,-0.17635739,-0.39057225,-0.36825934,0.059927505,-3.0785882,0.62484956,-0.00016912092,-0.034307618,0.010772754,0.0018815218,-0.0015414249,0.0013081249,0.014056093,0.5030751,-1.3801062,1.9024614,-2.0914447,-1.5708054,2.478034,-0.050486993,0.03556782,-0.048950918,0.011484549,0.00062487903,-0.064519785,-0.34476504,0.076614454,-9.289502,0.7732232,47.691364,-0.96827465,-2.5120025,-3.2579355,-0.07857457,0.10819723,-0.27244455,28.5,29.75,28.875,32.5625,35.0,36.0
0.08005405,-1.0661175,0.5529275,-0.1831032,0.00073459063,0.06217407,-0.17315905,-0.39063823,-0.36821783,0.059912086,-3.0785723,0.6248051,-0.00021578248,-0.034683924,0.011698448,0.001108773,-0.00096085196,-0.00048796163,0.016141277,0.50294346,-1.3800216,1.9023908,-2.0914204,-1.570805,2.4778767,-0.052608717,0.03673488,-0.048666924,0.011885388,0.0009801107,-0.068727314,-0.3256114,-0.019153614,-9.346964,0.84708,47.71286,-0.85802525,-2.478325,-3.25744,-0.087915376,0.099741966,-0.24813569,28.5,29.75,28.875,32.5625,35.0,36.0
0.08205339,-0.9901961,0.64855105,-0.16255853,0.001218186,0.06098253,-0.17471746,-0.39070222,-0.36817956,0.05989702,-3.078514,0.62477267,-0.00027470844,-0.037123863,0.012230425,0.0019105087,-0.0017278157,0.00086580793,0.017054012,0.5028346,-1.3799131,1.9022807,-2.091349,-1.5708293,2.477755,-0.05577282,0.037989188,-0.05212523,0.0125314575,0.0009875363,-0.07280271,-0.38307226,-0.114921674,-9.308657,0.71279734,47.693153,-0.77180666,-2.5824294,-3.1712239,-0.08954937,0.091319524,-0.18691158,28.5,29.75,28.875,32.5625,35.0,36.0
0.084054194,-1.3926883,1.1126344,-0.11985401,-0.008836162,0.0479541,-0.18040362,-0.39077568,-0.3681615,0.059895948,-3.0785408,0.6246224,-0.00022450462,-0.03670842,0.012233696,0.0011602237,-0.00083066546,-0.0005487702,0.02065116,0.5027507,-1.3798287,1.9021858,-2.0913603,-1.5708531,2.477574,-0.05531939,0.039230257,-0.0519456,0.012780842,0.0008846961,-0.07594613,-0.4213795,-0.1340753,-9.385271,0.71279734,47.639416,-0.7387513,-2.4334123,-3.218503,-0.0888995,0.08508234,-0.17405772,28.5,29.75,28.875,32.5625,35.0,36.0
0.08605357,-0.7709692,1.1418006,0.1771409,-0.009226043,0.06156332,-0.17799516,-0.39086577,-0.36815104,0.059931867,-3.0786364,0.6245626,-0.0001904514,-0.036178533,0.01244187,0.00019417447,0.00043529947,-0.0026153256,0.023591256,0.5026192,-1.379792,1.9020551,-2.091336,-1.570805,2.4773932,-0.055098306,0.040678777,-0.051606305,0.013417753,0.00077761937,-0.07866487,-0.51714754,-0.11492168,-9.3661175,0.7642693,47.64837,-0.96524227,-2.5165272,-3.4056628,-0.11516373,0.07683021,-0.122117266,28.5,29.75,28.875,32.5625,35.0,36.0
0.088053755,-0.33917776,0.88794965,-0.040805936,-0.0009950544,0.072703004,-0.17528495,-0.39094847,-0.36812052,0.059939817,-3.0786355,0.624563,-0.0001622013,-0.038110975,0.012808365,0.00072094426,-0.00025771713,-0.0011880136,0.022884157,0.5024986,-1.3797199,1.9019464,-2.0913126,-1.5708174,2.477273,-0.057449006,0.041709453,-0.053969506,0.0131648965,0.0006921592,-0.08030717,-0.30645782,-0.11492168,-9.346964,0.72622824,47.707485,-0.91376936,-2.4771242,-3.3347778,-0.11902269,0.1007694,-0.086034715,28.5,29.75,28.875,32.5625,35.0,36.0
0.09005418,-1.1155013,0.8060697,-0.17822473,0.0008931759,0.044173326,-0.16747946,-0.39101294,-0.36809453,0.059924215,-3.0786073,0.62446034,-0.00022145463,-0.03981796,0.012462019,0.0014952892,-0.001034202,0.0003438457,0.021778759,0.5024026,-1.379599,1.9018253,-2.0912526,-1.5708297,2.4771166,-0.058403205,0.043073572,-0.057437867,0.013552026,0.0006235481,-0.08015432,-0.34476504,-0.076614454,-9.3661175,0.78217715,47.72271,-0.8695669,-2.5114417,-3.2453794,-0.121465996,0.09742412,-0.06199075,28.5,29.75,28.875,32.5625,35.0,36.0
0.09205448,-1.1012814,-0.055805612,-0.32685807,0.0059318296,0.03638586,-0.16335003,-0.3910719,-0.3680604,0.059902906,-3.0786004,0.62438256,-0.000293385,-0.03996207,0.0127840405,0.0010447069,-0.00075663964,-0.0001975358,0.020340439,0.5022826,-1.3795029,1.9017547,-2.0912287,-1.5708174,2.476949,-0.059078947,0.043731466,-0.05710988,0.013175417,0.0006371399,-0.0793918,-0.38307226,0.05746084,-9.385271,0.7866488,47.716442,-0.88864124,-2.5212169,-3.2005022,-0.1106218,0.08890753,-0.08231924,28.5,29.75,28.875,32.5625,35.0,36.0
0.09405415,-0.4649266,0.2635151,-0.3253119,-0.022845225,0.051628914,-0.16947022,-0.3911427,-0.36803973,0.05991578,-3.0786047,0.62436485,-0.00032137753,-0.040166534,0.013398713,0.0004998934,3.9198e-05,-0.0015557205,0.018110408,0.5021745,-1.3794302,1.9016231,-2.0911567,-1.5708054,2.4768293,-0.06026655,0.04472522,-0.057201184,0.013847837,0.0005940187,-0.07834918,-0.30645782,0.095768064,-9.3661175,0.7709874,47.67614,-0.95045424,-2.5284662,-3.4137552,-0.13250998,0.10480322,-0.080916464,28.5,29.75,28.875,32.5625,35.0,36.0
0.09605435,-0.6825076,-0.2681659,-0.32346076,-0.023224866,0.050730783,-0.17573476,-0.39125064,-0.3680155,0.05992747,-3.0786798,0.6242845,-0.00027350217,-0.041442648,0.013168372,0.00070984586,-0.00024098722,-0.0009532672,0.016127845,0.5020186,-1.3793458,1.901502,-2.0911806,-1.5707816,2.4766138,-0.061022013,0.046524864,-0.05985617,0.0140425,0.00054928445,-0.07712063,-0.21068975,0.17238252,-9.346964,0.74413085,47.68599,-0.96612525,-2.5073626,-3.2692163,-0.133875,0.10446979,-0.0976472,28.5,29.75,28.875,32.5625,35.0,36.0
0.09805333,-0.5953197,-0.28438243,-0.4118897,-0.027516278,0.045648817,-0.17495777,-0.3913357,-0.36797327,0.059922133,-3.0786467,0.6242209,-0.00024063775,-0.041996635,0.013416207,0.0010233845,-0.00031741153,-0.0007352394,0.013577687,0.50189847,-1.3792496,1.9013947,-2.0911562,-1.5708297,2.4764583,-0.06191782,0.046542116,-0.06073758,0.014675492,0.00051036145,-0.07546593,-0.1340753,0.28730422,-9.442732,0.75084364,47.70032,-0.99168754,-2.540355,-3.2807925,-0.15303023,0.09586562,-0.11601452,28.5,29.75,28.875,32.5625,35.0,36.0
0.10005396,-0.57083464,-0.4082431,-0.5161511,-0.037559435,0.041168492,-0.17282642,-0.39141956,-0.36794582,0.059925687,-3.0786254,0.6242551,-0.00029727252,-0.042636342,0.013473922,0.00074337824,-0.00030067694,-0.00070630276,0.011256377,0.5017666,-1.379141,1.9012393,-2.0910728,-1.5708174,2.4763505,-0.062575765,0.04784642,-0.061528962,0.014146594,0.00047656242,-0.07380196,-0.17238252,0.2681506,-9.346964,0.80456203,47.72002,-1.0664229,-2.4420416,-3.3251672,-0.16385472,0.11320683,-0.16032259,28.5,29.75,28.875,32.5625,35.0,36.0
0.1020537,-0.22952797,-0.6435964,-0.40757993,-0.03646809,0.040198006,-0.16599919,-0.39149964,-0.3679273,0.059915457,-3.0786724,0.6241894,-0.0002947953,-0.04351121,0.014014834,-0.00036278076,0.0007474963,-0.002444428,0.008402278,0.5016462,-1.3790439,1.9011558,-2.091109,-1.5707935,2.4761832,-0.06423496,0.05100556,-0.06278501,0.014273778,0.00039289094,-0.0726059,-0.095768064,0.2681506,-9.346964,0.81351066,47.733456,-1.0835927,-2.6231427,-3.3152714,-0.16166979,0.11105749,-0.18129021,28.5,29.75,28.875,32.5625,35.0,36.0
0.10405342,-0.2855127,-0.66087157,-0.5189367,-0.0379501,0.026280282,-0.16164415,-0.39157468,-0.3678885,0.05990039,-3.0786285,0.6241229,-0.0003412642,-0.045120247,0.013913961,0.0014992005,-0.0013421664,0.0014441175,0.006045595,0.5015261,-1.3789245,1.9010352,-2.091049,-1.5708174,2.4760273,-0.06551667,0.048935637,-0.064414635,0.013557656,0.0003463575,-0.07153048,0.019153614,0.22984336,-9.461885,0.78217715,47.703007,-1.0349765,-2.4437435,-3.3231921,-0.17645508,0.11884439,-0.22877106,28.5,29.75,28.875,32.5625,35.0,36.0
0.10605343,0.2946899,-0.3234619,-0.6049243,-0.048006527,0.026993658,-0.17117551,-0.39170253,-0.36786363,0.05992401,-3.0786722,0.624188,-0.00026801595,-0.045806706,0.0141327055,0.0011084109,-0.0011181677,0.0010939554,0.007000581,0.50135815,-1.3788277,1.9008669,-2.091049,-1.5708054,2.4758945,-0.06648579,0.05046122,-0.065280214,0.013313225,0.00032059354,-0.07345391,0.019153614,0.2681506,-9.404425,0.7530795,47.692257,-1.0912563,-2.4708967,-3.3530736,-0.19076478,0.114539936,-0.25330073,28.5,29.75,28.875,32.5625,35.0,36.0
0.10805405,-0.008906025,-0.30023426,-0.5429801,-0.048353575,0.014962015,-0.16846201,-0.39182132,-0.36781394,0.05993837,-3.078642,0.6241827,-0.0001794429,-0.046939105,0.014665268,0.00066435686,-0.0009659211,0.00075060193,0.0047519533,0.5012018,-1.3787311,1.9007119,-2.0910137,-1.5708655,2.4757388,-0.06843374,0.052263737,-0.06631921,0.012919594,0.00035089572,-0.07315254,0.019153614,0.3256114,-9.519346,0.7933669,47.687782,-1.1089963,-2.4446673,-3.3477755,-0.18439117,0.116263956,-0.2823802,28.5,29.75,28.875,32.5625,35.0,36.0
0.11005388,0.17411673,-0.54022545,-0.65973985,-0.033927053,0.020742428,-0.16847366,-0.39188653,-0.36778292,0.059904855,-3.078631,0.6240848,-0.00026537708,-0.047585964,0.014898185,-0.00038040735,-4.7076526e-05,-0.0009960711,0.0032348833,0.5010817,-1.3785979,1.9006275,-2.0910013,-1.5708536,2.475559,-0.06943228,0.05539438,-0.06770918,0.013153168,0.00037740738,-0.072633065,0.038307227,0.28730422,-9.423578,0.7597976,47.71017,-1.0680759,-2.6342916,-3.400853,-0.19767678,0.1287435,-0.32021335,28.5,29.75,28.875,32.5625,35.0,36.0
0.11205381,-0.33263025,-0.04467492,-0.29364577,-0.035078656,0.009633808,-0.1656952,-0.3919677,-0.3677821,0.05992,-3.0786707,0.6240132,-0.00024895748,-0.04875081,0.014791534,0.0009966252,-0.0014321366,0.001464826,0.005413068,0.5009976,-1.3785022,1.9004716,-2.090965,-1.5708417,2.4754252,-0.07033661,0.054117184,-0.06935744,0.013255299,0.00040758666,-0.075715184,-0.038307227,0.24899697,-9.461885,0.78888994,47.68062,-1.0616922,-2.6149626,-3.321997,-0.19151157,0.14322917,-0.34461617,28.5,29.75,28.875,32.5625,35.0,36.0
0.11405365,-0.11633724,-0.019298475,-0.33111855,-0.027300777,0.023802564,-0.16519052,-0.39207837,-0.36776406,0.059919816,-3.0787094,0.6240429,-0.00025801884,-0.049316496,0.014837624,0.0015545096,-0.0020290448,0.0020043307,0.0019016864,0.5008418,-1.3783703,1.9003156,-2.090965,-1.570805,2.4752831,-0.0710841,0.05380376,-0.07039695,0.013850578,0.00067419675,-0.07295146,-0.05746084,0.17238252,-9.385271,0.78217715,47.66271,-1.1263864,-2.320189,-3.32399,-0.20522407,0.114020064,-0.3891234,28.5,29.75,28.875,32.5625,35.0,36.0
0.11605421,0.0582342,0.50957423,-0.19432841,-0.030389968,0.03440752,-0.16911395,-0.39217314,-0.367719,0.05993602,-3.0787153,0.6240043,-0.00023268296,-0.050437108,0.014794751,0.001245216,-0.0021353129,0.0017124146,0.0016350922,0.50068563,-1.3783094,1.900196,-2.0909173,-1.5708169,2.4751022,-0.07217761,0.056164354,-0.07247369,0.01377012,0.00090383744,-0.073777564,-0.095768064,0.21068975,-9.3661175,0.7777002,47.645687,-1.1833881,-2.5015597,-3.3972774,-0.20704097,0.11080398,-0.45055866,28.5,29.75,28.875,32.5625,35.0,36.0
0.1180536,-0.7051457,0.20860545,-0.3676749,-0.014811025,0.028200343,-0.16448838,-0.39227173,-0.36768782,0.059913233,-3.078682,0.6240147,-0.0002916016,-0.050569683,0.014800655,0.0008930221,-0.002750441,0.00028925223,0.0040286197,0.50054157,-1.3781408,1.90004,-2.0908816,-1.5708164,2.474969,-0.07305182,0.05714961,-0.07294825,0.014208149,0.0021221552,-0.077047266,-0.1340753,0.1340753,-9.308657,0.76874626,47.66271,-1.2163539,-2.4793916,-3.3676624,-0.2145092,0.12323938,-0.46837965,28.5,29.75,28.875,32.5625,35.0,36.0
0.1200543,0.10460683,0.4182009,-0.38342842,-0.013041276,0.046852745,-0.17874181,-0.3923649,-0.3676664,0.059934266,-3.0787241,0.62402225,-0.00029946535,-0.053657893,0.014603015,0.0025344887,-0.004997525,0.0035411585,0.00498192,0.50039697,-1.3780684,1.8998955,-2.0908334,-1.5707806,2.4748237,-0.075809404,0.058109082,-0.077818096,0.014188558,0.0025237768,-0.08075672,-0.15322891,0.038307227,-9.442732,0.842603,47.71823,-1.2746683,-2.5119648,-3.1896482,-0.23182803,0.11116354,-0.4662994,28.5,29.75,28.875,32.5625,35.0,36.0
0.12205397,-0.576948,0.33959106,-0.38206273,-0.0033942356,0.03748631,-0.16564924,-0.3924865,-0.367625,0.05993858,-3.0787334,0.6239601,-0.00024823818,-0.052736215,0.014667007,0.0017116189,-0.0040278267,0.0022191845,0.013657431,0.50022966,-1.3779483,1.8997406,-2.0908215,-1.5708045,2.4746165,-0.07490973,0.058527738,-0.076400146,0.013975582,0.0023100276,-0.08853262,-0.15322891,0.076614454,-9.461885,0.8224646,47.686886,-1.1656092,-2.3891602,-3.2755718,-0.22051477,0.08983402,-0.4524862,28.5,29.75,28.875,32.5625,35.0,36.0
0.12405403,-0.8073622,0.52405363,-0.45351687,-0.007678784,0.042984165,-0.17359495,-0.3926218,-0.3676065,0.059956737,-3.0787785,0.62400544,-0.00014908638,-0.05366986,0.015044418,0.0005056691,-0.002644349,0.0004033206,0.017185299,0.5000737,-1.3778267,1.8995608,-2.0908458,-1.570805,2.4744833,-0.07617392,0.062342428,-0.07824892,0.014267671,0.0019701994,-0.093322605,-0.21068975,0.1340753,-9.346964,0.7866488,47.684196,-1.3704327,-2.555241,-3.3692775,-0.23361711,0.10196644,-0.41005006,28.5,29.75,28.875,32.5625,35.0,36.0
0.12605356,-1.0467668,0.28012896,-0.40840727,-0.0014801638,0.053395025,-0.1610624,-0.3927129,-0.36756745,0.059951436,-3.078793,0.62383175,-0.00021672431,-0.057492632,0.015841879,0.0032465437,-0.005126769,0.005665714,0.020866973,0.49991632,-1.3777072,1.8994149,-2.0907733,-1.570793,2.4742157,-0.080804676,0.06067952,-0.082557425,0.014432753,0.0016110948,-0.10163308,-0.17238252,0.038307227,-9.423578,0.7486078,47.66987,-1.2242355,-2.4735572,-3.0572891,-0.2312408,0.101400375,-0.3684951,28.5,29.75,28.875,32.5625,35.0,36.0
0.12805386,-1.2268655,0.7288554,-0.4644493,-0.012368145,0.05818509,-0.17534515,-0.39280742,-0.36752748,0.059925277,-3.0787616,0.6237445,-0.00030690842,-0.05510428,0.015605007,0.0019212137,-0.0030972497,0.00204327,0.02917112,0.49976167,-1.3775389,1.8992614,-2.0907133,-1.570793,2.4740107,-0.07815316,0.06121614,-0.08055373,0.016044393,0.0015655246,-0.107286654,-0.3256114,0.17238252,-9.500193,0.7239871,47.664497,-1.2654591,-2.4285517,-3.2548673,-0.26527816,0.10131172,-0.28996253,28.5,29.75,28.875,32.5625,35.0,36.0
0.13005409,-1.3236686,-0.16839565,-0.5989022,-0.008824947,0.07111174,-0.16446887,-0.39291644,-0.36750048,0.05993901,-3.0788453,0.6236245,-0.00028752908,-0.05675242,0.01623975,0.00097276573,-0.0025352607,0.00024557154,0.031396072,0.499593,-1.3774534,1.8991288,-2.0907133,-1.5707568,2.4737566,-0.08095126,0.065120846,-0.083151564,0.016587315,0.0019332061,-0.11230867,-0.34476504,0.13407528,-9.595961,0.8224646,47.683304,-1.2809594,-2.4310703,-3.2820458,-0.2732667,0.118388996,-0.22712255,28.5,29.75,28.875,32.5625,35.0,36.0
0.13205382,-1.3340467,-0.11291866,-0.46813363,-0.023003427,0.08296825,-0.16330263,-0.39305127,-0.3674799,0.05996539,-3.0788844,0.62349516,-0.00020701133,-0.05806097,0.016550573,0.0016584828,-0.0036491812,0.0010957943,0.033406038,0.49944863,-1.3773214,1.8989013,-2.090665,-1.5707806,2.4735267,-0.0830121,0.065104514,-0.08478133,0.016948791,0.002505695,-0.11637977,-0.57460845,0.11492168,-9.481039,0.8560339,47.689575,-1.3360565,-2.528213,-3.2757006,-0.28756508,0.10383992,-0.15957694,28.4375,29.75,28.875,32.5625,35.0,36.0
0.13405366,-1.3478444,-0.3228745,-0.66606325,-0.020146035,0.086722426,-0.15979274,-0.39312997,-0.36742517,0.059928197,-3.078834,0.6234457,-0.0003768268,-0.058309983,0.01678597,0.0019357651,-0.004225934,0.0013756774,0.033830933,0.4992688,-1.3771656,1.8987821,-2.0905812,-1.5707563,2.4733224,-0.08384244,0.06446115,-0.084660135,0.016951043,0.0028642993,-0.117636144,-0.51714754,0.076614454,-9.500193,0.7777002,47.672558,-1.3290172,-2.4042337,-3.258031,-0.29893807,0.08432199,-0.14634117,28.4375,29.75,28.875,32.5625,35.0,36.0
0.13605344,-1.5449222,0.09597768,-0.52696186,-0.02392597,0.07949621,-0.1598364,-0.39328122,-0.36739853,0.05995584,-3.0789018,0.62332726,-0.00023904354,-0.060544364,0.018170085,0.0015848933,-0.0043000714,0.0011895756,0.027542882,0.49909958,-1.3770446,1.8985785,-2.090593,-1.5707806,2.4730709,-0.08830229,0.066492796,-0.086192474,0.016576901,0.0030264067,-0.115807,-0.4213795,0.076614454,-9.500193,0.8672237,47.67345,-1.1710885,-2.3526661,-3.2885256,-0.29445532,0.07947569,-0.16633552,28.4375,29.75,28.875,32.5625,35.0,36.0
0.13805398,-1.6069903,-0.20695567,-0.60524946,-0.007520777,0.07884503,-0.15653624,-0.39338323,-0.3673687,0.05995198,-3.0789125,0.6232366,-0.00025370135,-0.0606111,0.01735182,0.0020016597,-0.0044867666,0.0019760442,0.025108093,0.49895525,-1.3769125,1.8984226,-2.0905573,-1.5707806,2.4728687,-0.08683304,0.06693488,-0.0877488,0.0169128,0.0028115334,-0.111901976,-0.6512228,0.0,-9.557653,0.77545905,47.691364,-1.5042067,-2.3534188,-3.3007479,-0.3147678,0.08910099,-0.17997539,28.4375,29.75,28.875,32.5625,35.0,36.0
0.14005384,-1.9816338,0.17411844,-0.5920932,-0.0059110443,0.06703366,-0.16174053,-0.39350656,-0.36732388,0.05993211,-3.0788999,0.6232364,-0.00033708964,-0.063383,0.019121181,0.0022453144,-0.005046349,0.0031100942,0.015096949,0.49875104,-1.3767319,1.8982428,-2.0905097,-1.5707563,2.472666,-0.09229792,0.06776092,-0.0891359,0.016214103,0.002752658,-0.10735502,-0.7086837,0.05746084,-9.519346,0.8403672,47.70211,-1.3944566,-2.3134563,-3.449851,-0.32758984,0.086860925,-0.26052177,28.4375,29.75,28.875,32.5625,35.0,36.0
0.14205372,-0.81320494,0.9142373,-0.64458114,-0.009940958,0.089222446,-0.17041488,-0.39364624,-0.36729074,0.059948437,-3.0789576,0.62318975,-0.0002775952,-0.0636151,0.018766573,0.0023380253,-0.005691221,0.0030924615,0.01333725,0.49855947,-1.3766116,1.8980631,-2.0905097,-1.5707449,2.472438,-0.09224546,0.06831591,-0.09002021,0.016250331,0.003333465,-0.105543286,-0.57460845,-0.019153614,-9.481039,0.84708,47.67793,-1.1702902,-2.3948298,-3.2137265,-0.3297021,0.08365152,-0.30050668,28.4375,29.75,28.875,32.5625,35.0,36.0
0.14405428,-1.378477,0.5011138,-0.53804314,-0.00126587,0.06494952,-0.15753207,-0.39378083,-0.36723885,0.059941318,-3.0789564,0.6231895,-0.00025397204,-0.064440355,0.019688109,0.0015931217,-0.005490218,0.0015834522,0.011309141,0.49835506,-1.3764669,1.8979076,-2.0905097,-1.5707558,2.4722338,-0.09486489,0.069928735,-0.0902584,0.016294796,0.0038798687,-0.10613519,-0.59376204,-0.038307227,-9.5385,0.8873621,47.67614,-1.2258592,-2.3145823,-3.354793,-0.33031574,0.058684073,-0.31088728,28.4375,29.75,28.875,32.5625,35.0,36.0
0.14605375,-1.3449131,0.13590401,-0.35563937,0.0001443458,0.067303784,-0.15449646,-0.39393276,-0.3672045,0.05995946,-3.0789728,0.6232324,-0.00023679362,-0.06811057,0.019671919,0.0036894383,-0.008012564,0.00606644,0.00903742,0.49815026,-1.3763105,1.8976673,-2.09045,-1.5707444,2.4720538,-0.09821937,0.07038567,-0.09549589,0.015933802,0.0039445627,-0.1072158,-0.59376204,-0.038307227,-9.385271,0.81351066,47.68062,-1.1622398,-2.2962053,-3.1563764,-0.3203068,0.058149002,-0.34921908,28.4375,29.75,28.875,32.5625,35.0,36.0
0.14805396,-0.91920686,0.8098836,-0.4596923,-0.004934501,0.0730508,-0.17435284,-0.39405245,-0.3671673,0.059957623,-3.0790188,0.62308806,-0.00023617686,-0.06839935,0.020619916,0.0031182219,-0.006848343,0.005041163,0.0071334876,0.49797022,-1.3761783,1.8975118,-2.0904377,-1.5707325,2.471778,-0.09972136,0.07108424,-0.09512184,0.01632204,0.0034160584,-0.10681301,-0.61291564,-0.038307227,-9.423578,0.8314132,47.71554,-1.0684211,-2.31934,-3.3683307,-0.34430787,0.061759263,-0.35949403,28.4375,29.75,28.875,32.5625,35.0,36.0
0.1500538,-1.6320947,0.5686133,-0.62588847,0.008884595,0.059701145,-0.16898717,-0.39420035,-0.36713088,0.059972923,-3.0790498,0.6230933,-0.00020763259,-0.07022422,0.021845303,0.0029685085,-0.006459842,0.0054745353,0.0062895273,0.49776548,-1.3760335,1.8972973,-2.090402,-1.5707206,2.4715726,-0.10308327,0.07239845,-0.09626792,0.015962653,0.0028691813,-0.10932927,-0.4213795,0.019153614,-9.461885,0.8403672,47.70211,-0.96935815,-2.281814,-3.2272913,-0.32263616,0.0575771,-0.35693842,28.4375,29.75,28.875,32.5625,35.0,36.0
0.15205353,-1.2076982,0.67971945,-0.32350725,-0.0031048623,0.0663037,-0.1681878,-0.39435172,-0.3670903,0.059992876,-3.0790615,0.62305695,-0.00014124259,-0.071306914,0.022413071,0.002963775,-0.006177198,0.0056766253,0.00425732,0.49757326,-1.3758893,1.8970698,-2.0903537,-1.5707449,2.4713564,-0.10478429,0.07337393,-0.09746351,0.016139314,0.0025275557,-0.10899684,-0.57460845,0.05746084,-9.461885,0.8314132,47.695843,-0.92207927,-2.2527616,-3.243135,-0.31938797,0.06805449,-0.42284185,28.4375,29.75,28.875,32.5625,35.0,36.0
0.15405378,-1.1440289,0.2578332,-0.38137174,-0.00022120329,0.06772122,-0.16383208,-0.3944823,-0.36701638,0.059964184,-3.0790293,0.62306625,-0.00022794608,-0.0722736,0.022912689,0.0025869561,-0.0056386674,0.005166724,0.009649983,0.4973213,-1.3757201,1.8969263,-2.090318,-1.5707325,2.4711144,-0.106330365,0.07513898,-0.098770134,0.016388698,0.0022890912,-0.11593459,-0.5554548,0.038307227,-9.442732,0.8112748,47.693153,-0.8669652,-2.3144658,-3.3002944,-0.32535082,0.07123047,-0.3799039,28.4375,29.75,28.875,32.5625,35.0,36.0
0.15605399,-1.2784199,-0.028412469,-0.4997691,-0.0026004922,0.07109314,-0.16039465,-0.39462078,-0.3669934,0.05997787,-3.0790808,0.622977,-0.00022425552,-0.072958134,0.023793435,0.0021881084,-0.004907549,0.0042544026,0.013638744,0.49714097,-1.375564,1.8966988,-2.0902698,-1.5707091,2.470872,-0.10827692,0.07614116,-0.09919319,0.01696408,0.002084842,-0.121869266,-0.49799395,-0.019153614,-9.423578,0.78888994,47.63404,-0.8212774,-2.2621999,-3.3681378,-0.34743923,0.06779924,-0.32999426,28.4375,29.75,28.875,32.5625,35.0,36.0
0.15805349,-1.5460356,0.06642845,-0.2632553,-0.009296879,0.06953021,-0.15960568,-0.39478302,-0.3669538,0.060002323,-3.079142,0.622907,-0.00013893137,-0.07377543,0.023656564,0.0019186903,-0.0045339265,0.0037355393,0.02074138,0.4969255,-1.3754311,1.8964828,-2.090258,-1.5707091,2.4706051,-0.10870962,0.07842675,-0.101436324,0.01755666,0.0020093604,-0.12940316,-0.51714754,0.095768064,-9.404425,0.8179876,47.73077,-0.89990556,-2.3082716,-3.3406804,-0.35666543,0.06300454,-0.28767166,28.4375,29.75,28.875,32.5625,35.0,36.0
0.1600539,-0.7890155,-0.14997207,-0.26991004,-0.007263196,0.08308978,-0.16518864,-0.39491886,-0.36687177,0.059960365,-3.0790665,0.62286687,-0.0002052083,-0.074237734,0.023879867,0.002026066,-0.004703227,0.0040070484,0.02887742,0.4966855,-1.3752267,1.8963274,-2.0902216,-1.5707453,2.4703498,-0.10947846,0.07855614,-0.1018387,0.01750578,0.0020163257,-0.13830808,-0.36391866,0.095768064,-9.32781,0.842603,47.690468,-0.92633975,-2.277454,-3.304979,-0.36387056,0.07119317,-0.18555534,28.4375,29.75,28.875,32.5625,35.0,36.0
0.16205391,-0.85135037,0.00331889,-0.30680627,-0.024330545,0.0682489,-0.16270922,-0.3950608,-0.3668299,0.05997641,-3.0791142,0.6227218,-0.00023182784,-0.07544416,0.023712574,0.0024804429,-0.005166549,0.0052386713,0.03014273,0.4964699,-1.3750823,1.8961004,-2.0901377,-1.570721,2.4700377,-0.1101509,0.079530336,-0.104016975,0.01741077,0.0018327225,-0.14024453,-0.2681506,0.11492168,-9.404425,0.7866488,47.690468,-0.96707994,-2.27157,-3.3008862,-0.3650903,0.06465405,-0.11930251,28.4375,29.75,28.875,32.5625,35.0,36.0
0.16405359,-0.50540113,-0.08763053,-0.3802854,-0.022903241,0.05498122,-0.16600579,-0.39521712,-0.3667913,0.059984334,-3.0791686,0.62265474,-0.00018679172,-0.07599368,0.023905328,0.0015962119,-0.0046225325,0.0045447713,0.030153971,0.49625435,-1.3749255,1.8958963,-2.0901382,-1.5707091,2.4697735,-0.11084885,0.08178793,-0.10449205,0.016500175,0.0016896524,-0.1409528,-0.21068975,0.1340753,-9.3661175,0.83589023,47.684196,-1.003294,-2.2483954,-3.2883391,-0.34568918,0.05893791,-0.09663886,28.4375,29.75,28.875,32.5625,35.0,36.0
0.16605353,0.011122663,0.054428697,-0.3025326,-0.02809683,0.04876157,-0.16583079,-0.39538467,-0.36673984,0.059990752,-3.0791872,0.62260234,-0.00017326765,-0.07750193,0.023310438,0.0025627366,-0.005641276,0.0066880067,0.026526688,0.4960144,-1.3747449,1.8956565,-2.0900905,-1.5707091,2.4694986,-0.1111058,0.08264804,-0.107725576,0.01650477,0.0015621551,-0.13758086,-0.15322891,0.19153613,-9.385271,0.7642693,47.693153,-0.91057014,-2.3847268,-3.336354,-0.34667462,0.07827078,-0.13742115,28.4375,29.75,28.875,32.5625,35.0,36.0
0.16805395,-0.4331756,-0.32238153,-0.2774412,-0.017043563,0.02519213,-0.15691145,-0.39555514,-0.36668244,0.060016714,-3.0792236,0.6225748,-0.00011711293,-0.07813846,0.025095787,0.0020433343,-0.0049415077,0.005732989,0.018016864,0.4957619,-1.374613,1.89543,-2.0900428,-1.5707091,2.4692245,-0.11454913,0.08237529,-0.10621527,0.016441185,0.0014131846,-0.13251472,-0.19153613,0.24899697,-9.251195,0.8247004,47.691364,-1.0766066,-2.2969956,-3.4017916,-0.3468622,0.07783678,-0.16602981,28.4375,29.75,28.875,32.5625,35.0,36.0
0.17005378,0.11287205,-0.4207002,-0.38910866,-0.011046041,0.033804607,-0.16357759,-0.39570513,-0.36663437,0.0599973,-3.0792277,0.6224991,-8.0573984e-05,-0.07946212,0.02424955,0.0013819567,-0.004527467,0.0054181847,0.013754737,0.49555868,-1.3744191,1.8952492,-2.0900667,-1.570733,2.4689736,-0.114163086,0.086970754,-0.11014135,0.016243758,0.001192938,-0.12786393,-0.076614454,0.21068975,-9.308656,0.8291774,47.684196,-0.89789444,-2.3665733,-3.3210976,-0.34084442,0.081322,-0.25743204,28.4375,29.75,28.875,32.5625,35.0,36.0
0.17205355,0.15187883,0.27841607,-0.4520372,-0.021027427,0.028733535,-0.1681001,-0.39588135,-0.3665944,0.06001763,-3.07928,0.6224347,-9.535625e-06,-0.07964301,0.025153106,0.0015693954,-0.0045909663,0.005677204,0.008672045,0.49533045,-1.3742515,1.8949984,-2.0900428,-1.570733,2.4686987,-0.11576273,0.085572384,-0.108894765,0.016138138,0.001137408,-0.12438147,-0.11492168,0.15322891,-9.251195,0.80679786,47.684196,-1.0091,-2.3316836,-3.464321,-0.3206402,0.064190716,-0.3231693,28.4375,29.75,28.875,32.5625,35.0,36.0
0.17405356,-0.038026076,-0.4938917,-0.45663625,-0.009160405,0.02136385,-0.15387154,-0.3960206,-0.36651048,0.059980504,-3.0792131,0.6225369,-0.00012477353,-0.08106309,0.025059301,0.0014797318,-0.004556557,0.0059686527,0.0060277744,0.49505478,-1.3740584,1.8948425,-2.0899947,-1.570721,2.4684954,-0.11674863,0.08807492,-0.11169473,0.016198019,0.0009542322,-0.12272145,-0.076614454,0.22984336,-9.193734,0.82694155,47.675243,-0.97516376,-2.3758574,-3.3308892,-0.33059394,0.08167605,-0.36997083,28.4375,29.75,28.875,32.5625,35.0,36.0
0.17605433,0.39310652,-0.0673132,-0.41706643,-0.018812768,0.032237105,-0.1639189,-0.396181,-0.36648017,0.060004577,-3.079263,0.622491,-8.00955e-05,-0.083111905,0.025881587,0.0016745996,-0.00468765,0.00637093,0.001316899,0.49485,-1.3739017,1.8945907,-2.089947,-1.5707091,2.4682558,-0.11990988,0.089745834,-0.114239454,0.01665757,0.0008814955,-0.121170476,0.0,0.30645782,-9.270349,0.80679786,47.687782,-0.8913976,-2.3813405,-3.2734137,-0.31130797,0.0923115,-0.4425618,28.4375,29.75,28.875,32.5625,35.0,36.0
0.1780537,-0.08746512,0.124594145,-0.42054486,-0.020989917,0.011003005,-0.16292492,-0.39634395,-0.36645168,0.0600018,3.0793054,-0.6224192,0.00010141699,-0.082587086,0.02452554,0.0019375384,-0.0050206524,0.006809409,0.004782632,0.49462354,-1.3736973,1.8943514,-2.089935,-1.570661,2.4679792,-0.11715829,0.09032036,-0.115591094,0.016896537,0.00096855056,-0.121884175,0.05746084,0.28730422,-9.346964,0.7732232,47.705692,-1.1121563,-2.3725638,-3.293376,-0.304012,0.10740384,-0.49580902,28.4375,29.75,28.875,32.5625,35.0,36.0
0.18005419,0.12156468,-0.3047421,-0.38466406,-0.031598687,0.026093826,-0.16483074,-0.39651632,-0.36635938,0.059978,-3.0792265,0.622402,-6.589546e-05,-0.08423413,0.025720011,0.00090753596,-0.004316598,0.0045592664,0.004217318,0.4943706,-1.37348,1.8941363,-2.089887,-1.5707568,2.4677258,-0.12089561,0.09377092,-0.11755557,0.01771214,0.0014097783,-0.12505572,-0.038307227,0.2681506,-9.3661175,0.8224646,47.7254,-0.92132974,-2.403396,-3.3490505,-0.32570657,0.102804355,-0.50870466,28.4375,29.75,28.875,32.5625,35.0,36.0
0.18205386,-0.004108022,-0.18273361,-0.28400636,-0.048979197,0.028937137,-0.17703703,-0.39668673,-0.36633706,0.06000695,-3.0793045,0.62235147,-2.9726281e-05,-0.08366236,0.02547154,0.0016204662,-0.004765853,0.005291294,0.015592799,0.49415562,-1.3733124,1.8938602,-2.0898387,-1.570721,2.4674695,-0.11994207,0.091869965,-0.11705301,0.018257584,0.001468952,-0.13547824,0.05746084,0.2681506,-9.346964,0.80456203,47.71017,-1.1704088,-2.3926537,-3.3003006,-0.30183837,0.08050979,-0.4417301,28.4375,29.75,28.875,32.5625,35.0,36.0
0.18405353,0.2537262,-0.2684767,-0.35059097,-0.045764852,0.04559409,-0.1768622,-0.39685008,-0.3662826,0.060004737,-3.0793195,0.6223115,-1.7552127e-05,-0.086067125,0.025352605,0.0017438815,-0.005190248,0.0061320537,0.023108045,0.49391535,-1.373131,1.8936442,-2.0898144,-1.570721,2.4672024,-0.121865354,0.09532636,-0.12146162,0.018268825,0.0014373055,-0.14491448,0.076614454,0.28730422,-9.289502,0.8605109,47.699425,-1.1785305,-2.393867,-3.3627222,-0.31411237,0.08471648,-0.41601297,28.4375,29.75,28.875,32.5625,35.0,36.0
0.18605423,-0.05494796,-0.3917884,-0.50344574,-0.042755093,0.046195205,-0.1677627,-0.39701658,-0.3662187,0.059999134,-3.0793262,0.6221912,-2.1956152e-05,-0.085853375,0.025980769,0.0013129294,-0.004728778,0.005005752,0.03229927,0.49366376,-1.372939,1.8934177,-2.0897667,-1.570733,2.466875,-0.122756846,0.09527967,-0.120513044,0.018575503,0.0015671309,-0.15499786,0.038307227,0.30645782,-9.32781,0.8023209,47.690468,-1.0658418,-2.4903302,-3.261184,-0.30133122,0.09792739,-0.28275532,28.4375,29.75,28.875,32.5625,35.0,36.0
0.18805397,-0.1750441,-0.66112435,-0.6497125,-0.024447048,0.043358393,-0.15828207,-0.39719966,-0.36619174,0.060013887,3.0793326,-0.6220925,6.41878e-05,-0.08751421,0.026191032,0.0015929865,-0.005172635,0.005886248,0.0367466,0.49339995,-1.3727341,1.8931297,-2.089719,-1.570649,2.466549,-0.12454691,0.096815914,-0.122986466,0.018541032,0.0015427398,-0.16123399,0.019153614,0.30645782,-9.442732,0.8493211,47.703903,-1.1495159,-2.379146,-3.2870696,-0.3157299,0.08531122,-0.20725161,28.4375,29.75,28.875,32.5625,35.0,36.0
0.1900538,-0.6532099,-0.46160614,-0.5424591,-0.02212174,0.032740176,-0.15408836,-0.39736706,-0.36614034,0.060020857,3.079372,-0.6219651,1.3510335e-06,-0.089257926,0.025913179,0.0016250082,-0.005633139,0.0066675516,0.037617896,0.49318382,-1.3725531,1.8928903,-2.0896828,-1.5706853,2.4662485,-0.1256371,0.09955425,-0.1262439,0.01814846,0.0015757129,-0.16319379,-0.11492168,0.21068975,-9.289502,0.8157518,47.65106,-1.1085404,-2.4767942,-3.1724591,-0.29841012,0.08039343,-0.18471995,28.4375,29.75,28.875,32.5625,35.0,36.0
0.19205381,-0.5571029,0.02207225,-0.5085719,-0.021659441,0.038360003,-0.153201,-0.3975448,-0.36608142,0.05999767,3.0793948,-0.62183774,5.710104e-05,-0.09004991,0.026032668,0.0018318336,-0.005994313,0.0071830014,0.032297403,0.49290824,-1.3723125,1.8926514,-2.089659,-1.570661,2.4658906,-0.12654342,0.10008814,-0.12736434,0.018114049,0.0016456377,-0.1587793,-0.2681506,0.21068975,-9.32781,0.83365434,47.683304,-1.0958155,-2.4647734,-3.12858,-0.26220068,0.09715813,-0.17359322,28.4375,29.75,28.875,32.5625,35.0,36.0
0.19405377,-1.1546783,-0.23547162,-0.59886074,-0.012548564,0.038563337,-0.147961,-0.39770442,-0.36603191,0.060002416,3.0794055,-0.62178475,5.950034e-05,-0.09162724,0.026649099,0.0014101267,-0.0060668243,0.006543805,0.024679609,0.49267983,-1.3721316,1.8924116,-2.089599,-1.5706605,2.465628,-0.12918636,0.10253892,-0.12935415,0.018180912,0.0020095687,-0.15380387,-0.40222588,0.22984336,-9.442732,0.78888994,47.62688,-1.1004854,-2.5755951,-3.0942268,-0.26294506,0.094369344,-0.2208039,28.4375,29.75,28.875,32.5625,35.0,36.0
0.19605379,-1.2039237,0.20292501,-0.63179713,-0.03325906,0.052560903,-0.15962945,-0.39789662,-0.36597672,0.059997488,3.0794308,-0.6216766,7.3646534e-06,-0.092572875,0.027067062,0.0019041158,-0.0065882066,0.0072393557,0.019772677,0.49242774,-1.3719035,1.8921489,-2.0895875,-1.5706848,2.4653053,-0.13076918,0.1023757,-0.13037755,0.018504437,0.0021443905,-0.15047961,-0.38307226,0.095768064,-9.5385,0.8224646,47.683304,-1.0543075,-2.5215652,-3.1282196,-0.24568297,0.082486406,-0.30715162,28.4375,29.75,28.875,32.5625,35.0,36.0
0.19805458,-1.2005357,0.07924901,-0.44792077,-0.033341665,0.07725361,-0.16437963,-0.39805284,-0.36591724,0.05998357,3.0794525,-0.62158436,0.00010309754,-0.093413934,0.027887681,0.0015719144,-0.0062667932,0.0057305787,0.016764091,0.49216372,-1.3716989,1.8919204,-2.089515,-1.5706486,2.464981,-0.13312039,0.103749946,-0.13157503,0.019813787,0.002569685,-0.14982246,-0.59376204,0.0,-9.461885,0.84708,47.68599,-1.1291767,-2.4956107,-3.1622071,-0.28486925,0.07252506,-0.3327824,28.4375,29.75,28.875,32.5625,35.0,36.0
0.20005418,-1.5349386,0.49232844,-0.4605156,-0.035880372,0.09417076,-0.1709735,-0.39825875,-0.3658395,0.060000926,3.0794451,-0.6216578,-7.139725e-07,-0.092938416,0.027521545,0.0013633019,-0.0062993015,0.005363448,0.017280012,0.49187642,-1.3715185,1.8916582,-2.0894792,-1.5706967,2.4647408,-0.13214117,0.103977025,-0.13135473,0.019667543,0.0027810922,-0.14935943,-0.7086837,0.038307227,-9.461885,0.83589023,47.687782,-1.1376896,-2.5405598,-3.1526759,-0.24870075,0.07929158,-0.35756505,28.4375,29.75,28.875,32.5625,35.0,36.0
0.20205395,-1.6884704,0.3085393,-0.49999204,-0.011286223,0.10521388,-0.16515481,-0.39847288,-0.36579797,0.060012322,3.079373,-0.62158614,-1.2244693e-05,-0.09534606,0.028558522,0.0018846714,-0.0067575015,0.006684406,0.015293152,0.4915756,-1.37129,1.8913573,-2.0894668,-1.5706366,2.4644043,-0.13585697,0.10501833,-0.13381091,0.019712482,0.002567614,-0.15108685,-0.7661445,0.0,-9.442732,0.80679786,47.689575,-1.0066609,-2.4141397,-3.0769231,-0.24861073,0.06733596,-0.3899945,28.4375,29.75,28.875,32.5625,35.0,36.0
0.20405388,-1.7867403,0.957978,-0.5367305,-0.020502655,0.10962883,-0.1734521,-0.3986527,-0.36576006,0.06001088,3.0793984,-0.6214691,-7.6842825e-06,-0.09526866,0.027451875,0.0019591404,-0.0070272624,0.006913687,0.023121452,0.49134913,-1.3710492,1.8910602,-2.0894072,-1.5706366,2.4641018,-0.13394994,0.10629294,-0.135553,0.01985125,0.0026957677,-0.1570075,-0.57460845,-0.15322891,-9.5385,0.85155696,47.651955,-1.1780148,-2.5120075,-3.297617,-0.24013348,0.053711887,-0.36529893,28.4375,29.75,28.875,32.5625,35.0,36.0
0.20605345,-1.5542148,0.7412618,-0.3502283,-0.00021653563,0.11498652,-0.16576836,-0.39881927,-0.36568978,0.060000505,3.0794241,-0.621372,3.3907803e-05,-0.095351845,0.028464243,0.002016521,-0.0072072614,0.006547273,0.030560015,0.49107313,-1.3708576,1.8908447,-2.089359,-1.5706247,2.463762,-0.13587382,0.10496974,-0.13416643,0.020028502,0.003029972,-0.1663713,-0.59376204,-0.095768064,-9.519346,0.7866488,47.67166,-1.2557064,-2.3793583,-3.2817469,-0.20700397,0.06897876,-0.28440896,28.4375,29.75,28.875,32.5625,35.0,36.0
0.20805351,-0.9780404,1.4067888,-0.3983988,0.005799086,0.10455785,-0.17719032,-0.39903408,-0.3656409,0.0600083,3.079411,-0.621286,-2.1191734e-05,-0.096380584,0.02899844,0.00035395738,-0.0060567707,0.0041854563,0.039739635,0.49079695,-1.3706155,1.8905333,-2.0893357,-1.5706247,2.463434,-0.13769685,0.10944557,-0.13566482,0.019677985,0.0031355962,-0.1773727,-0.5554548,-0.17238252,-9.5385,0.8179876,47.67793,-1.2071464,-2.5488186,-3.2588744,-0.20789187,0.05653687,-0.17885904,28.4375,29.75,28.875,32.5625,35.0,36.0
0.21005403,-0.8691673,1.4660511,-0.3677306,0.014087002,0.08453154,-0.1694783,-0.39924356,-0.3655891,0.060029175,3.0793848,-0.6211433,-0.00012250234,-0.0972146,0.029550662,0.0015596362,-0.0069448734,0.006298135,0.04365147,0.49052086,-1.3704244,1.8902582,-2.0893357,-1.5706247,2.4630723,-0.1391848,0.107280694,-0.13586144,0.019759806,0.0029411581,-0.1827723,-0.51714754,-0.36391866,-9.442732,0.8672237,47.699425,-1.0728577,-2.3988338,-3.3993726,-0.17254117,0.04972408,-0.08269049,28.4375,29.75,28.875,32.5625,35.0,36.0
0.21205397,-0.68174225,1.482061,-0.2793165,0.01442876,0.0684877,-0.15931158,-0.39941227,-0.3655166,0.060000364,3.079446,-0.62098634,-7.652589e-06,-0.09969625,0.031141864,0.0005504084,-0.005794495,0.005225495,0.03674376,0.49023208,-1.3701828,1.8900193,-2.0892637,-1.5706009,2.462678,-0.1437106,0.11120326,-0.13826236,0.019733083,0.002414583,-0.18038839,-0.5746084,-0.38307226,-9.385271,0.81351066,47.664497,-0.97258025,-2.5313926,-3.4997954,-0.16492361,0.057068877,-0.053675562,28.4375,29.75,28.875,32.5625,35.0,36.0
0.21405363,-0.6543672,1.194247,-0.3318176,0.02028921,0.0685485,-0.16325672,-0.3996682,-0.365457,0.060029455,3.0793881,-0.62093663,-0.00016371616,-0.09866341,0.031567287,0.00035590882,-0.005067129,0.0046420125,0.031617705,0.48990896,-1.3699551,1.8896846,-2.0892756,-1.5706133,2.4623313,-0.14319658,0.109739944,-0.13614373,0.019934284,0.002075001,-0.17474873,-0.7086837,-0.30645782,-9.289502,0.8806493,47.68062,-1.095832,-2.3340526,-3.5017467,-0.15035133,0.06457498,-0.10572877,28.4375,29.75,28.875,32.5625,35.0,36.0
0.21605423,-0.99047077,1.1334548,-0.4587668,0.03209524,0.065114155,-0.156595,-0.39983368,-0.36538884,0.06000537,3.079459,-0.6208198,-7.4502794e-05,-0.10035671,0.03135649,0.0011165645,-0.0053583286,0.0061312164,0.023320487,0.48964542,-1.3697144,1.8894333,-2.0891917,-1.5706133,2.461986,-0.14402483,0.11119021,-0.13979702,0.020687684,0.0016131224,-0.1672778,-0.5554548,-0.3256114,-9.423578,0.8537928,47.68599,-1.1007197,-2.3248293,-3.4263046,-0.1522353,0.06282921,-0.2032834,28.4375,29.75,28.875,32.5625,35.0,36.0
0.21805361,-0.89519787,1.2683287,-0.56015384,0.019851226,0.06527265,-0.17062357,-0.4000373,-0.36533368,0.060021233,3.0794435,-0.6207433,-0.00013100241,-0.101525106,0.031699825,0.0016192516,-0.0056531127,0.0067737415,0.014146602,0.48936948,-1.36951,1.8891453,-2.089155,-1.5706133,2.4616644,-0.14555945,0.11163246,-0.14164528,0.021387922,0.0015774014,-0.15963773,-0.36391866,-0.24899697,-9.500193,0.8717007,47.73883,-1.0649943,-2.3149962,-3.4180422,-0.13032077,0.06298109,-0.303214,28.4375,29.75,28.875,32.5625,35.0,36.0
0.22005324,-0.6805415,0.5928379,-0.54993045,0.008167287,0.068767644,-0.1560305,-0.4002634,-0.36525068,0.060021173,3.079423,-0.62077844,-0.00018453445,-0.102090746,0.03165513,0.0015150253,-0.005313763,0.006114934,0.010414412,0.48903415,-1.3692814,1.8888701,-2.089143,-1.5706252,2.4613538,-0.14592397,0.11324795,-0.14360395,0.022470508,0.0015932127,-0.15626918,-0.4213795,-0.05746084,-9.404425,0.8784135,47.705692,-1.1146166,-2.234046,-3.3983483,-0.12383777,0.06310874,-0.36491758,28.4375,29.75,28.875,32.5625,35.0,36.0
0.22205402,-0.4878809,0.34716427,-0.7663796,0.00063847937,0.05699583,-0.15844208,-0.40048194,-0.3651836,0.06003277,3.0793982,-0.62081295,-0.0001576752,-0.102730155,0.031823363,0.0021081413,-0.00539481,0.0061423955,0.0064060623,0.48871037,-1.3690408,1.8885349,-2.0890462,-1.5706013,2.4610548,-0.14673862,0.11333798,-0.14547312,0.024191143,0.0016532845,-0.15307502,-0.34476504,0.0,-9.519346,0.8851263,47.703903,-1.0847716,-2.285737,-3.413406,-0.1178663,0.06985355,-0.45973933,28.4375,29.75,28.875,32.5625,35.0,36.0
0.22408822,0.14606486,0.36608714,-0.6560744,-0.026970802,0.0633091,-0.16230208,-0.4006807,-0.36510995,0.06004017,3.0794218,-0.62075573,-0.00019324584,-0.10254602,0.03244689,0.00030198082,-0.0034287728,0.0020087068,0.008798837,0.488423,-1.3688358,1.8882598,-2.0889862,-1.5706252,2.460729,-0.14768223,0.11697761,-0.14608248,0.025730265,0.0018636722,-0.15641102,-0.19153613,0.038307227,-9.615114,0.7978386,47.691364,-1.1851991,-2.2746596,-3.4002519,-0.124518834,0.061425492,-0.49632287,28.4375,29.75,28.875,32.5625,35.0,36.0
0.226084,0.33797276,-0.64739186,-0.90957475,-0.03408654,0.059454907,-0.1667398,-0.40088403,-0.36503577,0.06005203,3.0794253,-0.6207492,-0.00021776378,-0.10323967,0.03217053,0.0015075526,-0.0042204373,0.0037377079,0.0195826,0.48812336,-1.3686318,1.8879732,-2.0889142,-1.5706371,2.460425,-0.14770076,0.11604033,-0.14792338,0.026610266,0.0017554441,-0.16721272,-0.11492168,0.28730422,-9.710882,0.85826975,47.68062,-1.1666237,-2.3005197,-3.4188232,-0.12342431,0.051753383,-0.46450007,28.4375,29.75,28.875,32.5625,35.0,36.0
0.22809327,0.1410768,-0.76940936,-0.95752716,-0.057387132,0.05358319,-0.15667167,-0.40107292,-0.3649782,0.060026877,3.079453,-0.62063146,-0.00012048008,-0.10456307,0.033146508,0.00070390874,-0.0032558187,0.002298193,0.030275343,0.48783523,-1.3683546,1.8876857,-2.0888536,-1.5706013,2.46006,-0.15034248,0.11882289,-0.14958888,0.02722587,0.0015715947,-0.18054609,-0.11492168,0.3256114,-9.576807,0.8403672,47.690468,-1.1335857,-2.1813233,-3.333844,-0.12367675,0.09013775,-0.33182442,28.4375,29.75,28.875,32.5625,35.0,36.0
0.2300904,-0.25439525,-0.82553405,-0.7538871,-0.078435846,0.05280459,-0.16394809,-0.4013239,-0.36490428,0.060056657,3.0794098,-0.6205795,-0.00022014903,-0.10642785,0.035186853,-0.0006822923,-0.001723778,-5.6068266e-06,0.03606308,0.4874863,-1.3681371,1.8873504,-2.0888183,-1.5706013,2.4596841,-0.15518801,0.12224975,-0.15063992,0.027606096,0.0013148355,-0.19117807,-0.019153614,0.40222588,-9.500193,0.85155696,47.690468,-1.1195657,-2.3566108,-3.457994,-0.13236634,0.09115225,-0.22276577,28.4375,29.75,28.875,32.5625,35.0,36.0
0.23209931,-0.1381608,-1.5042437,-0.84495044,-0.078175426,0.058249876,-0.15890038,-0.4015302,-0.36483023,0.060061548,3.079464,-0.6204505,-0.00025477126,-0.107627235,0.03418584,0.00037984,-0.002657658,0.002042614,0.04138274,0.48719937,-1.3679085,1.88705,-2.0887458,-1.5706371,2.45931,-0.15442152,0.123203866,-0.15432553,0.028085085,0.0011756377,-0.19572963,0.0,0.57460845,-9.634268,0.8605109,47.70211,-1.0368162,-2.291421,-3.2523503,-0.11918847,0.09148353,-0.13816857,28.4375,29.75,28.875,32.5625,35.0,36.0
0.23405401,-0.5509336,-1.7157496,-0.6067565,-0.07460917,0.03690065,-0.14581166,-0.40174037,-0.36475456,0.060054507,3.0795264,-0.6202743,-0.0002622946,-0.11028914,0.034791585,0.0011979,-0.0037867515,0.0039412812,0.03498906,0.48689905,-1.367656,1.886751,-2.0886862,-1.570661,2.458892,-0.15780139,0.12444564,-0.15767093,0.027977686,0.0012751314,-0.19271454,-0.05746084,0.59376204,-9.634268,0.8537928,47.688675,-0.8994202,-2.3968146,-3.177553,-0.11816881,0.08331139,-0.1691158,28.4375,29.75,28.875,32.5625,35.0,36.0
0.23605265,0.11798835,-1.2419695,-0.60411537,-0.07850886,0.04144751,-0.15568803,-0.40196764,-0.36470053,0.06007258,3.0794384,-0.62033683,-0.0002844776,-0.110141166,0.034020577,0.0009672988,-0.0040876386,0.0038212612,0.028047947,0.48657587,-1.3674272,1.8864287,-2.0886505,-1.5706133,2.458619,-0.15649012,0.1256323,-0.1585035,0.027596641,0.0016046104,-0.184462,-0.05746084,0.59376204,-9.5385,0.8179876,47.687782,-1.0175786,-2.3121552,-3.185655,-0.10577684,0.097316526,-0.25044525,28.4375,29.75,28.875,32.5625,35.0,36.0
0.23805176,0.021448987,-1.0713986,-0.33624545,-0.07099335,0.031073742,-0.15679887,-0.40220934,-0.36462924,0.060086887,3.079423,-0.6202962,-0.0003263526,-0.11143278,0.033832956,0.0010285411,-0.00516511,0.004136745,0.023500828,0.4862401,-1.3671745,1.8860806,-2.0885904,-1.5706128,2.45826,-0.15773354,0.12744288,-0.16075645,0.027254052,0.0024111052,-0.18115805,-0.05746084,0.45968673,-9.404425,0.8247004,47.696735,-0.99887264,-2.337964,-3.170398,-0.08946799,0.08807576,-0.3190639,28.4375,29.75,28.875,32.5625,35.0,36.0
0.24005188,0.19394001,-0.8231146,-0.254167,-0.04899879,0.038497724,-0.1634777,-0.4024246,-0.36456046,0.060082044,3.0794625,-0.620111,-0.00035078474,-0.113148324,0.034171302,0.0009754822,-0.005686582,0.004369955,0.021035857,0.4859399,-1.3669214,1.8857812,-2.0885546,-1.5706247,2.4578395,-0.15996495,0.12956974,-0.16316935,0.02708775,0.0027612776,-0.18092366,0.0,0.40222588,-9.251195,0.83365434,47.67614,-1.0376279,-2.3843617,-3.051958,-0.07715887,0.08263232,-0.36806044,28.4375,29.75,28.875,32.5625,35.0,36.0
0.24205226,0.0061023813,-0.26042336,-0.07534674,-0.038405623,0.03302225,-0.16115533,-0.4026593,-0.364499,0.060080297,3.079425,-0.6200817,-0.00034141712,-0.11294723,0.033620335,-4.0044097e-07,-0.0052895118,0.002469054,0.02235496,0.48560524,-1.3666444,1.885446,-2.0885189,-1.5705885,2.4574914,-0.15910238,0.13230926,-0.16432586,0.02737696,0.0033018666,-0.18137994,-0.019153614,0.38307226,-9.212888,0.83813137,47.699425,-1.1626627,-2.3332705,-3.2032645,-0.06358649,0.09091975,-0.3846491,28.4375,29.75,28.875,32.5625,35.0,36.0
0.24405251,-0.49963406,-0.12916437,0.12157297,-0.0308476,0.024941538,-0.16339351,-0.40290537,-0.36444357,0.060090475,3.0794077,-0.61997736,-0.00041209898,-0.113531426,0.034671213,0.00069960195,-0.005790569,0.0032565112,0.027619254,0.485293,-1.3663685,1.8850878,-2.088495,-1.5705885,2.4571164,-0.16134594,0.13037276,-0.1637262,0.027785467,0.0033954605,-0.18888836,-0.076614454,0.30645782,-9.174581,0.8224646,47.67345,-1.0909013,-2.3981595,-3.2308083,-0.054198977,0.08317154,-0.3500314,28.4375,29.75,28.875,32.5625,35.0,36.0
0.24605198,0.20795129,0.39725167,0.18822043,-0.02781305,0.040955417,-0.1785555,-0.4031208,-0.36436483,0.060080133,3.0794408,-0.6198998,-0.0003781718,-0.11454106,0.035800666,-0.00054714154,-0.0045589106,0.00088057714,0.03592341,0.48496917,-1.366103,1.8847774,-2.0884225,-1.5705885,2.4567401,-0.16406561,0.13349089,-0.16479926,0.028419286,0.003413835,-0.19991152,0.11492168,0.22984336,-9.136273,0.8717007,47.675243,-1.0282176,-2.4474442,-3.244171,-0.050996803,0.077953815,-0.25756103,28.4375,29.75,28.875,32.5625,35.0,36.0
0.24805191,-0.28200674,0.4006741,0.19112259,-0.016372878,0.017955484,-0.16436617,-0.40335926,-0.36431676,0.060093045,3.079445,-0.61968356,-0.00042201168,-0.11528067,0.036366954,-0.0005281027,-0.004351358,0.00082915556,0.04368254,0.48466912,-1.3658268,1.8844069,-2.0883744,-1.5705765,2.4563048,-0.1654884,0.13402456,-0.16561046,0.028844574,0.003267758,-0.20909287,0.0,0.076614454,-9.155427,0.900793,47.683304,-0.93195045,-2.4333694,-3.2907171,-0.0053711412,0.082727,-0.13622327,28.4375,29.75,28.875,32.5625,35.0,36.0
0.25005183,-0.1887804,0.6035367,0.424016,-0.009409296,0.021397773,-0.17131881,-0.40360585,-0.36423114,0.06009573,3.0794525,-0.6195881,-0.00050184614,-0.115935445,0.03712512,-0.00094865187,-0.003896716,-0.0006299246,0.043966223,0.48432112,-1.3655742,1.884096,-2.0883625,-1.5706004,2.4558964,-0.16742234,0.13538706,-0.16656338,0.029933525,0.0035570366,-0.2113102,-0.15322891,-0.19153613,-9.097966,0.7978386,47.704796,-0.9264554,-2.4002564,-3.3548317,-0.012057554,0.07827899,-0.06519304,28.4375,29.75,28.875,32.5625,35.0,36.0
0.25205195,-0.3680022,0.9326265,0.47120044,0.011293934,0.020083174,-0.15850855,-0.40383872,-0.3641609,0.060089342,3.0794482,-0.61951166,-0.00044799343,-0.115802065,0.0365925,-0.00064605905,-0.003948441,-0.0011890793,0.03967259,0.48397428,-1.3652858,1.8837489,-2.0882895,-1.5705642,2.4555025,-0.16650029,0.13588603,-0.16826399,0.03161314,0.0038579502,-0.20609434,-0.34476504,-0.22984336,-8.925584,0.85155696,47.684196,-1.0182056,-2.4080791,-3.2545228,-0.0048012296,0.0821348,-0.09664779,28.4375,29.75,28.875,32.5625,35.0,36.0
0.25405198,0.5489988,1.6375136,0.41610113,0.045229673,0.047391564,-0.17490423,-0.40406635,-0.36410677,0.0600995,3.0794358,-0.6193796,-0.0004908958,-0.115890026,0.037038617,-0.0023031393,-0.0025161742,-0.004756464,0.03008787,0.48367426,-1.365032,1.8834141,-2.0882537,-1.5705522,2.4551218,-0.16748074,0.13959767,-0.16921657,0.032679122,0.004254167,-0.19748947,-0.26815057,-0.22984336,-8.90643,0.8605109,47.68599,-0.99812806,-2.4978304,-3.3491259,-0.022402447,0.062491424,-0.17910519,28.4375,29.75,28.875,32.5625,35.0,36.0
0.2560522,-0.38737568,1.7427033,0.45949796,0.06720154,0.038024336,-0.16002747,-0.4042835,-0.36402756,0.06007806,3.0794554,-0.61928976,-0.00039580508,-0.11744532,0.03709404,-0.00045358398,-0.0049540796,-0.001643377,0.021766298,0.4833264,-1.3647448,1.8831028,-2.0881817,-1.5705155,2.4547155,-0.16928509,0.13753279,-0.17096514,0.032608036,0.0049482775,-0.19097288,-0.36391866,-0.3256114,-8.887277,0.8717007,47.690468,-1.0034138,-2.3229103,-3.36158,-0.013941981,0.04421659,-0.27653906,28.4375,29.75,28.875,32.5625,35.0625,36.0
0.25805208,-0.7216009,2.0113845,0.49967003,0.07091042,0.040725365,-0.16253959,-0.40452784,-0.36396855,0.060095914,3.0794284,-0.6192273,-0.0004398033,-0.11711779,0.036917284,-0.00017750403,-0.0055051777,-0.0025607143,0.016488472,0.48300377,-1.3644805,1.8827323,-2.0881217,-1.5705036,2.4543574,-0.16916627,0.13715476,-0.17150636,0.03408317,0.005870766,-0.1855769,-0.45968673,-0.36391866,-8.868123,0.800085,47.709274,-1.1553936,-2.363492,-3.283504,0.003947168,0.04605946,-0.39870942,28.4375,29.75,28.875,32.5625,35.0625,36.0
0.2600522,-0.445544,2.0491657,0.4873714,0.06203913,0.05864697,-0.17490955,-0.40475217,-0.36390266,0.06008563,3.0794413,-0.61911327,-0.0003986661,-0.1177702,0.037475865,0.0005508947,-0.004351909,-0.0033902463,0.01434488,0.48268014,-1.3641922,1.8823966,-2.0880601,-1.5704798,2.4539611,-0.17019533,0.1374291,-0.17441064,0.03799172,0.0052339393,-0.18446109,-0.47884035,-0.36391866,-8.925584,0.8940802,47.690468,-1.2118629,-2.1839612,-3.2372322,-0.0176962,0.034719698,-0.47508866,28.4375,29.75,28.875,32.5625,35.0625,36.0
0.26205242,-0.88074636,1.3888607,0.17386247,0.051702548,0.054679986,-0.17701225,-0.4049555,-0.3638036,0.060063966,3.0795374,-0.6190865,-0.0003161424,-0.118865,0.037722796,0.0011341843,-0.0035176766,-0.003500212,0.022708355,0.48235658,-1.3639154,1.8820843,-2.0879276,-1.570516,2.453609,-0.17106238,0.13863185,-0.17782034,0.040682804,0.004530547,-0.1936902,-0.49799395,-0.24899697,-9.078813,0.82694155,47.687782,-1.3655183,-2.1442914,-3.2215252,-0.06297184,0.018476725,-0.45860147,28.4375,29.75,28.875,32.5625,35.0625,36.0
0.26405242,-0.7859774,0.74120885,-0.18823867,0.037930798,0.06710688,-0.17944624,-0.4052329,-0.36372536,0.0600996,3.079532,-0.6189607,-0.00034390466,-0.11905673,0.038148776,0.0012446895,-0.0016464838,-0.005637931,0.03643839,0.48197314,-1.3636386,1.8816417,-2.0877945,-1.5705041,2.453148,-0.17143199,0.13998584,-0.18070017,0.044980086,0.003879526,-0.20778814,-0.30645782,-0.21068975,-9.308657,0.8627467,47.66808,-1.3091456,-2.21468,-3.1058817,-0.101808116,0.032327868,-0.36746082,28.4375,29.75,28.875,32.5625,35.0625,36.0
0.26605242,-1.3495405,0.24400432,-0.4819482,0.01543809,0.059488185,-0.17943603,-0.40541998,-0.36364204,0.060075402,3.079608,-0.61889327,-0.00019586034,-0.11915776,0.039463438,0.00014523574,0.0005914661,-0.008770513,0.04453476,0.4816613,-1.3633618,1.8813323,-2.08765,-1.5704926,2.4527845,-0.17330945,0.14191373,-0.18106043,0.04723354,0.003330823,-0.21776158,-0.4022259,-0.05746084,-9.481039,0.87617236,47.65912,-1.2134818,-2.1725967,-3.3344653,-0.17702892,0.027792633,-0.21770884,28.4375,29.75,28.875,32.5625,35.0625,36.0
0.26805267,-1.278653,-0.22617835,-0.5061938,-0.016494682,0.074298576,-0.17469713,-0.40566114,-0.36355323,0.06005511,3.0796442,-0.6187248,-0.00010076081,-0.1194415,0.03985221,-0.0006928409,0.0013142979,-0.009364194,0.048036207,0.48127782,-1.363049,1.8809847,-2.0875666,-1.5704569,2.4522915,-0.17387545,0.1434862,-0.18088526,0.046358533,0.0029507857,-0.2218286,-0.63206923,0.019153614,-9.557653,0.81351066,47.675243,-1.2731984,-2.238457,-3.263647,-0.18481176,0.041898675,-0.15609479,28.4375,29.75,28.875,32.5625,35.0625,36.0
0.2700517,-1.433331,-0.7471048,-0.76738185,-0.04119169,0.092816286,-0.17083573,-0.40588874,-0.36346108,0.06004111,3.0797203,-0.6186273,-2.0791855e-05,-0.11954123,0.0400099,-0.0009976692,0.0026760357,-0.011192032,0.04345828,0.48092988,-1.362748,1.8806256,-2.087434,-1.5704683,2.4518733,-0.17390053,0.1452332,-0.18289587,0.048871446,0.002569863,-0.21727473,-0.6512228,0.15322891,-9.710882,0.9298854,47.696735,-1.360733,-2.256022,-3.3128004,-0.22826728,0.051678415,-0.1884408,28.4375,29.75,28.875,32.5625,35.0625,36.0
0.27205193,-1.8728926,-1.0025575,-1.102487,-0.0528462,0.090732045,-0.16440088,-0.40614516,-0.36337876,0.06005441,3.0797431,-0.6185409,-6.9471585e-05,-0.11975544,0.040960412,-0.0027561605,0.0046335915,-0.01488732,0.033852395,0.48058116,-1.3624704,1.8802437,-2.0873501,-1.5704926,2.451468,-0.17556268,0.14882696,-0.1835235,0.050081,0.00254236,-0.20933026,-0.5554548,0.2873042,-9.691729,0.8940802,47.694946,-1.3995645,-2.2878823,-3.3289108,-0.29720652,0.04732234,-0.24888045,28.4375,29.75,28.875,32.5625,35.0625,36.0
0.27405226,-1.2403207,-1.3293074,-1.2736149,-0.05513246,0.0890698,-0.17101741,-0.40639985,-0.3632756,0.0600602,3.079772,-0.6184744,-3.8984588e-05,-0.12151968,0.04189474,-0.0010511047,0.002852221,-0.011225182,0.026037628,0.48018432,-1.3621954,1.8798736,-2.0872304,-1.5704926,2.4510262,-0.17849079,0.14606062,-0.1839041,0.049157534,0.0024151832,-0.20444383,-0.38307226,0.28730422,-9.921572,0.9455522,47.701214,-1.3197672,-2.2207625,-3.3782833,-0.3132782,0.038811784,-0.33044162,28.4375,29.75,28.875,32.5625,35.0625,36.0
0.27605218,-1.1444329,-1.4953421,-1.23844,-0.064203,0.06329928,-0.17468485,-0.40661457,-0.36320332,0.060037088,3.0798163,-0.6183868,7.420644e-05,-0.12334106,0.04228381,-0.0017218255,0.002828873,-0.010867465,0.024135498,0.47985965,-1.361882,1.879526,-2.0871236,-1.5704683,2.4506414,-0.18054539,0.14923304,-0.1858869,0.04764642,0.0022443463,-0.20459501,-0.2681506,0.28730422,-9.883265,0.8806493,47.716442,-1.279942,-2.3085065,-3.3732593,-0.33767194,0.040828105,-0.4022203,28.4375,29.75,28.875,32.5625,35.0625,36.0
0.27805218,-0.662709,-1.2762986,-0.8954872,-0.08092868,0.06006109,-0.17229728,-0.40687007,-0.36311036,0.06002586,3.0798352,-0.6183474,6.409491e-05,-0.12340015,0.042781323,-0.0037996243,0.004340537,-0.013329393,0.029263804,0.4794875,-1.3615803,1.8791789,-2.0870764,-1.5704812,2.4502425,-0.18119486,0.15292266,-0.18533038,0.04628263,0.0020333596,-0.21037214,-0.34476504,0.30645782,-9.825804,0.8873621,47.731667,-1.2472048,-2.4247024,-3.4894557,-0.325714,0.057513647,-0.38366324,28.4375,29.75,28.875,32.5625,35.0625,36.0
0.28005204,-0.43931907,-1.0136209,-1.1416318,-0.05650005,0.041446984,-0.18067192,-0.4071487,-0.36300778,0.060043614,3.0798428,-0.6182844,2.6381607e-05,-0.12644652,0.0429854,-0.0030641975,0.0028779234,-0.010242701,0.039125316,0.47907868,-1.3613033,1.8787845,-2.0869806,-1.5704931,2.4497936,-0.18400311,0.1549287,-0.18906447,0.04459945,0.0018974345,-0.22303998,-0.17238252,0.28730422,-9.825804,0.9097417,47.73256,-1.0708408,-2.4629972,-3.4555807,-0.34770775,0.06191936,-0.27745992,28.4375,29.75,28.875,32.5625,35.0625,36.0
0.28205234,-0.8476203,-1.0595156,-1.1385121,-0.04534261,0.036783542,-0.17112789,-0.4074031,-0.3629632,0.060052723,3.0798557,-0.6179733,-6.1783494e-06,-0.12780136,0.04361836,-0.002975233,0.0023735927,-0.008603968,0.04853489,0.4787662,-1.360991,1.8783783,-2.0869334,-1.5704688,2.4492855,-0.18595216,0.15529764,-0.189357,0.04284668,0.0015950105,-0.23439796,-0.019153614,0.28730422,-9.844957,0.86498255,47.68062,-1.0994757,-2.4515984,-3.607757,-0.35960665,0.06185823,-0.1544904,28.4375,29.75,28.875,32.5625,35.0625,36.0
0.2840521,-0.64159024,-0.90986025,-0.8789184,-0.043627806,0.040626097,-0.1724727,-0.40766802,-0.3628505,0.060046617,3.0798924,-0.6179049,3.90113e-05,-0.12850823,0.0444514,-0.0035923917,0.0027153762,-0.009141629,0.04826917,0.47834557,-1.3606906,1.8780073,-2.086826,-1.5704688,2.4488177,-0.18780509,0.15648071,-0.18927772,0.042220563,0.0015257966,-0.23598504,-0.13407528,0.2681506,-9.730036,0.94331104,47.66091,-1.1087606,-2.5238895,-3.57017,-0.34664172,0.07710797,-0.058596365,28.4375,29.75,28.875,32.5625,35.0625,36.0
0.28605202,-0.9466838,-0.55145484,-0.5204195,-0.05278745,0.039349854,-0.16211681,-0.40790412,-0.36276627,0.06002166,3.0799932,-0.61766183,4.9685466e-05,-0.13101669,0.045422103,-0.003732819,0.001882095,-0.008480071,0.03694922,0.47802025,-1.360366,1.8776606,-2.0867665,-1.570505,2.4483283,-0.19177446,0.15882272,-0.19159004,0.041209057,0.0019409055,-0.2286339,-0.24899697,0.24899697,-9.557653,0.8403672,47.667187,-0.9782877,-2.5722165,-3.639997,-0.34809133,0.07383493,-0.113642566,28.4375,29.75,28.875,32.5625,35.0625,36.0
0.28805202,-0.944454,-0.3975375,-0.35500714,-0.042650424,0.04140745,-0.16648939,-0.40818322,-0.36270282,0.060031075,3.079959,-0.6176038,5.538599e-05,-0.1328727,0.045165073,-0.0031722381,-0.00032993793,-0.0050075823,0.025761181,0.4776477,-1.3600304,1.8772177,-2.0866845,-1.5704683,2.447924,-0.19305436,0.15927014,-0.1926632,0.037739452,0.0022995004,-0.21872562,-0.34476507,0.22984336,-9.557653,0.8985519,47.711063,-1.0309532,-2.394906,-3.677827,-0.32690454,0.061111562,-0.2612345,28.4375,29.75,28.875,32.5625,35.0625,36.0
0.29005203,-0.5614822,-0.29754868,-0.25621435,-0.0231098,0.05823909,-0.1741438,-0.4084354,-0.362611,0.06001287,3.0799682,-0.6174927,0.000121555786,-0.1342358,0.043503262,-0.0025401127,-0.002426596,-0.0030457242,0.018789375,0.47725198,-1.359718,1.87687,-2.0866244,-1.5704325,2.4474578,-0.19191748,0.16157845,-0.19669613,0.036761355,0.0032411925,-0.21061645,-0.34476504,0.095768064,-9.519346,0.9545008,47.67614,-1.0808063,-2.515032,-3.5283437,-0.30345562,0.057715446,-0.37037402,28.4375,29.75,28.875,32.5625,35.0625,36.0
0.29205218,-0.8506251,0.5946209,-0.09836185,-0.015508171,0.046311617,-0.18116635,-0.40873286,-0.36251754,0.060035568,3.0799203,-0.6175429,2.1816635e-05,-0.1371184,0.043454673,-0.00031177863,-0.0053449674,0.0017193931,0.013129239,0.47684318,-1.3594306,1.8764623,-2.0865767,-1.570444,2.4470866,-0.19445837,0.1605476,-0.20035532,0.03587512,0.0036507745,-0.20749637,-0.30645782,-0.05746084,-9.346964,0.8806493,47.68062,-0.96904504,-2.4185908,-3.3383129,-0.2957306,0.05317413,-0.4680767,28.4375,29.75,28.875,32.5625,35.0625,36.0
0.2940521,-0.63847667,1.1276375,-0.14644684,0.0065866103,0.03536436,-0.18721306,-0.40904978,-0.36243424,0.060092963,3.0798454,-0.61750394,-0.00016662946,-0.13839631,0.04257023,0.0008107781,-0.0074949474,0.004746543,0.019730123,0.47643542,-1.3591789,1.8760189,-2.086529,-1.5704564,2.446664,-0.19427615,0.1605134,-0.20257264,0.034449633,0.0041986946,-0.21391435,-0.28730422,-0.05746084,-9.289502,0.8717007,47.681515,-1.0483218,-2.2831016,-3.2583377,-0.2831997,0.04514445,-0.4925862,28.4375,29.75,28.875,32.5625,35.0625,36.0
0.2960521,-0.6824525,0.82801163,-0.10644177,0.030420274,0.042936705,-0.18452547,-0.409295,-0.36235282,0.06004337,3.0799153,-0.61731666,-1.2031702e-05,-0.13858245,0.04202346,0.0010033874,-0.007512517,0.004991026,0.03463481,0.4760636,-1.3587829,1.8756365,-2.086446,-1.5704201,2.4461668,-0.19333367,0.16137595,-0.20424241,0.035045993,0.0040858733,-0.22787626,-0.3256114,-0.11492168,-9.346964,0.92764956,47.707485,-1.1202445,-2.2729208,-3.271112,-0.27153826,0.043023046,-0.3721418,28.4375,29.75,28.875,32.5625,35.0625,36.0
0.29805252,-1.7382699,0.36223245,-0.16596904,0.034235038,0.041680783,-0.1759139,-0.40962058,-0.3622843,0.06010807,3.0798056,-0.6172283,-0.00016481504,-0.13889465,0.042082038,-0.00052753015,-0.006150334,0.0029669467,0.04813385,0.47564396,-1.3585176,1.8751572,-2.086386,-1.5703839,2.445706,-0.19340071,0.1652401,-0.20538867,0.034767374,0.003842653,-0.24144053,-0.34476504,0.019153614,-9.346964,0.91198283,47.689575,-1.3803384,-2.2632651,-3.2797968,-0.24702111,0.03378345,-0.23235652,28.4375,29.75,28.875,32.5625,35.0625,36.0
0.30005234,-1.5860485,0.6312267,-0.16061398,0.0066740457,0.06961444,-0.1797735,-0.4098562,-0.3621756,0.060058344,3.0799408,-0.61706144,-2.864739e-05,-0.13926855,0.041271042,0.0012525528,-0.007846323,0.006447073,0.053831793,0.47527233,-1.3581471,1.8747972,-2.0862663,-1.5704082,2.4452133,-0.19218197,0.16277245,-0.20643637,0.034409966,0.0037269767,-0.24592023,-0.38307226,0.11492168,-9.308657,1.0104496,47.709274,-1.5895188,-2.1439857,-3.3654144,-0.23514342,0.032067176,-0.15500286,28.4375,29.75,28.875,32.5625,35.0625,36.0
0.30205253,-1.2974514,-0.4350193,-0.24375731,-0.002613205,0.08256246,-0.171153,-0.41013473,-0.3620875,0.06006719,3.079924,-0.6169846,-5.885655e-05,-0.1399695,0.04134941,0.0016294068,-0.008468494,0.0070195496,0.046469655,0.47487602,-1.3578473,1.8744029,-2.0862062,-1.5703963,2.4447713,-0.1929691,0.1629648,-0.20760924,0.034598168,0.004026409,-0.2393451,-0.51714754,-0.019153614,-9.385271,0.82694155,47.67614,-1.546085,-2.2028985,-3.3523676,-0.23158804,0.03518408,-0.20540409,28.4375,29.75,28.875,32.5625,35.0625,36.0
0.30405253,-1.1922659,-0.5085194,-0.6078988,-0.036970448,0.07105253,-0.17566945,-0.410414,-0.36200896,0.06007979,3.0799484,-0.616745,-0.00010304858,-0.14163367,0.042600017,0.0018336484,-0.008490984,0.006734325,0.035203405,0.4745027,-1.3575355,1.8739828,-2.0861342,-1.5703963,2.4442456,-0.19646601,0.16386507,-0.20947479,0.035805367,0.00418509,-0.23157518,-0.2681506,0.13407528,-9.461885,0.9097417,47.66091,-1.4168644,-2.0599828,-3.3779268,-0.22980194,0.023645846,-0.29793704,28.4375,29.75,28.875,32.5625,35.0625,36.0
0.30605304,-0.8862945,-0.46599278,-0.72705126,-0.040233675,0.05326161,-0.17384796,-0.4107135,-0.36191097,0.060080953,3.0799668,-0.616637,-0.0001680986,-0.1424803,0.04357773,0.0012780175,-0.007658415,0.0064753136,0.029098604,0.47409418,-1.3571992,1.8735646,-2.0860865,-1.5704201,2.4437675,-0.19831608,0.16509227,-0.20963886,0.03535014,0.0035714188,-0.2273195,-0.34476504,0.038307227,-9.423578,0.9254084,47.670765,-1.3945856,-2.100818,-3.3382816,-0.2068102,0.035775762,-0.36300898,28.4375,29.75,28.875,32.5625,35.0625,36.0
0.3080523,-0.70500225,-0.19103044,-0.6959551,-0.03580353,0.042146746,-0.17990954,-0.41099775,-0.36182192,0.060073994,3.0799754,-0.6165798,-0.00011326792,-0.14412984,0.044474814,0.0013404156,-0.007587112,0.007641132,0.028999561,0.47368518,-1.3568388,1.8731221,-2.0859787,-1.5703968,2.443322,-0.20073354,0.16608863,-0.21086055,0.034580626,0.0029704336,-0.22963685,-0.19153613,0.095768064,-9.442732,0.9164598,47.709274,-1.2243195,-2.0303812,-3.3169837,-0.19796172,0.05213721,-0.3972919,28.4375,29.75,28.875,32.5625,35.0625,36.0
0.31005225,-0.018683836,-0.1350825,-0.807986,-0.019462163,0.048901048,-0.18675987,-0.41130108,-0.36173704,0.060082555,3.0799701,-0.6164575,-0.00019919746,-0.14600568,0.04514168,0.0012547275,-0.007433803,0.008709289,0.0372358,0.47328857,-1.3565029,1.8726901,-2.0859435,-1.5704087,2.4428499,-0.20294932,0.16805471,-0.21290354,0.033781223,0.0023632536,-0.2400871,-0.1340753,0.11492168,-9.519346,0.95226496,47.690468,-1.2401924,-2.1728835,-3.3573186,-0.1707962,0.04673625,-0.30124965,28.4375,29.75,28.875,32.5625,35.0625,36.0
0.31205228,-0.5550825,-0.06669944,-0.6991539,-0.007460947,0.037773866,-0.17360677,-0.4115967,-0.36166447,0.060103886,3.079922,-0.6162295,-0.000198185,-0.14626347,0.04591512,-0.0010017421,-0.0056391144,0.005167123,0.048153955,0.47286832,-1.3561893,1.8722476,-2.0858715,-1.5703367,2.4422934,-0.20433898,0.17250122,-0.21314092,0.03356648,0.0024019845,-0.25239417,-0.19153613,0.15322891,-9.557653,0.8717007,47.681515,-1.2296838,-2.29554,-3.5561278,-0.14933512,0.053495403,-0.16182616,28.4375,29.75,28.875,32.5625,35.0625,36.0
0.31405237,-0.63753366,0.5920248,-0.8344544,-0.0116844205,0.03278567,-0.18914616,-0.4118889,-0.36155605,0.060107823,3.0799713,-0.6161041,-0.00030010004,-0.14782055,0.04630718,-0.0009807384,-0.006595649,0.004771313,0.048769783,0.4724716,-1.3558772,1.8718518,-2.0858233,-1.5703963,2.4418125,-0.2068285,0.1743789,-0.21561205,0.034060538,0.0034430912,-0.2554994,-0.21068975,0.24899697,-9.500193,0.8784135,47.677036,-1.1213609,-2.2469878,-3.4351044,-0.11755827,0.053362146,-0.09510377,28.4375,29.75,28.875,32.5625,35.0625,36.0
0.31605238,-0.6549679,-0.1264962,-0.60419995,-0.0122854095,0.033553567,-0.16514273,-0.41221103,-0.3614718,0.0601152,3.079938,-0.6160252,-0.00033281007,-0.1485454,0.047202133,-0.0018358445,-0.0058936374,0.002045988,0.0397599,0.47203872,-1.3555048,1.8713726,-2.0857627,-1.570372,2.4413347,-0.20916755,0.17691511,-0.21719591,0.035857894,0.004068909,-0.24882825,-0.36391866,0.15322891,-9.519346,0.8918391,47.67345,-1.1019157,-2.3735626,-3.4963403,-0.10576185,0.035273604,-0.13177958,28.4375,29.75,28.875,32.5625,35.0625,36.0
0.3180524,-0.86701185,-0.3034657,-0.55241156,-0.027202224,0.03453636,-0.16964109,-0.41247287,-0.36138222,0.06010111,3.079961,-0.6158825,-0.00025173012,-0.14968656,0.048338518,-0.002182623,-0.0049392655,0.00035890617,0.026236957,0.47164202,-1.3551681,1.8709768,-2.0856664,-1.5703362,2.4408462,-0.21185276,0.17882007,-0.21923073,0.037930865,0.0039723287,-0.23798978,-0.45968673,0.17238252,-9.500193,0.85826975,47.709274,-1.0124478,-2.3546991,-3.4723063,-0.10987078,0.03648127,-0.26332968,28.4375,29.75,28.875,32.5625,35.0625,36.0
0.32005233,-0.6566451,-0.22487827,-0.3602502,-0.03148747,0.05062061,-0.16922131,-0.41278946,-0.3612876,0.060113084,3.0799875,-0.61577755,-0.00033096242,-0.15088014,0.048337057,-0.0012798635,-0.0050336947,0.0016306677,0.016660081,0.47123402,-1.3548086,1.8704971,-2.085582,-1.5703725,2.4403696,-0.21241543,0.1792479,-0.22214736,0.03923533,0.0034802062,-0.2289741,-0.34476504,0.15322891,-9.442732,0.9164598,47.713753,-1.1040207,-2.4281244,-3.4407406,-0.11102292,0.03154079,-0.38682872,28.4375,29.75,28.875,32.5625,35.0625,36.0
0.32205263,-1.1922358,-0.3430389,-0.13345055,-0.037238825,0.05932115,-0.1760423,-0.41307884,-0.3611954,0.06009673,3.0799766,-0.6157177,-0.00025258912,-0.15074383,0.0479881,-0.0024695238,-0.0034952373,-0.00050333526,0.014853042,0.47080234,-1.3544358,1.8700656,-2.085498,-1.5703243,2.439902,-0.21131323,0.18266359,-0.2238318,0.04011684,0.0030696776,-0.22606364,-0.4405331,0.19153613,-9.193734,0.8806493,47.686886,-1.075655,-2.3266473,-3.373012,-0.105665654,0.044651352,-0.500213,28.4375,29.75,28.875,32.5625,35.0625,36.0
0.32405263,-1.3208739,-0.3822052,-0.081756204,-0.023930926,0.07630062,-0.17136244,-0.41339198,-0.36110023,0.060115583,3.079977,-0.61561495,-0.00032183903,-0.15068828,0.04738424,-0.0012800492,-0.0044185556,0.001027382,0.02603199,0.47038257,-1.354101,1.8695997,-2.0854137,-1.5703367,2.4394183,-0.21018416,0.18109274,-0.22487755,0.040952947,0.003215559,-0.23611356,-0.4213795,0.1340753,-9.174581,0.9634547,47.668976,-1.2081444,-2.2411957,-3.4134555,-0.09351866,0.051061,-0.47535378,28.4375,29.75,28.875,32.5625,35.0625,36.0
0.3260518,-1.3161134,0.28563738,-0.16032368,-0.0110079115,0.0835614,-0.17404301,-0.41369465,-0.360997,0.060122605,3.0799594,-0.6155825,-0.00036642328,-0.15152763,0.046694215,-0.00010657542,-0.0059665493,0.0028689092,0.0410996,0.46995074,-1.3537772,1.8691796,-2.085354,-1.5703362,2.4389687,-0.20993267,0.18076304,-0.22728321,0.041351367,0.0037766849,-0.25092942,-0.34476504,0.076614454,-9.270349,0.8940802,47.677036,-1.4157743,-2.1700392,-3.4536417,-0.0754461,0.024072552,-0.3538897,28.4375,29.75,28.875,32.5625,35.0625,36.0
0.32805187,-2.241817,0.39810348,-0.31827542,0.0016506993,0.051941026,-0.17101592,-0.41398922,-0.3609045,0.06011887,3.0800288,-0.6153425,-0.0004139922,-0.15244979,0.046967067,-3.8060334e-05,-0.0066618808,0.002693337,0.050267354,0.46956617,-1.3534167,1.8687366,-2.085282,-1.570372,2.4384258,-0.21145886,0.18172434,-0.22873196,0.04167502,0.0044852686,-0.2616234,-0.36391866,0.1340753,-9.270349,0.86498255,47.704796,-1.3381001,-2.2321,-3.4768515,-0.08573333,0.026464604,-0.21097945,28.4375,29.75,28.875,32.5625,35.0625,36.0
0.3300518,-0.9398588,0.8847173,-0.20001957,-0.0064006965,0.050884508,-0.17799923,-0.41431674,-0.36083767,0.06013115,3.0799768,-0.6151819,-0.000453316,-0.15430172,0.047524557,-1.9609952e-05,-0.0073594814,0.0027148218,0.044423304,0.46914524,-1.3530325,1.868234,-2.0852344,-1.5703233,2.4379113,-0.21417923,0.18380886,-0.23141634,0.041951615,0.0051110126,-0.25849882,-0.30645782,0.17238252,-9.308657,0.9567419,47.705692,-1.3434632,-2.1794431,-3.411313,-0.05273652,0.010004447,-0.21342899,28.4375,29.75,28.875,32.5625,35.0625,36.0
0.33205277,-0.6635521,0.22469601,-0.18937707,-0.0069809654,0.02237142,-0.16447046,-0.41461685,-0.36071977,0.060119223,3.0799983,-0.61509246,-0.00038598105,-0.15496871,0.04694155,6.9352673e-06,-0.006872295,0.003188738,0.03872074,0.46867812,-1.3526727,1.867802,-2.0851262,-1.5703,2.4373858,-0.21320729,0.18587284,-0.23413453,0.04241117,0.004446225,-0.25182286,-0.45968673,0.17238252,-9.308657,0.8985519,47.72002,-1.4556361,-2.128067,-3.2945943,-0.03199908,0.025852911,-0.30439374,28.4375,29.75,28.875,32.5625,35.0625,36.0
0.33405185,-0.6966049,0.033838134,-0.0033656966,-0.011821712,0.0148286605,-0.1597374,-0.41493276,-0.3606043,0.060101926,3.080064,-0.6149933,-0.00041793555,-0.15626971,0.04762285,0.001356623,-0.007237265,0.0059006335,0.033257764,0.46824566,-1.3522775,1.8673476,-2.0850546,-1.5703486,2.4368834,-0.21473841,0.18422532,-0.23532714,0.042658295,0.003542817,-0.24789035,-0.4405331,0.21068975,-9.136273,0.9410752,47.675243,-1.3546716,-2.1274354,-3.2876453,-0.018950962,0.034531545,-0.37995225,28.4375,29.75,28.875,32.5625,35.0625,36.0
0.33605188,-0.22872104,0.4984363,-0.32005674,-0.006398786,0.03547778,-0.17679575,-0.4152475,-0.36051455,0.06012535,3.080057,-0.61485547,-0.00042311248,-0.15677217,0.04846226,0.00040428987,-0.005652048,0.0039491043,0.03447725,0.46781325,-1.3519291,1.8668436,-2.0849226,-1.5703243,2.436366,-0.21608232,0.18664376,-0.23640323,0.043783534,0.0030194356,-0.2504527,-0.28730422,0.095768064,-9.270349,0.9298854,47.66808,-1.417774,-2.1226454,-3.3083014,-0.016094632,0.037037127,-0.40209305,28.4375,29.75,28.875,32.5625,35.0625,36.0
0.33805203,-0.7000843,0.0942528,-0.38800797,0.0065404433,0.035860427,-0.16525476,-0.41556033,-0.3604532,0.06012592,3.080007,-0.61476445,-0.00043380013,-0.15830493,0.04977681,-4.703903e-05,-0.004606787,0.0025803684,0.0416199,0.46741593,-1.3515321,1.8663515,-2.084874,-1.5702766,2.4359183,-0.21923235,0.18899679,-0.23865792,0.045397654,0.0027233646,-0.26074412,-0.1340753,-0.05746084,-9.404425,0.94331104,47.71286,-1.2381694,-2.1344948,-3.2696943,-0.021084225,0.022961829,-0.33139253,28.4375,29.75,28.875,32.5625,35.0625,36.0
0.34005204,-0.47519806,0.32608762,-0.12466145,-0.019659799,0.059321295,-0.17882949,-0.41587418,-0.36030865,0.060115278,3.0800679,-0.61471367,-0.00039402413,-0.15904666,0.051753737,-0.0011860437,-0.003331781,-0.0008359023,0.050872177,0.4669226,-1.3511717,1.8659099,-2.0847418,-1.5703005,2.435386,-0.2232375,0.19092257,-0.23890954,0.047348063,0.003124555,-0.27400184,-0.1340753,0.095768064,-9.232041,0.8224646,47.716442,-1.1164967,-2.262263,-3.3511949,-0.030872129,0.054543514,-0.1981904,28.4375,29.75,28.875,32.5625,35.0625,36.0
0.34205207,-0.9245402,0.61715746,-0.09839693,-0.016979637,0.057194658,-0.18355514,-0.41620073,-0.3602112,0.06011323,3.080107,-0.61449105,-0.0004322832,-0.15966696,0.052220315,-0.0011878845,-0.0038528005,-0.001984528,0.051601324,0.46649,-1.3507762,1.8654197,-2.0846694,-1.5703119,2.4348097,-0.22496831,0.19170909,-0.24022335,0.048662942,0.0041148136,-0.27646214,-0.15322891,0.05746084,-9.097966,0.93436235,47.71286,-1.0653093,-2.128815,-3.4282408,-0.028777216,0.035087388,-0.10221438,28.4375,29.75,28.875,32.5625,35.0625,36.0
0.34405202,-0.23039398,0.59131455,-0.25781944,0.00016967673,0.0695372,-0.17393172,-0.41649565,-0.3601291,0.060096383,3.080136,-0.61431175,-0.00035163312,-0.16181041,0.05281357,-0.000824988,-0.0048543047,-0.00256591,0.041306037,0.46608114,-1.3503677,1.8649391,-2.0845606,-1.5702757,2.4342854,-0.2282992,0.19396092,-0.2442638,0.050525278,0.0052514453,-0.2694973,-0.22984336,0.05746084,-9.136273,0.96569055,47.667187,-0.9478066,-2.1621752,-3.3903017,-0.030136447,0.018757705,-0.15868555,28.4375,29.75,28.875,32.5625,35.0625,36.0
0.3460522,-0.3860455,0.4944276,-0.34244564,0.0044784984,0.048827846,-0.15861242,-0.41682842,-0.36000904,0.060095303,3.080104,-0.6142925,-0.0003286415,-0.16056989,0.053119875,-0.0011117675,-0.0035470596,-0.0050738663,0.030858377,0.46557736,-1.3499962,1.8644727,-2.0844758,-1.5702394,2.4337738,-0.22755055,0.1935879,-0.24386357,0.05333299,0.005211747,-0.25830138,-0.3256114,0.05746084,-9.174581,0.92764956,47.70032,-0.9769168,-2.0985565,-3.4329867,-0.06527665,0.0008943933,-0.2852806,28.4375,29.75,28.875,32.5625,35.0625,36.0
0.34805208,-0.1260018,0.18915522,-0.056421448,-0.010455368,0.042149648,-0.16694103,-0.41713378,-0.35989773,0.060066048,3.080162,-0.61419314,-0.00025310297,-0.16041413,0.053232558,-0.0013192263,-0.0020329314,-0.0062577706,0.022564225,0.46513385,-1.3495764,1.8640064,-2.084368,-1.5702399,2.4332612,-0.22692813,0.19469698,-0.24527311,0.055371653,0.004368565,-0.24938399,-0.4405331,0.05746084,-9.251195,0.91198283,47.73883,-1.1403726,-2.0482485,-3.4767442,-0.097158864,0.017696004,-0.4236971,28.4375,29.75,28.875,32.5625,35.0625,36.0
0.35005206,-0.94557613,0.14238666,-0.0121064335,-0.016852703,0.02837934,-0.16906683,-0.41743714,-0.35979322,0.060078964,3.0802312,-0.61406934,-0.0002581926,-0.16036753,0.053775076,-0.0024000618,0.0001809754,-0.008498239,0.025163585,0.4647257,-1.3492156,1.8635024,-2.0842001,-1.5702766,2.4327674,-0.2270391,0.1971706,-0.24621314,0.056830984,0.0033885194,-0.25209305,-0.5363012,0.095768064,-9.212888,0.9925471,47.694946,-1.19977,-2.2723804,-3.604284,-0.107786864,0.03726674,-0.49154449,28.4375,29.75,28.875,32.5625,35.0625,36.0
0.35205233,-0.20044951,0.6519248,-0.21640155,-0.0018601542,0.044329558,-0.18135321,-0.41776615,-0.35969195,0.06006686,3.080242,-0.6139101,-0.000205597,-0.16242902,0.05361676,-0.00079653255,-0.0003938713,-0.0067954157,0.037838623,0.46425745,-1.3487954,1.8629988,-2.0841029,-1.5702404,2.4321985,-0.22817309,0.19808495,-0.25165653,0.059599306,0.0031353899,-0.2659002,-0.038307227,0.038307227,-9.346964,0.9254084,47.711964,-1.1923163,-2.2540712,-3.4467564,-0.1369609,0.031773396,-0.38059765,28.4375,29.75,28.875,32.5625,35.0625,36.0
0.3540524,0.29391468,1.3676243,-0.12212695,-0.018482236,0.05036866,-0.18339667,-0.4180936,-0.3595839,0.060059562,3.0802808,-0.61375684,-0.00018742675,-0.16231056,0.05369313,-0.0021556604,0.001724125,-0.011581956,0.051294185,0.46380156,-1.3483866,1.8624953,-2.0839937,-1.5702404,2.4316423,-0.22817466,0.20252621,-0.25496048,0.06369831,0.003385765,-0.2793561,-0.095768064,0.05746084,-9.404425,0.92093146,47.72002,-1.2617617,-2.2259429,-3.4336529,-0.20756632,0.034439214,-0.23238668,28.4375,29.75,28.875,32.5625,35.0625,36.0
0.3560524,-0.23235455,0.77825016,-0.020432502,-0.021347947,0.045743667,-0.167064,-0.41840756,-0.35947746,0.06005754,3.080302,-0.613627,-0.00013323176,-0.16352542,0.05382914,-0.0021541375,0.0004081735,-0.0105258655,0.05191531,0.4633453,-1.3480024,1.8620046,-2.0838625,-1.5702161,2.4311025,-0.2296623,0.20351386,-0.25586814,0.062092707,0.0040743044,-0.28146523,-0.3256114,0.15322891,-9.289502,0.9164598,47.672558,-1.3830492,-2.3006964,-3.4396062,-0.21458252,0.035515763,-0.1692679,28.4375,29.75,28.875,32.5625,35.0625,36.0
0.3580525,0.14928886,0.31609622,-0.12894605,-0.016906274,0.05376803,-0.16481557,-0.41873422,-0.3593828,0.060069438,3.0803301,-0.61348397,-0.000132565,-0.16411881,0.053977903,-0.0022586857,0.0007899176,-0.011287672,0.043059073,0.46291313,-1.3476064,1.8614649,-2.0837185,-1.5702161,2.4305778,-0.23022121,0.20505437,-0.25786778,0.063401505,0.004062889,-0.2731672,-0.30645782,0.1340753,-9.251195,0.9365982,47.691364,-1.4659593,-2.3718007,-3.3906467,-0.24851608,0.014089674,-0.23150286,28.4375,29.75,28.875,32.5625,35.0625,36.0
0.36005247,-0.45590597,-0.14881955,-0.35874027,-0.015915444,0.0459568,-0.16055095,-0.41907552,-0.3592606,0.060060874,3.0803838,-0.61340237,-0.00014937164,-0.16381927,0.054030187,-0.0024265186,0.0020548408,-0.014430198,0.036966525,0.462445,-1.3471861,1.8609499,-2.0836093,-1.5702523,2.4300523,-0.23002999,0.20672412,-0.26059112,0.06782002,0.004325123,-0.26688287,-0.24899697,0.15322891,-9.3661175,0.95226496,47.68062,-1.3437809,-2.4174132,-3.264821,-0.3085842,0.0141879525,-0.3504898,28.4375,29.75,28.875,32.5625,35.0625,36.0
0.3620518,-0.2677876,-0.05598562,-0.47891045,-0.02990352,0.045528654,-0.1615772,-0.41941595,-0.35913765,0.060048245,3.0803926,-0.61340487,-6.730121e-05,-0.1666639,0.054560345,-0.0008838195,6.018122e-06,-0.010095512,0.033202834,0.46194008,-1.3467548,1.860423,-2.0834668,-1.570228,2.429548,-0.23302129,0.20630577,-0.26328006,0.06614289,0.0041974853,-0.26610985,-0.24899697,0.17238252,-9.346964,0.9030289,47.65464,-1.320183,-2.313459,-3.2850866,-0.3414449,0.012713802,-0.42995733,28.4375,29.75,28.875,32.5625,35.0625,36.0
0.36405182,-0.1792588,-0.69388795,-0.57134795,-0.033920567,0.048380177,-0.15999204,-0.4197167,-0.35902026,0.06001756,3.0805144,-0.6131931,3.0492785e-05,-0.16749209,0.055698827,-0.0017645153,0.0007178281,-0.010492525,0.041945975,0.46150744,-1.3463225,1.8599328,-2.0833113,-1.5702523,2.4289682,-0.23514798,0.20773795,-0.26283273,0.064938925,0.0037092995,-0.27697963,-0.1340753,0.34476507,-9.423578,0.96569055,47.683304,-1.2795677,-2.2397366,-3.388218,-0.33346933,0.021616053,-0.33041418,28.4375,29.75,28.875,32.5625,35.0625,36.0
0.3660518,-0.16358887,-0.7473948,-0.5317354,-0.056143302,0.06012163,-0.17132807,-0.42006347,-0.35891142,0.06003077,3.0805085,-0.6130328,4.958119e-05,-0.16922684,0.05681303,-0.0012291069,7.39366e-05,-0.008647273,0.053578924,0.46101433,-1.3459274,1.8593935,-2.0831802,-1.5702161,2.428376,-0.2381047,0.20751213,-0.26364657,0.06406082,0.0034656595,-0.2915689,-0.21068975,0.3256114,-9.404425,0.90750587,47.679718,-1.2074881,-2.3474402,-3.3943558,-0.36696017,0.038119458,-0.20291196,28.4375,29.75,28.875,32.5625,35.0625,36.0
0.36805186,-0.75595003,-1.0977708,-0.46060023,-0.06674747,0.065334134,-0.16136591,-0.4203917,-0.35881487,0.06001669,3.0805366,-0.6128646,0.00013129914,-0.1693687,0.057332467,-0.0024343461,0.00074639975,-0.00947145,0.055122785,0.46055812,-1.345483,1.8588561,-2.083049,-1.5701808,2.4278114,-0.2387465,0.2092547,-0.26276013,0.062483475,0.0032138203,-0.29375458,-0.38307226,0.24899697,-9.5385,0.95897776,47.734352,-1.1349647,-2.2769458,-3.59451,-0.36574408,0.04056205,-0.11451599,28.4375,29.75,28.875,32.5625,35.0625,36.0
0.37005198,-0.8061265,-0.64750814,-0.3801289,-0.07024408,0.07583498,-0.1611694,-0.42077044,-0.35869756,0.060044307,3.0805473,-0.61270005,6.0132093e-05,-0.1714374,0.0566486,-0.0013077493,-0.001971978,-0.0052546496,0.045638077,0.46005398,-1.3450752,1.8582686,-2.082918,-1.5701922,2.4272034,-0.23944713,0.20956866,-0.26509812,0.0595137,0.0037714883,-0.28497022,-0.4213795,0.15322891,-9.500193,0.94331104,47.711063,-1.1217413,-2.2191777,-3.5789557,-0.35484225,0.032084674,-0.17773142,28.4375,29.75,28.875,32.5625,35.0625,36.0
0.37205207,-0.8470327,-0.14319669,-0.32579497,-0.06406885,0.08616169,-0.16602558,-0.42107797,-0.3585788,0.060013365,3.0805733,-0.6126927,0.00017201244,-0.17363949,0.056224708,-0.0007099096,-0.0048404974,-0.0015209933,0.03213196,0.45958573,-1.3446554,1.8578018,-2.0827997,-1.5701684,2.4267275,-0.24091524,0.21050039,-0.26679397,0.055657543,0.0046472535,-0.27293286,-0.45968673,0.17238252,-9.461885,0.90750587,47.719128,-1.1426163,-2.1913838,-3.5136814,-0.3171619,0.013581295,-0.32346386,28.4375,29.75,28.875,32.5625,35.0625,36.0
0.3740521,-1.0271827,-0.24465802,-0.37670997,-0.03869341,0.084743604,-0.16508178,-0.42141467,-0.35845575,0.05997401,3.080617,-0.61260974,0.00026160458,-0.17528956,0.05705581,-0.002505519,-0.004169537,-0.0036429155,0.022967016,0.45909297,-1.344186,1.8572987,-2.0827043,-1.5701555,2.4261777,-0.24366151,0.21561235,-0.2688369,0.054789107,0.0049612806,-0.26651356,-0.4405331,0.21068975,-9.442732,0.9410752,47.664497,-1.1433501,-2.3721046,-3.528026,-0.31577194,0.029876929,-0.4639433,28.4375,29.75,28.875,32.5625,35.0625,36.0
0.37605217,-0.9788906,0.3053285,-0.6244007,-0.02265504,0.07890981,-0.17554347,-0.42180485,-0.35835466,0.05999844,3.0805953,-0.6124478,0.00015563914,-0.17766507,0.055988688,-0.001566731,-0.007390226,0.0018291259,0.029365653,0.4586008,-1.343754,1.8566998,-2.0826228,-1.5701555,2.4255874,-0.2439068,0.21646506,-0.27093503,0.04970743,0.0054345448,-0.27315685,-0.36391866,0.17238252,-9.442732,0.85826975,47.691364,-1.0900388,-2.234612,-3.5071888,-0.27834612,-0.0064810696,-0.46385345,28.4375,29.75,28.875,32.5625,35.0625,36.0
0.37805215,-1.1419148,0.27808404,-0.565161,-0.014929511,0.07523649,-0.17111477,-0.42217,-0.358243,0.060007453,3.0805817,-0.6123761,0.00016354873,-0.17893447,0.054326434,-0.00038875043,-0.009257288,0.0061638528,0.048548676,0.45809773,-1.3433224,1.8561248,-2.0824916,-1.5701317,2.4250414,-0.24181849,0.21707721,-0.273904,0.047372382,0.005192061,-0.29025033,-0.4405331,0.11492168,-9.500193,0.9298854,47.683304,-1.2825141,-2.4249961,-3.559319,-0.2261003,-0.0069726957,-0.31932348,28.4375,29.75,28.875,32.5625,35.0625,36.0
