Tylouw/Master_Thesis_Code/training_data_v2/rect_rod_t0.2/sample_29_session_1.csv
timestamp[s],tcp_force_x[N],tcp_force_y[N],tcp_force_z[N],tcp_force_rx[Nm?],tcp_force_ry[Nm?],tcp_force_rz[Nm?],tcp_pose_x[m],tcp_pose_y[m],tcp_pose_z[m],tcp_pose_rx[rot_vec_x],tcp_pose_ry[rot_vec_y],tcp_pose_rz[rot_vec_z],tcp_velo_x[m/s],tcp_velo_y[m/s],tcp_velo_z[m/s],tcp_velo_rx[rot_vec_x/s],tcp_velo_ry[rot_vec_y/s],tcp_velo_rz[rot_vec_z/s],q1[rad],q2[rad],q3[rad],q4[rad],q5[rad],q6[rad],qd1[rad/s],qd2[rad/s],qd3[rad/s],qd4[rad/s],qd5[rad/s],qd6[rad/s],tool_acc_x,tool_acc_y,tool_acc_z,current_of_whole_robot[A],voltage_of_whole_robot[V],current_J1[A],current_J2[A],current_J3[A],current_J4[A],current_J5[A],current_J6[A],temp_J1[C],temp_J2[C],temp_J3[C],temp_J4[C],temp_J5[C],temp_J6[C]
1.1540014e-06,-0.2857886,-0.18092409,0.8824817,0.0013649552,-0.006791352,-0.004358768,-0.3893456,-0.3687338,0.060023848,-3.0787175,0.6249306,0.0002474424,0.0011628162,0.00061651965,-0.0010315018,0.0011120031,-0.002334473,3.3700697e-05,0.50505686,-1.3816439,1.9041637,-2.0919034,-1.5708655,2.4800491,-5.0400966e-05,-8.5570915e-05,0.0023836645,0.0002823607,0.00016224413,-8.5350664e-05,0.15322891,0.095768064,-8.734048,0.7642693,47.67614,-0.21817179,-3.0618896,-2.2504578,-0.1989504,0.19756973,0.004569514,28.5,29.8125,28.875,32.625,35.0625,36.0
0.002054179,-0.08095787,-0.17490062,1.1505747,-0.0032825873,0.0030984934,-0.0026294475,-0.38933444,-0.3687276,0.06001553,-3.0787191,0.6248928,0.00023679144,-0.00021955305,-0.00015104233,-0.0013622427,-0.0020388996,0.0033393265,4.0291037e-05,0.50505686,-1.3816559,1.9042004,-2.0919192,-1.5708655,2.4800253,-4.9477352e-05,-1.148043e-06,0.0051565943,-0.009064994,0.00015866886,-9.114241e-05,0.17238252,0.1340753,-8.695741,0.68146914,47.666286,-0.17648569,-3.0187435,-2.377318,-0.13608587,0.18799463,-0.0120245945,28.5,29.8125,28.875,32.625,35.0625,36.0
0.004054073,-0.6397894,-0.28178418,1.3161716,-0.00265603,-0.009059647,0.0052171303,-0.3893433,-0.36871827,0.06001489,-3.0787113,0.62492955,0.00023577263,-0.00044240817,-0.0002755641,-0.0029584651,-0.0011340899,0.0017016804,4.0991934e-05,0.5050329,-1.3816546,1.9042004,-2.0919197,-1.5708655,2.4800253,-4.858708e-05,0.0036111125,0.0048456006,-0.010495269,0.00015524756,-9.009422e-05,0.05746084,0.095768064,-8.6574335,0.78217715,47.684196,-0.14451545,-3.3986552,-2.7123892,-0.052284267,0.18373255,-0.006928535,28.5,29.8125,28.875,32.625,35.0625,36.0
0.006053546,0.15832968,-0.11967618,1.2288618,0.015486548,-0.0040194155,-0.0037260978,-0.3893294,-0.36872205,0.0599967,-3.0787115,0.62492967,0.00020747179,-0.00016570408,-0.0001281871,-0.0019842244,-0.0005176879,0.0006057172,5.2993768e-05,0.5050448,-1.381643,1.9042357,-2.091953,-1.5708536,2.4800372,-3.524608e-05,0.0024526222,0.003040207,-0.0062739872,0.00015197057,-8.864605e-05,-0.019153614,0.21068975,-8.523358,0.7486078,47.704796,-0.16334456,-3.3467047,-2.5984128,-0.06310649,0.18347515,0.005065594,28.5,29.8125,28.875,32.625,35.0625,36.0
0.008053631,0.25025788,0.7620522,0.66555095,0.051988717,-0.03252707,-0.0012384854,-0.38931853,-0.3687366,0.059999663,-3.0787578,0.6248816,0.00018582694,0.00036044337,0.00016559861,-0.000688145,-8.628946e-05,-0.0001519039,5.2343683e-05,0.50505686,-1.3816559,1.9042467,-2.091964,-1.5708174,2.4800134,-3.407363e-05,4.4302356e-05,0.0019435658,-0.0018972389,0.00014882899,-8.72162e-05,-0.019153614,0.17238252,-8.42759,0.73741806,47.709274,-0.18699867,-3.1556764,-2.4992232,-0.10411407,0.1817823,0.0014613697,28.5,29.8125,28.875,32.625,35.0625,36.0
0.010053972,1.1496637,1.7302796,0.5006998,0.043194152,-0.009522414,-0.016748507,-0.38933775,-0.36871415,0.05998283,-3.078695,0.624984,0.00013976697,0.00060199975,0.00030921728,-0.00024326635,0.0008606863,-0.001848506,4.421265e-05,0.5050088,-1.3816078,1.9042224,-2.0919387,-1.5708297,2.4800372,-4.819631e-05,5.9437264e-07,0.00011853639,0.0019144977,0.00014581498,-9.2875045e-05,0.038307227,0.22984336,-8.925584,0.69937176,47.63852,-0.73265135,-2.685979,-2.9337316,-0.1440931,0.16673926,-0.065851785,28.5,29.8125,28.875,32.625,35.0625,36.0
0.012054328,0.049250975,0.20165607,0.24206929,0.019801425,-0.011593251,-0.0103588365,-0.38931808,-0.3687271,0.05999039,-3.0786889,0.62492555,0.00013651821,0.0005950881,0.0009414577,-0.0009328088,0.0019587216,-0.0038231972,-0.0008530484,0.50505644,-1.3816196,1.9042109,-2.0919025,-1.5708417,2.4800491,-0.0011173639,0.0012021693,1.590317e-06,0.0030892864,0.00014292037,-0.00026466508,0.15322891,0.17238252,-9.174581,0.75084364,47.684196,-0.7660271,-2.590353,-3.0871544,-0.13833985,0.16024104,-0.10295927,28.5,29.8125,28.875,32.625,35.0625,36.0
0.014054032,-0.45877442,-0.6350523,-0.14835155,-0.026076226,0.01657906,-0.006827131,-0.38931024,-0.3687067,0.059961725,-3.0786462,0.62485814,3.4814133e-05,-0.0049568093,0.003182592,-0.0041659987,0.0042480165,-0.007994387,-0.0016124048,0.50502944,-1.3815788,1.90422,-2.0918672,-1.5708417,2.4799855,-0.010089322,0.013504736,-0.0070664044,0.0026116006,0.00014013854,-0.008472372,0.095768064,0.21068975,-9.385271,0.6926589,47.70838,-0.45331508,-3.0935159,-2.9975443,-0.10465625,0.14758629,-0.08412255,28.5,29.8125,28.875,32.625,35.0625,36.0
0.016054045,-1.0174785,-1.2711934,-0.09503699,-0.052058276,0.042448293,-0.020650687,-0.38932237,-0.36869732,0.059961423,-3.078617,0.6248313,3.0038482e-05,-0.0052023944,0.0034303067,-0.004020626,0.0043751607,-0.008219462,0.0034844615,0.50501716,-1.3815548,1.9041842,-2.091831,-1.5708655,2.4799602,-0.010734124,0.0134908585,-0.0075527276,0.003369124,0.00013746302,-0.014213923,-0.24899697,0.2681506,-9.519346,0.77545905,47.68599,-0.53791004,-3.261773,-3.0316381,-0.08293945,0.145223,-0.036556818,28.5,29.8125,28.875,32.625,35.0625,36.0
0.018053854,-1.7183045,-1.4485633,-0.3351747,-0.059843056,0.06081244,-0.030510055,-0.38932392,-0.36868393,0.059941556,-3.0785785,0.62486035,-2.9153623e-05,-0.0044066817,0.003950595,-0.0033928503,0.004801237,-0.008972476,0.006142323,0.5049932,-1.3815197,1.9041847,-2.0918171,-1.5708655,2.4799592,-0.010862121,0.011126733,-0.006734894,0.0057801185,0.00013488768,-0.017000752,-0.38307226,0.2873042,-9.5385,0.7463667,47.709274,-0.7333313,-2.916122,-3.2934127,-0.09704931,0.13958983,-0.032206994,28.5,29.8125,28.875,32.625,35.0625,36.0
0.020053862,-1.5145193,-0.55593956,-0.31496432,-0.036748085,0.078742206,-0.051708043,-0.38931307,-0.36867237,0.059926055,-3.0785735,0.6248592,-9.6021555e-05,-0.004623681,0.0042279973,-0.0034107747,0.005808363,-0.010786621,0.0070538027,0.504969,-1.3815194,1.9042195,-2.0918167,-1.5708417,2.479935,-0.011531694,0.012271194,-0.00870294,0.00867884,0.00013240699,-0.018581124,-0.4405331,0.24899697,-9.5385,0.7486078,47.709274,-0.76963097,-2.7748046,-3.4242322,-0.1258975,0.11602856,-0.030905563,28.5,29.8125,28.875,32.625,35.0625,36.0
0.022053808,-1.8702224,-0.43450004,-0.68651074,0.00027827598,0.064016506,-0.0623584,-0.3893409,-0.36866608,0.059921004,-3.078566,0.6248591,-0.00010996318,-0.0070555527,0.004198947,-0.002231479,0.0042564324,-0.007992321,0.0036619254,0.50493234,-1.381471,1.9041713,-2.0918052,-1.5708417,2.4798992,-0.013756351,0.012942145,-0.012065374,0.008174164,0.00013001595,-0.017412364,-0.45968673,0.2681506,-9.691729,0.7105615,47.65464,-0.8236401,-2.726491,-3.3741536,-0.11374834,0.10742092,-0.041959025,28.5,29.8125,28.875,32.625,35.0625,36.0
0.024053521,-1.6060426,-0.50994915,-0.6808529,0.008321681,0.064818084,-0.077906355,-0.38932815,-0.36866945,0.059881907,-3.0785475,0.62485677,-0.00026068083,-0.008355241,0.004485427,-0.0033023816,0.00476706,-0.008925933,0.0011154658,0.5049198,-1.3813977,1.9041709,-2.0917933,-1.5707935,2.4798875,-0.01545535,0.016549557,-0.013680595,0.0072470177,0.00012770989,-0.01656358,-0.6703765,0.17238252,-9.768343,0.800085,47.691364,-0.8736322,-2.7988815,-3.308813,-0.097386554,0.104989976,-0.07502596,28.5,29.8125,28.875,32.625,35.0625,36.0
0.026053542,-1.1676438,-0.3703696,-0.65324134,0.0017998016,0.07154712,-0.096099816,-0.3893619,-0.3686299,0.059886754,-3.0784874,0.6248456,-0.00022790476,-0.009576735,0.00489172,-0.0034864792,0.0049783415,-0.009287626,-0.0010726809,0.5048592,-1.3813852,1.9041342,-2.0917451,-1.5708536,2.4798276,-0.01727357,0.01837649,-0.015517159,0.007674531,0.000113841685,-0.016192634,-0.6703765,0.1340753,-9.787497,0.67475104,47.701214,-0.809155,-2.7840776,-3.3083513,-0.079140276,0.085291386,-0.08077594,28.5,29.8125,28.875,32.625,35.0625,36.0
0.028053463,-1.607128,-0.44581357,-0.61569494,-0.008614162,0.06827711,-0.10287172,-0.38934505,-0.36865076,0.05987864,-3.0785015,0.6247909,-0.00028057248,-0.009608923,0.00511393,-0.003428796,0.0053894646,-0.010016025,-0.0016947449,0.50489515,-1.381361,1.9041213,-2.0917327,-1.5708297,2.4798276,-0.017674662,0.018498624,-0.016083198,0.0089552505,0.000108181666,-0.01597154,-0.82360536,0.05746084,-9.825804,0.7732232,47.703007,-0.8390635,-2.8392806,-3.443551,-0.08964431,0.07337569,-0.103330694,28.5,29.8125,28.875,32.625,35.0625,36.0
0.030054173,-1.859225,-0.27485102,-0.4646639,-0.018067399,0.07769167,-0.120905705,-0.38938707,-0.3686339,0.059872944,-3.078458,0.6248401,-0.0003123579,-0.01028646,0.0052024834,-0.0034327284,0.005562794,-0.010237604,-0.0031650004,0.50483483,-1.3812885,1.9040378,-2.091685,-1.5708417,2.4798036,-0.0184273,0.019633453,-0.017555648,0.009570738,6.0877155e-05,-0.015253121,-0.8236054,0.019153614,-9.749189,0.79560274,47.690468,-0.8464672,-2.818992,-3.369279,-0.07041591,0.06616521,-0.10515241,28.5,29.8125,28.875,32.625,35.0625,36.0
0.032053728,-2.121408,-0.029440835,-0.4652627,-0.009677778,0.08469043,-0.13418876,-0.38941213,-0.36862642,0.05985745,-3.0784547,0.62485933,-0.00031161512,-0.011229146,0.0051214,-0.0025331222,0.005051155,-0.0092612235,-0.0044158758,0.50479877,-1.3812406,1.9040245,-2.0917203,-1.5708417,2.47978,-0.01915507,0.019534564,-0.019759232,0.010771345,3.4283956e-05,-0.014729209,-0.80445176,-0.095768064,-9.80665,0.73069996,47.67614,-0.88363016,-2.7442892,-3.402072,-0.08471599,0.051864576,-0.124539435,28.5,29.8125,28.875,32.625,35.0625,36.0
0.034053322,-1.1643507,0.54725343,-0.45617443,0.011089447,0.105913915,-0.14904529,-0.38943145,-0.36861563,0.05986095,-3.0784352,0.62487525,-0.00034089055,-0.012093626,0.0052609593,-0.002400556,0.004900985,-0.008971143,-0.0057499874,0.50476253,-1.3812162,1.9039768,-2.0916727,-1.5708417,2.479756,-0.020190697,0.02036914,-0.021084722,0.010935819,2.2318818e-05,-0.014430046,-0.6703765,-0.038307227,-9.80665,0.7709874,47.670765,-0.932107,-2.7781277,-3.359511,-0.08568868,0.04728318,-0.141578,28.5,29.8125,28.875,32.625,35.0625,36.0
0.036054257,-1.5663426,0.8023266,-0.41595128,0.025866693,0.07990753,-0.14675544,-0.38943988,-0.36862373,0.059829157,-3.0784333,0.6249135,-0.0004473572,-0.0132652605,0.0051329597,-0.0021216085,0.0044442276,-0.0081138,-0.0057417555,0.5047382,-1.3811316,1.903952,-2.0916846,-1.5707935,2.4797559,-0.021058032,0.021557126,-0.023090241,0.010782723,1.4572594e-06,-0.015304551,-0.59376204,-0.038307227,-9.730036,0.7486078,47.66987,-0.92294806,-2.8491864,-3.3453078,-0.08638055,0.04192946,-0.1652633,28.5,29.8125,28.875,32.625,35.0625,36.0
0.03805372,-1.3936715,0.5890126,-0.4849593,0.036696248,0.057199102,-0.15769117,-0.38947743,-0.36859712,0.05984302,-3.0784125,0.62492836,-0.00045038565,-0.014639776,0.0056298664,-0.0018571522,0.004073545,-0.0074493927,-0.006725842,0.50466573,-1.3811195,1.9038924,-2.0916245,-1.5708054,2.4796953,-0.023177262,0.022254916,-0.024507564,0.010741142,9.5148614e-08,-0.016438998,-0.47884035,-0.1340753,-9.595961,0.75084364,47.704796,-0.8793188,-2.7175791,-3.3301492,-0.07590936,0.027164422,-0.18112838,28.5,29.8125,28.875,32.625,35.0625,36.0
0.04005341,-1.0933374,0.117630824,-0.5680301,0.038120426,0.04228119,-0.16711463,-0.3895533,-0.36858976,0.059861045,-3.0784137,0.6249864,-0.00034004182,-0.016386662,0.006064615,-0.00128789,0.0032229403,-0.0059195133,-0.007434082,0.504605,-1.3810594,1.9037832,-2.091637,-1.5708417,2.4796708,-0.025538323,0.022701137,-0.026222963,0.010259045,6.212525e-09,-0.018090999,-0.40222588,-0.076614454,-9.615114,0.7396539,47.666286,-0.8488755,-2.6875908,-3.3288064,-0.05703359,0.020761315,-0.18980063,28.5,29.8125,28.875,32.625,35.0625,36.0
0.042054284,-0.48684928,-0.063322105,-0.45134443,0.023904258,0.04464528,-0.18096316,-0.38957414,-0.36857238,0.059854433,-3.07839,0.62498075,-0.00038269156,-0.017825251,0.006578199,-0.0007305276,0.005012263,-0.0039472096,-0.006516355,0.50455683,-1.3810229,1.903747,-2.0916007,-1.5708426,2.4796221,-0.026170537,0.02351029,-0.028612738,0.010987148,-0.0025249992,-0.019635074,-0.2873042,-0.076614454,-9.730036,0.7351769,47.66987,-0.85160816,-2.7285721,-3.3353186,-0.04412292,0.018155923,-0.16992855,28.5,29.8125,28.875,32.625,35.0625,36.0
0.04405422,-0.43484616,-0.27252284,-0.48311636,0.011907199,0.040604036,-0.18946797,-0.38960192,-0.36853233,0.05983129,-3.0782974,0.6249625,-0.00038147785,-0.01831746,0.007305313,-0.00077203714,0.0065625445,-0.0047326237,-0.007311702,0.5045087,-1.3809626,1.9037226,-2.0915759,-1.5709151,2.4795744,-0.027243659,0.024251495,-0.029828483,0.012900606,-0.003502289,-0.019910352,-0.19153613,-0.05746084,-9.730036,0.7642693,47.691364,-0.81513095,-2.7501369,-3.3073344,-0.053294085,0.021270763,-0.20794874,28.5,29.8125,28.875,32.625,35.0625,36.0
0.046054184,-0.7215486,-0.64051455,-0.5394943,0.009631947,0.026576458,-0.1883554,-0.38965583,-0.36854893,0.059860576,-3.0783648,0.6250916,-0.00035892348,-0.018808264,0.0073608975,-0.00090807606,0.0064977473,-0.0058543924,-0.0074006245,0.5044484,-1.3809379,1.9036268,-2.0915754,-1.5708545,2.4795861,-0.028166639,0.025571063,-0.031337734,0.014039683,-0.0029034088,-0.020745093,-0.17238252,0.13407528,-9.615114,0.7418897,47.67614,-0.8584276,-2.7464662,-3.2668524,-0.069385335,0.010768385,-0.21607205,28.5,29.8125,28.875,32.625,35.0625,36.0
0.04805371,0.18039195,-0.4365789,-0.37988666,-0.010169154,0.039004106,-0.19691639,-0.3896909,-0.3685309,0.059847724,-3.0783052,0.6250983,-0.0004068817,-0.01875586,0.007989968,-0.0014977097,0.00712325,-0.00814797,-0.007077749,0.50440013,-1.3808538,1.9035429,-2.0915153,-1.5708784,2.4795496,-0.029525304,0.026487758,-0.03141313,0.015505628,-0.0023417922,-0.022427544,-0.11492168,0.21068975,-9.634268,0.8023209,47.65643,-0.8634995,-2.733461,-3.3796144,-0.07182822,0.011028873,-0.23941699,28.5,29.8125,28.875,32.625,35.0625,36.0
0.050053507,0.27132335,-0.653995,-0.50233066,-0.008811187,0.029668603,-0.17621638,-0.38971785,-0.36849397,0.059829637,-3.078242,0.62512326,-0.00045525466,-0.020232564,0.008505108,-0.0011567377,0.0065718484,-0.007935968,-0.0077670594,0.50432736,-1.3808053,1.9035186,-2.091479,-1.5709018,2.4795005,-0.03200445,0.027339544,-0.033336937,0.016123155,-0.0019673498,-0.024217144,0.0,0.17238252,-9.576807,0.7642693,47.688675,-0.7954545,-2.7273016,-3.3714516,-0.088175334,-0.0038352248,-0.21790142,28.5,29.8125,28.875,32.625,35.0625,36.0
0.052053615,0.28394455,-0.2015677,-0.39420077,-0.017508412,0.015947727,-0.18242091,-0.3897666,-0.3684941,0.059857912,-3.0782871,0.6251502,-0.00042224073,-0.021676904,0.008159295,-0.00027434996,0.0050707646,-0.00624598,-0.0067434595,0.50426716,-1.3807933,1.9034346,-2.0914552,-1.5708779,2.4794514,-0.033074956,0.027752664,-0.03579854,0.015965004,-0.0014758914,-0.026311232,0.038307227,0.15322891,-9.519346,0.6769922,47.66987,-0.7741913,-2.6414747,-3.3183413,-0.08387794,-0.030765701,-0.24662769,28.5,29.8125,28.875,32.625,35.0625,36.0
0.05405354,-0.21838656,-0.87491757,-0.5104641,-0.010578295,0.0060841744,-0.16765833,-0.38981032,-0.3684672,0.059839748,-3.078273,0.62520546,-0.0005141912,-0.023143146,0.008377642,0.00019171172,0.0044555394,-0.0049900487,-0.0062373066,0.5041587,-1.3807209,1.903385,-2.0914319,-1.5708421,2.4793792,-0.034760885,0.028424809,-0.037593935,0.015692128,-0.0015517597,-0.028502228,0.038307227,0.21068975,-9.423578,0.63671005,47.691364,-0.7206607,-2.627726,-3.3832202,-0.08532393,-0.052279383,-0.22053301,28.5,29.8125,28.875,32.625,35.0625,36.0
0.056053314,-0.35679525,-1.1381607,-0.56899464,-0.0107920645,0.015406595,-0.16803223,-0.38987005,-0.36845994,0.059845924,-3.0782743,0.62526286,-0.00046116777,-0.024165878,0.009023661,-3.8739992e-05,0.005464736,-0.00453513,-0.006215336,0.5040984,-1.3806604,1.9033021,-2.0914433,-1.5708545,2.4793546,-0.036108788,0.02963197,-0.038436264,0.015419826,-0.0026577741,-0.02986939,0.019153614,0.34476504,-9.481039,0.7933669,47.689575,-0.71862394,-2.5799997,-3.343168,-0.09361002,-0.04031109,-0.24094424,28.5,29.8125,28.875,32.625,35.0625,36.0
0.05805398,-0.13982636,-0.9914103,-0.25012907,-0.01963753,0.034606732,-0.1681537,-0.38993853,-0.36843264,0.059879266,-3.0782413,0.6252747,-0.00036911096,-0.025003515,0.009471265,0.0002293227,0.007805744,-0.0026584656,-0.004685979,0.5040266,-1.3806362,1.9031814,-2.0913718,-1.5709156,2.4792945,-0.035793148,0.030213842,-0.039795488,0.015693074,-0.005616682,-0.031076739,0.0,0.40222588,-9.385271,0.71951014,47.64121,-0.7627435,-2.567175,-3.35774,-0.08104194,-0.038150877,-0.23626511,28.5,29.8125,28.875,32.625,35.0625,36.0
0.06005419,-0.6321096,-0.6526737,-0.060008623,-0.032792795,0.033503596,-0.17124821,-0.3899591,-0.36840838,0.05984769,-3.0781949,0.625225,-0.00047024566,-0.026123364,0.009457967,0.0008232697,0.00821866,-0.0010519563,-0.0039982838,0.5039668,-1.3805518,1.9031452,-2.091335,-1.570916,2.4792097,-0.036100294,0.030821308,-0.041943867,0.016030239,-0.0067615346,-0.032067824,-0.076614454,0.38307226,-9.423578,0.78217715,47.653748,-0.8929275,-2.5721588,-3.348045,-0.09920789,-0.028105449,-0.27266425,28.5,29.8125,28.875,32.625,35.0625,36.0
0.062054068,-0.4763696,-0.40261653,-0.061803676,-0.03284789,0.037880003,-0.16508801,-0.3900229,-0.3684105,0.059865057,-3.0782175,0.6251535,-0.0004284066,-0.027526202,0.00992761,0.0011066375,0.0074006445,-0.0010227527,-0.0051147,0.50391793,-1.3804795,1.9030122,-2.0912998,-1.5709275,2.4791133,-0.038631313,0.03165637,-0.04368819,0.016515356,-0.006062173,-0.033483226,-0.019153614,0.28730422,-9.32781,0.80679786,47.651955,-0.74164915,-2.5192893,-3.285197,-0.09915532,-0.037702158,-0.25518277,28.5,29.8125,28.875,32.625,35.0625,36.0
0.06405408,-0.40650028,-0.5023166,-0.20424853,-0.015765414,0.032665707,-0.17149167,-0.39007673,-0.36839026,0.05986622,-3.078217,0.62519133,-0.00041443357,-0.028660258,0.010071951,0.0015185782,0.007291234,0.00040596878,-0.00527683,0.5038339,-1.3804313,1.9029526,-2.0912998,-1.570928,2.479053,-0.03955427,0.032120813,-0.04509451,0.016154725,-0.0066604433,-0.03424224,-0.05746084,0.21068975,-9.442732,0.7597976,47.67166,-0.82054436,-2.4605827,-3.3230653,-0.118467785,-0.038841575,-0.27601498,28.5,29.8125,28.875,32.625,35.0625,36.0
0.066053756,-0.18629938,0.2124332,0.1487346,-0.019271646,0.033394,-0.18237057,-0.39013615,-0.36836293,0.059853468,-3.078172,0.62529796,-0.00048405994,-0.030153362,0.011064068,0.0016741214,0.009196654,0.0019091592,-0.0057090297,0.5037256,-1.380335,1.9028567,-2.0912516,-1.570917,2.479017,-0.041113745,0.03303778,-0.0465745,0.016329221,-0.009060286,-0.035363514,-0.15322891,0.24899697,-9.385271,0.82694155,47.674347,-0.7343029,-2.435391,-3.3276553,-0.114460275,-0.029339816,-0.2786292,28.5,29.8125,28.875,32.625,35.0625,36.0
0.06805355,-0.1435826,0.39451167,0.22285153,-0.013387981,0.04863287,-0.17618984,-0.3902331,-0.3683622,0.05990157,-3.0782347,0.62529045,-0.00034379686,-0.031240888,0.011201425,0.0017238553,0.010626401,0.003338902,-0.005138684,0.5036416,-1.3802984,1.9027013,-2.0912397,-1.5709294,2.4789205,-0.041138522,0.03456075,-0.048440214,0.016115585,-0.011003838,-0.03595478,-0.30645782,0.21068975,-9.346964,0.7553206,47.683304,-0.7851324,-2.4292185,-3.3259916,-0.110441476,0.02906945,-0.3034228,28.5,29.8125,28.875,32.625,35.0625,36.0
0.07005358,-0.50954956,0.2786811,0.2642204,0.0026049449,0.055848993,-0.17926735,-0.39030066,-0.36834154,0.05991839,-3.0781908,0.62531835,-0.00026776706,-0.032322798,0.011573572,0.0017025154,0.01025015,0.002846663,-0.005136011,0.5035813,-1.3802378,1.9025806,-2.091192,-1.5709895,2.4788833,-0.043120354,0.03581703,-0.05000358,0.016666772,-0.01043949,-0.037939746,-0.2873042,0.21068975,-9.289502,0.7620334,47.660015,-0.7622038,-2.5105798,-3.3244855,-0.11568623,0.019697718,-0.29594868,28.5,29.8125,28.875,32.625,35.0625,36.0
0.07205331,-0.760664,-0.065839835,0.110137306,0.01336313,0.061772525,-0.16531953,-0.39033163,-0.3683223,0.059895944,-3.0781717,0.6253141,-0.0003930893,-0.03294107,0.011285528,0.0020524869,0.009121216,0.0024387075,-0.00407235,0.5034971,-1.3801535,1.902521,-2.0911434,-1.5709528,2.4787989,-0.043944348,0.036506105,-0.051833645,0.017616095,-0.0092596095,-0.039828267,-0.24899697,0.13407528,-9.308657,0.80679786,47.668976,-0.8511933,-2.4207222,-3.275242,-0.11846775,0.017042428,-0.318796,28.5,29.8125,28.875,32.625,35.0625,36.0
0.07405407,-1.303202,-0.23282893,0.069934234,0.015049386,0.04356757,-0.15519112,-0.3904137,-0.36828864,0.059900742,-3.078139,0.6253263,-0.00030368764,-0.032931585,0.011158932,0.0019823678,0.008098287,0.0012119375,-0.0038047913,0.5034011,-1.3800813,1.9024247,-2.0911434,-1.5710124,2.4787147,-0.04464329,0.036844466,-0.052216507,0.0182327,-0.0077709123,-0.04079782,-0.34476504,0.076614454,-9.346964,0.67475104,47.703903,-0.86406267,-2.4075418,-3.281404,-0.11454934,-0.017236479,-0.313995,28.5,29.8125,28.875,32.625,35.0625,36.0
0.076053865,-0.6873832,0.33597624,0.105183624,-0.00029914407,0.051587343,-0.1638329,-0.39046863,-0.36825478,0.059884813,-3.0781012,0.62535673,-0.00036269682,-0.033864573,0.011139789,0.0014276045,0.0077556,-0.00086761016,-0.0051486352,0.5032926,-1.3799963,1.9023522,-2.0911071,-1.5710119,2.47863,-0.046285596,0.03979905,-0.054725114,0.01943745,-0.0064728423,-0.041097194,-0.38307226,0.038307227,-9.308657,0.82694155,47.694946,-0.86896986,-2.4361544,-3.280098,-0.1599442,-0.051617913,-0.35022327,28.5,29.8125,28.875,32.625,35.0625,36.0
0.07805349,-0.63368326,-0.14261392,0.099905655,0.014149978,0.04631356,-0.16814062,-0.39055985,-0.36825943,0.059921533,-3.0781448,0.6253842,-0.00030342507,-0.035658628,0.011787763,0.0018408771,0.007819207,1.0311645e-05,-0.0038547658,0.503208,-1.3799237,1.902172,-2.0910594,-1.571,2.478557,-0.048736196,0.040870592,-0.057052575,0.019955546,-0.0069556283,-0.044840038,-0.4213795,0.019153614,-9.32781,0.800085,47.691364,-0.6755836,-2.466403,-3.1617584,-0.15692279,-0.06205986,-0.33227456,28.5,29.8125,28.875,32.625,35.0625,36.0
0.080053374,-0.4032413,0.24845257,0.00011898296,0.014641085,0.059932154,-0.16585821,-0.39062166,-0.3682397,0.05993206,-3.0781384,0.6253612,-0.00029366845,-0.034378555,0.012072969,0.0004384667,0.010296567,-0.0020416146,-0.00011723707,0.5031249,-1.3798633,1.9020656,-2.0910113,-1.5710124,2.4784606,-0.047282524,0.042044677,-0.05525727,0.019980796,-0.008134246,-0.04712209,-0.3256114,-0.038307227,-9.404425,0.7642693,47.668976,-0.8547084,-2.4157972,-3.3500953,-0.17329776,-0.06902582,-0.32893246,28.5,29.8125,28.875,32.625,35.0625,36.0
0.082053676,-1.1702206,-0.23431326,-0.06759759,0.02915571,0.05368874,-0.15328659,-0.3906645,-0.36824328,0.059904367,-3.078145,0.6252638,-0.00037610836,-0.03607856,0.012581773,0.00063298625,0.010418807,-0.0015244157,0.0021294462,0.5030761,-1.3797306,1.9019688,-2.090999,-1.5709885,2.4783502,-0.049489103,0.043619435,-0.057668716,0.020424083,-0.008500029,-0.051573046,-0.4213795,-0.038307227,-9.270349,0.74413085,47.678825,-0.858284,-2.4939933,-3.3411863,-0.17441341,-0.04734084,-0.29156718,28.5,29.8125,28.875,32.625,35.0625,36.0
0.08405379,-1.5224005,-0.15725112,-0.04241597,0.03623257,0.056134198,-0.1450622,-0.39073566,-0.36820054,0.059922084,-3.0781128,0.6252393,-0.00032697024,-0.03810328,0.012504673,0.0015239654,0.010544192,-0.00019478644,0.0006763069,0.50296795,-1.379694,1.9018716,-2.0909383,-1.5710367,2.478231,-0.050765544,0.04542024,-0.062194176,0.022043662,-0.009257466,-0.051392857,-0.4213795,-0.076614454,-9.346964,0.7553206,47.68599,-0.7799586,-2.4337134,-3.1660817,-0.18780273,-0.046281263,-0.2872015,28.5,29.8125,28.875,32.625,35.0625,36.0
0.08605373,-1.0745524,0.39020863,-0.1439685,0.028522832,0.06713453,-0.16119139,-0.39080954,-0.3681712,0.059900843,-3.0780802,0.62529033,-0.00042453173,-0.039019216,0.014397241,0.0010573677,0.012579252,-0.0012246339,-0.00014809376,0.50283515,-1.3795617,1.9017524,-2.0908902,-1.5710133,2.4781342,-0.053988107,0.04591977,-0.061998367,0.023235392,-0.01054648,-0.053787887,-0.38307226,0.038307227,-9.32781,0.779936,47.698532,-0.7519834,-2.5339186,-3.1766765,-0.1966494,-0.028592823,-0.2966852,28.5,29.8125,28.875,32.625,35.0625,36.0
0.088054195,-0.9290322,0.20089024,-0.067703515,0.022044947,0.07580375,-0.1665488,-0.3908935,-0.36813417,0.059903625,-3.0780265,0.62523663,-0.00036636784,-0.038656186,0.014215168,0.00040469287,0.01439424,-0.0014418192,0.005953801,0.50273985,-1.3794653,1.9016212,-2.0908425,-1.5710858,2.4780123,-0.05240634,0.047308557,-0.062110975,0.023022873,-0.01203723,-0.058304463,-0.49799395,0.095768064,-9.3661175,0.7978386,47.71286,-0.7777592,-2.4563031,-3.390337,-0.24151403,-0.027368896,-0.2545926,28.5,29.8125,28.875,32.625,35.0625,36.0
0.090053946,-1.0380505,0.11979756,-0.022184175,-0.00093798904,0.07562822,-0.16966942,-0.39098042,-0.3681082,0.05991926,-3.0780358,0.6252758,-0.00036439704,-0.04020275,0.014118797,0.00088970637,0.014114587,0.00038048843,0.008352603,0.5026078,-1.3793925,1.9014887,-2.0907948,-1.5710739,2.4779036,-0.053272072,0.048487652,-0.06449331,0.022494717,-0.012678836,-0.0615666,-0.45968673,0.076614454,-9.346964,0.7463667,47.683304,-0.91416395,-2.5209842,-3.2638621,-0.2123057,-0.00755786,-0.21969068,28.5,29.8125,28.875,32.625,35.0625,36.0
0.09205414,-1.2767498,-0.40805474,-0.08244909,-0.00047901622,0.06986967,-0.15609555,-0.39105585,-0.3680819,0.05991633,-3.077985,0.62526417,-0.00034483636,-0.04121159,0.014577232,0.0010596813,0.014152685,-0.00016783891,0.00934478,0.50252336,-1.3792841,1.9013561,-2.0907462,-1.571122,2.4778185,-0.05511393,0.049464967,-0.06635235,0.023869283,-0.012452845,-0.06440005,-0.51714754,0.13407528,-9.32781,0.75755644,47.67614,-0.8829008,-2.4883904,-3.2710614,-0.24827658,-0.021401862,-0.18418708,28.5,29.8125,28.875,32.625,35.0625,36.0
0.094054006,-0.78624284,-0.26980823,-0.081724755,-0.012809243,0.071265586,-0.17164768,-0.39113665,-0.36804932,0.059913147,-3.0779536,0.6251211,-0.00036960025,-0.04117397,0.014746554,0.0005844871,0.014359941,-0.0023894298,0.010598332,0.50241536,-1.3791636,1.9012016,-2.0906618,-1.5711573,2.4776254,-0.055905655,0.050763126,-0.06716422,0.025422068,-0.011568254,-0.06644625,-0.40222588,0.17238252,-9.346964,0.7777002,47.7245,-0.8547255,-2.461557,-3.3882751,-0.25577086,-0.025712047,-0.15256253,28.5,29.8125,28.875,32.625,35.0625,36.0
0.09605395,-0.55863285,-0.18201204,0.08803617,-0.019891411,0.06161839,-0.17109989,-0.39122885,-0.36802635,0.05992451,-3.077981,0.62510604,-0.0003549824,-0.041368876,0.014872456,-0.00069468253,0.015583823,-0.004842869,0.01217803,0.5022835,-1.3790785,1.9010695,-2.0906374,-1.5711454,2.4774806,-0.056354046,0.054042827,-0.06826629,0.025982054,-0.011461961,-0.06847393,-0.32561144,0.13407528,-9.423578,0.82022345,47.709274,-0.9012117,-2.5992846,-3.3008308,-0.27755842,-0.03800121,-0.119307674,28.5,29.8125,28.875,32.625,35.0625,36.0
0.09805386,-0.91183114,-0.5228277,-0.10781031,-0.013651714,0.048373662,-0.16812891,-0.39128792,-0.36797857,0.059876032,-3.077888,0.6250866,-0.00047217772,-0.043132845,0.015135169,0.0011398877,0.014636892,-0.00054385164,0.012591324,0.50216335,-1.378923,1.9009851,-2.0905902,-1.5711697,2.4773602,-0.057643414,0.052025642,-0.06993958,0.025449261,-0.012716912,-0.070172004,-0.34476504,0.19153613,-9.385271,0.7105615,47.675243,-0.9351081,-2.4186368,-3.348229,-0.2751185,-0.024896104,-0.08108236,28.5,29.8125,28.875,32.625,35.0625,36.0
0.10005393,-0.43083987,-0.076562256,-0.053194147,-0.017644277,0.050356224,-0.16491413,-0.39141828,-0.36796486,0.0599307,-3.0779524,0.62511885,-0.0003433318,-0.043785013,0.015371065,0.0007547359,0.015474577,-0.0009542546,0.011718583,0.50201946,-1.3788623,1.9007806,-2.090554,-1.5711702,2.4772284,-0.05829714,0.053751767,-0.071169235,0.025715884,-0.013249198,-0.069952466,-0.19153613,0.24899697,-9.423578,0.8314132,47.65464,-0.96546006,-2.4447098,-3.295711,-0.29425344,-0.011962792,-0.06549444,28.5,29.8125,28.875,32.625,35.0625,36.0
0.10205382,-0.28618202,-0.27977592,-0.10985027,-0.016524525,0.049571157,-0.16411369,-0.39150625,-0.3679333,0.059920184,-3.0779195,0.62507313,-0.0003630687,-0.044591106,0.015521045,0.0006545116,0.015936015,-0.001283036,0.010029995,0.5018994,-1.3787295,1.9006366,-2.0905063,-1.571194,2.4770842,-0.05912995,0.055303298,-0.07295166,0.026455123,-0.013500636,-0.06909478,-0.1340753,0.30645782,-9.3661175,0.7620334,47.65912,-0.98147905,-2.463448,-3.3593364,-0.33183026,0.008358207,-0.07371228,28.5,29.8125,28.875,32.625,35.0625,36.0
0.10405355,-0.41124132,-0.45790115,-0.27124065,-0.024289945,0.030189278,-0.16672513,-0.391588,-0.36788735,0.05991192,-3.0778413,0.62498146,-0.00036323615,-0.045284968,0.015540475,-0.00026143255,0.016305136,-0.0026568281,0.008457128,0.5017913,-1.3786085,1.900493,-2.0904224,-1.5712665,2.476929,-0.06000298,0.05828024,-0.07435199,0.026253233,-0.0131716225,-0.06839381,-0.076614454,0.2681506,-9.251195,0.7553206,47.69763,-0.9752048,-2.6571732,-3.2616568,-0.31435227,0.0053043673,-0.057010382,28.5,29.8125,28.875,32.625,35.0625,36.0
0.10605386,-0.5188125,-0.59555644,-0.44405204,-0.024819538,0.007152166,-0.16479668,-0.3916668,-0.3678668,0.059904017,-3.077831,0.62495977,-0.0003919857,-0.046475485,0.015286196,0.0012818006,0.014229258,0.0004674547,0.006644159,0.5016833,-1.3784889,1.9003614,-2.090387,-1.571266,2.4768088,-0.06086088,0.056485064,-0.075583294,0.025540164,-0.012860291,-0.06743888,0.0,0.24899697,-9.423578,0.8247004,47.660015,-1.0156684,-2.488464,-3.334,-0.3309511,-0.008544514,-0.08698417,28.5,29.8125,28.875,32.625,35.0625,36.0
0.10805333,0.77495843,-0.9747051,-0.45095313,-0.021092223,0.019790476,-0.16315594,-0.39176133,-0.36784318,0.059908986,-3.0778139,0.6249572,-0.00039576262,-0.04760842,0.015173502,0.0011305109,0.013489199,0.00076352,0.0045198877,0.5015632,-1.3783681,1.9001936,-2.090327,-1.571278,2.4766893,-0.06202082,0.058248065,-0.07714851,0.024723364,-0.012359902,-0.06647455,0.038307227,0.15322891,-9.481039,0.784413,47.695843,-1.0309815,-2.4381485,-3.3956203,-0.3263371,0.0021688996,-0.07239581,28.5,29.8125,28.875,32.625,35.0625,36.0
0.110054,0.5110152,-0.6385196,-0.26469004,-0.030229656,0.0028883761,-0.1631949,-0.39186278,-0.3678002,0.05990843,-3.0777862,0.6248752,-0.00039036424,-0.048109107,0.015724955,0.00020067334,0.0148257725,-0.00070483255,0.0019080727,0.501419,-1.3782473,1.9000381,-2.090267,-1.5713137,2.4764977,-0.063106984,0.060582746,-0.07787633,0.025045088,-0.012828231,-0.06494688,0.15322891,0.24899697,-9.500193,0.8090337,47.63315,-1.0612073,-2.5252743,-3.3542857,-0.30792236,0.0047182455,-0.106569946,28.5,29.8125,28.875,32.625,35.0625,36.0
0.11205374,0.37108544,-0.88390464,-0.41595837,-0.016511725,-0.0007043658,-0.15689483,-0.39199355,-0.3677938,0.059927203,-3.077802,0.6249944,-0.00031882196,-0.05060099,0.014824028,0.002033814,0.012359009,0.002276358,-0.0007665341,0.5012869,-1.3781029,1.8998216,-2.090255,-1.5713137,2.476438,-0.06433348,0.061419155,-0.08320264,0.025731746,-0.012103578,-0.06349899,0.0,0.24899697,-9.385271,0.76874626,47.65912,-1.0502476,-2.4734545,-3.212215,-0.33636403,0.0053948937,-0.12005571,28.5,29.8125,28.875,32.625,35.0625,36.0
0.11405413,0.13704546,-0.38566798,-0.47174415,-0.0071340646,0.0017023698,-0.1586258,-0.39204332,-0.36773625,0.059899803,-3.0777166,0.6249211,-0.00041341636,-0.050780308,0.0158804,0.0010888594,0.013100534,0.0005286685,-0.0042458116,0.5011665,-1.3780063,1.8997506,-2.090171,-1.57135,2.4762828,-0.06638333,0.062338278,-0.08212012,0.025615646,-0.011918292,-0.06206897,-0.019153614,0.2681506,-9.385271,0.74413085,47.660015,-1.0206131,-2.4470232,-3.3241205,-0.33668,-0.0025475658,-0.16392627,28.5,29.8125,28.875,32.625,35.0625,36.0
0.116054125,0.18342501,-0.2873147,-0.5473361,-0.0009042351,0.02156335,-0.16160579,-0.3921649,-0.36771956,0.05990684,-3.0777395,0.62498295,-0.00040916863,-0.052026443,0.015265328,0.0013766029,0.012222016,0.0012788305,-0.005064952,0.5010106,-1.3778617,1.899558,-2.0901477,-1.5713257,2.4761627,-0.066735655,0.06425957,-0.08504186,0.025534667,-0.011513596,-0.061601922,0.019153614,0.2681506,-9.500193,0.80456203,47.63404,-1.0395775,-2.4681945,-3.3783884,-0.3380006,-0.013044874,-0.18130408,28.5,29.8125,28.875,32.625,35.0625,36.0
0.11805354,0.46667162,0.4652869,-0.19723009,-0.023620406,0.047371548,-0.17841643,-0.3922666,-0.36768222,0.059920985,-3.077687,0.6249728,-0.00036415982,-0.053665064,0.014705806,0.0021868933,0.010547975,0.0027233562,-0.0064706793,0.5008906,-1.3777531,1.8993782,-2.0900638,-1.5713853,2.4760432,-0.06777429,0.06544866,-0.0882983,0.025523467,-0.010747015,-0.061235007,-0.095768064,0.24899697,-9.519346,0.7642693,47.679718,-1.1101792,-2.581056,-3.1147776,-0.34613013,-0.019530192,-0.22573215,28.5,29.8125,28.875,32.625,35.0625,36.0
0.12005329,-0.6892336,-0.4193196,-0.5509671,-0.011712964,0.045215715,-0.16832119,-0.3923676,-0.36764446,0.059910774,-3.0776348,0.6249206,-0.0003335193,-0.05313461,0.015290298,0.0015074962,0.011721948,0.0013540403,-0.004791788,0.5007709,-1.3776089,1.8992223,-2.090027,-1.5714453,2.4758978,-0.068018004,0.06563532,-0.087056376,0.025854701,-0.011119533,-0.063156985,-0.21068975,0.2681506,-9.442732,0.87617236,47.661808,-1.1682365,-2.474529,-3.3517222,-0.3327514,-0.018664647,-0.23009285,28.5,29.8125,28.875,32.625,35.0625,36.0
0.122054085,-1.0791444,-0.5066473,-0.5330348,-0.023744207,0.054731574,-0.16581252,-0.3924761,-0.36762017,0.059892513,-3.0776026,0.62497294,-0.00043171647,-0.054297682,0.01515079,0.0016559454,0.011142415,0.0014660849,-0.0057257414,0.5006147,-1.3774161,1.8990191,-2.0899556,-1.5714215,2.4757783,-0.06911812,0.06726753,-0.08942124,0.026208967,-0.010673951,-0.06332241,-0.2681506,0.24899697,-9.5385,0.79560274,47.647476,-1.1759446,-2.4170167,-3.3209882,-0.3379256,-0.030304499,-0.25355124,28.5,29.8125,28.875,32.625,35.0625,36.0
0.12405403,-0.47221616,-0.67669374,-0.5648752,-0.032152466,0.07810286,-0.16712895,-0.3925725,-0.36758447,0.0598876,-3.07754,0.6249403,-0.00044276658,-0.054636225,0.014990257,0.00093183125,0.011856298,0.00044344293,-0.0065639177,0.5004951,-1.377271,1.8988394,-2.0898716,-1.5714692,2.4756465,-0.06905926,0.069709696,-0.090691246,0.026273523,-0.010814856,-0.06242363,-0.21068975,0.28730422,-9.710882,0.8314132,47.66987,-1.25692,-2.6470935,-3.2460978,-0.3311754,-0.035934173,-0.29274288,28.5,29.8125,28.875,32.625,35.0625,36.0
0.12605369,-1.1073495,-0.74425083,-0.49952593,-0.029761504,0.06734159,-0.16674186,-0.3926742,-0.36756223,0.059910752,-3.0775318,0.62492007,-0.00037776137,-0.056763947,0.016189855,0.002220597,0.011147511,0.0031824852,-0.00953367,0.5003861,-1.3771757,1.8986601,-2.0898116,-1.5715054,2.475526,-0.07259322,0.068303205,-0.09194167,0.026185852,-0.011509642,-0.06298611,-0.3256114,0.30645782,-9.691729,0.7396539,47.652847,-1.1450405,-2.3610964,-3.2729669,-0.3481324,-0.0385485,-0.33252758,28.5,29.8125,28.875,32.625,35.0625,36.0
0.12805404,-1.0730101,-0.14840525,-0.5070908,-0.03249631,0.07047359,-0.16837116,-0.39277098,-0.36754844,0.059919603,-3.077577,0.62492657,-0.00041203853,-0.056549836,0.014730081,0.0017745217,0.01016187,0.0028232606,-0.005394664,0.5002431,-1.3770667,1.8985027,-2.0897763,-1.5714568,2.4753814,-0.07056394,0.070463546,-0.09327134,0.025193715,-0.010479309,-0.06509756,-0.38307226,0.19153613,-9.576807,0.80679786,47.684196,-1.3250941,-2.4904828,-3.307015,-0.3262141,-0.055500958,-0.33368516,28.5,29.8125,28.875,32.625,35.0625,36.0
0.13005373,-1.1107554,-0.36331716,-0.6737674,-0.014999331,0.071225025,-0.16719203,-0.39290392,-0.3675054,0.059900817,-3.077528,0.6249953,-0.00041811971,-0.057460155,0.015364511,0.0016172222,0.010214073,0.0030708732,-0.010156566,0.50006294,-1.3768742,1.898312,-2.089753,-1.5714811,2.4752505,-0.07234447,0.07111031,-0.09357074,0.02465361,-0.0106448345,-0.062115267,-0.45968673,0.21068975,-9.557653,0.83365434,47.67614,-1.3200141,-2.4612136,-3.4233625,-0.32733595,-0.043436334,-0.4075719,28.5,29.8125,28.875,32.625,35.0625,36.0
0.13205384,-0.89044595,-0.10925956,-0.46509397,-0.012018855,0.0739406,-0.16385162,-0.39303055,-0.36747524,0.059907548,-3.0775087,0.62502974,-0.00035389827,-0.06084042,0.016186917,0.002912768,0.008467614,0.0059774495,-0.012995484,0.4999177,-1.3767297,1.8981198,-2.0897286,-1.5715173,2.4751294,-0.0769072,0.071788445,-0.09724164,0.024252694,-0.0105148805,-0.063838065,-0.49799395,0.22984336,-9.595961,0.7486078,47.661808,-1.183456,-2.4123218,-3.2120898,-0.30273482,-0.05982461,-0.44691396,28.5,29.8125,28.875,32.625,35.0625,36.0
0.1340537,-1.2588438,-0.2784745,-0.6711824,0.00095308456,0.06774757,-0.15577738,-0.39316913,-0.36743638,0.059927214,-3.0774994,0.62506205,-0.00030201342,-0.059436727,0.01534398,0.001972638,0.009488268,0.0045410697,-0.0064523714,0.4997391,-1.3765974,1.8979048,-2.0896695,-1.5715412,2.4749722,-0.07403871,0.073017515,-0.09652148,0.02404763,-0.010723117,-0.06751252,-0.47884035,0.076614454,-9.576807,0.8247004,47.68062,-1.3875743,-2.420616,-3.3756034,-0.2814627,-0.060782805,-0.43694195,28.5,29.8125,28.875,32.625,35.0625,36.0
0.13605374,-1.1006479,-0.22386265,-0.5562796,0.0040591503,0.0775482,-0.15532096,-0.39328098,-0.36743045,0.059930302,-3.0775046,0.6250039,-0.00034388228,-0.06305922,0.015558275,0.0038161639,0.008091541,0.008879191,-0.0061574588,0.49961838,-1.3764167,1.8976644,-2.0895855,-1.5715293,2.4748147,-0.0771802,0.07388449,-0.101724155,0.023906225,-0.0115922475,-0.07094434,-0.49799395,0.095768064,-9.500193,0.82694155,47.690468,-1.3358865,-2.4204593,-3.2954679,-0.28690886,-0.043064617,-0.45747596,28.5,29.8125,28.875,32.625,35.0625,36.0
0.13805401,-1.1089739,-0.15596505,-0.6160173,0.009654059,0.0772036,-0.15292576,-0.3934032,-0.36736912,0.059905253,-3.0774102,0.6250205,-0.0002780162,-0.0633433,0.01616327,0.0031460286,0.00808878,0.0074039865,-0.002415257,0.499462,-1.3762484,1.8975219,-2.0895855,-1.5716251,2.474681,-0.07887382,0.07489015,-0.10139034,0.023844276,-0.0108893495,-0.07638162,-0.34476507,-0.095768064,-9.481039,0.8224646,47.67614,-1.3450589,-2.3528957,-3.3101525,-0.25253037,-0.05823228,-0.43305194,28.5,29.8125,28.875,32.625,35.0625,36.0
0.1400538,-1.1647958,0.22038303,-0.52892905,0.011713091,0.062023595,-0.15249597,-0.39352164,-0.36735365,0.05990288,-3.0774374,0.6250421,-0.00039577438,-0.064026035,0.016014231,0.003411519,0.0076336246,0.007566948,0.00180003,0.49928224,-1.3760679,1.8972939,-2.0895011,-1.5715536,2.4745111,-0.07941977,0.07565033,-0.10302547,0.024356622,-0.010577504,-0.081142545,-0.34476504,-0.076614454,-9.481039,0.8224646,47.65643,-1.3809981,-2.387411,-3.2692513,-0.23856309,-0.08401134,-0.38857716,28.5,29.8125,28.875,32.625,35.0625,36.0
0.14205353,-0.7722494,-0.10030111,-0.500617,0.014342883,0.07363895,-0.15865807,-0.39367822,-0.36732534,0.059941273,-3.0774786,0.6250501,-0.00023057354,-0.06653913,0.01804023,0.0036170878,0.008375209,0.008279508,0.0010727711,0.4991128,-1.3759594,1.8970779,-2.0895011,-1.5715898,2.4743416,-0.08449458,0.076452516,-0.10455166,0.024805076,-0.011566802,-0.08548818,-0.47884035,-0.038307227,-9.442732,0.8247004,47.66271,-1.3157852,-2.2472937,-3.3013299,-0.20662247,-0.07542335,-0.37421268,28.5,29.8125,28.875,32.625,35.0625,36.0
0.14405426,-0.8570451,-0.14762498,-0.32213745,0.015835576,0.07798947,-0.1569498,-0.3937938,-0.36727872,0.059947688,-3.077447,0.6249407,-0.00021359912,-0.066117756,0.01756804,0.0031786663,0.008775339,0.007370306,0.011376172,0.49895754,-1.375827,1.8968872,-2.0894172,-1.5716375,2.4741223,-0.08333486,0.07759819,-0.10498092,0.025063878,-0.011493893,-0.09463145,-0.57460845,-0.019153614,-9.423578,0.7463667,47.653748,-1.3731046,-2.2337923,-3.3578095,-0.2045838,-0.08806659,-0.30595496,28.5,29.8125,28.875,32.625,35.0625,36.0
0.14605348,-0.6730185,-0.04880616,-0.3196035,0.01814178,0.08901448,-0.14987408,-0.3939419,-0.36726406,0.059969783,-3.0774786,0.624947,-0.00018405147,-0.067966595,0.018750673,0.0032333382,0.010020236,0.007723148,0.010660553,0.49878898,-1.3756582,1.896623,-2.0893571,-1.5716256,2.4739537,-0.08620846,0.07915692,-0.107174106,0.025985923,-0.012756825,-0.0967858,-0.49799395,-0.11492168,-9.385271,0.80679786,47.687782,-1.3053105,-2.316252,-3.3996272,-0.18286932,-0.0783748,-0.24100336,28.5,29.8125,28.875,32.625,35.0625,36.0
0.14805375,-0.8157248,0.02035548,-0.1680794,0.011332039,0.09635122,-0.1557595,-0.39408693,-0.3672156,0.059956506,-3.077448,0.6249204,-0.00016333841,-0.06944515,0.019233428,0.0035475288,0.009465521,0.008016406,0.012152907,0.49859643,-1.3754658,1.8964194,-2.0893333,-1.5716618,2.4737487,-0.088559955,0.080100454,-0.109132,0.026466668,-0.012417477,-0.100629464,-0.59376204,0.05746084,-9.32781,0.7866488,47.684196,-1.0895182,-2.2720175,-3.2696066,-0.18502918,-0.06791889,-0.20786276,28.5,29.8125,28.875,32.625,35.0625,36.0
0.1500535,-0.8746093,-0.17940564,-0.30599025,0.01657016,0.09771053,-0.15703304,-0.39420363,-0.36717802,0.05997043,-3.0774484,0.6248219,-0.00014156848,-0.07012389,0.019588005,0.0032145542,0.0100331595,0.007446815,0.013400438,0.49844068,-1.375345,1.8962282,-2.0892613,-1.5716857,2.4735315,-0.08961209,0.08158494,-0.11023067,0.026846832,-0.01264718,-0.102927946,-0.51714754,0.076614454,-9.3661175,0.8403672,47.668976,-1.2010328,-2.3393097,-3.3947682,-0.15724754,-0.08448573,-0.16041836,28.5,29.8125,28.875,32.625,35.0625,36.0
0.15205348,-1.0702379,-0.38853228,-0.26997715,0.014454157,0.09924979,-0.15137656,-0.39435098,-0.3671422,0.059964407,-3.0774188,0.62483543,-0.00013297256,-0.07152311,0.020694125,0.003115156,0.010335405,0.006973206,0.01051365,0.49825996,-1.3751407,1.8959883,-2.0892131,-1.57171,2.4733632,-0.09269856,0.08266208,-0.111458346,0.027553087,-0.012688552,-0.10312682,-0.59376204,0.15322891,-9.385271,0.8157518,47.647476,-1.1157086,-2.225587,-3.3692307,-0.14772838,-0.09281241,-0.12998691,28.5,29.8125,28.875,32.625,35.0625,36.0
0.1540536,-1.053429,-0.21063894,-0.13670291,0.011645393,0.086369954,-0.15844473,-0.3944963,-0.3670841,0.059972048,-3.077403,0.6248152,-0.00011248591,-0.07255869,0.021634609,0.002920164,0.010625059,0.00597427,0.0063234204,0.49804345,-1.3749962,1.8957857,-2.0891526,-1.5717338,2.4731362,-0.09533556,0.083740376,-0.11253393,0.028561987,-0.012464311,-0.10157362,-0.45968673,0.095768064,-9.346964,0.78217715,47.668976,-1.0096984,-2.1562052,-3.4357862,-0.13120426,-0.09979459,-0.12557064,28.5,29.8125,28.875,32.625,35.0625,36.0
0.1560542,-0.5777095,-0.38652897,-0.21886155,0.017270688,0.0779939,-0.15783863,-0.3946484,-0.3670349,0.0599812,-3.0773804,0.6248132,-3.720075e-05,-0.0735829,0.022709176,0.0017998812,0.013110356,0.0037983288,7.5432494e-05,0.4978512,-1.3748386,1.8955697,-2.0891163,-1.5717825,2.4729457,-0.09734164,0.08718419,-0.114438735,0.030123116,-0.013603073,-0.09732813,-0.38307226,0.076614454,-9.423578,0.8627467,47.666286,-0.96013445,-2.4282737,-3.3020627,-0.120284885,-0.10842664,-0.18941203,28.5,29.8125,28.875,32.625,35.0625,36.0
0.15805356,-0.29304984,0.06347319,-0.03190622,0.0055873613,0.07175827,-0.16115883,-0.39481583,-0.3669915,0.059997346,-3.0773535,0.6248869,2.652428e-05,-0.07521164,0.023690687,0.0031433434,0.012517367,0.0058160704,-0.0067427326,0.49764663,-1.3746591,1.895306,-2.0890558,-1.5718182,2.4727907,-0.10017313,0.08561971,-0.11585957,0.031052226,-0.014040801,-0.09334053,-0.51714754,0.0,-9.308656,0.8112748,47.668976,-0.8870027,-2.2200873,-3.511569,-0.114526495,-0.08777712,-0.22403485,28.5,29.8125,28.875,32.625,35.0625,36.0
0.16005382,-0.45613346,-0.28414476,-0.06536524,0.014064192,0.059240617,-0.14904504,-0.394974,-0.3669449,0.060016803,-3.0773659,0.6248908,7.985843e-05,-0.075567976,0.024317686,0.0019070421,0.014462145,0.0036673239,-0.01003587,0.49743083,-1.3745139,1.8950785,-2.089008,-1.5718306,2.472576,-0.101094395,0.088557094,-0.11671263,0.031785302,-0.014719613,-0.090966836,-0.53630114,0.0,-9.251195,0.8157518,47.666286,-0.8428863,-2.2287102,-3.4058335,-0.09909179,-0.10794613,-0.26923367,28.5,29.8125,28.875,32.625,35.0625,36.0
0.16205372,-0.62418276,-0.41692373,-0.086014904,0.020557508,0.052349955,-0.14816651,-0.39512417,-0.36690554,0.060013182,-3.0773354,0.62496066,4.740912e-05,-0.07712627,0.024388788,0.0029115414,0.013116391,0.0048500802,-0.011777837,0.49722657,-1.3743097,1.8948277,-2.0889356,-1.5718302,2.4724193,-0.10298423,0.08869817,-0.11936969,0.03261455,-0.014108088,-0.09111482,-0.4405331,0.019153614,-9.308657,0.7933669,47.67345,-0.8382536,-2.3473976,-3.4104052,-0.07314899,-0.105085045,-0.30049038,28.5,29.8125,28.875,32.625,35.0625,36.0
0.1640535,-0.46408612,-0.05499794,-0.1527581,0.012303004,0.07066615,-0.1611046,-0.39526975,-0.3668327,0.059990246,-3.0772347,0.62493813,5.9266542e-05,-0.078096814,0.02437856,0.002937723,0.013647653,0.004521254,-0.011311268,0.497023,-1.3741046,1.8946227,-2.088875,-1.5719146,2.4722147,-0.10362451,0.09066017,-0.12206206,0.03387663,-0.014428177,-0.09221883,-0.34476504,0.019153614,-9.251195,0.78888994,47.682407,-0.84976614,-2.2236674,-3.3360891,-0.09276812,-0.09139548,-0.31211478,28.5,29.8125,28.875,32.625,35.0625,36.0
0.16605338,-1.1897614,-0.23835558,0.030792192,0.022424722,0.050358202,-0.14578922,-0.39543155,-0.36678815,0.06000091,-3.07721,0.62497145,5.4105036e-05,-0.07837581,0.024329396,0.0024676507,0.013990338,0.0027521153,-0.011297463,0.49680722,-1.3739117,1.8943475,-2.0887792,-1.5719265,2.472023,-0.10409164,0.09269594,-0.12373268,0.0352234,-0.013888991,-0.09270007,-0.36391866,0.19153613,-9.289502,0.8537928,47.703903,-0.86995137,-2.3172262,-3.3118153,-0.068765745,-0.12313226,-0.31429148,28.5,29.8125,28.875,32.625,35.0625,36.0
0.16805366,-0.33517113,-0.8305562,-0.11186587,0.02720427,0.07360235,-0.15889648,-0.39557427,-0.36675712,0.060011476,-3.077218,0.6249534,0.00012012295,-0.079973035,0.024116948,0.0033563415,0.013941986,0.004691643,-0.012589635,0.49663937,-1.3737552,1.894132,-2.0887554,-1.5719508,2.471843,-0.10461354,0.093712874,-0.12711972,0.035864957,-0.014773249,-0.09192675,-0.2681506,0.24899697,-9.251195,0.78888994,47.677036,-0.9042779,-2.2822752,-3.2835016,-0.05140061,-0.09301474,-0.35071898,28.5,29.8125,28.875,32.625,35.0625,36.0
0.17005363,-0.12870835,0.018527,-0.049775902,-0.011685485,0.06874137,-0.167915,-0.3957461,-0.3667055,0.06000171,-3.077177,0.6250372,4.5498757e-05,-0.0787391,0.024961935,0.0006765601,0.016791645,-0.001212275,-0.010283932,0.4963879,-1.3735137,1.8938454,-2.088659,-1.5719389,2.4716492,-0.10504786,0.097484365,-0.12587401,0.037389293,-0.014469005,-0.094666846,-0.19153613,0.22984336,-9.232041,0.8605109,47.647476,-0.9190875,-2.326866,-3.3707356,-0.04367966,-0.12926629,-0.38899624,28.5,29.8125,28.875,32.625,35.0625,36.0
0.17205347,-0.54796827,-0.8621108,-0.45341593,-0.0057406486,0.04279471,-0.15532878,-0.39588937,-0.36664405,0.059990436,-3.0770965,0.62502223,8.401826e-06,-0.08240046,0.024962813,0.0039523058,0.014335663,0.0052041677,-0.01356541,0.4961834,-1.3733101,1.8936046,-2.0885513,-1.571987,2.4714458,-0.107793495,0.095680356,-0.1312872,0.03779121,-0.01538274,-0.09412592,-0.17238252,0.17238252,-9.212888,0.7732232,47.6636,-1.0053351,-2.3060236,-3.2476933,-0.055195674,-0.10612873,-0.3901071,28.5,29.8125,28.875,32.625,35.0625,36.0
0.17405353,0.4467468,-0.26189944,-0.07519855,-0.029504646,0.052374456,-0.16717345,-0.39606297,-0.3665814,0.060000133,-3.0770478,0.62506396,8.001959e-05,-0.080567844,0.024483448,0.0015013047,0.016690152,0.00019412088,-0.0054688286,0.49595663,-1.3731287,1.8933533,-2.0884912,-1.5720471,2.4712515,-0.10546416,0.099600576,-0.13059129,0.038684037,-0.015071425,-0.09989388,-0.17238252,0.19153613,-9.270349,0.78888994,47.67614,-1.0068905,-2.2941892,-3.3258145,-0.03878839,-0.1160517,-0.38998753,28.5,29.8125,28.875,32.625,35.0625,36.0
0.17605422,0.15171266,-1.003046,-0.39557138,-0.004720458,0.036895994,-0.15560178,-0.39624932,-0.3665377,0.06001487,-3.077052,0.62506473,0.00014452012,-0.08351855,0.025926702,0.0031877214,0.015693624,0.0030252652,-0.006407318,0.49572763,-1.3729247,1.8930663,-2.0884426,-1.572071,2.4710226,-0.11023765,0.09856796,-0.13341582,0.039567642,-0.015547888,-0.1037274,-0.019153614,0.15322891,-9.32781,0.8537928,47.65464,-0.97529286,-2.3800216,-3.2536936,-0.033801273,-0.12406013,-0.363428,28.5,29.8125,28.875,32.625,35.0625,36.0
0.17805406,-0.28271428,-0.721766,-0.5527403,-0.0002578212,0.024531007,-0.15277185,-0.39640424,-0.36649847,0.060015053,-3.0770469,0.62505865,0.00010064857,-0.08343722,0.024944825,0.0021167109,0.01608542,0.0010387948,0.0006337267,0.4955125,-1.3727193,1.8928026,-2.088359,-1.5720586,2.4708045,-0.10883713,0.10227396,-0.13546857,0.039836526,-0.014961418,-0.10936769,-0.076614454,0.19153614,-9.308656,0.83589023,47.687782,-1.0205522,-2.3768578,-3.16736,-0.0123864105,-0.12349091,-0.30111387,28.5,29.8125,28.875,32.625,35.0625,36.0
0.18005404,-0.3445778,-0.5006873,-0.5549752,-0.0029852095,0.023708781,-0.15676393,-0.39656433,-0.36643288,0.05999259,-3.0769565,0.62497896,0.00010981441,-0.083940685,0.025591262,0.0020840638,0.017219812,-0.0006146827,0.005635846,0.49530843,-1.3724786,1.8925508,-2.0882857,-1.572143,2.4705625,-0.110202074,0.10337548,-0.13734832,0.042588253,-0.0151864495,-0.115732655,-0.11492168,0.28730422,-9.289503,0.7978386,47.65912,-0.97276175,-2.4272518,-3.1671042,-0.027828451,-0.14234845,-0.23775724,28.5,29.8125,28.875,32.625,35.0625,36.0
0.18205386,0.20083643,-0.0020216417,-0.25954452,-0.0107109845,0.04458211,-0.1660444,-0.396751,-0.3664102,0.060035948,-3.077,0.62500113,0.00016710033,-0.0840768,0.02566131,0.0013981126,0.018071411,-0.0034517837,0.012611558,0.4950926,-1.3722976,1.8922151,-2.0881894,-1.572131,2.470355,-0.11076359,0.10593495,-0.13938476,0.04495161,-0.014589773,-0.12327132,0.0,0.3256114,-9.308657,0.83589023,47.63673,-0.9835379,-2.4427962,-3.099214,-0.07403831,-0.14226335,-0.16317962,28.5,29.8125,28.875,32.625,35.0625,36.0
0.18405366,-0.37339243,-0.51691407,-0.5319745,-0.0066429093,0.028769353,-0.16195107,-0.39689857,-0.36633384,0.06002686,-3.076923,0.6249672,9.872851e-05,-0.08573258,0.026767341,0.0012534298,0.018388864,-0.0034814232,0.009364668,0.49485198,-1.3721049,1.8919767,-2.0880578,-1.5721668,2.4701033,-0.113914244,0.10733883,-0.14078048,0.04511365,-0.014871014,-0.1231724,0.038307227,0.2681506,-9.442732,0.80456203,47.696735,-0.9578138,-2.5197778,-3.1737542,-0.051885415,-0.15368359,-0.096941695,28.5,29.8125,28.875,32.625,35.0625,36.0
0.18605348,-0.06613811,-0.71234924,-0.6280993,-0.014816415,0.03998286,-0.16224109,-0.39706558,-0.36628023,0.06002116,-3.076875,0.6247993,0.00015132883,-0.08419842,0.025870642,0.0010065647,0.019896531,-0.005327426,0.014339136,0.49466166,-1.3718765,1.8917016,-2.0879853,-1.5722507,2.4698145,-0.110687986,0.107948825,-0.1415209,0.047570482,-0.0153248785,-0.12491893,0.0,0.30645782,-9.461885,0.83589023,47.681515,-1.1688607,-2.5422301,-3.2051702,-0.047084324,-0.16210347,-0.06483364,28.5,29.8125,28.875,32.625,35.0625,36.0
0.188054,0.06888532,-1.0794317,-0.37774563,-0.021903466,0.04064458,-0.15289378,-0.39722976,-0.36622134,0.06000334,-3.0768003,0.6248462,5.8892034e-05,-0.08660845,0.02728894,0.0016425225,0.01994232,-0.005494719,0.0051381476,0.4944205,-1.3716239,1.891414,-2.0878646,-1.5722626,2.4696124,-0.11523455,0.1090976,-0.14490232,0.04997416,-0.015295911,-0.120262034,-0.05746084,0.24899697,-9.385271,0.82022345,47.689575,-0.957571,-2.4061022,-3.0819733,-0.089950964,-0.1478621,-0.103483655,28.5,29.8125,28.875,32.625,35.0625,36.0
0.19005373,0.11803705,-0.73979473,-0.5268821,-0.02859658,0.031606577,-0.16122796,-0.39740738,-0.36618096,0.060005117,-3.0767834,0.6247859,6.181624e-05,-0.08384963,0.027704857,-0.00013546295,0.023208201,-0.011762878,0.0021397942,0.4942057,-1.3713832,1.8911041,-2.0877788,-1.5722865,2.4693623,-0.113444075,0.11024948,-0.14320679,0.05419512,-0.015183274,-0.11547414,-0.1340753,0.28730422,-9.461885,0.85155696,47.64658,-1.2125075,-2.5113182,-3.3272834,-0.14272851,-0.16830447,-0.14608547,28.5,29.8125,28.875,32.625,35.0625,36.0
0.19205353,0.30792707,-0.57507384,-0.56896365,-0.014511379,0.027520262,-0.1610023,-0.39759955,-0.36612877,0.06002039,-3.076752,0.62483865,0.00011052885,-0.08484897,0.028143195,-1.2419823e-05,0.022887358,-0.011903801,-0.0039142715,0.4939657,-1.3711668,1.8907927,-2.087695,-1.5723227,2.4691594,-0.115252554,0.11103753,-0.14456975,0.054739848,-0.014834218,-0.11122911,-0.095768064,0.24899697,-9.519346,0.8179876,47.64121,-1.1352164,-2.465499,-3.279562,-0.16863061,-0.1606853,-0.18500409,28.5,29.8125,28.875,32.625,35.0625,36.0
0.19405365,0.3842985,-0.48041067,-0.5068298,-0.0043114843,0.031189233,-0.15414247,-0.39777046,-0.36606035,0.060017414,-3.0766814,0.62484497,9.992513e-05,-0.08613986,0.02895878,0.00019502926,0.02343562,-0.010905321,-0.009388336,0.4937255,-1.3709505,1.8905176,-2.0875876,-1.5723714,2.4689324,-0.117150515,0.111523874,-0.14563012,0.05469508,-0.015798498,-0.10764917,-0.05746084,0.17238252,-9.442732,0.77545905,47.67166,-1.1201866,-2.4101496,-3.3571997,-0.15570775,-0.20028502,-0.2709811,28.5,29.8125,28.875,32.625,35.0625,36.0
0.19605345,0.69665027,0.084665224,-0.33623162,0.00024771428,0.046588596,-0.15879653,-0.39791974,-0.36602354,0.059998713,-3.076656,0.6248778,-5.5245e-05,-0.08566195,0.029618524,-0.0011588109,0.025521526,-0.014745192,-0.011334879,0.49349788,-1.3706974,1.8902315,-2.0874674,-1.5723227,2.4687285,-0.11776381,0.113975525,-0.14601935,0.05700648,-0.015824249,-0.106314175,-0.038307227,0.095768064,-9.404425,0.9254084,47.675243,-1.1292561,-2.3056476,-3.3971975,-0.1989268,-0.18973218,-0.31361628,28.5,29.8125,28.875,32.625,35.0625,36.0
0.19805366,0.45333725,0.3793409,-0.25774586,0.012541941,0.04192286,-0.16821438,-0.39808694,-0.36596313,0.06000875,-3.0766008,0.6249251,6.021498e-06,-0.087321624,0.029359382,0.00091082184,0.023571517,-0.011544327,-0.013455452,0.4932818,-1.3705176,1.8899783,-2.0873954,-1.5723828,2.4685493,-0.11890832,0.11238007,-0.14903767,0.057868835,-0.015630856,-0.105337895,-0.076614454,-0.05746084,-9.346964,0.83365434,47.675243,-1.1005359,-2.416439,-3.3646479,-0.23016693,-0.17838214,-0.3537398,28.5,29.8125,28.875,32.625,35.0625,36.0
0.2000534,0.27797386,0.6806587,-0.1973391,0.023811756,0.046196397,-0.14704756,-0.3982423,-0.36589378,0.059966456,-3.0764842,0.62480545,-0.00013916878,-0.08622142,0.030490912,-0.0022849925,0.02560663,-0.018082066,-0.016296241,0.4930538,-1.370216,1.8896798,-2.0872395,-1.5724305,2.4682617,-0.120564,0.11649361,-0.14677954,0.058208276,-0.014343203,-0.10415451,-0.095768064,-0.11492168,-9.346964,0.83365434,47.66987,-1.119354,-2.3809757,-3.5485744,-0.23735102,-0.22083446,-0.42150688,28.5,29.8125,28.875,32.625,35.0625,36.0
0.202054,-0.22757106,0.9940435,-0.24334538,0.034385826,0.03228873,-0.15897524,-0.398427,-0.3658461,0.059998367,-3.076464,0.6249345,-9.932654e-05,-0.08847728,0.030668993,-3.8307215e-05,0.024168273,-0.013712714,-0.018049935,0.49281386,-1.3700365,1.8893689,-2.0871317,-1.5724429,2.468105,-0.12235224,0.11473069,-0.1498798,0.058539852,-0.0151535,-0.104186125,-0.05746084,-0.1340753,-9.32781,0.8403672,47.647476,-1.1029924,-2.2984324,-3.4539413,-0.27530903,-0.22253035,-0.4427392,28.5,29.8125,28.875,32.625,35.0625,36.0
0.20405409,-0.13866213,0.8144971,-0.23948447,0.035684016,0.05308061,-0.15026271,-0.3986299,-0.36578953,0.060012754,-3.0764306,0.62496513,-9.316854e-05,-0.09072371,0.030789867,0.00042331772,0.02356488,-0.01172271,-0.01775419,0.49254972,-1.3697953,1.8890218,-2.087012,-1.5724667,2.4678645,-0.12426638,0.116602324,-0.15300609,0.057747096,-0.015582557,-0.10639301,-0.15322891,-0.2681506,-9.423578,0.83365434,47.670765,-1.093013,-2.34121,-3.4640155,-0.28038913,-0.25153035,-0.4739161,28.5,29.8125,28.875,32.625,35.0625,36.0
0.20605418,-0.043384265,0.694922,-0.35433307,0.028761307,0.07275948,-0.16772166,-0.39877906,-0.36573252,0.05999491,-3.0763602,0.62490916,-0.00018655963,-0.09137834,0.03101677,0.0008208526,0.024038482,-0.011368513,-0.013936884,0.49233392,-1.3695551,1.8887461,-2.08688,-1.572491,2.467623,-0.12481958,0.11693408,-0.15458891,0.058898535,-0.016190132,-0.11075964,-0.30645782,-0.15322891,-9.423578,0.87617236,47.668976,-1.034959,-2.2687693,-3.4463081,-0.29331023,-0.24365346,-0.483481,28.5,29.8125,28.875,32.625,35.0625,36.0
0.20805328,-1.0632776,0.03484427,-0.3949191,0.021711834,0.07499321,-0.15136637,-0.3989649,-0.3656537,0.05999854,-3.0762894,0.6250636,-0.00026263515,-0.093155086,0.032202587,0.0007803224,0.023613911,-0.011759032,-0.008846534,0.49203306,-1.3693386,1.8884472,-2.086736,-1.5724906,2.4674277,-0.12868479,0.11814634,-0.15604825,0.05926675,-0.015662143,-0.119715236,-0.4405331,-0.076614454,-9.500193,0.80456203,47.65912,-0.91152894,-2.1437778,-3.4248033,-0.3248536,-0.26932633,-0.41231406,28.5,29.8125,28.875,32.625,35.0625,36.0
0.21005426,-0.7026957,-0.11036535,-0.5750883,5.797312e-05,0.12064214,-0.15782067,-0.39914382,-0.36558312,0.059995122,-3.0762177,0.6250018,-0.00030138568,-0.09360093,0.030527985,0.0013901847,0.022387782,-0.008784745,0.0030824759,0.4917828,-1.369098,1.8881358,-2.0865939,-1.5725392,2.4671483,-0.1260008,0.11889319,-0.15786372,0.057109468,-0.01602499,-0.1289571,-0.45968673,-0.05746084,-9.500193,0.8784135,47.658226,-1.1948106,-2.2489614,-3.4411964,-0.32138622,-0.29292688,-0.36629614,28.5,29.8125,28.875,32.625,35.0625,36.0
0.21205415,-1.8246285,-0.69858116,-0.8152726,-0.013306879,0.11831067,-0.15556295,-0.39933363,-0.36554047,0.06000082,-3.0761774,0.62498873,-0.00032348995,-0.09514542,0.03117928,0.00031275846,0.02348359,-0.008925514,0.008916309,0.49155456,-1.3688326,1.8877767,-2.0864627,-1.5725635,2.4669173,-0.12785918,0.12233698,-0.1592186,0.05564446,-0.016953835,-0.13664457,-0.61291564,0.076614454,-9.634268,0.8605109,47.640312,-1.0271847,-2.1657417,-3.3956513,-0.33411795,-0.2787448,-0.26774254,28.5,29.8125,28.875,32.625,35.0625,36.0
0.21405412,-1.6715672,-0.9583639,-0.6673234,-0.03525694,0.14952423,-0.16708542,-0.39951953,-0.36546153,0.059994273,-3.0761058,0.6249124,-0.00033945075,-0.096024565,0.031090282,0.0010540275,0.02314201,-0.0074241213,0.013606842,0.49129122,-1.3685924,1.8874778,-2.086342,-1.5726236,2.4666157,-0.12817924,0.122263424,-0.16089706,0.055891074,-0.017386805,-0.14165217,-0.80445176,0.19153613,-9.672575,0.8537928,47.66808,-1.2067447,-2.2924883,-3.4135847,-0.353417,-0.2968507,-0.19023465,28.5,29.8125,28.875,32.625,35.0625,36.0
0.21605371,-2.2782235,-0.7879168,-0.84468263,-0.053417183,0.13532856,-0.17108439,-0.39973074,-0.36540633,0.059999198,-3.0760722,0.6250009,-0.0003414458,-0.09918553,0.030610174,0.0021166431,0.021000862,-0.0025355003,0.0131452475,0.49101523,-1.3683274,1.8871292,-2.0862482,-1.5726355,2.4663994,-0.12988707,0.12391391,-0.16456722,0.052583046,-0.017828094,-0.14289491,-0.7469909,0.095768064,-9.749189,0.8873621,47.660015,-1.1877937,-2.1502328,-3.274156,-0.34496748,-0.2913031,-0.14495878,28.5,29.8125,28.875,32.625,35.0625,36.0
0.21805447,-1.1332426,-1.0715331,-0.89418566,-0.04465368,0.15078305,-0.16361398,-0.3999027,-0.36534646,0.059994794,-3.0760465,0.62488157,-0.00037656006,-0.1027247,0.030442184,0.0024547612,0.018621191,0.0014616149,0.008238325,0.49077463,-1.3680983,1.8868417,-2.0861418,-1.5726599,2.4660878,-0.13285995,0.12687872,-0.16794741,0.04834698,-0.017636554,-0.14095864,-0.80445176,0.24899697,-9.844957,0.85826975,47.67614,-1.1295018,-2.1623597,-3.3130825,-0.27411205,-0.32311296,-0.13248026,28.5,29.8125,28.875,32.625,35.0625,36.0
0.22005336,-1.6864763,-1.3785174,-0.8013139,-0.047757845,0.11430155,-0.1503245,-0.40013555,-0.36527476,0.06000341,-3.0759854,0.62479395,-0.0002587218,-0.102870114,0.030555952,0.00071726704,0.020351052,0.0003023466,0.0032214061,0.49051145,-1.3678207,1.8864721,-2.0860584,-1.5727686,2.465778,-0.13250989,0.13037094,-0.16778435,0.046524018,-0.018610736,-0.13558796,-0.7852981,0.22984336,-9.825804,0.8806493,47.658226,-1.122357,-2.3467903,-3.2796702,-0.26245102,-0.30153236,-0.22664122,28.5,29.8125,28.875,32.625,35.0625,36.0
0.22205387,-1.4702992,-1.6533273,-0.7209383,-0.05049816,0.1071956,-0.14476998,-0.40036163,-0.36522377,0.06002427,-3.0760074,0.6248406,-0.00020152587,-0.10625574,0.0317827,0.0016158803,0.019689068,0.0041387286,-0.005793451,0.49022248,-1.3675802,1.886124,-2.0859993,-1.572769,2.4655156,-0.13678555,0.1311325,-0.17033653,0.04462739,-0.019830327,-0.1308444,-0.9576807,0.30645782,-9.595961,0.80679786,47.675243,-0.9616996,-2.3003669,-3.30054,-0.22769302,-0.31040582,-0.25544673,28.5,29.8125,28.875,32.625,35.0625,36.0
0.22405376,-1.6744348,-1.1753395,-0.6040076,-0.045606412,0.092267886,-0.15525918,-0.40057027,-0.3651515,0.060031213,-3.075947,0.6248847,-0.0002116155,-0.10721739,0.030808307,0.0018443905,0.018684564,0.006044026,-0.0067665614,0.48993546,-1.3673276,1.8857769,-2.0858681,-1.5728048,2.465264,-0.13593249,0.13270679,-0.17238669,0.042943124,-0.019851938,-0.12901635,-0.7661445,0.3256114,-9.576807,0.8627467,47.71017,-1.0832769,-2.2684019,-3.2711158,-0.18071783,-0.33510908,-0.29631227,28.5,29.8125,28.875,32.625,35.0625,36.0
0.22605343,-1.1645721,-0.36627042,-0.6480125,-0.03188585,0.09957731,-0.16722143,-0.40081978,-0.3650832,0.06005854,-3.0759318,0.62489986,-3.145585e-05,-0.10800246,0.03054023,0.0015641543,0.018693559,0.0054773185,-0.007302465,0.48964795,-1.3670865,1.8854188,-2.0858324,-1.5728883,2.4649882,-0.13627097,0.13504474,-0.174668,0.04337405,-0.019587444,-0.12882029,-0.63206923,0.28730422,-9.557653,0.8537928,47.66987,-1.1328944,-2.3679776,-3.3367865,-0.16257282,-0.32248795,-0.3247399,28.5,29.8125,28.875,32.625,35.0625,36.0
0.22805357,-1.1715196,-0.22542097,-0.3525405,-0.025014626,0.09409861,-0.1685441,-0.4010197,-0.36503756,0.060032267,-3.0758922,0.6249483,-0.00011893602,-0.10798277,0.031432465,0.00072842854,0.019640405,0.0040038023,-0.009324551,0.48938426,-1.3667618,1.8850716,-2.085749,-1.5728763,2.46476,-0.13758615,0.13578646,-0.17370357,0.04341221,-0.01973589,-0.12811203,-0.59376204,0.34476504,-9.519346,0.85155696,47.6636,-1.1155996,-2.339314,-3.3823874,-0.126937,-0.34064513,-0.3470456,28.5,29.8125,28.875,32.625,35.0625,36.0
0.23005348,-0.4825764,-0.11149982,-0.147961,-0.025921352,0.09993134,-0.17515533,-0.4012644,-0.36499107,0.06007756,-3.0759308,0.6249159,2.5927704e-05,-0.107985236,0.03138556,-0.0006852537,0.020509902,0.0011323899,-0.0082647195,0.4891086,-1.3665321,1.8846778,-2.0856764,-1.5729121,2.4644594,-0.13779145,0.13924499,-0.17477307,0.04395172,-0.019147487,-0.12938005,-0.4405331,0.28730422,-9.289503,0.88960326,47.651955,-1.1744488,-2.654278,-3.386304,-0.09121652,-0.35219705,-0.36941856,28.5,29.8125,28.875,32.625,35.0625,36.0
0.23205322,-0.9302046,-0.23748711,-0.11584604,-0.016220324,0.06491127,-0.15918173,-0.40149632,-0.36492145,0.060077153,-3.0758672,0.6249962,8.335299e-05,-0.10934857,0.03173588,-0.00011865795,0.020398257,0.001941153,-0.0055951513,0.48882073,-1.3662441,1.8843182,-2.085604,-1.5729722,2.46423,-0.13934101,0.13992876,-0.1771091,0.044816058,-0.0194419,-0.13359739,-0.3256114,0.15322891,-9.251195,0.80456203,47.661808,-1.1558249,-2.305818,-3.3948536,-0.074103415,-0.36253846,-0.3688208,28.5,29.8125,28.875,32.625,35.0625,36.0
0.23405397,-0.11624328,-0.1263593,0.043515965,0.001033391,0.047746457,-0.16337037,-0.40172365,-0.36486226,0.060090907,-3.0758636,0.625028,0.00014815155,-0.10981482,0.032630637,-5.0259652e-05,0.022272624,0.0019072691,0.00088904833,0.48853317,-1.3659917,1.8839716,-2.0855439,-1.5729975,2.463963,-0.14016266,0.140145,-0.17787679,0.046257846,-0.021089908,-0.14089847,-0.19153613,0.019153614,-9.232041,0.842603,47.679718,-1.2238816,-2.465724,-3.3987134,-0.05323421,-0.3668177,-0.30794197,28.5,29.8125,28.875,32.625,35.0625,36.0
0.23605412,0.4276547,0.44138455,0.32102156,0.016692106,0.026881263,-0.16052301,-0.40193918,-0.36478117,0.06007069,-3.0757797,0.6250627,0.00011991421,-0.11100157,0.03303449,-0.00030410907,0.02331372,0.0013271547,0.008029,0.48823348,-1.3656906,1.8836359,-2.085448,-1.5730451,2.463696,-0.14141022,0.14254525,-0.18047015,0.047421873,-0.021766648,-0.14928134,0.0,-0.076614454,-9.021352,0.94331104,47.694946,-1.1967928,-2.3813586,-3.3779287,-0.04137692,-0.35122788,-0.22452083,28.5,29.8125,28.875,32.625,35.0625,36.0
0.23805408,1.6509668,0.94649166,0.4563135,0.048450835,0.022549676,-0.16012456,-0.40218383,-0.36472204,0.06009003,-3.0758033,0.62494844,0.0002364472,-0.112597674,0.03390772,-8.666293e-05,0.02309847,0.001530999,0.012820316,0.48794496,-1.365426,1.8832644,-2.0853994,-1.5730933,2.4633334,-0.14426804,0.143475,-0.18222642,0.0479358,-0.021682248,-0.15693136,0.15322891,-0.076614454,-8.848969,0.8291774,47.667187,-1.1692019,-2.398631,-3.296282,-0.014282759,-0.37856835,-0.11106326,28.5,29.8125,28.875,32.625,35.0625,36.0
0.24005365,2.177391,1.2724627,0.58673316,0.070445076,0.018208925,-0.15751381,-0.40242723,-0.36466318,0.060101125,-3.075782,0.6249009,0.00029476473,-0.11331155,0.032856815,0.00015403895,0.0230821,0.002071064,0.018127859,0.48765817,-1.3651251,1.8828577,-2.0853035,-1.5731415,2.4630198,-0.14290556,0.14573789,-0.18567178,0.048611376,-0.021934802,-0.16087435,0.095768064,-0.038307227,-8.829816,0.92764956,47.64927,-1.2328264,-2.3463757,-3.2092853,0.0146536315,-0.36045003,-0.05060443,28.5,29.8125,28.875,32.625,35.0625,36.0
0.24205354,1.6323793,1.5801363,0.48447642,0.07506105,-0.0041154833,-0.15459755,-0.4026622,-0.36457983,0.060086347,-3.0757163,0.62487274,0.00030674267,-0.11550007,0.034082036,0.0017906281,0.022268014,0.0038873677,0.009607357,0.48734543,-1.3648129,1.8824986,-2.0852187,-1.5732015,2.4626982,-0.14674497,0.14445813,-0.1883426,0.050571717,-0.022067858,-0.15619144,0.19153613,-0.076614454,-8.772355,0.8403672,47.65912,-0.944462,-2.3430169,-3.2200112,0.04766821,-0.38743716,-0.041480795,28.5,29.8125,28.875,32.625,35.0625,36.0
0.2440534,1.6269623,1.4629253,0.40089357,0.05949217,-0.0017485705,-0.16170056,-0.40287662,-0.36451334,0.060084265,-3.0756707,0.6248465,0.00026874954,-0.11617364,0.03536565,0.0013933799,0.024053223,0.002209468,0.0015457209,0.48705742,-1.3645241,1.8821281,-2.085087,-1.5732259,2.4624,-0.14893109,0.14568828,-0.18944274,0.052767705,-0.022856481,-0.15031184,0.15322891,-0.019153614,-8.887277,0.8023209,47.689575,-1.077044,-2.4009657,-3.1819744,0.046645798,-0.39515656,-0.09457782,28.5,29.8125,28.875,32.625,35.0625,36.0
0.2460533,1.0398643,0.5029484,0.22175568,0.035502583,-0.0034198517,-0.15111744,-0.40310282,-0.36443728,0.060084295,-3.0756152,0.6248203,0.0002699684,-0.117680766,0.035752103,0.002956047,0.024130546,0.0039367843,-0.008010571,0.48675743,-1.3642362,1.8817562,-2.0849664,-1.5732735,2.462091,-0.1503021,0.14505419,-0.19284703,0.05532584,-0.023727266,-0.1421219,0.019153614,0.11492168,-8.90643,0.85826975,47.68062,-0.95168114,-2.1990964,-3.0956974,0.06561335,-0.38019294,-0.1754412,28.5,29.8125,28.875,32.625,35.0625,36.0
0.24805397,0.92392206,0.33666152,0.13661903,0.001923174,0.02246832,-0.16948852,-0.40331614,-0.36436695,0.06008824,-3.0755322,0.6248228,0.00029262292,-0.11679003,0.037159335,0.0018032049,0.02724138,-0.0004374439,-0.013255024,0.48649392,-1.3639597,1.8813862,-2.0848334,-1.573346,2.46184,-0.15136068,0.14616668,-0.19244966,0.05913431,-0.024421984,-0.13793306,-0.038307227,0.1340753,-8.944737,0.8493211,47.660015,-1.112607,-2.1256328,-3.2693095,0.020185817,-0.37815,-0.24691096,28.5,29.8125,28.875,32.625,35.0625,36.0
0.25005382,-0.21001314,-0.6219971,-0.3154774,-0.008239332,0.027453298,-0.15718265,-0.40354162,-0.36428556,0.06008079,-3.075435,0.6249353,0.00021037667,-0.115656175,0.03629799,0.0018693625,0.028778033,-0.002576385,-0.012406619,0.48617154,-1.3636469,1.8809904,-2.084664,-1.5733703,2.4616005,-0.1485977,0.14714226,-0.19467652,0.06299012,-0.024789328,-0.1360145,-0.076614454,0.15322891,-9.289503,0.8873621,47.651955,-1.1784452,-2.1185884,-3.2377825,0.0062880362,-0.36475545,-0.34232578,28.5,29.8125,28.875,32.625,35.0625,36.0
0.2520538,0.41011566,-0.4556926,-0.45505556,-0.03640032,0.0700191,-0.16292237,-0.40374115,-0.36418337,0.060061425,-3.0753083,0.6248918,0.00010276886,-0.115633786,0.037369423,0.0011365865,0.030313544,-0.0064870054,-0.018431194,0.48585957,-1.3633579,1.8806447,-2.084471,-1.5734304,2.461278,-0.15058082,0.14880878,-0.19587892,0.066694655,-0.024329804,-0.13197099,-0.05746084,0.22984336,-9.3661175,0.842603,47.63852,-1.1020966,-2.1891208,-3.2177925,-0.046601046,-0.37279803,-0.39851072,28.5,29.8125,28.875,32.625,35.0625,36.0
0.25405365,-0.4770323,-1.0931163,-0.5118582,-0.034598693,0.070143834,-0.14926219,-0.4039785,-0.3641128,0.060068704,-3.0752301,0.62500995,0.00011606394,-0.115505,0.03874287,0.0005498185,0.032751143,-0.0096427,-0.020827249,0.4855595,-1.3630575,1.8802384,-2.0843384,-1.5734781,2.461062,-0.15225911,0.14973281,-0.19650495,0.07031638,-0.025013693,-0.13125005,-0.11492168,0.3256114,-9.404425,0.8784135,47.689575,-1.1887231,-2.0923948,-3.2175121,-0.092930794,-0.36738783,-0.4662189,28.5,29.8125,28.875,32.625,35.0625,36.0
0.25605357,0.016638707,-0.8451843,-0.54532456,-0.03175595,0.087505504,-0.15712802,-0.40420502,-0.36404207,0.06005452,-3.0751565,0.62504804,2.2681015e-05,-0.11585195,0.039830424,-0.0002329295,0.035305496,-0.011617079,-0.017844267,0.4852478,-1.3627206,1.8798317,-2.0841825,-1.5734915,2.4607837,-0.1534651,0.15164281,-0.19751117,0.07233465,-0.02637787,-0.13543141,-0.21068975,0.38307226,-9.595961,0.90527004,47.67614,-1.149375,-2.1692486,-3.2672696,-0.11520845,-0.37054878,-0.48510325,28.5,29.8125,28.875,32.625,35.0625,36.0
0.25805387,-0.6062258,-0.5838741,-0.84149444,-0.023281451,0.06637298,-0.15995349,-0.40445155,-0.3639337,0.06006645,-3.0750177,0.62505233,0.00011625929,-0.11669194,0.041760515,-0.0020812317,0.03880265,-0.0155332,-0.011502461,0.48493555,-1.3624426,1.8794364,-2.084026,-1.573635,2.4604924,-0.15655883,0.15564977,-0.19863114,0.07449246,-0.0276788,-0.14486031,-0.15322891,0.38307226,-9.730036,0.8717007,47.701214,-1.0579736,-2.3117445,-3.33483,-0.14899924,-0.3527858,-0.43292966,28.5,29.8125,28.875,32.625,35.0625,36.0
0.26005343,0.060295846,-0.47314528,-0.6789656,-0.022081094,0.07482766,-0.15689395,-0.40468967,-0.36388353,0.060074594,-3.0750115,0.62502486,0.00012147748,-0.11595369,0.043001775,-0.002706371,0.0413004,-0.018622026,-0.0012454514,0.48464772,-1.3621306,1.8790191,-2.083917,-1.5736474,2.4601884,-0.1574026,0.1557954,-0.1981541,0.0777277,-0.028476294,-0.15595852,-0.22984336,0.22984336,-9.691729,0.9365982,47.66091,-1.038369,-2.1685295,-3.5047987,-0.23814192,-0.3275662,-0.32563317,28.5,29.8125,28.875,32.625,35.0625,36.0
0.26205388,-0.6367576,-0.5991241,-0.5851616,-0.022591269,0.059225895,-0.14605272,-0.4049202,-0.36381418,0.06007828,-3.074935,0.624965,0.00013244097,-0.11751358,0.043551546,-0.0030222854,0.041902117,-0.017899657,0.006331913,0.4843719,-1.3618175,1.8786005,-2.0837624,-1.5737203,2.4598854,-0.15906176,0.1579392,-0.19985811,0.07688562,-0.029389886,-0.16518934,-0.4213795,0.17238252,-9.672575,0.8112748,47.683304,-0.98603755,-2.3030543,-3.4026108,-0.2495584,-0.34145635,-0.24419564,28.5,29.8125,28.875,32.625,35.0625,36.0
0.2640536,-0.21799386,-0.01647095,-0.53428835,-0.014805022,0.081138045,-0.16117883,-0.4051564,-0.36371052,0.060060844,-3.0748713,0.6249674,1.00128045e-05,-0.116900854,0.043424126,-0.0039943,0.044121746,-0.020874996,0.011618548,0.4839891,-1.361504,1.8782285,-2.0836055,-1.5737203,2.4595125,-0.15783544,0.16060369,-0.20147125,0.07947993,-0.030007258,-0.16924365,-0.34476504,0.095768064,-9.710882,0.8403672,47.677036,-1.1126677,-2.3777127,-3.4781623,-0.28088525,-0.3028434,-0.15851268,28.5,29.8125,28.875,32.625,35.0625,36.0
0.2660536,-0.45559296,0.26601857,-0.8060306,-0.007514399,0.08955062,-0.16386935,-0.40538624,-0.36363092,0.060060687,-3.0747983,0.62493324,4.0435784e-06,-0.117195755,0.04438479,-0.0054176557,0.04577977,-0.023688722,0.009413983,0.4836889,-1.3612027,1.8778352,-2.0834615,-1.57378,2.4592006,-0.15951191,0.1633865,-0.20179343,0.080264784,-0.030184576,-0.16871291,-0.40222588,-0.019153614,-9.825804,0.8806493,47.679718,-1.0584588,-2.4464493,-3.6188655,-0.34692624,-0.3039825,-0.13857755,28.5,29.8125,28.875,32.625,35.0625,36.0
0.26805383,-1.24253,0.5376728,-0.37583655,-0.024591943,0.09419934,-0.15920287,-0.40561858,-0.36356694,0.060057323,-3.074727,0.6248635,-1.2269943e-05,-0.11874823,0.044610187,-0.006642881,0.04515225,-0.024629317,0.0021511465,0.48341277,-1.3608655,1.8774031,-2.0833066,-1.5738395,2.4588904,-0.16177693,0.16731606,-0.20336719,0.07844393,-0.029208595,-0.163716,-0.51714754,-0.038307227,-9.691729,0.86945957,47.683304,-1.0013437,-2.4690762,-3.581697,-0.33470282,-0.29584193,-0.16761968,28.5,29.8125,28.875,32.625,35.0625,36.0
0.27005368,-0.91601473,0.35285723,-0.18778114,-0.01234769,0.10924707,-0.16353567,-0.40585193,-0.36348224,0.060053453,-3.0746336,0.62482584,-5.561284e-05,-0.120496586,0.043448087,-0.0032611224,0.04189742,-0.017481394,-0.003495272,0.48310184,-1.3605429,1.8769845,-2.0831273,-1.5739001,2.4585683,-0.16100536,0.163439,-0.20618641,0.07730166,-0.029665578,-0.15729333,-0.5554548,-0.076614454,-9.461885,0.90527004,47.651955,-1.2113832,-2.3685806,-3.48988,-0.34771913,-0.30818683,-0.26847643,28.5,29.8125,28.875,32.625,35.0625,36.0
0.2720536,-1.4092871,0.27740946,-0.1072424,0.007122265,0.09342589,-0.15396328,-0.4061073,-0.36338618,0.060046427,-3.0745711,0.6249277,-7.658335e-05,-0.12357693,0.042790208,-0.00212406,0.04093499,-0.011877273,-0.0059152436,0.48273075,-1.3602306,1.8766016,-2.0830214,-1.5739249,2.4582691,-0.16143121,0.16538632,-0.21045831,0.07421411,-0.031444374,-0.15528885,-0.5363012,-0.19153613,-9.442732,0.8023209,47.652847,-1.2496326,-2.3393242,-3.468776,-0.33054787,-0.28490523,-0.29563862,28.5,29.8125,28.875,32.625,35.0625,36.0
0.27405357,-0.6299578,0.56959754,-0.14349242,0.026858501,0.097760655,-0.1688869,-0.40638247,-0.36331922,0.060069323,-3.0745301,0.6249353,2.2548204e-05,-0.12622064,0.041032452,-0.0012884724,0.038648155,-0.0061641173,-0.005881673,0.48241973,-1.3599058,1.8761328,-2.0829027,-1.5739964,2.4579685,-0.1603207,0.16798522,-0.21446326,0.069483444,-0.032091267,-0.154208,-0.4213795,-0.15322891,-9.461885,0.8537928,47.66987,-1.297765,-2.4342184,-3.3072448,-0.30190617,-0.25009704,-0.35975742,28.5,29.8125,28.875,32.625,35.0625,36.0
0.27605355,-0.7819389,0.3779252,0.02774546,0.02105831,0.08388333,-0.15229213,-0.40663475,-0.36323267,0.060064767,-3.0744143,0.6248924,5.3846372e-05,-0.12773839,0.04207611,-0.0013505935,0.038751494,-0.0054742484,-0.007684273,0.48211914,-1.3595579,1.8756903,-2.0827472,-1.5741051,2.4576564,-0.16304152,0.1688497,-0.21526238,0.06882717,-0.032524846,-0.15512219,-0.49799395,-0.038307227,-9.385271,0.9186956,47.694054,-1.2345945,-2.4469514,-3.3578892,-0.26932555,-0.24478284,-0.3568192,28.5,29.8125,28.875,32.625,35.0625,36.0
0.27805343,0.080123335,0.4665241,-0.040413845,0.0052184463,0.10053875,-0.17215772,-0.40690595,-0.3631124,0.060076788,-3.0743177,0.6249827,8.125091e-05,-0.13147275,0.041850634,0.00059910817,0.035393547,0.0020266846,-0.004168583,0.48172316,-1.3592705,1.8752831,-2.0825937,-1.5741771,2.4573295,-0.16550261,0.16842666,-0.21810777,0.063850306,-0.03307276,-0.16109452,-0.4213795,0.0,-9.500193,0.83365434,47.682407,-1.1065388,-2.2409596,-3.2917213,-0.2344743,-0.23705947,-0.37848362,28.5,29.8125,28.875,32.625,35.0625,36.0
0.28005418,-0.48335966,0.25972334,-0.28490677,-0.017433269,0.08789037,-0.16961977,-0.4071405,-0.36305112,0.060068127,-3.0742733,0.62487173,4.112021e-05,-0.13187827,0.04178607,0.000107900116,0.035873964,0.0034430572,0.0033160893,0.48143643,-1.3589221,1.8748521,-2.0824506,-1.5742134,2.4569795,-0.16496871,0.16944595,-0.21770753,0.061362844,-0.03419267,-0.16803859,-0.30645782,0.1340753,-9.500193,0.85826975,47.677036,-1.3359747,-2.3115075,-3.363552,-0.18335202,-0.17788188,-0.30061027,28.5,29.8125,28.875,32.625,35.0625,36.0
0.28205413,-0.96081704,-0.8178842,-0.20357467,-0.038089097,0.08784279,-0.17366686,-0.40740588,-0.36294302,0.06004722,-3.0741525,0.624782,4.292049e-05,-0.1324315,0.041856416,0.00035055247,0.036048725,0.0028559356,0.012802629,0.48108855,-1.3585505,1.8744205,-2.0823066,-1.5743216,2.4565916,-0.16550766,0.17035808,-0.2197955,0.06307416,-0.03412408,-0.17806104,-0.40222588,0.24899697,-9.595961,0.8247004,47.66808,-1.4046183,-2.1288939,-3.3949122,-0.17002642,-0.17566904,-0.19288363,28.5,29.8125,28.875,32.625,35.0625,36.0
0.2840541,-0.86236477,-1.1902924,-0.12801318,-0.04952876,0.104046896,-0.16536005,-0.40765244,-0.3628637,0.06004964,-3.0741003,0.624731,7.012708e-05,-0.13403119,0.041598957,0.0015637584,0.03428916,0.00543055,0.017823929,0.48077604,-1.3582388,1.8740133,-2.082187,-1.5743817,2.4562542,-0.16658513,0.1701244,-0.2222086,0.062580004,-0.03378748,-0.18415983,-0.38307226,0.22984336,-9.442732,0.8873621,47.693153,-1.3951159,-2.262486,-3.3851066,-0.18286505,-0.16059014,-0.088501126,28.5,29.8125,28.875,32.625,35.0625,36.0
0.2860539,-0.90334743,-0.95247996,-0.36013937,-0.04467952,0.10129291,-0.16714561,-0.40796235,-0.3627686,0.060075834,-3.0740392,0.6247754,0.00020557834,-0.13546154,0.041988708,0.0015574388,0.03308419,0.0070735,0.015347794,0.4804037,-1.3579028,1.8735231,-2.0820687,-1.5744776,2.4559178,-0.16855168,0.17080817,-0.22252566,0.06017045,-0.03348052,-0.1836526,-0.34476504,0.2681506,-9.442732,0.91198283,47.68062,-1.4341972,-2.157527,-3.399076,-0.12266013,-0.14488685,-0.0607133,28.5,29.8125,28.875,32.625,35.0625,36.0
0.28805375,-0.28783864,-0.6326107,-0.30622184,-0.04171736,0.093668304,-0.16671383,-0.40821615,-0.36270326,0.060097538,-3.0740325,0.6247593,0.00021141891,-0.13653152,0.042618904,0.0017455881,0.032871313,0.006403579,0.0073698135,0.4800789,-1.3576027,1.8730801,-2.0819237,-1.574489,2.455584,-0.17074549,0.17171645,-0.22442944,0.061669055,-0.03296971,-0.17786989,-0.21068975,0.22984336,-9.5385,0.8940802,47.683304,-1.2935208,-2.0657315,-3.424344,-0.10417728,-0.11966128,-0.071333736,28.5,29.8125,28.875,32.625,35.0625,36.0
0.2900536,0.020819152,-0.78473973,-0.22491787,-0.027845927,0.06947707,-0.16923377,-0.40849733,-0.3626063,0.060073424,-3.0739326,0.62472504,0.00024426178,-0.13841692,0.04374043,0.0017516031,0.032416087,0.0066780956,-0.0034109033,0.4797294,-1.3572066,1.8726367,-2.0818279,-1.5745853,2.4552264,-0.17432536,0.17297097,-0.22597934,0.061509237,-0.032687314,-0.17066807,-0.2681506,0.24899697,-9.481039,0.8560339,47.66091,-1.1717937,-2.0139923,-3.5129297,-0.094128475,-0.113722965,-0.1625445,28.5,29.8125,28.875,32.625,35.0625,36.0
0.2920535,-0.048368298,-0.3747265,-0.23085357,-0.015680518,0.038306903,-0.15990084,-0.40879008,-0.36254135,0.060100626,-3.07393,0.62470686,0.00034564026,-0.1392535,0.04392586,0.0014475586,0.0320128,0.006040773,-0.00941261,0.4793935,-1.3568703,1.872146,-2.081721,-1.5746325,2.4548798,-0.17564988,0.17465726,-0.22739607,0.061616264,-0.032019902,-0.16599464,-0.24899697,0.24899697,-9.461885,0.8806493,47.64389,-1.3140123,-2.0243902,-3.5297303,-0.04207749,-0.10474661,-0.22745931,28.5,29.8125,28.875,32.625,35.0625,36.0
0.29405338,0.46983537,0.15848067,-0.44308436,-0.0033448713,0.02135389,-0.17142437,-0.4090685,-0.36243486,0.060088992,-3.073801,0.6247611,0.00041585194,-0.13975321,0.04350542,0.00123869,0.03144857,0.0050692777,-0.016884794,0.4790453,-1.3565099,1.8717145,-2.0816128,-1.5747522,2.4545825,-0.17585237,0.17664114,-0.2295391,0.062372483,-0.031062603,-0.15872706,-0.19153613,0.19153613,-9.576807,0.8537928,47.693153,-1.1539642,-2.1775317,-3.489727,-0.031112215,-0.09252599,-0.35150582,28.5,29.8125,28.875,32.625,35.0625,36.0
0.2960533,0.38802448,-0.26806727,-0.35123438,0.00036976192,0.01533192,-0.16675295,-0.40936562,-0.36233976,0.06008902,-3.0737393,0.62484616,0.00041594412,-0.14024791,0.044054855,-0.00024376017,0.032442395,0.001808614,-0.021773191,0.4786487,-1.3561368,1.8712353,-2.0814807,-1.574788,2.4542472,-0.17745054,0.180388,-0.23097971,0.06341166,-0.03044213,-0.15543784,-0.076614454,0.1340753,-9.557653,0.95002913,47.667187,-1.1722662,-2.3712072,-3.532,0.010074349,-0.10686688,-0.42874044,28.5,29.8125,28.875,32.625,35.0625,36.0
0.29805338,0.20977677,-0.14373511,-0.07970622,-0.0033500146,0.01308854,-0.1679437,-0.40961978,-0.36226365,0.060089003,-3.073656,0.6248666,0.0004104566,-0.14041753,0.044838056,-0.0013520253,0.033188887,-0.0020089138,-0.02195461,0.47833616,-1.3557884,1.8707803,-2.0813239,-1.5748476,2.4539585,-0.17945732,0.18290775,-0.23206654,0.06568152,-0.029362088,-0.15726604,-0.076614454,0.05746084,-9.385271,0.9455522,47.666286,-1.089089,-2.2411923,-3.5051773,0.0130008925,-0.113807924,-0.4721166,28.5,29.8125,28.875,32.625,35.0625,36.0
0.30005422,0.4687958,-0.036563978,-0.123821676,-0.004128865,0.032464083,-0.17923872,-0.40993515,-0.3621429,0.060107328,-3.0735686,0.6250147,0.00047608503,-0.14160651,0.045169234,-0.0012038224,0.032838054,-0.0036100599,-0.013495309,0.4779035,-1.3554522,1.8703011,-2.0811794,-1.5749196,2.45363,-0.18152143,0.18485609,-0.23538302,0.068238825,-0.028354343,-0.16779286,-0.05746084,-0.019153614,-9.5385,0.90750587,47.695843,-0.94670904,-2.307746,-3.476336,0.008552678,-0.09997629,-0.43397635,28.5,29.8125,28.875,32.625,35.0625,36.0
0.30205423,0.66421926,0.7471882,0.057670828,-0.020009574,0.05514382,-0.18328045,-0.41019395,-0.3620835,0.06008723,-3.073532,0.6249636,0.00038144187,-0.14216772,0.046261784,-0.0017682976,0.033622317,-0.0077109784,-0.004843094,0.47757855,-1.3550435,1.8698214,-2.081034,-1.5749191,2.453278,-0.184413,0.18703376,-0.23771887,0.07233842,-0.027215108,-0.17933908,-0.038307227,-0.038307227,-9.481039,0.93436235,47.67614,-1.0210956,-2.383085,-3.4798286,-0.006764873,-0.10967372,-0.33382565,28.5,29.8125,28.875,32.625,35.0625,36.0
0.30405396,-0.017614016,0.08734813,0.12291895,0.009435792,0.04778128,-0.17929886,-0.41047177,-0.36199424,0.060093172,-3.0734856,0.62490875,0.00044588328,-0.14009726,0.045757964,-0.0025888155,0.034767337,-0.012764633,0.0066598183,0.47723144,-1.3547077,1.8693784,-2.0809247,-1.5749906,2.452903,-0.18242891,0.18807508,-0.23814121,0.07666742,-0.025938846,-0.18886384,-0.095768064,0.11492168,-9.32781,0.88960326,47.701214,-1.1168525,-2.3162885,-3.4825053,-0.055700984,-0.12771563,-0.22938186,28.5,29.8125,28.875,32.625,35.0625,36.0
0.3060538,-0.0112017505,0.45100874,0.14278732,0.014724673,0.04798778,-0.1692242,-0.4107675,-0.3618874,0.06010096,-3.0733993,0.6248888,0.0004773247,-0.13980334,0.04680835,-0.0033237818,0.03616333,-0.017360155,0.008862447,0.47684687,-1.3543468,1.8688878,-2.0807564,-1.5750741,2.4525175,-0.18431492,0.18961485,-0.23937029,0.08103427,-0.025092678,-0.19295517,-0.2681506,0.095768064,-9.308656,0.9164598,47.70211,-1.078521,-2.5251346,-3.5321894,-0.09320201,-0.13250153,-0.14969416,28.5,29.8125,28.875,32.625,35.0625,36.0
0.3080536,-0.73744583,0.33795407,0.24543285,0.028469745,0.021497194,-0.16483937,-0.4110653,-0.36181948,0.060129732,-3.073403,0.62487197,0.00047256285,-0.14043058,0.046206612,-0.002204377,0.03575293,-0.017963205,0.0056872284,0.4764749,-1.353987,1.8683475,-2.0805752,-1.5750741,2.4521348,-0.18410935,0.1903784,-0.24379832,0.08504983,-0.024453286,-0.18957588,-0.24899697,0.038307227,-9.155427,0.90527004,47.67345,-1.0514935,-2.385021,-3.3961554,-0.14765818,-0.14655241,-0.12694512,28.5,29.8125,28.875,32.625,35.0625,36.0
0.31005344,-0.07672054,0.5220168,0.46519926,0.007907114,0.047272455,-0.16242494,-0.4113325,-0.36171624,0.060125384,-3.0733063,0.6247983,0.0004353802,-0.14043929,0.046377223,-0.0014736766,0.036402643,-0.019015059,-0.0009957618,0.47611472,-1.3536278,1.8678807,-2.080382,-1.5751461,2.4517415,-0.18422246,0.19010262,-0.24602216,0.08878937,-0.024551693,-0.18300304,-0.40222588,0.038307227,-9.11712,0.8627467,47.650166,-1.2187197,-2.2489338,-3.4417088,-0.19118905,-0.14688756,-0.20870307,28.5,29.8125,28.875,32.625,35.0625,36.0
0.31205404,-0.86212456,0.08361623,0.39063892,0.011208712,0.03915983,-0.16101253,-0.41160157,-0.3616162,0.060076132,-3.0731707,0.6248664,0.00031838688,-0.14053215,0.045374706,-0.00070795947,0.036507003,-0.018445471,-0.004599275,0.4757438,-1.3531839,1.8674244,-2.080238,-1.5751942,2.451431,-0.18227988,0.19069785,-0.2489848,0.09070685,-0.024925524,-0.17745107,-0.51714754,0.038307227,-9.097966,0.8873621,47.652847,-1.4854635,-2.2094185,-3.2397406,-0.2381351,-0.14596257,-0.29900023,28.5,29.8125,28.875,32.625,35.0625,36.0
0.31405362,-0.4886788,0.4169721,0.24834494,0.0049709827,0.065788224,-0.1597927,-0.41187692,-0.36153075,0.060101584,-3.0731063,0.62489134,0.0002897743,-0.13993354,0.044601552,-0.0007226356,0.03709612,-0.019420134,-0.005945063,0.47538462,-1.352848,1.8669099,-2.0800102,-1.57523,2.451096,-0.1802956,0.1916301,-0.25052166,0.09244807,-0.025011966,-0.17411888,-0.4213795,0.0,-9.059659,0.8873621,47.691364,-1.5726212,-2.1375492,-3.3547857,-0.263772,-0.1478822,-0.32768816,28.5,29.8125,28.875,32.625,35.0625,36.0
0.31605393,-0.45805848,-0.16932008,0.16629091,0.013355414,0.07797618,-0.1679671,-0.4121653,-0.3614392,0.060096174,-3.0730178,0.62487286,0.00022902292,-0.14143823,0.045040958,-0.00072958006,0.03622237,-0.019166954,-0.0076977257,0.47501168,-1.352439,1.8663825,-2.0798066,-1.5752782,2.4507234,-0.18258262,0.19312419,-0.25230083,0.0920864,-0.024384938,-0.17465356,-0.2681506,0.0,-9.193734,0.9545008,47.674347,-1.4732363,-2.334855,-3.3149817,-0.27727133,-0.16513894,-0.3836022,28.5,29.8125,28.875,32.625,35.0625,36.0
0.31805375,-0.59586716,-0.21856019,0.41323835,-0.013276493,0.09304287,-0.17597662,-0.41245037,-0.36135128,0.060087465,-3.072942,0.62481666,0.00023714874,-0.14333512,0.046051998,-0.0010143482,0.035858046,-0.018301828,-0.006691444,0.47466254,-1.3520434,1.8658923,-2.079664,-1.5753502,2.4503493,-0.18571287,0.19470985,-0.25328448,0.090509154,-0.024496702,-0.178788,-0.21068975,-0.076614454,-9.251195,0.8537928,47.677036,-1.49058,-2.15305,-3.2963126,-0.3258757,-0.1787219,-0.39360958,28.5,29.8125,28.875,32.625,35.0625,36.0
0.32005352,-0.52012765,0.027611343,0.47934145,-0.016528105,0.07513004,-0.17973654,-0.41275254,-0.36126673,0.060114775,-3.072889,0.6248589,0.00026816048,-0.14631568,0.045970216,-0.00043690117,0.033519078,-0.013209459,0.00088021095,0.47428998,-1.3516837,1.865353,-2.0794742,-1.5753983,2.4500103,-0.18782002,0.19598903,-0.25504285,0.08532877,-0.024805536,-0.18846433,-0.19153613,0.0,-9.270349,0.88960326,47.65912,-1.3800874,-2.1787786,-3.3652868,-0.28142905,-0.1752173,-0.30093676,28.5,29.8125,28.875,32.625,35.0625,36.0
0.3220537,-0.22860606,0.015413404,0.18686737,-0.00978488,0.06865531,-0.17695,-0.4130146,-0.3611425,0.060051907,-3.0727575,0.62471026,0.00010253618,-0.14860003,0.04640798,-0.00041973297,0.033224,-0.011587775,0.009082056,0.47389325,-1.3512392,1.864921,-2.0793068,-1.5754584,2.4495382,-0.19004689,0.19838579,-0.25776106,0.084004976,-0.025375118,-0.1988848,-0.19153613,0.076614454,-9.251195,0.92764956,47.66808,-1.3663955,-2.1243312,-3.355363,-0.2586389,-0.1644201,-0.21109957,28.5,29.8125,28.875,32.625,35.0625,36.0
0.32405403,-0.0053524245,-0.17143145,-0.057267282,-0.012887755,0.06279546,-0.17926393,-0.4133189,-0.36104468,0.06007282,-3.0726998,0.6247335,0.0001162165,-0.15011632,0.045884367,-0.0007057432,0.031566083,-0.007655973,0.013799787,0.4734973,-1.3508791,1.8643955,-2.0791175,-1.5755066,2.4491646,-0.19011238,0.19972378,-0.2574635,0.078073755,-0.025738377,-0.20366547,-0.15322891,0.15322891,-9.212888,0.92093146,47.698532,-1.384376,-2.1269202,-3.415434,-0.2052016,-0.17796978,-0.10045965,28.5,29.8125,28.875,32.625,35.0625,36.0
0.32605386,-0.29135284,-0.640004,-0.084484935,-0.017925518,0.04813766,-0.17334276,-0.41364327,-0.36095515,0.06009345,-3.0726528,0.62468815,0.00018327717,-0.15228458,0.046304125,-0.00041333787,0.030705122,-0.0044611157,0.009592688,0.47311273,-1.3504831,1.8638324,-2.0789511,-1.5755786,2.4487581,-0.19209889,0.20074189,-0.25876325,0.07510852,-0.026437348,-0.20144072,-0.21068975,0.21068975,-9.193734,0.9791215,47.70032,-1.3076738,-1.9682361,-3.5710704,-0.14972351,-0.1675548,-0.07340004,28.5,29.8125,28.875,32.625,35.0625,36.0
0.3280539,-0.95535624,-1.4191821,0.028430765,-0.027532188,0.041175816,-0.16333954,-0.41392913,-0.36087272,0.060082156,-3.072622,0.62459034,0.00017147821,-0.15458857,0.04689319,0.00062562065,0.029096635,-0.0013060351,-0.0010433694,0.4727516,-1.3500876,1.8633527,-2.078832,-1.5756148,2.4483402,-0.19492207,0.20054547,-0.2606323,0.07365424,-0.026433779,-0.19362636,-0.47884035,0.24899697,-9.270349,0.9254084,47.689575,-1.2142814,-2.0029755,-3.542713,-0.10224144,-0.1676346,-0.14477475,28.5,29.8125,28.875,32.625,35.0625,36.0
0.33005366,-0.12972055,-0.6220982,-0.055714734,-0.05347795,0.061603446,-0.18477286,-0.41425058,-0.36076954,0.06007793,-3.0725164,0.62463105,0.00019034794,-0.15699032,0.047341064,0.00073995546,0.029199157,0.00075919204,-0.011437513,0.4723549,-1.3496552,1.8628014,-2.0786645,-1.5756992,2.447983,-0.19695206,0.20303778,-0.26372004,0.07247617,-0.027457703,-0.18525416,-0.45968673,0.2681506,-9.404425,0.88960326,47.64658,-1.1378962,-2.114942,-3.5201354,-0.070968725,-0.17762065,-0.26049122,28.5,29.8125,28.875,32.625,35.0625,36.0
0.33205348,-0.41225976,-1.1209861,-0.36390704,-0.04241436,0.060835235,-0.1731212,-0.41451377,-0.3606725,0.060047563,-3.0724223,0.6246158,5.8804602e-05,-0.15710355,0.049288373,-0.00089934905,0.03290889,-0.004099642,-0.020479009,0.47198206,-1.3492463,1.8623346,-2.0784833,-1.5757235,2.4476132,-0.19950096,0.20616305,-0.26472962,0.07639687,-0.02854794,-0.17875175,-0.38307226,0.3256114,-9.5385,0.8627467,47.64479,-1.0691174,-2.1782596,-3.5232515,-0.06964852,-0.17209154,-0.34734374,28.5,29.8125,28.875,32.625,35.0625,36.0
0.33405423,-0.660876,-0.940355,-0.25849214,-0.045507047,0.06279486,-0.17032677,-0.41487056,-0.36057547,0.060084164,-3.072363,0.62476134,0.00023650091,-0.15946645,0.04994064,-0.0002790774,0.031125994,-0.002292712,-0.028568476,0.47157294,-1.3488623,1.86176,-2.0783646,-1.5758194,2.447303,-0.20291369,0.20701933,-0.26702812,0.075412005,-0.027764646,-0.17408039,-0.40222588,0.24899697,-9.5385,0.9186956,47.687782,-0.9757496,-2.1848264,-3.48974,-0.07312749,-0.185565,-0.4543048,28.5,29.8125,28.875,32.625,35.0625,36.0
0.3360543,-0.61253583,-1.1197679,-0.409799,-0.030429514,0.07451816,-0.17516206,-0.4151781,-0.3604741,0.060049932,-3.0722678,0.62489355,9.9113255e-05,-0.16162613,0.049210623,-0.000330454,0.029979263,-0.0016593073,-0.027573906,0.4711408,-1.3483936,1.8612322,-2.0781972,-1.5758194,2.4469662,-0.20380192,0.21110031,-0.27187392,0.075068444,-0.027075106,-0.17596194,-0.38307226,0.17238252,-9.519346,0.94331104,47.689575,-1.0190732,-2.1935942,-3.424921,-0.036332794,-0.2001361,-0.5122304,28.5,29.8125,28.875,32.625,35.0625,36.0
0.33805338,-0.8207682,-0.48340252,-0.37951046,-0.017075684,0.08033454,-0.1812492,-0.41551003,-0.36038885,0.0600596,-3.0722678,0.6248454,0.00010270822,-0.16058052,0.047319908,-0.0003863783,0.030071808,-0.004866855,-0.013231211,0.47072193,-1.347973,1.8606676,-2.0780513,-1.5758308,2.4465175,-0.200392,0.21369581,-0.27594048,0.07936707,-0.025751514,-0.18690065,-0.51714754,0.1340753,-9.500193,0.9455522,47.70211,-1.1119425,-2.341334,-3.2830212,-0.051723845,-0.21771805,-0.43078813,28.5,29.8125,28.875,32.625,35.0625,36.0
0.34005418,-1.136605,-0.16256426,-0.3219428,0.0009743514,0.08421921,-0.1761247,-0.41579524,-0.36028448,0.060029775,-3.07215,0.6247542,7.356185e-05,-0.16044852,0.04641736,-0.00039370207,0.028830647,-0.0038152502,0.0022412427,0.47036237,-1.3475412,1.8601774,-2.0778968,-1.5759262,2.4461167,-0.19896437,0.21389003,-0.27581468,0.07744601,-0.025207166,-0.20094661,-0.47884035,0.095768064,-9.519346,0.9791215,47.66987,-1.2354074,-2.3379374,-3.2816563,-0.011679968,-0.2480322,-0.30918136,28.5,29.8125,28.875,32.625,35.0625,36.0
0.34205365,-1.8197156,-0.5998689,-0.48722005,0.016762445,0.08710094,-0.1595936,-0.41610754,-0.36020517,0.060020927,-3.0721064,0.62468064,1.5388407e-05,-0.15983897,0.046929576,-0.0019547609,0.03124902,-0.0076284506,0.011946616,0.46997863,-1.3470846,1.8596033,-2.0777166,-1.5759505,2.445693,-0.1988483,0.21677338,-0.27631012,0.07949119,-0.025691042,-0.21053156,-0.4213795,0.1340753,-9.557653,0.8940802,47.677036,-1.4201274,-2.46433,-3.4711127,0.007690223,-0.25782466,-0.20284076,28.5,29.8125,28.875,32.625,35.0625,36.0
0.3440533,-1.3886614,-0.48397395,-0.19527659,-0.0011475667,0.101613075,-0.1709741,-0.41645318,-0.36011347,0.06004813,-3.0720904,0.6247746,7.5047945e-05,-0.15958673,0.04842619,-0.0020148263,0.03301788,-0.009811656,0.010762411,0.46954593,-1.3466891,1.8590292,-2.0775716,-1.5759743,2.4453213,-0.20059551,0.21608733,-0.27614015,0.082738444,-0.026276862,-0.21109262,-0.49799395,0.24899697,-9.5385,0.8605109,47.682407,-1.2693807,-2.3518004,-3.578448,0.013271719,-0.2688519,-0.1235353,28.5,29.8125,28.875,32.625,35.0625,36.0
0.34605396,-0.81079555,-0.46240443,-0.16447048,-0.008623206,0.08905595,-0.1630026,-0.4167735,-0.36000952,0.06002651,-3.0719712,0.6246195,8.106126e-05,-0.15976731,0.04993858,-0.0038462817,0.036305167,-0.014962579,0.0016593183,0.46917334,-1.3462083,1.8584546,-2.077391,-1.576095,2.4448678,-0.20275445,0.22015177,-0.27783483,0.086454034,-0.026873168,-0.20414197,-0.5746084,0.11492168,-9.461885,0.90527004,47.65912,-1.3771131,-2.307845,-3.6235209,-0.033140503,-0.2746231,-0.19134548,28.5,29.8125,28.875,32.625,35.0625,36.0
0.34805402,-0.21553016,-0.16271862,-0.1674221,-0.005686683,0.060291085,-0.1683509,-0.4171034,-0.3599097,0.060020752,-3.0719304,0.6246515,7.056365e-05,-0.16015878,0.049692232,-0.0021920663,0.03748842,-0.0140059525,-0.0036310316,0.46874174,-1.3457772,1.8579143,-2.0772579,-1.5761198,2.4444618,-0.20161168,0.21939144,-0.28172052,0.0908052,-0.028350098,-0.19769888,-0.34476504,0.038307227,-9.385271,0.9992599,47.66987,-1.4648912,-2.3356478,-3.6607094,-0.06890063,-0.24959296,-0.26285893,28.5,29.8125,28.875,32.625,35.0625,36.0
0.35005364,-0.10827858,-0.45247418,0.008630521,0.016013958,0.023807364,-0.16104858,-0.4174531,-0.35979623,0.060028072,-3.0718381,0.6246727,0.00016536264,-0.15992683,0.051011186,-0.0018932166,0.039295647,-0.01666155,-0.009142412,0.46832126,-1.3453453,1.8573407,-2.077112,-1.5762275,2.444067,-0.20319618,0.21879914,-0.28285623,0.09570907,-0.028751703,-0.19376966,-0.34476504,-0.095768064,-9.289502,0.8940802,47.655537,-1.3823602,-2.2723668,-3.526322,-0.108827814,-0.2604547,-0.34949958,28.5,29.8125,28.875,32.625,35.0625,36.0
0.35205427,0.4912403,0.57686824,-0.10182685,0.037229694,0.006056645,-0.1589579,-0.41776773,-0.35969356,0.060016204,-3.0717316,0.6247084,8.7985936e-05,-0.16061945,0.051668543,-0.0012668683,0.03964252,-0.0180417,-0.012174324,0.46791273,-1.3448895,1.8567656,-2.0768955,-1.5762757,2.443695,-0.20489295,0.21913537,-0.28562662,0.09951735,-0.02846235,-0.19243282,-0.22984336,-0.1340753,-9.270349,0.95897776,47.6636,-1.3301256,-2.2681115,-3.5216422,-0.14969844,-0.28400666,-0.3793631,28.5,29.8125,28.875,32.625,35.0625,36.0
0.35405397,0.4509104,0.72116184,-0.49797288,0.077281676,-0.012696951,-0.16093484,-0.41810155,-0.35961643,0.060032196,-3.0717099,0.62472063,0.00010318332,-0.16171154,0.052941103,-0.0013080273,0.040360134,-0.021028318,-0.010826543,0.46751577,-1.3444575,1.8561662,-2.0767262,-1.5762991,2.4433088,-0.2081751,0.22089775,-0.2887173,0.10379193,-0.027787417,-0.19706573,-0.05746084,-0.076614454,-9.32781,0.9298854,47.686886,-1.3004808,-2.2786996,-3.5219262,-0.20165634,-0.29853427,-0.38439125,28.5,29.8125,28.875,32.625,35.0625,36.0
0.35605362,0.7297158,1.1447473,-0.19728123,0.06227949,0.00992396,-0.17402704,-0.41841853,-0.35948518,0.060010605,-3.0715523,0.62462395,2.6693375e-05,-0.16362633,0.054046478,-0.00070432905,0.040919546,-0.021262806,-0.002965428,0.46709496,-1.3439894,1.8555902,-2.0764744,-1.5764078,2.4428487,-0.2111781,0.22223012,-0.29240328,0.106514886,-0.02827496,-0.20792232,-0.15322891,0.0,-9.289502,0.9947882,47.658226,-1.3243129,-2.5225196,-3.3590908,-0.26555425,-0.3246416,-0.2566904,28.5,29.8125,28.875,32.625,35.0625,36.0
0.35805368,0.36019373,0.69203085,0.19765177,0.037255798,0.042734485,-0.17512506,-0.41873935,-0.3593708,0.060003776,-3.0714622,0.624581,-5.0949053e-05,-0.16493765,0.054080576,-0.00018384126,0.040746298,-0.020261724,0.006134642,0.46666265,-1.3435457,1.8550152,-2.0762465,-1.576456,2.4424016,-0.21194296,0.22335705,-0.2951734,0.10710988,-0.028656209,-0.21778175,-0.15322891,-0.15322891,-9.212888,0.92093146,47.67614,-1.1564809,-2.3998365,-3.3139243,-0.29204404,-0.33727342,-0.14753222,28.5,29.8125,28.875,32.625,35.0625,36.0
0.3600538,-0.43722126,0.5318115,-0.31452072,0.026358338,0.050080974,-0.16952418,-0.41906494,-0.3592784,0.05999989,-3.0713918,0.6245486,-0.00017918568,-0.16726655,0.055769652,-0.00085745176,0.040993653,-0.020434901,0.0037055295,0.46624103,-1.3430651,1.8543805,-2.0759838,-1.5764674,2.4419694,-0.21642503,0.22595073,-0.29671142,0.106295325,-0.028853172,-0.21982984,-0.095768064,-0.095768064,-9.289503,0.87393653,47.66808,-0.92887217,-2.437938,-3.2473278,-0.32427377,-0.3352118,-0.09771603,28.5,29.8125,28.875,32.625,35.0625,36.0
0.36205417,-0.7399058,-0.2685782,-0.34476766,-0.0037617693,0.073132336,-0.17140548,-0.41939402,-0.3591576,0.059989106,-3.0712528,0.62452126,-0.00022385718,-0.1689124,0.055515617,-0.0012608183,0.040033802,-0.01836366,-0.0016949048,0.46582085,-1.3425968,1.853782,-2.0757458,-1.5765637,2.4415507,-0.2171564,0.22840248,-0.29813147,0.102976866,-0.028953796,-0.2151564,-0.17238252,-0.05746084,-9.32781,0.9455522,47.690468,-0.8175987,-2.3988802,-3.316515,-0.3227886,-0.34993964,-0.088463694,28.5,29.8125,28.875,32.625,35.0625,36.0
0.36405423,-1.2296576,-0.9921606,-0.256355,-0.03638917,0.07466948,-0.16293384,-0.4197327,-0.35903272,0.05999106,-3.0711248,0.6246537,-0.00027468475,-0.1693788,0.05589167,-0.001681794,0.040416673,-0.016696258,-0.011534096,0.46536458,-1.3421526,1.8531836,-2.075507,-1.5766243,2.4411943,-0.2173379,0.22875956,-0.2970965,0.10030172,-0.030035514,-0.20548974,-0.24899697,0.076614454,-9.423578,0.90750587,47.704796,-0.8907501,-2.535019,-3.4566145,-0.30631292,-0.3535471,-0.19403082,28.5,29.8125,28.875,32.625,35.0625,36.0
0.3660541,-1.49052,-1.5039713,-0.054890897,-0.06693211,0.08589007,-0.16775745,-0.42005137,-0.35891816,0.0599634,-3.0709965,0.624553,-0.00035868838,-0.1714292,0.054888234,-0.0009919996,0.03807848,-0.008939014,-0.019585079,0.464957,-1.3416611,1.8525981,-2.0752828,-1.5767087,2.440741,-0.21637402,0.22859624,-0.29674193,0.09215826,-0.031437688,-0.19646208,-0.40222588,0.076614454,-9.385271,0.99702406,47.704796,-1.046242,-2.5090752,-3.5957646,-0.23785535,-0.3510719,-0.3093133,28.5,29.8125,28.875,32.625,35.0625,36.0
0.36805388,-1.0104032,-1.437135,-0.33528996,-0.06930166,0.097250775,-0.17829518,-0.42041317,-0.35882843,0.059993036,-3.0709867,0.6246103,-0.00027075,-0.17351016,0.053894702,-0.0006893014,0.0375887,-0.005234135,-0.024451492,0.46452582,-1.341241,1.8519868,-2.0751393,-1.5767449,2.4403472,-0.21554327,0.23147415,-0.30041078,0.089436166,-0.032647572,-0.19075699,-0.34476504,0.15322891,-9.385271,0.9410752,47.657326,-1.1711354,-2.4391294,-3.5632448,-0.17032214,-0.3483017,-0.41552538,28.5,29.8125,28.875,32.625,35.0625,36.0
0.37005392,-0.7923303,-1.3451288,-0.5700528,-0.042763744,0.07018971,-0.16521008,-0.4207466,-0.358712,0.05996725,-3.0708632,0.62469953,-0.00036186457,-0.17537357,0.053419415,-0.0005333829,0.036433503,-0.0013346986,-0.025626319,0.4640816,-1.3407485,1.8514003,-2.074938,-1.5767931,2.4399753,-0.21567799,0.23304778,-0.30185968,0.08529352,-0.033397704,-0.18970807,-0.1340753,0.1340753,-9.615114,0.95002913,47.658226,-1.2157059,-2.5051198,-3.5837548,-0.13624126,-0.3428824,-0.5101855,28.5,29.8125,28.875,32.625,35.0625,36.0
0.37205392,-0.7834715,-0.7177004,-0.3304149,-0.031482484,0.053536445,-0.16879232,-0.42110556,-0.3586081,0.05997409,-3.0707827,0.62471366,-0.00024681026,-0.17746244,0.053265832,0.0008944793,0.035415586,0.0028839384,-0.017295187,0.46367347,-1.3402932,1.8508004,-2.0748065,-1.5769013,2.4395869,-0.2163555,0.23290448,-0.3047261,0.08399002,-0.034433085,-0.19871011,-0.2873042,0.17238252,-9.481039,0.9858343,47.658226,-1.2265986,-2.413511,-3.549446,-0.08691229,-0.3413251,-0.46404463,28.5,29.8125,28.875,32.625,35.0625,36.0
0.37405363,-0.35820335,-0.2843053,-0.49210128,0.008067256,0.039150503,-0.17254654,-0.42147207,-0.35850334,0.059957407,-3.0707128,0.6247108,-0.00023919487,-0.17903037,0.052979175,0.0024847542,0.034389857,0.005889373,-0.0036848113,0.46322918,-1.3397777,1.8501776,-2.074663,-1.5769619,2.4391503,-0.21667728,0.23240599,-0.30793542,0.08444002,-0.034947656,-0.21263753,-0.40222588,0.21068975,-9.423578,0.9410752,47.70032,-1.2476984,-2.3885603,-3.546606,-0.060275055,-0.34008336,-0.35075298,28.5,29.8125,28.875,32.625,35.0625,36.0
0.37605423,-0.3468228,-0.044812556,-1.0437096,0.02304346,0.039244484,-0.16881771,-0.42182407,-0.3584013,0.059956055,-3.0706444,0.6246512,-0.00022218295,-0.1796212,0.053806633,0.0021492403,0.035991848,0.0049417885,0.0061131185,0.46280885,-1.339298,1.8495554,-2.0744827,-1.5770339,2.438702,-0.21770406,0.23380879,-0.30929723,0.085869305,-0.03602484,-0.22345394,-0.15322891,0.30645782,-9.595961,0.99031126,47.689575,-1.3108296,-2.2446287,-3.4741774,-0.016688518,-0.3358841,-0.22795135,28.5,29.8125,28.875,32.625,35.0625,36.0
