Tylouw/Master_Thesis_Code/training_data_v2/rect_rod_t0.2/sample_46_session_1.csv
timestamp[s],tcp_force_x[N],tcp_force_y[N],tcp_force_z[N],tcp_force_rx[Nm?],tcp_force_ry[Nm?],tcp_force_rz[Nm?],tcp_pose_x[m],tcp_pose_y[m],tcp_pose_z[m],tcp_pose_rx[rot_vec_x],tcp_pose_ry[rot_vec_y],tcp_pose_rz[rot_vec_z],tcp_velo_x[m/s],tcp_velo_y[m/s],tcp_velo_z[m/s],tcp_velo_rx[rot_vec_x/s],tcp_velo_ry[rot_vec_y/s],tcp_velo_rz[rot_vec_z/s],q1[rad],q2[rad],q3[rad],q4[rad],q5[rad],q6[rad],qd1[rad/s],qd2[rad/s],qd3[rad/s],qd4[rad/s],qd5[rad/s],qd6[rad/s],tool_acc_x,tool_acc_y,tool_acc_z,current_of_whole_robot[A],voltage_of_whole_robot[V],current_J1[A],current_J2[A],current_J3[A],current_J4[A],current_J5[A],current_J6[A],temp_J1[C],temp_J2[C],temp_J3[C],temp_J4[C],temp_J5[C],temp_J6[C]
7.960007e-07,0.6494492,0.47790825,1.2578648,-0.02332432,0.010013169,-0.02585934,-0.38933,-0.3687125,0.0600034,-3.0787094,0.6249869,0.00019594165,0.00036278387,0.00021043306,-0.000624601,0.00087401323,-0.0018255706,2.996044e-05,0.5050208,-1.3816674,1.9042462,-2.0919397,-1.5708417,2.4800491,-9.0715446e-05,0.0010090756,-3.2408667e-07,0.001011335,0.00012071713,-0.00012079575,0.13407528,0.15322891,-8.734048,0.78217715,47.709274,-0.12676165,-3.1180692,-2.2819042,-0.20531853,0.08448123,0.00862165,28.5625,29.875,28.9375,32.6875,35.125,36.0625
0.002052797,0.9359731,0.39383492,1.0043813,-0.016518598,0.019465528,-0.027729873,-0.38933107,-0.3687274,0.059998743,-3.07871,0.6249486,0.00018316244,-0.001146848,-0.0006290175,-0.0017000169,-0.002022191,0.003380174,3.7478087e-05,0.50504476,-1.381631,1.9042119,-2.091931,-1.5708417,2.4800491,-8.9586705e-05,0.0026411586,0.0028968775,-0.009475107,0.00011844747,-0.00012699522,0.05746084,0.17238252,-8.714894,0.7933669,47.694946,-0.14666,-3.093626,-2.3348632,-0.14124273,0.08767671,0.0068890695,28.5625,29.875,28.9375,32.6875,35.125,36.0625
0.004052548,0.8272197,0.4859595,1.2039428,-0.026933474,0.02646864,-0.031799,-0.38934186,-0.36873528,0.06001159,-3.0787404,0.6250121,0.0002020977,-0.0015218194,-0.00083732855,-0.0016947554,-0.002694243,0.0045930534,3.6735844e-05,0.50503284,-1.3816428,1.9041995,-2.0919435,-1.5708174,2.480073,-8.848571e-05,0.002761705,0.0031394884,-0.011224881,0.00011626175,-0.00012503852,-0.019153614,0.15322891,-8.695741,0.72622824,47.7254,-0.12514916,-3.4070363,-2.6191607,-0.035535354,0.08991301,0.011561212,28.5625,29.875,28.9375,32.6875,35.125,36.0625
0.006051781,0.8104957,0.30884072,1.1800736,-0.01213314,0.011910122,-0.026081333,-0.3893359,-0.3687435,0.060009345,-3.0787404,0.6250121,0.00017310913,-0.0005459272,-0.00029439974,-0.0012769552,-0.0010143418,0.001580288,3.5124896e-05,0.50504476,-1.3816311,1.9041876,-2.0919292,-1.5708054,2.480085,-8.741145e-05,0.0018202418,0.0020602455,-0.0057547097,0.000114154995,-0.00012264127,0.076614454,0.22984336,-8.485051,0.7284641,47.687782,-0.10872872,-3.3086774,-2.4980562,-0.061670188,0.10660872,0.009216313,28.5625,29.875,28.9375,32.6875,35.125,36.0625
0.008051853,0.80684274,0.9279497,0.7592005,0.017396228,-0.009026563,-0.027322166,-0.38932633,-0.36871862,0.060002275,-3.0786939,0.6249259,0.00023190294,0.00025218792,0.00015001504,-0.00041010007,7.520457e-05,-0.00036662474,3.344249e-05,0.5050568,-1.3816559,1.9042352,-2.0919397,-1.5708774,2.4800491,-8.6363056e-05,5.755186e-05,0.00103097,-0.00073171593,0.00011212331,-0.000120301665,0.038307227,0.24899697,-8.580819,0.7150385,47.694946,-0.16112043,-3.2007275,-2.4542212,-0.121709205,0.07651145,-0.0003911171,28.5625,29.875,28.9375,32.6875,35.125,36.0625
0.010051923,0.6797594,0.8653953,0.3256438,0.028425006,-0.0072049797,-0.024197713,-0.38932222,-0.36870214,0.059979457,-3.0786633,0.62491983,0.0001746355,0.00080250396,0.00045610478,-0.00047017794,0.0011119413,-0.0022271762,4.0301802e-05,0.5050329,-1.3816319,1.9042586,-2.0919392,-1.5708774,2.4800253,-8.5419044e-05,7.7213167e-07,0.00065316353,0.0018327734,0.000110162706,-0.00012634628,0.076614454,0.22984336,-8.848969,0.67475104,47.668976,-0.66139257,-2.6884656,-2.96843,-0.09686902,0.05063954,-0.072231695,28.5625,29.875,28.9375,32.6875,35.125,36.0625
0.012052091,0.7347137,0.3811899,0.17035086,-0.001156964,0.014575722,-0.025096318,-0.38932332,-0.36872083,0.059988674,-3.07866,0.62493974,0.00014732135,-0.00071568525,0.0017903164,1.1073295e-05,0.0012699891,-0.0025073905,-0.0034673484,0.50505584,-1.3816078,1.904198,-2.09189,-1.5708655,2.480061,-0.0037497168,1.0359132e-08,-0.0008563243,0.0036647043,0.00010846889,-0.00028256886,0.095768064,0.21068975,-9.232041,0.6948948,47.675243,-0.7375625,-2.5457833,-3.109815,-0.12710102,0.048872188,-0.107169375,28.5625,29.875,28.9375,32.6875,35.125,36.0625
0.014052149,0.00042809645,-0.07944767,0.05918238,-0.033210665,0.025005238,-0.030931704,-0.3893273,-0.3687019,0.059967447,-3.0786529,0.6248976,6.1011073e-05,-0.0043006246,0.0032159947,-0.005032462,0.005250648,-0.009612553,0.00068115693,0.5050054,-1.3815783,1.904209,-2.0918787,-1.5708417,2.4799852,-0.009473968,0.014581102,-0.006403296,0.0027734844,4.7217727e-05,-0.010150551,0.0,0.15322891,-9.346964,0.7418897,47.72002,-0.42039263,-3.256908,-3.043867,-0.09879196,0.06380683,-0.085682444,28.5625,29.875,28.9375,32.6875,35.125,36.0625
0.016052343,-0.21957587,-0.2658312,0.00888234,-0.07267115,0.052722722,-0.041680854,-0.38933513,-0.36870354,0.05995641,-3.0786285,0.62494826,6.900429e-06,-0.0051613282,0.0031173348,-0.0034689389,0.0036453565,-0.006678743,0.005006677,0.5049934,-1.3815314,1.9041733,-2.0918548,-1.5708297,2.480008,-0.010100463,0.012257943,-0.0071557555,0.0025043723,2.9455598e-05,-0.015102573,-0.17238252,0.17238252,-9.481039,0.7172743,47.694946,-0.47050202,-3.243089,-3.100771,-0.07554614,0.039108153,-0.023520336,28.5625,29.875,28.9375,32.6875,35.125,36.0625
0.018051825,-1.1085521,-0.10055752,0.08321524,-0.083940186,0.06514037,-0.054266706,-0.38932824,-0.36866322,0.059926186,-3.0785422,0.62487143,-3.1628624e-05,-0.0046335408,0.0033835825,-0.0029923383,0.004110526,-0.007481638,0.0077822614,0.5049695,-1.3815078,1.9042085,-2.09183,-1.5708898,2.479947,-0.010044792,0.010942133,-0.0072048996,0.0047956742,1.4042808e-05,-0.017822895,-0.3256114,0.24899697,-9.461885,0.6658024,47.651955,-0.70404255,-2.8074832,-3.3333783,-0.070763975,0.02528555,-0.018167892,28.5625,29.875,28.9375,32.6875,35.125,36.0625
0.020051902,-0.9638042,0.25858024,-0.20633928,-0.05590005,0.07765973,-0.08589694,-0.389335,-0.3686714,0.059924204,-3.0785546,0.6248547,-4.53756e-05,-0.0049450235,0.0038256026,-0.0028194166,0.0050629373,-0.009171591,0.008090917,0.5049691,-1.3814836,1.9041842,-2.091829,-1.5708774,2.4799347,-0.01107234,0.011673597,-0.0091858115,0.00798494,9.16895e-07,-0.019158488,-0.38307226,0.28730422,-9.557653,0.76874626,47.684196,-0.8147139,-2.8233895,-3.4554238,-0.08450313,0.017163226,0.005637846,28.5625,29.875,28.9375,32.6875,35.125,36.0625
0.022051895,-0.82890254,0.58869696,-0.46215397,-0.029138835,0.074709766,-0.09582651,-0.38933933,-0.36866084,0.059911486,-3.0785267,0.62488955,-0.00014090382,-0.0067063654,0.004260058,-0.0024791297,0.005127603,-0.00929643,0.0044031856,0.5049324,-1.381447,1.904159,-2.091781,-1.5708536,2.4799232,-0.013451982,0.013515407,-0.012502517,0.00960104,5.9866686e-08,-0.017848918,-0.45968673,0.21068975,-9.615114,0.7642693,47.690468,-0.83524024,-2.6688128,-3.3463364,-0.119992554,0.0045212014,-0.051682584,28.5625,29.875,28.9375,32.6875,35.125,36.0625
0.024051934,-0.90934265,0.3005829,-0.40490565,-0.022419892,0.06625765,-0.10844439,-0.38935435,-0.36866617,0.059902072,-3.0785387,0.6248354,-0.00016812253,-0.0076997117,0.0047716135,-0.003350235,0.0057874313,-0.010496557,0.0020220203,0.5049198,-1.3813977,1.9041222,-2.091781,-1.5708417,2.4798753,-0.015243254,0.01620996,-0.013668275,0.009442094,3.9088666e-09,-0.017258102,-0.5554548,0.15322891,-9.595961,0.7351769,47.675243,-0.86369985,-2.768233,-3.3879595,-0.11946827,0.0112377545,-0.094723746,28.5625,29.875,28.9375,32.6875,35.125,36.0625
0.026052171,-0.92761666,-0.020350037,-0.5173796,-0.022287913,0.07307708,-0.120619096,-0.38934487,-0.3686463,0.059882816,-3.078508,0.6247916,-0.00023973003,-0.00933981,0.00493033,-0.0036119844,0.0055509815,-0.010084554,-0.0003747607,0.50489527,-1.381385,1.9041456,-2.091757,-1.5708417,2.4798274,-0.017046595,0.018671276,-0.015797466,0.008635078,2.5522107e-10,-0.016663315,-0.6703765,0.17238252,-9.653421,0.7396539,47.694946,-0.7425075,-2.8019958,-3.3466773,-0.06273748,0.006265137,-0.076971255,28.5625,29.875,28.9375,32.6875,35.125,36.0625
0.028051712,-1.0142457,0.08135726,-0.44893426,-0.038296808,0.09441178,-0.1339829,-0.3893551,-0.36864215,0.059867393,-3.0784788,0.6248632,-0.0002949832,-0.009666581,0.0048329756,-0.0031329512,0.0052052685,-0.009462156,-0.0008472481,0.50487125,-1.381337,1.9041213,-2.0917447,-1.5708297,2.4798517,-0.017187899,0.018343752,-0.016594892,0.009048306,1.666411e-11,-0.016331902,-0.7661445,0.19153613,-9.80665,0.7418897,47.684196,-0.82883143,-2.721303,-3.413407,-0.0651013,0.0035227207,-0.08088412,28.5625,29.875,28.9375,32.6875,35.125,36.0625
0.03005199,-1.6133987,-0.046453267,-0.58019936,-0.04274229,0.09901886,-0.14255014,-0.38938266,-0.3686315,0.059864707,-3.0784535,0.62485814,-0.0003135857,-0.009911587,0.0051224697,-0.0034078208,0.0060424344,-0.010975334,-0.002739099,0.50483495,-1.3812885,1.9040617,-2.091708,-1.5708417,2.4798155,-0.017904315,0.019635413,-0.017888518,0.010779574,1.0880474e-12,-0.015155916,-0.7661445,0.038307227,-9.80665,0.7642693,47.704796,-0.8867352,-2.8455997,-3.4151335,-0.070405506,-0.028722716,-0.11255399,28.5625,29.875,28.9375,32.6875,35.125,36.0625
0.03205227,-1.0820159,0.48215637,-0.3427941,-0.033185713,0.114700414,-0.15009616,-0.38940904,-0.36862662,0.059856072,-3.0784457,0.62495387,-0.0003520494,-0.011118281,0.005190587,-0.0024814256,0.0057076686,-0.009641119,-0.0041789,0.50478685,-1.3812405,1.9040245,-2.0917075,-1.5708174,2.4798281,-0.018924573,0.019630186,-0.02022015,0.011788448,-0.0003555776,-0.014734863,-0.6895301,-0.019153614,-9.825804,0.74413085,47.667187,-0.9079209,-2.7139993,-3.4285288,-0.08716202,-0.044695634,-0.13975027,28.5625,29.875,28.9375,32.6875,35.125,36.0625
0.0340529,-1.1091212,0.5132312,-0.45464396,0.002529791,0.10616355,-0.16785417,-0.38944063,-0.36859748,0.059850387,-3.0784016,0.62490624,-0.0003315966,-0.012057064,0.0055865147,-0.0022317998,0.006521612,-0.008803497,-0.00463062,0.5047386,-1.3812041,1.9039892,-2.091684,-1.570866,2.4797559,-0.019768715,0.020240137,-0.021609697,0.01223179,-0.0014761442,-0.015124536,-0.6512228,-0.038307227,-9.825804,0.7709874,47.71017,-0.8950211,-2.7327833,-3.4359117,-0.07607137,-0.04344885,-0.15397051,28.5625,29.875,28.9375,32.6875,35.125,36.0625
0.03605294,-1.2836576,0.57550114,-0.54336244,0.02089875,0.08369285,-0.17091991,-0.3894661,-0.36859164,0.059853893,-3.078401,0.6249247,-0.00038214333,-0.013533164,0.0058145826,-0.0021210103,0.0071338573,-0.0071510193,-0.0044723293,0.50469035,-1.3811675,1.9039272,-2.0916364,-1.5708426,2.4797192,-0.020694586,0.021721125,-0.02342947,0.011425207,-0.0028182934,-0.01620503,-0.49799395,-0.076614454,-9.672575,0.7463667,47.67614,-0.8824611,-2.811645,-3.4142406,-0.09297244,-0.03126766,-0.16516328,28.5625,29.875,28.9375,32.6875,35.125,36.0625
0.03805211,-0.9901485,0.46442178,-0.47480112,0.024668476,0.065899394,-0.18740486,-0.38948196,-0.3686071,0.059868846,-3.0784228,0.62485313,-0.00036928372,-0.01495457,0.0063181827,-0.0020660164,0.006795773,-0.0065915613,-0.005207158,0.5047015,-1.3811431,1.9038562,-2.0916007,-1.5708426,2.479683,-0.022884209,0.022800129,-0.024733227,0.010996511,-0.0027970746,-0.017659146,-0.49799395,-0.095768064,-9.691729,0.8403672,47.70659,-0.88633776,-2.720012,-3.3532166,-0.057082593,-0.05003731,-0.16016409,28.5625,29.875,28.9375,32.6875,35.125,36.0625
0.04005225,-0.5823647,0.43383548,-0.5081683,0.00742718,0.051260874,-0.19842409,-0.3895323,-0.36857602,0.059852496,-3.0783637,0.62497574,-0.00037385113,-0.016378948,0.006763177,-0.0016927945,0.0063397707,-0.006117725,-0.0061606406,0.504617,-1.3810709,1.903808,-2.0916007,-1.5708665,2.4796824,-0.02506592,0.02356556,-0.026592301,0.0114534395,-0.0026317316,-0.018886795,-0.49799395,-0.095768064,-9.749189,0.7709874,47.67614,-0.8891401,-2.7312615,-3.3838243,-0.04953131,-0.05368595,-0.175704,28.5625,29.875,28.9375,32.6875,35.125,36.0625
0.042052463,0.17575097,0.62101305,-0.37394726,-0.009224432,0.057172783,-0.21608517,-0.38955063,-0.3685558,0.059816428,-3.0782964,0.62494165,-0.0004492757,-0.017434599,0.006465419,-0.0008015089,0.0059214993,-0.005126827,-0.005356529,0.504581,-1.3809747,1.9037708,-2.0915759,-1.5708908,2.4796338,-0.02547733,0.024026683,-0.02947364,0.012803679,-0.0027502992,-0.020100754,-0.34476504,-0.05746084,-9.749189,0.7709874,47.690468,-0.7991364,-2.7350774,-3.3121219,-0.040016882,-0.059619125,-0.17309713,28.5625,29.875,28.9375,32.6875,35.125,36.0625
0.044052526,-0.22105525,0.5478285,-0.4440582,-0.016518202,0.042144883,-0.2288005,-0.38960072,-0.36855412,0.059829034,-3.0783339,0.6250075,-0.00044463636,-0.017729651,0.00727282,-0.0010190373,0.0075298175,-0.006084815,-0.0058997846,0.5045089,-1.3809383,1.9036988,-2.091575,-1.570855,2.479598,-0.026520586,0.024642404,-0.030069456,0.014403742,-0.003692832,-0.020598812,-0.28730422,-0.038307227,-9.710882,0.73069996,47.713753,-0.81398046,-2.718515,-3.3066297,-0.059737958,-0.057943407,-0.22015792,28.5625,29.875,28.9375,32.6875,35.125,36.0625
0.046052597,-0.21066701,0.2996311,-0.36980486,-0.020305663,0.048033018,-0.22878934,-0.3896673,-0.36853018,0.05987047,-3.07831,0.62509865,-0.00033780548,-0.018411107,0.008091832,-0.0012851463,0.009357867,-0.006499047,-0.0058231954,0.5044365,-1.3809378,1.9035906,-2.0915153,-1.5709032,2.4795856,-0.027658956,0.025796652,-0.031077588,0.015507419,-0.0050928285,-0.021810768,-0.21068975,0.038307227,-9.615114,0.7284641,47.687782,-0.8428569,-2.7287025,-3.3182106,-0.07254651,-0.07789482,-0.21387817,28.5625,29.875,28.9375,32.6875,35.125,36.0625
0.048051935,0.39785808,0.30889612,-0.23785609,-0.031661253,0.05739318,-0.22490539,-0.38968137,-0.36850932,0.059842948,-3.0782752,0.62507075,-0.00041112804,-0.019159168,0.008522164,-0.0013444305,0.009664144,-0.0067339614,-0.0050639147,0.5043882,-1.3808776,1.9035791,-2.091503,-1.5709032,2.4795244,-0.028982753,0.026655518,-0.032069083,0.015993629,-0.005251379,-0.02389273,-0.019153614,0.1340753,-9.519346,0.7239871,47.699425,-0.84083724,-2.664732,-3.3759851,-0.065782726,-0.047051936,-0.23307997,28.5625,29.875,28.9375,32.6875,35.125,36.0625
0.050052512,0.019139372,0.04386309,-0.24070138,-0.026248954,0.03454885,-0.19231036,-0.3896896,-0.3685009,0.05981428,-3.078263,0.6249916,-0.0005198811,-0.021361416,0.008821405,-0.0005112719,0.008739806,-0.0047420072,-0.005636595,0.50435144,-1.3808051,1.9035534,-2.091479,-1.5708793,2.4794397,-0.031441752,0.027492741,-0.034915943,0.015813278,-0.0054145404,-0.025777033,-0.038307227,0.17238252,-9.5385,0.78217715,47.672558,-0.7607212,-2.7395806,-3.418019,-0.08538055,-0.059158664,-0.21982561,28.5625,29.875,28.9375,32.6875,35.125,36.0625
0.052052297,0.6256268,-0.22707674,-0.38428652,-0.028598338,0.029754253,-0.20108876,-0.38979688,-0.3684828,0.05986763,-3.0782785,0.6251284,-0.00035470363,-0.022574898,0.008782739,-3.6323588e-06,0.008330437,-0.0035119436,-0.004261499,0.5042434,-1.3807809,1.9033979,-2.0914552,-1.5709156,2.4794152,-0.032353863,0.028199425,-0.036909975,0.015824737,-0.005653979,-0.02806343,0.019153614,0.24899697,-9.500193,0.69041777,47.668976,-0.8118559,-2.6408377,-3.3352098,-0.06714731,-0.062832266,-0.21354575,28.5625,29.875,28.9375,32.6875,35.125,36.0625
0.054052364,0.75853986,-0.0393132,-0.25028682,-0.040063214,0.026900366,-0.20666106,-0.38982308,-0.36845237,0.059842594,-3.0782187,0.62509704,-0.0004154164,-0.024000091,0.009366597,0.0001955429,0.008627317,-0.0022929723,-0.004456906,0.5041828,-1.3807086,1.9033612,-2.0914195,-1.5709399,2.4793427,-0.034131777,0.028989166,-0.038203534,0.01540641,-0.006509907,-0.029643105,-0.019153614,0.2681506,-9.500193,0.6725152,47.66091,-0.7187593,-2.644259,-3.332003,-0.07589579,-0.07312391,-0.22342505,28.5625,29.875,28.9375,32.6875,35.125,36.0625
0.056052532,0.4158002,-0.277742,-0.242448,-0.040248055,0.02100762,-0.19256537,-0.38988337,-0.36843818,0.059865847,-3.0782087,0.62517244,-0.00037624044,-0.025180917,0.010345893,0.00013780924,0.0101675475,-0.0018823895,-0.005851919,0.50411034,-1.3806722,1.9032544,-2.0913713,-1.5709523,2.4793186,-0.035912007,0.02997933,-0.039371308,0.01597324,-0.008058088,-0.030024793,0.0,0.24899697,-9.442732,0.7016076,47.667187,-0.707016,-2.5917213,-3.4056191,-0.09188558,-0.06002654,-0.23783848,28.5625,29.875,28.9375,32.6875,35.125,36.0625
0.058052335,-0.11276092,-0.3692357,-0.124693155,-0.044183817,0.018090118,-0.19928178,-0.38991633,-0.3683952,0.059833705,-3.07814,0.6251566,-0.00047743367,-0.025928546,0.010055613,0.000672174,0.0101483585,-0.0007323568,-0.0041872575,0.5040147,-1.3805879,1.9032172,-2.0913236,-1.5709642,2.4792218,-0.035778217,0.0304858,-0.041274633,0.016354268,-0.008604381,-0.031552944,-0.05746084,0.2681506,-9.404425,0.8291774,47.689575,-0.6692006,-2.5449815,-3.3927822,-0.08841207,-0.036205806,-0.26360214,28.5625,29.875,28.9375,32.6875,35.125,36.0625
0.06005221,0.029033951,-0.5416515,-0.07422431,-0.04878134,0.04056595,-0.19010702,-0.3899743,-0.36839643,0.059861984,-3.0781834,0.62518334,-0.0004194849,-0.026197312,0.00948353,0.0009416601,0.008937051,-0.00082055735,-0.0025246043,0.5039548,-1.3805637,1.9031214,-2.0913112,-1.5709518,2.4791732,-0.03574928,0.030973058,-0.042521138,0.01660124,-0.0075025964,-0.033188857,-0.05746084,0.36391866,-9.346964,0.79560274,47.689575,-0.8226415,-2.5783672,-3.358084,-0.105981216,-0.05467568,-0.24519947,28.5625,29.875,28.9375,32.6875,35.125,36.0625
0.0620522,-0.009007584,-0.6190511,-0.055612072,-0.038013313,0.04560577,-0.19026984,-0.39003825,-0.36839586,0.05987505,-3.0781915,0.6252244,-0.00039043857,-0.027973387,0.009710668,0.0013963617,0.007878214,7.1495714e-07,-0.0042563034,0.50389415,-1.3804914,1.9030007,-2.0912874,-1.5709518,2.4791372,-0.038112126,0.03213531,-0.044937186,0.016622052,-0.006976955,-0.033820085,-0.038307227,0.2681506,-9.404425,0.7172743,47.688675,-0.7646256,-2.5125346,-3.2847233,-0.095932364,-0.06280504,-0.26696795,28.5625,29.875,28.9375,32.6875,35.125,36.0625
0.064052105,0.1503223,-0.108115725,-0.114808924,-0.03588017,0.045705188,-0.19091155,-0.3900729,-0.36834008,0.05985847,-3.0780985,0.6252243,-0.0004420592,-0.028643683,0.009794517,0.001232139,0.00799738,-0.00018075496,-0.0039716554,0.50379795,-1.380443,1.902965,-2.0912158,-1.571,2.4790528,-0.03886221,0.03342955,-0.04611748,0.016722033,-0.006999908,-0.03485351,-0.11492168,0.22984336,-9.423578,0.779936,47.687782,-0.73210573,-2.4854918,-3.3567755,-0.113584995,-0.091266975,-0.2734515,28.5625,29.875,28.9375,32.6875,35.125,36.0625
0.06605179,0.12205566,0.06714674,0.09447337,-0.030753363,0.045629587,-0.18741079,-0.39015615,-0.36834618,0.059857354,-3.0781271,0.6251913,-0.00037436793,-0.029158257,0.010166255,0.00097467814,0.008207215,-0.0010964788,-0.0041762837,0.5037379,-1.3803223,1.9028329,-2.0912511,-1.5710119,2.4789686,-0.040122405,0.034491044,-0.046940885,0.017385107,-0.006741126,-0.035909507,-0.22984336,0.2681506,-9.308657,0.7709874,47.64389,-0.77922565,-2.45604,-3.3701277,-0.11369969,-0.06405346,-0.30336148,28.5625,29.875,28.9375,32.6875,35.125,36.0625
0.06805243,0.24290866,-0.00012373005,0.22589774,-0.02415788,0.047532115,-0.19495784,-0.39023015,-0.36836022,0.05989109,-3.0781834,0.6252023,-0.0003270086,-0.030345814,0.009935745,0.0014496313,0.0076977634,-0.0002122379,-0.0038237234,0.5036776,-1.3802619,1.9026765,-2.0912154,-1.570988,2.478908,-0.04084568,0.035589732,-0.04939999,0.017725293,-0.0067249844,-0.036984645,-0.21068975,0.22984336,-9.385271,0.7620334,47.691364,-0.76633215,-2.5139802,-3.312027,-0.1164891,-0.099240616,-0.2986679,28.5625,29.875,28.9375,32.6875,35.125,36.0625
0.07005257,0.08090798,0.114285536,0.15839541,-0.015182404,0.046989456,-0.18985258,-0.39028803,-0.36832634,0.05990092,-3.0781503,0.62519324,-0.0003325822,-0.03122891,0.010159808,0.001921189,0.007480358,0.00025350988,-0.0017949628,0.50358146,-1.3802136,1.9025806,-2.091143,-1.5710119,2.4788105,-0.042016305,0.035809025,-0.050909095,0.018499875,-0.0067638406,-0.04018322,-0.15322891,0.2681506,-9.346964,0.7709874,47.682407,-0.8005363,-2.4738927,-3.3172414,-0.12322953,-0.08409509,-0.30473456,28.5625,29.875,28.9375,32.6875,35.125,36.0625
0.07205252,0.088306256,0.30107376,0.13354072,-0.008376026,0.057078212,-0.19281277,-0.3903379,-0.36831975,0.059884377,-3.0781407,0.6252111,-0.00040057136,-0.03207768,0.010708629,0.0019278568,0.0084869005,0.00031955863,-0.0017279881,0.5035092,-1.3801054,1.9024848,-2.0911186,-1.5709885,2.4787507,-0.043154042,0.036751408,-0.052224435,0.019304117,-0.0076807574,-0.041385207,-0.2681506,0.19153613,-9.346964,0.8157518,47.666286,-0.78893924,-2.4409142,-3.3515873,-0.14023134,-0.091918394,-0.29253384,28.5625,29.875,28.9375,32.6875,35.125,36.0625
0.07405253,-0.6328192,0.57437325,0.29640633,-0.012238127,0.052870214,-0.18895282,-0.39038727,-0.36826962,0.059857674,-3.0780642,0.6252146,-0.00045151022,-0.032234382,0.011313544,0.0009615991,0.010318473,-0.0013754262,-0.0027781045,0.50340116,-1.3800205,1.9024371,-2.0910828,-1.5710243,2.4786546,-0.043821935,0.03879307,-0.05260227,0.020009296,-0.008469805,-0.041000348,-0.24899697,0.076614454,-9.385271,0.7105615,47.684196,-0.7322891,-2.4247284,-3.428114,-0.13369751,-0.12441062,-0.3293483,28.5625,29.875,28.9375,32.6875,35.125,36.0625
0.07605257,-0.16879499,0.69775575,0.2343001,-0.008045186,0.071295,-0.19477706,-0.39046553,-0.3682772,0.059900083,-3.0781374,0.6251315,-0.0003503359,-0.03422591,0.011090587,0.0018486689,0.009732487,6.584753e-05,-0.001775683,0.5033409,-1.3799838,1.9022917,-2.091059,-1.5710243,2.4785333,-0.045179226,0.040406056,-0.056755207,0.021003487,-0.008656673,-0.043358557,-0.22984336,-0.038307227,-9.346964,0.77545905,47.655537,-0.8188801,-2.5077565,-3.2737458,-0.1594662,-0.10327854,-0.34597343,28.5625,29.875,28.9375,32.6875,35.125,36.0625
0.07805191,-0.33802179,0.55915767,0.19485219,0.004287786,0.07303519,-0.1904997,-0.39051387,-0.36826465,0.05989131,-3.0781105,0.6251459,-0.00042056976,-0.035546,0.012769223,0.0013914938,0.011833741,-0.000616754,-0.0021039622,0.5032679,-1.3798873,1.9021839,-2.0909984,-1.5710133,2.4784727,-0.048283387,0.04175292,-0.0575523,0.022069639,-0.010171638,-0.046130426,-0.3256114,0.038307227,-9.308657,0.78217715,47.70211,-0.7094629,-2.4406514,-3.2228317,-0.16247231,-0.11093609,-0.34634003,28.5625,29.875,28.9375,32.6875,35.125,36.0625
0.08005206,-0.571333,0.6700522,0.22462593,0.0066210227,0.06993353,-0.18842421,-0.3906098,-0.3682477,0.059906993,-3.0781024,0.6251596,-0.00034211754,-0.034771025,0.012796213,0.0007094699,0.014369951,-0.0017353605,0.003672341,0.5031728,-1.3797908,1.9020284,-2.090974,-1.57105,2.4783874,-0.04654916,0.04288241,-0.057591334,0.023184238,-0.011852956,-0.050169323,-0.40222588,-0.076614454,-9.308656,0.7777002,47.67614,-0.75799346,-2.5563784,-3.354857,-0.19981954,-0.0679596,-0.3126222,28.5625,29.875,28.9375,32.6875,35.125,36.0625
0.08205251,-0.24708815,0.9710687,0.26483536,-0.0025257382,0.082761645,-0.19179302,-0.3906722,-0.36820897,0.059898995,-3.0780575,0.62512964,-0.0003769212,-0.03642237,0.01293012,0.0010038562,0.013914277,-0.0006884808,0.0043528215,0.5030644,-1.3797063,1.9019331,-2.090914,-1.5710739,2.478266,-0.04823364,0.044359628,-0.0599544,0.022930283,-0.011969077,-0.052532244,-0.28730422,0.019153614,-9.32781,0.79560274,47.67345,-0.87214696,-2.4721282,-3.3387446,-0.19912884,-0.078936845,-0.2820416,28.5625,29.875,28.9375,32.6875,35.125,36.0625
0.08405258,-0.44176733,0.67955554,0.16979854,-0.0010144347,0.0777191,-0.18877058,-0.3907548,-0.36819488,0.059905373,-3.0780478,0.6251862,-0.00040332592,-0.03854529,0.0125476355,0.0017837884,0.0125567475,0.0012889289,0.0032083432,0.5029563,-1.3795973,1.9017762,-2.0908544,-1.571062,2.4781945,-0.049698234,0.04600603,-0.06359197,0.022532968,-0.011743276,-0.052850932,-0.4213795,0.019153614,-9.346964,0.7642693,47.68062,-0.7524395,-2.563934,-3.1729162,-0.19564632,-0.08396073,-0.28533712,28.5625,29.875,28.9375,32.6875,35.125,36.0625
0.08605179,0.095886566,0.8177147,0.08962041,-0.01467634,0.08471144,-0.1941866,-0.39079937,-0.36816314,0.059894364,-3.0780094,0.62508047,-0.00042633296,-0.038708437,0.014010143,0.0007724607,0.013318508,-0.0008917618,0.0043917545,0.5028833,-1.3795253,1.9017051,-2.0908062,-1.5710973,2.4780605,-0.05254309,0.046540868,-0.061946854,0.022625145,-0.011361682,-0.05688005,-0.49799395,0.019153614,-9.32781,0.7284641,47.694946,-0.7481563,-2.4645658,-3.2998517,-0.2018118,-0.074501574,-0.27604383,28.5625,29.875,28.9375,32.6875,35.125,36.0625
0.08805216,-0.69908893,0.32095245,0.05821422,-0.01865427,0.067464836,-0.19159141,-0.39088225,-0.3681056,0.059879452,-3.077928,0.62510026,-0.00045041862,-0.039322123,0.013800757,0.0010022788,0.012926019,-0.0014388282,0.007961942,0.50273937,-1.3794167,1.9015969,-2.0907457,-1.5711454,2.4779394,-0.053125616,0.04763811,-0.06406845,0.023931354,-0.010763366,-0.06103252,-0.4405331,0.076614454,-9.423578,0.7530795,47.70211,-0.7204941,-2.4426565,-3.3385928,-0.20789717,-0.10718052,-0.22249356,28.5625,29.875,28.9375,32.6875,35.125,36.0625
0.09005216,-0.033756178,0.6538914,0.22494492,-0.031041699,0.0799657,-0.19525892,-0.39096946,-0.36810592,0.059904017,-3.077988,0.62509036,-0.00040278383,-0.039220598,0.013368216,0.00093996286,0.014221309,-0.0018406516,0.012586712,0.5026442,-1.3793442,1.9014524,-2.0907338,-1.571122,2.4778304,-0.051706374,0.048950482,-0.06579872,0.025327904,-0.011704671,-0.06423589,-0.5554548,0.05746084,-9.442732,0.8179876,47.683304,-0.91127884,-2.5709198,-3.2728105,-0.24779776,-0.09415574,-0.19809712,28.5625,29.875,28.9375,32.6875,35.125,36.0625
0.092052236,-0.4820383,0.32717055,0.024786666,-0.016533382,0.07141475,-0.18502401,-0.39106295,-0.3680851,0.05990858,-3.0779586,0.6249679,-0.0003562623,-0.040631875,0.0143678,0.0012228386,0.01472611,-0.0014352853,0.012510931,0.50255954,-1.3792125,1.9012727,-2.0906737,-1.5711821,2.4776733,-0.054289624,0.049419153,-0.067183115,0.02612785,-0.012346709,-0.06674128,-0.49799395,0.1340753,-9.404425,0.7105615,47.650166,-0.81710064,-2.4597354,-3.2628574,-0.2664337,-0.07636514,-0.14085595,28.5625,29.875,28.9375,32.6875,35.125,36.0625
0.094052255,-0.36659247,0.09335196,-0.09312733,-0.008730305,0.08078333,-0.1849387,-0.39111683,-0.3680691,0.059920378,-3.0779693,0.62487346,-0.000400695,-0.041714314,0.015057747,0.00032277463,0.016369198,-0.0021558728,0.013090024,0.5024751,-1.379151,1.9011539,-2.0905898,-1.5711702,2.4775286,-0.055765115,0.052261762,-0.068472326,0.026000112,-0.013446789,-0.06879213,-0.30645782,0.1340753,-9.385271,0.6971306,47.67166,-0.78755665,-2.5905502,-3.3376777,-0.28055173,-0.07993994,-0.14235517,28.5625,29.875,28.9375,32.6875,35.125,36.0625
0.09605226,-0.23874086,0.38122183,0.10989477,-0.0210944,0.08523751,-0.19166292,-0.39122555,-0.36799765,0.059906024,-3.0778744,0.62500554,-0.0004092197,-0.042151406,0.014764016,0.00016783393,0.016159227,-0.002829627,0.014724995,0.50228345,-1.3790301,1.9010328,-2.090542,-1.5712179,2.4774315,-0.055975135,0.05381619,-0.07008793,0.026542125,-0.012947206,-0.07063678,-0.28730422,0.19153613,-9.3661175,0.72622824,47.674347,-0.83470845,-2.543509,-3.347714,-0.28095955,-0.07109015,-0.0867075,28.5625,29.875,28.9375,32.6875,35.125,36.0625
0.098052055,-0.73778427,-0.45214495,0.22063087,-0.024115115,0.06205805,-0.18153657,-0.3912865,-0.36798394,0.059878424,-3.0778465,0.6248665,-0.00048311,-0.04317218,0.014931759,0.0016495269,0.014946094,-0.0009077968,0.014017584,0.5022111,-1.3788747,1.9009007,-2.090494,-1.5712298,2.477276,-0.057278138,0.05205124,-0.07160758,0.027555693,-0.0128162205,-0.07123154,-0.24899697,0.24899697,-9.308656,0.78217715,47.711063,-0.8603586,-2.4774287,-3.351347,-0.31176293,-0.09373562,-0.06642978,28.5625,29.875,28.9375,32.6875,35.125,36.0625
0.10005218,0.30822554,0.4046742,-0.01690436,-0.05445784,0.06323542,-0.1969462,-0.39139858,-0.36794963,0.05990959,-3.0778556,0.62479097,-0.00037826816,-0.04374565,0.014929014,0.0010728338,0.015341785,-0.0014458682,0.013038137,0.50207925,-1.3788024,1.9007334,-2.0904458,-1.571278,2.477096,-0.057737682,0.05411071,-0.072656095,0.027202366,-0.01290452,-0.070711255,-0.28730422,0.22984336,-9.423578,0.7620334,47.687782,-0.9596756,-2.386481,-3.3666892,-0.3164303,-0.08338936,-0.06610063,28.5625,29.875,28.9375,32.6875,35.125,36.0625
0.10205233,-0.07744855,-0.66618824,-0.26206437,-0.040953513,0.037152693,-0.17816871,-0.39148366,-0.367902,0.059897013,-3.0777874,0.6248343,-0.00042780503,-0.04479873,0.015149718,0.00043679934,0.015903408,-0.0016819171,0.011505172,0.5019352,-1.3786815,1.9006027,-2.0903742,-1.5713023,2.4769878,-0.058834,0.05662637,-0.074045315,0.02655121,-0.013293084,-0.070271894,-0.22984336,0.2681506,-9.404425,0.80679786,47.688675,-0.89741313,-2.4760365,-3.3686347,-0.33091268,-0.08524746,-0.05360809,28.5625,29.875,28.9375,32.6875,35.125,36.0625
0.10405233,0.14965564,-0.6166769,-0.23728116,-0.05030651,0.030890934,-0.18154825,-0.39157432,-0.3678906,0.05990948,-3.0778046,0.6247424,-0.00040217277,-0.04603889,0.015234317,0.00031219143,0.016245652,-0.0007573353,0.009799687,0.50183916,-1.3785721,1.9004339,-2.0903265,-1.5713142,2.4768324,-0.059648868,0.0584346,-0.075735405,0.025788337,-0.014042656,-0.06937865,-0.095768064,0.21068975,-9.3661175,0.779936,47.68599,-0.9305438,-2.5823495,-3.3448932,-0.31277454,-0.06484968,-0.062030576,28.5625,29.875,28.9375,32.6875,35.125,36.0625
0.10605268,0.47686225,-0.4979533,-0.22650047,-0.040587164,0.034234118,-0.1762834,-0.3916786,-0.36784336,0.05989904,-3.0777297,0.6247268,-0.0003710408,-0.04676256,0.014649011,0.001856757,0.013872884,0.0015208332,0.008424951,0.5017074,-1.3784294,1.900278,-2.0902789,-1.5713857,2.4767005,-0.05993069,0.05661226,-0.07711129,0.025838401,-0.01306332,-0.06828733,-0.038307227,0.30645782,-9.3661175,0.7486078,47.690468,-0.99311304,-2.4045846,-3.3862813,-0.3281616,-0.07644269,-0.07857864,28.5625,29.875,28.9375,32.6875,35.125,36.0625
0.10805241,0.5350656,-0.15724899,-0.20445333,-0.032475516,0.027234267,-0.18219554,-0.39178315,-0.36780897,0.059891514,-3.0776978,0.62474066,-0.00033705868,-0.047812153,0.015041032,0.0009847995,0.014604357,-0.0003336311,0.004515644,0.50157505,-1.3782953,1.9001335,-2.0902665,-1.571422,2.476581,-0.061705343,0.05990484,-0.07921034,0.02661908,-0.012814742,-0.06615196,0.019153614,0.30645782,-9.3661175,0.7620334,47.683304,-0.97345185,-2.5123796,-3.402255,-0.326231,-0.083770335,-0.091759846,28.5625,29.875,28.9375,32.6875,35.125,36.0625
0.11005239,0.52163976,-0.023094218,-0.13790314,-0.02488178,0.029174536,-0.17225835,-0.3918651,-0.36777067,0.059888724,-3.0776706,0.62477446,-0.00043476847,-0.048732582,0.014464623,0.0014310096,0.012772508,0.00027857727,0.0022710331,0.5014191,-1.3781871,1.89999,-2.090171,-1.5713972,2.4764497,-0.06238758,0.060685027,-0.081082225,0.026289387,-0.011511145,-0.06459108,0.076614454,0.38307226,-9.3661175,0.8224646,47.67614,-1.0388607,-2.4774776,-3.4195285,-0.3136599,-0.06982272,-0.12966613,28.5625,29.875,28.9375,32.6875,35.125,36.0625
0.11205219,0.83108896,-0.012635553,-0.16974267,-0.032384302,0.0321317,-0.18142135,-0.3919526,-0.3677572,0.05987374,-3.0776615,0.6246961,-0.0004511741,-0.05056411,0.014139144,0.00208257,0.011452238,0.002127771,-0.00016591576,0.501323,-1.3780311,1.899834,-2.0901473,-1.5714096,2.476306,-0.06368751,0.062005054,-0.083985396,0.025614353,-0.011250935,-0.063453004,0.019153614,0.30645782,-9.32781,0.81351066,47.691364,-1.0081325,-2.5234022,-3.134287,-0.33811045,-0.094346896,-0.13519457,28.5625,29.875,28.9375,32.6875,35.125,36.0625
0.11405243,0.5344322,-0.02679333,-0.28362003,-0.03389802,0.024372034,-0.17990294,-0.39206082,-0.36772326,0.059890047,-3.0776277,0.62467045,-0.0003783225,-0.050753616,0.014990253,0.0015964668,0.012174561,0.0010597336,-0.0023716018,0.50120264,-1.377923,1.8996552,-2.0900872,-1.5714692,2.476174,-0.065205105,0.062394124,-0.083418325,0.025937814,-0.0113683455,-0.06276496,0.05746084,0.28730422,-9.385271,0.784413,47.691364,-1.0061005,-2.4029655,-3.3547926,-0.32794136,-0.08559349,-0.19248432,28.5625,29.875,28.9375,32.6875,35.125,36.0625
0.11605254,0.47365576,0.026081093,-0.1639534,-0.04701686,0.025257334,-0.17629212,-0.3921596,-0.36770827,0.05988544,-3.0776381,0.6246731,-0.0004170315,-0.05297289,0.013929188,0.0020943754,0.0113447225,0.0023294496,-0.0032740312,0.5010709,-1.3777775,1.899485,-2.090051,-1.5714453,2.4760427,-0.06552812,0.06611333,-0.08906019,0.026348291,-0.011262611,-0.06218287,-0.019153614,0.24899697,-9.385271,0.784413,47.71017,-1.0582522,-2.588098,-3.1919632,-0.30928633,-0.09075083,-0.21235201,28.5625,29.875,28.9375,32.6875,35.125,36.0625
0.11805212,0.40639156,-0.31857836,-0.37658018,-0.04492247,0.034331262,-0.18010516,-0.39227647,-0.36768594,0.05991611,-3.077623,0.6246294,-0.00031456377,-0.053133387,0.014892583,0.0021906833,0.012311709,0.0028163658,-0.0026084438,0.5009628,-1.3776689,1.8992704,-2.0899794,-1.5715059,2.4759095,-0.06660591,0.06501819,-0.08800238,0.026420578,-0.012342012,-0.063924655,-0.076614454,0.30645782,-9.557653,0.7866488,47.716442,-1.0573056,-2.4307055,-3.2401037,-0.3175857,-0.077313155,-0.24499509,28.5625,29.875,28.9375,32.6875,35.125,36.0625
0.120052114,0.43809724,0.035857487,-0.44385856,-0.058129538,0.04456233,-0.18516,-0.39236563,-0.36765155,0.05989879,-3.077597,0.6246626,-0.00041100406,-0.054144155,0.014278457,0.0030625127,0.010564743,0.0040942794,-0.0022562006,0.50080687,-1.3775254,1.8991264,-2.0899198,-1.5714811,2.4757776,-0.067058004,0.065232955,-0.09027102,0.026510425,-0.011433004,-0.0647296,-0.1340753,0.34476504,-9.5385,0.8112748,47.698532,-1.1153469,-2.463001,-3.2542424,-0.32037783,-0.088002406,-0.24456543,28.5625,29.875,28.9375,32.6875,35.125,36.0625
0.12205233,0.4468004,0.14871344,-0.31228814,-0.062335823,0.071635745,-0.19140248,-0.39247462,-0.36761966,0.059914634,-3.0775836,0.62462133,-0.00036328894,-0.054731365,0.014447124,0.0013437647,0.012017796,0.0011327921,-0.0041695926,0.50067484,-1.3774158,1.8989466,-2.0898592,-1.5715173,2.4756217,-0.06796013,0.069945395,-0.09202693,0.026845852,-0.011287759,-0.063717395,-0.11492168,0.28730422,-9.615114,0.77545905,47.688675,-1.1412027,-2.518054,-3.2120013,-0.31890804,-0.118460335,-0.30183923,28.5625,29.875,28.9375,32.6875,35.125,36.0625
0.124052286,-0.7731416,-0.4731842,-0.4689933,-0.042987794,0.051893625,-0.17495959,-0.39256835,-0.36757687,0.059900634,-3.0775201,0.6246467,-0.00041222107,-0.055125736,0.014734277,0.0018303983,0.011427746,0.0020141795,-0.004356511,0.5005309,-1.3772721,1.8987921,-2.0897877,-1.5715412,2.4755018,-0.06884571,0.06893501,-0.091907434,0.026676305,-0.0111984825,-0.06441582,-0.2681506,0.2873042,-9.519346,0.80679786,47.717335,-1.149655,-2.5106032,-3.2962418,-0.32156432,-0.107286856,-0.31836808,28.5625,29.875,28.9375,32.6875,35.125,36.0625
0.12605229,-0.44919732,0.11309798,-0.424963,-0.04799325,0.074816175,-0.17859331,-0.39266884,-0.36758187,0.05991216,-3.0775394,0.624553,-0.00041290128,-0.05689705,0.0150090875,0.0023253006,0.010479924,0.0034073666,-0.0044405106,0.50044626,-1.3771157,1.8985642,-2.0897162,-1.5715412,2.4753563,-0.07102552,0.06979435,-0.093949765,0.026178932,-0.011043513,-0.06651104,-0.3256114,0.2681506,-9.519346,0.8112748,47.698532,-1.177212,-2.4386382,-3.33141,-0.29525796,-0.13949706,-0.34026164,28.5625,29.875,28.9375,32.6875,35.125,36.0625
0.12805185,-0.42905897,-0.2817232,-0.38950923,-0.031205246,0.07736618,-0.17863894,-0.3927839,-0.36755973,0.05989684,-3.077498,0.62464213,-0.00045663206,-0.057579163,0.014906736,0.0021282276,0.010596662,0.0035838964,-0.0077022035,0.50030255,-1.3769228,1.8983597,-2.0896685,-1.5715412,2.4752736,-0.07134527,0.071293086,-0.095216446,0.02584961,-0.011233648,-0.06356747,-0.34476504,0.21068975,-9.576807,0.8090337,47.698532,-1.1525729,-2.4766412,-3.2826035,-0.30059144,-0.12473896,-0.40507758,28.5625,29.875,28.9375,32.6875,35.125,36.0625
0.13005207,-0.2837552,0.24685016,-0.31951806,-0.040383924,0.07844217,-0.18387216,-0.3929225,-0.36749706,0.05990214,-3.077451,0.6246884,-0.00040878443,-0.059082244,0.013932969,0.0034084371,0.0087043885,0.006414857,-0.0056745997,0.500099,-1.3767909,1.8981804,-2.0896208,-1.5715894,2.475105,-0.0712536,0.071643256,-0.09843292,0.025316196,-0.0109413685,-0.06550278,-0.36391866,0.15322891,-9.557653,0.82022345,47.689575,-1.3624748,-2.4287164,-3.2815354,-0.2833681,-0.1346966,-0.44135487,28.5625,29.875,28.9375,32.6875,35.125,36.0625
0.13205205,-0.4531379,0.26073268,-0.32660744,-0.03292157,0.08265813,-0.17698109,-0.39304954,-0.36748585,0.059928846,-3.0774674,0.6246713,-0.00032600437,-0.060229927,0.015911508,0.002562168,0.010018711,0.005431856,-0.006060557,0.49997813,-1.3766582,1.8979515,-2.0895731,-1.5716141,2.4749715,-0.07519301,0.07254654,-0.09750909,0.024978226,-0.011622668,-0.06905527,-0.34476507,0.15322891,-9.519346,0.7418897,47.652847,-1.2635782,-2.3560967,-3.3332534,-0.26547074,-0.1433123,-0.45369107,28.5625,29.875,28.9375,32.6875,35.125,36.0625
0.13405238,-0.3621655,0.7368807,-0.37953088,-0.027674882,0.08291235,-0.18538354,-0.39316234,-0.36745107,0.05991207,-3.0774472,0.6246447,-0.0003463469,-0.06144564,0.015104512,0.0037231783,0.009472069,0.008001254,-0.0018831762,0.4998225,-1.37649,1.8977846,-2.0895483,-1.5716256,2.474802,-0.074462324,0.073010534,-0.10077646,0.02526161,-0.012386287,-0.0724984,-0.34476504,0.0,-9.653421,0.82022345,47.709274,-1.1978545,-2.331823,-3.3904233,-0.23166423,-0.11654047,-0.45670778,28.5625,29.875,28.9375,32.6875,35.125,36.0625
0.13605253,-0.31266877,0.3849876,-0.30175784,-0.011052456,0.087603725,-0.18216266,-0.3933008,-0.36744145,0.059937816,-3.0774887,0.62463087,-0.0002771514,-0.06181923,0.015557434,0.002940625,0.009836929,0.0066186017,0.0030566335,0.49967843,-1.3763452,1.8975462,-2.089513,-1.5716256,2.4746442,-0.07575378,0.07465228,-0.10092732,0.025150448,-0.0120463325,-0.078730926,-0.38307226,-0.019153614,-9.576807,0.8090337,47.688675,-1.3226273,-2.4024394,-3.299099,-0.20894656,-0.15998207,-0.42925847,28.5625,29.875,28.9375,32.6875,35.125,36.0625
0.13805209,0.030817814,0.8469401,-0.22444649,-0.008315253,0.099447705,-0.18422773,-0.3934181,-0.36740232,0.05992582,-3.0774386,0.62461764,-0.00025729515,-0.06380405,0.01568636,0.004088785,0.009275673,0.009337982,0.0059679337,0.49953425,-1.376177,1.8973659,-2.0894773,-1.5716738,2.4744983,-0.07726786,0.07489176,-0.10383628,0.025157243,-0.012868884,-0.08315281,-0.47884035,-0.019153614,-9.519346,0.78888994,47.65106,-1.288738,-2.2777283,-3.287977,-0.20140146,-0.13949108,-0.3868203,28.5625,29.875,28.9375,32.6875,35.125,36.0625
0.14005205,-0.38028342,1.2924737,-0.41390318,-0.010088029,0.08483763,-0.18537521,-0.3935437,-0.36736307,0.059949048,-3.0774117,0.6245531,-0.00018492593,-0.06472862,0.016188793,0.0037258887,0.00922521,0.0082560815,0.008370066,0.49938974,-1.3760563,1.8971509,-2.089393,-1.5717338,2.474317,-0.07928833,0.076530956,-0.10507959,0.025673565,-0.0123111,-0.087576255,-0.38307226,-0.095768064,-9.5385,0.8247004,47.67614,-1.2224798,-2.2765667,-3.2746403,-0.18792,-0.15055393,-0.36902118,28.5625,29.875,28.9375,32.6875,35.125,36.0625
0.14205205,-2.0273957e-05,0.995534,-0.21395534,-0.0056540202,0.09676841,-0.18841103,-0.39366737,-0.36733696,0.059948172,-3.0774357,0.62457126,-0.00022250946,-0.06579942,0.017131183,0.0037384923,0.009689638,0.008142905,0.015012855,0.49920952,-1.3758999,1.8969592,-2.0893571,-1.5716981,2.4741452,-0.081605814,0.07709262,-0.10591994,0.026267378,-0.012673812,-0.09653528,-0.47884032,-0.095768064,-9.442732,0.7486078,47.64837,-1.3535631,-2.2867234,-3.3497128,-0.18259472,-0.1584268,-0.28443316,28.5625,29.875,28.9375,32.6875,35.125,36.0625
0.14405206,-0.23025663,0.8677937,-0.2963474,-0.01476473,0.09084331,-0.18386869,-0.3938047,-0.36729726,0.059948083,-3.0774062,0.62444943,-0.00017792932,-0.06687241,0.017568182,0.0034052636,0.010032165,0.007651197,0.015961716,0.49905318,-1.3757191,1.8967313,-2.0892975,-1.5717577,2.4739168,-0.08325779,0.078959614,-0.10744469,0.026510663,-0.012745489,-0.09913494,-0.53630114,-0.095768064,-9.404425,0.7597976,47.72271,-1.1954397,-2.2539823,-3.3602784,-0.16088873,-0.16741122,-0.23859875,28.5625,29.875,28.9375,32.6875,35.125,36.0625
0.14605224,-0.16074237,0.6133123,-0.07356515,-0.021192761,0.09999665,-0.18313427,-0.39393198,-0.36725542,0.05993744,-3.0773776,0.6244214,-0.00021051316,-0.067644306,0.01762066,0.0037680608,0.010695507,0.008163071,0.019585272,0.49887353,-1.3755386,1.8965276,-2.089237,-1.5717705,2.4737234,-0.08350941,0.079778954,-0.10950468,0.027614653,-0.013582317,-0.103006706,-0.51714754,0.0,-9.481039,0.8090337,47.666286,-1.3066971,-2.2981951,-3.3613753,-0.14327857,-0.17385003,-0.1976648,28.5625,29.875,28.9375,32.6875,35.125,36.0625
0.1480518,-0.3132159,0.6818343,-0.2938133,-0.023189716,0.10134657,-0.1904614,-0.39410877,-0.3672235,0.059992917,-3.0774436,0.6243408,-3.2771055e-05,-0.06965963,0.02046929,0.0027713848,0.01301516,0.0055773025,0.015646204,0.4986796,-1.3754297,1.896264,-2.0892003,-1.5718068,2.473471,-0.0896249,0.08208935,-0.110435955,0.029610049,-0.014369653,-0.10518228,-0.5554548,-0.05746084,-9.500193,0.74413085,47.66539,-1.1070383,-2.2258468,-3.3149054,-0.12738842,-0.17215097,-0.15011439,28.5625,29.875,28.9375,32.6875,35.125,36.0625
0.15005171,-0.2143222,0.73780406,-0.30597293,-0.019562196,0.1015408,-0.18214326,-0.3942328,-0.3671647,0.059971772,-3.0773787,0.62432504,-7.031459e-05,-0.06931321,0.019697439,0.0028553642,0.013677839,0.0051240386,0.017274875,0.49848908,-1.3752494,1.8960842,-2.0891397,-1.571843,2.473279,-0.08775108,0.08309281,-0.11215365,0.031034393,-0.014741844,-0.10493467,-0.49799395,-0.019153614,-9.423578,0.7709874,47.677036,-1.1917902,-2.2838273,-3.3884747,-0.14095315,-0.16236818,-0.14623791,28.5625,29.875,28.9375,32.6875,35.125,36.0625
0.15205179,-0.1657161,0.777589,0.06985478,-0.024441516,0.104595,-0.18974411,-0.3943458,-0.3671503,0.059978567,-3.0773952,0.62419593,-6.1096405e-05,-0.070345044,0.021020282,0.0026291516,0.0144319255,0.0044177556,0.011698302,0.49836802,-1.375093,1.8958696,-2.08908,-1.5718545,2.4730754,-0.09069798,0.083688244,-0.112529546,0.031796962,-0.015063373,-0.10230403,-0.61291564,0.05746084,-9.404425,0.7911258,47.650166,-1.1808114,-2.2998466,-3.3603916,-0.11996037,-0.16698152,-0.14429398,28.5625,29.875,28.9375,32.6875,35.125,36.0625
0.15405202,-0.4675786,0.6470004,0.07370727,-0.02235571,0.09647595,-0.17966904,-0.3945052,-0.36710414,0.05998755,-3.0773659,0.6242895,-5.134719e-05,-0.07268831,0.021447422,0.0026190192,0.014508071,0.0047357455,0.0051539685,0.4981515,-1.3749115,1.8956174,-2.0890076,-1.5718669,2.4729211,-0.093395725,0.086798035,-0.11630969,0.0322252,-0.0152863655,-0.09845494,-0.7086837,0.019153614,-9.308657,0.84708,47.698532,-1.0301731,-2.290649,-3.2948015,-0.10601479,-0.17742586,-0.18889852,28.5625,29.875,28.9375,32.6875,35.125,36.0625
0.15605249,-0.37841225,0.378597,-0.17244871,-0.011401125,0.08260272,-0.18023291,-0.39463413,-0.36705586,0.059991058,-3.0773447,0.62423015,-8.4500774e-05,-0.07260615,0.02274396,0.002409037,0.014710499,0.0032239838,-0.0016609957,0.49795923,-1.3747559,1.8954028,-2.0889118,-1.5718788,2.4726946,-0.09580768,0.08571392,-0.1147772,0.03320079,-0.014736053,-0.09405365,-0.59376204,0.038307227,-9.404425,0.8537928,47.690468,-0.96165764,-2.3983858,-3.4987092,-0.08108331,-0.1732861,-0.22979963,28.5625,29.875,28.9375,32.6875,35.125,36.0625
0.1580516,-0.33366606,0.3561491,-0.09544524,-0.015271981,0.073544614,-0.17155865,-0.3947971,-0.36701265,0.060002834,-3.077327,0.62420833,-8.559278e-06,-0.07501214,0.023177018,0.0037356832,0.0141633395,0.0058818543,-0.005809719,0.4977668,-1.3745756,1.895151,-2.0888636,-1.571927,2.472491,-0.09821584,0.08601266,-0.1183049,0.03383092,-0.01552737,-0.0923101,-0.4213795,0.038307227,-9.3661175,0.74413085,47.666286,-0.8968577,-2.1673894,-3.263626,-0.08593887,-0.19606444,-0.2773521,28.5625,29.875,28.9375,32.6875,35.125,36.0625
0.16005252,0.30246454,0.682588,0.066772506,-0.024714699,0.0773645,-0.1859316,-0.39496744,-0.36696374,0.060011033,-3.0772874,0.6242961,3.719954e-05,-0.07559538,0.024297211,0.0010129858,0.016670095,0.0008205792,-0.007745098,0.49755037,-1.3743811,1.8948878,-2.0888035,-1.5719627,2.4723346,-0.100726835,0.09187387,-0.11925323,0.03455401,-0.015315082,-0.09288518,-0.45968673,-0.019153614,-9.270349,0.779936,47.683304,-0.74916553,-2.4520764,-3.4683752,-0.061693586,-0.18015721,-0.31378478,28.5625,29.875,28.9375,32.6875,35.125,36.0625
0.16205177,0.11169887,0.7476489,0.10768016,-0.013600466,0.07107201,-0.17919302,-0.39514315,-0.36689764,0.06001651,-3.0772276,0.6243205,0.0001109339,-0.07726813,0.023999589,0.0030345302,0.015091831,0.004264129,-0.007414252,0.49732274,-1.37419,1.8946346,-2.088743,-1.5720347,2.47213,-0.101555035,0.0904571,-0.12234548,0.035273023,-0.015578577,-0.09404271,-0.51714754,0.076614454,-9.251195,0.80456203,47.68599,-0.8088915,-2.1818187,-3.349195,-0.07203398,-0.18677007,-0.31758118,28.5625,29.875,28.9375,32.6875,35.125,36.0625
0.16405183,0.2384726,1.0551244,0.11104599,-0.016435225,0.08048401,-0.18643215,-0.39525712,-0.3668552,0.05999871,-3.0771794,0.62431073,4.808478e-05,-0.07808713,0.024143679,0.0025413085,0.01510286,0.0026489536,-0.008091657,0.4971545,-1.3740087,1.8944434,-2.088671,-1.5720471,2.471962,-0.10298622,0.09288983,-0.124355465,0.036267698,-0.014827246,-0.0947964,-0.51714754,0.038307227,-9.251195,0.80679786,47.705692,-0.7750599,-2.2725036,-3.3522344,-0.0334507,-0.20003563,-0.30094612,28.5625,29.875,28.9375,32.6875,35.125,36.0625
0.16605191,0.37138647,0.9042957,0.032898694,-0.013529406,0.09363809,-0.18683133,-0.3954325,-0.3668093,0.060004517,-3.0771482,0.6243231,8.112524e-05,-0.07852231,0.024506072,0.002762467,0.015929673,0.0024646665,-0.008804327,0.49693877,-1.3737923,1.8941568,-2.088599,-1.5720829,2.4717581,-0.10355328,0.09324735,-0.12563314,0.037740093,-0.015466605,-0.09464875,-0.45968673,0.038307227,-9.251195,0.779936,47.666286,-0.75204575,-2.2737641,-3.3093293,-0.035275348,-0.20700209,-0.36042893,28.5625,29.875,28.9375,32.6875,35.125,36.0625
0.1680524,0.15528156,0.6194735,0.21747428,-0.019167114,0.09823219,-0.18895656,-0.39559415,-0.36674577,0.060008146,-3.0770977,0.6244064,7.707364e-05,-0.07909445,0.024882108,0.0026549587,0.016733387,0.0018043818,-0.007966071,0.49669898,-1.3736119,1.893915,-2.0885146,-1.5721072,2.471577,-0.10442076,0.09440603,-0.12705617,0.038961098,-0.01586418,-0.09635251,-0.36391866,0.076614454,-9.308657,0.7642693,47.689575,-0.8442424,-2.1909983,-3.2634244,-0.007940554,-0.23384935,-0.3711621,28.5625,29.875,28.9375,32.6875,35.125,36.0625
0.17005245,-0.21433909,0.41228613,-0.049599994,-0.021470243,0.08145762,-0.1859965,-0.3957403,-0.36671948,0.060027543,-3.0770946,0.6243479,0.00013689279,-0.08057517,0.024259018,0.0030313507,0.017576111,0.002316852,-0.0079164365,0.49654347,-1.3734425,1.8936533,-2.088442,-1.5721434,2.4713855,-0.104081675,0.09747053,-0.13197589,0.040765386,-0.016854543,-0.09605862,-0.22984336,0.24899697,-9.3661175,0.8403672,47.67614,-0.9118786,-2.3902252,-3.3032546,-0.02313948,-0.2089614,-0.3823954,28.5625,29.875,28.9375,32.6875,35.125,36.0625
0.17205231,-0.05768128,-0.33944598,-0.007705756,-0.02515061,0.065356396,-0.17751935,-0.39591053,-0.36665934,0.060023822,-3.0770109,0.62442005,0.00012531248,-0.07978817,0.024604728,0.0028851398,0.017792573,0.0013479302,-0.00033360886,0.49631616,-1.3732148,1.8933667,-2.0883343,-1.5721911,2.471214,-0.10405957,0.0963796,-0.13048685,0.041301906,-0.0165937,-0.103620075,-0.21068975,0.22984336,-9.346964,0.85826975,47.668976,-0.9824815,-2.1995153,-3.3494968,-0.03266425,-0.22366562,-0.3616662,28.5625,29.875,28.9375,32.6875,35.125,36.0625
0.17405224,0.52452815,-0.063076146,-0.020046627,-0.0411147,0.055277735,-0.18505551,-0.39607677,-0.3665958,0.060030334,-3.0769885,0.62437624,0.00018372716,-0.08153282,0.0256013,0.0013279617,0.019526025,-0.0021711478,0.00014213147,0.49608722,-1.3730445,1.8931383,-2.0882852,-1.5722393,2.4709609,-0.10737675,0.10190427,-0.13394555,0.043140903,-0.016451392,-0.10741149,-0.05746084,0.22984336,-9.32781,0.78217715,47.70838,-0.7662991,-2.4695814,-3.2706015,-0.025769962,-0.23292542,-0.35937423,28.5625,29.875,28.9375,32.6875,35.125,36.0625
0.17605227,0.484412,-0.16748874,-0.07564088,-0.03327414,0.031928908,-0.18395093,-0.39624494,-0.366555,0.060018767,-3.076943,0.62436104,0.0001231129,-0.08150744,0.024771199,0.003030247,0.019470304,-0.00016069318,0.008775498,0.4958726,-1.3727812,1.8928269,-2.0881774,-1.5722517,2.4707427,-0.10534171,0.10017472,-0.1362967,0.045415282,-0.017375436,-0.114006005,-0.038307227,0.21068975,-9.212888,0.7642693,47.66808,-1.0244863,-2.2161934,-3.1837842,-0.047877386,-0.21852511,-0.27747697,28.5625,29.875,28.9375,32.6875,35.125,36.0625
0.1780525,1.0811057,0.23654284,-0.1744774,-0.040206235,0.04222383,-0.18822609,-0.39642727,-0.36649272,0.0600512,-3.0769324,0.6243763,0.00022558212,-0.08348362,0.026381575,0.0015036619,0.020843942,-0.0023848296,0.010716441,0.49563125,-1.3726355,1.8925637,-2.0881054,-1.5722998,2.4705124,-0.109706104,0.10441787,-0.1378654,0.045331616,-0.017533874,-0.12031047,-0.076614454,0.24899697,-9.270349,0.78888994,47.681515,-0.7747644,-2.4486341,-3.2165594,-0.028133102,-0.22055721,-0.21213922,28.5625,29.875,28.9375,32.6875,35.125,36.0625
0.18005261,0.5586971,0.16804796,-0.19575085,-0.02858114,0.03351254,-0.18693712,-0.39655396,-0.36642304,0.060003452,-3.0768328,0.62421703,9.811186e-05,-0.08381877,0.02625828,0.002096142,0.021009145,-0.002614457,0.01558931,0.49542803,-1.3723832,1.8923477,-2.0879967,-1.5723475,2.4702227,-0.109732665,0.104615286,-0.13995932,0.047491696,-0.017595734,-0.12520662,-0.05746084,0.2681506,-9.32781,0.83813137,47.682407,-0.9278611,-2.3912237,-3.1291234,-0.017381463,-0.24081299,-0.12902808,28.5625,29.875,28.9375,32.6875,35.125,36.0625
0.1820526,0.51133084,0.029141476,-0.29548258,-0.03059794,0.03598367,-0.1824209,-0.39674217,-0.36638093,0.060036585,-3.076847,0.62419844,0.00017411045,-0.083440214,0.02646159,0.0008166154,0.02226537,-0.0071007204,0.017193392,0.49520028,-1.3722018,1.8920373,-2.0879118,-1.5723714,2.4699817,-0.1103183,0.107739985,-0.14143628,0.050373998,-0.016565606,-0.12739913,-0.05746084,0.30645782,-9.289502,0.8247004,47.668976,-0.9165132,-2.4182458,-3.1191525,-0.061521173,-0.23478156,-0.1050124,28.5625,29.875,28.9375,32.6875,35.125,36.0625
0.18405248,0.31674936,-0.34503332,-0.18818869,-0.03250627,0.040269002,-0.17389347,-0.39689648,-0.36631614,0.060011785,-3.076774,0.6241457,0.00010543227,-0.08268524,0.026955599,0.0005189919,0.024519017,-0.010910105,0.014709835,0.49497283,-1.3719614,1.8917855,-2.0878146,-1.5724071,2.4697309,-0.11030879,0.10874677,-0.14313415,0.05548446,-0.016742516,-0.12490382,-0.19153613,0.30645782,-9.270349,0.76874626,47.67345,-0.9923943,-2.5051079,-3.1514468,-0.10953058,-0.2494362,-0.07688471,28.5625,29.875,28.9375,32.6875,35.125,36.0625
0.18605208,0.7072886,-0.026663896,-0.30540755,-0.03749168,0.04499995,-0.17887862,-0.39706236,-0.3662814,0.060041297,-3.076734,0.624081,0.00012408891,-0.08397141,0.02666876,0.001621181,0.02385171,-0.009413785,0.009983626,0.49479306,-1.371757,1.8914374,-2.0876467,-1.5724553,2.469516,-0.11087703,0.10903902,-0.1462824,0.05670553,-0.016870977,-0.12074397,-0.095768064,0.30645782,-9.270349,0.76874626,47.657326,-0.9491695,-2.3865454,-3.121964,-0.14962801,-0.25831804,-0.13510202,28.5625,29.875,28.9375,32.6875,35.125,36.0625
0.18805233,0.9001235,-0.08022074,-0.1697289,-0.042589046,0.052328613,-0.18978034,-0.3971999,-0.36620447,0.059986938,-3.0766346,0.62400526,-3.075732e-05,-0.082684144,0.028109403,-0.00032803984,0.026102629,-0.0139569165,0.003943712,0.4945533,-1.3714924,1.8912243,-2.0875509,-1.5724791,2.4692419,-0.11218889,0.11009708,-0.14338551,0.057818666,-0.016702345,-0.11601505,-0.019153614,0.24899697,-9.270349,0.8247004,47.68062,-1.1620126,-2.4967668,-3.2486205,-0.15717281,-0.25979203,-0.17979369,28.5625,29.875,28.9375,32.6875,35.125,36.0625
0.19005243,0.51095915,-0.549698,-0.12437384,-0.041486077,0.042659357,-0.17065969,-0.39739105,-0.36616167,0.06000583,-3.0766046,0.62392324,3.582769e-07,-0.08293015,0.028342348,-0.00042415105,0.027434696,-0.01519641,-0.00028247014,0.49433744,-1.3712516,1.8908647,-2.0874183,-1.5725278,2.468979,-0.11239316,0.11140572,-0.14526486,0.06011281,-0.017286442,-0.11199047,-0.076614454,0.22984336,-9.289503,0.83589023,47.689575,-1.0156212,-2.363491,-3.1526833,-0.21572764,-0.28324395,-0.22767091,28.5625,29.875,28.9375,32.6875,35.125,36.0625
0.19205245,0.13626043,-0.019322395,-0.18244115,-0.038031206,0.02944368,-0.17027229,-0.3975839,-0.36611447,0.06003107,-3.0765853,0.6239979,4.9083967e-05,-0.08364218,0.028867563,-0.0004032059,0.027842684,-0.015548177,-0.0044427416,0.49409744,-1.3710471,1.8905419,-2.0873215,-1.5725516,2.4687881,-0.11375133,0.11212212,-0.14639147,0.061025374,-0.017478889,-0.10918772,0.0,0.11492168,-9.3661175,0.85826975,47.666286,-1.1157578,-2.3985498,-3.2884974,-0.24566868,-0.27963433,-0.28631732,28.5625,29.875,28.9375,32.6875,35.125,36.0625
0.1940518,0.583187,0.6138871,-0.16466396,-0.032353885,0.039508767,-0.1757344,-0.39775375,-0.3660485,0.06001719,-3.076507,0.62396264,3.6947276e-05,-0.08458362,0.029617338,-0.0001628709,0.027960587,-0.014816671,-0.007968967,0.4938694,-1.3708072,1.8902663,-2.0872266,-1.5726117,2.4685483,-0.11553409,0.11201961,-0.14682542,0.06096821,-0.017940437,-0.10744173,-0.05746084,0.17238252,-9.346964,0.8403672,47.71465,-1.0723764,-2.3230405,-3.4276736,-0.2601212,-0.28090906,-0.35331678,28.5625,29.875,28.9375,32.6875,35.125,36.0625
0.19605196,0.4151969,0.53227323,-0.07212188,-0.006638919,0.036229797,-0.17881057,-0.39790833,-0.36598796,0.059995737,-3.0764134,0.624059,-4.4367564e-05,-0.08601044,0.029026449,-0.00024310703,0.02670786,-0.0147258835,-0.0097928215,0.49364164,-1.3705657,1.8900031,-2.0871189,-1.572635,2.4683928,-0.11643982,0.11479922,-0.14989112,0.06057223,-0.016901638,-0.1065237,-0.019153614,0.095768064,-9.346964,0.87393653,47.690468,-1.0772513,-2.5422173,-3.4778924,-0.27726945,-0.2992645,-0.36900598,28.5625,29.875,28.9375,32.6875,35.125,36.0625
0.19805211,0.86979336,1.1163476,-0.19738095,0.0002063481,0.040123962,-0.18238848,-0.39808804,-0.3659377,0.0600028,-3.0763812,0.62401366,-9.252657e-05,-0.085731305,0.029664347,-0.0011165845,0.026620077,-0.015788935,-0.01181352,0.4934017,-1.3703258,1.8896688,-2.0869753,-1.5726475,2.468129,-0.11755958,0.11491573,-0.14776152,0.059215188,-0.016329227,-0.10562449,0.05746084,-0.076614454,-9.346964,0.8537928,47.709274,-1.1064556,-2.2744668,-3.5855608,-0.26707774,-0.31046388,-0.45554006,28.5625,29.875,28.9375,32.6875,35.125,36.0625
0.20005251,0.7005782,1.0670537,-0.019985616,0.0005538038,0.04208457,-0.17656805,-0.39823753,-0.3658783,0.05997103,-3.076292,0.6240901,-0.00019985421,-0.087201826,0.029712277,-0.00022120237,0.026810674,-0.014526601,-0.011117253,0.4931739,-1.370073,1.889418,-2.086879,-1.5726599,2.4679604,-0.11844389,0.11573033,-0.15114051,0.06075282,-0.017117769,-0.10719966,-0.114921674,-0.038307227,-9.3661175,0.78888994,47.666286,-1.1730726,-2.3801603,-3.4220753,-0.29189536,-0.3280384,-0.49161065,28.5625,29.875,28.9375,32.6875,35.125,36.0625
0.20205177,0.38457668,0.89196444,-0.15769593,0.0017594516,0.048450228,-0.17767125,-0.3984563,-0.36583415,0.060027353,-3.076281,0.6241037,-4.060838e-05,-0.08923684,0.02967096,0.00011981721,0.025704406,-0.012239348,-0.009076097,0.49294582,-1.3698804,1.8890337,-2.0867603,-1.5727319,2.4677424,-0.120085955,0.117300786,-0.1533819,0.05886684,-0.01723915,-0.110882536,-0.038307227,-0.11492168,-9.32781,0.8023209,47.684196,-1.0541648,-2.355492,-3.4243138,-0.29872972,-0.3373266,-0.476083,28.5625,29.875,28.9375,32.6875,35.125,36.0625
0.20405184,0.6432954,1.3703004,-0.45879883,-0.0140962,0.0697347,-0.18318221,-0.39863166,-0.36576283,0.060015388,-3.0762227,0.6240659,-0.00010655674,-0.09108825,0.030082086,0.00048046396,0.025387865,-0.009993001,-0.00095567637,0.49268186,-1.3696399,1.8887471,-2.086641,-1.5727557,2.4674625,-0.12189283,0.11822009,-0.15499209,0.057404548,-0.018061569,-0.120805115,-0.05746084,-0.17238252,-9.500193,0.8179876,47.67614,-1.0854632,-2.3062787,-3.4497695,-0.27730843,-0.3391223,-0.4316662,28.5625,29.875,28.9375,32.6875,35.125,36.0625
0.20605175,-0.34940296,0.5730496,-0.50866693,-0.021139126,0.07417802,-0.17742468,-0.39880016,-0.36570615,0.059996776,-3.0761504,0.6241049,-0.00019708517,-0.09307761,0.030452583,0.0017017499,0.023984319,-0.0069714463,0.003858787,0.49244162,-1.3693758,1.8884476,-2.0865214,-1.5727681,2.467256,-0.12412408,0.11757205,-0.15683089,0.05654598,-0.01828767,-0.12784798,-0.30645782,-0.076614454,-9.5385,0.800085,47.667187,-1.0033622,-2.236442,-3.4554195,-0.28872424,-0.36342508,-0.38505572,28.5625,29.875,28.9375,32.6875,35.125,36.0625
0.20805182,-0.865633,0.05861519,-0.54099333,-0.035178773,0.09117029,-0.1894703,-0.3989901,-0.36564836,0.060025632,-3.0761216,0.6240155,-0.00016940419,-0.09315647,0.030624121,2.0252879e-05,0.025775975,-0.009977836,0.01365691,0.49220213,-1.3691701,1.8881015,-2.0863655,-1.5728158,2.4669647,-0.12431551,0.121592514,-0.1579489,0.05710911,-0.018471994,-0.13783571,-0.4405331,0.114921674,-9.595961,0.80679786,47.66987,-1.0536188,-2.3706734,-3.4918456,-0.30954418,-0.35568023,-0.25942636,28.5625,29.875,28.9375,32.6875,35.125,36.0625
0.21005176,-0.9488555,-0.2694324,-0.7187332,-0.05025822,0.12182551,-0.18659033,-0.39915082,-0.3655758,0.060014375,-3.0760496,0.6239015,-0.0002879656,-0.09547406,0.03038146,0.0014812194,0.02381493,-0.0045573283,0.01802176,0.49194992,-1.3689305,1.887801,-2.0861876,-1.5728401,2.4666507,-0.12541243,0.12085879,-0.15968825,0.053861957,-0.019347612,-0.1432916,-0.57460845,0.17238252,-9.710882,0.80679786,47.657326,-0.95596844,-2.1787958,-3.480249,-0.2828641,-0.3807993,-0.20717867,28.5625,29.875,28.9375,32.6875,35.125,36.0625
0.21205205,-1.3899772,-0.52822727,-0.85580146,-0.058352083,0.13592114,-0.18389654,-0.3993481,-0.3655071,0.059997585,-3.0759907,0.62384933,-0.00030087115,-0.0976545,0.03091329,0.0012049531,0.02323492,-0.0032023906,0.017983764,0.49168596,-1.3686532,1.8874897,-2.0861042,-1.5728883,2.466362,-0.12812059,0.12319225,-0.16139996,0.05175491,-0.01950122,-0.14595917,-0.6895301,0.22984336,-9.921572,0.92764956,47.67166,-1.0921896,-2.366499,-3.4349065,-0.27234012,-0.39403665,-0.15589897,28.5625,29.875,28.9375,32.6875,35.125,36.0625
0.214052,-1.2756596,-0.585451,-0.8984348,-0.07349188,0.15200719,-0.18070178,-0.3995324,-0.3654693,0.060014233,-3.0759845,0.62378854,-0.0002791807,-0.099342205,0.029387865,0.0018196591,0.021495543,-0.0004497801,0.017999185,0.4914707,-1.3684242,1.8871545,-2.0859973,-1.5729121,2.4661098,-0.12716681,0.12561463,-0.16531923,0.04999789,-0.019280545,-0.14501962,-0.7661445,0.22984336,-9.844957,0.8314132,47.71554,-1.1028888,-2.3632832,-3.2510362,-0.2554118,-0.3938827,-0.12039194,28.5625,29.875,28.9375,32.6875,35.125,36.0625
0.21605216,-1.6922103,-0.8664788,-0.6985948,-0.077421516,0.1429791,-0.17506182,-0.39974788,-0.3654112,0.060021188,-3.075939,0.6237259,-0.00018116157,-0.10138798,0.029269127,0.002148417,0.02144989,0.002038564,0.010228237,0.49123093,-1.3681592,1.8868064,-2.0859263,-1.572997,2.465837,-0.12805219,0.12771626,-0.16830382,0.048668332,-0.020410456,-0.1381288,-1.0342951,0.30645782,-9.787497,0.86498255,47.66808,-1.1088483,-2.1823332,-3.4449503,-0.21557645,-0.40269914,-0.20332018,28.5625,29.875,28.9375,32.6875,35.125,36.0625
0.2180523,-0.85396886,-0.3990936,-0.6578047,-0.06836578,0.14963757,-0.18194242,-0.39994925,-0.36534512,0.06001921,-3.0759122,0.62378097,-0.00024183968,-0.10217176,0.030232834,0.0006009404,0.023619382,0.0006790491,0.0038431436,0.49093097,-1.3679057,1.886484,-2.0858185,-1.572985,2.465575,-0.1295222,0.13102505,-0.16858308,0.047872134,-0.021682942,-0.13320777,-0.9576807,0.3256114,-9.768343,0.800085,47.639416,-1.0682186,-2.3260663,-3.329255,-0.20207238,-0.39351004,-0.2435215,28.5625,29.875,28.9375,32.6875,35.125,36.0625
0.22005218,-0.73468655,-0.2373083,-0.9110863,-0.055333056,0.13246942,-0.18247129,-0.40016928,-0.36525586,0.060005452,-3.075802,0.6237979,-0.00020606148,-0.10469276,0.031266365,0.00071733305,0.023390546,0.0021968833,-0.0014791198,0.49064228,-1.367617,1.8861493,-2.0857236,-1.5730814,2.4653113,-0.13313301,0.13278168,-0.1707398,0.046812728,-0.022209385,-0.13149229,-0.7278373,0.21068975,-9.768343,0.90527004,47.653748,-1.0211481,-2.3976836,-3.3298476,-0.15989196,-0.4126808,-0.3020751,28.5625,29.875,28.9375,32.6875,35.125,36.0625
0.22205213,-0.5975607,-0.36145532,-0.6936035,-0.048825447,0.11576132,-0.1741612,-0.4003665,-0.36520442,0.06001381,-3.075775,0.62373227,-0.00013591128,-0.10550094,0.030177161,0.0013080894,0.022582632,0.0039595063,-0.00022159035,0.49041533,-1.3673763,1.8858265,-2.0856512,-1.5731415,2.4650471,-0.13189459,0.13396135,-0.17341995,0.046365485,-0.02233461,-0.13151,-0.7278373,0.19153613,-9.730036,0.8851263,47.63315,-1.0975573,-2.3902164,-3.236127,-0.13227527,-0.41030335,-0.328189,28.5625,29.875,28.9375,32.6875,35.125,36.0625
0.22405227,-0.48846847,-0.22675669,-0.4943615,-0.042057473,0.10315103,-0.17467478,-0.4006195,-0.36514685,0.060046095,-3.075801,0.62387204,-3.6620637e-05,-0.107230306,0.031033074,0.0012033728,0.02311063,0.0040041637,-0.0031040618,0.4900912,-1.3671355,1.8854545,-2.0856035,-1.5731419,2.464807,-0.13450246,0.1359188,-0.17565778,0.046850402,-0.022816034,-0.1312345,-0.8236054,0.21068975,-9.615114,0.8291774,47.653748,-0.95630395,-2.4116411,-3.3914237,-0.11088528,-0.41148877,-0.3415323,28.5625,29.875,28.9375,32.6875,35.125,36.0625
0.22605234,-0.06996245,0.29861987,-0.3902048,-0.040635377,0.11226549,-0.184764,-0.40081596,-0.36509332,0.060027152,-3.075733,0.6238746,-0.00010499883,-0.10680859,0.032248754,-5.3096304e-05,0.025902025,0.0013615758,-0.0028613468,0.48983958,-1.3668227,1.8850969,-2.0854833,-1.5731663,2.464566,-0.13533649,0.13731766,-0.17482506,0.04825715,-0.024044778,-0.13230544,-0.7661445,0.19153613,-9.500193,0.82022345,47.66091,-1.0730977,-2.414493,-3.42245,-0.09152196,-0.41983885,-0.37276605,28.5625,29.875,28.9375,32.6875,35.125,36.0625
0.22805181,-0.05332667,0.12782016,-0.40614325,-0.018836597,0.11272582,-0.17451121,-0.40105712,-0.3650316,0.060042564,-3.0757113,0.62380904,5.5230794e-06,-0.10707386,0.032989357,-0.00184434,0.028952265,-0.0017633488,0.0008890957,0.48956397,-1.366545,1.8847135,-2.0854108,-1.5732387,2.4642525,-0.13598105,0.14152795,-0.17609172,0.049483232,-0.025274904,-0.13669594,-0.47884035,0.095768064,-9.519346,0.8627467,47.675243,-1.0454082,-2.5590124,-3.3733816,-0.0794373,-0.40923697,-0.36669236,28.5625,29.875,28.9375,32.6875,35.125,36.0625
0.23005217,-0.39755687,0.19691858,-0.06712734,-0.017715968,0.10019671,-0.18312715,-0.40129822,-0.3649714,0.06006143,-3.075721,0.62372947,0.00010932474,-0.10862094,0.03315693,0.00040213423,0.0277672,0.0019556812,0.0067821066,0.4892761,-1.3662817,1.8843426,-2.0853508,-1.5732869,2.463914,-0.1371262,0.13902818,-0.17847037,0.050493,-0.025991686,-0.14373249,-0.40222588,0.095768064,-9.385271,0.8940802,47.692257,-1.0644095,-2.3137712,-3.3862567,-0.06525376,-0.40017328,-0.31093824,28.5625,29.875,28.9375,32.6875,35.125,36.0625
0.23205207,0.19669674,0.8312326,0.54563856,-0.015583513,0.095025234,-0.1826772,-0.4015201,-0.36492243,0.060083035,-3.075726,0.62362915,0.00019663542,-0.10911498,0.033724513,-0.00021569207,0.029205313,0.0011162417,0.014222767,0.48902446,-1.3660287,1.883972,-2.0852673,-1.573335,2.4635992,-0.13789818,0.14076541,-0.17927355,0.050944164,-0.026881898,-0.15194249,-0.2681506,-0.05746084,-9.078813,0.8560339,47.67345,-1.1148874,-2.5776346,-3.4241033,-0.053565353,-0.3976553,-0.21101293,28.5625,29.875,28.9375,32.6875,35.125,36.0625
0.23405218,0.70671105,1.3195298,0.46601066,0.011278752,0.07048755,-0.19336809,-0.4017505,-0.36482203,0.060059637,-3.0756142,0.62369657,0.00021647128,-0.1099181,0.03336804,-0.00024433166,0.029008191,0.0006345418,0.021383593,0.48870093,-1.3657278,1.8836492,-2.0851943,-1.5734185,2.4633324,-0.13817075,0.14282578,-0.18190561,0.051806137,-0.02651243,-0.15937474,-0.05746084,-0.095768064,-9.059659,0.7530795,47.668976,-1.0570421,-2.4128206,-3.357469,-0.011060567,-0.39672637,-0.10947847,28.5625,29.875,28.9375,32.6875,35.125,36.0625
0.2360523,1.595056,2.1697645,0.48189405,0.030093927,0.0406902,-0.18297851,-0.40199775,-0.36476752,0.060076468,-3.0755992,0.6236138,0.00030310205,-0.1110183,0.03385694,-0.00030121257,0.029960573,0.0012858474,0.024051651,0.48842523,-1.3654269,1.8832296,-2.085099,-1.573479,2.4630072,-0.13917951,0.14415675,-0.18340875,0.051827505,-0.027669586,-0.16304749,0.11492168,-0.19153613,-9.078813,0.7911258,47.651955,-1.1186041,-2.4713547,-3.331293,0.017926633,-0.41455042,-0.041751694,28.5625,29.875,28.9375,32.6875,35.125,36.0625
0.23805256,1.8701267,2.1830459,0.67111546,0.046705402,0.019695291,-0.18186775,-0.4022291,-0.36470342,0.060091164,-3.0755985,0.62355745,0.0003390065,-0.11250586,0.03390382,0.00062766677,0.030863926,0.0038215867,0.01909873,0.48812586,-1.3651628,1.8828586,-2.0850031,-1.5735039,2.462673,-0.13928527,0.14476837,-0.18641406,0.05241399,-0.029654192,-0.15819259,0.019153614,-0.1340753,-8.90643,0.83813137,47.684196,-1.1212783,-2.2920158,-3.2320228,0.05205922,-0.36755753,-0.059005756,28.5625,29.875,28.9375,32.6875,35.125,36.0625
0.24005242,2.006779,1.962183,0.8004879,0.049527314,0.010751123,-0.18440215,-0.40244776,-0.36463138,0.060071982,-3.0755022,0.6235028,0.00034376213,-0.113896176,0.03502651,0.0010892852,0.031956308,0.0035367087,0.010876519,0.48786142,-1.364836,1.8824867,-2.084894,-1.5735883,2.462387,-0.14182225,0.14546515,-0.1889152,0.05498044,-0.030486345,-0.15250176,0.038307227,-0.11492168,-8.734048,0.8806493,47.661808,-1.0589126,-2.4325,-3.213141,0.077078015,-0.35148874,-0.10242608,28.5625,29.875,28.9375,32.6875,35.125,36.0625
0.24205291,1.8551964,1.7095902,0.52433926,0.047092963,0.0030662215,-0.18169175,-0.40268478,-0.36453614,0.06008091,-3.0754015,0.62350506,0.0003927545,-0.11472857,0.036800977,0.00048159237,0.035032477,0.0012302019,0.0006980871,0.48754948,-1.364561,1.8821048,-2.0847495,-1.573685,2.4620898,-0.14445482,0.14731155,-0.19049858,0.058200583,-0.032113012,-0.14494835,0.019153614,-0.019153614,-8.791509,0.8873621,47.647476,-1.1608919,-2.4352524,-3.2691875,0.056488223,-0.33815995,-0.19048147,28.5625,29.875,28.9375,32.6875,35.125,36.0625
0.24405207,2.0259237,1.406271,0.38895103,0.01909048,0.021070976,-0.1800252,-0.40289637,-0.36446238,0.060089976,-3.0753376,0.62351227,0.00042150475,-0.11611664,0.036956675,0.0031128717,0.03503539,0.0035738414,-0.0045014597,0.48727378,-1.3643098,1.8817562,-2.0846279,-1.5737451,2.461827,-0.14520279,0.14521515,-0.19502386,0.06275293,-0.033210386,-0.14049107,0.11492168,0.076614454,-8.983045,0.8605109,47.67614,-0.9685873,-2.1957145,-3.169816,0.041088074,-0.30747062,-0.25902614,28.5625,29.875,28.9375,32.6875,35.125,36.0625
0.24605215,1.1046591,0.3097318,0.11133268,-0.0010042212,0.008408951,-0.17279007,-0.40312654,-0.36439067,0.06009589,-3.0752363,0.62356836,0.0004003323,-0.11484008,0.039196815,0.0016498807,0.038646065,-0.0030324364,-0.008644883,0.4869854,-1.3639971,1.8813275,-2.0844462,-1.5738057,2.461587,-0.14767574,0.14600274,-0.19395179,0.068408884,-0.033303577,-0.13881886,0.095768064,0.17238252,-9.040505,0.8291774,47.67345,-0.94442457,-2.1771228,-3.246533,-0.0071227322,-0.29573786,-0.3307783,28.5625,29.875,28.9375,32.6875,35.125,36.0625
0.24805227,1.3318968,-0.16025095,-0.08015029,-0.030004887,0.031641927,-0.17118454,-0.4033455,-0.3642792,0.060066145,-3.0750844,0.62351996,0.0003301931,-0.11432746,0.039660886,0.0015215144,0.039863296,-0.0067575434,-0.014218554,0.48666197,-1.3636724,1.8809685,-2.0842774,-1.573901,2.4612532,-0.14832418,0.14681527,-0.19576664,0.07326255,-0.0326438,-0.13389133,-0.05746084,0.21068975,-9.212888,0.8493211,47.693153,-0.92500913,-2.0605583,-3.2503524,-0.066577435,-0.24716267,-0.41061994,28.5625,29.875,28.9375,32.6875,35.125,36.0625
0.25005227,0.7666395,-0.3211294,-0.06930981,-0.057022266,0.048014183,-0.18262786,-0.4035671,-0.36419594,0.060060717,-3.0749743,0.6235929,0.0002972849,-0.11462047,0.04080084,0.0008334561,0.041852947,-0.010374541,-0.016646536,0.4863619,-1.3633716,1.8805851,-2.08412,-1.5739611,2.461013,-0.15036651,0.14890699,-0.19761613,0.07713183,-0.03272354,-0.1335023,-0.05746084,0.22984336,-9.3661175,0.8717007,47.703903,-0.97034615,-2.1610873,-3.2474487,-0.12374741,-0.25182232,-0.4688325,28.5625,29.875,28.9375,32.6875,35.125,36.0625
0.25205243,0.73303294,-0.51665145,-0.31138894,-0.05776171,0.07367365,-0.1792949,-0.40377852,-0.3641038,0.060053878,-3.074849,0.6236177,0.00024699324,-0.11281845,0.04102002,-0.000114897164,0.045138,-0.015483732,-0.00937152,0.48606345,-1.363083,1.8802141,-2.0839388,-1.5740331,2.4607465,-0.14872134,0.15041925,-0.19852252,0.082542285,-0.033266507,-0.13912672,0.05746084,0.3256114,-9.615114,0.8605109,47.651955,-1.1835756,-2.1102812,-3.2423582,-0.23010099,-0.23978685,-0.49724418,28.5625,29.875,28.9375,32.6875,35.125,36.0625
0.25405246,0.64466816,0.23529929,-0.27579644,-0.06874488,0.07631842,-0.18916488,-0.40400025,-0.364034,0.060053334,-3.0747983,0.6235811,0.00019362947,-0.113584325,0.04095968,-0.00072058785,0.04549126,-0.01595229,0.0009134511,0.48576385,-1.3627816,1.8798193,-2.0837839,-1.574057,2.4604309,-0.14913361,0.15291218,-0.2000824,0.08214042,-0.0334109,-0.14982054,0.019153614,0.2681506,-9.557653,0.8717007,47.683304,-1.1147871,-2.0653117,-3.3313675,-0.2543236,-0.20638677,-0.42367196,28.5625,29.875,28.9375,32.6875,35.125,36.0625
0.25605264,0.20577724,-0.36205056,-0.32496992,-0.0581093,0.07773296,-0.18710183,-0.40424672,-0.36396202,0.06006673,-3.0747335,0.6234843,0.00023955994,-0.1133091,0.042221118,-0.002555778,0.048054203,-0.021487627,0.010296272,0.48547566,-1.362468,1.8793777,-2.083627,-1.5741409,2.4600909,-0.15108852,0.15633772,-0.20080657,0.08546913,-0.033132415,-0.16115808,0.019153614,0.2681506,-9.500193,0.8090337,47.661808,-1.0963147,-2.2568374,-3.3573747,-0.30517185,-0.20078567,-0.33528656,28.5625,29.875,28.9375,32.6875,35.125,36.0625
0.25805193,0.19638824,-0.36760116,-0.62611234,-0.04738034,0.066133015,-0.18139821,-0.4044489,-0.36387202,0.060066402,-3.0745826,0.62342817,0.00019999563,-0.11407505,0.04285523,-0.002052967,0.047189754,-0.019814048,0.017658433,0.48521176,-1.3621805,1.8789829,-2.0834,-1.5742491,2.4598117,-0.15271541,0.15501675,-0.20010164,0.08414427,-0.03320441,-0.17014353,0.0,0.3256114,-9.5385,0.8493211,47.66808,-1.0315464,-2.109647,-3.469957,-0.35412478,-0.18823776,-0.21804106,28.5625,29.875,28.9375,32.6875,35.125,36.0625
0.26005197,0.15222307,-0.13433827,-0.76233256,-0.048872296,0.049756415,-0.17311792,-0.40466133,-0.3637921,0.060046196,-3.07451,0.62329614,9.9644436e-05,-0.11580116,0.04384566,-0.003079922,0.04774489,-0.02004841,0.018908616,0.48491144,-1.3618549,1.878601,-2.0832336,-1.5742854,2.4594386,-0.1555641,0.15804505,-0.20107898,0.082530595,-0.03363439,-0.17423615,-0.11492168,0.30645782,-9.557653,0.8918391,47.66271,-1.0005157,-2.2654195,-3.4109461,-0.3473967,-0.16896343,-0.16996938,28.5625,29.875,28.9375,32.6875,35.125,36.0625
0.2620522,0.7881982,0.07944919,-0.45236716,-0.060349137,0.06318139,-0.18002409,-0.40492296,-0.36369246,0.060041655,-3.0744126,0.62333363,0.00013331727,-0.11721504,0.043618094,-0.0037836246,0.04702356,-0.01968756,0.014240911,0.4845638,-1.3615296,1.8781942,-2.083114,-1.5743688,2.4591272,-0.15662065,0.16119532,-0.2028434,0.080475025,-0.033183087,-0.17062451,-0.24899697,0.21068975,-9.653421,0.9231726,47.637623,-0.9715337,-2.3637621,-3.497357,-0.36605698,-0.14695394,-0.14663193,28.5625,29.875,28.9375,32.6875,35.125,36.0625
0.26405242,0.30210167,-0.45825264,-0.5556591,-0.05733641,0.06721849,-0.18120384,-0.4051559,-0.36360192,0.060048997,-3.0743506,0.6232669,7.7646444e-05,-0.11885274,0.043727025,-0.0044776485,0.045996867,-0.018053118,0.0063828654,0.48422793,-1.3612405,1.877788,-2.0829237,-1.5744051,2.4587579,-0.15824622,0.16353534,-0.20324841,0.076620944,-0.033052616,-0.16438949,-0.34476504,0.15322891,-9.730036,0.8985519,47.672558,-0.90480286,-2.4111102,-3.622601,-0.36014664,-0.12783597,-0.20836519,28.5625,29.875,28.9375,32.6875,35.125,36.0625
0.26605257,-0.14787981,-0.41990697,-0.5651787,-0.056558784,0.09207467,-0.17695269,-0.40539533,-0.363545,0.06005812,-3.0742855,0.6232346,0.00011752837,-0.119918086,0.043046527,-0.0057556615,0.045194313,-0.017501015,0.0013522297,0.4839647,-1.3609152,1.877345,-2.082782,-1.5744771,2.4584832,-0.15823759,0.16734983,-0.20411362,0.07280654,-0.032608826,-0.15935034,-0.38307226,0.11492168,-9.653421,0.83365434,47.66808,-1.0549998,-2.38284,-3.612644,-0.32070664,-0.13405263,-0.27915984,28.5625,29.875,28.9375,32.6875,35.125,36.0625
0.26805282,-0.48140585,-0.15055655,-0.30746198,-0.04949923,0.113205805,-0.1815343,-0.4056328,-0.3634646,0.06005543,-3.0742118,0.62323743,6.362754e-05,-0.12188416,0.041364424,-0.002550669,0.04027585,-0.010520619,0.0005778435,0.48364156,-1.3605926,1.8769263,-2.0826151,-1.5745124,2.4581716,-0.1577289,0.16417308,-0.20712021,0.070507996,-0.031531576,-0.15806921,-0.34476504,0.11492168,-9.615114,0.83589023,47.709274,-1.0454744,-2.3311481,-3.6198468,-0.31911787,-0.112153314,-0.33800647,28.5625,29.875,28.9375,32.6875,35.125,36.0625
0.27005208,-0.83151346,0.01716069,-0.12007887,-0.053692658,0.12591109,-0.18254037,-0.4059008,-0.3633716,0.06004564,-3.0741289,0.6232574,9.065393e-05,-0.12616351,0.03987512,-0.0009851326,0.0358624,-0.0031937745,0.00018342404,0.48329338,-1.3602439,1.8765062,-2.0825093,-1.5745848,2.4578469,-0.15919808,0.16658798,-0.2123405,0.064746864,-0.031071793,-0.15914252,-0.40222588,0.11492168,-9.500193,0.9768804,47.66808,-0.9095044,-2.3990345,-3.455719,-0.23777807,-0.12837452,-0.36222798,28.5625,29.875,28.9375,32.6875,35.125,36.0625
0.27205226,-0.9419215,0.22205691,-0.14496869,-0.033721924,0.11426583,-0.18869059,-0.40612224,-0.36331654,0.06005552,-3.0740995,0.6231352,0.00013297993,-0.12788132,0.03888802,-0.000948486,0.03351296,-0.0012737073,-0.000630663,0.48304212,-1.3599553,1.8761104,-2.0823905,-1.5746444,2.4575233,-0.1596972,0.16907603,-0.21482807,0.061934642,-0.029900791,-0.15883121,-0.4405331,0.19153613,-9.481039,0.8873621,47.701214,-1.1051753,-2.433537,-3.3592556,-0.17807245,-0.12947612,-0.3792259,28.5625,29.875,28.9375,32.6875,35.125,36.0625
0.27405232,-0.6563385,0.42868704,-0.16272163,-0.023515703,0.106049165,-0.1865382,-0.40638176,-0.36323994,0.060064863,-3.0740511,0.6231575,0.00013477406,-0.12804303,0.038945097,-0.0010540116,0.03384607,-0.0023687507,0.0061047175,0.48270676,-1.3596312,1.8756675,-2.0822465,-1.5746802,2.4572084,-0.1599424,0.17006817,-0.21614501,0.06334043,-0.029718343,-0.16581155,-0.57460845,0.17238252,-9.595961,0.83589023,47.70211,-1.186852,-2.4481246,-3.4326255,-0.16772848,-0.13709849,-0.33395213,28.5625,29.875,28.9375,32.6875,35.125,36.0625
0.27605242,-0.036844973,0.5592697,-0.13855185,-0.030418767,0.110048465,-0.18896152,-0.4066752,-0.36315656,0.060061872,-3.0740054,0.62310165,0.00023067779,-0.13018991,0.037828673,0.00039911308,0.030980675,0.0033530588,0.015685907,0.4823599,-1.3592596,1.8752121,-2.082176,-1.5747641,2.456833,-0.15975103,0.16988584,-0.21837844,0.059297025,-0.029881353,-0.1752003,-0.6512229,0.19153613,-9.519346,0.87393653,47.678825,-1.3151037,-2.318755,-3.4119427,-0.121128224,-0.1263717,-0.2605949,28.5625,29.875,28.9375,32.6875,35.125,36.0625
0.2780524,-0.555682,0.1235325,-0.25676394,-0.036068343,0.09330081,-0.18426342,-0.4069534,-0.3630688,0.060095455,-3.073963,0.623105,0.00032650877,-0.1311483,0.0378905,0.0007293396,0.030553594,0.0033817645,0.024018917,0.48201206,-1.3589715,1.8747572,-2.082032,-1.5748361,2.456493,-0.16079083,0.17085421,-0.2205397,0.06020426,-0.029547479,-0.1845747,-0.63206923,0.15322891,-9.519346,0.85826975,47.709274,-1.1740546,-2.3184228,-3.4269118,-0.08742076,-0.11676809,-0.15207952,28.5625,29.875,28.9375,32.6875,35.125,36.0625
0.28005233,-0.020628378,0.044640794,-0.2661732,-0.054443937,0.10099419,-0.19257793,-0.40718082,-0.36298525,0.06005068,-3.0738819,0.62283784,0.00027356972,-0.13177642,0.03909919,0.0004707886,0.030995712,0.0013288438,0.024868714,0.4817232,-1.3585879,1.8743733,-2.0819232,-1.5749196,2.456048,-0.16359639,0.17155339,-0.22131619,0.062264908,-0.029019842,-0.18822934,-0.68953013,0.1340753,-9.557653,0.9254084,47.689575,-1.0686684,-2.2147832,-3.4730484,-0.07247129,-0.11970183,-0.057806306,28.5625,29.875,28.9375,32.6875,35.125,36.0625
0.28205222,-0.36988103,-0.3305174,-0.25746247,-0.054033518,0.09188697,-0.17984882,-0.4074503,-0.36289048,0.06006542,-3.073803,0.62291753,0.00030026832,-0.13215296,0.03874302,0.001078037,0.030445244,0.0013370571,0.022178553,0.48136446,-1.358276,1.8739299,-2.0817673,-1.5749797,2.4557495,-0.16351543,0.1718213,-0.22341663,0.063824005,-0.028537104,-0.1854592,-0.6703765,0.22984336,-9.423578,0.8806493,47.652847,-1.2839613,-2.2728064,-3.4344654,-0.060805485,-0.12052286,-0.059569217,28.5625,29.875,28.9375,32.6875,35.125,36.0625
0.28405258,-0.028014263,-0.013449202,-0.10025476,-0.055924986,0.10601549,-0.18875186,-0.40773425,-0.36284637,0.06006808,-3.0737953,0.62291795,0.00027998898,-0.13279808,0.03822054,0.0015185504,0.029645612,0.0013530042,0.016328717,0.48104084,-1.3578678,1.873403,-2.0816352,-1.5749792,2.4554274,-0.16352548,0.17286505,-0.22600308,0.064996034,-0.027826471,-0.1796214,-0.61291564,0.1340753,-9.461885,0.94331104,47.70032,-1.3369955,-2.2482662,-3.4914522,-0.06486211,-0.13613123,-0.12510468,28.5625,29.875,28.9375,32.6875,35.125,36.0625
0.28605276,-0.10120582,0.30331752,0.02235483,-0.045362916,0.09918874,-0.19131759,-0.40795374,-0.36275128,0.060050618,-3.0736976,0.6228461,0.00027224512,-0.13394581,0.038176145,0.0019091093,0.028646275,0.001979798,0.0058475444,0.48074043,-1.3575678,1.8730549,-2.081515,-1.5750631,2.455095,-0.16473846,0.17375155,-0.22803864,0.06514199,-0.027220663,-0.17035331,-0.4596867,0.095768064,-9.500193,0.8806493,47.687782,-1.4297984,-2.142582,-3.5005264,-0.03362077,-0.14579332,-0.21273234,28.5625,29.875,28.9375,32.6875,35.125,36.0625
0.28805196,0.08843111,0.37922546,-0.27513364,-0.016444936,0.07661417,-0.18584205,-0.40828112,-0.36267638,0.06008355,-3.073677,0.6228059,0.0004216012,-0.13461255,0.03941516,0.0012490011,0.02922061,-2.010444e-05,-0.0019086205,0.48037943,-1.3571959,1.8725055,-2.0813954,-1.575147,2.454712,-0.16752881,0.17504457,-0.22839975,0.066245675,-0.026782311,-0.16539094,-0.24899697,0.15322891,-9.500193,0.90527004,47.672558,-1.3032525,-2.1294549,-3.473024,-0.008874903,-0.13078466,-0.2925502,28.5625,29.875,28.9375,32.6875,35.125,36.0625
0.29005215,0.39848202,1.0440328,-0.0730424,-0.0028252688,0.04270291,-0.19021115,-0.40855327,-0.3625972,0.0600769,-3.0736306,0.62289536,0.00045361748,-0.13550653,0.04062385,0.0010809128,0.030394835,-0.001523031,-0.009335455,0.48003075,-1.3568479,1.8720855,-2.081323,-1.5751833,2.4544253,-0.17001073,0.17619182,-0.229971,0.06855332,-0.027116638,-0.1604439,-0.1340753,0.11492168,-9.500193,0.90527004,47.67345,-1.2307601,-2.086351,-3.4758837,-0.00668892,-0.1293668,-0.39262292,28.5625,29.875,28.9375,32.6875,35.125,36.0625
0.2920519,0.7811178,0.8787617,-0.12833457,0.009753885,0.02054764,-0.18126923,-0.4088073,-0.36251363,0.060060497,-3.0735276,0.62285733,0.0003889676,-0.1371167,0.041744273,0.0010981228,0.031022822,-0.0027223737,-0.013625473,0.4797054,-1.3564633,1.8716191,-2.0811422,-1.5752434,2.4540899,-0.17317073,0.17805748,-0.23284432,0.070901886,-0.027138134,-0.15931012,-0.15322891,0.13407528,-9.481039,0.90527004,47.66987,-1.0659747,-2.2613852,-3.4545755,-0.008707618,-0.1479846,-0.4738484,28.5625,29.875,28.9375,32.6875,35.125,36.0625
0.29405186,1.4915457,1.4246547,-0.097739875,-0.006049646,0.015459483,-0.19675267,-0.40907526,-0.36241215,0.060064804,-3.0734324,0.6228536,0.0003805278,-0.13677725,0.043108594,-0.00070667913,0.034082893,-0.008910564,-0.010309503,0.4793451,-1.3561262,1.8711628,-2.080961,-1.5753149,2.45374,-0.17510892,0.1817281,-0.23424575,0.075489566,-0.027025279,-0.1645626,-0.05746084,0.019153614,-9.3661175,0.86945957,47.70032,-1.123352,-2.3584175,-3.40842,-0.013642326,-0.13225017,-0.46400082,28.5625,29.875,28.9375,32.6875,35.125,36.0625
0.2960518,1.6385825,1.5376511,-0.21684273,0.006497337,0.005037827,-0.19562335,-0.4093977,-0.3623477,0.06009749,-3.0734296,0.62294155,0.00052418094,-0.1360563,0.04331176,-0.0017537705,0.03668968,-0.013605187,0.0011037502,0.4789851,-1.355766,1.8706354,-2.0808756,-1.575363,2.4534354,-0.17457691,0.18470404,-0.23654844,0.08011723,-0.027200146,-0.17544445,0.17238252,-0.11492168,-9.385271,0.8560339,47.693153,-1.1130859,-2.307142,-3.5379596,-0.050660416,-0.12211716,-0.37393755,28.5625,29.875,28.9375,32.6875,35.125,36.0625
0.29805222,1.6516603,1.2676905,0.18463413,-0.009954257,0.026801823,-0.19409913,-0.40965065,-0.3622474,0.060105786,-3.0733304,0.6228382,0.00050204975,-0.13656765,0.04414097,-0.0016822059,0.038134776,-0.016830476,0.012136715,0.47864833,-1.3554418,1.8701771,-2.0806582,-1.5754474,2.4530473,-0.17638668,0.1863152,-0.2398565,0.08525805,-0.027060313,-0.18828489,0.1340753,-0.11492168,-9.404425,0.8605109,47.686886,-1.0586381,-2.343077,-3.4207168,-0.10350993,-0.13391446,-0.2668042,28.5625,29.875,28.9375,32.6875,35.125,36.0625
0.30005252,0.7990603,0.83740884,0.19831328,-0.009837938,0.020038163,-0.20003085,-0.4099029,-0.3621433,0.060073644,-3.0732236,0.62275445,0.00034950403,-0.13573213,0.0454622,-0.003273969,0.040655546,-0.022882044,0.017377164,0.47827592,-1.3550451,1.8697261,-2.0804536,-1.5754827,2.4526367,-0.17805517,0.18868232,-0.24014616,0.08966249,-0.026568074,-0.19519235,0.076614454,-0.038307227,-9.251195,0.83365434,47.637623,-1.0347464,-2.431634,-3.4237943,-0.15946639,-0.1434925,-0.16792351,28.5625,29.875,28.9375,32.6875,35.125,36.0625
0.30205175,1.0775598,0.5552541,0.21507442,-0.00589827,0.03682936,-0.1857754,-0.4102027,-0.36206585,0.060121696,-3.07323,0.6227182,0.00046420828,-0.1364168,0.0466679,-0.002598681,0.04143857,-0.023984326,0.015138323,0.47791505,-1.3547455,1.869223,-2.0803082,-1.5755314,2.4522526,-0.18042122,0.1881437,-0.24188608,0.09326146,-0.026754927,-0.19531994,0.05746084,0.076614454,-9.232041,0.83365434,47.64121,-0.87473106,-2.3718328,-3.5452776,-0.21581256,-0.14700872,-0.14720362,28.5625,29.875,28.9375,32.6875,35.125,36.0625
0.3040518,0.61060447,0.60983413,0.373128,-0.0206908,0.052606642,-0.19067688,-0.41045508,-0.3619598,0.060084794,-3.0730836,0.6226343,0.00029532635,-0.13751163,0.04747512,-0.0028762135,0.041983753,-0.025388747,0.00662646,0.47755426,-1.3543224,1.8687428,-2.0800683,-1.5755905,2.4518588,-0.18269262,0.19006193,-0.24402505,0.0949891,-0.026621692,-0.1890745,-0.30645782,0.17238252,-9.193734,0.91198283,47.711063,-1.0143231,-2.3964214,-3.4800556,-0.2609728,-0.15705036,-0.19797552,28.5625,29.875,28.9375,32.6875,35.125,36.0625
0.30605188,0.20754758,0.20515686,0.13827637,-0.032635923,0.061974116,-0.19049433,-0.4107023,-0.36188605,0.060081538,-3.0730262,0.6225665,0.00021539279,-0.13813092,0.046108995,-0.0016443562,0.04003225,-0.022890702,0.0013880552,0.47723097,-1.3539654,1.8682765,-2.0798771,-1.5756148,2.451501,-0.18119098,0.18979844,-0.24648392,0.094614066,-0.02604574,-0.18233453,-0.17238252,0.15322891,-9.289503,0.842603,47.675243,-1.0652199,-2.3613076,-3.4052644,-0.28309143,-0.18680057,-0.26276135,28.5625,29.875,28.9375,32.6875,35.125,36.0625
0.30805197,0.067767136,-0.10321501,0.39803755,-0.046387367,0.0737747,-0.18579303,-0.41100535,-0.36178598,0.060096417,-3.072955,0.6226302,0.00018936717,-0.14021096,0.04658406,-0.00057636143,0.039954115,-0.020274375,-0.0033620403,0.47682264,-1.3535942,1.8677491,-2.079674,-1.575651,2.4511418,-0.1829516,0.19022098,-0.24953967,0.09488916,-0.02719622,-0.17933677,-0.24899697,0.17238252,-9.270349,0.8717007,47.690468,-1.0070548,-2.1434367,-3.3369522,-0.32560408,-0.18447101,-0.30930322,28.5625,29.875,28.9375,32.6875,35.125,36.0625
0.31005222,-0.46550378,-0.04038563,0.38208073,-0.05626532,0.07335387,-0.19253998,-0.411263,-0.3616804,0.060074553,-3.0728068,0.622579,9.5070944e-05,-0.14216301,0.045948572,-0.00028590276,0.03898293,-0.0148165105,-0.0031744586,0.47647476,-1.3531977,1.8672699,-2.0794485,-1.5757364,2.4507816,-0.18243746,0.1913669,-0.25038615,0.08927793,-0.028888438,-0.17899674,-0.38307226,0.19153613,-9.423578,0.89631605,47.693153,-1.0138702,-2.1555805,-3.3108726,-0.30114248,-0.17680344,-0.38247916,28.5625,29.875,28.9375,32.6875,35.125,36.0625
0.31205225,-0.4619753,-0.3434614,0.24362221,-0.055208478,0.09139081,-0.20073266,-0.41153198,-0.3616031,0.060084753,-3.072753,0.6225668,4.050813e-05,-0.14250241,0.045476332,-0.00015430865,0.03783205,-0.013865244,-0.0014895021,0.47612673,-1.3528382,1.8667668,-2.0792449,-1.5757598,2.4504333,-0.18215935,0.19166219,-0.2508232,0.08802386,-0.028332658,-0.18040486,-0.51714754,0.17238252,-9.404425,0.9186956,47.690468,-1.1346153,-2.0918632,-3.3493829,-0.28377277,-0.20626977,-0.41463852,28.5625,29.875,28.9375,32.6875,35.125,36.0625
0.31405225,-0.9754177,-0.5499345,0.22641817,-0.06608333,0.108534515,-0.19507764,-0.41181815,-0.36149877,0.06007234,-3.0726407,0.6225353,1.8166009e-05,-0.14378119,0.043448225,6.605131e-05,0.03474734,-0.009132978,0.009460592,0.47575578,-1.3524388,1.8662733,-2.0790684,-1.5758437,2.4500575,-0.18005632,0.19321425,-0.2518866,0.08184358,-0.027836626,-0.18925193,-0.61291564,0.15322891,-9.308657,0.8918391,47.704796,-1.4254642,-2.231784,-3.3372934,-0.22408037,-0.19542333,-0.32851583,28.5625,29.875,28.9375,32.6875,35.125,36.0625
0.31605235,-1.0327487,-0.63667583,0.3032704,-0.07047441,0.137532,-0.20109652,-0.412127,-0.36145377,0.0600975,-3.072699,0.62240493,0.00010194749,-0.1453468,0.041546635,0.00046322364,0.03219588,-0.005650403,0.022041567,0.4754204,-1.3520572,1.8657335,-2.0789735,-1.5758551,2.4496334,-0.17847611,0.19559176,-0.25490764,0.078153476,-0.027217632,-0.20025662,-0.49799395,0.17238252,-9.232041,0.88960326,47.699425,-1.5875542,-2.1315715,-3.5506198,-0.18076837,-0.2121321,-0.22718513,28.5625,29.875,28.9375,32.6875,35.125,36.0625
0.31805238,-1.3549187,0.05722987,0.09164354,-0.055249996,0.11952576,-0.19478369,-0.41240185,-0.3613261,0.06006807,-3.072542,0.6223697,5.2981537e-05,-0.14725232,0.04208958,0.00047092623,0.03128394,-0.0034639244,0.026456228,0.4750356,-1.3516616,1.8652824,-2.0787947,-1.5759634,2.4492474,-0.18074615,0.19671509,-0.25574377,0.07543934,-0.027474781,-0.20693645,-0.36391866,0.17238252,-9.346964,0.9164598,47.668976,-1.4454811,-2.114046,-3.526298,-0.13075921,-0.24149652,-0.11465682,28.5625,29.875,28.9375,32.6875,35.125,36.0625
0.3200523,-0.78555167,0.3717026,0.09559344,-0.04092238,0.109958544,-0.19422528,-0.41274,-0.361257,0.06011632,-3.0725808,0.6223032,0.00018578926,-0.14926118,0.043391116,-0.00016991791,0.03168929,-0.0024019442,0.022554256,0.4746504,-1.3513012,1.8647078,-2.078664,-1.5759996,2.4488158,-0.18398497,0.19875717,-0.25631496,0.0731983,-0.028313905,-0.20627043,-0.47884035,0.17238252,-9.3661175,0.8918391,47.64658,-1.4095366,-2.1042633,-3.4434276,-0.078864336,-0.24893673,-0.06463101,28.5625,29.875,28.9375,32.6875,35.125,36.0625
0.3220522,-0.04396863,0.4692697,0.19363208,-0.038077515,0.10001508,-0.19571935,-0.41300693,-0.36117283,0.06008171,-3.0725005,0.6222148,8.234401e-05,-0.15036133,0.04437973,-0.00016677052,0.03339166,-0.0033656794,0.013335971,0.47430173,-1.3508689,1.8642286,-2.0785072,-1.5760359,2.4484227,-0.18580401,0.20038514,-0.25896558,0.075882144,-0.029385423,-0.1988611,-0.47884035,0.17238252,-9.385271,0.9545008,47.655537,-1.3244355,-2.163913,-3.575666,-0.061345562,-0.26147735,-0.13440524,28.5625,29.875,28.9375,32.6875,35.125,36.0625
0.32405245,-0.0483673,0.18172808,0.049323574,-0.02560218,0.06750508,-0.18905395,-0.41332594,-0.36108366,0.06006879,-3.0724194,0.62214446,0.00010628627,-0.15205185,0.044900224,-0.0004668881,0.03391751,-0.0016857333,0.0030173862,0.4739297,-1.350413,1.8636745,-2.0783646,-1.5761207,2.4480176,-0.18723868,0.20241788,-0.26041558,0.07406967,-0.030605763,-0.18996815,-0.47884035,0.24899697,-9.3661175,0.88289046,47.690468,-1.337732,-2.0084274,-3.6923084,-0.030544423,-0.24975646,-0.23659825,28.5625,29.875,28.9375,32.6875,35.125,36.0625
0.32605243,0.61443186,0.3728446,-0.037918977,-0.045461375,0.060297895,-0.20037426,-0.41362688,-0.36097777,0.060072206,-3.0723357,0.622149,0.00015285905,-0.15395749,0.044875946,0.0011155371,0.033706278,0.0020188056,-0.003960754,0.47354537,-1.3500415,1.8631853,-2.078221,-1.5762051,2.4476473,-0.18778652,0.20214398,-0.26380283,0.07435103,-0.032098204,-0.18352754,-0.4213795,0.17238252,-9.404425,0.9791215,47.68599,-1.3867278,-2.0481753,-3.6431267,0.019379735,-0.25181335,-0.34594434,28.5625,29.875,28.9375,32.6875,35.125,36.0625
0.32805237,0.66934776,-0.41999927,-0.06833461,-0.03197838,0.056345493,-0.19107017,-0.41394812,-0.36088374,0.060056854,-3.0722356,0.622248,0.0001423442,-0.1545836,0.046040006,0.00082213245,0.0350002,-0.0017736763,-0.01200293,0.47314855,-1.3495852,1.862635,-2.0780747,-1.5762647,2.4473257,-0.19047117,0.2041629,-0.26676407,0.079263136,-0.03150881,-0.17817076,-0.30645782,0.1340753,-9.385271,0.90527004,47.67345,-1.2377315,-2.1178837,-3.5010743,0.002355042,-0.24519639,-0.44462025,28.5625,29.875,28.9375,32.6875,35.125,36.0625
0.33005255,0.4441489,-0.24671592,-0.2094451,-0.038177796,0.040301975,-0.1916618,-0.41426817,-0.36080912,0.060086958,-3.072225,0.6222459,0.0001740444,-0.1567775,0.046163872,0.00077840924,0.033032306,-0.0014945403,-0.013411729,0.47276342,-1.3492002,1.8620604,-2.0778964,-1.5762881,2.446941,-0.1933813,0.20685521,-0.26982164,0.07845382,-0.029903648,-0.17968039,-0.24899697,0.17238252,-9.346964,0.9254084,47.67345,-1.1397936,-2.1862385,-3.536787,0.016098194,-0.271141,-0.48855048,28.5625,29.875,28.9375,32.6875,35.125,36.0625
0.3320525,0.36924434,-0.095073685,-0.23947564,-0.03413317,0.04925177,-0.20348941,-0.41458076,-0.36068982,0.060089294,-3.0721052,0.6222714,0.00018799267,-0.15807194,0.046943974,0.000912851,0.033855688,-0.0026986306,-0.00481148,0.4723546,-1.3488044,1.8615326,-2.0777032,-1.576384,2.446564,-0.19548771,0.20868258,-0.27302194,0.081185445,-0.030153602,-0.19038308,-0.1340753,0.11492168,-9.385271,0.9791215,47.674347,-1.0405589,-2.2302032,-3.483838,0.02868919,-0.2984157,-0.43662065,28.5625,29.875,28.9375,32.6875,35.125,36.0625
0.3340517,0.9258202,0.54440737,0.038870122,-0.044527058,0.07920208,-0.20892233,-0.41487646,-0.3605878,0.060042094,-3.0720284,0.62221,7.011799e-05,-0.15866776,0.04842864,-0.00077698746,0.03679801,-0.007636042,0.006737925,0.47194582,-1.3483351,1.8610414,-2.0775702,-1.5764083,2.4461272,-0.19804226,0.2130137,-0.2753283,0.084801756,-0.030617232,-0.20448028,-0.038307227,0.1340753,-9.423578,0.91421866,47.719128,-1.0284221,-2.238583,-3.29337,0.009982503,-0.3046538,-0.31993878,28.5625,29.875,28.9375,32.6875,35.125,36.0625
0.3360516,-0.19348688,0.5360515,-0.03533299,-0.013763113,0.05235938,-0.18999988,-0.4152038,-0.360513,0.060070593,-3.072,0.6221024,0.00014921812,-0.16042618,0.05003811,-0.0006090967,0.038356766,-0.009501218,0.013785182,0.47158492,-1.3479269,1.8604416,-2.0773895,-1.5764807,2.445703,-0.20170991,0.21496163,-0.27905193,0.088862844,-0.031210776,-0.21519111,-0.34476507,0.0,-9.3661175,0.85155696,47.642998,-0.9004291,-2.3018286,-3.266778,-0.010620054,-0.29724059,-0.1910403,28.5625,29.875,28.9375,32.6875,35.125,36.0625
0.3380529,0.738753,1.6975788,-0.11545328,-0.0058643473,0.06902288,-0.20848536,-0.41550156,-0.36041096,0.06005594,-3.0719283,0.6220873,0.00011718431,-0.15876451,0.050878823,-0.0016609235,0.040813513,-0.015074372,0.015148658,0.4711889,-1.3475188,1.8599476,-2.077244,-1.576528,2.4453073,-0.2017371,0.21581139,-0.27889875,0.09390996,-0.030886974,-0.21658227,-0.40222588,0.05746084,-9.346964,0.842603,47.63673,-1.0127221,-2.4119077,-3.3551521,-0.048755217,-0.32807696,-0.13206422,28.5625,29.875,28.9375,32.6875,35.125,36.0625
0.34005302,0.38947335,1.6311965,-0.013476747,-2.4271085e-05,0.066291936,-0.20094371,-0.4158414,-0.36029997,0.060051862,-3.0718327,0.6220319,8.579289e-05,-0.15635307,0.05065076,-0.0026695626,0.043606296,-0.020518081,0.010202641,0.47075766,-1.3470507,1.8593405,-2.0770266,-1.5766004,2.4448543,-0.1991296,0.2170244,-0.27937022,0.09930261,-0.03089155,-0.20902626,-0.49799395,-0.05746084,-9.3661175,0.8627467,47.657326,-1.0805268,-2.4161339,-3.4366984,-0.09774494,-0.33913243,-0.19436452,28.5625,29.875,28.9375,32.6875,35.125,36.0625
0.34205306,0.36311793,1.0984164,0.032361403,0.0068035326,0.07039442,-0.19599213,-0.41614664,-0.36020702,0.060043942,-3.0717423,0.6219387,4.9322683e-05,-0.1545359,0.051131256,-0.0032246637,0.04659386,-0.024791427,0.0043637413,0.47038603,-1.3466071,1.8587745,-2.0768216,-1.5766724,2.4444366,-0.19780163,0.21721,-0.27957478,0.104504064,-0.031604145,-0.20185268,-0.51714754,0.019153614,-9.308657,0.90750587,47.652847,-1.1312343,-2.304246,-3.633707,-0.15952346,-0.3614884,-0.26019293,28.5625,29.875,28.9375,32.6875,35.125,36.0625
0.34405202,0.20759244,0.757752,0.34058627,0.001181774,0.08339239,-0.19502482,-0.41644913,-0.36010215,0.060034793,-3.0716295,0.6218776,-4.6978603e-05,-0.1540804,0.05191454,-0.004659799,0.050321184,-0.02897816,0.00043825503,0.46999022,-1.3461626,1.8581995,-2.0765688,-1.576733,2.4440176,-0.19769725,0.22055598,-0.28130203,0.10831155,-0.0330486,-0.19780916,-0.47884035,-0.114921674,-9.251195,0.9455522,47.67614,-1.2986788,-2.3789244,-3.5916147,-0.21931334,-0.3698691,-0.33908552,28.5625,29.875,28.9375,32.6875,35.125,36.0625
0.34605253,0.10645166,1.1822388,0.26672748,-0.0009518308,0.07557599,-0.19765313,-0.41677037,-0.36000454,0.060035735,-3.0715203,0.62189287,-4.4954395e-05,-0.15553488,0.053264234,-0.003744297,0.05172312,-0.027766302,-0.002893064,0.4696056,-1.3457191,1.8576134,-2.0763648,-1.5768179,2.4436572,-0.1999228,0.22011586,-0.2833827,0.110370785,-0.0348724,-0.19668956,-0.36391866,-0.21068975,-9.212888,0.9231726,47.647476,-1.2956676,-2.2449589,-3.5111089,-0.28336102,-0.36645108,-0.38363945,28.5625,29.875,28.9375,32.6875,35.125,36.0625
0.34805286,-0.20698117,0.8553327,0.12448902,0.015191398,0.05584495,-0.18426903,-0.41707757,-0.35987845,0.060022786,-3.071375,0.62189734,-0.000119281176,-0.15818416,0.053167854,-0.0016826091,0.05055949,-0.022747336,0.0011745157,0.4691855,-1.3452876,1.8570656,-2.0761254,-1.5769023,2.4432592,-0.2010666,0.2196435,-0.2874523,0.10985233,-0.036184255,-0.20188746,-0.17238252,-0.19153613,-9.251195,0.97464454,47.642998,-1.3487004,-2.3155918,-3.5575752,-0.3132032,-0.34100193,-0.37202987,28.5625,29.875,28.9375,32.6875,35.125,36.0625
0.35005188,0.45466596,0.9542509,-0.0069993674,0.0067383368,0.06813897,-0.19701189,-0.4173873,-0.35978678,0.060012985,-3.0712948,0.6217574,-0.00015416942,-0.16046874,0.051707033,3.233816e-05,0.048061356,-0.01643794,0.013335699,0.46881363,-1.3448322,1.8564895,-2.0759237,-1.5769747,2.4428108,-0.1999817,0.21979395,-0.2908019,0.106200606,-0.036910538,-0.21295555,-0.095768064,-0.1340753,-9.289502,0.87393653,47.661808,-1.3359883,-2.1581492,-3.4005995,-0.30030656,-0.3538412,-0.25642648,28.5625,29.875,28.9375,32.6875,35.125,36.0625
0.35205185,0.31690192,0.5810027,0.004754174,-0.009731718,0.076162666,-0.19553775,-0.41773346,-0.35969266,0.060046453,-3.0712357,0.621625,-5.390723e-05,-0.1632199,0.05213737,0.000403804,0.047758088,-0.011419504,0.021726934,0.46842906,-1.3444118,1.8558553,-2.07571,-1.5770835,2.4423516,-0.20160748,0.22110662,-0.2923034,0.10168249,-0.038983896,-0.22295886,-0.22984336,-0.076614454,-9.289502,0.90750587,47.6421,-1.3419217,-2.2182167,-3.3129928,-0.276694,-0.33806363,-0.13752145,28.5625,29.875,28.9375,32.6875,35.125,36.0625
0.35405213,0.03260791,0.0011113463,-0.17930436,-0.029400442,0.0870536,-0.18514661,-0.41803345,-0.35958388,0.059992276,-3.0711172,0.62156194,-0.00025526716,-0.16663475,0.052156053,0.0011851024,0.046547532,-0.0061656986,0.020785075,0.4680084,-1.3438959,1.8553032,-2.075496,-1.5771078,2.4419074,-0.20354648,0.22316818,-0.29584038,0.09790074,-0.04034849,-0.22393882,-0.3256114,0.095768064,-9.346964,0.9321212,47.686886,-1.2604202,-2.2557318,-3.3329291,-0.25323832,-0.30620497,-0.08162972,28.5625,29.875,28.9375,32.6875,35.125,36.0625
0.3560519,-0.22330287,-0.40764177,-0.3370724,-0.06072472,0.1001939,-0.19903447,-0.4183855,-0.3594694,0.06001763,-3.0710218,0.62148786,-0.00014262494,-0.1697321,0.052146208,0.0012529723,0.045228522,-0.00026684432,0.01349638,0.46760008,-1.3434756,1.85469,-2.0752947,-1.5772403,2.4414656,-0.20507751,0.22530328,-0.29718202,0.09124462,-0.04183113,-0.21817012,-0.21068975,0.15322891,-9.423578,0.8605109,47.64658,-1.2517978,-2.3689587,-3.2794666,-0.18409145,-0.29264417,-0.12262875,28.5625,29.875,28.9375,32.6875,35.125,36.0625
0.3580518,-0.301026,-0.83632004,-0.4227038,-0.0788888,0.10958807,-0.1966596,-0.41872683,-0.35936964,0.060013473,-3.070953,0.6214592,-0.00020437506,-0.1707667,0.05344617,0.00076602335,0.046559095,-0.0013193195,0.0026743652,0.46716732,-1.3429954,1.8540667,-2.0750782,-1.5772766,2.4410243,-0.20751382,0.22692594,-0.29840332,0.09241429,-0.042525668,-0.20977606,-0.4213795,0.24899697,-9.615114,0.8918391,47.64121,-1.2171712,-2.2721195,-3.313995,-0.14807235,-0.288316,-0.21999818,28.5625,29.875,28.9375,32.6875,35.125,36.0625
0.3600518,-1.1747683,-1.743974,-0.5129544,-0.0693092,0.08491161,-0.17735046,-0.4190463,-0.35923776,0.060011677,-3.070793,0.62145036,-0.00019025504,-0.17177345,0.055265103,-0.0010923059,0.04852322,-0.0011184395,-0.008829577,0.46675855,-1.3425746,1.8535088,-2.0748522,-1.5774096,2.4406314,-0.21011986,0.2291192,-0.29607838,0.08862201,-0.044353664,-0.20086227,-0.5554548,0.24899697,-9.653421,0.9298854,47.62688,-1.0904505,-2.4264612,-3.4691603,-0.11252536,-0.25933915,-0.3432063,28.5625,29.875,28.9375,32.6875,35.125,36.0625
0.3620518,-0.22248752,-0.7937996,-0.70553386,-0.09342444,0.10891713,-0.19257055,-0.41939765,-0.3591205,0.060004376,-3.0706668,0.62150544,-0.00017859001,-0.17318086,0.057221867,-0.0011998548,0.05026526,-0.0009059688,-0.018192582,0.4663253,-1.342095,1.852899,-2.0746605,-1.577506,2.4402494,-0.213385,0.22958979,-0.29665148,0.0893275,-0.045993842,-0.19475025,-0.5554548,0.34476504,-9.710882,0.9791215,47.651955,-0.9247754,-2.3933349,-3.67616,-0.07574445,-0.23075235,-0.45366287,28.5625,29.875,28.9375,32.6875,35.125,36.0625
0.36405164,-0.3956609,-1.179391,-0.8333952,-0.0748489,0.08941945,-0.19345255,-0.4197282,-0.35902488,0.059991248,-3.0706015,0.6214899,-0.00019909718,-0.17460775,0.05780181,-0.0012221474,0.049953528,-0.0010267791,-0.018400691,0.46591657,-1.3416272,1.8523244,-2.0745046,-1.5775536,2.4398398,-0.2155547,0.2312247,-0.2987852,0.0897525,-0.045694653,-0.19671114,-0.30645782,0.30645782,-9.787497,0.91198283,47.698532,-0.8129233,-2.3847082,-3.8118658,-0.0726175,-0.23376054,-0.50252205,28.5625,29.875,28.9375,32.6875,35.125,36.0625
0.36605325,-0.5275054,-0.9788212,-0.34733596,-0.075966105,0.07950152,-0.19050935,-0.4200936,-0.35889482,0.05999146,-3.0704687,0.62151253,-0.00012309251,-0.17546542,0.05783523,-0.0018126388,0.050625615,-0.0012682364,-0.0072938544,0.4654726,-1.3411587,1.8517135,-2.0743253,-1.5776857,2.4394279,-0.21579228,0.23382138,-0.30061713,0.089383475,-0.046272032,-0.20804968,-0.22984336,0.22984336,-9.691729,0.91421866,47.668976,-0.93902874,-2.4120982,-3.6684318,-0.03919987,-0.19932523,-0.4250281,28.5625,29.875,28.9375,32.6875,35.125,36.0625
0.36805266,0.13810554,0.05011364,0.0466782,-0.072514385,0.08804115,-0.19864357,-0.42043984,-0.35879537,0.059973508,-3.0704021,0.62141335,-0.0001478252,-0.17613435,0.057772048,-0.0012746701,0.052024264,-0.0020470195,0.0056542708,0.46505272,-1.3406543,1.8511018,-2.074156,-1.5777463,2.438955,-0.21546306,0.23540632,-0.30469558,0.093084864,-0.04726654,-0.22065808,-0.40222588,0.22984336,-9.461885,0.91198283,47.707485,-1.0560112,-2.4996443,-3.6549816,-0.04677447,-0.1830314,-0.29232273,28.5625,29.875,28.9375,32.6875,35.125,36.0625
0.3700521,0.24160486,0.6234652,-0.1284766,-0.023763502,0.07117607,-0.19049957,-0.42080766,-0.35869953,0.05998826,-3.070337,0.6213372,-7.865946e-06,-0.17745493,0.056583647,0.00011356237,0.052025978,0.0015809282,0.015619884,0.4646575,-1.3401867,1.8504666,-2.0740125,-1.5778669,2.4385211,-0.21338828,0.23617561,-0.30889514,0.093178526,-0.04895128,-0.2285374,-0.30645782,0.095768064,-9.461885,0.8717007,47.691364,-1.1159339,-2.4448295,-3.5528297,-0.034896445,-0.16315965,-0.18872759,28.5625,29.875,28.9375,32.6875,35.125,36.0625
0.3720524,1.2425752,1.9013107,-0.5210882,0.009040171,0.053080082,-0.20548993,-0.42113826,-0.35856745,0.059938874,-3.070201,0.62130904,-0.00017330181,-0.176102,0.057623412,-0.00028216734,0.05442891,-0.0040801847,0.0130764665,0.4641895,-1.3396592,1.8498868,-2.0737946,-1.5779146,2.4380538,-0.2140176,0.23653083,-0.31008905,0.10013467,-0.048588853,-0.22661795,-0.15322891,0.05746084,-9.500193,0.86945957,47.695843,-1.101682,-2.3550804,-3.3381677,-0.0707856,-0.117252335,-0.17641202,28.5625,29.875,28.9375,32.6875,35.125,36.0625
