Tylouw/Master_Thesis_Code/training_data_v2/rect_rod_t0.2/sample_32_session_1.csv
timestamp[s],tcp_force_x[N],tcp_force_y[N],tcp_force_z[N],tcp_force_rx[Nm?],tcp_force_ry[Nm?],tcp_force_rz[Nm?],tcp_pose_x[m],tcp_pose_y[m],tcp_pose_z[m],tcp_pose_rx[rot_vec_x],tcp_pose_ry[rot_vec_y],tcp_pose_rz[rot_vec_z],tcp_velo_x[m/s],tcp_velo_y[m/s],tcp_velo_z[m/s],tcp_velo_rx[rot_vec_x/s],tcp_velo_ry[rot_vec_y/s],tcp_velo_rz[rot_vec_z/s],q1[rad],q2[rad],q3[rad],q4[rad],q5[rad],q6[rad],qd1[rad/s],qd2[rad/s],qd3[rad/s],qd4[rad/s],qd5[rad/s],qd6[rad/s],tool_acc_x,tool_acc_y,tool_acc_z,current_of_whole_robot[A],voltage_of_whole_robot[V],current_J1[A],current_J2[A],current_J3[A],current_J4[A],current_J5[A],current_J6[A],temp_J1[C],temp_J2[C],temp_J3[C],temp_J4[C],temp_J5[C],temp_J6[C]
6.0599996e-07,-0.04034805,-0.3363853,-0.052439433,-0.03192945,0.01837614,-0.015742688,-0.38933355,-0.36871722,0.059998084,-3.0787,0.6249083,0.00017928962,-7.981406e-05,2.190483e-05,3.083339e-05,-0.00018828294,4.2184547e-05,-5.0849747e-05,0.50503284,-1.3816319,1.9042109,-2.0919158,-1.5708536,2.4800134,-0.00020149241,-4.257768e-05,-5.112161e-07,-8.5480584e-05,0.00014416981,-0.0001508501,0.21068975,0.1340753,-8.714894,0.7239871,47.73614,-0.18096597,-3.1678975,-2.3472614,-0.19937971,0.15138486,-0.021337207,28.5625,29.8125,28.875,32.625,35.0625,36.0625
0.00205234,0.15305252,-0.3657862,0.007562223,-0.032458816,0.025663039,-0.0070424043,-0.3893259,-0.36871564,0.060000952,-3.0786963,0.6249266,0.00020775777,-0.00091014046,-0.00044162563,-0.00070977147,-0.0026592563,0.004491406,-4.999128e-05,0.50504476,-1.3816559,1.9042362,-2.0919306,-1.5708655,2.4800372,-0.00019600717,-5.7123395e-07,0.0036197882,-0.008837115,0.00014137605,-0.00014676328,0.21068975,0.24899697,-8.676587,0.73069996,47.687782,-0.23624936,-2.9908562,-2.3077416,-0.15622321,0.16138178,-0.017277706,28.5625,29.8125,28.875,32.625,35.0625,36.0625
0.00405206,-0.1947892,0.068863064,0.07732973,-0.045726936,0.020871287,-0.012593354,-0.38932338,-0.36873025,0.06000599,-3.0787215,0.62493163,0.00019769694,-0.0011864303,-0.0005981841,-0.0018651844,-0.0024413934,0.0040934435,-4.8187245e-05,0.5050568,-1.381655,1.9042238,-2.091931,-1.5708417,2.4800491,-0.00019081235,0.0023831767,0.0039440505,-0.011091428,0.00013865602,-0.00014288086,0.15322891,0.15322891,-8.6574335,0.7351769,47.695843,-0.16186017,-3.313536,-2.657946,-0.06553414,0.1502434,-0.0149737345,28.5625,29.8125,28.875,32.625,35.0625,36.0625
0.006052133,-0.28031012,-0.16604336,0.043223694,-0.01235802,0.0031284697,-0.0048296996,-0.38930807,-0.3687129,0.059977658,-3.0786607,0.62493837,0.0001480256,-0.00015229244,-2.5105002e-05,-0.0016159752,-0.00047673538,0.00056782545,-4.7138667e-05,0.5050568,-1.3816311,1.9042596,-2.0919287,-1.5708655,2.480061,-0.00018588631,0.0018490421,0.0026861602,-0.0052633355,0.00013603632,-0.00013919767,0.095768064,0.1340753,-8.580819,0.7530795,47.675243,-0.16514176,-3.3670983,-2.5788136,-0.07635627,0.15750179,-0.02087613,28.5625,29.8125,28.875,32.625,35.0625,36.0625
0.00805213,0.14594284,0.50144696,-0.5778812,0.018839099,-0.018243177,0.0009901683,-0.38932604,-0.36870864,0.059984643,-3.0786839,0.624905,0.00017747513,-1.794233e-05,4.797053e-05,-0.0007180809,-0.000104266255,-9.160419e-05,-4.580838e-05,0.50503284,-1.3816315,1.9042467,-2.0919402,-1.5708655,2.4800134,-0.00018120803,0.0008408026,0.0010664776,-0.0018780754,0.00013351369,-0.00013569923,0.0,0.17238252,-8.6574335,0.7642693,47.711964,-0.21851072,-3.2490897,-2.5423179,-0.1152439,0.14534856,-0.024984188,28.5625,29.8125,28.875,32.625,35.0625,36.0625
0.010052158,0.19475779,0.9073007,-0.81279206,0.018059911,-0.014041301,-0.009470687,-0.3893083,-0.3687032,0.059966728,-3.0786579,0.6249189,0.00010673771,0.00024519025,0.00019324945,0.00040823393,-1.0298174e-05,-0.0002460121,-3.4266326e-05,0.50503284,-1.3816202,1.904271,-2.0919268,-1.5708536,2.4800253,-0.00017693611,-0.0011021814,9.771623e-05,0.0012142819,0.00013108288,-0.00014321304,-0.038307227,0.19153613,-8.829816,0.68818194,47.688675,-0.7500222,-2.732811,-2.8779023,-0.12601927,0.15353112,-0.111473665,28.5625,29.8125,28.875,32.625,35.0625,36.0625
0.012052404,0.30494246,0.3216651,-0.9836853,-0.022942107,0.017697742,-0.01954649,-0.3893272,-0.3687103,0.05998306,-3.0786698,0.62494206,0.0001081325,-0.00088686356,0.0021556923,-0.00025466067,0.0011892836,-0.0024042763,-0.0041639106,0.50501966,-1.3816078,1.9042109,-2.0918906,-1.5708417,2.480025,-0.004537201,-3.0557207e-05,1.310988e-06,0.0027082693,0.000128739,-0.00037377718,0.038307227,0.17238252,-9.174581,0.7396539,47.6636,-0.9640234,-2.703999,-3.0191402,-0.15864748,0.14790405,-0.16500573,28.5625,29.8125,28.875,32.625,35.0625,36.0625
0.014051858,-1.173922,-1.3088775,-1.0816981,-0.04898903,0.027726134,-0.010063773,-0.38932702,-0.36869702,0.05995514,-3.0786145,0.62496513,4.513884e-05,-0.0039273873,0.0044145794,-0.0051156604,0.0051938985,-0.009664644,0.0028662493,0.5050049,-1.3815553,1.90421,-2.0918791,-1.5708536,2.4800317,-0.011189234,0.012241841,-0.0032756878,0.002002244,0.00012647752,-0.014052606,0.019153614,0.05746084,-9.308656,0.7665104,47.688675,-0.55219114,-3.2226536,-3.0530903,-0.14163479,0.17909919,-0.096535966,28.5625,29.8125,28.875,32.625,35.0625,36.0625
0.01605187,-1.3532758,-1.2767924,-1.1890656,-0.08303478,0.059522424,-0.031875074,-0.38930118,-0.36868522,0.059931904,-3.078581,0.6248577,-2.5414498e-05,-0.0056021553,0.0040901196,-0.0030769093,0.0029819994,-0.005675617,0.010277562,0.5050166,-1.3815442,1.9042443,-2.0918553,-1.5708655,2.4799807,-0.012208352,0.010285712,-0.0055217263,0.0016415748,0.00012429402,-0.022482395,-0.22984336,0.19153613,-9.461885,0.7284641,47.675243,-0.56541777,-3.2121987,-2.9874969,-0.14961006,0.15258658,0.0014330973,28.5625,29.8125,28.875,32.625,35.0625,36.0625
0.018051915,-1.1639895,-0.8914746,-1.1648507,-0.084308125,0.09530113,-0.055328652,-0.38931113,-0.36869687,0.0599251,-3.0786192,0.6248077,-6.1381674e-05,-0.005667992,0.004009235,-0.0024106046,0.0023312636,-0.0044951336,0.012396829,0.5050046,-1.3815086,1.9042205,-2.0918677,-1.5708297,2.4799325,-0.012131341,0.008912156,-0.0053920876,0.0015380709,0.00012230306,-0.024524909,-0.47884032,0.22984336,-9.481039,0.71279734,47.65643,-0.7238761,-2.8931546,-3.1513784,-0.11541556,0.15924555,0.014370892,28.5625,29.8125,28.875,32.625,35.0625,36.0625
0.020052113,-1.9937564,-0.686745,-1.7486078,-0.02964664,0.084506586,-0.06905773,-0.3893313,-0.36865807,0.059914522,-3.078596,0.62484384,-9.010058e-05,-0.0062720333,0.004576568,-0.0026830873,0.0025345858,-0.004928728,0.0073060556,0.5049204,-1.3815084,1.9042443,-2.0918677,-1.5708297,2.479874,-0.01367065,0.009630119,-0.0056166686,0.0015229064,0.00015323462,-0.020973291,-0.53630114,0.19153613,-9.634268,0.7866488,47.719128,-0.80092263,-2.8283377,-3.2946744,-0.121904805,0.1576391,-0.043416563,28.5625,29.8125,28.875,32.625,35.0625,36.0625
0.022052068,-1.3461173,0.36573505,-1.6887758,-0.013308373,0.08647978,-0.10144286,-0.38932478,-0.3686657,0.059897557,-3.0785809,0.624805,-0.00016181692,-0.0067765205,0.0055414117,-0.0028695082,0.0037252987,-0.007168818,0.0030390578,0.50493157,-1.38146,1.90422,-2.0918424,-1.5708174,2.4798627,-0.01579513,0.010653231,-0.007075137,0.004495172,0.00019804838,-0.018830413,-0.5554548,0.15322891,-9.825804,0.80679786,47.70032,-0.8910819,-2.823907,-3.412933,-0.1419786,0.17830794,-0.0698674,28.5625,29.8125,28.875,32.625,35.0625,36.0625
0.024052257,-2.2883124,0.013896522,-1.8595506,-0.0009637644,0.056585237,-0.10795226,-0.38933033,-0.36865714,0.05988275,-3.0785491,0.6247997,-0.00019339377,-0.008527357,0.0048674154,-0.0029826087,0.0018690567,-0.0075093517,0.00078954775,0.5049191,-1.3814229,1.9042071,-2.0918305,-1.5708288,2.479851,-0.017412487,0.013989833,-0.010685058,0.004161929,0.0019781494,-0.018199334,-0.68953013,0.019153614,-9.80665,0.7620334,47.681515,-0.86867476,-2.8449416,-3.3283482,-0.15074193,0.1629827,-0.09325028,28.5625,29.8125,28.875,32.625,35.0625,36.0625
0.026052255,-2.1005104,-0.23283163,-1.8603698,-0.012359032,0.07136466,-0.12176286,-0.38936484,-0.36864603,0.05990461,-3.078562,0.62480205,-0.00011172433,-0.00946348,0.0042929007,-0.002624233,0.0004090263,-0.00628473,-0.00047381423,0.504883,-1.3814346,1.9041713,-2.091831,-1.5708526,2.4798148,-0.017745757,0.014791374,-0.012207887,0.003102448,0.0026586894,-0.01726944,-0.842759,-0.076614454,-9.787497,0.85155696,47.719128,-0.9377215,-2.9040363,-3.3175175,-0.13961744,0.15175709,-0.099455975,28.5625,29.8125,28.875,32.625,35.0625,36.0625
0.028052574,-2.1098175,-0.37894842,-1.7907637,-0.035282936,0.10097095,-0.14436209,-0.38937762,-0.3686281,0.05987634,-3.078541,0.62485665,-0.00024629664,-0.010513832,0.0044547133,-0.003121935,0.00052475114,-0.0062345397,-0.002485802,0.5048108,-1.3813738,1.9041585,-2.0918076,-1.5708045,2.4797792,-0.018918969,0.016892938,-0.013342639,0.0021492708,0.002527032,-0.016429722,-0.7852981,0.038307227,-9.825804,0.7463667,47.675243,-0.93335056,-2.8263288,-3.3772204,-0.12319261,0.15783541,-0.12679188,28.5625,29.8125,28.875,32.625,35.0625,36.0625
0.030051585,-2.2916338,-0.625448,-1.8778825,-0.04438757,0.12422404,-0.14757814,-0.38937932,-0.3686545,0.059884183,-3.0785913,0.6246943,-0.00024296922,-0.011671677,0.004538432,-0.0024908802,0.00034301207,-0.0045233266,-0.0035582143,0.50484645,-1.3813497,1.9041094,-2.0917952,-1.570793,2.4797072,-0.019723259,0.017059665,-0.014942023,0.0019988737,0.0018550775,-0.01615969,-0.82360536,0.019153614,-9.940725,0.69041777,47.692257,-0.99530673,-2.7950623,-3.2947736,-0.12184326,0.15826082,-0.14013399,28.5625,29.8125,28.875,32.625,35.0625,36.0625
0.032052588,-2.1259463,-0.6086747,-1.7517906,-0.033168886,0.13064994,-0.15847138,-0.38939717,-0.36862153,0.059842356,-3.0785263,0.6247774,-0.00033011244,-0.011936402,0.0050501404,-0.0028315159,0.0013083094,-0.0056226244,-0.00394908,0.5047742,-1.3812773,1.9041218,-2.0918071,-1.570793,2.479695,-0.020636044,0.018009271,-0.015532322,0.0030698292,0.0015413469,-0.016680894,-0.8236054,-0.095768064,-9.902418,0.7105615,47.681515,-1.01859,-2.8885329,-3.3697548,-0.12575349,0.1663747,-0.17833033,28.5625,29.8125,28.875,32.625,35.0625,36.0625
0.034051806,-1.6924963,-0.34755066,-1.8874625,-0.0063320296,0.1275533,-0.16688925,-0.38945377,-0.36861274,0.059856407,-3.078536,0.6248365,-0.00026237572,-0.012273612,0.00552835,-0.0024319862,0.0016734508,-0.0061950567,-0.0032903275,0.50471395,-1.3812414,1.9040498,-2.0918176,-1.570805,2.4796705,-0.02172834,0.01772521,-0.01655694,0.005055989,0.001500835,-0.018431636,-0.80445176,-0.17238252,-9.844957,0.7665104,47.73256,-1.033222,-2.754093,-3.3891659,-0.1510264,0.17865461,-0.17213832,28.5625,29.8125,28.875,32.625,35.0625,36.0625
0.036051754,-1.6822982,0.37426722,-1.8677094,0.0010129324,0.09382629,-0.19321312,-0.38945985,-0.36859876,0.059851855,-3.0785112,0.6248895,-0.00031645608,-0.014106019,0.005907149,-0.0017707909,0.0006484562,-0.0042480966,-0.003649625,0.5046773,-1.3812292,1.9040378,-2.0917828,-1.570793,2.47967,-0.024046913,0.01802991,-0.018234564,0.0042293356,0.0014494982,-0.020390049,-0.7278373,-0.076614454,-9.749189,0.83589023,47.690468,-1.02939,-2.800712,-3.414796,-0.13615727,0.19436648,-0.18213427,28.5625,29.8125,28.875,32.625,35.0625,36.0625
0.03805235,-1.3681432,-0.36635458,-1.8127162,0.015272485,0.07190197,-0.18122952,-0.3895165,-0.36859143,0.05986877,-3.078528,0.62497085,-0.00028584487,-0.015511924,0.0066112066,-0.0020267074,0.00029969896,-0.0039407164,-0.0053591277,0.5046045,-1.3811927,1.9039534,-2.091771,-1.5707811,2.479646,-0.026639154,0.019266812,-0.018881636,0.0032015366,0.0016025372,-0.02127244,-0.61291564,-0.095768064,-9.768343,0.82022345,47.684196,-0.9153404,-2.78062,-3.3945732,-0.12812999,0.18008108,-0.17085874,28.5625,29.8125,28.875,32.625,35.0625,36.0625
0.04005256,-1.0360546,-0.20039432,-1.7649031,-0.010435096,0.07227611,-0.2000436,-0.3895359,-0.3685792,0.059838906,-3.078508,0.6249466,-0.00027437782,-0.016852383,0.0059000696,-0.0010023179,-0.0021271487,-0.0015996752,-0.005116047,0.5045804,-1.3811328,1.9039644,-2.0918314,-1.5708045,2.4796093,-0.027309418,0.019216476,-0.02089034,0.0020338695,0.0025874993,-0.022186633,-0.49799395,0.0,-9.710882,0.71951014,47.745995,-0.94237226,-2.7343788,-3.380567,-0.09670371,0.17657366,-0.22566687,28.5625,29.8125,28.875,32.625,35.0625,36.0625
0.042052507,-0.95223427,-0.35471806,-1.8229295,-0.025503267,0.07870453,-0.19602041,-0.3895802,-0.36854836,0.059829082,-3.07848,0.62501776,-0.00035656357,-0.018117193,0.00582598,-0.00031929128,-0.0034363412,-0.00023364591,-0.0045987917,0.50447214,-1.3810726,1.9039048,-2.0917838,-1.5707806,2.479549,-0.028663343,0.019390227,-0.022580428,0.0017204408,0.003067124,-0.024058074,-0.4405331,-0.05746084,-9.80665,0.69937176,47.64837,-0.965677,-2.7613046,-3.2788348,-0.09988467,0.16366968,-0.22699396,28.5625,29.8125,28.875,32.625,35.0625,36.0625
0.044052836,-1.1000574,-0.62131506,-1.7996826,-0.022198578,0.0737196,-0.18046665,-0.38963646,-0.36854377,0.05984094,-3.0784957,0.6250576,-0.00031391534,-0.018899467,0.0062223235,-0.0006471449,-0.0030922266,-0.00073924207,-0.0036898677,0.5044118,-1.381024,1.9038204,-2.0917838,-1.5707806,2.4795115,-0.030022033,0.020820497,-0.023561785,0.0018806772,0.0030086413,-0.026324863,-0.2681506,0.019153614,-9.768343,0.7396539,47.652847,-1.0078573,-2.715153,-3.3185463,-0.09036453,0.15956001,-0.22881657,28.5625,29.8125,28.875,32.625,35.0625,36.0625
0.0460518,-1.0375175,-0.9798787,-1.7243872,-0.0098933,0.05992243,-0.16119894,-0.38967627,-0.36852276,0.059846386,-3.0785146,0.6250413,-0.00028639438,-0.019948784,0.006998329,-0.00048018285,-0.0026760788,-0.0010572335,-0.0030093025,0.5043392,-1.3810118,1.9037961,-2.0917947,-1.5707806,2.4794264,-0.03217425,0.02144048,-0.02495989,0.0031390511,0.0027976437,-0.02915666,-0.1340753,0.076614454,-9.691729,0.75755644,47.678825,-0.92846215,-2.65281,-3.3416548,-0.09383316,0.17256421,-0.21575673,28.5625,29.8125,28.875,32.625,35.0625,36.0625
0.04805254,-0.024181152,-0.2784574,-1.6562911,-0.023877606,0.056677166,-0.18037781,-0.389701,-0.36852008,0.05984454,-3.0785115,0.62500215,-0.00024875836,-0.021061743,0.007634185,0.00012948725,-0.002680798,-0.00094432116,-0.0023688993,0.50432646,-1.3809758,1.9037603,-2.0918062,-1.5708045,2.4793897,-0.03425081,0.02146197,-0.026751742,0.0048075137,0.0027467196,-0.031872947,-0.038307227,0.17238252,-9.595961,0.77545905,47.703903,-0.82150686,-2.7026465,-3.2686281,-0.09498817,0.17110792,-0.23190424,28.5625,29.8125,28.875,32.625,35.0625,36.0625
0.050052088,-0.113283135,-0.3382882,-1.7344676,-0.024544638,0.032735474,-0.16860949,-0.38975093,-0.3684951,0.059852924,-3.0785058,0.62503934,-0.00027437942,-0.021814587,0.007690146,0.0002034714,-0.0032196224,-0.00075863046,-0.002254193,0.5042303,-1.3809394,1.9036874,-2.0917585,-1.5707926,2.4793174,-0.035281092,0.022194961,-0.027751692,0.0046507134,0.0031255607,-0.0330181,-0.038307227,0.24899697,-9.595961,0.7463667,47.703903,-0.8934163,-2.6875577,-3.2850723,-0.10678182,0.18524498,-0.21729729,28.5625,29.8125,28.875,32.625,35.0625,36.0625
0.052052036,-0.024252925,-0.43365493,-1.6316879,-0.039733265,0.032929514,-0.17115705,-0.38980696,-0.3684859,0.059842963,-3.078497,0.62507707,-0.00024917617,-0.02308794,0.008329377,-0.000115973045,-0.0038735832,-0.00082189473,-0.004062226,0.5041696,-1.3808551,1.9036158,-2.0917828,-1.570804,2.4792814,-0.03791662,0.023418898,-0.028249172,0.0036612619,0.0037255115,-0.033846125,0.038307227,0.17238252,-9.481039,0.82694155,47.688675,-0.83933854,-2.7085288,-3.294342,-0.09536789,0.16347566,-0.2602147,28.5625,29.8125,28.875,32.625,35.0625,36.0625
0.054052103,-0.5135333,-0.6103094,-1.7342299,-0.057666633,0.025144741,-0.16971299,-0.3898313,-0.36846,0.05984254,-3.0785103,0.62507915,-0.00034096267,-0.024115339,0.008626695,-6.623864e-05,-0.004448703,-0.00036997933,-0.0043020835,0.50407326,-1.3808428,1.9035915,-2.0917351,-1.5707558,2.4791846,-0.039549064,0.024130557,-0.029077902,0.0031057207,0.004006158,-0.035238843,0.11492168,0.21068975,-9.519346,0.83365434,47.716442,-0.81768584,-2.633173,-3.3443525,-0.0714348,0.185054,-0.27175003,28.5625,29.8125,28.875,32.625,35.0625,36.0625
0.056052193,-0.15779132,-1.1866691,-1.711679,-0.040831614,0.0385341,-0.1630479,-0.38990897,-0.36847198,0.05987314,-3.07857,0.6251468,-0.00023709022,-0.024714025,0.0077910814,0.00072296977,-0.00528735,0.000977797,-0.001955421,0.5040137,-1.3807946,1.9034704,-2.091759,-1.5707444,2.4791598,-0.038746767,0.024473218,-0.03136012,0.0034603497,0.0040886244,-0.036782015,0.038307227,0.19153613,-9.519346,0.7150385,47.653748,-0.8960669,-2.6444583,-3.322636,-0.06545646,0.19098146,-0.27860475,28.5625,29.8125,28.875,32.625,35.0625,36.0625
0.05805248,0.3297305,-0.4071463,-1.4287883,-0.045580406,0.05512557,-0.1793063,-0.38995805,-0.3684304,0.05986461,-3.078553,0.6251433,-0.00024130549,-0.026201895,0.008337289,0.001474852,-0.0059333234,0.0018318094,-0.0026391495,0.50390506,-1.3807585,1.903447,-2.0917585,-1.5707558,2.479051,-0.041144144,0.024479654,-0.03327111,0.0043045124,0.0042392067,-0.038495287,-0.038307227,0.22984336,-9.385271,0.7553206,47.652847,-0.85281277,-2.5487814,-3.2785358,-0.06737831,0.17080367,-0.28851974,28.5625,29.8125,28.875,32.625,35.0625,36.0625
0.06005238,-0.17787057,-0.071102254,-1.4686673,-0.04112902,0.04550076,-0.17398101,-0.39001074,-0.36841676,0.059867915,-3.0785532,0.62514365,-0.00024228463,-0.02688947,0.008485382,0.0014155008,-0.006728906,0.00090144423,-0.0033604903,0.5038326,-1.3806982,1.9033626,-2.0917342,-1.5707554,2.4789789,-0.0427449,0.025485491,-0.034466352,0.0049206573,0.005384028,-0.0393761,0.0,0.28730422,-9.404425,0.7351769,47.690468,-0.8852527,-2.5871296,-3.249065,-0.10318353,0.18108352,-0.30628058,28.5625,29.8125,28.875,32.625,35.0625,36.0625
0.062052254,0.104946084,-0.0859553,-1.4369289,-0.046100274,0.054138668,-0.17996146,-0.39008477,-0.36841393,0.05988976,-3.0786173,0.6251556,-0.00020902022,-0.027712863,0.008942679,0.0013843531,-0.006819448,0.00089219504,-0.0033394836,0.50373644,-1.3806499,1.9032558,-2.0917342,-1.5707196,2.478882,-0.04432791,0.026128802,-0.035160445,0.0049374267,0.0054686894,-0.04097956,-0.038307227,0.24899697,-9.32781,0.7418897,47.668976,-0.81068075,-2.5972295,-3.2724366,-0.0795438,0.17752916,-0.31219745,28.5625,29.8125,28.875,32.625,35.0625,36.0625
0.06405251,-0.5075319,-0.36359116,-1.3231869,-0.047278605,0.045469586,-0.17647843,-0.39012355,-0.3683953,0.05988506,-3.078606,0.62513226,-0.0002097892,-0.028242659,0.008964003,0.001351415,-0.006781679,0.0012252149,-0.0009240454,0.5036763,-1.3806015,1.9032067,-2.0917227,-1.5707315,2.4788089,-0.044731878,0.026876196,-0.03590866,0.004665285,0.005271841,-0.043798245,-0.11492168,0.15322891,-9.3661175,0.80679786,47.67345,-0.8100166,-2.5636873,-3.2686696,-0.078214556,0.16227329,-0.32640234,28.5625,29.8125,28.875,32.625,35.0625,36.0625
0.06605199,-1.1745852,-0.5337771,-1.4818791,-0.042474266,0.04612158,-0.16303042,-0.3902095,-0.36838564,0.05992122,-3.078678,0.62509,-9.523495e-05,-0.029594123,0.009442758,0.001571192,-0.0072188005,0.0017612539,-0.0016100775,0.5035799,-1.3805773,1.9030985,-2.0917346,-1.5707315,2.478677,-0.046867568,0.02765281,-0.037315506,0.0046150945,0.0053973035,-0.045246895,-0.21068975,0.21068975,-9.32781,0.800085,47.688675,-0.78180707,-2.553351,-3.228293,-0.06485401,0.1504074,-0.3316491,28.5625,29.8125,28.875,32.625,35.0625,36.0625
0.06805255,-0.4636778,-0.41350526,-1.1688387,-0.03723727,0.07735072,-0.16496214,-0.39027533,-0.36836234,0.05992843,-3.078668,0.6251828,-0.00010831071,-0.03083387,0.009236281,0.0021871652,-0.008032794,0.0029303667,-0.0019337689,0.50347185,-1.380517,1.9030026,-2.0916984,-1.5707196,2.4786282,-0.047759388,0.02837581,-0.039608,0.0047684084,0.0055420413,-0.045814227,-0.11492168,0.1340753,-9.442732,0.78217715,47.66808,-0.8520005,-2.5421963,-3.2346299,-0.07830918,0.17249486,-0.35896248,28.5625,29.8125,28.875,32.625,35.0625,36.0625
0.07005241,-0.6727658,-0.21384436,-1.2850779,-0.022861399,0.07850859,-0.16537051,-0.39030787,-0.3683392,0.05989902,-3.0786438,0.625196,-0.00020541075,-0.030672856,0.009540944,0.0015270492,-0.0074111684,0.0009369152,0.0011240985,0.50338763,-1.3804325,1.9029669,-2.0916865,-1.5706958,2.4785552,-0.048378192,0.029576449,-0.03975291,0.005758767,0.005958287,-0.049491778,-0.2681506,0.21068975,-9.270349,0.7418897,47.711964,-0.86783576,-2.4898462,-3.219263,-0.07615904,0.15875754,-0.33340615,28.5625,29.8125,28.875,32.625,35.0625,36.0625
0.07205228,-1.6274147,-0.05462165,-1.2253517,-0.013885227,0.06275189,-0.15543655,-0.39035946,-0.36831406,0.05987676,-3.078658,0.6251976,-0.00029740875,-0.032455545,0.010185328,0.0019599546,-0.008643493,0.0016336795,0.001658785,0.5032669,-1.3803481,1.9029177,-2.0916865,-1.5706471,2.4784336,-0.05157727,0.030120945,-0.04135007,0.005607335,0.006695954,-0.053226244,-0.34476504,0.114921674,-9.308657,0.73069996,47.68062,-0.81158805,-2.497943,-3.2645097,-0.09399261,0.15777144,-0.33245924,28.5625,29.8125,28.875,32.625,35.0625,36.0625
0.07405254,-1.5182599,0.044931576,-1.263445,-0.007757546,0.0671901,-0.1534983,-0.3903978,-0.36831105,0.059869133,-3.0786815,0.6250852,-0.0003256908,-0.033207204,0.010350561,0.0016388457,-0.0085128425,0.0014402755,0.004895481,0.5032186,-1.3802756,1.9028467,-2.0916746,-1.5706352,2.4783123,-0.052536026,0.03162608,-0.04233688,0.0053227646,0.00667059,-0.057421077,-0.40222588,0.05746084,-9.385271,0.7709874,47.672558,-0.7042435,-2.531599,-3.2561264,-0.063227914,0.14789523,-0.29184535,28.5625,29.8125,28.875,32.625,35.0625,36.0625
0.076052636,-0.8512566,0.032642618,-1.1576352,-0.0048822914,0.08847572,-0.15610963,-0.39048567,-0.36829135,0.059898272,-3.0787187,0.6250919,-0.00022594233,-0.033427548,0.009665985,0.0020155744,-0.008430537,0.0024807039,0.0065182666,0.5031113,-1.3802394,1.9027375,-2.0916746,-1.5706476,2.4782045,-0.051222812,0.03217157,-0.043865256,0.0054359664,0.006098484,-0.057728544,-0.4213795,0.038307227,-9.3661175,0.71279734,47.65643,-0.9614738,-2.5033095,-3.1989799,-0.08218887,0.1520505,-0.32111254,28.5625,29.8125,28.875,32.625,35.0625,36.0625
0.07805201,-1.1277431,0.33511746,-1.2567533,-0.016342621,0.087256916,-0.16663018,-0.39056054,-0.36827704,0.059906416,-3.0787587,0.6250594,-0.00022395956,-0.034749646,0.01055891,0.0018686886,-0.008353056,0.0025141828,0.008409991,0.5030026,-1.3801671,1.9026307,-2.0916622,-1.5706238,2.4780705,-0.05389443,0.03316007,-0.044660546,0.005253479,0.006013685,-0.062291123,-0.47884035,-0.019153614,-9.270349,0.7597976,47.66808,-0.8747668,-2.4618626,-3.2269535,-0.07405427,0.14944948,-0.28880325,28.5625,29.8125,28.875,32.625,35.0625,36.0625
0.08005211,-1.6882529,0.13023084,-1.2838346,-0.010518214,0.077443644,-0.15972595,-0.3906523,-0.36823744,0.05991982,-3.078765,0.62505895,-0.00018432926,-0.03627124,0.011448032,0.0019160041,-0.008403085,0.002551384,0.010034583,0.5028579,-1.3801067,1.9025234,-2.0916383,-1.5706357,2.4779248,-0.056811877,0.034183033,-0.04604998,0.0055635823,0.0060391687,-0.06683237,-0.49799395,-0.11492168,-9.346964,0.75084364,47.70032,-0.8403275,-2.518899,-3.1594226,-0.062487356,0.14247353,-0.24904071,28.5625,29.8125,28.875,32.625,35.0625,36.0625
0.08205171,-0.5618738,-0.2966207,-1.3331822,-0.002813859,0.10056742,-0.1563928,-0.3907224,-0.36823162,0.059916005,3.0787618,-0.6249791,0.00025864184,-0.036077086,0.012085976,0.00086312706,-0.0071156886,9.8509154e-05,0.01267933,0.50273794,-1.3800099,1.9024147,-2.091626,-1.5705637,2.4777553,-0.057730272,0.03579608,-0.04576386,0.006439928,0.0060959295,-0.07039557,-0.53630114,-0.095768064,-9.3661175,0.7038487,47.657326,-0.76602316,-2.5060947,-3.208323,-0.07478214,0.14073151,-0.20174941,28.5625,29.8125,28.875,32.625,35.0625,36.0625
0.08405178,-1.2325118,-0.08189757,-1.1995354,-0.009417751,0.08478496,-0.1559376,-0.3907894,-0.36818725,0.059931036,3.078791,-0.6249821,0.0001969206,-0.03578779,0.01133396,0.0008367124,-0.007157453,-0.0003701829,0.017397368,0.50263065,-1.3799856,1.9023436,-2.0915902,-1.5706114,2.4776464,-0.05635224,0.03669492,-0.046912108,0.007076575,0.006358157,-0.07373537,-0.49799395,-0.05746084,-9.385271,0.7777002,47.70211,-0.97301865,-2.5064335,-3.310907,-0.08332406,0.1377984,-0.16631499,28.5625,29.8125,28.875,32.625,35.0625,36.0625
0.08605208,-1.542827,-0.38044038,-1.2933074,-0.001983311,0.07916562,-0.15708734,-0.39086995,-0.3681833,0.059929207,3.0787687,-0.624919,0.00019175166,-0.03831484,0.01153799,0.0017621149,-0.008047332,0.0023120057,0.017847588,0.50253415,-1.3798773,1.9022225,-2.091602,-1.5705875,2.4775133,-0.05871243,0.037830606,-0.050230056,0.0064842617,0.0058394647,-0.07654325,-0.47884035,-0.15322891,-9.289503,0.7620334,47.685097,-0.9785865,-2.4816897,-3.1455226,-0.08267723,0.1289687,-0.124090746,28.5625,29.8125,28.875,32.625,35.0625,36.0625
0.08805254,-1.0858377,-0.007749851,-1.2364508,-0.007805717,0.0855719,-0.15955831,-0.3909356,-0.36815065,0.05992787,3.078786,-0.6248831,0.00018014682,-0.038342107,0.012357616,0.0004570598,-0.0069469158,0.0005228508,0.018614428,0.50242585,-1.3798165,1.902151,-2.0915906,-1.5705999,2.4773805,-0.06004545,0.03947899,-0.04904691,0.0057509714,0.005737923,-0.078643106,-0.40222588,-0.076614454,-9.308657,0.7217513,47.690468,-0.8939197,-2.5528412,-3.1977096,-0.06497531,0.14714645,-0.088065416,28.5625,29.8125,28.875,32.625,35.0625,36.0625
0.09005243,-1.0978178,-0.1560097,-1.3118087,-0.012080686,0.079096496,-0.15681468,-0.3910217,-0.36812913,0.059931457,3.0787714,-0.62478334,0.00017738875,-0.038914017,0.012054209,0.00082292623,-0.008132232,0.0012493108,0.018735558,0.50229406,-1.3797324,1.9020432,-2.0915906,-1.5705751,2.4771883,-0.06048337,0.03960702,-0.049931496,0.0053004217,0.0064264312,-0.079202645,-0.34476504,-0.076614454,-9.32781,0.6546126,47.704796,-0.9628792,-2.5700366,-3.3425589,-0.07489113,0.1519872,-0.063512385,28.5625,29.8125,28.875,32.625,35.0625,36.0625
0.09205256,-0.87288916,-0.48410755,-1.4912037,-0.012152359,0.074310556,-0.15163442,-0.39109823,-0.368099,0.05992707,3.0787601,-0.6247431,0.0002298738,-0.039768323,0.012385454,0.00046452542,-0.0074206633,0.00020806285,0.017081346,0.50214994,-1.3796475,1.9019474,-2.0915663,-1.5705394,2.4770205,-0.061746683,0.041688066,-0.051824108,0.0063713547,0.0063019246,-0.07881066,-0.36391866,0.095768064,-9.346964,0.7732232,47.64389,-0.9609039,-2.4953277,-3.250392,-0.08642516,0.117655575,-0.075505406,28.5625,29.8125,28.875,32.625,35.0625,36.0625
0.09405255,-0.71024233,-0.25981402,-1.4748273,-0.019913848,0.061764166,-0.15084943,-0.3911854,-0.36804822,0.059917178,3.0788097,-0.6247146,0.0002214981,-0.041441776,0.011938796,0.0018525043,-0.008412046,0.0030150507,0.01552932,0.502006,-1.3795514,1.9018506,-2.091542,-1.5705756,2.4768527,-0.062233113,0.041767634,-0.05514981,0.006679524,0.005812542,-0.077743135,-0.38307226,0.1340753,-9.423578,0.75755644,47.668976,-1.065969,-2.6136374,-3.1314144,-0.07477127,0.1449964,-0.055709243,28.5625,29.8125,28.875,32.625,35.0625,36.0625
0.096051626,-0.5357552,-0.28660697,-1.5578936,-0.027834645,0.06313925,-0.15489091,-0.39125964,-0.36802667,0.05991121,3.0787995,-0.62463677,0.00023269307,-0.04144022,0.012818841,0.00069437845,-0.0070650186,0.0012466761,0.012847219,0.5018859,-1.3794671,1.9017671,-2.091554,-1.5705518,2.4766853,-0.0634978,0.04319519,-0.054158196,0.006462248,0.0054857694,-0.07632531,-0.24899697,0.15322891,-9.500193,0.7217513,47.68599,-1.1112301,-2.4802287,-3.2101047,-0.09244849,0.15751529,-0.071758725,28.5625,29.8125,28.875,32.625,35.0625,36.0625
0.098052144,-0.502036,-0.5005504,-1.6414899,-0.04409728,0.058535356,-0.15787834,-0.3913356,-0.36799207,0.0599035,3.0788043,-0.6246388,0.00030156074,-0.0417478,0.01308465,0.000283197,-0.006714401,0.0006539981,0.010507575,0.50174195,-1.3793703,1.9016594,-2.0915062,-1.5705274,2.476542,-0.064203516,0.044211578,-0.054413512,0.0063919183,0.0054607075,-0.07469129,-0.22984336,0.24899697,-9.442732,0.8023209,47.695843,-1.104485,-2.616427,-3.3233366,-0.085670516,0.15735811,-0.101555765,28.5625,29.8125,28.875,32.625,35.0625,36.0625
0.10005219,-0.31617954,-0.47830886,-1.7296053,-0.06122797,0.06364519,-0.16264285,-0.39144117,-0.36797178,0.05991668,3.0787625,-0.62468845,0.00024470166,-0.043268465,0.013089822,0.00073759904,-0.0075329076,0.001507121,0.007171668,0.50160974,-1.379274,1.9015154,-2.0915062,-1.5705274,2.4764462,-0.065799564,0.04540583,-0.05689784,0.006539727,0.0057672607,-0.07295047,-0.21068975,0.2681506,-9.423578,0.7665104,47.704796,-1.068649,-2.5293052,-3.2283893,-0.08643788,0.17027383,-0.14728041,28.5625,29.8125,28.875,32.625,35.0625,36.0625
0.102052405,-0.59872377,-1.1418954,-1.672256,-0.05062946,0.050500248,-0.15133546,-0.39154375,-0.36794722,0.0599341,3.0787408,-0.6246272,0.00021363852,-0.044093516,0.013153533,0.0012924275,-0.008685293,0.0021154121,0.0046755695,0.50146544,-1.37919,1.9013709,-2.0914824,-1.570515,2.4762664,-0.06710411,0.045217358,-0.057981767,0.0067236717,0.0064868266,-0.071759395,-0.1340753,0.22984336,-9.423578,0.7486078,47.666286,-1.1135124,-2.5354428,-3.26174,-0.08578767,0.15387547,-0.1716316,28.5625,29.8125,28.875,32.625,35.0625,36.0625
0.1040527,-0.4193532,-0.55185795,-1.7337859,-0.06053243,0.044275973,-0.15934151,-0.39163795,-0.36792064,0.05992666,3.0787268,-0.62462544,0.00018805111,-0.044771053,0.013574476,-1.4926051e-05,-0.007971924,0.00016032101,0.0023932636,0.5013333,-1.3790809,1.9012641,-2.0915062,-1.570515,2.476135,-0.06862315,0.048436426,-0.0587285,0.006308278,0.0068005947,-0.07099561,0.0,0.2681506,-9.442732,0.71951014,47.65643,-1.1176351,-2.6542478,-3.2735116,-0.08867275,0.15797156,-0.19861403,28.5625,29.8125,28.875,32.625,35.0625,36.0625
0.10605164,-0.30085334,-1.3904068,-1.6650313,-0.039429687,0.040681776,-0.15038352,-0.39171296,-0.3678716,0.05991032,3.078773,-0.6245967,0.00023161543,-0.04627662,0.0140677355,0.00047117495,-0.008294675,0.0017559954,-5.585045e-07,0.50118893,-1.3789845,1.9011792,-2.091471,-1.5705274,2.475967,-0.070531346,0.048730113,-0.060072795,0.005806224,0.0063101496,-0.07050893,-0.019153614,0.3256114,-9.461885,0.7642693,47.68062,-1.1442398,-2.6172442,-3.2837167,-0.094714,0.15624034,-0.23668386,28.5625,29.8125,28.875,32.625,35.0625,36.0625
0.10805193,-0.13455386,-0.6877016,-1.593898,-0.057231862,0.0363446,-0.16518028,-0.3918197,-0.3678824,0.059951924,3.0787165,-0.6244302,0.00012738249,-0.047186572,0.013879959,0.001852887,-0.009849186,0.0043075164,0.0019730546,0.501093,-1.378913,1.9009999,-2.091471,-1.5705031,2.4757743,-0.07112898,0.04704823,-0.061183892,0.005616948,0.0064532487,-0.073079504,-0.038307227,0.30645782,-9.423578,0.800085,47.67614,-1.0838354,-2.4778752,-3.3074923,-0.10063479,0.16670176,-0.24777289,28.5625,29.8125,28.875,32.625,35.0625,36.0625
0.110051885,-0.56586915,-0.3623056,-1.773268,-0.057539437,0.028161433,-0.15949507,-0.39188513,-0.3678346,0.059907738,3.0787334,-0.6245305,0.00025455377,-0.047729548,0.014297568,0.0008153498,-0.009722917,0.0017877503,-0.0016270932,0.5009367,-1.37878,1.9009403,-2.091459,-1.5704788,2.4756784,-0.073005185,0.049701855,-0.06209072,0.006139375,0.007546986,-0.07135703,-0.095768064,0.2681506,-9.5385,0.779936,47.711063,-1.1617551,-2.5231872,-3.2773356,-0.10705493,0.16123337,-0.29075676,28.5625,29.8125,28.875,32.625,35.0625,36.0625
0.11205193,-0.8187523,-0.48181388,-1.7445034,-0.05369266,0.029674986,-0.15833908,-0.3920053,-0.3678098,0.059935242,3.0786853,-0.62448263,0.00020784671,-0.048318043,0.014246581,0.00037995545,-0.010014856,0.0006053947,-0.0021561517,0.5007687,-1.3786954,1.900772,-2.0914347,-1.570455,2.4754868,-0.07395933,0.051660903,-0.06350229,0.0064889914,0.00837376,-0.071782015,-0.05746084,0.2681506,-9.461885,0.75084364,47.685097,-1.1211596,-2.5758197,-3.2615547,-0.085600734,0.15005587,-0.3384145,28.5625,29.8125,28.875,32.625,35.0625,36.0625
0.11405119,-0.08984503,-0.31758502,-1.412785,-0.053897213,0.057932246,-0.1560673,-0.3921182,-0.36776596,0.059945583,3.0786788,-0.6245753,0.00014419243,-0.049212486,0.014340855,3.3033262e-05,-0.010119685,0.00038020464,-0.00088194164,0.5006127,-1.3785986,1.9006284,-2.0914109,-1.5704907,2.4753895,-0.07505223,0.05346538,-0.06476462,0.0060926257,0.008572751,-0.074148394,-0.05746084,0.24899697,-9.423578,0.80456203,47.70211,-1.240734,-2.6446385,-3.2971888,-0.08839823,0.15478076,-0.33791935,28.5625,29.8125,28.875,32.625,35.0625,36.0625
0.11605209,-0.5077016,-0.6962908,-1.6543273,-0.038311895,0.06203788,-0.14643572,-0.39219025,-0.36775845,0.05993545,3.078618,-0.6245074,0.00021422586,-0.04997973,0.014014092,0.0016026278,-0.011928977,0.0029559934,-0.003991274,0.5004808,-1.3785032,1.900544,-2.0914352,-1.5704063,2.4752228,-0.07541433,0.051411033,-0.065927744,0.006187363,0.008923291,-0.07140142,-0.095768064,0.22984336,-9.3661175,0.76874626,47.691364,-1.2407918,-2.5500503,-3.3166943,-0.0985311,0.15390842,-0.41303575,28.5625,29.8125,28.875,32.625,35.0625,36.0625
0.11805276,-0.5615698,-0.26656857,-1.6183425,-0.035015117,0.06528018,-0.1478228,-0.39228982,-0.36771995,0.059919458,3.0786383,-0.62452954,0.0002597368,-0.051595576,0.015207559,0.0013145008,-0.01253034,0.002229301,-0.005333493,0.5003238,-1.3783586,1.900401,-2.091399,-1.5704063,2.4750772,-0.07944267,0.052634854,-0.06670722,0.006091185,0.00979632,-0.07408863,-0.1340753,0.19153613,-9.442732,0.7553206,47.68599,-1.1659126,-2.5561326,-3.312344,-0.09246258,0.12547913,-0.47077066,28.5625,29.8125,28.875,32.625,35.0625,36.0625
0.120051965,-0.49343085,-0.32913563,-1.6611649,-0.023485353,0.06687586,-0.14990129,-0.39239034,-0.36770657,0.059941255,3.07861,-0.62442374,0.00022896776,-0.05128285,0.014089487,0.0011618455,-0.012116196,0.0019021063,0.00069495547,0.50019306,-1.3782738,1.9002455,-2.0913746,-1.570382,2.474884,-0.07712771,0.054350503,-0.06853124,0.006690337,0.009592016,-0.077800445,-0.1340753,0.095768064,-9.442732,0.7866488,47.69763,-1.3354204,-2.5072582,-3.3143387,-0.09153958,0.11679194,-0.46527696,28.5625,29.8125,28.875,32.625,35.0625,36.0625
0.122052,-0.4845608,0.0056438176,-1.6456689,-0.018626347,0.07291999,-0.14419393,-0.39250046,-0.36769,0.05993823,3.0785809,-0.6243583,0.00021029082,-0.052546587,0.014784943,0.0012506684,-0.012193616,0.0018343,0.002318773,0.50004846,-1.3781415,1.9001011,-2.0913985,-1.5703582,2.4747024,-0.07950939,0.055245485,-0.06991712,0.0072079087,0.009694984,-0.08180511,-0.19153614,0.038307227,-9.442732,0.8179876,47.688675,-1.3797342,-2.5348911,-3.2868547,-0.12191865,0.11983332,-0.48163503,28.5625,29.8125,28.875,32.625,35.0625,36.0625
0.12405202,-0.27584207,0.12833658,-1.5127788,-0.015910601,0.08277932,-0.1550505,-0.39263114,-0.36764002,0.059953988,3.0785441,-0.6244238,0.00016819769,-0.05389473,0.015724491,0.0011091705,-0.012541338,0.0015679708,0.007210505,0.4998436,-1.3780451,1.8999456,-2.0913746,-1.5703582,2.474543,-0.0825824,0.056167368,-0.07066925,0.0071084164,0.010131544,-0.08976964,-0.24899697,-0.019153614,-9.442732,0.7777002,47.687782,-1.0899096,-2.4696214,-3.3409748,-0.11555556,0.111535236,-0.4036376,28.5625,29.8125,28.8125,32.625,35.0625,36.0625
0.12605213,-0.7843895,0.10600241,-1.570982,-0.007652456,0.078846745,-0.14650005,-0.39272705,-0.3675952,0.059940852,3.0785532,-0.6244028,0.00023541099,-0.055342298,0.014543907,0.002588736,-0.014136441,0.0048798234,0.012099044,0.4996647,-1.377925,1.899825,-2.0913384,-1.5703343,2.47435,-0.08179176,0.056422204,-0.07427024,0.0067895665,0.009934797,-0.09386613,-0.24899697,-0.05746084,-9.385271,0.7732232,47.651955,-1.4010346,-2.4976254,-3.1534152,-0.092989035,0.09998915,-0.398937,28.5625,29.8125,28.8125,32.625,35.0625,36.0625
0.1280526,-0.8612563,0.22933413,-1.5367771,-0.01487837,0.091877855,-0.15644588,-0.39281285,-0.36757863,0.0599235,3.0785296,-0.6243348,0.00031438677,-0.05496148,0.01581242,5.3919757e-05,-0.011402122,0.00012191295,0.020461194,0.49952012,-1.3777914,1.8997062,-2.0913384,-1.5702742,2.474166,-0.083484784,0.060212854,-0.07313275,0.0073595974,0.009818632,-0.10392123,-0.38307226,-0.038307227,-9.385271,0.82694155,47.67614,-1.3722227,-2.6296787,-3.3019474,-0.11210127,0.11026744,-0.3264979,28.5625,29.8125,28.8125,32.625,35.0625,36.0625
0.13005243,-1.1548449,0.07601341,-1.522032,-0.020179389,0.09992278,-0.15645748,-0.39293242,-0.367553,0.059945576,3.0785146,-0.6241574,0.0002798312,-0.057071395,0.015844677,0.002280649,-0.013563237,0.0037689402,0.022038076,0.49935177,-1.377696,1.8995374,-2.091314,-1.5702504,2.4738889,-0.08555536,0.0583899,-0.07618805,0.008006558,0.009970869,-0.10756755,-0.4405331,-0.05746084,-9.346964,0.74413085,47.679718,-1.2923653,-2.50154,-3.3229852,-0.118516296,0.099032745,-0.25438887,28.5625,29.8125,28.8125,32.625,35.0625,36.0625
0.13205208,-1.1448653,-0.09858929,-1.4852675,-0.015027364,0.107501544,-0.15134159,-0.39305273,-0.36752343,0.05993374,3.078513,-0.6240787,0.000278737,-0.05889145,0.01645922,0.0029516658,-0.014046813,0.005058132,0.02423823,0.4991832,-1.3775398,1.899382,-2.0913265,-1.570238,2.4736714,-0.08812306,0.0588534,-0.07834897,0.008346611,0.009778018,-0.112334155,-0.49799395,0.0,-9.461885,0.7866488,47.65106,-1.3405838,-2.4422104,-3.0867076,-0.12317157,0.10457187,-0.2322405,28.5625,29.8125,28.8125,32.625,35.0625,36.0625
0.13405201,-0.9328158,-0.12079613,-1.5520287,-0.020728253,0.11521613,-0.14925918,-0.39315033,-0.36746842,0.059930842,3.0785472,-0.6240834,0.00028513215,-0.05799645,0.016882516,0.0004076735,-0.012166148,0.00027623694,0.0268901,0.49901545,-1.3774424,1.8992623,-2.0912788,-1.5702618,2.4735024,-0.08838944,0.062747605,-0.07719534,0.008395496,0.010417174,-0.11525337,-0.47884035,0.095768064,-9.481039,0.7911258,47.67345,-1.2741845,-2.479768,-3.3073,-0.14314133,0.09008298,-0.16062137,28.5625,29.8125,28.8125,32.625,35.0625,36.0625
0.13605227,-1.1090878,-0.21749875,-1.5180621,-0.039373092,0.12988214,-0.15202007,-0.39331013,-0.36744094,0.05994823,3.0785017,-0.6239779,0.00025092968,-0.05933886,0.01706538,0.0013321929,-0.012572464,0.0022180083,0.025887907,0.49879962,-1.3772862,1.8990349,-2.0912664,-1.5702261,2.4732265,-0.08954662,0.062544756,-0.07911912,0.008631185,0.009849546,-0.11540633,-0.63206923,0.05746084,-9.5385,0.80456203,47.677036,-1.4130352,-2.5954874,-3.2341404,-0.13090795,0.08588626,-0.13663556,28.5625,29.8125,28.8125,32.625,35.0625,36.0625
0.13805261,-1.0516598,-0.033579197,-1.5791171,-0.04979033,0.13274387,-0.15165833,-0.39339787,-0.36741123,0.059942365,3.0785093,-0.623887,0.00028986554,-0.06211156,0.019025367,0.0025383814,-0.012989771,0.0042850696,0.01819762,0.49865392,-1.3771785,1.8989152,-2.091242,-1.5702022,2.4730232,-0.094988,0.061552756,-0.080855444,0.009349971,0.009224694,-0.11315629,-0.59376204,0.05746084,-9.442732,0.7597976,47.653748,-1.1461506,-2.338135,-3.2248106,-0.14025293,0.089248836,-0.17714931,28.5625,29.8125,28.8125,32.625,35.0625,36.0625
0.14005274,-1.1706629,0.028213825,-1.7111892,-0.040989507,0.123928994,-0.15293327,-0.3935241,-0.36737397,0.059930265,3.0785205,-0.62379354,0.00027659506,-0.061978094,0.018888254,0.0014436656,-0.012130884,0.002772228,0.01439535,0.4984749,-1.3770214,1.8987592,-2.0912545,-1.5702022,2.4727845,-0.09458909,0.06392801,-0.081102975,0.008961332,0.009194383,-0.108954474,-0.6512229,0.019153614,-9.5385,0.78217715,47.682407,-1.3764112,-2.4950316,-3.27336,-0.16225904,0.08795381,-0.19483185,28.5625,29.8125,28.8125,32.625,35.0625,36.0625
0.14205159,-0.55566585,-0.2406571,-1.601158,-0.03278596,0.12960102,-0.15810832,-0.3936599,-0.36732283,0.059938252,3.0784843,-0.6238286,0.00034110982,-0.064345814,0.01999508,0.0022463622,-0.013175482,0.0043511214,0.006515725,0.49823385,-1.3768892,1.898568,-2.0911825,-1.5701541,2.47257,-0.09869565,0.064022236,-0.08303812,0.008920975,0.00935303,-0.105180964,-0.7086837,0.095768064,-9.461885,0.8157518,47.70032,-1.189722,-2.4476166,-3.2086024,-0.1425474,0.08934717,-0.25632113,28.5625,29.8125,28.8125,32.625,35.0625,36.0625
0.14405167,-0.6356931,-0.15649725,-1.4851595,-0.02674123,0.12531827,-0.15300407,-0.3937813,-0.3672878,0.059935953,3.0784311,-0.6238387,0.00033428558,-0.0662452,0.021107012,0.002336803,-0.013093903,0.005109054,0.0020337587,0.49804124,-1.376769,1.898436,-2.0912063,-1.5701188,2.4723904,-0.10201528,0.065055996,-0.084413044,0.008641724,0.008921056,-0.104017034,-0.7086837,0.05746084,-9.500193,0.8112748,47.70211,-1.141938,-2.402395,-3.2584581,-0.1596229,0.08646938,-0.31776965,28.5625,29.8125,28.8125,32.625,35.0625,36.0625
0.14605191,-0.8168668,-0.11789824,-1.6910998,-0.01660439,0.10713565,-0.1442671,-0.39395168,-0.36721328,0.05993773,3.0784218,-0.62398887,0.00025647294,-0.067513786,0.02166806,0.0023273204,-0.013400087,0.0056641465,0.0012017128,0.49778908,-1.3766124,1.8982438,-2.0911949,-1.570167,2.4722333,-0.104090296,0.06595249,-0.08532289,0.00801911,0.008927137,-0.105259255,-0.63206923,-0.019153614,-9.481039,0.7866488,47.689575,-0.991094,-2.3546746,-3.3776598,-0.1613412,0.08956468,-0.30760053,28.5625,29.8125,28.8125,32.625,35.0625,36.0625
0.14805178,0.2420339,0.48951218,-1.3798848,-0.027552653,0.13101529,-0.15265858,-0.3940579,-0.3671934,0.059931967,3.078395,-0.62384963,0.0003037168,-0.06950271,0.021834577,0.003329192,-0.015156402,0.007878906,-0.00020057609,0.4976203,-1.3764802,1.8981003,-2.0911953,-1.5701064,2.471981,-0.1064701,0.06603131,-0.087561846,0.0074014836,0.00941032,-0.106236316,-0.51714754,-0.019153614,-9.461885,0.83589023,47.71286,-1.0154253,-2.3652377,-3.115605,-0.1532501,0.10433744,-0.34394103,28.5625,29.8125,28.8125,32.625,35.0625,36.0625
0.1500519,-1.3225794,-0.5637768,-1.6100701,-0.0073683863,0.09564374,-0.13772899,-0.39419225,-0.367159,0.059949916,3.0783691,-0.6238065,0.00032960626,-0.06959417,0.022883942,0.002464998,-0.013857445,0.006117796,-0.001953197,0.4974165,-1.3763477,1.8978857,-2.0911224,-1.5700701,2.4717536,-0.1081012,0.06699178,-0.086859494,0.007912994,0.00911562,-0.10611455,-0.6895301,-0.095768064,-9.461885,0.8224646,47.675243,-0.8767204,-2.3589096,-3.2999172,-0.1608979,0.08186853,-0.38219073,28.5625,29.8125,28.8125,32.625,35.0625,36.0625
0.15205184,-0.60822934,0.46648934,-1.343144,-0.023725579,0.114558056,-0.15118842,-0.39433733,-0.36709526,0.05996587,3.0783083,-0.62390834,0.00025509845,-0.07244788,0.022509998,0.0041354634,-0.015244948,0.009645091,-0.0028054859,0.49717632,-1.3762634,1.8977522,-2.0911348,-1.5700706,2.4715848,-0.109768085,0.06809309,-0.09204158,0.00823617,0.008651928,-0.10692587,-0.6512228,-0.05746084,-9.557653,0.80679786,47.686886,-0.90659153,-2.2889118,-3.1812115,-0.1480283,0.0918508,-0.3713969,28.5625,29.8125,28.8125,32.625,35.0625,36.0625
0.15405189,-0.67821723,0.50632745,-1.4545628,-0.01566781,0.11611827,-0.15742397,-0.39451286,-0.3670551,0.059975225,3.0782597,-0.62385756,0.00023788285,-0.071677215,0.02336981,0.0026878854,-0.014210594,0.0066084564,-0.0018096856,0.49692476,-1.3760827,1.8975137,-2.0911224,-1.5700339,2.4713078,-0.11080392,0.06908965,-0.08996448,0.008330507,0.009204601,-0.10895843,-0.49799395,-0.076614454,-9.519346,0.800085,47.63852,-0.885038,-2.363931,-3.2774405,-0.15221268,0.10046962,-0.4198082,28.5625,29.8125,28.8125,32.625,35.0625,36.0625
0.15605189,-0.8386151,0.023260599,-1.5298972,-0.0048974836,0.11366268,-0.15369171,-0.3946159,-0.36699724,0.059955284,3.0783093,-0.62376684,0.00029554256,-0.07257991,0.022998024,0.0029308607,-0.015052093,0.0071698013,0.0039676586,0.49673295,-1.3759503,1.8973941,-2.091087,-1.5700339,2.4710531,-0.11127033,0.07025296,-0.09187345,0.008185943,0.0096715605,-0.11520223,-0.34476504,0.0,-9.461885,0.7665104,47.677036,-0.9988596,-2.245494,-3.2308817,-0.1772622,0.0787905,-0.38170218,28.5625,29.8125,28.8125,32.625,35.0625,36.0625
0.15805204,-0.6357844,0.08338151,-1.4503645,-0.0066838926,0.1034309,-0.15790075,-0.39477482,-0.36697152,0.059969876,3.0782504,-0.6237322,0.00023372257,-0.07308449,0.02322655,0.0028624367,-0.014406987,0.00708575,0.009950978,0.4965291,-1.3757939,1.897178,-2.091099,-1.5700101,2.4708352,-0.111756064,0.07116255,-0.092928424,0.008723751,0.009156841,-0.12166956,-0.21068975,-0.019153614,-9.3661175,0.8291774,47.661808,-1.0205225,-2.2928655,-3.2453527,-0.16444351,0.08102465,-0.32044014,28.5625,29.8125,28.8125,32.625,35.0625,36.0625
0.16005212,-0.27787536,0.4056006,-1.4964901,-0.021477543,0.08986474,-0.15946582,-0.39493528,-0.36690682,0.059978593,3.0782325,-0.6237423,0.0002341935,-0.07340135,0.023223916,0.0024675096,-0.0140875885,0.0063649244,0.017154733,0.49626583,-1.3756491,1.8969754,-2.0910509,-1.5699981,2.4705806,-0.112042546,0.07265642,-0.09386694,0.0089633465,0.0092253005,-0.12915923,-0.19153613,-0.019153614,-9.308656,0.7665104,47.684196,-1.1496044,-2.301214,-3.2837715,-0.16370027,0.0958739,-0.26521194,28.5625,29.8125,28.8125,32.625,35.0625,36.0625
0.16205215,-0.3863672,-0.24655032,-1.5721016,-0.026642766,0.071845986,-0.15102786,-0.3950681,-0.36687508,0.059965987,3.0782084,-0.6236363,0.00026760533,-0.07468454,0.024000106,0.0024264802,-0.013703939,0.0069572534,0.023690326,0.49606115,-1.3754808,1.8968071,-2.0910633,-1.5699505,2.4703128,-0.114104345,0.07357447,-0.094806716,0.008663651,0.008610834,-0.13775535,-0.17238252,0.038307227,-9.3661175,0.8090337,47.687782,-0.9140657,-2.2694666,-3.3493805,-0.18837568,0.08308022,-0.1960246,28.5625,29.8125,28.8125,32.625,35.0625,36.0625
0.16405213,-0.13167435,-0.5793727,-1.5705438,-0.028074106,0.07217122,-0.15145203,-0.39522985,-0.36680734,0.059969857,3.0782516,-0.62352777,0.00021877093,-0.075528525,0.024736417,0.0017309276,-0.012453523,0.006019319,0.024045313,0.49582162,-1.375324,1.896604,-2.091027,-1.5699867,2.4700003,-0.115670584,0.075669274,-0.09579435,0.00897728,0.007961038,-0.13967514,-0.17238252,0.17238252,-9.385271,0.8023209,47.70032,-1.1483314,-2.3793204,-3.2811642,-0.15562126,0.10047629,-0.11097449,28.5625,29.8125,28.8125,32.625,35.0625,36.0625
0.16605219,0.5325532,-0.373978,-1.5468876,-0.038234048,0.082160495,-0.16481659,-0.39541036,-0.3667583,0.060002707,3.078197,-0.62349904,7.903691e-05,-0.07650912,0.025152382,0.001943374,-0.012702605,0.006359203,0.022006828,0.49558145,-1.3752035,1.8963889,-2.0910385,-1.5699986,2.4697492,-0.11726393,0.07616672,-0.096923254,0.009191057,0.008033831,-0.13922875,-0.095768064,0.1340753,-9.346964,0.8157518,47.690468,-0.950264,-2.317864,-3.242957,-0.1882717,0.12297121,-0.087934434,28.5625,29.8125,28.8125,32.625,35.0625,36.0625
0.16805248,-0.41258124,-0.5603433,-1.5533131,-0.039810933,0.049984433,-0.14767356,-0.39553833,-0.36669493,0.059995472,3.0782466,-0.6234149,0.0001097052,-0.07760358,0.025345046,0.0024131397,-0.013081274,0.0070575434,0.016831474,0.49536523,-1.3750592,1.8962206,-2.0909789,-1.5700105,2.4694743,-0.11854978,0.07665605,-0.09869204,0.0096735405,0.008027947,-0.13533881,-0.05746084,0.15322891,-9.385271,0.7597976,47.66987,-0.97523475,-2.32243,-3.317775,-0.19515723,0.11821373,-0.12762997,28.5625,29.8125,28.8125,32.625,35.0625,36.0625
0.17005256,-0.26864547,-0.37828314,-1.4868088,-0.050116636,0.05013486,-0.1547784,-0.39569768,-0.36665833,0.059984643,3.0781827,-0.6233853,0.00015830305,-0.07750314,0.025970362,0.0004510588,-0.011467604,0.0028148582,0.010529537,0.49511334,-1.3748658,1.8960179,-2.0909898,-1.5699385,2.469212,-0.1198373,0.08049212,-0.09902943,0.010680559,0.008628744,-0.1303242,-0.095768064,0.2873042,-9.385271,0.69937176,47.689575,-1.0047874,-2.3495963,-3.2658658,-0.19512811,0.115593866,-0.173734,28.5625,29.8125,28.8125,32.625,35.0625,36.0625
0.17205255,0.28819403,-0.22658105,-1.5310998,-0.054450244,0.06093053,-0.16425587,-0.39586604,-0.36658603,0.059995856,3.0782046,-0.62333506,9.1792215e-05,-0.07936777,0.027056394,0.0017720622,-0.012597037,0.0056139207,0.002444411,0.4948605,-1.3747222,1.8958138,-2.090954,-1.5699748,2.4689252,-0.12311016,0.07863796,-0.09974078,0.010241642,0.008293461,-0.12551141,0.0,0.2681506,-9.346964,0.78217715,47.647476,-0.9338548,-2.369149,-3.3056676,-0.20885077,0.12652685,-0.24584748,28.5625,29.8125,28.8125,32.625,35.0625,36.0625
0.17405237,-0.34314084,-0.22201006,-1.4665917,-0.051539727,0.040316693,-0.15374622,-0.39603323,-0.36656472,0.060016036,3.0780985,-0.6233497,5.092074e-05,-0.07962039,0.02489376,0.0031854662,-0.015081819,0.0081811305,0.0024885614,0.4946345,-1.3745662,1.8955854,-2.0909665,-1.5699142,2.4687219,-0.12025868,0.07845787,-0.10267572,0.009921358,0.009265914,-0.12270308,0.019153614,0.21068975,-9.346964,0.87617236,47.694946,-1.1548692,-2.250649,-3.199318,-0.20710304,0.12753661,-0.31990582,28.5625,29.8125,28.8125,32.625,35.0625,36.0625
0.17605242,-0.117678955,0.1320345,-1.4103916,-0.061671022,0.03782174,-0.15583955,-0.3961934,-0.36647522,0.05999986,3.0781097,-0.6233934,5.890492e-05,-0.079637304,0.02712729,-0.00030753922,-0.011597856,0.0017742976,-0.0027177283,0.49434534,-1.3744084,1.8954319,-2.090954,-1.5699261,2.4684587,-0.123972885,0.08367387,-0.10104759,0.010370215,0.009244611,-0.121211015,0.019153614,0.21068975,-9.3661175,0.7777002,47.653748,-0.9473901,-2.3638453,-3.4275274,-0.20044285,0.13524845,-0.3665416,28.5625,29.8125,28.8125,32.625,35.0625,36.0625
0.17805174,0.31532598,-0.35405907,-1.3091503,-0.054743074,0.051411573,-0.15539889,-0.3963748,-0.36643746,0.060009968,3.078044,-0.6234181,3.5091278e-05,-0.081600524,0.02584798,0.0025069828,-0.014339887,0.0070260484,-0.003717889,0.49409428,-1.3742168,1.8951787,-2.0909421,-1.5698904,2.4682314,-0.12350781,0.081983134,-0.10550002,0.010595206,0.009165752,-0.11974384,0.019153614,0.17238252,-9.289502,0.8784135,47.647476,-1.150768,-2.2821193,-3.3027072,-0.195782,0.14062148,-0.41956437,28.5625,29.8125,28.8125,32.625,35.0625,36.0625
0.18005201,0.65718514,-0.29432634,-1.5746887,-0.049400456,0.058493745,-0.15241879,-0.39651373,-0.36638057,0.060008164,3.0780363,-0.62339604,0.00013106252,-0.08124812,0.0269817,0.0004993782,-0.012734672,0.0030237187,-0.0046397587,0.49384215,-1.3740596,1.894977,-2.0908582,-1.5698422,2.4679666,-0.12535277,0.084597506,-0.10412443,0.010897417,0.009652291,-0.12066789,-0.05746084,0.24899697,-9.251195,0.7978386,47.696735,-1.1472312,-2.338825,-3.4432888,-0.21434252,0.13678548,-0.46871114,28.5625,29.8125,28.8125,32.625,35.0625,36.0625
0.18205212,0.39958224,-0.51927394,-1.4532436,-0.03738548,0.054146796,-0.1585321,-0.396688,-0.3663331,0.0600114,3.0780108,-0.6234659,2.205888e-05,-0.08277179,0.026980707,0.00094917696,-0.013597949,0.003546124,-0.0035700179,0.49362612,-1.373879,1.8947605,-2.0908825,-1.5698785,2.4677975,-0.1270112,0.085979536,-0.106927626,0.011447671,0.010171144,-0.12339465,0.038307227,0.21068975,-9.308656,0.83813137,47.67345,-1.1210395,-2.343037,-3.2609446,-0.22895846,0.13395321,-0.48982996,28.5625,29.8125,28.8125,32.625,35.0625,36.0625
0.1840522,0.6151617,0.2786426,-1.3110379,-0.050678782,0.052911278,-0.17124893,-0.3968507,-0.3662936,0.060026333,3.0779705,-0.62331575,3.9364848e-05,-0.084077895,0.026968675,0.0014316665,-0.01431758,0.0050179185,0.0054236134,0.49337447,-1.3737226,1.8945326,-2.0908468,-1.5698184,2.4674573,-0.1280943,0.08665449,-0.10872508,0.01095235,0.01011677,-0.13347018,0.038307227,0.2681506,-9.308657,0.7709874,47.682407,-1.1157905,-2.2076995,-3.2927117,-0.23753214,0.14172807,-0.44511095,28.5625,29.8125,28.8125,32.625,35.0625,36.0625
0.186052,0.33960235,-0.09695668,-1.3462777,-0.044116184,0.061064117,-0.1620739,-0.39700413,-0.36623585,0.060001284,3.077978,-0.62327313,9.719011e-05,-0.084494226,0.02736944,-0.00084710936,-0.012962917,0.001030235,0.013048574,0.49312276,-1.3735166,1.8943418,-2.0908344,-1.569794,2.467178,-0.12953413,0.09185373,-0.10974004,0.010933574,0.01081423,-0.14253461,0.0,0.28730422,-9.308657,0.8023209,47.65643,-1.1818912,-2.3325214,-3.3146825,-0.22170155,0.12883475,-0.40348297,28.5625,29.8125,28.8125,32.625,35.0625,36.0625
0.18805219,-0.50724417,-0.36208126,-1.4105695,-0.05092651,0.06193689,-0.15443778,-0.39716795,-0.36618337,0.060000747,3.0779753,-0.62322885,0.00013592222,-0.08580415,0.027458113,0.0007291276,-0.014479135,0.0032997595,0.02136826,0.49287054,-1.3733249,1.8941015,-2.0907738,-1.5697697,2.4668987,-0.13098581,0.09035585,-0.11173661,0.011725738,0.011080262,-0.1523059,-0.019153614,0.24899697,-9.346964,0.8224646,47.66808,-1.166319,-2.3750536,-3.3943448,-0.24250782,0.1350102,-0.27928436,28.5625,29.8125,28.8125,32.625,35.0625,36.0625
0.1900521,-0.7266855,-0.26361564,-1.6363037,-0.052937806,0.077336825,-0.15422249,-0.39733407,-0.36613214,0.060001794,3.0779507,-0.6231436,0.00011892381,-0.08620838,0.028671883,-0.00058510696,-0.013039356,0.0006650901,0.025169505,0.49261847,-1.3731561,1.8938984,-2.0907738,-1.5697454,2.4665966,-0.13333638,0.09258919,-0.1115562,0.012326899,0.011071498,-0.15845715,-0.1340753,0.19153613,-9.3661175,0.800085,47.703007,-1.1261505,-2.303516,-3.299972,-0.24911016,0.1301037,-0.2154555,28.5625,29.8125,28.8125,32.625,35.0625,36.0625
0.19205214,-0.89812964,-0.48315278,-1.5061123,-0.045412004,0.08851891,-0.16075462,-0.3974952,-0.36605915,0.05998559,3.0779803,-0.62307155,0.00017522956,-0.087962285,0.028511774,0.0002030326,-0.014320666,0.0017214135,0.02564635,0.49234238,-1.3729633,1.8936952,-2.0907261,-1.569734,2.4662719,-0.13499281,0.09377932,-0.11492596,0.012974756,0.011692842,-0.16058992,-0.26815057,0.11492168,-9.3661175,0.7911258,47.689575,-1.0388094,-2.5306816,-3.3712115,-0.26642838,0.12952729,-0.1815153,28.5625,29.8125,28.8125,32.625,35.0625,36.0625
0.19405214,-1.0087587,-0.42729723,-1.4265183,-0.03519609,0.10596829,-0.15303004,-0.3976716,-0.36601037,0.0599971,3.0779555,-0.62297493,0.00018368234,-0.08911708,0.02993819,-0.0005602919,-0.0138186375,0.0005514608,0.018553631,0.49207762,-1.3727827,1.8934435,-2.0906785,-1.5696973,2.46595,-0.1384503,0.095221594,-0.11487111,0.01275093,0.011806144,-0.15695432,-0.59376204,0.05746084,-9.251195,0.7978386,47.692257,-0.9614079,-2.3257508,-3.3591762,-0.27405098,0.13768575,-0.17054877,28.5625,29.8125,28.8125,32.625,35.0625,36.0625
0.19605237,-1.2380562,-0.08142089,-1.506328,-0.032777917,0.113467276,-0.14338353,-0.3978547,-0.36595654,0.05998088,3.0778975,-0.62299967,0.00020475632,-0.08900211,0.028368298,-0.00027371885,-0.014529615,0.0010743563,0.017037854,0.49179134,-1.372566,1.8932279,-2.0907023,-1.5696491,2.4656866,-0.13588192,0.096567005,-0.11718074,0.012923801,0.012183912,-0.15286914,-0.61291564,0.0,-9.289502,0.8717007,47.689575,-1.1928011,-2.4703953,-3.2786164,-0.29005602,0.12795144,-0.22531451,28.5625,29.8125,28.8125,32.625,35.0625,36.0625
0.19805233,-1.600998,0.12461263,-1.5601772,-0.016852533,0.111778796,-0.14360864,-0.398044,-0.3658984,0.060008507,3.0778692,-0.62286216,0.00012925577,-0.091385834,0.028781777,0.00017468458,-0.014961993,0.0031501339,0.010325428,0.4915151,-1.3724213,1.8929876,-2.0906785,-1.5696377,2.4653282,-0.13830474,0.09828125,-0.12005279,0.012050268,0.011586838,-0.14857683,-0.6895301,-0.019153614,-9.385271,0.8403672,47.687782,-1.0919955,-2.4345088,-3.2098317,-0.27615798,0.14174534,-0.29082245,28.5625,29.8125,28.8125,32.625,35.0625,36.0625
0.20005225,-0.7615134,0.11283941,-1.2264744,-0.011358826,0.14065629,-0.14479412,-0.3982361,-0.36585966,0.06001876,3.077848,-0.62281775,7.363958e-05,-0.09191673,0.028167212,0.00019137377,-0.015298377,0.0035445755,0.010298241,0.49127603,-1.3722045,1.892701,-2.0906546,-1.5696377,2.4650643,-0.1377624,0.099789195,-0.12185675,0.011841637,0.011701631,-0.14800593,-0.7278373,0.0,-9.423578,0.784413,47.734352,-1.2378937,-2.4858735,-3.1211972,-0.28682816,0.1379984,-0.32980856,28.5625,29.8125,28.8125,32.625,35.0625,36.0625
0.20205212,-0.7131069,0.006761695,-1.2715898,-0.011963623,0.15223491,-0.14440554,-0.39842394,-0.36577585,0.059995465,3.0778244,-0.6229285,0.00022100685,-0.09333709,0.028469525,0.00031506442,-0.01626357,0.0040630307,0.00799232,0.49092782,-1.371964,1.8924488,-2.0905712,-1.5695771,2.4647882,-0.13985695,0.100938916,-0.1234168,0.011350401,0.012296631,-0.14779505,-0.8236054,0.076614454,-9.385271,0.8493211,47.677036,-1.174257,-2.4873354,-3.1397114,-0.29266608,0.123545244,-0.3580041,28.5625,29.8125,28.8125,32.625,35.0625,36.0625
0.20405212,-1.4029119,-0.1927311,-1.4802076,-0.0036607785,0.13232067,-0.13190219,-0.39859128,-0.36569476,0.059973903,3.0778856,-0.62280655,0.00019888216,-0.09561136,0.029862039,0.0010414303,-0.016617168,0.0059513827,0.0050230203,0.49066296,-1.3717718,1.892269,-2.0905712,-1.5696138,2.4644396,-0.14383753,0.10077564,-0.12483533,0.011101192,0.011716924,-0.14880556,-0.7852981,0.11492168,-9.481039,0.842603,47.685097,-1.1019622,-2.4218228,-3.0895042,-0.30664033,0.13744536,-0.37247938,28.5625,29.8125,28.8125,32.625,35.0625,36.0625
0.20605208,-1.1123339,0.25203943,-1.4672298,-0.02522581,0.13343789,-0.14994402,-0.3987839,-0.36566857,0.05997656,3.0778296,-0.6226937,0.00023163435,-0.095573604,0.029176293,0.00081646285,-0.016465534,0.0053344592,0.011081326,0.49040008,-1.3715311,1.891971,-2.0905468,-1.5695413,2.4641135,-0.14268693,0.10240176,-0.12641513,0.011689651,0.011883771,-0.15371226,-0.6512228,0.0,-9.461885,0.8717007,47.698532,-1.2187185,-2.4552336,-3.0929008,-0.3222424,0.15559319,-0.36752513,28.5625,29.8125,28.8125,32.625,35.0625,36.0625
0.20805237,-0.96440613,-0.29199785,-1.3596203,-0.024568759,0.13832118,-0.14676023,-0.39900327,-0.36559525,0.05999007,3.0777414,-0.6227669,0.00015436915,-0.096646465,0.030046802,0.0010717709,-0.016429653,0.0058971858,0.017292708,0.49006414,-1.3713509,1.8917311,-2.0905707,-1.5695175,2.4638345,-0.1448718,0.102387734,-0.12703337,0.0118611865,0.011610535,-0.1621072,-0.7469909,0.0,-9.385271,0.78217715,47.698532,-1.0906769,-2.4488206,-3.1041172,-0.3278976,0.13793994,-0.3132211,28.5625,29.8125,28.8125,32.625,35.0625,36.0625
0.21005227,-1.3769068,-0.041023333,-1.5661124,-0.028636124,0.1333648,-0.15406646,-0.3991642,-0.36554652,0.05995858,3.0777571,-0.6226479,0.00028631938,-0.098686956,0.02996299,0.0017093947,-0.016927952,0.0079316925,0.027344357,0.48980018,-1.371098,1.8914908,-2.0905235,-1.5694579,2.4634943,-0.14618883,0.104052894,-0.13042858,0.011590588,0.011087864,-0.1734747,-0.68953013,-0.05746084,-9.423578,0.7642693,47.723602,-1.1414213,-2.4451222,-3.1568356,-0.328642,0.14814577,-0.202828,28.5625,29.8125,28.8125,32.625,35.0625,36.0625
0.21205239,-1.6033746,-0.276923,-1.7188511,-0.008282496,0.12362255,-0.14234313,-0.39936462,-0.36548308,0.05997064,3.0777473,-0.622546,0.00023129433,-0.09761123,0.031056039,0.0005993434,-0.016254751,0.005293187,0.031089162,0.48951262,-1.3709061,1.8912295,-2.0904996,-1.5694574,2.4631445,-0.14740005,0.103488,-0.12726311,0.011642393,0.01175779,-0.17843202,-0.45968673,-0.095768064,-9.576807,0.88960326,47.690468,-1.184581,-2.3716042,-3.207552,-0.3327968,0.16119537,-0.0995228,28.5625,29.8125,28.8125,32.625,35.0625,36.0625
0.2140523,-1.0548831,-0.06842461,-1.6371956,-0.009867785,0.1241287,-0.15289877,-0.39957955,-0.365404,0.05998065,3.07777,-0.6224151,0.0001657474,-0.099190705,0.030519737,-0.00016938093,-0.016216023,0.004876363,0.031053683,0.48920098,-1.3707004,1.8909534,-2.0904634,-1.5694813,2.4627485,-0.14795028,0.108084634,-0.13087663,0.011044966,0.011920561,-0.17894433,-0.40222588,-0.095768064,-9.595961,0.800085,47.690468,-1.2754527,-2.41667,-3.081215,-0.33369154,0.16340035,-0.065626994,28.5625,29.8125,28.8125,32.625,35.0625,36.0625
0.21605249,-1.0198576,-0.2603234,-1.6175889,-0.008773624,0.1082566,-0.14107901,-0.39978814,-0.36535755,0.059983768,3.0777268,-0.62229335,0.00012849842,-0.099762745,0.031285148,0.0008965077,-0.01710725,0.0067066685,0.024297122,0.4889131,-1.370473,1.8906783,-2.0904758,-1.5694455,2.4623902,-0.1496352,0.105465,-0.1301718,0.010929052,0.011858385,-0.1738727,-0.4405331,-0.05746084,-9.423578,0.83589023,47.660015,-1.2665207,-2.389059,-3.2717435,-0.33634472,0.16324812,-0.08388758,28.5625,29.8125,28.8125,32.625,35.0625,36.0625
0.21805246,-0.4658218,0.092299275,-1.7264527,-0.008828968,0.09235942,-0.13990025,-0.40000632,-0.3652834,0.059978817,3.077676,-0.6223452,0.00011247617,-0.10014542,0.03198252,-0.0008253221,-0.014885629,0.004490292,0.014977807,0.48857757,-1.3702434,1.890416,-2.0904758,-1.5694216,2.4620936,-0.15050499,0.10912087,-0.13058607,0.010687932,0.010937608,-0.16542163,-0.36391866,-0.076614454,-9.481039,0.83589023,47.68599,-1.2685901,-2.4731188,-3.30962,-0.32004,0.19094521,-0.16828075,28.5625,29.8125,28.8125,32.625,35.0625,36.0625
0.2200525,-0.36572382,0.016117698,-1.887949,-0.0132192625,0.068088174,-0.14195856,-0.40018886,-0.36520833,0.05996201,3.0776715,-0.6223084,0.00017753828,-0.10053095,0.03277537,-0.00034875202,-0.014931812,0.005505712,0.0073740515,0.48826566,-1.3700279,1.890189,-2.0904396,-1.5693864,2.4617593,-0.15184188,0.10759067,-0.12983617,0.010552402,0.010496695,-0.15915538,-0.2681506,-0.095768064,-9.500193,0.8403672,47.686886,-1.2261091,-2.334476,-3.4150686,-0.3283005,0.19578499,-0.25681213,28.5625,29.8125,28.8125,32.625,35.0625,36.0625
0.22205251,0.5066171,0.06353524,-1.7234268,-0.02472192,0.069367334,-0.15267026,-0.40040582,-0.36512253,0.059960335,3.0776784,-0.62240654,0.0001693578,-0.102907404,0.033376373,-0.00022605777,-0.015064528,0.0060668252,0.0016358087,0.4879414,-1.3697869,1.8898891,-2.0903676,-1.5694102,2.4614956,-0.15481324,0.110211454,-0.13333568,0.010869917,0.0103431195,-0.15638688,-0.17238252,-0.095768064,-9.519346,0.87617236,47.705692,-1.2546091,-2.4897037,-3.3667598,-0.3339711,0.20949742,-0.34366524,28.5625,29.8125,28.8125,32.625,35.0625,36.0625
0.2240524,0.22183934,-0.10203785,-1.8505812,-0.029733352,0.057042837,-0.15205084,-0.40062037,-0.36504653,0.05995367,3.0776236,-0.622436,0.0001385895,-0.101742595,0.0339487,-0.0012508518,-0.014278275,0.0040386817,-0.0032406247,0.4876063,-1.3695707,1.8896521,-2.0903919,-1.5693859,2.461186,-0.15481551,0.10997058,-0.13068622,0.01062139,0.01061033,-0.15151347,-0.076614454,0.019153614,-9.442732,0.8493211,47.695843,-1.2768668,-2.343865,-3.5333638,-0.3138447,0.23147699,-0.4494239,28.5625,29.8125,28.8125,32.625,35.0625,36.0625
0.22605266,0.9008715,0.05761324,-1.7690837,-0.036666468,0.06478846,-0.15080763,-0.4008215,-0.36498395,0.05996316,3.0775855,-0.62236893,0.00010327149,-0.10452373,0.033878446,0.0008189944,-0.017730491,0.007755993,-0.0048220847,0.48730558,-1.3693787,1.8893989,-2.09038,-1.5693611,2.4608483,-0.15792353,0.10911087,-0.13427795,0.010176032,0.0119232945,-0.15303887,0.038307227,0.05746084,-9.500193,0.84484416,47.694054,-1.0146148,-2.2989812,-3.4290438,-0.32830995,0.23860855,-0.4919493,28.5625,29.8125,28.8125,32.625,35.0625,36.0625
0.2280519,0.7258739,-0.26906824,-1.9320912,-0.03484106,0.049217094,-0.147243,-0.40103146,-0.36491358,0.059951533,3.0775402,-0.62245023,0.0001690656,-0.10594736,0.034938734,-0.00033729765,-0.016494708,0.005537059,0.0014858862,0.4869696,-1.369125,1.8891119,-2.0903318,-1.5693129,2.460569,-0.16087222,0.11283253,-0.13631697,0.011057376,0.011879319,-0.16229448,0.1340753,0.19153613,-9.500193,0.8918391,47.65912,-1.0439895,-2.4680853,-3.4719112,-0.3271341,0.2170811,-0.4732503,28.5625,29.8125,28.8125,32.625,35.0625,36.0625
0.23005164,0.7120428,-0.803238,-2.0410306,-0.039436594,0.044584878,-0.143325,-0.40124327,-0.36483482,0.059955653,3.0775614,-0.62233055,7.3860654e-05,-0.10675753,0.034999028,0.0011367835,-0.017562056,0.0077300165,0.01340184,0.48667008,-1.3689215,1.8888596,-2.0903313,-1.5693492,2.4601922,-0.16158311,0.11095032,-0.13761133,0.011811797,0.011821138,-0.17492066,0.076614454,0.24899697,-9.500193,0.82694155,47.72808,-0.9964231,-2.1655898,-3.4658709,-0.32809347,0.2512922,-0.37724423,28.5625,29.8125,28.8125,32.625,35.0625,36.0625
0.23205161,0.34809813,-0.6034684,-1.8924733,-0.05761711,0.045285475,-0.1511218,-0.40144897,-0.36475447,0.059945922,3.0775464,-0.6222639,0.00013873415,-0.10745092,0.03545524,-0.00043640108,-0.016811376,0.004128098,0.023208378,0.4863218,-1.3686918,1.8885969,-2.0902836,-1.5693015,2.4598043,-0.1635274,0.115276344,-0.13947202,0.012907116,0.012854432,-0.18667087,0.05746084,0.2681506,-9.576807,0.84708,47.711964,-0.90546393,-2.4955716,-3.3795369,-0.35468623,0.25794792,-0.24712522,28.5625,29.8125,28.8125,32.625,35.0625,36.0625
0.23405157,0.28259134,-1.1372547,-2.0236502,-0.057368774,0.056613516,-0.1396305,-0.4016677,-0.36469436,0.05996428,3.077507,-0.62221307,0.00010653474,-0.10848914,0.035840623,9.133692e-05,-0.017522886,0.005079459,0.027841493,0.48601037,-1.3684757,1.8882865,-2.0902355,-1.5692772,2.4594662,-0.16514066,0.11512884,-0.14052625,0.01295228,0.013055997,-0.19291644,0.05746084,0.3256114,-9.615114,0.80679786,47.647476,-1.1482825,-2.3158152,-3.3668883,-0.35873124,0.24202505,-0.15868358,28.5625,29.8125,28.8125,32.625,35.0625,36.0625
0.23605289,0.1969597,-0.98628616,-1.8006617,-0.07909044,0.07493205,-0.14701605,-0.40189207,-0.3646027,0.059959497,3.077539,-0.6221035,9.6799784e-05,-0.10847874,0.03489528,0.00017116293,-0.018132927,0.004526025,0.027007176,0.48566326,-1.368235,1.8879989,-2.0901868,-1.5692886,2.4590468,-0.16395013,0.116476975,-0.14253819,0.013817355,0.013853281,-0.19089106,0.019153614,0.4213795,-9.691729,0.78888994,47.64479,-1.1238365,-2.3773456,-3.3721607,-0.36667097,0.26275268,-0.16147679,28.5625,29.8125,28.8125,32.625,35.0625,36.0625
0.23805197,-0.080506824,-1.3808577,-1.8234521,-0.093595,0.084937714,-0.14371191,-0.40212935,-0.36454174,0.059981022,3.0774477,-0.62207085,1.7632979e-06,-0.1100194,0.035503242,0.00023943184,-0.01864679,0.0047246953,0.017578142,0.48532718,-1.3680304,1.8877114,-2.0902112,-1.5692528,2.458702,-0.16648202,0.11779124,-0.14428613,0.013835664,0.014227678,-0.18399173,-0.019153614,0.34476504,-9.653421,0.8224646,47.655537,-1.090995,-2.335847,-3.3489895,-0.39408183,0.26178074,-0.21334642,28.5625,29.8125,28.8125,32.625,35.0625,36.0625
0.24005204,-0.33329323,-1.85045,-2.0432408,-0.08494754,0.07944539,-0.14217027,-0.402332,-0.36449283,0.05999719,3.077398,-0.6220047,3.379066e-05,-0.11097256,0.03609306,-0.00015550507,-0.019347422,0.003868883,0.010642826,0.48502713,-1.367814,1.8874,-2.0901392,-1.5691923,2.458367,-0.16886717,0.11910024,-0.14491883,0.013594599,0.015247023,-0.1794411,-0.076614454,0.4405331,-9.557653,0.83589023,47.694946,-0.9884368,-2.3927264,-3.3565133,-0.3938993,0.25514805,-0.3028103,28.5625,29.8125,28.8125,32.625,35.0625,36.0625
0.24205202,-0.52569413,-1.8543574,-2.0016708,-0.07981009,0.0676462,-0.13762338,-0.40255156,-0.36442703,0.0599834,3.0773728,-0.621904,6.7622575e-05,-0.11313167,0.036021,0.00070136343,-0.020286184,0.006103165,0.007539116,0.4846914,-1.3675491,1.8871125,-2.0901277,-1.5691441,2.4579718,-0.1704457,0.1204333,-0.14843532,0.01337595,0.015032672,-0.17791422,-0.1340753,0.36391866,-9.576807,0.8560339,47.694946,-0.9210421,-2.4519753,-3.14186,-0.38754714,0.25402498,-0.3296676,28.5625,29.8125,28.8125,32.625,35.0625,36.0625
0.24405229,-0.3211894,-1.348831,-1.6992303,-0.07921359,0.0705121,-0.1516818,-0.40278548,-0.3643826,0.06001498,3.0772963,-0.6217897,-1.2495558e-06,-0.11554921,0.035809346,0.0018851323,-0.022076337,0.008792972,0.0064983927,0.48437932,-1.3673325,1.8867768,-2.0901039,-1.5690964,2.4575982,-0.17235605,0.121445715,-0.15226574,0.0129934205,0.015377786,-0.17878093,-0.24899697,0.36391866,-9.461885,0.85826975,47.672558,-0.9271066,-2.2271302,-3.2207327,-0.3862871,0.28208768,-0.36110353,28.5625,29.8125,28.8125,32.625,35.0625,36.0625
0.24605238,-0.50037456,-1.0212944,-1.6218128,-0.06292714,0.08493346,-0.15310618,-0.40301266,-0.3642882,0.0599902,3.0772557,-0.6218915,5.116551e-05,-0.115360685,0.035426192,0.00045957198,-0.021149185,0.007282512,0.012657335,0.48399654,-1.3670673,1.8865136,-2.090092,-1.5690602,2.4572842,-0.17138319,0.12458555,-0.15257469,0.011952472,0.015268069,-0.1839666,-0.28730422,0.30645782,-9.404425,0.85826975,47.70032,-0.96767926,-2.4881852,-3.230762,-0.35309908,0.2740403,-0.33854663,28.5625,29.8125,28.8125,32.625,35.0625,36.0625
0.24805257,-0.92754215,-0.38256592,-1.6400033,-0.04805495,0.087941304,-0.14211227,-0.40324184,-0.3642571,0.06000483,3.0771797,-0.62171847,2.2202026e-05,-0.116688006,0.03486102,0.0012382079,-0.023798922,0.008776969,0.019810034,0.48369616,-1.3668147,1.8861789,-2.0900924,-1.5689877,2.4568856,-0.17254712,0.12497496,-0.15463787,0.011097342,0.016943993,-0.19228132,-0.28730422,0.28730422,-9.385271,0.8940802,47.67166,-0.9837793,-2.460447,-3.1855478,-0.360249,0.267493,-0.31316084,28.5625,29.8125,28.8125,32.625,35.0625,36.0625
0.25005233,-0.65887403,0.035885356,-1.2878629,-0.030608714,0.10908695,-0.16847633,-0.40348554,-0.36417362,0.060000155,3.0771523,-0.6216846,1.8077295e-05,-0.11819758,0.034985863,0.0008337263,-0.023988642,0.008061202,0.029097246,0.48332483,-1.3665494,1.885867,-2.0900686,-1.5689634,2.4564967,-0.1743152,0.12809299,-0.15756221,0.0114779705,0.017466148,-0.20333481,-0.21068975,0.17238252,-9.404425,0.7978386,47.709274,-0.98299474,-2.5981145,-3.1136823,-0.3409412,0.26533854,-0.17025793,28.5625,29.8125,28.8125,32.625,35.0625,36.0625
0.2520524,-1.0431911,0.49371517,-1.2270701,-0.023153666,0.106546074,-0.1469331,-0.4037458,-0.36411157,0.060023706,3.077087,-0.62162846,-0.00012640604,-0.11771118,0.03511766,0.001404745,-0.02457239,0.008508313,0.03492713,0.48298994,-1.36631,1.8855327,-2.090092,-1.5689634,2.4561353,-0.17421277,0.12604742,-0.15651812,0.011827223,0.017817538,-0.20906104,-0.30645782,0.1340753,-9.308656,0.8224646,47.683304,-1.1353471,-2.448596,-3.1737058,-0.34615165,0.24322644,-0.09646651,28.5625,29.8125,28.8125,32.625,35.0625,36.0625
0.25405157,-1.4740939,-0.13706888,-1.1998105,0.0037349034,0.09230988,-0.1408169,-0.40397975,-0.36403856,0.06003027,3.077055,-0.6214876,-0.00012072086,-0.11796088,0.035338163,0.00082911825,-0.024411276,0.0072508184,0.032792024,0.48263052,-1.3660692,1.8852218,-2.0900557,-1.5689152,2.455692,-0.17498164,0.12752974,-0.1570722,0.012100064,0.018269561,-0.20769383,-0.5554548,0.019153614,-9.32781,0.7530795,47.666286,-1.2568972,-2.5916238,-3.1827016,-0.3321323,0.24480179,-0.06952648,28.5625,29.8125,28.8125,32.625,35.0625,36.0625
0.25605276,-0.8689888,0.42771783,-1.2315059,-0.008386333,0.111201875,-0.1480007,-0.40419728,-0.3639706,0.060019456,3.0770597,-0.6213573,-4.2946685e-05,-0.11926803,0.036216196,0.0003419309,-0.023534779,0.0071281563,0.02414779,0.48229468,-1.3657923,1.884899,-2.0899842,-1.5688676,2.4552743,-0.17706679,0.12947868,-0.15828082,0.011881551,0.01753719,-0.20113458,-0.63206923,0.0,-9.232041,0.8537928,47.670765,-1.3454831,-2.4711251,-3.3082721,-0.32724428,0.26708004,-0.12357799,28.5625,29.8125,28.8125,32.625,35.0625,36.0625
0.25805214,-0.60395765,0.6297732,-1.056951,-0.013517838,0.1127881,-0.16045763,-0.40445098,-0.36390185,0.060027115,3.0770254,-0.6212564,-0.00011570429,-0.118968725,0.03650867,-0.000518179,-0.022691144,0.005623106,0.01671059,0.48194733,-1.3655276,1.8845652,-2.0899842,-1.5688552,2.4548686,-0.17716146,0.1306868,-0.15781517,0.011927515,0.017496368,-0.19379091,-0.5554548,-0.19153613,-9.270349,0.8672237,47.66271,-1.3337276,-2.4311917,-3.298663,-0.3191126,0.25768054,-0.22797152,28.5625,29.8125,28.8125,32.625,35.0625,36.0625
0.26005217,-0.71205354,0.6244585,-0.9876442,-0.009433808,0.10187765,-0.1510991,-0.404716,-0.3638188,0.060043715,3.076934,-0.6213765,-0.00015354961,-0.11989123,0.036676973,-0.00028753816,-0.022654688,0.0058193863,0.007120044,0.4815519,-1.3652749,1.8842171,-2.0899484,-1.5688194,2.4545598,-0.17806873,0.13170001,-0.15975368,0.012693545,0.017373767,-0.18510588,-0.45968673,-0.21068975,-9.32781,0.79560274,47.7245,-1.2914618,-2.4878292,-3.2912922,-0.31845227,0.26906735,-0.3461588,28.5625,29.8125,28.8125,32.625,35.0625,36.0625
0.262052,-0.15402777,0.6961879,-0.809093,-0.0060965116,0.099250324,-0.15537885,-0.40494105,-0.36375025,0.060036335,3.0768971,-0.6213132,-0.00015901834,-0.11991044,0.037085257,-0.0017270803,-0.021232191,0.0037957688,0.002584873,0.4812163,-1.3650217,1.883931,-2.0899484,-1.5687836,2.4541895,-0.1784773,0.13443534,-0.15972061,0.012383056,0.017053053,-0.18097843,-0.4405331,-0.2681506,-9.174581,0.8314132,47.696735,-1.3665518,-2.5437088,-3.3732657,-0.3304482,0.27155742,-0.44628152,28.5625,29.8125,28.8125,32.625,35.0625,36.0625
0.26405203,-0.054056466,0.28143683,-0.7583561,0.016436532,0.10137152,-0.15754762,-0.40516996,-0.36367643,0.060006905,3.076903,-0.6212155,-9.473302e-05,-0.1211087,0.03645889,0.00025569278,-0.023235792,0.0073125022,0.004551354,0.48086834,-1.3647102,1.8836197,-2.0899246,-1.5687474,2.45378,-0.17847182,0.1326477,-0.16216478,0.012586143,0.017201403,-0.1829393,-0.38307226,-0.24899697,-9.097966,0.81351066,47.691364,-1.4165547,-2.4422078,-3.3608553,-0.3107027,0.27297062,-0.5010797,28.5625,29.8125,28.8125,32.625,35.0625,36.0625
0.26605225,-0.59049076,1.0030341,-0.9281314,0.02284951,0.07725928,-0.15695265,-0.40543988,-0.36363208,0.060053654,3.0767667,-0.62112373,-0.00024006746,-0.12275611,0.037127715,0.0012319705,-0.023969332,0.009395376,0.0144509105,0.4805196,-1.3644942,1.8832606,-2.0899484,-1.5686878,2.4533913,-0.1807672,0.13208461,-0.16372295,0.012564302,0.016944688,-0.19513117,-0.2873042,-0.24899697,-9.078813,0.82022345,47.694946,-1.4102232,-2.3921266,-3.3031523,-0.2866607,0.27581996,-0.4060768,28.5625,29.8125,28.8125,32.625,35.0625,36.0625
0.26805258,-0.29690027,0.8899236,-1.1704967,0.031363472,0.062810145,-0.15724157,-0.40567842,-0.36350033,0.06002344,3.076821,-0.6211847,-0.00020294258,-0.12444597,0.037482534,0.0020555016,-0.025203345,0.01010593,0.026484327,0.48011062,-1.3642178,1.8829845,-2.0898883,-1.5687236,2.4530137,-0.18322648,0.13262846,-0.16652296,0.013646595,0.017729528,-0.2096237,-0.095768064,-0.17238252,-9.174581,0.86945957,47.686886,-1.332964,-2.2046711,-3.276054,-0.26748413,0.2598578,-0.2900989,28.5625,29.8125,28.8125,32.625,35.0625,36.0625
0.27005184,0.23451361,0.22459695,-1.2437167,0.02596144,0.054083083,-0.15861711,-0.40592626,-0.36343822,0.060031753,3.0768087,-0.621006,-0.00023488457,-0.12564977,0.039074246,0.0014760023,-0.02399799,0.008678107,0.0317856,0.4797736,-1.363941,1.8826259,-2.0898516,-1.5686992,2.4525669,-0.1866131,0.13418695,-0.1673666,0.0147850085,0.017352438,-0.2183106,-0.095768064,-0.095768064,-9.174581,0.86498255,47.717335,-1.3100705,-2.184622,-3.4157064,-0.27720317,0.28249303,-0.17986266,28.5625,29.8125,28.8125,32.625,35.0625,36.0625
0.27205196,0.8035202,0.6295524,-1.2611928,-0.016951697,0.06239078,-0.15524551,-0.4061657,-0.36335617,0.060032353,3.0767796,-0.6209239,-0.00017451424,-0.12671824,0.039835956,0.0018655597,-0.023539562,0.009226393,0.029200695,0.47938937,-1.3636767,1.8822917,-2.0897791,-1.5686401,2.452135,-0.18831463,0.13440895,-0.16875625,0.015697856,0.016696865,-0.21742713,-0.17238252,0.076614454,-9.078813,0.8672237,47.698532,-1.3344934,-2.1476011,-3.3223028,-0.2968375,0.28867292,-0.15660705,28.5625,29.8125,28.8125,32.625,35.0625,36.0625
0.27405182,-0.43014202,-0.4926487,-1.8963013,-0.023648554,0.03799636,-0.14897145,-0.4064255,-0.36325574,0.060028777,3.0767603,-0.6209058,-0.00021847039,-0.12721969,0.039766874,0.0017245583,-0.023435265,0.008520786,0.022631234,0.47899294,-1.3634118,1.8819798,-2.0897672,-1.5686401,2.45173,-0.1886661,0.13595663,-0.17052439,0.016585404,0.016931249,-0.2112077,-0.2873042,0.1340753,-9.232041,0.81351066,47.670765,-1.2312098,-2.1846502,-3.217572,-0.27803499,0.32195127,-0.2117096,28.5625,29.8125,28.8125,32.625,35.0625,36.0625
0.27605194,-0.29398003,-0.66309136,-1.9383242,-0.057059396,0.062410142,-0.15670279,-0.4066632,-0.36317983,0.06002514,3.0767405,-0.62084657,-0.00012946874,-0.1284562,0.04064616,0.0017353641,-0.022752699,0.0079244515,0.015944796,0.47862035,-1.3631229,1.8816203,-2.0896714,-1.56858,2.451323,-0.19090505,0.13732634,-0.17257534,0.018121062,0.01659239,-0.20675999,-0.19153613,0.17238252,-9.404425,0.83813137,47.66091,-1.2133077,-2.2105455,-3.1447566,-0.31175885,0.29867506,-0.28552124,28.5625,29.8125,28.8125,32.625,35.0625,36.0625
0.27805188,-0.40536487,-1.07437,-2.0581062,-0.07212688,0.08042954,-0.15908183,-0.40690994,-0.36309695,0.060014933,3.0766964,-0.6208025,-0.00010910051,-0.12968962,0.040844683,0.0017554334,-0.023579432,0.007354846,0.010506302,0.47823542,-1.3628461,1.8813089,-2.0896585,-1.5685314,2.4509163,-0.19281389,0.13904205,-0.17487173,0.018832058,0.017589742,-0.20322861,-0.24899697,0.21068975,-9.423578,0.94331104,47.660015,-1.114894,-2.1180918,-3.223587,-0.32272238,0.3185386,-0.39607644,28.5625,29.8125,28.8125,32.625,35.0625,36.0625
0.28005213,-1.040409,-1.6877557,-2.349105,-0.0713161,0.083886474,-0.15291037,-0.40718734,-0.36300218,0.06000951,3.076685,-0.6208191,-9.473516e-05,-0.1298906,0.04179804,0.0002272972,-0.022405574,0.004498486,0.008957482,0.47782648,-1.3625213,1.8809155,-2.089587,-1.5685195,2.4505193,-0.19463293,0.14166662,-0.17464708,0.019068385,0.01786886,-0.20349857,-0.40222588,0.30645782,-9.653421,0.83589023,47.74868,-1.0014542,-2.1107635,-3.3600569,-0.31857038,0.3292846,-0.3985296,28.5625,29.8125,28.8125,32.625,35.0625,36.0625
0.28205213,-1.1209083,-1.4981467,-2.1195662,-0.08071427,0.110951185,-0.16192135,-0.40741742,-0.36292222,0.060022328,3.0766444,-0.62067103,-7.97652e-05,-0.1310876,0.041853543,0.0012375845,-0.023980528,0.006365814,0.01571715,0.47745448,-1.362305,1.8806165,-2.0895393,-1.5684594,2.4500601,-0.19600606,0.14097866,-0.17608982,0.0188523,0.018433776,-0.21163021,-0.36391866,0.30645782,-9.710882,0.81351066,47.694946,-0.94661343,-2.3011274,-3.2817192,-0.32655823,0.31618208,-0.36523965,28.5625,29.8125,28.8125,32.625,35.0625,36.0625
0.28405234,-1.7932278,-1.7180486,-2.2789946,-0.07379874,0.11101503,-0.166629,-0.40768245,-0.36284003,0.06001284,3.0766544,-0.620531,-5.3780586e-05,-0.13190462,0.042370904,-0.0005347592,-0.02383778,0.003532197,0.02611322,0.47707027,-1.3619791,1.8802336,-2.0894797,-1.5684351,2.4495873,-0.19819993,0.1451278,-0.17693016,0.018163232,0.019634288,-0.22421885,-0.30645782,0.3256114,-9.844957,0.8627467,47.703007,-1.0388219,-2.3488867,-3.3409681,-0.32282913,0.31763673,-0.2608231,28.5625,29.8125,28.8125,32.625,35.0625,36.0625
0.28605235,-1.0573364,-1.295212,-2.252168,-0.08189559,0.12918447,-0.16660485,-0.40795454,-0.3627626,0.06002582,3.076582,-0.62043697,-0.00010757111,-0.13296086,0.042761207,-0.00081487675,-0.02416227,0.003372474,0.032221053,0.47667333,-1.3617145,1.879887,-2.0894797,-1.5683864,2.449141,-0.19988865,0.14669608,-0.17813224,0.017825799,0.020031806,-0.23201306,-0.3256114,0.36391866,-9.921572,0.84708,47.688675,-1.0132226,-2.3595848,-3.3361259,-0.32190964,0.3169823,-0.109499745,28.5625,29.8125,28.8125,32.625,35.0625,36.0625
0.2880524,-1.0307792,-0.9391652,-2.022841,-0.08203394,0.115843356,-0.16244717,-0.4082367,-0.3626764,0.060052894,3.076535,-0.6202931,-0.0001342931,-0.13377576,0.042400125,-0.0010766659,-0.024284575,0.004129407,0.031100899,0.47625375,-1.3614497,1.8794917,-2.0894082,-1.5683388,2.4486377,-0.19971791,0.14864108,-0.17964603,0.016683122,0.01980437,-0.23072033,-0.53630114,0.36391866,-9.864111,0.8605109,47.666286,-1.1024644,-2.378093,-3.3832083,-0.31233364,0.31651843,-0.101917356,28.5625,29.8125,28.8125,32.625,35.0625,36.0625
0.29005253,-1.1481199,-0.69254565,-1.9579977,-0.07367712,0.10712705,-0.16254835,-0.40848294,-0.36257032,0.06001657,3.0765457,-0.6202602,-6.586198e-05,-0.13284066,0.041252542,-0.0021138347,-0.024083657,0.0030129014,0.025467409,0.47584668,-1.3611366,1.8791932,-2.0893853,-1.5683144,2.4482088,-0.19705321,0.1507119,-0.17958252,0.015625762,0.020115644,-0.2224224,-0.7469909,0.24899697,-9.768343,0.8717007,47.713753,-1.2733747,-2.448525,-3.4146903,-0.28515202,0.31231076,-0.17125542,28.5625,29.8125,28.8125,32.625,35.0625,36.0625
0.29205242,-1.2634537,-0.17566799,-1.7421507,-0.057422496,0.105649285,-0.16715635,-0.40879497,-0.3625151,0.060057502,3.076391,-0.6202139,-0.00020025152,-0.13423875,0.039555926,-0.0017088113,-0.025514109,0.005077386,0.01785151,0.4754387,-1.3608592,1.8787731,-2.089409,-1.5682424,2.4477918,-0.19548199,0.15364794,-0.18377905,0.014396103,0.020453077,-0.21322979,-0.63206923,0.24899697,-9.672575,0.87617236,47.684196,-1.436976,-2.6094894,-3.4134614,-0.2516352,0.32747188,-0.27751803,28.5625,29.8125,28.8125,32.625,35.0625,36.0625
0.2940523,-1.0423635,-0.41462207,-1.8483168,-0.027536104,0.100967035,-0.16343193,-0.40906182,-0.36242115,0.060040925,3.0763922,-0.6201608,-0.00018923022,-0.13565844,0.040127125,-8.923126e-06,-0.027269753,0.008477055,0.007749094,0.47504222,-1.3605367,1.8784155,-2.0893734,-1.5682305,2.4473622,-0.19753689,0.15099153,-0.18435125,0.0137890475,0.020445565,-0.20518255,-0.4213795,0.19153613,-9.557653,0.8605109,47.64389,-1.3700352,-2.3237948,-3.4689984,-0.2293253,0.3166898,-0.40869105,28.5625,29.8125,28.8125,32.625,35.0625,36.0625
0.29605234,-0.5171071,0.017134454,-1.6534343,-0.02817856,0.09464619,-0.15822929,-0.40934044,-0.3623533,0.06005567,3.0763006,-0.6201628,-0.00024362636,-0.1364045,0.04163765,-0.001578104,-0.026170572,0.0054545435,0.0030748325,0.47465727,-1.3602482,1.878033,-2.0893614,-1.5681823,2.4469903,-0.20084177,0.15379286,-0.1842679,0.014107899,0.020871611,-0.20381093,-0.24899697,0.1340753,-9.5385,0.93436235,47.65912,-1.4354808,-2.3940358,-3.4326687,-0.21516496,0.31901646,-0.4980561,28.5625,29.8125,28.8125,32.625,35.0625,36.0625
0.2980525,-0.56188214,-0.18424833,-1.3519567,-0.02488561,0.06620683,-0.16138561,-0.40962717,-0.3622682,0.06006251,3.0762405,-0.6200869,-0.00026831325,-0.1375661,0.04256474,-0.0020119024,-0.025891822,0.0047934786,0.010230101,0.47423673,-1.3599476,1.8776511,-2.0893376,-1.5681342,2.44653,-0.20331724,0.15541932,-0.18532136,0.0142938355,0.020964509,-0.21343999,-0.22984336,0.076614454,-9.404425,0.9030289,47.64121,-1.3992927,-2.4326942,-3.5164275,-0.2158236,0.32095683,-0.4565462,28.5625,29.8125,28.8125,32.625,35.0625,36.0625
0.30005246,-0.16341072,-0.56867313,-1.2152189,-0.01691281,0.05774273,-0.15902443,-0.409905,-0.36216745,0.060052834,3.0762317,-0.62006,-0.00029651928,-0.13929094,0.044240717,-0.0023486922,-0.02556794,0.004379531,0.021648407,0.47382733,-1.3596355,1.8772925,-2.0893128,-1.5681342,2.4461052,-0.20744981,0.15668157,-0.18614925,0.014425131,0.020911012,-0.22899018,-0.13407528,0.0,-9.289502,0.89631605,47.698532,-1.3270454,-2.5311022,-3.5335622,-0.19104251,0.32743272,-0.34972602,28.5625,29.8125,28.8125,32.625,35.0625,36.0625
0.30205253,0.62777084,0.037101503,-1.164575,-0.014561889,0.054842487,-0.17178684,-0.41020864,-0.36209956,0.060071405,3.0761185,-0.6199527,-0.00037599273,-0.1415942,0.044040103,-0.000278321,-0.02692937,0.008722119,0.032065324,0.473407,-1.359336,1.8768963,-2.089337,-1.5680622,2.4456325,-0.20851237,0.15597332,-0.1900798,0.014637098,0.020196948,-0.24046683,0.038307227,-0.038307227,-9.3661175,0.8918391,47.704796,-1.3704749,-2.4035494,-3.4027858,-0.17367414,0.3337267,-0.21326905,28.5625,29.8125,28.8125,32.625,35.0625,36.0625
0.30405247,1.0932752,0.45640647,-0.95181346,-0.0058564483,0.04504784,-0.16481985,-0.41049644,-0.36201435,0.060070004,3.076086,-0.6197343,-0.00040440817,-0.14331591,0.04343959,0.001048295,-0.028858889,0.010967442,0.032647166,0.4729865,-1.3590242,1.8765248,-2.089337,-1.5680145,2.4450798,-0.209281,0.15644588,-0.19378026,0.015008317,0.020910617,-0.24181417,-0.05746084,0.0,-9.155427,0.8537928,47.695843,-1.2629507,-2.3256166,-3.2843494,-0.14663698,0.34768537,-0.13784403,28.5625,29.8125,28.8125,32.625,35.0625,36.0625
0.30605245,1.0308244,0.34188333,-1.06989,0.0044697914,0.047109343,-0.16203722,-0.41080686,-0.36193028,0.060086444,3.0760477,-0.61965626,-0.0005086021,-0.14516003,0.04447092,0.0017103447,-0.02969133,0.011644344,0.021777617,0.47257754,-1.3587004,1.8760928,-2.0893128,-1.568014,2.4446273,-0.2127121,0.15666917,-0.19576757,0.01577751,0.021351526,-0.23437288,-0.19153613,-0.019153614,-9.155427,0.9254084,47.690468,-1.1228348,-2.2489157,-3.2043009,-0.12731317,0.3279736,-0.20564282,28.5625,29.8125,28.8125,32.625,35.0625,36.0625
0.30805248,0.14118084,0.4056343,-1.1721609,0.010215776,0.03409316,-0.16034397,-0.4110836,-0.36182734,0.060102098,3.0760064,-0.6196141,-0.0005160185,-0.14599174,0.04546227,0.0012465008,-0.02877429,0.010099538,0.012095932,0.47214478,-1.3584358,1.8757228,-2.0892403,-1.5679783,2.4441736,-0.214874,0.15833758,-0.1970874,0.017219057,0.02123617,-0.22685197,-0.17238252,0.076614454,-9.174581,0.88960326,47.67614,-1.0448719,-2.3442507,-3.1949594,-0.11562964,0.33245176,-0.3171058,28.5625,29.8125,28.8125,32.625,35.0625,36.0625
0.3100524,0.14404598,0.13251,-1.275914,-0.0027507257,0.064164065,-0.1604192,-0.41136292,-0.36173213,0.060079116,3.0759785,-0.61957216,-0.00040456463,-0.146846,0.045716703,0.0012075723,-0.029621528,0.008802439,0.006997172,0.47170055,-1.358076,1.875326,-2.0891688,-1.5679058,2.4437068,-0.21670127,0.1597652,-0.19907077,0.018556964,0.022572502,-0.22357899,-0.2681506,0.11492168,-9.251195,0.87393653,47.72808,-1.0276915,-2.19032,-3.2130358,-0.13866785,0.3321306,-0.3757204,28.5625,29.8125,28.8125,32.625,35.0625,36.0625
0.3120523,-0.60712254,-0.329984,-1.5476389,-0.020054478,0.074951775,-0.15756318,-0.4116472,-0.36163062,0.06009209,3.0759356,-0.619522,-0.00038608347,-0.14654607,0.04582288,0.002113097,-0.031170713,0.008308477,0.010185305,0.47125635,-1.3577889,1.8749322,-2.089084,-1.5678571,2.4432368,-0.2174655,0.15771897,-0.19912104,0.020416638,0.024205964,-0.22752959,-0.40222588,0.1340753,-9.270349,0.84708,47.675243,-1.0088379,-2.038221,-3.268033,-0.116096035,0.30386418,-0.38478506,28.5625,29.8125,28.8125,32.625,35.0625,36.0625
0.31405225,-0.7504354,-0.85882485,-1.4799178,-0.043553624,0.10831899,-0.17005955,-0.4119521,-0.36155525,0.060097903,3.0758414,-0.61947596,-0.00040433186,-0.14662229,0.046304155,0.001632623,-0.030803397,0.005889035,0.021015737,0.47082403,-1.3574528,1.8745116,-2.0890706,-1.5677847,2.442788,-0.21868213,0.1590721,-0.20018111,0.022506155,0.025036354,-0.23957375,-0.36391866,0.22984336,-9.3661175,0.86945957,47.683304,-1.0309074,-2.0890176,-3.189146,-0.1388407,0.2969632,-0.2834948,28.5625,29.8125,28.8125,32.625,35.0625,36.0625
0.31605256,-1.6314955,-1.0435721,-1.3893268,-0.05502325,0.11971109,-0.16033067,-0.41223833,-0.36146167,0.060106803,3.0758102,-0.61932874,-0.00040219963,-0.1460487,0.045304935,0.0016268466,-0.030918233,0.0048330836,0.034060717,0.47039238,-1.3571527,1.8741168,-2.0890105,-1.5677365,2.4422684,-0.21674868,0.1601384,-0.20184213,0.024043707,0.02566396,-0.25068322,-0.49799395,0.11492168,-9.346964,0.8291774,47.677036,-1.1985077,-2.0223265,-3.2614255,-0.15817961,0.2965634,-0.15863104,28.5625,29.8125,28.8125,32.625,35.0625,36.0625
0.31805256,-0.9030161,-0.30772442,-1.6801475,-0.056898374,0.1471122,-0.17191933,-0.41251528,-0.3613819,0.060121957,3.075765,-0.6191646,-0.00040293776,-0.14586312,0.044844516,0.00094457355,-0.03174278,0.0027578739,0.035518378,0.4699845,-1.3568643,1.873722,-2.0889509,-1.567676,2.4417639,-0.2167077,0.16201304,-0.2027,0.024527533,0.027361227,-0.25209612,-0.6703765,0.17238252,-9.461885,0.87617236,47.65912,-1.2958262,-2.041863,-3.3206663,-0.15002258,0.2586024,-0.10102233,28.5625,29.8125,28.8125,32.625,35.0625,36.0625
0.3200516,-1.1434804,-0.3559396,-1.6805627,-0.04102461,0.13791597,-0.16182886,-0.4128169,-0.36129537,0.060098343,3.0757415,-0.6190877,-0.00035753445,-0.14782463,0.044424895,0.0017578462,-0.033405416,0.0047076955,0.026753152,0.46955207,-1.3564682,1.8732904,-2.088915,-1.5676278,2.4412866,-0.21787609,0.16348755,-0.20628871,0.024148757,0.027939027,-0.24449714,-0.57460845,0.076614454,-9.595961,0.8851263,47.711063,-1.3764808,-2.041633,-3.331251,-0.14346634,0.2500165,-0.14594285,28.5625,29.8125,28.8125,32.625,35.0625,36.0625
0.32205158,-0.94005364,-0.32436326,-1.6439955,-0.029013325,0.10684065,-0.15320092,-0.41313607,-0.36119705,0.060135067,3.0756354,-0.61903554,-0.00040501577,-0.14917566,0.04572617,0.00023225692,-0.031771313,0.0034556843,0.01299997,0.46907103,-1.3561909,1.8728598,-2.088855,-1.5675563,2.4407866,-0.22049202,0.16705717,-0.20692675,0.0230713,0.027043704,-0.2333578,-0.40222588,0.038307227,-9.461885,0.88960326,47.677036,-1.3392882,-2.367159,-3.3750377,-0.14093474,0.23823717,-0.26354432,28.5625,29.8125,28.8125,32.625,35.0625,36.0625
0.32405245,-0.3814459,-0.1274369,-1.8053077,-0.018488776,0.07919879,-0.15586856,-0.4133999,-0.36111572,0.06009778,3.0756261,-0.6189405,-0.0003710846,-0.14839755,0.045798432,-0.0015103885,-0.029578883,0.0016066205,0.006099599,0.46868777,-1.3558306,1.8725132,-2.088868,-1.5675205,2.4403453,-0.21911615,0.16958788,-0.2058717,0.022121767,0.025905855,-0.22508319,-0.49799395,0.095768064,-9.481039,0.91421866,47.66987,-1.4344311,-2.2130387,-3.4117076,-0.12053299,0.21972091,-0.39137238,28.5625,29.8125,28.8125,32.625,35.0625,36.0625
0.32605255,0.13456075,-0.27923417,-1.76233,-0.027754037,0.07453635,-0.15833089,-0.41370636,-0.36102086,0.060113378,3.0755768,-0.61891145,-0.00032932273,-0.14973082,0.046615623,-0.0018860408,-0.028869456,0.0016715247,0.0025199074,0.46823123,-1.3554943,1.8720454,-2.0887477,-1.5674609,2.439877,-0.22105293,0.17148568,-0.20732284,0.02195967,0.025244439,-0.22344026,-0.38307226,0.17238252,-9.500193,0.8537928,47.653748,-1.441071,-2.3611686,-3.4296875,-0.08656661,0.23293307,-0.5107967,28.5625,29.8125,28.8125,32.625,35.0625,36.0625
0.32805192,-0.18818034,-0.7303218,-1.7787775,-0.028809903,0.058748018,-0.1616917,-0.4139957,-0.36092836,0.060126625,3.0755477,-0.6187837,-0.00040728878,-0.15129085,0.047113568,-0.0023959728,-0.028804759,0.00071943813,0.010998747,0.46782264,-1.3552055,1.871662,-2.088724,-1.567449,2.4393926,-0.22331838,0.17456357,-0.21005298,0.02253793,0.025664622,-0.234181,-0.21068975,0.17238252,-9.423578,0.9254084,47.661808,-1.3562548,-2.3564982,-3.4286764,-0.08177735,0.2270633,-0.46536815,28.5625,29.8125,28.8125,32.625,35.0625,36.0625
0.33005184,-0.15270513,-0.71240103,-1.7668854,-0.04063332,0.060260743,-0.16193172,-0.4143242,-0.36081567,0.06012147,3.0754776,-0.61878145,-0.00039305392,-0.15196452,0.047616154,-0.002353542,-0.02924913,0.0003535361,0.02400986,0.46731764,-1.3548458,1.8712319,-2.0886877,-1.5673884,2.4388952,-0.22492848,0.17505856,-0.2109347,0.023125341,0.026283793,-0.24880041,-0.24899697,0.19153613,-9.481039,0.87617236,47.698532,-1.2283993,-2.357653,-3.446031,-0.0831921,0.20679918,-0.34489518,28.5625,29.8125,28.8125,32.625,35.0625,36.0625
0.332052,-0.280329,-0.39680234,-1.5183841,-0.06491545,0.07365743,-0.16720012,-0.41462794,-0.36071151,0.060117412,3.075433,-0.6186921,-0.0003649476,-0.15301965,0.049127724,-0.0036840863,-0.027956977,-0.0025142017,0.030620577,0.46684858,-1.3545091,1.8708242,-2.088639,-1.5673283,2.4383762,-0.22829616,0.17817879,-0.21199924,0.024272975,0.026462601,-0.25877744,-0.26815057,0.24899697,-9.404425,0.91421866,47.66987,-1.0784562,-2.3890772,-3.4384394,-0.09125365,0.1915838,-0.21051776,28.5625,29.8125,28.8125,32.625,35.0625,36.0625
0.33405218,0.22994873,-0.093903996,-1.4396812,-0.07684112,0.11308612,-0.17687201,-0.41495112,-0.36062276,0.0601057,3.0753663,-0.6186828,-0.00040823058,-0.15538764,0.049858447,-0.0012159888,-0.030978026,0.0012009485,0.023311976,0.4664037,-1.3541266,1.8703922,-2.0886514,-1.5672921,2.4379342,-0.2319766,0.17535245,-0.21435246,0.024780517,0.027495846,-0.25514585,-0.38307226,0.2681506,-9.289502,0.8806493,47.685097,-1.0901514,-2.1714468,-3.3045812,-0.07212221,0.19411449,-0.20230785,28.5625,29.8125,28.8125,32.625,35.0625,36.0625
0.3360526,-1.2092055,-0.6855426,-1.5847131,-0.039853726,0.085567184,-0.14988711,-0.4152423,-0.36052328,0.060106054,3.0753357,-0.61858684,-0.00032477806,-0.15707205,0.0507638,-0.0009443752,-0.031770714,0.0014707565,0.013553825,0.46594656,-1.3537905,1.8699616,-2.0885437,-1.5672201,2.437421,-0.23509647,0.17621845,-0.2161379,0.025108125,0.02806289,-0.24850641,-0.38307226,0.114921674,-9.404425,0.86945957,47.667187,-0.95984095,-2.233581,-3.3464804,-0.06948932,0.16246136,-0.28358716,28.5625,29.8125,28.8125,32.625,35.0625,36.0625
0.33805203,-0.3571924,0.30241093,-1.3864187,-0.04148974,0.099698156,-0.15834615,-0.41556972,-0.36041975,0.060115006,3.0752583,-0.61855376,-0.00036780274,-0.15798654,0.050783873,-0.000734926,-0.03258044,0.0015165382,0.008651943,0.4654665,-1.3534542,1.8695301,-2.0885193,-1.5671715,2.4369304,-0.23615201,0.17726254,-0.2180245,0.025555441,0.0287759,-0.2446563,-0.34476504,0.095768064,-9.32781,0.88289046,47.655537,-0.9583627,-2.211275,-3.401632,-0.0591619,0.12965764,-0.38683468,28.5625,29.8125,28.8125,32.625,35.0625,36.0625
0.34005186,-0.4834193,-0.17387035,-1.1495656,-0.025227869,0.09172385,-0.1599181,-0.41588542,-0.3603359,0.060117032,3.075213,-0.6184257,-0.0003560489,-0.15842238,0.050231952,-0.00082073116,-0.032790788,0.0017381412,0.012574261,0.4650227,-1.353082,1.8690628,-2.0884597,-1.5671114,2.4364126,-0.23548503,0.17886472,-0.21980588,0.025481243,0.02888636,-0.24790983,-0.34476504,0.15322891,-9.193734,0.8605109,47.704796,-1.1088175,-2.229756,-3.3717928,-0.06993066,0.11547321,-0.40468177,28.5625,29.8125,28.8125,32.625,35.0625,36.0625
0.3420517,0.26535654,-0.036222126,-1.2344743,-0.019087207,0.10699248,-0.15921155,-0.4162017,-0.36024684,0.060120586,3.0751424,-0.6183276,-0.00032209617,-0.15857719,0.04921872,-0.00027400407,-0.03319745,0.0030234193,0.024251292,0.4645556,-1.3527223,1.8686069,-2.0883996,-1.5670274,2.4358933,-0.23363556,0.17937279,-0.22175501,0.025662722,0.02871789,-0.25773627,-0.34476504,0.1340753,-9.212888,0.9254084,47.705692,-1.2394204,-2.1740646,-3.412521,-0.040196724,0.112289526,-0.34963417,28.5625,29.8125,28.8125,32.625,35.0625,36.0625
0.34405172,-0.32767874,0.74485034,-1.4143006,-0.020269133,0.08197734,-0.16605128,-0.4165247,-0.36013526,0.06010844,3.0750906,-0.6182922,-0.0003485844,-0.16040793,0.04909807,0.0011936352,-0.034383368,0.006018649,0.03599043,0.46407476,-1.3523626,1.8682002,-2.0883996,-1.5669917,2.4353971,-0.23465559,0.17921722,-0.22500956,0.025935613,0.028492903,-0.27049378,-0.13407528,0.11492168,-9.3661175,0.8784135,47.681515,-1.2222131,-2.2235966,-3.2916949,-0.029693797,0.08516927,-0.17783555,28.5625,29.8125,28.8125,32.625,35.0625,36.0625
0.3460518,-0.30785373,0.13906355,-1.3523467,-0.019189937,0.07858482,-0.16002986,-0.41680714,-0.36006418,0.060103726,3.0750742,-0.61803824,-0.00026950878,-0.1614903,0.04924085,0.001035487,-0.033553474,0.005936215,0.037446566,0.46366695,-1.3520019,1.8677562,-2.0883157,-1.5669078,2.4348328,-0.23521961,0.18152973,-0.22770321,0.02680634,0.027798314,-0.2725142,-0.1340753,0.076614454,-9.346964,0.9231726,47.675243,-1.2777281,-2.25052,-3.2453985,-0.029785696,0.082210496,-0.0979083,28.5625,29.8125,28.8125,32.625,35.0625,36.0625
0.34805197,0.052061547,0.28487426,-1.274369,-0.0240179,0.092753164,-0.1541967,-0.4171515,-0.35993698,0.060100816,3.0750487,-0.6179638,-0.00029066647,-0.16090392,0.04948963,-0.00032953641,-0.031983357,0.0026466479,0.030991558,0.46314994,-1.3516296,1.8673018,-2.0882666,-1.5668839,2.4342728,-0.23498622,0.18408021,-0.22809488,0.028286671,0.027863545,-0.2658244,-0.45968673,0.076614454,-9.270349,0.8605109,47.67614,-1.2292105,-2.1845953,-3.2854955,-0.03940151,0.07733849,-0.14970385,28.5625,29.8125,28.8125,32.625,35.0625,36.0625
0.35005197,0.059587967,0.13748658,-1.5092726,-0.0022627618,0.08961261,-0.14217333,-0.41747898,-0.35983947,0.06010618,3.0750046,-0.61788255,-0.00029026193,-0.16117418,0.05016253,-0.00096879347,-0.03034433,0.0011714683,0.01947858,0.46268275,-1.3512573,1.8668236,-2.088195,-1.5668362,2.4337606,-0.23564991,0.1857909,-0.22907834,0.029597221,0.027037358,-0.25497523,-0.49799395,0.019153614,-9.3661175,0.85826975,47.683304,-1.2884626,-2.1897473,-3.2875054,-0.050923217,0.06592223,-0.25992498,28.5625,29.8125,28.8125,32.625,35.0625,36.0625
0.35205203,-0.03955871,0.26587674,-1.3539077,-0.018670207,0.101995565,-0.14814463,-0.41781172,-0.35974842,0.060117267,3.0749128,-0.61787003,-0.0003235309,-0.16216995,0.05112115,-0.0013102997,-0.02962134,0.0001791745,0.007703232,0.4622145,-1.3508972,1.8663548,-2.0881584,-1.5667757,2.4332964,-0.23776725,0.18736003,-0.23050344,0.030654116,0.026824653,-0.24531513,-0.22984336,0.1340753,-9.3661175,0.8314132,47.67166,-1.4072661,-2.271474,-3.2526898,-0.04729371,0.058378965,-0.40712923,28.5625,29.8125,28.8125,32.625,35.0625,36.0625
0.35405207,-0.3367655,-0.27470365,-1.3530172,-0.028376546,0.08313231,-0.15714373,-0.4181236,-0.3596341,0.060108438,3.0748684,-0.617899,-0.0002809542,-0.16381007,0.052122284,-0.0005886718,-0.030086348,0.0017998364,0.007260485,0.4617333,-1.3505377,1.8659238,-2.0880868,-1.5667285,2.4328392,-0.24045245,0.18706127,-0.23183884,0.030664805,0.026529936,-0.24755798,-0.15322891,0.21068975,-9.385271,0.9186956,47.675243,-1.2410438,-2.1151395,-3.2774956,-0.04118199,0.07330912,-0.4875414,28.5625,29.8125,28.8125,32.625,35.0625,36.0625
0.3560523,0.20403726,-0.2872125,-1.3128121,-0.043011557,0.088445924,-0.16812165,-0.41845164,-0.35953352,0.060103998,3.0748243,-0.6177873,-0.00020190245,-0.16502555,0.05368416,-0.00037444767,-0.028992372,0.0016408232,0.018106142,0.46123993,-1.3501416,1.8654331,-2.0879905,-1.566645,2.4322817,-0.24336624,0.18730111,-0.23307377,0.032382853,0.02567552,-0.26131916,-0.095768064,0.1340753,-9.308657,0.93436235,47.66987,-1.0962532,-2.1430016,-3.4363766,-0.059737284,0.06305555,-0.38945386,28.5625,29.8125,28.8125,32.625,35.0625,36.0625
0.35805234,0.02953362,-0.31790164,-1.5124935,-0.04047008,0.06866293,-0.15888081,-0.41877413,-0.3594164,0.0600767,3.074822,-0.6177411,-0.00016479628,-0.16653723,0.05473557,-0.00012800994,-0.027998976,0.0013164877,0.029354522,0.4607598,-1.3497337,1.8649901,-2.087942,-1.5666207,2.4317732,-0.24577501,0.18875849,-0.23598352,0.034645382,0.024977844,-0.27497724,-0.17238252,0.21068975,-9.308657,0.9186956,47.67345,-0.9837266,-2.257732,-3.4535165,-0.10301522,0.05654819,-0.26960465,28.5625,29.8125,28.8125,32.625,35.0625,36.0625
0.36005184,-0.21570157,0.013569631,-1.6035092,-0.03394458,0.059592653,-0.15697162,-0.41911557,-0.35932118,0.060101107,3.0747492,-0.61760974,-0.00021241877,-0.16687089,0.055713903,-0.0014204959,-0.02545337,-0.00082501885,0.031898808,0.46027973,-1.3493851,1.8644994,-2.0878813,-1.5665616,2.4312205,-0.2467072,0.19162977,-0.23684417,0.035731807,0.023689885,-0.27845386,-0.22984336,0.1340753,-9.385271,0.8537928,47.716442,-1.0619917,-2.1662648,-3.4454699,-0.09764272,0.06763135,-0.1618538,28.5625,29.8125,28.8125,32.625,35.0625,36.0625
0.36205226,0.009425634,0.061566632,-1.3059357,-0.033668052,0.07768509,-0.15725629,-0.41942745,-0.35918957,0.060069937,3.0747528,-0.61754024,-8.1604565e-05,-0.16636564,0.056737952,-0.0025882542,-0.023214763,-0.0041107708,0.02304332,0.4597633,-1.348989,1.8640684,-2.0877845,-1.5665015,2.4306602,-0.24745707,0.19323497,-0.2367209,0.037937682,0.02310803,-0.27035075,-0.34476504,0.05746084,-9.346964,0.84484416,47.67345,-1.1638842,-2.238777,-3.5065708,-0.12108419,0.06882594,-0.223721,28.5625,29.8125,28.8125,32.625,35.0625,36.0625
0.36405194,-0.33784086,0.50055265,-1.0606226,-0.05013683,0.09314539,-0.15884161,-0.41976774,-0.35908762,0.06005474,3.0747414,-0.61746615,-7.481595e-05,-0.1674196,0.056936946,-0.001992251,-0.023569247,-0.0037251124,0.014682729,0.45929503,-1.3485569,1.8635658,-2.0877244,-1.5664777,2.4301474,-0.24854386,0.19383338,-0.23917522,0.039276313,0.02323384,-0.2630757,-0.49799395,0.038307227,-9.32781,0.87393653,47.690468,-1.0319746,-2.2150311,-3.586628,-0.14955454,0.067868546,-0.35386544,28.5625,29.8125,28.8125,32.625,35.0625,36.0625
0.3660521,-0.22811987,0.25921142,-1.4164801,-0.027156044,0.102646716,-0.16308798,-0.4201156,-0.35897827,0.060083173,3.0746384,-0.6173874,-0.00012788588,-0.16978459,0.056847587,-0.0014266076,-0.024740674,-0.0015094789,0.011005584,0.45877922,-1.3482323,1.8630975,-2.0876768,-1.5664052,2.4295957,-0.2501988,0.19598368,-0.24290885,0.03837625,0.023314381,-0.26104978,-0.3256114,0.019153614,-9.346964,0.85826975,47.675243,-1.119014,-2.41185,-3.4596524,-0.18411307,0.056208964,-0.4179717,28.5625,29.8125,28.8125,32.625,35.0625,36.0625
0.368052,-0.724785,-0.07064285,-1.5899345,-0.01610126,0.08815796,-0.14672825,-0.42045373,-0.35885,0.06004623,3.0746589,-0.61732864,-2.2533648e-05,-0.17043228,0.057069395,-0.0021343816,-0.023321584,-0.0023734414,0.02047955,0.45826268,-1.3477758,1.8626064,-2.0875814,-1.5663699,2.42904,-0.25037685,0.19876322,-0.24492313,0.03908058,0.022443138,-0.27070415,-0.30645782,0.095768064,-9.481039,0.8537928,47.651955,-1.1622951,-2.3867142,-3.3808503,-0.17548394,0.081199735,-0.35503227,28.5625,29.8125,28.8125,32.625,35.0625,36.0625
0.37005216,-0.95429075,0.28083277,-1.2336862,-0.050855022,0.09622716,-0.15830643,-0.42078105,-0.35873395,0.060042605,3.074649,-0.61728114,-8.0455067e-07,-0.17023464,0.05734332,-0.0027669326,-0.02138143,-0.004495651,0.033902552,0.45778263,-1.347392,1.8621272,-2.0874846,-1.5663456,2.4285316,-0.2500207,0.20071834,-0.24649407,0.041535594,0.02169103,-0.28377217,-0.47884035,0.15322891,-9.346964,0.89631605,47.698532,-1.2402256,-2.3802204,-3.5367804,-0.21378133,0.082123995,-0.21671087,28.5625,29.8125,28.8125,32.625,35.0625,36.0625
0.37205216,-0.6514868,0.18934217,-1.1863227,-0.046788882,0.120140046,-0.16482718,-0.42114142,-0.35862505,0.060054265,3.0745862,-0.61713177,-3.538438e-05,-0.17146863,0.057552274,-0.002529608,-0.02179887,-0.004009838,0.039180126,0.45726618,-1.3470078,1.8616241,-2.0874364,-1.566286,2.42793,-0.2512949,0.20202248,-0.24877457,0.041948553,0.021892613,-0.29032147,-0.4405331,0.05746084,-9.308657,0.8627467,47.703903,-1.3235047,-2.3901594,-3.35629,-0.25303254,0.07949356,-0.12355207,28.5625,29.8125,28.8125,32.625,35.0625,36.0625
0.3740523,-0.66026556,0.44893798,-1.5568323,-0.033306677,0.114617616,-0.15225556,-0.42149144,-0.35850015,0.060041055,3.0745864,-0.61707765,6.4571825e-05,-0.17291763,0.056110293,-0.00058365194,-0.02398718,0.00014063556,0.033664446,0.45673892,-1.3465645,1.8610839,-2.087293,-1.5662378,2.427369,-0.24992359,0.20164087,-0.25270578,0.041565094,0.021982547,-0.28343415,-0.51714754,-0.038307227,-9.442732,0.8940802,47.661808,-1.3931816,-2.2640471,-3.3076282,-0.27214903,0.087457076,-0.14856204,28.5625,29.8125,28.875,32.625,35.0625,36.0625
