Tylouw/Master_Thesis_Code/training_data_v2/rect_rod_t0.2/sample_20_session_1.csv
timestamp[s],tcp_force_x[N],tcp_force_y[N],tcp_force_z[N],tcp_force_rx[Nm?],tcp_force_ry[Nm?],tcp_force_rz[Nm?],tcp_pose_x[m],tcp_pose_y[m],tcp_pose_z[m],tcp_pose_rx[rot_vec_x],tcp_pose_ry[rot_vec_y],tcp_pose_rz[rot_vec_z],tcp_velo_x[m/s],tcp_velo_y[m/s],tcp_velo_z[m/s],tcp_velo_rx[rot_vec_x/s],tcp_velo_ry[rot_vec_y/s],tcp_velo_rz[rot_vec_z/s],q1[rad],q2[rad],q3[rad],q4[rad],q5[rad],q6[rad],qd1[rad/s],qd2[rad/s],qd3[rad/s],qd4[rad/s],qd5[rad/s],qd6[rad/s],tool_acc_x,tool_acc_y,tool_acc_z,current_of_whole_robot[A],voltage_of_whole_robot[V],current_J1[A],current_J2[A],current_J3[A],current_J4[A],current_J5[A],current_J6[A],temp_J1[C],temp_J2[C],temp_J3[C],temp_J4[C],temp_J5[C],temp_J6[C]
1.0680014e-06,-0.41813877,-0.14347155,1.0251023,-0.004139922,-0.02002898,-0.010884192,-0.38931614,-0.36871642,0.059992358,-3.078702,0.62490875,0.00012491002,0.0014804886,0.00082589,-0.0011046174,0.0018103622,-0.0035733348,-9.189695e-06,0.50503284,-1.3816439,1.9042352,-2.091903,-1.5708297,2.4800134,-0.00010028365,-8.111581e-06,0.002086354,0.0019243453,0.00015359047,-9.238227e-05,0.15322891,0.17238252,-8.619126,0.6926589,47.703903,-0.18364611,-3.0555053,-2.2591689,-0.20009471,0.16885221,0.012069238,28.4375,29.6875,28.8125,32.625,35.0625,36.0
0.002052699,-0.17589815,0.20456189,0.93187755,-0.0033675618,-0.0069259973,-0.021101438,-0.38933957,-0.36871785,0.060007993,-3.0787027,0.6249855,0.00018319207,-0.00045339382,-0.00024952047,-0.0017721183,-0.0013374252,0.0020872143,-8.493287e-06,0.5050208,-1.3816434,1.9042,-2.0919068,-1.5708417,2.4800491,-9.845514e-05,0.0018651059,0.0036378698,-0.007977288,0.00014993489,-9.052382e-05,0.095768064,0.17238252,-8.580819,0.7709874,47.70211,-0.19103676,-2.7795787,-2.4037256,-0.16938415,0.165054,0.0145578515,28.4375,29.6875,28.8125,32.625,35.0625,36.0
0.004051786,-0.11554018,0.26978916,1.0689098,-0.010575373,-0.0042552575,-0.011342516,-0.38933936,-0.36871332,0.059985712,-3.078693,0.6249063,0.0001652459,-0.0010219882,-0.00056629593,-0.0027639957,-0.0014858916,0.0023496388,7.6026163e-06,0.5050208,-1.3816062,1.9042124,-2.091931,-1.5708536,2.480001,-9.669236e-05,0.0043291026,0.0036032726,-0.010708182,0.00014644966,-0.00010415978,0.11492168,0.114921674,-8.619126,0.7620334,47.71286,-0.2087011,-3.4366207,-2.620872,-0.045638938,0.17848116,0.010571165,28.4375,29.6875,28.8125,32.625,35.0625,36.0
0.006052091,-0.27288684,-0.1268602,0.9815746,0.015565084,-0.021683674,-0.011667051,-0.38933107,-0.36870596,0.05999249,-3.078698,0.6250038,0.00018125308,-0.00027762126,-0.00015167601,-0.0018045357,-0.00047506826,0.00054732803,9.071237e-06,0.50500876,-1.3816551,1.9042596,-2.091953,-1.5708417,2.4800491,-9.4991345e-05,0.0024892492,0.00244527,-0.0056439196,0.00014312209,-0.00010427512,0.0,0.24899697,-8.542512,0.67475104,47.723602,-0.24223304,-3.40256,-2.555022,-0.080033824,0.16870917,0.008755412,28.4375,29.6875,28.8125,32.625,35.0625,36.0
0.00805199,0.059635047,1.0102327,0.67363536,0.037408903,-0.03919945,-0.015337072,-0.38930723,-0.36870527,0.05996371,-3.0786679,0.6248628,0.00013325943,0.00052831904,0.00029393067,-0.00046364256,0.00018725297,-0.00064378907,8.194045e-06,0.50504476,-1.3816198,1.9042829,-2.0919511,-1.5708655,2.480001,-9.334926e-05,-0.00037850565,0.0016398756,-0.0006079191,0.00014977234,-0.00010243616,-0.038307227,0.21068975,-8.63828,0.71951014,47.703903,-0.15313746,-3.2753825,-2.4975147,-0.12764212,0.1730254,0.016929977,28.4375,29.6875,28.8125,32.625,35.0625,36.0
0.010052132,0.25285864,1.1062196,0.27382642,0.045108348,-0.03158572,-0.020688633,-0.38929677,-0.36871272,0.05996568,-3.0786755,0.6248843,6.846669e-05,0.000775897,0.00043491359,0.00068139686,0.00041272322,-0.0010528436,-2.3158102e-06,0.50504476,-1.3816204,1.904271,-2.091915,-1.5708297,2.4800134,-0.0001018292,-0.002149628,0.00031983,0.0029503154,0.0001557955,-0.00010053804,-0.019153614,0.1340753,-8.90643,0.7866488,47.695843,-0.759534,-2.6477742,-2.902203,-0.14483833,0.15863508,-0.052385245,28.4375,29.6875,28.8125,32.625,35.0625,36.0
0.012052196,-0.3380296,-0.06233608,0.18568662,0.01997257,-0.014961481,-0.016460491,-0.38932526,-0.3687215,0.05998091,-3.0787013,0.6249086,0.00012340005,0.00091910164,0.0005818326,-0.0018680617,0.0025771875,-0.0049318727,-3.3555956e-05,0.50503284,-1.3816065,1.9042224,-2.0919263,-1.5708297,2.4800134,-0.00020637109,0.0031233928,9.606778e-06,0.0024295903,0.00013645916,-0.00017278275,0.095768064,0.095768064,-9.289502,0.80679786,47.71465,-0.8826299,-2.7006674,-3.088019,-0.13364965,0.15426253,-0.10347974,28.4375,29.6875,28.8125,32.625,35.0625,36.0
0.014052064,-0.48501763,-0.33130103,0.180214,-0.031214628,0.01658901,-0.028901227,-0.38933668,-0.36869803,0.059966557,-3.0786438,0.6249365,0.00011675122,-0.004900263,0.0036814006,-0.0047131735,0.0045328103,-0.008489276,-0.0038298545,0.505005,-1.3815788,1.90422,-2.0919154,-1.5708655,2.4800103,-0.010869732,0.013660182,-0.0058160466,0.0017767771,0.00013136091,-0.007035711,-0.019153614,0.095768064,-9.308657,0.7709874,47.67614,-0.53117454,-3.2645965,-2.9639878,-0.09577657,0.13711175,-0.10980944,28.4375,29.6875,28.8125,32.625,35.0625,36.0
0.016052173,-1.2688551,-1.0903429,-0.19956501,-0.041446865,0.032604523,-0.02882402,-0.38929242,-0.36867493,0.05991098,-3.0785675,0.6248982,-9.2537186e-05,-0.006477309,0.0038951791,-0.0028339692,0.0025922705,-0.0049861283,0.0023265826,0.5049926,-1.3815318,1.9042801,-2.0918677,-1.5708417,2.4799836,-0.012702736,0.011241568,-0.0071848347,0.001558465,0.0001285335,-0.015024969,-0.26815057,0.22984336,-9.404425,0.72622824,47.698532,-0.43187737,-3.164567,-2.9779978,-0.08667694,0.16610457,-0.016548842,28.4375,29.6875,28.8125,32.625,35.0625,36.0
0.018051624,-1.4353695,-0.7812003,-0.15854952,-0.043860674,0.05325357,-0.049111128,-0.3893096,-0.36869457,0.059933905,-3.0785887,0.6248621,-3.8918024e-05,-0.004943772,0.0038946785,-0.0028726917,0.003655805,-0.006888192,0.0062348,0.50501704,-1.3815203,1.9042085,-2.0918424,-1.5708536,2.4799829,-0.0112643195,0.0100658545,-0.0062585757,0.003986548,0.00012595397,-0.017495586,-0.47884035,0.15322891,-9.442732,0.7329411,47.696735,-0.70678014,-2.8540642,-3.1773932,-0.09911911,0.14118272,0.00032413093,28.4375,29.6875,28.8125,32.625,35.0625,36.0
0.020051936,-1.6241081,-0.0656708,-0.39555585,-0.021897307,0.059425943,-0.06643109,-0.38930708,-0.36866623,0.05989389,-3.0785449,0.6248145,-0.00019334586,-0.0048269946,0.004331944,-0.0032691665,0.005250036,-0.009795716,0.0073166415,0.5049568,-1.3814596,1.9042195,-2.0918052,-1.5708297,2.4798985,-0.011900444,0.0116091,-0.007968855,0.0074696233,0.00013881271,-0.019213011,-0.47884035,0.1340753,-9.576807,0.7777002,47.70211,-0.8944888,-2.794009,-3.4305768,-0.13576466,0.1361374,-0.0047700293,28.4375,29.6875,28.8125,32.625,35.0625,36.0
0.022051973,-1.8578055,0.15673774,-0.68476313,0.00760046,0.058832757,-0.07727147,-0.38933882,-0.36867556,0.05990966,-3.078594,0.624865,-0.00017392379,-0.006942161,0.0046286653,-0.002500996,0.0042323833,-0.007965063,0.003981774,0.5049201,-1.3814473,1.9041718,-2.0918171,-1.5707935,2.479887,-0.014377882,0.012414103,-0.010610354,0.0072124144,0.00013826118,-0.018354338,-0.59376204,0.11492168,-9.730036,0.75084364,47.717335,-0.88650215,-2.781291,-3.3580942,-0.13042441,0.1332866,-0.015492331,28.4375,29.6875,28.8125,32.625,35.0625,36.0
0.024052132,-1.5006691,0.12379233,-0.45525962,0.00095160154,0.07250454,-0.09781042,-0.38932475,-0.36866567,0.059889715,-3.0785496,0.62479985,-0.00021993867,-0.008862739,0.0045791143,-0.002890957,0.00376884,-0.007141416,0.0010073489,0.5049315,-1.3814223,1.9041823,-2.0917938,-1.5708174,2.4798634,-0.016092218,0.015535874,-0.013040017,0.0055749193,0.00013579155,-0.01709259,-0.6512228,0.095768064,-9.768343,0.76874626,47.695843,-0.8864411,-2.7908576,-3.2970827,-0.11290388,0.12561822,-0.06849157,28.4375,29.6875,28.8125,32.625,35.0625,36.0
0.026052237,-1.9083506,-0.09324356,-0.61823976,-0.021161182,0.05956234,-0.11434577,-0.3893547,-0.36865982,0.05988687,-3.0785575,0.6248984,-0.00025640277,-0.010035554,0.0045326576,-0.0028475032,0.0034107536,-0.0064991587,-0.00053067127,0.5048713,-1.3813858,1.9041456,-2.0917938,-1.5707816,2.4798636,-0.01710941,0.017027335,-0.014794865,0.005103645,0.00013328674,-0.016570752,-0.7469909,0.038307227,-9.787497,0.6948948,47.696735,-0.8642645,-2.802711,-3.32163,-0.09135793,0.13187355,-0.07059239,28.4375,29.6875,28.8125,32.625,35.0625,36.0
0.028051874,-2.4599705,-0.68751866,-0.74169374,-0.017467838,0.06099576,-0.113615766,-0.38938993,-0.36864534,0.059886504,-3.0785148,0.62483174,-0.00018395543,-0.010288708,0.004968792,-0.0034602196,0.0042121294,-0.007911568,-0.0020305517,0.5048589,-1.3813372,1.9040865,-2.0917823,-1.5708536,2.4798152,-0.018069115,0.018469376,-0.015249017,0.0057385312,0.00011559467,-0.016030198,-0.7852981,0.05746084,-9.902418,0.7530795,47.705692,-0.91075826,-2.9145126,-3.3163972,-0.07710045,0.11947597,-0.08654317,28.4375,29.6875,28.8125,32.625,35.0625,36.0
0.030051952,-2.4803817,-1.0017852,-0.7395094,-0.0065269694,0.07024078,-0.13028392,-0.38939297,-0.36863276,0.059864517,-3.0784757,0.62482446,-0.00025711575,-0.010071252,0.0052749715,-0.003609313,0.0054541286,-0.010145962,-0.003171576,0.5048349,-1.3812889,1.9040736,-2.0917566,-1.5708536,2.4797916,-0.018379766,0.019308114,-0.016595595,0.0088028945,0.00011253374,-0.015199468,-0.80445176,0.05746084,-9.921572,0.79560274,47.709274,-0.9919074,-2.8196816,-3.3864865,-0.10811868,0.124157235,-0.10333292,28.4375,29.6875,28.8125,32.625,35.0625,36.0
0.032052103,-2.4526665,-0.4328993,-0.67212796,-0.002736091,0.072353706,-0.1403967,-0.3894124,-0.36863798,0.05985969,-3.078475,0.62488276,-0.0002953496,-0.010931485,0.0056091957,-0.0028793484,0.0048112613,-0.008981046,-0.005285368,0.5048106,-1.3812411,1.9040254,-2.0917447,-1.5708297,2.4798038,-0.019744052,0.018514706,-0.017375268,0.009045922,0.0001104949,-0.014449792,-0.7086837,0.05746084,-9.902418,0.7329411,47.705692,-0.9376689,-2.8341787,-3.411677,-0.12067659,0.11777413,-0.12185429,28.4375,29.6875,28.8125,32.625,35.0625,36.0
0.034051757,-1.9726088,-0.00017954274,-0.47336158,0.018623019,0.07731279,-0.15239853,-0.38943037,-0.3686211,0.059845436,-3.0784671,0.6249016,-0.00036168154,-0.01260055,0.0053941933,-0.0023337398,0.003826462,-0.0072114524,-0.0066883056,0.5047502,-1.3812046,1.9040121,-2.0917332,-1.5708054,2.479756,-0.02094191,0.019699743,-0.019851709,0.008312551,0.00010858608,-0.014243435,-0.7086837,0.0,-9.768343,0.80456203,47.65464,-0.97463155,-2.7517958,-3.3331246,-0.0923463,0.0917065,-0.14913031,28.4375,29.6875,28.8125,32.625,35.0625,36.0
0.036051683,-2.1029878,-0.016791862,-0.6760706,0.03813857,0.05853552,-0.1524344,-0.38945636,-0.3686024,0.059848174,-3.0784543,0.62491804,-0.0003500061,-0.014147297,0.0053537665,-0.0018645095,0.002885867,-0.005519485,-0.007138561,0.5047018,-1.3811922,1.9039887,-2.0917218,-1.5708174,2.4797196,-0.022318494,0.020566233,-0.02173578,0.0073940246,0.000106745814,-0.015168756,-0.59376204,-0.17238252,-9.691729,0.77545905,47.7254,-1.032594,-2.760777,-3.338335,-0.08124005,0.096165605,-0.15676443,28.4375,29.6875,28.8125,32.625,35.0625,36.0
0.038052198,-1.7372136,0.5546487,-0.63774276,0.027013283,0.045963712,-0.1791604,-0.38952902,-0.3686094,0.05987122,-3.0784764,0.6249989,-0.0002508363,-0.015577634,0.005748578,-0.0013542111,0.002188869,-0.004261065,-0.0075431303,0.50465333,-1.3811322,1.9038681,-2.0917337,-1.5708297,2.479719,-0.024315504,0.020814285,-0.023124091,0.0070953458,0.00010496737,-0.01676055,-0.4405331,-0.095768064,-9.787497,0.75084364,47.690468,-0.9342613,-2.7517798,-3.3624117,-0.058089364,0.09671072,-0.18880144,28.4375,29.6875,28.8125,32.625,35.0625,36.0
0.040052146,-1.0638722,0.6712803,-0.70199764,0.011471025,0.044052552,-0.19022201,-0.38954747,-0.3685901,0.059849963,-3.0784574,0.6250721,-0.00034627874,-0.016225427,0.0061840173,-0.0014985857,0.0023544594,-0.0044789114,-0.007404131,0.504581,-1.381084,1.9038566,-2.0917218,-1.5707935,2.4796946,-0.025626415,0.021540308,-0.023676503,0.0071931146,6.264523e-05,-0.018210059,-0.40222588,-0.019153614,-9.749189,0.78217715,47.694054,-0.85626584,-2.7481716,-3.2821035,-0.058313463,0.08413852,-0.1654651,28.4375,29.6875,28.8125,32.625,35.0625,36.0
0.042052027,-1.460925,-0.042433918,-0.66063446,0.015633643,0.019220399,-0.18683447,-0.38957033,-0.3685634,0.059828807,-3.0783834,0.6250176,-0.00038343703,-0.01730515,0.0062030344,-0.0013544627,0.002324095,-0.004369635,-0.0065397015,0.50454473,-1.3810112,1.903808,-2.0916736,-1.5708417,2.4796338,-0.026647856,0.023021566,-0.02589929,0.007823269,3.0692987e-05,-0.020094799,-0.34476504,-0.019153614,-9.653421,0.7463667,47.703007,-0.90595853,-2.7693784,-3.3156729,-0.057201747,0.06581723,-0.18806538,28.4375,29.6875,28.8125,32.625,35.0625,36.0
0.04405194,-1.3521041,0.0763813,-0.502529,0.005925837,0.01155849,-0.1984842,-0.38960737,-0.36855733,0.059831373,-3.0783942,0.625097,-0.00039400047,-0.018409893,0.0060344823,-0.00053352484,0.0018300696,-0.0034312725,-0.00708304,0.50448465,-1.3809751,1.9037594,-2.0916731,-1.5708174,2.479622,-0.02737946,0.02344165,-0.028524736,0.008968934,6.4247697e-06,-0.020282,-0.17238253,0.076614454,-9.691729,0.79560274,47.69763,-0.9216856,-2.7505696,-3.2135634,-0.064762905,0.07572454,-0.19344527,28.4375,29.6875,28.8125,32.625,35.0625,36.0
0.04605195,-0.9158618,-0.16113329,-0.517365,0.003744649,0.016619299,-0.20903097,-0.3896633,-0.368523,0.059839968,-3.0783572,0.6251287,-0.00030409222,-0.019109683,0.00663124,-0.0006290778,0.002236945,-0.0041557606,-0.007947935,0.5044121,-1.3809509,1.9037112,-2.0916731,-1.5708774,2.479574,-0.02903132,0.024262376,-0.029501114,0.009954153,4.1949158e-07,-0.021068528,-0.095768064,0.095768064,-9.615114,0.7620334,47.734352,-0.92547274,-2.687507,-3.220345,-0.06163241,0.061086755,-0.20936884,28.4375,29.6875,28.8125,32.625,35.0625,36.0
0.048052534,-0.62914234,-0.99010724,-0.6853284,0.011969786,0.016597643,-0.19268934,-0.389705,-0.36852342,0.059845492,-3.0783875,0.625153,-0.00032716524,-0.01991526,0.0075142267,-0.0006968442,0.0026130893,-0.0048364117,-0.008351006,0.5043515,-1.3809028,1.9036387,-2.0916603,-1.5708417,2.4795246,-0.031266615,0.024749095,-0.03013234,0.010876824,2.7389804e-08,-0.022900516,0.038307227,0.1340753,-9.653421,0.78217715,47.71017,-0.81448424,-2.7160585,-3.2829847,-0.05180431,0.063302614,-0.20719673,28.4375,29.6875,28.8125,32.625,35.0625,36.0
0.050052118,-0.3553856,-0.058314472,-0.40520856,-0.010305325,0.010448971,-0.1927181,-0.38975036,-0.36849418,0.059843015,-3.0783594,0.6251655,-0.00034485065,-0.020308632,0.007948561,-0.0007345229,0.0030619083,-0.00565159,-0.007304414,0.50426733,-1.3808545,1.9035791,-2.091624,-1.5708536,2.479452,-0.03236225,0.025307419,-0.030984934,0.012101055,1.7883586e-09,-0.025042435,0.019153614,0.15322891,-9.595961,0.7486078,47.691364,-0.79834306,-2.652747,-3.3393192,-0.07024531,0.047356986,-0.23225164,28.4375,29.6875,28.8125,32.625,35.0625,36.0
0.052051987,-0.08835819,-0.07661146,-0.45121518,-0.013970823,0.005043803,-0.18900202,-0.38981164,-0.36850384,0.0598658,-3.0783958,0.62523025,-0.00028467155,-0.021911444,0.008153677,-8.444184e-06,0.0024131516,-0.0044838106,-0.0066766585,0.5042189,-1.380806,1.9034699,-2.091624,-1.5708417,2.4794393,-0.03420018,0.025917616,-0.03348568,0.012655666,1.1676703e-10,-0.027507065,-0.019153614,0.21068975,-9.595961,0.7486078,47.689575,-0.84291244,-2.687427,-3.3494582,-0.056265015,0.049780942,-0.21396829,28.4375,29.6875,28.8125,32.625,35.0625,36.0
0.05405186,-0.3489464,-0.65553683,-0.43862295,-0.008313701,-0.0053750104,-0.17520031,-0.38983187,-0.3684611,0.05984289,-3.078302,0.62519306,-0.0003513445,-0.023720818,0.008663128,0.00053688773,0.0018267311,-0.0034374325,-0.007633828,0.5041581,-1.3807458,1.9034346,-2.091552,-1.5708898,2.4793673,-0.03674652,0.026699822,-0.035706628,0.012893298,7.624053e-12,-0.029095234,-0.019153614,0.28730422,-9.481039,0.6658024,47.664497,-0.83528125,-2.6790557,-3.2540984,-0.08368014,0.037684385,-0.22562395,28.4375,29.6875,28.8125,32.625,35.0625,36.0
0.056051787,-1.0646404,-0.7734175,-0.4702311,-0.011379019,-0.019144848,-0.17320023,-0.3898888,-0.36845165,0.059855983,-3.0783205,0.6253107,-0.0003327275,-0.024349054,0.008950721,0.0005311342,0.0028137735,-0.0030556729,-0.006828399,0.50407416,-1.3807094,1.9033617,-2.0915515,-1.570866,2.4793544,-0.037157323,0.027559675,-0.036795832,0.013269459,-0.0010499625,-0.030308938,-0.05746084,0.22984336,-9.423578,0.7172743,47.703903,-0.7710359,-2.6378245,-3.244738,-0.05813259,0.028501429,-0.22470836,28.4375,29.6875,28.8125,32.625,35.0625,36.0
0.058052424,-0.44378403,-0.5244792,-0.27083635,-0.02287246,0.008832751,-0.17658047,-0.38992876,-0.36841708,0.059844892,-3.0782785,0.6253208,-0.00040499656,-0.02432377,0.008534666,0.00039725553,0.003184686,-0.0033756543,-0.004727954,0.5039786,-1.3806491,1.9033021,-2.091492,-1.570866,2.4792705,-0.036322117,0.028621579,-0.03785037,0.013721737,-0.0012243056,-0.031573225,-0.05746084,0.24899697,-9.461885,0.7665104,47.67614,-0.87677383,-2.6455903,-3.28065,-0.06498534,0.03760431,-0.24660145,28.4375,29.6875,28.8125,32.625,35.0625,36.0
0.060052335,-0.38924092,-0.11019464,-0.25385624,-0.035810433,0.019798934,-0.18372712,-0.3900007,-0.36840674,0.059868604,-3.078306,0.62538356,-0.00033276452,-0.025660763,0.009193564,0.0007782438,0.0027997147,-0.0029946289,-0.006053365,0.50389403,-1.3806129,1.9032053,-2.091492,-1.570866,2.4792216,-0.038767774,0.028983047,-0.039266944,0.014256454,-0.0010719356,-0.032693256,-0.05746084,0.21068975,-9.442732,0.7620334,47.71554,-0.82369375,-2.543776,-3.281691,-0.0801198,0.036381897,-0.24372351,28.4375,29.6875,28.8125,32.625,35.0625,36.0
0.062052377,-0.45072517,-0.1853678,0.03240919,-0.03054561,0.023272263,-0.18555607,-0.39003477,-0.36839956,0.059869133,-3.0782998,0.6252863,-0.00035114415,-0.026694475,0.009472211,0.00112398,0.0024677587,-0.0024847947,-0.006632435,0.50385755,-1.3805526,1.9031218,-2.0914433,-1.5708779,2.4791253,-0.040224187,0.029445782,-0.04068009,0.014599385,-0.0010310323,-0.03357004,-0.05746084,0.24899697,-9.3661175,0.7732232,47.694946,-0.7859191,-2.5283782,-3.22246,-0.0703107,0.0130786,-0.25953645,28.4375,29.6875,28.8125,32.625,35.0625,36.0
0.06405221,-0.6864445,-0.79725516,-0.28621563,-0.006354427,0.022001892,-0.17553417,-0.39009455,-0.36838704,0.05988933,-3.0783095,0.62536556,-0.0003336861,-0.027706826,0.0095613,0.0015131559,0.002056079,-0.001983362,-0.006951255,0.5037733,-1.3805164,1.903025,-2.0914075,-1.570866,2.4790893,-0.04138559,0.030081887,-0.04242544,0.015070509,-0.000915064,-0.03441211,-0.095768064,0.2681506,-9.423578,0.8090337,47.698532,-0.8261943,-2.5209947,-3.2414966,-0.077395424,0.015836427,-0.2767105,28.4375,29.6875,28.8125,32.625,35.0625,36.0
0.0660521,-1.0276096,-0.5736325,-0.0528438,-1.2370782e-05,0.014913554,-0.1730663,-0.39017156,-0.36835855,0.059878144,-3.0782835,0.62541705,-0.0003623321,-0.028465554,0.009422087,0.0015381644,0.0016615894,-0.0014909693,-0.0062614954,0.5036534,-1.3804078,1.9029168,-2.0913842,-1.570866,2.4790049,-0.041916057,0.031121533,-0.043605674,0.014588774,-0.0008125887,-0.03563182,-0.076614454,0.30645782,-9.3661175,0.75084364,47.709274,-0.85047024,-2.5002334,-3.2375865,-0.077488266,0.024421107,-0.28681844,28.4375,29.6875,28.8125,32.625,35.0625,36.0
0.06805174,-1.1242929,-0.09784109,-0.10447543,0.0037901027,0.026042296,-0.18104161,-0.3902378,-0.36835957,0.05990083,-3.0783064,0.6254209,-0.00032118097,-0.029383853,0.009736244,0.0014741102,0.0015235981,-0.0014826956,-0.0070881443,0.503593,-1.3803475,1.9027857,-2.0913484,-1.5708655,2.478944,-0.04336704,0.032148905,-0.04466715,0.01454849,-0.0006972659,-0.036255803,-0.22984336,0.26815057,-9.423578,0.779936,47.698532,-0.81946373,-2.451665,-3.2722838,-0.08568974,0.0113904765,-0.3005495,28.4375,29.6875,28.8125,32.625,35.0625,36.0
0.070051804,-0.59665716,-0.18820451,0.011182052,0.01171689,0.0484417,-0.17847882,-0.39029616,-0.36833024,0.059889734,-3.0782897,0.6254167,-0.00032309582,-0.03055311,0.009826144,0.0013738459,0.0014323359,-0.0013107627,-0.0061440812,0.50349694,-1.3802749,1.9027251,-2.0913484,-1.5708779,2.4788475,-0.044598073,0.033923596,-0.046511453,0.014422601,-0.0007061509,-0.038429834,-0.21068975,0.13407528,-9.3661175,0.75084364,47.693153,-0.8426495,-2.4885502,-3.2488146,-0.10114338,-0.008218345,-0.3133982,28.4375,29.6875,28.8125,32.625,35.0625,36.0
0.07205189,-0.8267283,0.5996478,0.0651504,-0.0034685337,0.04825515,-0.18879858,-0.3903103,-0.36831993,0.05987346,-3.078283,0.62539595,-0.00045850623,-0.031463157,0.00975813,0.0014231212,0.00118293,-0.0008574031,-0.005017511,0.5034366,-1.3802145,1.9026769,-2.0912883,-1.5708302,2.478775,-0.04532532,0.035145216,-0.048017997,0.014191663,-0.0007140518,-0.04028276,-0.26815057,0.05746084,-9.346964,0.7866488,47.683304,-0.8410394,-2.5176077,-3.1944466,-0.085308984,-0.013477869,-0.3084364,28.4375,29.6875,28.8125,32.625,35.0625,36.0
0.07405176,-1.6883447,-0.3360574,-0.15776968,0.016770808,0.033783823,-0.16666175,-0.39038724,-0.36829945,0.059897844,-3.078269,0.62545097,-0.00037885737,-0.032227058,0.010106793,0.0015987705,0.00094719866,-0.0005346885,-0.006125206,0.50335246,-1.3801662,1.9025563,-2.0912526,-1.5708655,2.478727,-0.046647865,0.035400975,-0.048735976,0.014255795,-0.00066336896,-0.04049741,-0.38307226,0.038307227,-9.3661175,0.8157518,47.66539,-0.8765241,-2.453314,-3.1842773,-0.10046102,-0.018172868,-0.321097,28.4375,29.6875,28.8125,32.625,35.0625,36.0
0.07605187,-0.80821896,0.24241985,0.14359953,0.006536184,0.058311716,-0.17803603,-0.39046752,-0.36827928,0.05989413,-3.0782871,0.6254735,-0.0003382444,-0.033453725,0.011206412,0.0017724496,0.0009520355,-0.000516693,-0.00816476,0.5032436,-1.3800821,1.9024733,-2.0912879,-1.5708655,2.47863,-0.049624123,0.03549386,-0.049361512,0.0147748515,-0.0006755524,-0.041433904,-0.45968673,0.038307227,-9.32781,0.7463667,47.71017,-0.76387906,-2.4182262,-3.2537766,-0.10178526,-0.016371155,-0.3435344,28.4375,29.6875,28.8125,32.625,35.0625,36.0
0.0780521,-1.5984614,0.036073174,-0.024178743,0.017594878,0.047582034,-0.17109537,-0.3905248,-0.36825874,0.059900485,-3.0782692,0.6254857,-0.00039449788,-0.033067323,0.010397021,0.0010465485,0.001892191,-0.0019236235,-0.0022714285,0.50314856,-1.3800092,1.9023536,-2.091204,-1.5708541,2.478545,-0.04780347,0.038009737,-0.050832927,0.015416619,-0.00082601194,-0.04550534,-0.40222588,0.05746084,-9.346964,0.78888994,47.691364,-0.8735155,-2.4579701,-3.2962706,-0.11192154,-0.057415776,-0.32850772,28.4375,29.6875,28.8125,32.625,35.0625,36.0
0.080052175,-1.3118771,0.69526297,-0.03622928,0.0049226414,0.052590717,-0.18796022,-0.3906219,-0.36823636,0.05990249,-3.0782874,0.6254314,-0.00035346925,-0.035526253,0.010656985,0.0018646932,0.0011989916,-0.00026012748,-0.0017811742,0.5030278,-1.3799006,1.9022206,-2.091204,-1.570866,2.478388,-0.050394423,0.039592307,-0.054676916,0.015886026,-0.0010284561,-0.048584428,-0.36391866,0.11492168,-9.251195,0.73741806,47.70211,-0.8869809,-2.4969003,-3.1291814,-0.11718192,-0.048094638,-0.3245587,28.4375,29.6875,28.8125,32.625,35.0625,36.0
0.0820523,-1.4829736,0.47866762,-0.051281128,0.025168164,0.047395132,-0.17482337,-0.39065534,-0.36821625,0.059898295,-3.0782723,0.6254259,-0.00041064882,-0.035540048,0.011829644,0.0010104635,0.0031646376,-0.0013599434,0.0006533429,0.5029557,-1.3798522,1.902162,-2.0911558,-1.5708545,2.4783144,-0.051632084,0.040205013,-0.053484023,0.015995814,-0.002221355,-0.052254647,-0.38307226,0.038307227,-9.289502,0.7463667,47.698532,-0.8722936,-2.560858,-3.2467957,-0.14530699,-0.044526655,-0.28704634,28.4375,29.6875,28.8125,32.625,35.0625,36.0
0.084052145,-1.1104791,0.593382,-0.110703655,0.020882245,0.059983388,-0.17980725,-0.39075118,-0.36820006,0.059910554,-3.0782864,0.62543106,-0.00035490812,-0.037469074,0.012847606,0.0009831225,0.003349899,-0.0005007577,-0.002662722,0.5028466,-1.3797559,1.9020175,-2.0911443,-1.5708665,2.4782069,-0.054768194,0.041540846,-0.054865897,0.015379618,-0.0028004986,-0.052072838,-0.40222588,0.019153614,-9.346964,0.7777002,47.675243,-0.83214265,-2.4174166,-3.333448,-0.12915048,-0.05005786,-0.30436924,28.4375,29.6875,28.8125,32.625,35.0625,36.0
0.08605226,-1.3218307,0.5466436,-0.0066749076,0.0054340553,0.048619118,-0.18865104,-0.39080605,-0.36816835,0.05991299,-3.0782707,0.6254441,-0.00043667326,-0.038064633,0.011945267,0.0012711695,0.003012934,7.354208e-05,0.0013791864,0.50272727,-1.379695,1.9019212,-2.0910609,-1.5708426,2.4780977,-0.053803533,0.043148793,-0.057509992,0.015750604,-0.0027910734,-0.055148687,-0.45968673,-0.019153614,-9.289502,0.7597976,47.694946,-0.84292644,-2.532051,-3.2370892,-0.13829198,-0.05378222,-0.2868839,28.4375,29.6875,28.8125,32.625,35.0625,36.0
0.08805195,-1.4521519,0.37875816,-0.11947797,-0.0027241171,0.04597098,-0.1839713,-0.39091882,-0.36814165,0.059933573,-3.0782807,0.62544274,-0.00030323124,-0.039509103,0.011591426,0.0019465478,0.00232774,0.0013973891,0.0045516863,0.5026074,-1.3796108,1.9017771,-2.0910718,-1.5708908,2.4779758,-0.054513667,0.044350557,-0.060549717,0.016094811,-0.0028320267,-0.05903006,-0.47884035,-0.019153614,-9.32781,0.7329411,47.684196,-1.00085,-2.4817195,-3.1555195,-0.15163855,-0.053461835,-0.24801874,28.4375,29.6875,28.8125,32.625,35.0625,36.0
0.09005206,-1.7836434,0.07149546,-0.27400476,-0.00064634345,0.035373896,-0.16966414,-0.39098048,-0.36812028,0.05991961,-3.0782607,0.62547606,-0.00038667468,-0.039045032,0.013062342,0.00070526666,0.004095236,-0.0013979545,0.0059558544,0.5024989,-1.3795024,1.9016699,-2.0910242,-1.5708665,2.4778907,-0.05642243,0.044839397,-0.05847562,0.016834255,-0.0030329148,-0.062343314,-0.45968673,0.076614454,-9.423578,0.73741806,47.694946,-0.8634919,-2.4468346,-3.2907233,-0.15902713,-0.0662954,-0.20995775,28.4375,29.6875,28.8125,32.625,35.0625,36.0
0.0920519,-1.4087106,-0.5143834,-0.19630592,0.0044836625,0.050669666,-0.1694314,-0.39104953,-0.36810124,0.059914466,-3.0782676,0.625399,-0.0004017721,-0.040310226,0.013085948,0.0008704795,0.0044326447,-0.0009096093,0.008204244,0.5024029,-1.3794057,1.9015616,-2.0909998,-1.570867,2.4777458,-0.05729512,0.046599507,-0.061066657,0.017400801,-0.0035707115,-0.065462045,-0.34476504,0.076614454,-9.500193,0.7777002,47.666286,-0.86194605,-2.5057986,-3.2822065,-0.17295519,-0.07508868,-0.18593341,28.4375,29.6875,28.8125,32.625,35.0625,36.0
0.09405182,-0.91172516,-0.067756884,0.0002564025,-0.015593117,0.058946997,-0.18006252,-0.391137,-0.368065,0.0599091,-3.078222,0.6253687,-0.00040941456,-0.040823225,0.01339442,0.0006658372,0.0054039108,-0.0014826995,0.010028331,0.50228286,-1.3792852,1.9014176,-2.0909398,-1.5709027,2.4776127,-0.057918888,0.047886685,-0.062347047,0.0183628,-0.0041506607,-0.067908004,-0.34476504,0.17238252,-9.481039,0.7597976,47.67614,-0.93431866,-2.476316,-3.2846413,-0.19261111,-0.04648312,-0.13796028,28.4375,29.6875,28.8125,32.625,35.0625,36.0
0.096051715,-1.2418339,-0.16582146,-0.18552451,-0.013641806,0.047079694,-0.17024252,-0.39122298,-0.36801955,0.05989912,-3.0782144,0.6253268,-0.0004373041,-0.04194013,0.014404877,0.0009393064,0.007338655,-0.00040678272,0.010866942,0.502127,-1.3791889,1.9013208,-2.0909154,-1.5709037,2.4774318,-0.059262227,0.04822175,-0.06356931,0.019245079,-0.0063684364,-0.07008495,-0.34476504,0.21068975,-9.3661175,0.7239871,47.703903,-0.9852413,-2.4781864,-3.2383986,-0.22073491,-0.055354387,-0.11924654,28.4375,29.6875,28.8125,32.625,35.0625,36.0
0.09805275,-1.4092188,-0.37274927,-0.2282195,-0.007194123,0.04008242,-0.16823679,-0.39130837,-0.36798173,0.059905723,-3.0781975,0.62530434,-0.00038775097,-0.04299466,0.01470566,7.0466514e-05,0.009122082,-0.00039735943,0.01143985,0.5020069,-1.3791158,1.901214,-2.090892,-1.5709404,2.4773,-0.059757855,0.051333446,-0.06511657,0.018532746,-0.007941701,-0.07114922,-0.28730422,0.28730422,-9.3661175,0.7642693,47.690468,-1.0107591,-2.5158072,-3.2911043,-0.2003155,-0.026724696,-0.071941204,28.4375,29.6875,28.8125,32.625,35.0625,36.0
0.10005166,-0.32984483,-0.06759821,-0.31010863,-0.022499599,0.057136096,-0.1780505,-0.39136833,-0.36795917,0.059862126,-3.078146,0.62533283,-0.00052675547,-0.04419517,0.015491602,0.00027869266,0.010954054,0.0012444664,0.009997335,0.5018989,-1.3789475,1.9011058,-2.0908558,-1.5709175,2.4772162,-0.060686857,0.05194172,-0.06633129,0.018590936,-0.010347191,-0.07062934,-0.076614454,0.21068975,-9.346964,0.7642693,47.716442,-1.0163544,-2.6290665,-3.2958834,-0.2306034,0.014208919,-0.06128869,28.4375,29.6875,28.8125,32.625,35.0625,36.0
0.102052525,-0.9498989,-0.8142258,-0.32091656,-0.013573838,0.032255128,-0.16515853,-0.39148933,-0.36791566,0.05990299,-3.0781565,0.6252582,-0.0004202863,-0.045539964,0.015570395,0.0016265725,0.010333055,0.004724063,0.008353696,0.501743,-1.3788879,1.900926,-2.0907843,-1.5709652,2.4770126,-0.06134577,0.05062157,-0.06768379,0.017913662,-0.011477438,-0.06964241,-0.076614454,0.28730422,-9.461885,0.7553206,47.72002,-1.0535266,-2.4197416,-3.350293,-0.22269115,0.041273564,-0.06476528,28.4375,29.6875,28.8125,32.625,35.0625,36.0
0.10405246,-0.52550733,-0.44484812,-0.43241197,-0.029189706,0.028816462,-0.17387763,-0.3915942,-0.36789304,0.059925176,-3.0781689,0.62526,-0.0003387719,-0.04660887,0.01562929,0.0012353756,0.010013248,0.004292004,0.006275519,0.50162274,-1.378803,1.9007696,-2.0907605,-1.5709895,2.476892,-0.06272656,0.05280454,-0.06930433,0.017571652,-0.010990011,-0.06894551,-0.17238252,0.24899697,-9.385271,0.7620334,47.66987,-1.090514,-2.4554596,-3.2882218,-0.22154325,0.03366089,-0.06459113,28.4375,29.6875,28.8125,32.625,35.0625,36.0
0.106051624,0.42093733,-0.095142595,-0.22863528,-0.031954225,0.0265828,-0.17845154,-0.3916888,-0.36786264,0.059912495,-3.078148,0.62527627,-0.0003451639,-0.04643987,0.015576895,-8.674953e-06,0.009721865,0.00038476745,0.004032469,0.5014906,-1.3786699,1.900638,-2.0907476,-1.5710005,2.4767728,-0.063798554,0.055672243,-0.070163734,0.018839747,-0.008855559,-0.06777794,-0.05746084,0.34476504,-9.385271,0.6926589,47.734352,-1.0727875,-2.6109347,-3.3032417,-0.23246571,0.03183458,-0.06220442,28.4375,29.6875,28.8125,32.625,35.0625,36.0
0.10805195,0.090477616,-0.7468868,-0.4463894,-0.01833117,-0.003242161,-0.17164896,-0.39176863,-0.3678436,0.05992084,-3.0781438,0.62516105,-0.0003097238,-0.047287412,0.014952779,0.00052222545,0.007257005,-5.2739655e-05,0.0012635987,0.50140643,-1.3785734,1.900494,-2.0907,-1.5710357,2.4766173,-0.06499933,0.05646005,-0.072470136,0.019545952,-0.0064866934,-0.06621364,-0.019153614,0.2681506,-9.404425,0.800085,47.690468,-1.118304,-2.5582633,-3.3143177,-0.24587134,0.019811172,-0.090664394,28.4375,29.6875,28.8125,32.625,35.0625,36.0
0.110051766,0.53831387,-0.55781853,-0.26367727,-0.0254061,-0.006183007,-0.17894071,-0.3918637,-0.36781254,0.059890464,-3.0781252,0.62519616,-0.0003919041,-0.047771428,0.014756222,0.0016287655,0.0048222705,0.0008926698,-0.0013352074,0.5012505,-1.3784062,1.9003624,-2.0906885,-1.571011,2.4764857,-0.06614482,0.05473202,-0.07301147,0.019811226,-0.0048091398,-0.064763576,-0.076614454,0.21068975,-9.346964,0.7329411,47.695843,-1.1251948,-2.4360402,-3.3924468,-0.24721009,-0.006232022,-0.11349185,28.4375,29.6875,28.8125,32.625,35.0625,36.0
0.11205175,0.07017281,-0.60750276,-0.34981304,-0.016963728,-0.004933537,-0.17227307,-0.3919672,-0.3677802,0.059913818,-3.0781033,0.62519336,-0.0003163722,-0.04889765,0.014775259,0.00094339624,0.004470025,-0.00039464372,-0.0042208973,0.5011301,-1.3783207,1.9001945,-2.0906284,-1.5710591,2.4763665,-0.0677828,0.05777959,-0.07505385,0.019759214,-0.0038843455,-0.06351656,0.019153614,0.2681506,-9.404425,0.8090337,47.70659,-1.088249,-2.4478736,-3.3175912,-0.25894162,-0.017360847,-0.13419923,28.4375,29.6875,28.8125,32.625,35.0625,36.0
0.11405194,-0.11571737,-0.1159294,-0.27403614,-0.01823183,0.002805752,-0.16815472,-0.39206502,-0.36774325,0.05990335,-3.0780907,0.6252291,-0.00038589173,-0.04939016,0.015129585,0.00069615326,0.00451932,-0.001006059,-0.0064445366,0.50096214,-1.3781884,1.9000505,-2.0905797,-1.5710348,2.4762225,-0.06897222,0.05863911,-0.07556456,0.019970737,-0.0036367122,-0.06248241,0.019153614,0.2681506,-9.32781,0.7418897,47.68599,-1.1604197,-2.575276,-3.3028936,-0.25005472,-0.026765905,-0.16061664,28.4375,29.6875,28.8125,32.625,35.0625,36.0
0.116051756,-0.06772824,-0.030768532,-0.1295549,-0.005545607,0.022215808,-0.17974333,-0.39216784,-0.36773106,0.059906926,-3.0780964,0.62523067,-0.00034567493,-0.051728673,0.014288575,0.0023771983,0.002931459,0.0022499016,-0.0073120403,0.500854,-1.3780558,1.8998827,-2.0905678,-1.5710472,2.4761147,-0.06959593,0.059589416,-0.0806362,0.020473182,-0.0038159294,-0.06223621,0.019153614,0.22984336,-9.3661175,0.7351769,47.661808,-1.1381183,-2.462601,-3.2077558,-0.27772102,-0.033613335,-0.22171536,28.4375,29.6875,28.8125,32.625,35.0625,36.0
0.118052214,-0.62515247,-0.006603421,-0.3344763,-0.001291311,0.021022022,-0.16763617,-0.39225128,-0.36770493,0.059912805,-3.0781083,0.62523204,-0.0004123099,-0.051209625,0.015221425,0.0014891371,0.004334698,-3.236595e-05,-0.00833968,0.5007102,-1.3779597,1.8997391,-2.0904958,-1.571011,2.4759703,-0.070586324,0.06000757,-0.07933239,0.02142918,-0.0039476706,-0.062199157,-0.17238252,0.17238252,-9.346964,0.7866488,47.677036,-1.1815828,-2.482463,-3.2526393,-0.3018111,-0.02539359,-0.22642004,28.4375,29.6875,28.8125,32.625,35.0625,36.0
0.120052196,-0.3814734,0.12244474,-0.45083183,-0.0014836383,0.04084477,-0.1722156,-0.39235964,-0.3676727,0.059913583,-3.0780694,0.6252804,-0.00037782223,-0.05239265,0.015125526,0.00082558725,0.0047294106,-0.0009874846,-0.0065868604,0.50057817,-1.3778265,1.8995713,-2.0904596,-1.5710472,2.4758735,-0.071569435,0.06348148,-0.08199371,0.02163988,-0.0038429087,-0.06493372,-0.17238252,0.15322891,-9.346964,0.7866488,47.690468,-1.2702982,-2.524461,-3.3192956,-0.3046988,-0.040609412,-0.24777709,28.4375,29.6875,28.8125,32.625,35.0625,36.0
0.12205218,-1.7304667,0.10580046,-0.42900416,-0.0048478683,0.013302683,-0.17029667,-0.39245042,-0.3676416,0.059897806,-3.0780497,0.6252768,-0.00044619697,-0.054615296,0.014836411,0.0029479903,0.0030647232,0.0029207335,-0.009496058,0.50043404,-1.3776826,1.8994259,-2.090412,-1.5710348,2.4757297,-0.07285795,0.06255455,-0.085862055,0.022209836,-0.00426705,-0.06331063,-0.17238252,0.19153613,-9.423578,0.8112748,47.66987,-1.3164275,-2.5199802,-3.0708756,-0.32041714,-0.063532785,-0.25170365,28.4375,29.6875,28.8125,32.625,35.0625,36.0
0.12405198,-0.44081637,0.15786545,-0.29509473,-0.016192432,0.04948969,-0.17063588,-0.3925809,-0.36759523,0.05991691,-3.0780125,0.6253089,-0.00038472455,-0.05465722,0.01611501,0.0020495565,0.004520977,0.0019344789,-0.011539116,0.5002656,-1.3775623,1.8992237,-2.0903404,-1.5710834,2.4755862,-0.07452543,0.0628571,-0.084059514,0.021667985,-0.005068033,-0.06293404,-0.30645782,0.1340753,-9.461885,0.83589023,47.703903,-1.1642985,-2.4233484,-3.2517672,-0.3200794,-0.049727723,-0.32156238,28.4375,29.6875,28.8125,32.625,35.0625,36.0
0.12605178,-1.1153105,-0.224158,-0.5058716,-0.017041722,0.04871709,-0.16932985,-0.39268392,-0.36758164,0.059914693,-3.0780454,0.62540895,-0.00043375118,-0.055638105,0.015891619,0.0016168572,0.0062865363,0.0025327734,-0.008112146,0.5001103,-1.3774292,1.8990682,-2.090328,-1.5710238,2.4754891,-0.073890544,0.06585638,-0.08661043,0.021550098,-0.006911338,-0.065720804,-0.49799395,0.15322891,-9.481039,0.8112748,47.70211,-1.3680627,-2.3878164,-3.153498,-0.3233685,-0.03465107,-0.33194354,28.4375,29.6875,28.8125,32.625,35.0625,36.0
0.1280521,-1.4498428,0.07522439,-0.5396082,-0.019916859,0.06348407,-0.17035203,-0.39279658,-0.36755282,0.059935533,-3.0780437,0.6254107,-0.00040693243,-0.057304718,0.017377866,0.0013909385,0.0075972145,0.0023080048,-0.012966019,0.4999654,-1.3773208,1.8988761,-2.0902565,-1.5710362,2.4753456,-0.077261195,0.06726456,-0.08794099,0.022300623,-0.007953387,-0.064234816,-0.4213795,0.15322891,-9.519346,0.78217715,47.687782,-1.3309946,-2.631106,-3.2013516,-0.33516705,-0.02056082,-0.35784185,28.4375,29.6875,28.8125,32.625,35.0625,36.0
0.13005269,-1.1117973,0.23612194,-0.47892764,-0.011550303,0.0919601,-0.17900254,-0.3929176,-0.36750466,0.059918582,-3.0780058,0.6253638,-0.0003478595,-0.05753053,0.017461365,0.002315386,0.0077163135,0.0036959187,-0.013164656,0.4998099,-1.3771651,1.8987325,-2.0902674,-1.5710963,2.4751658,-0.07710916,0.06584698,-0.08857395,0.02318802,-0.008722505,-0.063882604,-0.51714754,0.17238252,-9.615114,0.79560274,47.67345,-1.2125673,-2.299996,-3.278003,-0.35014084,-0.017372794,-0.4290546,28.4375,29.6875,28.8125,32.625,35.0625,36.0
0.13205162,-1.9002813,0.18067992,-0.40118238,-0.006671735,0.0831671,-0.16237316,-0.39302206,-0.3674719,0.059903365,-3.0779402,0.6254823,-0.00039444864,-0.05855285,0.017849555,0.0017447321,0.008447004,0.0033684825,-0.011316216,0.49966598,-1.3769959,1.8985533,-2.0902083,-1.5711087,2.4751043,-0.07838022,0.06809421,-0.08988144,0.022884326,-0.009215831,-0.06699974,-0.45968673,0.15322891,-9.615114,0.7732232,47.691364,-1.4694867,-2.4715855,-3.3080554,-0.36118004,-0.0011326028,-0.45214534,28.4375,29.6875,28.8125,32.625,35.0625,36.0
0.13405265,-0.9719223,0.7116284,-0.42681384,-0.013769167,0.11170165,-0.18722598,-0.39315522,-0.3674546,0.0599297,-3.0779803,0.6253931,-0.0003253149,-0.059719626,0.018147742,0.0017925682,0.00797152,0.004471859,-0.009625774,0.49952158,-1.3768637,1.8983258,-2.0901606,-1.5711211,2.4748993,-0.07986211,0.06882767,-0.090590574,0.021660667,-0.009330321,-0.07017177,-0.47884035,0.095768064,-9.557653,0.85155696,47.675243,-1.3941771,-2.4116373,-3.2593832,-0.35460305,-0.006034521,-0.4420833,28.4375,29.6875,28.8125,32.625,35.0625,36.0
0.13605247,-2.1413462,-0.18620545,-0.70836765,0.005108468,0.06631863,-0.16771697,-0.39326176,-0.36742485,0.059929833,-3.0779676,0.6254657,-0.00035360683,-0.061810795,0.017715614,0.0031096307,0.0055653546,0.0067584394,-0.007950575,0.49936518,-1.3767313,1.8981575,-2.0901124,-1.5711082,2.4747899,-0.08166874,0.069267675,-0.09409483,0.021559697,-0.00832389,-0.07365415,-0.51714754,0.1340753,-9.500193,0.7620334,47.70211,-1.3485526,-2.3729322,-3.289339,-0.35586202,0.016940642,-0.45549044,28.4375,29.6875,28.8125,32.625,35.0625,36.0
0.13805181,-1.405008,0.15170139,-0.82106715,-0.008589047,0.06325896,-0.18085977,-0.39334515,-0.36736786,0.059887517,-3.0779018,0.6254488,-0.00051100465,-0.062110525,0.018902779,0.0019853965,0.006020923,0.004472936,-0.0031547656,0.49918467,-1.3765628,1.8980378,-2.090041,-1.5710958,2.4746072,-0.08434666,0.070518024,-0.09300457,0.021437807,-0.0076416004,-0.08112866,-0.45968673,0.019153614,-9.557653,0.76874626,47.695843,-1.4117911,-2.378812,-3.3592687,-0.35411924,-0.026838701,-0.41812962,28.4375,29.6875,28.8125,32.625,35.0625,36.0
0.14005157,-0.5772227,0.32465065,-0.45480374,-0.014163212,0.06877101,-0.1751845,-0.39351657,-0.36735052,0.05993604,-3.0779614,0.625459,-0.00037062436,-0.06383402,0.018128648,0.0029280481,0.003914809,0.0063612005,-0.0011516305,0.49900478,-1.3764303,1.8977622,-2.0900052,-1.5711077,2.4744263,-0.08518678,0.07164881,-0.096407495,0.021037173,-0.0066972338,-0.08397318,-0.59376204,-0.095768064,-9.5385,0.7665104,47.703903,-1.2762382,-2.329668,-3.325173,-0.34593123,-0.023508016,-0.38021445,28.4375,29.6875,28.8125,32.625,35.0625,36.0
0.14205246,-1.2044094,0.33439696,-0.6478342,-0.004409242,0.049764737,-0.18352598,-0.39365703,-0.36732304,0.0599547,-3.0779974,0.62542313,-0.0002891069,-0.06443306,0.018509075,0.0027691557,0.0037359612,0.006484602,0.0046764575,0.49883685,-1.376298,1.89756,-2.0899932,-1.5711201,2.4742315,-0.08640947,0.072134525,-0.0964951,0.02043975,-0.006599479,-0.0910244,-0.49799395,-0.05746084,-9.519346,0.8403672,47.696735,-1.3888772,-2.3140242,-3.194693,-0.33619243,-0.012411218,-0.35226393,28.4375,29.6875,28.8125,32.625,35.0625,36.0
0.14405228,-0.56461185,0.62256104,-0.40010145,0.0022710618,0.07589654,-0.18477069,-0.3937867,-0.36725855,0.05994505,-3.0779452,0.62547064,-0.00028060377,-0.06778185,0.020468172,0.0034511923,0.003351372,0.008368497,0.0036193414,0.49863115,-1.3761536,1.8974026,-2.0899575,-1.5711559,2.4740622,-0.0924019,0.07283276,-0.098839924,0.020243239,-0.007172503,-0.09595733,-0.4213795,-0.05746084,-9.557653,0.7239871,47.699425,-1.121155,-2.2749457,-3.287274,-0.33763075,-0.033932887,-0.2660643,28.4375,29.6875,28.8125,32.625,35.0625,36.0
0.14605238,-0.99695086,0.5932451,-0.34634227,0.010583311,0.07670777,-0.18266568,-0.3939097,-0.36722654,0.059955135,-3.0779643,0.6254129,-0.00026814203,-0.06793977,0.019926576,0.003044628,0.0036383818,0.0080046225,0.008292007,0.49846402,-1.3760209,1.8972114,-2.0899098,-1.5711559,2.4738567,-0.091559164,0.07471357,-0.100122616,0.020099372,-0.0072540767,-0.09978637,-0.51714754,-0.1340753,-9.500193,0.8224646,47.70211,-1.2835971,-2.2565477,-3.2765007,-0.3212125,-0.02353247,-0.20684572,28.4375,29.6875,28.8125,32.625,35.0625,36.0
0.14805174,-1.0045704,0.5745696,-0.14878783,0.0033897557,0.093725644,-0.18104191,-0.39403418,-0.36717555,0.059926767,-3.0779212,0.62534463,-0.00034332226,-0.069515824,0.02107651,0.0034140334,0.00416322,0.009360151,0.009165721,0.49827138,-1.3758167,1.8970202,-2.0898502,-1.5711683,2.473627,-0.09421716,0.07475853,-0.101008095,0.019999925,-0.008373697,-0.103314824,-0.59376204,0.019153614,-9.423578,0.7978386,47.65464,-1.1893054,-2.303504,-3.268259,-0.29996574,-0.0117055625,-0.17838606,28.4375,29.6875,28.8125,32.625,35.0625,36.0
0.15005171,-1.1815674,0.40057266,-0.30179632,0.0021825999,0.091604,-0.17818734,-0.39420915,-0.36713806,0.05996141,-3.077968,0.6253739,-0.00021841355,-0.07060054,0.022150386,0.0026033395,0.005171579,0.0078028613,0.007447144,0.49805504,-1.3756838,1.8967808,-2.0898378,-1.5711807,2.4734232,-0.09689809,0.0770212,-0.10198386,0.020559875,-0.008505924,-0.104277015,-0.5554548,0.019153614,-9.442732,0.7911258,47.698532,-1.0855095,-2.2933116,-3.307682,-0.3030424,-0.024031246,-0.14134192,28.4375,29.6875,28.8125,32.625,35.0625,36.0
0.1520527,-1.6292105,0.12404882,-0.37364483,-0.0019945567,0.066449024,-0.15699813,-0.39432883,-0.36708745,0.059964366,-3.07795,0.625295,-0.00022432508,-0.072074905,0.0226042,0.0029844951,0.003840664,0.0078578135,0.0035326506,0.49787444,-1.3755513,1.8966006,-2.0897658,-1.5712041,2.4731958,-0.09969525,0.07768919,-0.103744194,0.020960802,-0.007366777,-0.103161104,-0.49799395,0.05746084,-9.481039,0.7866488,47.72002,-1.000908,-2.248104,-3.351656,-0.30362236,-0.010256915,-0.120177805,28.4375,29.6875,28.8125,32.625,35.0625,36.0
0.15405242,-0.6693578,0.19737059,-0.32787734,-0.015344727,0.070119284,-0.17856613,-0.39447707,-0.36705676,0.059976615,-3.077955,0.62529814,-0.0001857843,-0.073282756,0.023239842,0.0026545199,0.0035810312,0.00747069,-0.0019030167,0.49769396,-1.3753827,1.8963617,-2.089718,-1.571216,2.4730167,-0.10209589,0.07917877,-0.10470165,0.020642437,-0.006951658,-0.100126475,-0.47884035,0.095768064,-9.442732,0.7978386,47.66808,-0.9184909,-2.3530803,-3.3741171,-0.28966,-0.028557898,-0.1564422,28.4375,29.6875,28.8125,32.625,35.0625,36.0
0.15605226,-0.8335956,0.09355562,-0.2703096,-0.011473568,0.053015698,-0.16674244,-0.39462432,-0.36701298,0.059978884,-3.0779524,0.6253582,-0.00019868351,-0.07495572,0.023530742,0.003037012,0.0033990073,0.008810301,-0.00780082,0.49747768,-1.3752141,1.8961457,-2.0896704,-1.5712041,2.4728384,-0.103784785,0.08038002,-0.106964864,0.020443931,-0.007432911,-0.095915504,-0.5554548,0.13407528,-9.3661175,0.7083204,47.70211,-0.8709482,-2.225809,-3.2812028,-0.2847255,-0.028308053,-0.20814419,28.4375,29.6875,28.8125,32.625,35.0625,36.0
0.1580522,-0.9730356,0.29241547,-0.25399622,-0.012422296,0.058813654,-0.1755459,-0.39477035,-0.36691895,0.05996467,-3.0778432,0.625413,-0.00017327692,-0.07560618,0.024310991,0.0027979973,0.004731165,0.008827196,-0.012807318,0.49723795,-1.3750577,1.8959788,-2.0896103,-1.5712885,2.472647,-0.1049254,0.08115959,-0.107425235,0.020742109,-0.008612949,-0.09204653,-0.51714754,0.05746084,-9.32781,0.7732232,47.695843,-0.8826759,-2.2528818,-3.4004714,-0.2587921,-0.018485213,-0.2560405,28.4375,29.6875,28.8125,32.625,35.0625,36.0
0.16005197,-1.9512159,0.12140028,-0.33644867,-0.0036668067,0.05730044,-0.16760634,-0.39492652,-0.36691228,0.059970077,-3.0779288,0.6254112,-0.00016536273,-0.07664646,0.024224171,0.0018940131,0.0048997593,0.007260429,-0.014770084,0.49704608,-1.3748642,1.8957394,-2.0896223,-1.5712284,2.472443,-0.106066905,0.084861815,-0.10981398,0.020888394,-0.008012105,-0.091225505,-0.51714754,0.05746084,-9.3661175,0.800085,47.68062,-0.892359,-2.2855556,-3.3892446,-0.24681959,-0.014356992,-0.29618824,28.4375,29.6875,28.8125,32.625,35.0625,36.0
0.16205227,-1.4877968,0.3074609,-0.2546498,0.0011782139,0.07969166,-0.17563003,-0.3950848,-0.36688033,0.059988536,-3.07794,0.6254318,-0.00011045332,-0.076784596,0.024248555,0.002602019,0.0034800963,0.007943035,-0.014280332,0.49685428,-1.3746967,1.8954877,-2.0895746,-1.5712398,2.4722629,-0.106768176,0.083306424,-0.109603606,0.020950109,-0.007085394,-0.09241905,-0.45968673,0.05746084,-9.32781,0.78888994,47.642998,-0.90629673,-2.2277436,-3.4102867,-0.23684996,-0.018503197,-0.3063456,28.4375,29.6875,28.8125,32.625,35.0625,36.0
0.16405225,-1.4054871,0.24786001,-0.20477328,0.0024452517,0.07513239,-0.17500257,-0.39525902,-0.3667989,0.059987664,-3.0778706,0.6255317,-2.5645355e-05,-0.0783491,0.023720989,0.0037768863,0.0022688033,0.009820912,-0.01406434,0.49660245,-1.3745283,1.895284,-2.0895498,-1.5713118,2.4720824,-0.1073749,0.083928704,-0.113192245,0.021678863,-0.0069193556,-0.09324076,-0.30645782,0.15322891,-9.232041,0.8314132,47.64837,-0.88941735,-2.1870785,-3.390953,-0.241467,-0.02856063,-0.31760657,28.4375,29.6875,28.8125,32.625,35.0625,36.0
0.1660522,-1.3774554,0.46711418,-0.09719558,-0.00677495,0.043392956,-0.17814879,-0.39541253,-0.36676136,0.06001037,-3.0778806,0.6255903,1.3499698e-05,-0.077720694,0.024492426,0.00067676394,0.005400281,0.0044398396,-0.0143881645,0.4963987,-1.374382,1.8950452,-2.0894902,-1.5713118,2.471914,-0.107944,0.089216895,-0.112486884,0.021907518,-0.0071035116,-0.093485385,-0.095768064,0.21068975,-9.251195,0.81351066,47.701214,-0.96510094,-2.3355646,-3.3841565,-0.216835,-0.04465923,-0.3425371,28.4375,29.6875,28.8125,32.625,35.0625,36.0
0.16805233,-0.0048745354,0.05672636,-0.17660646,-0.005572722,0.036714338,-0.16915703,-0.39556164,-0.36672515,0.060001113,-3.0778716,0.625647,-1.1276147e-05,-0.08042459,0.02523311,0.0025134527,0.0042402446,0.008404947,-0.016711859,0.4961942,-1.3741785,1.8948163,-2.0894544,-1.5713004,2.4717462,-0.1110785,0.08809782,-0.11533453,0.02183749,-0.007978601,-0.09429348,-0.15322891,0.15322891,-9.346964,0.7911258,47.655537,-0.9434478,-2.2461917,-3.4063797,-0.19428961,-0.023792382,-0.38076445,28.4375,29.6875,28.8125,32.625,35.0625,36.0
0.17005219,0.03914581,-0.34820777,-0.3098069,-0.006836472,0.013207861,-0.16560183,-0.39574102,-0.36664885,0.06001408,-3.0778425,0.62567633,6.298938e-05,-0.080447696,0.02398075,0.0022594735,0.004752043,0.008466098,-0.014023608,0.49593174,-1.3740215,1.8945893,-2.0894063,-1.5713485,2.4715059,-0.10865154,0.090579815,-0.11774345,0.021949226,-0.008459494,-0.09455271,-0.13407528,0.17238252,-9.212888,0.76874626,47.682407,-1.002845,-2.288763,-3.248589,-0.17081773,-0.011067942,-0.38676995,28.4375,29.6875,28.8125,32.625,35.0625,36.0
0.17205207,-0.4368223,-0.87011933,-0.508351,0.0058673886,-0.007973779,-0.15794525,-0.39591292,-0.36663854,0.060037687,-3.0779076,0.62563246,0.00013669391,-0.082896106,0.026276994,0.0024312,0.00547834,0.00853236,-0.017385729,0.49575004,-1.3738292,1.8943018,-2.0893824,-1.5713371,2.4712887,-0.11428836,0.09120813,-0.11913285,0.02299818,-0.009123706,-0.09682625,-0.11492168,0.2681506,-9.308657,0.77545905,47.691364,-0.9071247,-2.3146377,-3.334651,-0.18115981,0.009805851,-0.39793488,28.4375,29.6875,28.8125,32.625,35.0625,36.0
0.17405201,0.17343199,-0.15632191,-0.39786986,-0.015071761,0.018184172,-0.17632438,-0.39610422,-0.3665598,0.06003367,-3.0778432,0.62571037,0.00022103557,-0.08320335,0.025163524,0.0032115486,0.00472734,0.009582552,-0.010047707,0.49548727,-1.3736248,1.8940624,-2.089358,-1.5714086,2.471083,-0.11274574,0.09170356,-0.12168546,0.023760566,-0.008966125,-0.10262108,-0.038307227,0.22984336,-9.385271,0.74413085,47.681515,-0.9712126,-2.2886667,-3.2907667,-0.16509709,-0.00402206,-0.3503725,28.4375,29.6875,28.8125,32.625,35.0625,36.0
0.17605208,-0.46085423,-0.6382568,-0.29225868,-0.016234547,0.018438142,-0.16382393,-0.3962323,-0.36652035,0.060038727,-3.0778663,0.62578887,0.000116049305,-0.0826584,0.025660237,0.0010381768,0.006182811,0.0050307596,-0.0060929186,0.49525934,-1.3734792,1.8938588,-2.0892737,-1.5713366,2.470901,-0.11359129,0.09532631,-0.12119605,0.024344187,-0.008084359,-0.10742255,0.05746084,0.24899697,-9.251195,0.79560274,47.705692,-1.016182,-2.4709964,-3.291103,-0.14683321,-0.017740585,-0.3254121,28.4375,29.6875,28.8125,32.625,35.0625,36.0
0.17805211,-0.7426654,-0.75160986,-0.3706025,-0.02204295,0.018588653,-0.17084168,-0.39638865,-0.3664613,0.060015686,-3.077805,0.62577116,5.2237174e-05,-0.0842587,0.024618981,0.0031862506,0.0040723626,0.008037338,0.0011577628,0.49503183,-1.3732394,1.893607,-2.0891898,-1.57136,2.4706705,-0.11351353,0.09471502,-0.12570615,0.025806922,-0.0076729604,-0.11459422,0.0,0.3256114,-9.346964,0.779936,47.66987,-1.0328543,-2.2760992,-3.2749562,-0.12608832,-0.025478102,-0.24718723,28.4375,29.6875,28.8125,32.625,35.0625,36.0
0.1800519,-0.71132493,-0.61806476,-0.35564527,-0.025675302,0.019082341,-0.15528134,-0.39655328,-0.3663996,0.059984595,-3.0777326,0.6257335,5.0579234e-05,-0.084631145,0.026134659,0.00092551985,0.006422023,0.0033037143,0.0052470346,0.49481514,-1.3729856,1.8933676,-2.089153,-1.5714201,2.4704397,-0.11646459,0.09886497,-0.12579791,0.027016312,-0.0074989125,-0.12163399,-0.038307227,0.34476504,-9.232041,0.81351066,47.655537,-0.8903631,-2.5168176,-3.3324583,-0.1358898,-0.017527796,-0.20787808,28.4375,29.6875,28.8125,32.625,35.0625,36.0
0.1820519,-0.14822441,-0.6729093,-0.37845314,-0.010767805,0.021373441,-0.16323005,-0.39673063,-0.3663591,0.06001766,-3.077783,0.6256627,0.00017550537,-0.08509936,0.024884522,0.0027649985,0.0049353032,0.0063234176,0.009883803,0.49460047,-1.3728421,1.8931164,-2.0891292,-1.5714444,2.4701746,-0.11466719,0.09736958,-0.12837175,0.027715914,-0.0076188804,-0.12447308,0.05746084,0.24899697,-9.289502,0.8537928,47.667187,-1.1522064,-2.334642,-3.2029676,-0.1332571,-0.023627743,-0.11095281,28.4375,29.6875,28.8125,32.625,35.0625,36.0
0.18405186,-0.5338057,-1.1283484,-0.45059025,0.0025471335,0.0076890616,-0.15187518,-0.39690378,-0.36632437,0.06003547,-3.077817,0.6256502,0.00023066782,-0.08643508,0.025360182,0.0020754987,0.005286653,0.0049081757,0.010294245,0.49438402,-1.372661,1.8928522,-2.089093,-1.5714439,2.4699461,-0.116860226,0.10046794,-0.13063556,0.028289149,-0.0072548175,-0.12707631,-0.05746084,0.2873042,-9.251195,0.7933669,47.683304,-0.9996264,-2.380104,-3.1648073,-0.101556376,-0.018677182,-0.09498383,28.4375,29.6875,28.8125,32.625,35.0625,36.0
0.18605192,0.046665885,0.08790309,-0.3162369,-0.0152697535,0.016643098,-0.17663166,-0.39704737,-0.3662454,0.05999147,-3.0777261,0.6256335,5.559373e-05,-0.08703446,0.025295774,0.002053256,0.005319622,0.004806403,0.0058664037,0.49412054,-1.372408,1.8926243,-2.0889733,-1.5714439,2.469684,-0.11725496,0.10167047,-0.13213076,0.028688187,-0.007253558,-0.12304148,-0.095768064,0.28730422,-9.308657,0.7911258,47.67345,-1.1594409,-2.468296,-3.1348708,-0.10740267,-0.022648457,-0.1003763,28.4375,29.6875,28.8125,32.625,35.0625,36.0
0.188052,0.14102162,0.030422408,-0.38194808,-0.011679381,0.027361235,-0.16281715,-0.3972434,-0.36619717,0.06002435,-3.0777645,0.62562394,0.000150675,-0.0883939,0.025794456,0.0017832564,0.005862918,0.004446389,-0.00053440174,0.4938685,-1.3722392,1.8923377,-2.0889251,-1.5714558,2.4694211,-0.11908724,0.10390557,-0.13430837,0.029206559,-0.0075535798,-0.11847175,-0.095768064,0.2681506,-9.308657,0.8403672,47.647476,-1.1465516,-2.4427085,-3.1541896,-0.099568054,-0.029671647,-0.1287111,28.4375,29.6875,28.8125,32.625,35.0625,36.0
0.19005188,-0.54443884,-0.5047813,-0.557415,-0.008650981,0.031478327,-0.15674649,-0.39742315,-0.3661455,0.060011875,-3.0777018,0.62570894,0.00015412713,-0.08871396,0.026289824,0.0010956015,0.0064029424,0.002564026,-0.006341766,0.4936406,-1.3719864,1.8920516,-2.088865,-1.5714921,2.4692545,-0.120416805,0.10559739,-0.13498583,0.030101785,-0.0071371733,-0.11399418,-0.15322891,0.30645782,-9.289503,0.779936,47.686886,-1.121705,-2.5502021,-3.143608,-0.09399884,-0.026260909,-0.17174831,28.4375,29.6875,28.8125,32.625,35.0625,36.0
0.19205174,-0.54375094,-0.5733963,-0.5527341,-0.013705868,0.04164254,-0.16727841,-0.39758563,-0.36610955,0.060023937,-3.0777564,0.6255682,0.00017031416,-0.08934894,0.026554253,0.0016331583,0.0062632803,0.0026718655,-0.011416856,0.49342483,-1.3718063,1.8917989,-2.088817,-1.5714797,2.468944,-0.12143562,0.10550892,-0.13643096,0.031477064,-0.0070605716,-0.10993784,-0.11492168,0.30645782,-9.442732,0.79560274,47.660015,-1.1752558,-2.5130575,-3.1421902,-0.09077695,-0.036447212,-0.25733897,28.4375,29.6875,28.8125,32.625,35.0625,36.0
0.19405209,-0.67059034,-0.45348737,-0.6144138,-0.030303825,0.051355276,-0.1654595,-0.3977663,-0.3660645,0.060025226,-3.0777214,0.6256579,0.00013803883,-0.09021558,0.026735852,0.0017468914,0.006176159,0.0023509758,-0.014777862,0.49318498,-1.3715656,1.8914875,-2.08872,-1.5714797,2.4687648,-0.122612454,0.106653236,-0.1382918,0.032434262,-0.006835627,-0.107753165,-0.30645782,0.2681506,-9.461885,0.7933669,47.651955,-1.1716137,-2.4596534,-3.2656636,-0.07318233,-0.033130035,-0.29393965,28.4375,29.6875,28.8125,32.625,35.0625,36.0
0.19605199,-0.9149664,-0.4996683,-0.6663304,-0.02168575,0.06245975,-0.16461682,-0.39793918,-0.36600798,0.060026143,-3.0776978,0.6257295,0.00012009931,-0.0897959,0.027888328,0.00036295387,0.008026201,-0.00028034937,-0.017116537,0.4929331,-1.3713611,1.8912257,-2.0886486,-1.5714797,2.4685607,-0.12387759,0.10789122,-0.1367283,0.032826923,-0.0072171004,-0.10667925,-0.3256114,0.1340753,-9.481039,0.7642693,47.688675,-1.1803982,-2.499055,-3.2550378,-0.07935773,-0.044503763,-0.33733693,28.4375,29.6875,28.8125,32.625,35.0625,36.0
0.19805211,-1.0464238,0.020652253,-0.6474038,-0.021110347,0.061823674,-0.16609222,-0.39811978,-0.3659402,0.060007628,-3.077623,0.62579215,0.00015100426,-0.092287235,0.028176593,0.0016345955,0.0068104416,0.0021980447,-0.021117445,0.49269256,-1.3711207,1.8909734,-2.0886128,-1.5715398,2.468369,-0.12649909,0.10843837,-0.14036919,0.033155493,-0.0073281466,-0.105298035,-0.28730422,0.05746084,-9.500193,0.8112748,47.666286,-1.1214997,-2.415449,-3.1576452,-0.08738272,-0.046409756,-0.40994734,28.4375,29.6875,28.8125,32.625,35.0625,36.0
0.20005216,-1.1680839,-0.28594604,-0.6357794,-0.0037013087,0.062714055,-0.1572311,-0.3982879,-0.3658968,0.060019158,-3.077636,0.62581414,0.00012383508,-0.092544354,0.029120274,0.0013535228,0.006675295,0.0014228276,-0.023664853,0.49245247,-1.3709285,1.8906993,-2.0885289,-1.5715159,2.468141,-0.12856308,0.10810227,-0.13932979,0.033070862,-0.006840733,-0.10481609,-0.36391866,-0.038307227,-9.442732,0.86498255,47.709274,-1.077975,-2.3791747,-3.374321,-0.06284034,-0.048074663,-0.44931448,28.4375,29.6875,28.8125,32.625,35.0625,36.0
0.2020521,-1.225596,0.25616243,-0.6038311,-0.00044378953,0.06083761,-0.16265354,-0.3984938,-0.36581093,0.060009807,-3.0775926,0.62593734,0.000117320276,-0.09251028,0.029480008,-0.00071535975,0.008584958,-0.0021771304,-0.02170195,0.49212912,-1.3706988,1.890436,-2.0884807,-1.5715278,2.4679003,-0.12908177,0.11245275,-0.13989818,0.033358455,-0.006826931,-0.10729678,-0.49799395,-0.05746084,-9.461885,0.83589023,47.689575,-1.2201271,-2.410481,-3.347152,-0.052289393,-0.07330945,-0.4641307,28.4375,29.6875,28.8125,32.625,35.0625,36.0
0.20405187,-0.3546569,0.7303853,-0.68210375,0.017186355,0.09176863,-0.17217793,-0.3986729,-0.36577073,0.060014233,-3.0775871,0.62606806,6.722513e-05,-0.09270925,0.02992167,0.0004348086,0.008084574,-0.00046639834,-0.019015983,0.49187726,-1.3704718,1.8901366,-2.0883973,-1.5714921,2.4677308,-0.12971461,0.10980742,-0.13949674,0.03385914,-0.00719643,-0.11061542,-0.4213795,-0.11492168,-9.442732,0.8291774,47.704796,-1.1180315,-2.3528514,-3.4683123,-0.045627415,-0.060387786,-0.47178137,28.4375,29.6875,28.8125,32.625,35.0625,36.0
0.2060517,-0.9418636,1.4290406,-0.2880441,0.02192012,0.077197164,-0.17324804,-0.39887702,-0.36572242,0.06001763,-3.0775826,0.6260041,0.0001805117,-0.0946762,0.030914417,-0.00063341245,0.008947098,-0.0019392853,-0.012514318,0.49164858,-1.3702297,1.8898376,-2.0883849,-1.5715522,2.467463,-0.13305652,0.11388389,-0.14197138,0.03394681,-0.0072680465,-0.12045764,-0.47884035,-0.22984336,-9.481039,0.82694155,47.703903,-1.1281708,-2.4817984,-3.3614256,-0.03712575,-0.054591745,-0.4206705,28.4375,29.6875,28.8125,32.625,35.0625,36.0
0.20805164,-0.84982663,0.87777865,-0.3247642,0.044910584,0.08742566,-0.17060025,-0.39906263,-0.365673,0.060025487,-3.0775645,0.62605214,0.00016353297,-0.094912164,0.029618645,0.0011178398,0.006966007,0.00021944677,-0.003466018,0.49139777,-1.3700023,1.8895267,-2.088288,-1.5715522,2.4672446,-0.13147837,0.11234249,-0.14438982,0.03505799,-0.0065499265,-0.12792861,-0.45968673,-0.19153613,-9.5385,0.800085,47.64121,-1.1813035,-2.3234344,-3.5625563,-0.028191604,-0.08206966,-0.3703212,28.4375,29.6875,28.8125,32.625,35.0625,36.0
0.21005252,-0.56496763,0.82642037,-0.22872095,0.042807765,0.09656143,-0.16996108,-0.39925337,-0.36560404,0.060016897,-3.077542,0.6260426,0.00011694838,-0.09552349,0.03081981,0.0004921039,0.008777404,-0.0018703227,0.003295856,0.4911096,-1.3697613,1.8892401,-2.0882046,-1.5715522,2.4669535,-0.13360131,0.11402381,-0.14546876,0.037145786,-0.007170178,-0.13681145,-0.45968673,-0.19153613,-9.385271,0.85826975,47.666286,-1.1540375,-2.3397655,-3.512045,-0.024182003,-0.079786055,-0.2635149,28.4375,29.6875,28.8125,32.625,35.0625,36.0
0.21205243,-1.0484865,1.0156677,-0.42169854,0.045442678,0.07528002,-0.17106059,-0.39944676,-0.36554927,0.060028046,-3.0775664,0.6259472,0.000184215,-0.09667455,0.030878905,0.0015480723,0.008784556,-0.00034515277,0.007847997,0.49085808,-1.3695573,1.8889631,-2.088168,-1.5715765,2.4666395,-0.1342282,0.113926254,-0.14808084,0.038506962,-0.007897341,-0.14198844,-0.49799395,-0.15322891,-9.519346,0.8672237,47.66987,-1.1514596,-2.29698,-3.3600929,-0.035705823,-0.072374105,-0.19348812,28.4375,29.6875,28.8125,32.625,35.0625,36.0
0.21405238,-1.0074072,0.63976526,-0.6142653,0.04385124,0.072468184,-0.15987289,-0.39960402,-0.3654647,0.0600013,-3.0774817,0.6259675,6.319245e-05,-0.09803114,0.03176215,0.001397417,0.009383617,-0.00039505723,0.007449679,0.49058154,-1.3693286,1.8887242,-2.0880482,-1.5715884,2.4663866,-0.13655685,0.11533928,-0.14952818,0.03886403,-0.008422623,-0.1439161,-0.45968673,-0.21068975,-9.576807,0.79560274,47.67614,-0.9756372,-2.200544,-3.393538,-0.047369413,-0.08720508,-0.13951449,28.4375,29.6875,28.8125,32.625,35.0625,36.0
0.21605237,-1.1842561,0.53696364,-0.5019832,0.017529255,0.060349163,-0.1680014,-0.39984697,-0.36537537,0.060034577,-3.0774372,0.6260173,0.00017469778,-0.099278934,0.03356815,0.001358111,0.010142905,-0.0024196035,0.0021938933,0.490257,-1.369112,1.8883656,-2.0879395,-1.5716604,2.466099,-0.14081375,0.11598064,-0.15086415,0.041689202,-0.008131623,-0.14291778,-0.45968673,-0.22984336,-9.557653,0.84484416,47.7254,-1.0898228,-2.3170671,-3.420316,-0.054576572,-0.06540449,-0.13687903,28.4375,29.6875,28.8125,32.625,35.0625,36.0
0.21805213,-1.1962707,-0.026663803,-0.6793978,0.01409831,0.062151827,-0.15154049,-0.40002444,-0.36532712,0.060014986,-3.0774367,0.6260002,7.75361e-05,-0.09908731,0.03343144,0.0006358891,0.012221028,-0.0048512653,-0.0032171963,0.489994,-1.3688471,1.8880776,-2.0878665,-1.5716246,2.4658256,-0.13992393,0.11873209,-0.1531334,0.04434193,-0.008824257,-0.13661394,-0.6512228,0.0,-9.595961,0.8403672,47.71465,-1.0604162,-2.1359384,-3.4211473,-0.0925541,-0.09597017,-0.20952418,28.4375,29.6875,28.8125,32.625,35.0625,36.0
0.22005194,-0.7460693,-0.032343388,-0.78839,0.0066372426,0.0842784,-0.16120572,-0.4002277,-0.3652531,0.060009863,-3.0773923,0.6260512,4.3285276e-05,-0.09901923,0.03418935,0.000725764,0.014197002,-0.0067155464,-0.008639911,0.48969436,-1.3685948,1.8877662,-2.0877697,-1.571637,2.4655635,-0.14053145,0.119075075,-0.15461306,0.04805662,-0.009690381,-0.13179624,-0.59376204,0.11492168,-9.653421,0.7911258,47.68599,-1.0274239,-2.3348184,-3.368929,-0.12374957,-0.06260475,-0.24162006,28.4375,29.6875,28.8125,32.625,35.0625,36.0
0.2220521,-0.9657167,-0.5081702,-0.7982821,-0.005967079,0.08693675,-0.16198274,-0.40044728,-0.3651994,0.060057614,-3.0774283,0.62609637,0.0001254152,-0.099067986,0.03492227,-0.00044447364,0.015898103,-0.010019294,-0.011376055,0.48940668,-1.3684136,1.8874196,-2.087673,-1.571637,2.4652996,-0.14177038,0.121689394,-0.1555537,0.05009708,-0.009629576,-0.13029924,-0.5746084,0.17238252,-9.730036,0.8291774,47.66808,-1.1031091,-2.1634002,-3.3381114,-0.18021402,-0.069377646,-0.29993218,28.4375,29.6875,28.8125,32.625,35.0625,36.0
0.22405192,-1.0823667,-0.6896416,-0.51393956,-0.026379835,0.08710513,-0.17298137,-0.4006457,-0.36511514,0.060056165,-3.0773444,0.62607765,0.00013810284,-0.10112025,0.033979118,-0.0001750646,0.014931518,-0.008159344,-0.011706899,0.4891313,-1.368172,1.8871077,-2.0875542,-1.571709,2.4650235,-0.14194332,0.12498943,-0.15988888,0.049024623,-0.009672908,-0.13013859,-0.40222588,0.21068975,-9.500193,0.7978386,47.65912,-1.1696522,-2.29851,-3.2233517,-0.1921214,-0.069444686,-0.32589027,28.4375,29.6875,28.8125,32.625,35.0625,36.0
0.22605209,-0.96652114,-1.1243011,-0.7189678,-0.03371525,0.08491344,-0.15870705,-0.40084672,-0.36503237,0.06003096,-3.0772634,0.62615705,4.594525e-05,-0.10244474,0.034296505,0.0006459421,0.01542944,-0.0076882,-0.013303763,0.48881948,-1.3678838,1.8867964,-2.0874455,-1.5717214,2.4647717,-0.14317748,0.12575501,-0.16324508,0.051431477,-0.010350758,-0.1297724,-0.47884035,0.30645782,-9.519346,0.83365434,47.705692,-1.1588361,-2.2933955,-3.2086086,-0.20819482,-0.06188433,-0.34525508,28.4375,29.6875,28.8125,32.625,35.0625,36.0
0.228052,-0.55414313,-0.8805013,-0.5831467,-0.044381958,0.0742805,-0.17255792,-0.40106535,-0.36495966,0.060050875,-3.0772424,0.62620765,5.2443687e-05,-0.10226455,0.034595594,-0.00069366605,0.016534789,-0.010316732,-0.0128477225,0.48850822,-1.3676546,1.8864502,-2.0873253,-1.5717329,2.464495,-0.14359924,0.12831293,-0.1633719,0.05183386,-0.010098043,-0.13065037,-0.34476504,0.4213795,-9.442732,0.92093146,47.70211,-1.200049,-2.363531,-3.1649022,-0.25641236,-0.069152646,-0.38198644,28.4375,29.6875,28.8125,32.625,35.0625,36.0
0.23005179,-0.33096975,-1.1185858,-0.4374151,-0.039311316,0.054783892,-0.17422886,-0.40128332,-0.36489403,0.0600596,-3.077192,0.626233,8.523636e-05,-0.10401622,0.034383535,0.00060092314,0.014992899,-0.0074343854,-0.0099446485,0.4882323,-1.3673904,1.8860906,-2.087218,-1.571781,2.4642415,-0.14473632,0.12809125,-0.16597627,0.05137791,-0.010104511,-0.13468948,-0.1340753,0.40222588,-9.385271,0.8023209,47.70032,-1.1881614,-2.2631783,-3.1628597,-0.2728168,-0.067377806,-0.37794033,28.4375,29.6875,28.8125,32.625,35.0625,36.0
0.23205163,-0.21754688,-0.7255928,-0.45270988,-0.047419816,0.032849647,-0.16769114,-0.40150246,-0.36484188,0.060071845,-3.0772097,0.62625194,0.00015406065,-0.10625125,0.035219047,3.623286e-05,0.015674474,-0.006891263,-0.0058459355,0.48795602,-1.367149,1.8857664,-2.0871828,-1.5717934,2.463975,-0.14753039,0.13132192,-0.16834822,0.05035052,-0.0109713245,-0.14157939,-0.038307227,0.40222588,-9.3661175,0.947788,47.72629,-1.2314421,-2.280207,-3.072133,-0.27460217,-0.069084816,-0.3213436,28.4375,29.6875,28.8125,32.625,35.0625,36.0
0.2340525,0.10106613,-1.3805332,-0.33345264,-0.02410093,0.029437723,-0.16598956,-0.40171134,-0.3647682,0.060073987,-3.07718,0.6262779,0.00010532369,-0.10631103,0.034395166,-8.145685e-05,0.014966058,-0.0071212547,0.0033138562,0.487645,-1.3668964,1.8854326,-2.0870626,-1.571793,2.463684,-0.14656731,0.13265206,-0.16966535,0.05019421,-0.010257159,-0.14977665,-0.114921674,0.3256114,-9.346964,0.84708,47.70211,-1.1971819,-2.407863,-3.258101,-0.28140956,-0.04778094,-0.21417087,28.4375,29.6875,28.8125,32.625,35.0625,36.0
0.23605238,0.18600439,-0.58749324,-0.3111946,-0.02983964,0.02644227,-0.17409782,-0.4019307,-0.3647024,0.06007001,-3.0771437,0.6261894,0.00012092212,-0.107219025,0.036084007,-0.0026793245,0.016446512,-0.0109280795,0.00797971,0.487368,-1.3666064,1.8850735,-2.0869677,-1.5718411,2.4633567,-0.15042053,0.13711737,-0.16885406,0.048953433,-0.009798156,-0.15829611,-0.038307227,0.4213795,-9.289502,0.7933669,47.71286,-0.94161403,-2.4348722,-3.2499223,-0.29633835,-0.055329144,-0.111986615,28.4375,29.6875,28.8125,32.625,35.0625,36.0
0.23805223,0.21252634,-0.75627464,-0.265304,-0.02954342,0.025940744,-0.17076617,-0.40216693,-0.36462495,0.06007499,-3.077116,0.6261425,0.00016733546,-0.10852795,0.03654271,-0.00061828335,0.014471873,-0.0072833844,0.009834556,0.48705617,-1.3663316,1.884715,-2.0868838,-1.5718888,2.4630194,-0.1522912,0.13373405,-0.16949637,0.048819184,-0.009769122,-0.16202205,0.05746084,0.34476504,-9.270349,0.80456203,47.709274,-1.034031,-2.4161515,-3.3271232,-0.28471276,-0.06216155,-0.06139469,28.4375,29.6875,28.8125,32.625,35.0625,36.0
0.24005227,-0.05799213,-0.7907731,-0.048147272,-0.031005692,0.018268341,-0.16331004,-0.40239936,-0.3645601,0.060085144,-3.077116,0.6262221,0.00016581634,-0.10934029,0.036807753,-0.0010353484,0.014418918,-0.008340994,0.004090111,0.4867324,-1.3660666,1.8843559,-2.0867994,-1.5718769,2.4627454,-0.15370801,0.13568723,-0.1710278,0.049309418,-0.009229071,-0.15769497,0.076614454,0.30645782,-9.193734,0.8985519,47.71823,-0.9911076,-2.4725604,-3.360673,-0.31251782,-0.06940594,-0.049729038,28.4375,29.6875,28.8125,32.625,35.0625,36.0
0.24205226,0.03380039,-0.8694969,0.122840844,-0.02929607,0.027176358,-0.15596688,-0.40261635,-0.36450118,0.060076814,-3.0771434,0.6261342,0.00015202753,-0.11122887,0.03722624,-0.001425393,0.013563541,-0.006584764,-0.0039878804,0.48643246,-1.3657895,1.8840331,-2.0867531,-1.571865,2.4623873,-0.15596826,0.13760282,-0.1717607,0.046180546,-0.009302466,-0.15187632,-0.1340753,0.2681506,-8.925584,0.83813137,47.685097,-1.0555756,-2.4201198,-3.313301,-0.28743225,-0.08259469,-0.113125786,28.4375,29.6875,28.8125,32.625,35.0625,36.0
0.2440524,0.36949667,-0.14008585,0.27179483,-0.016039766,0.03989233,-0.16463058,-0.40283215,-0.36441347,0.06006364,-3.077073,0.626141,0.00013801041,-0.1114339,0.035408076,-0.0012533946,0.012270586,-0.0051345876,-0.009202637,0.48612195,-1.3655126,1.8837103,-2.0866578,-1.5719122,2.4620903,-0.15330344,0.13933931,-0.17393668,0.044731595,-0.008849497,-0.14399622,-0.076614454,0.15322891,-8.983045,0.87393653,47.677036,-1.1442581,-2.4649482,-3.368918,-0.2703113,-0.076690756,-0.19433178,28.4375,29.6875,28.8125,32.625,35.0625,36.0
0.24605244,0.3884313,0.26296413,0.18640034,0.015729742,0.03191955,-0.1601716,-0.4030894,-0.36433673,0.06007923,-3.0770297,0.62632537,0.00021454293,-0.11284692,0.03516535,-0.00039972228,0.010260057,-0.0028802915,-0.014608504,0.48578632,-1.3652364,1.8833283,-2.0865862,-1.5719484,2.4618754,-0.15450522,0.13924208,-0.17550908,0.04346351,-0.008125566,-0.13979352,0.05746084,0.019153614,-8.90643,0.83589023,47.70659,-1.1048115,-2.3515737,-3.3541112,-0.24873495,-0.09357259,-0.23339036,28.4375,29.6875,28.8125,32.625,35.0625,36.0
0.24805254,0.0053735534,0.8965801,0.54703003,0.03245499,0.012178559,-0.1659781,-0.4033263,-0.36427233,0.060071,-3.0770211,0.6262857,0.00020936829,-0.115099266,0.035188377,0.00013694796,0.008830675,-0.0015776448,-0.019447912,0.48547435,-1.3649235,1.8829564,-2.0865147,-1.5719599,2.46154,-0.15685661,0.14116257,-0.179014,0.04322557,-0.0074793915,-0.13730535,0.019153614,0.05746084,-9.021352,1.005978,47.705692,-1.1013399,-2.4902005,-3.3495305,-0.23906952,-0.106261134,-0.33661374,28.4375,29.6875,28.8125,32.625,35.0625,36.0
0.25005248,0.8917392,1.3895175,0.44746727,0.038417507,0.029272348,-0.17194109,-0.40352717,-0.36422014,0.060062546,-3.077017,0.62640226,0.0001569372,-0.115691766,0.035880953,-0.0005438912,0.009527529,-0.0015362647,-0.02535567,0.4851864,-1.364659,1.8826455,-2.086455,-1.5719246,2.4613254,-0.15807185,0.14228696,-0.17855771,0.041944128,-0.008116582,-0.13261122,-0.019153614,0.05746084,-8.90643,0.84484416,47.692257,-1.0781202,-2.244947,-3.3944664,-0.22422862,-0.122304104,-0.40595955,28.4375,29.6875,28.8125,32.625,35.0625,36.0
0.25205228,-0.0877577,0.75472647,-0.051402025,0.054452285,0.0010281916,-0.16353716,-0.4037403,-0.36412674,0.06005478,-3.0769274,0.6264413,9.029481e-05,-0.11875766,0.03604444,0.0018125083,0.006893475,0.004541645,-0.028858013,0.48486233,-1.3643835,1.8822984,-2.0863001,-1.5719603,2.4610374,-0.16066146,0.14057107,-0.18143712,0.03993022,-0.00864207,-0.1316957,-0.05746084,0.0,-9.059659,0.91198283,47.698532,-1.0316179,-2.1760094,-3.269351,-0.19963898,-0.085469596,-0.48847425,28.4375,29.6875,28.8125,32.625,35.0625,36.0
0.2540523,-0.3068564,0.7257804,-0.039143868,0.021864703,0.015102527,-0.17660557,-0.40397987,-0.3640793,0.060065385,-3.076948,0.62649924,0.00011906995,-0.11999205,0.036234543,0.00240161,0.0060986895,0.0054951906,-0.025613628,0.48456258,-1.3640949,1.881915,-2.08624,-1.5719484,2.4607713,-0.16213751,0.14092447,-0.18330096,0.040219165,-0.008385829,-0.1364164,-0.095768064,-0.076614454,-9.193734,0.83365434,47.703903,-1.0014393,-2.091508,-3.1674876,-0.16648299,-0.118876204,-0.51270217,28.4375,29.6875,28.8125,32.625,35.0625,36.0
0.25605235,-0.60515344,-0.08369323,-0.14497097,0.007529707,0.03367966,-0.15680356,-0.40417853,-0.3640012,0.06002568,-3.0768762,0.62645936,-3.6762735e-06,-0.12005369,0.037087526,0.0017376401,0.007932602,0.002955153,-0.016676618,0.48426265,-1.36377,1.8815917,-2.0861318,-1.5719603,2.460456,-0.1632578,0.14249662,-0.18428208,0.0427153,-0.008847169,-0.14647132,-0.26815057,-0.038307227,-9.289503,0.82022345,47.719128,-1.0007774,-2.221319,-3.1724482,-0.17747372,-0.11850175,-0.4477257,28.4375,29.6875,28.8125,32.625,35.0625,36.0
0.2580521,-0.59144604,0.021577848,-0.53433,-0.016345078,0.07411165,-0.17027245,-0.40443495,-0.36391512,0.06004138,-3.0768461,0.6265992,-7.70837e-06,-0.121322736,0.037798293,0.0016098992,0.0087880045,0.002763132,-0.006890417,0.48389122,-1.3634932,1.8811973,-2.0860116,-1.5719608,2.4601758,-0.16504945,0.14421892,-0.18627603,0.043540057,-0.009529957,-0.1580466,-0.4213795,0.05746084,-9.500193,0.8605109,47.691364,-1.1239083,-2.1922421,-3.1286354,-0.1880177,-0.115501106,-0.33457017,28.4375,29.6875,28.8125,32.625,35.0625,36.0
0.2600521,-1.5506142,-0.06510315,-0.6469356,-0.027932001,0.0922741,-0.16947158,-0.40467334,-0.363824,0.060030848,-3.0767806,0.6266166,-8.401022e-06,-0.12047324,0.036753044,0.0010141825,0.008707271,0.0010805718,0.0042233877,0.48355654,-1.3631924,1.8808392,-2.0859158,-1.5720085,2.4598606,-0.16296636,0.14585595,-0.18705298,0.044106998,-0.008692674,-0.16707867,-0.45968673,0.11492168,-9.634268,0.900793,47.67614,-1.0787041,-2.211635,-3.35788,-0.17601934,-0.13521332,-0.23199594,28.4375,29.6875,28.8125,32.625,35.0625,36.0
0.26205206,-1.9500985,-0.75380844,-0.76675075,-0.032297004,0.11733226,-0.16176496,-0.40490258,-0.3637804,0.060049426,-3.0768218,0.6264886,1.8109755e-05,-0.12126744,0.037114084,0.00081432034,0.008906875,0.0004624506,0.0065722684,0.48328054,-1.3629155,1.8804435,-2.08582,-1.5720085,2.4594996,-0.16424915,0.14728914,-0.18849881,0.044752527,-0.008584592,-0.17071019,-0.51714754,0.21068975,-9.80665,0.83589023,47.686886,-1.0705478,-2.2253911,-3.3519635,-0.17227542,-0.14473033,-0.16444176,28.4375,29.6875,28.8125,32.625,35.0625,36.0
0.26405206,-1.4064358,-0.69243705,-0.8514338,-0.046131838,0.14084506,-0.1683782,-0.40514663,-0.36371326,0.060050562,-3.0768182,0.62654537,2.0833622e-06,-0.122187465,0.037440155,0.00055524457,0.009245813,0.00071088516,0.0047808513,0.48294505,-1.3626149,1.8800615,-2.085736,-1.571997,2.4592001,-0.16525061,0.14875773,-0.18961863,0.044343032,-0.009004463,-0.16991858,-0.63206923,0.22984336,-9.902418,0.8985519,47.677036,-1.1530797,-2.157383,-3.3602133,-0.16993928,-0.15451798,-0.13680613,28.4375,29.6875,28.8125,32.625,35.0625,36.0
0.26605204,-2.1421428,-1.1909447,-1.1691524,-0.03257196,0.11888679,-0.15891492,-0.40539485,-0.3636235,0.060034588,-3.076749,0.6265526,-3.899412e-05,-0.12320197,0.037633393,5.937518e-05,0.009734111,0.0005894908,-0.0012394278,0.4825972,-1.3622775,1.8796662,-2.0856164,-1.5720328,2.458866,-0.16613299,0.15109459,-0.19125819,0.04397903,-0.009391283,-0.16477825,-0.7661445,0.17238252,-9.940725,0.8940802,47.703007,-1.1945008,-2.3672116,-3.364407,-0.16616362,-0.14863731,-0.17783836,28.4375,29.6875,28.8125,32.625,35.0625,36.0
0.2680521,-1.1466024,-0.61166036,-0.9005051,-0.043446604,0.12786424,-0.17376202,-0.40563175,-0.36352718,0.060032774,-3.076708,0.62656623,-2.3588691e-05,-0.12399126,0.03936345,-0.0019681016,0.011934001,-0.0022912624,-0.010119381,0.48224893,-1.3620118,1.8793329,-2.085533,-1.572069,2.4585316,-0.16925657,0.154567,-0.1907649,0.043586742,-0.01000174,-0.15901984,-0.6512228,0.1340753,-9.921572,0.8605109,47.684196,-1.2727845,-2.4458652,-3.431789,-0.14902814,-0.14833179,-0.2612316,28.4375,29.6875,28.8125,32.625,35.0625,36.0
0.27005234,-0.77208585,-0.5233513,-0.91341674,-0.028438443,0.111263424,-0.1641423,-0.40591827,-0.3634829,0.060073074,-3.076755,0.62669003,7.9470105e-05,-0.12418426,0.0390559,-0.002068506,0.012011212,-0.002177617,-0.0114621455,0.48191434,-1.3617116,1.8788651,-2.0854614,-1.5720567,2.4582684,-0.16872722,0.15553345,-0.1917216,0.04351388,-0.01011048,-0.15714799,-0.6703765,0.11492168,-10.01734,0.8672237,47.661808,-1.3090293,-2.3301177,-3.5357428,-0.12889437,-0.17021456,-0.30853763,28.4375,29.6875,28.8125,32.625,35.0625,36.0
0.27205226,-0.8312404,-0.024518829,-0.9296576,-0.019048901,0.081878416,-0.17567785,-0.40614855,-0.36336115,0.060026996,-3.0766096,0.6266779,3.807175e-05,-0.124845825,0.03928825,-0.002905631,0.012918936,-0.0031711534,-0.013191735,0.48156682,-1.3613743,1.8785433,-2.085365,-1.5721534,2.4579322,-0.16938314,0.15819606,-0.19305335,0.04346837,-0.0104767755,-0.15607147,-0.5363012,0.1340753,-9.902418,0.8784135,47.709274,-1.2330837,-2.5582135,-3.5588722,-0.09509428,-0.14215586,-0.3507984,28.4375,29.6875,28.8125,32.625,35.0625,36.0
0.2740522,-0.9430304,-0.10930079,-0.99438816,-0.0015146816,0.05782204,-0.16316679,-0.40640903,-0.363302,0.060055394,-3.0766745,0.6266326,0.0001110217,-0.12578009,0.039266124,-0.0028089024,0.012933442,-0.0032706324,-0.01346501,0.48123106,-1.3611095,1.8781475,-2.085305,-1.5721415,2.45756,-0.17008267,0.15978539,-0.19541395,0.04433242,-0.010439073,-0.15649758,-0.5363012,0.076614454,-9.921572,0.95226496,47.685097,-1.2642493,-2.5469794,-3.5432763,-0.099444404,-0.16185139,-0.36760783,28.4375,29.6875,28.8125,32.625,35.0625,36.0
0.27605215,-0.5353916,-0.32896504,-0.7132081,0.003069795,0.06723653,-0.1657649,-0.40666005,-0.36324322,0.06005482,-3.0766609,0.62668276,0.00013173325,-0.12562309,0.039604355,-0.0041438495,0.014468425,-0.005077737,-0.007234976,0.48091906,-1.3607843,1.8777422,-2.0852334,-1.5721534,2.4572814,-0.17008123,0.16215135,-0.19520877,0.04406177,-0.01097212,-0.16272472,-0.40222588,0.0,-9.672575,0.83813137,47.72808,-1.3880758,-2.695273,-3.6114342,-0.071160436,-0.14701441,-0.32353598,28.4375,29.6875,28.8125,32.625,35.0625,36.0
0.27805236,-0.36718804,0.55952144,-0.29341444,-0.006340281,0.064681984,-0.19225183,-0.40693843,-0.3631539,0.060062386,-3.0766425,0.62671375,0.00019412696,-0.12650625,0.040051002,-0.0037782427,0.013918978,-0.005290613,-0.0013652464,0.48054644,-1.3604734,1.8773354,-2.0851614,-1.5721887,2.4569306,-0.17184263,0.16245285,-0.19669569,0.045159236,-0.010395235,-0.17035715,-0.19153614,0.0,-9.576807,0.9298854,47.72002,-1.4264358,-2.3985965,-3.6381836,-0.058524728,-0.1545845,-0.29110825,28.4375,29.6875,28.8125,32.625,35.0625,36.0
0.28005224,0.0907734,0.4251379,-0.29319772,0.0056948354,0.05245793,-0.16956906,-0.4071724,-0.36308262,0.060040154,-3.076614,0.6267028,0.0001346387,-0.12892638,0.040386815,-0.0021721397,0.012490004,-0.00253477,0.0058751903,0.48022184,-1.3601375,1.8769635,-2.0850775,-1.5721892,2.456603,-0.1744065,0.16228457,-0.20035,0.045860253,-0.01042963,-0.18015975,-0.038307227,0.038307227,-9.519346,0.800085,47.7245,-1.2505015,-2.451167,-3.4856377,-0.047406815,-0.16672906,-0.16197497,28.4375,29.6875,28.8125,32.625,35.0625,36.0
0.2820523,0.10947187,0.42828295,-0.0149415685,0.0018948393,0.027595261,-0.17267542,-0.40747944,-0.36297303,0.060059696,-3.0765963,0.6266968,0.0002753496,-0.13155046,0.0404626,-0.0014697892,0.011889406,-0.00044929574,0.009416607,0.4798132,-1.3598367,1.8765444,-2.0850174,-1.5722612,2.4561932,-0.17643696,0.1646073,-0.20476626,0.045802794,-0.010867694,-0.1857293,-0.1340753,0.0,-9.519346,0.8873621,47.64479,-1.3109801,-2.515884,-3.4220695,-0.019674154,-0.15164071,-0.09523178,28.4375,29.6875,28.8125,32.625,35.0625,36.0
0.28405234,0.2072606,0.34855154,0.13201535,-0.011665489,0.019557035,-0.16755396,-0.40773702,-0.36293036,0.060063034,-3.0766454,0.6265924,0.00026446884,-0.13276985,0.039792027,-4.0876253e-05,0.010047458,0.0016295892,0.008179531,0.47950107,-1.3594894,1.8761004,-2.084933,-1.5722369,2.4558098,-0.17668001,0.16428028,-0.2078283,0.0464981,-0.010196217,-0.18473616,-0.1340753,0.114921674,-9.2703495,0.8537928,47.650166,-1.2638472,-2.4108407,-3.2845817,-0.001798145,-0.17685163,-0.04403586,28.4375,29.6875,28.8125,32.625,35.0625,36.0
0.28605217,0.21978337,0.4151925,-0.14545462,0.0045035332,-0.00018753787,-0.16720322,-0.40801018,-0.36282402,0.06006933,-3.076571,0.62667775,0.00033494915,-0.13412686,0.040932372,0.0008084089,0.010451201,0.0019442228,-0.0012347267,0.4791283,-1.3591897,1.8757042,-2.0848367,-1.5723094,2.4555001,-0.17935288,0.16395138,-0.20993163,0.04883279,-0.010693106,-0.17799309,-0.11492168,0.21068975,-9.212888,0.86498255,47.716442,-1.0962025,-2.2773325,-3.3060904,0.0040846327,-0.15996245,-0.11210909,28.4375,29.6875,28.8125,32.625,35.0625,36.0
0.28805205,0.58145326,-0.024533844,-0.22259896,0.011546658,0.010789108,-0.17228197,-0.40828723,-0.36272573,0.06008661,-3.0765305,0.62673265,0.0003657676,-0.13489075,0.041903086,0.0008274255,0.011308375,0.00050073484,-0.011080038,0.47874337,-1.3588897,1.8752745,-2.0847046,-1.5723451,2.455155,-0.18146835,0.16485667,-0.21167438,0.05134888,-0.010780775,-0.17026249,-0.11492168,0.15322891,-9.346964,0.9030289,47.72719,-1.1425917,-2.294454,-3.319644,-0.0027569267,-0.17322128,-0.17085311,28.4375,29.6875,28.8125,32.625,35.0625,36.0
0.2900523,-0.3061867,-0.2752811,-0.037208244,-0.005145067,0.0098570455,-0.16665292,-0.4085431,-0.3626513,0.060094193,-3.0765185,0.6267523,0.00034691967,-0.13463041,0.04315003,-0.00055382994,0.0128969755,-0.004224978,-0.01803238,0.47839487,-1.3585775,1.8748544,-2.084583,-1.5723447,2.4548204,-0.18368542,0.16707213,-0.2119166,0.0543035,-0.01000835,-0.16552882,-0.17238252,0.19153613,-9.270349,0.9186956,47.698532,-1.099224,-2.129436,-3.3079925,-0.0053680595,-0.17668256,-0.26336378,28.4375,29.6875,28.8125,32.625,35.0625,36.0
0.2920523,-0.2522121,-0.46130273,0.016395733,-0.017716914,0.039232194,-0.17137782,-0.40884718,-0.36258385,0.06011673,-3.0765257,0.6269121,0.0003912292,-0.13593732,0.04465861,0.00068707165,0.012874841,-0.00436349,-0.027349044,0.47800955,-1.3582302,1.8743638,-2.0844867,-1.5723332,2.454534,-0.18726958,0.16567175,-0.21388975,0.057796977,-0.009911554,-0.15979683,-0.21068975,0.21068975,-9.174581,0.84484416,47.675243,-1.0591393,-2.2043607,-3.3334787,-0.039865166,-0.17166083,-0.34749085,28.4375,29.6875,28.8125,32.625,35.0625,36.0
0.29405224,-0.41269395,-0.3532781,0.061498724,-0.021745518,0.05907717,-0.17698964,-0.409074,-0.36250126,0.060099706,-3.0764732,0.62690234,0.00028531416,-0.13566601,0.045113295,0.000953198,0.013798981,-0.006266594,-0.029918479,0.47767353,-1.3579063,1.8739799,-2.0843413,-1.5723332,2.4541988,-0.18771619,0.16553108,-0.21517132,0.061334275,-0.0098666195,-0.15767315,-0.2873042,0.22984336,-9.270349,0.88289046,47.699425,-1.0672781,-2.1295922,-3.3563037,-0.07844173,-0.18246391,-0.4564678,28.4375,29.6875,28.8125,32.625,35.0625,36.0
0.2960521,-0.98471653,-0.07865153,0.1121836,-0.02098955,0.06716813,-0.17756283,-0.4093524,-0.3624128,0.06009855,-3.0764248,0.62702304,0.0002645564,-0.13530627,0.044698216,0.00078447966,0.013856452,-0.008401044,-0.026838286,0.47728968,-1.3575581,1.8735365,-2.0842216,-1.5723442,2.4538968,-0.18714543,0.16679567,-0.2168987,0.06370675,-0.008946507,-0.16018413,-0.3256114,0.22984336,-9.270349,0.80456203,47.71823,-0.99034745,-2.046734,-3.2802255,-0.12678452,-0.2093329,-0.47704884,28.4375,29.6875,28.8125,32.625,35.0625,36.0
0.29805252,-0.92151576,0.17074117,0.11421665,-0.0025282006,0.06691805,-0.18356405,-0.40960616,-0.36231297,0.060082316,-3.0763497,0.6270209,0.00018006559,-0.1358395,0.046047114,0.0005943212,0.015484742,-0.010408876,-0.018060867,0.47691688,-1.3572099,1.8731188,-2.0840642,-1.572369,2.4535325,-0.1894121,0.16757616,-0.21812391,0.066659786,-0.009499233,-0.17122574,-0.22984336,0.11492168,-9.3661175,0.83589023,47.72002,-0.940128,-2.0602558,-3.2641,-0.14539656,-0.20339587,-0.40766937,28.4375,29.6875,28.8125,32.625,35.0625,36.0
0.30005184,-0.7153118,0.45577073,0.17987959,0.020077828,0.05772406,-0.17838338,-0.40989307,-0.3622238,0.06008349,-3.0763254,0.6270468,0.0002005097,-0.13602646,0.04621701,0.00065585726,0.016522033,-0.011799416,-0.005000476,0.4765328,-1.3568623,1.8726758,-2.083968,-1.5723928,2.453168,-0.18954375,0.16869447,-0.22027501,0.069376,-0.009803247,-0.18441632,-0.19153613,-0.11492168,-9.232041,0.8985519,47.690468,-0.9997826,-1.9706725,-3.4088082,-0.22581086,-0.22484604,-0.31017515,28.4375,29.6875,28.8125,32.625,35.0625,36.0
0.30205172,-0.09977424,1.2972647,0.042193364,0.027677972,0.055953957,-0.18353459,-0.41019413,-0.36215097,0.060124505,-3.0763712,0.627052,0.0002855416,-0.13659939,0.045563597,1.48948875e-05,0.015805276,-0.011908286,0.002631048,0.4761492,-1.3565614,1.8721961,-2.0838606,-1.5723923,2.452782,-0.1892273,0.17123216,-0.2215907,0.06790434,-0.009124384,-0.19173299,-0.2873042,-0.11492168,-9.232041,0.92093146,47.64927,-1.1167917,-2.1204436,-3.3907666,-0.20484781,-0.20784622,-0.20103799,28.4375,29.6875,28.8125,32.625,35.0625,36.0
0.30405244,-0.44705364,0.74058306,0.0033135498,0.04499471,0.04667923,-0.1748377,-0.4104625,-0.36203054,0.06011619,-3.076297,0.627091,0.00021873039,-0.13561794,0.044881098,-0.001707328,0.01849955,-0.015226581,0.007851647,0.4757301,-1.3562365,1.8717884,-2.0837047,-1.5724171,2.4523969,-0.18656455,0.17536925,-0.22305188,0.069403,-0.010023915,-0.19428684,-0.4213795,-0.095768064,-9.193734,0.8873621,47.667187,-1.401469,-2.224181,-3.4298553,-0.23161145,-0.22663324,-0.1482774,28.4375,29.6875,28.8125,32.625,35.0625,36.0
0.30605245,-0.7012566,0.5552952,-0.06238279,0.043680456,0.049976416,-0.16441707,-0.4107308,-0.36195308,0.060109895,-3.0762553,0.627046,0.00017934102,-0.1345234,0.04506979,-0.0026139666,0.02137296,-0.018944405,0.0045843143,0.47538278,-1.3558643,1.8713216,-2.0835598,-1.5724415,2.452027,-0.1852894,0.17728545,-0.22423816,0.073296756,-0.010882519,-0.18974115,-0.36391866,-0.076614454,-9.251195,0.8717007,47.73077,-1.5254303,-2.1874855,-3.4013288,-0.29536816,-0.2535513,-0.15943354,28.4375,29.6875,28.8125,32.625,35.0625,36.0
0.3080523,-0.49834484,1.0671822,0.029469406,0.027573353,0.04841331,-0.17865556,-0.41099247,-0.3618641,0.060096163,-3.0761855,0.6270361,9.8737124e-05,-0.13676625,0.045066666,-0.0025847217,0.019759929,-0.01688121,-0.004129378,0.47502187,-1.3554918,1.8708662,-2.0833933,-1.5724653,2.4516692,-0.1873907,0.17951338,-0.22647192,0.07073159,-0.010419522,-0.183128,-0.36391866,-0.095768064,-9.289502,0.91198283,47.713753,-1.4544177,-2.26256,-3.4305863,-0.29133537,-0.23579523,-0.22735503,28.4375,29.6875,28.8125,32.625,35.0625,36.0
0.3100522,-0.19381137,0.9826971,0.20276986,-0.010133769,0.06300229,-0.19410162,-0.4112833,-0.3617682,0.060108695,-3.0761628,0.62709236,0.0001350467,-0.13889007,0.04689732,-0.0030490966,0.021486724,-0.01689303,-0.011287766,0.47462478,-1.3551673,1.8704222,-2.0832856,-1.5724896,2.4513104,-0.19121695,0.18177125,-0.22826748,0.07107218,-0.011956324,-0.17979087,-0.28730422,-0.076614454,-9.308656,0.9164598,47.696735,-1.4466777,-2.2499137,-3.2482715,-0.32433456,-0.25221056,-0.3356955,28.4375,29.6875,28.8125,32.625,35.0625,36.0
0.31205213,-0.6262196,-0.18570508,0.2588303,-0.02239983,0.054302588,-0.17565113,-0.41154498,-0.36167464,0.060106486,-3.0760798,0.627135,8.0018035e-05,-0.14089988,0.04734891,-0.0025822537,0.02013535,-0.014896184,-0.01780547,0.474264,-1.3548193,1.8699673,-2.0831063,-1.5725254,2.450987,-0.19374932,0.18256217,-0.23001209,0.069627926,-0.011689799,-0.17580476,-0.30645782,0.038307227,-9.289502,0.8806493,47.695843,-1.3766581,-2.302858,-3.3603563,-0.32359585,-0.246387,-0.35268384,28.4375,29.6875,28.8125,32.625,35.0625,36.0
0.31405216,-0.47653794,-0.42535976,0.07993862,-0.03419705,0.04909557,-0.18526155,-0.41183272,-0.36153933,0.060074262,-3.0759397,0.6272594,-2.1383514e-05,-0.1432168,0.048064746,-0.0036206117,0.020110676,-0.014070417,-0.018780917,0.47381905,-1.3544226,1.8695244,-2.0829399,-1.572574,2.450638,-0.19656642,0.18638189,-0.23166968,0.06670446,-0.012088991,-0.17764269,-0.24899697,0.19153613,-9.289502,0.8985519,47.67345,-1.3107328,-2.2809863,-3.413299,-0.33192417,-0.24679345,-0.38403055,28.4375,29.6875,28.8125,32.625,35.0625,36.0
0.316052,-0.044322208,-0.25311613,-0.09879941,-0.035588067,0.059101585,-0.19011365,-0.41210997,-0.36145562,0.060065396,-3.0759213,0.62719387,-5.5570872e-05,-0.14495866,0.047335196,-0.002492043,0.018275866,-0.009181447,-0.012729875,0.47344723,-1.3540511,1.8690695,-2.0828207,-1.5725859,2.450228,-0.1963303,0.18619291,-0.23330489,0.06332625,-0.012719931,-0.18345475,-0.17238252,0.22984336,-9.308656,0.87393653,47.73077,-1.3602257,-2.239472,-3.3626857,-0.29937863,-0.25164455,-0.36504376,28.4375,29.6875,28.8125,32.625,35.0625,36.0
0.31805193,-0.49586105,-0.7989134,-0.00096608145,-0.03459968,0.050196856,-0.18046309,-0.41239795,-0.36135817,0.060065962,-3.0758758,0.6272173,-7.7229495e-05,-0.14647833,0.047456212,-0.0013476369,0.01631392,-0.007072828,-0.0037800786,0.47305077,-1.3536913,1.8686017,-2.0826776,-1.5726098,2.4498522,-0.19815898,0.18553105,-0.23508364,0.06296409,-0.011968563,-0.19423471,-0.17238252,0.3256114,-9.32781,0.8940802,47.690468,-1.3107796,-2.1698232,-3.470509,-0.30153325,-0.23629937,-0.25453192,28.4375,29.6875,28.8125,32.625,35.0625,36.0
0.32005188,-0.94113564,-1.2155488,-0.041235175,-0.05141609,0.05794975,-0.18120903,-0.4127143,-0.36128178,0.06009948,-3.0759265,0.6271075,3.317179e-05,-0.15029025,0.047405705,7.920344e-05,0.012744891,-0.0001829783,0.0041524568,0.4726654,-1.3533555,1.8680991,-2.0825837,-1.5726336,2.449392,-0.2012084,0.18585083,-0.23747721,0.057249058,-0.011953557,-0.20521659,-0.22984336,0.24899697,-9.3661175,0.8851263,47.690468,-1.171694,-2.2257528,-3.3839188,-0.25543916,-0.2561011,-0.16123989,28.4375,29.6875,28.8125,32.625,35.0625,36.0
0.3220523,-1.0548501,-1.4363333,-0.36629045,-0.042246405,0.060934305,-0.1724233,-0.41300955,-0.36118224,0.060085773,-3.0758727,0.62719214,-4.1775274e-05,-0.1523919,0.046894625,0.0005996389,0.010249988,0.0024867256,0.0050312732,0.47224495,-1.3529595,1.8676199,-2.0824416,-1.5726331,2.4490316,-0.20260575,0.18738273,-0.24000937,0.054724522,-0.010975748,-0.20749395,-0.30645782,0.24899697,-9.404425,0.9231726,47.64121,-1.0702425,-2.1437397,-3.4067712,-0.20773613,-0.269637,-0.09366338,28.4375,29.6875,28.8125,32.625,35.0625,36.0
0.3240523,-0.7607879,-0.96211976,-0.3319004,-0.048051227,0.07222585,-0.17935096,-0.4133021,-0.36108473,0.060090058,-3.075842,0.62715137,8.215711e-07,-0.15341595,0.047958475,-0.00078431505,0.011605191,4.8481197e-05,-0.0036269454,0.47186014,-1.3526108,1.8671645,-2.0823328,-1.5726813,2.4486256,-0.20506185,0.19095786,-0.24137667,0.055303007,-0.011068042,-0.20129065,-0.4405331,0.38307226,-9.461885,0.92093146,47.684196,-1.0657784,-2.1357415,-3.4053712,-0.18099657,-0.27630353,-0.07798861,28.4375,29.6875,28.8125,32.625,35.0625,36.0
0.32605228,-1.2402524,-1.1506805,-0.23423792,-0.043885168,0.078467764,-0.1772895,-0.41361547,-0.36100504,0.06009116,-3.0758562,0.6271613,-8.240153e-08,-0.1538478,0.049370244,-0.0012532325,0.013218032,-0.0006924532,-0.014228249,0.47145122,-1.3522149,1.8666619,-2.0822365,-1.5726699,2.4482212,-0.20696901,0.19131808,-0.24095732,0.055934973,-0.012152847,-0.1925936,-0.57460845,0.34476504,-9.500193,0.8179876,47.72002,-0.8761186,-2.0357456,-3.5108318,-0.192321,-0.28165123,-0.18292852,28.4375,29.6875,28.8125,32.625,35.0625,36.0
0.32805234,-1.2665563,-0.6983803,-0.51280665,-0.030098595,0.08145104,-0.17707352,-0.4139217,-0.36087874,0.060078178,-3.0757687,0.62722325,-2.8184635e-05,-0.15599029,0.049003612,-0.00019109895,0.010292487,0.0036163917,-0.023188855,0.4710069,-1.3518311,1.8661956,-2.082095,-1.5727175,2.447827,-0.2084215,0.19118738,-0.24248828,0.05242763,-0.011515181,-0.18508624,-0.59376204,0.2873042,-9.595961,0.91421866,47.705692,-0.8696345,-2.1463778,-3.6060529,-0.14747982,-0.2912286,-0.29030073,28.4375,29.6875,28.8125,32.625,35.0625,36.0
0.33005232,-1.6808023,-0.5493148,0.04307702,-0.02798108,0.09190073,-0.17749622,-0.4142117,-0.36079815,0.060078956,-3.075738,0.6273341,-4.7293262e-05,-0.15593538,0.047562204,-0.0003058965,0.010354109,0.0032749206,-0.027061747,0.4706241,-1.3514587,1.8657163,-2.0819743,-1.5727175,2.4475176,-0.20588133,0.19362125,-0.24542588,0.05327186,-0.011412621,-0.1786721,-0.7278373,0.17238252,-9.500193,0.8851263,47.689575,-1.1700127,-2.2040694,-3.491671,-0.10993917,-0.316917,-0.37744772,28.4375,29.6875,28.8125,32.625,35.0625,36.0
0.33205223,-1.4320649,0.110999055,-0.061030697,-0.024783887,0.104384966,-0.19058986,-0.41455904,-0.3607189,0.06009083,-3.0757368,0.62738967,5.842795e-05,-0.15541609,0.04724075,-0.0015446058,0.011212864,0.0005900973,-0.027709488,0.47021657,-1.3510381,1.8651646,-2.0819027,-1.5727533,2.4471452,-0.20501064,0.19636913,-0.24619122,0.054062597,-0.01094931,-0.17715526,-0.7086837,0.05746084,-9.423578,0.9097417,47.72092,-1.317986,-2.239905,-3.5300136,-0.10695706,-0.32752258,-0.4703933,28.4375,29.6875,28.8125,32.625,35.0625,36.0
0.33405215,-1.9836246,0.08592652,-0.12921652,0.019120617,0.08579356,-0.18524645,-0.41484985,-0.36061615,0.060059488,-3.0756903,0.6274341,-1.7494025e-05,-0.15604848,0.04656853,-0.00047280226,0.009971666,0.0025978338,-0.02146126,0.46979666,-1.3506305,1.8647212,-2.081807,-1.5727533,2.4467592,-0.20437989,0.19583009,-0.24805333,0.0540956,-0.010777042,-0.18277226,-0.57460845,0.05746084,-9.289502,0.8851263,47.694946,-1.3394047,-2.1974022,-3.432275,-0.07278672,-0.31461015,-0.50279665,28.4375,29.6875,28.8125,32.625,35.0625,36.0
0.336052,-1.1476952,0.6026522,-0.15546612,0.031160114,0.073338374,-0.17695075,-0.415187,-0.36054403,0.06008045,-3.075731,0.62749225,8.05873e-05,-0.1571585,0.046501994,-0.00039392445,0.010367457,0.0029443575,-0.009858169,0.46938866,-1.3502461,1.8641948,-2.0817468,-1.5727533,2.4463825,-0.20472866,0.19780967,-0.25084245,0.054749288,-0.01129546,-0.1947224,-0.17238252,0.019153614,-9.346964,0.84708,47.691364,-1.3635108,-2.308993,-3.5537283,-0.065344274,-0.33869576,-0.38528287,28.4375,29.6875,28.8125,32.625,35.0625,36.0
0.3380521,-0.1952515,0.68514526,0.03242865,0.02865549,0.0542144,-0.18402745,-0.41550282,-0.36043844,0.06007246,-3.0756679,0.6274916,0.00010573628,-0.15840286,0.04741681,-0.0003293398,0.010567513,0.0026927434,0.00041935488,0.46897987,-1.3498381,1.8636922,-2.0816267,-1.5728134,2.4459817,-0.20709915,0.19878834,-0.25245014,0.05565166,-0.011386898,-0.20736943,-0.19153614,-0.076614454,-9.385271,0.9254084,47.711063,-1.3250434,-2.2496157,-3.6639493,-0.027122851,-0.33902374,-0.2697266,28.4375,29.6875,28.8125,32.625,35.0625,36.0
0.340052,0.6881803,0.84823537,0.05852144,0.01226285,0.04270428,-0.19723508,-0.4158208,-0.36035386,0.060075585,-3.0756502,0.62748593,0.00012797516,-0.16070427,0.048353016,0.00028934292,0.012061166,0.004885588,0.0050190655,0.46858317,-1.3494303,1.8631643,-2.081507,-1.5728382,2.445584,-0.20903347,0.20031013,-0.25591102,0.056294743,-0.01372695,-0.21389522,-0.21068975,-0.05746084,-9.308657,0.8985519,47.67614,-1.3600757,-2.2214205,-3.4950104,-0.00055503706,-0.35994554,-0.1456228,28.4375,29.6875,28.8125,32.625,35.0625,36.0
0.34205186,-0.14045714,0.7822608,-0.2019114,0.028950537,0.0014133196,-0.1735917,-0.41615242,-0.36024323,0.060063932,-3.0756187,0.6274619,0.00014515825,-0.1617752,0.049252186,-0.0002794059,0.01329268,0.0030869744,0.0005932721,0.4681387,-1.34901,1.8626598,-2.0814102,-1.5728744,2.445129,-0.21109569,0.20291497,-0.25828567,0.058218077,-0.014014603,-0.21152964,-0.24899697,-0.019153614,-9.3661175,0.9097417,47.66091,-1.350005,-2.3507633,-3.3875923,0.013144842,-0.31205404,-0.13073903,28.4375,29.6875,28.8125,32.625,35.0625,36.0
0.34405187,0.56723243,1.0022342,-0.27274105,0.023986856,0.0117597105,-0.18480211,-0.41646174,-0.36014003,0.060065337,-3.0755875,0.62744015,0.00013271779,-0.16167547,0.049926408,-0.0011053995,0.015185713,0.00015095725,-0.007133264,0.46771836,-1.3486253,1.8621582,-2.0812662,-1.5728983,2.4446993,-0.21175541,0.20497286,-0.25958848,0.06094313,-0.014372988,-0.20446084,-0.21068975,-0.076614454,-9.3661175,0.9254084,47.661808,-1.2613252,-2.3057768,-3.4129343,-0.0069644526,-0.31186238,-0.20783332,28.4375,29.6875,28.8125,32.625,35.0625,36.0
0.34605217,-0.048675004,0.4894649,-0.28230622,0.006511005,0.013071483,-0.17368208,-0.41678733,-0.36002412,0.06005446,-3.0755064,0.627486,0.00014149294,-0.16227086,0.050778016,-0.0019267936,0.016157899,-0.0038266166,-0.01629035,0.4672854,-1.3482039,1.8616422,-2.0811331,-1.5729584,2.4443057,-0.21407424,0.20800419,-0.2623048,0.06461081,-0.01344622,-0.19762383,-0.1340753,-0.11492168,-9.423578,0.8717007,47.70211,-1.2126176,-2.5892277,-3.4441402,-0.013407108,-0.34847164,-0.30826667,28.4375,29.6875,28.8125,32.625,35.0625,36.0
0.3480521,0.05491694,0.61954427,0.0012255925,-0.015635148,0.029646682,-0.19124474,-0.41714057,-0.35992244,0.06006276,-3.0755131,0.6275283,0.00016692227,-0.16406395,0.05197704,-0.0011889178,0.017017528,-0.005106647,-0.0225012,0.46681657,-1.3477844,1.8610901,-2.0810235,-1.5729584,2.4438627,-0.21728861,0.20944522,-0.26684722,0.06924364,-0.013632598,-0.19462566,-0.24899697,0.038307227,-9.385271,0.92093146,47.66271,-1.0207152,-2.4842563,-3.3320637,-0.048192866,-0.33902806,-0.356635,28.4375,29.6875,28.8125,32.625,35.0625,36.0
0.350052,-0.07955345,-0.25087935,-0.22042346,0.0056296117,0.053032376,-0.18500918,-0.41742525,-0.35980994,0.060045604,-3.075397,0.6276009,-3.4155812e-06,-0.16504677,0.053893156,-0.0012166791,0.018213158,-0.008136349,-0.025262373,0.46639532,-1.3473649,1.8605632,-2.0807703,-1.5729703,2.443502,-0.22131854,0.21031003,-0.2689082,0.07367216,-0.013368042,-0.19589284,-0.38307226,0.1340753,-9.346964,0.8627467,47.68599,-0.9582951,-2.448906,-3.1693826,-0.10349499,-0.34482384,-0.3842839,28.4375,29.6875,28.8125,32.625,35.0625,36.0
0.35205224,0.38790587,0.5957145,-0.39276385,-0.009559692,0.071867906,-0.2020216,-0.4177585,-0.35971755,0.06004747,-3.0753894,0.627575,2.8784554e-05,-0.16494364,0.05555248,-0.0019455033,0.020492112,-0.012281454,-0.018507445,0.46597442,-1.3469448,1.8600248,-2.080661,-1.5729946,2.4430661,-0.22370708,0.21150714,-0.26976734,0.078031704,-0.013553861,-0.20503572,-0.17238252,0.1340753,-9.404425,0.87393653,47.66271,-0.77635145,-2.5353544,-3.3015485,-0.14363381,-0.35958883,-0.33761826,28.4375,29.6875,28.8125,32.625,35.0625,36.0
0.35405236,-0.6889973,-0.18486628,-0.35151702,-0.0062546697,0.051234804,-0.18573146,-0.41807345,-0.35959783,0.060014695,-3.0752969,0.6275872,-6.0151848e-05,-0.16453972,0.056246884,-0.0022675055,0.021812977,-0.0148832565,-0.008031486,0.46553066,-1.346489,1.8595108,-2.0805047,-1.5730304,2.4426422,-0.22431923,0.21203534,-0.27044678,0.081063055,-0.013609995,-0.21612239,-0.11492168,0.24899697,-9.423578,0.90527004,47.687782,-0.93280196,-2.3211951,-3.4067864,-0.20959657,-0.3623313,-0.22463608,28.4375,29.6875,28.8125,32.625,35.0625,36.0
0.35605228,-0.8175879,-0.7384571,0.06436639,-0.026868617,0.06530468,-0.17571327,-0.41838378,-0.35947576,0.060010616,-3.0752304,0.62754935,-0.00011861763,-0.16295262,0.05660198,-0.003381073,0.023761977,-0.018568538,-0.0015367534,0.46508718,-1.3460927,1.8589958,-2.0803125,-1.5730661,2.442184,-0.22333546,0.21277013,-0.26942256,0.083446525,-0.013727877,-0.22163248,-0.5554548,0.2681506,-9.2703495,0.9321212,47.695843,-1.1361368,-2.4252057,-3.5622516,-0.239672,-0.37019107,-0.10977124,28.4375,29.6875,28.8125,32.625,35.0625,36.0
0.35805225,-0.7481733,-0.31621647,0.07221641,-0.035213616,0.06784803,-0.17968482,-0.41871825,-0.3593582,0.059996456,-3.0751507,0.6275718,-0.00017725267,-0.16315244,0.056092843,-0.002970357,0.023825018,-0.017964829,-0.0019587225,0.46463153,-1.345637,1.8584341,-2.0801327,-1.5731024,2.441753,-0.22226095,0.213257,-0.27120632,0.08422303,-0.01408267,-0.22013335,-0.47884035,0.24899697,-9.174581,0.9612189,47.67345,-1.1441739,-2.432271,-3.6751182,-0.27717093,-0.36390752,-0.092914164,28.4375,29.6875,28.8125,32.625,35.0625,36.0
0.360052,-0.47085965,-0.1251594,-0.22026522,-0.022424076,0.0708572,-0.18864001,-0.41906688,-0.35926762,0.060031187,-3.0751805,0.627582,-0.00011933803,-0.16493657,0.055585336,-0.0008351213,0.022006359,-0.014133044,-0.010271799,0.46418744,-1.3452543,1.8578581,-2.0799887,-1.5731024,2.4413116,-0.2226751,0.21213906,-0.27489415,0.08480132,-0.014164469,-0.21223392,-0.2681506,0.21068975,-9.289502,0.9186956,47.651955,-1.1577137,-2.1858118,-3.5728788,-0.3302663,-0.379898,-0.13809876,28.4375,29.6875,28.8125,32.625,35.0625,36.0
0.362052,-0.4508687,-0.10830525,-0.064324096,-0.013197132,0.06191699,-0.17410047,-0.41940692,-0.3591708,0.06001982,-3.0751252,0.62765193,-0.00014246305,-0.16583014,0.05551789,-0.00084955205,0.021633884,-0.012491411,-0.019051773,0.46375516,-1.3447862,1.857283,-2.0798461,-1.5731267,2.4409304,-0.22288287,0.21303125,-0.2756361,0.083027214,-0.014571927,-0.20365955,-0.36391866,0.17238252,-9.232041,0.93436235,47.617023,-1.2380319,-2.1894782,-3.534801,-0.33840102,-0.36580646,-0.2565273,28.4375,29.6875,28.8125,32.625,35.0625,36.0
0.36405182,-0.8608425,0.13565813,0.081723586,0.0005894022,0.042841103,-0.17260738,-0.41972643,-0.35904917,0.05998485,-3.075023,0.627731,-0.0002551687,-0.16803405,0.0556887,-0.0011239063,0.020468047,-0.010644157,-0.0281945,0.4632989,-1.3443179,1.8567556,-2.0796793,-1.5731505,2.440537,-0.22495353,0.21567434,-0.27770147,0.08028109,-0.01438237,-0.19658564,-0.38307226,0.15322891,-9.193734,0.9858343,47.647476,-1.2372952,-2.122131,-3.4271312,-0.3333727,-0.38083434,-0.36921722,28.4375,29.6875,28.8125,32.625,35.0625,36.0
0.3660517,-0.35106984,0.6529344,-0.23228219,0.00024155008,0.052202415,-0.18219449,-0.4200872,-0.35894626,0.0600146,-3.0749967,0.6277848,-0.00016583344,-0.17080708,0.054633755,-1.9634657e-05,0.017764518,-0.0045278496,-0.03338073,0.46285465,-1.34391,1.8561577,-2.0795257,-1.5731992,2.44013,-0.2251271,0.21687785,-0.2806347,0.07532887,-0.014703292,-0.19157127,-0.38307226,0.24899697,-9.289503,0.9298854,47.682407,-1.3198594,-2.3038456,-3.5522594,-0.28680122,-0.40104288,-0.4732401,28.4375,29.6875,28.8125,32.625,35.0625,36.0
0.36805165,-0.6667079,0.2237498,-0.37718472,-0.013199541,0.055992495,-0.18603209,-0.42041013,-0.3588219,0.059992246,-3.0748966,0.6278755,-0.0002390265,-0.17207383,0.053741273,0.00011057176,0.017544938,-0.0036549512,-0.02743358,0.46239886,-1.3434654,1.8556298,-2.0793574,-1.5732349,2.439744,-0.22437783,0.21979369,-0.28459638,0.07547056,-0.014937336,-0.19676557,-0.095768064,0.22984336,-9.423578,0.947788,47.716442,-1.325242,-2.1800926,-3.3259025,-0.25013274,-0.38871324,-0.49848112,28.4375,29.6875,28.8125,32.625,35.0625,36.0
0.37005255,-1.3903009,-0.5568275,-0.39706025,-0.031881936,0.04541788,-0.17883176,-0.42074576,-0.35871464,0.05999325,-3.0748422,0.6278757,-0.00028986248,-0.17527355,0.054205135,0.00053948094,0.016204722,0.00069784466,-0.017589258,0.46195415,-1.3430209,1.8550414,-2.0791562,-1.5732588,2.4393067,-0.22715008,0.22166224,-0.28704056,0.0715131,-0.015736058,-0.2093775,-0.019153614,0.2681506,-9.481039,0.9164598,47.668976,-1.206463,-2.4473395,-3.2831159,-0.25321782,-0.38916963,-0.39522147,28.4375,29.6875,28.8125,32.625,35.0625,36.0
0.3720527,-1.1929015,-0.985839,-0.61104,-0.052428424,0.04181048,-0.17029391,-0.42110187,-0.35860837,0.05998731,-3.074787,0.6279162,-0.0002621183,-0.1775369,0.05529763,0.0006697403,0.016567385,0.003907786,-0.0075776647,0.46150962,-1.3425529,1.8544558,-2.079025,-1.5733079,2.438895,-0.2295719,0.22262461,-0.28797254,0.068728544,-0.017531807,-0.2218039,-0.05746084,0.22984336,-9.442732,0.9186956,47.65912,-1.1851169,-2.3534148,-3.2851634,-0.20798211,-0.38689488,-0.29070103,28.4375,29.6875,28.8125,32.625,35.0625,36.0
