Tylouw/Master_Thesis_Code/training_data_v2/rect_rod_t0.2/sample_49_session_1.csv
timestamp[s],tcp_force_x[N],tcp_force_y[N],tcp_force_z[N],tcp_force_rx[Nm?],tcp_force_ry[Nm?],tcp_force_rz[Nm?],tcp_pose_x[m],tcp_pose_y[m],tcp_pose_z[m],tcp_pose_rx[rot_vec_x],tcp_pose_ry[rot_vec_y],tcp_pose_rz[rot_vec_z],tcp_velo_x[m/s],tcp_velo_y[m/s],tcp_velo_z[m/s],tcp_velo_rx[rot_vec_x/s],tcp_velo_ry[rot_vec_y/s],tcp_velo_rz[rot_vec_z/s],q1[rad],q2[rad],q3[rad],q4[rad],q5[rad],q6[rad],qd1[rad/s],qd2[rad/s],qd3[rad/s],qd4[rad/s],qd5[rad/s],qd6[rad/s],tool_acc_x,tool_acc_y,tool_acc_z,current_of_whole_robot[A],voltage_of_whole_robot[V],current_J1[A],current_J2[A],current_J3[A],current_J4[A],current_J5[A],current_J6[A],temp_J1[C],temp_J2[C],temp_J3[C],temp_J4[C],temp_J5[C],temp_J6[C]
7.8499943e-07,-0.37428355,-0.6950617,-0.13649637,-0.013366348,0.012736166,0.00841338,-0.38933668,-0.36871898,0.0599993,-3.0786998,0.6249465,0.0001926679,0.00049197994,0.00027065474,0.00015227553,0.00050785276,-0.0012119131,2.6245858e-05,0.50503284,-1.3816321,1.9042109,-2.0919268,-1.5708536,2.4800372,-8.62438e-05,-0.0006732388,-1.0322394e-07,0.0019791254,0.00014653758,-0.00011301887,0.19153613,0.19153613,-8.6574335,0.73741806,47.694054,-0.19671798,-3.050974,-2.3040607,-0.1928384,0.10854271,-0.024330068,28.625,29.875,28.9375,32.75,35.125,36.125
0.002052747,-0.82626677,-0.8827987,-0.0943131,-0.008774737,0.005175334,0.019552352,-0.3893573,-0.36871174,0.060012132,-3.0786848,0.6250201,0.00022133288,-0.0010549003,-0.0005965683,-0.0008468716,-0.0026095368,0.0043560006,2.6606089e-05,0.5050088,-1.3816315,1.9041766,-2.0919068,-1.5708655,2.480061,-8.422599e-05,0.00071933557,0.0030927074,-0.008887449,0.00016229604,-0.000111272224,0.11492168,0.22984336,-8.542512,0.7597976,47.691364,-0.23578712,-3.026072,-2.3767095,-0.14088519,0.09405464,-0.024865896,28.625,29.875,28.9375,32.75,35.125,36.125
0.004052494,-0.5829023,-0.75516176,-0.25171146,-0.017126774,0.014763145,0.015914707,-0.3893283,-0.36870992,0.05999742,-3.0786774,0.6249418,0.0001794287,-0.001168449,-0.00066086405,-0.0020516024,-0.0020950756,0.00342357,2.742014e-05,0.5050329,-1.3816427,1.9042233,-2.0919073,-1.5708655,2.4800372,-8.230057e-05,0.00311197,0.003371707,-0.010494143,0.00015993735,-0.000109725916,0.019153614,0.21068975,-8.676587,0.7217513,47.67614,-0.2373609,-3.3876345,-2.6029506,-0.039349705,0.114316896,-0.017750574,28.625,29.875,28.9375,32.75,35.125,36.125
0.006052437,0.027427932,-0.51124734,-0.16940475,-0.004567269,0.017848302,0.0026306289,-0.38932925,-0.36871046,0.05998539,-3.07868,0.62496144,0.0001910663,-0.00020653583,-0.00012575467,-0.0017668601,-0.00038476594,0.00035765127,3.4743593e-05,0.5050329,-1.381631,1.9042472,-2.0919526,-1.5708655,2.4800491,-8.0460995e-05,0.0024061673,0.0023754158,-0.005281351,0.00015654141,-0.00011546173,-0.05746084,0.11492168,-8.6574335,0.70608455,47.699425,-0.15297441,-3.3297496,-2.5691488,-0.082231544,0.10297416,-0.026755365,28.625,29.875,28.9375,32.75,35.125,36.125
0.008052376,0.202386,0.42756143,-0.5044531,0.023212787,-0.006292144,0.004236182,-0.38930935,-0.3687065,0.059959576,-3.0786455,0.6248971,0.00010516024,-0.00013070599,-9.304253e-05,-9.103498e-05,-0.00046769262,0.00052560534,5.151161e-05,0.5050448,-1.3815958,1.9042586,-2.0919273,-1.5708655,2.4800253,-6.133062e-05,4.4000437e-05,0.00041494408,-0.0011458047,0.00015321535,-0.000113117705,-0.019153614,0.19153614,-8.829816,0.800085,47.690468,-0.13210885,-3.2351446,-2.458123,-0.10978426,0.11098839,-0.024619337,28.625,29.875,28.9375,32.75,35.125,36.125
0.010052676,0.3741411,0.22046733,-0.99782115,0.033519022,0.00282419,0.0073926393,-0.38934395,-0.36870876,0.059995428,-3.0786893,0.62500197,0.0001940875,-9.296867e-06,-1.6374144e-05,-8.09354e-06,-0.00015025324,-3.848672e-05,4.6210236e-05,0.5050088,-1.3816319,1.9042224,-2.0919397,-1.5708536,2.4800491,-7.479474e-05,5.90322e-07,3.46403e-05,-7.481286e-05,0.00015002298,-0.00012122775,0.0,0.24899697,-8.963891,0.7351769,47.657326,-0.7296504,-2.672243,-2.9342802,-0.110652596,0.0944352,-0.10501513,28.625,29.875,28.9375,32.75,35.125,36.125
0.012051728,-0.22178505,-0.3839422,-1.1504676,0.0069673792,0.011764858,-0.00020318225,-0.38931304,-0.36871228,0.05996445,-3.078653,0.6249383,0.000105067214,-0.00036945904,0.0022489156,-0.0014416043,0.002565348,-0.0049273153,-0.0032883731,0.5050437,-1.381595,1.9042462,-2.0919259,-1.5708536,2.480049,-0.0042228173,0.0021167598,4.6474383e-07,0.003435486,0.0001469609,-0.0009346958,0.1340753,0.17238252,-9.11712,0.784413,47.68599,-0.8929495,-2.760552,-3.0382333,-0.14564747,0.07568597,-0.13648443,28.625,29.875,28.9375,32.75,35.125,36.125
0.014052615,-0.5071735,-0.90123403,-1.3068509,-0.03204343,0.03430173,-0.0032782909,-0.38931948,-0.36869568,0.059950527,-3.078606,0.6249262,4.4343848e-05,-0.0039404896,0.0039055515,-0.0046695094,0.0050193965,-0.009386068,0.0007613473,0.5050171,-1.3815554,1.9042205,-2.0918787,-1.5708655,2.4800208,-0.010356299,0.012296058,-0.004559166,0.002903544,0.00014402116,-0.011114359,0.0,0.11492168,-9.346964,0.7553206,47.737038,-0.4145673,-3.211492,-3.0437403,-0.115439616,0.07818981,-0.08810701,28.625,29.875,28.9375,32.75,35.125,36.125
0.016052583,-1.5784798,-1.6384581,-1.5008781,-0.050763868,0.041208014,-0.0018030648,-0.38930747,-0.3686835,0.059928976,-3.0785947,0.62492025,-3.571165e-05,-0.0056774546,0.0034054096,-0.0027241523,0.0026913064,-0.0051873936,0.007246196,0.50499296,-1.3815441,1.9042562,-2.0918791,-1.5708417,2.4799943,-0.011137433,0.010688133,-0.006890461,0.0020410472,0.00014119662,-0.018379554,-0.22984336,0.17238252,-9.3661175,0.7105615,47.690468,-0.4916795,-3.082654,-3.0547729,-0.091689184,0.06583033,-0.028497066,28.625,29.875,28.9375,32.75,35.125,36.125
0.018052464,-2.060478,-1.3949015,-1.4202819,-0.06109858,0.063892394,-0.024787836,-0.38930202,-0.36867058,0.0599128,-3.0785728,0.62487614,-0.000120112556,-0.0057027442,0.0037964399,-0.002870787,0.0029697623,-0.0056869825,0.0104783615,0.5049689,-1.3815199,1.9042562,-2.091843,-1.5708297,2.4799454,-0.011817509,0.010642669,-0.006570314,0.002338014,0.00013848096,-0.02229197,-0.30645782,0.19153613,-9.557653,0.7597976,47.67166,-0.69823885,-2.945612,-3.2687683,-0.09041579,0.08849161,0.011090389,28.625,29.875,28.9375,32.75,35.125,36.125
0.02005254,-2.0402005,-1.2779417,-1.6962055,-0.031136677,0.075973414,-0.054826733,-0.38930228,-0.36865464,0.05989582,-3.0785236,0.6248295,-0.00016802213,-0.0055194977,0.00411957,-0.002965859,0.003978268,-0.007500659,0.009098488,0.50495666,-1.3814838,1.9042438,-2.0918062,-1.5708536,2.4799104,-0.012188871,0.011165903,-0.0075446833,0.0048639993,0.00013586757,-0.021283248,-0.36391866,0.19153613,-9.519346,0.72622824,47.677036,-0.86297023,-2.888279,-3.4036026,-0.10156867,0.06839146,-0.0007123023,28.625,29.875,28.9375,32.75,35.125,36.125
0.022051636,-2.364456,-0.9075707,-2.0019894,-0.0013634996,0.06361921,-0.06830941,-0.38932666,-0.3686785,0.059886884,-3.0785658,0.6248406,-0.00020487721,-0.006791497,0.0050386325,-0.002881981,0.0046977485,-0.008793722,0.0027196028,0.5049439,-1.3814113,1.9041837,-2.091829,-1.5708054,2.4798992,-0.0149241155,0.012564322,-0.009953353,0.007355439,0.00013335119,-0.017638657,-0.53630114,0.15322891,-9.691729,0.7642693,47.653748,-0.8932953,-2.776393,-3.444718,-0.1246465,0.065832116,-0.060648255,28.625,29.875,28.9375,32.75,35.125,36.125
0.024052618,-1.9828962,-0.6512787,-1.9801643,-0.0055156555,0.06693952,-0.08295666,-0.38933787,-0.3686801,0.0598849,-3.0785608,0.6248215,-0.00019230126,-0.0086926855,0.0046815886,-0.002688088,0.003945286,-0.007445277,0.0005712628,0.5049435,-1.3813864,1.904159,-2.0918295,-1.5708174,2.4798875,-0.016101785,0.015054808,-0.0131468605,0.0065141986,0.00013092627,-0.01666619,-0.7086837,0.076614454,-9.730036,0.75755644,47.670765,-0.8775134,-2.786056,-3.3412743,-0.10756384,0.04933984,-0.087644845,28.625,29.875,28.9375,32.75,35.125,36.125
0.026052406,-1.7795897,-0.30445376,-1.8442965,-0.018744657,0.082367375,-0.09637464,-0.38935566,-0.36863616,0.059868783,-3.0784829,0.6248261,-0.00021462838,-0.009643373,0.00494582,-0.003081432,0.003984984,-0.007522849,-0.0006044523,0.504883,-1.3813618,1.9041585,-2.0917938,-1.5708655,2.4798398,-0.017435132,0.016728338,-0.014080983,0.005861069,0.00012858804,-0.01682311,-0.6703765,0.019153614,-9.80665,0.65908957,47.723602,-0.8154427,-2.7691407,-3.3310437,-0.09345362,0.049203448,-0.09959473,28.625,29.875,28.9375,32.75,35.125,36.125
0.028051767,-1.9722345,-1.1213312,-2.020114,-0.021696419,0.092371725,-0.10445667,-0.38934413,-0.3686449,0.05984061,-3.0784895,0.6247881,-0.0003620679,-0.010254003,0.004981188,-0.0030813206,0.004084135,-0.0077036717,-0.0015879585,0.5048709,-1.3813013,1.9041456,-2.0917695,-1.5708054,2.479803,-0.018065318,0.017780717,-0.015442164,0.00637715,0.00012633175,-0.016469127,-0.7086837,0.05746084,-9.80665,0.7351769,47.666286,-0.88893914,-2.8589137,-3.4055755,-0.0903016,0.04285972,-0.10885911,28.625,29.875,28.9375,32.75,35.125,36.125
0.03005274,-1.9195846,-1.1696073,-1.9502112,-0.038128193,0.10820096,-0.11190191,-0.3893885,-0.36861327,0.059849072,-3.0784512,0.62487733,-0.0003108344,-0.010221683,0.005358285,-0.0035469262,0.0052022696,-0.009694023,-0.002976035,0.5047988,-1.3812889,1.9041089,-2.091757,-1.5708417,2.4797916,-0.01866071,0.019049196,-0.01630747,0.008256425,0.000112631074,-0.015676057,-0.7661445,0.076614454,-9.768343,0.72622824,47.650166,-0.9296547,-2.8291717,-3.4662876,-0.10310826,0.046253182,-0.11286105,28.625,29.875,28.9375,32.75,35.125,36.125
0.032051824,-1.9591429,-0.7326875,-2.0495515,-0.033602893,0.11872611,-0.13388307,-0.38939494,-0.36862558,0.059851825,-3.078461,0.624842,-0.00036543075,-0.011278957,0.0056271055,-0.0026523962,0.0045449985,-0.0084965825,-0.0049095843,0.5047983,-1.3812531,1.9040493,-2.0917084,-1.5708174,2.4797678,-0.020097695,0.018449582,-0.017800067,0.008983134,0.00010705371,-0.015179048,-0.7852981,0.0,-9.80665,0.6769922,47.65106,-0.87625766,-2.7684212,-3.3931873,-0.109632164,0.035418004,-0.13645312,28.625,29.875,28.9375,32.75,35.125,36.125
0.03405197,-1.5763881,-0.07411518,-1.8753796,-0.016253188,0.117924914,-0.1457128,-0.38943657,-0.3686103,0.059850283,-3.0784667,0.624901,-0.00036257296,-0.012394176,0.0055027152,-0.0022399875,0.004101257,-0.0076992847,-0.004860944,0.5047262,-1.3812166,1.9040126,-2.0917208,-1.5708054,2.4797318,-0.020928938,0.019407172,-0.019929972,0.009243088,0.00010502958,-0.01605793,-0.7278373,-0.076614454,-9.844957,0.7597976,47.68062,-1.0019895,-2.761008,-3.3802848,-0.11071104,0.03646059,-0.16218421,28.625,29.875,28.9375,32.75,35.125,36.125
0.03605185,-1.6803716,-0.389281,-1.8178556,0.021366015,0.093238816,-0.14575472,-0.3894598,-0.36859533,0.059839692,-3.0784166,0.62492895,-0.0003549403,-0.013547182,0.0055432986,-0.0021514948,0.0036334465,-0.006860722,-0.0049537322,0.50470185,-1.3811682,1.9039768,-2.091709,-1.5708417,2.4797313,-0.022074213,0.020547433,-0.021318097,0.008530003,0.00010329192,-0.017109595,-0.5363012,-0.076614454,-9.80665,0.7284641,47.703903,-1.0012503,-2.7547183,-3.4054208,-0.08123234,0.025393896,-0.16593456,28.625,29.875,28.9375,32.75,35.125,36.125
0.03805232,-1.5884845,-0.6298663,-1.9342847,0.032289546,0.073647134,-0.14969121,-0.38953167,-0.368585,0.059863336,-3.0784478,0.6249737,-0.0002825441,-0.01538257,0.0058026286,-0.0014878702,0.0023948017,-0.004571224,-0.0057099173,0.5046173,-1.3811322,1.9038805,-2.0917094,-1.5708417,2.4796708,-0.02420474,0.020802544,-0.022824721,0.0071784453,7.409208e-05,-0.01848308,-0.45968673,-0.05746084,-9.768343,0.784413,47.719128,-0.9614873,-2.7571628,-3.341867,-0.07411256,0.007973005,-0.17085487,28.625,29.875,28.9375,32.75,35.125,36.125
0.040052224,-1.7228084,-0.51209235,-1.8928473,0.018203657,0.048601862,-0.16074786,-0.38953933,-0.368556,0.059820432,-3.0783854,0.6249609,-0.00037148397,-0.016531855,0.006191755,-0.0011055854,0.001942656,-0.0037057304,-0.0059816604,0.5045687,-1.3810601,1.9038929,-2.0917094,-1.5708536,2.4796221,-0.025916383,0.021034278,-0.023951445,0.0070968713,4.6387388e-05,-0.01992243,-0.45968673,-0.05746084,-9.80665,0.66803825,47.684196,-0.86028624,-2.7380493,-3.3207402,-0.07063878,0.017255079,-0.18181255,28.625,29.875,28.9375,32.75,35.125,36.125
0.04205216,-0.9356516,-1.2538309,-1.9182767,0.014147154,0.062179543,-0.16836928,-0.38956654,-0.36855236,0.059846517,-3.0783737,0.6250163,-0.0003433532,-0.017164495,0.00623705,-0.001086532,0.0022437165,-0.004183686,-0.0064561693,0.50454456,-1.3810596,1.9038194,-2.0916498,-1.5708655,2.479634,-0.026562339,0.022296708,-0.025731893,0.008178683,1.2625031e-05,-0.020092998,-0.30645782,-0.11492168,-9.653421,0.7038487,47.655537,-0.8626318,-2.7395763,-3.3724961,-0.047908474,0.0111385975,-0.19639648,28.625,29.875,28.9375,32.75,35.125,36.125
0.044052135,-1.2586882,-1.536145,-1.8901241,0.0073360885,0.045420557,-0.166116,-0.3896181,-0.36855233,0.059849963,-3.0783775,0.62503624,-0.0003298742,-0.01869423,0.0060490817,-0.00031494081,0.0014744007,-0.00277796,-0.0065169297,0.5044963,-1.3809872,1.9037231,-2.0916374,-1.5708655,2.4795978,-0.027665904,0.023180405,-0.028626619,0.008587119,8.2432433e-07,-0.021134503,-0.2681506,-0.019153614,-9.634268,0.78217715,47.66271,-0.8638895,-2.7141087,-3.3186874,-0.055320684,0.0032354917,-0.20692605,28.625,29.875,28.9375,32.75,35.125,36.125
0.046051953,-0.45621538,-1.304197,-1.6860262,-0.0018247776,0.06615202,-0.17451486,-0.38966826,-0.36853448,0.05984719,-3.078379,0.6251136,-0.00032821813,-0.019306934,0.0066786655,-0.00053140946,0.0020299014,-0.0037828307,-0.0065471213,0.50441194,-1.3809388,1.903675,-2.0916493,-1.5708536,2.4795616,-0.029294534,0.024141733,-0.029514903,0.009662278,5.3822493e-08,-0.02273254,-0.21068975,0.11492168,-9.519346,0.7239871,47.694946,-0.87497807,-2.7364774,-3.2755022,-0.071750455,0.005139989,-0.23198614,28.625,29.875,28.9375,32.75,35.125,36.125
0.048052534,-0.3529519,-0.963132,-1.7396669,-0.011572222,0.052262615,-0.16451217,-0.38969788,-0.36850774,0.059840746,-3.0783484,0.6251448,-0.00037192716,-0.020510346,0.007337935,-0.00029458513,0.0018920476,-0.0035403362,-0.0069366237,0.5043392,-1.3809028,1.9036387,-2.0916126,-1.5708536,2.4795122,-0.031526387,0.024627578,-0.030731145,0.010113468,3.514224e-09,-0.024574365,0.0,0.095768064,-9.5385,0.7642693,47.66987,-0.8531727,-2.6986275,-3.2591276,-0.061485462,0.0017953312,-0.22009559,28.625,29.875,28.9375,32.75,35.125,36.125
0.050051987,-0.48083222,-1.2350373,-1.8421344,-0.007968102,0.03569934,-0.15788879,-0.3897582,-0.36851436,0.059867658,-3.0784075,0.6251366,-0.00032638278,-0.020816067,0.00801347,-0.0004969201,0.002401831,-0.004459898,-0.006014464,0.5042791,-1.3808665,1.9035319,-2.0916007,-1.5708297,2.4794395,-0.032944277,0.024948915,-0.03084189,0.010954571,2.2945368e-10,-0.026914408,-0.076614454,0.1340753,-9.576807,0.800085,47.709274,-0.7758578,-2.6446726,-3.4136899,-0.060944255,-0.00028466765,-0.22198036,28.625,29.875,28.9375,32.75,35.125,36.125
0.05205214,-0.55278796,-1.3745149,-1.7906004,-0.012190749,0.018854318,-0.15877143,-0.389779,-0.36848098,0.059845943,-3.0783403,0.62518,-0.00037308017,-0.021949537,0.008607909,-0.00021189604,0.0033218262,-0.003914776,-0.0050823893,0.50421864,-1.3808181,1.9035186,-2.0915759,-1.5708541,2.4794147,-0.034332607,0.025696266,-0.032596093,0.011931528,-0.0010733656,-0.029232025,-0.019153614,0.11492168,-9.576807,0.779936,47.660015,-0.8464197,-2.6982718,-3.3578923,-0.06255603,-0.0016253329,-0.22562367,28.625,29.875,28.9375,32.75,35.125,36.125
0.0540522,-0.53772604,-1.1888183,-1.7575508,-0.019073341,0.012654541,-0.15794538,-0.38982275,-0.36846477,0.059837647,-3.0783198,0.62515694,-0.00038995003,-0.023807982,0.009021696,0.00044901122,0.0028161036,-0.0027440384,-0.006136011,0.5041579,-1.3807458,1.9034466,-2.091552,-1.570866,2.4793422,-0.036681283,0.026543722,-0.035218295,0.01243674,-0.0012022695,-0.030525656,-0.019153614,0.22984336,-9.404425,0.6769922,47.703903,-0.7795751,-2.63414,-3.2882447,-0.07135363,-0.009777892,-0.23548478,28.625,29.875,28.9375,32.75,35.125,36.125
0.056052297,-1.1463237,-1.3593252,-2.0264184,-0.01785565,0.00212118,-0.1550444,-0.38987777,-0.36842674,0.059827577,-3.078274,0.625186,-0.00043368258,-0.024826983,0.008820398,0.0008641132,0.0021920213,-0.0017438486,-0.006102218,0.50404996,-1.3806734,1.9033731,-2.0915043,-1.5708779,2.4792583,-0.0373255,0.027301278,-0.037033096,0.012315946,-0.0011452851,-0.031202856,0.076614454,0.2681506,-9.461885,0.7083204,47.692257,-0.74534935,-2.662346,-3.327512,-0.054524202,-0.010435053,-0.23930332,28.625,29.875,28.9375,32.75,35.125,36.125
0.05805334,-1.6606715,-1.5992025,-1.9463102,-0.018734217,-0.0013509598,-0.14940448,-0.389927,-0.36844432,0.05986323,-3.0783396,0.62517875,-0.0003467326,-0.024629796,0.008485148,0.0007097544,0.0025304367,-0.0024121157,-0.0042146863,0.5040261,-1.3806611,1.9032773,-2.0915039,-1.570866,2.4792216,-0.036591414,0.02811513,-0.037803955,0.013021611,-0.0011168796,-0.03235608,0.0,0.22984336,-9.461885,0.8224646,47.67614,-0.8314301,-2.6008515,-3.2899644,-0.07895967,-0.016240576,-0.25812823,28.625,29.875,28.9375,32.75,35.125,36.125
0.06005235,-0.30973536,-1.1997714,-1.4543201,-0.039449397,0.045775462,-0.16047455,-0.39001098,-0.36842376,0.059899054,-3.0783818,0.6252069,-0.00028939085,-0.025744632,0.009318081,0.00068230875,0.0026596542,-0.002668983,-0.005544599,0.50390565,-1.3806369,1.903159,-2.091468,-1.5708541,2.4791133,-0.039033215,0.028850919,-0.03871707,0.013486315,-0.0011058477,-0.033467613,-0.038307227,0.22984336,-9.32781,0.7150385,47.690468,-0.8486326,-2.63667,-3.3012996,-0.08373028,-0.014075018,-0.26624998,28.625,29.875,28.9375,32.75,35.125,36.125
0.062052306,-0.83170503,-1.4470814,-1.4986053,-0.023177702,0.04039981,-0.15104125,-0.39003205,-0.36840498,0.05986631,-3.078319,0.6252329,-0.00033589648,-0.027144745,0.009492806,0.001177995,0.00217962,-0.0017999393,-0.006182439,0.50386924,-1.3805525,1.9031337,-2.091468,-1.5708779,2.4791012,-0.04062918,0.029663932,-0.040892333,0.013854765,-0.0011114683,-0.03442469,-0.05746084,0.2681506,-9.32781,0.7486078,47.67345,-0.73038584,-2.5865483,-3.3251095,-0.0850108,-0.026559299,-0.2735227,28.625,29.875,28.9375,32.75,35.125,36.125
0.064052254,-0.028503548,-0.5010689,-1.4378538,-0.040920738,0.062187295,-0.16395698,-0.39009342,-0.36836058,0.05984654,-3.078266,0.6253365,-0.000394483,-0.027994487,0.009624131,0.0014672125,0.001890695,-0.0013095636,-0.0059168776,0.5037372,-1.3804684,1.9030737,-2.0914433,-1.5708779,2.4790406,-0.04164433,0.030156031,-0.042187907,0.0140889,-0.0011000633,-0.035704795,-0.076614454,0.28730422,-9.3661175,0.7351769,47.67345,-0.8161826,-2.4896698,-3.3034751,-0.08306144,-0.042098004,-0.2881388,28.625,29.875,28.9375,32.75,35.125,36.125
0.06605176,-0.9172783,-0.9937271,-1.5867224,-0.017856868,0.044803455,-0.1466185,-0.3901576,-0.36836755,0.059881926,-3.07833,0.625215,-0.00032352918,-0.028746763,0.009720619,0.0016504345,0.0019358343,-0.0010459566,-0.006051527,0.50368905,-1.380432,1.9029421,-2.0914075,-1.5708779,2.4789085,-0.042398583,0.030912919,-0.04360208,0.014537559,-0.001267103,-0.0363235,-0.22984336,0.2681506,-9.404425,0.73741806,47.690468,-0.8380963,-2.5254936,-3.305297,-0.09623362,-0.04159328,-0.3142368,28.625,29.875,28.9375,32.75,35.125,36.125
0.06805243,-1.250666,-1.0114497,-1.4226643,-0.0035506436,0.04497122,-0.1405381,-0.39023355,-0.36833817,0.05989045,-3.078308,0.62536246,-0.0003093733,-0.029680355,0.010025037,0.0015354577,0.0019161341,-0.0011127103,-0.0048878016,0.5035687,-1.3803716,1.9028457,-2.0913837,-1.5708779,2.478883,-0.043803144,0.032129087,-0.0447831,0.014550598,-0.001221026,-0.03889122,-0.24899697,0.17238252,-9.404425,0.779936,47.66808,-0.8399546,-2.4787688,-3.2579243,-0.09398018,-0.057380483,-0.30560398,28.625,29.875,28.9375,32.75,35.125,36.125
0.0700525,-1.0379848,-0.44673494,-1.3161309,-0.0092989495,0.05357288,-0.1543375,-0.39028236,-0.36834008,0.059878502,-3.0783255,0.62534595,-0.00040020587,-0.030635532,0.010075831,0.0014602604,0.0017968933,-0.001173639,-0.003863405,0.5034966,-1.3802631,1.9027365,-2.091348,-1.5708302,2.4787984,-0.044854194,0.03366898,-0.046468686,0.014693153,-0.0010929622,-0.04096596,-0.28730422,0.095768064,-9.385271,0.65237147,47.66271,-0.75290924,-2.4671817,-3.315896,-0.1062251,-0.046338584,-0.30501544,28.625,29.875,28.9375,32.75,35.125,36.125
0.072052374,-1.1791743,-0.8924397,-1.4642824,0.0058814655,0.05903136,-0.14289427,-0.39031792,-0.36830264,0.05985883,-3.07829,0.6253201,-0.000474229,-0.031585794,0.010074347,0.0017423122,0.0013178379,-0.000387045,-0.004599974,0.50340044,-1.3802028,1.9027017,-2.0913117,-1.5708302,2.4786906,-0.045754947,0.034328282,-0.04784669,0.014491493,-0.0010590649,-0.041129462,-0.24899697,0.038307227,-9.308656,0.7620334,47.689575,-0.8308152,-2.525847,-3.2803922,-0.093066484,-0.06901501,-0.33211097,28.625,29.875,28.9375,32.75,35.125,36.125
0.07405244,-1.3863689,-0.9676385,-1.4502913,0.0063140066,0.065103605,-0.14802815,-0.39039055,-0.3682795,0.05987572,-3.0782714,0.6253157,-0.00042287656,-0.032499842,0.010483784,0.0018754731,0.0012465559,-0.00047020518,-0.0053070327,0.50331604,-1.3801423,1.9025811,-2.091264,-1.570866,2.478606,-0.04735191,0.035028093,-0.04911637,0.015097758,-0.0009578655,-0.04201902,-0.3256114,0.05746084,-9.32781,0.8605109,47.701214,-0.8436796,-2.4658618,-3.2185006,-0.10358848,-0.076469585,-0.3367547,28.625,29.875,28.9375,32.75,35.125,36.125
0.07605254,-1.3404498,-0.7297905,-1.4162037,0.0016509208,0.076594815,-0.14039902,-0.3904691,-0.3682771,0.059897155,-3.07833,0.6252692,-0.00036375676,-0.033940293,0.011248061,0.0020403292,0.0010046777,-6.950167e-05,-0.004446419,0.50323135,-1.380082,1.9024609,-2.091264,-1.5708541,2.4784849,-0.049981818,0.035722844,-0.050325498,0.015144285,-0.00094084267,-0.045509037,-0.40222588,0.0,-9.385271,0.7105615,47.704796,-0.7401295,-2.4356058,-3.2677789,-0.1033442,-0.06390089,-0.33434367,28.625,29.875,28.9375,32.75,35.125,36.125
0.07805201,-0.8416298,-1.0735366,-1.3755894,0.012833782,0.09148553,-0.1481146,-0.39054698,-0.36827073,0.059929036,-3.0783598,0.62534904,-0.00028060138,-0.033491053,0.010735576,0.0012602386,0.0019735966,-0.001687239,-0.0001250971,0.5031481,-1.3800453,1.9023422,-2.0912516,-1.5708541,2.4784477,-0.048651762,0.03785122,-0.05121466,0.015789237,-0.0010080393,-0.048499614,-0.40222588,0.038307227,-9.442732,0.7933669,47.68062,-0.84426314,-2.5032237,-3.3507638,-0.1402233,-0.069181874,-0.31666306,28.625,29.875,28.9375,32.75,35.125,36.125
0.08005195,-1.2484487,-0.5202471,-1.237646,0.0012150228,0.08228146,-0.14406872,-0.3906106,-0.36823502,0.05990768,-3.0783072,0.6253179,-0.0003003159,-0.036071975,0.010717146,0.0020442742,0.00091343734,0.0005631673,0.0014152176,0.5030513,-1.3799367,1.9022568,-2.0912278,-1.5708903,2.4783382,-0.050912634,0.039691888,-0.05507461,0.015323839,-0.0011777349,-0.052298535,-0.40222588,0.095768064,-9.32781,0.8291774,47.66987,-0.85093707,-2.4917877,-3.2392056,-0.12951414,-0.07585296,-0.3026466,28.625,29.875,28.9375,32.75,35.125,36.125
0.08205224,-0.8679196,-0.78358096,-1.365033,0.008682832,0.09243007,-0.14575578,-0.3906953,-0.3681992,0.059917834,-3.0783017,0.62529826,-0.00028995183,-0.035825968,0.011680839,0.0011675112,0.002046999,-0.001159157,0.00026564332,0.50291926,-1.3798642,1.9021372,-2.0911796,-1.5709018,2.4781947,-0.05219502,0.040133495,-0.053646192,0.01550907,-0.0013373527,-0.05243158,-0.47884035,0.019153614,-9.289502,0.8090337,47.690468,-0.80714405,-2.496366,-3.220841,-0.15237744,-0.08290623,-0.29370907,28.625,29.875,28.9375,32.75,35.125,36.125
0.084052145,-1.0979575,-0.31135327,-1.4207095,-0.004156829,0.07936212,-0.14345653,-0.39075914,-0.36817878,0.059907872,-3.0782776,0.62535024,-0.00037304137,-0.03738369,0.012617664,0.00085292157,0.0021357075,-0.0009020849,0.00030238013,0.50281054,-1.3797557,1.902018,-2.09112,-1.5708779,2.4781215,-0.055082496,0.041556876,-0.054433025,0.014691375,-0.0015467339,-0.055354703,-0.53630114,0.038307227,-9.423578,0.7732232,47.709274,-0.8149195,-2.5044374,-3.3760567,-0.14086199,-0.089870155,-0.29024065,28.625,29.875,28.9375,32.75,35.125,36.125
0.0860519,-1.1904967,-0.72926456,-1.440598,-0.00483088,0.0752616,-0.14112507,-0.39082137,-0.36815128,0.05989471,-3.078289,0.6253096,-0.00042555854,-0.03762664,0.0117587615,0.0011396986,0.0021195607,-0.00039172402,0.006115677,0.50269145,-1.3796713,1.9019455,-2.0911086,-1.5708541,2.4779756,-0.053706817,0.042694103,-0.0565547,0.015222157,-0.0017855362,-0.05979084,-0.4405331,0.1340753,-9.404425,0.7016076,47.6636,-0.809843,-2.4263587,-3.3284848,-0.16091092,-0.0961542,-0.2475645,28.625,29.875,28.9375,32.75,35.125,36.125
0.08805252,-1.6484555,-1.3094871,-1.6336294,0.010692175,0.059194993,-0.1325688,-0.3909012,-0.36813796,0.059909206,-3.0783,0.6252916,-0.00041188565,-0.039419334,0.011577602,0.001792725,0.001724153,0.0011323113,0.008180566,0.502595,-1.3795867,1.9018015,-2.0910604,-1.5708545,2.4778666,-0.054814,0.044264764,-0.059975803,0.015547334,-0.0021808292,-0.062960565,-0.4405331,0.11492168,-9.385271,0.7866488,47.711964,-0.91511416,-2.5874047,-3.1750114,-0.1496704,-0.10060422,-0.21127966,28.625,29.875,28.9375,32.75,35.125,36.125
0.09005242,-1.6819994,-1.3578665,-1.676931,0.014827061,0.06149663,-0.13570772,-0.39099482,-0.36811182,0.05992425,-3.078311,0.6252544,-0.00031840784,-0.039289024,0.012933283,0.0008790178,0.0029893103,-0.0009961048,0.009199442,0.50248647,-1.3795145,1.9016818,-2.0910604,-1.5708908,2.4777336,-0.05691353,0.04456784,-0.058389958,0.01613024,-0.0022580468,-0.06607959,-0.3256114,0.11492168,-9.423578,0.7150385,47.683304,-0.827378,-2.4655728,-3.3602786,-0.16109635,-0.11736587,-0.17666233,28.625,29.875,28.9375,32.75,35.125,36.125
0.09205238,-1.6531813,-1.3321303,-1.75514,0.00913784,0.061173443,-0.13035385,-0.3910861,-0.3680849,0.059918452,-3.078307,0.6251366,-0.00028307465,-0.04038138,0.012990436,0.0008117188,0.0034919733,-0.00078424526,0.011008142,0.5023786,-1.3793937,1.9015492,-2.091048,-1.5709265,2.477553,-0.057673365,0.04647359,-0.060571976,0.01646171,-0.0028059888,-0.06864594,-0.28730422,0.076614454,-9.500193,0.7777002,47.693153,-0.8783351,-2.5456758,-3.3102877,-0.17023784,-0.11631963,-0.14431097,28.625,29.875,28.9375,32.75,35.125,36.125
0.094052374,-0.983181,-0.74640197,-1.4357225,-0.01873042,0.070734605,-0.14886494,-0.3911204,-0.36806443,0.059902824,-3.0782886,0.62513185,-0.00043403346,-0.041186497,0.013279094,0.00091500516,0.004118338,-0.00066904956,0.012079085,0.5022825,-1.3793093,1.9014658,-2.0909636,-1.5708789,2.477456,-0.058519695,0.04744238,-0.0621391,0.017265543,-0.0034190794,-0.07056106,-0.30645782,0.076614454,-9.461885,0.7105615,47.667187,-0.90468454,-2.5422351,-3.294417,-0.1864868,-0.1122666,-0.10771302,28.625,29.875,28.9375,32.75,35.125,36.125
0.096052445,-0.8619148,-0.908436,-1.5133238,-0.017604385,0.071649164,-0.14289866,-0.39121497,-0.3680161,0.059908055,-3.0782475,0.625103,-0.00037391527,-0.041851252,0.013555232,0.001280648,0.004688861,-0.00013485296,0.012680639,0.50215065,-1.3792251,1.9013461,-2.0909274,-1.570939,2.4773116,-0.05911689,0.047681704,-0.063457586,0.018148892,-0.0041780956,-0.07175782,-0.34476504,0.21068975,-9.404425,0.7597976,47.695843,-0.9331329,-2.5152545,-3.2556098,-0.20345587,-0.108427554,-0.080644876,28.625,29.875,28.9375,32.75,35.125,36.125
0.09805205,-0.9458335,-0.9751905,-1.5820028,-0.018155467,0.06481077,-0.14385667,-0.39132586,-0.36797026,0.059913177,-3.078247,0.6251404,-0.00036054716,-0.04265026,0.014088813,0.00014817124,0.006795715,-0.0012149484,0.011811181,0.50197077,-1.379128,1.901214,-2.0909035,-1.5709394,2.4771552,-0.059913937,0.050952222,-0.064753205,0.018138716,-0.0055078054,-0.0716818,-0.22984336,0.2681506,-9.461885,0.7732232,47.689575,-0.9840987,-2.5376089,-3.3350873,-0.20888463,-0.100444265,-0.05416324,28.625,29.875,28.9375,32.75,35.125,36.125
0.10005222,-0.62479275,-0.9036982,-1.6189212,-0.033168737,0.06266046,-0.14786032,-0.39139718,-0.367955,0.059907433,-3.0782566,0.6250086,-0.0003621434,-0.043882523,0.014499738,0.0005518123,0.0077590006,0.00035902593,0.01044243,0.50188655,-1.3790195,1.9010934,-2.0908797,-1.5709518,2.4769876,-0.060739197,0.051591363,-0.066470474,0.0183051,-0.0071137873,-0.071134284,-0.076614454,0.15322891,-9.461885,0.7709874,47.675243,-1.0282679,-2.614611,-3.3109808,-0.22647083,-0.0722401,-0.069343925,28.625,29.875,28.9375,32.75,35.125,36.125
0.10205223,-1.6103698,-1.291351,-1.7601792,-0.03008331,0.035099454,-0.1384418,-0.391485,-0.3679407,0.05992425,-3.0782816,0.6249754,-0.0003851986,-0.045253202,0.015003965,0.0019091726,0.008267535,0.0041743126,0.009003237,0.5017666,-1.3789241,1.900926,-2.0908082,-1.5709289,2.4768438,-0.06142198,0.04999949,-0.06759272,0.01792818,-0.009398033,-0.07037311,-0.095768064,0.21068975,-9.423578,0.78217715,47.670765,-1.0365587,-2.4374685,-3.3067334,-0.22299173,-0.035530657,-0.05579039,28.625,29.875,28.9375,32.75,35.125,36.125
0.104052395,-1.5751429,-1.1133431,-1.7812926,-0.026894413,0.030720394,-0.13664347,-0.39158466,-0.36789665,0.05991033,-3.0782235,0.62504184,-0.00037940228,-0.046642575,0.015926987,0.0014560757,0.010239196,0.0048941923,0.0059311874,0.5016225,-1.3787912,1.9007949,-2.0907843,-1.5709652,2.4767487,-0.06295502,0.05197719,-0.0688088,0.017487613,-0.011477657,-0.06882884,-0.05746084,0.24899697,-9.404425,0.76874626,47.668976,-1.0408301,-2.4346616,-3.344614,-0.24480322,0.007878967,-0.0660118,28.625,29.875,28.9375,32.75,35.125,36.125
0.106051974,-1.3408548,-1.17693,-1.8135524,-0.020285714,0.023862105,-0.13939162,-0.39169645,-0.36788687,0.05993359,-3.0782757,0.62501425,-0.0002954472,-0.047146883,0.016335182,0.00037382342,0.01119423,0.0024807085,0.0032900323,0.5015023,-1.3786943,1.900627,-2.0907838,-1.5709652,2.4766047,-0.0642983,0.05495214,-0.070067294,0.018344378,-0.011150184,-0.067531526,0.019153614,0.2681506,-9.385271,0.7597976,47.686886,-1.0697942,-2.5601149,-3.327667,-0.2507534,-0.008533298,-0.09290781,28.625,29.875,28.9375,32.75,35.125,36.125
0.10805261,-0.59253645,-0.9469218,-1.7524652,-0.034506835,0.021396056,-0.15068637,-0.39177626,-0.3678207,0.059902087,-3.0781538,0.6250482,-0.00039008344,-0.047558315,0.015607467,0.00043768922,0.008795494,0.0014654497,0.001055534,0.5013463,-1.3785497,1.9005059,-2.0906885,-1.5710124,2.4764855,-0.065051824,0.05604531,-0.071538195,0.018445661,-0.008569304,-0.06605381,-0.05746084,0.2681506,-9.385271,0.84708,47.719128,-1.0529811,-2.5747976,-3.3138883,-0.24094051,-0.0031666043,-0.116241395,28.625,29.875,28.9375,32.75,35.125,36.125
0.11005269,-0.64616907,-1.193273,-1.6760231,-0.03739387,0.005771888,-0.14061901,-0.39186448,-0.36781517,0.059909057,-3.0781834,0.62497795,-0.0003365844,-0.048332147,0.01520744,0.00183408,0.005283512,0.0024831526,-0.0018583944,0.50126195,-1.3784423,1.9003628,-2.0906885,-1.5710233,2.4763536,-0.066695966,0.05423511,-0.07265432,0.018781342,-0.005977237,-0.06478946,-0.038307227,0.2681506,-9.3661175,0.7553206,47.692257,-1.0936334,-2.442966,-3.3833065,-0.25324452,-0.029861612,-0.16438937,28.625,29.875,28.9375,32.75,35.125,36.125
0.11205272,0.14935891,-1.1993276,-1.8715093,-0.039857514,0.0125734,-0.1487199,-0.39197394,-0.36778018,0.059910677,-3.078184,0.6250173,-0.00035200574,-0.048709,0.014995565,0.00088177074,0.004566054,-5.6990677e-05,-0.0037794525,0.50109386,-1.378321,1.9002074,-2.0906522,-1.571011,2.47621,-0.06782264,0.05711745,-0.073980674,0.019101847,-0.004129622,-0.063997865,0.05746084,0.24899697,-9.3661175,0.7329411,47.683304,-1.0712478,-2.4158564,-3.3313396,-0.27334327,-0.05666036,-0.17343006,28.625,29.875,28.9375,32.75,35.125,36.125
0.11405212,-0.15933533,-1.2161975,-1.714839,-0.03197002,0.01688007,-0.13438368,-0.39206535,-0.3677638,0.05992463,-3.0782127,0.62496555,-0.00034979,-0.049541123,0.014788831,0.000973178,0.0033995146,-0.0001374899,-0.005276834,0.5009738,-1.3782245,1.9000505,-2.0906045,-1.5709985,2.4760542,-0.068890445,0.05820877,-0.07546362,0.019000383,-0.0030704641,-0.0635697,-0.038307227,0.24899697,-9.32781,0.7911258,47.682407,-1.1005958,-2.507604,-3.3221622,-0.2689851,-0.06867798,-0.20453313,28.625,29.875,28.9375,32.75,35.125,36.125
0.1160521,-0.6050451,-0.8652423,-1.5217402,-0.024823971,0.028831944,-0.14274983,-0.39215043,-0.36772507,0.059904665,-3.078159,0.6250692,-0.00040933886,-0.05171862,0.014173902,0.0024008336,0.002056938,0.002498664,-0.005694288,0.5008298,-1.3780922,1.8999308,-2.0905678,-1.5709985,2.4759817,-0.069796145,0.05923582,-0.080079004,0.019631486,-0.0031708125,-0.06405565,-0.076614454,0.1340753,-9.3661175,0.7329411,47.69763,-1.172402,-2.497343,-3.329175,-0.2793943,-0.08129397,-0.22734457,28.625,29.875,28.9375,32.75,35.125,36.125
0.118052684,-1.1353538,-0.76151514,-1.5537038,-0.0066337627,0.039939452,-0.14085802,-0.39225522,-0.3677085,0.059922077,-3.0781937,0.6250172,-0.00039456677,-0.051135644,0.015216017,0.0014710962,0.0039037028,0.00021435622,-0.004725355,0.50069773,-1.3779838,1.899752,-2.0905197,-1.5709871,2.475813,-0.070668586,0.05962872,-0.07868435,0.020736087,-0.0036881757,-0.06589666,-0.05746084,0.17238252,-9.385271,0.7486078,47.65643,-1.2115839,-2.4572442,-3.2644331,-0.29013276,-0.09215413,-0.24921432,28.625,29.875,28.9375,32.75,35.125,36.125
0.12005212,-0.6910818,-0.81523067,-1.6897141,0.007091044,0.06365423,-0.13422307,-0.39235613,-0.36766434,0.059905328,-3.0781522,0.62506795,-0.0004532527,-0.05178088,0.015495583,0.000643117,0.0044997735,-0.001321723,-0.007919675,0.50052965,-1.3778389,1.8996075,-2.090472,-1.5709866,2.4756818,-0.07185001,0.062195424,-0.07991765,0.021035627,-0.0034781848,-0.06388317,0.0,0.19153613,-9.385271,0.7284641,47.66987,-1.1826619,-2.4917464,-3.319713,-0.31142008,-0.08124862,-0.2918173,28.625,29.875,28.9375,32.75,35.125,36.125
0.12205226,-0.77821493,-0.6923982,-1.7056108,-0.011897802,0.063234046,-0.13835967,-0.3924911,-0.3676307,0.059928373,-3.0781536,0.6250677,-0.0003057353,-0.05470749,0.01503893,0.0025157586,0.0023138684,0.0026018887,-0.009354615,0.5003855,-1.3777306,1.8994268,-2.090472,-1.5710467,2.4755375,-0.073785186,0.06274654,-0.08479991,0.020870907,-0.0034498277,-0.06438167,-0.13407528,0.095768064,-9.404425,0.8157518,47.67614,-1.2385539,-2.5632284,-3.16044,-0.32995084,-0.090906575,-0.33137074,28.625,29.875,28.9375,32.75,35.125,36.125
0.12405226,-0.7911998,-1.0853477,-1.6903034,-0.01653491,0.06389168,-0.14630651,-0.39257845,-0.36759305,0.059910562,-3.0781033,0.62503666,-0.00040941895,-0.053993575,0.015592729,0.0016752762,0.0030563362,0.00064121676,-0.006650964,0.50024134,-1.3775743,1.8992604,-2.0903757,-1.5710467,2.4753804,-0.07421738,0.062944345,-0.083192095,0.02113924,-0.0031641347,-0.06751848,-0.24899697,0.095768064,-9.404425,0.80679786,47.683304,-1.126252,-2.4242954,-3.26747,-0.31999657,-0.09594329,-0.33941054,28.625,29.875,28.9375,32.75,35.125,36.125
0.12605214,-0.69964087,-0.8959994,-1.8755953,-0.029001206,0.074274145,-0.14315465,-0.3926751,-0.3675653,0.059913766,-3.0780973,0.62511355,-0.0004217748,-0.055025358,0.015071203,0.0019761797,0.00335122,0.0019960916,-0.009021282,0.5000979,-1.3774657,1.8991164,-2.0903404,-1.5710348,2.4752858,-0.073708944,0.0646161,-0.08585145,0.021083988,-0.00407683,-0.064636484,-0.40222588,0.15322891,-9.5385,0.7217513,47.690468,-1.3956678,-2.3836663,-3.2867799,-0.31096774,-0.091982126,-0.39162838,28.625,29.875,28.9375,32.75,35.125,36.125
0.12805247,-0.9493291,-1.0129513,-1.8011281,-0.02768141,0.08924565,-0.14211598,-0.39280003,-0.36755726,0.05993073,-3.0781212,0.6250987,-0.0003532167,-0.057369724,0.01694241,0.0014588591,0.004670303,0.0015244348,-0.01231724,0.49997678,-1.3773206,1.8989004,-2.090316,-1.5710477,2.4751525,-0.0784205,0.06700471,-0.08760766,0.021499537,-0.0050089974,-0.06604933,-0.40222588,0.17238252,-9.519346,0.78217715,47.67614,-1.3183475,-2.5846024,-3.1596155,-0.34027052,-0.09418489,-0.4398196,28.625,29.875,28.9375,32.75,35.125,36.125
0.13005172,-1.430289,-1.0876656,-1.8648,-0.017564416,0.09524083,-0.14133075,-0.39291662,-0.36752182,0.059930038,-3.078103,0.6251502,-0.00036835956,-0.056973666,0.016596517,0.0022200716,0.004352129,0.0025466809,-0.008185717,0.49980944,-1.3771774,1.8987211,-2.090268,-1.5710477,2.4750197,-0.077317245,0.065396614,-0.087556385,0.02200562,-0.0052211448,-0.06907745,-0.45968673,0.19153613,-9.500193,0.75084364,47.675243,-1.2736498,-2.3590274,-3.2891374,-0.35440615,-0.08076865,-0.45893836,28.625,29.875,28.9375,32.75,35.125,36.125
0.13205269,-1.1850755,-0.36656812,-1.6983299,-0.020947184,0.116771415,-0.14362532,-0.3930118,-0.36748576,0.05989276,-3.078066,0.62510276,-0.00048448335,-0.058170233,0.017147731,0.0016865064,0.0053255535,0.002194598,-0.0062032677,0.49965307,-1.3769841,1.8985661,-2.0902202,-1.5710353,2.4748385,-0.07889703,0.06774831,-0.089146264,0.022020694,-0.0059186667,-0.07263675,-0.40222588,0.1340753,-9.519346,0.8314132,47.687782,-1.3183751,-2.3908536,-3.3250415,-0.3735394,-0.08756553,-0.46962267,28.625,29.875,28.9375,32.75,35.125,36.125
0.13405262,-1.6877681,-0.6843288,-1.6720575,-0.0012968002,0.1079312,-0.14096026,-0.39313903,-0.36743668,0.059912004,-3.0780618,0.6251558,-0.00044208646,-0.059489157,0.01765594,0.0019924038,0.0053727776,0.0033174541,-0.0021296092,0.49946102,-1.3768878,1.8983973,-2.0901725,-1.5710481,2.4746802,-0.08058,0.068313666,-0.09047141,0.021815555,-0.006503399,-0.078391664,-0.4213795,0.11492168,-9.595961,0.8112748,47.683304,-1.3284138,-2.46823,-3.2884946,-0.35278547,-0.08272022,-0.4483385,28.625,29.875,28.9375,32.75,35.125,36.125
0.13605256,-1.0864125,-0.5214426,-1.7026345,-0.005395137,0.11935092,-0.13870884,-0.39326382,-0.3674202,0.05994556,-3.0780919,0.625063,-0.00033424475,-0.061825503,0.0177276,0.0031082828,0.004912029,0.0066858046,0.0018543636,0.49934068,-1.3767796,1.8981818,-2.0901248,-1.5710844,2.4744983,-0.08207681,0.06902482,-0.09371146,0.021165548,-0.007718991,-0.08386886,-0.47884035,0.019153614,-9.500193,0.72622824,47.694054,-1.3075213,-2.3813593,-3.3224173,-0.34471607,-0.068276,-0.39218912,28.625,29.875,28.9375,32.75,35.125,36.125
0.13805196,-0.9162336,-0.86093634,-1.7238739,0.00074676954,0.109772876,-0.13535969,-0.39339536,-0.3673608,0.059921067,-3.0780437,0.6251865,-0.00040670755,-0.063089184,0.019202378,0.0025963103,0.005292759,0.006322865,0.002433325,0.499112,-1.3765991,1.8980154,-2.090089,-1.5710725,2.4743528,-0.08558852,0.06981627,-0.09334941,0.020511368,-0.007886333,-0.08795878,-0.47884035,0.038307227,-9.557653,0.8247004,47.694946,-1.2688446,-2.4258854,-3.2406769,-0.34862512,-0.051003434,-0.37623423,28.625,29.875,28.9375,32.75,35.125,36.125
0.1400519,-1.5583817,-0.7327061,-1.6501397,-0.0060744397,0.09105249,-0.12709737,-0.39352518,-0.36736384,0.059960447,-3.0781195,0.62504077,-0.0002942955,-0.06344054,0.018435165,0.0025213072,0.005194923,0.0068673864,0.012811172,0.49900478,-1.3764784,1.8977746,-2.0900528,-1.5710844,2.4741452,-0.084487736,0.07138933,-0.094933696,0.019992936,-0.008063203,-0.09723523,-0.38307226,0.0,-9.481039,0.76874626,47.711964,-1.3298483,-2.3679447,-3.4258668,-0.35192865,-0.06659284,-0.31021395,28.625,29.875,28.9375,32.75,35.125,36.125
0.14205372,-0.808074,-0.66299146,-1.7267829,-0.0141809415,0.103930965,-0.13956393,-0.39364216,-0.36729032,0.059929162,-3.0780563,0.62506616,-0.0003432451,-0.06553008,0.019045822,0.0032590334,0.004251907,0.008546731,0.012747581,0.49878815,-1.3763222,1.8976549,-2.090029,-1.5711082,2.4739525,-0.08742141,0.07185841,-0.097134314,0.019793425,-0.008050591,-0.100103915,-0.51714754,-0.076614454,-9.557653,0.784413,47.677036,-1.3981605,-2.2639272,-3.1584916,-0.33216977,-0.052169986,-0.2512421,28.625,29.875,28.9375,32.75,35.125,36.125
0.14405252,-0.73016864,-0.579871,-1.7757717,-0.0081272805,0.10028758,-0.13520503,-0.3937654,-0.36726695,0.059933987,-3.0780544,0.6249892,-0.00034726894,-0.06759078,0.020318652,0.0033631262,0.0030161366,0.008345016,0.01156153,0.49864265,-1.3761537,1.8974279,-2.0899575,-1.5711201,2.4737594,-0.09216322,0.07271866,-0.09839922,0.019776156,-0.006874394,-0.10366144,-0.4405331,-0.1340753,-9.500193,0.84708,47.704796,-1.1201913,-2.3215077,-3.2834287,-0.3367635,-0.05330027,-0.19123045,28.625,29.875,28.9375,32.75,35.125,36.125
0.14605255,-0.35077602,-0.46589023,-1.8864278,-0.008387971,0.100537136,-0.14509228,-0.39390817,-0.36722994,0.05995439,-3.0780904,0.62491643,-0.00025245396,-0.06741027,0.019599406,0.0030893388,0.0019284647,0.0073385383,0.014833374,0.49846342,-1.3760331,1.8972358,-2.0899456,-1.5711435,2.4735303,-0.09165226,0.073831245,-0.099088766,0.019707056,-0.0054339045,-0.10642525,-0.5554548,-0.095768064,-9.615114,0.7866488,47.68062,-1.2253172,-2.33705,-3.2537777,-0.31958508,-0.07125552,-0.17243782,28.625,29.875,28.9375,32.75,35.125,36.125
0.14805192,-1.4509294,-1.0015163,-1.7261757,-0.0014293719,0.08070809,-0.13755731,-0.3940542,-0.36718282,0.059946872,-3.0780926,0.6248794,-0.00032160705,-0.06897064,0.020453893,0.003123595,0.0014121357,0.0072540925,0.011936472,0.49823496,-1.3758408,1.8970083,-2.0898736,-1.5711197,2.4732785,-0.09479276,0.07487386,-0.10045063,0.01985323,-0.0049454505,-0.10666901,-0.5554548,-0.038307227,-9.404425,0.81351066,47.69763,-1.113087,-2.2642457,-3.2891197,-0.32409528,-0.10113664,-0.13465238,28.625,29.875,28.9375,32.75,35.125,36.125
0.15005209,-1.0747995,-0.46280345,-1.7299349,-0.0116853,0.10043905,-0.14310285,-0.39417347,-0.36714345,0.05994469,-3.0781057,0.6248074,-0.0002977515,-0.070205644,0.021825211,0.002409006,0.0023193888,0.006467286,0.006100936,0.49806613,-1.3757079,1.8968529,-2.0898616,-1.5711311,2.4730632,-0.09794603,0.07643512,-0.10062863,0.0195953,-0.00536388,-0.10398561,-0.5363012,0.0,-9.481039,0.7665104,47.65912,-1.0525417,-2.392518,-3.3899422,-0.32236457,-0.07721764,-0.13775781,28.625,29.875,28.9375,32.75,35.125,36.125
0.15205209,-1.4523371,-0.5420871,-1.7325717,-0.0065800534,0.09226139,-0.14339279,-0.39432883,-0.3671067,0.059975024,-3.0781312,0.624835,-0.00024062158,-0.07202678,0.022243585,0.0030969556,0.0022987283,0.008257577,0.00029535475,0.49786177,-1.3755757,1.8966135,-2.089802,-1.5711316,2.472873,-0.099768005,0.07718527,-0.103130795,0.01976818,-0.006197643,-0.09999949,-0.47884035,0.019153614,-9.500193,0.81351066,47.675243,-0.9396224,-2.2546375,-3.3533902,-0.2990946,-0.0671695,-0.19306922,28.625,29.875,28.9375,32.75,35.125,36.125
0.1540525,-1.3906966,-0.61047465,-1.5829655,-0.015194519,0.09850626,-0.13695134,-0.3944867,-0.36704537,0.059955336,-3.0780833,0.6249435,-0.00025905465,-0.07341853,0.023587976,0.0023093175,0.003735157,0.007121228,-0.0076896125,0.49762124,-1.3753706,1.8964094,-2.0897777,-1.571144,2.4727063,-0.10282124,0.07952069,-0.10422785,0.020216176,-0.0069169733,-0.09506539,-0.49799395,0.15322891,-9.404425,0.8560339,47.690468,-0.86397254,-2.2770872,-3.294756,-0.30541685,-0.05725769,-0.23570916,28.625,29.875,28.9375,32.75,35.125,36.125
0.15605263,-0.7992058,-0.6126606,-1.6148905,-0.011605742,0.10582333,-0.1358659,-0.39462668,-0.36700845,0.059984524,-3.0780933,0.6249456,-0.00015140258,-0.07468909,0.02373664,0.0028633787,0.0039601903,0.008798502,-0.0102197,0.49745342,-1.3752623,1.8962063,-2.089742,-1.5711807,2.4725387,-0.10358645,0.08010004,-0.10618446,0.020226743,-0.007912071,-0.09329809,-0.47884035,0.05746084,-9.404425,0.7172743,47.666286,-0.83308506,-2.2859151,-3.4006622,-0.2755611,-0.0857037,-0.2819733,28.625,29.875,28.9375,32.75,35.125,36.125
0.15805179,-1.4327039,-0.62959206,-1.6482377,-0.013602061,0.09302011,-0.13347882,-0.3948039,-0.36696672,0.05999268,-3.0781252,0.6249522,-0.000120768374,-0.07597913,0.024392609,0.0032982077,0.0043882914,0.010218373,-0.011015427,0.49721316,-1.37507,1.895954,-2.089718,-1.5711688,2.4722986,-0.10517372,0.080295034,-0.10741757,0.020223916,-0.008963913,-0.09408738,-0.5363012,0.076614454,-9.423578,0.83589023,47.666286,-0.85755324,-2.2231722,-3.3659816,-0.28429776,-0.06480531,-0.31822887,28.625,29.875,28.9375,32.75,35.125,36.125
0.16005191,-1.4430183,-0.8680531,-1.4491208,-0.00094159495,0.095081575,-0.13416499,-0.3949112,-0.36689794,0.059964027,-3.0780294,0.62496954,-0.00020335293,-0.076535806,0.024880927,0.002192259,0.00505426,0.008222826,-0.011406942,0.49702126,-1.374901,1.8957995,-2.0896342,-1.5712045,2.4721298,-0.10670012,0.08298342,-0.10812798,0.020310683,-0.008607753,-0.09522145,-0.40222588,0.019153614,-9.461885,0.77545905,47.682407,-0.828291,-2.295227,-3.421836,-0.26351744,-0.07525857,-0.31938627,28.625,29.875,28.9375,32.75,35.125,36.125
0.1620525,-1.3874571,-0.8053761,-1.514735,-0.0048793727,0.097935654,-0.13076866,-0.39508277,-0.36688235,0.059988275,-3.0780964,0.6250011,-0.00010167619,-0.07688212,0.024146695,0.0027007742,0.0034726812,0.0086637605,-0.01072328,0.49682972,-1.3747329,1.8955473,-2.089646,-1.5711917,2.4719496,-0.106476426,0.083192535,-0.10956365,0.020390857,-0.0074206702,-0.09568401,-0.4405331,0.038307227,-9.385271,0.7978386,47.681515,-0.8939514,-2.3161356,-3.291249,-0.25615048,-0.0587666,-0.33854675,28.625,29.875,28.9375,32.75,35.125,36.125
0.16405246,-0.9547138,-0.8150557,-1.4198076,-0.0047295475,0.09874833,-0.13335805,-0.39521474,-0.36682853,0.059987273,-3.0780835,0.6249783,-0.000104669045,-0.077640876,0.023807932,0.003576855,0.0018986575,0.0098201325,-0.0111487,0.49662593,-1.3745887,1.8953675,-2.089598,-1.5712041,2.4717333,-0.10708237,0.08272414,-0.111052975,0.020576175,-0.006590647,-0.09586561,-0.36391866,0.076614454,-9.3661175,0.8179876,47.68062,-0.91857255,-2.199862,-3.4579535,-0.22896892,-0.07849012,-0.3813492,28.625,29.875,28.9375,32.75,35.125,36.125
0.16605233,-0.34066027,-0.739938,-1.6544844,0.0005769826,0.09921598,-0.13873522,-0.3953956,-0.36676413,0.059991214,-3.078036,0.6251024,-5.9321348e-05,-0.07774428,0.024107726,0.0010923207,0.004045642,0.0052978583,-0.010946232,0.49637422,-1.3743947,1.8951172,-2.0895498,-1.5712398,2.4715652,-0.107803166,0.088377245,-0.11225624,0.02111886,-0.006323914,-0.09678817,-0.17238252,0.0,-9.308656,0.73741806,47.705692,-0.9353689,-2.3609483,-3.2763977,-0.21949664,-0.07051854,-0.3680514,28.625,29.875,28.9375,32.75,35.125,36.125
0.1680525,-0.46044648,-0.77503574,-1.4587054,-0.002713825,0.057001334,-0.13326637,-0.39556426,-0.3667154,0.059999183,-3.0780313,0.6251598,-1.8788493e-05,-0.08036445,0.02508906,0.0029831498,0.0023507292,0.008925537,-0.01434971,0.49614525,-1.3742152,1.8948778,-2.089514,-1.5712517,2.4713728,-0.11165531,0.08660836,-0.11446314,0.021095667,-0.0065624034,-0.09723597,-0.15322891,0.076614454,-9.346964,0.72622824,47.67793,-0.8777263,-2.1876607,-3.400372,-0.22330153,-0.079441056,-0.42318797,28.625,29.875,28.9375,32.75,35.125,36.125
0.1700525,-0.6510528,-0.6309162,-1.4866595,-0.02354643,0.033539124,-0.13952005,-0.39576235,-0.36666542,0.060023263,-3.0780518,0.62519467,8.98629e-05,-0.08024278,0.02354108,0.0026618782,0.003033433,0.009058075,-0.0037392008,0.49589515,-1.3740339,1.8946022,-2.0894902,-1.5712761,2.471142,-0.10848108,0.089424536,-0.11709664,0.021115592,-0.0072260727,-0.104670025,-0.24899697,0.15322891,-9.3661175,0.76874626,47.67793,-1.0868835,-2.3485847,-3.3231263,-0.18423738,-0.06600989,-0.38205403,28.625,29.875,28.9375,32.75,35.125,36.125
0.17205262,-0.10942038,-1.2559202,-1.7341034,-0.013830908,0.038143177,-0.13317896,-0.39590183,-0.36661276,0.060023066,-3.0780172,0.62514967,9.605381e-05,-0.082830206,0.025658458,0.002823147,0.0029891778,0.00892411,-0.0055100312,0.49570125,-1.3738655,1.8943862,-2.0894182,-1.5713118,2.4709246,-0.11442653,0.09031469,-0.118721366,0.021939022,-0.007128097,-0.10884399,-0.038307227,0.24899697,-9.308657,0.779936,47.65912,-0.8340071,-2.3474255,-3.2765465,-0.18539509,-0.07160899,-0.33872584,28.625,29.875,28.9375,32.75,35.125,36.125
0.17405273,0.043986473,-1.0593646,-1.8443395,-0.022030672,0.03649862,-0.14138116,-0.3960484,-0.36656633,0.060012367,-3.0780132,0.62518054,4.0445175e-05,-0.082156174,0.02532196,0.0024433504,0.0037717537,0.007405409,0.0028361073,0.49547443,-1.373673,1.8941706,-2.0893695,-1.571288,2.4707177,-0.113222726,0.09120336,-0.11923061,0.023264578,-0.007097065,-0.11598602,0.0,0.21068975,-9.289502,0.83589023,47.672558,-0.9741411,-2.3984306,-3.3675709,-0.17247614,-0.060098372,-0.27917045,28.625,29.875,28.9375,32.75,35.125,36.125
0.17605263,-0.13772877,-1.0897658,-1.682717,-0.038460717,0.034685224,-0.14457856,-0.39621156,-0.36648303,0.059977714,-3.077918,0.6252155,2.4505729e-05,-0.082703315,0.025741236,0.00054159184,0.0058331965,0.0041213366,0.008023639,0.49522266,-1.373443,1.893968,-2.0893338,-1.5713481,2.4705,-0.114221476,0.09611893,-0.12091123,0.023887204,-0.0073616635,-0.12217,0.076614454,0.24899697,-9.32781,0.7329411,47.689575,-0.9524381,-2.4935868,-3.1752486,-0.17788154,-0.049583185,-0.23353627,28.625,29.875,28.9375,32.75,35.125,36.125
0.17805192,-0.87822545,-1.1502635,-1.6519374,-0.048653048,0.025781048,-0.14569125,-0.3963842,-0.36646202,0.060002737,-3.0779963,0.6250924,3.207093e-05,-0.08397139,0.024996579,0.0029492388,0.003695113,0.008463708,0.01293649,0.49500725,-1.3732519,1.8936676,-2.0892618,-1.5713118,2.470198,-0.113962285,0.09362547,-0.12349061,0.024124067,-0.007545582,-0.12682302,0.038307227,0.28730422,-9.193734,0.83365434,47.72002,-1.0619636,-2.3228662,-3.3560607,-0.14576541,-0.062481593,-0.12022795,28.625,29.875,28.9375,32.75,35.125,36.125
0.18005191,-0.78789365,-1.4212253,-1.7530079,-0.03597723,0.032508694,-0.13146338,-0.39656532,-0.36639696,0.06002661,-3.0780025,0.62514967,0.0001527788,-0.08430853,0.025428686,0.0010337697,0.00484268,0.0050025126,0.014541866,0.4947552,-1.3731182,1.8934516,-2.0892498,-1.5713481,2.469981,-0.115344964,0.097882636,-0.12422116,0.024177853,-0.006904412,-0.12981188,0.019153614,0.3256114,-9.270349,0.73069996,47.690468,-0.9109384,-2.4001675,-3.3065808,-0.14403929,-0.057705507,-0.10954104,28.625,29.875,28.9375,32.75,35.125,36.125
0.18205202,-0.2107261,-1.550746,-1.6654056,-0.030742513,0.045640353,-0.1353956,-0.3967276,-0.3663436,0.060019094,-3.0779715,0.6250107,0.00012970556,-0.0856878,0.024921749,0.0028115762,0.0029041206,0.007746769,0.009630562,0.4945397,-1.3728904,1.893176,-2.0891535,-1.5713838,2.469683,-0.11594928,0.09675087,-0.12708648,0.024834793,-0.0065092216,-0.1255045,0.05746084,0.2681506,-9.404425,0.73069996,47.691364,-1.199932,-2.3954191,-3.241056,-0.12122868,-0.07776,-0.11430459,28.625,29.875,28.9375,32.75,35.125,36.125
0.18405199,-0.6850032,-1.317135,-1.6277561,-0.03633215,0.026473124,-0.13272221,-0.3969081,-0.36628973,0.060019545,-3.0779514,0.62508523,0.00017887905,-0.08637276,0.025107834,0.002311643,0.0037416427,0.006304382,0.004869378,0.49429977,-1.3726854,1.8929256,-2.0891292,-1.5714082,2.4694922,-0.11680533,0.09921534,-0.12919623,0.026145548,-0.006558115,-0.12159835,-0.038307227,0.3256114,-9.308657,0.7978386,47.711063,-1.0426266,-2.3472712,-3.2473984,-0.11387932,-0.06324056,-0.1325199,28.625,29.875,28.9375,32.75,35.125,36.125
0.18605241,0.19451188,-0.8700538,-1.6451298,-0.027575668,0.043394294,-0.13848215,-0.3970685,-0.3662588,0.06002505,-3.0780137,0.62500423,0.00014426268,-0.087308206,0.025282102,0.0023099885,0.0042244634,0.0059233173,-0.00063196913,0.49407187,-1.3724926,1.8926729,-2.0890815,-1.57136,2.4692059,-0.11775091,0.10089029,-0.13146718,0.027314316,-0.006800491,-0.11704119,-0.076614454,0.34476504,-9.270349,0.7463667,47.684196,-1.1539602,-2.4824443,-3.1514792,-0.11241847,-0.06217085,-0.19279864,28.625,29.875,28.9375,32.75,35.125,36.125
0.18805249,-0.33947006,-1.1224959,-1.7878951,-0.016051115,0.041382972,-0.13752525,-0.39723358,-0.3662036,0.060024433,-3.0779867,0.6250386,0.00016468391,-0.08823434,0.026011223,0.0018987239,0.0047132885,0.0047973525,-0.0069131027,0.4938437,-1.3722999,1.892434,-2.089033,-1.5713838,2.4690027,-0.11983521,0.10253779,-0.13269094,0.028111916,-0.0066957804,-0.112843916,-0.15322891,0.3256114,-9.289502,0.82022345,47.70211,-1.0914963,-2.5045428,-3.2095683,-0.10862079,-0.067628995,-0.26805627,28.625,29.875,28.9375,32.75,35.125,36.125
0.19005246,0.008784391,-1.0715665,-1.7441744,-0.021894509,0.06407848,-0.14227341,-0.39739397,-0.36615518,0.060007263,-3.0779366,0.6250483,7.339549e-05,-0.0887677,0.025793066,0.0016307541,0.004515169,0.003852662,-0.009492287,0.4936161,-1.3720468,1.8921474,-2.0889246,-1.5713834,2.4687877,-0.12028585,0.10441973,-0.13449521,0.028770102,-0.0060830344,-0.11071519,-0.19153613,0.24899697,-9.308657,0.784413,47.66808,-1.16034,-2.4765882,-3.1514642,-0.082394496,-0.07792785,-0.29065663,28.625,29.875,28.9375,32.75,35.125,36.125
0.19205213,-0.34444052,-0.9267259,-1.7386531,-0.030784866,0.06697716,-0.14423096,-0.3975761,-0.3660947,0.060016707,-3.0779226,0.6250647,0.000111536945,-0.08971763,0.026340175,0.0020062295,0.0043143914,0.0040394203,-0.012719457,0.49336404,-1.3718547,1.8918837,-2.088865,-1.5714077,2.4685478,-0.12206884,0.10456662,-0.13572784,0.029592829,-0.0059930817,-0.10927087,-0.076614454,0.28730422,-9.423578,0.82694155,47.658226,-1.1196615,-2.5290453,-3.1072605,-0.09454467,-0.06631678,-0.353164,28.625,29.875,28.9375,32.75,35.125,36.125
0.19405212,-1.1003833,-1.3026648,-1.7647603,-0.035781376,0.070231676,-0.13034573,-0.39775714,-0.36606154,0.060036864,-3.077953,0.6251096,0.00015290767,-0.08999542,0.026999487,0.0014177274,0.00519469,0.0024767488,-0.015135437,0.49313617,-1.371662,1.8915976,-2.088817,-1.5713953,2.4683442,-0.12335575,0.10583458,-0.13612673,0.030517949,-0.0060216757,-0.10814179,-0.19153613,0.28730422,-9.32781,0.7732232,47.64837,-1.1239082,-2.3944583,-3.2192693,-0.08003384,-0.09720665,-0.41504204,28.625,29.875,28.9375,32.75,35.125,36.125
0.19605212,-1.1214081,-1.0564152,-1.7066073,-0.037534624,0.09083513,-0.14375521,-0.39793047,-0.3660105,0.060029436,-3.077905,0.6251384,0.00013326266,-0.09057384,0.027427113,0.001184094,0.005248457,0.0014662235,-0.017243776,0.49290806,-1.3714215,1.8913091,-2.088733,-1.5714196,2.4681404,-0.12481125,0.106915794,-0.137085,0.031305686,-0.0055947662,-0.10748914,-0.3256114,0.21068975,-9.251195,0.7463667,47.66539,-1.1507165,-2.4695923,-3.1318262,-0.079764865,-0.09384245,-0.4371044,28.625,29.875,28.9375,32.75,35.125,36.125
0.19805215,-1.0825663,-1.0380273,-1.920203,-0.021527644,0.09473119,-0.13805532,-0.39812794,-0.36596432,0.060053732,-3.0779552,0.62516654,0.00020596388,-0.09241143,0.027301447,0.002297745,0.0038879716,0.0032407078,-0.016648518,0.49264404,-1.371241,1.8910335,-2.0887086,-1.5714077,2.4678876,-0.12642767,0.10745192,-0.14040129,0.031875994,-0.005234829,-0.109700605,-0.28730422,0.11492168,-9.404425,0.842603,47.65912,-1.1406854,-2.3922577,-3.2329142,-0.095838726,-0.10447803,-0.49858582,28.625,29.875,28.9375,32.75,35.125,36.125
0.20005211,-1.6369851,-0.93766224,-1.8405662,-0.005597993,0.08083479,-0.13076495,-0.3983116,-0.36590445,0.06003102,-3.0778954,0.62524784,0.00018283253,-0.092447616,0.02884293,0.0011793489,0.0051507005,0.00086429383,-0.014599197,0.4923917,-1.3709766,1.8907593,-2.0886605,-1.5714315,2.4676938,-0.12899688,0.10816222,-0.13882084,0.032269154,-0.0052257683,-0.114319555,-0.40222588,-0.038307227,-9.423578,0.784413,47.634937,-1.0348163,-2.408454,-3.2917309,-0.063216574,-0.10767276,-0.50668746,28.625,29.875,28.9375,32.75,35.125,36.125
0.20205575,-1.3579124,-0.16798721,-1.5778794,-0.0031806133,0.086492546,-0.13584019,-0.39848247,-0.36584935,0.06002391,-3.0778759,0.6251805,0.0001493902,-0.093500376,0.029737504,0.0005178693,0.006078825,0.00025675824,-0.0074309628,0.49215168,-1.3707479,1.8904842,-2.088577,-1.5714434,2.4674144,-0.13106368,0.11005156,-0.13954584,0.032071587,-0.0057677785,-0.12355281,-0.5363012,-0.114921674,-9.3661175,0.7866488,47.69763,-1.1143956,-2.30834,-3.3523898,-0.05593088,-0.10524923,-0.4241429,28.625,29.875,28.9375,32.75,35.125,36.125
0.20405191,-1.2162178,0.1615862,-1.4858184,0.012522326,0.098926015,-0.13655293,-0.39866138,-0.3657834,0.060014363,-3.0778823,0.62515473,9.2760434e-05,-0.093129,0.029676808,0.00034413382,0.006942048,0.000121515906,0.0034340927,0.49186447,-1.3705314,1.8902344,-2.088517,-1.5714201,2.4671104,-0.13013053,0.11022634,-0.13943471,0.032309536,-0.0064731133,-0.13348325,-0.49799395,-0.22984336,-9.461885,0.7978386,47.698532,-1.0898556,-2.457469,-3.4119327,-0.055929083,-0.12412244,-0.37095165,28.625,29.875,28.9375,32.75,35.125,36.125
0.20605192,-1.5067984,0.44301227,-1.7902176,0.028343307,0.09128383,-0.14025675,-0.39886862,-0.36572263,0.060031824,-3.0778413,0.62523884,0.00019347084,-0.095374815,0.03033008,0.00054175814,0.006821054,0.00072075165,0.008316014,0.49161178,-1.3703145,1.8899225,-2.0884564,-1.5714797,2.4669156,-0.13308348,0.112419106,-0.14260337,0.032685295,-0.0066552474,-0.1413165,-0.4405331,-0.3256114,-9.442732,0.7150385,47.70032,-0.99675936,-2.3774521,-3.4426649,-0.042113133,-0.09888674,-0.26359642,28.625,29.875,28.9375,32.75,35.125,36.125
0.208052,-1.4654171,-0.16702148,-1.6448835,0.042961374,0.09336934,-0.1338605,-0.39906558,-0.36566257,0.060021743,-3.0778434,0.62515813,0.00013506098,-0.094070666,0.03007056,0.00025544572,0.006929661,-0.000536084,0.014302677,0.49132514,-1.3700508,1.8896121,-2.0883725,-1.5714673,2.4665785,-0.13170898,0.11165772,-0.14118528,0.03318274,-0.0061621405,-0.14593017,-0.5554548,-0.3256114,-9.442732,0.82022345,47.696735,-1.1677773,-2.3549597,-3.5795252,-0.009947725,-0.12317726,-0.19940683,28.625,29.875,28.9375,32.75,35.125,36.125
0.21005207,-1.128246,0.5630608,-1.6468931,0.021938916,0.10551134,-0.1464758,-0.39926314,-0.36562577,0.060039673,-3.0778959,0.62513024,0.00021992289,-0.09555993,0.03062317,0.00025454094,0.0070678312,-0.00088687055,0.012981471,0.49108487,-1.3698456,1.8893241,-2.0883605,-1.5714673,2.4663143,-0.13394983,0.11352182,-0.14364564,0.034151293,-0.006112625,-0.14684923,-0.59376204,-0.34476504,-9.461885,0.79560274,47.683304,-1.140745,-2.3535862,-3.5134494,-0.012415201,-0.13811779,-0.15516883,28.625,29.875,28.9375,32.75,35.125,36.125
0.21205197,-1.3012233,0.36190864,-1.8456094,0.03530339,0.097664244,-0.13207516,-0.3994502,-0.36555037,0.060035743,-3.0778635,0.62508565,0.00017216266,-0.096941955,0.031080812,0.0010932687,0.007673995,-0.00052617,0.008932156,0.49079704,-1.3696172,1.889036,-2.0882518,-1.5714797,2.466003,-0.13546327,0.11423092,-0.14701523,0.03678047,-0.00682563,-0.14431052,-0.5554548,-0.28730422,-9.442732,0.82694155,47.695843,-1.1725938,-2.3052702,-3.4273424,-0.011689903,-0.14784059,-0.14679988,28.625,29.875,28.9375,32.75,35.125,36.125
0.214052,-0.6015722,0.20351017,-2.0217457,0.027753543,0.1071741,-0.14200202,-0.39965546,-0.36545524,0.060029887,-3.0777888,0.62509125,0.00021376504,-0.09768987,0.0317055,0.0017848895,0.008245398,-0.00021768722,0.003458647,0.49049726,-1.369389,1.8887609,-2.0881793,-1.5715526,2.4657164,-0.13671833,0.11384495,-0.14859155,0.038733304,-0.007476577,-0.14009029,-0.45968673,-0.24899697,-9.461885,0.8806493,47.691364,-1.0787504,-2.2908027,-3.3823009,-0.03832019,-0.13693132,-0.22366023,28.625,29.875,28.9375,32.75,35.125,36.125
0.21605198,-0.9635312,-0.067528024,-1.9525125,0.011080154,0.094075136,-0.12873363,-0.39982927,-0.36538813,0.060019955,-3.0777402,0.6251821,0.00012589003,-0.099992566,0.03351032,0.00057332916,0.0098649245,-0.0016531778,-0.0068660574,0.49022016,-1.3691596,1.8884853,-2.0880716,-1.5715402,2.4655023,-0.14129235,0.117761925,-0.15055168,0.03881272,-0.008240111,-0.13433626,-0.61291564,-0.11492168,-9.481039,0.73741806,47.703007,-0.9639125,-2.3776174,-3.3802772,-0.04499355,-0.11966277,-0.2743032,28.625,29.875,28.9375,32.75,35.125,36.125
0.2180519,-1.7846527,-1.1394138,-2.1398845,0.009552977,0.08473402,-0.122059666,-0.40003955,-0.36534864,0.06003931,-3.0777824,0.625131,0.00015386153,-0.09958085,0.033157837,0.0012999036,0.009769384,-0.0015209456,-0.0071035065,0.4899571,-1.3689196,1.8881387,-2.0879986,-1.5715283,2.465202,-0.14027543,0.11668132,-0.15132104,0.040501557,-0.008212166,-0.1330823,-0.6703765,0.0,-9.481039,0.9321212,47.692257,-1.0689709,-2.2228966,-3.4298885,-0.056265082,-0.12406868,-0.32127142,28.625,29.875,28.9375,32.75,35.125,36.125
0.22005178,-1.5625205,-1.0345774,-2.214685,-0.0006972782,0.10167715,-0.13200255,-0.4002441,-0.36526847,0.060032066,-3.0777464,0.62518036,0.00013345285,-0.09941614,0.033687893,0.00017068842,0.0120861,-0.0051000714,-0.0076959813,0.48964572,-1.3686786,1.8878511,-2.0879261,-1.5715402,2.4649262,-0.14072484,0.11957677,-0.15289707,0.04342778,-0.008575187,-0.1329375,-0.59376204,0.05746084,-9.634268,0.79560274,47.690468,-1.0714011,-2.425242,-3.3639112,-0.091948085,-0.11429623,-0.3374455,28.625,29.875,28.9375,32.75,35.125,36.125
0.22205268,-0.5918007,-0.9680189,-2.356198,-0.02431838,0.12170599,-0.14449243,-0.4004228,-0.36520693,0.060028974,-3.0777073,0.6251716,5.6818542e-05,-0.099964574,0.034587387,0.000113244074,0.013969098,-0.006976597,-0.009092011,0.48938188,-1.3684378,1.8875407,-2.0877936,-1.5715407,2.464662,-0.1421807,0.12085661,-0.15510346,0.046896406,-0.00936287,-0.13299443,-0.45968673,0.13407528,-9.710882,0.8784135,47.690468,-1.0786078,-2.1997533,-3.4659367,-0.11800599,-0.12911275,-0.36786845,28.625,29.875,28.9375,32.75,35.125,36.125
0.22405267,-1.630319,-1.8526257,-2.0989165,-0.032843765,0.10229088,-0.12374986,-0.40066504,-0.36510444,0.060041673,-3.0776067,0.62528336,0.00017588538,-0.10064414,0.034195818,-0.00040798626,0.014842845,-0.009482342,-0.0068517523,0.4890587,-1.3681962,1.8872045,-2.0877087,-1.5716485,2.4644217,-0.14230609,0.124701545,-0.15917404,0.0497237,-0.008963505,-0.13535914,-0.4405331,0.21068975,-9.672575,0.8627467,47.73077,-1.173984,-2.2858715,-3.3021889,-0.18313497,-0.12808192,-0.3973614,28.625,29.875,28.9375,32.75,35.125,36.125
0.22605269,-1.2664653,-1.0795289,-2.0496545,-0.060086057,0.093580246,-0.14477389,-0.40084696,-0.36505035,0.060040344,-3.0776079,0.6252607,8.073099e-05,-0.10183303,0.034614377,-0.00059841323,0.015089992,-0.00854005,-0.0025027592,0.4887827,-1.3679556,1.8868932,-2.0875895,-1.5716132,2.4641316,-0.14359176,0.12602048,-0.16008951,0.048604254,-0.009643396,-0.14099133,-0.3256114,0.22984336,-9.595961,0.8179876,47.691364,-1.1435043,-2.3847773,-3.3683338,-0.17987278,-0.12291067,-0.3462586,28.625,29.875,28.9375,32.75,35.125,36.125
0.22805217,-0.53839433,-2.0622835,-2.2907295,-0.0465344,0.09080957,-0.13757515,-0.40108374,-0.36496484,0.060051184,-3.0775762,0.62524736,0.000192549,-0.102790736,0.034881268,-0.0004625433,0.015819045,-0.008152346,0.0056791594,0.48847112,-1.367715,1.8865703,-2.0875409,-1.5716852,2.463816,-0.14430656,0.12723619,-0.16203815,0.049318485,-0.010477146,-0.1498858,-0.17238252,0.30645782,-9.519346,0.85826975,47.71017,-1.1667315,-2.3764079,-3.212882,-0.19019361,-0.08769822,-0.2754226,28.625,29.875,28.9375,32.75,35.125,36.125
0.23005213,-0.1798943,-1.7472894,-1.8762314,-0.06663473,0.075352974,-0.1369634,-0.4012855,-0.36491296,0.06006572,-3.0775943,0.62516725,0.00016358223,-0.10336333,0.03462543,-0.00033060144,0.014843784,-0.009158859,0.01415414,0.48819542,-1.3674743,1.8862227,-2.0874212,-1.5716728,2.463488,-0.1451343,0.12846242,-0.1641184,0.05058945,-0.00915727,-0.15919037,-0.05746084,0.3256114,-9.461885,0.7866488,47.690468,-1.2114472,-2.3310945,-3.2442756,-0.23678178,-0.11158602,-0.17535606,28.625,29.875,28.9375,32.75,35.125,36.125
0.23205222,-0.3612182,-2.0107102,-1.7141213,-0.057819158,0.048702754,-0.13489495,-0.40150854,-0.3648255,0.060062878,-3.0775557,0.62517864,0.00018338926,-0.10582779,0.035180695,0.00030582526,0.014210794,-0.00703065,0.014413593,0.4878711,-1.3672217,1.8859113,-2.0873497,-1.571709,2.463176,-0.14791505,0.12979135,-0.16704907,0.05000469,-0.009612402,-0.1622282,-0.076614454,0.36391866,-9.481039,0.7665104,47.687782,-1.10949,-2.38871,-3.202968,-0.2395339,-0.1255006,-0.0827463,28.625,29.875,28.9375,32.75,35.125,36.125
0.23405214,0.48675275,-1.448006,-1.6980984,-0.057027705,0.06062666,-0.13499692,-0.40174982,-0.3647626,0.060066126,-3.07752,0.62517,0.00019974035,-0.10597305,0.036107026,-0.0013780989,0.015835866,-0.009053132,0.013524344,0.48757154,-1.3669087,1.8855056,-2.087242,-1.5717448,2.4628758,-0.14921074,0.1323329,-0.16607581,0.04903094,-0.010107341,-0.1626334,-0.095768064,0.4213795,-9.404425,0.85826975,47.678825,-1.2106091,-2.3471255,-3.2671952,-0.2587812,-0.10355292,-0.047959518,28.625,29.875,28.9375,32.75,35.125,36.125
0.23605217,0.16247521,-1.4028239,-1.8838913,-0.04057216,0.045901794,-0.12942311,-0.40197942,-0.36471665,0.060087316,-3.077607,0.6251132,0.00022093182,-0.106773704,0.03636543,-0.0017261717,0.015350765,-0.010014535,0.0067960713,0.48725963,-1.366668,1.8851589,-2.0871937,-1.5716971,2.4625175,-0.15082066,0.1339617,-0.16731644,0.049271688,-0.00922299,-0.15751682,-0.05746084,0.36391866,-9.385271,0.7620334,47.70032,-1.0105274,-2.3591738,-3.2301672,-0.2524045,-0.09038436,-0.09256011,28.625,29.875,28.9375,32.75,35.125,36.125
0.23805185,0.21660593,-1.5201949,-1.6382377,-0.032898616,0.038115364,-0.1295712,-0.40217894,-0.36464626,0.060080882,-3.0775447,0.625027,0.00024679062,-0.10825715,0.036909085,-0.000827251,0.013937256,-0.008493571,-0.0025927445,0.4870072,-1.3664037,1.8848361,-2.0870984,-1.5717686,2.4622195,-0.15331429,0.13329753,-0.16857699,0.04918259,-0.008693895,-0.15062213,0.095768064,0.3256114,-9.270349,0.8090337,47.704796,-0.96875584,-2.4088376,-3.2472363,-0.28267884,-0.10073115,-0.14544553,28.625,29.875,28.9375,32.75,35.125,36.125
0.24005188,0.07869637,-1.6807401,-1.4051965,-0.031678744,0.034965046,-0.12748949,-0.4024272,-0.36456692,0.060091667,-3.0775304,0.62512136,0.00028361368,-0.10838267,0.03714733,-0.0031259547,0.015323466,-0.011865296,-0.0081102885,0.48665974,-1.3661376,1.8844775,-2.0870273,-1.5717806,2.461933,-0.15395336,0.13807149,-0.16891176,0.048371214,-0.008343484,-0.1457437,-0.019153614,0.3256114,-9.174581,0.7665104,47.67614,-0.966409,-2.5860548,-3.3284338,-0.281427,-0.110633984,-0.2455751,28.625,29.875,28.9375,32.75,35.125,36.125
0.24205181,0.4637281,-1.1280609,-1.1058322,-0.03581173,0.051818155,-0.13448766,-0.40260276,-0.3644842,0.060059942,-3.0774426,0.62512684,0.00014800712,-0.109848745,0.037257988,-0.0013950869,0.0131974155,-0.009311101,-0.016184147,0.48637128,-1.3658623,1.8841904,-2.0868952,-1.571792,2.4616592,-0.15578876,0.13626884,-0.1708294,0.048840024,-0.007678922,-0.1395054,-0.05746084,0.22984336,-9.059659,0.8403672,47.70032,-0.9428169,-2.3812475,-3.3322155,-0.28951597,-0.12639745,-0.32631913,28.625,29.875,28.9375,32.75,35.125,36.125
0.24405405,-0.22908655,-0.7024934,-0.8784472,-0.01326672,0.043212432,-0.12708035,-0.40285608,-0.36441946,0.060088787,-3.0774422,0.6252407,0.00018813365,-0.11043644,0.03698774,-0.0017101886,0.013001808,-0.009467894,-0.018621879,0.48603675,-1.3655974,1.8837837,-2.0867875,-1.571792,2.461396,-0.15591605,0.13808604,-0.17223796,0.04847785,-0.007435076,-0.13719498,0.076614454,0.019153614,-9.021352,0.84484416,47.719128,-1.1962907,-2.3823514,-3.4020877,-0.2913635,-0.12887746,-0.3581115,28.625,29.875,28.9375,32.75,35.125,36.125
0.24605194,0.13097724,-0.4886714,-1.1008945,0.015614897,0.049140964,-0.1326227,-0.40309682,-0.36436164,0.060085088,-3.0774424,0.62531704,0.00021560177,-0.11207044,0.03606455,-0.0011497713,0.010518131,-0.006243635,-0.021137815,0.48572525,-1.3652968,1.8834246,-2.0867527,-1.571792,2.4611323,-0.15615204,0.13909942,-0.17403272,0.04524619,-0.0067550982,-0.1349157,0.038307227,-0.076614454,-8.90643,0.8537928,47.72002,-1.1776917,-2.42839,-3.3001869,-0.26147068,-0.12772207,-0.47957772,28.625,29.875,28.9375,32.75,35.125,36.125
0.24805212,0.0064839767,0.13187043,-0.79588866,0.019155685,0.047107663,-0.13060765,-0.4033058,-0.36429355,0.060072176,-3.0774233,0.6253689,0.00019796778,-0.11275391,0.036506236,-0.0026433174,0.0113699855,-0.008170584,-0.019547602,0.48542497,-1.3650309,1.8831252,-2.0867054,-1.571792,2.460867,-0.15750553,0.14264356,-0.17475048,0.044516142,-0.0066198087,-0.1378588,0.038307227,-0.019153614,-8.848969,0.8940802,47.674347,-1.0965521,-2.491403,-3.3968742,-0.2515796,-0.14969316,-0.50507635,28.625,29.875,28.9375,32.75,35.125,36.125
0.25004256,0.09601891,0.13292721,-1.0437384,0.046245858,0.043483067,-0.12156735,-0.40352303,-0.36421144,0.06006488,-3.0773568,0.6254258,0.00012232547,-0.11493678,0.03678831,-0.00059103896,0.009147856,-0.003304029,-0.012790264,0.48510134,-1.3647437,1.8827657,-2.086562,-1.5718039,2.4605875,-0.15962932,0.14035517,-0.17638816,0.043089014,-0.0069510406,-0.14673845,0.0,-0.095768064,-8.887277,0.8918391,47.682407,-1.0942936,-2.3514442,-3.1827636,-0.24254742,-0.15350349,-0.46929494,28.625,29.875,28.9375,32.75,35.125,36.125
0.2520527,-0.14089681,0.321201,-1.2497119,0.044974457,0.025635585,-0.13161615,-0.40374953,-0.36415255,0.060071852,-3.0773792,0.62538534,0.00014709111,-0.11645649,0.036951587,0.0005882898,0.00792256,-0.0017920266,-0.0026843813,0.48480126,-1.3644795,1.88242,-2.0865018,-1.5718039,2.4602594,-0.16139054,0.14006928,-0.17897296,0.044034928,-0.0065830313,-0.15860577,0.11492168,-0.1340753,-8.963891,0.77545905,47.667187,-0.97544235,-2.344619,-3.250533,-0.22953287,-0.16612434,-0.35602736,28.625,29.875,28.9375,32.75,35.125,36.125
0.2540441,0.31264043,0.068978086,-1.2772138,0.021408282,0.04878621,-0.1378924,-0.4039645,-0.36405706,0.06005027,-3.077322,0.62538695,9.838532e-05,-0.11890549,0.037352886,0.0013898895,0.0075104553,0.0010881831,0.0054670246,0.48446518,-1.3642031,1.882119,-2.0864184,-1.5718282,2.4599319,-0.16353345,0.14119236,-0.18197651,0.04316123,-0.007587941,-0.16889614,-0.24899697,-0.076614454,-9.174581,0.84484416,47.65912,-0.9841454,-2.1352382,-3.212523,-0.2303382,-0.17646755,-0.27069426,28.625,29.875,28.9375,32.75,35.125,36.125
0.25604188,-0.5596533,-0.40491977,-1.3859314,-0.004781501,0.06564489,-0.13779794,-0.40421385,-0.36399162,0.06007293,-3.0773122,0.62538165,0.00010639049,-0.12108653,0.037167143,0.0023553092,0.0070007364,0.004321409,0.009520084,0.4841418,-1.3639139,1.881689,-2.0862749,-1.5718406,2.4596066,-0.16440032,0.14236028,-0.18541512,0.04232718,-0.008656475,-0.17381218,-0.38307226,0.038307227,-9.251195,0.7105615,47.690468,-0.95393616,-2.185705,-3.184825,-0.21315758,-0.1307487,-0.1834029,28.625,29.875,28.9375,32.75,35.125,36.125
0.2580522,-1.4124043,-0.7617416,-1.6605871,-0.021122782,0.090083666,-0.13842748,-0.40444115,-0.36391243,0.06006591,-3.077266,0.6253141,8.003597e-05,-0.12128775,0.038182262,0.0015513913,0.008319508,0.002348411,0.008904021,0.48382947,-1.3636136,1.881318,-2.0861542,-1.5718764,2.4592583,-0.16603138,0.14364733,-0.18540807,0.043384183,-0.008912987,-0.17482612,-0.61291564,0.05746084,-9.346964,0.8717007,47.67166,-0.9613658,-2.119943,-3.3831258,-0.19748309,-0.15518433,-0.14207721,28.625,29.875,28.9375,32.75,35.125,36.125
0.26004434,-1.6021605,-1.1811776,-1.8657572,-0.033041388,0.12977177,-0.124724105,-0.4046492,-0.36380845,0.060022593,-3.0771763,0.62529606,-9.7762146e-05,-0.120478466,0.038290054,0.00047423347,0.008846956,-0.0010016497,0.00482578,0.4834708,-1.3632888,1.8809947,-2.0860107,-1.5718764,2.4589,-0.16606726,0.1452104,-0.18520463,0.044826668,-0.0078408,-0.17078517,-0.6512229,0.095768064,-9.672575,0.8717007,47.67793,-1.172178,-2.2232487,-3.4054813,-0.2095705,-0.17010382,-0.185601,28.625,29.875,28.9375,32.75,35.125,36.125
0.26204106,-2.5480564,-1.7618926,-2.2207494,-0.047989715,0.132852,-0.13127212,-0.40489048,-0.36375225,0.060033668,-3.0772197,0.6252879,-8.299505e-05,-0.12098861,0.037661325,0.00047260508,0.008508164,-0.0008217734,-0.0019408541,0.48314774,-1.363012,1.8806242,-2.0859506,-1.5718516,2.4585664,-0.16550367,0.14684503,-0.18721177,0.04489185,-0.0076173153,-0.16345483,-0.7469909,0.05746084,-9.80665,0.8873621,47.713753,-1.1496296,-2.205734,-3.386674,-0.22170994,-0.19235234,-0.25735354,28.625,29.875,28.9375,32.75,35.125,36.125
0.2640526,-1.6486114,-1.2849629,-2.1817105,-0.063851774,0.1579035,-0.14376374,-0.40512815,-0.3636622,0.06002098,-3.077151,0.6252347,-8.461441e-05,-0.121646374,0.03805757,-7.064763e-05,0.009324465,-0.00086397055,-0.004851227,0.48282382,-1.362699,1.8802537,-2.0858433,-1.5719122,2.4582183,-0.16621724,0.14845029,-0.18780802,0.04429231,-0.0083308015,-0.16125546,-0.7086837,0.1340753,-9.940725,0.86498255,47.70211,-1.1506416,-2.190806,-3.3244414,-0.21918783,-0.18810086,-0.32479933,28.625,29.875,28.9375,32.75,35.125,36.125
0.2660443,-2.474376,-1.6073108,-2.4064,-0.060441107,0.1310527,-0.12672725,-0.40537885,-0.36359876,0.060024794,-3.0771406,0.6253278,-0.00010074053,-0.12218488,0.037618257,-0.0012056913,0.009465163,-0.001363889,-0.005825504,0.4824886,-1.3623853,1.8798474,-2.0857484,-1.5719002,2.4579427,-0.16591659,0.1517295,-0.18880402,0.042517733,-0.008230623,-0.15997986,-0.7469909,0.19153613,-9.998186,0.784413,47.689575,-1.2343993,-2.4680123,-3.41778,-0.19469506,-0.17603672,-0.36468586,28.625,29.875,28.9375,32.75,35.125,36.125
0.26805356,-1.8904701,-0.9914956,-2.4554095,-0.07056165,0.12988837,-0.15533142,-0.40562817,-0.3635242,0.060042843,-3.0771418,0.62519336,2.7591195e-05,-0.1244035,0.038744107,-0.0007548449,0.009288906,0.0004349253,-0.008523493,0.48218805,-1.3621212,1.8794764,-2.0856888,-1.5719727,2.4575584,-0.16924582,0.15240547,-0.19053023,0.04188041,-0.008908585,-0.16060914,-0.80445176,0.11492168,-9.959879,0.8873621,47.72808,-1.0788635,-2.2277503,-3.4054775,-0.17752478,-0.19875795,-0.3775723,28.625,29.875,28.9375,32.75,35.125,36.125
0.27002144,-1.3556156,-1.3735205,-2.4501464,-0.045471262,0.12364002,-0.13222496,-0.40588072,-0.36346096,0.06002644,-3.077136,0.6252262,-3.002481e-06,-0.12542306,0.040058848,-0.0017336351,0.010434337,-0.0005947062,-0.0053174766,0.48185194,-1.3617724,1.8790816,-2.0856287,-1.5719608,2.4572437,-0.17190419,0.15434249,-0.19057766,0.041428067,-0.009457086,-0.16647181,-0.5554548,0.095768064,-9.959879,0.7642693,47.67793,-1.1930956,-2.3556137,-3.5607486,-0.14413686,-0.17453137,-0.34700954,28.625,29.875,28.9375,32.75,35.125,36.125
0.27204487,-1.2950832,-0.853229,-2.4971685,-0.038121536,0.096436396,-0.13848418,-0.40615875,-0.3633789,0.060047988,-3.0771513,0.62533796,6.6411216e-05,-0.12576759,0.038771156,-0.0019814274,0.0104983775,-0.0005452627,0.0047033783,0.48146948,-1.361495,1.8786863,-2.0855691,-1.5719608,2.4569292,-0.16988233,0.1572126,-0.19350442,0.041457757,-0.009542975,-0.17446971,-0.5554548,0.05746084,-10.055647,0.86498255,47.70211,-1.2966506,-2.5054865,-3.4793744,-0.13785797,-0.18405679,-0.2906995,28.625,29.875,28.9375,32.75,35.125,36.125
0.274041,-0.6804287,-0.41666743,-2.0596905,-0.0360077,0.09347827,-0.15666205,-0.40638158,-0.36329404,0.060036965,-3.0771184,0.6252475,2.7475942e-05,-0.12624605,0.038764488,-0.002601263,0.010788482,-0.0017949273,0.014720022,0.481146,-1.3612059,1.8783401,-2.0854614,-1.5719851,2.4565537,-0.17038216,0.15949944,-0.1949746,0.04186183,-0.009245063,-0.18498568,-0.49799395,0.095768064,-9.883265,0.9254084,47.685097,-1.257821,-2.5197346,-3.5026424,-0.11874067,-0.19118653,-0.17738369,28.625,29.875,28.9375,32.75,35.125,36.125
0.27605245,-1.2600693,-0.51134545,-2.070056,-0.021432498,0.07417828,-0.13893446,-0.40667215,-0.3632069,0.060044136,-3.077103,0.62527925,0.00012653071,-0.12584893,0.039494675,-0.004755439,0.0133921765,-0.0056993044,0.019587189,0.48077372,-1.3608806,1.8779224,-2.0854127,-1.5720328,2.4562035,-0.17083153,0.16325663,-0.19480209,0.042581044,-0.009745273,-0.19030105,-0.4213795,0.15322891,-9.749189,0.78888994,47.65912,-1.3607903,-2.5507386,-3.565792,-0.09458064,-0.18220074,-0.074829094,28.625,29.875,28.9375,32.75,35.125,36.125
0.27804422,-1.1760447,-0.7716687,-2.0117712,-0.008733093,0.0670594,-0.14291768,-0.40691254,-0.3631275,0.06003111,-3.0770984,0.6251844,0.000109691784,-0.12836385,0.039796077,-0.0016273853,0.010904064,-4.8305792e-05,0.01612771,0.48043707,-1.36057,1.8775629,-2.0853412,-1.5720452,2.4558084,-0.1731836,0.1597608,-0.19783798,0.042949203,-0.010163359,-0.18919198,-0.17238252,0.19153613,-9.634268,0.8537928,47.696735,-1.3007873,-2.4867125,-3.5880954,-0.08289862,-0.1850524,-0.06697493,28.625,29.875,28.9375,32.75,35.125,36.125
0.28004184,-0.49774674,-0.6028397,-1.8189625,-0.021462463,0.06643108,-0.14329162,-0.40721408,-0.36304986,0.060065385,-3.0771105,0.625249,0.00024406955,-0.12993824,0.040062495,-0.0013978482,0.010252723,6.8211457e-06,0.0074741854,0.48006427,-1.3602695,1.877108,-2.0852692,-1.572081,2.4554746,-0.17523243,0.16149232,-0.20064564,0.043672208,-0.009595985,-0.1825883,-0.076614454,0.076614454,-9.5385,0.83589023,47.687782,-1.2465968,-2.5361297,-3.6429412,-0.058867253,-0.17455167,-0.0998773,28.625,29.875,28.9375,32.75,35.125,36.125
0.28205222,0.09796133,-0.405961,-1.5524752,-0.026025377,0.04926744,-0.13901883,-0.40745977,-0.36297557,0.06006841,-3.07708,0.62515444,0.00020699631,-0.13207638,0.041603707,-0.0017333691,0.011001607,-0.0005013995,-0.0051697437,0.47973892,-1.3599448,1.876676,-2.0851133,-1.5721048,2.4550943,-0.17931439,0.16378914,-0.20285036,0.04438269,-0.010031334,-0.1740238,-0.1340753,0.05746084,-9.442732,0.90750587,47.71286,-1.1646308,-2.4607315,-3.4554114,-0.03911125,-0.1825069,-0.19463846,28.625,29.875,28.9375,32.75,35.125,36.125
0.28404465,0.0055318475,-0.8612053,-1.3418638,-0.010235319,0.033907887,-0.14067739,-0.4077281,-0.3628993,0.060065556,-3.0770795,0.6252129,0.00028655297,-0.13369356,0.041185673,-0.00073367305,0.01013226,0.0015230416,-0.010832263,0.479391,-1.3596331,1.876305,-2.085101,-1.5721291,2.4547832,-0.17981671,0.16471677,-0.20637174,0.04477957,-0.010189727,-0.1688624,-0.1340753,0.038307227,-9.346964,0.8560339,47.67614,-1.2432437,-2.5275774,-3.3163905,-0.028736444,-0.19372693,-0.26264602,28.625,29.875,28.9375,32.75,35.125,36.125
0.2860409,0.3308543,-0.080697425,-1.5858743,-0.012951615,0.025511516,-0.14261068,-0.40799928,-0.36284015,0.06006669,-3.077076,0.62523395,0.00028646976,-0.13484445,0.041082367,0.00069843186,0.009212568,0.004135842,-0.0165788,0.47905484,-1.3592739,1.8758491,-2.085005,-1.5721296,2.4544609,-0.1802917,0.16361018,-0.20844743,0.045224786,-0.0105777355,-0.16358952,-0.076614454,0.15322891,-9.385271,0.82022345,47.67345,-1.1851252,-2.3772779,-3.309594,0.001743732,-0.17960136,-0.3745261,28.625,29.875,28.9375,32.75,35.125,36.125
0.28805214,0.6232749,0.061909914,-1.2853769,-0.015637385,0.036567397,-0.15205128,-0.40829837,-0.36273488,0.06009405,-3.077031,0.62541765,0.0003871149,-0.13564987,0.041775513,0.0006993657,0.009608672,0.0029383444,-0.02024697,0.47864598,-1.3589855,1.8754185,-2.0849082,-1.5721768,2.4541726,-0.18215111,0.16471784,-0.21026112,0.047166277,-0.010368474,-0.16178112,-0.076614454,0.22984336,-9.385271,0.85826975,47.685097,-1.1388806,-2.3053946,-3.2711074,0.0047412347,-0.19744565,-0.45999455,28.625,29.875,28.9375,32.75,35.125,36.125
0.290044,-0.5877914,-0.95707077,-1.4840571,-0.009269825,0.028475666,-0.14243819,-0.40854543,-0.36265123,0.06007342,-3.076993,0.6253698,0.0003236521,-0.13642234,0.04231456,0.0015310204,0.008995709,0.0024460186,-0.018413512,0.4782974,-1.3586382,1.8750232,-2.0848,-1.5721887,2.4537992,-0.18407871,0.1642331,-0.21219878,0.04973011,-0.009609726,-0.16554302,-0.11492168,0.24899697,-9.308656,0.8179876,47.691364,-1.0384452,-2.2324653,-3.28609,-0.002486813,-0.19729865,-0.4821855,28.625,29.875,28.9375,32.75,35.125,36.125
0.2920419,-0.91742754,-0.607224,-1.472348,-0.026389413,0.047318615,-0.15091066,-0.4088295,-0.36254326,0.06006448,-3.0769064,0.6254419,0.00036311673,-0.13719214,0.042918608,0.0013549868,0.009279081,0.0003239088,-0.008426402,0.47791252,-1.3582896,1.8746027,-2.0847037,-1.5722603,2.4534707,-0.18606955,0.16596195,-0.21450949,0.052290622,-0.008900236,-0.17752165,-0.13407528,0.114921674,-9.212888,0.86498255,47.661808,-0.92633736,-2.3576646,-3.1928973,-0.022180345,-0.19527167,-0.38365948,28.625,29.875,28.9375,32.75,35.125,36.125
0.2940524,-1.4226913,-1.1503263,-1.420752,-0.020424102,0.060937718,-0.15366186,-0.40908042,-0.36246705,0.060084257,-3.0769362,0.6253846,0.00033546568,-0.13784763,0.04426037,0.001023836,0.010519606,-0.002087573,0.0019009258,0.4775516,-1.3580134,1.8741955,-2.0845706,-1.5722364,2.4530704,-0.1887654,0.16713203,-0.21585302,0.0551578,-0.008903773,-0.19054441,-0.095768064,0.05746084,-9.251195,0.8627467,47.68599,-0.97968113,-2.2513094,-3.281589,-0.02363356,-0.21247862,-0.2771861,28.625,29.875,28.9375,32.75,35.125,36.125
0.29604462,-1.2653,-0.73131865,-1.3880824,-0.026007017,0.08237328,-0.15551016,-0.4093569,-0.36238196,0.060107168,-3.0769439,0.6253802,0.00034577478,-0.13656609,0.0442419,0.0011796933,0.01133959,-0.0042149383,0.009942025,0.4771684,-1.3577143,1.8737534,-2.0844376,-1.5722364,2.4526837,-0.1876425,0.16621241,-0.2158622,0.05833861,-0.008654755,-0.19746372,-0.2681506,0.095768064,-9.232041,0.7777002,47.683304,-1.1034827,-2.033272,-3.352848,-0.075717784,-0.21829218,-0.16871968,28.625,29.875,28.9375,32.75,35.125,36.125
0.29804108,-1.1286287,-0.68701303,-1.2965404,-0.015047011,0.0845995,-0.14483576,-0.40963748,-0.3623052,0.06010631,-3.0769477,0.62532455,0.00032875323,-0.13841599,0.044376213,0.0022303998,0.010584078,-0.0038345882,0.00890122,0.47679573,-1.3573542,1.8732976,-2.0843294,-1.5722364,2.452276,-0.18964428,0.16742289,-0.22034095,0.060916107,-0.008168534,-0.19842423,-0.24899697,0.05746084,-9.270349,0.90750587,47.674347,-1.0200331,-2.0041256,-3.3004737,-0.09717867,-0.2392886,-0.12970442,28.625,29.875,28.9375,32.75,35.125,36.125
0.30005234,-1.3213427,-0.55287206,-1.373693,0.005141253,0.06233136,-0.13435584,-0.40994072,-0.3622102,0.060116827,-3.0769212,0.62539893,0.00036397352,-0.13819233,0.04468872,0.0017232918,0.011674449,-0.005265314,0.0031913165,0.47638783,-1.3570062,1.8728303,-2.0842211,-1.5722603,2.4519181,-0.1896459,0.16840518,-0.22067916,0.06204556,-0.008475443,-0.19271521,-0.38307226,0.019153614,-9.2703495,0.83589023,47.681515,-1.0523555,-1.9596992,-3.2502034,-0.1190941,-0.24252471,-0.17541061,28.625,29.875,28.9375,32.75,35.125,36.125
0.30204538,-0.33442092,0.35336205,-1.443825,0.01851318,0.07243639,-0.14663544,-0.41019994,-0.3621224,0.060105823,-3.0769,0.6253771,0.0003134903,-0.13603494,0.045540478,-0.0015507975,0.016298242,-0.013011836,-0.0027353999,0.4760161,-1.3566688,1.8724245,-2.0841124,-1.5722607,2.4515357,-0.18874161,0.17294404,-0.21951081,0.065351956,-0.009030051,-0.1858825,-0.61291564,-0.095768064,-9.251195,0.8672237,47.703007,-1.1991131,-2.1555445,-3.4061654,-0.15553524,-0.22447176,-0.24686271,28.625,29.875,28.9375,32.75,35.125,36.125
0.3040421,-0.67489594,0.43046734,-1.4040427,0.024425287,0.06811639,-0.14205582,-0.41046393,-0.3620197,0.060086656,-3.076812,0.6253985,0.0002705735,-0.13614583,0.04526939,-0.0021792862,0.016764427,-0.015135007,-0.006093179,0.47564435,-1.3563086,1.8720044,-2.0839803,-1.5723084,2.4511888,-0.18859713,0.17550243,-0.22158644,0.06696171,-0.008489899,-0.18238002,-0.47884035,-0.1340753,-9.308657,0.88960326,47.694946,-1.3760962,-2.1098495,-3.4512858,-0.2010887,-0.25411677,-0.31607652,28.625,29.875,28.9375,32.75,35.125,36.125
0.30605263,-0.60507244,0.2731521,-1.5942093,0.027927922,0.071645275,-0.14203574,-0.41074145,-0.36196864,0.060129292,-3.0768874,0.6253172,0.00029083143,-0.13701156,0.044502478,-0.0015240642,0.015707692,-0.0135658765,-0.006126395,0.47529662,-1.3560083,1.8715132,-2.0838363,-1.5722727,2.4507809,-0.18806928,0.17624596,-0.22396186,0.06671878,-0.0082724085,-0.181819,-0.36391866,-0.076614454,-9.308656,0.8806493,47.694946,-1.6039417,-2.1851056,-3.4686284,-0.2056203,-0.25473478,-0.38668653,28.625,29.875,28.9375,32.75,35.125,36.125
0.30804455,-1.2543609,-0.36542356,-1.5738417,0.024247777,0.064793,-0.1503772,-0.41101116,-0.3618608,0.06011324,-3.076798,0.6253368,0.00024501397,-0.1368502,0.045428507,-0.0026501503,0.018219529,-0.01715777,-0.0055014747,0.47491217,-1.3556479,1.8710827,-2.0836914,-1.5723208,2.4504204,-0.18898505,0.17869858,-0.22509837,0.06973382,-0.008881879,-0.18335705,-0.17238252,0.038307227,-9.232041,0.83813137,47.694946,-1.5314441,-2.3766313,-3.4500928,-0.2397742,-0.25712314,-0.38938332,28.625,29.875,28.9375,32.75,35.125,36.125
0.310041,-0.6093699,-0.7355899,-1.4493796,-0.0052090297,0.0813885,-0.14684589,-0.41128567,-0.3617291,0.060069267,-3.0766716,0.62534493,0.00015401012,-0.1382578,0.046970207,-0.0029784827,0.01988325,-0.01962138,0.00025625154,0.4744911,-1.3552517,1.870675,-2.0835588,-1.5723809,2.4500208,-0.19241342,0.18104835,-0.22804298,0.073252276,-0.009277383,-0.19253998,-0.21068975,0.095768064,-9.232041,0.7911258,47.681515,-1.4451168,-2.252431,-3.4879837,-0.31506565,-0.25960654,-0.32835484,28.625,29.875,28.9375,32.75,35.125,36.125
0.31205162,-0.79450285,-1.1742271,-1.4888824,-0.024673847,0.06958531,-0.14685647,-0.41156352,-0.36164862,0.060090847,-3.0766833,0.62536037,8.8576875e-05,-0.14075138,0.046880357,-0.0019862761,0.018083857,-0.015690465,0.009786146,0.4740944,-1.3549275,1.8701948,-2.08338,-1.5723447,2.4496324,-0.19414018,0.18177322,-0.23067424,0.07082636,-0.009511019,-0.20379476,-0.19153613,0.076614454,-9.270349,0.89631605,47.650166,-1.2984946,-2.3857446,-3.4355812,-0.31851476,-0.26913938,-0.21736017,28.625,29.875,28.9375,32.75,35.125,36.125
0.31404433,-0.23119512,-1.065995,-1.3739548,-0.045242038,0.07652048,-0.16083017,-0.41185743,-0.36154774,0.060104378,-3.0766475,0.62529385,0.00014417995,-0.14218359,0.048715904,-0.0023426379,0.020145796,-0.014832467,0.013068525,0.4737093,-1.3545917,1.8697294,-2.0832484,-1.5724057,2.4492106,-0.19693966,0.18250974,-0.23067535,0.070250556,-0.011754968,-0.20987059,-0.11492168,0.19153613,-9.251195,0.87617236,47.65912,-1.2291758,-2.2344582,-3.3360279,-0.34222722,-0.26645672,-0.08500877,28.625,29.875,28.9375,32.75,35.125,36.125
0.31604156,-0.3543693,-1.3401325,-1.4063096,-0.04036817,0.070530854,-0.15124647,-0.41211993,-0.36145452,0.060093533,-3.0765965,0.6251884,9.155233e-05,-0.1440686,0.048693877,-0.0012604864,0.017977329,-0.011469256,0.010234073,0.4733489,-1.3542322,1.8692855,-2.083094,-1.5724415,2.4487913,-0.19862628,0.18210827,-0.23225245,0.06823634,-0.011387619,-0.20872252,-0.24899697,0.21068975,-9.251195,0.83589023,47.701214,-1.2227039,-2.2517748,-3.4546957,-0.34520677,-0.25193065,-0.092007816,28.625,29.875,28.9375,32.75,35.125,36.125
0.31805196,-1.086864,-1.5222272,-1.6554645,-0.027601987,0.044207234,-0.13374636,-0.4124314,-0.36136216,0.060101695,-3.076574,0.62516886,9.749278e-05,-0.1455251,0.048445772,-0.0011597323,0.016421162,-0.008968864,0.0017004753,0.47294074,-1.3538482,1.8687714,-2.0829513,-1.5724653,2.448374,-0.19946085,0.183165,-0.23311563,0.06511112,-0.011150669,-0.20102352,-0.28730422,0.2681506,-9.32781,0.99702406,47.693153,-1.2311478,-2.3321064,-3.543286,-0.32761854,-0.2581182,-0.15394953,28.625,29.875,28.9375,32.75,35.125,36.125
0.32004428,-0.761691,-1.600418,-1.5928833,-0.044352073,0.06381937,-0.14219755,-0.41270503,-0.36127007,0.060079202,-3.076554,0.62516963,2.6127698e-05,-0.14885795,0.048477445,-0.00054135534,0.014327151,-0.0049501336,-0.009772149,0.4725441,-1.3534756,1.8683513,-2.082857,-1.5724534,2.4479806,-0.202253,0.18541627,-0.23654869,0.06177455,-0.011134669,-0.19234098,-0.30645782,0.19153613,-9.3661175,0.8179876,47.73077,-1.0824767,-2.1260312,-3.4750357,-0.30927736,-0.23896466,-0.26141205,28.625,29.875,28.9375,32.75,35.125,36.125
0.32204077,-0.75333124,-1.4669092,-1.7757273,-0.052997388,0.07315257,-0.146538,-0.41299695,-0.36115107,0.060071547,-3.076448,0.62521,-4.5719e-05,-0.15037869,0.048465732,-0.00023346994,0.012630231,-0.0040626787,-0.018162776,0.47212332,-1.3530916,1.8678592,-2.0826538,-1.5725011,2.447599,-0.20405822,0.18662924,-0.23861724,0.061062053,-0.010046654,-0.1857569,-0.36391866,0.28730422,-9.32781,0.9410752,47.701214,-1.0602318,-2.277212,-3.3504739,-0.31000257,-0.2657977,-0.3681581,28.625,29.875,28.9375,32.75,35.125,36.125
0.32405227,-1.1316061,-1.960083,-1.8197229,-0.047685064,0.083956085,-0.14738305,-0.41330817,-0.36107364,0.06009009,-3.0764623,0.6253311,2.5911979e-05,-0.152753,0.048174545,0.0005402174,0.009622136,0.00076545606,-0.024116447,0.47172678,-1.3527439,1.8673815,-2.0825837,-1.5725011,2.4472764,-0.2057471,0.186846,-0.23958811,0.056150455,-0.009561529,-0.18149363,-0.4405331,0.2873042,-9.404425,0.8627467,47.688675,-0.98674154,-2.0910592,-3.3874726,-0.25575933,-0.27671146,-0.46586743,28.625,29.875,28.9375,32.75,35.125,36.125
0.3260442,-1.2024904,-1.5176744,-1.9114908,-0.06186018,0.10578842,-0.15407391,-0.41360164,-0.36096844,0.060075328,-3.076392,0.6254108,-5.181609e-05,-0.15455317,0.047972538,0.0014392319,0.008120972,0.0042186314,-0.02283026,0.47130656,-1.3523481,1.8669018,-2.0824287,-1.572513,2.4469151,-0.20664418,0.18705015,-0.2414724,0.054063607,-0.009818624,-0.18367487,-0.53630114,0.22984336,-9.442732,0.9612189,47.68599,-0.9912039,-2.1937666,-3.3825707,-0.21855442,-0.2910189,-0.49838415,28.625,29.875,28.9375,32.75,35.125,36.125
0.32804164,-1.7358505,-1.4741122,-1.9373379,-0.062471475,0.114433266,-0.16337608,-0.41390616,-0.36087888,0.060081936,-3.076391,0.6253262,-3.1255193e-05,-0.15484297,0.047899842,0.00038593297,0.0082576405,0.0018423887,-0.011576465,0.4709103,-1.3519756,1.8664097,-2.082309,-1.5725363,2.4464664,-0.2071881,0.19011244,-0.2429816,0.05465788,-0.008881227,-0.19547454,-0.47884035,0.19153613,-9.442732,0.90527004,47.705692,-1.0169221,-2.2152143,-3.431782,-0.19428264,-0.29681218,-0.42828983,28.625,29.875,28.9375,32.75,35.125,36.125
0.33005205,-1.434422,-1.1080831,-1.5403717,-0.049577348,0.14055721,-0.16552877,-0.41422647,-0.36077437,0.060076147,-3.0763543,0.62538624,3.904701e-05,-0.15499374,0.047244247,-0.00012098951,0.008571984,0.0012469394,0.0034910718,0.47049093,-1.3515909,1.8659443,-2.082249,-1.5725845,2.4460895,-0.20604298,0.19243275,-0.2447143,0.054705508,-0.008911794,-0.20939629,-0.47884035,0.19153613,-9.5385,0.8560339,47.691364,-1.2458935,-2.2150486,-3.3610072,-0.20044968,-0.30456123,-0.29346025,28.625,29.875,28.9375,32.75,35.125,36.125
0.3320443,-1.851958,-1.0942034,-1.7987592,-0.022340061,0.13146505,-0.1542012,-0.41450542,-0.36067724,0.060057897,-3.0763328,0.6253176,-6.1740604e-05,-0.15595351,0.046278257,-0.0008669287,0.0077065616,0.003106024,0.013785952,0.4700833,-1.3512065,1.8654889,-2.0821068,-1.5725731,2.445642,-0.2050356,0.19528106,-0.24563538,0.050711557,-0.009023653,-0.2186821,-0.5554548,0.076614454,-9.5385,0.7978386,47.66808,-1.343063,-2.2981372,-3.5072622,-0.1559645,-0.3177981,-0.16843857,28.625,29.875,28.9375,32.75,35.125,36.125
0.33404082,-1.4802356,-0.9688203,-1.6615477,-0.004763142,0.12840341,-0.14643553,-0.41485736,-0.36062,0.060099386,-3.0764248,0.6252415,8.143146e-05,-0.1583109,0.04604634,0.00058781845,0.00623432,0.0060375705,0.012154046,0.46968693,-1.3508224,1.8649138,-2.0820348,-1.5725726,2.4451866,-0.20648272,0.19602683,-0.24997485,0.051022198,-0.009020534,-0.21849693,-0.4405331,0.095768064,-9.442732,0.9030289,47.694946,-1.4672074,-2.2498288,-3.5906813,-0.10822164,-0.33697248,-0.15093367,28.625,29.875,28.9375,32.75,35.125,36.125
0.3360523,-0.9034541,-0.8345821,-1.6887945,0.012314131,0.11358916,-0.13252002,-0.41516885,-0.36051428,0.060085457,-3.0763812,0.6252749,9.7743636e-05,-0.15854117,0.0466756,-0.00075761194,0.007958535,0.0033264444,0.0036474273,0.46926683,-1.3504258,1.8644465,-2.0819504,-1.5726088,2.4447932,-0.20738539,0.19915067,-0.25102836,0.052153647,-0.009323352,-0.21089135,-0.53630114,0.11492168,-9.481039,0.8090337,47.691364,-1.4631435,-2.197988,-3.5018551,-0.099937335,-0.33936906,-0.20043823,28.625,29.875,28.9375,32.75,35.125,36.125
0.33804417,-0.73538786,-0.5285301,-1.7006508,0.008724433,0.06719968,-0.14404501,-0.4155026,-0.36041537,0.060070246,-3.0763783,0.6252596,5.360063e-05,-0.15956992,0.047283642,-5.1064267e-06,0.008829007,0.0054834024,-0.0042319577,0.46881044,-1.3499824,1.8639201,-2.0818427,-1.5725974,2.4443278,-0.20803536,0.19864553,-0.25225133,0.05236924,-0.011072013,-0.20365651,-0.36391866,0.095768064,-9.481039,0.90750587,47.72719,-1.428874,-2.1986454,-3.5684595,-0.07025824,-0.32341808,-0.2904348,28.625,29.875,28.9375,32.75,35.125,36.125
0.34004173,-0.6989659,-0.874935,-1.6973256,0.0026067789,0.045455612,-0.14270297,-0.41580123,-0.36032403,0.060066186,-3.0763397,0.6252725,7.180633e-05,-0.16074921,0.047810756,0.00040772784,0.009115692,0.006031017,-0.009292366,0.46842593,-1.3495988,1.8634404,-2.0817344,-1.5726336,2.4439566,-0.20945777,0.19935462,-0.25434548,0.053392585,-0.011574228,-0.2000163,-0.47884035,0.15322891,-9.3661175,0.80456203,47.711063,-1.3783376,-2.154399,-3.5356195,-0.046828404,-0.31051007,-0.3640766,28.625,29.875,28.9375,32.75,35.125,36.125
0.3420523,-0.3010328,-0.7913907,-1.87864,-0.005242229,0.040348697,-0.14175047,-0.41614828,-0.36020967,0.060075965,-3.0763094,0.6253047,0.00014355914,-0.16204318,0.048307065,0.00021810508,0.010163571,0.0051649064,-0.010569917,0.46796942,-1.3492017,1.862913,-2.0816262,-1.5726818,2.4435244,-0.21087506,0.20198007,-0.25758052,0.05523517,-0.012116737,-0.20015348,-0.34476504,0.05746084,-9.346964,0.9231726,47.64837,-1.366195,-2.365128,-3.4216673,-0.0320525,-0.32776338,-0.3942954,28.625,29.875,28.9375,32.75,35.125,36.125
0.34404445,0.16470702,-0.7464545,-1.9840412,-0.00054137025,0.051779058,-0.14919665,-0.41643086,-0.360107,0.060044203,-3.0762575,0.6251739,4.8561076e-05,-0.16383106,0.048730977,0.000981578,0.009750565,0.006158512,-0.0047861817,0.46757296,-1.348782,1.8624443,-2.0814826,-1.5727061,2.4430532,-0.21287785,0.20293978,-0.26081997,0.05641784,-0.012230802,-0.20793757,-0.095768064,0.038307227,-9.519346,0.9388393,47.664497,-1.397585,-2.3106132,-3.4229572,-0.009642844,-0.3143364,-0.36190206,28.625,29.875,28.9375,32.75,35.125,36.125
0.34604096,-0.48628685,-1.1415803,-1.7091511,-0.002464155,0.05096399,-0.13724738,-0.4167675,-0.36002,0.06003238,-3.076244,0.62516505,0.00010568865,-0.16400707,0.05021399,-0.0015066992,0.01237212,0.00043187008,0.004611352,0.46716407,-1.3483372,1.8619183,-2.0814216,-1.5727419,2.4426408,-0.21546541,0.20778988,-0.2616378,0.058642756,-0.012002043,-0.21992286,0.0,0.0,-9.519346,0.86945957,47.68062,-1.3441155,-2.2771242,-3.3951364,-0.0018467586,-0.32881138,-0.24567613,28.625,29.875,28.9375,32.75,35.125,36.125
0.34805235,-0.8631007,-0.9607461,-1.4828763,-0.013719774,0.054029692,-0.13439544,-0.41709736,-0.35989192,0.06003096,-3.0762038,0.6252109,4.158183e-05,-0.16551417,0.05130208,-0.001088594,0.012619736,-0.00023095125,0.009366635,0.46667108,-1.347941,1.8614033,-2.0812528,-1.5727419,2.4421818,-0.21840371,0.20877567,-0.26441222,0.061113954,-0.011950545,-0.2276152,-0.22984336,0.019153614,-9.404425,0.83589023,47.705692,-1.1198714,-2.3196208,-3.309073,-0.011873353,-0.32737875,-0.12869903,28.625,29.875,28.9375,32.75,35.125,36.125
0.35004428,-0.7409864,-0.70042914,-1.7044111,-0.0025695956,0.06364579,-0.13938917,-0.4174447,-0.3598098,0.06005108,-3.0762305,0.62520033,0.00017508726,-0.16747017,0.05231309,0.00041938256,0.011422023,0.00015449943,0.004645176,0.4662617,-1.3475453,1.860864,-2.0811918,-1.5727772,2.4417627,-0.22211091,0.20824187,-0.26798314,0.06432223,-0.011036424,-0.22660376,-0.22984336,0.11492168,-9.385271,0.83365434,47.666286,-0.9987612,-2.415457,-3.317493,-0.03848588,-0.34716183,-0.08634648,28.625,29.875,28.9375,32.75,35.125,36.125
0.35204163,-0.8315709,-0.8286487,-1.9554837,0.010088484,0.057246942,-0.13886708,-0.4177692,-0.3597045,0.060047742,-3.0762095,0.6252002,0.00010116732,-0.16775236,0.053242516,4.0990053e-05,0.013028789,-0.002940421,-0.0044246595,0.4658051,-1.3471249,1.8603238,-2.081023,-1.5727657,2.441309,-0.22369108,0.21000116,-0.27023727,0.06831716,-0.011079719,-0.2191127,-0.34476504,0.05746084,-9.385271,0.88960326,47.691364,-0.87764275,-2.4416654,-3.2226357,-0.056948546,-0.3573318,-0.14800748,28.625,29.875,28.9375,32.75,35.125,36.125
0.35405225,-1.0542756,-0.97045416,-1.918347,0.0065892315,0.044250444,-0.13272128,-0.41809046,-0.35958052,0.060027663,-3.0761137,0.6253013,4.1029158e-05,-0.16626877,0.054125596,-0.00086734607,0.015302062,-0.0068683107,-0.013910774,0.46534893,-1.3466933,1.8598102,-2.080866,-1.5728015,2.4409285,-0.2235756,0.21015635,-0.26919982,0.071662985,-0.011343814,-0.2095101,-0.28730422,0.095768064,-9.461885,0.9231726,47.64837,-0.8964001,-2.3790202,-3.3552866,-0.09068527,-0.36421192,-0.2561043,28.625,29.875,28.9375,32.75,35.125,36.125
0.35604444,-1.1053461,-1.6239153,-1.4045286,-0.0055991528,0.055239934,-0.13356976,-0.41842037,-0.3594943,0.060034223,-3.0760982,0.6252425,4.385662e-05,-0.16447508,0.05454692,-0.0026668424,0.018228948,-0.012675487,-0.02082663,0.4649416,-1.3462616,1.8592361,-2.0807092,-1.5728253,2.4404867,-0.2225927,0.21260454,-0.2690523,0.07557748,-0.011342555,-0.20161113,-0.47884032,0.17238252,-9.251195,0.84708,47.72002,-1.0437554,-2.2407691,-3.460025,-0.13918623,-0.36528492,-0.38040406,28.625,29.875,28.9375,32.75,35.125,36.125
0.35804096,-1.1190091,-0.9750214,-1.6141882,-0.018531151,0.057323836,-0.14108586,-0.41875052,-0.35938168,0.06003745,-3.0760314,0.6253458,4.3886794e-05,-0.16384314,0.054616697,-0.0022734702,0.01971226,-0.013834884,-0.024079721,0.46449822,-1.3458537,1.8586982,-2.0805523,-1.572862,2.4401166,-0.22151,0.21224503,-0.27033645,0.07892232,-0.01215139,-0.19727245,-0.4022259,0.11492168,-9.270349,0.88960326,47.72002,-1.2346708,-2.3570225,-3.476965,-0.17560351,-0.3777638,-0.49217808,28.625,29.875,28.9375,32.75,35.125,36.125
0.36005244,-0.48480552,-0.8331787,-1.7167727,-0.017128736,0.07372718,-0.14932682,-0.41909033,-0.35927927,0.060054675,-3.0760288,0.62532157,2.498961e-05,-0.16350298,0.055640567,-0.0026568016,0.021041498,-0.016440852,-0.01903559,0.4640419,-1.3454458,1.8581232,-2.080372,-1.572862,2.4396458,-0.22272272,0.21250264,-0.2704865,0.08172207,-0.012189879,-0.20352922,-0.076614454,0.1340753,-9.346964,0.88960326,47.689575,-1.2302873,-2.2249894,-3.4660668,-0.21184044,-0.3575463,-0.48745298,28.625,29.875,28.9375,32.75,35.125,36.125
0.36204875,-0.6276455,-0.97426087,-1.2419683,-0.017400816,0.07482853,-0.14492576,-0.4194141,-0.35916993,0.060029864,-3.0759556,0.625356,-1.7879987e-05,-0.1652458,0.05549685,-0.0011544229,0.019972235,-0.014042363,-0.006352725,0.46360943,-1.3449903,1.8575963,-2.08024,-1.5728978,2.4392445,-0.22366928,0.21245907,-0.27416682,0.082782045,-0.012357344,-0.21715647,-0.05746084,0.095768064,-9.289502,0.91198283,47.68599,-1.2231858,-2.2430706,-3.4831834,-0.27154678,-0.369042,-0.40549546,28.625,29.875,28.9375,32.75,35.125,36.125
0.36404166,-0.46081766,-0.9887836,-1.5831608,0.008856144,0.073648326,-0.14372315,-0.41974247,-0.35905707,0.06002346,-3.0759118,0.6253399,-8.413523e-05,-0.16591024,0.054868,-0.001199667,0.019769456,-0.013860552,0.007765723,0.46315318,-1.344558,1.857045,-2.0800602,-1.5729097,2.4387841,-0.22302791,0.2145042,-0.27667043,0.082950555,-0.012308758,-0.23063208,-0.21068975,0.076614454,-9.174581,0.9186956,47.675243,-1.2506726,-2.1932273,-3.4588897,-0.29042846,-0.35844684,-0.25690156,28.625,29.875,28.9375,32.75,35.125,36.125
0.36605206,-0.24697644,-0.1442168,-1.7548295,0.015013433,0.06807483,-0.15619497,-0.42011505,-0.3589563,0.060058314,-3.075886,0.6253129,1.7220399e-06,-0.1681021,0.05433506,-0.0010649624,0.018150216,-0.012061854,0.010538843,0.46270934,-1.3441247,1.8563966,-2.07987,-1.5729693,2.438327,-0.22415394,0.21747634,-0.2802865,0.08123262,-0.011685008,-0.23453204,-0.21068975,0.15322891,-9.270349,0.9186956,47.694054,-1.2322364,-2.328834,-3.3838933,-0.3076055,-0.3760187,-0.19973549,28.625,29.875,28.9375,32.75,35.125,36.125
0.36804432,-0.94851136,-0.99433446,-1.7365873,0.01266614,0.054546565,-0.12721522,-0.42040682,-0.35884747,0.06000802,-3.0758214,0.6252662,-0.00017741065,-0.16906211,0.054897264,-0.0011322545,0.018586695,-0.012451134,0.0016289171,0.46227697,-1.3436568,1.8559064,-2.079714,-1.5729579,2.437874,-0.22557928,0.218856,-0.28213626,0.082261235,-0.011929445,-0.22704451,-0.19153613,0.21068975,-9.289502,0.947788,47.67614,-1.3870683,-2.4374785,-3.2609031,-0.330337,-0.4016835,-0.21078052,28.625,29.875,28.9375,32.75,35.125,36.125
0.37004104,-0.5645688,-0.8999423,-1.6142833,-0.025070218,0.059411053,-0.14721939,-0.42077565,-0.3587422,0.060024537,-3.0758035,0.6253065,-0.00014026195,-0.17303923,0.054734103,0.0003149841,0.015493397,-0.0058328873,-0.007344333,0.4618079,-1.3432132,1.8552946,-2.0795596,-1.5729817,2.4374328,-0.22830485,0.22001879,-0.28585327,0.07751632,-0.012122943,-0.22079502,-0.24899697,0.2681506,-9.270349,0.89631605,47.677036,-1.254081,-2.2222188,-3.3124194,-0.3105168,-0.39360547,-0.30748528,28.625,29.875,28.9375,32.75,35.125,36.125
0.37205267,-0.7587026,-1.448285,-1.9557686,-0.05211346,0.065140575,-0.14971966,-0.42112592,-0.35861412,0.060037393,-3.0757306,0.6253139,-0.00013053067,-0.17535353,0.056573898,-7.6491226e-05,0.016663535,-0.0044216095,-0.014967337,0.46133894,-1.3427931,1.8547086,-2.0793564,-1.5730423,2.436978,-0.23208159,0.22177626,-0.28684282,0.07600204,-0.013811426,-0.21694224,-0.095768064,0.28730422,-9.3661175,0.842603,47.67166,-1.1959258,-2.4808598,-3.254958,-0.2800505,-0.38799855,-0.37768334,28.625,29.875,28.9375,32.75,35.125,36.125
0.37404406,-0.88078785,-2.267159,-1.9387339,-0.0683843,0.07442255,-0.14745806,-0.42143792,-0.35848263,0.059980255,-3.0756028,0.62536436,-0.00027411827,-0.17827256,0.056928772,0.00076467416,0.014863666,-0.0005730322,-0.015745299,0.4608818,-1.3423015,1.854205,-2.0792024,-1.5730785,2.4365692,-0.23482886,0.22288091,-0.28961197,0.073401436,-0.013963205,-0.21890824,-0.30645782,0.21068975,-9.423578,0.90750587,47.675243,-1.0026091,-2.401607,-3.2761176,-0.27435613,-0.36630166,-0.4252985,28.625,29.875,28.9375,32.75,35.125,36.125
0.37604183,-1.3681182,-1.4334695,-2.0741663,-0.08327831,0.07029995,-0.15200762,-0.42180887,-0.35837007,0.05999431,-3.0755887,0.62535566,-0.00018852507,-0.17742796,0.056711927,-0.0014317309,0.015575533,-0.0013448127,-0.005874346,0.4604145,-1.3418686,1.8536195,-2.0790842,-1.5731262,2.4360986,-0.23336694,0.2252003,-0.28655234,0.0689952,-0.014274132,-0.22731745,-0.1340753,0.24899697,-9.500193,0.8224646,47.68599,-1.0796897,-2.4695451,-3.355916,-0.21104106,-0.38757634,-0.3357305,28.625,29.875,28.9375,32.75,35.125,36.125
