Tylouw/Master_Thesis_Code/training_data_v2/rect_rod_t0.2/sample_30_session_1.csv
timestamp[s],tcp_force_x[N],tcp_force_y[N],tcp_force_z[N],tcp_force_rx[Nm?],tcp_force_ry[Nm?],tcp_force_rz[Nm?],tcp_pose_x[m],tcp_pose_y[m],tcp_pose_z[m],tcp_pose_rx[rot_vec_x],tcp_pose_ry[rot_vec_y],tcp_pose_rz[rot_vec_z],tcp_velo_x[m/s],tcp_velo_y[m/s],tcp_velo_z[m/s],tcp_velo_rx[rot_vec_x/s],tcp_velo_ry[rot_vec_y/s],tcp_velo_rz[rot_vec_z/s],q1[rad],q2[rad],q3[rad],q4[rad],q5[rad],q6[rad],qd1[rad/s],qd2[rad/s],qd3[rad/s],qd4[rad/s],qd5[rad/s],qd6[rad/s],tool_acc_x,tool_acc_y,tool_acc_z,current_of_whole_robot[A],voltage_of_whole_robot[V],current_J1[A],current_J2[A],current_J3[A],current_J4[A],current_J5[A],current_J6[A],temp_J1[C],temp_J2[C],temp_J3[C],temp_J4[C],temp_J5[C],temp_J6[C]
6.999999e-07,0.024847789,-0.1278777,0.04492387,-0.035458885,0.029575987,-0.007986712,-0.3893394,-0.36871877,0.060009614,-3.0786977,0.6249077,0.0002323928,0.00080891285,0.0004094163,-0.00045553426,0.00084085454,-0.0017363151,0.0001443574,0.5050448,-1.3816439,1.904199,-2.0919158,-1.5708774,2.4800253,3.9578803e-34,-0.00027917343,0.0011199929,0.0010851446,0.00010921271,-0.00014513254,0.05746084,0.1340753,-8.734048,0.7866488,47.698532,-0.20714456,-3.1623836,-2.404818,-0.19958955,0.17950557,-0.024936076,28.5,29.8125,28.875,32.625,35.0625,36.0625
0.002052893,-0.41382572,-0.6702997,-0.034577172,-0.025992993,0.025444014,0.002928867,-0.38935286,-0.368728,0.06001715,-3.0787401,0.6249163,0.00025402772,-0.0013479019,-0.0007886781,-0.00024157496,-0.0031914215,0.0055207075,0.0001416083,0.5050329,-1.3816439,1.904188,-2.0919435,-1.5708536,2.4800134,5.310002e-36,-3.7454677e-06,0.0025860225,-0.0089583285,0.000106624866,-0.00014186445,0.095768064,0.19153613,-8.695741,0.7911258,47.684196,-0.1626232,-2.983451,-2.2707584,-0.15573579,0.16842344,-0.023737432,28.5,29.8125,28.875,32.625,35.0625,36.0625
0.00405226,-0.3437732,-0.53916454,0.05437006,-0.023612956,0.03175976,-0.0006694965,-0.38931486,-0.36872554,0.05999182,-3.0786998,0.6248889,0.00014262617,-0.0022689747,-0.0012999238,0.000136486,-0.004707055,0.008251762,0.00013887264,0.50505686,-1.3816319,1.9042233,-2.0919077,-1.5708417,2.4800253,7.124045e-38,-5.025023e-08,0.0023847015,-0.011884128,0.00010415676,-0.00013874014,0.05746084,0.15322891,-8.714894,0.7597976,47.690468,-0.22601049,-3.2291565,-2.606836,-0.033755112,0.19156429,-0.018874522,28.5,29.8125,28.875,32.625,35.0625,36.0625
0.006052388,-0.4039548,-0.30132884,-0.117823854,-0.01432693,0.016709764,0.00296608,-0.38932365,-0.36870903,0.05997437,-3.0786831,0.6249624,0.00013960154,-0.00093323324,-0.0005564224,-0.00014599304,-0.0022186595,0.0037811121,0.00013554523,0.50502086,-1.3816198,1.9042591,-2.091953,-1.5708417,2.4800372,9.55782e-40,-6.7417094e-10,0.0017151523,-0.0060980967,0.00010180031,-0.00013575042,-0.038307227,0.21068975,-8.6574335,0.779936,47.69763,-0.13989955,-3.2841458,-2.5039358,-0.057461753,0.19749042,-0.020342575,28.5,29.8125,28.875,32.625,35.0625,36.0625
0.008052268,0.23935679,0.7020707,-0.49597022,0.007202727,0.0027884713,-0.0073111053,-0.3893467,-0.368713,0.060008727,-3.078718,0.6249311,0.0002483096,-8.146947e-06,-4.1631705e-05,-0.0005989201,-0.0001787286,0.00011300022,0.00015037834,0.50502086,-1.3816556,1.9042228,-2.0919516,-1.5708655,2.4800134,1.2823e-41,0.000696299,0.0009572704,-0.0018393303,9.954844e-05,-0.00015060445,-0.019153614,0.17238252,-8.772355,0.7172743,47.689575,-0.21739668,-3.273571,-2.4631834,-0.10283273,0.17732057,-0.0054347636,28.5,29.8125,28.875,32.625,35.0625,36.0625
0.010052577,0.032727074,1.230369,-0.538497,0.011568938,-0.002906687,-0.01340299,-0.38931063,-0.36869738,0.059971638,-3.078658,0.62491906,0.00010747385,0.00026043676,0.000108620734,-0.00035530367,0.0002422202,-0.0006374645,0.00014837655,0.50502086,-1.3816317,1.904271,-2.0919158,-1.5708536,2.4800134,1.72e-43,0.00022529281,0.00056950096,-0.000120095116,9.7393786e-05,-0.00014870898,0.0,0.15322891,-9.002198,0.7418897,47.668976,-0.6843561,-2.7587726,-2.9713988,-0.12616009,0.15821716,-0.10482495,28.5,29.8125,28.875,32.625,35.0625,36.0625
0.012052556,-0.50166553,-0.2455715,-0.89902616,0.0014203948,0.015467115,-0.0049602035,-0.38931143,-0.36871204,0.05995927,-3.0786388,0.62489396,6.30722e-05,0.00083160854,0.000502072,-0.00075405947,0.002127338,-0.004030081,0.0034310136,0.50504476,-1.3815713,1.9042219,-2.09189,-1.5708536,2.480024,-0.00012739774,0.0014302481,-0.00088260527,0.004007693,9.533048e-05,-0.003558396,0.076614454,0.1340753,-9.193734,0.7665104,47.709274,-0.8331224,-2.6719365,-3.0856953,-0.1272108,0.14946225,-0.16669023,28.5,29.8125,28.875,32.625,35.0625,36.0625
0.014052397,-0.6525536,-0.3973211,-1.1443609,-0.04350246,0.037932854,-0.021978762,-0.38929737,-0.3686834,0.059929248,-3.0785863,0.6248633,-1.3509617e-05,-0.004576822,0.0036785263,-0.0036605762,0.004061907,-0.0075557227,0.0027634988,0.50501716,-1.3815556,1.9042691,-2.0918787,-1.5708655,2.479984,-0.010537933,0.011238674,-0.0056165685,0.0029530295,9.335277e-05,-0.013297809,0.0,0.05746084,-9.346964,0.66132545,47.690468,-0.4656332,-3.0519412,-3.1017337,-0.10914087,0.15632954,-0.103931636,28.5,29.8125,28.875,32.625,35.0625,36.0625
0.016052196,-1.9782732,-1.3920296,-1.3599052,-0.05913073,0.04197852,-0.022908,-0.3893218,-0.36867428,0.059939954,-3.0785885,0.6249563,-6.247151e-05,-0.006138377,0.00393064,-0.0029051898,0.00303319,-0.0057046064,0.009248178,0.5049566,-1.3815439,1.90422,-2.091831,-1.5708297,2.4799812,-0.012421452,0.0112193525,-0.0071947197,0.0024321044,9.145542e-05,-0.021665309,-0.11492168,0.15322891,-9.442732,0.779936,47.688675,-0.42715046,-3.158936,-3.1113954,-0.08831465,0.1371646,-0.022785908,28.5,29.8125,28.875,32.625,35.0625,36.0625
0.018052332,-2.1650443,-1.3426179,-1.2334994,-0.06276046,0.06745416,-0.046795677,-0.38932368,-0.36869344,0.059954923,-3.0786288,0.6247711,5.776572e-05,-0.005623283,0.003647763,-0.002764251,0.0029498215,-0.0055449493,0.013155446,0.50501686,-1.381556,1.9042085,-2.0918672,-1.5708774,2.4799209,-0.011461926,0.010539559,-0.0067172297,0.0024527782,8.963363e-05,-0.024613347,-0.2873042,0.2681506,-9.481039,0.71279734,47.690468,-0.6520865,-2.9159033,-3.2760594,-0.07741463,0.1512835,0.018707557,28.5,29.8125,28.875,32.625,35.0625,36.0625
0.020052306,-1.9725175,-0.7560016,-1.455127,-0.03631619,0.09059265,-0.07131755,-0.389311,-0.36869165,0.0599089,-3.0786123,0.62477005,-0.00014660608,-0.0053604594,0.004054199,-0.0025759733,0.0041406318,-0.0076884357,0.009418823,0.50498074,-1.3814719,1.9042081,-2.0918415,-1.5708054,2.479886,-0.011899385,0.010672451,-0.008155013,0.00621187,8.7883214e-05,-0.021313978,-0.38307226,0.19153613,-9.576807,0.7284641,47.687782,-0.79079545,-2.7376547,-3.4581876,-0.09021035,0.12510434,-0.042232756,28.5,29.8125,28.875,32.625,35.0625,36.0625
0.022052212,-1.7024305,-0.18625642,-1.613496,-0.0047897957,0.093793005,-0.09138528,-0.3893304,-0.36866716,0.05989239,-3.0785508,0.62477887,-0.00016692991,-0.0075962874,0.0044827564,-0.0018389494,0.0037686406,-0.007023768,0.0045471913,0.50494397,-1.3814235,1.9041828,-2.0918167,-1.5708417,2.4798627,-0.014712237,0.0122774895,-0.012082524,0.0077722045,8.619962e-05,-0.019253504,-0.40222588,0.21068975,-9.653421,0.7620334,47.68599,-0.83622503,-2.764575,-3.4381037,-0.119540244,0.13415155,-0.06327516,28.5,29.8125,28.875,32.625,35.0625,36.0625
0.02405204,-2.5408895,-0.46199194,-1.8287311,0.0043250895,0.065759555,-0.09501,-0.38932934,-0.3686575,0.059887096,-3.0785217,0.62479347,-0.00015628511,-0.008530251,0.0046532243,-0.0025584705,0.0042174584,-0.007840183,0.0022374813,0.50494355,-1.3814224,1.9041938,-2.0918171,-1.5708655,2.479875,-0.015873756,0.014957799,-0.013547388,0.0074881446,8.457951e-05,-0.018104255,-0.5746084,0.1340753,-9.710882,0.7396539,47.716442,-0.8853202,-2.7799306,-3.3887224,-0.09617317,0.12207104,-0.08119052,28.5,29.8125,28.875,32.625,35.0625,36.0625
0.026051924,-2.1683047,-0.55092084,-2.0038853,-0.0142048225,0.07619014,-0.11518586,-0.38932225,-0.36864066,0.05986316,-3.0784853,0.62478787,-0.00028179548,-0.009457065,0.0051380955,-0.00345543,0.0047252807,-0.008765771,-9.520761e-05,0.50490695,-1.3813854,1.9041938,-2.0917695,-1.5708417,2.4798396,-0.017557558,0.017438173,-0.014279807,0.00679646,8.3019106e-05,-0.017454606,-0.7278373,0.11492168,-9.80665,0.7284641,47.689575,-0.8010468,-2.7566812,-3.4273472,-0.09179736,0.12008012,-0.08813785,28.5,29.8125,28.875,32.625,35.0625,36.0625
0.02805268,-2.0977423,-0.87878186,-1.8459705,-0.033752088,0.10112167,-0.12726763,-0.38934034,-0.368608,0.059837464,-3.078424,0.62481314,-0.0003832287,-0.009807045,0.0050429376,-0.0028995716,0.004598272,-0.008536817,-0.0010696691,0.504835,-1.3813255,1.9041704,-2.0917213,-1.5708417,2.4797912,-0.017723449,0.0173101,-0.015681285,0.00806432,8.151518e-05,-0.016645622,-0.80445176,0.038307227,-9.844957,0.73069996,47.67166,-0.8821987,-2.805512,-3.4553576,-0.08425093,0.1114039,-0.13638327,28.5,29.8125,28.875,32.625,35.0625,36.0625
0.03005283,-2.6734145,-1.0939908,-1.8184452,-0.044810783,0.10757178,-0.1346681,-0.3893512,-0.36860946,0.05984489,-3.0784264,0.62475663,-0.00037064977,-0.01040517,0.005095168,-0.0028934192,0.004862733,-0.00901492,-0.0017892062,0.5048348,-1.381313,1.9041332,-2.091697,-1.5708536,2.4797554,-0.018370481,0.0185046,-0.017334707,0.0090694325,8.006485e-05,-0.016572354,-0.7661445,0.11492168,-9.902418,0.7642693,47.705692,-0.8994564,-2.7944884,-3.451727,-0.10285379,0.08525658,-0.14769459,28.5,29.8125,28.875,32.625,35.0625,36.0625
0.03205254,-2.596022,-0.5400828,-1.7120539,-0.046056014,0.12062106,-0.16178665,-0.38938984,-0.3686272,0.05984143,-3.078485,0.6247302,-0.0003918809,-0.01123634,0.0056408914,-0.0023876263,0.0045878314,-0.008515344,-0.0028815991,0.50479835,-1.3812412,1.9040617,-2.0917208,-1.5708054,2.479695,-0.020063266,0.018056784,-0.018105222,0.0097182905,7.866524e-05,-0.017172568,-0.7086837,0.095768064,-9.768343,0.7329411,47.687782,-0.9932195,-2.6997027,-3.4210403,-0.106052324,0.08978307,-0.16995604,28.5,29.8125,28.875,32.625,35.0625,36.0625
0.034052283,-2.4277995,-0.43284303,-1.7572299,-0.016941642,0.11629192,-0.16340443,-0.38942972,-0.36861628,0.059850432,-3.078477,0.62480515,-0.00035042566,-0.012338336,0.005530435,-0.0019750989,0.0043052076,-0.008009315,-0.0026783051,0.5047501,-1.3812166,1.9040121,-2.0917203,-1.5708174,2.4796946,-0.020906387,0.019162605,-0.020515762,0.010443086,7.731363e-05,-0.018217893,-0.7852981,-0.05746084,-9.825804,0.7105615,47.729877,-0.88235605,-2.7600484,-3.4351692,-0.09208604,0.078816116,-0.16557479,28.5,29.8125,28.875,32.625,35.0625,36.0625
0.036052275,-2.5679822,-0.7981008,-1.9036112,0.023234906,0.091685094,-0.16083173,-0.3894885,-0.36859003,0.059876364,-3.0784488,0.62493306,-0.0002955784,-0.013771252,0.005213801,-0.001647926,0.0033452355,-0.006285586,-0.0018613557,0.50466615,-1.3812041,1.9039277,-2.0916736,-1.5708417,2.4796941,-0.021710856,0.020424077,-0.02245864,0.009150815,7.600779e-05,-0.019838177,-0.5746084,0.019153614,-9.730036,0.67475104,47.70659,-0.9238492,-2.7235045,-3.4195516,-0.09037,0.0751275,-0.1923061,28.5,29.8125,28.875,32.625,35.0625,36.0625
0.038052738,-1.4506862,-0.1225439,-1.9360688,0.012762082,0.08695038,-0.18701428,-0.3894817,-0.3685903,0.059845433,-3.0784347,0.6248542,-0.00037895297,-0.015226213,0.0055706226,-0.0010514233,0.002512918,-0.004759561,-0.0021233722,0.50466543,-1.3811442,1.9039272,-2.0916736,-1.5708297,2.479646,-0.0236624,0.020490477,-0.023788067,0.008675679,6.078877e-05,-0.021527078,-0.45968673,-0.076614454,-9.672575,0.7284641,47.696735,-0.90474176,-2.6800442,-3.4319208,-0.07063136,0.06609255,-0.17772207,28.5,29.8125,28.875,32.625,35.0625,36.0625
0.040051974,-0.9665066,-0.26168153,-1.8296173,0.006570598,0.08407905,-0.18575878,-0.3895196,-0.3685708,0.059839863,-3.0784209,0.62483263,-0.00038301607,-0.016333045,0.006189625,-0.0009662436,0.0023342613,-0.00442336,-0.0033050508,0.50460464,-1.3810959,1.90388,-2.0916612,-1.5708417,2.4795735,-0.025731398,0.02101157,-0.024571884,0.008557383,5.1642877e-05,-0.022413967,-0.47884032,-0.019153614,-9.634268,0.6948948,47.687782,-0.83595836,-2.6766117,-3.4278488,-0.059422806,0.058042075,-0.2144025,28.5,29.8125,28.875,32.625,35.0625,36.0625
0.04205202,-0.66461533,-0.35905817,-1.7905508,-0.0153590245,0.08162819,-0.18373069,-0.38956264,-0.3685705,0.059849367,-3.07843,0.6248727,-0.00038143012,-0.017345546,0.006222436,-0.0008993158,0.0022997705,-0.004242117,-0.00295884,0.5045564,-1.3810474,1.9037956,-2.091637,-1.5708297,2.4795492,-0.02669309,0.02242742,-0.026467592,0.00886223,-9.748676e-06,-0.023720788,-0.3256114,-0.019153614,-9.653421,0.7866488,47.698532,-0.8064748,-2.6722918,-3.4332905,-0.06710366,0.04509493,-0.20842266,28.5,29.8125,28.875,32.625,35.0625,36.0625
0.04405188,-1.3078095,-0.44263917,-1.649756,-0.021980884,0.058789063,-0.16341563,-0.38961536,-0.36856237,0.059859633,-3.078447,0.624855,-0.00029935074,-0.018643001,0.0061559794,-0.00034887024,0.0019543085,-0.0034110758,-0.0016421229,0.5045083,-1.381011,1.9037346,-2.0916607,-1.5708536,2.479488,-0.027727157,0.023448821,-0.029087974,0.009566162,-0.000113087124,-0.026070222,-0.2873042,0.019153614,-9.730036,0.7620334,47.690468,-0.7972554,-2.6603222,-3.3163228,-0.0515624,0.039887547,-0.2344319,28.5,29.8125,28.875,32.625,35.0625,36.0625
0.046051726,-1.1518614,-0.9848739,-1.8258146,-0.012101226,0.058012955,-0.16106233,-0.38963348,-0.36852208,0.05983567,-3.0783627,0.6249136,-0.00042902795,-0.019494561,0.006844509,-0.00026986244,0.0031019053,-0.0036209906,-0.0006289115,0.50442386,-1.3809507,1.9036988,-2.0915763,-1.5708541,2.4794507,-0.02911437,0.024266254,-0.030548416,0.010950508,-0.0010206166,-0.028468274,-0.17238252,0.076614454,-9.653421,0.784413,47.699425,-0.91391736,-2.637424,-3.3421478,-0.0485592,0.034662046,-0.22636735,28.5,29.8125,28.875,32.625,35.0625,36.0625
0.04805245,-1.1372454,-0.75257385,-1.7944491,-0.022583993,0.045162626,-0.15985504,-0.38969368,-0.3685079,0.05984327,-3.078376,0.62491643,-0.00037437843,-0.019982653,0.0081186015,-0.0005311871,0.0049462407,-0.0048322002,-0.00022648544,0.50435144,-1.3809025,1.9036273,-2.0915883,-1.5708665,2.4793785,-0.031070242,0.024743982,-0.030943153,0.012822123,-0.0020469197,-0.030824589,-0.15322891,0.21068975,-9.519346,0.7329411,47.686886,-0.7844554,-2.668676,-3.3609416,-0.056243144,0.0475027,-0.23014477,28.5,29.8125,28.875,32.625,35.0625,36.0625
0.050051954,-0.054911956,-0.9885996,-1.7000263,-0.020455875,0.053051546,-0.15864922,-0.3897428,-0.36850646,0.059851624,-3.0783875,0.6248992,-0.00036166722,-0.02091362,0.0085847005,-0.00047311938,0.004749033,-0.005016399,-0.00028204912,0.5043028,-1.3808422,1.9035314,-2.091564,-1.570866,2.4793177,-0.032883216,0.025458202,-0.0320172,0.013246598,-0.001787369,-0.032582015,-0.019153614,0.28730422,-9.500193,0.7329411,47.681515,-0.7694052,-2.6997633,-3.4662695,-0.06593664,0.045812298,-0.22206396,28.5,29.8125,28.875,32.625,35.0625,36.0625
0.05205188,0.41195485,-0.16055973,-1.5725768,-0.03960929,0.044927422,-0.17424059,-0.38977548,-0.36847994,0.05984666,-3.0783508,0.62491107,-0.00036499999,-0.02238565,0.008066688,0.00064237794,0.0033666207,-0.0032768724,-0.00039002075,0.5042428,-1.3808059,1.9034942,-2.0915396,-1.5708903,2.4792697,-0.033611163,0.025920982,-0.03523024,0.013803573,-0.0014246085,-0.03320133,0.0,0.19153613,-9.461885,0.7329411,47.734352,-0.77169454,-2.599893,-3.3830693,-0.05623427,0.014243156,-0.2516164,28.5,29.8125,28.875,32.625,35.0625,36.0625
0.054051876,-1.0961037,-0.9520754,-1.8147339,-0.028482232,0.0046639577,-0.15295148,-0.3898324,-0.36845002,0.059846755,-3.0783348,0.6249453,-0.000353706,-0.023940096,0.008364443,0.0010356795,0.002656579,-0.0022824581,-0.00096617016,0.5041464,-1.3807576,1.9034342,-2.0915277,-1.5709018,2.4791968,-0.035644606,0.026772764,-0.03708566,0.013592209,-0.0012889272,-0.034657974,0.0,0.24899697,-9.461885,0.7284641,47.709274,-0.74180293,-2.6360404,-3.268659,-0.060329847,0.014623323,-0.25613096,28.5,29.8125,28.875,32.625,35.0625,36.0625
0.05605217,-0.60827494,-1.0250313,-1.8702713,-0.032039475,0.027006544,-0.15945154,-0.3898894,-0.36844474,0.059855364,-3.078358,0.6250074,-0.00037635435,-0.024492357,0.008997632,0.00084041624,0.0032265468,-0.0032156631,-0.0008242301,0.50406194,-1.3806973,1.9033378,-2.0915034,-1.570866,2.4791481,-0.037190914,0.027582975,-0.037834242,0.014624039,-0.0013371548,-0.03634582,0.0,0.19153613,-9.461885,0.8090337,47.704796,-0.70563126,-2.6356385,-3.3167896,-0.06344826,0.016170155,-0.2730083,28.5,29.8125,28.875,32.625,35.0625,36.0625
0.058051974,0.104968,-0.657575,-1.5777867,-0.043374024,0.05738052,-0.16683212,-0.38994995,-0.36843395,0.059864916,-3.07837,0.6249317,-0.00032361347,-0.024652919,0.008379155,0.0010081372,0.0031100663,-0.0030692078,0.0016097454,0.5040024,-1.3806369,1.903242,-2.0914915,-1.5708903,2.47904,-0.03631408,0.028471999,-0.039373774,0.015088686,-0.0013082376,-0.037902333,0.038307227,0.30645782,-9.3661175,0.7463667,47.684196,-0.765907,-2.539844,-3.3026118,-0.06540218,0.019018179,-0.2821207,28.5,29.8125,28.875,32.625,35.0625,36.0625
0.060051996,-0.8832039,-1.2428898,-1.4678494,-0.035893098,0.05575416,-0.15344599,-0.38998652,-0.36842024,0.05986058,-3.0783465,0.6250227,-0.00039218485,-0.02552464,0.008794637,0.0011375936,0.003227093,-0.0031911999,0.0016060023,0.50393,-1.3805766,1.9031695,-2.0914428,-1.570866,2.4790273,-0.037794363,0.029192552,-0.040695064,0.015853513,-0.0013552925,-0.039378162,-0.076614454,0.3256114,-9.3661175,0.7642693,47.67345,-0.8393072,-2.5194802,-3.3295789,-0.083801165,0.008160938,-0.29362524,28.5,29.8125,28.875,32.625,35.0625,36.0625
0.06205184,-1.2132914,-1.1763496,-1.5760279,-0.037164785,0.05134612,-0.15105534,-0.39002103,-0.36840615,0.059871558,-3.0783415,0.62492555,-0.00040804772,-0.027043972,0.009251017,0.0014776513,0.0027586555,-0.002174198,0.000540915,0.50388145,-1.3805404,1.9030856,-2.0913718,-1.5708779,2.4789188,-0.039923597,0.029906603,-0.04225175,0.015578959,-0.0014418026,-0.040441334,0.0,0.24899697,-9.423578,0.76874626,47.688675,-0.749285,-2.5111141,-3.352129,-0.08453619,-0.005242083,-0.32354298,28.5,29.8125,28.875,32.625,35.0625,36.0625
0.06405167,-0.8181842,-0.9110217,-1.2891589,-0.037137106,0.062968716,-0.1534065,-0.39010456,-0.36840233,0.059903413,-3.0783951,0.62489617,-0.0003225135,-0.028032782,0.009307115,0.0015684188,0.0025860947,-0.0018556998,0.0027644548,0.50379705,-1.3804919,1.902953,-2.0913594,-1.5708779,2.4788094,-0.040930577,0.031106655,-0.043896962,0.01566121,-0.001446572,-0.043671098,-0.076614454,0.30645782,-9.442732,0.7284641,47.699425,-0.74478227,-2.4439807,-3.287807,-0.09916813,-0.02340571,-0.3068444,28.5,29.8125,28.875,32.625,35.0625,36.0625
0.06605236,-0.58747363,-0.64906967,-1.3267251,-0.03604294,0.06650748,-0.15909523,-0.39014998,-0.36837137,0.05989207,-3.0783608,0.6248503,-0.00031397346,-0.028810738,0.009218727,0.0016615372,0.0022680047,-0.0012721984,0.0034102958,0.5037252,-1.3804315,1.9029049,-2.091348,-1.5709141,2.4787133,-0.041498948,0.032007575,-0.045091473,0.01528832,-0.0014548945,-0.044884596,-0.22984336,0.24899697,-9.3661175,0.8179876,47.689575,-0.796087,-2.4580154,-3.3254056,-0.10724366,-0.034959167,-0.32026798,28.5,29.8125,28.875,32.625,35.0625,36.0625
0.06805167,-0.22174935,-0.25111166,-1.3567047,-0.031830575,0.07966822,-0.1658534,-0.390206,-0.3683683,0.05988653,-3.0783665,0.6248707,-0.00035463404,-0.029788474,0.009624763,0.0016023079,0.0024281396,-0.00091024995,0.0020984788,0.5036528,-1.3803351,1.902798,-2.091324,-1.5708903,2.478653,-0.042889968,0.03296661,-0.046036575,0.015036799,-0.0017732856,-0.044962607,-0.28730422,0.076614454,-9.270349,0.7642693,47.69763,-0.84587824,-2.4741485,-3.359302,-0.089030504,-0.047973078,-0.34660324,28.5,29.8125,28.875,32.625,35.0625,36.0625
0.070052706,-1.3505323,-0.79350066,-1.4628631,-0.0051286323,0.06751374,-0.15000646,-0.3902711,-0.36835173,0.059886705,-3.0783606,0.6249061,-0.000381594,-0.031244602,0.009811291,0.001693843,0.0031513865,0.00028788895,0.0047779162,0.5035567,-1.3802505,1.9026893,-2.0912879,-1.5708784,2.4785798,-0.043795023,0.034747,-0.048305515,0.014829131,-0.0029927858,-0.048543487,-0.22984336,0.1340753,-9.308657,0.8314132,47.703903,-0.7769654,-2.4212217,-3.306929,-0.10995671,-0.0655559,-0.3401311,28.5,29.8125,28.875,32.625,35.0625,36.0625
0.07205259,-1.2242125,-0.37348598,-1.1107864,-0.007852076,0.083140254,-0.15236215,-0.3903399,-0.36830223,0.059903294,-3.0783656,0.624829,-0.0003421392,-0.032172937,0.010307184,0.0019416746,0.003410396,0.00053173286,0.006361934,0.50342447,-1.380238,1.9026288,-2.091252,-1.5709027,2.4783988,-0.045271527,0.035205033,-0.04957459,0.015550616,-0.003339356,-0.051602863,-0.28730422,0.1340753,-9.270349,0.77545905,47.703903,-0.7810781,-2.4646754,-3.2785358,-0.10389699,-0.043035872,-0.35981506,28.5,29.8125,28.875,32.625,35.0625,36.0625
0.074052595,-1.3842922,-0.31217772,-1.1547271,-0.007970102,0.07958558,-0.14318904,-0.390384,-0.3682935,0.05988535,-3.0783534,0.6247652,-0.0003580135,-0.032819282,0.010443034,0.0022091751,0.0034253714,0.0007372008,0.011019784,0.50337636,-1.3801419,1.9025558,-2.0912516,-1.5709151,2.4783125,-0.04602505,0.035635166,-0.05084658,0.016218176,-0.0034566997,-0.05701342,-0.4405331,0.1340753,-9.270349,0.74413085,47.70211,-0.8412297,-2.444877,-3.2899818,-0.10766302,-0.0768787,-0.30033147,28.5,29.8125,28.875,32.625,35.0625,36.0625
0.07605235,-1.1419162,-0.33420995,-1.2338043,-0.002539136,0.08918168,-0.14868073,-0.3904636,-0.36828193,0.059908368,-3.0783813,0.62475383,-0.00037116616,-0.03376861,0.011558762,0.0015111247,0.0040162564,-0.00086177577,0.008399541,0.5032675,-1.3800694,1.9024013,-2.0911796,-1.5708908,2.478193,-0.04893672,0.037268534,-0.051308468,0.016732438,-0.0032026414,-0.057304986,-0.38307226,0.076614454,-9.308657,0.77545905,47.71823,-0.7343056,-2.4007459,-3.3800635,-0.122985534,-0.07560253,-0.3068652,28.5,29.8125,28.875,32.625,35.0625,36.0625
0.07805264,-1.4580281,-0.5285831,-1.5279254,-0.0047227843,0.08578119,-0.14129244,-0.3905045,-0.3682594,0.059873927,-3.078345,0.6247046,-0.00048441713,-0.03477904,0.010936621,0.0016768909,0.0047263782,-0.000514659,0.012703085,0.50318396,-1.3799484,1.9023284,-2.0911434,-1.5708789,2.4780834,-0.04832794,0.03981898,-0.054967158,0.017881718,-0.0040045516,-0.060996093,-0.45968673,0.038307227,-9.346964,0.7463667,47.696735,-0.7693776,-2.4202766,-3.2919083,-0.13341336,-0.07485535,-0.28909114,28.5,29.8125,28.875,32.625,35.0625,36.0625
0.08005276,-1.3533366,-0.36597705,-1.2019814,-0.00433593,0.09498138,-0.1452598,-0.39059603,-0.36822084,0.05989766,-3.078332,0.62469846,-0.00039294866,-0.035632752,0.011318214,0.0018602387,0.0054743257,0.0007270454,0.016650915,0.50306416,-1.3799001,1.9022092,-2.0911076,-1.5709275,2.4779615,-0.048971366,0.040208217,-0.05577608,0.01757426,-0.0052615404,-0.06558456,-0.49799395,0.038307227,-9.270349,0.7486078,47.70211,-0.90377593,-2.4399629,-3.2000985,-0.15208997,-0.06995373,-0.25792247,28.5,29.8125,28.875,32.625,35.0625,36.0625
0.082051985,-1.1205351,-0.27109358,-1.1300392,-0.0031067876,0.11001218,-0.14757752,-0.3906451,-0.36820626,0.059893247,-3.0783527,0.6246063,-0.000446233,-0.03638111,0.0129022775,0.0007352997,0.008275596,7.119005e-05,0.018405559,0.50297934,-1.3798275,1.9021252,-2.0910718,-1.5709041,2.4778166,-0.050992258,0.041898414,-0.055125114,0.017166229,-0.007403124,-0.06935561,-0.4213795,0.038307227,-9.251195,0.7620334,47.70211,-0.77937806,-2.4454837,-3.4780827,-0.16406041,-0.06636936,-0.21159834,28.5,29.8125,28.875,32.625,35.0625,36.0625
0.08405179,-1.4158827,-0.60094917,-1.2802039,0.010818134,0.10145897,-0.14147325,-0.39073122,-0.36817753,0.05990028,-3.078347,0.62454605,-0.00044831517,-0.0389034,0.014080779,0.0015987641,0.00931213,0.003032608,0.018932387,0.50285876,-1.379731,1.9019817,-2.0910122,-1.570917,2.4776592,-0.053850938,0.04233802,-0.05760094,0.017113268,-0.009747317,-0.07273519,-0.4213795,0.0,-9.404425,0.7329411,47.716442,-0.75535786,-2.4419901,-3.2935948,-0.1524548,-0.02416002,-0.170537,28.5,29.8125,28.875,32.625,35.0625,36.0625
0.086052015,-1.528456,-0.1761783,-1.1644629,0.0010567047,0.0970879,-0.13981171,-0.39081696,-0.36817744,0.05993139,-3.0783916,0.62451524,-0.00034939052,-0.040796816,0.014178713,0.0018421952,0.010153614,0.0042239134,0.02066615,0.5027865,-1.3796704,1.9018363,-2.0909998,-1.5709294,2.4775622,-0.054949384,0.044830058,-0.061214853,0.017599342,-0.011061718,-0.07556372,-0.47884035,0.0,-9.3661175,0.7486078,47.703903,-0.6735352,-2.4884117,-3.15421,-0.16454194,-0.024107136,-0.13363758,28.5,29.8125,28.875,32.625,35.0625,36.0625
0.088052556,-0.90825164,-0.57318157,-1.2980986,0.0043181507,0.10507518,-0.15175012,-0.39088756,-0.36812273,0.059898302,-3.0783238,0.62444085,-0.00044214336,-0.03916478,0.0140196895,0.00092670775,0.011399372,0.0019073245,0.024548722,0.5026435,-1.379538,1.9017414,-2.0909398,-1.5709532,2.4773815,-0.0531672,0.0450848,-0.059612665,0.018368637,-0.011040867,-0.07766378,-0.47884035,0.076614454,-9.461885,0.73069996,47.66987,-0.913769,-2.5288363,-3.2774491,-0.18852834,0.023321837,-0.109733656,28.5,29.8125,28.875,32.625,35.0625,36.0625
0.09005263,-1.585761,-0.5728192,-1.5287056,-0.010509606,0.08262659,-0.13963707,-0.390995,-0.36814353,0.05994884,-3.0784273,0.6243661,-0.0003130408,-0.039864402,0.014493641,0.0004923868,0.010729659,-0.00013233065,0.022828663,0.50257087,-1.3794656,1.9015378,-2.0909274,-1.5709409,2.4772491,-0.055586062,0.04660207,-0.06064334,0.019341143,-0.009462857,-0.07836639,-0.45968673,0.038307227,-9.3661175,0.75084364,47.70211,-0.8502113,-2.4445302,-3.426285,-0.18197384,0.007788297,-0.057705253,28.5,29.8125,28.875,32.625,35.0625,36.0625
0.09205259,-0.96119636,-0.9141584,-1.5186548,-0.017794706,0.08641887,-0.14747313,-0.39104536,-0.3680914,0.059901044,-3.0783646,0.62427676,-0.00040476848,-0.040799852,0.013883821,0.0007478904,0.008360924,-0.00091290765,0.020921048,0.5024505,-1.3793448,1.901501,-2.0909154,-1.5709637,2.477081,-0.056945,0.048035007,-0.06303877,0.01983528,-0.007022866,-0.07782064,-0.38307226,0.038307227,-9.385271,0.8247004,47.73077,-0.7771522,-2.5139108,-3.339641,-0.20641065,-0.036440983,-0.07714279,28.5,29.8125,28.875,32.625,35.0625,36.0625
0.09405246,-1.3934982,-0.886258,-1.5573484,-0.030371498,0.061697055,-0.15324068,-0.3911345,-0.3680447,0.05989666,-3.078313,0.62422854,-0.00040072968,-0.040968373,0.013371543,0.0008901566,0.007123714,-0.0019114148,0.020167295,0.50231874,-1.3792365,1.901369,-2.090855,-1.5710114,2.4769258,-0.057201847,0.04880298,-0.06449285,0.020790704,-0.005461879,-0.077326104,-0.28730422,0.15322891,-9.346964,0.7642693,47.709274,-0.87415934,-2.4873831,-3.32372,-0.23205325,-0.06656837,-0.06397393,28.5,29.8125,28.875,32.625,35.0625,36.0625
0.09605233,-1.0483778,-0.9903879,-1.6319946,-0.032658555,0.07219772,-0.1513667,-0.391225,-0.36801893,0.05991133,-3.0783231,0.62417305,-0.00037456225,-0.042022474,0.013547686,0.00090780744,0.00685009,-0.0013400118,0.0174916,0.50219864,-1.379152,1.901225,-2.0908072,-1.5710233,2.47677,-0.058442295,0.04987432,-0.06568954,0.020282548,-0.005499725,-0.075890146,-0.2873042,0.15322891,-9.346964,0.7620334,47.684196,-0.91942513,-2.4007344,-3.3611329,-0.2206639,-0.061741833,-0.08150636,28.5,29.8125,28.875,32.625,35.0625,36.0625
0.09805195,-0.99017954,-0.7174785,-1.6444478,-0.029744921,0.07240762,-0.15500431,-0.39130113,-0.36798242,0.059909157,-3.0783215,0.6240959,-0.00040526263,-0.042673033,0.01379429,-0.00030095634,0.008618621,-0.0022330447,0.015996072,0.50206673,-1.3790667,1.9011182,-2.09076,-1.5710238,2.4765902,-0.05875065,0.0532068,-0.06674134,0.019639557,-0.0066258637,-0.07469948,-0.1340753,0.21068975,-9.3661175,0.7418897,47.68062,-0.92310363,-2.625598,-3.4086442,-0.23176803,-0.053545605,-0.09965124,28.5,29.8125,28.875,32.625,35.0625,36.0625
0.10005194,-0.72440577,-0.34637433,-1.6257719,-0.035991438,0.07716585,-0.1528072,-0.39143476,-0.36796138,0.059931662,-3.0783603,0.6240472,-0.00029378972,-0.043824844,0.014265398,0.0013678622,0.008301964,6.998823e-05,0.012939022,0.5019226,-1.3789474,1.9009255,-2.090759,-1.5710486,2.4764109,-0.060078926,0.051198818,-0.06853675,0.021272508,-0.007450921,-0.07296929,-0.076614454,0.2681506,-9.3661175,0.83589023,47.68599,-0.9212611,-2.4469857,-3.349652,-0.25248572,-0.06465469,-0.11976209,28.5,29.8125,28.875,32.625,35.0625,36.0625
0.10205256,-0.98302597,-0.9097533,-1.6956439,-0.028030379,0.05904076,-0.15879314,-0.39149812,-0.36792958,0.059927866,-3.0783465,0.62400603,-0.00036465577,-0.044267282,0.014599091,0.000948249,0.0091143325,-0.0009954523,0.010754883,0.5018025,-1.3788627,1.9008178,-2.0906875,-1.5710362,2.4762669,-0.060915273,0.052737895,-0.06960041,0.022123167,-0.007654205,-0.07162014,-0.076614454,0.21068975,-9.308656,0.7486078,47.67614,-0.94393307,-2.3881817,-3.3559353,-0.25709036,-0.05924883,-0.14740267,28.5,29.8125,28.875,32.625,35.0625,36.0625
0.104052305,-0.73740584,-0.86031365,-1.7596725,-0.033086553,0.047975596,-0.14592166,-0.39159733,-0.3678995,0.059921302,-3.078299,0.62401634,-0.00035877197,-0.045285854,0.015062808,0.00077204884,0.0105912555,-0.00060472847,0.008812464,0.50168264,-1.378718,1.9006504,-2.0906389,-1.5710729,2.4761596,-0.06170114,0.054391485,-0.071245305,0.02248453,-0.00914156,-0.07045941,-0.05746084,0.30645782,-9.32781,0.69937176,47.686886,-1.017387,-2.5225017,-3.3976521,-0.2676095,-0.04611672,-0.1836433,28.5,29.8125,28.875,32.625,35.0625,36.0625
0.10605242,-0.04639686,-0.85263306,-1.7932951,-0.039039798,0.050330326,-0.15058264,-0.39169046,-0.36786306,0.05990992,-3.0782764,0.6239932,-0.0003488581,-0.04674036,0.016077463,-5.13792e-05,0.0131832175,-0.00033308472,0.006750535,0.5015503,-1.3785969,1.9005302,-2.0906274,-1.5710977,2.4760158,-0.063244775,0.057250865,-0.072666444,0.022060405,-0.011550294,-0.06993489,-0.038307227,0.2873042,-9.423578,0.78888994,47.68599,-0.9723516,-2.5570593,-3.4204702,-0.2731151,-0.022175908,-0.22471905,28.5,29.8125,28.875,32.625,35.0625,36.0625
0.108051874,-0.56254905,-1.425168,-1.8186535,-0.035524115,0.030890651,-0.1350736,-0.3917654,-0.36783478,0.059913233,-3.0782797,0.62399226,-0.00040162355,-0.047724493,0.0161666,0.0011544743,0.012538702,0.0019856393,0.008330916,0.5014183,-1.3785132,1.90041,-2.0905674,-1.5710739,2.4758828,-0.063947886,0.05597848,-0.07395808,0.022282686,-0.012105974,-0.072216645,0.038307227,0.21068975,-9.385271,0.75084364,47.67793,-0.99754274,-2.5339432,-3.4002402,-0.2808652,-0.0027901866,-0.24667437,28.5,29.8125,28.875,32.625,35.0625,36.0625
0.11005197,-0.52817696,-1.309597,-1.6445973,-0.037081532,0.033641785,-0.137869,-0.39185882,-0.3678025,0.05991138,-3.0782168,0.6239422,-0.00036022326,-0.04838618,0.016612023,0.0009330958,0.013314008,0.0013343337,0.006255809,0.50132215,-1.3783807,1.9002436,-2.0905073,-1.5711459,2.4757636,-0.065068625,0.0572676,-0.075185634,0.023160337,-0.012475148,-0.07126057,0.019153614,0.22984336,-9.308656,0.7620334,47.674347,-1.0541975,-2.3650522,-3.3745303,-0.29398173,0.0052826465,-0.26933494,28.5,29.8125,28.875,32.625,35.0625,36.0625
0.1120519,-0.35741597,-1.2122368,-1.6617808,-0.027371427,0.044181313,-0.13817923,-0.39196536,-0.36776143,0.059917822,-3.0782099,0.6239409,-0.00037519063,-0.049422916,0.01674783,0.00033972866,0.012538326,-0.00010117328,0.0036085362,0.50115395,-1.3782717,1.9000863,-2.0904472,-1.5711454,2.4755955,-0.067092,0.05975909,-0.076791294,0.023154056,-0.011109975,-0.07063845,0.019153614,0.3256114,-9.32781,0.8157518,47.687782,-1.0244868,-2.558504,-3.3535237,-0.31376877,0.009533057,-0.31062487,28.5,29.8125,28.875,32.625,35.0625,36.0625
0.11405198,-0.9170839,-0.49019235,-1.713606,-0.037207592,0.030964764,-0.14454709,-0.39205992,-0.36774778,0.059933946,-3.0782385,0.6238285,-0.0003087052,-0.051527824,0.015397172,0.002163644,0.009078841,0.0028224902,0.006360055,0.50105786,-1.3781755,1.8999304,-2.0904233,-1.5711688,2.4754257,-0.067764685,0.06025366,-0.0815364,0.0231683,-0.009490716,-0.074064516,0.05746084,0.22984336,-9.442732,0.74413085,47.719128,-1.0319355,-2.468071,-3.3444924,-0.31711423,-0.0016108919,-0.35362267,28.5,29.8125,28.875,32.625,35.0625,36.0625
0.11605185,-0.5674511,-0.73034436,-1.7100545,-0.02531835,0.043072674,-0.14093935,-0.3921589,-0.367724,0.059934437,-3.078223,0.62378925,-0.00035324626,-0.051212523,0.01585869,0.0010714118,0.009268621,0.0007604142,0.0022939835,0.5009258,-1.3780309,1.8997391,-2.0903404,-1.5711683,2.4752712,-0.06874569,0.061352853,-0.08025124,0.022681052,-0.008666046,-0.0709812,0.019153614,0.28730422,-9.461885,0.800085,47.70211,-1.0177194,-2.4603286,-3.2934854,-0.3114313,-0.0153667815,-0.3808003,28.5,29.8125,28.875,32.625,35.0625,36.0625
0.118052624,-0.38941777,-0.7516399,-1.5931882,-0.024448568,0.05704115,-0.1391961,-0.3922585,-0.36770046,0.059925318,-3.0782266,0.6237311,-0.00036917592,-0.052066613,0.015946092,0.0009825712,0.009218798,0.0011972474,0.0027196305,0.5007939,-1.3778864,1.8995832,-2.090316,-1.5711683,2.4751027,-0.06956003,0.062524274,-0.081332445,0.022182673,-0.008837885,-0.07222005,-0.076614454,0.19153613,-9.423578,0.7620334,47.698532,-1.1403114,-2.4228244,-3.343217,-0.30621767,-0.0054810336,-0.4423017,28.5,29.8125,28.875,32.625,35.0625,36.0625
0.12005284,0.028353643,-0.49810064,-1.5631086,-0.032924935,0.082243204,-0.15347266,-0.3923787,-0.36766222,0.059922155,-3.0781987,0.6237423,-0.00038661135,-0.05420174,0.015180546,0.0019344209,0.008159219,0.0029375143,0.005415973,0.5006259,-1.3777293,1.8993906,-2.090256,-1.5711807,2.4749453,-0.070279345,0.064803444,-0.08637096,0.022902472,-0.008757751,-0.07563338,-0.15322891,0.19153613,-9.32781,0.7463667,47.70032,-1.1788148,-2.57377,-3.1423993,-0.31897402,-0.032286216,-0.46270257,28.5,29.8125,28.875,32.625,35.0625,36.0625
0.122051954,-0.79024106,-0.82126164,-1.7114956,-0.023038277,0.08010685,-0.1543941,-0.39246452,-0.36763388,0.059934933,-3.0782003,0.6236821,-0.00037758134,-0.053243525,0.016016427,0.0014219864,0.0100344205,0.0014272075,0.008762882,0.5005062,-1.3776455,1.8992485,-2.0901954,-1.5711926,2.474788,-0.07021215,0.064070925,-0.08461207,0.024100857,-0.009674283,-0.078912005,-0.15322891,0.21068975,-9.500193,0.82022345,47.690468,-1.2087407,-2.412012,-3.3574533,-0.3342839,-0.015288338,-0.4632387,28.5,29.8125,28.875,32.625,35.0625,36.0625
0.12405214,-1.3609563,-0.5516628,-1.8040173,-0.034236696,0.074117035,-0.14456731,-0.39257774,-0.36760086,0.059925336,-3.078187,0.62361926,-0.0003670309,-0.055551372,0.017109295,0.001923489,0.009594946,0.0022398958,0.0122933155,0.50036097,-1.3774891,1.8990797,-2.0901716,-1.571217,2.4746053,-0.07415559,0.065017566,-0.08699978,0.024610963,-0.00968952,-0.086384706,-0.22984336,0.15322891,-9.442732,0.75755644,47.688675,-1.1088322,-2.3866885,-3.2994626,-0.35990235,-0.0057546576,-0.43404025,28.5,29.8125,28.875,32.625,35.0625,36.0625
0.12605225,-0.6211653,-0.43727925,-1.555081,-0.04921652,0.10273226,-0.16007675,-0.3927075,-0.36758748,0.05996175,-3.0782447,0.6236068,-0.00026865423,-0.055382755,0.015742341,0.00080986065,0.009464792,0.000708873,0.01866873,0.50021815,-1.3773917,1.8988761,-2.0901482,-1.5712165,2.4744475,-0.07220725,0.06880256,-0.08879641,0.023896938,-0.008842719,-0.090813,-0.21068975,0.19153613,-9.442732,0.87393653,47.716442,-1.2907845,-2.562889,-3.2577105,-0.34368524,-0.013787533,-0.405282,28.5,29.8125,28.875,32.625,35.0625,36.0625
0.12805265,-1.1703932,-0.81807816,-1.9106121,-0.045838144,0.09468343,-0.14899349,-0.39279544,-0.36753148,0.059916787,-3.078161,0.6235473,-0.0004151625,-0.056614473,0.015942499,0.0024201288,0.007434054,0.0037731768,0.024338685,0.50005,-1.3772004,1.8987325,-2.0900643,-1.5712284,2.474253,-0.0738447,0.06635427,-0.08943981,0.023318406,-0.008551012,-0.09812002,-0.4405331,0.1340753,-9.481039,0.800085,47.696735,-1.3293505,-2.4227688,-3.2551503,-0.33820373,-0.0042661037,-0.36842254,28.5,29.8125,28.875,32.625,35.0625,36.0625
0.13005252,-1.3654617,-0.74988705,-1.7700988,-0.040690266,0.09850925,-0.15132421,-0.39291406,-0.36748952,0.059923675,-3.078159,0.6234497,-0.0003663172,-0.058871835,0.017747397,0.0016063885,0.00872002,0.0028245146,0.026484547,0.49989262,-1.3770792,1.8985652,-2.090028,-1.5712651,2.474035,-0.07852063,0.06925822,-0.091077656,0.02349506,-0.009232412,-0.10493929,-0.45968673,0.17238252,-9.557653,0.78217715,47.689575,-1.1541042,-2.4134278,-3.3508186,-0.36002064,-0.025436379,-0.26892895,28.5,29.8125,28.875,32.625,35.0625,36.0625
0.13205226,-1.1163317,-0.6628967,-1.7377263,-0.029944954,0.10635482,-0.14973213,-0.39305612,-0.3674804,0.059948258,-3.078223,0.6233416,-0.00032232646,-0.058144342,0.01618142,0.0018245084,0.0076367483,0.0029710499,0.034128256,0.499738,-1.3769228,1.8983129,-2.0899804,-1.5712522,2.473805,-0.075736016,0.06967208,-0.09205406,0.023403998,-0.008352944,-0.10980032,-0.28730422,0.05746084,-9.5385,0.8605109,47.684196,-1.3222635,-2.419156,-3.3307953,-0.35565957,-0.026689574,-0.24737309,28.5,29.8125,28.875,32.625,35.0625,36.0625
0.13405235,-2.1651487,-1.0279969,-1.8602386,-0.008959432,0.088953294,-0.1296444,-0.39316016,-0.36744243,0.05994024,-3.0782237,0.62320524,-0.00031178468,-0.060783878,0.016351834,0.0027553663,0.006613805,0.005566113,0.035826273,0.4995935,-1.3767904,1.8981689,-2.089957,-1.571277,2.4735754,-0.07821642,0.071032815,-0.09567871,0.022895006,-0.008711875,-0.11397616,-0.4405331,0.038307227,-9.519346,0.7530795,47.68062,-1.276341,-2.3721967,-3.299255,-0.34100667,-0.024719624,-0.18361387,28.5,29.8125,28.875,32.625,35.0625,36.0625
0.1360523,-2.1289608,-0.9374572,-1.8947327,0.005018023,0.09153488,-0.12922308,-0.3932779,-0.36742577,0.0599386,-3.078251,0.62303793,-0.00035564622,-0.061160263,0.01738909,0.0019369237,0.007062134,0.0045187804,0.035010606,0.49944898,-1.3766099,1.8979424,-2.0898855,-1.5712646,2.473323,-0.080348894,0.071732976,-0.09448727,0.022136632,-0.0086066825,-0.1152933,-0.47884035,0.038307227,-9.500193,0.7732232,47.635834,-1.281856,-2.3912034,-3.3426995,-0.32846323,-0.040247634,-0.14166984,28.5,29.8125,28.875,32.625,35.0625,36.0625
0.13805243,-1.5262513,-0.1436001,-1.8413426,-0.002273077,0.10190693,-0.14262316,-0.39336383,-0.36736873,0.059915353,-3.0781925,0.6230076,-0.0004452534,-0.06296062,0.016954804,0.0028290406,0.0057082027,0.0064974884,0.03279211,0.49928117,-1.3764775,1.8978218,-2.089813,-1.5712765,2.4731438,-0.081401296,0.07281619,-0.09776815,0.021945944,-0.008381657,-0.114125535,-0.5554548,0.095768064,-9.576807,0.77545905,47.63225,-1.2749301,-2.3304327,-3.3894122,-0.32505882,-0.03778176,-0.14881763,28.5,29.8125,28.875,32.625,35.0625,36.0625
0.1400527,-1.0749604,-0.2696903,-1.6047999,-0.0096420515,0.11358014,-0.13740978,-0.39355615,-0.36734855,0.059956104,-3.0782797,0.6229324,-0.00019776796,-0.064433135,0.018683864,0.002493067,0.005932672,0.0060075014,0.024931327,0.49909982,-1.3763331,1.8975714,-2.089873,-1.5713247,2.4729047,-0.08566424,0.07332873,-0.09758261,0.021780638,-0.008322227,-0.11052921,-0.47884035,0.019153614,-9.442732,0.83589023,47.672558,-1.1605084,-2.3546584,-3.3029785,-0.31250587,-0.061008837,-0.16838455,28.5,29.8125,28.875,32.625,35.0625,36.0625
0.14205196,-1.375873,-0.58006155,-1.7037116,5.937813e-05,0.1048015,-0.12555039,-0.39364067,-0.3673132,0.059940673,-3.0782623,0.6228531,-0.00037607996,-0.06528653,0.017780103,0.0033048952,0.005967574,0.008288575,0.021635732,0.49893275,-1.3761767,1.8973912,-2.0897415,-1.571277,2.4726903,-0.084205106,0.074162446,-0.10044014,0.021828977,-0.00945823,-0.10576977,-0.5554548,-0.095768064,-9.519346,0.7911258,47.690468,-1.3092074,-2.2768326,-3.2988,-0.2998113,-0.04677455,-0.23011318,28.5,29.8125,28.875,32.625,35.0625,36.0625
0.14405183,-0.9228393,-0.5848394,-1.7435889,-0.0016674696,0.121927194,-0.13512811,-0.3937995,-0.3672634,0.059948456,-3.0782506,0.62283343,-0.000259496,-0.06690467,0.019367017,0.002895128,0.0067909113,0.0076687597,0.015460071,0.49874,-1.37602,1.8971876,-2.0897415,-1.5713371,2.472487,-0.08806957,0.07553537,-0.101224594,0.022173561,-0.009878158,-0.103457615,-0.61291564,-0.095768064,-9.500193,0.7732232,47.71286,-1.3311318,-2.29831,-3.3870184,-0.29764932,-0.04802252,-0.28697574,28.5,29.8125,28.875,32.625,35.0625,36.0625
0.14605168,-0.60671496,-0.48110405,-1.7886444,-0.004850661,0.12645897,-0.14266665,-0.39394045,-0.3672361,0.059950825,-3.0782642,0.62275916,-0.00023444174,-0.06775737,0.019549066,0.002926093,0.006324202,0.0076429923,0.014360885,0.49857166,-1.3758397,1.8969601,-2.0897057,-1.571349,2.4722707,-0.08939193,0.07643854,-0.10239304,0.022233797,-0.00945675,-0.10368126,-0.51714754,-0.1340753,-9.385271,0.8247004,47.696735,-1.1472965,-2.276444,-3.3887649,-0.28724527,-0.045448028,-0.31266338,28.5,29.8125,28.875,32.625,35.0625,36.0625
0.1480526,-1.243641,-0.7752535,-1.7106403,-0.0013594782,0.10867019,-0.13085976,-0.39407355,-0.3671672,0.05994678,-3.0782177,0.62272984,-0.00024426932,-0.06870136,0.02071222,0.002000287,0.0076528224,0.0062573543,0.013041918,0.4983555,-1.3756945,1.8967808,-2.0896337,-1.5713848,2.4720423,-0.09186986,0.07854104,-0.10283401,0.022419835,-0.009966006,-0.10483826,-0.38307226,-0.05746084,-9.3661175,0.784413,47.682407,-1.1986982,-2.2798078,-3.4182253,-0.2789429,-0.050489567,-0.3167034,28.5,29.8125,28.875,32.625,35.0625,36.0625
0.15005279,-1.260517,-0.9181734,-1.6219655,-0.010693346,0.114406325,-0.14034276,-0.39418674,-0.3671547,0.05995649,-3.0782528,0.6226415,-0.00024276406,-0.070673965,0.021232806,0.003036677,0.0068096425,0.008154771,0.010507813,0.49822286,-1.3755504,1.8965768,-2.0895855,-1.5713729,2.4718502,-0.09442754,0.07853671,-0.105283655,0.022804728,-0.010135033,-0.10486066,-0.5746084,-0.038307227,-9.404425,0.80679786,47.689575,-1.0971119,-2.3316002,-3.3730378,-0.2612585,-0.06519635,-0.3602631,28.5,29.8125,28.875,32.625,35.0625,36.0625
0.15205187,-1.6047313,-0.8128089,-1.7903217,-0.008788271,0.098140776,-0.1327591,-0.39434463,-0.3671191,0.059980575,-3.0782936,0.6226689,-0.00015832635,-0.072016336,0.022291621,0.0024184573,0.007448584,0.0071164253,0.009674748,0.49801815,-1.3754177,1.8963617,-2.0895736,-1.5713733,2.4716575,-0.097366795,0.0806232,-0.10642352,0.023072325,-0.010195499,-0.1069667,-0.51714754,0.05746084,-9.32781,0.8224646,47.69763,-0.99609935,-2.3051429,-3.3843918,-0.24250215,-0.04928433,-0.38421053,28.5,29.8125,28.875,32.625,35.0625,36.0625
0.1540521,-0.6355013,-0.50522745,-1.669872,-0.015158217,0.11573041,-0.14471091,-0.39450374,-0.3670438,0.059960905,-3.0782132,0.6225957,-0.00015830829,-0.07343373,0.022808779,0.0026948382,0.007485689,0.0075749177,0.006945784,0.49778995,-1.3752012,1.8961333,-2.0895016,-1.5714453,2.471394,-0.09934051,0.08166065,-0.10843001,0.023647813,-0.010455278,-0.106209405,-0.45968673,0.095768064,-9.385271,0.7911258,47.690468,-0.9580147,-2.2800965,-3.4179661,-0.23665655,-0.05540152,-0.40463907,28.5,29.8125,28.875,32.625,35.0625,36.0625
0.156052,-0.71622133,-0.46079892,-1.7278012,-0.026558235,0.10609203,-0.14644538,-0.39463928,-0.36699635,0.059964735,-3.078206,0.6226281,-0.00016024524,-0.07476323,0.02347131,0.0027876103,0.007526799,0.008060957,0.0117069315,0.49758565,-1.3750566,1.8959421,-2.089454,-1.5714453,2.471211,-0.101469666,0.08254864,-0.10969846,0.023614665,-0.010730908,-0.113098465,-0.47884035,0.15322891,-9.32781,0.8247004,47.692257,-0.795922,-2.2502923,-3.4429975,-0.23160246,-0.036570624,-0.41248822,28.5,29.8125,28.875,32.625,35.0625,36.0625
0.15805204,-0.9963071,-0.85697967,-1.6155863,-0.022833738,0.10069401,-0.13464496,-0.39477473,-0.36697212,0.059967868,-3.078269,0.6224454,-0.00017208952,-0.07616864,0.023528047,0.002122189,0.008169002,0.0072556273,0.015079662,0.49740574,-1.3748872,1.8957256,-2.0894177,-1.5714215,2.470909,-0.10270579,0.08621434,-0.1126093,0.023872223,-0.010918356,-0.117705345,-0.45968673,0.19153613,-9.308657,0.83365434,47.701214,-0.8264036,-2.26197,-3.3748953,-0.20748174,-0.051281653,-0.36744422,28.5,29.8125,28.875,32.625,35.0625,36.0625
0.16005208,-1.3076534,-0.98747087,-1.6178269,-0.020315861,0.09831451,-0.13792218,-0.39494497,-0.3669355,0.059998773,-3.0782542,0.622438,-5.6633617e-05,-0.07634356,0.025038347,0.0021734496,0.009212942,0.007056381,0.020780774,0.49722517,-1.3747196,1.89544,-2.0893457,-1.5714816,2.470726,-0.10485477,0.084713876,-0.11110308,0.024527535,-0.011735602,-0.1255551,-0.51714754,0.095768064,-9.385271,0.78217715,47.68062,-0.8042127,-2.3156428,-3.4649966,-0.19169682,-0.055164546,-0.2907772,28.5,29.8125,28.875,32.625,35.0625,36.0625
0.1620522,-1.6191136,-0.66573787,-1.5684102,-0.019032922,0.09679948,-0.13359514,-0.39510286,-0.36686048,0.059981626,-3.0782392,0.6223916,-7.3743715e-05,-0.078085594,0.023991808,0.0037152877,0.006758103,0.009482444,0.027461104,0.4969617,-1.3745393,1.8952593,-2.0893219,-1.5714935,2.4704356,-0.10526399,0.085184686,-0.11527039,0.02490741,-0.010750129,-0.13264489,-0.38307226,0.076614454,-9.385271,0.83589023,47.70211,-0.8380848,-2.1813304,-3.441831,-0.17664549,-0.054009467,-0.23474461,28.5,29.8125,28.875,32.625,35.0625,36.0625
0.16405211,-0.9178217,-0.5502175,-1.4248701,-0.014425384,0.11180815,-0.14355932,-0.39526787,-0.3668188,0.05999287,-3.0782542,0.6222375,1.1806953e-05,-0.07744552,0.024730923,0.00084092165,0.0093951905,0.0040238295,0.031341504,0.4967699,-1.3743572,1.8950094,-2.0892856,-1.5715412,2.470146,-0.10605998,0.09003809,-0.11463898,0.025464993,-0.010462274,-0.13732181,-0.36391866,0.095768064,-9.385271,0.80456203,47.704796,-0.8353232,-2.4013915,-3.4683058,-0.18044055,-0.07447793,-0.13316973,28.5,29.8125,28.875,32.625,35.0625,36.0625
0.16605212,-1.2558254,-0.9252285,-1.4994445,0.00074732234,0.09305806,-0.13142225,-0.39543656,-0.3667778,0.060017876,-3.0782917,0.6221654,8.2875624e-05,-0.0788365,0.024215352,0.0024269377,0.008113774,0.007338599,0.034407716,0.4965542,-1.3742015,1.8947567,-2.089238,-1.5715536,2.4698806,-0.10614201,0.08921128,-0.117255785,0.025378874,-0.010916122,-0.14046873,-0.38307226,0.095768064,-9.270349,0.78217715,47.688675,-0.914672,-2.2326741,-3.4207284,-0.15380983,-0.047466338,-0.085376255,28.5,29.8125,28.875,32.625,35.0625,36.0625
0.16805217,0.010909319,-0.31998307,-1.369071,-0.0074551753,0.10405481,-0.14606544,-0.39559507,-0.36672464,0.060009874,-3.0782814,0.62208766,6.265915e-05,-0.0793763,0.023442011,0.0024117457,0.0076031517,0.007383221,0.030609434,0.49632704,-1.3739966,1.8945178,-2.0891778,-1.5715655,2.4696064,-0.10555854,0.09107502,-0.11946788,0.025442988,-0.010493218,-0.13608648,-0.34476504,0.1340753,-9.251195,0.7217513,47.67614,-0.9623401,-2.329722,-3.3250341,-0.11397423,-0.08383539,-0.1292237,28.5,29.8125,28.875,32.625,35.0625,36.0625
0.17005228,-0.5195296,-0.9316111,-1.6083002,-0.0061668404,0.07174742,-0.12709,-0.3957415,-0.366678,0.060003486,-3.0782707,0.62201387,4.3692246e-05,-0.0811948,0.025191402,0.0024705369,0.008866028,0.007034027,0.021703534,0.496122,-1.3738041,1.8942899,-2.0891173,-1.5715774,2.4693568,-0.10953641,0.09204941,-0.1211391,0.027052145,-0.011436949,-0.13115552,-0.19153613,0.17238252,-9.193734,0.80456203,47.703903,-0.85212904,-2.3208885,-3.3675742,-0.11303558,-0.04679771,-0.1658791,28.5,29.8125,28.875,32.625,35.0625,36.0625
0.17205222,-0.28664613,-1.1100394,-1.7817906,-0.01728689,0.06411536,-0.13428089,-0.3959281,-0.3666224,0.06002193,-3.0782707,0.62193656,0.0001617063,-0.08207172,0.023528969,0.0038380257,0.008094526,0.009133087,0.019322813,0.49589542,-1.3736236,1.8940252,-2.089081,-1.571638,2.469082,-0.10730188,0.09312429,-0.12586442,0.028484311,-0.011754419,-0.12653829,-0.22984336,0.22984336,-9.232041,0.842603,47.68599,-1.0697334,-2.286463,-3.2617583,-0.096239805,-0.06781532,-0.20580742,28.5,29.8125,28.875,32.625,35.0625,36.0625
0.17405206,-0.4155564,-0.8525026,-1.7816229,-0.030051297,0.054599475,-0.14477552,-0.39607498,-0.3665755,0.06002045,-3.0782628,0.62188137,0.00015420142,-0.08221115,0.026843049,0.00070386264,0.01168829,0.002799007,0.010361056,0.49568978,-1.373442,1.8937992,-2.089021,-1.5716499,2.4688432,-0.11287075,0.09646848,-0.12296256,0.029519198,-0.011893048,-0.12314566,-0.076614454,0.17238252,-9.193734,0.73741806,47.661808,-0.74334896,-2.5360017,-3.419147,-0.10323374,-0.053007282,-0.29114747,28.5,29.8125,28.875,32.625,35.0625,36.0625
0.17605193,-0.30325198,-0.78888595,-1.7268465,-0.038957007,0.057645466,-0.14859188,-0.39623642,-0.3665196,0.06000473,-3.0782273,0.62189186,0.0001496726,-0.08357558,0.025371425,0.0032225566,0.0094849095,0.006980049,0.009246698,0.49546307,-1.3732264,1.8935703,-2.0889847,-1.5716738,2.4686277,-0.11156403,0.09513237,-0.12734437,0.0305083,-0.011951609,-0.120722815,-0.019153614,0.17238252,-9.385271,0.7978386,47.667187,-0.96417713,-2.2505753,-3.242712,-0.08758551,-0.049190074,-0.33774406,28.5,29.8125,28.875,32.625,35.0625,36.0625
0.17805181,-0.4930604,-1.0915278,-1.7534556,-0.03598727,0.058377665,-0.14906926,-0.39641446,-0.3664516,0.06000557,-3.078177,0.62186223,0.00019058493,-0.08361437,0.025461629,0.0011653978,0.010692408,0.0024350793,0.0073410706,0.4952232,-1.3730204,1.8933071,-2.0889122,-1.5717334,2.468376,-0.11238572,0.10007296,-0.12880488,0.031588145,-0.010855481,-0.11963986,-0.1340753,0.19153613,-9.270349,0.80679786,47.66091,-0.9706862,-2.504534,-3.2839398,-0.08662307,-0.054120988,-0.38265854,28.5,29.8125,28.875,32.625,35.0625,36.0625
0.18005188,0.12212827,-0.9261479,-1.5642225,-0.03987299,0.072785944,-0.14890543,-0.39656568,-0.36640888,0.060004015,-3.0781865,0.62184465,8.244438e-05,-0.08446402,0.025430083,0.0023853793,0.010123841,0.0041431948,0.0060192277,0.49498358,-1.3728168,1.8930439,-2.088804,-1.5716852,2.4681242,-0.112864174,0.09907672,-0.13065699,0.032668576,-0.011173994,-0.11879481,-0.05746084,0.3256114,-9.346964,0.8112748,47.689575,-1.0161622,-2.298093,-3.26072,-0.07235767,-0.053150393,-0.4757428,28.5,29.8125,28.875,32.625,35.0625,36.0625
0.18205395,-0.27003917,-0.40957707,-1.7779295,-0.035882045,0.055547964,-0.14758532,-0.39674437,-0.36636505,0.06000598,-3.0781586,0.6217414,0.00016740724,-0.08560719,0.02524661,0.0021777581,0.009885754,0.0033546048,0.0066816295,0.4947915,-1.3725874,1.8927559,-2.0887563,-1.5717572,2.4678714,-0.11391203,0.10173646,-0.13355106,0.03346936,-0.01059459,-0.12050504,-0.095768064,0.30645782,-9.289502,0.83813137,47.66987,-0.91139895,-2.4588723,-3.1264167,-0.08163609,-0.068823226,-0.49729618,28.5,29.8125,28.875,32.625,35.0625,36.0625
0.18405199,-0.23523156,-1.1996987,-1.7850835,-0.019841865,0.056190014,-0.1358306,-0.39687362,-0.3663131,0.05998645,-3.0781372,0.6217524,4.182855e-05,-0.08635221,0.025172647,0.0022203503,0.009265396,0.0029827747,0.010742254,0.49456397,-1.372395,1.8925523,-2.088672,-1.571721,2.4676535,-0.114864804,0.102934636,-0.13520126,0.03394861,-0.009887827,-0.12551853,-0.05746084,0.30645782,-9.232041,0.78888994,47.719128,-1.142125,-2.4007616,-3.202589,-0.07183593,-0.07002853,-0.5046488,28.5,29.8125,28.875,32.625,35.0625,36.0625
0.18605213,-0.5378534,-1.1805038,-1.8905408,-0.03227536,0.04652016,-0.1396499,-0.39709795,-0.36626524,0.060029175,-3.0781658,0.62167484,0.00024140104,-0.086682044,0.025497535,0.0014232424,0.010998922,0.0016371809,0.019952524,0.49432412,-1.3722018,1.892217,-2.0886357,-1.5717934,2.467362,-0.115105264,0.10531992,-0.13643166,0.03478242,-0.010769898,-0.13496765,-0.019153614,0.30645782,-9.32781,0.80679786,47.690468,-1.0002384,-2.5098853,-3.1039093,-0.051949754,-0.08268026,-0.43907616,28.5,29.8125,28.875,32.625,35.0625,36.0625
0.18805206,-0.44782308,-0.6831388,-1.7759827,-0.048303176,0.05528967,-0.15431389,-0.39726314,-0.36619776,0.060014535,-3.0781252,0.6216394,0.00015204746,-0.08731434,0.025638983,0.0017022847,0.010590246,0.0014933348,0.030839609,0.4940604,-1.3719736,1.8919543,-2.088528,-1.5717934,2.4670813,-0.11612076,0.10571843,-0.13775252,0.03562055,-0.01036288,-0.14686993,0.019153614,0.2681506,-9.423578,0.8291774,47.675243,-1.1014034,-2.5038705,-3.138556,-0.04464866,-0.052242883,-0.35365197,28.5,29.8125,28.875,32.625,35.0625,36.0625
0.1900521,-1.1932945,-1.2107942,-1.9847407,-0.049132787,0.048465505,-0.14857663,-0.3974231,-0.36617717,0.060047317,-3.0781958,0.62147725,0.00022053935,-0.08798754,0.026407948,0.0014446311,0.011281466,0.00035669384,0.036433954,0.49388024,-1.371817,1.8916796,-2.0884674,-1.5717934,2.4667912,-0.1179372,0.10678499,-0.13872819,0.036848646,-0.010429459,-0.15428075,-0.019153614,0.34476504,-9.346964,0.8537928,47.661808,-1.1193128,-2.440295,-3.1213994,-0.054399878,-0.07380445,-0.25451517,28.5,29.8125,28.875,32.625,35.0625,36.0625
0.19205195,-1.0382516,-1.6551262,-1.8295217,-0.0472868,0.06564244,-0.13383886,-0.39761537,-0.3661067,0.0600085,-3.0781195,0.6214008,0.00016589738,-0.08955402,0.026002876,0.0024143397,0.010139409,0.0017564303,0.040952154,0.4936165,-1.3715044,1.8913797,-2.0883958,-1.5718411,2.4664896,-0.11882276,0.10771587,-0.14225498,0.03765359,-0.010111372,-0.159683,0.0,0.30645782,-9.423578,0.8537928,47.67614,-1.1198997,-2.5124826,-3.1033287,-0.059023008,-0.07901725,-0.20031312,28.5,29.8125,28.875,32.625,35.0625,36.0625
0.194052,-1.1620772,-1.8199012,-1.8140001,-0.035151333,0.06238992,-0.12617172,-0.39778686,-0.36605957,0.06002236,-3.0781732,0.6212372,0.00023049471,-0.0889608,0.026951741,0.0013202716,0.011088225,-0.0007718274,0.041563958,0.4933886,-1.3713361,1.8911422,-2.0883715,-1.5718526,2.466153,-0.12005581,0.10818249,-0.14042345,0.03802409,-0.009739717,-0.16152984,-0.05746084,0.36391866,-9.442732,0.74413085,47.65464,-1.1593997,-2.4407516,-3.313048,-0.04931504,-0.09046168,-0.15760344,28.5,29.8125,28.875,32.625,35.0625,36.0625
0.19605172,-0.8272013,-1.4040494,-1.9431717,-0.030025734,0.07536286,-0.12696752,-0.39793766,-0.3659892,0.05999524,-3.0781236,0.62103856,0.00012268923,-0.08894258,0.027698683,0.0006854446,0.012031367,-0.0036966973,0.033094868,0.4931485,-1.3710954,1.89089,-2.0882514,-1.5718769,2.4657953,-0.12158575,0.10949717,-0.1411121,0.040420838,-0.009194736,-0.1545907,-0.30645782,0.21068975,-9.404425,0.8291774,47.674347,-1.1384841,-2.3460035,-3.2624774,-0.04506749,-0.09970279,-0.19290246,28.5,29.8125,28.875,32.625,35.0625,36.0625
0.1980517,-0.81572324,-0.6485185,-1.7020186,-0.025549531,0.075836,-0.13901603,-0.39813656,-0.36595097,0.06000536,-3.0781536,0.62100875,0.0001362306,-0.08996451,0.028508555,0.001109945,0.012379559,-0.0033683653,0.026319996,0.49289635,-1.3708552,1.8905672,-2.0881908,-1.571865,2.4655209,-0.123529054,0.10948689,-0.14234239,0.041543838,-0.00965171,-0.14975794,-0.22984336,0.095768064,-9.3661175,0.8157518,47.682407,-1.0622284,-2.3375685,-3.3370802,-0.065529935,-0.11001451,-0.24386841,28.5,29.8125,28.875,32.625,35.0625,36.0625
0.20005271,-0.87806094,-0.21938375,-1.8413941,-0.0053555155,0.071888454,-0.13573052,-0.39833993,-0.36591235,0.06004579,-3.0782006,0.62101936,0.0001667953,-0.090759106,0.029433792,-0.00080844923,0.013808682,-0.006099059,0.021443654,0.49263233,-1.3706614,1.89022,-2.0880835,-1.5718411,2.4652576,-0.12576427,0.11357776,-0.14273544,0.04093193,-0.0096150795,-0.14711651,-0.19153613,0.076614454,-9.461885,0.8627467,47.689575,-1.0140426,-2.503878,-3.4343176,-0.052496016,-0.12725309,-0.31959543,28.5,29.8125,28.875,32.625,35.0625,36.0625
0.20205261,-0.44804284,0.13791484,-1.6408342,0.0067155636,0.087454565,-0.13553259,-0.3984852,-0.3658401,0.060005866,-3.0781143,0.62086695,9.474261e-05,-0.092229925,0.029447414,0.0016334672,0.011807145,-0.0025708328,0.019415002,0.49241617,-1.3704103,1.8899926,-2.0879986,-1.5719007,2.4649575,-0.12712142,0.11064431,-0.14509492,0.042159356,-0.009539513,-0.14644389,-0.24899697,-0.11492168,-9.423578,0.88289046,47.68599,-1.0114431,-2.3356087,-3.497847,-0.061695248,-0.11165096,-0.349439,28.5,29.8125,28.875,32.625,35.0625,36.0625
0.20405248,-1.279934,0.26139212,-1.6322234,0.025449239,0.07323946,-0.12638645,-0.3986724,-0.36577925,0.060012832,-3.0781024,0.6208263,8.6090025e-05,-0.091257334,0.031693395,-0.0017156262,0.016395563,-0.009717843,0.016889839,0.4921521,-1.3701925,1.8896955,-2.0879028,-1.5719131,2.4646697,-0.12954545,0.11484587,-0.14299919,0.04432738,-0.010201001,-0.14634138,-0.38307226,-0.19153613,-9.423578,0.779936,47.705692,-0.9931246,-2.4967527,-3.5998695,-0.06900915,-0.1419202,-0.37266734,28.5,29.8125,28.875,32.625,35.0625,36.0625
0.20605226,-1.0391289,1.0264118,-1.3923115,0.024132937,0.08740074,-0.14222465,-0.39886993,-0.3657203,0.05999809,-3.078104,0.6206889,9.4227864e-05,-0.091477625,0.030652992,0.00014471226,0.015596844,-0.008899408,0.02048062,0.49188906,-1.3699287,1.8894061,-2.087865,-1.571937,2.464321,-0.12813008,0.11383608,-0.14691609,0.04814565,-0.009891208,-0.14851645,-0.36391866,-0.21068975,-9.32781,0.8717007,47.70032,-1.0088257,-2.3294713,-3.4488058,-0.10440503,-0.11231099,-0.39878517,28.5,29.8125,28.875,32.625,35.0625,36.0625
0.20805214,-1.1290455,0.498662,-1.7171432,0.047842804,0.09007087,-0.13547492,-0.3990396,-0.36566103,0.059998687,-3.0780807,0.62064284,3.2321914e-05,-0.09338361,0.03203815,0.00039210217,0.016163858,-0.009707882,0.022675192,0.49163604,-1.369712,1.889119,-2.0877445,-1.571937,2.4640422,-0.13204056,0.115203924,-0.14966197,0.050494775,-0.0100272335,-0.15461965,-0.36391866,-0.36391866,-9.3661175,0.76874626,47.67614,-0.99177897,-2.3668914,-3.47474,-0.117852494,-0.13680573,-0.36818117,28.5,29.8125,28.875,32.625,35.0625,36.0625
0.2100521,-1.491187,0.6861563,-1.5706623,0.03272806,0.09160035,-0.1393802,-0.39921737,-0.36558437,0.059983283,-3.0780237,0.6206026,-3.0817693e-05,-0.093453474,0.030818114,0.0009981125,0.015847389,-0.007882332,0.03493848,0.49136168,-1.3694718,1.8888434,-2.0876377,-1.5719613,2.4637501,-0.12962212,0.11554054,-0.15137532,0.050096277,-0.010640077,-0.16446157,-0.36391866,-0.24899697,-9.442732,0.8918391,47.672558,-1.1436341,-2.219576,-3.405169,-0.15658541,-0.14161114,-0.28733468,28.5,29.8125,28.875,32.625,35.0625,36.0625
0.21205197,-1.5679903,0.27505648,-1.6947266,0.016507255,0.107064,-0.14503948,-0.3994211,-0.36553055,0.060005255,-3.0780327,0.62036824,-1.5798616e-05,-0.09404651,0.031912774,-7.723798e-05,0.01742813,-0.011677915,0.04304116,0.4911093,-1.3692305,1.8884729,-2.0874922,-1.571997,2.4633505,-0.13216919,0.11852345,-0.15316181,0.052968923,-0.010258815,-0.17511126,-0.5363012,-0.19153613,-9.423578,0.8560339,47.686886,-1.0990915,-2.2932458,-3.3881922,-0.18808286,-0.16479006,-0.16516748,28.5,29.8125,28.875,32.625,35.0625,36.0625
0.21405183,-0.91891825,-0.115879074,-1.6486541,0.013645773,0.12169086,-0.1350629,-0.39960256,-0.3654766,0.059996754,-3.0780227,0.6202082,-3.6354995e-05,-0.094462134,0.032204054,0.0012097809,0.017777802,-0.01070176,0.04803796,0.49086994,-1.3689789,1.888173,-2.0874078,-1.5720214,2.4630127,-0.13249166,0.11696562,-0.15482248,0.055480786,-0.011041735,-0.18042804,-0.47884035,-0.19153613,-9.5385,0.7777002,47.6636,-1.1338993,-2.220307,-3.408094,-0.23028615,-0.16487406,-0.0832791,28.5,29.8125,28.875,32.625,35.0625,36.0625
0.21605167,-0.9681202,-0.30271965,-2.0018744,-7.363671e-05,0.11841687,-0.12842868,-0.39980763,-0.36539146,0.060018677,-3.0780017,0.62016964,-3.0791132e-05,-0.09530971,0.03347021,-0.001048461,0.02108821,-0.014504612,0.04238677,0.49055737,-1.3687847,1.8878616,-2.0872757,-1.5720462,2.462679,-0.1346177,0.122327805,-0.15634856,0.05655977,-0.012175282,-0.17689848,-0.59376204,-0.15322891,-9.634268,0.83365434,47.681515,-1.0036724,-2.3500838,-3.3999772,-0.26443973,-0.14609884,-0.06993605,28.5,29.8125,28.875,32.625,35.0625,36.0625
0.21805258,-1.4821408,-0.9058081,-2.0299969,-0.020475985,0.11160862,-0.13149074,-0.39998078,-0.36534408,0.060021408,-3.0779994,0.6199801,-8.0294696e-05,-0.09772639,0.03486693,0.00026847192,0.019922327,-0.012238299,0.031867307,0.4903288,-1.368545,1.8875397,-2.0871441,-1.5720576,2.4623325,-0.13905144,0.12116961,-0.15805897,0.056883726,-0.012223812,-0.17081164,-0.6895301,-0.019153614,-9.576807,0.7597976,47.685097,-1.0396594,-2.2799597,-3.380631,-0.3020728,-0.16277327,-0.11705123,28.5,29.8125,28.875,32.625,35.0625,36.0625
0.2200524,-1.4185117,-1.1879874,-1.8441982,-0.044280395,0.1251655,-0.1351319,-0.40017965,-0.36525646,0.06001527,-3.0779545,0.61991537,-0.00012902859,-0.09931869,0.033599824,0.001404598,0.019218627,-0.009165834,0.025996566,0.4900179,-1.3683043,1.8872393,-2.087025,-1.5720824,2.461987,-0.1377743,0.12274172,-0.16250694,0.05672247,-0.013066738,-0.16365886,-0.8619126,0.17238252,-9.615114,0.800085,47.691364,-1.1106011,-2.258345,-3.3263137,-0.34386545,-0.14390789,-0.2080998,28.5,29.8125,28.875,32.625,35.0625,36.0625
0.22205225,-1.6410241,-0.77349514,-1.938778,-0.0664815,0.13821536,-0.14421901,-0.4003714,-0.36518815,0.06001095,-3.0779157,0.6199108,-0.00020623286,-0.099575646,0.033519965,0.0006324464,0.019074978,-0.009814068,0.018256009,0.4897303,-1.3680512,1.8869175,-2.0868938,-1.5720819,2.4617016,-0.13806863,0.12450734,-0.16263229,0.055591755,-0.012643502,-0.15621263,-0.78529817,0.21068975,-9.691729,0.81351066,47.681515,-1.072119,-2.1690912,-3.376957,-0.34220743,-0.1611737,-0.3042916,28.5,29.8125,28.875,32.625,35.0625,36.0625
0.22405215,-1.65371,-1.1183709,-1.7099695,-0.06567907,0.14153275,-0.14221427,-0.40058577,-0.3651093,0.060015284,-3.077862,0.6198617,-0.0001775655,-0.10058413,0.033963513,-0.0001757331,0.020110624,-0.011141583,0.01377204,0.4894425,-1.367798,1.8865808,-2.086785,-1.5721425,2.4613903,-0.13946792,0.12755775,-0.16459131,0.056151494,-0.012941363,-0.15312569,-0.59376204,0.28730422,-9.730036,0.8403672,47.703903,-1.0878327,-2.1693842,-3.2608972,-0.35866958,-0.17180485,-0.35760868,28.5,29.8125,28.875,32.625,35.0625,36.0625
0.22605227,-1.5309993,-1.5297595,-1.7011453,-0.061158027,0.1404191,-0.14629734,-0.4007902,-0.36503184,0.060028046,-3.0778143,0.61989015,-0.00020018748,-0.10187858,0.033249695,-0.00037023434,0.019032469,-0.009624612,0.010918568,0.48914316,-1.367569,1.8862461,-2.0866425,-1.5721658,2.461115,-0.13950247,0.12994549,-0.16650157,0.053824324,-0.012719652,-0.15030569,-0.4405331,0.3256114,-9.615114,0.8537928,47.703007,-1.1182404,-2.4261723,-3.226973,-0.37895876,-0.15742263,-0.45765102,28.5,29.8125,28.875,32.625,35.0625,36.0625
0.2280522,-1.7201812,-1.5069011,-1.624012,-0.06844762,0.120068386,-0.13143063,-0.40099788,-0.36498836,0.060028784,-3.0778327,0.6197562,-0.00018834599,-0.10491721,0.03270167,0.0010720551,0.01664374,-0.0035399795,0.012809031,0.48889127,-1.3672926,1.8858985,-2.086572,-1.5721782,2.4607773,-0.1407638,0.13042212,-0.16947946,0.049825262,-0.013492809,-0.15345389,-0.34476507,0.3256114,-9.576807,0.77545905,47.67614,-1.1538242,-2.2231998,-3.2260935,-0.34899485,-0.19564421,-0.5016821,28.5,29.8125,28.875,32.625,35.0625,36.0625
0.23005217,-0.9207486,-1.2035229,-1.6029174,-0.07808632,0.11637088,-0.1415282,-0.401225,-0.36488336,0.060035866,-3.0777454,0.61978865,-0.00016356619,-0.10531788,0.03302372,-0.0004187238,0.017278163,-0.004229153,0.022485528,0.48855573,-1.3670512,1.8855647,-2.0864418,-1.5722502,2.4604733,-0.14142366,0.13305677,-0.16869083,0.047278117,-0.013757586,-0.16378877,-0.36391866,0.4213795,-9.461885,0.8224646,47.64837,-1.1717904,-2.439714,-3.310233,-0.33472788,-0.16329247,-0.4717284,28.5,29.8125,28.875,32.625,35.0625,36.0625
0.23205203,-1.0119977,-1.7463404,-1.6711305,-0.06376411,0.08963437,-0.14431535,-0.40147823,-0.36483833,0.060036816,-3.0777953,0.61959934,-8.464862e-05,-0.1064387,0.03320962,-0.00011462165,0.016618796,-0.0030362338,0.034165744,0.48826802,-1.3667269,1.8851694,-2.0864174,-1.5722746,2.4600613,-0.14265671,0.13350745,-0.16979425,0.046540312,-0.013752113,-0.17670226,-0.21068975,0.45968673,-9.481039,0.85826975,47.678825,-1.2178228,-2.3220813,-3.292779,-0.3156312,-0.18018223,-0.35780007,28.5,29.8125,28.875,32.625,35.0625,36.0625
0.23405188,-1.2926425,-2.0364954,-1.4647588,-0.064925216,0.069666125,-0.13108324,-0.40168914,-0.36476883,0.06005913,-3.077786,0.6194957,-2.541205e-05,-0.107960105,0.033795394,-0.00074433,0.016308334,-0.0029618791,0.04201309,0.48799184,-1.3665097,1.8848351,-2.086311,-1.5723222,2.4597218,-0.14506441,0.1357926,-0.17077053,0.044991,-0.013533138,-0.18695731,-0.22984336,0.36391866,-9.442732,0.8090337,47.661808,-1.2364339,-2.5332358,-3.3858871,-0.2966537,-0.156666,-0.23113431,28.5,29.8125,28.875,32.625,35.0625,36.0625
0.23605181,-0.16200815,-1.2991561,-1.2693061,-0.08621292,0.08775525,-0.14298671,-0.40192994,-0.36471736,0.06006922,-3.0778284,0.61938363,6.808259e-05,-0.109050736,0.03281692,-0.0006630102,0.014491145,-0.00024205394,0.048306916,0.48770458,-1.3662333,1.8844765,-2.0862877,-1.5723461,2.4593594,-0.14451346,0.13706566,-0.17169543,0.041370016,-0.013212077,-0.19270113,-0.15322891,0.36391866,-9.32781,0.8179876,47.661808,-1.16938,-2.3425674,-3.456378,-0.26603395,-0.18069907,-0.17797862,28.5,29.8125,28.875,32.625,35.0625,36.0625
0.23805186,-0.5474571,-1.1804785,-1.1822654,-0.06840965,0.07185778,-0.14548162,-0.40215695,-0.36464557,0.060065508,-3.0778306,0.6192345,0.00010281213,-0.11200181,0.03419948,-3.8470916e-06,0.013504452,0.0025930738,0.040854275,0.4874034,-1.365957,1.8841413,-2.086229,-1.5723823,2.458965,-0.14910305,0.13748343,-0.17333174,0.039617226,-0.013674178,-0.18983608,-0.15322891,0.3256114,-9.289502,0.78217715,47.687782,-0.9759675,-2.2791214,-3.4099631,-0.23177308,-0.19425973,-0.16464008,28.5,29.8125,28.875,32.625,35.0625,36.0625
0.2400519,-0.21176241,-0.58676344,-1.0343636,-0.04679436,0.06258645,-0.13316007,-0.4023819,-0.36457428,0.06006281,-3.0778286,0.61925584,4.5861507e-05,-0.11297728,0.034110937,-0.00048378584,0.013193885,0.002054217,0.032259908,0.48706806,-1.3656797,1.8837942,-2.0861332,-1.5723585,2.4586434,-0.15006413,0.13998038,-0.17519847,0.03932859,-0.013148688,-0.18220285,0.0,0.19153613,-9.193734,0.8717007,47.65912,-1.0353212,-2.404035,-3.4202914,-0.19730407,-0.1806348,-0.2371636,28.5,29.8125,28.875,32.625,35.0625,36.0625
0.2420521,0.4752308,-0.27423975,-1.0005331,-0.015853524,0.046020776,-0.13678531,-0.40262738,-0.36451116,0.06008435,-3.0778494,0.6191468,0.00019005159,-0.114862315,0.034515608,5.0362803e-05,0.012518145,0.004078109,0.025941828,0.48677993,-1.3654271,1.8834351,-2.0860975,-1.5724186,2.4582849,-0.15212782,0.14073989,-0.17714316,0.03840285,-0.013487726,-0.17794763,0.076614454,0.019153614,-9.078813,0.8672237,47.688675,-0.9702389,-2.3622177,-3.3441496,-0.16377516,-0.19573523,-0.31487587,28.5,29.8125,28.875,32.625,35.0625,36.0625
0.2440519,0.32200766,0.12223507,-0.720759,0.017323328,0.018706014,-0.13842994,-0.40286267,-0.36444655,0.06007817,-3.0778484,0.619106,0.000198388,-0.11567388,0.03421785,-5.3860504e-06,0.011579063,0.004106768,0.023897372,0.48646867,-1.3651266,1.8830761,-2.0860379,-1.57243,2.4579484,-0.15276423,0.14224152,-0.17877722,0.038064357,-0.012674535,-0.17654099,0.0,0.019153614,-8.925584,0.7866488,47.691364,-1.1143239,-2.3047485,-3.3741865,-0.103656396,-0.19764024,-0.36912668,28.5,29.8125,28.875,32.625,35.0625,36.0625
0.2460519,0.85874623,0.85864997,-0.91148454,0.03636704,0.021995103,-0.1480079,-0.4030875,-0.36436906,0.06006861,-3.0778308,0.61910146,0.00019089368,-0.115176804,0.033537097,0.0003975317,0.0116071785,0.0040958226,0.026191296,0.4861456,-1.3648502,1.8827533,-2.0859768,-1.5724419,2.457625,-0.15107918,0.1420298,-0.17974557,0.03926035,-0.012697517,-0.17714946,0.076614454,-0.038307227,-8.925584,0.8537928,47.660015,-1.0907594,-2.3412914,-3.3474092,-0.08259142,-0.21720919,-0.37392876,28.5,29.8125,28.875,32.625,35.0625,36.0625
0.24805196,0.31231582,0.4892801,-1.1305096,0.046807192,0.011584469,-0.14565393,-0.4033436,-0.36430156,0.060080945,-3.0778396,0.6189446,0.00026364616,-0.1167356,0.033455167,0.00096828147,0.010552759,0.004287613,0.030738318,0.48583362,-1.3645492,1.882346,-2.085893,-1.5724896,2.457214,-0.15274866,0.14355111,-0.18317969,0.04048507,-0.011863487,-0.18336718,0.11492168,0.019153614,-8.983045,0.85826975,47.674347,-1.0079254,-2.4561715,-3.2571402,-0.07250466,-0.23126382,-0.35017124,28.5,29.8125,28.875,32.625,35.0625,36.0625
0.25005183,0.00079147104,0.071191445,-0.9505643,0.029922608,0.02155581,-0.14473987,-0.40356022,-0.36423784,0.060068253,-3.07783,0.6188014,0.00018850189,-0.11825324,0.033741403,0.0028102489,0.009481558,0.0061601712,0.039029088,0.4855339,-1.3642375,1.8819746,-2.0857728,-1.5724896,2.4568264,-0.15452158,0.1421735,-0.18627487,0.042780623,-0.011815685,-0.19342965,0.11492168,0.0,-8.963891,0.8224646,47.67166,-1.1853712,-2.1511393,-3.1718714,-0.044296518,-0.23380765,-0.2935001,28.5,29.8125,28.875,32.625,35.0625,36.0625
0.25205183,-0.2744517,-0.25018317,-1.1139487,0.007118551,0.035400994,-0.13714157,-0.4037732,-0.36417276,0.060066253,-3.0778258,0.6186019,0.00019261934,-0.11911009,0.03452173,0.002956576,0.01064884,0.004984218,0.047981944,0.48525766,-1.3639609,1.881626,-2.085676,-1.5725259,2.4564264,-0.15620111,0.14329824,-0.18861468,0.04555309,-0.012316726,-0.20405962,0.05746084,0.095768064,-9.11712,0.8605109,47.678825,-1.1130637,-2.1411004,-3.0427706,-0.042311028,-0.24422684,-0.1629386,28.5,29.8125,28.875,32.625,35.0625,36.0625
0.25405177,-0.57134056,-0.31998336,-1.5038375,-0.011022527,0.05162412,-0.14614134,-0.40401772,-0.3640983,0.060100358,-3.0778499,0.6183931,0.00027716436,-0.1200346,0.035934377,0.0027575511,0.012139181,0.0028860033,0.049748637,0.48494548,-1.3637203,1.8812331,-2.0855548,-1.5725745,2.455981,-0.15908793,0.14456877,-0.19039996,0.048598055,-0.012653603,-0.20871203,-0.019153614,0.11492168,-9.346964,0.90750587,47.72719,-1.0454578,-2.1245837,-3.1570163,-0.07295079,-0.25435844,-0.07675639,28.5,29.8125,28.875,32.625,35.0625,36.0625
0.25605172,-1.0437535,-0.57770824,-1.7146763,-0.036700174,0.06001339,-0.15171216,-0.40422234,-0.36402076,0.060069147,-3.0777817,0.61830354,0.00011181397,-0.11935201,0.03699549,0.0013013983,0.014807052,-0.0012096423,0.045812234,0.4846337,-1.3633832,1.8808621,-2.0853865,-1.5725745,2.4556222,-0.15988797,0.14660743,-0.19016367,0.051193893,-0.013124206,-0.20557268,-0.19153613,0.11492168,-9.519346,0.87393653,47.701214,-0.9383547,-2.1798315,-3.2381184,-0.100476444,-0.2536799,-0.07447757,28.5,29.8125,28.875,32.625,35.0625,36.0625
0.2580525,-1.105681,-1.734125,-1.7396151,-0.037384983,0.0876274,-0.13488895,-0.4044569,-0.36395374,0.060061045,-3.0778022,0.6182532,6.809467e-05,-0.12012221,0.037739374,0.0010697574,0.015670145,-0.002442954,0.03616997,0.4842983,-1.3630825,1.880504,-2.0853145,-1.5725502,2.455253,-0.16160884,0.14803334,-0.19176717,0.052880824,-0.013307806,-0.19764993,-0.30645782,0.15322891,-9.576807,0.83589023,47.71017,-0.928597,-2.1401343,-3.2825665,-0.11524148,-0.27190614,-0.13888541,28.5,29.8125,28.875,32.625,35.0625,36.0625
0.26005244,-1.0706543,-0.4030177,-1.9329065,-0.06311106,0.113426745,-0.15876381,-0.40469462,-0.3638804,0.060073283,-3.0777912,0.6180798,7.0264694e-05,-0.119986884,0.037539132,0.0002229216,0.017250214,-0.0035001095,0.030001672,0.48398724,-1.3627932,1.8800968,-2.08517,-1.5725869,2.4548352,-0.16050535,0.15034612,-0.19272432,0.053201877,-0.014213501,-0.19037452,-0.38307226,0.1340753,-9.5385,0.86498255,47.734352,-1.0348824,-2.158714,-3.283503,-0.106484175,-0.27072018,-0.23893058,28.5,29.8125,28.875,32.625,35.0625,36.0625
0.26205227,-1.96689,-0.94234705,-2.0332384,-0.046964455,0.11583462,-0.14979327,-0.40491107,-0.36379132,0.060039744,-3.077694,0.61802566,-1.9812866e-05,-0.12029983,0.037779447,-0.0011850427,0.01777749,-0.0065389816,0.021227663,0.48367515,-1.3624556,1.8797387,-2.0850384,-1.5726341,2.4545019,-0.16167445,0.153825,-0.19388244,0.05381448,-0.013280942,-0.18277006,-0.51714754,0.095768064,-9.825804,0.8157518,47.685097,-0.9790088,-2.2680387,-3.324682,-0.10988254,-0.28858405,-0.3682188,28.5,29.8125,28.875,32.625,35.0625,36.0625
0.2640523,-1.5106348,-1.0099393,-1.8713417,-0.050723013,0.14589593,-0.15656538,-0.40517655,-0.3637381,0.060069572,-3.0777464,0.6179602,5.1723742e-05,-0.12152611,0.03856326,0.000103417624,0.016527807,-0.0039948914,0.01596075,0.48335102,-1.3621684,1.8793076,-2.084955,-1.5726341,2.4541304,-0.16392328,0.15157846,-0.19406438,0.053411532,-0.013347137,-0.1797529,-0.57460845,0.15322891,-9.825804,0.8940802,47.679718,-0.9993974,-2.204843,-3.4025555,-0.095725864,-0.30093193,-0.45066714,28.5,29.8125,28.875,32.625,35.0625,36.0625
0.26605213,-1.5501925,-0.54499024,-1.9165777,-0.053614434,0.1417891,-0.15585393,-0.40541834,-0.36365277,0.060073197,-3.077715,0.61789125,5.3556138e-05,-0.121415585,0.038232148,-0.0011450847,0.017201308,-0.0054244297,0.020669566,0.48301652,-1.3618792,1.8789257,-2.0848358,-1.5726703,2.453757,-0.16320679,0.15438505,-0.19443701,0.052537777,-0.013297093,-0.1837445,-0.5554548,0.15322891,-9.749189,1.0194036,47.688675,-1.1442138,-2.3174098,-3.5388186,-0.08240091,-0.31984717,-0.49922284,28.5,29.8125,28.875,32.625,35.0625,36.0625
0.26805228,-1.5660038,-0.24603924,-1.8996192,-0.042437,0.12779552,-0.1672293,-0.40563858,-0.36358365,0.060053114,-3.077691,0.61774415,4.0888637e-05,-0.121896744,0.038938787,-0.002509726,0.01934095,-0.007446917,0.0321151,0.48272866,-1.3615654,1.8785785,-2.0847638,-1.572707,2.4533806,-0.16412331,0.15762688,-0.19536957,0.052982055,-0.014284552,-0.19610238,-0.38307226,0.1340753,-9.864111,0.83589023,47.67166,-1.1810889,-2.37067,-3.46698,-0.07364069,-0.3369746,-0.41495633,28.5,29.8125,28.875,32.625,35.0625,36.0625
0.2700524,-1.2253662,-0.25451985,-1.8990004,-0.03602751,0.12521423,-0.15970907,-0.40587187,-0.36348632,0.06003392,-3.0776503,0.61757183,-1.6116897e-05,-0.12238335,0.03877458,-0.0030738674,0.020373758,-0.008414368,0.04611945,0.48238164,-1.3612524,1.8782195,-2.0846436,-1.5727428,2.4529314,-0.16387084,0.16028136,-0.19749005,0.053746838,-0.014796035,-0.20985064,-0.36391866,0.019153614,-9.864111,0.86945957,47.661808,-1.3216065,-2.417129,-3.5127633,-0.048473854,-0.30380896,-0.2584351,28.5,29.8125,28.875,32.625,35.0625,36.0625
0.27205238,-1.6078844,-0.8647824,-1.8718942,-0.018330777,0.09779195,-0.1456328,-0.40614372,-0.36342445,0.060042262,-3.0776737,0.6174764,1.9579888e-05,-0.122605875,0.039931,-0.003881035,0.022318626,-0.010163361,0.0517102,0.48204583,-1.3609158,1.8777775,-2.0845592,-1.5727552,2.4525332,-0.16532841,0.16157237,-0.19751745,0.054916535,-0.015718462,-0.2168964,-0.53630114,0.05746084,-9.825804,0.88289046,47.698532,-1.159031,-2.417626,-3.6278253,-0.050202243,-0.3203129,-0.18001714,28.5,29.8125,28.875,32.625,35.0625,36.0625
0.2740524,-1.0997599,-0.5489044,-1.6261235,-0.01881948,0.093459025,-0.14907056,-0.40641236,-0.36334756,0.060071137,-3.0777,0.61731,0.00012148543,-0.123522654,0.040760215,-0.0032454517,0.021685172,-0.010332491,0.047258943,0.4817096,-1.36064,1.8773593,-2.0844634,-1.5728029,2.45209,-0.1678136,0.16097653,-0.19863835,0.056476094,-0.015070809,-0.2149329,-0.51714754,-0.019153614,-9.595961,0.8873621,47.688675,-1.0956477,-2.4202712,-3.5806413,-0.06765829,-0.33008316,-0.15514575,28.5,29.8125,28.875,32.625,35.0625,36.0625
0.27605233,-1.0082483,-0.5710312,-1.6486146,-0.006192436,0.078044154,-0.14708212,-0.40667668,-0.36327305,0.06007872,-3.0777009,0.61715865,0.00015284914,-0.12461812,0.04082488,-0.0026275518,0.022669885,-0.010052339,0.040641814,0.48137432,-1.3603158,1.8769282,-2.0843546,-1.5728391,2.4516604,-0.16816579,0.16232069,-0.20226379,0.058969367,-0.016072407,-0.2086636,-0.49799395,0.05746084,-9.500193,0.88960326,47.66271,-1.2350755,-2.487047,-3.5628295,-0.08469322,-0.35214728,-0.21138369,28.5,29.8125,28.875,32.625,35.0625,36.0625
0.2780522,-0.4059385,-0.015840951,-1.2340609,-0.004559214,0.07898305,-0.14787382,-0.40693426,-0.3632007,0.060075182,-3.0777013,0.6170814,0.00012115554,-0.1259789,0.040194906,-0.002126578,0.022759464,-0.009864402,0.036744427,0.48102665,-1.3599794,1.8765076,-2.0842464,-1.5728391,2.4512646,-0.16809313,0.16493057,-0.20705003,0.061024334,-0.01624991,-0.2046907,-0.51714754,-0.019153614,-9.3661175,0.7709874,47.691364,-1.3021593,-2.3792152,-3.4615588,-0.095253445,-0.33925086,-0.32485855,28.5,29.8125,28.875,32.625,35.0625,36.0625
0.28005216,-0.44455215,-0.24905673,-1.2174155,0.009042134,0.07207785,-0.15183152,-0.40718982,-0.36311632,0.060072195,-3.0776675,0.61698043,0.00013524611,-0.12702015,0.04033575,-0.001753557,0.023375832,-0.009926818,0.03293812,0.48069033,-1.3596551,1.8761004,-2.0841377,-1.5728873,2.4508698,-0.16881694,0.1663611,-0.21010484,0.06298256,-0.0167764,-0.20160505,-0.30645782,0.05746084,-9.270349,0.91198283,47.705692,-1.4134917,-2.4225717,-3.309376,-0.1142148,-0.32671696,-0.36665618,28.5,29.8125,28.875,32.625,35.0625,36.0625
0.282052,0.3046848,-0.04526019,-1.1976231,0.010864451,0.07958704,-0.14996752,-0.40745443,-0.36304942,0.060090855,-3.0776875,0.616871,0.00015826398,-0.12737511,0.041971285,-0.0010485619,0.02468554,-0.012695529,0.029831827,0.4803533,-1.3593439,1.8756565,-2.084016,-1.5728992,2.450462,-0.17182924,0.16550863,-0.2120447,0.06882753,-0.016653264,-0.2015115,-0.15322891,0.05746084,-9.232041,0.83589023,47.691364,-1.3618627,-2.2789764,-3.3682883,-0.18142688,-0.36038578,-0.4005379,28.5,29.8125,28.875,32.625,35.0625,36.0625
0.28405184,0.22981943,0.121043436,-1.2743903,0.0030858892,0.057205684,-0.16287959,-0.40771726,-0.36291796,0.060068365,-3.0775692,0.6167643,0.00015780811,-0.12891975,0.04224714,-0.00057921524,0.023611203,-0.011465509,0.036776993,0.4799688,-1.3590078,1.8752741,-2.083884,-1.573007,2.4500263,-0.17374484,0.16619098,-0.21386972,0.06833397,-0.01631439,-0.21037135,-0.095768064,0.076614454,-9.289503,0.8157518,47.696735,-1.1959572,-2.1934786,-3.288734,-0.18702863,-0.35924262,-0.37147164,28.5,29.8125,28.875,32.625,35.0625,36.0625
0.28605175,-0.09810259,-0.52391297,-1.152171,-0.026691942,0.05866672,-0.16274267,-0.40800032,-0.36286592,0.060113393,-3.0776324,0.6166568,0.00017557907,-0.12996127,0.043480154,-3.006653e-05,0.02477909,-0.011328207,0.04611049,0.47961935,-1.3586961,1.8747591,-2.0837162,-1.5729836,2.449602,-0.17591341,0.1659504,-0.21534695,0.0704468,-0.0174312,-0.22187023,-0.13407528,0.1340753,-9.232041,0.8627467,47.64389,-1.1834109,-2.2009852,-3.2798986,-0.20938376,-0.3719597,-0.23756155,28.5,29.8125,28.875,32.625,35.0625,36.0625
0.28805253,-0.06542922,-0.7848628,-0.9996404,-0.038461693,0.06731083,-0.16106768,-0.4082417,-0.3627547,0.060085423,-3.0775566,0.61648464,0.00011177048,-0.1301532,0.045461282,-0.00077139336,0.027627304,-0.016062444,0.05069885,0.47925875,-1.3583593,1.8743876,-2.0835826,-1.5730437,2.4491436,-0.17906189,0.16757733,-0.21688187,0.075833365,-0.017809441,-0.22960383,-0.15322891,0.15322891,-9.174581,0.8247004,47.691364,-1.0943501,-2.283699,-3.3395452,-0.28626075,-0.3550263,-0.1325657,28.5,29.8125,28.875,32.625,35.0625,36.0625
0.2900526,-0.6890736,-1.1286143,-1.3717667,-0.031197147,0.05933384,-0.15222852,-0.40851304,-0.36268017,0.06011062,-3.0775874,0.616241,0.00013375796,-0.13135542,0.04471396,-0.0006835459,0.026700228,-0.013968175,0.049677696,0.47891128,-1.3580474,1.8739203,-2.0834281,-1.5730675,2.4486403,-0.17865062,0.16936359,-0.21878661,0.07365862,-0.017967675,-0.22816992,-0.05746084,0.19153613,-9.289502,0.78888994,47.668976,-1.1111035,-2.2130327,-3.3414085,-0.30618638,-0.36011982,-0.12362364,28.5,29.8125,28.875,32.625,35.0625,36.0625
0.29205242,-0.8710624,-0.406225,-1.1340766,-0.04809692,0.07212477,-0.15617903,-0.40875956,-0.36257556,0.060087495,-3.0774953,0.6161317,3.3045282e-05,-0.13272636,0.04523399,0.00045273203,0.025270041,-0.012081279,0.038915522,0.47855034,-1.3576883,1.8735002,-2.083248,-1.5731157,2.448223,-0.18084083,0.16817865,-0.2200136,0.07373889,-0.017589564,-0.219597,-0.21068975,0.1340753,-9.193734,0.8717007,47.677036,-1.14155,-2.0609045,-3.3589706,-0.34157103,-0.3805564,-0.19374664,28.5,29.8125,28.875,32.625,35.0625,36.0625
0.29405257,-0.7517522,-0.6572098,-1.1655315,-0.026465673,0.07262688,-0.1559312,-0.4090225,-0.36250743,0.060108103,-3.0775115,0.61600614,4.2198822e-05,-0.13402317,0.045020938,0.0006560841,0.024252255,-0.010347193,0.029321022,0.4782141,-1.3573763,1.8730458,-2.0831053,-1.5731276,2.4478066,-0.18156676,0.16931927,-0.22153078,0.072120115,-0.017482001,-0.21072803,-0.21068975,0.038307227,-9.193734,0.88960326,47.72002,-1.0939176,-1.9411912,-3.328474,-0.33021045,-0.36259037,-0.30023193,28.5,29.8125,28.875,32.625,35.0625,36.0625
0.29605168,-0.65451765,-0.42819852,-1.2067386,-0.011044121,0.06984829,-0.15442806,-0.4093134,-0.36240417,0.060119525,-3.0774817,0.6159668,8.704493e-05,-0.13631986,0.045210633,0.0009610609,0.022688434,-0.0072154007,0.019241223,0.47781715,-1.3570521,1.8726028,-2.0829866,-1.5731758,2.4473891,-0.18372361,0.17058514,-0.223071,0.06889713,-0.017537586,-0.20280407,-0.21068975,0.05746084,-9.212888,0.900793,47.707485,-1.0142937,-1.9875736,-3.374064,-0.32811666,-0.38683787,-0.4292864,28.5,29.8125,28.875,32.625,35.0625,36.0625
0.2981004,-0.9390651,-0.4630889,-1.423072,0.0034131615,0.06839564,-0.14892298,-0.40954188,-0.36230195,0.060068976,-3.077371,0.6158854,-7.046056e-05,-0.1379797,0.04541325,-0.0007645903,0.02257665,-0.0071677184,0.016282178,0.47746888,-1.3566668,1.872219,-2.0828326,-1.5732116,2.4470043,-0.18542528,0.1751571,-0.22383945,0.06498987,-0.017505927,-0.20154308,-0.22984336,0.076614454,-9.270349,0.7486078,47.699425,-0.97712636,-2.0632548,-3.3974006,-0.2877328,-0.3985293,-0.4983474,28.5,29.8125,28.875,32.625,35.0625,36.0625
0.30010295,-0.47915962,-0.47746548,-1.3281702,0.00022771982,0.0994453,-0.16084243,-0.4098505,-0.36224088,0.060119297,-3.0774286,0.6157574,7.8336096e-05,-0.13917243,0.046096858,-0.0013444949,0.023406703,-0.0075896983,0.024360923,0.4771203,-1.3563546,1.8717045,-2.0827248,-1.5732478,2.4465687,-0.18713222,0.17745824,-0.22531906,0.06488895,-0.018058706,-0.21132778,-0.21068975,0.019153614,-9.308657,0.8493211,47.72092,-1.047332,-2.0768085,-3.4554968,-0.28314883,-0.37853622,-0.48217842,28.5,29.8125,28.875,32.6875,35.0625,36.0625
0.30209738,-0.79333913,-0.7807773,-1.6075956,-0.0057245977,0.10104965,-0.15793824,-0.4101232,-0.36212796,0.060108867,-3.077372,0.61562175,3.598354e-05,-0.14142777,0.045818556,-0.0008554923,0.021955116,-0.002543784,0.038857263,0.4767241,-1.3560063,1.8712739,-2.0825713,-1.5732964,2.4460952,-0.18783398,0.17831844,-0.22639881,0.059907336,-0.019151006,-0.22652026,-0.11492168,0.0,-9.423578,0.8672237,47.721813,-1.0056449,-2.1588535,-3.392249,-0.23684315,-0.41745454,-0.35541138,28.5,29.8125,28.875,32.6875,35.0625,36.0625
0.3040574,-1.1409371,-0.78727335,-1.6012193,-0.028762167,0.1079456,-0.16174848,-0.41041517,-0.3620572,0.060106885,-3.0773885,0.61546403,2.7747465e-06,-0.14231601,0.04566621,-0.0017089449,0.021946061,-0.0023841502,0.050276645,0.47635213,-1.3556095,1.8707708,-2.0824401,-1.5732964,2.445623,-0.18815099,0.18106665,-0.22740492,0.05798304,-0.019256972,-0.23825513,-0.2681506,0.13407528,-9.481039,0.8537928,47.69763,-1.0439696,-2.3352795,-3.5293632,-0.2041156,-0.3872558,-0.2212753,28.5,29.8125,28.875,32.6875,35.0625,36.0625
0.3060533,-1.7942455,-1.495074,-1.6641563,-0.049312886,0.1160661,-0.15095471,-0.41067678,-0.36195767,0.06009568,-3.077383,0.61519164,-2.565997e-05,-0.14186892,0.045151547,-0.0023425,0.02369939,-0.0039487467,0.05372631,0.47598082,-1.3552731,1.8703636,-2.0823195,-1.5733327,2.4450824,-0.18625705,0.18335672,-0.22914746,0.05961343,-0.02011812,-0.23980612,-0.47884032,0.11492168,-9.423578,0.83589023,47.668976,-1.1806056,-2.2157483,-3.4002738,-0.1993746,-0.3952502,-0.16494659,28.5,29.8125,28.875,32.6875,35.0625,36.0625
0.3080521,-1.678748,-1.0719428,-1.53281,-0.06030052,0.12440564,-0.16376601,-0.41096652,-0.3618523,0.060090426,-3.0773556,0.6152105,-4.548521e-05,-0.14323992,0.0444045,-0.0014311179,0.022887966,-0.00095791894,0.047243446,0.47556075,-1.354925,1.8699316,-2.0822122,-1.5733446,2.4446778,-0.18566068,0.18410794,-0.23196588,0.058660187,-0.020771215,-0.23272301,-0.61291564,0.19153613,-9.519346,0.78217715,47.675243,-1.291717,-2.4000595,-3.5008292,-0.19000787,-0.39385822,-0.23741323,28.5,29.8125,28.875,32.6875,35.0625,36.0625
0.3100523,-2.1117125,-1.1659695,-1.6257284,-0.0462333,0.11402077,-0.15619959,-0.41127375,-0.36176354,0.06011505,-3.0773315,0.6150168,0.00010185065,-0.14495553,0.04473293,-0.001853452,0.021944175,0.00053347804,0.03788308,0.47521245,-1.3545771,1.8694295,-2.082094,-1.5734528,2.444212,-0.18766169,0.18605544,-0.23275392,0.05573012,-0.020603266,-0.22536442,-0.5363012,0.24899697,-9.404425,0.91421866,47.65464,-1.49073,-2.1623125,-3.5246634,-0.11416222,-0.38714433,-0.31493586,28.5,29.8125,28.875,32.6875,35.0625,36.0625
0.3120523,-1.7204633,-1.0809752,-1.644457,-0.043274935,0.10716679,-0.15798222,-0.4115448,-0.36168683,0.060104005,-3.077324,0.61480504,6.259579e-05,-0.1448389,0.044999897,-0.0012081045,0.022806685,0.0010410001,0.0347801,0.47486454,-1.3541937,1.8689622,-2.081961,-1.5734771,2.443733,-0.1872671,0.18493327,-0.23328741,0.05732983,-0.021606788,-0.22186245,-0.45968673,0.24899697,-9.423578,0.9231726,47.690468,-1.4367266,-2.2888598,-3.4822922,-0.11360428,-0.39542434,-0.3920799,28.5,29.8125,28.875,32.6875,35.0625,36.0625
0.31405213,-1.3971491,-1.0222062,-1.5584971,-0.039085373,0.08760807,-0.15863581,-0.4118573,-0.3615844,0.060101822,-3.0772805,0.61473584,0.00013126012,-0.14738773,0.04600884,-0.0006010786,0.023708249,0.0030550528,0.035262574,0.47446778,-1.3538096,1.868482,-2.081865,-1.5735501,2.4432988,-0.18994965,0.1865716,-0.23681134,0.057809085,-0.023345942,-0.22501996,-0.38307226,0.2681506,-9.5385,0.92093146,47.64837,-1.3531927,-2.2211938,-3.4869964,-0.09759472,-0.37189716,-0.41244197,28.5,29.8125,28.875,32.6875,35.0625,36.0625
0.31605232,-1.7027857,-1.2616253,-1.6963902,-0.03864215,0.065691635,-0.15094608,-0.4121471,-0.36149636,0.060114514,-3.077265,0.6145729,0.00018580309,-0.14909442,0.046229526,-4.4974346e-05,0.024054674,0.0048869215,0.045458596,0.47410718,-1.3534613,1.8680032,-2.0817335,-1.5736102,2.4428387,-0.19093788,0.18785407,-0.23969561,0.057890136,-0.024523498,-0.23619899,-0.38307226,0.28730422,-9.385271,0.7978386,47.667187,-1.3398948,-2.2067752,-3.4923954,-0.060380816,-0.34616163,-0.31064537,28.5,29.8125,28.875,32.6875,35.0625,36.0625
0.31805262,-1.2008016,-1.1998407,-1.7764926,-0.030306265,0.06877911,-0.15169516,-0.41244528,-0.3613863,0.060082447,-3.077215,0.6143472,0.000179785,-0.15111259,0.046639446,0.00036023633,0.024121819,0.0057245153,0.05522155,0.4737103,-1.3530408,1.8675469,-2.0816376,-1.5736827,2.4423075,-0.1929221,0.18987732,-0.24331565,0.058713265,-0.025013736,-0.24794169,-0.22984336,0.2681506,-9.32781,0.89631605,47.63315,-1.2204328,-2.24352,-3.2790856,-0.048069403,-0.34757334,-0.1858978,28.5,29.8125,28.875,32.6875,35.0625,36.0625
0.32005262,-0.94577396,-0.9015725,-1.8332326,-0.024409762,0.06064118,-0.14452232,-0.41277868,-0.36130223,0.060100902,-3.0772614,0.6142204,0.0002461978,-0.15193646,0.047591884,0.000409763,0.024386477,0.005503486,0.055590846,0.47328994,-1.3526572,1.86702,-2.0815418,-1.5736946,2.4418023,-0.19497919,0.19012727,-0.24394798,0.05939351,-0.02514426,-0.2503687,-0.22984336,0.2681506,-9.32781,0.8806493,47.691364,-1.2556027,-2.1486955,-3.381204,-0.014730531,-0.32816204,-0.114649534,28.5,29.8125,28.875,32.6875,35.0625,36.0625
0.3220518,-1.4206848,-1.3181249,-1.6715885,-0.02763183,0.058009367,-0.14772937,-0.41304478,-0.36120614,0.0600995,-3.0772204,0.6140428,0.00021445059,-0.15348107,0.04817196,0.0012764776,0.02400485,0.0062113777,0.047340013,0.47292954,-1.3523097,1.8665656,-2.0813735,-1.5737423,2.4413364,-0.1971522,0.19045122,-0.24673928,0.061054464,-0.02513344,-0.24428861,-0.2873042,0.15322891,-9.423578,0.9298854,47.707485,-1.2480806,-2.1255352,-3.4912992,-0.022161445,-0.31220236,-0.16055399,28.5,29.8125,28.875,32.6875,35.0625,36.0625
0.324052,-0.75030833,-0.7017438,-1.5473723,-0.028843962,0.073764935,-0.14610608,-0.41337422,-0.36109462,0.060090862,-3.0771768,0.61394364,0.00023841119,-0.15433392,0.04944776,0.00030554202,0.025474852,0.003413568,0.034496423,0.47249666,-1.351889,1.8660496,-2.0812528,-1.5738024,2.4408474,-0.19984202,0.19315566,-0.24833985,0.06311697,-0.025153734,-0.2341334,-0.2873042,0.076614454,-9.385271,0.83589023,47.70659,-1.1115584,-2.131129,-3.436209,-0.028653828,-0.29705825,-0.26077232,28.5,29.8125,28.875,32.6875,35.0625,36.0625
0.3260523,-0.9450275,-0.30991417,-1.5018444,-0.011151418,0.062455367,-0.14870135,-0.4136922,-0.36099145,0.060104214,-3.0771616,0.6138505,0.00031998567,-0.15458675,0.050441306,-0.00063041237,0.026522078,7.2827876e-05,0.023087732,0.47208798,-1.3515284,1.865559,-2.081144,-1.5738624,2.4403827,-0.2019347,0.19528684,-0.24938814,0.06548856,-0.024541954,-0.22481968,-0.24899697,-0.038307227,-9.32781,0.8985519,47.639416,-1.0959928,-2.1560118,-3.4178348,-0.021108383,-0.31347066,-0.38487107,28.5,29.8125,28.875,32.6875,35.0625,36.0625
0.32805252,-0.8635643,-0.37124172,-1.4489392,0.01151414,0.061171737,-0.14000729,-0.41399878,-0.3609202,0.060105685,-3.0771904,0.6137624,0.00027580332,-0.1552039,0.051310305,-0.00097382336,0.02750357,-0.0030018378,0.017157227,0.47169128,-1.3511201,1.8650321,-2.0810115,-1.5738381,2.4399276,-0.20407876,0.19733377,-0.2520031,0.06924751,-0.02401561,-0.2210339,-0.2681506,-0.076614454,-9.32781,0.8247004,47.657326,-1.0238738,-2.2886336,-3.4933035,-0.052608643,-0.29465753,-0.5187784,28.5,29.8125,28.875,32.6875,35.0625,36.0625
0.3300527,-0.61978,0.30467322,-1.3894724,0.029431427,0.05826931,-0.15047792,-0.41431752,-0.36082035,0.06010348,-3.0771475,0.61365116,0.00032660854,-0.15480039,0.05175798,-0.0011221298,0.029250382,-0.0050851493,0.026543802,0.47129536,-1.3507123,1.8645166,-2.080891,-1.5739101,2.439468,-0.20393868,0.19793236,-0.25317293,0.072416365,-0.024650635,-0.23027764,-0.17238252,-0.21068975,-9.212888,0.8985519,47.677036,-1.0048571,-2.2527375,-3.5266612,-0.07521886,-0.30474913,-0.49419466,28.5,29.8125,28.875,32.6875,35.0625,36.0625
0.33205166,-0.7049268,0.5757394,-1.3756266,0.041671,0.059102174,-0.15121832,-0.41460314,-0.36070743,0.06010625,-3.0770864,0.61355245,0.00031865662,-0.15399466,0.05295119,-0.0024319075,0.03284099,-0.00958019,0.040988423,0.4708993,-1.3503639,1.8640507,-2.0807216,-1.5739707,2.4390182,-0.20436767,0.19999166,-0.25364333,0.07639575,-0.025855597,-0.24514544,-0.19153613,-0.15322891,-9.289502,0.84484416,47.692257,-1.0135124,-2.1817625,-3.472042,-0.097291306,-0.2744897,-0.36668453,28.5,29.8125,28.875,32.6875,35.0625,36.0625
0.3340525,-0.96401113,0.126806,-1.1715465,0.043635704,0.07411502,-0.14497016,-0.4149186,-0.3606072,0.060093798,-3.077054,0.6133672,0.00030052883,-0.15330376,0.05273857,-0.0025515363,0.033941686,-0.012502387,0.052935116,0.47049162,-1.349932,1.8635238,-2.0805767,-1.5740188,2.4384992,-0.20345128,0.20112672,-0.25571933,0.080381505,-0.025554596,-0.2561752,-0.22984336,-0.2681506,-9.193734,0.76874626,47.666286,-1.1538439,-2.1102986,-3.4569798,-0.13766757,-0.25072894,-0.21998766,28.5,29.8125,28.875,32.6875,35.0625,36.0625
0.3360526,-0.97229385,0.34707198,-1.2372162,0.039626054,0.079097405,-0.14471981,-0.41520238,-0.36048192,0.060064737,-3.0769627,0.61315763,0.00021894371,-0.15339181,0.05212547,-0.0014438344,0.03374253,-0.012889129,0.05249328,0.47008398,-1.3495243,1.8630556,-2.080396,-1.5740908,2.4379725,-0.2025556,0.20103279,-0.2590031,0.083988786,-0.025238896,-0.25483516,-0.19153614,-0.2681506,-9.040505,0.86945957,47.66091,-1.3793664,-2.0830138,-3.4374704,-0.19500592,-0.24208497,-0.19839089,28.5,29.8125,28.875,32.6875,35.0625,36.0625
0.3380519,-0.6727957,0.28400984,-1.2587166,0.030723503,0.07793936,-0.14419721,-0.415522,-0.3603879,0.060072474,-3.076945,0.61302286,0.0002162311,-0.15397249,0.05231576,-0.0017197682,0.034114495,-0.014710174,0.044423625,0.4696759,-1.3491156,1.8625053,-2.0802271,-1.5741261,2.4374828,-0.20351014,0.20314083,-0.26149356,0.08616688,-0.024746954,-0.24772035,-0.30645782,-0.15322891,-9.136273,0.9455522,47.686886,-1.4252098,-2.1931076,-3.4291215,-0.23059551,-0.23852485,-0.2926562,28.5,29.8125,28.875,32.6875,35.0625,36.0625
0.340052,-0.4346941,-0.3376658,-1.4141171,0.009719396,0.07965327,-0.1521591,-0.4158521,-0.36029544,0.060092997,-3.0769515,0.6128937,0.00023669977,-0.15489544,0.053054005,-0.0016103999,0.03541925,-0.014965155,0.037750952,0.46925554,-1.3487201,1.8619417,-2.0800593,-1.5741509,2.4369812,-0.20472729,0.20427509,-0.26358423,0.087947205,-0.02579426,-0.24226,-0.30645782,-0.05746084,-9.308657,0.88960326,47.678825,-1.422946,-2.2054098,-3.396308,-0.2727577,-0.23189846,-0.39677018,28.5,29.8125,28.875,32.6875,35.0625,36.0625
0.34205183,-1.47102,-1.4306043,-1.649012,-0.004413999,0.046029847,-0.13953757,-0.4161221,-0.36017072,0.060066476,-3.076814,0.61272967,0.00017373159,-0.15588735,0.052945033,-0.0028150587,0.03672611,-0.015628431,0.039664913,0.4688834,-1.3483226,1.8614749,-2.0798562,-1.5742592,2.4365244,-0.20470111,0.20848197,-0.26583457,0.087134406,-0.026715387,-0.24413945,-0.076614454,-0.076614454,-9.308656,0.9298854,47.678825,-1.3857291,-2.3449054,-3.372026,-0.2785457,-0.21129213,-0.42501926,28.5,29.8125,28.875,32.6875,35.0625,36.0625
0.34405264,-1.0898734,-1.3195883,-1.6918206,-0.033841923,0.049621902,-0.15164742,-0.41641364,-0.36006823,0.060042225,-3.0767443,0.6124805,2.7537062e-05,-0.1582816,0.05330898,-0.0022306992,0.036071025,-0.013521505,0.04669282,0.46848655,-1.3478664,1.8609232,-2.0796168,-1.5742954,2.435981,-0.20692268,0.21016625,-0.26915336,0.0865433,-0.027163602,-0.25338218,-0.11492168,0.11492168,-9.232041,0.900793,47.67614,-1.3234308,-2.3790126,-3.2952948,-0.3393848,-0.17566559,-0.34502786,28.5,29.8125,28.875,32.6875,35.0625,36.0625
0.34605226,-0.9244563,-0.9311304,-1.6235135,-0.056125917,0.05980156,-0.15911175,-0.4167641,-0.35993803,0.06006242,-3.0767102,0.6124284,0.00017837872,-0.16165921,0.052860327,-0.00091933954,0.0328567,-0.007120782,0.05775315,0.46803,-1.3475064,1.8604201,-2.0795238,-1.5743912,2.4354966,-0.20882021,0.21087295,-0.27188256,0.0813206,-0.027235948,-0.26634023,-0.21068975,0.15322891,-9.3661175,0.9791215,47.694946,-1.2835984,-2.3646502,-3.2434154,-0.30645436,-0.16713107,-0.2166529,28.5,29.8125,28.875,32.6875,35.0625,36.0625
0.3480525,-0.79644877,-1.2330786,-1.6659003,-0.0580053,0.08048817,-0.15309992,-0.4170517,-0.35984966,0.060042582,-3.0766761,0.61213183,2.0434485e-05,-0.16155332,0.053399727,-0.0016288074,0.033093337,-0.00813463,0.06189193,0.46764588,-1.347051,1.8598589,-2.079284,-1.5744032,2.4349318,-0.20959339,0.21142839,-0.27090877,0.08077144,-0.027047072,-0.27124992,-0.17238252,0.19153613,-9.404425,0.84484416,47.660015,-1.3567679,-2.2917068,-3.3315182,-0.29354548,-0.13879992,-0.1132109,28.5,29.8125,28.875,32.6875,35.0625,36.0625
0.3500526,-1.4632796,-1.9903147,-1.8041346,-0.06446879,0.08137249,-0.1489208,-0.41739824,-0.35970694,0.060041543,-3.0766017,0.61206347,5.5320066e-05,-0.16361703,0.053523958,-0.0013810678,0.030453004,-0.0040897676,0.053120118,0.46716526,-1.3466431,1.859332,-2.079131,-1.5744871,2.4344182,-0.21168433,0.21170463,-0.27069536,0.075469196,-0.026524024,-0.26457047,-0.34476507,0.36391866,-9.500193,0.8985519,47.63404,-1.3476336,-2.2040112,-3.5211184,-0.2515365,-0.14048229,-0.14295238,28.5,29.8125,28.875,32.6875,35.0625,36.0625
0.3520524,-2.0259411,-2.628401,-1.7049701,-0.10243753,0.10618856,-0.13655776,-0.41770482,-0.35958984,0.06000175,-3.076504,0.6119557,-9.340737e-05,-0.16562258,0.05437397,-0.0028285081,0.03004493,-0.0043292083,0.040406592,0.4667323,-1.3461622,1.8587931,-2.0789278,-1.5745229,2.4339306,-0.21490479,0.21565948,-0.27164063,0.07250361,-0.026078243,-0.25507477,-0.6512228,0.4405331,-9.461885,0.95226496,47.67166,-1.1647971,-2.274254,-3.7477865,-0.21028036,-0.12203181,-0.26028654,28.5,29.8125,28.875,32.6875,35.0625,36.0625
0.3540524,-1.9654129,-2.4776847,-1.6946312,-0.11195259,0.12162037,-0.14315552,-0.41804442,-0.3594931,0.060018986,-3.0764863,0.6117868,1.4026808e-05,-0.16847393,0.054955747,-0.0014546129,0.027527416,-0.0002899874,0.026755065,0.46633485,-1.3457547,1.85823,-2.0787966,-1.5746068,2.4334302,-0.21837975,0.21528004,-0.2739105,0.07041944,-0.02562574,-0.24490024,-0.51714754,0.5746084,-9.481039,0.86945957,47.67345,-0.89677095,-2.230452,-3.6296897,-0.17589855,-0.11440305,-0.38864774,28.5,29.8125,28.875,32.6875,35.0625,36.0625
0.35605222,-1.5436645,-1.930759,-1.9100308,-0.10125273,0.1301375,-0.1510273,-0.4183912,-0.3593994,0.060017772,-3.0765007,0.61177194,-2.307063e-06,-0.17029612,0.05497809,-0.00029076435,0.025008935,0.0028859663,0.02220046,0.46587816,-1.3453113,1.8576673,-2.078678,-1.5745939,2.4329627,-0.2202562,0.2146201,-0.2754414,0.068640925,-0.02480758,-0.24222545,-0.51714754,0.4213795,-9.500193,0.900793,47.703903,-0.90247166,-2.1340008,-3.660501,-0.13677062,-0.11808832,-0.5033149,28.5,29.8125,28.875,32.6875,35.0625,36.0625
0.3580521,-0.94044554,-1.6420988,-1.9075557,-0.08147765,0.11951907,-0.1603241,-0.4187242,-0.359294,0.06000594,-3.0764568,0.6116794,2.0956233e-05,-0.17203492,0.0543682,0.00094311323,0.022191392,0.00532246,0.03321517,0.46545783,-1.3448678,1.8571285,-2.0785582,-1.5746535,2.4324903,-0.22135355,0.21480809,-0.2783912,0.06788453,-0.023437612,-0.25434247,-0.4405331,0.4213795,-9.691729,0.92093146,47.647476,-0.9444205,-2.0817418,-3.6301413,-0.09745562,-0.11006272,-0.46874177,28.5,29.8125,28.875,32.6875,35.0625,36.0625
0.36005247,-1.4863846,-1.2564737,-1.9252572,-0.0705166,0.09800089,-0.15236141,-0.41909388,-0.35918564,0.060028326,-3.076467,0.61146015,0.00010212549,-0.17248587,0.053467214,0.0008392637,0.02213732,0.0041373908,0.04939694,0.4650024,-1.3444351,1.8565167,-2.0784018,-1.5747136,2.431897,-0.22035594,0.21760346,-0.28204164,0.06968753,-0.022903595,-0.2695284,-0.51714754,0.36391866,-9.576807,0.9254084,47.70211,-1.1494268,-2.1365094,-3.560474,-0.091170356,-0.12438375,-0.3069713,28.5,29.8125,28.875,32.6875,35.0625,36.0625
0.36205232,-1.0283291,-0.7152866,-2.0658748,-0.043059234,0.099942,-0.14693823,-0.41941383,-0.35911268,0.0600101,-3.0765042,0.6111563,8.0269165e-05,-0.17349619,0.051782828,0.0017847717,0.019702284,0.007487893,0.057932477,0.46461898,-1.3439674,1.8559655,-2.078295,-1.5747255,2.4313192,-0.21860807,0.21821417,-0.2845192,0.067427486,-0.022267872,-0.27631775,-0.5746084,0.24899697,-9.461885,0.96569055,47.683304,-1.1782398,-2.3264,-3.5281324,-0.060977593,-0.11237949,-0.21868974,28.5,29.8125,28.875,32.6875,35.0625,36.0625
0.36405182,-1.3903221,-0.51931775,-2.280076,-0.020264398,0.087314755,-0.14294699,-0.41976604,-0.35900196,0.060008734,-3.076465,0.6110373,0.00010186901,-0.17474483,0.051525425,0.0013212878,0.019904895,0.00623206,0.051286094,0.46417472,-1.3435106,1.855378,-2.078139,-1.5747851,2.430806,-0.21926935,0.22201815,-0.28849614,0.068811186,-0.021882067,-0.2703322,-0.40222588,0.17238252,-9.672575,0.8717007,47.67614,-1.1641879,-2.2777514,-3.4140143,-0.029628266,-0.12861408,-0.22963536,28.5,29.8125,28.875,32.6875,35.0625,36.0625
0.36605167,-1.3168201,-0.61143064,-1.8499852,-0.037024852,0.08827619,-0.14730743,-0.42010018,-0.3588876,0.05998147,-3.0764334,0.61090034,4.1954012e-05,-0.17417763,0.052091777,-0.000146812,0.022017654,0.0010705831,0.042595576,0.46371865,-1.3430418,1.8548397,-2.078006,-1.5748094,2.4302685,-0.21981049,0.22530924,-0.290149,0.072749965,-0.021450892,-0.26218262,-0.40222588,0.1340753,-9.653421,0.88289046,47.664497,-1.2630048,-2.5126963,-3.332828,-0.046821717,-0.123973176,-0.32249975,28.5,29.8125,28.875,32.6875,35.0625,36.0625
0.36805254,-0.7628741,-0.5016853,-1.6901411,-0.03657869,0.08616419,-0.14718993,-0.42049754,-0.35877717,0.059989262,-3.0764275,0.61084604,0.00015424068,-0.17687924,0.05210165,0.0008011332,0.019926386,0.0044790944,0.03572416,0.4632379,-1.3425617,1.8542165,-2.0779111,-1.574869,2.429755,-0.22208637,0.22649767,-0.29341745,0.07083869,-0.021092381,-0.25758865,-0.5363012,0.15322891,-9.500193,0.8851263,47.681515,-1.2793562,-2.5303316,-3.315009,-0.0013853079,-0.113297865,-0.43137735,28.5,29.8125,28.875,32.6875,35.0625,36.0625
0.37005278,-0.50044626,-0.20311512,-2.0545862,-0.012498817,0.07385083,-0.15389435,-0.42084402,-0.3587193,0.060000945,-3.076468,0.6106577,0.00021570719,-0.17554869,0.052696854,4.794109e-05,0.021216791,0.0013808075,0.042276543,0.46286604,-1.3420943,1.8535937,-2.0777905,-1.5748929,2.4292605,-0.22191031,0.2263253,-0.292072,0.07297372,-0.02086773,-0.26396754,-0.30645782,-0.019153614,-9.519346,0.9791215,47.67166,-1.3089182,-2.514161,-3.3099585,0.033130687,-0.123678,-0.44072866,28.5,29.8125,28.875,32.6875,35.0625,36.0625
0.37205246,0.16845621,0.18286611,-2.1392574,-0.0010838012,0.073178,-0.14364278,-0.42119604,-0.35858175,0.059984952,-3.0763884,0.6105363,0.00018755902,-0.1745822,0.052957468,-0.00049854885,0.022595216,-0.0021070861,0.057094872,0.4623864,-1.3416266,1.8530201,-2.0776098,-1.5749649,2.4287155,-0.22149809,0.22721602,-0.2927913,0.07644932,-0.02060706,-0.27837354,0.038307227,-0.076614454,-9.634268,0.96569055,47.698532,-1.3323402,-2.5779796,-3.52004,0.03120151,-0.1292379,-0.301782,28.5,29.8125,28.875,32.6875,35.0625,36.0625
0.3740524,0.24859533,0.23529324,-1.6264634,-0.014337552,0.06299871,-0.13910955,-0.4215594,-0.35850644,0.060002092,-3.0764582,0.61027974,0.00024907294,-0.17461218,0.054841805,-0.0025235463,0.025234893,-0.00837484,0.06270794,0.461965,-1.3411695,1.8523968,-2.0774882,-1.5749768,2.4281251,-0.22471148,0.23096333,-0.29374114,0.08038934,-0.020188823,-0.2872023,0.019153614,-0.17238252,-9.500193,0.82694155,47.678825,-1.2091448,-2.5822873,-3.6478968,0.0029847336,-0.12885733,-0.18189591,28.5,29.8125,28.875,32.6875,35.0625,36.0625
0.37605223,1.0661225,0.43442282,-1.4205264,0.0023881225,0.05932908,-0.14254305,-0.42189214,-0.35838428,0.059971433,-3.0763965,0.6100793,0.00019489926,-0.17558452,0.055915654,-0.0024906483,0.026907746,-0.0110218795,0.056752823,0.46152064,-1.3406894,1.8518461,-2.0773313,-1.5750369,2.4275637,-0.22691908,0.23302512,-0.29750583,0.08519913,-0.020526197,-0.28345037,0.019153614,-0.22984336,-9.308656,0.91198283,47.684196,-1.2413464,-2.6871166,-3.4865317,-0.030485826,-0.12212612,-0.16453552,28.5,29.8125,28.875,32.6875,35.0625,36.0625
