Tylouw/Master_Thesis_Code/training_data_v2/rect_rod_t0.2/sample_11_session_1.csv
timestamp[s],tcp_force_x[N],tcp_force_y[N],tcp_force_z[N],tcp_force_rx[Nm?],tcp_force_ry[Nm?],tcp_force_rz[Nm?],tcp_pose_x[m],tcp_pose_y[m],tcp_pose_z[m],tcp_pose_rx[rot_vec_x],tcp_pose_ry[rot_vec_y],tcp_pose_rz[rot_vec_z],tcp_velo_x[m/s],tcp_velo_y[m/s],tcp_velo_z[m/s],tcp_velo_rx[rot_vec_x/s],tcp_velo_ry[rot_vec_y/s],tcp_velo_rz[rot_vec_z/s],q1[rad],q2[rad],q3[rad],q4[rad],q5[rad],q6[rad],qd1[rad/s],qd2[rad/s],qd3[rad/s],qd4[rad/s],qd5[rad/s],qd6[rad/s],tool_acc_x,tool_acc_y,tool_acc_z,current_of_whole_robot[A],voltage_of_whole_robot[V],current_J1[A],current_J2[A],current_J3[A],current_J4[A],current_J5[A],current_J6[A],temp_J1[C],temp_J2[C],temp_J3[C],temp_J4[C],temp_J5[C],temp_J6[C]
5.9899867e-07,0.5885981,-0.0035175604,1.113016,-0.01019318,0.014777458,-0.013696174,-0.38934213,-0.36871484,0.06001475,-3.0787039,0.6249666,0.00020752431,0.0005122901,0.0002930535,-0.00016501835,0.00077411876,-0.0016644467,1.2414344e-05,0.5050208,-1.3816559,1.9041985,-2.091903,-1.5708536,2.4800372,-9.63877e-05,-4.1301944e-05,-5.356239e-07,0.0018725432,0.00013219412,-0.000109196975,0.15322891,0.15322891,-8.63828,0.7642693,47.711063,-0.18401289,-3.1205695,-2.2561588,-0.2098119,0.10034877,-0.003900926,28.4375,29.6875,28.8125,32.5625,35.0,36.0
0.00205256,0.665198,0.3470568,1.2070637,-0.018940877,0.023201846,-0.024814343,-0.38934878,-0.36871582,0.05999817,-3.0786881,0.6250592,0.00018400923,-0.00080015854,-0.00043655228,-0.0007481695,-0.0025344247,0.0042910124,1.189649e-05,0.50500876,-1.3816198,1.9042,-2.091931,-1.5708417,2.480085,-9.4366536e-05,-5.541183e-07,0.0036635848,-0.008645097,0.00012981062,-0.000107032414,0.11492168,0.22984336,-8.542512,0.72622824,47.68062,-0.16742104,-2.9391701,-2.3681312,-0.18750358,0.097153015,0.020156058,28.4375,29.6875,28.8125,32.5625,35.0,36.0
0.004051853,0.550386,0.14992252,1.1314753,-0.018938305,0.021854706,-0.01952601,-0.38934124,-0.36871162,0.060006052,-3.0787144,0.62496895,0.00019829694,-0.0016712376,-0.0009219398,-0.0015460503,-0.0032823985,0.0056304713,1.2520192e-05,0.50500876,-1.3816551,1.9042238,-2.0919316,-1.5708417,2.4800253,-9.242835e-05,0.002259345,0.0036718138,-0.012447362,0.00012751149,-0.00010495221,0.038307227,0.17238252,-8.542512,0.7642693,47.66987,-0.13692814,-3.3128786,-2.6161165,-0.047128856,0.10432994,-0.006518966,28.4375,29.6875,28.8125,32.5625,35.0,36.0
0.006052766,0.31159806,0.40251675,1.3082649,-0.0051869415,0.0049431534,-0.01971463,-0.38932583,-0.36870304,0.059979033,-3.0786908,0.6249252,0.00013967771,-0.00092591206,-0.0005077536,-0.0010639479,-0.0018237337,0.0030148127,1.229837e-05,0.50500876,-1.3816313,1.9042596,-2.091942,-1.5708417,2.480001,-9.056809e-05,0.0015462929,0.0022547836,-0.00732239,0.0001252926,-0.0001029513,0.0,0.21068975,-8.619126,0.6971306,47.668976,-0.1339114,-3.339189,-2.580217,-0.05824788,0.09955722,-0.0034625318,28.4375,29.6875,28.8125,32.5625,35.0,36.0
0.008051672,0.79548866,1.1537436,0.90143627,0.030073978,-0.018394468,-0.008565181,-0.38934538,-0.36872822,0.06001148,-3.0787547,0.6249195,0.0002528892,0.00022379601,0.00013171829,1.8849092e-05,1.1789978e-06,-0.00025340068,1.1778553e-05,0.50503284,-1.3816559,1.9042224,-2.091975,-1.5708417,2.4800134,-8.878128e-05,-0.00048116964,0.00047334778,0.00022969313,0.0001231496,-0.00010102526,0.0,0.24899697,-8.7532015,0.76874626,47.684196,-0.15830465,-3.2226546,-2.4143424,-0.09617728,0.09422146,0.0033255965,28.4375,29.6875,28.8125,32.5625,35.0,36.0
0.010052011,1.3869357,1.7953192,0.41171777,0.027318701,-0.006359895,-0.022088379,-0.38932413,-0.3687021,0.05998264,-3.0786672,0.6249976,0.00012374975,0.0011388311,0.0006471681,8.1712205e-05,0.0014327958,-0.0028213903,7.894959e-06,0.50500876,-1.3816322,1.9042462,-2.0919144,-1.5708417,2.4800491,-9.8520795e-05,-0.0011343962,0.00023244391,0.004063909,0.000121078665,-0.000107304164,0.05746084,0.21068975,-8.944737,0.7597976,47.65106,-0.75758576,-2.748385,-2.8302917,-0.17193255,0.08786237,-0.05943527,28.4375,29.6875,28.8125,32.5625,35.0,36.0
0.012051986,0.49885082,0.6316409,0.3036029,-0.0038048534,0.0033903283,-0.018838508,-0.38932246,-0.36870113,0.059984423,-3.0786657,0.6249593,0.000106954605,0.0011324584,0.0008322393,-0.002714501,0.0036024044,-0.0067480523,-0.00018250011,0.50500864,-1.3816305,1.9042348,-2.0918906,-1.5708417,2.4800253,-0.00041830717,0.0046510086,3.1185316e-06,0.0029940016,0.00011907625,-0.00023556627,0.05746084,0.17238252,-9.136273,0.7284641,47.67345,-0.90527225,-2.647201,-3.0024548,-0.1857455,0.10833752,-0.13499951,28.4375,29.6875,28.8125,32.5625,35.0,36.0
0.014052542,-0.12163562,-0.46467647,0.068138756,-0.053634945,0.030990697,-0.031817403,-0.3893335,-0.36870039,0.05997488,-3.0786557,0.6249179,0.00010238631,-0.0032575035,0.005387591,-0.005940254,0.0057169925,-0.010581429,-0.0014531794,0.5050045,-1.3815918,1.9042109,-2.0918915,-1.5708536,2.4799967,-0.012192814,0.011302887,4.1839083e-08,0.0007214572,0.000117213014,-0.010738092,-0.038307227,0.21068975,-9.174581,0.7172743,47.67614,-0.44768357,-3.2386296,-3.1091783,-0.15352312,0.10321435,-0.11237123,28.4375,29.6875,28.8125,32.5625,35.0,36.0
0.016052533,-0.7810395,-0.4317667,0.16768615,-0.07933104,0.05171696,-0.031605028,-0.38930273,-0.36868948,0.059940305,-3.0786242,0.6249083,-4.5138146e-05,-0.0063831997,0.0040658405,-0.002500665,0.0019300169,-0.0037084997,0.0056961155,0.5049923,-1.3815684,1.9042567,-2.0918682,-1.5708174,2.4799824,-0.012876585,0.009591762,-0.0057071187,0.00029207423,9.0672176e-05,-0.018569015,-0.2681506,0.21068975,-9.423578,0.779936,47.652847,-0.45578557,-3.1588106,-2.9780443,-0.13753974,0.11822191,-0.030700725,28.4375,29.6875,28.8125,32.5625,35.0,36.0
0.01805165,-0.6562032,-0.23922968,-0.075682536,-0.06847805,0.076589726,-0.056089606,-0.38933444,-0.3686681,0.059933633,-3.078589,0.6248988,3.6950184e-06,-0.0062215426,0.003538592,-0.0017300999,0.0013261661,-0.0026599662,0.010517592,0.5049567,-1.3815329,1.9042324,-2.0918791,-1.5708655,2.4799454,-0.011849705,0.008479707,-0.006246998,0.0007326001,0.000111072506,-0.022363648,-0.53630114,0.2681506,-9.442732,0.75084364,47.682407,-0.78988564,-2.8444579,-3.0435014,-0.14800927,0.123068675,-0.017400831,28.4375,29.6875,28.8125,32.5625,35.0,36.0
0.020051599,-1.2980431,0.23698564,-0.2629824,-0.020213865,0.069072664,-0.073028535,-0.38932338,-0.3686607,0.059903923,-3.078584,0.6248608,-0.00010667411,-0.0058750007,0.0049577137,-0.0029609592,0.0028147013,-0.006743064,0.0081056105,0.5049319,-1.3814963,1.9042567,-2.0918787,-1.5708293,2.4798975,-0.014337888,0.009627517,-0.005300455,0.0029302016,0.0007892167,-0.02244143,-0.51714754,0.19153613,-9.557653,0.6926589,47.664497,-0.89235604,-2.9321399,-3.1959724,-0.14283016,0.121741384,-0.027003597,28.4375,29.6875,28.8125,32.5625,35.0,36.0
0.022052828,-0.8357414,0.79312855,-0.5150346,-0.0005138697,0.07301594,-0.09923403,-0.38934442,-0.36865985,0.059903335,-3.07859,0.62488323,-0.00014817937,-0.0058647874,0.0053879474,-0.003959815,0.0022830598,-0.010342718,0.004393782,0.5048953,-1.3814595,1.904209,-2.0918543,-1.5708045,2.4798741,-0.01643196,0.011462113,-0.0054732007,0.0041543576,0.002998011,-0.02082718,-0.4405331,0.11492168,-9.691729,0.78217715,47.683304,-0.8197341,-2.9101238,-3.3450975,-0.16576797,0.10551639,-0.035039052,28.4375,29.6875,28.8125,32.5625,35.0,36.0
0.024051936,-1.2991621,0.061207265,-0.43481493,0.0032696598,0.061858464,-0.10502809,-0.38934922,-0.36866036,0.059893657,-3.0785873,0.6248088,-0.00012249437,-0.0076540387,0.004861244,-0.003191025,-0.0002516144,-0.008613539,0.00039242284,0.5049066,-1.3814354,1.9042081,-2.0918787,-1.5708283,2.4798393,-0.018078009,0.012379899,-0.008065047,0.003083651,0.0043724733,-0.018472865,-0.7278373,0.05746084,-9.672575,0.76874626,47.64121,-0.8271239,-2.7840626,-3.3556814,-0.16964462,0.0899329,-0.05979967,28.4375,29.6875,28.8125,32.5625,35.0,36.0
0.026052568,-1.2933542,0.70206064,-0.33793876,-0.031224588,0.0821727,-0.13278095,-0.38934025,-0.36863586,0.059859887,-3.0785189,0.62481356,-0.0003031224,-0.0100638755,0.0041386303,-0.002187494,-0.0015986069,-0.005031762,-0.0011781373,0.5048585,-1.3813747,1.9041942,-2.0917952,-1.570804,2.4798028,-0.01876317,0.014058067,-0.011981424,0.001538242,0.0038043703,-0.017584972,-0.6703765,0.05746084,-9.653421,0.6948948,47.65106,-0.8714323,-2.8616538,-3.3112965,-0.15968172,0.11214069,-0.09371895,28.4375,29.6875,28.8125,32.5625,35.0,36.0
0.02805274,-1.6040539,-0.14867747,-0.6349825,-0.02283639,0.09866056,-0.13228005,-0.38938227,-0.3686508,0.059887413,-3.0786169,0.6248155,-0.00021098445,-0.010671431,0.0043296576,-0.002739771,-0.0009500396,-0.004951691,-0.0024374526,0.5048223,-1.3813862,1.904159,-2.0918558,-1.5707687,2.4797554,-0.019272646,0.0156854,-0.012437722,0.00061384926,0.003196756,-0.016833141,-0.7278373,-0.05746084,-9.844957,0.7351769,47.681515,-0.95555127,-2.8172767,-3.3199105,-0.1556125,0.09827618,-0.12660275,28.4375,29.6875,28.8125,32.5625,35.0,36.0
0.030052183,-1.5064262,-0.09518108,-0.6261265,-0.021108612,0.11377065,-0.14550759,-0.3894096,-0.3686169,0.059863836,-3.0785415,0.62493485,-0.00021709513,-0.011850718,0.0045668483,-0.0026109465,-0.0010279253,-0.0045050085,-0.004147885,0.50476205,-1.3813376,1.904158,-2.0918677,-1.5708045,2.4797792,-0.020679722,0.016851272,-0.014131679,0.0007134729,0.0030447056,-0.016528767,-0.68953013,-0.05746084,-9.959879,0.7396539,47.65106,-0.9625622,-2.883096,-3.2894886,-0.14734823,0.121209726,-0.14348751,28.4375,29.6875,28.8125,32.5625,35.0,36.0
0.03205204,-1.4402579,0.266239,-0.45927152,-0.0187489,0.101725966,-0.16234401,-0.38940194,-0.36861435,0.05985566,-3.0785284,0.62489444,-0.00031440303,-0.012026183,0.0048705717,-0.0030818556,-0.0009104477,-0.005685207,-0.0041841464,0.50474966,-1.3813133,1.9041342,-2.0918076,-1.5707802,2.4797432,-0.021647215,0.017798895,-0.014235341,0.0009579915,0.0035115976,-0.01746086,-0.7661445,-0.05746084,-9.902418,0.77545905,47.66271,-0.94964755,-2.8171272,-3.322608,-0.12344637,0.10812752,-0.16008338,28.4375,29.6875,28.8125,32.5625,35.0,36.0
0.03405273,-1.1744285,0.21942693,-0.46156028,0.0007860878,0.092717044,-0.16955936,-0.3894195,-0.36861584,0.05985197,-3.0785477,0.6248976,-0.00036521794,-0.01257849,0.0047993883,-0.0021699776,-0.0024106873,-0.0056083426,-0.0044154017,0.5047134,-1.3812776,1.9040974,-2.0917947,-1.5707444,2.4797065,-0.022838801,0.01698142,-0.015676947,0.0024203681,0.0047871824,-0.018423248,-0.7278373,0.019153614,-9.730036,0.800085,47.690468,-1.0036542,-2.8123643,-3.3424063,-0.15605614,0.09866303,-0.16405022,28.4375,29.6875,28.8125,32.5625,35.0,36.0
0.036051694,-0.92308366,1.1706393,-0.6194551,-0.008478444,0.08324492,-0.19799502,-0.38947564,-0.36858642,0.059845928,-3.0785198,0.6249305,-0.00028955864,-0.0134022925,0.0052744,-0.0024943566,-0.0030497331,-0.006515046,-0.0047604935,0.5046409,-1.3812292,1.9040622,-2.091831,-1.5707916,2.4796581,-0.025028475,0.018091388,-0.016235467,0.0023492742,0.005783138,-0.020269096,-0.5746084,-0.038307227,-9.921572,0.72622824,47.657326,-0.98357785,-2.8012578,-3.3675365,-0.15667374,0.08963235,-0.18077675,28.4375,29.6875,28.8125,32.5625,35.0,36.0
0.038051717,-0.86548024,0.4417557,-0.575565,0.0011603059,0.06536674,-0.18632865,-0.3895255,-0.3685918,0.059852146,-3.0785558,0.6249761,-0.00029688736,-0.015228096,0.005123199,-0.0013693837,-0.004964626,-0.0037708646,-0.00484977,0.5045803,-1.3811692,1.9039773,-2.0918314,-1.5707549,2.4796214,-0.026691439,0.017900597,-0.018336497,0.0013129062,0.0061255363,-0.021842306,-0.45968673,-0.095768064,-9.787497,0.7933669,47.688675,-0.92784667,-2.7278643,-3.3218913,-0.1520093,0.08697925,-0.1816136,28.4375,29.6875,28.8125,32.5625,35.0,36.0
0.040052563,-0.5611054,0.3098964,-0.27650228,-0.010826979,0.07458643,-0.20507507,-0.38953632,-0.36855727,0.059829738,-3.0784855,0.62503874,-0.00036986722,-0.016288636,0.0050899633,-0.0010885337,-0.005693508,-0.0025135432,-0.005149883,0.5045201,-1.381133,1.9039773,-2.0917957,-1.5707678,2.4796093,-0.02764156,0.018478056,-0.019451313,0.00039721126,0.006149397,-0.02249216,-0.49799395,-0.05746084,-9.730036,0.7463667,47.67614,-0.955987,-2.7672677,-3.320435,-0.13335137,0.079192504,-0.21505377,28.4375,29.6875,28.8125,32.5625,35.0,36.0
0.04205215,0.005474093,0.35661033,-0.44005817,-0.0218164,0.085970595,-0.20434602,-0.38960683,-0.36856788,0.05986905,-3.0785582,0.62507325,-0.00022741036,-0.017194375,0.005228573,-0.0010040669,-0.0060328394,-0.002228679,-0.005030596,0.5044718,-1.3811206,1.9038814,-2.091832,-1.5707673,2.4795732,-0.028816707,0.019361835,-0.020670358,0.00031872228,0.0063083256,-0.023785483,-0.38307226,-0.019153614,-9.749189,0.75084364,47.666286,-0.9441645,-2.7696757,-3.3203752,-0.11596018,0.07315454,-0.2098983,28.4375,29.6875,28.8125,32.5625,35.0,36.0
0.04405208,-0.2794944,0.08450123,-0.51009786,-0.008859238,0.06463765,-0.17985162,-0.38964432,-0.36855456,0.05986347,-3.0785842,0.62507683,-0.000237238,-0.018378645,0.0055274665,-0.00037990604,-0.0067743734,-0.0011565075,-0.004403275,0.5043994,-1.3810847,1.9038571,-2.0918558,-1.5707434,2.4794998,-0.030503526,0.019276943,-0.022023007,0.00045969037,0.0064365403,-0.026099242,-0.17238252,0.019153614,-9.634268,0.7463667,47.703007,-0.9006901,-2.6806996,-3.2767186,-0.1393967,0.068956494,-0.24091265,28.4375,29.6875,28.8125,32.5625,35.0,36.0
0.046052452,0.23694505,0.26959488,-0.45457235,-0.0115684,0.051361594,-0.18422247,-0.38964778,-0.3685301,0.059830975,-3.0785034,0.62507993,-0.00035329603,-0.019962661,0.0064214175,-0.00016958399,-0.006860853,-0.00059825345,-0.004513467,0.5043624,-1.3810122,1.9038318,-2.0917957,-1.5707554,2.479475,-0.033363096,0.019941127,-0.023309106,0.0005515664,0.0062362202,-0.02884833,-0.05746084,0.076614454,-9.557653,0.779936,47.629562,-0.8879775,-2.7873573,-3.2653618,-0.13158724,0.066073835,-0.2345466,28.4375,29.6875,28.8125,32.5625,35.0,36.0
0.048051737,0.41515896,-0.16965866,-0.42226097,-0.004717716,0.039432082,-0.17844413,-0.38970444,-0.3685115,0.059835847,-3.0785155,0.625139,-0.0003102509,-0.021496598,0.006840975,0.00016854203,-0.006637154,0.00066521496,-0.003947973,0.5042782,-1.3809758,1.9037832,-2.0918195,-1.5707554,2.4794261,-0.034992903,0.020935874,-0.025241973,0.000494947,0.0054261354,-0.031041011,-0.1340753,0.076614454,-9.519346,0.79560274,47.688675,-0.9047878,-2.6539445,-3.3013396,-0.12450827,0.09043983,-0.23980814,28.4375,29.6875,28.8125,32.5625,35.0,36.0
0.050052445,0.46021205,-0.33056566,-0.49099317,-0.008519619,0.03298275,-0.1739979,-0.3897814,-0.36851716,0.059860427,-3.0785954,0.62515527,-0.0002471909,-0.022894546,0.0073374067,0.00064367143,-0.006933277,0.0018530324,-0.003946927,0.5041935,-1.3809278,1.9036759,-2.0918438,-1.5707196,2.4793415,-0.0369307,0.021228341,-0.026655994,0.0004361249,0.0051108208,-0.032978237,-0.11492168,0.095768064,-9.481039,0.7351769,47.66091,-0.80894214,-2.656546,-3.236442,-0.1309039,0.12655397,-0.23855498,28.4375,29.6875,28.8125,32.5625,35.0,36.0
0.05205232,0.17736131,-0.5719543,-0.5682148,-0.01792078,0.027237048,-0.1722907,-0.38981614,-0.36849338,0.059852593,-3.0785844,0.6251729,-0.00026074497,-0.023821315,0.007838186,0.0008184208,-0.0075456975,0.002046364,-0.004318274,0.504121,-1.3808917,1.9036511,-2.0918438,-1.5707196,2.4792814,-0.0389111,0.021400664,-0.027247567,0.00038898995,0.005551879,-0.03458783,0.095768064,0.22984336,-9.481039,0.784413,47.689575,-0.71666384,-2.6342335,-3.2327192,-0.11960743,0.099301234,-0.24746147,28.4375,29.6875,28.8125,32.5625,35.0,36.0
0.054051667,0.40719715,-0.6720373,-0.3321473,-0.025252042,0.03269771,-0.1749003,-0.38987857,-0.36845073,0.059874147,-3.078588,0.62517124,-0.00016815729,-0.02375027,0.007784343,0.0002896249,-0.0075548566,0.001000004,-0.0030910217,0.50401324,-1.3809034,1.9036158,-2.0918438,-1.5707554,2.4791722,-0.03907119,0.022463907,-0.027271094,0.00025849612,0.0060668285,-0.035975575,0.038307227,0.17238252,-9.5385,0.8179876,47.675243,-0.7663002,-2.639636,-3.262269,-0.11899265,0.100628674,-0.2532571,28.4375,29.6875,28.8125,32.5625,35.0,36.0
0.056052588,0.19601454,-0.640642,-0.4375785,-0.024987789,0.028369378,-0.17351891,-0.38991135,-0.36846155,0.059869558,-3.0786285,0.6252565,-0.00029594311,-0.02455147,0.007925115,0.00020747332,-0.0074829743,0.001086064,-0.0027743329,0.503941,-1.3808308,1.9035324,-2.091808,-1.5706595,2.479148,-0.03998509,0.023646533,-0.028481245,0.00024970216,0.0059588193,-0.037205454,0.038307227,0.19153613,-9.442732,0.7642693,47.64837,-0.8725945,-2.6748812,-3.3771472,-0.096149065,0.113150075,-0.26668876,28.4375,29.6875,28.8125,32.5625,35.0,36.0
0.05805256,0.06569484,-0.22550055,-0.30068138,-0.021236073,0.019518875,-0.16179287,-0.39000157,-0.36843306,0.0599017,-3.0786226,0.6252361,-8.3947176e-05,-0.026283883,0.008260956,0.00085004163,-0.008480814,0.0022670496,-0.003952657,0.50386834,-1.3808066,1.9034361,-2.091832,-1.5707549,2.4790635,-0.04234941,0.024216693,-0.030631429,0.0003094517,0.0062616775,-0.038390398,0.0,0.17238252,-9.3661175,0.6702794,47.686886,-0.8322445,-2.6430283,-3.2595663,-0.11265013,0.10480584,-0.28283542,28.4375,29.6875,28.8125,32.5625,35.0,36.0
0.060052507,0.23611704,-0.10262161,-0.38031948,-0.014078891,0.021985644,-0.16986106,-0.3900113,-0.3683971,0.0598546,-3.0785565,0.6252619,-0.00025173367,-0.027319565,0.008405931,0.0012867267,-0.009671964,0.0027408034,-0.004184526,0.5037838,-1.3807225,1.9034356,-2.0917957,-1.570731,2.4790034,-0.04406219,0.024415366,-0.03187492,0.000362786,0.007069113,-0.039872915,-0.038307227,0.19153613,-9.423578,0.7239871,47.703007,-0.7298234,-2.6298807,-3.2338765,-0.08954835,0.12036706,-0.28572118,28.4375,29.6875,28.8125,32.5625,35.0,36.0
0.062052056,-0.08213812,-0.24110681,-0.35755512,-0.018481575,0.019872595,-0.16758965,-0.3900775,-0.36842233,0.059894152,-3.078696,0.62528914,-0.00019424822,-0.027740616,0.008219183,0.0013356671,-0.010572316,0.002254079,-0.0039802077,0.5037119,-1.3807102,1.9033393,-2.091832,-1.5706466,2.4789307,-0.044774137,0.02513775,-0.032907907,0.0006652427,0.008096215,-0.04078946,-0.038307227,0.19153613,-9.423578,0.77545905,47.6636,-0.7816212,-2.5656815,-3.264419,-0.11127757,0.10894795,-0.32158986,28.4375,29.6875,28.8125,32.5625,35.0,36.0
0.06405288,0.009830248,-0.08483433,-0.07438223,-0.025494123,0.03912208,-0.16890332,-0.39014277,-0.36838698,0.059883155,-3.078685,0.6253048,-0.0002090186,-0.02852991,0.008680168,0.0012661398,-0.010537609,0.0020071052,-0.0020860562,0.5035915,-1.3806379,1.9032787,-2.0918314,-1.5706466,2.4788215,-0.046334255,0.025922695,-0.033744197,0.0009504899,0.00818374,-0.044243537,-0.1340753,0.22984336,-9.308656,0.80456203,47.704796,-0.7904475,-2.5529776,-3.25244,-0.12736844,0.097139,-0.31478387,28.4375,29.6875,28.8125,32.5625,35.0,36.0
0.06605215,0.080787405,-0.35603744,-0.058119133,-0.021317769,0.05940894,-0.17179948,-0.39020872,-0.36839572,0.05989878,3.0786982,-0.62524974,0.00018397321,-0.029559776,0.009161343,0.0014190258,-0.010558482,0.0024935456,-0.0026396548,0.50350714,-1.3805896,1.9031943,-2.0918677,-1.5705866,2.478701,-0.0479625,0.026458677,-0.03473014,0.0009685798,0.00796891,-0.04531678,-0.22984336,0.11492168,-9.32781,0.7530795,47.67614,-0.8066839,-2.580864,-3.201026,-0.093588054,0.090023324,-0.3120136,28.4375,29.6875,28.8125,32.5625,35.0,36.0
0.06805241,-0.10403411,-0.20707743,-0.24652188,-0.022986418,0.061196063,-0.16485445,-0.39023495,-0.36835834,0.059880197,-3.0787337,0.62523735,-0.00023279017,-0.029986624,0.0090119615,0.0015652562,-0.011409985,0.0023141038,-0.0032459272,0.50343496,-1.3805414,1.9031714,-2.0918314,-1.5706109,2.4786167,-0.048623763,0.026904453,-0.035638332,0.0011738169,0.008797578,-0.045373164,-0.24899697,0.095768064,-9.423578,0.7463667,47.664497,-0.80439574,-2.5702298,-3.250769,-0.09691653,0.09468124,-0.3490998,28.4375,29.6875,28.8125,32.5625,35.0,36.0
0.070052736,0.07919761,0.37036347,0.1064388,-0.027474986,0.067690805,-0.17612901,-0.39031994,-0.36833856,0.05989838,3.0786972,-0.6253057,0.00017453289,-0.031063113,0.009297285,0.0016926214,-0.012030134,0.0023806803,-0.0013034709,0.5033147,-1.3804932,1.9030756,-2.0918434,-1.5705985,2.4785438,-0.050417285,0.027764577,-0.036972184,0.0012902336,0.009309444,-0.04910874,-0.2681506,0.05746084,-9.404425,0.78217715,47.66987,-0.8170254,-2.5543888,-3.264501,-0.1051773,0.08921863,-0.3401395,28.4375,29.6875,28.8125,32.5625,35.0,36.0
0.07205172,-0.21831658,0.6063054,0.13025081,-0.018645758,0.06365482,-0.17703943,-0.39036393,-0.368333,0.05988288,3.0787008,-0.62526745,0.0002553182,-0.03270428,0.01008964,0.001853394,-0.012275464,0.0029193289,-0.0007577442,0.5032417,-1.3803966,1.9029912,-2.091819,-1.5705622,2.4784465,-0.053243533,0.028685272,-0.038414348,0.0012246245,0.009259733,-0.052480243,-0.3256114,0.076614454,-9.346964,0.80679786,47.667187,-0.7084223,-2.5224895,-3.2368286,-0.08756709,0.075794965,-0.3507294,28.4375,29.6875,28.8125,32.5625,35.0,36.0
0.074052185,-0.012608243,1.053353,-0.002492456,-0.012842565,0.074817345,-0.17718953,-0.390441,-0.3683113,0.059903584,3.078632,-0.62526786,0.0002192603,-0.032219477,0.009284903,0.0016690899,-0.012333816,0.002638151,0.0058088154,0.5031107,-1.3803724,1.9029182,-2.0918314,-1.570526,2.4783244,-0.051546693,0.029461205,-0.038895797,0.0011516153,0.009449335,-0.057349358,-0.34476504,0.05746084,-9.251195,0.80456203,47.65464,-0.91262174,-2.5756545,-3.2132778,-0.114060104,0.06997233,-0.29578507,28.4375,29.6875,28.8125,32.5625,35.0,36.0
0.076051995,-0.094232924,0.84089047,0.14792359,-0.008477186,0.088648565,-0.17617805,-0.39049172,-0.36828208,0.059886843,3.0786471,-0.62527233,0.00024961255,-0.033272896,0.009779189,0.0014693819,-0.013126189,0.0020278706,0.0038325025,0.50301397,-1.3802998,1.9028705,-2.0918314,-1.5705255,2.4782286,-0.053968653,0.030576484,-0.03973375,0.0010244094,0.010434984,-0.057796225,-0.4213795,0.019153614,-9.308656,0.800085,47.660015,-0.8939573,-2.502838,-3.261585,-0.102623366,0.05885587,-0.30481398,28.4375,29.6875,28.8125,32.5625,35.0,36.0
0.07805221,-0.32150036,1.0691124,0.23595805,-0.009523513,0.090120144,-0.18222429,-0.39057696,-0.36826652,0.059918553,3.078603,-0.6252036,0.00020140325,-0.034641735,0.010073964,0.0018651395,-0.013483229,0.003124128,0.00605306,0.50289387,-1.3802638,1.9027504,-2.0918076,-1.5705022,2.4780712,-0.055594433,0.031249877,-0.041399814,0.000888633,0.010219957,-0.06164082,-0.4405331,0.05746084,-9.270349,0.7642693,47.653748,-0.87668735,-2.533489,-3.245955,-0.10690257,0.052193146,-0.28837997,28.4375,29.6875,28.8125,32.5625,35.0,36.0
0.08005225,-0.31871873,0.8524483,0.036524646,-0.00018829867,0.08918838,-0.17855978,-0.3906476,-0.3682526,0.059922814,3.0785868,-0.62516046,0.0001867744,-0.035978362,0.010878516,0.0019320386,-0.014091793,0.0030406944,0.007816244,0.5027969,-1.3801913,1.902655,-2.0918076,-1.5704898,2.4779494,-0.058541205,0.031881776,-0.04231575,0.00095317315,0.010793969,-0.066350915,-0.4405331,0.095768064,-9.3661175,0.7150385,47.666286,-0.73176473,-2.47844,-3.1891532,-0.0832652,0.064944714,-0.2592501,28.4375,29.6875,28.8125,32.5625,35.0,36.0
0.08205194,-0.35672027,0.9197072,0.0036341941,-0.010314669,0.07987554,-0.1732688,-0.39074147,-0.36823398,0.05993272,3.0785654,-0.62511355,0.00013096203,-0.035229303,0.009931059,0.0014995727,-0.013572555,0.0024317575,0.013967861,0.50267816,-1.380107,1.9025353,-2.091819,-1.5704898,2.4778042,-0.05614003,0.033142656,-0.042835485,0.0009984629,0.010635781,-0.07010023,-0.4405331,-0.05746084,-9.32781,0.7933669,47.622402,-0.96118623,-2.507266,-3.177525,-0.0894401,0.04578015,-0.19438246,28.4375,29.6875,28.8125,32.5625,35.0,36.0
0.08405206,-0.4700308,0.60745287,-0.018409798,-0.0054293885,0.0775015,-0.16909187,-0.39080307,-0.36820683,0.05991438,3.0785263,-0.6251243,0.00018017407,-0.036228478,0.011163116,0.0007515472,-0.012252877,0.0013145728,0.014466797,0.5025454,-1.3800341,1.9024991,-2.0918553,-1.5704421,2.477683,-0.058749523,0.03486051,-0.043237135,0.0013047864,0.010018521,-0.0732074,-0.4405331,-0.15322891,-9.3661175,0.8179876,47.693153,-0.98603976,-2.4624476,-3.2172163,-0.08614297,0.0649807,-0.17230037,28.4375,29.6875,28.8125,32.5625,35.0,36.0
0.0860526,-0.14186722,0.8274551,-0.20986433,-0.008664484,0.081730686,-0.17766051,-0.39084992,-0.3681958,0.059927575,3.0785334,-0.624952,0.00021688675,-0.03694831,0.011735269,0.00032625967,-0.011992434,0.0005588511,0.015700467,0.50246096,-1.3799977,1.9024152,-2.0918076,-1.5704063,2.4774902,-0.060459815,0.036118537,-0.043774463,0.0013756658,0.010153974,-0.07615115,-0.38307226,-0.095768064,-9.404425,0.66803825,47.66271,-0.89500344,-2.5408525,-3.291573,-0.09642569,0.05325567,-0.12362173,28.4375,29.6875,28.8125,32.5625,35.0,36.0
0.08805277,-0.3775886,0.38067165,-0.28625062,-0.00067423924,0.06856531,-0.15755358,-0.39092612,-0.36814123,0.059898444,3.0785768,-0.6250168,0.0002919864,-0.03815073,0.011136867,0.0013823445,-0.013404773,0.0025267194,0.017452499,0.5023053,-1.3798777,1.9023312,-2.0917714,-1.5704178,2.4773695,-0.06073555,0.036245435,-0.046339512,0.0014093255,0.010434374,-0.07817902,-0.36391866,-0.076614454,-9.346964,0.73741806,47.705692,-0.9915679,-2.5534449,-3.2954545,-0.09113795,0.053896725,-0.10182393,28.4375,29.6875,28.8125,32.5625,35.0,36.0
0.090052225,-0.5531557,0.18716365,-0.28773424,-0.0011302746,0.058955308,-0.15656462,-0.3910181,-0.36813372,0.05991212,3.0785227,-0.6249096,0.00024190526,-0.03948445,0.0114389025,0.0015367905,-0.01339784,0.0032638635,0.016515499,0.50218487,-1.3798051,1.9022225,-2.0918076,-1.570382,2.477189,-0.0622472,0.037460785,-0.048112046,0.0013292967,0.010076155,-0.0787515,-0.40222588,-0.076614454,-9.308656,0.7463667,47.647476,-0.97544897,-2.448996,-3.1250591,-0.09235421,0.040889643,-0.06715369,28.4375,29.6875,28.8125,32.5625,35.0,36.0
0.09205214,0.42997426,1.0830843,-0.113625355,-0.024003122,0.076040536,-0.17165495,-0.3910858,-0.36809725,0.059906244,3.078526,-0.62485284,0.00025735106,-0.03893762,0.011906169,0.00035040514,-0.012920021,0.00083752495,0.01565022,0.50205284,-1.3797446,1.9021643,-2.0918076,-1.5703696,2.4770212,-0.06298473,0.03856669,-0.04668298,0.0011507131,0.010828657,-0.07862522,-0.34476504,-0.076614454,-9.32781,0.77545905,47.68062,-1.0292882,-2.5594726,-3.308577,-0.093730584,0.0444294,-0.081747144,28.4375,29.6875,28.8125,32.5625,35.0,36.0
0.09405237,0.32663345,0.7324553,-0.1671745,-0.022090865,0.07322563,-0.17715192,-0.39115912,-0.36807084,0.059899516,3.0785244,-0.62481403,0.0002693907,-0.040276103,0.011885057,0.0006270294,-0.013249829,0.0017187804,0.013826365,0.5019328,-1.37966,1.9020795,-2.0918076,-1.5703577,2.4768772,-0.06409589,0.039924093,-0.048907205,0.0010888254,0.0106895985,-0.07791121,-0.19153613,0.038307227,-9.481039,0.8224646,47.704796,-1.0563831,-2.5230703,-3.3308992,-0.09628976,0.04095165,-0.060927458,28.4375,29.6875,28.8125,32.5625,35.0,36.0
0.09605236,0.49799448,0.16673486,-0.1291887,-0.025247648,0.066138804,-0.1718768,-0.3912962,-0.36804682,0.059940994,3.0784523,-0.6248186,0.00014070269,-0.041413225,0.011907431,0.0009771975,-0.013525796,0.0027019447,0.011785246,0.501765,-1.3795878,1.9018997,-2.0918076,-1.5703577,2.4767215,-0.06502924,0.040784743,-0.050712943,0.0010414887,0.010464133,-0.076801136,-0.24899697,0.1340753,-9.270349,0.7642693,47.668976,-1.092407,-2.549961,-3.2296665,-0.09203781,0.053035915,-0.08011682,28.4375,29.6875,28.8125,32.5625,35.0,36.0
0.098052375,0.68057597,0.40684098,-0.32719755,-0.03436917,0.058951806,-0.17727515,-0.39136398,-0.36801717,0.059920684,3.0784805,-0.62474924,0.00019600865,-0.042968728,0.011642264,0.0018866083,-0.015009864,0.004456075,0.009069436,0.50164473,-1.3794794,1.9018148,-2.0917952,-1.5703458,2.4765544,-0.06629689,0.041214656,-0.053265408,0.0009124161,0.01091409,-0.07535285,-0.2681506,0.17238252,-9.32781,0.7665104,47.690468,-1.126838,-2.610017,-3.1483521,-0.08272365,0.051914386,-0.10041635,28.4375,29.6875,28.8125,32.5625,35.0,36.0
0.10005254,0.56032294,0.22325987,-0.35211554,-0.040064704,0.050525438,-0.17442222,-0.3914497,-0.36800367,0.05992494,3.0784297,-0.62470186,0.00020354766,-0.043108165,0.012756525,0.0007915227,-0.013559657,0.0027275404,0.005592982,0.5015124,-1.3793949,1.901708,-2.0918076,-1.5702976,2.476399,-0.068016134,0.04246583,-0.05224586,0.0008605589,0.010479337,-0.07359491,-0.11492168,0.24899697,-9.461885,0.7665104,47.65643,-1.1448841,-2.5283046,-3.1695924,-0.1136087,0.058909945,-0.11753307,28.4375,29.6875,28.8125,32.5625,35.0,36.0
0.1020526,0.6406128,0.035786513,-0.40742838,-0.051259167,0.051842477,-0.16695146,-0.39152414,-0.36795905,0.059920475,3.0784302,-0.6247794,0.00023340482,-0.04386723,0.013089886,0.0005030189,-0.013456457,0.0022488763,0.0028913843,0.5013682,-1.3793223,1.9016241,-2.0917714,-1.5702976,2.476303,-0.06935532,0.043804873,-0.053195525,0.0009410129,0.010616268,-0.07223236,-0.038307227,0.24899697,-9.442732,0.8023209,47.678825,-1.1074657,-2.6068454,-3.2923918,-0.099092625,0.06471488,-0.16591251,28.4375,29.6875,28.8125,32.5625,35.0,36.0
0.104052424,-0.08257486,-0.59304166,-0.2612806,-0.045028735,0.026135106,-0.15581469,-0.39161292,-0.3679338,0.059915263,3.0784242,-0.62468326,0.00021668873,-0.04520537,0.013274728,0.0013408307,-0.014374034,0.0034933523,0.00035110957,0.50123596,-1.3792263,1.9015278,-2.0917952,-1.5702857,2.4761117,-0.07102108,0.043747544,-0.055145003,0.0014166962,0.010822561,-0.07135714,0.0,0.21068975,-9.481039,0.80456203,47.67614,-1.1339357,-2.5231168,-3.2000608,-0.098045774,0.04842493,-0.18826106,28.4375,29.6875,28.8125,32.5625,35.0,36.0
0.10605269,0.64954454,0.065571345,-0.22552082,-0.054706827,0.04420588,-0.17039791,-0.3917154,-0.36790633,0.05994545,3.0783653,-0.6246903,0.00017011685,-0.045785915,0.013541406,0.0009394165,-0.014290457,0.00273865,-0.0015530984,0.5010798,-1.3791777,1.9013962,-2.0917714,-1.5702618,2.4759674,-0.07217389,0.04514957,-0.05590676,0.0014805164,0.0111158835,-0.07060495,0.0,0.2681506,-9.442732,0.78217715,47.704796,-1.1111588,-2.5152807,-3.2632415,-0.099815756,0.052087877,-0.22775424,28.4375,29.6875,28.8125,32.5625,35.0,36.0
0.108052224,0.40041685,0.03009663,-0.3990832,-0.04953442,0.040522058,-0.16718371,-0.39179623,-0.36789724,0.05993446,3.0783222,-0.6246424,0.00019167176,-0.046430957,0.013989301,-0.00023594388,-0.013633873,0.0007381975,-0.00014027163,0.5009595,-1.3790687,1.9013003,-2.0918076,-1.5702137,2.4758227,-0.07375291,0.048105843,-0.056721658,0.001413921,0.01150228,-0.07359622,-0.05746084,0.30645782,-9.481039,0.86945957,47.668976,-1.1068239,-2.6909819,-3.2318954,-0.09912603,0.043466568,-0.24694009,28.4375,29.6875,28.8125,32.5625,35.0,36.0
0.11005194,0.15134118,-0.1719897,-0.25910768,-0.043166988,0.038451135,-0.1632631,-0.39189857,-0.36786816,0.05993051,3.0783136,-0.62464106,0.00017635517,-0.047599684,0.013841258,0.0017220556,-0.015316427,0.0044450546,-0.0027926252,0.5008157,-1.3789495,1.9011682,-2.0918076,-1.5702137,2.4756792,-0.074377015,0.0455321,-0.05811247,0.0013208088,0.011196578,-0.071567304,-0.038307227,0.24899697,-9.519346,0.77545905,47.690468,-1.20872,-2.501026,-3.253362,-0.0984355,0.037248448,-0.2724877,28.4375,29.6875,28.8125,32.5625,35.0,36.0
0.11205219,0.5520881,0.4790251,-0.08354494,-0.05219204,0.054023396,-0.16342047,-0.391982,-0.36781678,0.059921138,3.0783339,-0.6246647,0.00019324441,-0.048624054,0.014208329,0.0013246324,-0.0152167855,0.0040937206,-0.004245562,0.5006594,-1.3788648,1.9010838,-2.0917838,-1.5702256,2.4755352,-0.07597841,0.04733454,-0.059284106,0.0010467492,0.011274679,-0.071715355,-0.095768064,0.2681506,-9.481039,0.7351769,47.66091,-1.2446827,-2.477734,-3.2280774,-0.11262947,0.038392566,-0.32082754,28.4375,29.6875,28.8125,32.5625,35.0,36.0
0.11405227,0.28258452,0.39408955,-0.17541,-0.03739099,0.057028964,-0.16793364,-0.39208207,-0.3678176,0.059943836,3.078222,-0.6246208,0.00017921325,-0.048836187,0.013753795,0.0010254054,-0.015861606,0.003317134,-0.001492655,0.5005156,-1.3787923,1.9009517,-2.0918076,-1.5701412,2.475378,-0.075979196,0.04880383,-0.06033521,0.0010062453,0.012219101,-0.07446854,-0.15322891,0.15322891,-9.519346,0.85155696,47.68599,-1.1965307,-2.5023894,-3.3159294,-0.11537166,0.026902182,-0.34164578,28.4375,29.6875,28.8125,32.5625,35.0,36.0
0.11605223,-0.18063836,0.46286643,-0.29892746,-0.03082759,0.045054212,-0.15688072,-0.39218992,-0.3678023,0.059955213,3.0781832,-0.6246167,0.00013640671,-0.050783146,0.015275254,0.00027741428,-0.0154378265,0.0021987478,-0.00915167,0.5003825,-1.3786832,1.9007968,-2.0918076,-1.5701293,2.4752474,-0.08042515,0.05124162,-0.061506152,0.0009240776,0.012384716,-0.071254246,-0.076614454,0.076614454,-9.423578,0.83589023,47.698532,-1.1625094,-2.6376696,-3.2135513,-0.08112417,0.030440696,-0.41059345,28.4375,29.6875,28.8125,32.5625,35.0,36.0
0.11805255,0.8647034,0.61638796,-0.16077098,-0.024226412,0.070814244,-0.17422184,-0.39229527,-0.36775842,0.059950482,3.0781677,-0.62464774,0.000149102,-0.050546285,0.014346398,0.0006115271,-0.015648704,0.0030579471,-0.005317759,0.5002037,-1.378575,1.9006766,-2.0917952,-1.5701174,2.47509,-0.07848246,0.051425442,-0.062473714,0.00085778104,0.012157746,-0.07314481,-0.19153613,0.1340753,-9.423578,0.7620334,47.682407,-1.291887,-2.595705,-3.293583,-0.10157728,0.0227433,-0.45707375,28.4375,29.6875,28.8125,32.5625,35.0,36.0
0.12005259,0.29352167,0.6478582,-0.058820304,-0.022528686,0.06389764,-0.16854869,-0.39241967,-0.3677025,0.059960324,3.0781283,-0.6247544,0.0001464744,-0.052095443,0.014812337,0.0019807909,-0.016933324,0.0056845187,-0.003384625,0.49998719,-1.3784795,1.9005331,-2.0917594,-1.5701054,2.474945,-0.08059264,0.04990274,-0.06376597,0.00075825903,0.012027487,-0.07718756,-0.19153613,0.1340753,-9.385271,0.7597976,47.661808,-1.3314353,-2.476288,-3.24725,-0.092097,0.026139613,-0.46365166,28.4375,29.6875,28.8125,32.5625,35.0,36.0
0.12205272,-0.42546797,0.7773894,-0.14328475,-0.019150162,0.05715323,-0.16583246,-0.392478,-0.36767766,0.059928074,3.078148,-0.6246227,0.00027989707,-0.053344198,0.01611553,0.0009696626,-0.016623236,0.0037225233,-0.003387931,0.49985397,-1.3783587,1.9004606,-2.0917475,-1.5700454,2.4747272,-0.08434147,0.052171443,-0.06415956,0.00075999775,0.012693139,-0.08093407,-0.22984336,0.05746084,-9.346964,0.78217715,47.67614,-1.1313462,-2.4772625,-3.311687,-0.0822432,0.012894223,-0.4769278,28.4375,29.6875,28.8125,32.5625,35.0,36.0
0.124051675,-0.043109942,0.74791455,-0.10586932,-0.013814664,0.08045808,-0.16572738,-0.39261168,-0.36765906,0.059948657,3.0780883,-0.6246045,0.00016633241,-0.05350186,0.015313939,0.0011194975,-0.017269593,0.004015227,0.005893585,0.49969885,-1.3782502,1.9002937,-2.0917842,-1.5700449,2.4745684,-0.08338541,0.053080387,-0.065566756,0.0006975606,0.013129902,-0.08925808,-0.30645782,0.019153614,-9.404425,0.85155696,47.65106,-1.415589,-2.5493724,-3.2964826,-0.09017009,0.012787002,-0.4264383,28.4375,29.6875,28.8125,32.5625,35.0,36.0
0.12605183,-0.014879023,1.3569044,0.040527225,-0.022654882,0.082522005,-0.17315151,-0.3927077,-0.36762232,0.05993656,3.0780642,-0.6246173,0.00024372894,-0.05477211,0.01597885,0.0011596542,-0.01667749,0.0047241384,0.008117265,0.4995186,-1.3781298,1.9001731,-2.09176,-1.5699972,2.474399,-0.08512134,0.054064155,-0.066815585,0.00063656183,0.012269206,-0.09321644,-0.3256114,-0.019153614,-9.308657,0.6971306,47.687782,-1.3193903,-2.4880648,-3.3529186,-0.09485564,0.01243959,-0.40386233,28.4375,29.6875,28.8125,32.5625,35.0,36.0
0.12805216,-0.4220156,1.0585911,0.011588179,-0.005444007,0.08117255,-0.17245466,-0.3928455,-0.36760232,0.05995508,3.0780187,-0.62452537,0.00015615184,-0.055739198,0.01665499,0.0011142109,-0.017127536,0.004528352,0.014848849,0.49935025,-1.3780093,1.8999938,-2.0917842,-1.5699853,2.4741793,-0.087436035,0.054574873,-0.067310326,0.00058484694,0.012770934,-0.10226194,-0.4213795,0.0,-9.289502,0.82022345,47.651955,-1.2895923,-2.490798,-3.3527198,-0.10240014,0.0173475,-0.3359046,28.4375,29.6875,28.8125,32.5625,35.0,36.0
0.13005199,-0.45775893,1.0892357,-0.11119551,-1.9655969e-05,0.08701849,-0.16749941,-0.3929586,-0.3675535,0.05994465,3.0779822,-0.6245558,0.00021835044,-0.05876879,0.01675303,0.002569519,-0.01851934,0.0078091957,0.016803676,0.4991337,-1.377889,1.8998722,-2.0917718,-1.5699371,2.4739864,-0.090150826,0.055595186,-0.071825154,0.0005451877,0.012416209,-0.106929384,-0.40222588,0.038307227,-9.3661175,0.7978386,47.642998,-1.3452203,-2.4825475,-3.1401925,-0.09716345,0.0065903133,-0.27833885,28.4375,29.6875,28.8125,32.5625,35.0,36.0
0.13205278,-0.56708634,1.0350472,-0.017599713,-0.0035329633,0.09044548,-0.17248869,-0.3930618,-0.36752024,0.059947163,3.0780005,-0.62440234,0.0001663489,-0.057829563,0.017308151,0.0006227892,-0.016813368,0.0043145055,0.02193637,0.49898997,-1.3777921,1.8997544,-2.0917842,-1.569949,2.4737446,-0.09031422,0.05786099,-0.07005442,0.000397469,0.012602556,-0.11222559,-0.5554548,-0.05746084,-9.404425,0.78888994,47.66987,-1.2743269,-2.538209,-3.2147124,-0.08614822,0.015287146,-0.22675633,28.4375,29.6875,28.8125,32.5625,35.0,36.0
0.13405168,-0.83578897,0.7858158,-0.0846265,-0.00544921,0.091257,-0.16402279,-0.3931842,-0.36750066,0.059949733,3.077962,-0.62429595,0.00014434302,-0.05901355,0.017712748,0.0016620945,-0.01767995,0.0062873354,0.024050005,0.49882185,-1.3776604,1.899598,-2.091808,-1.5699133,2.473515,-0.09194934,0.056703776,-0.07105796,0.00042102256,0.012427089,-0.11597339,-0.63206923,-0.076614454,-9.404425,0.86498255,47.68599,-1.4087851,-2.4669917,-3.3112996,-0.10013621,0.012656337,-0.15650514,28.4375,29.6875,28.8125,32.5625,35.0,36.0
0.13605271,-0.96028167,0.48786712,-0.24269345,-0.01045967,0.10122244,-0.16182251,-0.3933097,-0.36744744,0.059961546,3.0779762,-0.62422335,0.0001436924,-0.06286756,0.01825642,0.0036200727,-0.019937905,0.010194954,0.019858511,0.49861664,-1.3775522,1.8994292,-2.091748,-1.5699133,2.4732628,-0.09645383,0.057129465,-0.07602713,0.00045531685,0.012533788,-0.11628444,-0.6895301,0.0,-9.461885,0.78888994,47.674347,-1.2324967,-2.4044042,-3.139534,-0.10704979,0.018169548,-0.14953652,28.4375,29.6875,28.8125,32.5625,35.0,36.0
0.1380526,-0.52455306,0.53888404,-0.52628046,-0.012217147,0.11031868,-0.16534603,-0.39340585,-0.36739925,0.05992537,3.0779996,-0.62417203,0.00025524548,-0.061611902,0.019411223,0.0003931703,-0.016788282,0.0041556866,0.016635073,0.49842468,-1.3773946,1.8993219,-2.0917356,-1.5698775,2.4730358,-0.09729446,0.06125002,-0.0736564,0.0007783933,0.012655399,-0.11390288,-0.6895301,0.038307227,-9.385271,0.83365434,47.6636,-1.3173974,-2.463337,-3.1967149,-0.0901631,0.006273322,-0.1685999,28.4375,29.6875,28.8125,32.5625,35.0,36.0
0.14005245,-0.5286393,0.70160973,-0.1700495,-0.031331982,0.11194568,-0.16466558,-0.3935297,-0.3673516,0.059936114,3.077953,-0.6241863,0.00026383385,-0.06387606,0.02047928,0.0016521906,-0.017363027,0.006634971,0.008994296,0.4982079,-1.3772987,1.8991784,-2.0917113,-1.5698413,2.4728339,-0.1007221,0.06049055,-0.07570612,0.0011408074,0.011974958,-0.10968815,-0.63206923,0.019153614,-9.481039,0.7620334,47.66091,-1.2211907,-2.5830302,-3.2463803,-0.12385972,0.02552953,-0.17112423,28.4375,29.6875,28.8125,32.5625,35.0,36.0
0.1420526,-0.53398657,0.42470536,-0.24935496,-0.033806607,0.1186025,-0.17016616,-0.39366847,-0.36732024,0.059949707,3.0779183,-0.62412363,0.00017746027,-0.06567295,0.020903371,0.002749214,-0.018833786,0.0086429715,0.0019092147,0.4980274,-1.3771789,1.899011,-2.0917356,-1.5698413,2.4726188,-0.10326527,0.059956968,-0.0775531,0.0010517765,0.01231142,-0.10514504,-0.6512228,0.0,-9.442732,0.7911258,47.689575,-1.1009201,-2.3867364,-3.1998434,-0.13266657,0.015740091,-0.25369585,28.4375,29.6875,28.8125,32.5625,35.0,36.0
0.1440529,-0.54266965,0.8387972,-0.31696948,-0.034679282,0.11084978,-0.17186238,-0.39380586,-0.3672802,0.059956353,3.077861,-0.62411284,0.00015794602,-0.066716366,0.022022763,0.0017590951,-0.017594704,0.007386546,-0.0019256136,0.49781108,-1.3770578,1.8988551,-2.0917475,-1.569805,2.472403,-0.10577478,0.062276077,-0.07802442,0.0009066917,0.011828961,-0.10381819,-0.6512229,-0.019153614,-9.5385,0.80456203,47.7254,-1.1238127,-2.4462762,-3.2243588,-0.13219523,0.048823044,-0.30428743,28.4375,29.6875,28.8125,32.5625,35.0,36.0
0.1460521,-0.74308145,0.4333744,-0.37623507,-0.02264099,0.10706079,-0.16674435,-0.39393872,-0.36722568,0.05995278,3.0778284,-0.6241062,0.00015390941,-0.06816415,0.02284788,0.0020575947,-0.018412095,0.007871793,-0.0038260815,0.49758238,-1.3769376,1.8987235,-2.0917594,-1.5697812,2.4721744,-0.108765,0.062487084,-0.07893358,0.0007927398,0.0123199,-0.104907684,-0.6895301,0.05746084,-9.5385,0.77545905,47.65643,-0.9592799,-2.3978498,-3.2436786,-0.14623553,0.029215164,-0.31268942,28.4375,29.6875,28.8125,32.5625,35.0,36.0
0.14805262,-0.66143686,1.0669092,-0.1407752,-0.030189604,0.09899946,-0.1666515,-0.39409703,-0.3671838,0.059952553,3.077809,-0.62412155,0.00012493278,-0.06954051,0.023120662,0.0024532424,-0.018796775,0.008940189,-0.0047122724,0.4973664,-1.3767573,1.8985075,-2.091748,-1.5697812,2.4719706,-0.110344104,0.06324236,-0.0807186,0.0007039795,0.012150506,-0.10559936,-0.6895301,0.019153614,-9.442732,0.8784135,47.69763,-0.9669367,-2.4136846,-3.2744155,-0.13328336,0.028237104,-0.32369518,28.4375,29.6875,28.8125,32.5625,35.0,36.0
0.15005173,-0.4510469,0.506004,-0.2125055,-0.011401714,0.10356542,-0.16432256,-0.39421394,-0.36714312,0.059935458,3.0777512,-0.6242058,0.00025535954,-0.070189886,0.02345067,0.002074799,-0.019155186,0.008113124,-0.0068937037,0.49713838,-1.3766007,1.8983525,-2.0917118,-1.5696973,2.4718025,-0.11190254,0.064492375,-0.08133328,0.0006331194,0.012857874,-0.104977,-0.7086837,0.05746084,-9.3661175,0.8023209,47.681515,-0.94767046,-2.3985543,-3.2531881,-0.119675584,0.04803928,-0.383727,28.4375,29.6875,28.8125,32.5625,35.0,36.0
0.15205227,-0.42888337,0.81405175,-0.40146682,-0.01358899,0.10312446,-0.16868028,-0.3943534,-0.36709544,0.05994726,3.0777,-0.62417454,0.00018034021,-0.07159332,0.023338063,0.0029594423,-0.020509278,0.0097537115,-0.005861494,0.49692246,-1.3765045,1.89822,-2.091748,-1.5696849,2.4715736,-0.113223426,0.064614266,-0.08347996,0.000575232,0.013274069,-0.107328616,-0.5554548,-0.019153614,-9.461885,0.7665104,47.658226,-0.92107797,-2.375312,-3.187175,-0.12146658,0.03761424,-0.37021384,28.4375,29.6875,28.8125,32.5625,35.0,36.0
0.15405247,0.06443704,0.81750125,-0.34502795,-0.013223944,0.11257687,-0.17464042,-0.39451927,-0.36706635,0.059971448,3.0776527,-0.62404823,0.00010589065,-0.07163946,0.024018753,0.0021446615,-0.019395268,0.008538089,-0.006674597,0.4967065,-1.3763599,1.8979934,-2.091748,-1.569661,2.4712849,-0.11412752,0.06569456,-0.082905486,0.0005270568,0.012887905,-0.10741834,-0.45968673,-0.019153614,-9.519346,0.84708,47.68062,-0.96209776,-2.3893635,-3.1694484,-0.122549586,0.04424353,-0.41229904,28.4375,29.6875,28.8125,32.5625,35.0,36.0
0.15605207,0.2109118,0.7991773,-0.39765346,-0.008685693,0.09839244,-0.17220546,-0.39465073,-0.36698753,0.059943315,3.077612,-0.6242287,0.00018701745,-0.0722243,0.0240632,0.0020677955,-0.019858778,0.008341394,-0.00065110886,0.49643084,-1.3762156,1.8978862,-2.091748,-1.5696248,2.471127,-0.11501634,0.0666013,-0.08380618,0.00048632923,0.013392894,-0.11433102,-0.30645782,0.076614454,-9.442732,0.7642693,47.650166,-1.0239893,-2.3702362,-3.3184228,-0.15017258,0.06476841,-0.37608784,28.4375,29.6875,28.8125,32.5625,35.0,36.0
0.15805213,-0.029112963,0.6473014,-0.41487986,-0.0037964426,0.064554855,-0.16308005,-0.3948258,-0.36691266,0.059967164,3.0776017,-0.6242606,9.156211e-05,-0.07502437,0.023913715,0.003278962,-0.020578556,0.011598965,0.0039635,0.49616697,-1.3760949,1.8976806,-2.0917118,-1.569661,2.4708846,-0.1167188,0.068258084,-0.088493705,0.0003190741,0.012479513,-0.12064471,-0.2681506,-0.038307227,-9.442732,0.75084364,47.703903,-1.117297,-2.3731234,-3.0872288,-0.14446089,0.061162263,-0.3377869,28.4375,29.6875,28.8125,32.5625,35.0,36.0
0.16005224,0.43154985,0.59248906,-0.43972808,-0.0026062413,0.054483127,-0.16555046,-0.39498177,-0.3668741,0.059974037,3.0775568,-0.624206,1.8608129e-05,-0.073794514,0.023761807,0.0023430372,-0.019752165,0.009886629,0.013164048,0.49595183,-1.3759505,1.8975018,-2.091748,-1.5696491,2.4706411,-0.11536417,0.06875776,-0.086933605,0.00017069557,0.012590224,-0.12849039,-0.21068975,0.019153614,-9.404425,0.7777002,47.67345,-1.0464958,-2.368215,-3.220947,-0.13548353,0.08633539,-0.27972674,28.4375,29.6875,28.8125,32.5625,35.0,36.0
0.16205235,0.85309625,0.38450772,-0.4865111,-0.005908011,0.05603884,-0.16886409,-0.39514655,-0.36684057,0.0599818,3.0775123,-0.62409806,-1.5461514e-05,-0.07687527,0.025525812,0.002896379,-0.020231042,0.011300928,0.01656143,0.49572238,-1.3757823,1.8972872,-2.09176,-1.5696133,2.47035,-0.12095695,0.06966602,-0.089273475,0.00014874544,0.012353512,-0.13747866,-0.05746084,0.019153614,-9.3661175,0.8717007,47.64658,-0.9814031,-2.3555756,-3.1184824,-0.12597698,0.11184214,-0.18061951,28.4375,29.6875,28.8125,32.5625,35.0,36.0
0.16405237,0.71003014,0.13786514,-0.5922109,-0.011618766,0.042642508,-0.16064428,-0.39525428,-0.36677507,0.05995592,3.0775175,-0.6240018,7.703716e-05,-0.07634281,0.024588956,0.0024074065,-0.020998258,0.00995228,0.019039877,0.49548343,-1.3756615,1.8972028,-2.09176,-1.5695647,2.4700503,-0.119679615,0.07109446,-0.089862175,0.00013690755,0.013669106,-0.13868055,0.0,0.11492168,-9.423578,0.900793,47.675243,-1.0457652,-2.3430586,-3.1993058,-0.12182534,0.12051751,-0.1171712,28.4375,29.6875,28.8125,32.5625,35.0,36.0
0.16605256,1.0116316,0.34854275,-0.37564427,-0.042665,0.052829213,-0.1706541,-0.39541432,-0.36673245,0.059966687,3.077472,-0.6239729,7.053355e-05,-0.07731692,0.025014587,0.0024375427,-0.021251528,0.010088232,0.018215144,0.49524316,-1.3755051,1.8969873,-2.091736,-1.5695289,2.4697978,-0.12134337,0.07187694,-0.09086623,0.00012719161,0.0138352625,-0.1395187,0.076614454,0.22984336,-9.385271,0.8784135,47.667187,-1.0054231,-2.3759956,-3.208899,-0.11397904,0.11199942,-0.0782279,28.4375,29.6875,28.8125,32.5625,35.0,36.0
0.16805273,0.17834496,-0.7514111,-0.45927104,-0.029938847,0.037575897,-0.15788318,-0.39556378,-0.36666706,0.059971947,3.0774622,-0.6239525,1.7160146e-05,-0.07749482,0.02483288,0.0020590532,-0.021445861,0.009296553,0.014123106,0.49500373,-1.3753846,1.8968323,-2.091736,-1.5695404,2.469547,-0.1215016,0.07319769,-0.091579095,0.000118790565,0.014386345,-0.13558422,-0.11492168,0.30645782,-9.308657,0.86498255,47.661808,-1.0335479,-2.372046,-3.3135042,-0.14367144,0.12711698,-0.13267083,28.4375,29.6875,28.8125,32.5625,35.0,36.0
0.17005204,1.2639892,-0.19833948,-0.49632272,-0.040297028,0.059885457,-0.15983798,-0.39572778,-0.36663797,0.059986223,3.0774071,-0.62381005,-2.0349931e-05,-0.07850662,0.025436148,0.0018339573,-0.021253321,0.009099842,0.007293498,0.49477538,-1.375228,1.8966168,-2.091748,-1.5694927,2.4692369,-0.12334927,0.07441774,-0.092523225,0.00011143234,0.014316851,-0.1306007,-0.05746084,0.21068975,-9.289502,0.7642693,47.657326,-0.9458873,-2.334985,-3.3101807,-0.13917638,0.11485208,-0.16733134,28.4375,29.6875,28.8125,32.5625,35.0,36.0
0.17205222,0.81153536,0.3013144,-0.46568912,-0.052613858,0.04813307,-0.16666487,-0.39592,-0.36656523,0.06000587,3.077381,-0.62384456,-0.0001430909,-0.07940192,0.025732115,0.002211285,-0.021879584,0.009754575,0.0014373944,0.49449977,-1.3750837,1.8964008,-2.091748,-1.5695285,2.4689863,-0.12476426,0.07446659,-0.09344591,0.000104932864,0.014564788,-0.12615831,0.05746084,0.30645782,-9.385271,0.76874626,47.64837,-1.1962943,-2.3855383,-3.288275,-0.1277038,0.1457642,-0.22344023,28.4375,29.6875,28.8125,32.5625,35.0,36.0
0.17405236,0.8125996,-0.22422345,-0.40189883,-0.042711448,0.04863935,-0.16101348,-0.39605975,-0.36653227,0.06001211,3.0773199,-0.6237941,-9.8176286e-05,-0.07991329,0.02545979,0.0017525916,-0.021891434,0.0090436395,-0.0019029808,0.4942722,-1.3749391,1.8962096,-2.0917242,-1.5694565,2.468735,-0.12494635,0.076611176,-0.09495728,9.915056e-05,0.014912761,-0.12299891,0.0,0.30645782,-9.32781,0.83589023,47.64927,-1.1397551,-2.2922478,-3.287222,-0.13004306,0.15453653,-0.31932884,28.4375,29.6875,28.8125,32.5625,35.0,36.0
0.1760524,0.74923044,-0.26848522,-0.1850562,-0.040663578,0.045271747,-0.16208921,-0.39623606,-0.36649576,0.06002657,3.077212,-0.6237935,-0.0001775979,-0.080624275,0.025779884,0.0014291903,-0.022699526,0.008044634,-0.005415254,0.4940199,-1.3747942,1.8960184,-2.0917842,-1.5694078,2.468496,-0.12682366,0.077804856,-0.095646106,9.3972216e-05,0.01611209,-0.12136223,-0.076614454,0.36391866,-9.289502,0.7978386,47.67345,-1.208574,-2.4888718,-3.3531952,-0.1280353,0.15346014,-0.36043543,28.4375,29.6875,28.8125,32.5625,35.0,36.0
0.17805259,0.6381578,-0.113391034,-0.3558675,-0.046298657,0.04088979,-0.16764377,-0.39639223,-0.36641446,0.06001667,3.0772338,-0.6238175,-0.00018794648,-0.08134702,0.026356455,0.0021602218,-0.023193855,0.009398636,-0.008481519,0.49375603,-1.3746386,1.8958505,-2.09176,-1.5694321,2.4682446,-0.12827784,0.07647352,-0.09573662,8.930814e-05,0.015906733,-0.119750485,-0.019153614,0.36391866,-9.3661175,0.8157518,47.63315,-1.1232541,-2.2942624,-3.3061604,-0.12944362,0.15188381,-0.40707445,28.4375,29.6875,28.8125,32.5625,35.0,36.0
0.18005246,0.6805668,-0.26560795,-0.3793827,-0.0418406,0.03871625,-0.14713621,-0.3965657,-0.3663738,0.06001863,3.0771546,-0.62381923,-0.00018462575,-0.0834257,0.02605187,0.002077196,-0.023829017,0.009643879,-0.009843274,0.49349213,-1.3744574,1.8956336,-2.0917718,-1.5693716,2.4679918,-0.12988138,0.08009981,-0.099865355,8.50855e-05,0.016351974,-0.119989455,0.019153614,0.17238252,-9.404425,0.7553206,47.63404,-1.1400676,-2.2930384,-3.1960683,-0.11923907,0.17823201,-0.4723842,28.4375,29.6875,28.8125,32.5625,35.0,36.0
0.18205263,1.4173759,0.26870906,-0.120296724,-0.045904007,0.056640156,-0.17392063,-0.39670196,-0.36632967,0.060003243,3.0771136,-0.62384725,-0.00013277141,-0.082436234,0.026947735,0.0008879443,-0.022646908,0.0072565284,-0.00760769,0.49326435,-1.374289,1.8954686,-2.0917718,-1.5693239,2.4677868,-0.13050792,0.08015726,-0.09724335,8.124388e-05,0.016454607,-0.12285272,-0.095768064,0.19153613,-9.404425,0.7911258,47.677036,-1.1147394,-2.4085493,-3.389966,-0.122780055,0.18417975,-0.49539602,28.4375,29.6875,28.8125,32.5625,35.0,36.0
0.18405257,0.9953929,0.7421713,0.087309256,-0.05045233,0.057027224,-0.17992061,-0.39687446,-0.36627212,0.06002575,3.077049,-0.6238669,-0.00015466238,-0.08488167,0.026933115,0.0017246655,-0.024454366,0.008818658,-0.0012151373,0.49298796,-1.3741562,1.8952516,-2.091736,-1.5692872,2.467531,-0.13319035,0.08176171,-0.10105694,7.7734774e-05,0.017321784,-0.13192534,-0.076614454,0.1340753,-9.3661175,0.800085,47.653748,-1.1935248,-2.3354502,-3.3445864,-0.12039247,0.19143228,-0.45910418,28.4375,29.6875,28.8125,32.5625,35.0,36.0
0.18605179,0.16847922,0.60018873,-0.1753026,-0.027453825,0.0454409,-0.16606803,-0.3970476,-0.36621755,0.06001273,3.0770175,-0.6238179,-0.00017240898,-0.08483021,0.027722737,0.000453003,-0.024035346,0.0061530056,0.0041825953,0.49272406,-1.3739635,1.8950604,-2.0917718,-1.5692633,2.4672406,-0.13498339,0.08341403,-0.100144394,7.451598e-05,0.018234815,-0.1391158,-0.05746084,0.1340753,-9.251195,0.7463667,47.67793,-1.1166942,-2.4597654,-3.3954139,-0.12055459,0.20491445,-0.42612368,28.4375,29.6875,28.8125,32.5625,35.0,36.0
0.18805183,-0.014759242,0.58565664,-0.08022797,-0.01197017,0.05755722,-0.16488314,-0.39721116,-0.36616644,0.060022213,3.076975,-0.6237655,-0.00015257577,-0.08659455,0.027952671,0.0010643061,-0.025033439,0.0074256663,0.013304675,0.4924597,-1.3738071,1.8948449,-2.091736,-1.5692152,2.466949,-0.13710175,0.08428747,-0.10258085,7.155318e-05,0.018530326,-0.15035482,-0.076614454,0.05746084,-9.289502,0.8314132,47.66808,-1.1064775,-2.2166545,-3.3243513,-0.12477279,0.19251204,-0.30282503,28.4375,29.6875,28.8125,32.5625,35.0,36.0
0.19005191,-0.037141025,0.6631101,0.18108353,-0.0051865014,0.07287717,-0.16731346,-0.39739904,-0.3661264,0.06001629,3.0769167,-0.62367105,-0.00014735288,-0.08746285,0.02765924,0.0007745721,-0.025477204,0.0069733383,0.019622104,0.4921843,-1.3735901,1.894606,-2.09176,-1.5691546,2.466622,-0.1377208,0.08656304,-0.10464192,6.8817215e-05,0.019152382,-0.15728939,-0.22984335,0.0,-9.308657,0.8157518,47.661808,-1.1017424,-2.322796,-3.324494,-0.095936015,0.19034165,-0.20711201,28.4375,29.6875,28.8125,32.5625,35.0,36.0
0.19205199,0.10401645,1.2420986,0.24980696,-0.019620687,0.0963846,-0.16959205,-0.39756283,-0.36607105,0.060021836,3.076893,-0.62356925,-0.00014027825,-0.08817939,0.027476186,-3.9350172e-07,-0.02568091,0.005509513,0.021508079,0.4919203,-1.3734328,1.894401,-2.091736,-1.5691184,2.4662976,-0.13855503,0.0895493,-0.10644842,9.502153e-05,0.020031882,-0.16000804,-0.47884035,0.038307227,-9.270349,0.7866488,47.686886,-1.0526278,-2.5218384,-3.2025032,-0.10087426,0.19944084,-0.16610721,28.4375,29.6875,28.8125,32.5625,35.0,36.0
0.19405204,-0.46897498,0.7293714,0.037094418,-0.013644837,0.10540132,-0.1585591,-0.39772004,-0.36600146,0.060004354,3.0768797,-0.6235299,-6.370554e-05,-0.08953967,0.02895091,0.00047837055,-0.025928173,0.006420722,0.016274087,0.49163154,-1.3732531,1.8942217,-2.0917118,-1.5690712,2.465986,-0.14207974,0.08852587,-0.10633422,9.560503e-05,0.019818466,-0.15829949,-0.68953013,0.0,-9.174581,0.8560339,47.683304,-1.1402594,-2.329927,-3.3279157,-0.12054279,0.20226759,-0.13959819,28.4375,29.6875,28.8125,32.5625,35.0,36.0
0.19605212,-0.87633884,0.54719955,0.087428145,-0.021526659,0.11331025,-0.16273561,-0.39790434,-0.36593664,0.059991073,3.0768306,-0.6235196,-6.945262e-05,-0.090159886,0.027459007,-0.0003298182,-0.025573842,0.0055679153,0.014346656,0.49133316,-1.3730592,1.8940295,-2.091748,-1.5690349,2.4656875,-0.14012794,0.09334794,-0.110252135,0.00011542674,0.019905034,-0.15441734,-0.8810662,-0.019153614,-9.270349,0.74413085,47.66271,-1.2265605,-2.4840348,-3.0736983,-0.09567355,0.1976588,-0.20068336,28.4375,29.6875,28.8125,32.5625,35.0,36.0
0.19805178,-0.2675933,0.8656959,0.19438012,-0.030399265,0.13470711,-0.17531759,-0.3980871,-0.36589584,0.05999999,3.07676,-0.62352747,-7.791232e-05,-0.090210535,0.02855172,0.0003899218,-0.026136328,0.006505906,0.006859739,0.49106905,-1.3728683,1.8937796,-2.091736,-1.5689863,2.4654374,-0.14198442,0.09031103,-0.10828583,9.65169e-05,0.019966265,-0.14878726,-0.8810662,0.0,-9.32781,0.8112748,47.660015,-1.2186816,-2.2920215,-3.3622108,-0.11671144,0.2152257,-0.28580397,28.4375,29.6875,28.8125,32.5625,35.0,36.0
0.20005177,-0.68761754,0.8585575,-0.029645534,-0.011840482,0.12459165,-0.17021008,-0.39825767,-0.36584353,0.060017236,3.0767257,-0.6234052,-0.00010099714,-0.092787944,0.028494744,0.00094587513,-0.026790926,0.008146077,0.0037917197,0.490805,-1.3727231,1.8935622,-2.0917118,-1.568951,2.4651015,-0.14404118,0.093007006,-0.11277694,0.00014606197,0.019771118,-0.14777294,-0.7852981,-0.019153614,-9.308657,0.82694155,47.661808,-1.271002,-2.3255994,-3.1533813,-0.10758202,0.22180332,-0.31483465,28.4375,29.6875,28.8125,32.5625,35.0,36.0
0.20205198,-0.48384556,0.9204469,-0.14340319,-0.0060574207,0.115519196,-0.1623544,-0.39843673,-0.36579275,0.0599989,3.0766406,-0.62338704,-5.8263868e-05,-0.09285967,0.02873705,0.00035756498,-0.026626825,0.0069629485,0.0027616178,0.49050555,-1.3725184,1.8933715,-2.09176,-1.5688666,2.4648015,-0.14471091,0.094113566,-0.11278114,0.00018088307,0.020194143,-0.14741175,-0.6703765,-0.1340753,-9.346964,0.8717007,47.683304,-1.2548912,-2.4763868,-3.3004997,-0.1053687,0.21963644,-0.35879472,28.4375,29.6875,28.8125,32.5625,35.0,36.0
0.20405291,-0.4690092,0.8785757,0.03081242,-0.0046158736,0.1087106,-0.15721262,-0.39864677,-0.3656965,0.05999688,3.0766325,-0.62344384,-0.00011051784,-0.09476769,0.029828498,4.1031424e-05,-0.027025776,0.0063788844,-0.0004665788,0.49016878,-1.3723257,1.893144,-2.091748,-1.5688905,2.4645014,-0.14859053,0.09613236,-0.11448334,0.00019398199,0.020828089,-0.1480617,-0.8236054,-0.076614454,-9.32781,0.85826975,47.68062,-1.1368451,-2.408326,-3.238552,-0.09205596,0.2315162,-0.38766265,28.4375,29.6875,28.8125,32.5625,35.0,36.0
0.20605253,-0.94046116,0.9900177,-1.3769584e-05,-0.0081333155,0.101658605,-0.16279535,-0.39883566,-0.36563855,0.05998898,3.0766208,-0.62337923,-0.00012626426,-0.095481955,0.029634925,0.00032452136,-0.027081326,0.0065906886,0.003797893,0.48989323,-1.372109,1.8929042,-2.0917475,-1.568878,2.4641871,-0.14882131,0.09718885,-0.11659955,0.001056733,0.020790543,-0.15255563,-0.91937345,0.038307227,-9.308657,0.77545905,47.666286,-1.1837068,-2.503391,-3.1833923,-0.08003194,0.23432183,-0.37245816,28.4375,29.6875,28.8125,32.5625,35.0,36.0
0.20805253,-0.51385194,0.7025115,-0.18060426,-0.0025216753,0.12153102,-0.16673283,-0.3990203,-0.3655946,0.05999862,3.0765123,-0.62339073,-8.752388e-05,-0.09664393,0.029686935,0.00064453896,-0.027533812,0.007482002,0.010616277,0.48959354,-1.3719285,1.8926648,-2.0917356,-1.5687822,2.4639084,-0.14988835,0.09811736,-0.11843154,0.000997007,0.02079239,-0.16043933,-0.6703765,-0.019153614,-9.385271,0.78217715,47.670765,-1.2109195,-2.4923654,-3.1230474,-0.11593807,0.23827937,-0.3151595,28.4375,29.6875,28.8125,32.5625,35.0,36.0
0.21005245,-0.4341811,0.8152601,0.0345333,-0.01759576,0.1339897,-0.16796039,-0.39923456,-0.3655403,0.060019035,3.0764582,-0.6232957,-0.00016423792,-0.09741497,0.029381588,0.0009819429,-0.028908739,0.007826185,0.019951828,0.48929414,-1.3717363,1.8923897,-2.0917356,-1.5687579,2.4635568,-0.15066485,0.09876191,-0.11997265,0.0009696172,0.021877639,-0.17054875,-0.4405331,0.05746084,-9.3661175,0.8179876,47.642998,-1.2185233,-2.4628875,-3.0955844,-0.09875357,0.24855208,-0.21072859,28.4375,29.6875,28.8125,32.5625,35.0,36.0
0.21205272,-0.2843415,0.92749375,0.061054125,-0.028071031,0.124027506,-0.17002335,-0.39941838,-0.36543187,0.059971526,3.076519,-0.62330407,-4.828071e-05,-0.098405555,0.029359577,0.0012726496,-0.029919697,0.008270035,0.025528409,0.48894635,-1.3714837,1.892186,-2.091688,-1.5687579,2.4632065,-0.15187502,0.09951386,-0.121546544,0.00094333367,0.022560043,-0.17733681,-0.49799395,-0.019153614,-9.308657,0.78217715,47.661808,-1.2618414,-2.446607,-3.0406747,-0.089408174,0.24417621,-0.109854296,28.4375,29.6875,28.8125,32.5625,35.0,36.0
0.21405265,0.24895768,0.5881856,-0.40227053,-0.019909984,0.10932316,-0.1660278,-0.39962617,-0.36538866,0.059986934,3.0764048,-0.623201,-9.3609255e-05,-0.09877618,0.029751182,0.00051963836,-0.029021742,0.007307721,0.026783532,0.48863485,-1.3713028,1.8919467,-2.0917356,-1.568674,2.4628453,-0.15259536,0.10132252,-0.12198883,0.00087538245,0.022246663,-0.17930962,-0.45968673,0.019153614,-9.32781,0.8873621,47.693153,-1.2809265,-2.5153842,-3.1007595,-0.09443122,0.24889466,-0.03476789,28.4375,29.6875,28.8125,32.5625,35.0,36.0
0.2160517,0.123713546,0.7223382,-0.4073494,-0.02674426,0.07957747,-0.1552322,-0.3998534,-0.36534473,0.060001373,3.0763443,-0.6230574,-0.00017377238,-0.09967001,0.030543659,0.00069307355,-0.028321862,0.008163505,0.020227756,0.48833495,-1.3710747,1.8916477,-2.0917594,-1.5686387,2.4624636,-0.15402512,0.10138466,-0.1224786,0.00088172517,0.021239467,-0.17418179,-0.38307226,0.095768064,-9.385271,0.779936,47.647476,-1.2778251,-2.3716905,-3.0811734,-0.104795516,0.26827335,-0.07604934,28.4375,29.6875,28.8125,32.5625,35.0,36.0
0.21805266,0.28037167,0.026634328,-0.45967332,-0.022415709,0.059673008,-0.15602785,-0.4000438,-0.36525583,0.05998277,3.0763283,-0.62307817,-0.00013492402,-0.101893865,0.030660113,0.0018440566,-0.029808464,0.010398179,0.009615735,0.4879992,-1.3708701,1.8914436,-2.0917475,-1.5686139,2.462143,-0.15629897,0.10192072,-0.12576556,0.0009548022,0.021487098,-0.16584246,-0.3256114,0.11492168,-9.481039,0.8493211,47.652847,-1.3667102,-2.368471,-3.05966,-0.095969,0.28914946,-0.16532409,28.4375,29.6875,28.8125,32.5625,35.0,36.0
0.22005263,1.0476719,0.24220099,-0.47815323,-0.032478295,0.06417257,-0.1631618,-0.40023473,-0.36516955,0.05997083,3.076325,-0.6230979,-0.00010480845,-0.099997565,0.031641558,-0.0016378156,-0.02685556,0.0037205853,0.003501805,0.48767546,-1.3706645,1.8912176,-2.0917113,-1.568602,2.461832,-0.15650086,0.10578299,-0.12251988,0.0011241894,0.022008915,-0.15993126,-0.22984336,0.21068975,-9.442732,0.78888994,47.66271,-1.2879283,-2.5125363,-3.175897,-0.090119064,0.28125972,-0.23458117,28.4375,29.6875,28.8125,32.5625,35.0,36.0
0.22205263,1.0800864,-0.052076474,-0.6907148,-0.032142006,0.05951491,-0.14925717,-0.40044174,-0.3650879,0.059957176,3.0763056,-0.62315124,-0.00012070295,-0.10313254,0.032474194,0.0012488146,-0.030064262,0.0085877245,-0.003704955,0.48735252,-1.3704375,1.8909782,-2.0917113,-1.568602,2.461545,-0.16097255,0.10276133,-0.12555082,0.0013730514,0.022560846,-0.15719509,-0.1340753,0.17238252,-9.519346,0.8023209,47.675243,-1.0093209,-2.3591034,-3.074753,-0.096042596,0.3103145,-0.3448693,28.4375,29.6875,28.8125,32.5625,35.0,36.0
0.22405164,1.3881606,0.3412352,-0.5573696,-0.04179115,0.05845419,-0.16351967,-0.40066594,-0.36504626,0.059974737,3.0761635,-0.6231675,-0.000111646885,-0.10345079,0.033570193,-0.0013798738,-0.02807799,0.003986257,-0.011167778,0.4870145,-1.3702196,1.8906788,-2.0917113,-1.5684932,2.4612353,-0.1632647,0.1077504,-0.12555009,0.0013910461,0.022969106,-0.1520217,0.019153614,0.114921674,-9.576807,0.8537928,47.683304,-1.0973659,-2.5536819,-3.2966454,-0.08101645,0.3091004,-0.40466106,28.4375,29.6875,28.8125,32.5625,35.0,36.0
0.22605272,1.1208332,0.047679707,-0.42319533,-0.032788966,0.034279767,-0.15857084,-0.4008775,-0.36496088,0.059969563,3.0761309,-0.6231978,-0.000102739825,-0.104440644,0.034043945,0.00028815566,-0.030018859,0.0063203312,-0.013125238,0.48666686,-1.3700045,1.8904289,-2.091688,-1.5684694,2.4609108,-0.16525283,0.10487493,-0.12601563,0.0017706902,0.023600461,-0.1520522,0.076614454,0.076614454,-9.557653,0.82022345,47.67614,-0.9914727,-2.4124835,-3.2845852,-0.085870065,0.31887746,-0.5066977,28.4375,29.6875,28.8125,32.5625,35.0,36.0
0.22805175,1.6501712,0.12615325,-0.34148815,-0.038344137,0.04214672,-0.16085334,-0.4010934,-0.36490786,0.059971392,3.0760472,-0.62315595,-0.00015519401,-0.10442267,0.034910787,-0.0012092734,-0.029492373,0.0033219939,-0.0077139377,0.48635462,-1.3697876,1.8901771,-2.0917356,-1.5684208,2.4605832,-0.16720963,0.106968425,-0.12511438,0.0017009443,0.024571758,-0.15941794,0.24899697,0.17238252,-9.519346,0.9030289,47.67614,-1.017297,-2.417616,-3.42154,-0.08235502,0.33318537,-0.48277467,28.4375,29.6875,28.8125,32.5625,35.0,36.0
0.23005259,1.5379333,0.2663459,-0.39573362,-0.029815935,0.0472923,-0.16719423,-0.40130943,-0.36484087,0.059973698,3.0759835,-0.62313455,-0.00016539855,-0.1061434,0.034153864,0.00012432902,-0.031085616,0.0060631004,0.004178843,0.4860195,-1.3695711,1.8899139,-2.0917356,-1.5683731,2.460243,-0.1674878,0.10753135,-0.12884092,0.001740604,0.024730153,-0.17158629,0.22984336,0.19153613,-9.557653,0.9030289,47.651955,-1.1897074,-2.4173589,-3.379088,-0.085443705,0.32809538,-0.39835075,28.4375,29.6875,28.8125,32.5625,35.0,36.0
0.23205307,0.81456524,0.4043494,-0.49994853,-0.020009689,0.035005398,-0.16293126,-0.40152147,-0.3647763,0.059987925,3.075921,-0.62309456,-0.00014812908,-0.1048283,0.034367543,-0.00042224268,-0.031150449,0.004452101,0.01657062,0.4856843,-1.3693672,1.8896278,-2.091688,-1.5683125,2.4598908,-0.16711335,0.10647219,-0.12635812,0.0017560096,0.025582725,-0.1836035,0.1340753,0.15322891,-9.634268,0.8537928,47.661808,-1.1504502,-2.2897272,-3.52199,-0.07185513,0.33364314,-0.2692447,28.4375,29.6875,28.8125,32.5625,35.0,36.0
0.23405275,0.93705636,0.61199343,-0.39528275,-0.026569203,0.046337776,-0.15845336,-0.40173405,-0.3647112,0.05997001,3.0758395,-0.6230747,-0.00016057833,-0.106643215,0.034569874,-0.0011384351,-0.031691045,0.0031975727,0.020770023,0.48534814,-1.3691375,1.8894109,-2.0917594,-1.5682524,2.4595528,-0.16966023,0.1104192,-0.12947276,0.0018134713,0.02667094,-0.19034585,0.11492168,0.19153613,-9.615114,0.88960326,47.67345,-1.1243703,-2.4592586,-3.420664,-0.091406114,0.33961862,-0.18133494,28.4375,29.6875,28.8125,32.5625,35.0,36.0
0.23605171,1.1373054,0.4438604,-0.41491732,-0.027724016,0.042893495,-0.16081916,-0.40193722,-0.36465064,0.05998305,3.075795,-0.6229521,-0.00017214242,-0.10876783,0.03495625,0.00091246265,-0.03367456,0.007007168,0.018801196,0.48503554,-1.3689461,1.8891476,-2.0917356,-1.5682043,2.4591694,-0.17211214,0.10842695,-0.13177125,0.0018280302,0.026660154,-0.1908272,0.19153614,0.15322891,-9.5385,0.8179876,47.64389,-1.0938926,-2.2886803,-3.3800893,-0.07879643,0.32290757,-0.14868921,28.4375,29.6875,28.8125,32.5625,35.0,36.0
0.23805176,1.0916966,0.0063954988,-0.783659,-0.022286713,0.035999183,-0.15712383,-0.40214664,-0.36455387,0.05996162,3.0757875,-0.6229709,-8.992262e-05,-0.10959294,0.03561847,-0.00125723,-0.03242205,0.0028259063,0.011252293,0.484664,-1.3687038,1.8888963,-2.0916874,-1.568168,2.4588106,-0.17438628,0.11385368,-0.13347237,0.0023859951,0.027486792,-0.18555148,0.019153614,0.21068975,-9.5385,0.8873621,47.677036,-0.9533789,-2.574832,-3.4064326,-0.074173704,0.32842696,-0.191644,28.4375,29.6875,28.8125,32.5625,35.0,36.0
0.2400518,0.4116104,-0.17749293,-0.72785306,-0.04258922,0.028489733,-0.15231913,-0.40236312,-0.36446512,0.059956398,3.0757473,-0.62294614,-5.577723e-05,-0.11028486,0.035933595,-0.0001551684,-0.034126654,0.003512353,0.003899206,0.48429224,-1.3684883,1.8886455,-2.0916626,-1.5681194,2.4584286,-0.17617106,0.1122337,-0.1342977,0.0034305628,0.028672772,-0.17998213,-0.15322891,0.22984336,-9.5385,0.83813137,47.67345,-0.93777764,-2.3745852,-3.3605607,-0.09822151,0.32776302,-0.29257149,28.4375,29.6875,28.8125,32.5625,35.0,36.0
0.24205203,0.7179941,-0.12742345,-0.5178381,-0.05953669,0.060777903,-0.1628614,-0.4025887,-0.3644183,0.059977986,3.0756521,-0.6228837,-0.00013927903,-0.11029632,0.03556763,-0.00032666844,-0.033801112,0.0028767472,0.0028178138,0.48398328,-1.3682837,1.888358,-2.091687,-1.5680712,2.458093,-0.17549147,0.113491915,-0.13560535,0.004206903,0.028700428,-0.17821752,-0.22984336,0.28730422,-9.576807,0.8717007,47.670765,-0.9741883,-2.2783122,-3.4123993,-0.10604231,0.33861873,-0.34103885,28.4375,29.6875,28.8125,32.5625,35.0,36.0
0.24405186,0.053732555,-0.27437073,-0.76613367,-0.052552313,0.08057318,-0.16287124,-0.40277964,-0.36435047,0.059969753,3.0756125,-0.6227968,-3.9694303e-05,-0.110854186,0.035476737,-0.00041029256,-0.033755995,0.002309398,0.0029649544,0.4836479,-1.368067,1.8881072,-2.0916383,-1.5679873,2.4577084,-0.1758924,0.114988446,-0.13742024,0.005073796,0.028927093,-0.17876506,-0.34476507,0.34476504,-9.634268,0.85826975,47.703007,-1.0431173,-2.4305382,-3.4540353,-0.098299004,0.32299483,-0.34778315,28.4375,29.6875,28.8125,32.5625,35.0,36.0
0.2460519,0.13792597,-0.2859347,-0.5452147,-0.054847557,0.12590232,-0.17126495,-0.4030266,-0.36429298,0.05998593,3.075496,-0.6228271,-7.0953654e-05,-0.11160492,0.035515577,-0.00042916046,-0.034384374,0.0020487686,0.00548298,0.48328802,-1.3678265,1.8877834,-2.0916383,-1.5679158,2.4573824,-0.17695454,0.116127364,-0.13880827,0.005292433,0.029631685,-0.18234167,-0.49799395,0.28730422,-9.672575,0.8627467,47.672558,-0.9734607,-2.3512578,-3.4206886,-0.12469067,0.34296703,-0.38590226,28.4375,29.6875,28.8125,32.5625,35.0,36.0
0.24805184,-0.7527847,-0.45205763,-0.30212831,-0.05867054,0.13125795,-0.17497362,-0.40324682,-0.3642205,0.0599794,3.0754635,-0.6227199,-5.1658397e-05,-0.1123378,0.03496803,-0.00031995287,-0.03621993,0.0021372258,0.011733002,0.48294067,-1.3675857,1.8875083,-2.091627,-1.5678667,2.4569724,-0.17758165,0.11729167,-0.14034902,0.0047712103,0.03123827,-0.189216,-0.4213795,0.2681506,-9.653421,0.84708,47.666286,-1.1548288,-2.4082072,-3.3831708,-0.12294159,0.2990169,-0.3202601,28.4375,29.6875,28.8125,32.5625,35.0,36.0
0.2500519,-0.40840754,0.21718433,-0.27161172,-0.072219454,0.13496476,-0.17644213,-0.40346482,-0.36413968,0.059975795,3.0753942,-0.6227003,-1.10852e-05,-0.11463266,0.033802968,0.0013918317,-0.03992861,0.005197651,0.022089219,0.48256707,-1.3673694,1.8872555,-2.091615,-1.5677942,2.4565954,-0.17872787,0.11793169,-0.14490962,0.0043120366,0.033131305,-0.20071423,-0.51714754,0.24899697,-9.595961,0.8090337,47.65912,-1.2504314,-2.376745,-3.253555,-0.11773744,0.28366032,-0.22756052,28.4375,29.6875,28.8125,32.5625,35.0,36.0
0.25205207,-0.44452983,-0.007856857,-0.13018948,-0.05592064,0.122030176,-0.17075948,-0.40372163,-0.36407983,0.060002167,3.075283,-0.62263536,-6.8027795e-05,-0.115521096,0.035246134,-0.00016937786,-0.038772773,0.002822465,0.026636433,0.48219487,-1.3671403,1.8869222,-2.091615,-1.5677222,2.456197,-0.1819052,0.12077553,-0.14470375,0.003952312,0.03325705,-0.20843501,-0.61291564,0.22984336,-9.442732,0.8090337,47.639416,-1.2613112,-2.4020634,-3.2843266,-0.12168524,0.28287584,-0.10676369,28.4375,29.6875,28.8125,32.5625,35.0,36.0
0.2540524,0.3060164,0.43580517,-0.080573484,-0.04260125,0.114158936,-0.16883343,-0.40395886,-0.3640182,0.060015205,3.0752366,-0.6224534,-0.00013509428,-0.116869055,0.034803882,0.00010813799,-0.040486343,0.0034413403,0.025397975,0.48185894,-1.3669115,1.8866223,-2.0916274,-1.5676855,2.4557536,-0.18302141,0.12241048,-0.14720045,0.00348544,0.03450608,-0.20830749,-0.6512228,0.15322891,-9.442732,0.8717007,47.675243,-1.2992706,-2.501971,-3.2055922,-0.11495657,0.25234836,-0.052754954,28.4375,29.6875,28.8125,32.5625,35.0,36.0
0.25605255,0.18775937,0.7985889,-0.1461087,-0.02857259,0.08917417,-0.16462961,-0.4041873,-0.36394817,0.060003173,3.0751915,-0.62244225,-7.58232e-05,-0.11741579,0.033723164,-2.3477856e-05,-0.041008197,0.0041219266,0.02111932,0.48150244,-1.3666344,1.8863105,-2.0915916,-1.5676254,2.455396,-0.18167144,0.124649405,-0.14940903,0.0026170746,0.0346395,-0.20267758,-0.63206923,0.1340753,-9.461885,0.7978386,47.64389,-1.3221345,-2.3646898,-3.174021,-0.09725071,0.23398866,-0.12886703,28.4375,29.6875,28.8125,32.5625,35.0,36.0
0.25805232,0.43078086,0.832084,0.14969394,-0.026535578,0.0965298,-0.1645902,-0.404455,-0.36391273,0.060030047,3.0750456,-0.6223381,-0.00018525939,-0.11841922,0.03349156,0.0018074634,-0.04234529,0.008030135,0.012231685,0.48115525,-1.3663831,1.8859633,-2.0916522,-1.567542,2.4550025,-0.18167144,0.122249395,-0.15060799,0.0021356721,0.03402745,-0.19378534,-0.7086837,0.19153613,-9.251195,0.8605109,47.666286,-1.3419693,-2.4781747,-3.105887,-0.08174963,0.2321359,-0.21874404,28.4375,29.6875,28.8125,32.5625,35.0,36.0
0.26005188,-0.16295035,1.0167967,0.32200712,-0.027056858,0.09406084,-0.16866909,-0.4046502,-0.3638476,0.060013484,3.0749862,-0.6222925,-4.562013e-05,-0.11859171,0.03349081,-0.00037476403,-0.04136119,0.004394666,0.004352808,0.48080683,-1.3661408,1.8857006,-2.091604,-1.5674332,2.4546332,-0.18221903,0.12725419,-0.15158781,0.0017949546,0.03481735,-0.18645288,-0.6703764,0.05746084,-9.193734,0.8112748,47.64658,-1.4792407,-2.5019274,-3.0019488,-0.078332886,0.2156041,-0.31765434,28.4375,29.6875,28.8125,32.5625,35.0,36.0
0.2620519,-0.3238063,0.78086877,0.1066778,-0.01300141,0.09407614,-0.16943374,-0.40492713,-0.36376697,0.060031183,3.0748973,-0.6223391,-0.00016627749,-0.12082836,0.033253424,0.0019363972,-0.04538074,0.007884723,-0.0032106468,0.48041973,-1.3658894,1.8853654,-2.0916278,-1.5674208,2.4542868,-0.18487336,0.12536842,-0.15457678,0.0017094128,0.036777336,-0.18153661,-0.38307226,0.076614454,-9.270349,0.85155696,47.66091,-1.4315289,-2.4363306,-3.0962818,-0.08303234,0.18061507,-0.41285783,28.4375,29.6875,28.8125,32.5625,35.0,36.0
0.26405182,0.046259984,1.1917295,0.11956396,-0.018777385,0.08190509,-0.17887384,-0.40516102,-0.3636755,0.060024966,3.0748117,-0.6223174,-9.870598e-05,-0.12092385,0.034796916,0.00059860403,-0.044431977,0.0046334956,-0.0055160387,0.48000103,-1.3656604,1.8851031,-2.0916154,-1.5673245,2.4538655,-0.18785766,0.12677474,-0.1534301,0.0025110678,0.037458874,-0.18221423,-0.2681506,-0.05746084,-9.346964,0.91421866,47.668976,-1.3857286,-2.4186714,-3.199559,-0.070668474,0.1716641,-0.48191166,28.4375,29.6875,28.8125,32.5625,35.0,36.0
0.26605183,0.34250093,0.6648018,0.29123536,-0.017008606,0.06519133,-0.18493715,-0.4054123,-0.363624,0.06003213,3.0747175,-0.62227696,-0.000114468225,-0.12130337,0.03617124,-0.00037967027,-0.04276418,0.002235381,0.0030678245,0.4796493,-1.3653837,1.884756,-2.091615,-1.5672525,2.4535007,-0.19019005,0.12840135,-0.1535106,0.0039276504,0.03714213,-0.19312842,-0.2873042,0.019153614,-9.2703495,0.8403672,47.661808,-1.2299994,-2.4811916,-3.1794531,-0.07743625,0.14491828,-0.420573,28.4375,29.6875,28.8125,32.5625,35.0,36.0
0.26805198,0.38566518,0.5311724,0.2539005,-0.009829744,0.055780165,-0.17871235,-0.40568894,-0.3635501,0.060076077,3.0745678,-0.6222749,-0.00019304642,-0.12269023,0.0375755,-0.0003381918,-0.042057548,0.002643149,0.014355719,0.47923097,-1.3651797,1.8844098,-2.091603,-1.5671691,2.4531004,-0.19318335,0.12882265,-0.15420207,0.0042471713,0.03640384,-0.207406,-0.28730422,-0.038307227,-9.174581,0.8627467,47.67793,-1.1782798,-2.3568854,-3.2682014,-0.094836526,0.13987099,-0.30161813,28.4375,29.6875,28.8125,32.5625,35.0,36.0
0.27005225,0.6027936,0.87697345,0.14013194,-0.00019454255,0.053348616,-0.17470074,-0.40593436,-0.36347023,0.06005464,3.0745573,-0.62215126,-0.00017271392,-0.123694524,0.037673097,-0.00022222454,-0.042367272,0.0036926721,0.022762202,0.47885945,-1.3648787,1.8840984,-2.091603,-1.5671333,2.4526532,-0.1940088,0.12972847,-0.15542392,0.0035439068,0.03622913,-0.21663742,-0.095768064,-0.21068975,-9.174581,0.7978386,47.66271,-1.3262222,-2.487352,-3.310935,-0.06262011,0.1360285,-0.19532852,28.4375,29.6875,28.8125,32.5625,35.0,36.0
0.27205238,0.49145922,0.8177731,0.28679833,0.0036338426,0.052955776,-0.17340504,-0.406166,-0.3634132,0.060045738,3.0744328,-0.62203056,-0.00015678589,-0.12463703,0.038481526,-0.0007257758,-0.04240693,0.0030211254,0.02185754,0.47848657,-1.3646381,1.8838476,-2.0916755,-1.5670127,2.452221,-0.19630879,0.13107994,-0.15585543,0.0032452883,0.036602564,-0.21802898,-0.095768064,-0.095768064,-9.136273,0.9254084,47.661808,-1.1946377,-2.3858035,-3.3912153,-0.053283542,0.12517801,-0.15228084,28.4375,29.6875,28.8125,32.5625,35.0,36.0
0.27405274,0.15532081,1.2322577,0.5156525,0.0023631505,0.04276554,-0.16325964,-0.40641862,-0.36332062,0.06003566,3.074392,-0.62198836,-7.269128e-05,-0.12679298,0.039435964,0.00093583955,-0.044108704,0.0060164277,0.012521893,0.4780656,-1.3643507,1.8835129,-2.0916154,-1.5669407,2.451779,-0.19974774,0.12930526,-0.15753493,0.003265304,0.03671998,-0.21213229,-0.2873042,-0.11492168,-8.90643,0.8806493,47.687782,-1.1756341,-2.2367678,-3.3417432,-0.049730778,0.088896126,-0.18975127,28.4375,29.6875,28.8125,32.5625,35.0,36.0
0.27605203,0.42343646,1.5833015,0.38727814,0.008675516,0.05658643,-0.175304,-0.4066575,-0.3632383,0.06002957,3.0743318,-0.6220182,-2.7604912e-05,-0.12697993,0.03989675,0.0008796641,-0.04410132,0.0055498695,0.0048717433,0.47768152,-1.3640863,1.883202,-2.0915787,-1.5668806,2.4514213,-0.2006924,0.12930042,-0.15752545,0.0036786287,0.036919788,-0.2054262,-0.34476504,-0.22984336,-9.174581,0.8179876,47.67345,-1.1943839,-2.210225,-3.345357,-0.05782858,0.071535535,-0.28788337,28.4375,29.6875,28.8125,32.5625,35.0,36.0
0.27805206,0.21869923,1.1500288,0.25950217,0.022871606,0.06895493,-0.16993408,-0.40691397,-0.36315182,0.060034998,3.0742266,-0.62201977,-2.0658485e-05,-0.12836474,0.03987947,0.0012852985,-0.04404118,0.006448419,0.00012765704,0.47726095,-1.3638455,1.8829015,-2.0915787,-1.5667971,2.4510152,-0.20146608,0.13086985,-0.16049938,0.0043313038,0.036458734,-0.20145322,-0.21068975,-0.15322891,-9.155427,0.9947882,47.677036,-1.1232595,-2.1552362,-3.257615,-0.04992432,0.058849685,-0.36971682,28.4375,29.6875,28.8125,32.5625,35.0,36.0
0.28005204,-0.18611798,1.5295033,0.12550096,0.009126568,0.0626398,-0.18135941,-0.40716198,-0.36308926,0.060053386,3.074134,-0.62192374,-2.6126434e-05,-0.13030167,0.04050374,0.0022018685,-0.04427385,0.0077309166,-0.0015987278,0.4768879,-1.3636051,1.8825668,-2.0915544,-1.5667132,2.4505942,-0.20386197,0.13149099,-0.16364601,0.005645123,0.03609885,-0.20211984,-0.17238252,-0.17238252,-9.251195,0.8806493,47.66271,-1.0492487,-2.1484227,-3.3345475,-0.064627096,0.034575067,-0.38766193,28.4375,29.6875,28.8125,32.5625,35.0,36.0
0.2820521,-0.4425795,0.63081616,-0.1547417,0.0076268404,0.07105525,-0.16879064,-0.4074247,-0.36298594,0.060027935,3.0740993,-0.6219511,3.6502373e-05,-0.13004294,0.04138055,0.0008535246,-0.042170282,0.0048316065,0.0042690434,0.47645572,-1.363292,1.882244,-2.09153,-1.566665,2.4501836,-0.20467079,0.13367574,-0.16354582,0.006955765,0.035592932,-0.20879787,-0.21068975,-0.076614454,-9.442732,0.9388393,47.70211,-1.0695876,-2.1530235,-3.336259,-0.06394422,0.05090852,-0.40280592,28.4375,29.6875,28.8125,32.5625,35.0,36.0
0.28405195,-0.16146894,0.6320039,-0.28743196,-0.008623223,0.08719032,-0.17866552,-0.40768087,-0.3628962,0.060045376,3.0740378,-0.62185276,-3.1408887e-05,-0.13046764,0.041303538,0.00058327755,-0.04076882,0.004932755,0.017810285,0.47605994,-1.363075,1.8819445,-2.0915296,-1.5666293,2.4497344,-0.20403789,0.13550471,-0.16527298,0.0074854754,0.034367714,-0.22170503,-0.40222588,0.114921674,-9.3661175,0.8918391,47.68062,-1.2039497,-2.1674232,-3.2859063,-0.079692155,0.043371785,-0.27640265,28.4375,29.6875,28.8125,32.5625,35.0,36.0
0.28605202,-0.8455306,-0.17474669,-0.49728632,-0.015237085,0.100266546,-0.18349072,-0.40794814,-0.36280808,0.060033944,3.073987,-0.62177765,4.893313e-05,-0.13097373,0.04125078,0.0006691621,-0.039741617,0.0059294277,0.027887775,0.47562817,-1.3627626,1.8815855,-2.091482,-1.5665458,2.4492624,-0.20344171,0.13645813,-0.16667686,0.007598262,0.033036463,-0.23118852,-0.4213795,0.17238252,-9.461885,0.9030289,47.66271,-1.3824235,-2.2001748,-3.2279558,-0.07636179,0.03606265,-0.13038664,28.4375,29.6875,28.8125,32.5625,35.0,36.0
0.28805196,-0.4168694,0.05374865,-0.49138728,-0.04155953,0.13328624,-0.18274654,-0.4081549,-0.3627327,0.060012538,3.073958,-0.6215811,0.00018370937,-0.13178752,0.041830685,-0.0004907642,-0.03726396,0.0041956566,0.02782459,0.47525612,-1.3625088,1.8813218,-2.0914457,-1.5664386,2.4487712,-0.20415555,0.14025664,-0.16889651,0.008739753,0.03162917,-0.23184147,-0.40222588,0.19153613,-9.691729,0.95897776,47.683304,-1.5043223,-2.2410445,-3.2712278,-0.10804081,0.05132714,-0.09654965,28.4375,29.6875,28.8125,32.5625,35.0,36.0
0.29005185,-0.59341156,-0.5714583,-0.6232956,-0.052534614,0.12756518,-0.17050585,-0.40847948,-0.36262935,0.060025968,3.073853,-0.6216014,0.00013761982,-0.1322439,0.04245515,0.00087921997,-0.036835354,0.0064916466,0.020505846,0.47476414,-1.3621978,1.880916,-2.0914338,-1.566379,2.4483056,-0.20456776,0.1377425,-0.16926579,0.00978151,0.030206062,-0.22493552,-0.49799395,0.24899697,-9.844957,0.83813137,47.64927,-1.4898314,-2.2077408,-3.3404872,-0.124208525,0.062096365,-0.1287529,28.4375,29.6875,28.8125,32.5625,35.0,36.0
0.292052,-0.689598,-0.98785913,-0.70942163,-0.06575166,0.11036169,-0.16592813,-0.408733,-0.3625713,0.060044836,3.0737796,-0.6214973,0.00013393545,-0.13416624,0.043756444,-0.00011028617,-0.035339978,0.005819643,0.0076132454,0.47440287,-1.3619322,1.8805441,-2.0913856,-1.5663074,2.4478889,-0.20765735,0.14122707,-0.1711632,0.00946257,0.029165398,-0.2151316,-0.40222588,0.30645782,-9.825804,0.9388393,47.66091,-1.3405992,-2.392468,-3.313438,-0.121539295,0.0784524,-0.24807706,28.4375,29.6875,28.8125,32.5625,35.0,36.0
0.29405203,-0.5104422,-1.1250393,-0.80447435,-0.070023075,0.08789115,-0.16708392,-0.40901765,-0.362498,0.060061876,3.073704,-0.62137026,-3.4784716e-06,-0.13484585,0.0442583,-0.0011316258,-0.033488356,0.004738837,-0.0009759348,0.4740188,-1.3616668,1.8801984,-2.0914338,-1.5662841,2.4474354,-0.20824835,0.14420152,-0.1724838,0.009600353,0.028016001,-0.20713122,-0.38307226,0.40222588,-9.749189,0.88960326,47.67345,-1.3364377,-2.3838387,-3.2996283,-0.14460477,0.08621445,-0.3860775,28.4375,29.6875,28.8125,32.5625,35.0,36.0
0.29605207,0.4241958,-0.6047565,-0.9317929,-0.068861425,0.0819319,-0.17471491,-0.4092885,-0.3623832,0.060038745,3.0736418,-0.62149316,4.2343698e-05,-0.1363181,0.045095105,-0.0016838639,-0.03246754,0.0054992447,-0.006034195,0.47356248,-1.3613657,1.879887,-2.0914218,-1.5662364,2.447064,-0.21001771,0.14631347,-0.17351872,0.008324582,0.026752245,-0.20384434,-0.36391866,0.34476507,-9.710882,0.8291774,47.66987,-1.2534465,-2.438641,-3.3543744,-0.15286565,0.1292672,-0.47179177,28.4375,29.6875,28.8125,32.5625,35.0,36.0
0.29805252,0.51777947,-0.27185497,-0.6180671,-0.06641924,0.066305086,-0.1855275,-0.40956283,-0.3622769,0.06003464,3.073583,-0.6215552,7.200787e-05,-0.13858993,0.045872156,-0.0013111115,-0.033249624,0.0075863847,-0.0021148615,0.4731174,-1.3610771,1.8795394,-2.0913746,-1.5661882,2.4466653,-0.2130079,0.14740762,-0.1754011,0.0069526015,0.026525833,-0.21075335,-0.21068975,0.30645782,-9.749189,0.9097417,47.67166,-1.248362,-2.4900758,-3.3119793,-0.1259743,0.123608574,-0.49288335,28.4375,29.6875,28.8125,32.5625,35.0,36.0
0.30005267,0.8918321,0.075044796,-0.285637,-0.060384702,0.06973902,-0.19853394,-0.4098564,-0.3621787,0.06002842,3.0735297,-0.62153757,2.1556974e-05,-0.13977562,0.04713673,-0.0022859331,-0.03306699,0.006431701,0.008270439,0.47268412,-1.360764,1.8791808,-2.091387,-1.5661639,2.446228,-0.21627086,0.14944042,-0.17550358,0.006211079,0.026958182,-0.22439915,-0.038307227,0.34476504,-9.653421,0.8560339,47.66271,-1.1272656,-2.6251884,-3.4144058,-0.116098374,0.13546257,-0.38790762,28.4375,29.6875,28.8125,32.5625,35.0,36.0
0.302052,0.57973737,-0.09252881,-0.34887713,-0.030797131,0.059120137,-0.18234862,-0.41014817,-0.36208996,0.060039155,3.0734537,-0.62140036,1.1735924e-07,-0.14230673,0.04719716,-0.00072754954,-0.034848455,0.009747175,0.01938514,0.47223943,-1.360477,1.8788093,-2.0913746,-1.5660919,2.4457076,-0.21849136,0.14964372,-0.17929357,0.006124485,0.027102698,-0.23773114,0.038307227,0.2681506,-9.519346,0.91198283,47.666286,-1.1040506,-2.3690052,-3.387852,-0.11211388,0.15512505,-0.22624531,28.4375,29.6875,28.8125,32.5625,35.0,36.0
0.3040522,0.48866165,0.114168,-0.2779897,-0.023980524,0.061330453,-0.17634149,-0.41043064,-0.36201337,0.060052145,3.0733647,-0.6213044,-5.989096e-05,-0.1426346,0.048276726,-0.0017349228,-0.034502894,0.00810457,0.021503955,0.47183073,-1.3602006,1.8784512,-2.091387,-1.5660318,2.4452505,-0.22073616,0.15082382,-0.17835999,0.005675113,0.02759138,-0.24209152,-0.038307227,0.21068975,-9.442732,0.93436235,47.682407,-0.94911003,-2.355835,-3.4145164,-0.09895809,0.15603843,-0.1605446,28.4375,29.6875,28.8125,32.5625,35.0,36.0
0.30605257,0.47448084,0.5268633,-0.031008948,-0.019518824,0.060121786,-0.17601496,-0.41073796,-0.3619034,0.060067948,3.0732925,-0.62125957,-0.000128885,-0.14333145,0.0483093,-0.002118947,-0.0348556,0.007393551,0.014845655,0.47135952,-1.3599241,1.8780807,-2.091375,-1.5659956,2.4447608,-0.22162409,0.15269667,-0.17977516,0.005682637,0.028233605,-0.23631664,-0.24899697,0.17238252,-9.385271,0.8403672,47.678825,-0.9438952,-2.4203908,-3.4107294,-0.102565244,0.16659993,-0.19336548,28.4375,29.6875,28.8125,32.5625,35.0,36.0
0.30805176,0.20035918,0.59331155,0.062772736,-0.019449208,0.05713381,-0.17444313,-0.4110205,-0.3618245,0.06005653,3.0731988,-0.62122136,-5.4604752e-05,-0.14345549,0.048729338,-0.0021980293,-0.03543981,0.0066308426,0.0056890757,0.47091803,-1.3595884,1.8776983,-2.0913513,-1.5658873,2.4443076,-0.22280239,0.15258846,-0.17958297,0.006009316,0.02908551,-0.22833584,-0.36391866,0.05746084,-9.308656,0.9410752,47.681515,-0.9133436,-2.5007045,-3.4636557,-0.094853625,0.16952233,-0.28746286,28.4375,29.6875,28.8125,32.5625,35.0,36.0
0.3100518,-0.24437,0.81818664,0.3036794,-0.018865801,0.07127813,-0.18256022,-0.4113194,-0.36173365,0.060068082,3.0731096,-0.62114537,-0.000168056,-0.14346895,0.04804842,-0.0016419161,-0.0363774,0.007477162,0.0021874758,0.47048676,-1.3593128,1.8773521,-2.091399,-1.5658511,2.4438405,-0.22180256,0.15229954,-0.18054505,0.006077901,0.029553961,-0.22382964,-0.38307226,-0.038307227,-9.11712,0.9097417,47.667187,-1.172173,-2.3087134,-3.4211087,-0.08774271,0.17345966,-0.34882802,28.4375,29.6875,28.8125,32.5625,35.0,36.0
0.3120519,0.021822775,1.0001819,0.39475194,0.011141811,0.092234366,-0.17595339,-0.4115867,-0.36164474,0.060057733,3.0730777,-0.62107843,-0.00013855338,-0.14408377,0.0472566,-0.0012075319,-0.035947867,0.008467688,0.0055525433,0.4700792,-1.3590006,1.8769921,-2.0913622,-1.5658034,2.4433954,-0.22036354,0.15382935,-0.18361534,0.0069650565,0.0287373,-0.22575639,-0.3256114,-0.114921674,-9.155427,0.8537928,47.64389,-1.371239,-2.2328887,-3.3495157,-0.10448924,0.1885111,-0.39489865,28.4375,29.6875,28.8125,32.5625,35.0,36.0
0.3140518,0.2762542,1.5781834,0.4941929,0.023619216,0.1021063,-0.18775247,-0.41189185,-0.36155176,0.060088888,3.072963,-0.6210098,-0.0001789896,-0.14682312,0.04732456,0.0008521822,-0.038110837,0.012561917,0.01375946,0.4696105,-1.3587368,1.8765968,-2.091327,-1.5657195,2.4428988,-0.22274652,0.15328313,-0.18766539,0.0070165833,0.028881049,-0.23634228,-0.17238252,-0.15322891,-9.040505,0.9254084,47.65106,-1.4150404,-2.2555864,-3.3065405,-0.09148723,0.22111033,-0.3205576,28.4375,29.6875,28.8125,32.5625,35.0,36.0
0.31605196,0.7510113,1.9806776,0.3464513,0.032800935,0.09326096,-0.19344884,-0.41220754,-0.3614726,0.060078926,3.072898,-0.6209147,-0.00022249516,-0.148065,0.047408935,0.00059522135,-0.03922457,0.011698284,0.023103496,0.46917784,-1.3583642,1.8761772,-2.0913508,-1.5656708,2.4424152,-0.2246722,0.15560837,-0.1900067,0.007375251,0.030336922,-0.24760528,-0.095768064,-0.11492168,-9.11712,0.8224646,47.64658,-1.4062572,-2.3905628,-3.2018018,-0.08437951,0.20758316,-0.18751118,28.4375,29.6875,28.8125,32.5625,35.0,36.0
0.31805193,0.81831473,1.5346107,0.07266446,0.036388278,0.06553417,-0.18216571,-0.4124961,-0.3613754,0.060096107,3.0728505,-0.62074804,-0.00029302185,-0.14788516,0.046913873,0.0003064288,-0.03868092,0.011024439,0.028770758,0.46874636,-1.3581003,1.8758181,-2.091338,-1.5656351,2.441886,-0.22345535,0.15704712,-0.19128592,0.008107593,0.030206742,-0.25205326,-0.17238252,-0.095768064,-9.212888,0.8717007,47.66808,-1.439672,-2.2059398,-3.2188969,-0.08688757,0.21422991,-0.10982027,28.4375,29.6875,28.8125,32.5625,35.0,36.0
0.32005188,0.55912244,0.8641084,-0.044348847,0.009048279,0.04700371,-0.16699634,-0.41278416,-0.36123455,0.06007736,3.0728433,-0.62074953,-0.00021960396,-0.14894517,0.04779874,0.0019800775,-0.038718447,0.013484447,0.02221293,0.46824235,-1.3577896,1.8754705,-2.091266,-1.5655993,2.4413838,-0.22501779,0.15455103,-0.19245294,0.009560874,0.02911449,-0.24706206,-0.40222588,-0.05746084,-9.212888,0.8940802,47.695843,-1.3997884,-2.0973475,-3.1866908,-0.09349547,0.23114991,-0.11454801,28.4375,29.6875,28.8125,32.5625,35.0,36.0
0.32205185,0.6450229,0.19911829,-0.18270591,-0.009283447,0.059023313,-0.1717366,-0.41307378,-0.3611571,0.060072217,3.0727577,-0.6207382,-0.00021010582,-0.14950141,0.048575185,0.0015819332,-0.038294055,0.011729655,0.010833142,0.46782124,-1.3574535,1.8750752,-2.0912535,-1.5655268,2.4409668,-0.22687742,0.15587635,-0.19353087,0.011049937,0.029511169,-0.23753896,-0.30645782,0.076614454,-9.3661175,0.90750587,47.69763,-1.3801394,-2.0492535,-3.2481341,-0.107338995,0.25745255,-0.23248592,28.4375,29.6875,28.8125,32.5625,35.0,36.0
0.32405186,-0.023361042,-0.034317885,-0.49621767,-0.03531918,0.056744847,-0.16865666,-0.41337952,-0.3610626,0.060095046,3.0726795,-0.6206752,-0.0002684942,-0.15148179,0.049089722,0.0023507022,-0.038965404,0.0128771085,-0.0012080006,0.46737298,-1.3571651,1.8746685,-2.0912173,-1.5654787,2.4404895,-0.22930054,0.15684232,-0.1966541,0.011853858,0.029578397,-0.22791713,-0.3256114,0.05746084,-9.519346,0.947788,47.66808,-1.3051386,-2.0674431,-3.2979224,-0.11743119,0.27556717,-0.36588287,28.4375,29.6875,28.8125,32.5625,35.0,36.0
0.32605192,-0.48521993,-0.49818498,-0.43388185,-0.04868315,0.070264526,-0.16952315,-0.41366497,-0.3609397,0.060090434,3.0726361,-0.6206666,-0.00023949565,-0.15211739,0.051031515,0.0012650326,-0.037486237,0.009836549,-0.010235704,0.4668951,-1.3568771,1.8743213,-2.0911686,-1.565431,2.440012,-0.23296376,0.15846491,-0.19657339,0.013527615,0.029622946,-0.22255212,-0.45968673,0.15322891,-9.557653,0.85826975,47.67345,-1.1108395,-2.017553,-3.3397555,-0.15476274,0.28963375,-0.49182504,28.4375,29.6875,28.8125,32.5625,35.0,36.0
0.328052,-0.8633759,-0.58207375,-0.3573611,-0.04892887,0.09041131,-0.17515486,-0.41398415,-0.36082515,0.06007657,3.0725741,-0.6207061,-0.00022593423,-0.15309447,0.052489724,0.0005478571,-0.03723829,0.008217395,-0.0066030496,0.4664024,-1.3565167,1.8739136,-2.0911448,-1.5653828,2.439552,-0.2363992,0.15982588,-0.19673432,0.013946446,0.030179132,-0.22961803,-0.4405331,0.19153613,-9.576807,0.9164598,47.698532,-1.0751917,-2.2046263,-3.3131742,-0.15641268,0.31750295,-0.49403,28.4375,29.6875,28.8125,32.5625,35.0,36.0
0.33005175,-0.30699757,-0.083575755,-0.4447759,-0.043354817,0.11532879,-0.17800331,-0.41427752,-0.36072457,0.06006891,3.0724974,-0.62068367,-0.00017441953,-0.15375336,0.05366506,-0.0018965031,-0.036100842,0.003756024,0.0056272247,0.46593338,-1.3561912,1.8735312,-2.091109,-1.5652984,2.439079,-0.23941508,0.16478056,-0.19725138,0.014118341,0.031250045,-0.24486002,-0.2873042,0.15322891,-9.615114,0.8985519,47.661808,-0.89372635,-2.3104415,-3.4118237,-0.17357749,0.31032848,-0.37480372,28.4375,29.6875,28.8125,32.5625,35.0,36.0
0.3320518,-0.49937603,0.21352541,-0.85373926,-0.0334136,0.0932364,-0.18608014,-0.41457832,-0.36063677,0.060072683,3.0724084,-0.6205452,-0.00013084055,-0.15425614,0.05341722,-0.0023311137,-0.03779386,0.0029660643,0.015121783,0.46546498,-1.3558671,1.8731245,-2.0910728,-1.5651897,2.4385357,-0.24042837,0.16633318,-0.1980019,0.013354777,0.03318146,-0.25536063,-0.095768064,0.095768064,-9.691729,0.92093146,47.66091,-1.0010195,-2.3216023,-3.4029818,-0.19818611,0.32673576,-0.22204685,28.4375,29.6875,28.8125,32.5625,35.0,36.0
0.33405185,-0.308377,0.058883253,-0.36781174,-0.043954797,0.086595096,-0.17241564,-0.41489354,-0.36052302,0.06006943,3.0723517,-0.6204941,-0.00017351417,-0.15464018,0.052799545,-0.0026845436,-0.038586546,0.0024401292,0.016491303,0.4649854,-1.3555425,1.8727411,-2.0910733,-1.5651535,2.4380317,-0.24013267,0.16836418,-0.19963524,0.013099194,0.034150973,-0.25642887,-0.4022259,0.17238252,-9.672575,0.9410752,47.686886,-1.1461413,-2.2769966,-3.3536737,-0.19187167,0.32620925,-0.20998013,28.4375,29.6875,28.8125,32.5625,35.0,36.0
0.33605194,-0.12686081,-0.20172483,-0.5310352,-0.04182941,0.08015374,-0.16678089,-0.41520742,-0.36043143,0.060086217,3.0722616,-0.6204402,-0.00022256868,-0.15464093,0.051917978,-0.003384449,-0.038478527,0.0021698948,0.011402331,0.46452993,-1.3552301,1.8723215,-2.0910494,-1.5650934,2.4375544,-0.23849167,0.17079607,-0.20080332,0.0121179735,0.034169696,-0.24969527,-0.6512229,0.24899697,-9.595961,0.81351066,47.698532,-1.2158787,-2.3753235,-3.4736433,-0.17485961,0.33937702,-0.27730164,28.4375,29.6875,28.8125,32.5625,35.0,36.0
0.33805197,0.12507948,-0.09018988,-0.7015865,-0.037064627,0.07435024,-0.17219067,-0.41552046,-0.3603086,0.060072474,3.0722363,-0.6203812,-0.00020851156,-0.15551563,0.051616028,-0.0028192794,-0.03936702,0.0033090147,0.004896236,0.4640379,-1.3548822,1.8719252,-2.0910137,-1.5650576,2.437029,-0.23870797,0.17129543,-0.20273852,0.012126181,0.03443358,-0.2434035,-0.36391866,0.24899697,-9.710882,0.9612189,47.690468,-1.2595855,-2.4151945,-3.4366713,-0.18186963,0.33544832,-0.3567686,28.4375,29.6875,28.8125,32.5625,35.0,36.0
0.34005186,-0.08161387,-0.34012985,-0.2738286,-0.054149386,0.072497636,-0.175373,-0.41581702,-0.3602366,0.060063083,3.0721185,-0.62029916,-0.00016889302,-0.15668328,0.051383276,-0.0024714225,-0.040160295,0.0036380207,0.0045248973,0.4635937,-1.3545344,1.8715304,-2.0910256,-1.564937,2.4365487,-0.23948382,0.17283823,-0.20559736,0.012837949,0.035016637,-0.24380326,-0.30645782,0.28730422,-9.576807,0.98807013,47.701214,-1.267872,-2.3006833,-3.3917918,-0.20620063,0.36564302,-0.41797435,28.4375,29.6875,28.8125,32.5625,35.0,36.0
0.34205198,-0.056079134,-0.17034811,0.0066242986,-0.055464905,0.07248686,-0.16805932,-0.41614732,-0.36012605,0.060097963,3.0719755,-0.62038463,-0.00023654825,-0.15707724,0.050099283,-0.0009693065,-0.042788595,0.0065336567,0.014748414,0.4630865,-1.3542589,1.8711113,-2.0909894,-1.564865,2.4361136,-0.23816149,0.17139067,-0.20712045,0.012127289,0.036149085,-0.25269717,-0.38307226,0.2681506,-9.385271,0.9410752,47.642998,-1.3438513,-2.3665674,-3.4258308,-0.20860106,0.3449543,-0.3766101,28.4375,29.6875,28.8125,32.5625,35.0,36.0
0.3440521,0.21903095,-0.11316021,-0.27340162,-0.031727064,0.0720106,-0.18992545,-0.41649187,-0.36001766,0.0600872,3.0719297,-0.6202659,-0.0002550551,-0.15879466,0.050467383,-0.0005519055,-0.04345402,0.0077809216,0.026927382,0.46258572,-1.3538628,1.8706554,-2.090978,-1.5648168,2.4355447,-0.24010237,0.1726123,-0.20958517,0.012070887,0.036275387,-0.2668145,-0.17238252,0.2681506,-9.346964,0.94331104,47.66271,-1.3590349,-2.3571765,-3.460136,-0.20294672,0.35580677,-0.2258814,28.4375,29.6875,28.8125,32.5625,35.0,36.0
0.34605217,0.18666433,0.16514312,0.03972133,-0.030365014,0.07428203,-0.17060019,-0.41678903,-0.3599289,0.060074467,3.071865,-0.6200977,-0.00020817902,-0.15979005,0.051413886,-0.0012895829,-0.044029713,0.0059441878,0.030667366,0.4621288,-1.3535144,1.8702615,-2.0909655,-1.5647205,2.4349911,-0.24319054,0.17453682,-0.21035774,0.0123845525,0.037662674,-0.2736367,-0.05746084,0.21068975,-9.136273,0.9186956,47.660015,-1.3581285,-2.3065934,-3.4279232,-0.20392166,0.35574156,-0.12049179,28.4375,29.6875,28.8125,32.5625,35.0,36.0
0.34805223,0.6762518,0.47178978,0.008214214,-0.012024926,0.059837356,-0.17095768,-0.41712388,-0.35984156,0.060086723,3.0717828,-0.61996895,-0.0003010988,-0.16158737,0.051497433,-0.0008211462,-0.04562403,0.0069773323,0.024129372,0.46167195,-1.3531662,1.8698167,-2.090978,-1.5646719,2.4344647,-0.24523938,0.17589934,-0.21303608,0.012064542,0.03864201,-0.26913905,-0.019153614,0.21068975,-9.232041,0.9030289,47.682407,-1.2775645,-2.272025,-3.3201594,-0.19745257,0.3619408,-0.104724914,28.4375,29.6875,28.8125,32.5625,35.0,36.0
0.3500523,0.67182505,0.2804514,-0.08077328,0.0010925569,0.0351586,-0.16321738,-0.4174376,-0.35972783,0.060097463,3.071677,-0.6199742,-0.00029722153,-0.16278371,0.05203823,-0.0004820711,-0.04700308,0.007998832,0.011153035,0.46116728,-1.3528665,1.8694228,-2.0909421,-1.5645875,2.4339771,-0.2474133,0.17584947,-0.2135582,0.011080471,0.039393526,-0.25833148,-0.17238252,0.17238252,-9.174581,0.88289046,47.65643,-1.1908193,-2.2621796,-3.3698075,-0.20228869,0.3607179,-0.22773385,28.4375,29.6875,28.8125,32.5625,35.0,36.0
0.35205254,0.80425704,0.7873773,0.16513732,-0.02089965,0.034455817,-0.16564217,-0.4177787,-0.3595972,0.06006774,3.0716293,-0.61997133,-0.0002437829,-0.1641047,0.05350191,-0.0012744726,-0.047240764,0.0064964695,-0.0031188354,0.46062657,-1.3524578,1.8689913,-2.0909183,-1.5645274,2.433441,-0.25127548,0.17762497,-0.21392712,0.010882491,0.04023531,-0.24791832,-0.24899697,0.22984336,-9.11712,0.8717007,47.684196,-1.1160194,-2.3985674,-3.3527896,-0.1932881,0.36250788,-0.3587712,28.4375,29.6875,28.8125,32.5625,35.0,36.0
0.35405204,0.98783016,0.5887775,0.13257496,-0.022149036,0.049715154,-0.16628692,-0.4181091,-0.35949564,0.06007451,3.0715108,-0.6199881,-0.00022955022,-0.1650581,0.05307439,-0.0010766574,-0.04866663,0.0057549938,-0.0076469923,0.46012187,-1.3521098,1.8685478,-2.090882,-1.5644311,2.4329622,-0.25213328,0.17950314,-0.21696416,0.012087269,0.041847665,-0.24423866,-0.19153613,0.05746084,-9.270349,0.9298854,47.67614,-1.145125,-2.2407794,-3.3653643,-0.214414,0.35310236,-0.47618657,28.4375,29.6875,28.8125,32.5625,35.0,36.0
0.35605216,0.54701835,0.5087524,-0.15785,-0.02670527,0.060600564,-0.16775128,-0.41844898,-0.35939452,0.060081646,3.071388,-0.62003374,-0.00024187024,-0.16621198,0.05252855,0.00011655544,-0.05111967,0.007451564,0.0025855089,0.45961735,-1.3517505,1.8680924,-2.0908577,-1.5643462,2.4325023,-0.25290126,0.17924379,-0.21945204,0.0123324655,0.04337641,-0.2552304,-0.076614454,0.076614454,-9.346964,0.8627467,47.666286,-1.1231482,-2.1413517,-3.3197808,-0.22475943,0.32977173,-0.44916546,28.4375,29.6875,28.8125,32.5625,35.0,36.0
0.35805207,0.23073441,0.7142821,0.1485677,-0.04561739,0.082422905,-0.17515479,-0.4187696,-0.3593037,0.060074788,3.071294,-0.61983347,-0.00020461791,-0.16781822,0.05312547,-8.4446605e-05,-0.052235756,0.006224516,0.015081091,0.4591249,-1.35139,1.8676728,-2.0908573,-1.5642256,2.431897,-0.25603983,0.18161531,-0.22216046,0.013422883,0.04502831,-0.2708555,-0.17238252,0.1340753,-9.346964,0.947788,47.690468,-1.1025941,-2.2248187,-3.2221906,-0.2416561,0.32221004,-0.309878,28.4375,29.6875,28.8125,32.5625,35.0,36.0
0.3600521,0.12173326,0.57945275,-0.19396219,-0.026123093,0.09321116,-0.17504336,-0.41909036,-0.35917547,0.060042515,3.071237,-0.619838,-7.277802e-05,-0.16801083,0.052344106,-0.00034433894,-0.05481312,0.004996648,0.022169111,0.4585845,-1.3509938,1.8672537,-2.0907981,-1.5641288,2.4313667,-0.2564449,0.18306853,-0.22332631,0.013184852,0.047924254,-0.2783393,-0.2681506,0.038307227,-9.423578,0.90750587,47.690468,-1.1321898,-2.2668438,-3.2769504,-0.22500503,0.29330978,-0.16510092,28.4375,29.6875,28.8125,32.5625,35.0,36.0
0.36205223,0.0810754,0.77120125,-0.12621512,-0.029366272,0.0956607,-0.16726232,-0.41944146,-0.35906383,0.060065754,3.0711436,-0.61976475,-0.00013782225,-0.16679515,0.051300976,-0.00042907544,-0.05591377,0.0033530775,0.018891906,0.45806906,-1.350658,1.8667873,-2.090762,-1.5640682,2.4308178,-0.25452188,0.1830705,-0.22342984,0.014273807,0.04965408,-0.27312812,-0.49799395,0.076614454,-9.481039,0.9254084,47.67345,-1.2414505,-2.1917055,-3.3329034,-0.24813652,0.24166858,-0.18927214,28.4375,29.6875,28.8125,32.5625,35.0,36.0
0.3640522,0.12089795,0.084050976,0.07359914,-0.041621506,0.110434264,-0.16189618,-0.4197582,-0.35898548,0.060064666,3.071032,-0.6196865,-8.4900596e-05,-0.16652976,0.050896723,-0.0010878901,-0.056946907,0.0012994135,0.011029867,0.45760155,-1.3502855,1.8663315,-2.0907252,-1.5639471,2.430316,-0.25452802,0.18462104,-0.22394395,0.01461897,0.05147155,-0.2652626,-0.7469909,0.17238252,-9.442732,0.9388393,47.690468,-1.2688414,-2.2309556,-3.2818613,-0.25677025,0.22253509,-0.29415545,28.4375,29.6875,28.8125,32.5625,35.0,36.0
0.3660525,0.19157758,0.5606553,0.13826151,-0.05794531,0.11404176,-0.17070453,-0.42010376,-0.35886374,0.06005581,3.0709398,-0.61963826,-1.7064462e-05,-0.16622573,0.04972312,-0.0012470366,-0.057858407,0.00058476016,0.0077238637,0.45704603,-1.3499016,1.8658766,-2.0906775,-1.5638393,2.4297423,-0.252777,0.18610816,-0.22551732,0.014961882,0.05259576,-0.26019946,-0.5746084,0.095768064,-9.32781,0.8537928,47.66091,-1.3307214,-2.1703787,-3.3307495,-0.27184057,0.17556757,-0.37068084,28.4375,29.6875,28.8125,32.5625,35.0,36.0
0.3680525,-0.13037726,0.51921576,-0.19576213,-0.03285236,0.08385356,-0.16510531,-0.42045185,-0.35876253,0.06007077,3.0708144,-0.6196414,-8.64652e-05,-0.1681216,0.050797183,-0.0009828322,-0.057274822,0.0022220423,0.011306779,0.45654523,-1.3495537,1.8654221,-2.0906775,-1.5637678,2.42926,-0.25521705,0.18715774,-0.22737192,0.0146458605,0.051418874,-0.2662214,-0.38307226,0.0,-9.385271,0.95897776,47.675243,-1.4738872,-2.1697507,-3.3615468,-0.29370826,0.17163992,-0.40672088,28.4375,29.6875,28.8125,32.5625,35.0,36.0
0.3700522,0.08702141,0.60902315,-0.20149435,-0.030187765,0.0840877,-0.16696344,-0.42077577,-0.35867575,0.060054112,3.0707135,-0.61949855,-1.1285052e-05,-0.17078693,0.051461123,-0.00033075068,-0.05829207,0.0043609184,0.022778314,0.45605227,-1.3491573,1.8649782,-2.090666,-1.5636357,2.428691,-0.25836313,0.18876986,-0.23076147,0.014219399,0.05148497,-0.28083655,-0.49799395,0.095768064,-9.346964,0.9679317,47.62867,-1.3945051,-2.2038243,-3.428927,-0.28804922,0.16293834,-0.2566985,28.4375,29.6875,28.8125,32.5625,35.0,36.0
0.37205216,0.6373613,0.9857995,0.049075074,-0.03304787,0.102006786,-0.16890366,-0.42109936,-0.3585441,0.06002183,3.0706582,-0.6194472,0.0001299078,-0.17195946,0.052157234,-0.00081523,-0.059416283,0.003932416,0.028827978,0.45549932,-1.3487614,1.8645586,-2.0906065,-1.5635275,2.428113,-0.26103982,0.19028595,-0.23135208,0.013301309,0.052733336,-0.28956,-0.36391866,0.11492168,-9.289502,0.9701675,47.64837,-1.3153672,-2.2313817,-3.5193567,-0.27765355,0.12105934,-0.11847807,28.4375,29.6875,28.8125,32.5625,35.0,36.0
0.37405217,0.8629919,1.1329325,-0.2651116,-0.015588831,0.095640324,-0.16956781,-0.4214812,-0.35845184,0.06003563,3.0705268,-0.6193456,7.03246e-05,-0.17137215,0.0520923,-0.0034839937,-0.05761532,-0.0011260512,0.025282312,0.45497164,-1.3483521,1.8640321,-2.0906065,-1.5634307,2.427539,-0.26059204,0.19574408,-0.23215808,0.014008325,0.05336546,-0.28555706,-0.28730422,0.15322891,-9.385271,0.91421866,47.686886,-1.3202448,-2.3066256,-3.5533357,-0.29698002,0.08524999,-0.13982041,28.4375,29.6875,28.8125,32.5625,35.0,36.0
0.37605214,0.6690289,1.277995,-0.15168004,-0.019873628,0.09177216,-0.17442712,-0.42179784,-0.35833317,0.060010694,3.0704556,-0.6193573,0.00017000323,-0.17338584,0.053340144,-0.0024227258,-0.05552714,0.0023786887,0.013480943,0.45445532,-1.3479682,1.863613,-2.0905583,-1.5633363,2.4270394,-0.26203424,0.19553593,-0.23444586,0.014261843,0.049897447,-0.27521205,-0.19153613,0.19153613,-9.442732,0.9186956,47.65912,-1.4222517,-2.3531284,-3.4965935,-0.30008125,0.08964427,-0.23560168,28.4375,29.6875,28.8125,32.5625,35.0,36.0
