Tylouw/Master_Thesis_Code/training_data_v2/rect_rod_t0.2/sample_21_session_1.csv
timestamp[s],tcp_force_x[N],tcp_force_y[N],tcp_force_z[N],tcp_force_rx[Nm?],tcp_force_ry[Nm?],tcp_force_rz[Nm?],tcp_pose_x[m],tcp_pose_y[m],tcp_pose_z[m],tcp_pose_rx[rot_vec_x],tcp_pose_ry[rot_vec_y],tcp_pose_rz[rot_vec_z],tcp_velo_x[m/s],tcp_velo_y[m/s],tcp_velo_z[m/s],tcp_velo_rx[rot_vec_x/s],tcp_velo_ry[rot_vec_y/s],tcp_velo_rz[rot_vec_z/s],q1[rad],q2[rad],q3[rad],q4[rad],q5[rad],q6[rad],qd1[rad/s],qd2[rad/s],qd3[rad/s],qd4[rad/s],qd5[rad/s],qd6[rad/s],tool_acc_x,tool_acc_y,tool_acc_z,current_of_whole_robot[A],voltage_of_whole_robot[V],current_J1[A],current_J2[A],current_J3[A],current_J4[A],current_J5[A],current_J6[A],temp_J1[C],temp_J2[C],temp_J3[C],temp_J4[C],temp_J5[C],temp_J6[C]
1.1130014e-06,-0.17366175,-0.86512774,-0.033321366,-0.013875226,0.016570322,-0.00042505414,-0.38932118,-0.36872187,0.06001102,-3.078705,0.62489027,0.00015264566,0.0009614821,0.00054839166,-0.00065784337,0.0012170556,-0.0024577572,2.842067e-05,0.50504476,-1.3816559,1.904199,-2.0918677,-1.5708417,2.4800134,-0.00010445693,-2.2634018e-05,0.0011601044,0.0016018203,0.00013033436,-0.00013371835,0.11492168,0.19153613,-8.6574335,0.78217715,47.696735,-0.25680897,-3.1130261,-2.3637433,-0.22088893,0.16036583,-0.011356061,28.5,29.75,28.8125,32.625,35.0,36.0
0.002051958,0.026012419,-0.20700032,0.027255105,-0.024637472,0.025581297,-0.013092277,-0.38932678,-0.36870188,0.059995085,-3.0786676,0.62499744,0.00018214331,-0.0015262829,-0.00083454186,-0.00031059654,-0.003578236,0.0061740666,2.812452e-05,0.5050208,-1.3816559,1.9042472,-2.0919201,-1.5708655,2.480061,-0.000102474805,-3.0366425e-07,0.003007143,-0.010141915,0.00012726254,-0.00013093924,0.076614454,0.21068975,-8.599973,0.76874626,47.675243,-0.2231592,-2.9508252,-2.2452936,-0.17324924,0.16041636,-0.024149496,28.5,29.75,28.8125,32.625,35.0,36.0
0.004052165,0.17226574,-0.073480524,-0.114585124,-0.029949708,0.031895474,-0.014124819,-0.38933516,-0.3687324,0.06000184,-3.078713,0.62489164,0.000196234,-0.0018664983,-0.0010247258,-0.0014464008,-0.0033763417,0.005804385,2.7948809e-05,0.5050568,-1.3816189,1.904188,-2.0919201,-1.5708536,2.4800253,-0.00010056643,0.0024952423,0.0031452014,-0.012354303,0.00012433228,-0.00012827315,0.076614454,0.24899697,-8.619126,0.78888994,47.73077,-0.22394517,-3.3176715,-2.586975,-0.039821766,0.1697793,-0.011232542,28.5,29.75,28.8125,32.625,35.0,36.0
0.006052376,0.09914119,-0.6043888,-0.09780466,-0.0036856611,0.018766858,-0.0075868545,-0.38931757,-0.36871985,0.05999329,-3.078698,0.62492704,0.00015341215,-0.00055541977,-0.0002956756,-0.0012877734,-0.0010651305,0.0016565319,2.684154e-05,0.50504476,-1.3816432,1.9042357,-2.0919178,-1.5708417,2.4800372,-9.8727825e-05,0.0017971575,0.0021473786,-0.0059100897,0.00012153415,-0.00012571334,0.05746084,0.22984336,-8.63828,0.7486078,47.71286,-0.19174892,-3.3060637,-2.5683665,-0.07142307,0.16764998,-0.02728222,28.5,29.75,28.8125,32.625,35.0,36.0
0.008052258,0.52057314,0.42497456,-0.5717399,0.026604034,0.0011960412,-0.0076724663,-0.3893137,-0.36870885,0.05997506,-3.0786717,0.6249217,0.00016157387,0.00017142379,0.00010857194,-0.00057226,0.000356192,-0.00088929484,2.6103156e-05,0.50504476,-1.3816316,1.904271,-2.0919511,-1.5708655,2.4800372,-9.695507e-05,0.00079367275,0.00042546642,-0.00026898485,0.00011885876,-0.00012325379,-0.076614454,0.19153613,-8.714894,0.8157518,47.689575,-0.21387954,-3.3294153,-2.4526932,-0.118274994,0.15988141,-0.028353132,28.5,29.75,28.8125,32.625,35.0,36.0
0.010052323,0.7664078,1.0929976,-1.0589893,0.024227751,0.0009170794,-0.018110037,-0.38933057,-0.36872444,0.059996095,-3.0786986,0.62496537,0.00013971399,0.00079287606,0.00045455,8.745468e-05,0.0010177654,-0.0020664334,3.7824193e-05,0.50503284,-1.38162,1.9041985,-2.0919025,-1.5708297,2.4800491,-9.524509e-05,-0.0007825261,3.3844095e-05,0.0030491343,0.00011629877,-0.00013370253,-0.038307227,0.17238252,-8.944737,0.7530795,47.690468,-0.77865183,-2.7180662,-2.8767083,-0.15187919,0.13368952,-0.11490779,28.5,29.75,28.8125,32.625,35.0,36.0
0.012052507,0.30811188,-0.18699595,-1.1854903,0.0033453882,0.017773844,-0.012151595,-0.38932228,-0.36869225,0.05996855,-3.0786414,0.6249132,0.000104167746,0.00094783556,0.00057723024,-0.0010225227,0.0020605708,-0.003919329,0.0033374086,0.50500876,-1.3816074,1.9042462,-2.0919025,-1.5708655,2.4799998,-0.00014781592,0.0013855232,4.5406168e-07,0.003040085,9.977237e-05,-0.00348548,0.076614454,0.21068975,-9.078813,0.7553206,47.705692,-0.8717767,-2.5912657,-3.1163554,-0.13703501,0.13742338,-0.16946918,28.5,29.75,28.8125,32.625,35.0,36.0
0.014051714,-0.4129872,-0.8434991,-1.1526347,-0.040792957,0.03850712,-0.017716022,-0.38929808,-0.3686739,0.059917748,-3.078565,0.62493706,-5.4259388e-05,-0.0041643437,0.0040068515,-0.005158783,0.005305754,-0.009804716,0.0017574904,0.504993,-1.3815432,1.9042805,-2.0918787,-1.5708536,2.4800086,-0.010705759,0.013411897,-0.0046440717,0.0023776486,9.32335e-05,-0.012459621,0.076614454,0.15322891,-9.212888,0.78217715,47.733456,-0.50881004,-3.2855024,-3.0642133,-0.10506896,0.13488737,-0.08649932,28.5,29.75,28.8125,32.625,35.0,36.0
0.016051708,-0.8834103,-1.3022826,-1.2817969,-0.059096906,0.060787044,-0.035618957,-0.3893392,-0.3687055,0.05996656,-3.0786605,0.62491393,5.165137e-05,-0.005898022,0.0034757468,-0.0027865141,0.0027285637,-0.0051498013,0.008565199,0.50499284,-1.3815559,1.9041847,-2.0918791,-1.5708297,2.479982,-0.01143021,0.011014615,-0.00710617,0.0019155868,9.10548e-05,-0.01999109,-0.19153613,0.19153613,-9.346964,0.7105615,47.733456,-0.47915792,-3.0546312,-3.021453,-0.096765414,0.13126913,-0.04690846,28.5,29.75,28.8125,32.625,35.0,36.0
0.018052252,-1.8414712,-1.621408,-1.5896642,-0.0463986,0.0660798,-0.04232151,-0.38928688,-0.36870238,0.05991952,-3.0786088,0.6248245,-0.00010401246,-0.005463474,0.0037994382,-0.0026800332,0.003305529,-0.006187257,0.013206711,0.5050288,-1.3815202,1.9042438,-2.0918543,-1.5708174,2.4799685,-0.011567987,0.010367721,-0.0069683827,0.0036114536,8.9230045e-05,-0.024770727,-0.36391866,0.2681506,-9.500193,0.7396539,47.733456,-0.7179478,-2.8597546,-3.167112,-0.091229215,0.10469499,0.0060974015,28.5,29.75,28.8125,32.625,35.0,36.0
0.02005213,-1.4227365,-0.52777994,-1.6738273,-0.030051872,0.08672413,-0.076329604,-0.38930237,-0.36868668,0.059902474,-3.0785894,0.6248038,-0.00017543614,-0.005141332,0.004567691,-0.003306597,0.005268067,-0.0097233355,0.010628409,0.5049804,-1.3814716,1.9042195,-2.091829,-1.5708054,2.4799097,-0.012559172,0.01177996,-0.008053921,0.0073294193,8.749383e-05,-0.023183336,-0.40222588,0.21068975,-9.595961,0.7866488,47.704796,-0.8065867,-2.824592,-3.3553991,-0.13951732,0.11244376,-0.03515856,28.5,29.75,28.8125,32.625,35.0,36.0
0.022052107,-1.5879931,-0.17257914,-1.9418437,0.0010491746,0.08059344,-0.09769666,-0.38932678,-0.3686749,0.059893403,-3.0785644,0.62470484,-0.00014054767,-0.006877718,0.0047706096,-0.0025860153,0.0045259898,-0.008386964,0.006099994,0.5049678,-1.3814235,1.9041833,-2.091829,-1.5708536,2.4798386,-0.014524257,0.012501157,-0.010617244,0.007642259,8.582497e-05,-0.020618875,-0.5554548,0.17238252,-9.653421,0.7463667,47.684196,-0.9105754,-2.7211623,-3.4331732,-0.129866,0.106714,-0.0508826,28.5,29.75,28.8125,32.625,35.0,36.0
0.024052106,-1.6957399,-0.5322943,-2.0413282,0.0036156173,0.08621185,-0.11510135,-0.38930497,-0.36866775,0.05988639,-3.0785685,0.6248034,-0.00027111027,-0.008324365,0.0049411375,-0.0033077276,0.004710473,-0.008731832,0.002403701,0.5049313,-1.3814462,1.9042181,-2.0917933,-1.5707816,2.479863,-0.016166214,0.015702562,-0.012560354,0.0067767,8.421877e-05,-0.018563144,-0.63206923,0.11492168,-9.749189,0.72622824,47.719128,-0.870311,-2.851237,-3.3518798,-0.11498402,0.10038772,-0.0982967,28.5,29.75,28.8125,32.625,35.0,36.0
0.02605197,-1.1159699,-0.6678052,-1.9616274,-0.019875793,0.103885025,-0.12722127,-0.38937876,-0.36864793,0.05991283,-3.0785563,0.6248395,-0.0001637822,-0.009948581,0.0049009724,-0.003067007,0.0039842096,-0.007427327,-0.0002190841,0.5048589,-1.3814096,1.9041094,-2.09177,-1.5708297,2.4798148,-0.017615793,0.017232768,-0.0147215845,0.0059139575,8.267148e-05,-0.017388713,-0.7278373,0.076614454,-9.787497,0.79560274,47.709274,-0.8506233,-2.7597904,-3.3503547,-0.09392721,0.08708179,-0.10486077,28.5,29.75,28.8125,32.625,35.0,36.0
0.02805265,-2.0106454,-0.80502415,-2.0927577,-0.03474276,0.09847524,-0.13713431,-0.38938355,-0.36864352,0.059884157,-3.078517,0.624832,-0.00023764987,-0.009946197,0.0049856883,-0.0031327042,0.004419574,-0.00821174,-0.001086309,0.50484693,-1.3813374,1.9040865,-2.0917575,-1.5708297,2.479803,-0.017755426,0.01769823,-0.015366898,0.006991047,8.11801e-05,-0.0166609,-0.7661445,0.05746084,-9.825804,0.7351769,47.685097,-0.9570695,-2.7996519,-3.362099,-0.094456,0.09419097,-0.13714856,28.5,29.75,28.8125,32.625,35.0,36.0
0.030051956,-2.0577044,-0.7992644,-1.8158996,-0.034795623,0.114087105,-0.1518006,-0.38939035,-0.36864188,0.059888974,-3.0785303,0.62477815,-0.0002921193,-0.010172862,0.005280817,-0.003221773,0.0052613183,-0.009729299,-0.002050483,0.5048226,-1.381325,1.9040498,-2.0917084,-1.5708054,2.4797435,-0.018463662,0.018724035,-0.016880173,0.00921433,7.9741556e-05,-0.016404415,-0.8619126,-0.019153614,-9.921572,0.7911258,47.71823,-0.9416387,-2.8022103,-3.369584,-0.109039165,0.081352025,-0.14344275,28.5,29.75,28.8125,32.625,35.0,36.0
0.032051854,-2.2911606,-0.44832757,-1.9511057,-0.02168104,0.10636598,-0.1574052,-0.3894096,-0.3686104,0.059855748,-3.0784504,0.62480044,-0.00034051732,-0.011199873,0.0057210857,-0.0024899496,0.0047506606,-0.008808194,-0.0033710077,0.5047742,-1.3812531,1.9040378,-2.091697,-1.5708417,2.4797192,-0.020163456,0.018196195,-0.018074106,0.009882275,7.835303e-05,-0.016783355,-0.7469909,-0.019153614,-9.883265,0.71951014,47.696735,-0.9265789,-2.731026,-3.477284,-0.11105484,0.082695454,-0.1671112,28.5,29.75,28.8125,32.625,35.0,36.0
0.03405204,-2.110727,-0.5530835,-1.8095797,0.0070587313,0.09969178,-0.16939418,-0.3894639,-0.36862007,0.059871137,-3.0784807,0.6247488,-0.00021871168,-0.012207452,0.005562974,-0.002508386,0.0045229066,-0.008401208,-0.0030091882,0.504762,-1.3812045,1.9039534,-2.0917327,-1.5708774,2.479671,-0.020837747,0.019822145,-0.019892747,0.00960781,7.701216e-05,-0.017818427,-0.6895301,-0.05746084,-9.787497,0.7351769,47.711964,-0.9942548,-2.8107216,-3.3777046,-0.11752499,0.066841915,-0.17310302,28.5,29.75,28.8125,32.625,35.0,36.0
0.03605223,-1.5818856,-0.09854249,-1.7754667,0.012580138,0.09502873,-0.17856333,-0.3894613,-0.3686077,0.05984922,-3.0784678,0.62476426,-0.0003518138,-0.013658455,0.0052007306,-0.0018552768,0.0034463028,-0.006439495,-0.0019574817,0.50471383,-1.3811682,1.9039525,-2.0916975,-1.5708297,2.479634,-0.021575725,0.020625977,-0.022152377,0.008826558,6.157873e-05,-0.019606955,-0.49799395,-0.019153614,-9.634268,0.7217513,47.711063,-0.9644058,-2.7747264,-3.3183236,-0.08617614,0.06177534,-0.18523777,28.5,29.75,28.8125,32.625,35.0,36.0
0.038052533,-1.170874,-0.22345325,-1.9246911,0.016135875,0.08677085,-0.18044497,-0.38950393,-0.36859804,0.059850458,-3.0784552,0.62481976,-0.0003259642,-0.015504855,0.005614128,-0.001130087,0.0023235988,-0.0044008386,-0.002562081,0.50466514,-1.3811202,1.9038929,-2.0916975,-1.5708417,2.4796216,-0.02398986,0.020740312,-0.023747023,0.007979051,5.2303178e-05,-0.021415716,-0.4405331,-0.038307227,-9.768343,0.7732232,47.695843,-0.94828326,-2.742021,-3.3435352,-0.07940658,0.05642733,-0.18836467,28.5,29.75,28.8125,32.625,35.0,36.0
0.040051814,-0.6476788,-0.25778258,-1.77263,0.0027104975,0.088138625,-0.17252982,-0.38953498,-0.36857837,0.05984842,-3.0784447,0.6248959,-0.00040478367,-0.016484868,0.0063782525,-0.0012962231,0.002488272,-0.0046879225,-0.0041033584,0.5045804,-1.3810838,1.9038438,-2.0916498,-1.5708054,2.4795856,-0.026185324,0.021556951,-0.024364648,0.008111693,4.444865e-05,-0.022069523,-0.38307226,0.038307227,-9.653421,0.79560274,47.68599,-0.85021603,-2.7449708,-3.3903782,-0.061240602,0.04772892,-0.2075232,28.5,29.75,28.8125,32.625,35.0,36.0
0.04205163,-0.27159634,-0.37923253,-1.902772,-0.013161848,0.08751054,-0.18629026,-0.3895501,-0.36855453,0.059825175,-3.0783854,0.6248056,-0.00042865408,-0.017239047,0.0065367846,-0.001273312,0.0029078443,-0.005265769,-0.0040315697,0.5045561,-1.3810233,1.9038194,-2.091625,-1.5708536,2.4795127,-0.027100757,0.022930888,-0.026337784,0.009418677,-4.6708643e-05,-0.023055684,-0.21068975,-0.019153614,-9.653421,0.7933669,47.683304,-0.90144086,-2.7111568,-3.3529801,-0.06733623,0.046768367,-0.21749106,28.5,29.75,28.8125,32.625,35.0,36.0
0.044052497,-0.7716454,-0.8810729,-2.0449386,-0.004671707,0.06392796,-0.15365936,-0.38960063,-0.36854613,0.059821416,-3.0783937,0.62494093,-0.0004519413,-0.018398665,0.0063618184,-0.00072787405,0.0024502515,-0.004341346,-0.0024698342,0.5044721,-1.380963,1.9037594,-2.091637,-1.5708174,2.479512,-0.02785505,0.02381459,-0.028734721,0.009902211,-9.838466e-05,-0.025370546,-0.22984336,0.0,-9.691729,0.7486078,47.694946,-0.92263544,-2.7072353,-3.312766,-0.0775308,0.043314118,-0.23769073,28.5,29.75,28.8125,32.625,35.0,36.0
0.04605243,-0.67050844,-0.54997826,-2.142635,-0.011936849,0.056727704,-0.17829834,-0.38965058,-0.36855286,0.05984705,-3.0784235,0.62488914,-0.0003285293,-0.019504001,0.0070500127,-0.00068908144,0.0035893098,-0.0038153057,-0.0015767996,0.5044597,-1.3809386,1.903675,-2.0916488,-1.5708541,2.4794636,-0.029262155,0.024780236,-0.030069485,0.010364664,-0.0013508234,-0.027667688,-0.17238252,0.1340753,-9.691729,0.7933669,47.683304,-0.92946124,-2.6702032,-3.3417995,-0.07356491,0.025750395,-0.22764331,28.5,29.75,28.8125,32.625,35.0,36.0
0.04805176,-1.2412171,-0.61885756,-1.948026,-0.02107409,0.03530714,-0.17101575,-0.38970414,-0.36852518,0.05984996,-3.0784082,0.62492394,-0.00034382584,-0.020395188,0.008056803,-0.0006794245,0.004072587,-0.003857879,-0.0014843044,0.504363,-1.3808906,1.9036034,-2.0916126,-1.5708541,2.4793906,-0.03153305,0.024902426,-0.030329643,0.010774433,-0.0017548042,-0.030030217,-0.05746084,0.24899697,-9.672575,0.7620334,47.682407,-0.82436335,-2.6749697,-3.3791053,-0.07155485,0.045002412,-0.24518429,28.5,29.75,28.8125,32.625,35.0,36.0
0.050051842,-0.2289393,-0.9433938,-1.994643,-0.01801658,0.040449463,-0.16016915,-0.38974512,-0.36852092,0.05986138,-3.0784109,0.62496245,-0.0003826945,-0.021305177,0.008480989,-0.0004657017,0.004140781,-0.0039319643,-0.0012869313,0.5043026,-1.3808423,1.9035066,-2.091552,-1.5708302,2.479354,-0.033077676,0.025523866,-0.03175637,0.011678011,-0.0017811552,-0.03177156,0.0,0.21068975,-9.595961,0.8023209,47.67345,-0.81288505,-2.657885,-3.4136891,-0.06544157,0.021633938,-0.22473837,28.5,29.75,28.8125,32.625,35.0,36.0
0.05205188,-0.14639033,-1.2893052,-1.9419684,-0.014563282,0.026402097,-0.15202525,-0.3898011,-0.3684887,0.059872523,-3.0784006,0.6249988,-0.0003018055,-0.022534778,0.008342047,0.00015773627,0.0036234087,-0.0033507696,-0.0009685744,0.50421846,-1.3808299,1.9034694,-2.0915644,-1.570866,2.4792938,-0.03409461,0.026487703,-0.03455924,0.0127560925,-0.0016123502,-0.033106048,-0.038307227,0.21068975,-9.5385,0.7620334,47.705692,-0.79701835,-2.6212764,-3.3456473,-0.06122581,0.038888887,-0.24765804,28.5,29.75,28.8125,32.625,35.0,36.0
0.054051727,-0.119697794,-0.9737496,-1.8819698,-0.022118276,0.022294013,-0.14783743,-0.3898208,-0.36846545,0.05983413,-3.0783448,0.62504476,-0.00044373088,-0.023776203,0.008908339,0.00047817262,0.003325565,-0.0031587712,-0.0018428374,0.504146,-1.3807336,1.9034346,-2.0915277,-1.5708421,2.479257,-0.036306333,0.027025048,-0.036077783,0.013425187,-0.0014503135,-0.03444304,0.038307227,0.22984336,-9.442732,0.7105615,47.7451,-0.78528786,-2.636529,-3.2784672,-0.073750034,0.0108202435,-0.24582148,28.5,29.75,28.8125,32.625,35.0,36.0
0.056052655,-0.6364928,-1.6293334,-1.9011669,-0.010677748,0.013825096,-0.14643146,-0.38988996,-0.3684458,0.059848413,-3.0783315,0.6249646,-0.00035312783,-0.024579823,0.009378858,0.0004512172,0.0033402252,-0.0034023507,-0.0019346152,0.5040855,-1.3806733,1.9033254,-2.0915039,-1.5709018,2.4791484,-0.037908573,0.02775141,-0.036961496,0.013800078,-0.0013466548,-0.035953306,-0.038307227,0.24899697,-9.423578,0.68146914,47.69763,-0.7257538,-2.569257,-3.2862444,-0.09020247,0.011428626,-0.2658139,28.5,29.75,28.8125,32.625,35.0,36.0
0.058052104,-0.23117228,-1.1248767,-1.770923,-0.0267334,0.04427808,-0.15646243,-0.38995528,-0.36843863,0.05986315,-3.0783885,0.6250129,-0.0003197908,-0.024486596,0.008592675,0.0005776596,0.0031274168,-0.0033458925,0.0005939917,0.5039901,-1.380637,1.9032544,-2.0915277,-1.570866,2.479076,-0.036592018,0.028534431,-0.038258046,0.014161781,-0.0011883862,-0.03716512,-0.038307227,0.3256114,-9.461885,0.7351769,47.693153,-0.85745275,-2.5894387,-3.3170223,-0.07198175,-0.004192197,-0.27770674,28.5,29.75,28.8125,32.625,35.0,36.0
0.06005214,-0.54150665,-1.3953259,-1.6207044,-0.029704107,0.050673537,-0.1568362,-0.39001137,-0.36842942,0.05988776,-3.0783794,0.6250115,-0.00030787132,-0.025570992,0.008868672,0.0008202337,0.002833789,-0.0028950565,0.000548051,0.5039297,-1.3805888,1.9031223,-2.0914438,-1.5708779,2.4790158,-0.038086656,0.029254498,-0.03970538,0.014351566,-0.0011525321,-0.038613204,-0.05746084,0.30645782,-9.481039,0.7620334,47.68062,-0.90642524,-2.6006575,-3.3284678,-0.052245334,0.020361887,-0.29927415,28.5,29.75,28.8125,32.625,35.0,36.0
0.062052123,-0.055134866,-1.049804,-1.5779212,-0.038285065,0.074744776,-0.15819502,-0.39004585,-0.36839825,0.059863925,-3.0783377,0.62502253,-0.0003796103,-0.026702868,0.009656287,0.0009021649,0.003084167,-0.0034160079,-0.001553455,0.503845,-1.3805165,1.9030856,-2.0914195,-1.5708779,2.4789433,-0.04048354,0.030111305,-0.041176837,0.015543059,-0.0011234914,-0.038907964,-0.076614454,0.34476504,-9.442732,0.78217715,47.67614,-0.74262273,-2.5233712,-3.313755,-0.082608834,-0.010049512,-0.30301562,28.5,29.75,28.8125,32.625,35.0,36.0
0.06405197,-0.35377154,-0.6333847,-1.4425578,-0.033104174,0.059493568,-0.16011824,-0.39011204,-0.36838666,0.059890974,-3.0783896,0.62501216,-0.00034769098,-0.027677571,0.009729642,0.0012246451,0.002887063,-0.0029928738,0.0006505783,0.50374883,-1.3804922,1.9029897,-2.0913951,-1.5708541,2.4788342,-0.0414889,0.03092034,-0.042989895,0.016081816,-0.0011577778,-0.042116534,-0.095768064,0.30645782,-9.442732,0.6926589,47.73077,-0.8158211,-2.4871008,-3.3018436,-0.106465496,-0.03238216,-0.31834847,28.5,29.75,28.8125,32.625,35.0,36.0
0.06605228,-0.17948581,-0.85189205,-1.5420187,-0.015659349,0.0636476,-0.15567501,-0.39013088,-0.368373,0.059867706,-3.0783567,0.6249472,-0.0004600064,-0.028391374,0.009746173,0.0009957714,0.0027998805,-0.0027645095,0.001987539,0.5037008,-1.3804076,1.9029292,-2.0913355,-1.5708421,2.4787498,-0.042155012,0.032204274,-0.043835554,0.015401767,-0.0011998143,-0.044118814,-0.15322891,0.22984336,-9.289502,0.7732232,47.668976,-0.85568905,-2.47238,-3.3347425,-0.11255461,-0.02767272,-0.31550267,28.5,29.75,28.8125,32.625,35.0,36.0
0.06805183,-0.8473525,-0.88850826,-1.5978585,-0.0036659588,0.052729856,-0.15029009,-0.39020252,-0.36834937,0.05986796,-3.078345,0.62494564,-0.00039577618,-0.029520277,0.009763624,0.0010010948,0.0024418416,-0.0020356243,0.0006913444,0.5036165,-1.3803351,1.9028457,-2.091348,-1.5708779,2.478666,-0.043205176,0.033543855,-0.0452718,0.0146857845,-0.0012419496,-0.04387186,-0.15322891,0.13407528,-9.32781,0.78217715,47.689575,-0.82587016,-2.504862,-3.364912,-0.10814562,-0.032815617,-0.34635198,28.5,29.75,28.8125,32.625,35.0,36.0
0.07005176,-0.8754668,-0.36120093,-1.3152272,-0.007690879,0.06306986,-0.15776534,-0.3902884,-0.36833522,0.059883356,-3.0783598,0.6249843,-0.0003252159,-0.030855035,0.0100177815,0.0011454576,0.0024406381,-0.0009957977,0.0023558927,0.50352025,-1.3802626,1.9027251,-2.0913484,-1.5708903,2.4785922,-0.044554554,0.03470952,-0.04687327,0.014210858,-0.0017466908,-0.046884004,-0.22984336,0.095768064,-9.385271,0.80679786,47.713753,-0.81234026,-2.469209,-3.3235383,-0.10609387,-0.042849332,-0.35265377,28.5,29.75,28.8125,32.625,35.0,36.0
0.07205175,-1.0881401,-0.3605108,-1.3832594,-0.0023492926,0.07145437,-0.1630992,-0.39033335,-0.36833054,0.059889976,-3.0783782,0.6249107,-0.00040615344,-0.03168585,0.0101627,0.0017381158,0.002469884,2.5523345e-06,0.0044776085,0.5034481,-1.3801904,1.9026054,-2.091264,-1.5708545,2.4784718,-0.045247946,0.03469862,-0.04835501,0.014846122,-0.0022589325,-0.049697522,-0.21068975,0.095768064,-9.32781,0.71951014,47.655537,-0.84423506,-2.4694858,-3.2534714,-0.10198107,-0.06682459,-0.35188892,28.5,29.75,28.8125,32.625,35.0,36.0
0.074051686,0.050006766,0.6561835,-1.1422781,-0.028169928,0.104807355,-0.17446387,-0.39040422,-0.36830112,0.059894156,-3.0783849,0.62486935,-0.00038069894,-0.032493103,0.010564876,0.0017929024,0.0026959686,-0.00021812705,0.008442807,0.50334,-1.3801302,1.902522,-2.091252,-1.5708665,2.478337,-0.046610747,0.035521306,-0.04962372,0.015593135,-0.0023535797,-0.0550248,-0.36391866,0.11492168,-9.193734,0.73069996,47.687782,-0.83606815,-2.4479654,-3.3327527,-0.09586843,-0.063880295,-0.31526446,28.5,29.75,28.8125,32.625,35.0,36.0
0.076052636,-1.3068267,-0.323402,-1.3060584,-0.0065451367,0.07556406,-0.14620404,-0.39044634,-0.36827832,0.059883546,-3.078363,0.62486625,-0.00045108903,-0.0334828,0.011820408,0.0011876929,0.0035557903,-0.0017650942,0.0069578304,0.50325495,-1.3800577,1.9024495,-2.0912035,-1.5708545,2.478253,-0.04963485,0.036983732,-0.050172508,0.016449602,-0.0023635116,-0.056563433,-0.40222588,-0.095768064,-9.270349,0.7620334,47.650166,-0.7414447,-2.4054837,-3.3168697,-0.11930997,-0.0691475,-0.3000408,28.5,29.75,28.8125,32.625,35.0,36.0
0.078052245,-0.6210105,-0.15680234,-1.2961711,-0.0019196747,0.09246522,-0.15820014,-0.39053482,-0.36827794,0.05992022,-3.0784278,0.6248193,-0.00035136647,-0.033948205,0.010691525,0.001269214,0.0035075964,-0.0013488028,0.011120957,0.5031718,-1.3800087,1.9023055,-2.091192,-1.5708545,2.4781322,-0.04806049,0.039173137,-0.05300738,0.01670714,-0.0025242574,-0.05915062,-0.30645782,-0.05746084,-9.308656,0.78888994,47.687782,-0.8302796,-2.4829113,-3.36594,-0.12640366,-0.07544753,-0.31017408,28.5,29.75,28.8125,32.625,35.0,36.0
0.08005228,-1.430041,0.14027141,-1.1794685,-0.0058397697,0.07833097,-0.15311219,-0.39059383,-0.36824894,0.059890177,-3.0783813,0.6247689,-0.00042589486,-0.035619386,0.011072018,0.0018852127,0.0034918175,0.00019978892,0.014051315,0.5030754,-1.3798765,1.9022092,-2.0911558,-1.5708665,2.4780104,-0.049786538,0.03988678,-0.05530912,0.016931912,-0.0032684132,-0.063804366,-0.40222588,0.0,-9.346964,0.7463667,47.658226,-0.86212885,-2.5656233,-3.203295,-0.13648547,-0.099253975,-0.26427785,28.5,29.75,28.8125,32.625,35.0,36.0
0.08205244,-0.8935384,0.33705112,-1.2543933,-0.0018244594,0.09633803,-0.15569672,-0.39066225,-0.36821583,0.05989009,-3.0783763,0.62468976,-0.00037563615,-0.035645973,0.012864079,0.00014170195,0.0064168335,-0.0018852173,0.015623003,0.50297886,-1.3798158,1.9021376,-2.0911558,-1.5709032,2.4778652,-0.05184935,0.04150936,-0.053136617,0.016375905,-0.0048239073,-0.06743643,-0.38307226,0.0,-9.251195,0.7217513,47.65912,-0.84408677,-2.481325,-3.3660493,-0.14664066,-0.07443921,-0.22469959,28.5,29.75,28.8125,32.625,35.0,36.0
0.08405224,-1.1195135,-0.006396536,-1.3662504,0.0021974612,0.09301304,-0.15512827,-0.39074284,-0.3681876,0.059894945,-3.0783722,0.6247262,-0.00045570626,-0.03781644,0.013975969,0.00093979144,0.0070799906,-7.3217143e-06,0.016032707,0.50283426,-1.3797196,1.9019936,-2.0910714,-1.5708679,2.4777439,-0.054797806,0.041853704,-0.055528224,0.017103918,-0.0063184095,-0.070790485,-0.3256114,0.0,-9.346964,0.73741806,47.733456,-0.7826134,-2.528256,-3.357605,-0.171705,-0.065591566,-0.1798906,28.5,29.75,28.8125,32.625,35.0,36.0
0.086052015,-0.66600245,0.3408456,-1.2781837,-0.008771098,0.09895347,-0.16085778,-0.39084718,-0.36815172,0.059914324,-3.0783696,0.6246659,-0.0003360971,-0.03934865,0.013600085,0.0012810535,0.008480282,0.001657529,0.019503377,0.5027145,-1.3796467,1.9018606,-2.09106,-1.5709285,2.477587,-0.05431231,0.044411007,-0.059468158,0.017704109,-0.008353165,-0.07377007,-0.34476507,0.038307227,-9.289502,0.7172743,47.678825,-0.76125586,-2.4890075,-3.3134575,-0.16211635,-0.049168766,-0.15897858,28.5,29.75,28.8125,32.625,35.0,36.0
0.08805254,-0.9040858,-0.13487278,-1.4354565,-0.0010785403,0.09415352,-0.15830466,-0.39093113,-0.36812675,0.059920575,-3.078399,0.6245543,-0.0003224856,-0.039775968,0.014189929,0.001366042,0.010820591,0.0030698336,0.022264548,0.50259495,-1.3795625,1.9017414,-2.0910356,-1.5709294,2.477394,-0.053987816,0.044536337,-0.059846435,0.017855162,-0.011085515,-0.076201394,-0.47884035,0.019153614,-9.385271,0.784413,47.65106,-0.93172264,-2.501562,-3.1862226,-0.18797457,-0.0042153094,-0.11304997,28.5,29.75,28.8125,32.625,35.0,36.0
0.09005247,-1.1815389,-0.3439001,-1.5444978,0.0031439164,0.0936171,-0.15678497,-0.39097044,-0.36810964,0.05988751,-3.0783608,0.6244701,-0.00045101397,-0.040066056,0.015831755,4.7822195e-05,0.013625311,0.00083249126,0.021280516,0.5025224,-1.3794298,1.901646,-2.0909755,-1.570918,2.477274,-0.056151632,0.04629787,-0.059125178,0.018688884,-0.012470668,-0.077377394,-0.49799395,0.1340753,-9.385271,0.7038487,47.63225,-0.895885,-2.477774,-3.433464,-0.1967845,0.010302176,-0.09383406,28.5,29.75,28.8125,32.625,35.0,36.0
0.09205245,-0.006938979,0.20904285,-1.4480923,-0.022259884,0.119353354,-0.17120975,-0.39106944,-0.36808583,0.059922554,-3.0783904,0.6244376,-0.00040963077,-0.041336328,0.015594116,0.0006893405,0.012920388,0.0013957792,0.020148005,0.50239027,-1.3793693,1.9014782,-2.090903,-1.570918,2.4771178,-0.05713521,0.047393467,-0.062126037,0.019758174,-0.012126127,-0.07722831,-0.34476504,-0.019153614,-9.442732,0.800085,47.64479,-0.8938112,-2.5034392,-3.312877,-0.18475457,0.022002846,-0.053208567,28.5,29.75,28.8125,32.625,35.0,36.0
0.09405252,-0.2860914,-0.3116405,-1.3513043,-0.032594472,0.099635646,-0.15833093,-0.39114022,-0.3680581,0.059920684,-3.0783675,0.6242979,-0.0003908801,-0.041543204,0.014407852,0.00086979684,0.009652254,0.00032854645,0.019307572,0.5023065,-1.3792728,1.9013575,-2.0908554,-1.5709642,2.47695,-0.057425935,0.048345536,-0.06364956,0.019674785,-0.008753282,-0.07668437,-0.34476507,0.17238252,-9.423578,0.7911258,47.71823,-0.9466052,-2.580375,-3.3185654,-0.22376272,-0.014182883,-0.059390236,28.5,29.75,28.8125,32.625,35.0,36.0
0.09605261,-0.53266865,-1.0427586,-1.6019763,-0.03610251,0.07624023,-0.15115348,-0.39123875,-0.36800307,0.059916552,-3.0783162,0.62422955,-0.00030735735,-0.041630477,0.014231513,0.00053760724,0.008119499,-0.0018079377,0.017202422,0.5021744,-1.3791765,1.9012502,-2.0908434,-1.5710477,2.4767818,-0.058677103,0.049405016,-0.064317144,0.020401904,-0.0063813017,-0.075834826,-0.45968673,0.19153613,-9.385271,0.7732232,47.689575,-0.95558536,-2.383584,-3.3472342,-0.23097864,-0.023569958,-0.0751576,28.5,29.75,28.8125,32.625,35.0,36.0
0.0980516,0.18604064,-0.8922546,-1.7440349,-0.045241784,0.07609869,-0.15709555,-0.3913116,-0.36796242,0.059895534,-3.0782688,0.6242789,-0.0004061268,-0.042299025,0.013749884,-0.00025826786,0.007607408,-0.0029349786,0.01545127,0.5020305,-1.3790553,1.901141,-2.0907838,-1.5710353,2.4766748,-0.05908998,0.052471105,-0.065994084,0.019751199,-0.005400625,-0.07449693,-0.21068975,0.24899697,-9.461885,0.7172743,47.661808,-0.99602926,-2.6158497,-3.3843825,-0.24435546,-0.02938639,-0.09185131,28.5,29.75,28.8125,32.625,35.0,36.0
0.10005264,-0.23800294,-1.2172437,-1.7375829,-0.038142607,0.058378838,-0.14673004,-0.39141703,-0.36794657,0.059895232,-3.0783038,0.6242286,-0.00039060795,-0.043581694,0.01388051,0.0011495351,0.006654603,-1.6818256e-05,0.012594079,0.5018984,-1.3789238,1.9009861,-2.0907838,-1.5710233,2.476507,-0.060129296,0.050982162,-0.067418694,0.019650998,-0.005970562,-0.072677664,-0.17238252,0.30645782,-9.442732,0.8247004,47.68062,-1.0536858,-2.5076332,-3.3798869,-0.24575219,-0.045253634,-0.103491366,28.5,29.75,28.8125,32.625,35.0,36.0
0.1020516,0.22623877,-1.042042,-1.5560436,-0.038908213,0.073155895,-0.1558084,-0.39148915,-0.36790854,0.059914593,-3.0782835,0.62414885,-0.00036819183,-0.0442951,0.014424434,0.0010365483,0.007966666,-0.00011067535,0.0101050595,0.5017903,-1.3788753,1.9008654,-2.0906994,-1.5710601,2.4763517,-0.061008077,0.052071195,-0.0686449,0.020502906,-0.007076674,-0.07106447,-0.076614454,0.2681506,-9.385271,0.7709874,47.670765,-1.0242991,-2.4154568,-3.3755994,-0.24784808,-0.031330872,-0.14758648,28.5,29.75,28.8125,32.625,35.0,36.0
0.104052566,-0.08813085,-0.8562974,-1.6528279,-0.03591684,0.060078744,-0.14770447,-0.3915935,-0.36788243,0.05990509,-3.0782971,0.6241329,-0.00040954907,-0.045068365,0.014526134,0.0008926862,0.007923773,-0.00066545274,0.007940957,0.5016343,-1.3787307,1.9007105,-2.0906756,-1.5710357,2.4761841,-0.06206906,0.053575628,-0.07022978,0.021049086,-0.006775363,-0.06996108,0.0,0.28730422,-9.3661175,0.8112748,47.71286,-1.0402323,-2.4428427,-3.3672752,-0.26274922,-0.029666089,-0.1672678,28.5,29.75,28.8125,32.625,35.0,36.0
0.106051765,0.1991115,-0.60527396,-1.7127675,-0.032433953,0.058588017,-0.15330186,-0.39168364,-0.3678632,0.05990044,-3.0782788,0.62412953,-0.0004146515,-0.045674797,0.015146384,-0.00035915463,0.009455149,-0.002640989,0.006154586,0.501526,-1.3785974,1.900555,-2.0906389,-1.5710481,2.4760761,-0.06341712,0.05666867,-0.0711074,0.02130218,-0.007170917,-0.06952103,0.038307227,0.28730422,-9.404425,0.8291774,47.704796,-1.0453469,-2.5735059,-3.3739114,-0.26803488,-0.020270556,-0.22014463,28.5,29.75,28.8125,32.625,35.0,36.0
0.10805198,0.12811483,-1.2362192,-1.7714907,-0.02043038,0.050274376,-0.14288126,-0.3917768,-0.36783418,0.0598972,-3.078269,0.624127,-0.00037488306,-0.047436636,0.015470534,0.001108553,0.009057929,0.0012665001,0.0052236454,0.50140584,-1.3784896,1.9004349,-2.0906394,-1.5710725,2.4759557,-0.06462532,0.055416644,-0.07282314,0.020655518,-0.0087061245,-0.06979462,0.076614454,0.3256114,-9.442732,0.7642693,47.713753,-1.0440655,-2.5962582,-3.4130518,-0.273746,-0.02841084,-0.23205778,28.5,29.75,28.8125,32.625,35.0,36.0
0.110051915,0.34361592,-0.9581787,-1.7400072,-0.033564523,0.04207755,-0.1476827,-0.39186326,-0.36779588,0.059892908,-3.078257,0.62406605,-0.00041777044,-0.048471287,0.01639716,0.001070336,0.011034865,0.0018620082,0.005830247,0.5012618,-1.3783814,1.9003028,-2.0905793,-1.5710734,2.4757752,-0.0658683,0.056355014,-0.0740053,0.021332502,-0.010731255,-0.071639016,-0.038307227,0.30645782,-9.481039,0.7866488,47.677036,-1.0524389,-2.3808155,-3.427844,-0.28278214,0.006577989,-0.25280762,28.5,29.75,28.8125,32.625,35.0,36.0
0.1120518,-0.11245695,-1.1556227,-1.8136749,-0.027450887,0.028083632,-0.14382012,-0.39195237,-0.3677556,0.059880562,-3.0782056,0.624057,-0.00039819718,-0.04964469,0.01659958,0.0007294172,0.011189619,0.001143951,0.0027431063,0.5011413,-1.3782603,1.9001821,-2.0905554,-1.5711216,2.4756558,-0.06741179,0.058752876,-0.07618473,0.021813367,-0.010526742,-0.07009435,-0.038307227,0.3256114,-9.385271,0.83813137,47.71465,-1.0233822,-2.5670285,-3.380544,-0.29099834,0.02431959,-0.2918867,28.5,29.75,28.8125,32.625,35.0,36.0
0.11405184,0.004726656,-0.8943528,-1.7655402,-0.024157308,0.03187268,-0.14512935,-0.3920632,-0.36773577,0.0599112,-3.0782335,0.62404245,-0.00038372178,-0.050229892,0.016900985,0.00078841235,0.011313347,0.00092422444,0.0027093578,0.5009975,-1.378164,1.8999795,-2.090472,-1.5711092,2.4754994,-0.06844052,0.059332192,-0.077155344,0.022455819,-0.010530033,-0.071089156,0.0,0.21068975,-9.442732,0.8090337,47.737934,-1.0718516,-2.4355197,-3.393426,-0.31994295,0.03229736,-0.3504333,28.5,29.75,28.8125,32.625,35.0,36.0
0.11605188,-0.090750106,-0.71257544,-1.6880705,-0.014194127,0.037885256,-0.14023079,-0.3921636,-0.36771733,0.059897456,-3.07824,0.6240231,-0.00041165782,-0.051956255,0.015911903,0.0018986306,0.008296059,0.0026127824,0.0030182889,0.50086534,-1.3780075,1.8998226,-2.0904596,-1.5710963,2.4753544,-0.069495514,0.060257994,-0.08072079,0.022157777,-0.008705036,-0.07245529,-0.038307227,0.15322891,-9.423578,0.80456203,47.690468,-1.1095357,-2.4904778,-3.207961,-0.3109368,0.010977869,-0.34863383,28.5,29.75,28.8125,32.625,35.0,36.0
0.118052185,-0.23305446,-0.5415912,-1.7958276,-0.012404019,0.0467558,-0.14843206,-0.39227167,-0.36768967,0.059910644,-3.0782473,0.6239689,-0.0003610541,-0.051570658,0.015729146,0.0014152767,0.007548507,0.0010171041,0.00069281575,0.50073355,-1.3778993,1.8996562,-2.0904238,-1.5711201,2.475188,-0.06970088,0.0608674,-0.08036466,0.022225965,-0.0072794915,-0.07033847,-0.1340753,0.21068975,-9.423578,0.81351066,47.698532,-1.1336198,-2.439607,-3.3895042,-0.32868588,-0.019661859,-0.42836475,28.5,29.75,28.8125,32.625,35.0,36.0
0.12005216,-0.98360616,-0.3532425,-1.8552914,-0.018846337,0.050898623,-0.15154105,-0.39236465,-0.36765364,0.05990988,-3.078212,0.62394,-0.0003796729,-0.053793598,0.014781869,0.0018306269,0.0056316303,0.0018607408,0.002118721,0.50060135,-1.3777779,1.8994979,-2.0903518,-1.5711435,2.4750423,-0.07093655,0.064230524,-0.08527444,0.022104105,-0.006018371,-0.07300002,-0.1340753,0.24899697,-9.308657,0.8403672,47.694946,-1.1773984,-2.49221,-3.2272942,-0.3089258,-0.026444867,-0.4618716,28.5,29.75,28.8125,32.625,35.0,36.0
0.12205219,-0.5276655,-0.3793997,-1.9062251,-0.015790189,0.07381875,-0.14844114,-0.39246103,-0.3676169,0.05989418,-3.0781806,0.62393045,-0.00041263097,-0.05342168,0.014956735,0.0021029613,0.005449406,0.001734678,0.0059784064,0.50045776,-1.3776344,1.8993553,-2.0903156,-1.5711554,2.474897,-0.07100357,0.06301056,-0.08458049,0.022649014,-0.005800941,-0.07692753,-0.095768064,0.17238252,-9.3661175,0.7665104,47.67614,-1.2591023,-2.416596,-3.18607,-0.3194617,-0.029583715,-0.46911183,28.5,29.75,28.8125,32.625,35.0,36.0
0.12405212,-0.55373025,-0.84900457,-2.0494606,-0.022342654,0.08200678,-0.14137293,-0.39256665,-0.367593,0.05990448,-3.078193,0.6239133,-0.00042516127,-0.055319954,0.016334418,0.002340435,0.005766331,0.0020014532,0.006057497,0.5003126,-1.3775139,1.8991755,-2.090256,-1.571144,2.4747396,-0.07480098,0.063745156,-0.08617367,0.023425428,-0.0062116687,-0.08080246,-0.24899697,0.15322891,-9.5385,0.78888994,47.681515,-1.1344032,-2.3945959,-3.3419485,-0.33711907,-0.017127741,-0.46105957,28.5,29.75,28.8125,32.625,35.0,36.0
0.1260521,-0.79297996,-0.2710405,-1.7521253,-0.04552527,0.093002096,-0.16501667,-0.39269024,-0.36756435,0.05991646,-3.0781953,0.6238483,-0.00041571917,-0.054989386,0.015551476,0.0009916058,0.0085400315,9.436197e-05,0.016626094,0.50015783,-1.3773681,1.898959,-2.090183,-1.5711564,2.474544,-0.07220843,0.06808884,-0.08847892,0.024390735,-0.0077399677,-0.08877363,-0.30645782,0.11492168,-9.442732,0.7978386,47.690468,-1.3213288,-2.5710273,-3.250518,-0.36031747,-0.026141752,-0.42001778,28.5,29.75,28.8125,32.625,35.0,36.0
0.12805176,-0.96541494,-0.2942367,-1.8556166,-0.049129404,0.09470059,-0.15513596,-0.39281,-0.36754155,0.059922226,-3.078205,0.62388784,-0.0004130554,-0.056749653,0.016660571,0.002244823,0.0082075475,0.0031171283,0.018112065,0.5000013,-1.3772249,1.8987683,-2.0901482,-1.5711445,2.474411,-0.0749529,0.06631559,-0.08915509,0.02403033,-0.008902241,-0.09300163,-0.28730422,0.21068975,-9.5385,0.7530795,47.677036,-1.3351188,-2.466343,-3.2506125,-0.37956783,0.0038889775,-0.4025211,28.5,29.75,28.8125,32.625,35.0,36.0
0.1300521,-0.9361458,-0.3294291,-1.7323422,-0.04215865,0.106362,-0.15123782,-0.3929184,-0.36749414,0.059916396,-3.0781848,0.623763,-0.0004068886,-0.058456033,0.017890545,0.0020694027,0.009337858,0.0038847975,0.025328202,0.4998445,-1.3770922,1.8986133,-2.0901,-1.5711817,2.474179,-0.07772351,0.06762022,-0.09022608,0.02366014,-0.010275412,-0.10298446,-0.4213795,0.19153613,-9.519346,0.7866488,47.691364,-1.1407466,-2.3956523,-3.231712,-0.36512256,0.008476321,-0.32157087,28.4375,29.75,28.8125,32.625,35.0,36.0
0.13205221,-0.7584631,-0.47602513,-1.8465315,-0.033515956,0.11572653,-0.15756667,-0.39302632,-0.36746854,0.059907015,-3.0782006,0.62357134,-0.00045134054,-0.058250498,0.01673585,0.0019410009,0.008306768,0.003440563,0.030196171,0.49970138,-1.3769236,1.8984212,-2.0900404,-1.5711812,2.4739144,-0.07626149,0.06895397,-0.09148432,0.023473429,-0.00916724,-0.106391825,-0.4213795,0.095768064,-9.5385,0.800085,47.68062,-1.4830954,-2.4988737,-3.330791,-0.37721005,0.016373033,-0.27751032,28.4375,29.75,28.8125,32.625,35.0,36.0
0.1340521,-0.77659553,-0.038908917,-1.7148807,-0.04054278,0.116027534,-0.15998086,-0.39315483,-0.367433,0.059919126,-3.0781863,0.62358594,-0.00038674375,-0.059835333,0.016985388,0.0023707442,0.0064673326,0.0044747195,0.032190997,0.4995449,-1.3767915,1.898229,-2.0900047,-1.5712165,2.473769,-0.078812204,0.0694044,-0.0927911,0.022529311,-0.008053988,-0.110939406,-0.4405331,0.095768064,-9.442732,0.8247004,47.734352,-1.3594865,-2.3447626,-3.4012442,-0.36701554,-0.009662659,-0.22117612,28.4375,29.75,28.8125,32.625,35.0,36.0
0.13605198,-1.0427642,-0.025361493,-1.9186308,-0.031577207,0.10906938,-0.15675735,-0.39325607,-0.3674125,0.05991778,-3.078222,0.6233227,-0.00039091223,-0.061984222,0.016986487,0.0030828225,0.004781322,0.006396564,0.0331824,0.49942434,-1.3766469,1.8980497,-2.089957,-1.5712284,2.4734797,-0.081118025,0.070489995,-0.0955126,0.021664657,-0.00750615,-0.11423644,-0.47884035,0.11492168,-9.672575,0.800085,47.675243,-1.2688793,-2.318955,-3.1625803,-0.35287654,-0.029783063,-0.15746589,28.4375,29.75,28.8125,32.625,35.0,36.0
0.1380524,-1.0448922,-0.004324977,-1.9710394,-0.022079146,0.10166031,-0.15263364,-0.39336625,-0.36735186,0.059899688,-3.078192,0.62327737,-0.00046496934,-0.061905783,0.017525554,0.0023590657,0.004927972,0.005041297,0.032306142,0.49922037,-1.3765026,1.8979062,-2.089897,-1.5712279,2.4732513,-0.08224806,0.07109546,-0.0945159,0.021319134,-0.0069911946,-0.11449124,-0.51714754,0.05746084,-9.634268,0.83589023,47.690468,-1.3388295,-2.396902,-3.3816984,-0.33618936,-0.022034202,-0.1393597,28.4375,29.75,28.8125,32.625,35.0,36.0
0.1400523,-0.6016252,0.092363946,-1.7159797,-0.020855775,0.11143495,-0.15485565,-0.39352316,-0.3673348,0.05992263,-3.0782504,0.62327236,-0.00039062055,-0.06534282,0.01734471,0.0041334843,0.0025935685,0.008622151,0.026901988,0.49903956,-1.3763458,1.8976654,-2.0898855,-1.571216,2.4730601,-0.08528805,0.07227078,-0.09995848,0.02132522,-0.006656624,-0.112125985,-0.6512228,0.05746084,-9.519346,0.779936,47.6421,-1.1786339,-2.3706005,-3.2179475,-0.33690467,-0.03581146,-0.14882238,28.4375,29.75,28.8125,32.625,35.0,36.0
0.14205219,-0.58695334,0.25055945,-1.5843636,-0.009387887,0.11258047,-0.16223751,-0.39362332,-0.36729586,0.05992833,-3.0782502,0.6231396,-0.0003824935,-0.064445674,0.017093863,0.003100572,0.0034102143,0.0070401705,0.023779776,0.4988965,-1.3762374,1.8975104,-2.0898259,-1.5712398,2.4728343,-0.084046185,0.073507726,-0.098985076,0.020893365,-0.0066128997,-0.10776209,-0.63206923,-0.095768064,-9.404425,0.87617236,47.668976,-1.3919207,-2.3739944,-3.3895192,-0.32070783,-0.03671921,-0.17592007,28.4375,29.75,28.8125,32.625,35.0,36.0
0.14405224,-1.47936,-0.02399553,-1.644926,0.0046109958,0.09907288,-0.1391359,-0.39378193,-0.36726555,0.059949283,-3.0782795,0.6230918,-0.00028785062,-0.06741358,0.01922179,0.0034884615,0.0039695404,0.008507983,0.013820864,0.4987148,-1.3760808,1.8972715,-2.089802,-1.5712646,2.4726193,-0.089585364,0.07427757,-0.10079476,0.020914752,-0.0077997968,-0.10333934,-0.59376204,-0.038307227,-9.481039,0.78888994,47.698532,-1.1856369,-2.2935684,-3.2923064,-0.30804402,-0.05127888,-0.25305927,28.4375,29.75,28.8125,32.625,35.0,36.0
0.14605245,-0.8858568,0.7181837,-1.5126619,-0.0093871495,0.112796545,-0.1482264,-0.3939061,-0.36723593,0.05994235,-3.0782902,0.62309283,-0.00032801018,-0.06754815,0.018900381,0.0033291476,0.0042332252,0.008265008,0.013079667,0.4985355,-1.3759124,1.8970793,-2.0897658,-1.5712403,2.4724393,-0.08906812,0.075419985,-0.10185944,0.021178793,-0.007916308,-0.102079995,-0.5554548,0.0,-9.442732,0.8247004,47.70211,-1.2836654,-2.2613916,-3.334625,-0.3018991,-0.05468117,-0.30152613,28.4375,29.75,28.8125,32.625,35.0,36.0
0.14805186,-1.073589,-0.28656563,-1.6662339,0.005758484,0.10720609,-0.14289601,-0.39404595,-0.36720043,0.059947357,-3.0783067,0.6230391,-0.0002902728,-0.06914574,0.02040494,0.0025691253,0.0050577773,0.0070821764,0.010731522,0.49835446,-1.3757555,1.8968762,-2.0897415,-1.5712522,2.4722228,-0.09293797,0.07755515,-0.10270733,0.02132178,-0.008074602,-0.10360089,-0.45968673,0.095768064,-9.3661175,0.77545905,47.67614,-1.2050112,-2.343263,-3.3393507,-0.28247982,-0.03358598,-0.30929005,28.4375,29.75,28.8125,32.625,35.0,36.0
0.15005198,-1.563607,-0.45590705,-1.5287662,-0.0068283905,0.09203775,-0.13856941,-0.39419144,-0.36716637,0.0599556,-3.0783126,0.6229447,-0.00022715489,-0.070833676,0.021389734,0.0029920659,0.0051710433,0.008284629,0.0086185,0.4981858,-1.3755873,1.8966497,-2.0897057,-1.5712885,2.4719946,-0.095693916,0.077853695,-0.10404181,0.021352611,-0.008748973,-0.104242004,-0.59376204,0.019153614,-9.3661175,0.77545905,47.64837,-1.1393093,-2.3067925,-3.4240112,-0.27967155,-0.046392214,-0.3311884,28.4375,29.75,28.8125,32.625,35.0,36.0
0.15205193,-0.8706196,0.16031227,-1.4630176,-0.026964428,0.101488635,-0.15561551,-0.39434856,-0.3671076,0.059984807,-3.0783021,0.6229818,-0.00017412195,-0.072393194,0.021926804,0.0028538369,0.0056397626,0.008419217,0.005937041,0.49795762,-1.3754665,1.8964208,-2.0896218,-1.5713128,2.471791,-0.0976979,0.079929665,-0.10625277,0.021590948,-0.009225269,-0.10356256,-0.5746084,0.05746084,-9.404425,0.8112748,47.677036,-0.98770773,-2.3839955,-3.3499382,-0.2633118,-0.04528772,-0.3731972,28.4375,29.75,28.8125,32.625,35.0,36.0
0.15405229,-1.2406836,-0.08904911,-1.7124087,-0.02453433,0.088443235,-0.14942439,-0.39447343,-0.36705235,0.059958056,-3.078253,0.6229322,-0.00022437518,-0.07366377,0.023196645,0.0025902092,0.0064817076,0.0078728665,0.0055039176,0.497765,-1.3752741,1.8962425,-2.089574,-1.5713371,2.4715738,-0.10066703,0.08101901,-0.107106164,0.022233024,-0.00971185,-0.10609653,-0.4405331,0.05746084,-9.442732,0.78217715,47.694946,-0.9407194,-2.2402241,-3.363928,-0.26678547,-0.04405054,-0.3694157,28.4375,29.75,28.8125,32.625,35.0,36.0
0.15605235,-1.2788916,-0.026926944,-1.4985143,-0.029219756,0.08494807,-0.15239196,-0.39462098,-0.36700442,0.059971485,-3.0782602,0.62293327,-0.00021204066,-0.07453733,0.023627592,0.002478118,0.0063704974,0.0072077974,0.0032351606,0.49754888,-1.3751293,1.8960265,-2.0895135,-1.5713371,2.4713576,-0.10241519,0.082191445,-0.108401045,0.022883613,-0.009295675,-0.10557633,-0.57460845,0.019153614,-9.442732,0.8179876,47.679718,-0.89560914,-2.2069147,-3.3915055,-0.24029969,-0.033126548,-0.4016502,28.4375,29.75,28.8125,32.625,35.0,36.0
0.15805176,-0.8263316,-0.38306734,-1.5069233,-0.01733035,0.102493964,-0.14679843,-0.3947789,-0.366957,0.05997483,-3.078233,0.622866,-0.000112210066,-0.07498832,0.024086265,0.0020105257,0.0068857977,0.0063536847,0.009379269,0.49736884,-1.3749487,1.895799,-2.0894897,-1.5714091,2.4711392,-0.10353413,0.08341718,-0.10885333,0.023092553,-0.009343435,-0.11283918,-0.5746084,-0.019153614,-9.423578,0.74413085,47.67345,-0.8738856,-2.2663786,-3.4302492,-0.23459888,-0.04833889,-0.37868795,28.4375,29.75,28.8125,32.625,35.0,36.0
0.16005181,-0.9153102,0.04555275,-1.3594375,-0.016454305,0.11539973,-0.15167598,-0.39492878,-0.36690593,0.0599614,-3.0782316,0.6227857,-0.00011676805,-0.07672926,0.024163011,0.0023305411,0.006416982,0.0075080884,0.013080645,0.4971528,-1.3747557,1.895595,-2.0894654,-1.571421,2.4708734,-0.10512994,0.085082375,-0.11151871,0.022847991,-0.009492994,-0.11813462,-0.4405331,-0.019153614,-9.346964,0.83813137,47.67793,-0.8399631,-2.3942122,-3.400147,-0.22961241,-0.05480303,-0.33465648,28.4375,29.75,28.8125,32.625,35.0,36.0
0.16205214,-0.5755829,0.40569624,-1.271838,-0.022190858,0.11974775,-0.16289325,-0.39509052,-0.36686596,0.05998693,-3.0782676,0.622768,-6.0039903e-05,-0.077039056,0.024136068,0.0030508335,0.0053894846,0.008477797,0.02043783,0.496937,-1.3746122,1.8953556,-2.0894177,-1.5714206,2.470642,-0.10560012,0.08391916,-0.11180896,0.022950111,-0.009051071,-0.12596348,-0.34476504,0.05746084,-9.308656,0.8090337,47.687782,-0.86710906,-2.306003,-3.4896588,-0.21984068,-0.06943208,-0.26057476,28.4375,29.75,28.8125,32.625,35.0,36.0
0.16405223,-0.7738499,-0.1978314,-1.3278408,-0.012497314,0.10799108,-0.15562429,-0.39525434,-0.36681256,0.05999142,-3.0782747,0.6227259,-6.24801e-05,-0.07771613,0.024264028,0.0018159403,0.006535455,0.0062461738,0.028110063,0.4966973,-1.3744307,1.8951162,-2.089358,-1.571421,2.4703753,-0.10642472,0.08782202,-0.11377914,0.023517122,-0.009002677,-0.1344591,-0.3256114,0.11492168,-9.251195,0.81351066,47.733456,-0.89095753,-2.291234,-3.3172235,-0.17503181,-0.05945597,-0.2061598,28.4375,29.75,28.8125,32.625,35.0,36.0
0.16605222,-0.8484388,-0.7408714,-1.567785,-0.0027214633,0.08649201,-0.139346,-0.3953966,-0.36676013,0.059978914,-3.0782676,0.6226272,-5.5280063e-05,-0.07871859,0.024355898,0.0027510838,0.0062778965,0.008089984,0.029332975,0.49649367,-1.3742508,1.8949255,-2.0893338,-1.5714449,2.4701111,-0.10705206,0.08730448,-0.115391836,0.023899602,-0.009659681,-0.13630734,-0.17238252,0.15322891,-9.232041,0.8224646,47.675243,-0.9840373,-2.2689674,-3.519231,-0.18630552,-0.03820465,-0.11237709,28.4375,29.75,28.8125,32.625,35.0,36.0
0.16805232,-0.50167394,-0.8088053,-1.5438961,-0.0026378238,0.06518815,-0.14203279,-0.39557254,-0.36672786,0.0600071,-3.078324,0.62254,1.45873755e-05,-0.079526454,0.023610048,0.0025743875,0.0063905753,0.008046269,0.0318219,0.49627832,-1.3740816,1.8946494,-2.0892856,-1.5714449,2.4698343,-0.10644663,0.09006815,-0.118351005,0.024184138,-0.009735998,-0.1381897,-0.17238252,0.19153613,-9.251195,0.7597976,47.689575,-1.1208007,-2.381342,-3.3700757,-0.15966868,-0.062715456,-0.06836,28.4375,29.75,28.8125,32.625,35.0,36.0
0.17005248,0.052713193,-0.439422,-1.5592645,-0.015330398,0.053415067,-0.14943619,-0.39574063,-0.36664957,0.060002882,-3.0782728,0.62247443,7.205887e-05,-0.0810681,0.024256108,0.0024747031,0.007063612,0.008401723,0.025861083,0.49603787,-1.3739008,1.8944334,-2.089238,-1.5715173,2.4695597,-0.1084265,0.091907255,-0.12036365,0.024359172,-0.010499364,-0.13420601,-0.17238252,0.17238252,-9.346964,0.8314132,47.661808,-0.8970258,-2.2446551,-3.3368077,-0.15119986,-0.03613873,-0.11563449,28.4375,29.75,28.8125,32.625,35.0,36.0
0.17205249,0.0066228723,-0.7275505,-1.6195278,-0.013167538,0.04937326,-0.1331017,-0.39589888,-0.36660305,0.060006298,-3.0782716,0.62239945,6.964653e-05,-0.08165317,0.0246998,0.0027702178,0.007496363,0.008684349,0.019691242,0.49582234,-1.3737087,1.8941811,-2.0891664,-1.5715293,2.4692976,-0.10934589,0.09193077,-0.121269695,0.025201429,-0.011011851,-0.12895413,-0.24899697,0.19153613,-9.308657,0.8247004,47.688675,-1.1026065,-2.339373,-3.3235765,-0.12397617,-0.040462065,-0.15132236,28.4375,29.75,28.8125,32.625,35.0,36.0
0.17405254,0.24359444,-0.69284517,-1.5794103,-0.023288602,0.055927403,-0.15226756,-0.39605856,-0.3665594,0.059997037,-3.0782692,0.6223445,0.000101854144,-0.0821359,0.025386754,0.0011108269,0.008937374,0.0043391176,0.012973204,0.49561778,-1.373503,1.8939546,-2.089153,-1.5715531,2.4690592,-0.11139944,0.09621335,-0.123060904,0.027213527,-0.010207513,-0.12429024,-0.17238252,0.2681506,-9.32781,0.8090337,47.711964,-0.8229299,-2.3951356,-3.217555,-0.11211042,-0.015900502,-0.22992362,28.4375,29.75,28.8125,32.625,35.0,36.0
0.17605264,-0.14371556,-0.92829424,-1.7104512,-0.022918787,0.052457936,-0.14046548,-0.3962137,-0.36651787,0.06000384,-3.0782626,0.62228644,9.7258446e-05,-0.08331239,0.025787042,0.0024410253,0.008706009,0.0060590347,0.008382217,0.4954139,-1.373311,1.8936919,-2.0890687,-1.5715655,2.46882,-0.1127217,0.09509804,-0.125129,0.02877534,-0.010822189,-0.121019624,-0.11492168,0.28730422,-9.3661175,0.80679786,47.668976,-0.96734947,-2.303099,-3.434842,-0.11646798,-0.03634445,-0.31628305,28.4375,29.75,28.8125,32.625,35.0,36.0
0.17805259,-0.030620221,-0.6558421,-1.4038426,-0.04161852,0.062180847,-0.15281568,-0.3963798,-0.36643815,0.060001153,-3.078217,0.6222578,8.773988e-05,-0.08343753,0.02602452,0.0009513623,0.009857906,0.002746563,0.0056713135,0.4951502,-1.3731298,1.8934635,-2.0889847,-1.5716008,2.4685445,-0.11353616,0.09871818,-0.1262871,0.029767904,-0.010264841,-0.11912308,-0.11492168,0.30645782,-9.251195,0.8090337,47.661808,-0.9954841,-2.342802,-3.4099603,-0.12370608,-0.01864618,-0.3470178,28.4375,29.75,28.8125,32.625,35.0,36.0
0.1800526,-0.31422755,-1.1134936,-1.5961008,-0.033010792,0.055409655,-0.14193264,-0.3965319,-0.366409,0.05998924,-3.0782118,0.62219995,8.535977e-05,-0.0852318,0.026096463,0.0028646516,0.007735736,0.0058611217,0.0025141265,0.49497,-1.3729022,1.8932117,-2.088949,-1.5716132,2.468329,-0.11548741,0.09697959,-0.1286761,0.030143153,-0.00988212,-0.11791728,-0.019153614,0.28730422,-9.270349,0.82022345,47.655537,-1.0601227,-2.3905535,-3.2709298,-0.10798833,-0.04648933,-0.40938056,28.4375,29.75,28.8125,32.625,35.0,36.0
0.18205255,0.16427776,-0.9361803,-1.7195607,-0.034643814,0.059016883,-0.14357911,-0.39672568,-0.36635756,0.060014486,-3.078237,0.62222224,0.00013867395,-0.08521534,0.025025558,0.001960614,0.008229119,0.003936179,0.0038029584,0.49470687,-1.3727206,1.8929247,-2.0888884,-1.5716132,2.4680767,-0.11391925,0.10075191,-0.13129887,0.030918017,-0.009400488,-0.11763789,0.05746084,0.2681506,-9.289502,0.8224646,47.67345,-1.0755842,-2.4183419,-3.2560363,-0.09800264,-0.03093576,-0.47023678,28.4375,29.75,28.8125,32.625,35.0,36.0
0.18405256,0.28386593,-0.5005154,-1.8114517,-0.04353053,0.052928932,-0.15588403,-0.3968835,-0.36629376,0.06000272,-3.0781808,0.62217164,0.00010213949,-0.08731968,0.026575694,0.0021855114,0.008304267,0.003939098,0.0017673292,0.49447796,-1.3725042,1.8926724,-2.088793,-1.571649,2.4678235,-0.118346386,0.10164214,-0.13310125,0.031855058,-0.009478526,-0.12002796,0.0,0.30645782,-9.346964,0.8179876,47.723602,-1.0685731,-2.5354586,-3.1773248,-0.08592206,-0.038205907,-0.483317,28.4375,29.75,28.8125,32.625,35.0,36.0
0.18605179,0.77918303,-0.6472244,-1.6517444,-0.039450105,0.06398736,-0.15183288,-0.39708045,-0.36627564,0.060028832,-3.0782318,0.62213755,0.00021139863,-0.08695036,0.025215972,0.0017951764,0.008519029,0.003068559,0.011151459,0.49427545,-1.372287,1.8923491,-2.0887682,-1.5716609,2.4675934,-0.11581321,0.10406177,-0.1352441,0.03243597,-0.009252452,-0.12687904,-0.076614454,0.24899697,-9.404425,0.78888994,47.71286,-1.1744334,-2.559227,-3.1574817,-0.08329518,-0.061443195,-0.49297175,28.4375,29.75,28.8125,32.625,35.0,36.0
0.18805179,0.3583507,-0.68896997,-1.6880252,-0.03492316,0.055402614,-0.15637015,-0.3972102,-0.36620036,0.059983764,-3.0781622,0.6220995,3.7894202e-05,-0.08792917,0.02562084,0.001727193,0.008875064,0.0031433403,0.018024782,0.49402347,-1.3720585,1.8921579,-2.0886724,-1.571649,2.4673266,-0.117111206,0.10529126,-0.13663346,0.032691825,-0.009627166,-0.13504764,-0.038307227,0.36391866,-9.346964,0.7866488,47.679718,-1.1477903,-2.527151,-3.1492589,-0.063298754,-0.065540686,-0.43253976,28.4375,29.75,28.8125,32.625,35.0,36.0
0.19005187,0.004652786,-0.83668786,-1.6874672,-0.041230682,0.06326295,-0.14879817,-0.3974175,-0.36615655,0.060016852,-3.0781887,0.6220204,0.00014338622,-0.08845119,0.026288765,0.0016694344,0.0090615405,0.0020839963,0.028237771,0.49378347,-1.3718542,1.8918232,-2.0886004,-1.5716847,2.467034,-0.11885817,0.10577643,-0.13738507,0.03395962,-0.009288629,-0.14700869,-0.019153614,0.3256114,-9.385271,0.83813137,47.668976,-1.179875,-2.4706995,-3.1403098,-0.062160984,-0.05276202,-0.30811912,28.4375,29.75,28.8125,32.625,35.0,36.0
0.19205183,-0.23921144,-1.2118735,-1.8009464,-0.032260753,0.065797575,-0.14019528,-0.39759114,-0.36609894,0.060016107,-3.078182,0.6218803,0.00013579387,-0.08895537,0.026343549,0.001599506,0.008561103,0.0014372119,0.03407004,0.49354354,-1.3716376,1.891548,-2.0885165,-1.5717086,2.4667077,-0.11981367,0.10670055,-0.13845173,0.03441962,-0.008551908,-0.15379737,-0.095768064,0.28730422,-9.423578,0.84484416,47.67345,-1.1470498,-2.4625733,-3.1703384,-0.067665905,-0.065093815,-0.23355944,28.4375,29.75,28.8125,32.625,35.0,36.0
0.19405173,-0.23489106,-0.77916527,-1.6853237,-0.046883684,0.079605974,-0.1588998,-0.39777339,-0.36603868,0.060024664,-3.078198,0.6218233,0.00020115016,-0.08954055,0.027060237,0.001392103,0.009134737,0.0007466033,0.037148934,0.49329153,-1.3714571,1.8913082,-2.0884922,-1.5717324,2.4664183,-0.121385336,0.10741473,-0.1390091,0.03513297,-0.008728143,-0.15844762,-0.1340753,0.30645782,-9.442732,0.8224646,47.70659,-1.1250398,-2.4425507,-3.1770315,-0.05563771,-0.07220496,-0.17590187,28.4375,29.75,28.8125,32.625,35.0,36.0
0.19605158,0.46323618,-0.19315955,-1.4827209,-0.05557646,0.10780024,-0.16073029,-0.39795443,-0.36600336,0.06002023,-3.0781999,0.6216887,0.00018294435,-0.09164516,0.02718944,0.002644707,0.008695274,0.0030281579,0.036264494,0.49307543,-1.3711927,1.8909844,-2.0884082,-1.5717448,2.466118,-0.12302306,0.10800252,-0.14280604,0.036122434,-0.009432176,-0.15919775,-0.15322891,0.17238252,-9.404425,0.82022345,47.67345,-1.174336,-2.4260979,-3.2183824,-0.06373629,-0.07328802,-0.1462246,28.4375,29.75,28.8125,32.625,35.0,36.0
0.19805257,-0.8572288,-0.32890332,-1.7072257,-0.030495172,0.077362865,-0.1409763,-0.39812282,-0.36595163,0.060021244,-3.0782127,0.62157863,0.00016422404,-0.09098336,0.028061787,0.0013816298,0.009818817,0.00023994359,0.028565364,0.4928357,-1.3709881,1.8907222,-2.0883358,-1.5717448,2.4658082,-0.12404306,0.10887273,-0.14108095,0.03651864,-0.009096048,-0.15251982,-0.32561144,0.15322891,-9.308656,0.8224646,47.698532,-1.1583397,-2.4009361,-3.3674393,-0.041433215,-0.07710901,-0.19023302,28.4375,29.75,28.8125,32.625,35.0,36.0
0.20005253,0.09473687,0.36283118,-1.5614674,-0.02320774,0.10223684,-0.16051626,-0.39830393,-0.36591518,0.06003779,-3.0782585,0.62151384,0.00016467995,-0.091449164,0.029158862,0.00046347687,0.010954465,-0.001801871,0.021567935,0.49259546,-1.3707837,1.8904246,-2.0882638,-1.571721,2.4655218,-0.12623344,0.110514335,-0.14114165,0.037280403,-0.009123959,-0.14771272,-0.4405331,0.038307227,-9.442732,0.80679786,47.687782,-1.1159081,-2.3718789,-3.4252906,-0.039962057,-0.11377648,-0.26170254,28.4375,29.75,28.8125,32.625,35.0,36.0
0.20205256,-0.17561167,0.5066257,-1.434683,-0.004486532,0.09968706,-0.15018116,-0.39849737,-0.36583304,0.060025323,-3.0781898,0.62150025,0.0001781527,-0.09126307,0.03030997,-0.0002468114,0.012357727,-0.0041315155,0.017825589,0.49231943,-1.370543,1.89015,-2.0881917,-1.571781,2.4652462,-0.12785496,0.11099458,-0.14047636,0.03884265,-0.009260213,-0.14559162,-0.38307226,-0.15322891,-9.423578,0.88960326,47.71017,-1.0123155,-2.4728262,-3.532844,-0.068419434,-0.08767085,-0.3058944,28.4375,29.75,28.8125,32.625,35.0,36.0
0.20405243,-1.0161997,0.5210391,-1.6489713,0.015550599,0.08216771,-0.13928577,-0.3986834,-0.36577764,0.060012706,-3.0781934,0.62146336,0.000109230285,-0.09333924,0.031169131,-0.00021952836,0.012418073,-0.0038126344,0.014120503,0.49204284,-1.3702902,1.889861,-2.0881197,-1.5717567,2.4649463,-0.13098373,0.11300868,-0.14303029,0.039132457,-0.009476383,-0.14501326,-0.4213795,-0.15322891,-9.404425,0.82022345,47.731667,-1.0042815,-2.3848317,-3.4474273,-0.05199477,-0.094401106,-0.34378037,28.4375,29.75,28.8125,32.625,35.0,36.0
0.20605232,-0.24363948,1.3487663,-1.4226459,0.021400008,0.108613,-0.14614208,-0.39888194,-0.3657079,0.06001378,-3.0781622,0.62139624,0.000113464936,-0.09289842,0.029930685,0.0006137324,0.011424712,-0.0024968493,0.01613443,0.49176848,-1.3700503,1.889551,-2.088024,-1.571793,2.4646342,-0.12859742,0.112190716,-0.1440105,0.039293513,-0.009229755,-0.14464103,-0.51714754,-0.30645782,-9.3661175,0.83589023,47.694946,-1.1610042,-2.3330746,-3.6399984,-0.036091983,-0.1146389,-0.36055124,28.4375,29.75,28.8125,32.625,35.0,36.0
0.20805223,-0.57972085,0.8261285,-1.6576252,0.038073417,0.10767492,-0.14220417,-0.39905697,-0.36567333,0.060008153,-3.078191,0.62132376,0.00013816726,-0.093536705,0.030910466,0.00016409461,0.013196525,-0.0050314143,0.016689578,0.4915521,-1.3698212,1.8892878,-2.088011,-1.571793,2.464369,-0.13054052,0.11418903,-0.14611106,0.042463332,-0.009593171,-0.14713784,-0.47884035,-0.2681506,-9.404425,0.83813137,47.691364,-1.0205206,-2.40318,-3.5608106,-0.05601271,-0.102735244,-0.37936592,28.4375,29.75,28.8125,32.625,35.0,36.0
0.21005231,-0.40730217,0.86562157,-1.3640147,0.03444259,0.115579404,-0.15224777,-0.39921883,-0.36560196,0.059991185,-3.0781212,0.62118924,1.514312e-05,-0.09408939,0.03068314,0.0008648716,0.013092545,-0.0053655077,0.02321298,0.49130067,-1.369569,1.8889874,-2.0878422,-1.5718168,2.4640427,-0.13074516,0.11471433,-0.14892618,0.044984676,-0.009370583,-0.15386437,-0.49799395,-0.30645782,-9.3661175,0.80679786,47.687782,-1.2153018,-2.2922606,-3.4639368,-0.074426174,-0.13653977,-0.35292143,28.4375,29.75,28.8125,32.625,35.0,36.0
0.21205243,-0.581277,0.7951433,-1.6132292,0.038257994,0.116145864,-0.15077056,-0.39941967,-0.36554283,0.060008403,-3.0781493,0.62116915,2.866327e-05,-0.09453229,0.03168016,0.0015590914,0.014029303,-0.006882038,0.03097684,0.49101266,-1.3693649,1.8886884,-2.0877693,-1.5718049,2.4637387,-0.13268237,0.11418757,-0.15085037,0.04920389,-0.0094841635,-0.16356511,-0.49799395,-0.28730422,-9.442732,0.84708,47.70211,-1.1981663,-2.2138343,-3.4482775,-0.12686461,-0.12815158,-0.25573742,28.4375,29.75,28.8125,32.625,35.0,36.0
0.2140524,-0.7005537,0.38292745,-2.043749,0.02906738,0.10572504,-0.14364018,-0.39962652,-0.36547592,0.060026553,-3.0781467,0.6210675,7.439563e-05,-0.09560087,0.03323823,-2.4118182e-05,0.016646227,-0.009741912,0.037868973,0.4907363,-1.3691472,1.8883656,-2.0876725,-1.5718416,2.4633994,-0.13559806,0.11793303,-0.15199827,0.05034611,-0.010454924,-0.17336987,-0.45968673,-0.22984336,-9.461885,0.8224646,47.687782,-1.1448834,-2.3626819,-3.4377816,-0.16168457,-0.123835936,-0.14703885,28.4375,29.75,28.8125,32.625,35.0,36.0
0.21605226,-0.8225025,0.008675438,-1.9128194,0.003679305,0.10679904,-0.13657402,-0.39980718,-0.36540282,0.060016435,-3.0781167,0.6208845,3.5866462e-05,-0.096331224,0.033129405,0.000851763,0.016136443,-0.00849349,0.04257692,0.4904727,-1.3689073,1.8880781,-2.0875642,-1.5718774,2.4630256,-0.1359173,0.11751842,-0.15368904,0.051096093,-0.010614703,-0.1783956,-0.59376204,-0.19153613,-9.576807,0.88289046,47.683304,-1.1134372,-2.2457478,-3.4724226,-0.17335166,-0.13714261,-0.06641149,28.4375,29.75,28.8125,32.625,35.0,36.0
0.21805239,-0.70644176,-0.3132317,-1.8866633,-0.02521532,0.11839479,-0.14646553,-0.4000082,-0.36533698,0.060027596,-3.078119,0.6207355,4.1435927e-05,-0.09743141,0.034803018,0.00017321442,0.018407054,-0.011419432,0.035518903,0.49019578,-1.3686782,1.8877548,-2.087456,-1.5719012,2.4626555,-0.13926628,0.11992079,-0.15579386,0.05444861,-0.011240371,-0.17468403,-0.7661445,-0.019153614,-9.653421,0.7463667,47.707485,-1.0011966,-2.3878076,-3.4397216,-0.22318643,-0.1102387,-0.058793932,28.4375,29.75,28.8125,32.625,35.0,36.0
0.22005224,-0.79812115,-0.64936775,-1.8719169,-0.045537923,0.12716888,-0.14291535,-0.4001937,-0.3652433,0.060031936,-3.0780385,0.62070143,2.5925448e-05,-0.097359724,0.035049416,-0.0005131288,0.020148948,-0.012827638,0.030079374,0.4899088,-1.3684735,1.8874682,-2.087312,-1.5719618,2.4623578,-0.13901117,0.12168399,-0.1566086,0.055559028,-0.012124434,-0.16898607,-0.7661445,0.095768064,-9.576807,0.88960326,47.690468,-1.0859122,-2.2975116,-3.4331293,-0.2722643,-0.12331946,-0.100966536,28.4375,29.75,28.8125,32.625,35.0,36.0
0.2220524,-1.1779745,-1.4581035,-1.9397473,-0.04205503,0.12570366,-0.14008325,-0.40039912,-0.36518234,0.06001042,-3.0780165,0.6205836,-6.2795276e-05,-0.09922971,0.033994105,0.0005140035,0.018315844,-0.0108464025,0.022729123,0.4896213,-1.3681605,1.8871192,-2.0872042,-1.5719613,2.4619997,-0.13926667,0.123501286,-0.16118196,0.05570767,-0.011458607,-0.1618902,-0.7086837,0.21068975,-9.615114,0.85155696,47.691364,-1.1419181,-2.1653123,-3.2658625,-0.29946548,-0.12559974,-0.19415525,28.4375,29.75,28.8125,32.625,35.0,36.0
0.2240523,-0.92961556,-1.5100678,-1.8553921,-0.052098263,0.13573332,-0.14319186,-0.4006007,-0.3651116,0.060029123,-3.0779915,0.6206204,-9.600664e-05,-0.10115156,0.03393006,0.0007863505,0.018077847,-0.009681408,0.013895877,0.48932156,-1.3679434,1.8867849,-2.0870602,-1.5719618,2.4617262,-0.1406053,0.12588502,-0.16466185,0.055670917,-0.0118053835,-0.15439272,-0.5746084,0.21068975,-9.672575,0.8873621,47.69763,-1.1021738,-2.2637682,-3.257457,-0.32966554,-0.12813564,-0.28986073,28.4375,29.75,28.8125,32.625,35.0,36.0
0.22605218,-0.9501096,-1.4446893,-1.6907877,-0.0539943,0.11869363,-0.1457428,-0.40081576,-0.3650263,0.060031027,-3.0779533,0.6205362,-5.4074415e-05,-0.10138036,0.03398639,-0.00054891175,0.017975155,-0.011380093,0.010212315,0.48902193,-1.3677024,1.886474,-2.0869768,-1.5720214,2.461379,-0.14137976,0.12855676,-0.16453935,0.054316014,-0.010923589,-0.15148532,-0.45968673,0.2873042,-9.615114,0.88289046,47.696735,-1.1416117,-2.3459668,-3.2421596,-0.3482353,-0.1391886,-0.34673786,28.4375,29.75,28.8125,32.625,35.0,36.0
0.2280524,-0.5506867,-1.2133477,-1.645094,-0.05621602,0.11085815,-0.14544371,-0.4010311,-0.36495697,0.06003463,-3.0779088,0.6205468,-4.7146095e-05,-0.10311517,0.03355204,0.0003003022,0.016653609,-0.008297106,0.0065849954,0.48873428,-1.367438,1.8861259,-2.0868704,-1.5720571,2.461104,-0.14195399,0.12919727,-0.1668972,0.052687597,-0.011218512,-0.14843017,-0.4405331,0.47884035,-9.481039,0.8627467,47.71286,-1.1900606,-2.2643192,-3.2118955,-0.33936283,-0.11558767,-0.46377438,28.4375,29.75,28.8125,32.625,35.0,36.0
0.2300523,-0.2220771,-1.0695922,-1.5086612,-0.057829008,0.09466886,-0.14696752,-0.40124714,-0.3648979,0.060054224,-3.0779245,0.62050825,-6.139972e-05,-0.10453398,0.033783317,0.00031884076,0.016922014,-0.00779047,0.008087242,0.48843452,-1.3671969,1.8857664,-2.0867503,-1.5720462,2.4607782,-0.14323835,0.13111961,-0.1692977,0.05284088,-0.011706121,-0.15121435,-0.22984336,0.4213795,-9.481039,0.7866488,47.705692,-1.2042716,-2.3556933,-3.159196,-0.36122876,-0.122520864,-0.5109622,28.4375,29.75,28.8125,32.625,35.0,36.0
0.23205212,-0.15544969,-1.1639347,-1.5399729,-0.063937195,0.08215101,-0.14282793,-0.40146124,-0.36483932,0.060061198,-3.077919,0.6204812,-2.5275007e-05,-0.106227696,0.033194944,0.00030608478,0.015517829,-0.004903041,0.017762495,0.48815894,-1.366944,1.8854326,-2.0866807,-1.57207,2.4604867,-0.14360997,0.13301869,-0.17073485,0.04915057,-0.011845639,-0.16125995,-0.24899697,0.4405331,-9.404425,0.8291774,47.694946,-1.2251278,-2.3311336,-3.2644737,-0.34297583,-0.14912407,-0.44892704,28.4375,29.75,28.8125,32.625,35.0,36.0
0.23405206,0.1465154,-1.5677602,-1.462518,-0.062008396,0.0872757,-0.14104006,-0.4017035,-0.3647605,0.060063686,-3.077892,0.62037283,2.9618344e-05,-0.106793545,0.03422554,-0.0016477528,0.016889041,-0.006804179,0.028444022,0.4878467,-1.3666549,1.8850626,-2.0865967,-1.5721301,2.4601104,-0.14555298,0.13625896,-0.16976921,0.047237094,-0.012186484,-0.17388338,-0.11492168,0.4405331,-9.404425,0.8157518,47.691364,-1.1209066,-2.3475504,-3.2886524,-0.314453,-0.12462357,-0.3442799,28.4375,29.75,28.8125,32.625,35.0,36.0
0.23605211,0.5962604,-0.9331605,-1.2912536,-0.085133806,0.09539401,-0.15412065,-0.40192243,-0.36469877,0.060072113,-3.0778978,0.6203098,1.3120296e-05,-0.10858126,0.034621503,-0.00013547504,0.014263738,-0.0034163278,0.03611707,0.48754683,-1.3663912,1.884704,-2.08649,-1.5721296,2.4597707,-0.14817229,0.13424928,-0.17049721,0.045731384,-0.011477272,-0.18417747,-0.019153614,0.4213795,-9.346964,0.8179876,47.699425,-1.2355201,-2.3718438,-3.3494363,-0.30766165,-0.14304036,-0.23247227,28.4375,29.75,28.8125,32.625,35.0,36.0
0.23805214,0.18442357,-1.3452245,-1.2507573,-0.07144855,0.079606555,-0.14607596,-0.4021386,-0.3646365,0.060069803,-3.0778964,0.6202101,5.8806596e-05,-0.10926389,0.034657795,-0.0012918642,0.015004901,-0.005159163,0.04163868,0.48727107,-1.3661255,1.8843807,-2.0864418,-1.5721654,2.459433,-0.14886066,0.13784526,-0.17219496,0.04570117,-0.01132789,-0.19038683,0.0,0.34476504,-9.308657,0.7396539,47.70032,-1.1067531,-2.4921346,-3.4033856,-0.30051926,-0.13837165,-0.18395022,28.4375,29.75,28.8125,32.625,35.0,36.0
0.2400522,0.5470793,-0.78816867,-1.0060617,-0.066355884,0.07080319,-0.14795573,-0.4023773,-0.3645543,0.06007229,-3.0779002,0.6201352,9.551552e-05,-0.11143475,0.035684884,-0.0005949214,0.014368533,-0.0023400371,0.03541702,0.48693478,-1.3658614,1.884046,-2.0863826,-1.5721897,2.4590497,-0.1519646,0.13763292,-0.17320289,0.044131406,-0.012088702,-0.18726689,0.0,0.24899697,-9.212888,0.8627467,47.71554,-1.0637572,-2.4218361,-3.336388,-0.28367972,-0.13151486,-0.15470842,28.4375,29.75,28.8125,32.625,35.0,36.0
0.24205218,0.58203804,-0.3485289,-0.81964046,-0.044799607,0.049417008,-0.13758989,-0.4026321,-0.36449382,0.060079154,-3.077916,0.6200259,0.00019925309,-0.11343995,0.034496497,-0.0002518559,0.011511066,0.0010211028,0.028437968,0.48663524,-1.3655604,1.8836626,-2.0863478,-1.5722374,2.4586802,-0.15225765,0.13969809,-0.17559144,0.040141847,-0.011135913,-0.18058245,0.038307227,0.22984336,-9.174581,0.8403672,47.678825,-1.0198793,-2.35907,-3.4105453,-0.24173294,-0.1481838,-0.23401321,28.4375,29.75,28.8125,32.625,35.0,36.0
0.24405208,0.83656794,0.35802642,-0.87902653,-0.024660151,0.041437402,-0.15238358,-0.4028386,-0.36443347,0.06006478,-3.0779305,0.61997354,0.00014514636,-0.11511889,0.03447442,0.00012762379,0.010176924,0.0034637537,0.023118962,0.48633507,-1.365284,1.8833512,-2.0862892,-1.5722135,2.4583457,-0.15365416,0.14048482,-0.17692903,0.03791663,-0.011107643,-0.17665905,0.0,0.114921674,-8.983045,0.83813137,47.716442,-0.96076864,-2.4208932,-3.3983924,-0.17989019,-0.12871303,-0.29595602,28.4375,29.75,28.8125,32.625,35.0,36.0
0.24605218,0.89755934,0.8233251,-0.84426564,0.0050994614,0.03410912,-0.14570121,-0.4030765,-0.36436862,0.060075346,-3.0779135,0.6199108,0.00017573919,-0.11653784,0.03386436,9.087244e-05,0.0095395055,0.0035630083,0.020717062,0.48603618,-1.3649944,1.8829564,-2.086181,-1.5722493,2.45801,-0.1541227,0.143525,-0.18056723,0.038120817,-0.01059678,-0.17472523,0.019153614,-0.038307227,-8.983045,0.85155696,47.66987,-1.2067283,-2.5148518,-3.3824658,-0.13742295,-0.1708664,-0.34710857,28.4375,29.75,28.8125,32.625,35.0,36.0
0.24805222,1.2042661,0.799467,-0.88261724,0.02582385,0.040854782,-0.1549106,-0.4033175,-0.3642996,0.060075343,-3.0779312,0.6198924,0.00022809964,-0.11663484,0.03361707,0.0010705993,0.008504631,0.0044969646,0.021147763,0.48571286,-1.364719,1.8826212,-2.0861561,-1.5722607,2.457673,-0.15399848,0.14208654,-0.18130183,0.038977426,-0.010111841,-0.17503342,0.05746084,0.0,-9.002198,0.91198283,47.703007,-1.2694938,-2.2393222,-3.40533,-0.11596958,-0.17783964,-0.36497796,28.4375,29.75,28.8125,32.625,35.0,36.0
0.25005236,1.0337781,0.8984125,-0.66636413,0.021327185,0.049857255,-0.15951425,-0.40354303,-0.36420545,0.06005831,-3.0778708,0.6198187,0.0001751939,-0.11802845,0.03411132,0.002476125,0.008083842,0.006615266,0.025020089,0.4853769,-1.3644192,1.882274,-2.0860364,-1.5722975,2.457299,-0.15558551,0.14091419,-0.183397,0.040159196,-0.010748599,-0.18049,0.05746084,-0.019153614,-9.040505,0.8403672,47.666286,-1.1399368,-2.2497473,-3.290312,-0.1081073,-0.17378636,-0.35920435,28.4375,29.75,28.8125,32.625,35.0,36.0
0.25205237,0.7813915,0.8345267,-0.9230061,0.009989476,0.052688554,-0.16082805,-0.40376276,-0.3641694,0.060081493,-3.077936,0.6196158,0.00018654641,-0.11884782,0.034604568,0.0023948902,0.008067864,0.005139,0.031399544,0.48511302,-1.3641543,1.8818797,-2.0859282,-1.5722846,2.4569004,-0.15748376,0.14230993,-0.18532808,0.041977316,-0.0100509,-0.18876901,0.095768064,-0.019153614,-9.11712,0.8247004,47.655537,-1.1485817,-2.1503148,-3.196755,-0.09969031,-0.20732376,-0.3067153,28.4375,29.75,28.8125,32.625,35.0,36.0
0.25405225,0.26470336,0.460089,-1.1543412,-0.00031822873,0.0506247,-0.1565759,-0.40400243,-0.36408496,0.060078934,-3.077914,0.61948884,0.00021656422,-0.11973541,0.035645384,0.0022892107,0.0092262365,0.0042831777,0.040549163,0.48478875,-1.3638656,1.8815206,-2.0858438,-1.5723337,2.4564998,-0.15952924,0.14328015,-0.18665285,0.04360107,-0.0106910905,-0.1999619,0.1340753,0.038307227,-9.251195,0.7911258,47.696735,-1.0757143,-2.2370837,-3.11452,-0.091197714,-0.19280782,-0.179196,28.4375,29.75,28.8125,32.625,35.0,36.0
0.25605214,0.25096864,0.10161833,-1.2736754,-0.022065425,0.0729581,-0.1527095,-0.4042367,-0.36400697,0.060061153,-3.0778875,0.61936474,0.00017735096,-0.12049704,0.036885858,0.0018179375,0.011095532,0.0026440958,0.04444493,0.48446494,-1.3635406,1.8811501,-2.0857475,-1.572358,2.4561021,-0.16163354,0.14483403,-0.18794745,0.045648396,-0.011597316,-0.20595856,-0.1340753,0.05746084,-9.32781,0.82694155,47.68599,-1.0588851,-2.1695058,-3.1546454,-0.10403742,-0.19325718,-0.08202598,28.4375,29.75,28.8125,32.625,35.0,36.0
0.25805217,-0.79208434,-0.66222245,-1.5757105,-0.028863698,0.080979995,-0.14677842,-0.40444422,-0.36397022,0.060074788,-3.077957,0.6191296,9.5715375e-05,-0.12088954,0.036986794,0.0016244994,0.011755461,0.0012299262,0.042367242,0.48418936,-1.363264,1.8807548,-2.085603,-1.5723094,2.455671,-0.16210833,0.14652021,-0.19000155,0.047584467,-0.011527309,-0.20435473,-0.40222588,0.0,-9.423578,0.9410752,47.71286,-1.0526472,-2.1680632,-3.2989364,-0.10994919,-0.21518691,-0.0761056,28.4375,29.75,28.8125,32.625,35.0,36.0
0.26005206,-0.5566719,-0.120582946,-1.75757,-0.044229694,0.12023664,-0.15893924,-0.4047054,-0.3638643,0.060082976,-3.0778913,0.6191379,0.00012154718,-0.12146566,0.037920292,0.001033332,0.012831274,-0.0008958216,0.03413116,0.48381725,-1.3629752,1.8803605,-2.085471,-1.5723695,2.4553127,-0.16410328,0.14826804,-0.19120383,0.049414948,-0.011488499,-0.1981129,-0.51714754,0.095768064,-9.615114,0.8873621,47.703903,-1.1102967,-2.22262,-3.277043,-0.11184925,-0.22913644,-0.11988366,28.4375,29.75,28.8125,32.625,35.0,36.0
0.26205215,-1.1616074,-0.5079263,-1.8211395,-0.0421413,0.13111493,-0.14959687,-0.404928,-0.36382505,0.060076647,-3.0779114,0.61899084,0.000101007434,-0.120802544,0.037753087,0.00053680583,0.013494971,-0.0028783977,0.027053617,0.48355427,-1.3626503,1.8799661,-2.085386,-1.5723695,2.4549556,-0.16335782,0.14922664,-0.19161335,0.050938517,-0.011146788,-0.19029054,-0.47884035,0.17238252,-9.749189,0.8537928,47.709274,-1.1677861,-2.2049627,-3.3465111,-0.13990618,-0.2336067,-0.22308786,28.4375,29.75,28.8125,32.625,35.0,36.0
0.26405203,-1.9570755,-1.0666579,-1.903823,-0.042369694,0.13497944,-0.13968228,-0.40515566,-0.36372942,0.060058694,-3.0778406,0.6190179,3.4029836e-05,-0.12122227,0.037525423,-1.2351838e-05,0.013865602,-0.003806344,0.01921631,0.48320726,-1.3623487,1.8796185,-2.0852668,-1.5723933,2.4546347,-0.16331367,0.15156682,-0.1932885,0.051272016,-0.011053305,-0.18240766,-0.7278373,0.095768064,-9.787497,0.8179876,47.705692,-1.224573,-2.442905,-3.3524044,-0.13511634,-0.240102,-0.33690792,28.4375,29.75,28.8125,32.625,35.0,36.0
0.266052,-1.4786965,-1.076521,-2.0924609,-0.037805468,0.14215398,-0.14782844,-0.40539098,-0.36364698,0.060043074,-3.0778008,0.61895347,2.2719118e-05,-0.12118342,0.03848546,-0.0023043705,0.016646162,-0.0069282874,0.014113997,0.48288363,-1.3620359,1.87926,-2.0851834,-1.57243,2.454276,-0.16417082,0.15547404,-0.19271412,0.05084747,-0.012070356,-0.17815886,-0.7086837,0.15322891,-9.883265,0.85826975,47.690468,-1.2532645,-2.2852418,-3.4512243,-0.12795332,-0.251653,-0.42306983,28.4375,29.75,28.8125,32.625,35.0,36.0
0.2680521,-1.4611946,-0.6759347,-2.1422827,-0.041800007,0.12863557,-0.16147532,-0.405653,-0.36357594,0.060067922,-3.0778115,0.6188753,7.007494e-05,-0.122769296,0.038332593,-0.0013981072,0.015531384,-0.004818868,0.013947113,0.4825478,-1.3617473,1.8788303,-2.0850632,-1.5724539,2.4538903,-0.16521002,0.155917,-0.19528411,0.05057913,-0.0120700635,-0.17903051,-0.7086837,0.1340753,-9.844957,0.87393653,47.733456,-1.275228,-2.357688,-3.5238962,-0.09916556,-0.2557652,-0.47772557,28.4375,29.75,28.8125,32.625,35.0,36.0
0.27005237,-1.165255,-0.5720153,-2.1112702,-0.032769635,0.12236561,-0.16092965,-0.40589964,-0.36349016,0.060078364,-3.0777953,0.61878794,0.00015431613,-0.1238607,0.04002531,-0.0025816585,0.01757059,-0.0058242427,0.022349298,0.4822236,-1.361482,1.8784722,-2.0849917,-1.5725144,2.4535139,-0.16807748,0.15802586,-0.19503757,0.050030623,-0.013425945,-0.19029647,-0.61291564,0.11492168,-9.787497,0.83589023,47.67793,-1.2745274,-2.4711692,-3.600805,-0.08904186,-0.24727559,-0.4176749,28.4375,29.75,28.8125,32.625,35.0,36.0
0.2720523,-0.5483494,-0.2287513,-2.0530365,-0.02841334,0.118218705,-0.17153645,-0.4061668,-0.36342043,0.060074978,-3.0778058,0.618667,9.528029e-05,-0.12511651,0.0401444,-0.0029947094,0.0173269,-0.0059342817,0.034998875,0.48186392,-1.3611213,1.8780173,-2.0848606,-1.5725025,2.4530776,-0.1694143,0.16044651,-0.19692819,0.04945737,-0.013195255,-0.20428206,-0.4213795,0.11492168,-9.80665,0.9298854,47.674347,-1.3194318,-2.4610672,-3.587802,-0.077871785,-0.26399392,-0.30378747,28.4375,29.75,28.8125,32.625,35.0,36.0
0.2740522,-0.8877267,-0.048220288,-2.0564365,-0.037252486,0.096722454,-0.17064494,-0.406409,-0.363333,0.060068954,-3.0777755,0.6185763,0.00014984423,-0.124637015,0.039899252,-0.0044822954,0.018801661,-0.008647989,0.045180637,0.48154095,-1.3608316,1.8776697,-2.0848,-1.5725626,2.452702,-0.16844434,0.16368781,-0.19759023,0.049933463,-0.013263068,-0.21349305,-0.34476504,0.05746084,-9.864111,0.8873621,47.72719,-1.3188026,-2.621371,-3.6875277,-0.03854772,-0.27292573,-0.19455057,28.4375,29.75,28.8125,32.625,35.0,36.0
0.27605212,-0.62170815,-0.79376286,-1.569952,-0.025738148,0.09259199,-0.15829733,-0.4066721,-0.36326653,0.060081515,-3.0778043,0.6183888,0.00015983786,-0.12580408,0.039605964,-0.0023458437,0.017142395,-0.00552939,0.04633697,0.48120537,-1.360509,1.8772267,-2.0846798,-1.5725745,2.452246,-0.16888022,0.161487,-0.200115,0.051116973,-0.013246036,-0.21508494,-0.3256114,-0.095768064,-9.768343,0.89631605,47.666286,-1.3865974,-2.3906941,-3.6831908,-0.027884742,-0.2576645,-0.13682765,28.4375,29.75,28.8125,32.625,35.0,36.0
0.2780522,-0.10779973,-0.30486512,-1.482116,-0.022983013,0.09558294,-0.15863815,-0.40693983,-0.36318052,0.060076494,-3.0778198,0.61826056,0.0001670769,-0.12744556,0.039540328,-0.0018173734,0.017226888,-0.004908234,0.038906626,0.48083326,-1.3601847,1.8768324,-2.0846078,-1.5725864,2.451792,-0.16987787,0.16351451,-0.20413342,0.052602362,-0.013610056,-0.20864959,-0.4405331,0.0,-9.442732,0.8717007,47.692257,-1.4159384,-2.370494,-3.582637,-0.026709203,-0.28211436,-0.20603561,28.4375,29.75,28.8125,32.625,35.0,36.0
0.28005207,0.19523036,0.32109925,-1.5846044,-0.0030268722,0.07451486,-0.16177684,-0.4071917,-0.3630984,0.060062904,-3.0777922,0.6182216,0.00018576263,-0.12931,0.040001236,-0.0011845436,0.017283926,-0.0043530785,0.029783798,0.48049647,-1.3598603,1.87646,-2.0845478,-1.5726222,2.4514346,-0.17199221,0.16501673,-0.20780987,0.054313302,-0.013918367,-0.2016387,-0.32561144,0.0,-9.442732,0.9321212,47.691364,-1.3735147,-2.4866805,-3.3993533,-0.043600272,-0.28466284,-0.2958801,28.4375,29.75,28.8125,32.625,35.0,36.0
0.2820521,0.31237242,0.66798055,-1.5197744,0.0042466233,0.05757913,-0.15850662,-0.40746403,-0.36302847,0.060073983,-3.0778081,0.6180947,0.00019426648,-0.12985577,0.040915836,-0.00087414193,0.017710691,-0.006018227,0.023621958,0.48014763,-1.3595246,1.8760041,-2.0844266,-1.5726341,2.4510047,-0.17412749,0.16518135,-0.20947973,0.05749181,-0.0135227535,-0.19761291,-0.038307227,-0.038307227,-9.404425,0.86498255,47.698532,-1.3811718,-2.440618,-3.3119078,-0.064220175,-0.29885244,-0.35679203,28.4375,29.75,28.8125,32.625,35.0,36.0
0.28405207,0.93830365,0.141554,-1.3802991,0.011084269,0.053129047,-0.16713695,-0.40773588,-0.36294034,0.060092468,-3.077795,0.6180327,0.00029399066,-0.1315232,0.04233456,2.9406381e-05,0.018435415,-0.005588819,0.021436712,0.47979888,-1.359237,1.8755974,-2.0843418,-1.5726947,2.4506192,-0.17733338,0.16496196,-0.21188727,0.06005711,-0.014362404,-0.1986311,-0.15322891,0.1340753,-9.308656,0.87393653,47.709274,-1.3238456,-2.2711093,-3.3139071,-0.08190047,-0.30072626,-0.4011925,28.4375,29.75,28.8125,32.625,35.0,36.0
0.28605202,-0.2656643,-0.21552065,-1.3479286,0.0029491798,0.024395391,-0.15891619,-0.4079843,-0.36283213,0.060082294,-3.0777216,0.6179938,0.00019715962,-0.13149588,0.042057734,0.00034082707,0.019097034,-0.0061843046,0.028655551,0.47941503,-1.3589132,1.8751906,-2.0841615,-1.572719,2.4502206,-0.17652541,0.1655747,-0.21387006,0.06223927,-0.0147076575,-0.20503904,-0.15322891,0.15322891,-9.289502,0.91421866,47.698532,-1.3634852,-2.2690918,-3.3184063,-0.09436499,-0.28369066,-0.39411783,28.4375,29.75,28.8125,32.625,35.0,36.0
0.28805208,-0.40781152,-0.4841274,-1.4409909,-0.0004561424,0.029629461,-0.17000054,-0.4082656,-0.3627621,0.060084276,-3.077733,0.61779755,0.00019997935,-0.13136947,0.04374776,-0.00018928948,0.022146601,-0.011370078,0.038012978,0.4790662,-1.358541,1.8747109,-2.084039,-1.5727428,2.449748,-0.17892037,0.1671206,-0.21607552,0.068874575,-0.015037869,-0.21678975,-0.05746084,0.1340753,-9.251195,0.9298854,47.704796,-1.2254177,-2.1122043,-3.4017782,-0.17870873,-0.29360658,-0.27813852,28.4375,29.75,28.8125,32.625,35.0,36.0
0.29005203,0.30107233,-0.50967026,-1.2297028,-0.028344803,0.069908716,-0.16277334,-0.40853155,-0.36266375,0.06010029,-3.077686,0.6177235,0.00022818234,-0.13258582,0.043947242,0.0009904148,0.020539157,-0.009734667,0.047011353,0.47870564,-1.3582414,1.8742794,-2.0838835,-1.5728024,2.4493475,-0.18059531,0.16611439,-0.21767156,0.06924245,-0.014395103,-0.22746438,-0.11492168,0.13407528,-9.251195,0.86945957,47.694054,-1.1759043,-2.1482089,-3.3242273,-0.20443258,-0.31494206,-0.14919877,28.4375,29.75,28.8125,32.625,35.0,36.0
0.29205182,-0.19850469,-0.8394852,-1.0798359,-0.044445645,0.08278014,-0.16761781,-0.40878743,-0.362596,0.060115702,-3.0777228,0.617502,0.00021032686,-0.1328863,0.045049306,0.00032490247,0.021561552,-0.011992167,0.04624784,0.47836876,-1.3579292,1.8738364,-2.08374,-1.5728024,2.4488678,-0.1826638,0.16729668,-0.21799016,0.070845865,-0.0142714195,-0.22876944,-0.17238252,0.19153613,-9.251195,0.9298854,47.651955,-1.2164394,-2.25426,-3.258547,-0.24315289,-0.3108626,-0.08026045,28.4375,29.75,28.8125,32.625,35.0,36.0
0.29405165,-0.2468194,-0.70815814,-1.1697406,-0.03681455,0.0862119,-0.16633794,-0.40906194,-0.36249742,0.060105573,-3.077693,0.6174062,0.00014285448,-0.134029,0.04659279,0.00086653634,0.022270683,-0.014471838,0.035621345,0.47797155,-1.3575693,1.8733934,-2.083594,-1.5728143,2.4484148,-0.18642718,0.16774377,-0.2209493,0.07589025,-0.013767073,-0.22190621,-0.24899697,0.05746084,-9.232041,0.86945957,47.696735,-1.0617633,-1.9879737,-3.336626,-0.30691433,-0.33595282,-0.12759918,28.4375,29.75,28.8125,32.625,35.0,36.0
0.29605258,-0.55951595,-0.0005244245,-1.2482929,-0.03137152,0.078921124,-0.16915575,-0.40930963,-0.3624169,0.060113985,-3.0776832,0.61721694,0.000107984095,-0.13576877,0.046442453,0.0012122953,0.020837164,-0.011856304,0.024634482,0.47763547,-1.3572574,1.8729614,-2.0834281,-1.5728382,2.447962,-0.1876172,0.16880171,-0.22249462,0.07340657,-0.0137078855,-0.21210817,-0.15322891,0.038307227,-9.32781,0.84484416,47.684196,-1.10835,-2.0523145,-3.3249576,-0.32394898,-0.33938146,-0.25579727,28.4375,29.75,28.8125,32.625,35.0,36.0
0.2980518,-0.6335069,0.14496537,-1.2541107,-0.0065120105,0.07158,-0.16241133,-0.40956876,-0.36231783,0.060102705,-3.0776293,0.61717093,1.4774374e-05,-0.13540944,0.046118118,0.0007125065,0.020997597,-0.0118265655,0.017943317,0.47725162,-1.3569094,1.8725303,-2.0832608,-1.5728506,2.4475565,-0.18653974,0.16945897,-0.22194377,0.07225521,-0.013878151,-0.204338,-0.15322891,0.038307227,-9.289502,0.90527004,47.70211,-1.1485342,-1.927269,-3.3384187,-0.32031018,-0.33949307,-0.36312693,28.4375,29.75,28.8125,32.625,35.0,36.0
0.30005178,-0.31691918,0.052417386,-1.3761506,0.018697582,0.07196109,-0.16288051,-0.40984243,-0.3622287,0.060096417,-3.0776029,0.6171289,4.4381604e-06,-0.1367974,0.04664337,-0.0004298329,0.021473879,-0.0119398525,0.012619184,0.47687897,-1.3565605,1.8721002,-2.083154,-1.5728744,2.4471612,-0.188268,0.17273164,-0.2228934,0.07025086,-0.014262742,-0.20073971,-0.15322891,0.038307227,-9.289502,0.900793,47.709274,-1.049677,-2.1746256,-3.3988,-0.3304,-0.35417217,-0.47108018,28.4375,29.75,28.8125,32.625,35.0,36.0
0.3020517,-0.06440456,0.22407894,-1.3392107,0.013207349,0.083098315,-0.16313538,-0.41014832,-0.36214057,0.0601241,-3.0775962,0.6171248,0.00010611015,-0.13862616,0.046093933,-0.0012426963,0.020957306,-0.010879186,0.01639519,0.47649488,-1.3562351,1.8716215,-2.0830472,-1.5729221,2.4467757,-0.18877572,0.17698552,-0.22560486,0.06750519,-0.014308167,-0.2050223,-0.21068975,-0.019153614,-9.423578,0.8784135,47.674347,-1.0881004,-2.2528095,-3.3686748,-0.31765288,-0.37186652,-0.5091494,28.4375,29.75,28.8125,32.625,35.0,36.0
0.30405164,-0.2958978,-0.08882299,-1.3824159,0.003643623,0.08740151,-0.16085821,-0.41040388,-0.36201748,0.06008662,-3.0774956,0.61699474,-4.8834707e-05,-0.13979211,0.045436576,-0.0012188312,0.020005442,-0.0078855725,0.029873611,0.47608957,-1.3558514,1.8712014,-2.082857,-1.5729588,2.4463022,-0.18820365,0.17825975,-0.22645293,0.06394277,-0.014907082,-0.21792406,-0.22984336,-0.038307227,-9.404425,0.8537928,47.70032,-1.1742529,-2.1688294,-3.4326887,-0.29371706,-0.35481212,-0.41724068,28.4375,29.75,28.8125,32.625,35.0,36.0
0.30605257,-0.7980542,-0.32603648,-1.4006914,-0.019233007,0.1040599,-0.17363647,-0.41069767,-0.36195523,0.060119923,-3.0775511,0.61682343,-1.1659455e-05,-0.13888124,0.04498199,-0.0026145973,0.021541417,-0.010677556,0.0456272,0.4757306,-1.3555148,1.8706874,-2.082712,-1.5729588,2.4458294,-0.18645453,0.18104655,-0.22687249,0.06472545,-0.015016499,-0.23192827,-0.40222588,-0.076614454,-9.3661175,0.93436235,47.66271,-1.4354315,-2.3129525,-3.5104194,-0.2964911,-0.37625188,-0.26502275,28.4375,29.75,28.8125,32.625,35.0,36.0
0.30805176,-1.4188706,-0.89348924,-1.4448577,-0.039258756,0.113383554,-0.16691081,-0.41093132,-0.3618626,0.060090687,-3.0775073,0.61659884,-9.524376e-05,-0.14038238,0.043363534,-0.002436084,0.02004843,-0.006974067,0.0530178,0.47539535,-1.3551663,1.8703045,-2.0825822,-1.5729951,2.4453597,-0.18468595,0.18354395,-0.22946803,0.0608233,-0.015438075,-0.23754615,-0.34476504,0.05746084,-9.519346,0.91421866,47.70211,-1.6062863,-2.3002841,-3.5109763,-0.26932698,-0.36419106,-0.1644783,28.4375,29.75,28.8125,32.625,35.0,36.0
0.3100517,-1.0995464,-1.1937175,-1.4954864,-0.062195655,0.1296117,-0.16109824,-0.4112249,-0.36176535,0.06008136,-3.0774708,0.6164848,-9.209238e-05,-0.14300123,0.043602098,-0.0014563013,0.0181622,-0.0027569912,0.04602887,0.47500798,-1.3547825,1.8698362,-2.082464,-1.5730432,2.444906,-0.18705204,0.18385103,-0.23146886,0.05789884,-0.01570577,-0.23292115,-0.36391866,0.1340753,-9.5385,0.93436235,47.66091,-1.5522233,-2.3093252,-3.5315757,-0.22995993,-0.39499098,-0.17860876,28.4375,29.75,28.8125,32.625,35.0,36.0
0.31205168,-1.158341,-1.8664451,-1.4550565,-0.0640191,0.117923066,-0.15756296,-0.4115173,-0.36166266,0.06009454,-3.0774317,0.6163238,3.876248e-05,-0.14416699,0.044928506,-0.003185536,0.019844793,-0.004905649,0.03608123,0.4746495,-1.3544575,1.8693928,-2.0823677,-1.5731515,2.4444523,-0.18984096,0.18768762,-0.23210348,0.057365682,-0.016208172,-0.22576037,-0.51714754,0.2681506,-9.404425,0.8784135,47.645687,-1.456323,-2.3126478,-3.508195,-0.1971058,-0.40827215,-0.26408753,28.4375,29.75,28.8125,32.625,35.0,36.0
0.31405258,-0.6372666,-1.6052034,-1.5292087,-0.05948798,0.100102894,-0.15845397,-0.41180184,-0.36155504,0.06009107,-3.077411,0.61624515,-6.4348606e-05,-0.14566104,0.046112657,-0.0024106076,0.020408852,-0.002853564,0.028930351,0.47421682,-1.3540983,1.8689269,-2.0821884,-1.57314,2.4439733,-0.19208218,0.18698001,-0.23310094,0.057515845,-0.017661538,-0.22084446,-0.4405331,0.2873042,-9.385271,0.9030289,47.70211,-1.3921142,-2.1710231,-3.6171417,-0.1852171,-0.37312037,-0.35138458,28.4375,29.75,28.8125,32.625,35.0,36.0
0.31605244,-0.009639556,-1.212366,-1.5876521,-0.053192504,0.09082194,-0.16332458,-0.41213453,-0.3614789,0.060110863,-3.0774593,0.6161847,6.170999e-05,-0.1498962,0.046127666,7.185068e-05,0.016305689,0.0049308203,0.023895625,0.47381702,-1.3537266,1.8684229,-2.082142,-1.5731639,2.4435298,-0.19565977,0.18601966,-0.23668142,0.05324901,-0.017563226,-0.219388,-0.34476504,0.38307226,-9.481039,0.94331104,47.668976,-1.4326133,-2.189065,-3.5336711,-0.13251719,-0.37624425,-0.40304136,28.4375,29.75,28.8125,32.625,35.0,36.0
0.31805253,-0.12728581,-1.0715936,-1.4313138,-0.062425565,0.084479645,-0.17151076,-0.41240367,-0.361408,0.060102783,-3.0774682,0.61596894,5.1507548e-05,-0.15094091,0.04564954,0.00075195037,0.01592203,0.00635259,0.032614924,0.47348103,-1.3533548,1.867968,-2.0820339,-1.5731877,2.4430583,-0.19542688,0.18693967,-0.23949374,0.053670883,-0.017897882,-0.22787194,-0.36391866,0.3256114,-9.461885,0.9298854,47.690468,-1.3606312,-2.1115875,-3.4342003,-0.10778685,-0.3710097,-0.3781293,28.4375,29.75,28.8125,32.625,35.0,36.0
0.32005265,0.07787238,-1.0114586,-1.5439574,-0.050433856,0.08716306,-0.16964294,-0.41272998,-0.36129987,0.060124047,-3.0774515,0.6159003,0.00010981334,-0.15192915,0.046262454,0.0004286863,0.016879577,0.0051433113,0.0443843,0.47304875,-1.3529943,1.867452,-2.0818899,-1.5732359,2.4425855,-0.196944,0.18911918,-0.24181128,0.055271685,-0.01822371,-0.2411567,-0.24899697,0.3256114,-9.500193,0.9231726,47.666286,-1.349874,-2.1931844,-3.3515735,-0.08680533,-0.39594144,-0.24867846,28.4375,29.75,28.8125,32.625,35.0,36.0
0.32205185,-0.2490859,-0.9915022,-1.8013275,-0.035383996,0.090012416,-0.16366492,-0.4130131,-0.3611962,0.060082186,-3.077392,0.61574763,2.1655513e-05,-0.15296674,0.04757919,-0.000918806,0.018006768,0.0022359944,0.04818744,0.47265372,-1.3525617,1.8669976,-2.0817702,-1.5732716,2.442103,-0.20006675,0.19239117,-0.24300475,0.0562611,-0.01794259,-0.24808116,-0.32561144,0.3256114,-9.385271,0.94331104,47.661808,-1.123568,-2.2065265,-3.4859552,-0.07798511,-0.4051569,-0.117335945,28.4375,29.75,28.8125,32.625,35.0,36.0
0.32405183,-0.69076246,-0.698514,-1.6056182,-0.034089204,0.08908879,-0.15487729,-0.41336384,-0.36110172,0.060112543,-3.0774283,0.615699,0.00013090315,-0.15460499,0.047843147,2.0362582e-05,0.017884033,0.0037533778,0.04463682,0.47220966,-1.35219,1.8664578,-2.0816739,-1.5732964,2.4416242,-0.20139484,0.19302474,-0.24623007,0.057439946,-0.018508516,-0.24585697,-0.36391866,0.21068975,-9.32781,0.87617236,47.694946,-1.1009305,-2.0441892,-3.4675536,-0.07054285,-0.38083005,-0.10667938,28.4375,29.75,28.8125,32.625,35.0,36.0
0.3260516,-0.90333056,-0.69424057,-1.4685941,-0.028199865,0.089947514,-0.15405293,-0.41367233,-0.36102247,0.06011383,-3.077447,0.6155028,0.00017574441,-0.1554284,0.04882317,0.00037014481,0.017520675,0.0033706932,0.031861298,0.4718341,-1.3517941,1.8659548,-2.0815775,-1.5733317,2.441124,-0.2038996,0.19268733,-0.24697019,0.05870267,-0.017989231,-0.23558815,-0.3256114,0.17238252,-9.3661175,0.8314132,47.661808,-1.0619017,-2.1897511,-3.4324474,-0.042054042,-0.4005599,-0.1843904,28.4375,29.75,28.8125,32.625,35.0,36.0
0.32805166,-0.73649514,-0.6696231,-1.266471,-0.0186735,0.09478603,-0.1565482,-0.4139555,-0.36093813,0.060115643,-3.0774283,0.61541057,0.00019161701,-0.15620458,0.04971838,-0.00034954635,0.01867426,0.0019785159,0.020519048,0.47147253,-1.3514338,1.8654879,-2.0814574,-1.573368,2.4407074,-0.20568487,0.19475584,-0.2480846,0.05952466,-0.018371925,-0.22602907,-0.40222588,0.038307227,-9.308656,0.91198283,47.655537,-0.899547,-2.2590053,-3.4331472,-0.034696367,-0.38392,-0.33335054,28.4375,29.75,28.8125,32.625,35.0,36.0
0.3300525,-0.7426423,0.1968567,-1.4276943,-0.00084501586,0.07912498,-0.15251264,-0.41427496,-0.36082748,0.06011319,-3.077392,0.61532354,0.0002048338,-0.15783517,0.04998232,-0.00022429158,0.019204982,0.0022183224,0.01235884,0.4710435,-1.3510374,1.8649844,-2.0813253,-1.5734161,2.440229,-0.20700552,0.19719215,-0.2516434,0.060676415,-0.018954072,-0.21918567,-0.53630114,-0.05746084,-9.442732,0.9410752,47.642998,-0.86180365,-2.2015393,-3.4325364,-0.022281364,-0.3997982,-0.45545915,28.4375,29.75,28.8125,32.625,35.0,36.0
0.33205247,-0.7891883,0.32325947,-1.2931702,0.021908576,0.076337315,-0.15760162,-0.41458324,-0.3607331,0.060091373,-3.0773816,0.6152791,0.0002229594,-0.15701811,0.048815485,0.00021341859,0.018890478,0.0021641785,0.016501913,0.47063673,-1.3506298,1.86453,-2.0812767,-1.57344,2.439796,-0.2043834,0.1970051,-0.25275138,0.06185952,-0.018654939,-0.2207075,-0.4213795,-0.095768064,-9.32781,0.8873621,47.66091,-1.1624796,-2.2179792,-3.4677284,-0.01204567,-0.40609008,-0.5248842,28.4375,29.75,28.8125,32.625,35.0,36.0
0.33405235,-0.49930623,0.97901094,-1.1119157,0.01839982,0.09469214,-0.16234353,-0.41492528,-0.3606609,0.060114615,-3.0774426,0.61516637,0.00026456526,-0.15614825,0.049106155,-0.00055858074,0.021055263,-0.0006343258,0.030092066,0.47021705,-1.3502214,1.8639559,-2.0811565,-1.5734285,2.4392984,-0.2035425,0.19829841,-0.25322434,0.06447848,-0.019328596,-0.23345529,-0.40222588,-0.21068975,-9.193734,0.8985519,47.703903,-1.3119383,-2.2407434,-3.439999,-0.013817722,-0.39256054,-0.43714416,28.4375,29.75,28.8125,32.625,35.0,36.0
0.33605233,-0.30607983,1.0337715,-0.84436274,0.029711455,0.10378847,-0.16627896,-0.41519699,-0.36054084,0.060084414,-3.077368,0.61505073,0.00016191464,-0.15572126,0.04983934,-0.0012219285,0.024354307,-0.004338199,0.045092087,0.4698068,-1.3498371,1.8635238,-2.0809991,-1.5734648,2.4388256,-0.20346236,0.20040974,-0.25542927,0.06931678,-0.020646464,-0.24836788,-0.24899697,-0.17238252,-9.078813,0.9164598,47.694946,-1.3921776,-2.25711,-3.4516978,-0.025855802,-0.3966022,-0.30515775,28.4375,29.75,28.8125,32.625,35.0,36.0
0.33805233,-0.100550726,1.0485708,-1.2839984,0.045067932,0.09193902,-0.15894496,-0.41552436,-0.360447,0.06010227,-3.077352,0.6148322,0.000255102,-0.15629157,0.050147638,-0.0008184506,0.025999459,-0.0054902514,0.051364556,0.46942234,-1.3494414,1.8629717,-2.0808542,-1.5735492,2.438307,-0.20372094,0.2017229,-0.25886974,0.07317274,-0.021606805,-0.25489485,-0.19153613,-0.19153613,-9.136273,0.9254084,47.734352,-1.3551055,-2.172366,-3.3722749,-0.055330746,-0.39548522,-0.20245391,28.4375,29.75,28.8125,32.625,35.0,36.0
0.34005228,0.03373096,0.47800446,-1.4625351,0.059152003,0.05691268,-0.14424007,-0.41585952,-0.36032847,0.06009987,-3.077303,0.61476713,0.00025141586,-0.15684949,0.0514032,-0.001207416,0.0281143,-0.00876764,0.042686116,0.46896845,-1.3490211,1.8624328,-2.0806973,-1.5735973,2.437819,-0.20587598,0.2037574,-0.2615414,0.07768784,-0.022011392,-0.24836832,-0.21068975,-0.17238252,-9.193734,0.88289046,47.677036,-1.3336635,-2.2427106,-3.3692615,-0.10699648,-0.3830002,-0.2405358,28.4375,29.75,28.8125,32.625,35.0,36.0
0.34205207,0.390784,0.60822016,-1.358505,0.027642336,0.04204698,-0.1519193,-0.41615254,-0.3602155,0.060075216,-3.077243,0.6145667,0.0001736663,-0.15706317,0.05278087,-0.0014932223,0.030806752,-0.011041305,0.034600437,0.46856004,-1.3486013,1.8619422,-2.080528,-1.5736455,2.4372933,-0.20736407,0.20470871,-0.26295203,0.08139546,-0.023400035,-0.24176328,-0.28730422,-0.038307227,-9.136273,0.9455522,47.68062,-1.3676395,-2.281224,-3.3194084,-0.14815724,-0.3604164,-0.32330358,28.4375,29.75,28.8125,32.625,35.0,36.0
0.34405193,0.42814875,0.14781247,-1.3040668,0.0040838085,0.032613076,-0.1501443,-0.41647643,-0.36011624,0.060077935,-3.0771825,0.6144989,0.00020944937,-0.15812594,0.054386362,-0.0016889268,0.033438314,-0.012642799,0.029045558,0.46816352,-1.3481805,1.861391,-2.0803716,-1.5737184,2.4368625,-0.20979366,0.20631938,-0.26527914,0.084717505,-0.025032016,-0.23863074,-0.28730422,-0.038307227,-9.193734,0.842603,47.684196,-1.315469,-2.4089503,-3.2877364,-0.21133476,-0.33188665,-0.41014987,28.4375,29.75,28.8125,32.625,35.0,36.0
0.34605205,0.616067,-0.37665066,-1.6660395,0.009046962,0.03926857,-0.15974884,-0.416809,-0.36000854,0.060090896,-3.0771387,0.6143727,0.00019203764,-0.15939939,0.054668423,-0.0017298316,0.03434745,-0.013225833,0.031600744,0.46773085,-1.3477603,1.8608035,-2.0801551,-1.5737666,2.4363568,-0.21082222,0.20885396,-0.26874575,0.08654948,-0.025614968,-0.24220987,-0.095768064,-0.095768064,-9.193734,0.9612189,47.661808,-1.3206109,-2.4617305,-3.3200507,-0.2584024,-0.31047964,-0.4013468,28.4375,29.75,28.8125,32.625,35.0,36.0
0.34805202,0.6690682,-0.0843102,-1.5314327,-0.026782556,0.064468496,-0.1667198,-0.4170803,-0.35987374,0.06002892,-3.0770464,0.614257,-8.622403e-06,-0.16038007,0.054962397,-0.0021185563,0.03465412,-0.014113504,0.04167504,0.4672833,-1.347328,1.8603848,-2.0799997,-1.5737785,2.435849,-0.21202382,0.21116877,-0.2709205,0.08729211,-0.025571847,-0.25348088,-0.076614454,0.11492168,-9.251195,0.91198283,47.666286,-1.2399192,-2.3533425,-3.2802591,-0.3071177,-0.31094328,-0.3419258,28.4375,29.75,28.8125,32.625,35.0,36.0
0.35005203,-0.118786134,-0.7072432,-1.3819909,-0.045855764,0.09044111,-0.17402767,-0.41740477,-0.35974842,0.060049046,-3.076958,0.6141143,3.1485917e-05,-0.16056591,0.056803502,-0.0030725216,0.034732196,-0.017401647,0.05015245,0.46686497,-1.3469442,1.8598226,-2.0797718,-1.5738863,2.435353,-0.21591312,0.21156701,-0.26956606,0.088429764,-0.024210116,-0.26585242,-0.15322891,0.22984336,-9.212888,0.8784135,47.666286,-1.0933897,-2.3322883,-3.3525815,-0.31857708,-0.30093974,-0.18636757,28.4375,29.75,28.8125,32.625,35.0,36.0
0.35205203,-0.7537034,-1.4252607,-1.4979376,-0.056542415,0.11097069,-0.15225638,-0.4177199,-0.35965005,0.06004907,-3.0769584,0.61388904,-3.2286196e-05,-0.16283181,0.057334583,-0.0023740453,0.032185413,-0.014017656,0.048548635,0.46644133,-1.3465248,1.8592709,-2.079582,-1.5738977,2.434789,-0.21897654,0.21135676,-0.27023372,0.08512,-0.023498597,-0.2673134,-0.30645782,0.36391866,-9.346964,0.88289046,47.688675,-1.0125855,-2.2140005,-3.4390373,-0.32305428,-0.2816209,-0.11926595,28.4375,29.75,28.8125,32.625,35.0,36.0
0.35405216,-1.084938,-1.6359825,-1.6942148,-0.06997644,0.12742682,-0.14705032,-0.41803604,-0.35954198,0.060022555,-3.0768843,0.61376107,-0.000110516594,-0.16506667,0.058052924,-0.0029818732,0.030739773,-0.012089358,0.038484838,0.4660233,-1.3460556,1.8587216,-2.0794036,-1.5739459,2.4343007,-0.22213283,0.21349749,-0.2706166,0.080988355,-0.023103883,-0.26040483,-0.34476504,0.3256114,-9.481039,0.90527004,47.67614,-0.8621489,-2.3851347,-3.6451077,-0.30254096,-0.28144768,-0.17553072,28.4375,29.75,28.8125,32.625,35.0,36.0
0.3560522,-1.4994626,-1.958715,-1.728311,-0.076956846,0.11990171,-0.14879635,-0.41837457,-0.35941532,0.06002616,-3.0768375,0.6136988,-0.00010983418,-0.16634606,0.057843816,-0.0019282353,0.029884169,-0.008502237,0.027523044,0.46555576,-1.3456488,1.8581818,-2.0792367,-1.573994,2.4338005,-0.22216846,0.2129237,-0.27202976,0.07940162,-0.023948396,-0.24947414,-0.38307226,0.36391866,-9.3661175,0.9254084,47.690468,-0.91929376,-2.294508,-3.6374922,-0.31447083,-0.25961372,-0.29011008,28.4375,29.75,28.8125,32.625,35.0,36.0
0.35805202,-1.0598341,-1.6571672,-1.4020215,-0.0882844,0.12245025,-0.15603912,-0.4187148,-0.3593036,0.060030364,-3.0767972,0.61359936,-0.0001108514,-0.16891274,0.055861373,-0.0006598433,0.026247976,-0.0011184429,0.019878633,0.465112,-1.3452171,1.8576082,-2.0790594,-1.5740422,2.4333,-0.22079566,0.21397395,-0.2748096,0.07290872,-0.024025997,-0.24045466,-0.49799395,0.3256114,-9.3661175,0.8605109,47.67614,-1.0913948,-2.216418,-3.5468607,-0.2372032,-0.25128734,-0.419935,28.4375,29.75,28.8125,32.625,35.0,36.0
0.3600519,-1.1443899,-1.3936644,-1.6928177,-0.06755432,0.10664689,-0.15342826,-0.4190481,-0.35920984,0.0600242,-3.0767589,0.61356926,-8.047096e-05,-0.17125344,0.054803193,0.0002488276,0.024049727,0.0039552236,0.021531308,0.46470436,-1.3447729,1.857056,-2.078941,-1.5740904,2.4328787,-0.22061835,0.2153244,-0.27769974,0.068903245,-0.024362026,-0.24192737,-0.63206923,0.3256114,-9.346964,1.0037369,47.647476,-1.0995982,-2.1182883,-3.620729,-0.20155022,-0.23840341,-0.5102688,28.4375,29.75,28.8125,32.625,35.0,36.0
0.3620517,-1.6253934,-0.6179165,-2.2251318,-0.04953648,0.0731478,-0.16443251,-0.41939002,-0.35907042,0.060010895,-3.0766666,0.61346704,-9.441043e-05,-0.17321286,0.054548338,0.00030117703,0.022780648,0.0057683787,0.033385396,0.46423542,-1.3443284,1.8565058,-2.0787618,-1.5741743,2.432358,-0.22180772,0.21772616,-0.2803794,0.066915296,-0.024106361,-0.25496924,-0.34476504,0.34476507,-9.615114,0.95002913,47.67166,-1.1983755,-2.155179,-3.547944,-0.16254951,-0.22857484,-0.42116922,28.4375,29.75,28.8125,32.625,35.0,36.0
0.36405265,-0.6659566,-1.0928962,-2.022015,-0.050224695,0.10105409,-0.14992508,-0.41973385,-0.3589919,0.06000045,-3.076721,0.61323935,-8.264467e-05,-0.17410165,0.053602673,0.00061777316,0.021683851,0.00792609,0.048067246,0.46381596,-1.3438609,1.8559421,-2.0786788,-1.5741743,2.4317896,-0.22076967,0.2189091,-0.28222284,0.06509964,-0.024134893,-0.26861274,-0.3256114,0.22984336,-9.557653,0.95002913,47.696735,-1.3131154,-2.128854,-3.5155926,-0.11558962,-0.23339611,-0.28590214,28.4375,29.75,28.8125,32.625,35.0,36.0
0.36605167,-1.0784225,-1.173476,-1.768501,-0.06570829,0.11337002,-0.14745054,-0.4200877,-0.35886732,0.05998708,-3.076668,0.6131115,-9.161193e-05,-0.17555378,0.053633418,0.00033816,0.021915007,0.0068465834,0.051567268,0.46334776,-1.3433919,1.8553671,-2.0785224,-1.5742339,2.4312487,-0.2219892,0.2223459,-0.28621882,0.066684075,-0.023891987,-0.27333066,-0.6512228,0.38307226,-9.615114,0.9254084,47.690468,-1.3285608,-2.2914433,-3.486257,-0.0808956,-0.21689145,-0.19205019,28.4375,29.75,28.8125,32.625,35.0,36.0
0.36805174,-1.2040863,-1.2214055,-2.0701044,-0.053334728,0.10544419,-0.15174256,-0.42045754,-0.35877186,0.06001539,-3.0766785,0.6129645,1.8932184e-05,-0.17619142,0.054176413,-0.0002137554,0.022719163,0.004824842,0.04356594,0.4629154,-1.3429595,1.8547443,-2.078378,-1.574294,2.4307234,-0.22335371,0.2246758,-0.28832176,0.06862184,-0.023679743,-0.266695,-0.51714754,0.40222588,-9.672575,0.8940802,47.640312,-1.4212234,-2.5067756,-3.4493632,-0.110336274,-0.19855684,-0.23433566,28.4375,29.75,28.8125,32.625,35.0,36.0
0.3700516,-1.0123138,-1.0227225,-2.0698829,-0.06108039,0.103355736,-0.14578883,-0.42079833,-0.35866788,0.059993144,-3.0766459,0.61288536,-2.1498097e-05,-0.17749247,0.05311722,0.0005513975,0.021439247,0.0072483676,0.035625465,0.46247166,-1.3424792,1.8541807,-2.0782468,-1.5743178,2.4302347,-0.22252324,0.22602229,-0.29162365,0.06785203,-0.023615757,-0.25792208,-0.3256114,0.30645782,-9.634268,0.9567419,47.64837,-1.336234,-2.449809,-3.381659,-0.058012612,-0.18440318,-0.34108967,28.4375,29.75,28.8125,32.625,35.0,36.0
0.37205255,-0.40738562,-1.0819292,-1.9755208,-0.050585646,0.0948696,-0.14706042,-0.42116338,-0.35855645,0.059990935,-3.076654,0.6127359,2.0943118e-05,-0.17718263,0.055177532,-0.0006569163,0.023234196,0.0039487123,0.031001503,0.46200284,-1.3420238,1.853607,-2.0781386,-1.5743536,2.4296718,-0.2254138,0.22635536,-0.28971675,0.06935306,-0.023738073,-0.25618923,-0.17238252,0.21068975,-9.595961,0.9791215,47.652847,-1.2957137,-2.4348478,-3.4185104,-0.03729538,-0.16457799,-0.41733497,28.4375,29.75,28.8125,32.625,35.0,36.0
0.3740524,-0.3006406,-0.36846954,-2.3575113,-0.039874095,0.058583405,-0.16214526,-0.42151,-0.35842812,0.059975944,-3.0765655,0.61259794,3.136171e-05,-0.1770336,0.056304436,-0.0018133038,0.025530303,0.00048368477,0.037705895,0.4615582,-1.3415556,1.853033,-2.0779698,-1.5744499,2.4291525,-0.22664285,0.2284847,-0.2903582,0.07192856,-0.0242876,-0.26411876,-0.05746084,0.15322891,-9.653421,0.9925471,47.717335,-1.2291853,-2.4358723,-3.5913405,-0.052154087,-0.15942432,-0.39759737,28.4375,29.75,28.8125,32.625,35.0,36.0
0.37605226,0.6778429,-0.49392423,-1.9662467,-0.032739643,0.061947264,-0.15122178,-0.42188108,-0.35833353,0.059979074,-3.0765724,0.6125348,0.000106887244,-0.17918962,0.056835957,-0.0021174364,0.024755094,0.0022107596,0.049505584,0.4611135,-1.3410869,1.8524336,-2.0778754,-1.5744861,2.4286678,-0.22904257,0.23076113,-0.29194504,0.06927557,-0.024406316,-0.27831802,-0.11492168,0.019153614,-9.500193,0.8784135,47.661808,-1.1215061,-2.5894346,-3.6743405,0.012022639,-0.15112281,-0.24373749,28.4375,29.75,28.8125,32.625,35.0,36.0
0.3780523,1.555803,0.6641628,-1.8469889,-0.043406654,0.06281746,-0.16898787,-0.4222654,-0.35825422,0.0599955,-3.076651,0.61228,0.00018512679,-0.18116066,0.057487544,-0.0015552338,0.024142291,0.0020345806,0.05397274,0.4606687,-1.3406067,1.8517865,-2.0777667,-1.5744976,2.428054,-0.23191807,0.23243517,-0.29582155,0.07132067,-0.023790631,-0.2856635,0.05746084,-0.15322891,-9.500193,0.8940802,47.675243,-1.0029025,-2.6530724,-3.5410683,0.04341607,-0.13593166,-0.15612796,28.4375,29.75,28.8125,32.625,35.0,36.0
0.38005215,0.5813388,0.16723521,-1.5924,-0.007038668,0.034041654,-0.14651674,-0.42262697,-0.358107,0.059972852,-3.076599,0.6121581,0.00015049167,-0.18135619,0.057668343,-0.0011679747,0.02429453,0.0006758779,0.04869917,0.4601524,-1.3401392,1.8512353,-2.0776217,-1.5745457,2.4274685,-0.23244609,0.23288557,-0.29802892,0.074353665,-0.023330254,-0.280918,-0.11492168,-0.1340753,-9.2703495,0.90750587,47.68599,-1.0852983,-2.5893922,-3.4777684,0.022834692,-0.10547876,-0.13160425,28.4375,29.75,28.8125,32.625,35.0,36.0
