Tylouw/Master_Thesis_Code/training_data_v2/rect_rod_t0.2/sample_28_session_1.csv
timestamp[s],tcp_force_x[N],tcp_force_y[N],tcp_force_z[N],tcp_force_rx[Nm?],tcp_force_ry[Nm?],tcp_force_rz[Nm?],tcp_pose_x[m],tcp_pose_y[m],tcp_pose_z[m],tcp_pose_rx[rot_vec_x],tcp_pose_ry[rot_vec_y],tcp_pose_rz[rot_vec_z],tcp_velo_x[m/s],tcp_velo_y[m/s],tcp_velo_z[m/s],tcp_velo_rx[rot_vec_x/s],tcp_velo_ry[rot_vec_y/s],tcp_velo_rz[rot_vec_z/s],q1[rad],q2[rad],q3[rad],q4[rad],q5[rad],q6[rad],qd1[rad/s],qd2[rad/s],qd3[rad/s],qd4[rad/s],qd5[rad/s],qd6[rad/s],tool_acc_x,tool_acc_y,tool_acc_z,current_of_whole_robot[A],voltage_of_whole_robot[V],current_J1[A],current_J2[A],current_J3[A],current_J4[A],current_J5[A],current_J6[A],temp_J1[C],temp_J2[C],temp_J3[C],temp_J4[C],temp_J5[C],temp_J6[C]
8.4099884e-07,0.6205379,-0.28603983,-0.25165224,-0.03433621,0.038908646,-0.009902961,-0.38933414,-0.3687247,0.05998546,-3.0786994,0.6248691,0.00016323359,0.0020214268,0.0010957763,-0.001458888,0.0020050977,-0.0038829008,9.5166055e-05,0.5050448,-1.381596,1.9042,-2.0919273,-1.5708536,2.480001,-3.60881e-05,-0.0006421412,0.0038043621,0.0012055662,0.00013506482,-0.00013324126,0.15322891,0.095768064,-8.6574335,0.7150385,47.678825,-0.21213536,-3.0616837,-2.4538803,-0.19398622,0.10671851,-0.02125327,28.5625,29.75,28.8125,32.625,35.0625,36.0
0.002052757,0.43951073,-0.42654747,-0.1542253,-0.031012192,0.038212843,-0.005995856,-0.38934985,-0.36869857,0.06000321,-3.0786934,0.62492555,0.00026125513,-0.00090108253,-0.00052898336,-0.0011376403,-0.0023921283,0.004025476,9.432054e-05,0.5050088,-1.3816556,1.9042362,-2.091955,-1.5708898,2.480001,-3.537885e-05,0.0009611769,0.0035341932,-0.009176222,0.00013222983,-0.0001302063,0.15322891,0.1340753,-8.676587,0.6971306,47.657326,-0.16615644,-3.044404,-2.2500536,-0.13723257,0.11399878,-0.016372588,28.5625,29.75,28.8125,32.625,35.0625,36.0
0.004052193,-0.2914485,-0.62551665,-0.109361865,-0.031478185,0.024616083,0.006677904,-0.38932535,-0.3687198,0.059998553,-3.0787015,0.6249085,0.00018171723,-0.001300038,-0.0007441168,-0.0018755167,-0.002460006,0.0041253525,7.533131e-05,0.5050448,-1.3816429,1.9042238,-2.0919197,-1.5708536,2.4800253,-5.180795e-05,0.0027819066,0.003492989,-0.011076026,0.00013861214,-0.00012715183,0.11492168,0.21068975,-8.599973,0.7284641,47.681515,-0.2238718,-3.3550572,-2.5898023,-0.04535036,0.11194125,-0.018194288,28.5625,29.75,28.8125,32.625,35.0625,36.0
0.006052453,0.12091586,-0.15167752,-0.29318774,-0.017604323,0.020696182,-0.0010947916,-0.3893463,-0.36871552,0.059994984,-3.078694,0.62492603,0.0002322071,-0.0004861529,-0.0003002617,-0.0009066176,-0.0013881307,0.002194987,8.394407e-05,0.5050329,-1.3816195,1.9042119,-2.091953,-1.5708774,2.4800253,-3.9857692e-05,0.0008531263,0.0023752728,-0.005821551,0.00014441757,-0.00012422733,0.038307227,0.1340753,-8.523358,0.83589023,47.690468,-0.16621006,-3.2539024,-2.5442882,-0.05261354,0.116363436,-0.0024891284,28.5625,29.75,28.8125,32.625,35.0625,36.0
0.008051609,0.6086175,0.8410325,-0.58175373,0.004433344,-0.0007270565,-0.00036328094,-0.38933983,-0.3687306,0.05999434,-3.0787063,0.6249092,0.00021903355,8.353604e-05,1.3685654e-05,-0.00027184692,-0.00023723027,0.0001338509,8.7518674e-05,0.50505686,-1.3816078,1.904199,-2.0919511,-1.5708655,2.4800372,-3.3486915e-05,2.250796e-05,0.0008402734,-0.0010952493,0.0001421275,-0.00012143356,-0.038307227,0.15322891,-8.599973,0.7038487,47.703903,-0.15838772,-3.2018924,-2.4148269,-0.0963839,0.10071848,-0.019035762,28.5625,29.75,28.8125,32.625,35.0625,36.0
0.010051709,0.8920069,1.1117188,-0.99902666,0.013337714,0.006318773,-0.010812521,-0.38933977,-0.36870474,0.059976645,-3.078652,0.624975,0.00017427233,0.0007181319,0.00037344274,-0.00032571863,0.0010200002,-0.0021219198,8.436428e-05,0.50502086,-1.3815958,1.9042224,-2.0919387,-1.5708774,2.4800491,-4.3593864e-05,3.0197302e-07,0.00026874468,0.0020809555,0.00013941232,-0.00012849568,0.095768064,0.05746084,-9.059659,0.7777002,47.668976,-0.6449038,-2.740811,-2.9627504,-0.080968924,0.08220036,-0.08947735,28.5625,29.75,28.8125,32.625,35.0625,36.0
0.012051916,0.34621125,0.13609667,-1.202335,-0.01813486,0.02801788,-0.012899063,-0.38935268,-0.36871898,0.05998838,-3.0786808,0.62498057,0.00022814906,0.0016762357,0.0011557066,-0.0039680656,0.005270925,-0.00976532,-0.00012643039,0.5050327,-1.3815937,1.9041985,-2.091962,-1.5708774,2.4800608,-0.00045693212,0.0068187625,3.6055528e-06,0.0042736046,0.00012191042,-0.00033004765,0.15322891,0.076614454,-9.174581,0.6725152,47.612545,-0.8212744,-2.7079053,-3.156448,-0.11566709,0.06698001,-0.13524845,28.5625,29.75,28.8125,32.625,35.0625,36.0
0.014052006,-0.99104416,-1.2050989,-1.4629638,-0.043035083,0.03095315,-0.0009834795,-0.38932347,-0.36870942,0.05997199,-3.0786567,0.6249181,0.00010429325,-0.005204644,0.003460861,-0.0034423363,0.0040960615,-0.0075874985,-0.0006310534,0.5050291,-1.3815914,1.9042195,-2.091902,-1.5708536,2.4800212,-0.01074994,0.012343541,-0.0076365764,0.003913222,7.8376834e-05,-0.01011433,0.038307227,0.11492168,-9.289502,0.7038487,47.70211,-0.37483567,-3.143196,-2.9582224,-0.09997493,0.06519494,-0.09482287,28.5625,29.75,28.8125,32.625,35.0625,36.0
0.016052717,-0.88980764,-1.4450002,-1.7929207,-0.07423139,0.0696363,-0.012355334,-0.389312,-0.36869586,0.059946463,-3.0786116,0.6248282,-9.909867e-06,-0.005638209,0.003487831,-0.0023746486,0.0033639525,-0.0062363828,0.00634583,0.505017,-1.3815441,1.9042081,-2.0918424,-1.5708536,2.4799588,-0.011191025,0.010793973,-0.008414374,0.004702802,6.3405896e-05,-0.017532295,-0.21068975,0.21068975,-9.519346,0.7463667,47.69763,-0.39781162,-3.0553994,-3.0118833,-0.08514407,0.0494574,-0.011861719,28.5625,29.75,28.8125,32.625,35.0625,36.0
0.018052574,-1.2896047,-1.2283604,-1.7919976,-0.08936467,0.09250407,-0.03352637,-0.38932887,-0.36868477,0.059947047,-3.078565,0.6248743,1.0146569e-05,-0.00472919,0.0034425284,-0.0026406758,0.0046988116,-0.008589693,0.010719398,0.5050051,-1.3815198,1.9041723,-2.0918167,-1.5708898,2.4799817,-0.010248849,0.011286643,-0.0090328185,0.007532744,3.8118378e-05,-0.020963615,-0.4213795,0.28730422,-9.615114,0.7911258,47.709274,-0.64363074,-2.7928405,-3.2672925,-0.06427423,0.026471365,0.025375025,28.5625,29.75,28.8125,32.625,35.0625,36.0
0.020052735,-1.805485,-1.1366446,-1.9649943,-0.06566714,0.09612941,-0.04882907,-0.38933316,-0.36866757,0.059916846,-3.078548,0.62485296,-8.7213586e-05,-0.004706002,0.0039306963,-0.0029872751,0.006142693,-0.01113513,0.009622748,0.50495696,-1.3814712,1.9041833,-2.0918157,-1.5708655,2.4799223,-0.011030965,0.0126243625,-0.010522453,0.0106116,8.108197e-06,-0.020648535,-0.47884035,0.30645782,-9.672575,0.7150385,47.682407,-0.7349081,-2.781714,-3.359383,-0.097453654,0.02163424,0.011510089,28.5625,29.75,28.8125,32.625,35.0625,36.0
0.022053668,-1.2590305,-0.45392627,-2.2122965,-0.043784592,0.10429537,-0.08274046,-0.38931516,-0.36868024,0.0599217,-3.0785427,0.62485474,-0.0001533579,-0.0061740717,0.0042739254,-0.0025992491,0.005941866,-0.010762214,0.004763709,0.50498027,-1.3814709,1.9041585,-2.091756,-1.5708417,2.4799473,-0.012978394,0.013747826,-0.012927116,0.0114702135,5.294073e-07,-0.01773584,-0.53630114,0.24899697,-9.787497,0.779936,47.66539,-0.87156844,-2.6319125,-3.3789802,-0.10064656,0.0028645853,-0.052078284,28.5625,29.75,28.8125,32.625,35.0625,36.0
0.024054166,-1.1908965,-0.5771864,-2.0809398,-0.03469708,0.10234052,-0.08936664,-0.38933963,-0.36865363,0.059895612,-3.078518,0.6247744,-0.00019897893,-0.007711082,0.004451455,-0.0030421393,0.006076835,-0.011019767,0.0015860851,0.50491995,-1.3814098,1.9041456,-2.091756,-1.5708536,2.47984,-0.014716253,0.016680276,-0.015330178,0.011231543,3.4566515e-08,-0.0162946,-0.7086837,0.28730422,-9.787497,0.71279734,47.688675,-0.8420557,-2.7013595,-3.2968497,-0.09922117,-0.0003269154,-0.09428583,28.5625,29.75,28.8125,32.625,35.0625,36.0
0.02605472,-1.4717537,-0.48658422,-2.1128867,-0.04471079,0.09119382,-0.09978208,-0.38935485,-0.36865738,0.059892442,-3.0785086,0.6247728,-0.00018751291,-0.008258708,0.0049854484,-0.004131947,0.006827104,-0.012381121,0.0006572958,0.50491947,-1.381373,1.9041094,-2.091756,-1.5708655,2.4798398,-0.016128052,0.01899779,-0.015440882,0.010578863,2.2569462e-09,-0.016777128,-0.842759,0.24899697,-9.710882,0.784413,47.67345,-0.81759036,-2.8545876,-3.4261565,-0.09558164,-0.020280968,-0.08212371,28.5625,29.75,28.8125,32.625,35.0625,36.0
0.028053485,-1.8008147,-1.0547352,-2.1587732,-0.044235937,0.10005576,-0.10910276,-0.3893697,-0.36865032,0.059886873,-3.0784903,0.62480694,-0.00029497422,-0.00922805,0.00481707,-0.003094003,0.0059675826,-0.010834463,-0.00052489457,0.5048713,-1.3813251,1.9040493,-2.0916846,-1.5708297,2.4798152,-0.016750695,0.018514903,-0.01738113,0.011233233,1.4736246e-10,-0.016216934,-0.8236054,0.21068975,-9.940725,0.6658024,47.692257,-0.82631624,-2.6991687,-3.3857956,-0.08759841,-0.042461198,-0.09078966,28.5625,29.75,28.8125,32.625,35.0625,36.0
0.0300533,-1.8657961,-0.6348477,-1.9807682,-0.051438566,0.10908449,-0.123054095,-0.38939112,-0.36865923,0.059889294,-3.0785027,0.6248299,-0.00029321038,-0.010679958,0.0053973338,-0.0026804386,0.007295298,-0.009577631,-0.0025820234,0.5048588,-1.3812888,1.9040006,-2.091684,-1.5708178,2.4798155,-0.017978396,0.019516777,-0.019703522,0.012102713,-0.0017727017,-0.015383261,-0.7469909,0.11492168,-9.921572,0.74413085,47.68062,-0.865782,-2.7742367,-3.40032,-0.079566196,-0.030250918,-0.10285374,28.5625,29.75,28.8125,32.625,35.0625,36.0
0.03205252,-1.4042947,-0.1950624,-1.8721209,-0.04162152,0.13501936,-0.13913435,-0.38940302,-0.3686255,0.059855737,-3.078428,0.62487286,-0.00038120907,-0.011347868,0.0057084006,-0.002491948,0.008516755,-0.009212247,-0.003763527,0.5047989,-1.3812284,1.9040002,-2.0916593,-1.5708307,2.4797919,-0.018347507,0.020269418,-0.021268358,0.01319022,-0.0030210633,-0.0145676965,-0.7469909,0.076614454,-9.80665,0.6971306,47.68599,-0.8900003,-2.7455807,-3.4132712,-0.0779722,-0.049350794,-0.15156205,28.5625,29.75,28.8125,32.625,35.0625,36.0
0.034026183,-1.8588101,0.08189481,-1.9395976,-0.013110644,0.11598888,-0.14631003,-0.3894683,-0.36863133,0.059888594,-3.0784526,0.6248974,-0.00027036553,-0.012432524,0.0058598765,-0.0018811049,0.008314801,-0.008482405,-0.004447675,0.50476253,-1.3811923,1.90388,-2.0916479,-1.5708545,2.4797678,-0.01950344,0.020641219,-0.02331087,0.014124566,-0.0031990737,-0.01503858,-0.57460845,0.019153614,-9.749189,0.7150385,47.684196,-0.8359474,-2.6437032,-3.3146815,-0.06950762,-0.058174655,-0.1676988,28.5625,29.75,28.8125,32.625,35.0625,36.0
0.036054008,-0.98909175,0.2843146,-1.9031283,0.0075299772,0.115071125,-0.16321665,-0.38949817,-0.36861214,0.059862763,-3.0784254,0.62491083,-0.00031491162,-0.013169125,0.005907624,-0.0017962632,0.008151795,-0.008803151,-0.0044313692,0.50470227,-1.3811198,1.9038557,-2.0916588,-1.5708545,2.4797194,-0.020455768,0.021718238,-0.024951098,0.014888282,-0.0029047208,-0.016006885,-0.51714754,-0.05746084,-9.787497,0.7351769,47.71465,-0.89502466,-2.6862273,-3.3568077,-0.06095571,-0.066059515,-0.15528888,28.5625,29.75,28.8125,32.625,35.0625,36.0
0.038052455,-0.9652428,0.33861974,-2.0930486,0.009305682,0.0844644,-0.16074333,-0.38950443,-0.36860833,0.059859063,-3.0784025,0.6248674,-0.0003721784,-0.014198581,0.005966062,-0.0015815152,0.008045748,-0.008609746,-0.00396405,0.50469,-1.3810834,1.9038075,-2.0915992,-1.5708545,2.479683,-0.021513911,0.022900863,-0.026979465,0.015513191,-0.0029099665,-0.017531248,-0.5554548,-0.076614454,-9.672575,0.7642693,47.696735,-0.94815767,-2.6864648,-3.344386,-0.07058734,-0.08466596,-0.17112045,28.5625,29.75,28.8125,32.625,35.0625,36.0
0.0400519,-1.4601688,0.014403905,-2.0647776,0.003640879,0.049982708,-0.17544946,-0.3895224,-0.36857066,0.059823718,-3.078329,0.62487197,-0.00047349924,-0.015827334,0.0063062063,-0.0010805371,0.00808454,-0.0075009726,-0.0046884557,0.50461745,-1.381011,1.9037942,-2.091563,-1.570867,2.4796226,-0.023248496,0.023949448,-0.0294716,0.016006434,-0.0034873164,-0.018538857,-0.4405331,-0.114921674,-9.653421,0.7463667,47.683304,-0.8808719,-2.6661303,-3.321562,-0.053758517,-0.10122805,-0.16643894,28.5625,29.75,28.8125,32.625,35.0625,36.0
0.042052653,-0.7776867,-0.108105235,-2.2028873,-0.007367641,0.04981236,-0.19346292,-0.38957977,-0.36857626,0.0598601,-3.0783312,0.62500757,-0.00039020358,-0.017005323,0.007132107,-0.00086782384,0.009233365,-0.006716113,-0.0056097987,0.504581,-1.3809867,1.9036745,-2.0915267,-1.5708793,2.4796705,-0.02487159,0.024502672,-0.0307441,0.016598655,-0.004873428,-0.019237561,-0.3256114,-0.076614454,-9.653421,0.7665104,47.66091,-0.7595716,-2.6956978,-3.258019,-0.086445905,-0.09797792,-0.20837684,28.5625,29.75,28.8125,32.625,35.0625,36.0
0.044051845,-0.8445673,-0.19426988,-1.9676757,-0.02310251,0.056044318,-0.2009899,-0.3896116,-0.36855438,0.059853837,-3.0782986,0.6249045,-0.00036921946,-0.018193336,0.007816494,-0.00062619796,0.01077826,-0.0055446676,-0.0057131806,0.50454473,-1.3809384,1.9036263,-2.091503,-1.570928,2.4795742,-0.025932947,0.02526466,-0.032316603,0.01713623,-0.006795613,-0.020190913,-0.24899697,-0.05746084,-9.653421,0.7732232,47.72629,-0.81238866,-2.6272295,-3.3012183,-0.082060605,-0.08336097,-0.2034131,28.5625,29.75,28.8125,32.625,35.0625,36.0
0.046051916,-0.6738365,-0.70489866,-1.7901633,-0.032183737,0.06905364,-0.19404119,-0.3896447,-0.36853182,0.059857324,-3.0782824,0.62499744,-0.00042339633,-0.018558897,0.008100769,-0.0012413752,0.011188821,-0.0062637534,-0.0054075425,0.50446063,-1.380914,1.9035786,-2.0914552,-1.5709037,2.4795501,-0.026742026,0.02666792,-0.032482766,0.016726827,-0.006810725,-0.021305101,-0.11492168,0.038307227,-9.653421,0.779936,47.690468,-0.8780048,-2.6331735,-3.3827891,-0.09792912,-0.09598021,-0.22895822,28.5625,29.75,28.8125,32.625,35.0625,36.0
0.04805272,-0.2886771,-0.6037833,-1.7219654,-0.035182916,0.07253125,-0.17733143,-0.38969058,-0.36850074,0.05983801,-3.0782256,0.6249839,-0.00044232825,-0.020491399,0.008242167,-0.0002568367,0.011133718,-0.0036833242,-0.0041346513,0.50438833,-1.3808297,1.9035176,-2.0914314,-1.5709404,2.4794767,-0.028029362,0.027257893,-0.035441916,0.016812818,-0.008019059,-0.023861242,-0.095768064,0.076614454,-9.576807,0.7732232,47.703007,-0.8060932,-2.664609,-3.374782,-0.0919931,-0.08756776,-0.21307112,28.5625,29.75,28.8125,32.625,35.0625,36.0
0.050052494,-0.7675915,-1.142555,-1.9336969,-0.019975228,0.05236663,-0.16293405,-0.3897376,-0.36851168,0.05986713,-3.0782435,0.6250068,-0.00039839244,-0.022759888,0.00943621,0.00030381663,0.013539131,-0.00089880434,-0.0040260493,0.50436366,-1.3807933,1.9033974,-2.0913832,-1.5709418,2.479464,-0.029997988,0.028295295,-0.0380029,0.017072964,-0.011476063,-0.025930613,-0.038307227,0.19153613,-9.576807,0.7866488,47.690468,-0.77041286,-2.6639328,-3.2834184,-0.079757735,-0.08262738,-0.23037444,28.5625,29.75,28.8125,32.625,35.0625,36.0
0.052052584,-0.3367002,-1.1866472,-2.0488014,-0.02838227,0.048258822,-0.16007541,-0.38978028,-0.36848348,0.059858155,-3.0782146,0.6250198,-0.0003885379,-0.023811372,0.010102921,0.00043726602,0.014458009,-0.00015442513,-0.0036123593,0.50429124,-1.380745,1.9033607,-2.0913827,-1.5709656,2.4794035,-0.03137068,0.028904773,-0.039089307,0.017344525,-0.012643805,-0.027713984,0.076614454,0.21068975,-9.576807,0.71279734,47.66808,-0.74141043,-2.5924053,-3.2799506,-0.102649935,-0.0482656,-0.21846911,28.5625,29.75,28.8125,32.625,35.0625,36.0
0.054051664,-0.019487757,-1.1293343,-1.9618092,-0.04282751,0.046363037,-0.15743068,-0.3898193,-0.36845762,0.059843186,-3.078167,0.62504745,-0.00043357172,-0.024479114,0.0106275035,0.0003857483,0.01559287,-5.918301e-06,-0.0033206835,0.50421923,-1.3806727,1.9033011,-2.091347,-1.5709785,2.4793549,-0.032207742,0.029683448,-0.040024605,0.017921742,-0.01371242,-0.02883945,-0.019153614,0.24899697,-9.595961,0.78888994,47.717335,-0.7288758,-2.5652485,-3.324759,-0.10354154,-0.049538106,-0.23335323,28.5625,29.75,28.8125,32.625,35.0625,36.0
0.056051668,-0.4127098,-1.7619652,-2.043342,-0.047850624,0.032301143,-0.15510488,-0.38986224,-0.36845824,0.05986397,-3.0781574,0.62500787,-0.0004089062,-0.025481481,0.010425664,0.0006710895,0.014104943,-0.00021246959,-0.0040417914,0.50419474,-1.3806244,1.9031805,-2.0912755,-1.5710019,2.479307,-0.033674717,0.03069912,-0.04196166,0.01829878,-0.012313799,-0.02958732,-0.019153614,0.36391866,-9.595961,0.80456203,47.690468,-0.7501329,-2.4736269,-3.3734245,-0.120945424,-0.043817267,-0.23623984,28.5625,29.75,28.8125,32.625,35.0625,36.0
0.058052327,-0.36235893,-1.8141491,-1.9785299,-0.0602297,0.03640476,-0.15675113,-0.38992608,-0.36839768,0.05985383,-3.0780683,0.6251042,-0.00042068673,-0.02592295,0.010149788,0.0006006814,0.012542233,-0.0018843458,-0.004234752,0.50406265,-1.3805639,1.9031209,-2.0912263,-1.5710491,2.4792464,-0.03497374,0.031945787,-0.043501906,0.019290157,-0.010142102,-0.03069666,-0.019153614,0.3256114,-9.519346,0.7642693,47.69763,-0.664156,-2.460148,-3.32755,-0.115024835,-0.08323556,-0.26445073,28.5625,29.75,28.8125,32.625,35.0625,36.0
0.06005244,-0.52847177,-1.9943932,-2.099324,-0.058615956,0.041088425,-0.15055482,-0.38999543,-0.3684007,0.059880804,-3.0781076,0.62511075,-0.00034802602,-0.026470771,0.009565738,0.0010542563,0.012125205,-0.0013707571,-0.002104245,0.5040029,-1.3805156,1.9029998,-2.0912144,-1.5710491,2.4791858,-0.034568783,0.03276967,-0.045665465,0.019977083,-0.010027677,-0.032422125,-0.095768064,0.2681506,-9.481039,0.7978386,47.655537,-0.786942,-2.4893823,-3.3115532,-0.12590694,-0.07717695,-0.25436574,28.5625,29.75,28.8125,32.625,35.0625,36.0
0.062052544,-0.4705942,-1.355506,-1.7490878,-0.06345994,0.053896386,-0.15279913,-0.3900555,-0.36840293,0.059896313,-3.0781467,0.6250025,-0.0003474476,-0.027091194,0.009499083,0.00095294573,0.01216389,-0.0016407229,-0.0014794815,0.50394285,-1.380443,1.9028677,-2.0911663,-1.5710367,2.4790533,-0.035089664,0.034134824,-0.04713166,0.020332284,-0.00993428,-0.033567302,-0.11492168,0.38307226,-9.442732,0.7418897,47.66987,-0.8090856,-2.4151444,-3.3400705,-0.13602659,-0.112137064,-0.25894678,28.5625,29.75,28.8125,32.625,35.0625,36.0
0.06405275,-0.7753261,-1.3559793,-1.7353953,-0.039291665,0.060669474,-0.15759996,-0.39008164,-0.36837658,0.059875116,-3.0780723,0.6250842,-0.00042086773,-0.028667046,0.010502062,0.0013353074,0.0129530905,-0.00047841482,-0.0031053734,0.5038821,-1.3803706,1.9028195,-2.091118,-1.5710496,2.479053,-0.03746072,0.03453976,-0.04857364,0.020735847,-0.011192159,-0.03430847,-0.19153613,0.24899697,-9.385271,0.7329411,47.703007,-0.7925943,-2.431642,-3.3379788,-0.13439204,-0.0638134,-0.28637373,28.5625,29.75,28.8125,32.625,35.0625,36.0
0.066052124,-0.6327002,-0.65386915,-1.7558963,-0.029334111,0.067624345,-0.15452862,-0.39016578,-0.36836866,0.05988283,-3.0780818,0.62510514,-0.00036649493,-0.029844502,0.010990651,0.0014994371,0.014252368,0.0003965159,-0.0033169214,0.50379795,-1.3802742,1.9026879,-2.091118,-1.571062,2.4789808,-0.03839961,0.035701774,-0.0504564,0.02132172,-0.012754936,-0.03503206,-0.15322891,0.30645782,-9.423578,0.77545905,47.68062,-0.7302507,-2.4361064,-3.306964,-0.15163226,-0.07292186,-0.29192048,28.5625,29.75,28.8125,32.625,35.0625,36.0
0.068051934,-1.3402547,-0.7276229,-1.4804877,-0.012887668,0.049871217,-0.1497029,-0.39021647,-0.36834568,0.059891902,-3.0780332,0.6250366,-0.00033360417,-0.030995976,0.011130949,0.0018093562,0.014364924,0.0012169798,-0.0032025836,0.5037497,-1.380214,1.9025797,-2.091046,-1.5711225,2.4788961,-0.03939453,0.036677644,-0.052380785,0.021604652,-0.013254957,-0.036139052,-0.19153613,0.2681506,-9.32781,0.7732232,47.70032,-0.7596067,-2.427848,-3.321765,-0.15386055,-0.06385967,-0.31964394,28.5625,29.75,28.8125,32.625,35.0625,36.0
0.07005208,-0.4482855,-0.093957275,-1.4541981,-0.024008768,0.071055375,-0.16645971,-0.3902733,-0.36833367,0.059901323,-3.0780568,0.6250973,-0.00035657434,-0.031435255,0.011327101,0.0014250922,0.015660461,0.00080597686,6.567641e-05,0.5036539,-1.3801652,1.9024953,-2.0910223,-1.5710863,2.478835,-0.039542664,0.03830798,-0.053556465,0.022137396,-0.014194871,-0.03955295,-0.19153613,0.17238252,-9.32781,0.78888994,47.67614,-0.78354204,-2.3681011,-3.2654328,-0.15379028,-0.07187293,-0.318315,28.5625,29.75,28.8125,32.625,35.0625,36.0
0.07205233,-0.49828526,-0.15085962,-1.5789967,-0.022682926,0.06755016,-0.1543031,-0.3903512,-0.36829734,0.059896894,-3.0779963,0.6250462,-0.0003400145,-0.03192599,0.011925504,0.0014413749,0.015433391,-0.00044908826,-0.0005754483,0.5035575,-1.3800571,1.9023637,-2.0909617,-1.5711464,2.4787147,-0.041501116,0.038599376,-0.054256488,0.023528459,-0.013391635,-0.04087129,-0.2681506,0.15322891,-9.308657,0.7463667,47.68599,-0.8017782,-2.4294195,-3.350928,-0.16940984,-0.079582766,-0.30722922,28.5625,29.75,28.8125,32.625,35.0625,36.0
0.074052215,-0.8379446,-0.38446623,-1.4851614,-0.018426996,0.051679365,-0.1535611,-0.39042023,-0.3682998,0.059914805,-3.0780036,0.62512535,-0.00029805244,-0.033597145,0.011423298,0.0018549399,0.015483465,-0.00016536377,-0.0015494159,0.5034973,-1.3799841,1.9022311,-2.0909374,-1.5711464,2.478703,-0.042093247,0.041467525,-0.058956794,0.02513632,-0.013577672,-0.040487338,-0.22984336,-0.019153614,-9.385271,0.7709874,47.719128,-0.80882865,-2.4328108,-3.2168615,-0.18182918,-0.084934056,-0.32546058,28.5625,29.75,28.8125,32.625,35.0625,36.0
0.076052375,-0.79918784,-0.3198754,-1.7539407,-0.013213563,0.05510163,-0.1470589,-0.39047217,-0.36827236,0.05990462,-3.0779533,0.62503594,-0.0003345673,-0.033066977,0.012179273,0.0008178529,0.016785813,-0.0028490804,0.00021644722,0.50342524,-1.3798876,1.9021238,-2.0908654,-1.5711826,2.4785817,-0.04296214,0.042434163,-0.05797543,0.026163096,-0.013424054,-0.043121956,-0.30645782,-0.038307227,-9.289502,0.7642693,47.703903,-0.75435895,-2.4061244,-3.2201872,-0.22449929,-0.102888465,-0.33867377,28.5625,29.75,28.8125,32.625,35.0625,36.0
0.07805208,-0.7835215,-0.12987603,-1.4657161,-0.007854162,0.06946462,-0.15365449,-0.3905491,-0.36826056,0.059929207,-3.077976,0.6251168,-0.0002367334,-0.034619067,0.012512771,0.0009884546,0.016839914,-0.0014835997,0.0015238218,0.50334084,-1.3798511,1.9020275,-2.0908778,-1.571194,2.478545,-0.044518713,0.043686148,-0.059684377,0.0254496,-0.014135038,-0.04598442,-0.3256114,-0.019153614,-9.193734,0.6948948,47.68062,-0.77069926,-2.4154034,-3.3484087,-0.19865566,-0.074505225,-0.32991922,28.5625,29.75,28.8125,32.625,35.0625,36.0
0.0800523,-0.8845157,-0.080102876,-1.5620697,0.005763279,0.08445523,-0.15947796,-0.39061564,-0.36823305,0.059922736,-3.0779572,0.62501615,-0.0003095517,-0.036619727,0.012452406,0.0019182748,0.014813945,-0.00037274713,0.0025147132,0.5032322,-1.3797427,1.9018949,-2.0907934,-1.5711936,2.478376,-0.047038577,0.044525564,-0.06289086,0.025858732,-0.012908154,-0.049495585,-0.36391866,-0.038307227,-9.232041,0.7150385,47.664497,-0.67783237,-2.389805,-3.2518384,-0.20121366,-0.08596245,-0.30728793,28.5625,29.75,28.8125,32.625,35.0625,36.0
0.082051784,-1.3054948,-0.015408633,-1.5384568,0.014125932,0.08355646,-0.14503182,-0.39069915,-0.36823237,0.059947807,-3.0779748,0.62499696,-0.00025532756,-0.036353197,0.011565485,0.0013139191,0.015722139,-0.0024022425,0.0072128014,0.50316095,-1.3796576,1.9017261,-2.0907447,-1.571206,2.4782906,-0.045404326,0.04744705,-0.0653776,0.027636146,-0.012727213,-0.052558973,-0.36391866,-0.019153614,-9.289503,0.75755644,47.652847,-0.8095804,-2.503315,-3.171348,-0.21572964,-0.08508831,-0.2895721,28.5625,29.75,28.8125,32.625,35.0625,36.0
0.084051766,-1.2556658,-0.048815567,-1.496595,0.0007157052,0.08642376,-0.15370151,-0.39073423,-0.36816248,0.059914067,-3.0778356,0.6250272,-0.0003804891,-0.036058474,0.012913118,0.00042950662,0.016839577,-0.005168901,0.0047998894,0.5030404,-1.3795735,1.9016789,-2.0906365,-1.5712537,2.4782066,-0.04761215,0.047660634,-0.06390871,0.028911103,-0.012374892,-0.05235354,-0.47884035,0.076614454,-9.11712,0.78217715,47.71017,-0.82179093,-2.4528694,-3.351665,-0.25015554,-0.10547373,-0.2935878,28.5625,29.75,28.8125,32.625,35.0625,36.0
0.08605185,-0.92936105,-0.30517903,-1.6307733,-0.009587406,0.08682343,-0.15305084,-0.39082482,-0.36815804,0.059925906,-3.0778537,0.62493175,-0.00035377106,-0.037575465,0.012872206,0.0010304167,0.01645276,-0.0040737703,0.007794801,0.5029562,-1.3794531,1.9014987,-2.0905888,-1.571266,2.4780607,-0.048822876,0.048815288,-0.06677489,0.029473329,-0.012572484,-0.056557607,-0.5746084,-0.05746084,-9.346964,0.7486078,47.675243,-0.71936214,-2.4352324,-3.2900357,-0.27903688,-0.101926774,-0.291,28.5625,29.75,28.8125,32.625,35.0625,36.0
0.08805252,-1.1035087,-0.4464288,-1.7435156,-0.030349938,0.07916846,-0.1564153,-0.39088386,-0.36811975,0.059911683,-3.0777917,0.6248991,-0.00039068825,-0.038718015,0.014034288,0.00044452894,0.018147279,-0.0055792695,0.00920725,0.5028594,-1.3793563,1.9014028,-2.0905282,-1.5713023,2.4779515,-0.0513573,0.050993755,-0.068374336,0.031027263,-0.013339446,-0.06050111,-0.40222588,0.05746084,-9.385271,0.78888994,47.709274,-0.7540241,-2.4198372,-3.311584,-0.29864192,-0.13512586,-0.2353042,28.5625,29.75,28.8125,32.625,35.0625,36.0
0.090052575,-1.5180088,-1.1185582,-1.8222483,-0.03668929,0.06340032,-0.14559022,-0.39096007,-0.36807826,0.059897676,-3.0777075,0.624803,-0.00040453402,-0.039246295,0.0140673965,0.0009669953,0.018108414,-0.0051464206,0.011848147,0.5027635,-1.3792241,1.9012593,-2.0904443,-1.5713743,2.4778066,-0.05178176,0.050960723,-0.069758095,0.032039028,-0.013523094,-0.06356463,-0.51714754,0.15322891,-9.289502,0.7172743,47.661808,-0.70622,-2.411912,-3.324707,-0.3073911,-0.10721187,-0.19801562,28.5625,29.75,28.8125,32.625,35.0625,36.0
0.09205168,-1.1203976,-1.3514805,-1.7805369,-0.039365735,0.08195566,-0.1493647,-0.391058,-0.36805448,0.059917208,-3.0777116,0.6248581,-0.00037765194,-0.039335173,0.01354332,0.0002973901,0.019200828,-0.005645212,0.01558876,0.5026323,-1.3791391,1.9011034,-2.0903962,-1.5713743,2.4777093,-0.050521567,0.05342946,-0.07112892,0.031903703,-0.014245911,-0.0660427,-0.45968673,0.19153613,-9.3661175,0.7620334,47.655537,-0.90567076,-2.4691114,-3.3553114,-0.32685995,-0.10179916,-0.15114573,28.5625,29.75,28.8125,32.625,35.0625,36.0
0.09405182,-1.4004816,-1.0094204,-1.8511232,-0.0414891,0.08656177,-0.14143707,-0.39112085,-0.36802742,0.059903868,-3.077687,0.6246994,-0.0004525161,-0.041250907,0.01382584,0.00017111392,0.018280737,-0.004926701,0.01508177,0.5025357,-1.3790181,1.9009718,-2.0903132,-1.5713862,2.477517,-0.053048626,0.05556663,-0.07309434,0.030653937,-0.013800938,-0.068061575,-0.30645782,0.2681506,-9.500193,0.7732232,47.677036,-0.7786567,-2.5159838,-3.346463,-0.33706707,-0.10638364,-0.14187233,28.5625,29.75,28.8125,32.625,35.0625,36.0
0.09605189,-1.0891925,-0.82955027,-1.7184879,-0.04734781,0.095598854,-0.15565538,-0.39119488,-0.36800927,0.05988799,-3.0776396,0.6246882,-0.00048446716,-0.04238461,0.01411034,0.0016250197,0.017498704,-0.0022219392,0.01581885,0.5024514,-1.3788747,1.9008273,-2.090265,-1.5714105,2.4774318,-0.054180864,0.053701997,-0.074267976,0.030943308,-0.014426184,-0.069928564,-0.22984336,0.24899697,-9.519346,0.8179876,47.71823,-0.76284754,-2.487956,-3.3685904,-0.3240198,-0.09664269,-0.085706845,28.5625,29.75,28.8125,32.625,35.0625,36.0
0.09805215,-0.9322622,-0.92330927,-1.7781065,-0.050661713,0.09180956,-0.15016235,-0.39130002,-0.36798564,0.05992291,-3.0776522,0.6245944,-0.00038083605,-0.04253655,0.013913401,0.0010990686,0.017866721,-0.0038391363,0.016372263,0.5023436,-1.3788018,1.900648,-2.090205,-1.5714582,2.477264,-0.054263737,0.055747744,-0.07572103,0.0319382,-0.013969403,-0.07056583,-0.24899697,0.30645782,-9.461885,0.784413,47.67166,-0.8838873,-2.3290515,-3.3500772,-0.34813362,-0.11304031,-0.07493778,28.5625,29.75,28.8125,32.625,35.0625,36.0
0.1000523,-0.901068,-1.0782393,-1.8580925,-0.04377967,0.075957835,-0.14185062,-0.39140013,-0.36796764,0.05993744,-3.0776494,0.62451756,-0.00035656223,-0.043842163,0.014314511,0.0002465464,0.019029053,-0.0040027434,0.014861335,0.50223535,-1.3786807,1.9004554,-2.0901334,-1.5714825,2.4771082,-0.055550385,0.05889428,-0.07732066,0.031094676,-0.014915979,-0.070338026,-0.2681506,0.30645782,-9.404425,0.779936,47.66987,-0.8435961,-2.5020223,-3.3912513,-0.3353357,-0.09667407,-0.06612225,28.5625,29.75,28.8125,32.625,35.0625,36.0
0.10205246,-0.5680503,-1.3883607,-2.012066,-0.037680168,0.066352636,-0.14435412,-0.3914708,-0.36792135,0.059913777,-3.0775995,0.6245655,-0.0004311105,-0.04449005,0.014056487,-9.822109e-05,0.018517775,-0.0038308068,0.013884687,0.5020915,-1.378572,1.9003724,-2.0900977,-1.5714821,2.4770007,-0.05592966,0.060482524,-0.07816395,0.02995003,-0.014560601,-0.06973993,-0.1340753,0.2873042,-9.385271,0.7105615,47.63404,-0.90245277,-2.5747216,-3.4156265,-0.35049304,-0.14016505,-0.064485125,28.5625,29.75,28.8125,32.5625,35.0625,36.0
0.10405248,-0.485175,-1.4905577,-1.8887737,-0.046383098,0.05478038,-0.14224239,-0.3915549,-0.36786926,0.059888277,-3.0774932,0.62450475,-0.00046891335,-0.046451237,0.014025876,0.0017322341,0.017610312,0.00065392454,0.011821301,0.5019715,-1.3784164,1.9002274,-2.0900147,-1.5715555,2.4768565,-0.05683032,0.059179645,-0.08066629,0.029386345,-0.015936408,-0.06857145,-0.11492168,0.22984336,-9.423578,0.7016076,47.691364,-0.92513126,-2.3681045,-3.3953843,-0.3237611,-0.11657136,-0.06592198,28.5,29.75,28.8125,32.5625,35.0625,36.0
0.10605189,0.3193044,-0.7546045,-1.8049991,-0.05920215,0.06345849,-0.15326492,-0.39168635,-0.36785915,0.059932854,-3.0775406,0.6244957,-0.0003595216,-0.047105085,0.014197661,0.000627705,0.01822014,-0.0008286862,0.009749473,0.5018395,-1.3783193,1.9,-2.0899665,-1.5715669,2.476713,-0.05782196,0.06224691,-0.08168711,0.028930485,-0.015755432,-0.06749208,-0.1340753,0.2681506,-9.308657,0.7866488,47.690468,-0.96780777,-2.4266577,-3.4129696,-0.33301806,-0.13342752,-0.077342585,28.5,29.75,28.8125,32.5625,35.0625,36.0
0.108052574,-0.6831455,-1.1922692,-1.8499551,-0.04832706,0.034353822,-0.14190467,-0.39178553,-0.36782938,0.059929337,-3.0774996,0.6245265,-0.00033665163,-0.049955998,0.012736499,0.00270041,0.015507467,0.0039387066,0.008172387,0.5017196,-1.3781867,1.8998431,-2.0899312,-1.5716027,2.4766176,-0.058040738,0.063364245,-0.08757269,0.02821096,-0.015684841,-0.06613118,-0.05746084,0.30645782,-9.346964,0.76874626,47.679718,-0.97331727,-2.4686623,-3.2652197,-0.30420372,-0.09947661,-0.10508196,28.5,29.75,28.8125,32.5625,35.0625,36.0
0.11005261,0.05027424,-0.7782193,-1.9615368,-0.04131763,0.04273023,-0.15056413,-0.3918767,-0.3678108,0.059922706,-3.0774856,0.6244669,-0.00035490957,-0.04985991,0.013643339,0.0015048988,0.016299365,0.0019020466,0.004875174,0.50161135,-1.3780422,1.8996762,-2.0898836,-1.5716151,2.476474,-0.059641432,0.06451549,-0.08612614,0.027777733,-0.015398029,-0.06443537,-0.038307227,0.28730422,-9.404425,0.7978386,47.645687,-0.946007,-2.471691,-3.3174977,-0.3043902,-0.12890565,-0.12170106,28.5,29.75,28.8125,32.5625,35.0625,36.0
0.112051755,-0.2928497,-0.9070775,-2.1092322,-0.033880945,0.029753106,-0.14157328,-0.3919876,-0.3677855,0.05992495,-3.0774481,0.62438214,-0.0003093549,-0.052234452,0.013046008,0.002914339,0.015283088,0.0050691133,0.0030505275,0.50150335,-1.3778857,1.8994721,-2.0898235,-1.5716752,2.4763181,-0.06042457,0.065774396,-0.09088629,0.028011195,-0.016039621,-0.063389964,0.038307227,0.3256114,-9.442732,0.7284641,47.645687,-1.0192218,-2.3677511,-3.2594113,-0.27352348,-0.12218675,-0.15305644,28.5,29.75,28.8125,32.5625,35.0625,36.0
0.11405176,-0.32839656,-1.3030642,-2.1764803,-0.03142926,0.035144657,-0.13949545,-0.39207518,-0.36774194,0.059911016,-3.0773973,0.62437254,-0.000318212,-0.05194852,0.013676812,0.0011778232,0.017144628,0.0018451154,0.0014953961,0.5013714,-1.3777645,1.899352,-2.0897868,-1.5717114,2.4761868,-0.061155923,0.06867251,-0.09046554,0.02841101,-0.016122503,-0.06256513,-0.038307227,0.3256114,-9.461885,0.7911258,47.682407,-1.0145848,-2.6236277,-3.2520127,-0.27219146,-0.13352327,-0.16660517,28.5,29.75,28.8125,32.5625,35.0625,36.0
0.11605173,-0.23962663,-1.4463967,-2.2660477,-0.036817398,0.04440951,-0.13482422,-0.39216816,-0.36771744,0.059902385,-3.0773356,0.6243978,-0.00039288224,-0.052922156,0.013754058,0.0022226446,0.01623955,0.003492794,0.00025561923,0.50125134,-1.3775966,1.8991483,-2.089679,-1.5717233,2.4760904,-0.062168963,0.06776858,-0.09188137,0.028848482,-0.016127614,-0.06233687,0.038307227,0.30645782,-9.461885,0.7933669,47.674347,-1.0458212,-2.423827,-3.3307562,-0.27542114,-0.14215168,-0.21803778,28.5,29.75,28.8125,32.5625,35.0625,36.0
0.11805645,-0.2082559,-1.0343574,-2.20441,-0.057543077,0.054941062,-0.14474568,-0.39228818,-0.3676712,0.059917394,-3.077267,0.62438303,-0.00034943628,-0.054416206,0.013881431,0.0025250043,0.016309798,0.004453517,-0.00015602603,0.5011071,-1.377464,1.8989328,-2.0895717,-1.5717953,2.475946,-0.06341865,0.069268994,-0.09440027,0.029052375,-0.016658984,-0.063171886,-0.05746084,0.21068975,-9.500193,0.800085,47.690468,-0.9909778,-2.419465,-3.2230954,-0.25891134,-0.13605373,-0.24027397,28.5,29.75,28.8125,32.5625,35.0625,36.0
0.12005257,0.27849975,-1.1774831,-2.1525276,-0.06306202,0.07695058,-0.15178268,-0.39238822,-0.36766842,0.059917964,-3.0773041,0.62437034,-0.00037559477,-0.05462792,0.014045707,0.0009272851,0.017417667,0.0012611401,0.00087120524,0.5009872,-1.3773185,1.8987535,-2.0895474,-1.5717591,2.4758134,-0.06422284,0.07316979,-0.095522344,0.029602164,-0.016100688,-0.06500397,-0.038307227,0.22984336,-9.500193,0.8247004,47.657326,-1.0831773,-2.5837977,-3.2854996,-0.24980849,-0.1590893,-0.24483787,28.5,29.75,28.8125,32.5625,35.0625,36.0
0.12205178,-0.74397385,-1.3715535,-1.9812165,-0.06125545,0.064500995,-0.1401039,-0.39247802,-0.36763313,0.059890226,-3.0772316,0.6243941,-0.0004113987,-0.05551282,0.014355603,0.002185133,0.016924521,0.003583426,-0.0016548306,0.5008671,-1.3771511,1.89861,-2.0895112,-1.5717953,2.4757175,-0.06511956,0.07140114,-0.09637823,0.029952923,-0.016787015,-0.0633718,-0.2681506,0.24899697,-9.672575,0.7866488,47.666286,-1.0836841,-2.4365356,-3.368772,-0.24473792,-0.13895816,-0.28693274,28.5,29.75,28.8125,32.5625,35.0625,36.0
0.12405187,-0.84578997,-1.1487235,-2.182619,-0.053513575,0.077749476,-0.1417822,-0.39259017,-0.3676246,0.059913848,-3.0772347,0.62431824,-0.00034803266,-0.056162998,0.0139760375,0.0018964963,0.016662788,0.0032872688,-0.0016541586,0.50077116,-1.3770182,1.8983825,-2.0894396,-1.5718311,2.475574,-0.06529591,0.073413014,-0.09807197,0.029763533,-0.0164186,-0.06354922,-0.21068975,0.2681506,-9.634268,0.779936,47.691364,-1.1264373,-2.4403787,-3.3179283,-0.22252685,-0.15741831,-0.3250388,28.5,29.75,28.8125,32.5625,35.0625,36.0
0.12605204,-0.7737647,-0.3297381,-2.103289,-0.053446002,0.08880696,-0.14802034,-0.39271697,-0.36759365,0.05992805,-3.0772026,0.62428963,-0.00027210414,-0.058238383,0.013672822,0.0030610885,0.015828846,0.0057985242,0.0003713471,0.5006391,-1.3768739,1.8981656,-2.08938,-1.5718912,2.4754283,-0.066384256,0.07440096,-0.1019696,0.03006201,-0.016903851,-0.066660315,-0.2681506,0.15322891,-9.653421,0.7911258,47.690468,-1.1522632,-2.4320545,-3.333918,-0.22955087,-0.1601587,-0.31938145,28.5,29.75,28.8125,32.5625,35.0625,36.0
0.12805204,-0.8931929,-0.4524383,-2.0127203,-0.04505536,0.09265204,-0.1563336,-0.39281654,-0.36756575,0.059912886,-3.0771737,0.6242278,-0.00031982645,-0.057792682,0.013898001,0.0023402171,0.01634413,0.004660984,-0.0029827491,0.5005074,-1.3767053,1.8979868,-2.0893204,-1.5719031,2.475262,-0.066392116,0.07494157,-0.100899234,0.029697014,-0.01680792,-0.06331384,-0.24899697,0.19153613,-9.519346,0.78217715,47.703007,-1.3113608,-2.427288,-3.3207364,-0.20176664,-0.1772705,-0.40130448,28.5,29.75,28.8125,32.5625,35.0625,36.0
0.13005261,-0.69738054,-0.6631292,-2.0340285,-0.032386605,0.09474134,-0.14217888,-0.392924,-0.36753848,0.059915066,-3.0771549,0.6242438,-0.00034921805,-0.060829584,0.014355947,0.0035847456,0.01447153,0.007342594,-0.0053651975,0.50036216,-1.3765612,1.8977946,-2.0892484,-1.5719031,2.4751291,-0.07016291,0.07571497,-0.10458035,0.029348165,-0.016464086,-0.06470114,-0.30645782,0.11492168,-9.500193,0.8224646,47.64837,-1.0963593,-2.3651586,-3.351956,-0.15239657,-0.20459622,-0.43960902,28.5,29.75,28.8125,32.5625,35.0625,36.0
0.13205177,-1.0011684,-0.25603867,-2.0525296,-0.034534387,0.08671297,-0.14489517,-0.3930701,-0.36751148,0.05993442,-3.0771394,0.6242365,-0.00023430013,-0.05987856,0.014125954,0.0024892064,0.01677218,0.005067825,-0.0003304422,0.50021935,-1.3764042,1.8975562,-2.0892122,-1.5719637,2.474984,-0.068297535,0.07784317,-0.10491336,0.030645678,-0.017390661,-0.06786842,-0.38307226,0.076614454,-9.5385,0.800085,47.653748,-1.2813616,-2.4136243,-3.2463303,-0.12568387,-0.1794081,-0.45468578,28.5,29.75,28.8125,32.5625,35.0625,36.0
0.13405186,-1.065509,-0.3275319,-1.953759,-0.01972488,0.081911385,-0.14009494,-0.39319426,-0.36748084,0.059938304,-3.0771024,0.62428534,-0.00019788348,-0.060982224,0.014272472,0.003452361,0.01607608,0.005751016,0.0014886641,0.5000753,-1.3762479,1.8973511,-2.089164,-1.5719994,2.4748752,-0.06971298,0.07764759,-0.10724102,0.032225523,-0.017113307,-0.07110303,-0.4213795,-0.038307227,-9.442732,0.79560274,47.678825,-1.3423666,-2.3252406,-3.3385844,-0.12390815,-0.22117504,-0.45267874,28.5,29.75,28.8125,32.5625,35.0625,36.0
0.1360517,-0.77069336,-0.15316193,-2.0264654,-0.014055295,0.08454642,-0.14476798,-0.39334613,-0.36747044,0.059962243,-3.0771387,0.62429124,-0.00012978137,-0.062743634,0.016270421,0.0031887596,0.01739608,0.004618355,0.0016959007,0.4999178,-1.3760794,1.8970884,-2.0891268,-1.5719999,2.474717,-0.07428467,0.0788662,-0.108465016,0.033851124,-0.017729795,-0.07588079,-0.38307226,0.05746084,-9.461885,0.80679786,47.67345,-1.1952472,-2.260582,-3.3206017,-0.11099146,-0.21788138,-0.46074587,28.5,29.75,28.8125,32.5625,35.0625,36.0
0.13805231,-0.69971406,0.1099373,-1.8877718,-0.018598985,0.094209164,-0.14610818,-0.3934564,-0.3674283,0.059954304,-3.0770733,0.6242332,-0.00015457778,-0.062339704,0.015334206,0.0030544023,0.018217834,0.0042594518,0.010489559,0.49977505,-1.3759109,1.8968848,-2.089031,-1.5720481,2.4745464,-0.071968526,0.08031654,-0.11008719,0.03471901,-0.018293947,-0.08235493,-0.34476504,0.038307227,-9.461885,0.83365434,47.65464,-1.2972023,-2.311522,-3.3364968,-0.095489815,-0.22670758,-0.3789732,28.5,29.75,28.8125,32.5625,35.0625,36.0
0.14005242,-1.203748,-0.29477245,-1.9434918,-0.005880558,0.08657271,-0.14280626,-0.39357638,-0.36741084,0.05997405,-3.0771017,0.6241233,-0.000115431714,-0.06354205,0.016528461,0.00263667,0.019480176,0.0032059038,0.01149126,0.49964234,-1.3757781,1.8966688,-2.088971,-1.57206,2.4743416,-0.07468479,0.081978634,-0.11137772,0.035870854,-0.018900687,-0.08607104,-0.3256114,-0.076614454,-9.404425,0.7933669,47.651955,-1.2376779,-2.3013105,-3.391706,-0.071531504,-0.24493124,-0.38352698,28.5,29.75,28.8125,32.5625,35.0625,36.0
0.14205259,-0.7591167,0.105235875,-1.8936374,-0.024320466,0.10604109,-0.15369685,-0.39368603,-0.36735305,0.059935723,-3.0769975,0.62405777,-0.0002129571,-0.06450078,0.017176455,0.0028567829,0.020656312,0.0032665653,0.018734038,0.49947423,-1.3755615,1.8964771,-2.088874,-1.5721086,2.4741461,-0.075961664,0.082778655,-0.113181375,0.037369292,-0.01998578,-0.09458468,-0.38307226,-0.038307227,-9.423578,0.8224646,47.642998,-1.3411059,-2.341717,-3.355845,-0.0747188,-0.22540525,-0.3228252,28.5,29.75,28.8125,32.5625,35.0625,36.0
0.14405176,-0.8337962,0.17168161,-1.8956977,-0.025413582,0.096907996,-0.1486184,-0.39383462,-0.36731493,0.059957232,-3.0769546,0.6240686,-0.00011420732,-0.0656559,0.018112535,0.0024053904,0.02142986,0.001529939,0.018596087,0.49931756,-1.3754047,1.8962258,-2.088802,-1.5721802,2.474002,-0.07866528,0.08487801,-0.11502357,0.038992975,-0.019835947,-0.09715034,-0.3256114,0.0,-9.385271,0.784413,47.683304,-1.2914999,-2.332942,-3.401938,-0.07398464,-0.24907148,-0.2500035,28.5,29.75,28.8125,32.5625,35.0625,36.0
0.14605217,-0.741378,-0.20094472,-1.8274566,-0.025918474,0.096637264,-0.1447439,-0.39396086,-0.36728024,0.059967343,-3.0769372,0.6239289,-8.201062e-05,-0.067110606,0.019143132,0.0025297978,0.021090439,0.0011506212,0.019532397,0.49917275,-1.3752486,1.8959984,-2.0887177,-1.5722283,2.4737723,-0.08200402,0.085555494,-0.116290666,0.039737426,-0.01936571,-0.10142596,-0.40222588,-0.038307227,-9.423578,0.8537928,47.651955,-1.248232,-2.2996228,-3.403998,-0.06237363,-0.25477195,-0.20479015,28.5,29.75,28.8125,32.5625,35.0625,36.0
0.14805189,-0.57744074,-0.25999033,-1.5875096,-0.02987998,0.10029469,-0.14211057,-0.39411503,-0.3672491,0.059978813,-3.0769415,0.6238883,-3.1212374e-05,-0.06727475,0.019074837,0.0026626885,0.022308992,0.0012898493,0.02288451,0.49899346,-1.375068,1.8957471,-2.0886695,-1.5722526,2.4735672,-0.08130094,0.08625233,-0.117695175,0.04090023,-0.020505505,-0.104071714,-0.57460845,0.038307227,-9.346964,0.8314132,47.65464,-1.178099,-2.339641,-3.445682,-0.04052318,-0.2612042,-0.17229176,28.5,29.75,28.8125,32.5625,35.0625,36.0
0.15005217,-1.0257989,-0.29377648,-1.6176646,-0.0234991,0.090363234,-0.1391824,-0.3942356,-0.3671929,0.05998228,-3.0768924,0.62374276,-2.880514e-05,-0.067676805,0.019719066,0.0014811744,0.024382189,-0.00071216753,0.02253716,0.49882558,-1.3749228,1.8955425,-2.0885618,-1.5723132,2.473315,-0.082189485,0.08915037,-0.11863402,0.04168357,-0.021375906,-0.10460872,-0.59376204,0.019153614,-9.385271,0.83365434,47.657326,-1.3227663,-2.2340274,-3.3477466,-0.026818968,-0.2662173,-0.13248916,28.5,29.75,28.8125,32.5625,35.0625,36.0
0.15205236,-0.83153635,-0.17382036,-1.5629482,-0.023542859,0.10474254,-0.14907365,-0.3943716,-0.36716217,0.059977703,-3.0768597,0.62373966,-6.317558e-05,-0.070470706,0.021032013,0.0029595306,0.022560917,0.0008543871,0.015675157,0.49865583,-1.3747189,1.8952917,-2.0884774,-1.5723246,2.4731476,-0.08745853,0.08845626,-0.121482134,0.042973727,-0.02053257,-0.10301654,-0.5746084,-0.019153614,-9.308656,0.7933669,47.65912,-0.9994682,-2.3322186,-3.4428792,-0.033671856,-0.27686822,-0.1417277,28.5,29.75,28.8125,32.5625,35.0625,36.0
0.15405187,-0.75669587,0.09514362,-1.5468005,-0.017768215,0.10214828,-0.16126283,-0.3945105,-0.367114,0.059961732,-3.076793,0.62368804,-8.835143e-05,-0.069496244,0.020641603,0.002479434,0.02319022,-0.00082060066,0.013126877,0.49847695,-1.3745027,1.8950523,-2.0883934,-1.5723728,2.4729452,-0.08603149,0.089057274,-0.12135588,0.04401565,-0.020283984,-0.0990408,-0.59376204,0.019153614,-9.251195,0.76874626,47.666286,-1.1247592,-2.1618834,-3.4824862,-0.009874186,-0.29495513,-0.17347589,28.5,29.75,28.8125,32.5625,35.0625,36.0
0.15605202,-1.0692189,-0.067223325,-1.4573046,-0.018553192,0.08723504,-0.13630101,-0.39464074,-0.36708313,0.05998147,-3.0767736,0.6236868,-6.7664565e-05,-0.07112324,0.021719966,0.00085066044,0.025268823,-0.0036410436,0.00585482,0.4983201,-1.3743565,1.894812,-2.0882971,-1.5723966,2.4727902,-0.08901653,0.09419415,-0.12398032,0.04497766,-0.020760993,-0.09475058,-0.53630114,0.076614454,-9.212888,0.8537928,47.675243,-1.1133113,-2.3062377,-3.438249,-0.011210008,-0.29862964,-0.20417751,28.5,29.75,28.8125,32.5625,35.0625,36.0
0.15805249,-0.52403796,-0.24767953,-1.4683379,-0.025272565,0.09897173,-0.14466543,-0.39480793,-0.36705208,0.060002264,-3.0767539,0.62358975,5.2721866e-06,-0.072721906,0.022775726,0.0023384357,0.025274511,-0.0027772333,0.00021614386,0.49815145,-1.3741529,1.8945011,-2.0882008,-1.5724567,2.4725637,-0.091964744,0.093028806,-0.12670225,0.04810596,-0.021174934,-0.09205857,-0.47884035,0.095768064,-9.193734,0.8717007,47.683304,-0.99954396,-2.23711,-3.3657513,-0.018147547,-0.3212368,-0.28072998,28.5,29.75,28.8125,32.5625,35.0625,36.0
0.16005209,-0.3544993,-0.2620852,-1.825722,-0.014897571,0.09359108,-0.1433518,-0.39498454,-0.36697274,0.060007416,-3.0766537,0.62366414,0.00011284796,-0.07389811,0.023554554,0.0019906121,0.026523698,-0.0037216977,-0.00165433,0.4979234,-1.3739719,1.8942608,-2.0881402,-1.5725654,2.4723952,-0.093911126,0.09516628,-0.1287663,0.049446456,-0.02182624,-0.092131555,-0.28730422,0.1340753,-9.232041,0.800085,47.64837,-0.9540541,-2.3263402,-3.3868432,-0.02534976,-0.31874126,-0.30213606,28.5,29.75,28.8125,32.5625,35.0625,36.0
0.16205399,-1.0862527,-0.7897157,-1.777723,-0.01868413,0.068652816,-0.13366686,-0.39511046,-0.36691555,0.05999289,-3.0765839,0.62372595,3.5581073e-05,-0.07593178,0.023952045,0.0025933401,0.026888518,-0.0027966325,-0.0026730539,0.4977191,-1.3737911,1.8940572,-2.088044,-1.5725774,2.4722385,-0.09593169,0.09692888,-0.13255997,0.05083439,-0.02260506,-0.09312784,-0.30645782,0.1340753,-9.289502,0.8157518,47.651955,-0.8827906,-2.2646923,-3.2234497,-0.018932095,-0.32875168,-0.3163995,28.5,29.75,28.8125,32.5625,35.0625,36.0
0.1640519,-0.79110926,-0.99855876,-1.5849483,-0.028315632,0.07862757,-0.13407426,-0.39525276,-0.36688516,0.059994828,-3.076533,0.6236201,4.845766e-05,-0.07512867,0.025936566,0.0009756984,0.030199321,-0.007831378,-0.0042391415,0.49757463,-1.3735747,1.893771,-2.0879352,-1.5726374,2.4720347,-0.09818383,0.09819009,-0.13114421,0.05415366,-0.023107408,-0.09381219,-0.4213795,0.038307227,-9.155427,0.8806493,47.703903,-0.7955891,-2.2212815,-3.4299128,-0.048277684,-0.34201804,-0.3377063,28.5,29.75,28.8125,32.5625,35.0625,36.0
0.16605192,-0.39382833,-0.7833944,-1.7137506,-0.028603686,0.083541244,-0.13866799,-0.39542535,-0.36683762,0.060015887,-3.076486,0.6236281,5.21671e-05,-0.075062595,0.026485175,0.0011303115,0.032239147,-0.010785012,-0.0051999805,0.49735892,-1.3733699,1.8934468,-2.0877893,-1.5726737,2.4718301,-0.09876647,0.09922394,-0.13394319,0.05948167,-0.023491014,-0.09343145,-0.4405331,0.15322891,-9.193734,0.78217715,47.70032,-0.8540816,-2.418587,-3.2311826,-0.09744245,-0.341795,-0.3485023,28.5,29.75,28.8125,32.5625,35.0625,36.0
0.1680526,-0.51393473,-0.15221083,-1.5677912,-0.034581885,0.086004995,-0.14370127,-0.39555576,-0.36678115,0.059998147,-3.0764024,0.62362754,-1.4668595e-05,-0.07589828,0.026546657,0.0014281432,0.03207934,-0.011416298,-0.0034950175,0.49716693,-1.3731655,1.8932198,-2.0876815,-1.5727099,2.4716487,-0.09986726,0.10034854,-0.13637537,0.061252918,-0.023068102,-0.09623563,-0.49799395,0.11492168,-9.232041,0.8157518,47.63404,-0.7856021,-2.1969063,-3.3566592,-0.12705575,-0.35972297,-0.37530473,28.5,29.75,28.8125,32.5625,35.0625,36.0
0.17005171,-0.55986816,-0.6093829,-1.6836916,-0.021581806,0.08975964,-0.13730316,-0.39573684,-0.3667311,0.06002062,-3.0763571,0.62367696,4.8684506e-06,-0.07732507,0.026399666,0.0018355467,0.031833906,-0.0113202995,-0.005300074,0.49693885,-1.3729604,1.8928951,-2.0875494,-1.5727452,2.4714575,-0.10098393,0.102285005,-0.13994378,0.06267574,-0.022908373,-0.09554593,-0.3256114,0.15322891,-9.174581,0.83589023,47.64658,-0.80072844,-2.416654,-3.2434897,-0.15235779,-0.37286076,-0.41246188,28.5,29.75,28.8125,32.5625,35.0625,36.0
0.17205176,-0.5435406,-0.009711117,-1.5009714,-0.02533503,0.090188384,-0.1431394,-0.39586905,-0.3666625,0.06000164,-3.0762498,0.62361103,-4.120303e-05,-0.07764703,0.026544569,0.0018092694,0.033089634,-0.012781809,0.00086857006,0.49674743,-1.3727559,1.8926677,-2.0874283,-1.5728177,2.4712389,-0.10122384,0.10380654,-0.14232267,0.06539327,-0.023340372,-0.101949975,-0.24899697,0.22984336,-9.232041,0.800085,47.67166,-0.829494,-2.2053306,-3.1585793,-0.20499498,-0.37111366,-0.4077977,28.5,29.75,28.8125,32.5625,35.0625,36.0
0.17405173,-0.4300034,-0.320395,-1.6323878,-0.012812173,0.08674389,-0.15020579,-0.3960578,-0.36661208,0.060016997,-3.076194,0.6236541,-1.0605155e-05,-0.078224115,0.026617238,0.0009976672,0.03470116,-0.014124956,0.0042102546,0.49652007,-1.3725265,1.8923329,-2.0873086,-1.5728663,2.4710457,-0.10133831,0.10693416,-0.14441949,0.066296436,-0.02413379,-0.105402015,-0.24899697,0.095768064,-9.289502,0.7172743,47.65464,-0.8555446,-2.4020352,-3.1405087,-0.21904111,-0.3920185,-0.34147805,28.5,29.75,28.8125,32.5625,35.0625,36.0
0.17605214,0.05054525,-0.03397526,-1.7728024,-0.028641438,0.08199227,-0.14564924,-0.3961936,-0.3665444,0.059989784,-3.0760999,0.623592,-0.000121180456,-0.078659445,0.02637427,0.0009677717,0.035475943,-0.014133652,0.011281756,0.49630433,-1.3722979,1.8920931,-2.0871766,-1.5729021,2.4708035,-0.10085446,0.1084125,-0.14630042,0.06705492,-0.024845006,-0.111983515,-0.11492168,0.11492168,-9.308656,0.86945957,47.64389,-0.88137114,-2.4014277,-3.0574427,-0.23988494,-0.38619193,-0.30983138,28.5,29.75,28.8125,32.5625,35.0625,36.0
0.17805201,0.056353197,-0.46228826,-1.7735641,-0.03228704,0.06917475,-0.14169249,-0.39635375,-0.36651143,0.060011584,-3.0760605,0.62346643,-6.501744e-05,-0.08056818,0.02769255,0.0007670161,0.03618804,-0.014059171,0.013673643,0.4961474,-1.3720931,1.8917702,-2.0870454,-1.5729746,2.4705734,-0.104352064,0.1100826,-0.14788508,0.06722024,-0.02552728,-0.11786956,-0.13407528,0.19153613,-9.270349,0.82022345,47.704796,-0.79980075,-2.4564233,-3.1450276,-0.2755374,-0.4096501,-0.24906531,28.5,29.75,28.8125,32.5625,35.0625,36.0
0.18005224,-0.16350311,-0.8021509,-1.7270948,-0.044324417,0.061554108,-0.14581992,-0.39652193,-0.3664272,0.059996847,-3.075936,0.6234526,-0.00012449888,-0.080997996,0.026647618,0.0011694035,0.03671446,-0.012662053,0.023254624,0.4958969,-1.3718524,1.8914822,-2.0868895,-1.5730466,2.4703305,-0.102225825,0.11153475,-0.15060766,0.06748447,-0.02669591,-0.12531626,-0.19153613,0.21068975,-9.212888,0.84484416,47.66987,-1.0455047,-2.4646382,-3.1467526,-0.28286552,-0.38373423,-0.12450069,28.5,29.75,28.8125,32.5625,35.0625,36.0
0.18205228,0.19196875,-1.273723,-1.8563732,-0.04471984,0.075901784,-0.14641638,-0.39669594,-0.36638165,0.06001557,-3.0758972,0.62336993,-0.000110298235,-0.08149005,0.029514283,-0.0006017485,0.03898072,-0.015750669,0.017925762,0.4956915,-1.3716358,1.8911494,-2.0867455,-1.5730952,2.4700787,-0.107115924,0.112516426,-0.1477534,0.067434885,-0.027222643,-0.12487589,-0.05746084,0.21068975,-9.385271,0.81351066,47.694054,-0.8048076,-2.4082458,-3.2942195,-0.32362753,-0.40365505,-0.12105945,28.5,29.75,28.8125,32.5625,35.0625,36.0
0.18405235,0.21749303,-0.67222947,-1.8514813,-0.06320198,0.07565209,-0.15301093,-0.39685872,-0.36633617,0.06001651,-3.0758646,0.62324595,-0.00013108547,-0.083326295,0.027855204,0.0007407535,0.03654843,-0.010805345,0.019262267,0.4954887,-1.3714073,1.8908485,-2.0866272,-1.573131,2.4698029,-0.10581864,0.113255754,-0.15104151,0.06446754,-0.027460687,-0.12491142,-0.076614454,0.15322891,-9.385271,0.72622824,47.66987,-1.0174565,-2.438316,-3.1096077,-0.300785,-0.4168667,-0.08493947,28.5,29.75,28.8125,32.5625,35.0625,36.0
0.18605196,-0.3572914,-0.9540466,-2.0107355,-0.060675655,0.07283769,-0.1322821,-0.39703348,-0.36626858,0.060018968,-3.0757713,0.6232289,-0.00013374444,-0.08454816,0.028134016,0.0004902804,0.03637972,-0.009333776,0.014403357,0.49526063,-1.3711786,1.8905386,-2.0864842,-1.5732034,2.4695764,-0.10700794,0.11448692,-0.15146509,0.062281072,-0.028023455,-0.121237576,-0.095768064,0.24899697,-9.346964,0.76874626,47.688675,-0.9452932,-2.3511584,-3.2805638,-0.29235175,-0.402196,-0.10312742,28.5,29.75,28.8125,32.5625,35.0625,36.0
0.18805209,-0.0033921434,-0.7227125,-1.8602389,-0.06294862,0.08407322,-0.14942107,-0.3971989,-0.36621326,0.0600164,-3.0756917,0.6230983,-0.00012484237,-0.08443399,0.028328257,0.00013955869,0.037523963,-0.009141044,0.010147412,0.49506918,-1.3709383,1.8902286,-2.0863526,-1.5732878,2.4693139,-0.10650749,0.1148901,-0.15107232,0.061860003,-0.029123684,-0.11647545,-0.1340753,0.24899697,-9.32781,0.81351066,47.6636,-0.9905347,-2.3427434,-3.4027925,-0.27920517,-0.4042586,-0.15142454,28.5,29.75,28.8125,32.5625,35.0625,36.0
0.19005205,-0.24766347,-0.89832276,-2.0980663,-0.044589408,0.07558212,-0.13695224,-0.39735708,-0.36616543,0.059978433,-3.0756266,0.62306917,-0.00022784906,-0.08791492,0.028674625,-0.0002902141,0.03653374,-0.005693868,0.0024018097,0.49485233,-1.3706487,1.8899516,-2.0862706,-1.5733002,2.4690874,-0.10972958,0.11873271,-0.15362382,0.05707197,-0.02991212,-0.111944236,-0.019153614,0.22984336,-9.442732,0.8157518,47.67345,-0.9014409,-2.3233051,-3.5133443,-0.25652823,-0.3974282,-0.22996855,28.5,29.75,28.8125,32.5625,35.0625,36.0
0.19205211,-0.035542883,-0.47329858,-2.3212266,-0.046522178,0.071227826,-0.14817294,-0.39752588,-0.3661099,0.059999447,-3.075576,0.62303853,-0.00015801322,-0.08706714,0.027845282,0.00043220448,0.03561719,-0.0029568078,0.0016474241,0.49464995,-1.3704695,1.889666,-2.0861633,-1.5733722,2.4688725,-0.10721691,0.11619712,-0.15177521,0.054911386,-0.030402761,-0.10867625,-0.038307227,0.2681506,-9.500193,0.8291774,47.690468,-1.1102769,-2.3686585,-3.6637833,-0.20646104,-0.3968832,-0.26549062,28.5,29.75,28.8125,32.5625,35.0625,36.0
0.19405217,0.05042535,-0.6494973,-2.3410664,-0.047972847,0.06720507,-0.13625188,-0.39772862,-0.36605397,0.06000868,-3.0755115,0.62308484,-0.000115472525,-0.08990085,0.029053269,-0.0005658413,0.035943456,-0.0035807928,-0.004383226,0.49440864,-1.3702155,1.8893183,-2.086056,-1.5734323,2.4686687,-0.11176813,0.12068279,-0.15467611,0.05402102,-0.030404959,-0.10719456,-0.11492168,0.17238252,-9.595961,0.79560274,47.6421,-0.9536614,-2.4519963,-3.5551815,-0.17776188,-0.4146659,-0.31634414,28.5,29.75,28.8125,32.5625,35.0625,36.0
0.19605215,0.06334278,-1.0302339,-2.4956625,-0.023876144,0.060703397,-0.13506915,-0.3978768,-0.3659752,0.05997004,-3.0753472,0.6230681,-0.00021892991,-0.09118911,0.027793286,0.0014643684,0.035307996,0.0016183668,-0.0029857827,0.49419412,-1.3699398,1.8890427,-2.0859005,-1.5735172,2.468465,-0.10958832,0.1197486,-0.15808359,0.053478032,-0.032339364,-0.10639865,-0.019153614,0.11492168,-9.576807,0.90527004,47.651955,-1.1192703,-2.3363729,-3.4845839,-0.14754377,-0.3946037,-0.37490976,28.5,29.75,28.8125,32.5625,35.0625,36.0
0.19805236,-0.4583763,-0.3802098,-2.3977726,-0.03172014,0.05572675,-0.13020661,-0.39807272,-0.3659303,0.059973445,-3.0753121,0.6230419,-0.00014753733,-0.092502,0.028648313,0.0012362556,0.036941927,0.002449508,-0.005694607,0.49397805,-1.3696867,1.8887199,-2.085841,-1.5735778,2.4682374,-0.111027814,0.12127985,-0.1593657,0.05326895,-0.034174375,-0.10512165,-0.1340753,0.1340753,-9.653421,0.89631605,47.67614,-1.1595616,-2.365922,-3.496369,-0.12149012,-0.37587613,-0.41697532,28.5,29.75,28.8125,32.5625,35.0625,36.0
0.20005259,-0.24712607,-0.728565,-2.680616,-0.03663531,0.07867485,-0.13912603,-0.39825523,-0.36587122,0.059982333,-3.0752566,0.62304795,-0.00010436116,-0.09401713,0.029276669,0.0017607361,0.037273064,0.0036608928,-0.006630915,0.49374995,-1.3694706,1.8884205,-2.085745,-1.5736374,2.4680204,-0.11286478,0.121837676,-0.16135998,0.053782344,-0.03505031,-0.10601764,-0.15322891,0.17238252,-9.653421,0.7732232,47.66091,-1.1161165,-2.2891827,-3.471108,-0.10675281,-0.34213215,-0.4675018,28.5,29.75,28.8125,32.5625,35.0625,36.0
0.20205167,-0.50327265,-1.0656085,-2.7489913,-0.038675155,0.08881095,-0.14259878,-0.39844128,-0.36579067,0.059982,-3.0751462,0.62302274,-0.00011182223,-0.09430455,0.029982336,-6.416664e-05,0.040785383,0.0003341018,-0.0037108578,0.4934983,-1.3692287,1.8880976,-2.0855887,-1.5737222,2.4677675,-0.113308616,0.1264514,-0.1631171,0.055497307,-0.036587775,-0.10937149,-0.15322891,0.22984336,-9.749189,0.8314132,47.66091,-1.104094,-2.3458602,-3.5405343,-0.10266363,-0.33671647,-0.49953955,28.5,29.75,28.8125,32.5625,35.0625,36.0
0.20405188,-0.86114,-1.5276136,-2.6957378,-0.05063706,0.0937226,-0.140968,-0.3986216,-0.36574864,0.059989844,-3.0750768,0.6230616,-0.000108429376,-0.095444225,0.03071575,0.0017276728,0.041197773,0.0027049584,0.0023433657,0.49329418,-1.3689772,1.88775,-2.0854561,-1.5737709,2.4675968,-0.11458504,0.12421572,-0.16505685,0.05775039,-0.03809977,-0.11669453,-0.2873042,0.30645782,-9.883265,0.83589023,47.71286,-1.1050231,-2.2618861,-3.5270498,-0.10038003,-0.30713186,-0.4684366,28.5,29.75,28.8125,32.5625,35.0625,36.0
0.20605221,-1.0519207,-1.6803488,-2.7469697,-0.06330616,0.10587952,-0.1384483,-0.39882338,-0.36568403,0.060006775,-3.0749989,0.6230409,-5.8363672e-05,-0.09557859,0.03101969,-6.5749744e-05,0.04215703,-0.0017429127,0.007696759,0.49305433,-1.3687352,1.8873905,-2.0853121,-1.5738543,2.4673543,-0.11592596,0.1285153,-0.16645488,0.05917671,-0.03686416,-0.12339199,-0.30645782,0.28730422,-9.80665,0.9231726,47.67614,-1.1766567,-2.4919772,-3.5082092,-0.09299938,-0.31647795,-0.4006806,28.5,29.75,28.8125,32.5625,35.0625,36.0
0.20805234,-1.0850921,-1.4535323,-2.6326232,-0.069849946,0.111440994,-0.1412972,-0.39899468,-0.3656196,0.059989102,-3.0749052,0.622899,-5.1341278e-05,-0.09787815,0.030771188,0.0016781136,0.041045602,0.0016126501,0.017696457,0.49285045,-1.3684711,1.8870915,-2.0852044,-1.5739506,2.4670742,-0.117136754,0.12862925,-0.17072545,0.05979821,-0.037524443,-0.13459565,-0.28730422,0.2681506,-9.80665,0.85826975,47.68062,-1.1217859,-2.3215504,-3.2909408,-0.08351174,-0.306705,-0.3198871,28.5,29.75,28.8125,32.5625,35.0625,36.0
0.21005249,-0.5494403,-0.88344276,-2.360367,-0.07774374,0.13118203,-0.15075615,-0.39921957,-0.36556205,0.060005702,-3.0748441,0.6229034,7.211949e-05,-0.10023827,0.03168396,0.002516022,0.042606194,0.0040532947,0.02144468,0.49260998,-1.3682065,1.8867191,-2.08512,-1.5740474,2.4668446,-0.119163714,0.12976767,-0.17421716,0.06070746,-0.04007599,-0.14035974,-0.45968673,0.22984336,-9.864111,0.8157518,47.652847,-1.1049669,-2.3059208,-3.2714624,-0.08789283,-0.26953208,-0.23557839,28.5,29.75,28.8125,32.5625,35.0625,36.0
0.21205254,-0.94700843,-0.6312205,-2.2880385,-0.06238615,0.12783667,-0.14371562,-0.39939523,-0.3655122,0.059997156,-3.0747957,0.622775,-1.0213322e-05,-0.10135185,0.03217993,0.0020554578,0.042972844,0.0037327656,0.023905,0.49238205,-1.3679296,1.8863729,-2.0849645,-1.5740713,2.466543,-0.1208238,0.13174164,-0.175498,0.060444757,-0.04027836,-0.14447516,-0.6512229,0.19153613,-9.710882,0.83813137,47.657326,-1.0071054,-2.3784206,-3.3222814,-0.06854691,-0.22706893,-0.16976973,28.5,29.75,28.8125,32.5625,35.0625,36.0
0.21405165,-1.2374246,-0.8040076,-2.2809327,-0.035406332,0.12324146,-0.13702129,-0.39962745,-0.36545354,0.060041193,-3.07479,0.62271583,0.00013087163,-0.10289882,0.032602638,0.0021861168,0.042355567,0.0044186194,0.022220407,0.49211812,-1.367713,1.88599,-2.0848572,-1.5741433,2.466243,-0.12299588,0.13297822,-0.17719144,0.059982244,-0.04006045,-0.14496514,-0.7086837,0.1340753,-9.710882,0.8560339,47.661808,-1.144817,-2.3386297,-3.2983649,-0.03714849,-0.23573369,-0.16436824,28.5,29.75,28.8125,32.5625,35.0625,36.0
0.2160526,-1.2838645,-0.24172811,-2.0711367,-0.03149471,0.12146454,-0.13535692,-0.3998385,-0.36537775,0.060046446,-3.074711,0.622643,0.0002201161,-0.1024996,0.03208237,0.0020096162,0.042928692,0.0033035479,0.01876447,0.49186707,-1.3674603,1.8856548,-2.0847604,-1.5742515,2.465957,-0.12171893,0.13409528,-0.17846674,0.061385144,-0.040031593,-0.14023133,-0.7278373,0.17238252,-9.634268,0.86945957,47.67166,-1.1025027,-2.4151464,-3.2870512,-0.035027172,-0.22802335,-0.1566659,28.5,29.75,28.8125,32.5625,35.0625,36.0
0.21805191,-1.2909237,-0.23880823,-2.0604105,-0.012484172,0.108601674,-0.13248606,-0.40003264,-0.36532924,0.060042188,-3.0746274,0.622532,0.0002263333,-0.103768505,0.033835843,0.0008383164,0.044771094,0.00027606258,0.011150468,0.49166206,-1.367159,1.8852724,-2.0846164,-1.5743355,2.4656937,-0.12562637,0.13710752,-0.17986554,0.06330474,-0.040227022,-0.13652065,-0.7469909,0.22984336,-9.519346,0.8224646,47.65464,-1.0294408,-2.1323338,-3.2466302,-0.015685586,-0.19782354,-0.20833522,28.5,29.75,28.8125,32.5625,35.0625,36.0
0.22005194,-0.95928466,0.21738091,-1.6681013,-0.035172537,0.12251744,-0.14706798,-0.4002619,-0.36527655,0.06005425,-3.0745828,0.6225038,0.0003066235,-0.1027096,0.03358938,-0.00068393245,0.04755627,-0.0034000366,0.00844299,0.49141115,-1.3668697,1.8848776,-2.0845196,-1.5744075,2.4654312,-0.12375284,0.14041959,-0.18090549,0.06558781,-0.04093613,-0.13193627,-0.7852981,0.019153614,-9.442732,0.8537928,47.642998,-1.1447893,-2.3515916,-3.406917,-0.01955533,-0.17839852,-0.27147678,28.5,29.75,28.8125,32.5625,35.0625,36.0
0.22205204,-0.9550135,-0.21629755,-1.4888479,-0.029612778,0.12782526,-0.13240667,-0.4004881,-0.3651957,0.060088612,-3.0745325,0.62245417,0.0003979481,-0.10198057,0.03465329,-0.002890481,0.05064408,-0.010220058,0.0059642335,0.49112335,-1.3666521,1.8845071,-2.0843747,-1.5744914,2.4651191,-0.12511854,0.14462088,-0.18188286,0.069813825,-0.040437892,-0.13082503,-0.7086837,-0.019153614,-9.308657,0.8717007,47.65912,-1.1077555,-2.3298306,-3.4681416,-0.046615027,-0.15704578,-0.33129948,28.5,29.75,28.8125,32.5625,35.0625,36.0
0.22405213,-0.7979328,0.11797502,-1.4691316,-0.030720454,0.12163582,-0.1454823,-0.4006764,-0.36514324,0.06005472,-3.0744402,0.62241524,0.00032852334,-0.10276311,0.03515319,-0.00056156464,0.050157208,-0.00822692,0.00444115,0.49089563,-1.3663168,1.884159,-2.084266,-1.57454,2.4648793,-0.12627637,0.14129156,-0.1840199,0.073280886,-0.040963653,-0.13045372,-0.5554548,-0.05746084,-9.289503,0.82694155,47.67793,-1.1129134,-2.4112031,-3.38487,-0.0688005,-0.14198424,-0.3293497,28.5,29.75,28.8125,32.5625,35.0625,36.0
0.22605209,-0.5668946,0.28672355,-1.1081799,-0.018560618,0.098641835,-0.14030656,-0.4009127,-0.36505392,0.06007976,-3.074326,0.62246954,0.00042692487,-0.103572965,0.03662319,-0.0010993212,0.051273804,-0.0119064385,0.00074298895,0.4906066,-1.366064,1.8837646,-2.084109,-1.5746592,2.4646392,-0.12985541,0.14318822,-0.18594047,0.077047,-0.040220827,-0.1303366,-0.51714754,0.038307227,-9.097966,0.8537928,47.691364,-0.91913784,-2.4569683,-3.4822006,-0.09370175,-0.13626756,-0.3651062,28.5,29.75,28.8125,32.5625,35.0625,36.0
0.22805208,-0.4098912,0.7101079,-1.058758,0.0031576282,0.060570695,-0.14950916,-0.40111285,-0.36499655,0.060074136,-3.0742655,0.62237674,0.0004238548,-0.10380888,0.03662984,-0.0010143975,0.05152209,-0.014030104,0.0026929928,0.49036726,-1.3657752,1.8834051,-2.083988,-1.5747193,2.46435,-0.13048597,0.14451441,-0.18846726,0.08020759,-0.039460275,-0.13291773,-0.40222588,-0.19153613,-9.021352,0.8560339,47.675243,-1.0576872,-2.3087654,-3.384674,-0.15531364,-0.13085368,-0.37804848,28.5,29.75,28.8125,32.5625,35.0625,36.0
0.23005205,-0.115685634,0.8607466,-0.95865214,0.03724751,0.03876417,-0.14106753,-0.40135822,-0.36492318,0.06008361,-3.0741901,0.6224339,0.00047818758,-0.10569426,0.035995495,5.065877e-05,0.0498893,-0.01179755,0.007923098,0.49006772,-1.3654747,1.8829974,-2.0838687,-1.5747908,2.464096,-0.13125758,0.14565107,-0.19225906,0.08007763,-0.03910942,-0.13891912,-0.3256114,-0.22984336,-8.772355,0.85826975,47.66539,-0.9265194,-2.2977242,-3.4142876,-0.1443608,-0.13371561,-0.34148124,28.5,29.75,28.8125,32.5625,35.0625,36.0
0.23205197,0.5535821,0.9265227,-0.8915103,0.054376386,0.048200846,-0.14417861,-0.40159062,-0.36484775,0.060113315,-3.0741234,0.6223759,0.0005643622,-0.10484259,0.037179485,-0.00049648766,0.051618688,-0.016917206,0.014611211,0.4897915,-1.3652223,1.8825926,-2.0837104,-1.5748867,2.4637926,-0.13293187,0.14612429,-0.19281399,0.08542883,-0.0382506,-0.14728545,-0.22984336,-0.28730422,-8.772355,0.8247004,47.64837,-0.9378893,-2.237937,-3.3730974,-0.17812887,-0.12914117,-0.26669157,28.5,29.75,28.8125,32.5625,35.0625,36.0
0.2340521,0.78693026,1.359844,-0.6667857,0.043933958,0.04735332,-0.1509962,-0.4017719,-0.36477134,0.060072917,-3.073995,0.62218875,0.0004573712,-0.10585459,0.036249563,0.000108225904,0.049560305,-0.016814044,0.024247224,0.489552,-1.3648854,1.882244,-2.0835435,-1.5749701,2.463453,-0.13327353,0.1475351,-0.19608912,0.08616431,-0.036551315,-0.15726395,-0.038307227,-0.24899697,-8.7532015,0.80456203,47.67793,-1.0647902,-2.2587526,-3.2477858,-0.23357338,-0.1232523,-0.17242274,28.5,29.75,28.8125,32.5625,35.0625,36.0
0.23605223,0.6945054,1.145793,-0.7535907,0.020772215,0.052828703,-0.14435048,-0.4020108,-0.36469507,0.060096946,-3.0738912,0.62216544,0.0005169296,-0.106970936,0.0359397,7.351962e-05,0.04927838,-0.017494114,0.02617902,0.48927623,-1.364596,1.8818,-2.0833514,-1.5750779,2.4631765,-0.1340147,0.15009658,-0.19936967,0.08731079,-0.036012158,-0.1599367,-0.05746084,-0.076614454,-8.734048,0.86945957,47.690468,-0.9675594,-2.2318952,-3.1974287,-0.25523052,-0.15104677,-0.09498976,28.5,29.75,28.8125,32.5625,35.0625,36.0
0.23805222,0.61108166,0.5873168,-0.9136514,-0.008928774,0.0624808,-0.146266,-0.40217316,-0.36460143,0.060061514,-3.0737383,0.6221327,0.0002766335,-0.1077414,0.03578732,0.0018512717,0.047277655,-0.0148580745,0.025661448,0.48898864,-1.3642966,1.8814658,-2.0831,-1.5751022,2.4628885,-0.13468632,0.14749879,-0.20042244,0.087678,-0.035531834,-0.16008554,-0.076614454,-0.019153614,-8.714894,0.8157518,47.647476,-1.0599232,-2.0598192,-3.1334116,-0.2795416,-0.13987267,-0.026763745,28.5,29.75,28.8125,32.5625,35.0625,36.0
0.24005237,0.24787383,-0.6708911,-1.1801035,-0.025193727,0.061798077,-0.13576382,-0.40239823,-0.36452052,0.060056943,-3.0736213,0.62197566,0.0002899764,-0.10933226,0.03507352,0.0023413664,0.0455199,-0.012038195,0.020594837,0.48872507,-1.363972,1.8810476,-2.0829213,-1.5752219,2.4625423,-0.13497552,0.14868751,-0.20244148,0.085185766,-0.035320427,-0.15530518,-0.038307227,0.095768064,-9.002198,0.83813137,47.65643,-1.0718343,-2.0193396,-3.1370244,-0.28084677,-0.13957763,-0.078306966,28.5,29.75,28.8125,32.5625,35.0625,36.0
0.24205264,0.5178575,-1.3412136,-1.8290328,-0.05971472,0.077267595,-0.13876791,-0.402616,-0.36444327,0.060076356,-3.073549,0.6219056,0.00027192567,-0.11036384,0.035236817,0.0024032881,0.04524968,-0.012035307,0.012724479,0.48843732,-1.3637073,1.8806409,-2.0827177,-1.5752815,2.4622204,-0.13624583,0.1500256,-0.2043097,0.08559661,-0.035081785,-0.1487033,-0.11492168,0.15322891,-9.155427,0.81351066,47.66271,-1.0640866,-2.0227673,-3.193799,-0.28400388,-0.14222215,-0.13475774,28.5,29.75,28.8125,32.5625,35.0625,36.0
0.24405265,-0.3711242,-2.256786,-1.9576273,-0.08238899,0.07099838,-0.1271743,-0.40282747,-0.36435905,0.06006418,-3.0733964,0.6218559,0.00023185306,-0.11216671,0.034527425,0.0018613251,0.043151464,-0.0089602275,0.0067958576,0.4881736,-1.3633821,1.8802341,-2.082516,-1.5753897,2.4619458,-0.13684201,0.15256406,-0.2048908,0.079937644,-0.034692258,-0.14336778,-0.13407528,0.3256114,-9.3661175,0.8851263,47.688675,-1.0859106,-2.020594,-3.1682417,-0.2483921,-0.15268914,-0.22427322,28.5,29.75,28.8125,32.5625,35.0625,36.0
0.24605186,0.4226226,-2.1307588,-1.9512229,-0.11531814,0.10965171,-0.14730354,-0.40302077,-0.3642814,0.060039476,-3.0732882,0.621876,9.220279e-05,-0.11402868,0.03500565,0.0015072845,0.042166576,-0.0068257656,-0.001978651,0.48788527,-1.3630694,1.8798755,-2.0823376,-1.5754136,2.4616842,-0.13914904,0.15408675,-0.20514487,0.07633964,-0.03483454,-0.13689443,-0.11492168,0.34476504,-9.423578,0.83365434,47.658226,-1.048654,-2.040838,-3.3055665,-0.21202926,-0.13829778,-0.3065407,28.5,29.75,28.8125,32.5625,35.0625,36.0
0.24805197,-0.6051345,-2.4431727,-2.3020198,-0.11723394,0.09547332,-0.13599172,-0.40326554,-0.36420542,0.060061894,-3.0731888,0.6218731,0.00013802628,-0.11421953,0.03506667,0.00082764204,0.042400245,-0.008283739,-0.004249431,0.48759827,-1.3627685,1.8794211,-2.0821455,-1.5755094,2.4614086,-0.13962829,0.15593326,-0.2059214,0.07665122,-0.0343647,-0.13510363,-0.076614454,0.45968673,-9.595961,0.8493211,47.67614,-1.1525426,-2.0941389,-3.351313,-0.2247644,-0.13827847,-0.34788388,28.5,29.75,28.8125,32.5625,35.0625,36.0
0.25005206,-0.051746,-2.0924244,-2.5612602,-0.120078646,0.107379965,-0.14426772,-0.40348586,-0.36413428,0.060040727,-3.0730813,0.6218516,0.00013183484,-0.1156059,0.03541549,-0.001295758,0.041893166,-0.008410914,-0.0089266,0.48733398,-1.3624303,1.8790377,-2.0820286,-1.5755934,2.4611452,-0.14167702,0.16018414,-0.20506056,0.07140526,-0.033874165,-0.1324748,0.019153614,0.5363012,-9.749189,0.85155696,47.66808,-0.9543179,-2.2546923,-3.4909647,-0.15276995,-0.15728885,-0.45665103,28.5,29.75,28.8125,32.5625,35.0625,36.0
0.25205207,-0.026454182,-2.303588,-2.5810857,-0.10661775,0.093076095,-0.13726248,-0.40375456,-0.36406478,0.06006416,-3.0730035,0.6219497,0.00019594986,-0.11655872,0.03572694,-0.0013591481,0.040766977,-0.008700876,-0.008449879,0.48702183,-1.3621062,1.8785609,-2.0818727,-1.5756649,2.4609046,-0.14363576,0.16107665,-0.20597105,0.0711166,-0.032764204,-0.13491581,-0.038307227,0.5746084,-9.864111,0.8560339,47.64479,-0.9719503,-2.1573029,-3.4879913,-0.13607192,-0.17027608,-0.49676275,28.5,29.75,28.8125,32.5625,35.0625,36.0
0.25405225,-0.12258449,-1.922624,-2.6054904,-0.105838604,0.077788725,-0.13491976,-0.40400815,-0.36399415,0.060080048,-3.0729573,0.6218565,0.00024873661,-0.11788385,0.035986412,-0.0015890303,0.04100551,-0.008338957,-0.001108483,0.48672208,-1.3617933,1.8781174,-2.0817292,-1.5757374,2.460553,-0.14489773,0.16314858,-0.207879,0.07068353,-0.033192806,-0.1435157,-0.1340753,0.5746084,-9.959879,0.86498255,47.675243,-0.95745766,-2.2486928,-3.5890532,-0.10928893,-0.16977224,-0.4594378,28.5,29.75,28.8125,32.5625,35.0625,36.0
0.25605243,0.07139669,-1.7583106,-2.6212409,-0.09727212,0.08234044,-0.13822581,-0.40421665,-0.36391574,0.060052775,-3.0728576,0.62184787,0.00017225687,-0.11789834,0.03715496,-0.0036139376,0.04376628,-0.0117977625,0.008547334,0.48643437,-1.3614677,1.8777593,-2.081597,-1.575785,2.460273,-0.14624457,0.16660194,-0.20757724,0.07120821,-0.034080457,-0.1545102,-0.11492168,0.40222588,-9.902418,0.91421866,47.66987,-1.0089,-2.4068534,-3.7028162,-0.07428617,-0.17835872,-0.37475795,28.5,29.75,28.8125,32.5625,35.0625,36.0
0.2580521,0.17798467,-1.1124303,-2.549515,-0.093385145,0.08098601,-0.14333756,-0.4044538,-0.36384606,0.060041822,-3.072804,0.62176937,0.0001562313,-0.117030375,0.03544601,-0.004154922,0.04359112,-0.012872776,0.022471992,0.4861362,-1.3611306,1.8773531,-2.0814784,-1.5758332,2.459933,-0.14289391,0.16878882,-0.20903993,0.07127924,-0.033486042,-0.16508532,-0.038307227,0.36391866,-9.825804,0.85826975,47.647476,-1.1186019,-2.4772434,-3.725482,-0.06562805,-0.1923159,-0.26662397,28.5,29.75,28.8125,32.5625,35.0625,36.0
0.26005223,-0.23427488,-1.443095,-2.2810833,-0.067035265,0.074630775,-0.13847518,-0.40470204,-0.3637867,0.06004913,-3.072764,0.62168217,0.00022055091,-0.11954742,0.034940887,-0.0038688714,0.04194869,-0.012600708,0.026006846,0.48586,-1.360805,1.8769215,-2.0813696,-1.5759047,2.4596078,-0.14498833,0.17256014,-0.21438923,0.07179512,-0.032203212,-0.17071937,-0.05746084,0.28730422,-9.787497,0.84484416,47.6421,-1.0122378,-2.6002054,-3.6330144,-0.034120373,-0.21864699,-0.1728411,28.5,29.75,28.8125,32.5625,35.0625,36.0
0.2620522,-0.40530795,-0.96054304,-2.1573346,-0.050904244,0.07485269,-0.13933115,-0.40493312,-0.3637213,0.06004806,-3.07271,0.62166893,0.00016998677,-0.12159162,0.034763966,-0.0014729018,0.040186144,-0.009169395,0.026315292,0.48556015,-1.3604823,1.8765014,-2.0812137,-1.575929,2.459307,-0.1463736,0.17111251,-0.21853435,0.07350865,-0.03227704,-0.17240982,-0.1340753,0.21068975,-9.691729,0.8806493,47.645687,-1.1502986,-2.3566203,-3.499554,-0.013552875,-0.24352196,-0.12841058,28.5,29.75,28.8125,32.5625,35.0625,36.0
0.26405227,0.31314388,-0.18491955,-2.2240837,-0.021344941,0.07517896,-0.13876912,-0.40519416,-0.3636685,0.060053363,-3.0726662,0.621527,0.00020646707,-0.12272907,0.035268,-0.0010237384,0.04101514,-0.009947516,0.020959757,0.48528418,-1.3601099,1.8760098,-2.0810688,-1.576001,2.4589484,-0.14790678,0.17245029,-0.22191614,0.07662824,-0.032643463,-0.16858344,-0.19153613,0.05746084,-9.519346,0.8806493,47.685097,-1.0834827,-2.4936686,-3.3746667,-0.00378134,-0.24102804,-0.16502333,28.5,29.75,28.8125,32.5625,35.0625,36.0
0.26605225,0.68385804,0.90868497,-2.1664798,0.0032248793,0.06019721,-0.1371451,-0.4054419,-0.3636112,0.060056496,-3.0725899,0.62149626,0.00025487374,-0.12313888,0.036390323,-0.0019369174,0.043280624,-0.014064909,0.01116069,0.48501995,-1.359761,1.875554,-2.0809357,-1.576085,2.4586751,-0.15002158,0.17538401,-0.22436316,0.080859266,-0.03270323,-0.16089691,-0.21068975,-0.038307227,-9.595961,0.90527004,47.675243,-1.0318899,-2.493095,-3.360354,-0.03357137,-0.26379475,-0.25651762,28.5,29.75,28.8125,32.5625,35.0625,36.0
0.26805252,0.6092439,0.66340685,-1.8626784,0.011347048,0.05295287,-0.14769882,-0.40568036,-0.3635191,0.06005399,-3.0725183,0.6214239,0.0002082314,-0.12278747,0.03779131,-0.0016970258,0.046059366,-0.01661079,0.0072393864,0.48468438,-1.3594497,1.8751477,-2.080766,-1.5761336,2.458304,-0.15117745,0.17480284,-0.22540942,0.08603535,-0.03397712,-0.15812188,-0.24899697,0.019153614,-9.461885,0.8605109,47.661808,-0.97905076,-2.5076315,-3.3586495,-0.05315572,-0.27899376,-0.2976641,28.5,29.75,28.8125,32.5625,35.0625,36.0
0.27005175,0.20192696,0.25834975,-1.7630465,0.0010191059,0.057015702,-0.13794842,-0.40594488,-0.36347657,0.060096003,-3.0725002,0.6213625,0.0002656632,-0.12349772,0.038392197,-0.00043651796,0.047304764,-0.017697515,0.0050242036,0.4844085,-1.3591261,1.8746198,-2.0805728,-1.5761818,2.4579923,-0.15234716,0.17462215,-0.22937603,0.09171563,-0.034572322,-0.15707242,-0.40222588,-0.05746084,-9.346964,0.8627467,47.652847,-1.0095268,-2.3195546,-3.3571393,-0.1262931,-0.28282657,-0.3553057,28.5,29.75,28.8125,32.5625,35.0625,36.0
0.2720518,-0.0063711675,0.59261346,-1.7205034,-0.0061063827,0.07241304,-0.15185024,-0.40614933,-0.36336797,0.06005862,-3.0723035,0.6213959,0.00011078752,-0.122496784,0.038972523,-0.0009943903,0.04891107,-0.022587636,0.0054485677,0.4840971,-1.3587781,1.8742355,-2.0803435,-1.5762652,2.4577277,-0.15285504,0.17564663,-0.23055357,0.096912816,-0.033754665,-0.15800287,-0.45968673,-0.05746084,-9.3661175,0.8537928,47.666286,-1.0486493,-2.3179164,-3.3568335,-0.18135257,-0.3159579,-0.3472123,28.5,29.75,28.8125,32.5625,35.0625,36.0
0.27405185,-0.49155408,0.2573393,-1.5474616,-0.0058965334,0.0967112,-0.14776371,-0.4063894,-0.36330226,0.060053956,-3.0722275,0.62135756,3.654947e-05,-0.12247592,0.040049832,-0.002160328,0.050870158,-0.026645046,0.008076148,0.48379683,-1.3584174,1.8737692,-2.0801508,-1.576301,2.4574137,-0.15461475,0.17807607,-0.23155677,0.09994939,-0.033643063,-0.16238762,-0.47884035,-0.15322891,-9.385271,0.8560339,47.675243,-0.9121672,-2.4068565,-3.4100323,-0.25070632,-0.34287864,-0.3752441,28.5,29.75,28.8125,32.5625,35.0625,36.0
0.27605203,-0.93646294,0.6191089,-1.3254619,-0.032442205,0.13144009,-0.15400694,-0.4066748,-0.36322004,0.06009086,-3.0721655,0.6212429,0.00013997256,-0.12394635,0.040079456,-0.0006938731,0.05089381,-0.024590163,0.013384352,0.48347384,-1.3580941,1.8732537,-2.0799587,-1.5764097,2.4570274,-0.15523125,0.17787401,-0.23511663,0.10184503,-0.034664456,-0.16830543,-0.4405331,-0.2681506,-9.423578,0.8605109,47.681515,-1.1462078,-2.2162375,-3.2419045,-0.29654428,-0.35457253,-0.3146997,28.5,29.75,28.8125,32.5625,35.0625,36.0
0.2780521,-1.406836,0.71278316,-1.2656695,-0.025386441,0.13846694,-0.15146361,-0.40690258,-0.36315683,0.060072277,-3.0720913,0.6211427,-1.2401351e-05,-0.12387115,0.04031902,-3.1459358e-06,0.051735476,-0.02402434,0.02400231,0.4831746,-1.3577108,1.8727864,-2.0797427,-1.5764221,2.4566755,-0.15480718,0.17672072,-0.23570181,0.10340753,-0.03575333,-0.17848863,-0.30645782,-0.2681506,-9.212888,0.8605109,47.65912,-1.1234223,-2.1277468,-3.2131379,-0.32086995,-0.3492007,-0.21197078,28.5,29.75,28.8125,32.5625,35.0625,36.0
0.28005207,-1.2592965,0.92653877,-1.3177162,-0.00046144592,0.13857324,-0.15553744,-0.40716535,-0.36306068,0.060078613,-3.0719526,0.62108976,2.8114986e-05,-0.12579799,0.0398062,0.0001948011,0.05016947,-0.019250473,0.031211171,0.48286307,-1.3573627,1.8723086,-2.079542,-1.5765542,2.4563494,-0.15499765,0.17776015,-0.2362064,0.09784355,-0.036658663,-0.18587966,-0.4213795,-0.17238252,-9.251195,0.86498255,47.642998,-1.1993446,-2.0234213,-3.396718,-0.28615016,-0.38517222,-0.08934417,28.5,29.75,28.8125,32.5625,35.0625,36.0
0.28205192,-1.4748377,0.7321882,-1.3558671,0.0044581625,0.114226304,-0.1505172,-0.40742248,-0.3630065,0.06010236,-3.0719502,0.6209155,7.085584e-05,-0.12793413,0.039705634,0.00069306185,0.049225174,-0.015441557,0.030783487,0.48257536,-1.3570387,1.8718299,-2.079387,-1.5766023,2.4559534,-0.15602618,0.17886262,-0.23801516,0.09471869,-0.037615545,-0.18647376,-0.40222588,-0.17238252,-9.346964,0.8627467,47.64658,-1.2057672,-2.042107,-3.4170442,-0.24264836,-0.3980941,-0.06605384,28.5,29.75,28.8125,32.5625,35.0625,36.0
0.2840518,-0.9540153,0.35179442,-1.4205545,6.868945e-05,0.11279711,-0.15110782,-0.40767938,-0.36290348,0.060112346,-3.071793,0.6208466,4.234971e-05,-0.13154484,0.040314898,-1.9196621e-05,0.04880466,-0.011364235,0.022810092,0.48225087,-1.3566893,1.8713259,-2.0791142,-1.576723,2.4556067,-0.15917622,0.18295784,-0.24006386,0.08886524,-0.03916274,-0.1816347,-0.4405331,-0.21068975,-9.32781,0.84708,47.66987,-1.2067481,-2.0893466,-3.3490024,-0.2133837,-0.39928314,-0.07380481,28.5,29.75,28.8125,32.5625,35.0625,36.0
0.2860518,-0.9682405,0.23914064,-1.6923165,-0.019342357,0.09649375,-0.14017767,-0.40794376,-0.36280838,0.0600986,-3.0716977,0.62084746,3.7840717e-05,-0.13277851,0.040316973,-0.0006840665,0.050377302,-0.008472532,0.016532548,0.4819041,-1.3563292,1.8708943,-2.0789835,-1.5767959,2.4552732,-0.15848634,0.18532231,-0.24064347,0.08527297,-0.041894253,-0.17464681,-0.45968673,-0.11492168,-9.423578,0.9768804,47.661808,-1.2876035,-2.0726557,-3.4337454,-0.1507457,-0.37307316,-0.14774826,28.5,29.75,28.8125,32.5625,35.0625,36.0
0.28805184,-0.4104585,-0.5926195,-1.9102535,-0.040667567,0.09972295,-0.14282973,-0.40820634,-0.3627273,0.060105227,-3.0715895,0.62076944,6.802719e-05,-0.13448037,0.040679656,-0.00020826017,0.051201113,-0.0047526597,0.010317889,0.48160434,-1.3559692,1.8704032,-2.0787923,-1.5769047,2.4549391,-0.15898366,0.18586504,-0.2419461,0.08313104,-0.04434672,-0.16891064,-0.38307226,0.0,-9.595961,0.86945957,47.658226,-1.1867958,-2.1453552,-3.4284506,-0.11266343,-0.35610706,-0.24731593,28.5,29.75,28.8125,32.5625,35.0625,36.0
0.29005188,-0.69212216,-0.93537563,-1.6963011,-0.07773496,0.09991136,-0.14411838,-0.40848294,-0.36264372,0.060111,-3.0714893,0.62073135,9.876738e-05,-0.13623215,0.04096479,-0.00020604458,0.05206963,-0.002391768,0.0024261554,0.48128098,-1.3555968,1.8699015,-2.0786135,-1.5770015,2.4546053,-0.1597542,0.18779168,-0.24397399,0.081562966,-0.046199426,-0.16177417,-0.49799395,0.038307227,-9.442732,0.9254084,47.64121,-1.2400354,-2.1668553,-3.4603417,-0.076592535,-0.34205243,-0.33541727,28.5,29.75,28.8125,32.5625,35.0625,36.0
0.29205167,-1.4667969,-1.7368817,-1.9698942,-0.08482648,0.09042111,-0.13826208,-0.4087516,-0.36255533,0.060116805,-3.0713696,0.62074643,0.00011290335,-0.13559482,0.04206174,-0.0015789533,0.056255724,-0.0067122155,-0.0012309117,0.48095682,-1.3552363,1.8694109,-2.07842,-1.5770983,2.4543066,-0.15987726,0.19051906,-0.24512213,0.08574934,-0.047905393,-0.1582256,-0.5554548,0.19153613,-9.461885,0.97464454,47.62688,-1.3243358,-2.2538023,-3.5310001,-0.09074176,-0.32367092,-0.41389394,28.5,29.75,28.8125,32.5625,35.0625,36.0
0.29405198,-0.46322292,-1.1071877,-1.8926162,-0.09210983,0.11634529,-0.1571893,-0.40900806,-0.36246753,0.060100656,-3.0712647,0.620666,0.0001171674,-0.13711968,0.04300307,-0.0020344881,0.05739707,-0.0055419,-0.0018056175,0.48064426,-1.3548642,1.8689674,-2.0782778,-1.5771946,2.4539578,-0.16171208,0.19226463,-0.24591,0.08424968,-0.049491387,-0.15947153,-0.4405331,0.34476504,-9.461885,0.9097417,47.67793,-1.3191509,-2.1462255,-3.5827937,-0.04326806,-0.3211681,-0.4808306,28.5,29.75,28.8125,32.5625,35.0625,36.0
0.296052,-0.7109923,-1.4989847,-1.9445455,-0.08508656,0.10354743,-0.15192421,-0.40927377,-0.3623773,0.060088396,-3.0711071,0.6206848,5.96267e-05,-0.13888663,0.04339331,-0.0020247046,0.05812808,-0.006143324,0.0060578366,0.48031974,-1.3544555,1.8684515,-2.078049,-1.5772909,2.453666,-0.16352479,0.19522724,-0.24999535,0.08615099,-0.049946614,-0.16913748,-0.22984336,0.4405331,-9.576807,0.91198283,47.66808,-1.254103,-2.2784338,-3.499589,-0.040174343,-0.3048445,-0.461412,28.5,29.75,28.8125,32.5625,35.0625,36.0
0.29805255,-0.2006586,-1.5474932,-1.8938212,-0.0900589,0.09365072,-0.1599148,-0.4095852,-0.36227757,0.060115743,-3.0710306,0.62068146,0.00017714694,-0.14053175,0.044430688,-0.0009001132,0.059592493,-0.0036457013,0.01598684,0.4799472,-1.3541082,1.867936,-2.0778935,-1.5773996,2.4533017,-0.16502348,0.19467862,-0.2521779,0.0872398,-0.05247063,-0.18054885,-0.15322891,0.47884035,-9.634268,0.88960326,47.660015,-1.1899453,-2.0527089,-3.5484624,-0.038202442,-0.29206938,-0.3750975,28.5,29.75,28.8125,32.5625,35.0625,36.0
0.30005255,-0.81116134,-2.0409899,-1.5201101,-0.08157547,0.0606433,-0.14188413,-0.40987822,-0.36219287,0.060106628,-3.0709124,0.6205376,0.00028269514,-0.14310482,0.045282368,0.00050132116,0.060046405,0.0004964242,0.024761602,0.47964576,-1.3536882,1.867421,-2.077762,-1.577557,2.4529262,-0.16711326,0.19444634,-0.255033,0.086753145,-0.054865204,-0.19139507,-0.2873042,0.49799395,-9.3661175,0.88960326,47.63852,-1.0257654,-2.11666,-3.4324768,0.00907781,-0.22759587,-0.21700418,28.5,29.75,28.8125,32.5625,35.0625,36.0
0.30205256,-0.5474194,-1.5678185,-1.7591354,-0.07075811,0.051306654,-0.13682407,-0.4101685,-0.36210397,0.060097706,-3.0708244,0.62040174,0.00032385427,-0.14420535,0.046352345,0.00059702934,0.059647456,-0.0012703809,0.025999106,0.4793094,-1.3532808,1.8669175,-2.0776174,-1.5776643,2.4525168,-0.17042568,0.1952574,-0.25681096,0.089029744,-0.05373756,-0.1959499,-0.36391866,0.4213795,-9.404425,0.88960326,47.63315,-1.1290951,-2.0949569,-3.4355886,0.012353149,-0.22118714,-0.14252076,28.5,29.75,28.8125,32.5625,35.0625,36.0
0.30405256,-0.10625291,-0.81826127,-1.7390659,-0.059190273,0.04606836,-0.14673387,-0.4104532,-0.36202082,0.060099334,-3.0707517,0.62031,0.00035407612,-0.14400865,0.046326343,0.0005938752,0.06184294,-0.0032953464,0.023614487,0.47897378,-1.3528961,1.8664144,-2.07746,-1.5777487,2.4521337,-0.1694735,0.19687517,-0.25973183,0.093134984,-0.05474882,-0.19260316,-0.15322891,0.36391866,-9.385271,0.88960326,47.653748,-1.1700068,-2.0919633,-3.4368055,0.01597333,-0.21056561,-0.17368084,28.5,29.75,28.8125,32.5625,35.0625,36.0
0.30605268,0.1548726,-0.71949613,-1.4443449,-0.042846397,0.052165322,-0.14544684,-0.41075537,-0.36194128,0.0601196,-3.0706792,0.6202422,0.00042622877,-0.1434145,0.04872875,-0.001342286,0.06783884,-0.00958596,0.01506368,0.47863704,-1.3525112,1.8658632,-2.0772789,-1.5778459,2.4517643,-0.17137982,0.20008521,-0.2605991,0.09915705,-0.057139114,-0.18594092,-0.15322891,0.1340753,-9.232041,0.9545008,47.651955,-1.1142889,-2.2500203,-3.3925443,-0.023118818,-0.16458783,-0.2167702,28.5,29.75,28.8125,32.5625,35.0625,36.0
0.30805168,0.4200302,0.030085592,-1.2508501,-0.025793362,0.05702464,-0.15713146,-0.41106462,-0.3618224,0.060119133,-3.0705328,0.6201953,0.0005111987,-0.14321816,0.04994179,-0.0013652804,0.07079653,-0.013436871,0.008277857,0.4782646,-1.3521154,1.8653487,-2.0771086,-1.5780019,2.4513822,-0.17259328,0.20105205,-0.26320305,0.10556819,-0.05797732,-0.18035921,-0.24899697,0.076614454,-9.11712,0.91421866,47.67614,-1.0481316,-2.0948544,-3.4083047,-0.08691847,-0.119617246,-0.2976311,28.5,29.75,28.8125,32.5625,35.0625,36.0
0.31005156,0.3111012,1.210602,-1.2104106,0.01458741,0.042000525,-0.15386392,-0.41135976,-0.36175126,0.060134076,-3.0704582,0.6201634,0.0005576458,-0.14335069,0.050440364,-0.0007542049,0.07029718,-0.017079191,0.002661929,0.47793975,-1.35172,1.8647965,-2.0769274,-1.5780848,2.4510474,-0.17471188,0.20127702,-0.2662344,0.1113636,-0.055851474,-0.17687452,-0.17238252,-0.038307227,-9.11712,0.90750587,47.63315,-0.9223395,-2.1339622,-3.3875146,-0.157414,-0.15027481,-0.3638535,28.5,29.75,28.8125,32.5625,35.0625,36.0
0.31205168,0.7931052,1.6737585,-1.2617835,0.048521873,0.05146086,-0.16132964,-0.41161948,-0.3616339,0.06010659,-3.0703008,0.6201297,0.00038758185,-0.14323285,0.05175117,-0.0020528268,0.07204216,-0.022301793,0.0009086515,0.47755495,-1.3513116,1.8643063,-2.0766628,-1.5781449,2.4506626,-0.1771693,0.20383969,-0.26732683,0.11529401,-0.05504862,-0.17757396,-0.1340753,-0.38307226,-9.155427,0.91198283,47.652847,-0.97689736,-2.1459947,-3.4385226,-0.21771027,-0.13008597,-0.36984757,28.5,29.75,28.8125,32.5625,35.0625,36.0
0.31405166,0.23045923,1.4650022,-1.0160263,0.06424704,0.042186692,-0.15035795,-0.4119225,-0.36152673,0.06010849,-3.0701275,0.6201075,0.00042981535,-0.14248373,0.05099308,-0.0026714234,0.07239914,-0.02543059,0.006726669,0.47720787,-1.3508911,1.8637432,-2.076434,-1.5783004,2.4503248,-0.17578013,0.20604141,-0.2692273,0.11785246,-0.053985707,-0.18200548,-0.11492168,-0.4213795,-9.097966,0.8717007,47.67345,-1.0239227,-2.2504318,-3.4517329,-0.25754488,-0.10964635,-0.3874656,28.5,29.75,28.8125,32.5625,35.0625,36.0
0.31605163,0.59454566,1.6594392,-0.7644665,0.0452035,0.060820334,-0.16684143,-0.41215575,-0.3614228,0.060084697,-3.0699742,0.61989695,0.0002575805,-0.14419697,0.050645676,-0.0019087304,0.07015161,-0.02437537,0.015053543,0.47688308,-1.3504951,1.863252,-2.0761354,-1.5783838,2.449889,-0.17743208,0.20712812,-0.27233586,0.11779164,-0.05259443,-0.19198333,-0.13407528,-0.4405331,-9.002198,0.90527004,47.674347,-1.0285065,-2.0376785,-3.482369,-0.27848142,-0.13501647,-0.31703344,28.5,29.75,28.8125,32.5625,35.0625,36.0
0.31805167,0.1420567,1.1356173,-0.851699,0.019224564,0.070511244,-0.1580594,-0.41248348,-0.36133513,0.0601035,-3.0698674,0.6198677,0.00027307137,-0.14578398,0.049554564,-0.0007604306,0.06681815,-0.021038568,0.025485076,0.476511,-1.3500515,1.8626169,-2.075885,-1.5784792,2.449513,-0.17765403,0.20719074,-0.27456138,0.11533597,-0.05126846,-0.20264363,-0.30645782,-0.38307226,-9.078813,0.87393653,47.682407,-1.027503,-2.0143518,-3.25518,-0.2708695,-0.1376378,-0.1759601,28.5,29.75,28.8125,32.5625,35.0625,36.0
0.32005158,-0.5991267,0.4511399,-0.79839754,-0.015903698,0.08524472,-0.1576537,-0.41275406,-0.36120763,0.06008856,-3.0696678,0.6198034,0.00021858368,-0.14705299,0.048254624,-0.0002654132,0.06441797,-0.018401623,0.03050894,0.47615162,-1.3496556,1.8621138,-2.0756228,-1.5786227,2.44914,-0.17697893,0.20852755,-0.2767898,0.11269964,-0.050430786,-0.20699054,-0.38307226,-0.34476504,-9.059659,0.8985519,47.650166,-1.1478231,-2.0247993,-3.339624,-0.24962921,-0.14038947,-0.11280674,28.5,29.75,28.8125,32.5625,35.0625,36.0
0.32205164,-1.2547303,-0.73527485,-0.93404883,-0.0349018,0.09668675,-0.15396984,-0.41302478,-0.36113244,0.060077082,-3.0695834,0.61961335,0.00012503078,-0.14888856,0.045505647,0.00027609637,0.06030028,-0.012775407,0.029718352,0.47582838,-1.3492227,1.8615631,-2.0753858,-1.5786823,2.4487095,-0.1745001,0.21084571,-0.27946004,0.10615837,-0.04938806,-0.20372191,-0.5554548,-0.28730422,-9.136273,0.8627467,47.642998,-1.3508128,-2.1222684,-3.3467407,-0.22822616,-0.16371419,-0.10246169,28.5,29.75,28.8125,32.5625,35.0625,36.0
0.32405198,-0.8220273,-0.7643932,-1.2370164,-0.06563779,0.13207158,-0.15714876,-0.4133156,-0.3610326,0.06007011,-3.069448,0.6195294,6.5593595e-05,-0.14990902,0.04392422,0.00061396806,0.0577462,-0.010130397,0.023026537,0.47546902,-1.3487906,1.861,-2.0751345,-1.5787781,2.4483159,-0.17326303,0.21233726,-0.28145364,0.103162825,-0.04832747,-0.19579448,-0.6703765,-0.1340753,-9.212888,0.8985519,47.67345,-1.4435253,-2.146476,-3.283409,-0.15438339,-0.18354107,-0.14892875,28.5,29.75,28.8125,32.5625,35.0625,36.0
0.32605216,-1.2947582,-0.86674947,-1.6110616,-0.07693181,0.120935924,-0.1630246,-0.41360322,-0.36092117,0.060055494,-3.069306,0.6194667,6.108858e-05,-0.15276882,0.04381135,0.0002845706,0.055952676,-0.0077822846,0.012429136,0.4751079,-1.348382,1.8604964,-2.0749452,-1.5788978,2.4479346,-0.17573524,0.21600312,-0.28443277,0.09959172,-0.04780037,-0.18766724,-0.5554548,0.019153614,-9.308657,0.9298854,47.660015,-1.3346778,-2.1565545,-3.290132,-0.14619584,-0.18093672,-0.28069764,28.5,29.75,28.8125,32.5625,35.0625,36.0
0.3280522,-0.7931104,-1.3293905,-1.9131155,-0.06493403,0.11157639,-0.15445764,-0.41389227,-0.3608177,0.06005015,-3.0691473,0.619437,3.8692393e-05,-0.15293153,0.044794407,-0.0015133091,0.05679375,-0.010417972,0.0042543677,0.47475928,-1.3479615,1.8599461,-2.0747058,-1.579018,2.4475887,-0.17766783,0.21863356,-0.28340754,0.09867608,-0.04733434,-0.18142362,-0.51714754,0.2873042,-9.481039,0.9097417,47.64658,-1.4010638,-2.2049932,-3.3287072,-0.11006466,-0.19146027,-0.3752189,28.5,29.75,28.8125,32.5625,35.0625,36.0
0.3300522,-0.6614317,-1.8067503,-2.0032263,-0.07578534,0.096724704,-0.16292325,-0.41419327,-0.3607376,0.06004611,-3.0690627,0.6193433,1.2190249e-05,-0.15375797,0.045940578,-0.0014202566,0.056652617,-0.010667024,-0.00062142784,0.4744103,-1.3475177,1.859372,-2.0745018,-1.57909,2.4471927,-0.18028949,0.21839263,-0.28352353,0.09917916,-0.04710478,-0.17916813,-0.6703765,0.4405331,-9.691729,0.9186956,47.63673,-1.3038464,-2.240311,-3.5799131,-0.10048935,-0.21178195,-0.4591759,28.5,29.75,28.8125,32.5625,35.0625,36.0
0.3320523,-1.0121914,-2.7153962,-2.3255215,-0.10613208,0.08701167,-0.15656349,-0.41453403,-0.36062914,0.06005522,-3.06889,0.6193813,0.00010833138,-0.15330437,0.046581842,-0.0032881056,0.058085922,-0.014340866,0.0008563765,0.47403842,-1.3470615,1.8587507,-2.0742862,-1.5792578,2.4468677,-0.18104233,0.22125812,-0.2829232,0.09956918,-0.046737812,-0.18139979,-0.5554548,0.51714754,-9.672575,0.8851263,47.627773,-1.3331902,-2.3180943,-3.868969,-0.0786411,-0.22499582,-0.49946797,28.5,29.75,28.8125,32.5625,35.0625,36.0
0.3340524,-0.8326982,-3.0234208,-2.2741797,-0.12955987,0.09371319,-0.16396925,-0.414838,-0.3605401,0.060062412,-3.0688167,0.61928326,7.136078e-05,-0.15357834,0.04776006,-0.002889921,0.059656616,-0.016711092,0.011216361,0.47366533,-1.3466417,1.8581742,-2.0740573,-1.5793179,2.4464433,-0.1828423,0.22128491,-0.28498852,0.10430334,-0.047157794,-0.19355343,-0.38307226,0.57460845,-9.634268,0.9254084,47.653748,-1.1609566,-2.233738,-3.7560368,-0.11585358,-0.2139529,-0.4207187,28.5,29.75,28.8125,32.5625,35.0625,36.0
0.3360518,-0.5747158,-3.2168534,-2.1996577,-0.12196814,0.09353045,-0.15392412,-0.4151546,-0.36041433,0.06003471,-3.0686574,0.61922264,3.1326163e-05,-0.15544483,0.048022468,-0.0032058267,0.058834784,-0.017934194,0.022054391,0.47325644,-1.3461729,1.8576235,-2.0738537,-1.5794371,2.446018,-0.18543345,0.22464356,-0.28863057,0.105138436,-0.046008058,-0.20698617,-0.36391866,0.59376204,-9.653421,0.9545008,47.640312,-1.1188712,-2.337327,-3.7505083,-0.10981491,-0.2334178,-0.2740815,28.5,29.75,28.8125,32.5625,35.0625,36.0
0.33805194,-0.691508,-2.571707,-2.078062,-0.10841894,0.073699996,-0.15918455,-0.4154647,-0.36035034,0.06003062,-3.068608,0.61907434,1.953616e-05,-0.15536098,0.048904907,-0.002809766,0.059466776,-0.022754023,0.027631285,0.47292006,-1.3457049,1.8570241,-2.073671,-1.5794967,2.4455957,-0.1876361,0.22518604,-0.29188797,0.11233117,-0.0444445,-0.21477647,-0.3256114,0.5363012,-9.672575,0.9254084,47.63852,-1.1554025,-2.281116,-3.7054398,-0.17930245,-0.2703405,-0.16635455,28.5,29.75,28.8125,32.5625,35.0625,36.0
0.3400518,-0.119535156,-2.0826545,-2.1225195,-0.06830195,0.07297742,-0.14909679,-0.41580343,-0.36024278,0.0600236,-3.068488,0.6189731,3.9800787e-05,-0.15655583,0.049365032,-0.0016993656,0.058870938,-0.022888625,0.025159132,0.47252342,-1.3452258,1.8564132,-2.073467,-1.5796164,2.445152,-0.18960825,0.22510858,-0.29510337,0.11543264,-0.043883212,-0.21427755,-0.30645782,0.5363012,-9.500193,0.91421866,47.607174,-1.026355,-2.272575,-3.6234932,-0.20453459,-0.29793358,-0.13185172,28.5,29.75,28.8125,32.5625,35.0625,36.0
0.34205195,0.2365683,-0.37896568,-2.0757813,-0.04077773,0.04981608,-0.15965815,-0.41611248,-0.36015156,0.060011253,-3.0683587,0.6189505,-4.6078912e-05,-0.15768574,0.04948683,-0.0008846733,0.05787677,-0.024062574,0.015345943,0.47215074,-1.3447456,1.8558019,-2.0732143,-1.5796884,2.4447827,-0.1914989,0.22607791,-0.2990323,0.119020104,-0.042451218,-0.2063607,-0.24899697,0.30645782,-9.500193,0.90750587,47.635834,-1.0100589,-2.2458076,-3.485458,-0.2644508,-0.33503062,-0.2076857,28.5,29.75,28.8125,32.5625,35.0625,36.0
0.34405217,0.14946483,0.048550535,-1.7834572,-0.0336718,0.054690443,-0.15979221,-0.4164231,-0.36005545,0.05999116,-3.0682635,0.6188579,-0.00015383301,-0.15937234,0.04991092,-0.00080457993,0.058878332,-0.024466323,0.0066232244,0.47175437,-1.3442656,1.8552135,-2.0729864,-1.5797366,2.4443414,-0.19306703,0.22892118,-0.30325833,0.121258765,-0.04315562,-0.19919306,-0.21068975,0.2681506,-9.5385,0.9231726,47.664497,-0.91950166,-2.2146037,-3.3863015,-0.29343605,-0.36561465,-0.29213172,28.5,29.75,28.8125,32.5625,35.0625,36.0
0.34605193,-0.29765427,-0.564831,-1.6347129,-0.010583227,0.05484589,-0.14878319,-0.41677475,-0.3599438,0.060004067,-3.068129,0.6189461,-0.00011737283,-0.1605273,0.049843576,-0.001058345,0.05871132,-0.02480316,0.0020490044,0.4713337,-1.3438091,1.8545789,-2.0727584,-1.5798444,2.443994,-0.19395082,0.23147257,-0.3059567,0.121623784,-0.042862292,-0.19550198,-0.19153613,0.076614454,-9.251195,0.93436235,47.658226,-0.80128264,-2.2389145,-3.3444767,-0.32715514,-0.3849253,-0.36421037,28.5,29.75,28.8125,32.5625,35.0625,36.0
0.34805223,-0.2623394,0.045041397,-1.6292497,-0.009214949,0.07228609,-0.16024172,-0.41708577,-0.35988337,0.060012966,-3.0680935,0.61878467,-0.00013614692,-0.1619911,0.050286382,-0.0009088705,0.058701653,-0.022548176,0.0011879223,0.47099733,-1.3433528,1.8539561,-2.0725443,-1.579893,2.4435618,-0.19514863,0.232213,-0.3068695,0.11976008,-0.043911498,-0.19582729,-0.30645782,-0.15322891,-9.308657,0.85826975,47.647476,-0.7224417,-2.3596065,-3.2403083,-0.30235043,-0.4222142,-0.38140735,28.5,29.75,28.8125,32.5625,35.0625,36.0
0.35005224,-0.5668692,0.507152,-1.6933916,-0.0017567272,0.08575574,-0.15423268,-0.41739985,-0.359772,0.059995033,-3.067945,0.6186491,-0.00024382863,-0.16235317,0.04922833,-0.0014571593,0.058933843,-0.020462003,0.011225772,0.47060278,-1.3428606,1.8533348,-2.0722578,-1.5799893,2.4431026,-0.19277644,0.23427294,-0.30748758,0.11646287,-0.045180246,-0.20347515,-0.21068975,-0.24899697,-9.404425,0.8940802,47.63225,-1.0453758,-2.4709892,-3.3986819,-0.26597863,-0.42172053,-0.36313695,28.5,29.75,28.8125,32.5625,35.0625,36.0
0.35205218,-1.4189708,-0.03957405,-1.6382844,-0.003289058,0.10184739,-0.15289629,-0.41777077,-0.35967284,0.060004044,-3.0678444,0.61864007,-0.00014918705,-0.16356644,0.048605867,-0.0017284931,0.058267575,-0.017548198,0.023696551,0.47019497,-1.3423685,1.8526763,-2.07208,-1.5801095,2.4427028,-0.19208483,0.23604217,-0.3082137,0.11237152,-0.046026774,-0.21524686,-0.095768064,-0.30645782,-9.500193,0.85826975,47.647476,-1.201565,-2.5515459,-3.4876363,-0.23283276,-0.44313234,-0.22960475,28.5,29.75,28.8125,32.5625,35.0625,36.0
0.35405222,-1.3062831,-0.32053337,-1.427927,-0.01713615,0.12158597,-0.15290137,-0.41808245,-0.359575,0.05998717,-3.0677297,0.6185537,-0.00023353769,-0.16482712,0.047834735,-0.002711705,0.057210814,-0.015814014,0.031153586,0.46981087,-1.341888,1.8520769,-2.071842,-1.5801815,2.4422803,-0.19175036,0.23931615,-0.3090572,0.10781687,-0.04597835,-0.22236456,-0.038307227,-0.4405331,-9.308657,0.9254084,47.668976,-1.2234023,-2.390521,-3.4814572,-0.16200274,-0.4698534,-0.12997465,28.5,29.8125,28.8125,32.5625,35.0625,36.0
0.3560522,-0.7268788,-0.3131485,-1.5165887,-0.009509073,0.10157192,-0.15299089,-0.41838363,-0.35949978,0.059954103,-3.0676422,0.6183244,-0.00031798802,-0.16821234,0.047686275,-0.001101972,0.057197947,-0.008162765,0.030297428,0.46947446,-1.341372,1.8514789,-2.0716398,-1.5802549,2.4418125,-0.19210888,0.23999824,-0.31279895,0.1040344,-0.04948181,-0.22182812,-0.17238253,-0.38307226,-9.308656,0.9298854,47.668976,-1.1995754,-2.5814867,-3.4804869,-0.087288156,-0.4721184,-0.087449476,28.5,29.8125,28.8125,32.5625,35.0625,36.0
0.35805225,0.17150384,0.22312523,-1.7105124,-0.0047859647,0.078520045,-0.15968506,-0.41873974,-0.35939837,0.059971545,-3.0675566,0.61823416,-0.00022191215,-0.1707707,0.05001719,0.00012886518,0.061203584,-0.0046594613,0.020535856,0.46907768,-1.3409169,1.8508424,-2.0714471,-1.580377,2.441371,-0.19487867,0.2397447,-0.31577948,0.10599535,-0.05460161,-0.21478738,-0.19153613,-0.30645782,-9.385271,0.8873621,47.651955,-1.1507162,-2.5350404,-3.447258,-0.045556262,-0.4503737,-0.13505766,28.5,29.8125,28.8125,32.5625,35.0625,36.0
0.36005235,0.57035094,0.22197174,-2.0472314,0.012685134,0.044404883,-0.1541897,-0.41907784,-0.3592725,0.05994463,-3.0673828,0.618181,-0.00022338312,-0.17318201,0.05040155,0.00066493865,0.0633824,0.00020634619,0.012342345,0.46866998,-1.3404127,1.8502449,-2.0712445,-1.5805224,2.4409535,-0.19489697,0.24151422,-0.31876802,0.10390042,-0.058726784,-0.2065663,-0.095768064,-0.114921674,-9.385271,0.900793,47.617924,-1.3170457,-2.6069174,-3.384911,-0.022414273,-0.40463448,-0.24266422,28.5,29.8125,28.8125,32.5625,35.0625,36.0
0.36205244,0.80619556,0.48822573,-2.1247613,0.0062540183,0.035299025,-0.15180315,-0.419442,-0.3591917,0.059983477,-3.0673258,0.6181164,-0.00012656786,-0.17279983,0.051612385,0.000102224374,0.06686496,-0.0033261678,0.0035229647,0.46828574,-1.3399562,1.8495492,-2.0710151,-1.5806187,2.4405367,-0.19552936,0.24297586,-0.32045716,0.10889674,-0.060176395,-0.19836536,-0.24899697,-0.11492168,-9.308656,0.8940802,47.623295,-1.2337362,-2.5967817,-3.4050636,0.0044448595,-0.3871175,-0.3769613,28.5,29.8125,28.8125,32.5625,35.0625,36.0
0.36405253,0.31566966,0.1474576,-2.5663135,-0.004776681,0.03947828,-0.15416904,-0.41978088,-0.35907,0.059968263,-3.0671403,0.6181362,-0.00015369208,-0.1740531,0.052999243,0.0015479301,0.069060534,0.00050836883,-0.00327856,0.46787754,-1.3394538,1.8489159,-2.0707638,-1.5807518,2.440166,-0.19649589,0.2407494,-0.321233,0.10948912,-0.063856356,-0.19248852,-0.51714754,0.19153613,-9.500193,0.9254084,47.66987,-1.2863604,-2.4069476,-3.3928316,0.033121422,-0.34959885,-0.46782523,28.5,29.8125,28.8125,32.5625,35.0625,36.0
0.36605248,-0.60956144,-0.65701705,-2.4647605,-0.041609727,0.06993993,-0.15719755,-0.4201178,-0.358938,0.05996555,-3.0669355,0.61818665,-0.00014558651,-0.17379133,0.05582683,9.086314e-05,0.07428563,-0.005102658,-0.002296232,0.46746862,-1.3389856,1.8482927,-2.0704982,-1.5809087,2.4398162,-0.19948028,0.24276152,-0.32171988,0.115240306,-0.0660457,-0.19642779,-0.22984336,0.2681506,-9.615114,0.94331104,47.657326,-1.2744026,-2.2794561,-3.5163245,0.0029866104,-0.30676913,-0.50315213,28.5,29.8125,28.8125,32.5625,35.0625,36.0
0.36805257,-1.3538016,-2.1091037,-2.2751088,-0.07244146,0.11591755,-0.15210071,-0.42043284,-0.35882965,0.059953094,-3.0667717,0.6180683,-0.00021650315,-0.1742396,0.05841271,0.00060036976,0.078586236,-0.008341052,0.006916148,0.4670958,-1.3384941,1.8476576,-2.0702088,-1.5810293,2.4393916,-0.20247518,0.24248905,-0.3242795,0.122737385,-0.06855862,-0.20860204,-0.3256114,0.2681506,-9.5385,0.9321212,47.652847,-1.227259,-2.2945485,-3.5125732,-0.0719153,-0.28011647,-0.43690577,28.5,29.8125,28.8125,32.5625,35.0625,36.0
0.37005246,-2.178986,-2.1865652,-2.395327,-0.07989431,0.1281327,-0.1455806,-0.42079306,-0.35869503,0.05995629,-3.0666068,0.61794937,-0.0001998938,-0.17188561,0.06047397,-0.0012458796,0.08439221,-0.01707195,0.019115921,0.46666354,-1.3380021,1.8469886,-2.0699298,-1.5811862,2.4389074,-0.20290285,0.24414767,-0.32402322,0.13104454,-0.06994049,-0.22121067,-0.40222588,0.24899697,-9.730036,0.9365982,47.63315,-1.0467175,-2.2087567,-3.6379251,-0.13449435,-0.23749118,-0.30990213,28.5,29.8125,28.8125,32.5625,35.0625,36.0
0.37205252,-1.757763,-1.3283451,-2.372769,-0.05968612,0.13004027,-0.1480991,-0.42114234,-0.35858607,0.05994529,-3.0664768,0.6178629,-0.00022488085,-0.17324454,0.06253844,-0.0014749557,0.0866675,-0.019214213,0.022561867,0.4662541,-1.3374853,1.8463296,-2.06969,-1.5812944,2.4384615,-0.20659065,0.24574097,-0.32632262,0.13456507,-0.07111013,-0.22832632,-0.4213795,0.21068975,-9.653421,0.90750587,47.64479,-0.8893561,-2.3912816,-3.615204,-0.22838584,-0.20768109,-0.20115334,28.5,29.8125,28.8125,32.5625,35.0625,36.0
0.3740526,-1.4204451,-0.5484173,-2.3856332,-0.025131078,0.108289726,-0.14311184,-0.42149276,-0.35846958,0.05995588,-3.066339,0.61775947,-0.0002128134,-0.17277694,0.06388861,-0.0023068185,0.08926823,-0.024126086,0.017556151,0.46584558,-1.3370056,1.8456587,-2.069413,-1.581426,2.438007,-0.20819065,0.247425,-0.32774645,0.13984042,-0.071231514,-0.224913,-0.2873042,0.0,-9.768343,0.9254084,47.661808,-0.855967,-2.3830237,-3.6647897,-0.30311427,-0.17968577,-0.18629566,28.5,29.8125,28.8125,32.5625,35.0625,36.0
0.37605274,-0.5160086,0.1386465,-2.110024,-0.016018564,0.092379175,-0.15342616,-0.42185068,-0.35835472,0.05995116,-3.0661795,0.617671,-0.00017205287,-0.17538884,0.064017035,-0.0012885694,0.08977781,-0.019841924,0.009678236,0.4654494,-1.3364899,1.8449868,-2.069174,-1.5815834,2.4375772,-0.2089886,0.24890247,-0.33171666,0.13875663,-0.07360298,-0.21780175,-0.36391866,-0.1340753,-9.557653,0.9992599,47.647476,-0.9035695,-2.335787,-3.6473765,-0.31972188,-0.1370716,-0.2838276,28.5,29.8125,28.8125,32.5625,35.0625,36.0
0.37805182,-0.043931145,0.32792276,-1.7825968,-0.018985614,0.07662366,-0.15929155,-0.42219704,-0.3582542,0.059971426,-3.0660877,0.6175764,-0.00019158184,-0.17738251,0.06159548,-0.00071164296,0.08549758,-0.01700074,0.005734294,0.46504197,-1.3360211,1.8443044,-2.068888,-1.5816659,2.4371233,-0.20799357,0.25214723,-0.33646634,0.13579996,-0.0710655,-0.21288133,-0.30645782,-0.038307227,-9.346964,0.91421866,47.64479,-1.0792657,-2.3939037,-3.4456534,-0.3182093,-0.13100521,-0.3419127,28.5,29.8125,28.8125,32.5625,35.0625,36.0
