Tylouw/Master_Thesis_Code/training_data_v2/rect_rod_t0.2/sample_31_session_1.csv
timestamp[s],tcp_force_x[N],tcp_force_y[N],tcp_force_z[N],tcp_force_rx[Nm?],tcp_force_ry[Nm?],tcp_force_rz[Nm?],tcp_pose_x[m],tcp_pose_y[m],tcp_pose_z[m],tcp_pose_rx[rot_vec_x],tcp_pose_ry[rot_vec_y],tcp_pose_rz[rot_vec_z],tcp_velo_x[m/s],tcp_velo_y[m/s],tcp_velo_z[m/s],tcp_velo_rx[rot_vec_x/s],tcp_velo_ry[rot_vec_y/s],tcp_velo_rz[rot_vec_z/s],q1[rad],q2[rad],q3[rad],q4[rad],q5[rad],q6[rad],qd1[rad/s],qd2[rad/s],qd3[rad/s],qd4[rad/s],qd5[rad/s],qd6[rad/s],tool_acc_x,tool_acc_y,tool_acc_z,current_of_whole_robot[A],voltage_of_whole_robot[V],current_J1[A],current_J2[A],current_J3[A],current_J4[A],current_J5[A],current_J6[A],temp_J1[C],temp_J2[C],temp_J3[C],temp_J4[C],temp_J5[C],temp_J6[C]
8.629995e-07,0.43325832,0.19522692,1.2222369,-0.012630641,0.0054883305,-0.01575548,-0.38933256,-0.36872113,0.060012635,-3.0787313,0.62491465,0.00020903617,0.0011777994,0.0006077217,-0.0008362878,0.0015099675,-0.002978777,9.254857e-05,0.5050329,-1.3816679,1.9042228,-2.0919268,-1.5708417,2.4800134,0.0,0.000103188366,0.0013544013,0.0018794177,0.00012712093,-9.346781e-05,0.11492168,0.21068975,-8.599973,0.76874626,47.705692,-0.14923665,-3.0510907,-2.349423,-0.19865596,0.17945752,0.009747035,28.5,29.8125,28.875,32.625,35.0625,36.0625
0.002052837,0.6800438,0.7024877,1.1641941,-0.02226593,0.014762615,-0.012397304,-0.3893446,-0.36870468,0.060015313,-3.0787003,0.6249469,0.00022272511,-0.0013085464,-0.0007737888,-0.0007968747,-0.002860503,0.0048837652,9.1963186e-05,0.5050088,-1.3816675,1.9042119,-2.0919073,-1.5708655,2.4800134,0.0,0.0010095917,0.0027584287,-0.009426593,0.00012460652,-9.210828e-05,0.13407528,0.17238252,-8.6574335,0.6948948,47.687782,-0.18877044,-3.058906,-2.2656548,-0.15407947,0.18387298,0.016526684,28.5,29.8125,28.875,32.625,35.0625,36.0625
0.004052311,0.40007713,0.31576884,1.1439601,-0.020370275,0.0115978485,-0.014240945,-0.38934967,-0.36871907,0.06001658,-3.0787172,0.6249883,0.00023914751,-0.0015050813,-0.00088298135,-0.0019507109,-0.002562658,0.004341749,9.105777e-05,0.50502086,-1.3816547,1.9041995,-2.0919316,-1.5708536,2.4800491,0.0,0.0032847493,0.0031637857,-0.011488645,0.0001221898,-9.078156e-05,0.11492168,0.19153613,-8.6574335,0.7978386,47.717335,-0.12021907,-3.3898396,-2.551952,-0.054589696,0.19256148,0.0143896025,28.5,29.8125,28.875,32.625,35.0625,36.0625
0.006051907,0.8065037,0.45791054,1.2576264,-0.0174909,0.011341446,-0.01582284,-0.38935825,-0.368731,0.06002136,-3.078754,0.6249574,0.0002942889,-0.00035952363,-0.00024491228,-0.0015814466,-0.000759263,0.0011081387,8.9303016e-05,0.5050329,-1.3816551,1.9041995,-2.0919774,-1.5708536,2.4800372,0.0,0.0021294039,0.0024172517,-0.005884276,0.00011986497,-8.9491965e-05,0.0,0.24899697,-8.599973,0.80679786,47.699425,-0.16280466,-3.3451629,-2.5497174,-0.0663771,0.17880869,-0.0066495575,28.5,29.8125,28.875,32.625,35.0625,36.0625
0.008052448,1.3282069,1.5363363,0.84402436,0.011373155,-0.0031579707,-0.020361576,-0.3893323,-0.36872366,0.05999906,-3.078715,0.62487227,0.00019294987,-6.938174e-05,-8.21588e-05,-0.00030061445,-0.00051476026,0.000683064,8.7880464e-05,0.5050448,-1.3816319,1.9042114,-2.0919278,-1.5708536,2.480001,0.0,0.00010253266,0.0010064949,-0.0019563264,0.000117626965,-8.8238514e-05,0.019153614,0.22984336,-8.734048,0.7732232,47.704796,-0.13108277,-3.1794753,-2.4089277,-0.11156762,0.19368236,0.007802832,28.5,29.8125,28.875,32.625,35.0625,36.0625
0.010051886,1.0885372,1.7226297,0.5191715,0.026796186,-0.010753751,-0.018567137,-0.38931492,-0.36872035,0.05997434,-3.0787113,0.6249106,0.00011245574,0.0003416834,0.0001708265,-6.929929e-05,0.0005318421,-0.0011943179,4.6840436e-05,0.5050329,-1.3816198,1.9042586,-2.0919507,-1.5708174,2.4800134,-3.9924726e-05,1.3756065e-06,-0.00017974456,0.0014804802,0.0001154709,-8.701968e-05,0.019153614,0.19153613,-8.983045,0.6546126,47.684196,-0.6792375,-2.780726,-2.950993,-0.12762538,0.17825605,-0.023781799,28.5,29.8125,28.875,32.625,35.0625,36.0625
0.012052156,0.6666941,0.9643817,0.09947713,0.0006577233,0.0007444555,-0.016324084,-0.3893268,-0.36868805,0.059978545,-3.07861,0.6249682,0.00015397274,-0.0008984038,0.0018319788,-0.00091898354,0.0019522684,-0.0037555697,-0.0038177683,0.5050198,-1.3816189,1.9042343,-2.09189,-1.5709013,2.4800491,-0.0039954092,0.0022058757,-0.0012597038,0.0032846797,0.00011339264,-0.00017729528,0.076614454,0.15322891,-9.136273,0.75755644,47.674347,-0.7992301,-2.6742778,-2.9647913,-0.1315795,0.15466791,-0.09353618,28.5,29.8125,28.875,32.625,35.0625,36.0625
0.014052472,0.42171934,0.46956947,0.05339801,-0.04566374,0.030099738,-0.024813691,-0.3893378,-0.36871195,0.05997556,-3.0786808,0.6249249,9.267113e-05,-0.004281144,0.0040062885,-0.0046159015,0.004872194,-0.009052901,-0.0044306708,0.50500506,-1.3815793,1.9041971,-2.0919025,-1.5708297,2.4799984,-0.010823705,0.012422832,-0.004767903,0.002623867,0.00011138772,-0.0063895523,-0.076614454,0.038307227,-9.308657,0.7665104,47.65643,-0.41843545,-3.1432903,-3.0063317,-0.11676359,0.17193782,-0.08702326,28.5,29.8125,28.875,32.625,35.0625,36.0625
0.016051857,-0.5251636,-0.7000812,0.06974104,-0.058431447,0.044347465,-0.024437588,-0.3893241,-0.36867678,0.059926577,-3.078568,0.6249573,-1.2630963e-05,-0.0051589957,0.0037954445,-0.0036640845,0.003608084,-0.0067738974,0.0011534484,0.504981,-1.3815197,1.9042329,-2.0918791,-1.5708655,2.4800088,-0.011288991,0.011482348,-0.005642635,0.0018317148,0.000109452456,-0.012438675,-0.30645782,0.15322891,-9.346964,0.79560274,47.655537,-0.4605879,-3.2164726,-3.0905428,-0.118287235,0.17298684,-0.024974354,28.5,29.8125,28.875,32.625,35.0625,36.0625
0.018051997,-0.18115498,-0.047938086,0.09362831,-0.082562186,0.090851255,-0.047292262,-0.38931155,-0.36867607,0.0599347,-3.078584,0.624939,-7.6823584e-05,-0.0052406034,0.0035627116,-0.0029746203,0.0032103206,-0.006052054,0.004552444,0.5049692,-1.3815442,1.9042324,-2.091831,-1.5708297,2.4799836,-0.010972327,0.010639357,-0.006388766,0.0025966922,0.000107583284,-0.015520915,-0.45968673,0.22984336,-9.404425,0.7463667,47.66539,-0.69127643,-2.840373,-3.233371,-0.09683558,0.17028654,0.0035095885,28.5,29.8125,28.875,32.625,35.0625,36.0625
0.020052386,-0.7450953,-0.004939478,-0.27785242,-0.040600874,0.085971236,-0.054264106,-0.38931793,-0.36867493,0.059933767,-3.078582,0.6248999,-6.58398e-05,-0.0054485705,0.0042280313,-0.0031084581,0.0043647485,-0.008129762,0.00525412,0.50496876,-1.3815317,1.9042195,-2.0918295,-1.5708417,2.479959,-0.012285968,0.011492389,-0.0077448688,0.00547617,0.000105776984,-0.017535845,-0.4213795,0.19153613,-9.595961,0.7016076,47.617023,-0.78531444,-2.7959418,-3.3485374,-0.10999065,0.14102027,-0.009636459,28.5,29.8125,28.875,32.625,35.0625,36.0625
0.022052683,-1.0364403,0.6998667,-0.4996003,-0.0046494044,0.07212049,-0.07305884,-0.38931644,-0.3686594,0.059897445,-3.0785286,0.62492883,-0.0001515948,-0.007270529,0.0047698,-0.0022264265,0.0039778966,-0.007435118,0.0030246598,0.50494397,-1.3814715,1.904231,-2.0918295,-1.5708417,2.479959,-0.014901822,0.0120554855,-0.01080276,0.0071758186,0.00010403035,-0.017921083,-0.38307226,0.24899697,-9.634268,0.75755644,47.64927,-0.788715,-2.7761893,-3.3404188,-0.14827758,0.17228824,0.011194341,28.5,29.8125,28.875,32.625,35.0625,36.0625
0.024051808,-1.0072138,0.4215466,-0.57769495,-0.0015463731,0.068532035,-0.084114425,-0.38935956,-0.36865282,0.05990863,-3.0785325,0.6248929,-0.000100368015,-0.008390543,0.00504582,-0.0030283225,0.0043703066,-0.008150034,-0.0001315784,0.5049074,-1.3814344,1.904159,-2.0918171,-1.5708655,2.4798996,-0.016413642,0.014911207,-0.012208657,0.006541382,0.000102340404,-0.016275562,-0.59376204,0.19153613,-9.787497,0.7620334,47.6636,-0.7883693,-2.7411294,-3.2973642,-0.113827184,0.14884028,-0.05316554,28.5,29.8125,28.875,32.625,35.0625,36.0625
0.02605177,-1.1168779,-0.23133458,-0.6741781,-0.010852357,0.070419215,-0.088961385,-0.38934556,-0.36864847,0.05989141,-3.078523,0.6248918,-0.00023469968,-0.0097538335,0.0048878617,-0.002898198,0.003624925,-0.0068141804,-0.0015241763,0.5048831,-1.38141,1.9041585,-2.09177,-1.5708174,2.4798758,-0.0174233,0.016315348,-0.013877035,0.0052767247,0.000100704536,-0.015891587,-0.68953013,0.11492168,-9.768343,0.81351066,47.7451,-0.8115511,-2.7961497,-3.319787,-0.10117048,0.13627833,-0.06424625,28.5,29.8125,28.875,32.625,35.0625,36.0625
0.02805185,-1.3753304,-0.11628023,-0.52022046,-0.038293503,0.08978624,-0.114325695,-0.38935298,-0.36864266,0.059865475,-3.0784974,0.6249067,-0.00030431265,-0.010197692,0.005039413,-0.0035435106,0.0042254226,-0.007902475,-0.0027317815,0.5048589,-1.3813491,1.9041456,-2.09177,-1.5708054,2.4798641,-0.018093564,0.018319828,-0.014818175,0.005456614,9.912e-05,-0.015353564,-0.8236054,0.0,-9.787497,0.779936,47.658226,-0.81093705,-2.8827202,-3.3627207,-0.103836015,0.12827064,-0.07705346,28.5,29.8125,28.875,32.625,35.0625,36.0625
0.030052194,-1.3492177,-0.15540954,-0.4691399,-0.044160325,0.1101944,-0.12089384,-0.38938096,-0.36863682,0.059858095,-3.0784776,0.62492263,-0.0003344137,-0.010561027,0.005018934,-0.002950038,0.0043789297,-0.0081762,-0.0037383959,0.50482285,-1.3812892,1.904086,-2.0917451,-1.5708054,2.4798405,-0.018397216,0.018382892,-0.01673568,0.0076249707,9.758481e-05,-0.0146500375,-0.7661445,-0.019153614,-9.902418,0.7665104,47.67793,-0.8937311,-2.7380772,-3.35672,-0.100591466,0.15594515,-0.09201296,28.5,29.8125,28.875,32.625,35.0625,36.0625
0.032052428,-1.717883,-0.16564645,-0.49664527,-0.027404351,0.10177534,-0.1318311,-0.38940373,-0.36861885,0.0598551,-3.078452,0.62491715,-0.00032355107,-0.0112949135,0.0054917275,-0.0027157932,0.004386514,-0.008187823,-0.0059573753,0.5047865,-1.3812652,1.9040617,-2.0917332,-1.5708297,2.479804,-0.019877726,0.018563995,-0.017653108,0.008374889,9.609624e-05,-0.013911243,-0.80445176,0.019153614,-9.883265,0.74413085,47.65912,-0.8827348,-2.821772,-3.3761158,-0.12268405,0.13299389,-0.11121919,28.5,29.8125,28.875,32.625,35.0625,36.0625
0.034052107,-1.5820765,0.23316917,-0.553116,0.0008195927,0.093991905,-0.1375157,-0.38944292,-0.36861193,0.059870336,-3.078472,0.62494123,-0.000279464,-0.012786963,0.0053863884,-0.002388422,0.0036199903,-0.0068101347,-0.007382732,0.5047382,-1.3812525,1.9040121,-2.0917332,-1.5708297,2.4797683,-0.021094022,0.01982444,-0.019711738,0.0075965435,9.465245e-05,-0.0137010515,-0.78529817,0.0,-9.80665,0.7777002,47.719128,-0.91279876,-2.817275,-3.3708763,-0.10124839,0.12360943,-0.123442955,28.5,29.8125,28.875,32.625,35.0625,36.0625
0.036052015,-0.68976134,0.8774433,-0.58233094,0.010746393,0.09323311,-0.16200861,-0.3894771,-0.3686139,0.05987137,-3.0784698,0.62503695,-0.00027854947,-0.014013371,0.0054536443,-0.0019076951,0.0028329205,-0.005392094,-0.008235282,0.5047018,-1.3812044,1.903953,-2.0917337,-1.5708174,2.4797919,-0.02235158,0.020174228,-0.021084467,0.0069977883,9.325146e-05,-0.014105377,-0.47884035,-0.11492168,-9.768343,0.7777002,47.650166,-0.91168344,-2.7284272,-3.3633127,-0.110954285,0.13272655,-0.15239018,28.5,29.8125,28.875,32.625,35.0625,36.0625
0.03805397,-0.28977504,0.9883486,-0.54052526,0.0124911135,0.073392496,-0.16772693,-0.38951692,-0.36859298,0.05986011,-3.078443,0.62509036,-0.00030726322,-0.015451905,0.0059203827,-0.0013656628,0.0021956644,-0.004244439,-0.00963678,0.5046293,-1.3811443,1.9039048,-2.0917218,-1.5708174,2.479756,-0.024479082,0.020358851,-0.022524305,0.0069402186,9.189124e-05,-0.014830759,-0.49799395,0.0,-9.710882,0.679228,47.705692,-0.8642784,-2.7845106,-3.3632576,-0.09949967,0.13048333,-0.1326187,28.5,29.8125,28.875,32.625,35.0625,36.0625
0.040052712,-0.011258565,0.6443381,-0.4268018,0.005227014,0.061584104,-0.1754374,-0.38956463,-0.36857998,0.059854597,-3.0784154,0.6250459,-0.00025750927,-0.016096767,0.0062940517,-0.0015579723,0.002411012,-0.0046347887,-0.01014513,0.50459284,-1.3810719,1.9038318,-2.0917218,-1.5708655,2.4796956,-0.02570825,0.021327415,-0.02328688,0.0071792156,9.05703e-05,-0.015551138,-0.5554548,0.05746084,-9.653421,0.7396539,47.64837,-0.828043,-2.7379618,-3.2913547,-0.06477769,0.1282019,-0.1627615,28.5,29.8125,28.875,32.625,35.0625,36.0625
0.042052038,-0.48303977,0.13848735,-0.45990828,-0.00021402727,0.042525522,-0.17659543,-0.38958395,-0.36855227,0.05984112,-3.0783901,0.6250983,-0.0003130131,-0.017157499,0.006254021,-0.001262875,0.0021404081,-0.004152438,-0.009695204,0.5045207,-1.3810476,1.9038309,-2.091709,-1.5708536,2.4796593,-0.026631067,0.022421194,-0.02534476,0.007590234,8.9286645e-05,-0.01692291,-0.2873042,0.019153614,-9.5385,0.8023209,47.689575,-0.87202895,-2.7120886,-3.314535,-0.07411022,0.118426204,-0.1513787,28.5,29.8125,28.875,32.625,35.0625,36.0625
0.044052217,-0.072668195,0.07898101,-0.42726183,-0.0047522318,0.047269538,-0.19135013,-0.38963693,-0.3685619,0.05988486,-3.0784464,0.6251477,-0.00025106253,-0.018603243,0.006066085,-0.00035205626,0.0013120401,-0.0026580472,-0.009592045,0.5044725,-1.3810474,1.9037231,-2.0916736,-1.5708297,2.4796348,-0.027662143,0.022933729,-0.028157625,0.0081822025,8.803886e-05,-0.018055968,-0.19153613,0.019153614,-9.5385,0.779936,47.70211,-0.8895842,-2.7265148,-3.2505264,-0.07874094,0.11881828,-0.17869201,28.5,29.8125,28.875,32.625,35.0625,36.0625
0.04605226,-0.11794982,0.3449442,-0.44033277,-0.012188109,0.034966197,-0.20503743,-0.38967875,-0.36853597,0.05987125,-3.0783815,0.6252117,-0.00025842583,-0.019013057,0.00682849,-0.0006461085,0.002128608,-0.0041324752,-0.010789093,0.50441206,-1.380975,1.903663,-2.0916493,-1.5708655,2.4796226,-0.029325379,0.023768919,-0.028819567,0.009693688,8.6825625e-05,-0.018521916,-0.17238252,0.095768064,-9.691729,0.7642693,47.70211,-0.86389464,-2.7010255,-3.2306395,-0.07146062,0.103624284,-0.18098828,28.5,29.8125,28.875,32.625,35.0625,36.0625
0.04805257,-0.06443263,0.0326293,-0.507837,-0.015322841,0.030107232,-0.20377031,-0.3896653,-0.36851737,0.059811756,-3.0783334,0.6252417,-0.00045122099,-0.020417346,0.007519143,-0.0004789594,0.001764211,-0.003481824,-0.0124577265,0.50436324,-1.3808907,1.9036988,-2.0916493,-1.5708174,2.4795985,-0.031799514,0.024346802,-0.029809456,0.009360765,8.564525e-05,-0.0193269,-0.076614454,0.076614454,-9.710882,0.74413085,47.678825,-0.74340093,-2.753835,-3.2174487,-0.08390454,0.10596731,-0.21176347,28.5,29.8125,28.875,32.625,35.0625,36.0625
0.05005224,0.2799725,-0.118232906,-0.43788785,-0.020548863,0.029512363,-0.19928743,-0.38976032,-0.36849523,0.059833948,-3.0783162,0.62537205,-0.00031818345,-0.020950766,0.007937338,-0.00065483217,0.0019250842,-0.0037712974,-0.012460759,0.5042672,-1.3808304,1.9035796,-2.0916607,-1.5708655,2.4795861,-0.032994848,0.024984846,-0.030178735,0.00942206,8.449655e-05,-0.02051895,0.0,0.21068975,-9.5385,0.6725152,47.64837,-0.77365077,-2.7254727,-3.3165383,-0.06411882,0.10051533,-0.21168786,28.5,29.8125,28.875,32.625,35.0625,36.0625
0.0520524,0.37465292,-0.11543374,-0.4328496,-0.025386026,0.021111762,-0.18724929,-0.3898023,-0.3684754,0.05985377,-3.0783207,0.62535286,-0.00031716496,-0.022285888,0.008361253,-0.00044867778,0.001788759,-0.0034818624,-0.012443185,0.5041946,-1.380818,1.9035062,-2.0916007,-1.5708655,2.479501,-0.034937333,0.026064461,-0.03202578,0.009869977,5.9960326e-05,-0.022478085,0.095768064,0.11492168,-9.595961,0.7150385,47.6636,-0.7687049,-2.6962748,-3.3389316,-0.06591551,0.11075336,-0.22546592,28.5,29.8125,28.875,32.625,35.0625,36.0625
0.054052364,0.729901,-0.10154101,-0.38905138,-0.028255854,0.018343963,-0.18721782,-0.38986477,-0.368467,0.05987781,-3.0783472,0.62541586,-0.0002466148,-0.023814036,0.008739526,1.8469973e-05,0.0015008242,-0.0029179254,-0.012509765,0.50412214,-1.3807937,1.9034227,-2.0916007,-1.5708655,2.4794645,-0.036981937,0.027021838,-0.034398507,0.010652219,3.667986e-05,-0.024455024,0.038307227,0.21068975,-9.595961,0.7665104,47.695843,-0.6929513,-2.6732225,-3.2767391,-0.060997136,0.1022574,-0.21084687,28.5,29.8125,28.875,32.625,35.0625,36.0625
0.056052197,0.111142784,-0.43343377,-0.3069195,-0.024696847,0.011328952,-0.17414978,-0.38990158,-0.3684535,0.05986446,-3.0783384,0.6254328,-0.0003146481,-0.024478236,0.008577452,0.00049054855,0.0011186092,-0.002228671,-0.011474166,0.50405014,-1.3807214,1.9033622,-2.0915759,-1.5708417,2.4794042,-0.03732478,0.027307194,-0.035911784,0.011092401,3.4533903e-05,-0.02583285,0.076614454,0.2681506,-9.519346,0.8224646,47.696735,-0.69275904,-2.6239526,-3.2992063,-0.069634214,0.09405431,-0.21962044,28.5,29.8125,28.875,32.625,35.0625,36.0625
0.058052413,-0.12186025,-0.5911264,-0.40077865,-0.025609208,0.017785164,-0.17498133,-0.3899508,-0.3684382,0.059866592,-3.0783238,0.62546635,-0.00032890786,-0.024285376,0.008408779,0.0002207036,0.0017355185,-0.0033466183,-0.009374899,0.50397843,-1.380661,1.9032778,-2.09154,-1.5708417,2.4793553,-0.036857028,0.028327474,-0.036754284,0.012191261,3.3791384e-05,-0.027463978,-0.019153614,0.22984336,-9.423578,0.7620334,47.68062,-0.82527363,-2.6120977,-3.3064268,-0.05549731,0.090083025,-0.22160965,28.5,29.8125,28.875,32.625,35.0625,36.0625
0.060051918,0.12521431,-0.38853398,-0.41515648,-0.032026574,0.03852641,-0.17610665,-0.39000702,-0.36841905,0.059881315,-3.0783165,0.625543,-0.00031415443,-0.025646536,0.009316633,0.0002835094,0.0016868905,-0.0032315096,-0.011236354,0.5038937,-1.3806249,1.9031934,-2.0915043,-1.5708417,2.4793193,-0.039640997,0.029000267,-0.03773507,0.012374904,1.8753299e-05,-0.028385978,-0.05746084,0.34476504,-9.442732,0.78888994,47.686886,-0.75180864,-2.4972334,-3.264452,-0.07391353,0.09350686,-0.22711685,28.5,29.8125,28.875,32.625,35.0625,36.0625
0.062052075,-0.6395534,-0.6021862,-0.4203106,-0.025655685,0.023578702,-0.16370411,-0.39007214,-0.36838913,0.05989173,-3.0783207,0.62558174,-0.00023470462,-0.026520865,0.009388246,0.00062097586,0.0015459367,-0.002974114,-0.01105234,0.5037975,-1.3806005,1.9031461,-2.0915277,-1.5708655,2.4792469,-0.04057076,0.029723963,-0.039537,0.013158831,1.6422971e-05,-0.029498981,-0.038307227,0.3256114,-9.500193,0.7239871,47.66271,-0.72030735,-2.575291,-3.2989473,-0.08189644,0.06932524,-0.23434561,28.5,29.8125,28.875,32.625,35.0625,36.0625
0.064052336,0.017493825,0.1416335,-0.12857053,-0.036792204,0.03955221,-0.17892218,-0.39011502,-0.36838424,0.05988062,-3.0782945,0.62559533,-0.00027764367,-0.027623162,0.009750124,0.0009845608,0.00138366,-0.0026614945,-0.011696795,0.50374913,-1.3805041,1.9030493,-2.0914915,-1.5708655,2.4792104,-0.04219671,0.030305086,-0.0412252,0.0139136715,4.1322037e-06,-0.03047976,-0.05746084,0.28730422,-9.481039,0.7978386,47.737934,-0.7064425,-2.5248525,-3.255384,-0.08093369,0.07251441,-0.24986172,28.5,29.8125,28.875,32.625,35.0625,36.0625
0.06605273,-0.16896261,0.15467545,-0.22839956,-0.02198996,0.039314058,-0.18294218,-0.39016494,-0.36836204,0.05988121,-3.0782716,0.6256285,-0.000307134,-0.028210862,0.009626755,0.00094925665,0.001172871,-0.002280057,-0.011243086,0.5036652,-1.3804439,1.9029659,-2.0914438,-1.5708655,2.47915,-0.042530548,0.031243287,-0.042155158,0.01346951,2.6980337e-07,-0.03126673,-0.11492168,0.24899697,-9.423578,0.8247004,47.698532,-0.7900729,-2.4614525,-3.2834291,-0.08832759,0.062507,-0.25043958,28.5,29.8125,28.875,32.625,35.0625,36.0625
0.06805209,0.12952705,0.66215587,-0.12690341,-0.025317522,0.048955865,-0.17850116,-0.3902381,-0.3683497,0.059872404,-3.0782654,0.6257046,-0.0003198772,-0.02980365,0.009916674,0.0012684527,0.0005217881,-0.0011098387,-0.01211729,0.5035687,-1.3803355,1.9028577,-2.0914438,-1.5708536,2.479102,-0.044496514,0.032216176,-0.04390883,0.012911367,1.7616234e-08,-0.032357574,-0.22984336,0.22984336,-9.346964,0.7597976,47.657326,-0.76609504,-2.534879,-3.2793913,-0.08675827,0.06485771,-0.27672258,28.5,29.8125,28.875,32.625,35.0625,36.0625
0.07005243,-0.38022986,0.49729776,0.05729876,-0.014389117,0.04596171,-0.17783234,-0.3902806,-0.36833042,0.059880417,-3.0782616,0.62568414,-0.00033434798,-0.030583318,0.010072078,0.0014166759,0.00033610867,-0.0007794414,-0.011686614,0.5034966,-1.3802991,1.9027857,-2.091396,-1.5708536,2.4790175,-0.04548074,0.03284329,-0.045010217,0.013006437,1.1502141e-09,-0.03377194,-0.24899697,0.24899697,-9.232041,0.7620334,47.68062,-0.7962324,-2.5385077,-3.307981,-0.06692515,0.063670024,-0.2633311,28.5,29.8125,28.875,32.625,35.0625,36.0625
0.07205253,-0.42829168,0.5679961,-0.019796802,-0.00913381,0.04968288,-0.17109887,-0.39034125,-0.36831406,0.059875734,-3.078258,0.62574095,-0.00032051874,-0.031235045,0.010029301,0.0016476118,0.00026751307,-0.00065831415,-0.011903159,0.5034125,-1.3802269,1.9027137,-2.091408,-1.5708536,2.4789693,-0.0460103,0.033602063,-0.0465898,0.013688019,7.510076e-11,-0.034084268,-0.22984336,0.13407528,-9.289502,0.7284641,47.684196,-0.7851718,-2.4762397,-3.2374177,-0.0834316,0.04739418,-0.30008805,28.5,29.8125,28.875,32.625,35.0625,36.0625
0.07405188,-0.9019009,0.30549055,-0.042727757,0.0037147154,0.049183454,-0.16674955,-0.39040196,-0.3683135,0.059904985,-3.07831,0.6256929,-0.00030244322,-0.03261993,0.010487324,0.0018798256,9.0717105e-05,-0.00034216826,-0.012517987,0.50334007,-1.3801905,1.902593,-2.0913594,-1.5708297,2.4788604,-0.04806517,0.034653634,-0.04846792,0.014152982,4.903543e-12,-0.03552343,-0.30645782,0.095768064,-9.270349,0.86945957,47.683304,-0.7587721,-2.4588854,-3.2604342,-0.0848563,0.037616916,-0.29558927,28.5,29.8125,28.875,32.625,35.0625,36.0625
0.07605252,-0.807476,0.7685116,0.050344724,0.00022835495,0.05586351,-0.16777575,-0.39047602,-0.36826685,0.05990056,-3.0782545,0.62579674,-0.00030718063,-0.033602417,0.011480154,0.0017039754,0.0004752149,-0.0010437839,-0.0130533,0.5032074,-1.3801181,1.9025096,-2.091324,-1.5708536,2.4787996,-0.05064307,0.03541633,-0.049130417,0.014851695,3.201663e-13,-0.037565704,-0.40222588,-0.019153614,-9.251195,0.66132545,47.66271,-0.6476182,-2.424193,-3.278234,-0.094270684,0.0344695,-0.292139,28.5,29.8125,28.875,32.625,35.0625,36.0625
0.07805272,-0.107535,0.5649026,0.112120464,0.0010423409,0.07855,-0.17232153,-0.39053243,-0.36825037,0.059895508,-3.07823,0.62584835,-0.00039093065,-0.032910608,0.0107816495,0.0010693829,0.0010762574,-0.0021416824,-0.010364362,0.5031122,-1.3800215,1.9023904,-2.091252,-1.5708297,2.4787397,-0.0488174,0.03687743,-0.049440574,0.014953193,2.0904572e-14,-0.03842863,-0.49799395,-0.038307227,-9.251195,0.86945957,47.65464,-0.8960266,-2.4547997,-3.285707,-0.09756522,0.025777856,-0.29671055,28.5,29.8125,28.875,32.625,35.0625,36.0625
0.080051795,-0.14741623,0.79526234,0.19450493,-0.004863013,0.08199427,-0.18331994,-0.39060548,-0.3682494,0.059918657,-3.0783057,0.62576854,-0.00034279004,-0.03530278,0.011262139,0.0017527015,0.00036573625,-0.00085875485,-0.013699856,0.5030273,-1.3799729,1.9022802,-2.0912516,-1.5708054,2.4785955,-0.05184549,0.038331974,-0.052821986,0.015414504,1.3649192e-15,-0.038119674,-0.4405331,-0.038307227,-9.289502,0.7777002,47.696735,-0.7834024,-2.45134,-3.2265,-0.11201326,0.02225554,-0.34088814,28.5,29.8125,28.875,32.625,35.0625,36.0625
0.08205213,-0.4826741,0.45617205,0.16367935,0.0036511782,0.06967253,-0.1698754,-0.39068303,-0.36821023,0.05991125,-3.0782392,0.6259071,-0.00029557015,-0.03581529,0.011847987,0.0012206837,0.0009505545,-0.0019249733,-0.011995985,0.5029192,-1.3798885,1.9021972,-2.0912516,-1.5708536,2.4785824,-0.053300295,0.03963644,-0.053229276,0.015731089,8.9119466e-17,-0.041278016,-0.34476504,-0.076614454,-9.308656,0.7978386,47.68599,-0.7362981,-2.4604564,-3.1997828,-0.1267164,0.029093754,-0.32584736,28.5,29.8125,28.875,32.625,35.0625,36.0625
0.08405205,-0.42931595,0.51314914,0.13961892,0.006402308,0.07119876,-0.16735621,-0.39074805,-0.36817968,0.059905417,-3.0782127,0.6258638,-0.0003009829,-0.036486275,0.013240987,0.00033845796,0.0021963909,-0.0029578635,-0.012609768,0.5028224,-1.3798039,1.9021024,-2.0912163,-1.5708779,2.478462,-0.0558901,0.0406735,-0.0523611,0.0153321065,-0.0005949668,-0.043253075,-0.3256114,-0.11492168,-9.404425,0.78888994,47.70211,-0.63955706,-2.4549222,-3.3710687,-0.12929867,0.030325592,-0.31719172,28.5,29.8125,28.875,32.625,35.0625,36.0625
0.08605281,-0.45190874,0.5511908,0.0056995605,-0.0019736656,0.069398284,-0.16610308,-0.3908259,-0.36817068,0.059920624,-3.0782232,0.6259005,-0.00029814418,-0.036943477,0.011896746,0.0010191596,0.001525046,-0.0009926666,-0.006835635,0.5027273,-1.3797199,1.9019574,-2.0911682,-1.570866,2.4783885,-0.05381636,0.041516487,-0.054811176,0.014894878,-0.0009611632,-0.04695163,-0.4405331,-0.11492168,-9.3661175,0.77545905,47.655537,-0.85395294,-2.412671,-3.3104796,-0.13134864,0.033619214,-0.2982419,28.5,29.8125,28.875,32.625,35.0625,36.0625
0.08805179,-0.36035487,0.765294,0.067360245,-0.00863328,0.076864295,-0.16980025,-0.3909096,-0.36813828,0.05991345,-3.0781858,0.62600726,-0.0003271775,-0.03934469,0.011777178,0.0017404164,0.00050696614,0.00085966085,-0.0068684267,0.5025949,-1.3796109,1.9018368,-2.0911324,-1.570866,2.4783275,-0.055832174,0.04348825,-0.058758147,0.014756009,-0.00097234664,-0.04893269,-0.40222588,0.0,-9.308656,0.7866488,47.668976,-0.8875834,-2.4827528,-3.1861005,-0.15284815,0.011825378,-0.2876758,28.5,29.8125,28.875,32.625,35.0625,36.0625
0.09005191,-0.40438333,0.663533,-0.045910317,-0.008398831,0.07323015,-0.16789174,-0.39098644,-0.36810932,0.059902206,-3.0781705,0.626005,-0.00035644422,-0.03961014,0.012520666,0.0013550661,0.0008878292,-6.883569e-05,-0.008453622,0.5024746,-1.3795028,1.901729,-2.0911086,-1.570866,2.4782078,-0.05739016,0.043825082,-0.058338825,0.014996498,-0.00085861067,-0.048905827,-0.40222588,0.05746084,-9.442732,0.7597976,47.675243,-0.82146126,-2.4575787,-3.18031,-0.15861608,0.004478241,-0.28460866,28.5,29.8125,28.875,32.625,35.0625,36.0625
0.092051856,0.07020153,0.4291877,-0.09012493,-0.017263096,0.07937965,-0.17139657,-0.39105952,-0.36807576,0.059902642,-3.0781672,0.6260207,-0.00038566222,-0.03946199,0.012918705,0.00055019854,0.0018871042,-0.0018935887,-0.005343714,0.50234276,-1.37943,1.9016336,-2.0910718,-1.5708541,2.4780862,-0.057913635,0.04518457,-0.05826569,0.015644243,-0.00085658266,-0.052539088,-0.3256114,0.11492168,-9.481039,0.83365434,47.698532,-0.8675959,-2.4015808,-3.399201,-0.17258796,0.0028775786,-0.2735695,28.5,29.8125,28.875,32.625,35.0625,36.0625
0.09405198,-0.024368644,0.25947168,-0.05948754,-0.037268143,0.07657791,-0.17909382,-0.39113948,-0.3680523,0.05990707,-3.0781362,0.6259928,-0.00033714413,-0.040700693,0.012881785,0.00060690346,0.0018297593,-0.0017710407,-0.0028051555,0.5022586,-1.3793334,1.901501,-2.091036,-1.5709018,2.4779887,-0.05898488,0.047110062,-0.060779277,0.016094081,-0.00087158324,-0.056147594,-0.28730422,0.17238252,-9.461885,0.87617236,47.728977,-0.91166365,-2.5069184,-3.31667,-0.16576584,-0.0014395695,-0.22503924,28.5,29.8125,28.875,32.625,35.0625,36.0625
0.09605253,-0.3900243,-0.03815412,-0.29853806,-0.038586535,0.05711541,-0.16988567,-0.3912246,-0.36803862,0.05992158,-3.0781868,0.6259637,-0.00037261948,-0.04159221,0.012732556,0.0012466668,0.0011629018,-0.00038878247,-0.00066434115,0.50212675,-1.3792492,1.9013575,-2.090988,-1.5708541,2.4778323,-0.059496045,0.047132857,-0.062245883,0.016007792,-0.00095658476,-0.058798824,-0.19153613,0.24899697,-9.423578,0.8112748,47.703007,-0.87941337,-2.4993238,-3.229691,-0.19952616,0.0104237795,-0.19683778,28.5,29.8125,28.875,32.625,35.0625,36.0625
0.098051704,0.49877703,0.2819883,-0.24673858,-0.04514595,0.073963724,-0.1839742,-0.39132774,-0.3679798,0.05991596,-3.0781384,0.62606794,-0.0003648033,-0.042035222,0.0131902285,0.00076700747,0.0018233989,-0.0015353215,0.00038277238,0.50194675,-1.3791528,1.9012507,-2.090964,-1.5708779,2.4777236,-0.060645178,0.048530225,-0.06295624,0.01664185,-0.0009859946,-0.060994565,-0.19153613,0.30645782,-9.442732,0.75755644,47.703903,-0.9672408,-2.4715462,-3.3132036,-0.20442043,-0.017639583,-0.16811542,28.5,29.8125,28.875,32.625,35.0625,36.0625
0.100051835,0.3962724,-0.28619766,-0.3246077,-0.04078564,0.064629704,-0.17303357,-0.39140508,-0.36796266,0.059898417,-3.0781205,0.626121,-0.00040724166,-0.042737003,0.013586766,-0.00027335904,0.0032187768,-0.0035135502,0.0011044922,0.5018386,-1.3790195,1.9011301,-2.0909517,-1.570866,2.477651,-0.061782356,0.051796827,-0.06465099,0.017476894,-0.0012621318,-0.062851794,-0.038307227,0.21068975,-9.404425,0.7172743,47.705692,-0.90102184,-2.6269524,-3.3202085,-0.22422269,-0.03219855,-0.14535071,28.5,29.8125,28.875,32.625,35.0625,36.0625
0.10205184,0.38986146,-0.023934409,-0.20117399,-0.047642857,0.050580397,-0.17442809,-0.391472,-0.3679355,0.059900064,-3.0781252,0.62606287,-0.00042040745,-0.043761842,0.013196989,0.0013816996,0.0015873507,-0.00018369149,0.0026911355,0.50173074,-1.3789481,1.9010338,-2.090916,-1.570866,2.4775062,-0.061956253,0.049907815,-0.066101596,0.017112669,-0.0014393108,-0.06461166,-0.076614454,0.30645782,-9.481039,0.7418897,47.698532,-0.99826205,-2.4497867,-3.3151388,-0.21802941,-0.019443285,-0.11295033,28.5,29.8125,28.875,32.625,35.0625,36.0625
0.10405206,0.3846196,-0.7331564,-0.5595573,-0.02608994,0.04147896,-0.16334756,-0.39158508,-0.36790293,0.059922714,-3.0781255,0.6260429,-0.00036809768,-0.045006707,0.01394134,0.0011099912,0.0024267973,-6.312537e-05,0.0017574977,0.50158644,-1.3788513,1.900854,-2.0908558,-1.5708908,2.4773495,-0.06385207,0.051458523,-0.06731408,0.017073313,-0.0022351707,-0.0655716,-0.11492168,0.3256114,-9.423578,0.8179876,47.70211,-1.0368435,-2.491132,-3.3000736,-0.22066921,-0.017791841,-0.07396708,28.5,29.8125,28.875,32.625,35.0625,36.0625
0.106052265,0.41174418,-0.5093623,-0.6292529,-0.033534613,0.030866621,-0.16343,-0.39168224,-0.36788088,0.05992171,-3.0781355,0.6259876,-0.00034312258,-0.046199605,0.014166354,0.00088238507,0.0026092145,0.00036676522,0.00038852243,0.5014662,-1.3787307,1.9007109,-2.0908449,-1.5709022,2.4771936,-0.065092586,0.053243622,-0.06877704,0.016462298,-0.0026057404,-0.06544153,0.019153614,0.30645782,-9.404425,0.7978386,47.660015,-1.0121713,-2.5145264,-3.3489242,-0.21975371,-0.011300664,-0.07698247,28.5,29.8125,28.875,32.625,35.0625,36.0625
0.10805239,0.67786956,-0.64654124,-0.4527453,-0.030558288,0.029269721,-0.16569892,-0.39175072,-0.36785445,0.059908476,-3.078119,0.6259463,-0.00038899583,-0.04681963,0.014549252,-0.00016088998,0.0034436795,-0.0013511021,-0.0017965736,0.5013582,-1.3786216,1.9006037,-2.0908086,-1.5709022,2.477062,-0.066358216,0.05605086,-0.069749154,0.016534282,-0.002515962,-0.06452132,-0.038307227,0.2681506,-9.346964,0.8112748,47.690468,-0.98700416,-2.6208072,-3.3912182,-0.22096023,-0.022743214,-0.049173117,28.5,29.8125,28.875,32.625,35.0625,36.0625
0.110052586,0.7054552,0.20041175,-0.20826091,-0.046236895,0.02439889,-0.16854163,-0.39187348,-0.36781502,0.05991422,-3.0780969,0.6260582,-0.00038886964,-0.04830627,0.014577046,0.0013083366,0.0015283736,0.0014765506,-0.0038414223,0.50117797,-1.3784899,1.9004239,-2.090761,-1.5709022,2.4769545,-0.06795909,0.054601066,-0.0712887,0.016122006,-0.0021993618,-0.064077556,-0.038307227,0.15322891,-9.404425,0.7732232,47.68062,-1.0279984,-2.4868789,-3.2885437,-0.22912699,-0.02551512,-0.06597116,28.5,29.8125,28.875,32.625,35.0625,36.0625
0.112052016,0.19069861,0.2760573,-0.2403621,-0.039534576,0.012897799,-0.17962776,-0.39196625,-0.36779213,0.05991709,-3.0781174,0.6260816,-0.0003727005,-0.048964784,0.014735474,0.0014056251,0.0015482445,0.0011671208,-0.005724679,0.501046,-1.3783937,1.9003032,-2.0907605,-1.5708903,2.4768345,-0.0689028,0.055458743,-0.07272552,0.016982293,-0.002067238,-0.063137695,0.038307227,0.30645782,-9.423578,0.7553206,47.652847,-1.038057,-2.4028153,-3.3738313,-0.24827185,-0.028059049,-0.054320544,28.5,29.8125,28.875,32.625,35.0625,36.0625
0.11405218,0.70061666,-0.15562765,-0.30094874,-0.016171817,0.02640634,-0.1606811,-0.39207935,-0.3677733,0.05993595,-3.0781488,0.62608904,-0.00034376667,-0.049965266,0.014803538,0.001014957,0.0018713474,0.00036693644,-0.008114471,0.50090176,-1.3782846,1.900123,-2.0907242,-1.5708779,2.476691,-0.0699887,0.05795366,-0.07492405,0.017543335,-0.0019670567,-0.061832853,-0.019153614,0.21068975,-9.404425,0.8605109,47.704796,-1.1053145,-2.528147,-3.293677,-0.2488533,-0.03712398,-0.0968235,28.5,29.8125,28.875,32.625,35.0625,36.0625
0.11605266,0.48101228,0.093137816,-0.3185882,-0.008151384,0.03362891,-0.16140084,-0.3921815,-0.36774242,0.05992061,-3.078112,0.62610036,-0.00034930927,-0.050059322,0.015173413,0.00074474973,0.0022172283,-0.00033499268,-0.00999528,0.50077,-1.3781284,1.8999676,-2.0907004,-1.5709018,2.476571,-0.07070194,0.058335125,-0.074841276,0.017859308,-0.0019336079,-0.060665328,-0.095768064,0.22984336,-9.385271,0.82694155,47.67614,-1.0991273,-2.5006318,-3.3292882,-0.25709045,-0.05316468,-0.087489344,28.5,29.8125,28.875,32.625,35.0625,36.0625
0.11805272,0.50711447,0.7431735,-0.21351649,-0.01581073,0.049966373,-0.17212024,-0.3922402,-0.36771026,0.05990751,-3.078078,0.6260753,-0.000419563,-0.052694086,0.014508521,0.0024908693,0.0005649715,0.0033028466,-0.012800018,0.5006618,-1.378032,1.8998693,-2.0906398,-1.5709022,2.4764516,-0.07181974,0.05922953,-0.07992584,0.018066276,-0.0022437752,-0.058975503,-0.11492168,0.19153613,-9.423578,0.75755644,47.687782,-1.1359951,-2.5057125,-3.143134,-0.2746821,-0.049752746,-0.11717196,28.5,29.8125,28.875,32.625,35.0625,36.0625
0.12005199,0.1153905,0.3562191,-0.34248188,-0.003246097,0.04943262,-0.16585808,-0.3923584,-0.36766854,0.059910834,-3.0780468,0.6261844,-0.00043684043,-0.052116312,0.014853867,0.0018156607,0.0017848369,0.0019768144,-0.013653791,0.50048214,-1.3778996,1.8996915,-2.0905802,-1.5709022,2.476344,-0.07157633,0.059706815,-0.0790524,0.018465746,-0.0026746753,-0.057877757,-0.11492168,0.17238253,-9.346964,0.8605109,47.689575,-1.1633966,-2.4249787,-3.374816,-0.25800633,-0.060173925,-0.15341294,28.5,29.8125,28.875,32.625,35.0625,36.0625
0.122051895,-0.041961256,0.6502354,-0.44025496,-0.01382421,0.05260828,-0.16381028,-0.39247397,-0.3676555,0.059923872,-3.0780637,0.62617064,-0.0003820976,-0.05483948,0.015859358,0.0015335511,0.0021860928,0.0015437026,-0.018238995,0.5003609,-1.3777663,1.8994983,-2.090556,-1.5709146,2.4762123,-0.07567607,0.06331775,-0.0828733,0.01924786,-0.0028230648,-0.057390083,-0.076614454,0.095768064,-9.461885,0.8179876,47.70032,-1.1082448,-2.5709097,-3.242445,-0.28085387,-0.05300539,-0.17577294,28.5,29.8125,28.875,32.625,35.0625,36.0625
0.12405189,0.28845468,0.38786614,-0.40218094,-0.013216777,0.070739605,-0.17461863,-0.3925853,-0.36762947,0.059929647,-3.0780551,0.62626284,-0.0003943932,-0.05434818,0.014985216,0.002654124,0.001837734,0.0032204872,-0.016148956,0.5002064,-1.3776348,1.8993186,-2.0905082,-1.5709022,2.4761164,-0.073419675,0.06162451,-0.08360121,0.020032765,-0.0033211843,-0.05722282,-0.30645782,0.05746084,-9.404425,0.85155696,47.719128,-1.2089297,-2.3954294,-3.013442,-0.30612934,-0.06851794,-0.19543733,28.5,29.8125,28.875,32.625,35.0625,36.0625
0.1260524,-0.4568535,0.12751715,-0.38130537,-0.017592497,0.0642918,-0.16644023,-0.39267874,-0.36756453,0.05991142,-3.0779872,0.62634426,-0.0004283623,-0.05474596,0.01609658,0.0022499487,0.0035879046,0.0028452694,-0.017514959,0.5000262,-1.3775265,1.8992237,-2.0904725,-1.570927,2.4759958,-0.07479451,0.062016536,-0.08324894,0.020459874,-0.004677892,-0.05722889,-0.4405331,0.038307227,-9.557653,0.7553206,47.655537,-1.3438029,-2.3901715,-3.2215304,-0.3118552,-0.036967523,-0.24199843,28.5,29.8125,28.875,32.625,35.0625,36.0625
0.12805241,-1.1225367,0.20145178,-0.39481336,-0.022584785,0.072708085,-0.17073898,-0.39279088,-0.3675378,0.05990852,-3.0779595,0.6263404,-0.0004220073,-0.057046168,0.018170377,0.0005933189,0.0060730586,0.00039911547,-0.020154538,0.49989265,-1.3773686,1.899032,-2.0904238,-1.5709513,2.4758635,-0.07975905,0.0667708,-0.085258104,0.021053975,-0.005691489,-0.059550237,-0.4405331,0.076614454,-9.557653,0.7642693,47.69763,-1.1398728,-2.5503445,-3.2256005,-0.3374734,-0.015416945,-0.22505438,28.5,29.8125,28.875,32.625,35.0625,36.0625
0.13005234,-1.0589577,-0.07224025,-0.35807362,-0.020956846,0.088541046,-0.17146766,-0.3929232,-0.3675361,0.059951395,-3.0780413,0.62643236,-0.00035479237,-0.056853943,0.017136855,0.0019655372,0.006233286,0.00330599,-0.017715821,0.49973813,-1.3772733,1.898816,-2.0903995,-1.5709041,2.475756,-0.07686457,0.06520036,-0.08663101,0.021530405,-0.007221432,-0.05909182,-0.4405331,0.1340753,-9.481039,0.83589023,47.684196,-1.3358957,-2.4744256,-3.2323027,-0.3602556,-0.017567879,-0.25056356,28.5,29.8125,28.875,32.625,35.0625,36.0625
0.13205232,-0.77790415,0.50301504,-0.23845105,-0.037510756,0.10343722,-0.17429535,-0.39301825,-0.36747897,0.05992189,-3.0779667,0.6264368,-0.0004305909,-0.058508042,0.017876841,0.0020422386,0.0059555722,0.0044311406,-0.02074368,0.49956936,-1.3771168,1.8986844,-2.0903409,-1.5709285,2.4755995,-0.07942831,0.06609412,-0.08764886,0.02053241,-0.007525907,-0.058625862,-0.5554548,0.095768064,-9.5385,0.8112748,47.690468,-1.3049808,-2.3645887,-3.2642727,-0.34406987,0.0017586921,-0.29911512,28.5,29.8125,28.875,32.625,35.0625,36.0625
0.13405254,-0.88934225,0.16925296,-0.3427415,-0.020875689,0.100719884,-0.17085862,-0.39313385,-0.36745968,0.05992207,-3.0779378,0.62648845,-0.00043709815,-0.059626218,0.01835034,0.0017853674,0.005505722,0.00419182,-0.021823844,0.49943724,-1.376948,1.8984703,-2.0902808,-1.5709399,2.4755034,-0.08154895,0.06743109,-0.08856199,0.020099483,-0.0070207035,-0.059666663,-0.51714754,0.038307227,-9.5385,0.86498255,47.67793,-1.3141909,-2.4576862,-3.289258,-0.3336901,-0.011852712,-0.3334869,28.5,29.8125,28.875,32.625,35.0625,36.0625
0.13605204,-1.1377125,0.26278192,-0.56788653,-0.019763956,0.08306256,-0.1641134,-0.39324743,-0.36741063,0.05991601,-3.07791,0.6265773,-0.0004266248,-0.060082845,0.018478787,0.0018492863,0.005060351,0.0042073103,-0.021057567,0.49925733,-1.3768278,1.8983387,-2.0902684,-1.5709518,2.4753826,-0.08240043,0.06772047,-0.08905129,0.020068843,-0.006639037,-0.061284967,-0.61291564,-0.019153614,-9.672575,0.83589023,47.72092,-1.3388638,-2.3820856,-3.334086,-0.3678099,0.0008925274,-0.3314343,28.5,29.8125,28.875,32.625,35.0625,36.0625
0.13805218,-0.28767648,0.20306705,-0.3951338,-0.01219188,0.08943879,-0.1705007,-0.39337668,-0.36736682,0.059911605,-3.0778623,0.62670547,-0.0004684066,-0.06348058,0.018873477,0.003150288,0.0026884293,0.006373624,-0.028447712,0.49906412,-1.3766593,1.8981327,-2.0901968,-1.5709513,2.4752755,-0.08681466,0.06912015,-0.09373744,0.020313734,-0.005602931,-0.05830892,-0.59376204,0.038307227,-9.653421,0.8090337,47.651955,-1.2868288,-2.3530262,-3.1815903,-0.36888355,-0.008664868,-0.41229898,28.5,29.8125,28.875,32.625,35.0625,36.0625
0.14005235,-0.28132612,0.39462447,-0.3790837,-0.022700269,0.08271559,-0.16807446,-0.39349133,-0.36735168,0.059934974,-3.0778995,0.62667227,-0.0004149714,-0.062498122,0.018686099,0.0023635598,0.002267211,0.0047219065,-0.025888866,0.4989326,-1.376551,1.8979429,-2.0901606,-1.5709509,2.4751186,-0.0862939,0.069310375,-0.09203222,0.019661658,-0.004438453,-0.060350224,-0.59376204,0.038307227,-9.5385,0.72622824,47.611652,-1.3949462,-2.3627133,-3.3502908,-0.3454462,-0.014029687,-0.42246178,28.5,29.8125,28.875,32.625,35.0625,36.0625
0.1420523,-0.13359655,0.5527884,-0.25629377,-0.01857519,0.09149996,-0.17238414,-0.39361706,-0.36730382,0.059927378,-3.077852,0.626817,-0.00038930535,-0.06587002,0.01955565,0.0029630489,0.00046973175,0.006234753,-0.028070576,0.49875128,-1.3764063,1.897786,-2.0901496,-1.5709752,2.4750338,-0.09136139,0.07134075,-0.09568444,0.019089056,-0.0035938462,-0.06323591,-0.5363012,0.05746084,-9.500193,0.8403672,47.67614,-1.2759979,-2.3146496,-3.2839642,-0.34705776,-0.03426075,-0.43646172,28.5,29.8125,28.875,32.625,35.0625,36.0625
0.14405224,-0.78548956,0.7075036,-0.42160854,-0.0072948383,0.07898376,-0.16307192,-0.39376512,-0.36726412,0.059936583,-3.0778673,0.626817,-0.0003638927,-0.06567954,0.0191973,0.00286338,-8.579122e-05,0.0059040934,-0.024513463,0.49854782,-1.3762499,1.8975714,-2.0901134,-1.5709747,2.4748285,-0.0909519,0.071623735,-0.09576172,0.018904274,-0.0029476453,-0.06638484,-0.49799395,-0.076614454,-9.481039,0.8717007,47.70211,-1.1271241,-2.3388982,-3.2541761,-0.3337075,-0.05059553,-0.4436878,28.5,29.8125,28.875,32.625,35.0625,36.0625
0.1460527,-0.112747066,0.59006494,-0.23018155,-1.2610091e-05,0.09688131,-0.17342943,-0.3938796,-0.36721942,0.059917014,-3.077826,0.62694156,-0.00039379727,-0.06771061,0.019604892,0.0032903468,-0.0010450856,0.0066911182,-0.023882382,0.49836725,-1.3760934,1.8974274,-2.0901015,-1.5709747,2.474731,-0.09376541,0.0730569,-0.098472774,0.019029245,-0.0024894474,-0.06982902,-0.40222588,-0.095768064,-9.481039,0.86498255,47.698532,-1.1988416,-2.2924209,-3.2980938,-0.3360815,-0.050487284,-0.44433603,28.5,29.8125,28.875,32.625,35.0625,36.0625
0.14805177,-0.29712796,0.7197584,0.01275351,-0.010566604,0.10148825,-0.17367354,-0.39402544,-0.3671964,0.059963044,-3.0778744,0.62694776,-0.0003343273,-0.06905777,0.020893471,0.0031165767,-0.00084712397,0.0064615677,-0.020012561,0.4981866,-1.3759849,1.8971752,-2.090018,-1.5709623,2.474548,-0.09709744,0.07372014,-0.09887865,0.019066984,-0.0025526527,-0.07703065,-0.47884035,0.019153614,-9.423578,0.7866488,47.694946,-1.0285064,-2.3084555,-3.2799146,-0.34339446,-0.07055103,-0.39339805,28.5,29.8125,28.875,32.625,35.0625,36.0625
0.15005185,0.16753143,0.31143948,-0.325261,0.008208081,0.11084973,-0.17118044,-0.39414665,-0.3671627,0.059951432,-3.0778549,0.6270008,-0.0003513921,-0.07029164,0.021357004,0.0031943135,-0.00062296586,0.0068881363,-0.018912593,0.49801835,-1.3758166,1.8969964,-2.0899937,-1.5709623,2.4744155,-0.098730996,0.07486925,-0.10047044,0.0192424,-0.0029578505,-0.07976257,-0.4405331,-0.038307227,-9.461885,0.85155696,47.66091,-0.9900824,-2.210534,-3.2861142,-0.3472746,-0.065313704,-0.37649602,28.5,29.8125,28.875,32.625,35.0625,36.0625
0.152052,0.100526765,0.2741041,-0.34074098,-0.0007187099,0.09728175,-0.16899881,-0.39430714,-0.36709833,0.0599564,-3.0778146,0.627067,-0.00034224105,-0.071563065,0.022626014,0.002564529,-4.358427e-05,0.006141028,-0.016006414,0.4977777,-1.3756477,1.8967685,-2.0899222,-1.5709866,2.4742215,-0.10189742,0.07639388,-0.10079826,0.018974973,-0.0031141646,-0.08583446,-0.3256114,0.05746084,-9.557653,0.779936,47.667187,-0.8639434,-2.3007302,-3.3797102,-0.33060664,-0.061018437,-0.32867855,28.5,29.8125,28.875,32.625,35.0625,36.0625
0.15405214,-0.19939241,0.19843867,-0.19603182,-0.023081187,0.0847667,-0.16491479,-0.3944757,-0.36705032,0.059980966,-3.0778322,0.6271644,-0.0002444626,-0.0733238,0.023102097,0.0030375454,8.520472e-05,0.007745749,-0.013213146,0.49754977,-1.3755155,1.8965529,-2.0899103,-1.570999,2.4740522,-0.10372802,0.07737071,-0.1030176,0.018868983,-0.0039930427,-0.09045584,-0.4213795,0.076614454,-9.404425,0.7933669,47.661808,-0.8806134,-2.1995547,-3.3114657,-0.33549136,-0.061106995,-0.24641244,28.5,29.8125,28.875,32.625,35.0625,36.0625
0.15605253,0.052275877,0.12973252,-0.21041001,-0.023064323,0.08709193,-0.17272392,-0.39463934,-0.36700758,0.05998068,-3.0777993,0.6271748,-0.00018463617,-0.07404362,0.023627775,0.0024061308,0.00083356374,0.0067567113,-0.011656002,0.4973575,-1.3753105,1.8963021,-2.089874,-1.5710472,2.4738708,-0.10511851,0.079296,-0.103928186,0.019075181,-0.004179481,-0.09340255,-0.51714754,0.17238252,-9.289502,0.8717007,47.6421,-0.84498286,-2.2603126,-3.394328,-0.33539635,-0.05809391,-0.23614606,28.5,29.8125,28.875,32.625,35.0625,36.0625
0.15805265,-0.77341026,0.43716678,-0.36316806,-0.019267214,0.07592313,-0.16040002,-0.39479735,-0.36698323,0.060015596,-3.077885,0.62720954,-0.00013358294,-0.07528142,0.023933673,0.0025652016,0.0011054592,0.007618106,-0.009906767,0.49714163,-1.37519,1.8960742,-2.0898502,-1.570999,2.4736657,-0.106325775,0.08044164,-0.10564628,0.019025382,-0.004825218,-0.09635737,-0.4405331,0.19153613,-9.32781,0.83589023,47.69763,-0.83139503,-2.2349381,-3.3316255,-0.3106893,-0.06071785,-0.16876696,28.5,29.8125,28.875,32.625,35.0625,36.0625
0.16005185,-0.53008187,0.3502575,-0.05478263,-0.017452938,0.09224654,-0.1698239,-0.3949456,-0.36690384,0.060000647,-3.077833,0.627236,-0.00010244655,-0.07602042,0.024023663,0.0029450771,0.0007987022,0.008191575,-0.009147719,0.49690208,-1.3750336,1.8959197,-2.0898378,-1.5710472,2.4734495,-0.10711353,0.08070187,-0.10690943,0.019371731,-0.0048313444,-0.09790362,-0.4405331,0.1340753,-9.32781,0.7665104,47.68062,-0.8525753,-2.2773793,-3.3578758,-0.3037629,-0.05718385,-0.13164729,28.5,29.8125,28.875,32.625,35.0625,36.0625
0.16205207,-0.70316344,0.48919412,-0.05700862,-0.020649042,0.091634415,-0.16241536,-0.39505604,-0.36687028,0.059967864,-3.0778098,0.6272511,-0.00022730582,-0.07693127,0.024194997,0.001971611,0.0019086953,0.0066302433,-0.011214921,0.4967221,-1.3748282,1.8957394,-2.0897896,-1.5710114,2.4732819,-0.10805822,0.08428934,-0.10908412,0.019864481,-0.005072217,-0.096778944,-0.4405331,0.076614454,-9.32781,0.8179876,47.679718,-0.82471186,-2.3905222,-3.3675618,-0.3125092,-0.0581002,-0.13704008,28.5,29.8125,28.875,32.625,35.0625,36.0625
0.16405216,-0.15009765,0.50452566,-0.011914778,-0.015260299,0.09262974,-0.17150873,-0.39524218,-0.3668014,0.05999974,-3.0778055,0.62732726,-0.00011817819,-0.07708369,0.025026726,0.002644354,0.002716789,0.008411818,-0.014385607,0.49645856,-1.3746969,1.8955001,-2.089742,-1.5710481,2.4730666,-0.10858485,0.08209357,-0.10799845,0.019794803,-0.0066210013,-0.09413312,-0.22984336,0.17238252,-9.232041,0.8537928,47.694054,-0.95236367,-2.2123258,-3.4221835,-0.28108567,-0.027923178,-0.13707164,28.5,29.8125,28.875,32.625,35.0625,36.0625
0.16605273,0.35858536,0.5677201,0.031043638,-0.014327891,0.08159526,-0.17137645,-0.39540273,-0.3667793,0.06002247,-3.0778484,0.627395,-4.4372522e-05,-0.0787545,0.024659075,0.0032829866,0.003101793,0.010720947,-0.018116202,0.49626696,-1.3745402,1.8952597,-2.08973,-1.5710362,2.4729118,-0.10856378,0.08381018,-0.11148374,0.019722665,-0.0080577405,-0.09037774,-0.22984336,0.19153613,-9.289502,0.8157518,47.653748,-1.044455,-2.190434,-3.375946,-0.27022982,-0.028808292,-0.15717548,28.5,29.8125,28.875,32.625,35.0625,36.0625
0.16805209,0.84704125,0.39724934,-0.025106015,-0.01709392,0.065376125,-0.16853927,-0.3955563,-0.3667093,0.060011916,-3.0777686,0.6275155,-2.8249264e-05,-0.078778386,0.025713002,0.0011819764,0.0061720936,0.0078434795,-0.023119837,0.49603885,-1.3743587,1.8950571,-2.0896819,-1.5710849,2.4727693,-0.10949434,0.08742353,-0.1109857,0.019603489,-0.009386933,-0.08630169,-0.1340753,0.19153613,-9.346964,0.85155696,47.688675,-0.82866204,-2.3991723,-3.4004397,-0.25681677,0.0068986695,-0.25490594,28.5,29.8125,28.875,32.625,35.0625,36.0625
0.17005196,0.66509825,0.56190944,0.06383199,-0.028637175,0.040236074,-0.18082488,-0.39572254,-0.36667848,0.06002893,-3.0778036,0.62754273,4.506103e-05,-0.08089987,0.026031924,0.002373686,0.0053851567,0.010560717,-0.02721845,0.49583498,-1.3741907,1.8948163,-2.0896704,-1.5710849,2.472578,-0.11155333,0.087479696,-0.113765776,0.019564142,-0.009987036,-0.08426052,-0.15322891,0.17238252,-9.11712,0.800085,47.64837,-1.0857102,-2.1794114,-3.413807,-0.24858251,0.010601649,-0.26904944,28.5,29.8125,28.875,32.625,35.0625,36.0625
0.17205177,1.2494801,0.4755276,0.052420158,-0.023014154,0.04274194,-0.18216509,-0.39588666,-0.36659727,0.060021143,-3.0777342,0.62770087,6.445693e-05,-0.08220655,0.025946343,0.0025950046,0.0047357907,0.0108293705,-0.028192444,0.49557093,-1.3740218,1.8946251,-2.0896342,-1.5711211,2.4724216,-0.11283223,0.08911579,-0.116306834,0.01991663,-0.009547749,-0.08456487,-0.05746084,0.1340753,-9.212888,0.7642693,47.687782,-0.7685609,-2.3563013,-3.2763367,-0.2346428,0.020392278,-0.29828689,28.5,29.8125,28.875,32.625,35.0625,36.0625
0.17405178,0.48932034,0.48727208,-0.11692597,-0.025845133,0.017230025,-0.17060538,-0.39604896,-0.36656436,0.060017396,-3.0777116,0.62769514,1.8483608e-05,-0.08253813,0.02591983,0.0018067983,0.0045727454,0.008143287,-0.028130334,0.49536693,-1.3737808,1.8943256,-2.0895383,-1.5711206,2.472217,-0.11392635,0.09176327,-0.11797639,0.021216894,-0.008130113,-0.08572239,0.019153614,0.24899697,-9.174581,0.89631605,47.698532,-0.91790146,-2.1692798,-3.3257902,-0.22843239,0.00780316,-0.31711012,28.5,29.8125,28.875,32.625,35.0625,36.0625
0.1760526,1.0704952,0.17483008,-0.15078932,-0.03656966,0.033374876,-0.16886662,-0.39617977,-0.36649308,0.059981022,-3.0776432,0.6277961,-7.28191e-05,-0.08283631,0.025668595,0.0009027187,0.003656905,0.0052548186,-0.028204553,0.49512705,-1.3735875,1.8941702,-2.0895016,-1.5711197,2.472049,-0.11508606,0.09460194,-0.1194879,0.021985956,-0.0059589525,-0.0868104,-0.019153614,0.30645782,-9.212888,0.75755644,47.701214,-0.98698705,-2.2645137,-3.33255,-0.21572864,0.007007857,-0.32663542,28.5,29.8125,28.875,32.625,35.0625,36.0625
0.17805193,0.6265375,-0.34292397,-0.24711668,-0.038225822,0.030621093,-0.1668256,-0.39636502,-0.36646318,0.06001338,-3.0776513,0.6278938,3.5872796e-05,-0.083951116,0.026608394,0.00056995306,0.0032197912,0.0039696777,-0.031607375,0.4949225,-1.373407,1.8938712,-2.089454,-1.5711435,2.4719045,-0.118252434,0.09580472,-0.12029423,0.02250605,-0.0049576205,-0.08657576,0.0,0.30645782,-9.193734,0.8179876,47.690468,-0.98066163,-2.4210887,-3.285679,-0.20660596,0.0016687834,-0.3305595,28.5,29.8125,28.875,32.625,35.0625,36.0625
0.18005207,0.8697339,-0.8441163,-0.2683917,-0.035100814,0.043694887,-0.16641326,-0.3965198,-0.3664285,0.060020275,-3.0776556,0.62800765,2.5758349e-05,-0.08466102,0.024258487,0.002610868,0.0005990644,0.007460054,-0.027801976,0.4947079,-1.3732269,1.8936304,-2.0894058,-1.5711192,2.4717605,-0.11530466,0.09542496,-0.124576785,0.022850621,-0.004315568,-0.08743305,-0.095768064,0.3256114,-9.212888,0.74413085,47.684196,-1.0602248,-2.3010888,-3.2813063,-0.19803362,-0.020248655,-0.37347382,28.5,29.8125,28.875,32.625,35.0625,36.0625
0.18205221,0.25970674,-0.31441513,-0.039093815,-0.05782195,0.041596998,-0.17049272,-0.3966871,-0.3663322,0.059987,-3.0775478,0.62802553,-1.9942921e-05,-0.08512755,0.02675867,-0.00049604865,0.0035563582,0.0013787524,-0.032387443,0.4944308,-1.3729969,1.8934163,-2.0893338,-1.5711793,2.4715085,-0.12005897,0.100132026,-0.12330706,0.02362269,-0.0040343544,-0.087601915,-0.038307227,0.3256114,-9.3661175,0.84708,47.691364,-0.9752244,-2.5393066,-3.2988033,-0.18936509,0.0050339047,-0.38721833,28.5,29.8125,28.875,32.625,35.0625,36.0625
0.18405223,0.74057055,-0.59481424,-0.3461621,-0.043743435,0.053133346,-0.17297788,-0.3968544,-0.36632293,0.060002934,-3.0776143,0.628073,3.0038878e-05,-0.08593395,0.025137186,0.001818882,0.0015067378,0.005726762,-0.028226707,0.4942403,-1.3728057,1.8931526,-2.0893338,-1.571143,2.4713392,-0.11785872,0.09835339,-0.12651445,0.023811378,-0.0042935307,-0.08956131,-0.038307227,0.36391866,-9.289502,0.91421866,47.71465,-1.1472871,-2.2982807,-3.329273,-0.17833573,-0.019149741,-0.4013043,28.5,29.8125,28.875,32.625,35.0625,36.0625
0.18605188,-0.08778785,-0.38951334,-0.401091,-0.03422426,0.03041723,-0.15850817,-0.39704838,-0.36627612,0.060019106,-3.077596,0.62814295,8.079483e-05,-0.08751293,0.02560667,0.0010697027,0.002677516,0.005178353,-0.02342119,0.49400008,-1.3725882,1.8928407,-2.0892618,-1.5711673,2.4711452,-0.11955046,0.10192486,-0.1290869,0.023847122,-0.005068838,-0.09605576,-0.11492168,0.36391866,-9.212888,0.85826975,47.70211,-1.1221299,-2.3995037,-3.1516948,-0.17583324,0.0057975436,-0.3604837,28.5,29.8125,28.875,32.625,35.0625,36.0625
0.18805183,1.2465935,0.337261,-0.31420586,-0.03319682,0.07042056,-0.17297393,-0.3971985,-0.36619407,0.059999138,-3.077513,0.628258,5.8927257e-05,-0.08872895,0.02615043,0.0015666705,0.002606156,0.0063633556,-0.02151204,0.49374807,-1.3724079,1.892661,-2.089214,-1.5712036,2.4709756,-0.12121106,0.101990215,-0.13033429,0.023947312,-0.005575176,-0.099623896,-0.11492168,0.2873042,-9.3661175,0.8023209,47.67345,-1.0955925,-2.4199681,-3.1899881,-0.15813172,-0.0087678665,-0.33661819,28.5,29.8125,28.875,32.625,35.0625,36.0625
0.1900503,-0.041656792,-0.21663277,-0.3809805,-0.016911127,0.038305745,-0.16466393,-0.39738438,-0.36614957,0.060002822,-3.0775294,0.6282951,7.1739785e-05,-0.08975516,0.026042655,0.00092637213,0.0029052892,0.005842784,-0.01580103,0.49349657,-1.3721906,1.8923858,-2.0891778,-1.5711912,2.4707453,-0.121894725,0.10500854,-0.13241352,0.023605352,-0.0055962848,-0.10601739,-0.11492168,0.28730422,-9.308657,0.8157518,47.64121,-1.1408652,-2.477202,-3.117786,-0.14335898,-0.01246927,-0.26865715,28.5,29.8125,28.875,32.625,35.0625,36.0625
0.19204037,0.9800801,0.22568657,-0.389435,-0.030175164,0.07136816,-0.17688662,-0.39755255,-0.3661002,0.060001623,-3.0775206,0.62829113,8.269156e-05,-0.09081082,0.026285756,0.0013162832,0.0026378415,0.006360892,-0.012266159,0.4932684,-1.3719863,1.8921345,-2.0891302,-1.5712036,2.470516,-0.123203,0.10559231,-0.13414007,0.02416035,-0.0056093885,-0.11085984,-0.24899697,0.34476504,-9.3661175,0.7463667,47.72002,-1.1427492,-2.4839258,-3.1225734,-0.13227996,0.0038405422,-0.21333495,28.5,29.8125,28.875,32.625,35.0625,36.0625
0.19405207,-0.45456615,-0.023982124,-0.47165626,-0.031856243,0.053361047,-0.16056007,-0.3977462,-0.36604768,0.060003784,-3.0775135,0.6283628,9.534603e-05,-0.09125463,0.027172536,0.0012419452,0.003169571,0.00522659,-0.00812583,0.4930043,-1.371758,1.891847,-2.089082,-1.5712036,2.4702976,-0.12507911,0.10582868,-0.13460942,0.025639651,-0.0055381283,-0.11687643,-0.30645782,0.15322891,-9.346964,0.88960326,47.66808,-1.1144795,-2.4653165,-3.178011,-0.1263279,0.0056493296,-0.122239694,28.5,29.8125,28.875,32.625,35.0625,36.0625
0.19605213,-0.19189268,0.1486017,-0.49646217,-0.024303926,0.076588355,-0.1664369,-0.39791968,-0.36601055,0.06000631,-3.0775368,0.62832934,9.261659e-05,-0.09156664,0.027603243,0.0005631256,0.0038127196,0.002857713,-0.009875137,0.49277645,-1.371541,1.8915719,-2.089033,-1.5711907,2.470046,-0.12637699,0.107845046,-0.13585499,0.027258681,-0.004981136,-0.11642543,-0.45968673,0.17238252,-9.481039,0.8112748,47.698532,-1.0672853,-2.4493484,-3.2308831,-0.121634856,-0.0033681132,-0.09553457,28.5,29.8125,28.875,32.625,35.0625,36.0625
0.19805223,-0.93544495,0.15173505,-0.49985918,-0.020213967,0.07226883,-0.16028896,-0.3980829,-0.36594555,0.059966877,-3.077492,0.6283204,-2.2491686e-05,-0.09244093,0.02859599,0.00031854698,0.003939655,0.0016214144,-0.013049338,0.49251205,-1.3712765,1.891333,-2.0889733,-1.5711793,2.4697819,-0.12907101,0.1087046,-0.1365796,0.028271776,-0.004517187,-0.115945436,-0.40222588,0.15322891,-9.461885,0.800085,47.67793,-1.0700237,-2.470581,-3.1264486,-0.13379425,-0.008292266,-0.075899445,28.5,29.8125,28.875,32.625,35.0625,36.0625
0.20005244,-1.1399741,-0.10370294,-0.5235395,-0.0069166655,0.07638094,-0.1512869,-0.39829308,-0.36588383,0.05998986,-3.0774755,0.62847155,3.077131e-05,-0.093299,0.027408114,0.0014659878,0.002126537,0.0032770054,-0.01617762,0.492225,-1.3710723,1.8910211,-2.0889008,-1.5711907,2.4695914,-0.12829237,0.10905732,-0.1397382,0.028758112,-0.003702096,-0.11203898,-0.53630114,-0.019153614,-9.519346,0.78217715,47.622402,-1.0670407,-2.3733706,-3.2314754,-0.10840236,-0.020145884,-0.116396055,28.5,29.8125,28.875,32.625,35.0625,36.0
0.2020525,-1.0889726,0.11751803,-0.5069895,-0.0021122177,0.08978339,-0.15662211,-0.3984607,-0.36581215,0.059964906,-3.0774155,0.6285591,-1.8144903e-05,-0.09324136,0.02911342,0.0006019044,0.0029797705,0.0012548246,-0.023276258,0.4919604,-1.3708441,1.8907951,-2.0888526,-1.5712031,2.4693892,-0.13117564,0.10873551,-0.13746765,0.02899382,-0.0034968287,-0.10782482,-0.61291564,-0.05746084,-9.481039,0.81351066,47.650166,-0.8887735,-2.3622181,-3.3165817,-0.120353594,-0.014353676,-0.12530729,28.5,29.8125,28.875,32.625,35.0625,36.0
0.20405287,-0.32356536,0.7407164,-0.5427927,0.008275703,0.10760465,-0.16436115,-0.3986617,-0.36577955,0.060008463,-3.0774734,0.6285905,4.0742936e-05,-0.09335493,0.029812157,-0.001624923,0.005277646,-0.002612037,-0.028293293,0.49170893,-1.3706621,1.8904604,-2.0887692,-1.5711793,2.46915,-0.13227116,0.11328622,-0.13794,0.029413443,-0.0036880982,-0.10390236,-0.63206923,-0.17238252,-9.442732,0.8873621,47.650166,-1.1606686,-2.5122166,-3.3298864,-0.10805297,-0.020226859,-0.21146652,28.5,29.8125,28.875,32.625,35.0625,36.0
0.20605208,-0.19781008,1.4518992,-0.4573013,0.005753471,0.10767586,-0.16837879,-0.39883325,-0.36570725,0.059972737,-3.0773609,0.628645,-1.5931055e-06,-0.09401355,0.030107146,-4.779381e-05,0.0044354033,0.0002802446,-0.032088965,0.49146914,-1.3703871,1.8901976,-2.0886972,-1.5712389,2.4689589,-0.13291708,0.110440746,-0.13819715,0.029565632,-0.0043192147,-0.100751534,-0.47884035,-0.28730422,-9.461885,0.7732232,47.612545,-1.0913293,-2.3721304,-3.4388661,-0.096281596,-0.02577262,-0.26099825,28.5,29.8125,28.875,32.625,35.0625,36.0
0.20805223,-0.11980041,1.2865398,-0.4266751,0.015306299,0.10671749,-0.16752991,-0.3990459,-0.36565644,0.059984196,-3.077391,0.62882525,3.2303236e-05,-0.09550737,0.02996759,-0.00054850196,0.004824222,2.4427321e-05,-0.03469777,0.49116945,-1.3701696,1.8899096,-2.0886853,-1.5712031,2.468768,-0.133826,0.11404232,-0.14137048,0.029550435,-0.0045424197,-0.09904975,-0.49799395,-0.36391866,-9.481039,0.8179876,47.650166,-1.1827636,-2.472664,-3.3805137,-0.062067132,-0.038555756,-0.30167428,28.5,29.8125,28.875,32.625,35.0625,36.0
0.21005222,-0.2955216,1.2914404,-0.759628,0.024251917,0.09002751,-0.1614629,-0.3992402,-0.3655808,0.05998452,-3.077335,0.6289668,3.9728104e-05,-0.09563242,0.03071763,-0.00055494887,0.005187651,-0.00020238214,-0.03700545,0.49088168,-1.3699538,1.8896354,-2.0886137,-1.571227,2.4685757,-0.13500261,0.113439105,-0.14073542,0.029887754,-0.0047553573,-0.097918645,-0.51714754,-0.36391866,-9.500193,0.81351066,47.652847,-1.1080203,-2.3444963,-3.6396317,-0.06890498,-0.032028656,-0.34642863,28.5,29.8125,28.875,32.625,35.0625,36.0
0.2120522,0.16962805,1.3349528,-0.55677533,0.027098682,0.0871614,-0.16643742,-0.39945012,-0.36554274,0.060010076,-3.077352,0.62902987,9.495892e-05,-0.09796114,0.032073043,-0.00022461983,0.005063766,0.00035765392,-0.04212688,0.4906286,-1.3697251,1.8892883,-2.0885413,-1.5712274,2.46836,-0.13921507,0.11457642,-0.14299412,0.0304567,-0.004909433,-0.09700866,-0.4213795,-0.30645782,-9.557653,0.8940802,47.670765,-0.9265976,-2.3519173,-3.4817672,-0.04484258,-0.036373407,-0.40563655,28.5,29.8125,28.875,32.625,35.0625,36.0
0.21405223,0.3761724,1.3060883,-0.32560793,0.01804653,0.08465816,-0.16119039,-0.39965472,-0.36545405,0.059977707,-3.0772572,0.6292012,7.167058e-05,-0.09903676,0.031691898,0.00074314006,0.004249477,0.0016765718,-0.043235116,0.49031752,-1.3694488,1.8890241,-2.0885046,-1.5712637,2.468168,-0.13953175,0.11487144,-0.14579028,0.03140605,-0.0048211287,-0.09621606,-0.49799395,-0.28730422,-9.519346,0.8717007,47.691364,-1.1135657,-2.2740128,-3.4529088,-0.04291462,-0.036834724,-0.4312746,28.5,29.8125,28.875,32.625,35.0625,36.0
0.2160525,0.10310138,1.1051908,-0.4941566,0.0041686604,0.08396026,-0.16286217,-0.39979514,-0.36539134,0.059959374,-3.0772028,0.6292464,-4.470478e-05,-0.09938892,0.032018498,-0.00042885658,0.005484889,-0.0009514968,-0.041856356,0.49007767,-1.3692435,1.8887967,-2.0883973,-1.5712508,2.4679635,-0.14043428,0.11808744,-0.14724107,0.03253954,-0.004684046,-0.09849629,-0.68953013,-0.1340753,-9.519346,0.8224646,47.72808,-0.9855126,-2.265461,-3.4491515,-0.045120403,-0.056214496,-0.47805917,28.5,29.8125,28.875,32.625,35.0625,36.0
0.21805204,-0.14757895,0.59539086,-0.5744699,0.0027124092,0.09860261,-0.16522446,-0.4000225,-0.3653229,0.059973292,-3.0771976,0.6293768,2.4811763e-05,-0.10045384,0.032452002,0.0010617704,0.005085159,0.001284414,-0.03962536,0.48976588,-1.3690159,1.8884853,-2.088361,-1.5712637,2.4677339,-0.1416114,0.11629652,-0.14878042,0.03370684,-0.005381617,-0.10190314,-0.51714754,-0.095768064,-9.576807,0.83589023,47.709274,-1.0245798,-2.2070134,-3.4227183,-0.047270797,-0.034434956,-0.48057812,28.5,29.8125,28.875,32.625,35.0625,36.0
0.22005242,-0.4260254,0.37961605,-0.74858195,-0.009494624,0.10899341,-0.16037107,-0.4001955,-0.36524695,0.059961524,-3.0771084,0.62952566,-5.576298e-05,-0.10050407,0.03322645,-0.0012306358,0.00808393,-0.0033906044,-0.03233617,0.48949006,-1.3687859,1.8882102,-2.08824,-1.5712756,2.4675624,-0.14261578,0.12135583,-0.15001796,0.035415575,-0.0058411704,-0.11019432,-0.38307226,0.13407528,-9.576807,0.83365434,47.678825,-1.0561752,-2.313587,-3.398797,-0.055491157,-0.040975384,-0.44364476,28.5,29.8125,28.875,32.625,35.0625,36.0
0.22205256,-0.1908346,-0.20224038,-0.87029797,-0.028198924,0.1218122,-0.17073861,-0.40043116,-0.3651923,0.05999035,-3.077129,0.6296224,-1.2286377e-05,-0.100864656,0.033158354,-0.00024025202,0.007918954,-0.0029424753,-0.02666942,0.48917896,-1.3685459,1.8878392,-2.0881555,-1.5712637,2.4673092,-0.14270458,0.12063602,-0.15192148,0.037562583,-0.005904886,-0.11594963,-0.4405331,0.21068975,-9.653421,0.85826975,47.664497,-1.1223925,-2.3223388,-3.428671,-0.08315113,-0.03982734,-0.38594472,28.5,29.8125,28.875,32.625,35.0625,36.0
0.22405268,-0.6296445,-0.6361027,-0.870842,-0.0481333,0.10439321,-0.16666631,-0.4006614,-0.36512652,0.06000669,-3.0770938,0.62976104,9.0929854e-05,-0.1020342,0.033280153,0.000112201276,0.007731183,-0.0028270523,-0.017557463,0.48889107,-1.3683052,1.887504,-2.0881073,-1.5713114,2.4671125,-0.14394999,0.12186897,-0.1544725,0.038677,-0.005796979,-0.12630646,-0.30645782,0.30645782,-9.749189,0.8873621,47.72002,-1.1875452,-2.3000264,-3.381895,-0.09747629,-0.04948295,-0.31511208,28.5,29.8125,28.875,32.625,35.0625,36.0
0.2260519,-0.49055478,-0.99611866,-1.0433766,-0.065185286,0.08920629,-0.16237028,-0.40083236,-0.36506703,0.059986733,-3.0770617,0.6297518,-6.173472e-05,-0.1041449,0.03259474,0.0012291397,0.006402977,8.5983396e-05,-0.014079067,0.48861557,-1.3680406,1.8872036,-2.0879757,-1.5712756,2.4668355,-0.1444962,0.12323263,-0.15856288,0.038209714,-0.0060174973,-0.13032834,-0.19153613,0.30645782,-9.710882,0.9030289,47.681515,-1.167222,-2.3329258,-3.2377977,-0.079513565,-0.03526924,-0.23338181,28.5,29.8125,28.875,32.625,35.0625,36.0
0.22800341,0.37489164,-1.0724797,-0.7480048,-0.07033228,0.0846173,-0.17205982,-0.4010657,-0.36500505,0.060007297,-3.0770602,0.62978816,9.671348e-05,-0.1047005,0.033624597,0.0009353663,0.008124821,-0.0007959785,-0.011556086,0.4883395,-1.367812,1.8868812,-2.0879633,-1.5713362,2.4665825,-0.14596732,0.12413682,-0.1593243,0.039645854,-0.0071144896,-0.13432059,-0.17238252,0.4213795,-9.634268,0.8224646,47.709274,-1.1393342,-2.2753127,-3.3162255,-0.10307284,-0.016400533,-0.17054476,28.5,29.8125,28.875,32.625,35.0625,36.0
0.2300523,0.26793775,-1.0658106,-0.84264624,-0.06000159,0.05677989,-0.16148447,-0.40129864,-0.364909,0.06002561,-3.0770278,0.6298382,0.00014343833,-0.106059365,0.034512002,0.00042926302,0.009330737,-0.001770913,-0.01406288,0.48799187,-1.3675948,1.8865584,-2.087867,-1.5713724,2.4662704,-0.14821604,0.12666875,-0.16145168,0.040663082,-0.007725033,-0.13406035,-0.22984336,0.34476504,-9.481039,0.784413,47.66271,-1.2727101,-2.4237134,-3.1527529,-0.1029273,-0.011803693,-0.147647,28.5,29.8125,28.875,32.625,35.0625,36.0
0.23205262,0.734476,-0.8668704,-0.78181034,-0.041087046,0.047542434,-0.1482319,-0.40152755,-0.3648501,0.060027648,-3.0770223,0.62995255,0.00014439746,-0.106408864,0.03418931,0.001148699,0.008587661,-0.0020190293,-0.017116165,0.48768032,-1.3673186,1.8862103,-2.087807,-1.57136,2.466031,-0.14838143,0.12669653,-0.1636029,0.042655956,-0.0069514667,-0.1311734,-0.1340753,0.4213795,-9.423578,0.8493211,47.693153,-1.1443089,-2.3151116,-3.1892703,-0.13739994,-0.019503746,-0.12970798,28.5,29.8125,28.875,32.625,35.0625,36.0
0.23405175,1.1692559,-0.2340766,-0.7030139,-0.03157487,0.045045316,-0.16860986,-0.40175363,-0.3647942,0.060040347,-3.077041,0.63,0.00022356551,-0.10805,0.035585247,0.00022950626,0.009154941,-0.0049510305,-0.026330238,0.48739114,-1.3670772,1.8858875,-2.0877821,-1.5713714,2.4657693,-0.15265322,0.1299899,-0.16589715,0.044509705,-0.0060727727,-0.12623192,-0.15322891,0.40222588,-9.404425,0.8851263,47.704796,-0.90747875,-2.3396595,-3.1695995,-0.14978163,-0.016390743,-0.22269186,28.5,29.8125,28.875,32.625,35.0625,36.0
0.23605204,1.0154005,-0.4765716,-0.4147274,-0.013326405,0.024860937,-0.1573589,-0.40195277,-0.36470768,0.060013745,-3.0769348,0.6301328,7.528265e-05,-0.10826537,0.035900306,-0.00029662356,0.008991783,-0.004972319,-0.03182207,0.48706782,-1.3667767,1.8855537,-2.0876272,-1.5713714,2.4655426,-0.15338342,0.13053045,-0.16505879,0.04307401,-0.0059361076,-0.12147003,0.019153614,0.28730422,-9.385271,0.8940802,47.71017,-0.99478114,-2.5355773,-3.1937952,-0.16061273,-0.013018049,-0.26218465,28.5,29.8125,28.875,32.625,35.0625,36.0
0.23805271,1.4573494,0.42189282,-0.2995461,-0.033458427,0.028001463,-0.17840077,-0.40217954,-0.36464068,0.060022183,-3.0769153,0.6302063,0.00012519251,-0.10926112,0.03697511,-0.0018180879,0.01114552,-0.0077104727,-0.035292488,0.48676774,-1.3665229,1.8852175,-2.0875666,-1.5713958,2.465291,-0.15561113,0.13458125,-0.16670465,0.0440952,-0.0065594465,-0.12022513,0.05746084,0.2873042,-9.3661175,0.83365434,47.695843,-0.912273,-2.5650003,-3.1603,-0.15895107,-0.0122621115,-0.30472973,28.5,29.8125,28.875,32.625,35.0625,36.0
0.24005282,0.44335088,-0.4700992,-0.11863825,-0.034364592,0.016988045,-0.15726762,-0.40239778,-0.36456656,0.06002769,-3.076868,0.6303496,0.00012102417,-0.10970189,0.037472945,-0.0003235914,0.010985596,-0.006543546,-0.036326673,0.48645613,-1.366272,1.8848833,-2.0874703,-1.5714082,2.465075,-0.15650629,0.13223892,-0.1678734,0.04649817,-0.006965793,-0.12008541,0.0,0.30645782,-9.251195,0.75755644,47.72002,-1.0363402,-2.4167614,-3.3013465,-0.19923502,-0.007771085,-0.33314252,28.5,29.8125,28.875,32.625,35.0625,36.0
0.24205355,0.9708142,-0.12575936,-0.05090451,-0.039797295,0.0473107,-0.1617408,-0.40265635,-0.3644773,0.06004064,-3.0768063,0.6305453,0.00016687441,-0.108615644,0.036589764,-0.0009399479,0.011414059,-0.008419887,-0.03443442,0.48609772,-1.3659949,1.8845009,-2.087374,-1.5714439,2.4648468,-0.15426861,0.1335883,-0.16833858,0.047464956,-0.0064694537,-0.11974076,0.019153614,0.24899697,-9.174581,0.8314132,47.66987,-1.1491878,-2.4764757,-3.307331,-0.20293298,-0.0076884516,-0.34191144,28.5,29.8125,28.875,32.625,35.0625,36.0
0.24405245,0.9491685,0.2857797,0.027719306,-0.030450104,0.04449471,-0.16256103,-0.40285563,-0.36443743,0.06004078,-3.07683,0.63055027,0.00018046546,-0.109721445,0.036861945,-0.0013982079,0.010822821,-0.009703388,-0.035932984,0.4858455,-1.365742,1.88419,-2.0873382,-1.5714315,2.4645948,-0.15632577,0.13591273,-0.17019774,0.047854066,-0.0053512654,-0.12030066,0.038307227,0.15322891,-9.193734,0.9254084,47.728977,-1.0277694,-2.4624827,-3.277208,-0.23511526,-0.013091537,-0.37393492,28.5,29.8125,28.875,32.625,35.0625,36.0
0.24605243,0.7783262,0.4120423,0.24931893,-0.013583283,0.046356574,-0.15811394,-0.40308705,-0.36434606,0.060033686,-3.0767627,0.6306875,0.000104611994,-0.1103884,0.037188046,-0.001488546,0.010253871,-0.010262158,-0.034550868,0.4854858,-1.3654536,1.8838314,-2.0872066,-1.571431,2.4643295,-0.15783937,0.13671163,-0.17104542,0.04812507,-0.0046022586,-0.123197176,0.0,-0.019153614,-9.040505,0.86498255,47.675243,-1.0959368,-2.3858576,-3.3296056,-0.2539531,-0.04769743,-0.38098535,28.5,29.8125,28.875,32.625,35.0625,36.0
0.24805257,1.0091165,0.9071964,0.24987644,0.01866452,0.040878307,-0.15750279,-0.40332562,-0.36428064,0.060055465,-3.0767589,0.6307595,0.00021187775,-0.112099074,0.037443876,-0.000347626,0.008808906,-0.0076635536,-0.030735353,0.4851858,-1.3652134,1.8834838,-2.087159,-1.5714668,2.464075,-0.15973918,0.13609691,-0.17279075,0.04750247,-0.0045405165,-0.12891236,0.019153614,-0.05746084,-8.944737,0.85155696,47.699425,-1.1066749,-2.3778567,-3.2802248,-0.2562421,-0.03320017,-0.32680196,28.5,29.8125,28.875,32.625,35.0625,36.0
0.25005263,1.4196749,1.0068153,0.20245357,0.05733155,0.03077515,-0.15117696,-0.40353864,-0.364219,0.060036846,-3.076738,0.63078904,0.00015283546,-0.11332636,0.038368884,-0.0012737609,0.00908933,-0.0081968475,-0.02507223,0.48488557,-1.3649122,1.8831495,-2.0870879,-1.5714549,2.4637961,-0.1622893,0.13828735,-0.17304327,0.04616151,-0.004555789,-0.13712496,0.076614454,-0.13407528,-8.983045,0.8224646,47.678825,-0.9751816,-2.5088913,-3.3264523,-0.2598968,-0.040429868,-0.25957882,28.5,29.8125,28.875,32.625,35.0625,36.0
0.25205192,1.276146,1.5673406,0.12011879,0.04847384,0.01630209,-0.17087997,-0.4037442,-0.36412343,0.0600124,-3.0766625,0.630846,6.0989987e-05,-0.11457535,0.03848571,-0.0017072557,0.009263973,-0.008282768,-0.018233366,0.48455,-1.3646352,1.8828491,-2.0869796,-1.5714668,2.463506,-0.16342875,0.14088476,-0.17511843,0.045788284,-0.0046956334,-0.14510147,0.05746084,-0.22984336,-9.002198,0.8314132,47.681515,-0.9534711,-2.3116019,-3.2242634,-0.24071395,-0.025000498,-0.15913996,28.5,29.8125,28.875,32.625,35.0625,36.0
0.25405213,1.6571664,1.1248677,0.16049494,0.04155271,0.04698026,-0.15988934,-0.4039739,-0.36405912,0.06003251,-3.0766745,0.630826,7.3891606e-05,-0.11606012,0.03852724,0.0007726614,0.0075428183,-0.0052140933,-0.016431713,0.48423818,-1.3643839,1.8824781,-2.0868714,-1.5714668,2.4631803,-0.16477872,0.13826753,-0.17812529,0.047891323,-0.0046062754,-0.14825284,-0.15322891,-0.17238252,-8.963891,0.90750587,47.711964,-0.9507852,-2.1736982,-3.1483502,-0.27654445,-0.028268525,-0.079332456,28.5,29.8125,28.875,32.625,35.0625,36.0
0.25605226,1.2219142,0.9462202,-0.008190782,0.02951393,0.07259991,-0.15927224,-0.40419427,-0.3640075,0.06004046,-3.07667,0.63091975,-1.8055798e-05,-0.11789956,0.038151156,0.0019770777,0.00555281,-0.0022883413,-0.01649651,0.48392677,-1.3640956,1.8820823,-2.0867283,-1.5714191,2.462928,-0.16592416,0.13836223,-0.18079992,0.04695924,-0.004222527,-0.14933312,-0.21068975,-0.19153613,-9.097966,0.83813137,47.699425,-1.1211536,-2.1146493,-3.2827775,-0.28558186,-0.05339942,-0.021167649,28.5,29.8125,28.875,32.625,35.0625,36.0
0.2580522,-0.3671889,0.2969747,-0.2761502,0.016303323,0.07863511,-0.15073188,-0.40442646,-0.36390585,0.06001981,-3.0765808,0.630979,-4.634752e-05,-0.118912674,0.036771026,0.0031659738,0.0043382244,0.00023242232,-0.019820875,0.48357984,-1.363795,1.8817476,-2.0866325,-1.5714668,2.4626298,-0.16434789,0.13911453,-0.1844654,0.0470716,-0.0043346724,-0.14443061,-0.4213795,-0.19153613,-9.32781,0.8940802,47.711063,-1.0916686,-2.2153716,-3.1822448,-0.28291237,-0.07000282,-0.064539686,28.5,29.8125,28.875,32.625,35.0625,36.0
0.26005223,-0.78891253,0.04866318,-0.3347122,-0.019751137,0.11400133,-0.15816855,-0.40465736,-0.3638532,0.060048096,-3.0765991,0.6310049,-3.2432436e-05,-0.11877995,0.03802295,0.0014870821,0.006450943,-0.0025067793,-0.027326014,0.48328,-1.3635421,1.8813533,-2.0865128,-1.5714554,2.462344,-0.16587432,0.14123842,-0.1832417,0.047138304,-0.0049234703,-0.13845095,-0.51714754,-0.038307227,-9.461885,0.8672237,47.693153,-1.0483465,-2.1766484,-3.302598,-0.31504726,-0.047029153,-0.11095669,28.5,29.8125,28.875,32.625,35.0625,36.0
0.26205248,-0.3629875,0.23679678,-0.580004,-0.044177923,0.14820366,-0.16396596,-0.40487537,-0.36374664,0.060018416,-3.0764925,0.631179,-0.00016706465,-0.119131096,0.038376622,0.0011158664,0.007115328,-0.0035699192,-0.035352234,0.48290846,-1.3632413,1.8810304,-2.0863807,-1.5714554,2.4620948,-0.16662183,0.14257136,-0.18424359,0.04806136,-0.005030128,-0.13117105,-0.6703765,0.17238252,-9.5385,0.8985519,47.655537,-1.1640121,-2.164167,-3.3001537,-0.33194727,-0.065110445,-0.19520745,28.5,29.8125,28.875,32.625,35.0625,36.0
0.2640526,-0.76018006,-0.13657837,-0.9970198,-0.04577394,0.14557232,-0.16843957,-0.40510756,-0.36368874,0.060020577,-3.0764441,0.6312462,-0.0001750506,-0.1201773,0.03847366,0.00079484587,0.007090927,-0.0029043457,-0.04007344,0.4826207,-1.3629284,1.8806237,-2.0862615,-1.5714792,2.4618554,-0.1674364,0.14432298,-0.18537903,0.046843916,-0.005324994,-0.12726295,-0.6703765,0.24899697,-9.710882,0.89631605,47.69763,-1.233031,-2.222052,-3.2974331,-0.3347958,-0.063371606,-0.25828066,28.5,29.8125,28.875,32.625,35.0625,36.0
0.2660541,-0.75227094,-0.799255,-1.0813732,-0.063817605,0.15198909,-0.165669,-0.40533137,-0.3635945,0.059998494,-3.0763593,0.6313836,-0.0002525742,-0.12286813,0.039035924,0.0012402607,0.0052096252,0.0009918932,-0.04472516,0.48227262,-1.3626279,1.8802894,-2.0861547,-1.5714916,2.461604,-0.17056118,0.14500478,-0.1863327,0.042789914,-0.0054870136,-0.12573461,-0.7469909,0.22984336,-9.768343,0.9455522,47.660015,-1.3208638,-2.1734567,-3.32028,-0.3008628,-0.051767603,-0.33427268,28.5,29.8125,28.875,32.625,35.0625,36.0
0.26805323,-1.1489005,-1.0430529,-1.2574515,-0.07410532,0.13716611,-0.15723161,-0.40558627,-0.36352187,0.0600165,-3.0763516,0.63149685,-0.00022572806,-0.12318427,0.038565554,0.00022611988,0.0054448484,0.0009938433,-0.047660682,0.4819259,-1.3623505,1.8798946,-2.0860603,-1.5714916,2.4613292,-0.16981801,0.14764915,-0.18676002,0.04068203,-0.0056969305,-0.12205494,-0.80445176,0.40222588,-9.883265,0.8873621,47.696735,-1.3323386,-2.4234455,-3.4290538,-0.2758078,-0.072507724,-0.3831219,28.5,29.8125,28.875,32.625,35.0625,36.0
0.27005205,-0.88138163,-1.0889047,-1.3138157,-0.07763055,0.1375699,-0.15991,-0.40584904,-0.3634208,0.06000981,-3.0762696,0.6317097,-0.00018049084,-0.124600396,0.038663704,-0.0009851372,0.006443582,0.0006139433,-0.04963307,0.48155442,-1.3620492,1.8795351,-2.0860007,-1.5715398,2.4611013,-0.17068449,0.15199745,-0.18895899,0.03932773,-0.0064140097,-0.1209459,-0.7278373,0.30645782,-10.0748005,0.8560339,47.688675,-1.2303042,-2.2960277,-3.4473712,-0.2750473,-0.054765552,-0.46436572,28.5,29.8125,28.875,32.625,35.0625,36.0
0.2720528,-0.42660543,-0.9215949,-1.2987477,-0.08081372,0.13661228,-0.16979706,-0.4060886,-0.36336765,0.06001273,-3.0762606,0.63181984,-0.00015569484,-0.12520845,0.039208125,-0.0015598023,0.0071981857,0.0013309976,-0.04703457,0.48125455,-1.3617483,1.8791541,-2.0859416,-1.5715402,2.4608715,-0.1714155,0.15298483,-0.18848464,0.03757894,-0.0074187224,-0.12427328,-0.68953013,0.30645782,-10.01734,0.8537928,47.723602,-1.27459,-2.3595862,-3.5252643,-0.25256026,-0.05217094,-0.4794382,28.5,29.8125,28.875,32.625,35.0625,36.0
0.27405256,-0.32892647,-0.7882792,-1.143122,-0.06941935,0.13216834,-0.16519324,-0.4063691,-0.36326993,0.060013954,-3.0762243,0.6320191,-8.998417e-05,-0.12727444,0.038144074,-0.0006524607,0.005606223,0.004644283,-0.03825318,0.4808586,-1.3614477,1.8787826,-2.0859063,-1.5715641,2.4606047,-0.17124882,0.15486172,-0.19248751,0.036018737,-0.0075551365,-0.1328862,-0.59376204,0.28730422,-9.9790325,0.9365982,47.707485,-1.3686153,-2.472742,-3.5294936,-0.21610498,-0.041246317,-0.4604714,28.5,29.8125,28.875,32.625,35.0625,36.0
0.27605245,0.21210569,-0.5285716,-1.0067842,-0.048782393,0.12249017,-0.16885884,-0.40663716,-0.36321256,0.06005819,-3.0762455,0.6320951,6.4793708e-06,-0.12823959,0.038540415,-0.0014941938,0.0050626555,0.0035293747,-0.029858956,0.48053405,-1.3611825,1.8783396,-2.085799,-1.571576,2.460325,-0.1732601,0.15722948,-0.19325621,0.035140853,-0.0065586967,-0.14329375,-0.34476504,0.2681506,-9.998186,0.9186956,47.694946,-1.4519295,-2.4622564,-3.6426923,-0.1941104,-0.057094134,-0.3677339,28.5,29.8125,28.875,32.625,35.0625,36.0
0.2780518,0.09151858,0.052992597,-1.162777,-0.040970627,0.08841512,-0.16106696,-0.40690163,-0.363134,0.060047247,-3.0762196,0.6322015,5.6026984e-05,-0.12929076,0.03982874,-0.003338986,0.0061540636,0.0011990229,-0.023406306,0.4801847,-1.3608571,1.8779687,-2.0857756,-1.5715998,2.4600456,-0.17629246,0.16085938,-0.19322267,0.034034394,-0.0064554736,-0.15277863,-0.21068975,0.15322891,-9.844957,1.0305934,47.703007,-1.3547891,-2.630618,-3.5429225,-0.14705513,-0.061557487,-0.25683296,28.5,29.8125,28.875,32.625,35.0625,36.0
0.28005204,1.1087904,0.32854196,-0.62958604,-0.044261057,0.08406064,-0.16657406,-0.407176,-0.36306688,0.060039006,-3.0762482,0.63226223,0.00010129141,-0.13181484,0.04055531,-0.000676126,0.004644336,0.0058999844,-0.020292077,0.4798242,-1.3605227,1.8775858,-2.0857751,-1.5715879,2.4597194,-0.17908965,0.15814634,-0.19625956,0.03491511,-0.0072878185,-0.15868811,-0.19153613,0.13407528,-9.768343,0.8537928,47.699425,-1.2599282,-2.3557591,-3.6266673,-0.11074953,-0.07371642,-0.1712876,28.5,29.8125,28.875,32.625,35.0625,36.0
0.28205222,1.2846802,-0.105892114,-0.39133954,-0.029396188,0.0631871,-0.16011862,-0.40743726,-0.36297563,0.06002838,-3.07622,0.6322161,0.00011784252,-0.13233137,0.040535185,-0.00097221526,0.005831185,0.0054245912,-0.017655695,0.4794645,-1.3601979,1.8772033,-2.0857027,-1.5716242,2.4593349,-0.17888135,0.16018653,-0.19830254,0.035880018,-0.008126533,-0.16111344,-0.15322891,0.076614454,-9.481039,0.8940802,47.699425,-1.307323,-2.4210453,-3.6502867,-0.09999402,-0.033772442,-0.13228247,28.5,29.8125,28.875,32.625,35.0625,36.0
0.2840523,1.1814647,0.499211,-0.5752588,0.000996445,0.029157598,-0.16536328,-0.40773982,-0.36290246,0.060066387,-3.076222,0.63245165,0.00027028276,-0.13408066,0.041081112,-0.0010584865,0.0054704137,0.0045999046,-0.026250232,0.4790916,-1.3599093,1.8767594,-2.085654,-1.571648,2.4591088,-0.18163466,0.16268583,-0.20141645,0.037056256,-0.0074092895,-0.15527315,-0.076614454,0.05746084,-9.423578,1.0082139,47.687782,-1.1089344,-2.4580648,-3.4447308,-0.08109126,-0.057197824,-0.15139991,28.5,29.8125,28.875,32.625,35.0625,36.0
0.28605253,1.434018,1.4709046,-0.21606569,0.00076379697,0.022614403,-0.16172192,-0.40798336,-0.36283728,0.0600504,-3.0762134,0.6325136,0.00021526458,-0.13583511,0.04119872,0.00024572457,0.004048528,0.00600531,-0.034523997,0.4787544,-1.3595736,1.876376,-2.085582,-1.5716237,2.4588115,-0.1836271,0.16271012,-0.20478469,0.03850261,-0.0067985845,-0.14899185,-0.038307227,0.05746084,-9.289502,0.9545008,47.66987,-1.1616943,-2.4962273,-3.328431,-0.06849892,-0.04370273,-0.22326383,28.5,29.8125,28.875,32.625,35.0625,36.0
0.2880525,1.2445394,1.1791933,-0.18328808,0.021699714,0.024721725,-0.15781353,-0.40826568,-0.36273742,0.060054325,-3.0761502,0.6326365,0.00026142778,-0.13720588,0.04171962,0.0014226108,0.0034630748,0.007190854,-0.040352594,0.47836992,-1.35925,1.8759564,-2.0854857,-1.5716718,2.458512,-0.18555415,0.16212973,-0.20717835,0.040148895,-0.00682259,-0.1450897,-0.019153614,-0.095768064,-9.193734,0.78888994,47.694946,-1.1219641,-2.3094091,-3.237649,-0.041528657,-0.057675816,-0.2710312,28.5,29.8125,28.875,32.625,35.0625,36.0
0.29005194,0.788556,1.1804688,-0.1961257,0.03167422,0.025029508,-0.15826552,-0.4085562,-0.36265898,0.060075995,-3.0761414,0.6328282,0.00031732325,-0.13847043,0.043268822,0.0010160881,0.0039306274,0.0052212174,-0.044770703,0.47798488,-1.3589382,1.8755134,-2.0854013,-1.5716718,2.458248,-0.18942323,0.16359186,-0.20846118,0.041929867,-0.0063214605,-0.1445415,-0.11492168,0.019153614,-9.212888,0.85826975,47.677036,-1.0420705,-2.3311694,-3.229836,-0.031956043,-0.050626017,-0.3137061,28.5,29.8125,28.875,32.625,35.0625,36.0
0.29205194,0.5674123,1.3790821,-0.131101,0.011694449,0.048314955,-0.16717505,-0.40881318,-0.36259654,0.060085237,-3.076165,0.6328723,0.0003462814,-0.13904501,0.04350239,0.001879003,0.0033098937,0.0053801825,-0.04661635,0.47764862,-1.3586383,1.8751181,-2.0853407,-1.5716594,2.4579363,-0.19049089,0.16291398,-0.21006925,0.043788146,-0.005836122,-0.1437644,-0.19153613,-0.05746084,-9.174581,0.8224646,47.688675,-1.0876138,-2.2100673,-3.2385545,-0.03308521,-0.06953411,-0.34638715,28.5,29.8125,28.875,32.625,35.0625,36.0
0.29405212,-0.15663712,0.58417934,0.07136601,-0.010354151,0.06793277,-0.16149327,-0.4090748,-0.3624893,0.06007544,-3.0760717,0.6330627,0.00024172997,-0.13946992,0.04241324,0.0027848415,0.0024643014,0.0055637904,-0.04431662,0.47724107,-1.3583022,1.874698,-2.085172,-1.5716594,2.4576597,-0.18931267,0.1637893,-0.21373297,0.04601948,-0.0051836297,-0.14488554,-0.22984336,0.038307227,-9.193734,0.87617236,47.71017,-1.09309,-2.327784,-3.3184257,-0.034116596,-0.06988694,-0.3515205,28.5,29.8125,28.875,32.625,35.0625,36.0
0.29605228,-0.18462673,0.240247,-0.050076712,-0.01784709,0.09073894,-0.17604682,-0.40935367,-0.36240998,0.060085226,-3.0760536,0.63313323,0.0002922075,-0.13932191,0.0437038,0.0015926058,0.0045310995,0.0018276871,-0.040096894,0.47688007,-1.3579781,1.874267,-2.085088,-1.5716833,2.4573452,-0.19114551,0.16567741,-0.21392465,0.04858068,-0.005297784,-0.1509379,-0.21068975,0.114921674,-9.212888,0.83813137,47.692257,-1.0064118,-2.2522326,-3.3220854,-0.050036706,-0.08732023,-0.32957435,28.5,29.8125,28.875,32.625,35.0625,36.0
0.2980518,-0.040863592,0.14813052,-0.2640383,-0.022629522,0.10160046,-0.17173405,-0.40963674,-0.36232084,0.060096253,-3.0760427,0.6332607,0.00031897592,-0.13913251,0.043842945,0.0018360277,0.0051463894,0.0020820997,-0.034022506,0.47648472,-1.3576669,1.8738483,-2.0850036,-1.5716833,2.457031,-0.19067511,0.16512276,-0.21401206,0.049274243,-0.005959316,-0.15654092,-0.30645782,0.17238252,-9.289502,0.9231726,47.67793,-1.067942,-2.0784001,-3.2692027,-0.052583814,-0.092270434,-0.30271235,28.5,29.8125,28.875,32.625,35.0625,36.0
0.30005196,-0.36656225,-0.060145274,-0.055743232,-0.026032701,0.10115383,-0.16974823,-0.40992552,-0.36223656,0.060107067,-3.076037,0.6333501,0.0003728269,-0.14008333,0.04365909,0.0024219202,0.0052577644,0.0034275318,-0.025021968,0.47610065,-1.357343,1.8734177,-2.0849316,-1.5716962,2.4567037,-0.19061948,0.16582815,-0.21634513,0.049747296,-0.006677857,-0.16548385,-0.40222588,0.05746084,-9.423578,0.8403672,47.65464,-1.221799,-1.991659,-3.3950534,-0.040784653,-0.07612644,-0.19573973,28.5,29.8125,28.875,32.625,35.0625,36.0
0.30205196,-0.5275141,-0.044773445,-0.12388696,-0.021196585,0.10978562,-0.16514595,-0.41018206,-0.362126,0.060073983,-3.0759413,0.63344234,0.00022516157,-0.14035764,0.043407936,0.0024124917,0.005718326,0.0033130874,-0.017947474,0.475693,-1.3569708,1.8730096,-2.0847757,-1.5716962,2.456366,-0.19008031,0.16701078,-0.21797481,0.050499745,-0.0070600994,-0.17201701,-0.4405331,0.05746084,-9.289502,0.8672237,47.653748,-1.3927656,-2.0630028,-3.3747008,-0.026413277,-0.094252035,-0.09472905,28.5,29.8125,28.875,32.625,35.0625,36.0
0.30405226,-0.53311783,0.2620434,-0.32429487,0.0066627995,0.09666128,-0.1641519,-0.41049305,-0.36206824,0.060117427,-3.076001,0.63347226,0.00037643927,-0.13883993,0.043066893,-0.00011303597,0.0075482577,-0.0020745578,-0.015796337,0.47533372,-1.3566574,1.8725199,-2.0847151,-1.5717076,2.456018,-0.18858133,0.171256,-0.217637,0.05153655,-0.0061987024,-0.17267126,-0.4213795,0.095768064,-9.32781,1.0194036,47.721813,-1.5880017,-2.1697764,-3.3947873,-0.041345593,-0.09662988,-0.036128383,28.5,29.8125,28.875,32.625,35.0625,36.0
0.30605248,0.68907624,1.1567712,-0.47632092,0.0049219197,0.09355787,-0.17677803,-0.41078505,-0.36195207,0.060112376,-3.075952,0.6336191,0.00039816514,-0.13943549,0.043674737,-0.0011263264,0.008481023,-0.0043988754,-0.021507906,0.47490108,-1.3563327,1.8721241,-2.0846436,-1.5717314,2.4556835,-0.19011949,0.17409903,-0.21905416,0.052601058,-0.005966489,-0.16849752,-0.24899697,0.019153614,-9.385271,0.9164598,47.664497,-1.4895508,-2.065915,-3.385444,-0.04796088,-0.10106811,-0.07035991,28.5,29.8125,28.875,32.625,35.0625,36.0
0.30805233,0.3625121,0.6015053,-0.3474907,0.0009262191,0.060006417,-0.16378139,-0.41104877,-0.36187962,0.060111023,-3.0759168,0.6337129,0.0003665334,-0.14078757,0.04511137,-0.0008646986,0.009743947,-0.004562216,-0.030385597,0.47455198,-1.3559852,1.8716811,-2.084523,-1.5717319,2.4553976,-0.19292477,0.1746252,-0.22076938,0.054520424,-0.0070184963,-0.16242242,-0.24899697,0.11492168,-9.289503,0.92764956,47.689575,-1.3777071,-2.2259371,-3.4892755,-0.044155397,-0.0888342,-0.12097672,28.5,29.8125,28.875,32.625,35.0625,36.0
0.31005242,0.83558875,0.7743178,-0.25826594,-0.015112412,0.05028451,-0.17953795,-0.41130772,-0.36178178,0.06010253,-3.0758443,0.63378006,0.00031347602,-0.14144537,0.046517767,-0.0018620797,0.012298978,-0.007540898,-0.041431006,0.47417933,-1.3556484,1.871262,-2.0843785,-1.5717562,2.4550765,-0.19516297,0.17733759,-0.22246042,0.057321724,-0.007937055,-0.15361215,-0.22984336,0.21068975,-9.251195,0.86945957,47.670765,-1.3850851,-2.2241483,-3.4663649,-0.07024912,-0.0916371,-0.21693462,28.5,29.8125,28.875,32.625,35.0625,36.0
0.31205246,1.1927478,0.41812417,-0.43807274,-0.017277904,0.047925055,-0.18170667,-0.4116202,-0.36166924,0.060097035,-3.0757554,0.63397765,0.0003692949,-0.14221628,0.048449587,-0.0029634065,0.014221088,-0.010946149,-0.049398046,0.473758,-1.3552761,1.8708066,-2.0842936,-1.5718163,2.45479,-0.19881856,0.17953287,-0.2232261,0.05979216,-0.008092811,-0.14930002,-0.21068975,0.19153613,-9.346964,0.8806493,47.703007,-1.2730055,-2.3061588,-3.4039798,-0.09987034,-0.0712387,-0.26771748,28.5,29.8125,28.875,32.625,35.0625,36.0
0.31405255,0.67086864,-0.4140555,-0.52586424,-0.014763464,0.030405141,-0.16078685,-0.41188267,-0.36159363,0.060094137,-3.0757227,0.6340683,0.00031074302,-0.1429277,0.048940517,-0.0027641086,0.014719998,-0.011744196,-0.05511741,0.47339785,-1.354928,1.8703636,-2.0841615,-1.5718044,2.454491,-0.20007177,0.18041547,-0.22527531,0.061900668,-0.008181337,-0.14483275,-0.15322891,0.19153613,-9.461885,0.92093146,47.688675,-1.2984391,-2.2802103,-3.4441643,-0.11555236,-0.0900601,-0.37756816,28.5,29.8125,28.875,32.625,35.0625,36.0
0.3160517,1.0138227,-0.27700418,0.029674701,-0.042150106,0.04755181,-0.16574927,-0.4121946,-0.36149424,0.060109813,-3.075661,0.6342689,0.0003289125,-0.14298467,0.04941042,-0.0024487225,0.0161592,-0.01442663,-0.05758992,0.47297746,-1.3545681,1.869861,-2.0840156,-1.5718282,2.4542038,-0.20072134,0.18132918,-0.22831777,0.06706857,-0.008241723,-0.14300883,-0.17238252,0.19153613,-9.289503,1.0552088,47.69763,-1.2418884,-2.2682364,-3.399353,-0.19672883,-0.06802845,-0.45207888,28.5,29.8125,28.875,32.625,35.0625,36.0
0.31805184,0.5120748,0.020650411,-0.040182214,-0.040183477,0.04105879,-0.1780294,-0.41248322,-0.36140397,0.0601086,-3.0756102,0.63439035,0.0003373435,-0.14487047,0.050041348,-0.0016877297,0.01446773,-0.012341854,-0.05714285,0.47259262,-1.3542084,1.8694056,-2.0839088,-1.5718521,2.4539015,-0.20358811,0.18112813,-0.22960098,0.06591466,-0.00770156,-0.14632337,-0.22984336,0.24899697,-9.155427,0.97464454,47.667187,-1.0835373,-2.2358534,-3.4406228,-0.21866764,-0.06786238,-0.47847927,28.5,29.8125,28.875,32.625,35.0625,36.0
0.3200524,-0.039736602,0.20824483,-0.42936862,-0.013613951,0.026282037,-0.17541137,-0.41275448,-0.36129755,0.060101714,-3.0755527,0.6344298,0.00030018258,-0.14544475,0.050698653,-0.0022222472,0.014282671,-0.014000405,-0.047775812,0.472196,-1.3538724,1.868986,-2.0837767,-1.5718759,2.4535372,-0.20559497,0.18252699,-0.23027898,0.06656432,-0.0068038455,-0.15769851,-0.15322891,0.22984336,-9.212888,0.8627467,47.66987,-1.1183903,-2.3541996,-3.3766153,-0.22556001,-0.07871346,-0.40957242,28.5,29.8125,28.875,32.625,35.0625,36.0
0.3220525,0.7401193,0.8038955,0.17745104,-0.03375573,0.061111633,-0.18848671,-0.41306183,-0.36119556,0.060120363,-3.0755088,0.6347036,0.00023098977,-0.145854,0.05108792,-0.0022826,0.015280201,-0.017074522,-0.037631664,0.47173956,-1.353524,1.868482,-2.083595,-1.5718397,2.4532573,-0.20674181,0.18459198,-0.23372027,0.07112115,-0.006312787,-0.1689892,-0.019153614,0.19153613,-9.193734,0.8560339,47.653748,-0.981339,-2.2713752,-3.4239066,-0.27845553,-0.09013881,-0.3294214,28.5,29.8125,28.875,32.625,35.0625,36.0
0.3240525,0.21672092,0.2855567,0.17364514,-0.017313924,0.057539605,-0.17864966,-0.41333422,-0.3610824,0.060075995,-3.0754066,0.63477504,0.00012165223,-0.14774297,0.05060521,-0.0014262514,0.013610665,-0.0138172805,-0.030651977,0.47133148,-1.3531159,1.8680633,-2.0834768,-1.571864,2.4529073,-0.20739816,0.18540856,-0.23628315,0.06919252,-0.0063477387,-0.17662354,-0.22984336,0.11492168,-9.155427,0.9254084,47.698532,-0.93665713,-2.1839876,-3.3325517,-0.31798413,-0.105580516,-0.1825515,28.5,29.8125,28.875,32.625,35.0625,36.0
0.3260527,0.034609877,0.6100966,0.10090713,-0.01225196,0.0677405,-0.17638199,-0.41364333,-0.36099234,0.060096648,-3.0753798,0.6348639,0.00013287576,-0.14986554,0.050370734,3.494199e-05,0.011980412,-0.009924036,-0.028268065,0.47092333,-1.3527563,1.8675469,-2.0833209,-1.5718759,2.4525583,-0.208467,0.18527476,-0.23924203,0.06806906,-0.0066806125,-0.18007463,-0.4596867,0.076614454,-9.212888,0.8627467,47.670765,-0.9636119,-2.180007,-3.2891302,-0.32352287,-0.09695799,-0.13582149,28.5,29.8125,28.875,32.625,35.0625,36.0
0.32805184,0.015581803,0.7353762,-0.030914133,-0.009932805,0.09629172,-0.18539543,-0.41393632,-0.3609002,0.06008665,-3.075324,0.6350456,3.309083e-05,-0.15037763,0.04964803,0.00015248239,0.010859279,-0.009220965,-0.030432591,0.47050342,-1.3523604,1.8670563,-2.083166,-1.5718511,2.452259,-0.2079494,0.18639135,-0.24076012,0.06733813,-0.0060196924,-0.17739305,-0.5554548,0.038307227,-9.308656,0.8493211,47.686886,-1.202143,-2.1767364,-3.2801247,-0.32222173,-0.10271178,-0.14628665,28.5,29.8125,28.875,32.625,35.0625,36.0
0.33005223,-0.7772618,0.45780206,0.054467935,-0.009170484,0.10413719,-0.17313117,-0.4142371,-0.36079982,0.060080733,-3.0752797,0.6350004,4.7945177e-05,-0.1503882,0.04905719,-0.0009301441,0.010808376,-0.009754603,-0.036007565,0.47010782,-1.3519757,1.866578,-2.0830472,-1.5718993,2.4518414,-0.20699348,0.18891273,-0.2410046,0.065509774,-0.005741379,-0.17086224,-0.5554548,-0.019153614,-9.212888,0.900793,47.682407,-1.369385,-2.2417445,-3.425654,-0.3442759,-0.11942171,-0.17839718,28.5,29.8125,28.875,32.625,35.0625,36.0
0.33205238,-0.49340162,0.6473484,-0.001587915,-0.020714713,0.12509991,-0.17548396,-0.41456047,-0.36068788,0.060087297,-3.0752063,0.6352372,2.7946788e-05,-0.15260129,0.048390523,-0.0004895404,0.009229995,-0.0058962605,-0.042077325,0.4696519,-1.3515916,1.866064,-2.0828927,-1.5719112,2.4515429,-0.2073868,0.19084764,-0.24362743,0.062046353,-0.0060993102,-0.16518362,-0.51714754,0.11492168,-9.32781,0.9030289,47.68062,-1.4676625,-2.0867872,-3.4548464,-0.32237753,-0.12526035,-0.27465063,28.5,29.8125,28.875,32.625,35.0625,36.0
0.33405277,-0.43692672,0.52554363,0.036085498,-0.035124645,0.1262886,-0.18959372,-0.41484135,-0.36058944,0.06007258,-3.0751486,0.6353224,-1.9567306e-05,-0.15361701,0.049169056,-0.0017309709,0.0106266085,-0.0062744212,-0.045368727,0.46925563,-1.351219,1.86562,-2.0827734,-1.5719241,2.4512074,-0.20874786,0.19377913,-0.24408063,0.06053898,-0.0071883225,-0.16324982,-0.5554548,0.05746084,-9.346964,0.9612189,47.670765,-1.4541705,-2.206009,-3.4324465,-0.28509834,-0.114053294,-0.3241443,28.5,29.8125,28.875,32.625,35.0625,36.0
0.336052,-0.23862043,0.17961052,-0.2771211,-0.03661124,0.104272224,-0.1853215,-0.41516036,-0.36051932,0.060104445,-3.0751832,0.63542587,5.5045024e-05,-0.15466182,0.04907797,-0.0013619035,0.010060364,-0.003619576,-0.046091303,0.46885943,-1.3508712,1.8651055,-2.0826786,-1.5719122,2.4508715,-0.20890045,0.19394639,-0.24468797,0.058357514,-0.007881247,-0.16267852,-0.4213795,-0.019153614,-9.423578,1.0082139,47.65912,-1.4145057,-2.2482405,-3.4685984,-0.29843485,-0.12033385,-0.36734545,28.5,29.8125,28.875,32.625,35.0625,36.0
0.33805215,-0.29810542,-0.33002827,-0.21936187,-0.032708157,0.08223036,-0.17930017,-0.4154563,-0.36038232,0.060065787,-3.0750237,0.6356049,-3.3490887e-05,-0.15743358,0.048591938,-0.000848602,0.0068594394,0.0009723809,-0.047563482,0.46841493,-1.3504512,1.8646506,-2.082525,-1.5719718,2.4505596,-0.21074523,0.19546284,-0.24659939,0.053193953,-0.0071377,-0.16305113,-0.47884035,0.11492168,-9.404425,0.89631605,47.683304,-1.4377922,-2.03195,-3.536489,-0.24181387,-0.12721159,-0.40014845,28.5,29.8125,28.875,32.625,35.0625,36.0
0.3400524,0.15556836,-0.22187856,-0.4251923,-0.041536555,0.07808977,-0.18287754,-0.41577396,-0.3603006,0.060073603,-3.0750427,0.6356815,-2.8076425e-05,-0.15941596,0.04874868,0.00036540808,0.0055843806,0.0050878036,-0.041880682,0.4679942,-1.3500677,1.8641471,-2.0824296,-1.5719484,2.4501843,-0.2120773,0.1948873,-0.24827187,0.051189434,-0.007868359,-0.170064,-0.36391866,0.17238252,-9.385271,0.8784135,47.672558,-1.3527813,-2.10701,-3.5264802,-0.19414628,-0.12993516,-0.3505798,28.5,29.8125,28.875,32.625,35.0625,36.0
0.34205255,0.05234223,-0.22331871,-0.52286905,-0.037589107,0.06237526,-0.17907396,-0.41607267,-0.36021358,0.060036875,-3.0749812,0.6357011,-8.240566e-05,-0.15994638,0.05018601,-0.0008619703,0.0076511377,0.0026325574,-0.034025,0.46760964,-1.3496115,1.8636564,-2.0823333,-1.5719723,2.4498203,-0.21431229,0.19721223,-0.24864565,0.052345414,-0.008624795,-0.18015206,-0.15322891,0.17238252,-9.385271,0.92093146,47.657326,-1.3988479,-2.1189852,-3.5465422,-0.1775946,-0.10311266,-0.24907805,28.5,29.8125,28.875,32.625,35.0625,36.0
0.3440526,-0.34512934,0.10778227,-0.4581361,-0.03849438,0.04132243,-0.18656312,-0.41641825,-0.3600853,0.06004475,-3.0749319,0.6359181,-3.2974534e-05,-0.1620818,0.050740257,-0.001148186,0.0076825693,0.002816301,-0.027629888,0.4671172,-1.3492385,1.8631653,-2.0822375,-1.5719966,2.4494698,-0.21678823,0.20040682,-0.25191003,0.05224663,-0.008748471,-0.18902156,-0.15322891,0.15322891,-9.481039,0.9545008,47.698532,-1.3709699,-2.1855693,-3.5907025,-0.17845719,-0.09214698,-0.16690858,28.5,29.8125,28.875,32.625,35.0625,36.0
0.34605208,0.0481173,-0.036863387,-0.4454015,-0.03494685,0.05808,-0.18444596,-0.41672274,-0.359976,0.060016137,-3.0748684,0.6360028,-9.48816e-05,-0.16513668,0.050732534,-0.00024695302,0.0046948344,0.0065992875,-0.029878844,0.46668398,-1.3488182,1.862697,-2.0821311,-1.5720085,2.4490979,-0.2197654,0.20168157,-0.25489748,0.04922659,-0.0078082145,-0.18975052,-0.2681506,0.21068975,-9.557653,0.90527004,47.647476,-1.1334989,-2.2816832,-3.4937935,-0.11910888,-0.12407903,-0.09853124,28.5,29.8125,28.875,32.625,35.0625,36.0
0.3480521,-0.14080039,-0.080397636,-0.55365163,-0.032362483,0.075239934,-0.17786819,-0.41704205,-0.3598926,0.06003334,-3.0748851,0.63602996,-5.491448e-05,-0.16672873,0.05238088,-0.0012620483,0.006269047,0.0042115203,-0.037946332,0.46627462,-1.348446,1.8621825,-2.082023,-1.5720085,2.4487035,-0.22349405,0.20501707,-0.25708756,0.050925568,-0.008129301,-0.1854101,-0.38307226,0.19153613,-9.653421,0.8918391,47.672558,-0.9937073,-2.2421513,-3.5498142,-0.09165116,-0.13773972,-0.081241794,28.5,29.8125,28.875,32.625,35.0625,36.0
0.35005224,-0.16640615,-0.17768943,-0.69725686,-0.027442856,0.080981195,-0.17693412,-0.41740245,-0.3597785,0.060025606,-3.074839,0.63619804,-1.9707264e-05,-0.16770618,0.05309538,-0.00078625174,0.006863777,0.003855027,-0.047510576,0.46579403,-1.348002,1.8616427,-2.0819385,-1.5720323,2.448334,-0.22509436,0.20560965,-0.25951394,0.053348597,-0.008489543,-0.17744473,-0.22984336,0.17238252,-9.634268,0.8806493,47.696735,-0.9081582,-2.3430164,-3.5030336,-0.107988626,-0.110990874,-0.17993765,28.5,29.8125,28.875,32.625,35.0625,36.0
0.35205227,-0.37031773,-0.35282606,-0.76984227,-0.035751045,0.07747897,-0.17528532,-0.4177362,-0.3596811,0.060047776,-3.0748034,0.6364063,-8.613364e-06,-0.16885942,0.052342538,-0.00032224032,0.005884603,0.0043320726,-0.054833606,0.4653498,-1.3476175,1.861091,-2.0817816,-1.5720323,2.4480245,-0.22502789,0.20760368,-0.26325497,0.054233447,-0.007825245,-0.17005558,-0.40222588,0.17238252,-9.595961,0.89631605,47.71286,-0.97666955,-2.3699408,-3.370532,-0.09838538,-0.14086273,-0.26543272,28.5,29.8125,28.875,32.625,35.0625,36.0
0.35405254,-0.34701675,-0.49310926,-0.41358927,-0.050764453,0.0861936,-0.17990173,-0.41806307,-0.35959223,0.060026404,-3.0747676,0.6365538,-5.3619326e-05,-0.16883318,0.05174057,-0.00056360464,0.005790193,0.0034352867,-0.059072725,0.46491843,-1.3471613,1.8605646,-2.0816863,-1.5720199,2.44769,-0.22411309,0.20920914,-0.2649312,0.05506731,-0.007338967,-0.1649021,-0.7469909,0.1340753,-9.461885,0.9567419,47.693153,-1.0813508,-2.4801204,-3.2374449,-0.08613757,-0.12479262,-0.34183946,28.5,29.8125,28.875,32.625,35.0625,36.0
0.35605243,0.052896548,-0.07005896,-0.4361702,-0.04513844,0.09867454,-0.18130705,-0.41838408,-0.35947233,0.06002351,-3.0746582,0.6366862,-3.4525542e-06,-0.16882874,0.051324826,-0.00040573973,0.00595735,0.0033155815,-0.063170835,0.46449897,-1.3467654,1.860061,-2.0815542,-1.5721039,2.4473677,-0.22318478,0.20987682,-0.2663916,0.056032486,-0.0074342308,-0.1598749,-0.5554548,0.15322891,-9.557653,0.9388393,47.695843,-1.2330676,-2.4187894,-3.3523855,-0.06795347,-0.15066072,-0.43542084,28.5,29.8125,28.875,32.625,35.0625,36.0
0.35805243,0.25539187,0.33358923,-0.48904845,-0.04665592,0.09308049,-0.19199146,-0.41874322,-0.35935655,0.060017753,-3.0746129,0.6368861,4.7994075e-05,-0.16943963,0.05172501,-0.0005231486,0.006633663,0.003234311,-0.062093753,0.46401888,-1.3463337,1.8595341,-2.0814826,-1.5721287,2.4470184,-0.22382207,0.21093762,-0.26761457,0.056562703,-0.008001962,-0.16158767,-0.34476504,0.21068975,-9.710882,0.95226496,47.67614,-1.2709953,-2.337012,-3.4588292,-0.06561482,-0.14212734,-0.47424796,28.5,29.8125,28.875,32.625,35.0625,36.0
0.36005294,-0.6699559,-0.2565653,-0.17756408,-0.052874736,0.07529078,-0.18260989,-0.41906667,-0.3592662,0.06002118,-3.0745728,0.6369485,5.117701e-05,-0.16918674,0.052159466,-0.0005265656,0.006484109,0.002231993,-0.05307185,0.46361065,-1.3459145,1.8589848,-2.0813382,-1.572152,2.4466546,-0.2245017,0.21040353,-0.26726133,0.057551008,-0.007429437,-0.17129098,-0.34476504,0.24899697,-9.461885,0.84708,47.64658,-1.3249514,-2.3133206,-3.570232,-0.047672223,-0.14294219,-0.46522352,28.5,29.8125,28.875,32.625,35.0625,36.0
0.36205223,0.2605352,-0.1736401,-0.07625416,-0.03814899,0.08750538,-0.17830615,-0.41942346,-0.3591835,0.0600398,-3.0745845,0.6371181,0.00010873112,-0.16904643,0.0519206,-0.00093242654,0.007040561,0.00070875755,-0.041332938,0.4631662,-1.345494,1.8584102,-2.0812418,-1.5721401,2.4463146,-0.22389752,0.21203692,-0.2687261,0.05897704,-0.007248155,-0.18242608,-0.32561144,0.21068975,-9.308657,1.0395473,47.64121,-1.238338,-2.3472114,-3.6606913,-0.04085423,-0.15744346,-0.35287732,28.5,29.8125,28.875,32.625,35.0625,36.0
0.36405236,0.45556474,0.082000874,-0.17498308,-0.007495613,0.07377297,-0.18417217,-0.41976222,-0.35907286,0.06001775,-3.0745337,0.6372554,6.2866195e-05,-0.17101753,0.052214503,0.0008265226,0.006350239,0.0033292135,-0.032217134,0.46269825,-1.3450385,1.8578824,-2.0811336,-1.5721406,2.445939,-0.22549684,0.21151611,-0.27254587,0.060648993,-0.007823345,-0.19313861,-0.15322891,-0.038307227,-9.442732,0.98807013,47.686886,-1.256047,-2.2599974,-3.558704,-0.021521475,-0.14036673,-0.22631133,28.5,29.8125,28.875,32.625,35.0625,36.0
0.36605245,0.94599605,0.7937834,-0.05039637,0.007044237,0.06790659,-0.17673509,-0.42010745,-0.35895786,0.060023323,-3.074499,0.6374192,5.7655558e-05,-0.17127314,0.05362126,0.00014779852,0.008062197,0.00016606525,-0.02995468,0.4622177,-1.3446306,1.857344,-2.0810006,-1.5721406,2.4455655,-0.22778495,0.21299207,-0.27358866,0.063801415,-0.0079451315,-0.19768855,-0.019153614,0.0,-9.32781,1.0104496,47.675243,-1.3811936,-2.2365422,-3.4974937,-0.036635112,-0.15844405,-0.13453697,28.5,29.8125,28.875,32.625,35.0625,36.0
0.36805248,1.3836625,0.71453935,-0.16717756,0.03605956,0.04564212,-0.16126898,-0.42047882,-0.3588599,0.060020227,-3.0744755,0.637417,0.00012825806,-0.17178912,0.054820787,-0.0016897559,0.010574063,-0.0046826983,-0.034749523,0.46177295,-1.3441494,1.8567442,-2.0809033,-1.5721883,2.4451227,-0.22996391,0.21765456,-0.27587882,0.066880696,-0.008026077,-0.19507146,-0.076614454,0.05746084,-9.232041,0.9231726,47.709274,-1.235421,-2.3062346,-3.3833497,-0.05518401,-0.15774819,-0.12497327,28.5,29.8125,28.875,32.625,35.0625,36.0
0.37005258,0.9446519,0.90210164,-0.28052074,0.03407764,0.012321341,-0.17190969,-0.42082068,-0.3587391,0.06002251,-3.074392,0.63756,0.00014243256,-0.17307858,0.056527764,-0.0011492794,0.011289093,-0.00630457,-0.046134822,0.46131548,-1.3437296,1.8561934,-2.0807474,-1.5722364,2.4447656,-0.23374169,0.21789382,-0.27838627,0.0709177,-0.00794151,-0.18746339,-0.19153613,0.13407528,-9.193734,1.0037369,47.666286,-1.1102028,-2.4175713,-3.4595547,-0.10687584,-0.16325432,-0.22868922,28.5,29.8125,28.875,32.625,35.0625,36.0
0.3720527,1.4331414,0.98886025,-0.3433947,0.021079345,0.013039107,-0.17684707,-0.42116842,-0.35863182,0.06000467,-3.074343,0.63764966,7.893407e-05,-0.17469798,0.05743124,7.937684e-05,0.011607894,-0.0061060805,-0.055294707,0.46084687,-1.3432503,1.8556179,-2.0806015,-1.5722364,2.4443595,-0.23616414,0.21805085,-0.28229567,0.074642085,-0.008322208,-0.1807236,-0.19153613,0.076614454,-9.270349,0.91198283,47.707485,-1.0008924,-2.279177,-3.2973504,-0.13098004,-0.16244897,-0.29380575,28.5,29.8125,28.875,32.625,35.0625,36.0
0.37405175,0.9510459,0.16725272,-0.23797826,0.007292266,0.024546567,-0.17578433,-0.42149544,-0.35851583,0.059999008,-3.0742517,0.63799685,-2.2116068e-05,-0.17481126,0.057696633,-7.795808e-05,0.013167453,-0.008523787,-0.058382165,0.460367,-1.3428296,1.8550781,-2.0804207,-1.5722126,2.4441082,-0.23630595,0.21991718,-0.28516302,0.078508206,-0.008655377,-0.17777562,-0.21068975,0.019153614,-9.346964,0.9410752,47.70211,-1.0651524,-2.4424324,-3.210422,-0.18248114,-0.14393654,-0.34948274,28.5,29.8125,28.875,32.625,35.0625,36.0
