Tylouw/Master_Thesis_Code/training_data_v2/rect_rod_t0.2/sample_39_session_1.csv
timestamp[s],tcp_force_x[N],tcp_force_y[N],tcp_force_z[N],tcp_force_rx[Nm?],tcp_force_ry[Nm?],tcp_force_rz[Nm?],tcp_pose_x[m],tcp_pose_y[m],tcp_pose_z[m],tcp_pose_rx[rot_vec_x],tcp_pose_ry[rot_vec_y],tcp_pose_rz[rot_vec_z],tcp_velo_x[m/s],tcp_velo_y[m/s],tcp_velo_z[m/s],tcp_velo_rx[rot_vec_x/s],tcp_velo_ry[rot_vec_y/s],tcp_velo_rz[rot_vec_z/s],q1[rad],q2[rad],q3[rad],q4[rad],q5[rad],q6[rad],qd1[rad/s],qd2[rad/s],qd3[rad/s],qd4[rad/s],qd5[rad/s],qd6[rad/s],tool_acc_x,tool_acc_y,tool_acc_z,current_of_whole_robot[A],voltage_of_whole_robot[V],current_J1[A],current_J2[A],current_J3[A],current_J4[A],current_J5[A],current_J6[A],temp_J1[C],temp_J2[C],temp_J3[C],temp_J4[C],temp_J5[C],temp_J6[C]
9.129999e-07,-0.13373521,-0.6563086,-0.23786272,-0.016736865,0.018297423,-0.002867452,-0.38933143,-0.3687161,0.06001182,-3.078712,0.6249297,0.00020840326,0.0003932259,0.00018678229,0.00020412842,0.00030544584,-0.00083494774,8.527353e-05,0.5050329,-1.3816681,1.9042224,-2.0919154,-1.5708536,2.4800253,-3.361707e-05,-0.00069483864,-5.526136e-07,0.001573359,0.00014034023,-0.00011936926,0.076614454,0.095768064,-8.772355,0.7709874,47.67345,-0.13540852,-3.0685153,-2.3202858,-0.2176294,0.17012602,-0.02757128,28.5625,29.8125,28.875,32.6875,35.125,36.0625
0.002052254,-0.7671516,-1.0576566,-0.3449694,-0.009120815,0.011310613,0.009676155,-0.38930514,-0.3687113,0.059994172,-3.078685,0.6248668,0.00016575053,-0.0012358162,-0.00070984114,-0.0010608864,-0.002881226,0.004893698,6.9508824e-05,0.50505686,-1.3816674,1.90426,-2.0919077,-1.5708655,2.4800134,-4.75721e-05,0.0011090122,0.0034179203,-0.010204283,0.00013728222,-0.000117422474,0.095768064,0.1340753,-8.619126,0.7530795,47.682407,-0.23032057,-3.0738084,-2.31134,-0.14406264,0.15687184,-0.016539777,28.5625,29.8125,28.875,32.6875,35.125,36.0625
0.004052645,-0.2967926,-0.6682581,-0.2550814,-0.02403163,0.02612765,-0.001628361,-0.38932967,-0.3687249,0.060000863,-3.0786967,0.62496465,0.00022267298,-0.0015407956,-0.00087852916,-0.0021059806,-0.0027209346,0.00460057,6.711943e-05,0.50505686,-1.3816427,1.9042238,-2.091944,-1.5708655,2.480073,-4.8584086e-05,0.0033519513,0.0036266085,-0.012321816,0.00013435452,-0.00011553827,0.019153614,0.15322891,-8.580819,0.784413,47.731667,-0.20208398,-3.4328437,-2.6308694,-0.026049197,0.15354802,-0.030817524,28.5625,29.8125,28.875,32.6875,35.125,36.0625
0.006051933,-0.62113136,-0.7609206,-0.15040483,-0.002207707,0.0047648363,0.006411085,-0.38930532,-0.36871308,0.05999398,-3.0786865,0.62494373,0.00013872133,-0.0003595734,-0.00021712466,-0.001608805,-0.0007739076,0.0011104227,5.9376496e-05,0.5050448,-1.3816671,1.9042596,-2.0919054,-1.5708417,2.4800491,-5.408201e-05,0.0021137036,0.0025198143,-0.0059802695,0.00013154892,-0.00011371342,0.0,0.19153613,-8.504205,0.7329411,47.701214,-0.13671373,-3.3940272,-2.587733,-0.08207634,0.17233026,-0.0107253,28.5625,29.8125,28.875,32.6875,35.125,36.0625
0.00805189,0.38937998,0.8088525,-0.42474106,0.023674296,-0.007793889,0.00086609175,-0.38932592,-0.3687309,0.059980527,-3.0787168,0.6249308,0.000100643636,1.8615141e-05,-5.766254e-06,-7.184802e-05,-0.000118412216,-5.2438772e-05,6.981538e-05,0.5050329,-1.3815958,1.9042109,-2.0919273,-1.5708054,2.4800253,-5.3324446e-05,3.816441e-05,0.00016774832,-0.00021779929,0.0001288583,-0.00012337016,-0.05746084,0.15322891,-8.7532015,0.78217715,47.704796,-0.18576117,-3.223656,-2.4683385,-0.11416255,0.14806928,-0.037843905,28.5625,29.8125,28.875,32.6875,35.125,36.0625
0.0100518335,0.51806575,0.60404235,-1.1771029,0.044297222,-0.0049338546,-0.0038145697,-0.3893161,-0.36870122,0.059987497,-3.0786424,0.6249347,0.00017269219,0.00085263705,0.00046808674,-0.0003025582,0.0013597596,-0.002705851,7.4431635e-05,0.5050448,-1.3816439,1.9042462,-2.0919025,-1.5708898,2.4800491,-6.882333e-05,5.1202426e-07,2.250558e-06,0.0030227026,0.00012627532,-0.00014376573,0.019153614,0.24899697,-9.021352,0.7217513,47.688675,-0.7156396,-2.7006774,-2.926879,-0.13274232,0.13460173,-0.108170554,28.5625,29.8125,28.875,32.6875,35.125,36.0625
0.012051753,0.32514155,0.0655161,-1.1268178,-0.0034217963,0.016780274,-0.013384861,-0.38933674,-0.36870718,0.05999602,-3.078687,0.6249631,0.00020447164,0.00055032846,0.00097096595,-0.0009796922,0.0019894291,-0.0038403685,0.00045302985,0.5050204,-1.3816437,1.9042348,-2.0919387,-1.5708655,2.4800367,-0.0011972446,0.0013080412,3.019411e-08,0.0030146907,0.00012406679,-0.0016505664,0.1340753,0.17238252,-9.193734,0.71279734,47.685097,-0.849007,-2.584344,-3.12496,-0.13227406,0.12993693,-0.14603007,28.5625,29.8125,28.875,32.6875,35.125,36.0625
0.014051646,-1.1853584,-1.4412017,-1.4082578,-0.030251436,0.020427957,-0.008450876,-0.38932356,-0.36869526,0.059955936,-3.0786376,0.62493235,7.522781e-05,-0.0042052995,0.0038990607,-0.004947384,0.0051318975,-0.0094276965,0.0013971658,0.5050052,-1.381579,1.9042443,-2.091915,-1.5708536,2.4800086,-0.010543749,0.013146135,-0.0048176046,0.0024030628,6.418618e-05,-0.011937205,-0.019153614,0.13407528,-9.174581,0.800085,47.709274,-0.41709864,-3.1462188,-3.0262911,-0.12422958,0.12826918,-0.104940236,28.5625,29.8125,28.875,32.6875,35.125,36.0625
0.016051712,-1.8211677,-1.9448934,-1.5422956,-0.04676565,0.03720216,-0.012720429,-0.38931412,-0.3686845,0.05993695,-3.078607,0.6249023,-4.8563015e-05,-0.0062234886,0.0031598532,-0.0028575617,0.0027943735,-0.005210121,0.009617076,0.504981,-1.3815435,1.9042319,-2.0918548,-1.5708297,2.4799695,-0.01118432,0.012167802,-0.008345132,0.002085997,5.8466936e-05,-0.02079636,-0.22984336,0.22984336,-9.32781,0.7105615,47.684196,-0.44281083,-3.1558836,-3.0592413,-0.07273596,0.12284818,-0.017282609,28.5625,29.8125,28.875,32.6875,35.125,36.0625
0.01805231,-1.8747205,-1.7864054,-1.6183993,-0.051181637,0.06548628,-0.031106506,-0.38931027,-0.36869842,0.059936408,-3.078637,0.62484926,-7.335039e-05,-0.0055595785,0.0036459705,-0.0022571462,0.00346508,-0.006405152,0.013565671,0.50499284,-1.3815322,1.9042195,-2.0918539,-1.5708054,2.4799445,-0.011378864,0.0103932265,-0.008323104,0.0052089607,5.6397374e-05,-0.024940118,-0.38307226,0.22984336,-9.461885,0.77545905,47.677036,-0.6067759,-2.866454,-3.2258048,-0.07795057,0.10096064,0.013625063,28.5625,29.8125,28.875,32.6875,35.125,36.0625
0.020052142,-1.2484618,-0.89352804,-1.7318971,-0.023795983,0.08802243,-0.08100657,-0.3893116,-0.3686929,0.059916776,-3.0785885,0.62474513,-0.00011099918,-0.004667056,0.0041642003,-0.0031538373,0.0054693455,-0.010015036,0.010815859,0.5050049,-1.3814716,1.9041842,-2.0918167,-1.5708417,2.4798977,-0.011415792,0.011649538,-0.008445946,0.008203955,5.4668755e-05,-0.022227302,-0.38307226,0.19153613,-9.615114,0.7530795,47.664497,-0.8322859,-2.7267492,-3.450975,-0.12268923,0.104862705,-0.006593777,28.5625,29.8125,28.875,32.6875,35.125,36.0625
0.022052148,-2.1965313,-0.8626936,-1.9295887,0.0054150233,0.065372236,-0.076318786,-0.3893373,-0.3686668,0.0599148,-3.078572,0.6247448,-0.00011207796,-0.0069576623,0.0043340647,-0.0023896385,0.004531775,-0.008330978,0.0055833245,0.5049443,-1.3814591,1.9041713,-2.0918052,-1.5708536,2.479839,-0.013844266,0.013034503,-0.011839885,0.008285665,5.3056203e-05,-0.019421639,-0.49799395,0.22984336,-9.691729,0.7530795,47.645687,-0.87870616,-2.7330232,-3.3945394,-0.13024813,0.100015976,-0.05841047,28.5625,29.8125,28.875,32.6875,35.125,36.0625
0.024052143,-1.8829705,-0.42016986,-1.8440864,-0.018131828,0.07899519,-0.10167228,-0.38933602,-0.36864966,0.05989351,-3.0785084,0.62477213,-0.00015920325,-0.008621683,0.004580775,-0.0030009388,0.004396992,-0.008100449,0.001928546,0.50493157,-1.3814222,1.9041709,-2.0917819,-1.5708774,2.4798515,-0.015817221,0.015953971,-0.013567374,0.0068265656,5.1536856e-05,-0.017738491,-0.59376204,0.15322891,-9.672575,0.8090337,47.71465,-0.7701875,-2.7762485,-3.3122134,-0.08713147,0.09112505,-0.10380195,28.5625,29.8125,28.875,32.6875,35.125,36.0625
0.026052017,-2.3073263,-1.2109374,-2.0565658,-0.017470391,0.075796194,-0.109947704,-0.38933507,-0.36864075,0.05986098,-3.0784926,0.6247495,-0.0002825913,-0.010050317,0.0048673134,-0.0029532916,0.0042202757,-0.0077411807,-0.00061846833,0.5048951,-1.3813615,1.9041704,-2.0917695,-1.5708417,2.4798028,-0.017621394,0.017540943,-0.015550689,0.0068238196,2.6733644e-05,-0.016994545,-0.80445176,0.15322891,-9.787497,0.80456203,47.69763,-0.791867,-2.767664,-3.3456726,-0.0736073,0.074169554,-0.1039359,28.5625,29.8125,28.875,32.6875,35.125,36.0625
0.028052632,-1.840768,-1.0946643,-2.0960262,-0.03036304,0.09623922,-0.11851905,-0.38937414,-0.3686455,0.059887726,-3.078536,0.62477815,-0.00022292495,-0.0096122185,0.005188485,-0.0034333554,0.005469111,-0.0099489475,-0.001358152,0.5048591,-1.3813611,1.9041089,-2.0917685,-1.5708297,2.4797792,-0.017738571,0.018402847,-0.015946198,0.008894169,6.423173e-06,-0.01637192,-0.80445176,0.05746084,-9.825804,0.7866488,47.70659,-0.8713442,-2.8838277,-3.417149,-0.0973503,0.087074935,-0.12128675,28.5625,29.8125,28.875,32.6875,35.125,36.0625
0.030051779,-2.5218992,-1.3418716,-2.0720346,-0.024871621,0.094783895,-0.1289317,-0.38939327,-0.36862847,0.059884846,-3.0784855,0.62476885,-0.00023088757,-0.010075223,0.0052680136,-0.0032446824,0.0058468,-0.010621387,-0.0022063882,0.50483483,-1.3813249,1.9040617,-2.0917203,-1.5708655,2.4797556,-0.018301986,0.019241344,-0.017763084,0.010643272,4.193873e-07,-0.016086398,-0.7469909,0.11492168,-9.864111,0.7016076,47.66987,-0.910614,-2.7889905,-3.407981,-0.11688915,0.067397915,-0.1387071,28.5625,29.8125,28.875,32.6875,35.125,36.0625
0.03205179,-2.2027571,-0.7341419,-1.8924338,-0.014540827,0.1068891,-0.14149807,-0.38940752,-0.3686193,0.059854392,-3.078446,0.62485635,-0.00029940266,-0.01117282,0.0053538727,-0.0022966852,0.0048784697,-0.008877091,-0.0025952868,0.5047986,-1.381253,1.9040488,-2.0917323,-1.5708536,2.479779,-0.019471796,0.018558102,-0.01912579,0.01069424,2.7382994e-08,-0.016866866,-0.7086837,-0.095768064,-9.921572,0.7083204,47.609863,-0.8715556,-2.6788025,-3.5072756,-0.091951005,0.050530635,-0.16678,28.5625,29.8125,28.875,32.6875,35.125,36.0625
0.034052648,-2.4546194,-0.4010244,-2.0652351,0.012953843,0.0957618,-0.15478034,-0.38942814,-0.36861375,0.059850506,-3.0784352,0.6248352,-0.00035571,-0.012071461,0.005332478,-0.002556511,0.0049554445,-0.009026911,-0.0026599884,0.5047625,-1.3812042,1.9039892,-2.0916846,-1.5708417,2.479731,-0.020276554,0.020464648,-0.020765798,0.010596153,1.7879138e-09,-0.01760594,-0.63206923,-0.038307227,-9.787497,0.7665104,47.67345,-0.9194634,-2.8261287,-3.3852978,-0.08930799,0.041212335,-0.16423196,28.5625,29.8125,28.875,32.6875,35.125,36.0625
0.036052145,-2.473356,-0.6277818,-2.0219846,0.034815744,0.074576594,-0.15747818,-0.3894703,-0.36860332,0.05985338,-3.078451,0.6248953,-0.00036451133,-0.013386662,0.005095675,-0.002250571,0.004327539,-0.0079048015,-0.0018235551,0.5046903,-1.3811678,1.9039396,-2.091685,-1.5708174,2.4796944,-0.021106767,0.02183457,-0.022982439,0.010157268,1.16738e-10,-0.019271417,-0.5746084,0.019153614,-9.787497,0.7351769,47.684196,-0.96637595,-2.7758532,-3.3436265,-0.0842984,0.031179145,-0.17313236,28.5625,29.8125,28.875,32.6875,35.125,36.0625
0.038051836,-1.0649812,-0.3762745,-1.8994871,0.025237707,0.09047584,-0.18331872,-0.3895055,-0.3685848,0.05984146,-3.0784247,0.62492836,-0.000339688,-0.015082178,0.005945517,-0.0016355697,0.0049328585,-0.006057921,-0.0023811497,0.5046417,-1.3811197,1.9039153,-2.0917084,-1.5708421,2.4796698,-0.023229757,0.022007786,-0.024620473,0.010302622,-0.0014271444,-0.02083345,-0.59376204,-0.11492168,-9.749189,0.76874626,47.705692,-0.9074231,-2.7650552,-3.3147388,-0.07171011,0.024133649,-0.18429556,28.5625,29.8125,28.875,32.6875,35.125,36.0625
0.040051892,-1.170751,-1.1607559,-1.9396996,0.028030997,0.07336362,-0.17847332,-0.38951433,-0.36857322,0.059832472,-3.0783725,0.624823,-0.00041495493,-0.016624594,0.0066567957,-0.0010907529,0.0044419244,-0.004753284,-0.0042190584,0.5046288,-1.3810598,1.9038433,-2.091613,-1.570866,2.4795978,-0.02573962,0.021979682,-0.025786009,0.0101170065,-0.0016333115,-0.021504391,-0.38307226,-0.038307227,-9.787497,0.83813137,47.690468,-0.7799698,-2.7425394,-3.4377337,-0.069245934,0.016593436,-0.20292327,28.5625,29.8125,28.875,32.6875,35.125,36.0625
0.042051837,-0.8269036,-0.65958863,-2.0138657,0.0030629563,0.070282765,-0.18278827,-0.38953668,-0.36858925,0.059821483,-3.0784047,0.62481,-0.00047886302,-0.017693982,0.006431273,-0.00066945684,0.0044035967,-0.004090104,-0.0033063528,0.50460476,-1.380987,1.9037822,-2.0916126,-1.5708178,2.4795616,-0.026176726,0.02323838,-0.028407635,0.010882783,-0.0019254092,-0.022852419,-0.36391866,-0.019153614,-9.691729,0.7284641,47.66808,-0.86981046,-2.6905754,-3.397559,-0.058446538,0.038502425,-0.21696666,28.5625,29.8125,28.875,32.6875,35.125,36.0625
0.044051867,-0.6183294,-0.9315445,-2.0450947,-0.009439174,0.06890488,-0.18245703,-0.38960263,-0.36856678,0.059846267,-3.0784013,0.624924,-0.00038447874,-0.018435817,0.0067666317,-0.0005248718,0.004781237,-0.0048891744,-0.0025868518,0.5045205,-1.3809748,1.9037112,-2.091612,-1.5708421,2.479549,-0.027466092,0.02424695,-0.030337442,0.012684868,-0.0018697794,-0.024860745,-0.15322891,-0.019153614,-9.730036,0.7866488,47.734352,-0.85962343,-2.710236,-3.293166,-0.050761666,0.029177092,-0.22716933,28.5625,29.8125,28.875,32.6875,35.125,36.0625
0.046052083,-0.6355097,-0.9836614,-2.1720908,-0.0049205734,0.051036038,-0.16252823,-0.3896472,-0.36854252,0.059845768,-3.0783682,0.624915,-0.0003614004,-0.018883212,0.007145268,-0.00070461986,0.0052993856,-0.0059990566,-0.0014778496,0.5044603,-1.3809265,1.9036497,-2.0915878,-1.5708779,2.4794874,-0.028570572,0.025306104,-0.031475615,0.013984256,-0.0017880715,-0.02707387,-0.17238252,-0.019153614,-9.691729,0.71951014,47.695843,-0.922809,-2.651636,-3.3359709,-0.07252946,0.013200604,-0.21085665,28.5625,29.8125,28.875,32.6875,35.125,36.0625
0.04805208,-1.0203854,-0.89802593,-2.1721148,-0.009091351,0.03463784,-0.1660635,-0.38968056,-0.36850822,0.059835136,-3.0783412,0.6248905,-0.00044806305,-0.019307358,0.007904633,-0.0012228709,0.006062298,-0.0073632416,-0.0011361368,0.5043639,-1.3808781,1.903603,-2.0915272,-1.570866,2.4793792,-0.03023613,0.026380284,-0.031736266,0.014733578,-0.0017990461,-0.029080812,-0.17238252,0.1340753,-9.615114,0.7396539,47.670765,-0.86323917,-2.7014315,-3.415008,-0.06961031,0.010728824,-0.24166852,28.5625,29.8125,28.875,32.6875,35.125,36.0625
0.05005185,-0.4502184,-0.8613661,-2.0078933,-0.018633207,0.036391467,-0.15821977,-0.38972357,-0.36850312,0.059840545,-3.0783489,0.62489146,-0.00043402065,-0.020846019,0.00843806,-0.00077589776,0.005625716,-0.006233892,-0.001140631,0.50431514,-1.3808298,1.903531,-2.0915153,-1.570866,2.47933,-0.032463413,0.026839145,-0.033268712,0.0146076055,-0.0019674022,-0.03130258,-0.038307227,0.19153613,-9.481039,0.7284641,47.690468,-0.78307915,-2.6554067,-3.3851142,-0.08330972,-0.011379709,-0.23206437,28.5625,29.8125,28.875,32.6875,35.125,36.0625
0.052051745,-0.7570229,-1.4649534,-2.0592384,-0.012428445,0.019744538,-0.15983668,-0.38978225,-0.36846542,0.059855454,-3.0783122,0.6249417,-0.00039584108,-0.0220875,0.008234727,-9.80917e-05,0.0049359007,-0.0049588666,-0.000846004,0.5042192,-1.3808055,1.9034575,-2.0914676,-1.5709018,2.4792702,-0.033266265,0.027489379,-0.035642203,0.014879777,-0.0019852554,-0.032398984,-0.019153614,0.24899697,-9.481039,0.7553206,47.66091,-0.77926695,-2.6131787,-3.3056026,-0.08725044,-0.02174881,-0.24848202,28.5625,29.8125,28.875,32.6875,35.125,36.0625
0.054052725,-0.37616697,-1.3483485,-1.9709002,-0.020854456,0.029737223,-0.15426973,-0.38983864,-0.36847728,0.0598773,-3.0783598,0.6249313,-0.00028250625,-0.023574313,0.008645402,0.0003786487,0.0048324587,-0.0038453287,-0.001233948,0.5041945,-1.3807694,1.9033731,-2.0915034,-1.5709146,2.479233,-0.035061892,0.028166912,-0.037583474,0.015119448,-0.0024343506,-0.03380511,0.019153614,0.22984336,-9.519346,0.79560274,47.737934,-0.7321232,-2.6259377,-3.2888408,-0.07185651,-0.049289726,-0.24038231,28.5625,29.8125,28.875,32.6875,35.125,36.0625
0.056051783,-0.3657752,-1.6325924,-1.8626747,-0.024879629,0.03054126,-0.16022404,-0.38989806,-0.36846003,0.059873387,-3.0783246,0.6249815,-0.00032742595,-0.024528485,0.009308792,0.00034292144,0.005872336,-0.0035038828,-0.00083318877,0.5041102,-1.3806729,1.9032544,-2.0914433,-1.5709151,2.4791846,-0.036391135,0.029056551,-0.038640656,0.01549368,-0.0035137942,-0.035532407,-0.019153614,0.2873042,-9.500193,0.73741806,47.66271,-0.6779574,-2.5424013,-3.316049,-0.09161858,-0.057177212,-0.27469814,28.5625,29.8125,28.875,32.6875,35.125,36.0625
0.05805241,0.0010510896,-1.1335205,-1.6024678,-0.04540402,0.05069302,-0.16354372,-0.3899081,-0.36840883,0.059843797,-3.0782566,0.624967,-0.00045519325,-0.024994444,0.009208252,0.00030711456,0.0063197403,-0.003093773,0.00021573967,0.5040146,-1.3806366,1.9032654,-2.0913837,-1.5709151,2.4790885,-0.03628387,0.030037722,-0.03970697,0.015437431,-0.0041109794,-0.036471885,-0.019153614,0.28730422,-9.481039,0.8179876,47.70211,-0.71779704,-2.5233612,-3.351585,-0.10170099,-0.031381425,-0.26395383,28.5625,29.8125,28.875,32.6875,35.125,36.0625
0.060052365,-0.3732963,-1.4674286,-1.6009309,-0.04121843,0.05101378,-0.15972461,-0.38998017,-0.36842486,0.059865966,-3.078311,0.62490016,-0.0004123296,-0.025790496,0.009133242,0.0006879747,0.0061965585,-0.002496632,0.00059338956,0.50396657,-1.3805522,1.9031094,-2.091359,-1.5709027,2.478992,-0.036781423,0.030668,-0.041439146,0.015957695,-0.0042930664,-0.03734617,-0.076614454,0.30645782,-9.442732,0.7709874,47.689575,-0.81780624,-2.5441656,-3.3253443,-0.10254742,-0.04154985,-0.29546362,28.5625,29.8125,28.875,32.6875,35.125,36.0625
0.06205252,-0.73322845,-1.206681,-1.5909098,-0.035953622,0.05351253,-0.15796937,-0.39001516,-0.36840352,0.05987816,-3.078276,0.6249515,-0.00042697994,-0.02740119,0.00949144,0.0010466957,0.0054728747,-0.0016819334,-0.0006516986,0.5039057,-1.380528,1.903037,-2.0912879,-1.5709151,2.4789677,-0.039031006,0.031630546,-0.04337297,0.015864303,-0.004058852,-0.03835009,-0.076614454,0.2681506,-9.442732,0.7866488,47.67166,-0.8009887,-2.4377956,-3.317481,-0.1051539,-0.03145165,-0.31239814,28.5625,29.8125,28.875,32.6875,35.125,36.0625
0.064052686,-0.5471972,-0.97817725,-1.5788383,-0.024012452,0.05568164,-0.1671474,-0.39009264,-0.3683831,0.059892412,-3.0782948,0.62491536,-0.0003188078,-0.028605685,0.009869039,0.0011449355,0.0059662675,-0.0008040604,0.00026729188,0.5038216,-1.3804795,1.9029526,-2.0913117,-1.5709513,2.4788587,-0.04024855,0.0327353,-0.044873524,0.015730398,-0.0049174256,-0.04048439,-0.076614454,0.2681506,-9.404425,0.8224646,47.717335,-0.7843145,-2.4759521,-3.3243537,-0.11027695,-0.03872981,-0.3254485,28.5625,29.8125,28.875,32.6875,35.125,36.0625
0.06605223,-0.7211779,-0.6759328,-1.6048924,-0.01569342,0.058214236,-0.16616608,-0.39014333,-0.36837175,0.059868492,-3.078289,0.62493235,-0.00043924377,-0.029931998,0.010647238,0.0013593471,0.007704355,0.0010971632,0.002238201,0.5037254,-1.380359,1.9028567,-2.0912764,-1.5709037,2.4787738,-0.041262817,0.033395883,-0.046085857,0.015465866,-0.0073650037,-0.043463726,-0.17238252,0.21068975,-9.404425,0.6926589,47.723602,-0.71646595,-2.4874628,-3.2881775,-0.10444548,-0.03361697,-0.31336284,28.5625,29.8125,28.875,32.6875,35.125,36.0625
0.06805265,-0.8902891,-0.39013836,-1.4644665,-0.014657038,0.065889046,-0.15716697,-0.39021143,-0.36834568,0.059876747,-3.0782795,0.6248718,-0.00038783808,-0.031041188,0.011118374,0.0015760412,0.009591135,0.0026314647,0.0027903132,0.5036415,-1.3802986,1.9027609,-2.091252,-1.5709413,2.4786534,-0.041589618,0.03439055,-0.047828797,0.015787281,-0.009761267,-0.04433709,-0.2681506,0.2681506,-9.289502,0.7351769,47.704796,-0.79544795,-2.4904485,-3.3648093,-0.112250306,0.0102303885,-0.30982286,28.5625,29.8125,28.875,32.6875,35.125,36.0625
0.070051715,-1.6467091,-0.2914905,-1.4591982,-0.0062171225,0.055645954,-0.157312,-0.39025995,-0.36834553,0.059888132,-3.0783043,0.6248388,-0.0004131827,-0.032419793,0.011893871,0.0017592205,0.01055894,0.0035300597,0.0014258353,0.50358105,-1.3802383,1.9026526,-2.0912035,-1.5709175,2.4785693,-0.04337403,0.035261195,-0.0493536,0.016126521,-0.0110455,-0.044753727,-0.19153614,0.19153613,-9.308656,0.7866488,47.67614,-0.80664855,-2.5256553,-3.2852583,-0.10796134,0.03529849,-0.35413823,28.5625,29.8125,28.875,32.6875,35.125,36.0625
0.07205183,-1.6200256,-0.6697405,-1.4252433,0.005709818,0.062745534,-0.15677413,-0.3903112,-0.3683081,0.059853002,-3.0782378,0.62488073,-0.0004610584,-0.03320962,0.012129247,0.0017423531,0.011127773,0.0036165433,0.0041080224,0.5034851,-1.3801299,1.9026045,-2.0912035,-1.5709413,2.478508,-0.04416068,0.03641817,-0.050796736,0.016610427,-0.011592431,-0.048220057,-0.21068975,0.1340753,-9.251195,0.82694155,47.667187,-0.8278897,-2.4722586,-3.3167343,-0.12363249,0.03476423,-0.32989454,28.5625,29.8125,28.875,32.6875,35.125,36.0625
0.07405181,-1.4859247,-0.30917102,-1.4207039,-0.0049195974,0.06282553,-0.15841366,-0.39039955,-0.36829376,0.05990293,-3.078257,0.6248826,-0.00033913893,-0.033348065,0.011798258,0.001887847,0.009968718,0.0024234084,0.007055492,0.5034009,-1.3801057,1.9024485,-2.0911434,-1.5709771,2.4784226,-0.044717636,0.036968008,-0.052044593,0.017784923,-0.010000101,-0.051728014,-0.34476504,-0.019153614,-9.308657,0.78217715,47.69763,-0.8905229,-2.4156926,-3.2798586,-0.12603481,0.02514802,-0.34796244,28.5625,29.8125,28.875,32.6875,35.125,36.0625
0.07605186,-1.1983742,-0.3227304,-1.3818772,-0.007191292,0.059539437,-0.15889972,-0.39048725,-0.36828998,0.059920687,-3.0782971,0.624889,-0.00029719633,-0.034283012,0.011815296,0.0015337184,0.008069788,0.00037906572,0.008613355,0.5033044,-1.3800209,1.902305,-2.0911314,-1.5709637,2.4783251,-0.04725988,0.038928613,-0.053684592,0.018328188,-0.0073526944,-0.055832822,-0.34476504,0.019153614,-9.346964,0.7396539,47.716442,-0.7890013,-2.4034765,-3.3582678,-0.12735799,-0.00092648633,-0.28561404,28.5625,29.8125,28.875,32.6875,35.125,36.0625
0.07805259,-1.6164871,-0.5263054,-1.5629625,-0.0018974562,0.04960796,-0.16078833,-0.39053348,-0.3682585,0.059907142,-3.0782635,0.6248256,-0.0003829177,-0.035899088,0.011140652,0.002251964,0.0059958715,0.0010256963,0.007356012,0.5032081,-1.3799363,1.9022197,-2.0910594,-1.5709633,2.4781935,-0.0485574,0.040518146,-0.057307187,0.018788481,-0.0058588358,-0.055873822,-0.4213795,0.0,-9.232041,0.7620334,47.66987,-0.6855928,-2.534346,-3.118342,-0.14962119,-0.03132531,-0.31249315,28.5625,29.8125,28.875,32.6875,35.125,36.0625
0.080052406,-1.0600368,-0.31582046,-1.4152994,0.0012212204,0.066283405,-0.15917163,-0.39059618,-0.3682391,0.059907947,-3.078288,0.6247299,-0.00034408589,-0.034211382,0.011145949,0.00072833133,0.0070187976,-0.0020161949,0.012728639,0.5031247,-1.379876,1.9021491,-2.0910714,-1.5709757,2.4780474,-0.047345776,0.041388888,-0.05482783,0.018592121,-0.005284464,-0.060036954,-0.4213795,0.05746084,-9.308657,0.779936,47.70211,-0.90626353,-2.4292607,-3.3016565,-0.14937244,-0.047291517,-0.2782703,28.5625,29.8125,28.875,32.6875,35.125,36.0625
0.08205203,-1.2693106,-0.35511863,-1.5580378,0.0023302278,0.07367433,-0.15230678,-0.3906814,-0.36821258,0.059921697,-3.0782592,0.62478024,-0.000319196,-0.03616824,0.0121713905,0.00087577844,0.0076886634,-0.0013203552,0.014610924,0.5030159,-1.3797914,1.9020041,-2.0910113,-1.571,2.4779737,-0.05030495,0.042819485,-0.056950007,0.018996904,-0.0062135574,-0.06487552,-0.40222588,-0.019153614,-9.308656,0.7866488,47.66987,-0.83711636,-2.510746,-3.3231745,-0.15596183,-0.053350527,-0.2437756,28.5625,29.8125,28.875,32.6875,35.125,36.0625
0.08405205,-1.6904202,-0.31504562,-1.4115152,0.011580548,0.06947437,-0.14882322,-0.39074713,-0.36818743,0.05991781,-3.0782456,0.62468076,-0.0003523265,-0.038051058,0.0124445725,0.0013831126,0.008341565,-0.00015510726,0.016531229,0.50291973,-1.3796947,1.9018849,-2.0909512,-1.5710119,2.4778173,-0.05179738,0.044628054,-0.0604771,0.020010922,-0.007357398,-0.068284094,-0.40222588,-0.1340753,-9.32781,0.8023209,47.729877,-0.7986241,-2.4939384,-3.2474775,-0.15172105,-0.04646704,-0.20674345,28.5625,29.8125,28.875,32.6875,35.125,36.0625
0.08605197,-1.3563071,-0.47926873,-1.3673426,0.022069778,0.077314824,-0.15085407,-0.39081696,-0.36815688,0.059916608,-3.0782285,0.624637,-0.0003697353,-0.03944945,0.013364734,0.0014299456,0.008961649,-0.0006093653,0.01703395,0.502811,-1.3796102,1.9017767,-2.0909026,-1.5710243,2.4776835,-0.05443324,0.04589929,-0.062394794,0.021352787,-0.007686869,-0.07142098,-0.36391866,0.0,-9.32781,0.80456203,47.69763,-0.6933309,-2.5366497,-3.18287,-0.20715302,-0.048357874,-0.15676013,28.5625,29.8125,28.875,32.6875,35.125,36.0625
0.08805241,-1.8092024,-0.37473586,-1.538204,0.012308002,0.066469006,-0.14591816,-0.3908879,-0.3681145,0.059881393,-3.078166,0.6245251,-0.00040691847,-0.03804329,0.013461471,0.00061899045,0.011228167,-0.0018615156,0.021718575,0.50270396,-1.3794659,1.9016808,-2.0908787,-1.5710729,2.4775147,-0.052415453,0.045996476,-0.060776927,0.021826794,-0.009072496,-0.07408502,-0.47884035,0.11492168,-9.289502,0.76874626,47.70032,-0.8660486,-2.4886556,-3.3496542,-0.20677236,-0.028862659,-0.12978402,28.5625,29.8125,28.875,32.6875,35.125,36.0625
0.09005233,-1.5382857,-0.6939159,-1.6246899,0.0023816118,0.077148244,-0.15398887,-0.39097047,-0.36811146,0.05990716,-3.0782206,0.6244594,-0.00038942986,-0.04025972,0.014090173,0.00077608705,0.0126204435,-0.00021981099,0.021831123,0.5026074,-1.379393,1.9015249,-2.0908306,-1.5710496,2.4773703,-0.054268025,0.048362788,-0.06394665,0.021869801,-0.0110895755,-0.07604458,-0.36391866,0.15322891,-9.32781,0.8247004,47.660015,-0.87714887,-2.4722528,-3.3117943,-0.22031759,-0.02813761,-0.099438354,28.5625,29.8125,28.875,32.6875,35.125,36.0625
0.09205217,-1.45368,-0.64902604,-1.6802585,-0.017271927,0.0809883,-0.15400164,-0.39107612,-0.36808762,0.059926853,-3.0782306,0.62442315,-0.00026858484,-0.041568335,0.01481788,0.00092706014,0.013387231,0.00060860085,0.02045917,0.50249904,-1.3793087,1.9013804,-2.0908306,-1.5710977,2.4772382,-0.056029707,0.04918289,-0.065304354,0.02204964,-0.012159403,-0.076432146,-0.38307226,0.22984336,-9.289503,0.779936,47.687782,-0.84425336,-2.5097625,-3.2845924,-0.22062722,-0.0015355046,-0.06667019,28.5625,29.8125,28.875,32.6875,35.125,36.0625
0.094052136,-1.5193014,-1.273105,-1.6650383,-0.0090729715,0.07465499,-0.14112443,-0.3911404,-0.368042,0.059896987,-3.078178,0.624373,-0.00041104248,-0.041908413,0.015387529,0.0009905194,0.014739989,0.0006442288,0.019876376,0.5023553,-1.3791764,1.9012727,-2.0907462,-1.5710863,2.4770699,-0.056539938,0.04937186,-0.06591437,0.023094427,-0.0133702215,-0.07635551,-0.36391866,0.22984336,-9.385271,0.78217715,47.7254,-0.8200854,-2.4130735,-3.3053622,-0.24571446,0.00086314464,-0.057913534,28.5625,29.8125,28.875,32.6875,35.125,36.0625
0.09605236,-1.1189317,-1.2228309,-1.5112491,-0.0153903635,0.082775556,-0.15309964,-0.39123118,-0.36800748,0.059918392,-3.0781808,0.62429625,-0.00034775864,-0.042247906,0.015469035,-0.00011083525,0.015322387,-0.0023792158,0.01837194,0.5022351,-1.3791152,1.9011406,-2.090698,-1.571122,2.4769015,-0.05757217,0.05269256,-0.067642376,0.02442459,-0.012424647,-0.07588453,-0.4405331,0.24899697,-9.3661175,0.75084364,47.688675,-0.8554455,-2.5967965,-3.357599,-0.2489105,0.021181382,-0.05686855,28.5625,29.8125,28.875,32.6875,35.125,36.0625
0.09805199,-0.7017093,-1.3920451,-1.7275636,-0.01416925,0.08258668,-0.15075028,-0.39133492,-0.36795464,0.059908282,-3.078099,0.62431914,-0.0003737252,-0.042857982,0.015163484,0.0004660881,0.014095311,-0.0020204757,0.016381133,0.5020792,-1.3789712,1.9009742,-2.090614,-1.5711693,2.4767704,-0.058169425,0.052761853,-0.06916668,0.024966488,-0.01152885,-0.07449161,-0.36391866,0.22984336,-9.385271,0.75755644,47.72719,-0.8226812,-2.494775,-3.3382266,-0.2849264,0.007093502,-0.071464926,28.5625,29.8125,28.875,32.6875,35.125,36.0625
0.1000518,-0.6305761,-0.7802798,-1.7413629,-0.027075598,0.06864472,-0.15078732,-0.39140755,-0.3679468,0.059923984,-3.078164,0.62421733,-0.00035298485,-0.0438971,0.014684161,0.0013732773,0.01190305,-8.149433e-05,0.013996699,0.50198334,-1.3789113,1.900865,-2.090603,-1.5711449,2.4766028,-0.058931824,0.05229682,-0.07045768,0.02396574,-0.010542048,-0.07287159,-0.2681506,0.24899697,-9.385271,0.83813137,47.690468,-0.90681505,-2.4016995,-3.3736525,-0.28505874,0.011671228,-0.096007355,28.5625,29.8125,28.875,32.6875,35.125,36.0625
0.10205168,-0.15590988,-1.0421574,-1.5558141,-0.030548105,0.06454986,-0.15435117,-0.39150432,-0.36791712,0.059908,-3.0781236,0.624172,-0.00041394655,-0.044626735,0.015029245,0.00083327765,0.012583982,-0.0008283214,0.011060134,0.5018512,-1.3787425,1.9006852,-2.090531,-1.5711573,2.4764476,-0.060025122,0.054243844,-0.07157678,0.024119595,-0.0107857045,-0.071026415,-0.22984336,0.2681506,-9.385271,0.75755644,47.70211,-0.9604206,-2.4426906,-3.364133,-0.29533216,-0.008178166,-0.107071124,28.5625,29.8125,28.875,32.6875,35.125,36.0625
0.104052685,-0.097567394,-0.8227063,-1.5923345,-0.035801336,0.056480676,-0.15406355,-0.39158332,-0.3678857,0.059912253,-3.078093,0.6241283,-0.00036796817,-0.045220625,0.015547269,-0.00017448762,0.015272368,-0.0022422385,0.009373831,0.50175524,-1.3786572,1.9005665,-2.0904949,-1.571206,2.4763284,-0.060393814,0.057437103,-0.0733109,0.025195476,-0.012463818,-0.06970398,-0.17238252,0.24899697,-9.32781,0.85155696,47.703903,-0.9990032,-2.6098304,-3.395566,-0.30396354,0.0018765426,-0.15434133,28.5625,29.8125,28.875,32.6875,35.125,36.0625
0.10605186,-0.24983817,-1.1538,-1.7518734,-0.026992753,0.047781248,-0.14181261,-0.39169097,-0.36785328,0.059907697,-3.0780628,0.6241034,-0.00034630904,-0.046342175,0.015834596,0.000488803,0.014222409,-0.0009543975,0.0066664703,0.501623,-1.3785132,1.9003981,-2.0904586,-1.5712417,2.4761846,-0.06208724,0.057012945,-0.07426702,0.024937058,-0.012166453,-0.06869023,-0.076614454,0.24899697,-9.3661175,0.7351769,47.65643,-1.021543,-2.5717647,-3.3620622,-0.32130122,0.014577473,-0.18735084,28.5625,29.8125,28.875,32.6875,35.125,36.0625
0.10805243,0.021900477,-1.2880346,-1.7466648,-0.024260392,0.0408249,-0.1460242,-0.39176917,-0.36783835,0.059888843,-3.078055,0.6240829,-0.0004558004,-0.047716882,0.015609866,0.0015618094,0.0128207365,0.0010288768,0.0047747525,0.50150293,-1.3783573,1.9002427,-2.0903986,-1.571206,2.4760528,-0.06313712,0.056826014,-0.07649724,0.02494178,-0.011900097,-0.067847416,0.076614454,0.19153613,-9.442732,0.78888994,47.683304,-0.97369754,-2.4495351,-3.382132,-0.32232448,0.018173613,-0.21686128,28.5625,29.8125,28.875,32.6875,35.125,36.0625
0.11005242,-0.042342,-1.1631422,-1.7333891,-0.032282617,0.025501678,-0.14750235,-0.39188555,-0.36777735,0.05991561,-3.0779872,0.6241249,-0.00030475206,-0.04835858,0.015288937,0.0006451594,0.0120439455,-0.00019955369,0.0056697065,0.5013589,-1.3782961,1.9000987,-2.0903513,-1.5713128,2.4759438,-0.06396722,0.059684165,-0.07754569,0.023821345,-0.010633039,-0.06957476,0.038307227,0.19153613,-9.404425,0.8403672,47.672558,-0.97432244,-2.4744437,-3.344842,-0.32838354,0.02510957,-0.2295334,28.5625,29.8125,28.875,32.6875,35.125,36.0625
0.112052314,0.6222885,-1.0264353,-1.7063253,-0.04108461,0.035364397,-0.15481323,-0.391968,-0.36777362,0.059906293,-3.078032,0.62398016,-0.00042354668,-0.04998304,0.015089917,0.001390756,0.010831665,0.0011763648,0.004245256,0.5012387,-1.3781397,1.8999184,-2.0902798,-1.5712527,2.4757276,-0.06536819,0.06060676,-0.08037047,0.02393586,-0.0102409525,-0.06955042,0.05746084,0.24899697,-9.3661175,0.8179876,47.694946,-1.0156437,-2.5574608,-3.3514585,-0.3278027,0.0063856896,-0.26169533,28.5625,29.8125,28.875,32.6875,35.125,36.0625
0.11405267,0.35402215,-0.8127238,-1.7294557,-0.033596635,0.028787652,-0.14953332,-0.39207324,-0.3677282,0.05990241,-3.0780032,0.62397486,-0.00036161608,-0.050875872,0.015147138,0.0015802138,0.010604697,0.0015107427,0.0027660762,0.5010947,-1.3780313,1.8997988,-2.0902798,-1.5713009,2.475584,-0.06629833,0.06150913,-0.08193407,0.024190204,-0.0102047045,-0.06900084,0.095768064,0.24899697,-9.423578,0.784413,47.66808,-1.0109928,-2.4450016,-3.2262483,-0.3034736,-0.0010939882,-0.31273177,28.5625,29.8125,28.875,32.6875,35.125,36.0625
0.11605263,0.48025903,-0.07960301,-1.8733872,-0.033038,0.041588355,-0.15659896,-0.3921467,-0.36769983,0.05988318,-3.0779443,0.6239809,-0.0004371353,-0.0512546,0.015611762,0.0014730507,0.010964921,0.0010194906,0.0041908086,0.5009866,-1.377887,1.8996552,-2.0902073,-1.5713133,2.4754872,-0.06736411,0.061921176,-0.08231545,0.024760298,-0.010291872,-0.071490265,0.038307227,0.22984336,-9.404425,0.7620334,47.64479,-1.0613286,-2.443814,-3.38137,-0.32736182,0.0102951005,-0.3616673,28.5625,29.8125,28.875,32.6875,35.125,36.0625
0.11805228,-0.2973067,-0.4712224,-1.6611362,-0.02249713,0.046302628,-0.15544067,-0.39227477,-0.3676805,0.059904497,-3.0779622,0.62396526,-0.00038254188,-0.05349687,0.0144400215,0.0019750046,0.009708561,0.0023506847,0.0026551122,0.50084275,-1.3777536,1.8994378,-2.0901592,-1.5713252,2.4753315,-0.06773385,0.06563419,-0.08788324,0.024840888,-0.00983804,-0.07032292,0.019153614,0.21068975,-9.442732,0.80679786,47.694946,-1.0554266,-2.590657,-3.141381,-0.33695295,-0.022456171,-0.36100018,28.5625,29.8125,28.875,32.6875,35.125,36.0625
0.120052144,-0.5768539,-0.65030456,-1.8601595,-0.022531722,0.06409512,-0.14942655,-0.39238235,-0.3676453,0.059903692,-3.077967,0.62388855,-0.00034511904,-0.053174,0.015135803,0.0018860667,0.009804291,0.0018020556,0.0013845654,0.50069875,-1.3776339,1.8992952,-2.0901477,-1.571349,2.4751391,-0.0686999,0.064447805,-0.086313926,0.024981676,-0.0096542165,-0.07001981,-0.19153613,0.22984336,-9.423578,0.78888994,47.672558,-1.1373522,-2.4855864,-3.272716,-0.34823197,-0.009416027,-0.44707587,28.5625,29.8125,28.875,32.6875,35.125,36.0625
0.122052126,-1.3946245,-1.201084,-1.8570062,-0.019196117,0.07026582,-0.13862418,-0.39245647,-0.36761767,0.05990923,-3.077913,0.6239145,-0.00040657684,-0.054208364,0.014912602,0.0025456264,0.008717191,0.002365064,0.003202696,0.50059074,-1.3775256,1.8991269,-2.090027,-1.5713605,2.4750543,-0.06968801,0.064953215,-0.088589415,0.02572994,-0.008981025,-0.07282616,-0.17238252,0.21068975,-9.5385,0.85826975,47.668976,-1.1543374,-2.3780682,-3.3427968,-0.3427666,-0.018030172,-0.47024477,28.5625,29.8125,28.875,32.6875,35.125,36.0625
0.124052145,-1.0775291,-1.2015082,-1.8523556,-0.029567493,0.08984036,-0.14494441,-0.39260265,-0.36760092,0.059923586,-3.0779374,0.6238984,-0.0003403595,-0.05479276,0.015216274,0.0007710497,0.0103016,-0.0009669936,0.005803518,0.5004347,-1.3773557,1.8988875,-2.0900033,-1.5713724,2.4748852,-0.070845105,0.06973803,-0.09038977,0.026423672,-0.008774896,-0.07658358,-0.1340753,0.19153614,-9.576807,0.8627467,47.716442,-1.2889894,-2.653172,-3.2783022,-0.35061514,-0.041047342,-0.46867296,28.5625,29.8125,28.875,32.6875,35.125,36.0625
0.12605214,-0.95630944,-0.76499885,-1.8045967,-0.045719024,0.0957831,-0.15802883,-0.39270473,-0.36756924,0.05992698,-3.0779128,0.62385166,-0.00034412823,-0.056046024,0.016236879,0.0020063848,0.009942293,0.0018596555,0.009167367,0.5003021,-1.3772246,1.8987082,-2.0899317,-1.5713967,2.4747267,-0.07304742,0.06736498,-0.090313815,0.0260652,-0.009823629,-0.08214748,-0.34476504,0.15322891,-9.557653,0.7933669,47.71286,-1.0759374,-2.481817,-3.293003,-0.35552755,-0.01809565,-0.45865223,28.5625,29.8125,28.875,32.6875,35.125,36.0625
0.12805259,-1.723515,-1.664101,-1.9901756,-0.01922191,0.077344604,-0.14161752,-0.3927943,-0.3675304,0.05990244,-3.0778952,0.6237473,-0.0004437532,-0.0567721,0.01540081,0.0021336142,0.009806355,0.0034958315,0.01666855,0.50014675,-1.3770678,1.8985647,-2.0898721,-1.5713853,2.4745085,-0.07187014,0.068926364,-0.092197,0.024883704,-0.010508307,-0.088467926,-0.30645782,0.22984336,-9.5385,0.7933669,47.694946,-1.315085,-2.4401693,-3.2490737,-0.35403213,-0.018613242,-0.4087789,28.5625,29.8125,28.875,32.6875,35.125,36.0625
0.13005266,-1.2895315,-0.71838236,-1.9425118,-0.033311553,0.090839826,-0.14926799,-0.39291263,-0.36751968,0.059926018,-3.0779405,0.62363935,-0.00037425384,-0.05835642,0.015848977,0.0021487598,0.009158948,0.004111133,0.018743588,0.5000264,-1.3769473,1.8983601,-2.0898368,-1.5713967,2.4743152,-0.07423374,0.07027452,-0.09367218,0.024154073,-0.01023995,-0.092906855,-0.24899697,0.22984336,-9.519346,0.8806493,47.666286,-1.2890505,-2.4346385,-3.2793655,-0.3456878,-0.030445121,-0.3852223,28.5625,29.8125,28.875,32.6875,35.125,36.0625
0.13205262,-0.709809,-0.5962596,-1.7365111,-0.022463407,0.10541881,-0.1534807,-0.39302364,-0.36747852,0.059911318,-3.0779111,0.6235319,-0.000408124,-0.061002698,0.015707351,0.0037312754,0.0075791394,0.007875761,0.02638283,0.49987,-1.3767788,1.8981804,-2.0897768,-1.5714215,2.4740956,-0.07614414,0.07058001,-0.09752878,0.023634855,-0.010681162,-0.10245333,-0.4405331,0.1340753,-9.5385,0.80456203,47.666286,-1.1584079,-2.355431,-3.3433945,-0.31157216,-0.040214896,-0.29726267,28.5625,29.8125,28.875,32.6875,35.125,36.0625
0.13405256,-1.3142354,-0.32707995,-1.8405463,-0.01647899,0.090375945,-0.15170304,-0.3931628,-0.36743784,0.059927717,-3.0778985,0.6235267,-0.00031967982,-0.059773102,0.016131444,0.0018945481,0.00920666,0.0044224905,0.030044459,0.49970242,-1.3766463,1.8979777,-2.089741,-1.5714687,2.4739265,-0.07584062,0.07238443,-0.095487006,0.023589574,-0.010449626,-0.10581291,-0.38307226,0.05746084,-9.481039,0.8403672,47.701214,-1.3653945,-2.4275732,-3.3278828,-0.3044303,-0.042189628,-0.2664032,28.5625,29.8125,28.875,32.6875,35.125,36.0625
0.13605261,-1.2298967,-0.27467382,-1.7863638,-0.009704263,0.10024289,-0.14885534,-0.39327645,-0.36741874,0.05992122,-3.0779345,0.62335813,-0.00034543403,-0.062178515,0.016185107,0.003437025,0.00795402,0.0077968594,0.032313317,0.49955818,-1.3764782,1.8977851,-2.0897052,-1.5714573,2.4736726,-0.07779817,0.072359025,-0.098963805,0.023528246,-0.010979411,-0.110036574,-0.40222588,0.038307227,-9.500193,0.8157518,47.70032,-1.2545288,-2.2926543,-3.3321934,-0.3098029,-0.04064758,-0.20462883,28.5625,29.8125,28.875,32.6875,35.125,36.0625
0.13805187,-1.1611633,-0.22592926,-1.638083,-0.0042706192,0.09360262,-0.15355489,-0.3934127,-0.3673898,0.059942815,-3.0779428,0.6232828,-0.00024180618,-0.0632552,0.017250236,0.0029417733,0.008693498,0.007254755,0.032458406,0.4994137,-1.3763455,1.8975705,-2.0896695,-1.5715054,2.4734802,-0.0803154,0.07367011,-0.09938425,0.023460126,-0.01136683,-0.11269813,-0.4213795,-0.05746084,-9.442732,0.78888994,47.704796,-1.2737327,-2.3456678,-3.2798972,-0.29436576,-0.030410279,-0.14751226,28.5625,29.8125,28.875,32.6875,35.125,36.0625
0.1400519,-0.61838037,-0.177346,-1.8466438,-0.0043973527,0.101991974,-0.14752616,-0.39354208,-0.36733773,0.05993338,-3.0779135,0.6232188,-0.00026230267,-0.06488053,0.016830342,0.0040038098,0.0066892477,0.0093356995,0.030898238,0.49922162,-1.3761773,1.8973788,-2.0896094,-1.5715293,2.473252,-0.081549406,0.07391596,-0.10201099,0.02304723,-0.010613518,-0.11237226,-0.4213795,-0.038307227,-9.461885,0.83589023,47.67614,-1.3274655,-2.3511071,-3.295482,-0.26274946,-0.051366035,-0.1519605,28.5625,29.8125,28.875,32.6875,35.125,36.0625
0.14205186,-0.7543594,0.13392793,-1.6254576,-0.018586427,0.095504865,-0.15582755,-0.3936756,-0.36731502,0.059945412,-3.0779672,0.6231175,-0.00023197591,-0.06607636,0.018056875,0.0034006063,0.007865869,0.008510946,0.025479097,0.49905288,-1.3760325,1.8971742,-2.0895855,-1.5715173,2.4730134,-0.08429186,0.07562356,-0.1027457,0.023365764,-0.01124556,-0.10969395,-0.47884035,0.019153614,-9.404425,0.86945957,47.661808,-1.1364219,-2.2425115,-3.2920732,-0.25143754,-0.057621613,-0.16620098,28.5625,29.8125,28.875,32.6875,35.125,36.0625
0.14405183,-0.50229,0.25737888,-1.7345138,-0.019817794,0.10041455,-0.1569716,-0.39378047,-0.36729005,0.05992629,-3.077949,0.6230386,-0.00026648553,-0.06616545,0.017289331,0.0037788441,0.007584941,0.0087580895,0.02219741,0.4989216,-1.3758521,1.8969954,-2.0895488,-1.5715293,2.4728353,-0.08314094,0.076255456,-0.104556486,0.024193691,-0.011118809,-0.105260506,-0.61291564,-0.038307227,-9.481039,0.9567419,47.721813,-1.358626,-2.2776024,-3.3178813,-0.23452416,-0.043681517,-0.20405433,28.5625,29.8125,28.875,32.6875,35.125,36.0625
0.14605208,-0.8309984,-0.28709134,-1.6643572,-0.006758508,0.1029648,-0.15120247,-0.39393634,-0.36723962,0.059942584,-3.0779433,0.62296474,-0.00021730716,-0.06842407,0.01989599,0.0029902167,0.008242019,0.006970552,0.011653646,0.49871576,-1.3756953,1.896756,-2.0894773,-1.5715655,2.4725842,-0.08974447,0.07801513,-0.10498526,0.024743222,-0.010834968,-0.1013207,-0.47884035,0.05746084,-9.3661175,0.82022345,47.66808,-1.1529421,-2.27837,-3.3870955,-0.21684659,-0.049682,-0.27637812,28.5625,29.8125,28.875,32.6875,35.125,36.0625
0.14805257,-0.28998724,0.2649606,-1.6790174,-0.014333178,0.11384952,-0.15692975,-0.39410472,-0.36721107,0.059978675,-3.0779781,0.62302774,-0.00013132578,-0.068724565,0.01945757,0.0032128354,0.008646063,0.0075102695,0.011644368,0.4985127,-1.375551,1.8964919,-2.0894296,-1.5715655,2.4724162,-0.08886999,0.078871384,-0.10663223,0.025253976,-0.0114418045,-0.1004356,-0.40222588,-0.038307227,-9.385271,0.84708,47.645687,-1.184593,-2.2390463,-3.3447824,-0.21646601,-0.044406608,-0.2845227,28.5625,29.8125,28.875,32.6875,35.125,36.0625
0.15005247,-1.2008351,-0.19220693,-1.5259256,-0.0110553345,0.097709246,-0.15399066,-0.39422402,-0.36716995,0.05997413,-3.077965,0.62294817,-9.86456e-05,-0.070158124,0.020346344,0.0026613371,0.008913652,0.006163541,0.009902197,0.49835595,-1.375406,1.8963245,-2.0894048,-1.5716013,2.4722116,-0.09190888,0.08123974,-0.10834658,0.025902834,-0.011036287,-0.10173226,-0.5554548,0.05746084,-9.404425,0.82694155,47.683304,-1.1297833,-2.353423,-3.3608773,-0.19099143,-0.07543762,-0.3261337,28.5625,29.8125,28.875,32.6875,35.0625,36.0625
0.15205242,-1.0144845,-0.25599945,-1.4225364,-0.01747696,0.1154178,-0.15791275,-0.39436224,-0.3671274,0.05998503,-3.077947,0.62284815,-5.166376e-05,-0.07166513,0.02115979,0.0029935772,0.00921456,0.0069666347,0.008591278,0.49818748,-1.3752497,1.896098,-2.0893333,-1.5716499,2.4719832,-0.0942262,0.0818658,-0.109948374,0.026311582,-0.011687677,-0.10273648,-0.6512228,0.095768064,-9.289503,0.85155696,47.668976,-1.0202376,-2.236871,-3.2934277,-0.19434285,-0.052776955,-0.33750272,28.5625,29.8125,28.875,32.6875,35.0625,36.0625
0.15405262,-1.422635,-0.3647004,-1.5768775,-0.0051531596,0.10511437,-0.14495124,-0.39450544,-0.36707005,0.05997535,-3.0778942,0.6229147,-0.00012465684,-0.07240789,0.021873182,0.0027700553,0.009765969,0.0065014423,0.0062499116,0.4979594,-1.375057,1.8958696,-2.0892375,-1.5716499,2.4718034,-0.095906116,0.082735956,-0.11058691,0.02675107,-0.0119555,-0.10207339,-0.5554548,0.05746084,-9.346964,0.8717007,47.686886,-1.0183326,-2.342942,-3.4290042,-0.17512496,-0.07355898,-0.35195744,28.5625,29.8125,28.875,32.6875,35.0625,36.0625
0.15605243,-1.416891,-0.6100744,-1.5957915,-0.008948508,0.10138851,-0.15405463,-0.39466736,-0.36702374,0.05999591,-3.077921,0.62288076,-3.567071e-06,-0.075131655,0.022183163,0.0033693437,0.008544334,0.0078112413,0.0054781716,0.4977547,-1.3749242,1.895665,-2.0892375,-1.5716852,2.4715743,-0.09916786,0.084910385,-0.1145527,0.026798263,-0.011510521,-0.104563385,-0.36391866,0.13407528,-9.385271,0.7665104,47.651955,-0.9321049,-2.2434134,-3.2925222,-0.15722688,-0.06618712,-0.37904605,28.5625,29.8125,28.875,32.6875,35.0625,36.0625
0.15805198,-1.3240821,-0.51073873,-1.6209147,-0.01513675,0.084831096,-0.14669067,-0.3948247,-0.36698356,0.06000579,-3.0779212,0.6228614,1.9923164e-05,-0.07470485,0.023549363,0.0026356806,0.009814269,0.0061852466,0.003349698,0.49755067,-1.3747442,1.8954152,-2.089177,-1.5716981,2.4713583,-0.100825384,0.084318295,-0.112271585,0.027142294,-0.011842728,-0.104092844,-0.5363012,0.038307227,-9.251195,0.87617236,47.70211,-0.8780843,-2.3902593,-3.5211868,-0.13485602,-0.095504016,-0.4241406,28.5625,29.8125,28.875,32.6875,35.0625,36.0625
0.1600522,-0.844117,-0.06597558,-1.3899873,-0.017704116,0.08875529,-0.15004624,-0.3949741,-0.3669449,0.059999242,-3.0779035,0.62285334,6.9202186e-05,-0.07704091,0.023216603,0.004509719,0.0081018405,0.0089837955,0.009010851,0.49737042,-1.374552,1.8951992,-2.089165,-1.5717334,2.4711754,-0.10247182,0.08441712,-0.11696045,0.02844204,-0.011684673,-0.11139923,-0.40222588,0.05746084,-9.232041,0.83365434,47.67614,-0.8136825,-2.1723313,-3.3227425,-0.116538316,-0.08163308,-0.3499413,28.5625,29.8125,28.875,32.6875,35.0625,36.0625
0.16205245,-0.7914045,0.22562101,-1.325965,-0.016602414,0.085587196,-0.14952794,-0.3951376,-0.36687788,0.060007215,-3.0778635,0.6228614,8.7234286e-05,-0.076122634,0.02441187,0.0009609918,0.012125122,0.0018555677,0.012905216,0.49713057,-1.3743819,1.8949598,-2.0890806,-1.5717701,2.4709458,-0.10351537,0.09026753,-0.11620642,0.03001019,-0.011820904,-0.11633621,-0.38307226,0.05746084,-9.174581,0.84708,47.67614,-0.7831228,-2.3439827,-3.4987903,-0.10832651,-0.07763198,-0.35758278,28.5625,29.8125,28.875,32.6875,35.0625,36.0625
0.16405241,-1.0720484,-0.24229096,-1.3611034,0.0022576659,0.079101995,-0.14492154,-0.3952736,-0.36683542,0.059998374,-3.0778854,0.62272656,4.54259e-05,-0.07803518,0.0245103,0.0030298042,0.01121487,0.0055790865,0.019546727,0.49692675,-1.3742024,1.8947557,-2.0890324,-1.5717577,2.4706552,-0.10478239,0.08874664,-0.11932959,0.030941611,-0.012810735,-0.12424131,-0.38307226,0.095768064,-9.251195,0.85826975,47.703903,-0.81676185,-2.2313104,-3.3630366,-0.11012792,-0.07649417,-0.28206542,28.5625,29.8125,28.875,32.6875,35.0625,36.0625
0.1660524,-0.73505753,-0.35831365,-1.3309039,0.003460314,0.09174373,-0.15267079,-0.39542362,-0.36680108,0.060011398,-3.077886,0.6226249,6.825911e-05,-0.0787447,0.024423368,0.0024358018,0.012227872,0.004291318,0.027510932,0.49674696,-1.3740209,1.8944916,-2.0889485,-1.5717825,2.470412,-0.1050724,0.091771856,-0.12183123,0.03201984,-0.013097697,-0.13249353,-0.22984336,0.15322891,-9.193734,0.7553206,47.64121,-0.82184494,-2.277055,-3.2951317,-0.09028657,-0.075583056,-0.18676555,28.5625,29.8125,28.875,32.6875,35.0625,36.0625
0.16805239,-0.5913156,0.070503674,-1.3284923,-0.00817264,0.08817724,-0.14831741,-0.39562625,-0.36674285,0.060039345,-3.077892,0.6225467,0.00022220999,-0.07863143,0.024378257,0.0021384794,0.012568421,0.0029762455,0.030356847,0.49650759,-1.3738406,1.8942055,-2.0889118,-1.5718535,2.4701233,-0.105051,0.09276035,-0.122585334,0.03308709,-0.012763319,-0.13531938,-0.22984336,0.17238252,-9.232041,0.84484416,47.675243,-0.91918683,-2.266472,-3.3845968,-0.075695425,-0.09337182,-0.13163434,28.5625,29.8125,28.875,32.6875,35.0625,36.0625
0.17005214,-1.149114,-0.7186404,-1.674834,-0.0073339646,0.062274314,-0.148114,-0.39574856,-0.36670977,0.060018618,-3.077874,0.62240565,0.00013507824,-0.08043663,0.023247667,0.0041974774,0.010515644,0.006029078,0.032409966,0.49633998,-1.3736244,1.8939766,-2.0888274,-1.5718535,2.46987,-0.10497741,0.09272175,-0.12754138,0.034414187,-0.012431695,-0.13729699,-0.24899697,0.19153613,-9.289502,0.8537928,47.683304,-0.96028125,-2.1801288,-3.1266835,-0.0638745,-0.0852584,-0.067568235,28.5625,29.8125,28.875,32.6875,35.0625,36.0625
0.17205209,-0.43509725,-1.0744103,-1.5699188,-0.025000084,0.060618505,-0.14722623,-0.39590394,-0.36662143,0.06000115,-3.077803,0.622357,0.00013323304,-0.08040435,0.025719909,0.0012406916,0.0144666545,0.00082013075,0.02463612,0.49608693,-1.3734426,1.8937868,-2.0887678,-1.5719141,2.469596,-0.108445406,0.09652338,-0.12548706,0.03501739,-0.013424273,-0.13298845,-0.095768064,0.22984336,-9.385271,0.8717007,47.682407,-0.80253625,-2.435847,-3.400894,-0.07592794,-0.10120244,-0.10542178,28.5625,29.8125,28.875,32.6875,35.0625,36.0625
0.17405207,-0.13802058,-1.0184076,-1.5424972,-0.042707466,0.0575076,-0.14162089,-0.39607662,-0.3665938,0.060033467,-3.0778487,0.6223474,0.00012477816,-0.08058108,0.024582727,0.002384155,0.013814789,0.0025558295,0.021875653,0.49586046,-1.3732629,1.8934749,-2.0886595,-1.5718783,2.4693577,-0.10649483,0.0961464,-0.12786329,0.035942063,-0.013673928,-0.12827638,-0.2681506,0.21068975,-9.308656,0.947788,47.687782,-1.0526834,-2.2903764,-3.2300005,-0.06345437,-0.07937649,-0.17012201,28.5625,29.8125,28.875,32.6875,35.0625,36.0625
0.17605194,-0.12784709,-0.98669875,-1.5956305,-0.03992392,0.055630777,-0.14978789,-0.39623517,-0.36652845,0.06000873,-3.0777934,0.6222255,0.00012457125,-0.083018504,0.026320249,0.0011447603,0.01607028,0.00083564554,0.01245325,0.49564323,-1.3730329,1.893247,-2.0886114,-1.5719389,2.4690716,-0.11087348,0.10076064,-0.13074405,0.03679436,-0.014846895,-0.1232274,-0.19153613,0.24899697,-9.270349,0.73741806,47.70211,-0.77557695,-2.4195936,-3.2916782,-0.05063597,-0.08802981,-0.20891044,28.5625,29.8125,28.875,32.6875,35.0625,36.0625
0.17805216,0.5199073,-0.37122786,-1.6030068,-0.037535954,0.058648262,-0.15571365,-0.39640138,-0.36648023,0.060014885,-3.0777774,0.62216413,0.00018737682,-0.083973706,0.025461119,0.00307583,0.01384143,0.0035241684,0.009148202,0.49543995,-1.3728414,1.8929943,-2.0885632,-1.5719866,2.4688323,-0.11068089,0.099175304,-0.13346562,0.03766954,-0.014164726,-0.11973089,-0.076614454,0.28730422,-9.3661175,0.7978386,47.66539,-0.93047976,-2.2782311,-3.206983,-0.046280958,-0.070571035,-0.2821149,28.5625,29.8125,28.875,32.6875,35.0625,36.0625
0.18005206,0.31662196,-0.53080857,-1.4859712,-0.028679213,0.058217246,-0.14924577,-0.3965762,-0.36641932,0.06002284,-3.077734,0.6221559,0.00019016002,-0.08442405,0.025620122,0.0021097204,0.014697244,0.001506788,0.0063154506,0.49520022,-1.3726362,1.8927077,-2.088455,-1.5720223,2.4685931,-0.11143788,0.10212262,-0.13495517,0.038387924,-0.013962732,-0.117654294,-0.11492168,0.24899697,-9.174581,0.83365434,47.623295,-0.97459215,-2.4000113,-3.112089,-0.05144851,-0.10320434,-0.35424832,28.5625,29.8125,28.875,32.6875,35.0625,36.0625
0.18205196,0.50948775,-0.55708134,-1.4860256,-0.02495492,0.06275975,-0.15438105,-0.39673996,-0.36637744,0.060004383,-3.0777202,0.622114,0.000117122305,-0.0850536,0.0248966,0.002039472,0.013371844,0.00084591535,0.004985765,0.49497274,-1.3723834,1.8924326,-2.0883834,-1.5720099,2.4683414,-0.11166211,0.10407031,-0.1371921,0.038623575,-0.012492826,-0.11655066,-0.05746084,0.24899697,-9.193734,0.83365434,47.66808,-1.0408843,-2.4050257,-3.1464634,-0.03378258,-0.10561183,-0.38676596,28.5625,29.8125,28.875,32.6875,35.0625,36.0625
0.18405183,0.025962496,-0.5890568,-1.7933685,-0.025456361,0.05521338,-0.14859843,-0.3969095,-0.36632505,0.060020726,-3.0777166,0.6221129,0.00016715321,-0.08550707,0.02493869,0.0018144784,0.013928997,-0.00041315635,0.003116621,0.49474493,-1.3722144,1.8921808,-2.0883229,-1.5720338,2.4681134,-0.11216762,0.10583521,-0.13914894,0.04018405,-0.012383336,-0.1151867,-0.05746084,0.32561144,-9.308657,0.87617236,47.703903,-0.9162631,-2.474153,-3.1026638,-0.02327089,-0.12804952,-0.45521486,28.5625,29.8125,28.875,32.6875,35.0625,36.0625
0.18605226,0.035419304,-1.0231608,-1.6699864,-0.03215482,0.05719169,-0.14640321,-0.39705998,-0.36627656,0.060007475,-3.0776682,0.62206334,0.00011593115,-0.08552888,0.025998635,0.0011173316,0.016097877,-0.0035836631,0.0034007656,0.4945411,-1.3719859,1.8919171,-2.088226,-1.5720576,2.467885,-0.11367232,0.10743736,-0.14023772,0.043484677,-0.012792555,-0.11697343,-0.15322891,0.2873042,-9.385271,0.7709874,47.652847,-1.2305697,-2.4856272,-3.1463404,-0.055377875,-0.12502187,-0.5004138,28.5625,29.8125,28.875,32.6875,35.0625,36.0625
0.18805234,0.06585415,-1.117631,-1.5775474,-0.044885445,0.06389128,-0.15084913,-0.39723912,-0.366223,0.06001308,-3.0776298,0.6220129,0.00017331516,-0.085364975,0.026033666,0.0009278703,0.016814876,-0.0043077874,0.008528431,0.4943255,-1.3717692,1.89163,-2.0881536,-1.5721182,2.467643,-0.11335201,0.107999295,-0.1406882,0.04433544,-0.013086654,-0.12177989,-0.1340753,0.3256114,-9.385271,0.8560339,47.70211,-1.0654825,-2.4549713,-3.222117,-0.06363703,-0.128257,-0.5110318,28.5625,29.8125,28.875,32.6875,35.0625,36.0625
0.19005235,-0.033414576,-1.1702442,-1.6710668,-0.04439692,0.06662855,-0.15688889,-0.3974223,-0.36616045,0.06003158,-3.077617,0.6219852,0.00016787619,-0.08636052,0.026736556,0.00088160485,0.017467463,-0.0043707136,0.016308866,0.49406135,-1.3715769,1.891332,-2.088034,-1.5721306,2.4673634,-0.11503828,0.10897245,-0.14188921,0.04491198,-0.013647279,-0.1312445,-0.038307227,0.24899697,-9.3661175,0.8403672,47.694054,-1.1035997,-2.489271,-3.1612968,-0.060368773,-0.118695065,-0.43043473,28.5625,29.8125,28.875,32.6875,35.0625,36.0625
0.1920523,0.1069758,-0.9783712,-1.6898769,-0.03954814,0.07104254,-0.1558985,-0.39760765,-0.3661217,0.060037665,-3.0775824,0.6219328,0.00019958917,-0.08784532,0.0270331,0.0017567324,0.017128797,-0.004241565,0.026611472,0.4938572,-1.3713244,1.8909959,-2.0879376,-1.5721782,2.4671311,-0.11697065,0.10970165,-0.14531268,0.04730438,-0.013429156,-0.14347869,-0.095768064,0.30645782,-9.442732,0.8627467,47.675243,-1.1078736,-2.359373,-3.2506652,-0.06265648,-0.13298917,-0.35693535,28.5625,29.8125,28.875,32.6875,35.0625,36.0625
0.1940522,0.01602281,-0.7350252,-1.7055511,-0.031984035,0.05804405,-0.14725001,-0.3977873,-0.36605316,0.06002388,-3.0775523,0.6218259,0.00016068885,-0.0862346,0.028452307,6.144405e-06,0.020497266,-0.009702288,0.03292489,0.49359354,-1.3710836,1.8907212,-2.0878527,-1.5722021,2.4668047,-0.11759928,0.11088724,-0.14354292,0.050738193,-0.0138145,-0.15041992,-0.019153614,0.19153613,-9.404425,0.8627467,47.685097,-1.1068499,-2.4230213,-3.336032,-0.09790146,-0.14631557,-0.26186895,28.5625,29.8125,28.875,32.6875,35.0625,36.0625
0.19605203,0.0791156,-0.25591874,-1.5523534,-0.020391762,0.055954993,-0.14800775,-0.3979641,-0.36602035,0.06004813,-3.0775816,0.62171286,0.00017113319,-0.08617543,0.029169671,4.4371667e-05,0.021104036,-0.01157469,0.03703084,0.49337777,-1.3708797,1.8903984,-2.0877435,-1.5722021,2.4665148,-0.11891456,0.110753864,-0.1440765,0.053329438,-0.013465648,-0.15584226,-0.038307227,0.19153613,-9.308656,0.8224646,47.690468,-1.1246312,-2.3080645,-3.3819237,-0.14799091,-0.14497694,-0.17595905,28.5625,29.8125,28.875,32.6875,35.0625,36.0625
0.19805183,-0.61383164,-0.019321432,-1.5430844,-0.009015561,0.041353874,-0.15148915,-0.39811042,-0.36596894,0.060025603,-3.0775545,0.6215536,0.00011926664,-0.086714484,0.029946223,-0.001966113,0.02290429,-0.013632836,0.037051618,0.49317363,-1.3706499,1.89016,-2.0876725,-1.5722264,2.466215,-0.12027784,0.11461902,-0.14379673,0.0518435,-0.014095294,-0.15722325,-0.15322891,0.05746084,-9.32781,0.80679786,47.686886,-1.1740823,-2.5089924,-3.4284272,-0.15602788,-0.15861416,-0.16130963,28.5625,29.8125,28.875,32.6875,35.0625,36.0625
0.20005265,-0.16756172,0.44213492,-1.5607984,-0.0031635296,0.060165297,-0.14280313,-0.39828876,-0.36589935,0.060001623,-3.0774956,0.6214485,2.738055e-05,-0.0880929,0.03004924,0.0004956303,0.02087465,-0.010941129,0.029084502,0.49290967,-1.3703749,1.8898596,-2.0875523,-1.5722502,2.465893,-0.12195672,0.111729234,-0.146487,0.05409236,-0.013594654,-0.15093473,-0.19153613,-0.019153614,-9.270349,0.8224646,47.678825,-1.0548855,-2.2688613,-3.390224,-0.14914477,-0.15799376,-0.19616872,28.5625,29.8125,28.875,32.6875,35.0625,36.0625
0.20205243,-0.21797562,0.16200028,-1.5221709,0.023997191,0.058788985,-0.13148844,-0.3984584,-0.36585933,0.060029045,-3.077528,0.6214003,3.8416114e-05,-0.088884935,0.031014133,-0.0009684515,0.022906028,-0.014493705,0.022255087,0.4926813,-1.3702052,1.889573,-2.0874555,-1.5722383,2.4656305,-0.12418037,0.11579772,-0.14848025,0.05611425,-0.013699515,-0.14632772,-0.22984336,-0.19153613,-9.289503,0.8403672,47.645687,-1.0388219,-2.4370465,-3.5694673,-0.20326248,-0.1907725,-0.22315736,28.5625,29.8125,28.875,32.6875,35.0625,36.0625
0.20405243,-0.76853883,0.060251694,-1.5247871,0.032819524,0.05571725,-0.1329364,-0.39864567,-0.36579305,0.06002351,-3.0774508,0.62136555,-3.664527e-06,-0.09000135,0.031002358,0.00014034087,0.021114083,-0.013272306,0.017627511,0.4924295,-1.3699412,1.8892387,-2.087312,-1.5722855,2.465367,-0.12572677,0.11504113,-0.15026449,0.05672262,-0.012712996,-0.14324784,-0.30645782,-0.36391866,-9.346964,0.8717007,47.68599,-1.0209203,-2.3066466,-3.4318752,-0.2192704,-0.2017237,-0.3083442,28.5625,29.8125,28.875,32.6875,35.0625,36.0625
0.20605247,-0.71612847,0.5131005,-1.528603,0.03130647,0.074280865,-0.14151044,-0.39881754,-0.36572388,0.06002585,-3.0774295,0.621265,-5.092788e-05,-0.09140882,0.031534042,0.0003327159,0.021540679,-0.012885425,0.015598767,0.49216563,-1.3697367,1.8889621,-2.0871913,-1.5722984,2.4650433,-0.12748589,0.11637899,-0.15248372,0.057462092,-0.013287237,-0.14297502,-0.36391866,-0.30645782,-9.289502,0.7642693,47.650166,-1.1049398,-2.3487206,-3.4115531,-0.24721761,-0.2000469,-0.34362793,28.5625,29.8125,28.875,32.6875,35.0625,36.0625
0.20805243,-0.4263298,0.3018848,-1.6091198,0.03375662,0.1046605,-0.14171775,-0.39900616,-0.36566696,0.060018566,-3.0773966,0.62118006,-8.7314525e-05,-0.09172157,0.03128877,0.00064029306,0.021538088,-0.012714364,0.01555295,0.4919141,-1.3694723,1.8886393,-2.087084,-1.5723222,2.4647431,-0.12724385,0.116854735,-0.15397014,0.058314983,-0.013378988,-0.14268574,-0.45968673,-0.15322891,-9.3661175,0.80456203,47.689575,-0.9839026,-2.2662823,-3.3977563,-0.27529642,-0.21809854,-0.36431122,28.5625,29.8125,28.875,32.6875,35.0625,36.0625
0.21005242,-0.6629961,0.30396402,-1.5161701,0.018527795,0.12101446,-0.14209442,-0.39917523,-0.36562887,0.06000978,-3.0773773,0.6210799,-0.00016291068,-0.09369332,0.03272033,-0.00048757592,0.023060365,-0.013859602,0.013338599,0.49169716,-1.3692068,1.8883156,-2.0869644,-1.5723222,2.4644663,-0.13087021,0.12049936,-0.15574773,0.05817422,-0.014199934,-0.14409332,-0.59376204,-0.095768064,-9.442732,0.9231726,47.66091,-1.0408543,-2.2503433,-3.4106636,-0.29690054,-0.22721785,-0.38591248,28.5625,29.8125,28.875,32.6875,35.0625,36.0625
0.21205464,-1.4306518,-0.29676908,-1.7325168,-0.0037695188,0.13199992,-0.14435987,-0.3993444,-0.36553144,0.060003,-3.0772815,0.6210549,-0.00023345306,-0.093294814,0.032042325,0.0007351991,0.022826487,-0.012842942,0.020405505,0.49141052,-1.3690032,1.8880528,-2.086808,-1.5723704,2.4641764,-0.12913348,0.11888348,-0.15704651,0.060063608,-0.014500812,-0.1494212,-0.61291564,0.0,-9.500193,0.83813137,47.65912,-1.0914972,-2.1839814,-3.3987994,-0.327144,-0.23657998,-0.3610682,28.5625,29.8125,28.875,32.6875,35.0625,36.0625
0.21405254,-1.8991493,-0.74197406,-1.98039,-0.02051757,0.13909014,-0.14760542,-0.3995507,-0.3654745,0.060024638,-3.0772634,0.6209109,-0.00020400513,-0.094935894,0.032303374,-0.0012395093,0.024383694,-0.014124343,0.027427452,0.4911586,-1.3687605,1.8876818,-2.086665,-1.572419,2.4638371,-0.13050066,0.1248605,-0.15928409,0.05816647,-0.015299849,-0.15780582,-0.7278373,0.019153614,-9.5385,0.8605109,47.683304,-1.1537982,-2.27773,-3.4438086,-0.3678162,-0.23690684,-0.2990192,28.5625,29.8125,28.875,32.6875,35.0625,36.0625
0.21605246,-2.2828062,-1.134335,-2.1218512,-0.04545934,0.1450781,-0.15603714,-0.3997327,-0.36537346,0.059990246,-3.077167,0.62086636,-0.00031424343,-0.09621808,0.032214373,-0.00048576246,0.02308057,-0.011225756,0.036558997,0.49084684,-1.3684965,1.8874182,-2.0865457,-1.5724548,2.46351,-0.13128448,0.12443212,-0.16006786,0.056181554,-0.015566359,-0.16771825,-0.6512228,0.095768064,-9.672575,0.84484416,47.640312,-1.1259254,-2.2060533,-3.3986444,-0.3436536,-0.24254733,-0.1923663,28.5625,29.8125,28.875,32.6875,35.0625,36.0625
0.218052,-1.5045583,-1.6354722,-2.1228137,-0.06320607,0.16191755,-0.15131612,-0.3999332,-0.36534333,0.060041107,-3.0772161,0.62064296,-0.00024877215,-0.099395506,0.03258867,0.00019111908,0.022455683,-0.0075570703,0.038681313,0.49063045,-1.3682919,1.8870233,-2.0863907,-1.5724791,2.463148,-0.13397634,0.12646522,-0.16359147,0.054130394,-0.01676287,-0.17252746,-0.6703765,0.1340753,-9.672575,0.8314132,47.661808,-0.9751611,-2.2264009,-3.3054833,-0.3496399,-0.24545488,-0.11029789,28.5625,29.8125,28.875,32.6875,35.0625,36.0625
0.22005203,-2.1814868,-2.0751195,-2.0132117,-0.06472327,0.13152577,-0.13870308,-0.40014103,-0.36526296,0.060035117,-3.0771928,0.62057966,-0.00022951924,-0.101769745,0.032602184,0.0006348538,0.021172905,-0.005675371,0.037332203,0.4903306,-1.3680508,1.8867358,-2.0863316,-1.5725154,2.462812,-0.1362106,0.12849958,-0.16681136,0.05303837,-0.016535783,-0.17341156,-0.8236054,0.24899697,-9.615114,0.8247004,47.65464,-1.0667694,-2.2969546,-3.1705189,-0.3536185,-0.2634346,-0.047110505,28.5625,29.8125,28.875,32.6875,35.0625,36.0625
0.22205195,-1.7521844,-1.7130057,-1.9274075,-0.06311267,0.12848441,-0.14079948,-0.40034947,-0.365225,0.060045823,-3.0772228,0.6204717,-0.00021648273,-0.10332214,0.03199232,0.00086799817,0.019604329,-0.0016737842,0.032503456,0.49007908,-1.3677864,1.8863772,-2.0862496,-1.5725154,2.4624894,-0.13620362,0.12935436,-0.1673631,0.04847304,-0.017040925,-0.1685738,-0.9385271,0.2681506,-9.634268,0.84708,47.6636,-1.0238534,-2.209784,-3.2598505,-0.32089096,-0.25816607,-0.082054295,28.5625,29.8125,28.875,32.6875,35.0625,36.0625
0.22405192,-1.6351206,-1.685704,-1.8928707,-0.0489034,0.12966432,-0.1347963,-0.40056863,-0.36514592,0.06004466,-3.0771816,0.6204102,-0.00019938615,-0.10549331,0.031928707,0.00090361375,0.01865662,0.0013748381,0.023321772,0.48977917,-1.3675213,1.886042,-2.0861547,-1.572564,2.4621565,-0.1376044,0.13133079,-0.16906701,0.04506796,-0.017644776,-0.16078942,-0.9002198,0.28730422,-9.615114,0.8537928,47.681515,-1.016499,-2.3198667,-3.24433,-0.27457,-0.26675844,-0.14379196,28.5625,29.8125,28.875,32.6875,35.0625,36.0625
0.22605202,-1.426182,-1.6714634,-2.0765123,-0.041613415,0.12640297,-0.13719918,-0.40079826,-0.3650889,0.06005448,-3.0771787,0.6203726,-0.00016384292,-0.10666377,0.031945836,0.0007851999,0.017922059,0.0022099982,0.016558813,0.4894914,-1.3672448,1.8856705,-2.0860713,-1.5725874,2.4618459,-0.13876674,0.13276416,-0.17024106,0.04372708,-0.01738583,-0.1551891,-0.6703765,0.28730422,-9.615114,0.80679786,47.687782,-1.0746579,-2.2642016,-3.187373,-0.23722109,-0.26217824,-0.24060604,28.5625,29.8125,28.875,32.6875,35.0625,36.0625
0.22805206,-1.3985589,-1.5677904,-1.8256909,-0.04685448,0.12239513,-0.13371988,-0.40100875,-0.365011,0.060042813,-3.0771089,0.6203194,-0.00013808758,-0.10769798,0.031365134,0.0006418716,0.017435055,0.0031382344,0.013885231,0.48921624,-1.3669677,1.8853472,-2.0859878,-1.5726599,2.4615467,-0.13864207,0.13495792,-0.17230105,0.042534772,-0.017402224,-0.15238903,-0.7086837,0.36391866,-9.576807,0.8873621,47.695843,-1.1355076,-2.4380276,-3.228147,-0.21766728,-0.28614423,-0.33439422,28.5625,29.8125,28.875,32.6875,35.0625,36.0625
0.23005201,-0.5062413,-1.1095254,-1.7103629,-0.05364983,0.12807709,-0.14742632,-0.40123856,-0.36494672,0.06004948,-3.0770931,0.62037635,-9.101109e-05,-0.10818858,0.031691555,-0.00018631622,0.017552126,0.0026065565,0.0074408897,0.4889165,-1.366703,1.8850025,-2.0859287,-1.5726832,2.4612846,-0.13964488,0.13663304,-0.17216256,0.041247115,-0.017247835,-0.1469481,-0.68953013,0.36391866,-9.481039,0.8605109,47.67614,-1.1149039,-2.2875087,-3.3225331,-0.17136508,-0.30399546,-0.41866297,28.5625,29.8125,28.875,32.6875,35.0625,36.0625
0.23205209,-0.7521784,-1.4512749,-1.7368886,-0.04301722,0.102243036,-0.143602,-0.4014834,-0.36486527,0.060069848,-3.077072,0.6203513,3.6242593e-05,-0.10852532,0.031959534,-0.00051813375,0.018554594,0.0023850203,0.0065160478,0.48860493,-1.3664622,1.8846549,-2.0858686,-1.5727557,2.4609604,-0.13983452,0.1377825,-0.17285423,0.041444074,-0.01802383,-0.14621094,-0.30645782,0.34476504,-9.481039,0.8090337,47.687782,-1.1236758,-2.523707,-3.4061906,-0.14526019,-0.2825089,-0.4826661,28.5625,29.8125,28.875,32.6875,35.0625,36.0625
0.23405205,-0.44597474,-1.1980497,-1.2994015,-0.04725391,0.08435546,-0.14042878,-0.40170687,-0.36480698,0.060059767,-3.0770404,0.620283,3.83783e-05,-0.10977252,0.03239273,-0.0013494677,0.019567706,0.0011469305,0.011206198,0.48832908,-1.3661486,1.8842839,-2.0857847,-1.5727919,2.4606462,-0.14139642,0.14121097,-0.17520966,0.041917976,-0.018357845,-0.15246019,-0.17238252,0.2681506,-9.346964,0.9298854,47.731667,-1.142832,-2.3724694,-3.4064708,-0.10905227,-0.3069618,-0.49785936,28.5625,29.8125,28.875,32.6875,35.0625,36.0625
0.23605198,0.038018633,-0.7269251,-1.1030533,-0.03504912,0.06531672,-0.13768649,-0.4019443,-0.36472604,0.06004897,-3.0769784,0.62031966,8.191266e-05,-0.11046279,0.032338686,-0.00023129774,0.018239286,0.0026978678,0.021989046,0.48801768,-1.3658489,1.8839368,-2.085725,-1.572852,2.4603658,-0.14209895,0.13988163,-0.17628457,0.042288885,-0.017936816,-0.16394666,-0.095768064,0.11492168,-9.308656,0.82022345,47.687782,-1.1999289,-2.397921,-3.4210026,-0.09555894,-0.30421782,-0.4194286,28.5625,29.8125,28.875,32.6875,35.0625,36.0625
0.23805209,0.633824,0.16076033,-0.92203474,-0.00747789,0.04521878,-0.1599266,-0.40215012,-0.36467123,0.060040064,-3.0769901,0.6201416,3.36473e-05,-0.111985825,0.032631677,0.00011427823,0.018499,0.0033044072,0.033053033,0.4877415,-1.3655599,1.8835896,-2.0856287,-1.572852,2.4599771,-0.14354059,0.14142042,-0.1791454,0.043167524,-0.018484125,-0.17644875,0.15322891,0.019153614,-9.097966,0.88960326,47.681515,-1.1167943,-2.4151816,-3.3068666,-0.05947218,-0.3196879,-0.2979062,28.5625,29.8125,28.875,32.6875,35.0625,36.0625
0.24005207,1.1593068,1.0502446,-0.84666115,0.02614106,0.026877834,-0.15493408,-0.40242997,-0.3646293,0.06009291,-3.0770738,0.620137,0.00021535126,-0.113849744,0.034791473,-0.0003828387,0.018822942,0.0017833934,0.035520658,0.48742825,-1.3653073,1.883159,-2.0855925,-1.5728639,2.4596505,-0.14899428,0.14272454,-0.17979063,0.043978132,-0.018046748,-0.18437369,0.2681506,0.0,-9.078813,0.9030289,47.645687,-0.92618227,-2.479168,-3.3766675,-0.028602187,-0.3323182,-0.18571524,28.5625,29.8125,28.875,32.6875,35.0625,36.0625
0.24205202,1.594607,1.1959002,-0.6884495,0.045027167,0.014151068,-0.15435399,-0.40263456,-0.36454254,0.060043223,-3.0770113,0.6199863,0.0001562448,-0.114385545,0.034347907,-0.0010686355,0.019626744,-5.1605143e-06,0.038454298,0.48712933,-1.3649817,1.8828715,-2.0855443,-1.5729116,2.4592657,-0.14871812,0.1462646,-0.18283781,0.045421932,-0.0179456,-0.18702848,0.19153613,-0.095768064,-8.983045,0.87617236,47.647476,-1.0003712,-2.553822,-3.2026303,-0.007588181,-0.32896832,-0.14718974,28.5625,29.8125,28.875,32.6875,35.0625,36.0625
0.24405211,1.0633439,0.72535014,-0.8382938,0.057260115,-0.009889323,-0.14004415,-0.40287766,-0.36449093,0.060076687,-3.0770595,0.61984515,0.00025194619,-0.116316766,0.035155967,0.0011362901,0.018801812,0.0031082875,0.032224447,0.486841,-1.3647304,1.8824757,-2.08546,-1.5729364,2.4588833,-0.151264,0.14393108,-0.1855083,0.04728955,-0.018660072,-0.18334295,0.22984336,-0.11492168,-8.848969,0.91198283,47.689575,-0.9088519,-2.3833697,-3.1987865,0.002716026,-0.340145,-0.16189009,28.5625,29.8125,28.875,32.6875,35.0625,36.0625
0.2460524,1.4810296,0.6857035,-0.8990369,0.03582449,0.005010616,-0.1518582,-0.40309975,-0.3644191,0.060070712,-3.0769818,0.6198318,0.0002740368,-0.116529495,0.034454923,0.0022734655,0.018188315,0.0035437476,0.02560922,0.48656616,-1.3644303,1.8821057,-2.0853512,-1.5730075,2.4586103,-0.15040864,0.14355364,-0.18822587,0.049710646,-0.018318161,-0.17587203,0.095768064,0.076614454,-8.868123,0.9164598,47.681515,-0.9851774,-2.3248045,-3.1731029,0.019123565,-0.35165977,-0.27133942,28.5625,29.8125,28.875,32.6875,35.0625,36.0625
0.24805172,1.9446037,1.0237063,-0.8753768,-0.0071484894,0.04813267,-0.1779765,-0.40331337,-0.36433756,0.060066093,-3.0769446,0.61965084,0.00019422972,-0.117498495,0.03431178,0.0031522352,0.018915009,0.0036738506,0.02261307,0.4862543,-1.364142,1.8817328,-2.0851824,-1.5730323,2.4581904,-0.15050994,0.14461172,-0.19224335,0.052894138,-0.019034281,-0.17297201,0.076614454,0.095768064,-8.983045,0.8537928,47.694946,-0.9371155,-2.204083,-3.1714625,0.016799891,-0.36404276,-0.3035297,28.5625,29.8125,28.875,32.6875,35.0625,36.0625
0.25005174,0.2614735,-0.021372769,-1.1873009,-0.00935147,0.04153067,-0.14923407,-0.40354905,-0.36426073,0.060061365,-3.076895,0.6196404,0.00015327302,-0.117708415,0.035800744,0.0025773682,0.0209117,0.00084465544,0.019891337,0.48593026,-1.363829,1.881339,-2.0850499,-1.5730561,2.4578664,-0.1528247,0.14557928,-0.1928192,0.055929232,-0.019482682,-0.17256255,0.17238252,0.13407528,-9.193734,0.86945957,47.65643,-0.98565507,-2.1760101,-3.274079,0.009123329,-0.34814423,-0.3794424,28.5625,29.8125,28.875,32.6875,35.0625,36.0625
0.25205177,-0.25539586,-0.94385135,-1.333858,-0.024201682,0.05801247,-0.15055344,-0.40377143,-0.3641999,0.060075838,-3.076867,0.6194987,0.00019323865,-0.116708465,0.035911743,0.0016089296,0.022225834,-0.002399051,0.020434167,0.48566732,-1.3635525,1.8809451,-2.0849178,-1.5731162,2.4575188,-0.15225679,0.1469597,-0.19276483,0.05796003,-0.01913067,-0.17253838,-0.038307227,0.22984336,-9.289503,0.8985519,47.66808,-1.1200713,-2.1395087,-3.2251067,-0.020740418,-0.37192938,-0.369933,28.5625,29.8125,28.875,32.6875,35.0625,36.0625
0.25405174,-0.6259326,-0.9951216,-1.5863659,-0.051716983,0.08265473,-0.14860526,-0.40400213,-0.36411744,0.06007125,-3.0768352,0.61941034,0.00012622423,-0.11721886,0.03711464,0.0010096203,0.023738138,-0.0048640617,0.025111927,0.4853313,-1.3632514,1.8805622,-2.0847728,-1.5731281,2.4571319,-0.15450528,0.14851233,-0.1938393,0.060343694,-0.019343082,-0.17946239,-0.17238252,0.21068975,-9.481039,0.97240865,47.70211,-1.0892684,-2.1781821,-3.232429,-0.032375857,-0.37306476,-0.35102233,28.5625,29.8125,28.875,32.6875,35.0625,36.0625
0.25605205,-0.62818724,-1.6109787,-1.9898636,-0.043220025,0.08473812,-0.15015872,-0.4042539,-0.36403373,0.06007722,-3.0767713,0.6193128,0.00017546845,-0.11767328,0.038380474,0.00033193594,0.02565944,-0.006946855,0.0337323,0.4850192,-1.3629386,1.880144,-2.0846407,-1.5732125,2.4567673,-0.15647253,0.1499802,-0.19452886,0.06225936,-0.020098215,-0.19004679,0.0,0.22984336,-9.634268,0.8090337,47.694946,-1.002743,-2.152936,-3.3015146,-0.06158208,-0.37805465,-0.261231,28.5625,29.8125,28.875,32.6875,35.0625,36.0625
0.25805238,-0.9536345,-1.5149616,-2.2335646,-0.055681664,0.08070138,-0.14476348,-0.40445974,-0.3639578,0.060080186,-3.076737,0.6191458,0.00013452345,-0.11854045,0.03930033,0.0007206255,0.0262888,-0.0070940526,0.042023078,0.48473147,-1.3626744,1.8797854,-2.0844848,-1.5732487,2.45638,-0.15838106,0.14995877,-0.19579752,0.0639368,-0.020622017,-0.20024288,-0.21068975,0.24899697,-9.787497,0.83365434,47.683304,-0.9426833,-2.1795049,-3.4223266,-0.07587678,-0.3926596,-0.13860467,28.5625,29.8125,28.875,32.6875,35.0625,36.0625
0.26005256,-0.4643413,-0.99160594,-1.7729115,-0.07745557,0.095100686,-0.16056934,-0.4046879,-0.36389244,0.060075704,-3.0767324,0.6190088,7.0717586e-05,-0.11841763,0.040356815,-0.00071214273,0.028877784,-0.010893313,0.044389807,0.48441952,-1.3623611,1.8793901,-2.0843523,-1.5732487,2.4559832,-0.1596207,0.15273415,-0.19646022,0.06637876,-0.021162648,-0.20384593,-0.34476504,0.24899697,-9.768343,0.88289046,47.64927,-0.9178255,-2.378627,-3.3944018,-0.11503936,-0.37140566,-0.0706705,28.5625,29.8125,28.875,32.6875,35.0625,36.0625
0.26205245,-0.9451845,-1.1299355,-2.0183537,-0.053964555,0.09164753,-0.1463575,-0.40489784,-0.36380595,0.060037028,-3.0766547,0.61895484,-6.916482e-05,-0.11727518,0.04144246,-0.003682838,0.033034846,-0.016850116,0.040261682,0.48409617,-1.3620232,1.879043,-2.0842197,-1.5732611,2.4556363,-0.15977776,0.1572614,-0.19559176,0.06819454,-0.022087762,-0.19986878,-0.45968673,0.22984336,-9.749189,0.90527004,47.65106,-0.9325273,-2.2823253,-3.5353208,-0.13303553,-0.38176328,-0.075818956,28.5625,29.8125,28.875,32.6875,35.0625,36.0625
0.26405248,-0.8097095,-0.66715276,-1.8816526,-0.042973053,0.10223744,-0.15403388,-0.40515348,-0.36372998,0.060065947,-3.0766418,0.6188599,-1.1973047e-05,-0.118250415,0.04197007,-0.0030209264,0.033623017,-0.015911799,0.03130104,0.48377237,-1.3617469,1.8786134,-2.0840757,-1.5733098,2.455255,-0.1608446,0.1572172,-0.19736429,0.06946151,-0.023037113,-0.19197127,-0.5554548,0.19153613,-9.749189,0.90750587,47.69763,-0.9057753,-2.3207526,-3.4683268,-0.15738693,-0.3783092,-0.12621473,28.5625,29.8125,28.875,32.6875,35.0625,36.0625
0.2660526,-1.125086,-0.61180645,-1.859166,-0.024823654,0.09257817,-0.15174958,-0.40541896,-0.36365488,0.060085732,-3.0766196,0.6188008,6.967511e-05,-0.11853739,0.043320205,-0.004107758,0.03612498,-0.020561563,0.022377912,0.48344854,-1.361446,1.8781828,-2.083966,-1.5733699,2.4548974,-0.16323565,0.16015649,-0.19946203,0.07389859,-0.02307729,-0.18543863,-0.53630114,0.21068975,-9.710882,0.8403672,47.705692,-1.0625358,-2.3785644,-3.5049114,-0.22254023,-0.38684705,-0.24046612,28.5625,29.8125,28.875,32.6875,35.0625,36.0625
0.26805222,-1.5587542,-0.4162321,-1.6778286,-0.01088646,0.095242254,-0.15280765,-0.40563786,-0.36356765,0.060047492,-3.0765278,0.6187259,-1.8533037e-05,-0.11834946,0.04212483,-0.0046462477,0.035364516,-0.020340636,0.017118227,0.48313788,-1.3610966,1.8778237,-2.0838473,-1.5734171,2.454552,-0.16132334,0.1619339,-0.20002621,0.07213804,-0.022527229,-0.17826566,-0.5554548,0.1340753,-9.653421,0.9231726,47.68599,-1.1440474,-2.5054996,-3.5993989,-0.22129092,-0.3868434,-0.35172755,28.5625,29.8125,28.875,32.6875,35.0625,36.0625
0.27005237,-1.2155967,0.076333575,-1.4723693,-0.009530743,0.10322982,-0.16766837,-0.40589312,-0.3635028,0.060073107,-3.0765324,0.6185535,1.2540253e-05,-0.11888872,0.042470787,-0.0055828947,0.03704002,-0.021897718,0.013563154,0.48282626,-1.3607954,1.8773688,-2.0836914,-1.5734538,2.4541323,-0.16181225,0.16491185,-0.20170763,0.07299643,-0.02329434,-0.17519568,-0.49799395,-0.038307227,-9.576807,0.87393653,47.678825,-1.1754687,-2.5584562,-3.5280147,-0.25221056,-0.38950473,-0.4497871,28.5625,29.8125,28.875,32.6875,35.0625,36.0625
0.27205238,-1.5701265,-0.029465942,-1.1920379,0.00258324,0.08680978,-0.1558198,-0.40614778,-0.36342064,0.060064364,-3.0764844,0.6185781,-1.0764097e-05,-0.11950445,0.042765453,-0.004124049,0.03863966,-0.02099467,0.016307227,0.48247916,-1.3604606,1.8769621,-2.0835822,-1.5734786,2.4538069,-0.16160879,0.16408461,-0.20498197,0.07702805,-0.025152994,-0.17772785,-0.2681506,-0.17238252,-9.461885,0.8672237,47.67614,-1.180366,-2.2802134,-3.478849,-0.3127414,-0.39380485,-0.46717608,28.5625,29.8125,28.875,32.6875,35.0625,36.0625
0.27405253,-0.88760203,0.38605043,-1.0087664,0.0141236475,0.087783985,-0.15636128,-0.40640715,-0.3633155,0.060073934,-3.0764065,0.61853653,1.2513658e-06,-0.123940475,0.04282811,-0.0020590266,0.036326252,-0.013956925,0.024787974,0.4821186,-1.3601604,1.8765424,-2.0834162,-1.5735506,2.4534307,-0.16473772,0.16487536,-0.20994887,0.073846534,-0.0264326,-0.18932964,-0.36391866,-0.17238252,-9.270349,0.9186956,47.70032,-1.0712814,-2.4076293,-3.401372,-0.29508665,-0.36948764,-0.402326,28.5625,29.8125,28.875,32.6875,35.0625,36.0625
0.27605253,-1.005718,0.472369,-1.087136,0.03897453,0.06701785,-0.15601312,-0.40664017,-0.36324823,0.06007525,-3.0763865,0.61833185,2.8338457e-06,-0.12651446,0.04356221,-0.0020686868,0.037007105,-0.012715079,0.036291018,0.48183048,-1.3598477,1.8761343,-2.0832846,-1.5735992,2.4530175,-0.16738455,0.16786237,-0.21349648,0.07356972,-0.027667815,-0.20347233,-0.24899697,-0.11492168,-9.385271,0.8806493,47.69763,-1.1699603,-2.4578762,-3.286481,-0.32101813,-0.3684598,-0.26370156,28.5625,29.8125,28.875,32.6875,35.0625,36.0625
0.27805236,-0.3751045,0.45518732,-1.1742235,0.031361006,0.075614266,-0.15639749,-0.406914,-0.36316583,0.06007329,-3.0763512,0.6181452,4.14106e-05,-0.12696205,0.04275606,-0.0013112938,0.036839902,-0.009685661,0.045740098,0.48149592,-1.3594881,1.8756799,-2.083165,-1.5736717,2.4525712,-0.16552855,0.16757146,-0.21460189,0.072162524,-0.028960574,-0.21105957,-0.24899697,-0.05746084,-9.232041,0.90750587,47.703007,-1.2251623,-2.4079666,-3.2958024,-0.3169478,-0.32547837,-0.16318613,28.5625,29.8125,28.875,32.6875,35.0625,36.0625
0.28005242,-0.9203012,-0.35668886,-1.2474544,0.022108564,0.06600785,-0.14801012,-0.40716082,-0.36306858,0.060072415,-3.0762901,0.6179776,3.849103e-05,-0.12893613,0.04216815,6.8242814e-05,0.035437003,-0.0047557307,0.045423277,0.4811605,-1.3591764,1.8752726,-2.0830104,-1.5737442,2.4521391,-0.16552515,0.16739447,-0.21701638,0.06971483,-0.03002985,-0.21073268,-0.51714754,0.0,-9.193734,0.94331104,47.690468,-1.2758543,-2.2874007,-3.2940276,-0.2918188,-0.31895506,-0.16556342,28.5625,29.8125,28.875,32.6875,35.0625,36.0625
0.28205237,-1.0349927,-0.36285812,-1.1826205,-0.014099868,0.0809532,-0.16091323,-0.4073999,-0.36297145,0.06006681,-3.0761855,0.61795944,-2.1146341e-05,-0.12950936,0.042187873,-0.00018780064,0.035322208,-0.0035018977,0.038999833,0.48082468,-1.3588525,1.874853,-2.0828192,-1.5738043,2.4518056,-0.16566081,0.16813144,-0.21691577,0.067711234,-0.03052383,-0.20444001,-0.53630114,0.11492168,-9.232041,0.8784135,47.647476,-1.399869,-2.2144742,-3.3318965,-0.26709884,-0.3060333,-0.19626197,28.5625,29.8125,28.875,32.6875,35.0625,36.0625
0.2840523,-0.9454475,-0.47738594,-1.3421507,-0.05291752,0.10502614,-0.16596381,-0.40765402,-0.36289757,0.060070023,-3.0761535,0.6177847,-6.377278e-05,-0.13056634,0.042650662,-0.0011081817,0.03547908,-0.005630012,0.03130748,0.4804998,-1.3585039,1.8743862,-2.0826395,-1.57384,2.451376,-0.16777189,0.17138672,-0.21896106,0.06845828,-0.029686628,-0.19885916,-0.4405331,0.17238252,-9.32781,0.96569055,47.703903,-1.3923545,-2.210145,-3.3896594,-0.2816526,-0.28906178,-0.281929,28.5625,29.8125,28.875,32.6875,35.0625,36.0625
0.28605214,-1.5294102,-1.6978139,-1.4291716,-0.053867146,0.0984181,-0.15385067,-0.40792426,-0.36279437,0.060070816,-3.076091,0.6177551,-4.797287e-05,-0.13408886,0.042700093,0.0014615055,0.032035165,0.0026485075,0.024764525,0.4801269,-1.3581808,1.8739666,-2.0825098,-1.5739001,2.4509928,-0.17034349,0.1691007,-0.2210777,0.06392057,-0.030475466,-0.19488308,-0.21068975,0.15322891,-9.404425,0.8291774,47.70211,-1.3694818,-2.1245403,-3.3359056,-0.24884295,-0.29026672,-0.37190226,28.5625,29.8125,28.875,32.6875,35.0625,36.0625
0.28805226,-1.0771415,-1.5766226,-1.5014298,-0.07818599,0.11392575,-0.16402552,-0.40820515,-0.362732,0.06008436,-3.0760784,0.6176182,2.3645427e-05,-0.1366424,0.044479232,0.0018272988,0.032562885,0.005912157,0.021900197,0.47981375,-1.3578211,1.8734764,-2.082391,-1.5739611,2.450596,-0.17422226,0.16916604,-0.22152138,0.061630446,-0.032460704,-0.1958897,-0.30645782,0.19153613,-9.500193,0.9231726,47.690468,-1.2690773,-2.1227531,-3.3491347,-0.21360272,-0.2391302,-0.39236987,28.5625,29.8125,28.875,32.6875,35.0625,36.0625
0.29005224,-0.6368566,-1.419788,-1.3544173,-0.07818345,0.115704246,-0.16808996,-0.4084641,-0.36261046,0.060074918,-3.075981,0.6175363,4.0869007e-05,-0.13665393,0.04407543,0.0016997874,0.032805316,0.0052362173,0.028697405,0.47944212,-1.3575088,1.8730925,-2.082259,-1.5740565,2.450186,-0.17348608,0.17041522,-0.22297575,0.062496543,-0.03239657,-0.20194861,-0.3256114,0.21068975,-9.3661175,0.8985519,47.684196,-1.3439524,-1.9985834,-3.4295526,-0.2046289,-0.21941224,-0.3802678,28.5625,29.8125,28.875,32.6875,35.0625,36.0625
0.292052,-0.7088966,-0.95522976,-1.6471446,-0.042633805,0.08481539,-0.17487031,-0.40871924,-0.36253652,0.060068317,-3.0759592,0.61738974,2.9826813e-05,-0.13928707,0.044040397,0.0021046945,0.030589238,0.0088542085,0.03869343,0.47911745,-1.3571607,1.872662,-2.0821407,-1.5740927,2.4497728,-0.17576632,0.17190589,-0.22487202,0.058610473,-0.03215459,-0.21422388,-0.1340753,0.24899697,-9.481039,0.8940802,47.686886,-1.2129568,-2.0301242,-3.4731834,-0.16517013,-0.20680378,-0.28660017,28.5625,29.8125,28.875,32.6875,35.0625,36.0625
0.294052,-0.12766454,-0.65671456,-1.593239,-0.026895119,0.08074928,-0.17018728,-0.40904188,-0.36243993,0.060102433,-3.0759685,0.6172709,0.0002367344,-0.14054725,0.044444244,0.0014727574,0.030087056,0.008876864,0.047094233,0.47873268,-1.3568484,1.8721951,-2.082081,-1.5741886,2.449313,-0.17766188,0.17403504,-0.22567776,0.0569662,-0.03173346,-0.22452451,-0.19153614,0.28730422,-9.519346,0.9231726,47.696735,-1.1681594,-2.0036366,-3.5012288,-0.1005443,-0.20465359,-0.12918729,28.5625,29.8125,28.875,32.6875,35.0625,36.0625
0.2960521,-0.284554,-0.49181116,-1.8194435,-0.027732829,0.06063383,-0.1714645,-0.40930265,-0.36233515,0.060065787,-3.0758646,0.61705834,0.00022315155,-0.14140196,0.045074478,0.0012524312,0.030565908,0.007631186,0.04631911,0.47839597,-1.3564523,1.8717746,-2.081961,-1.5742968,2.448857,-0.17942367,0.17561555,-0.22748305,0.05847879,-0.03161158,-0.22550814,-0.24899697,0.19153613,-9.519346,0.86498255,47.678825,-1.1362339,-2.0258737,-3.4813294,-0.072396636,-0.19429582,-0.05886134,28.5625,29.8125,28.875,32.6875,35.0625,36.0625
0.29805234,-0.32016593,-0.4374403,-1.8421906,-0.025021598,0.049442094,-0.16416262,-0.4096057,-0.36224392,0.060087316,-3.075848,0.6168884,0.00030049167,-0.14274509,0.04666375,-0.00012086592,0.031950433,0.004769932,0.03547624,0.47802284,-1.3561033,1.8712729,-2.081817,-1.5743684,2.4483802,-0.18318199,0.17910922,-0.22886509,0.059542514,-0.03150708,-0.21842341,-0.36391866,0.19153613,-9.500193,0.87617236,47.694946,-1.0578275,-2.3139687,-3.539273,-0.06804817,-0.16268288,-0.13948473,28.5625,29.8125,28.875,32.6875,35.0625,36.0625
0.30005234,-0.0742427,-0.5979735,-1.7125524,-0.031204192,0.06678305,-0.16200122,-0.4099053,-0.3621545,0.060095046,-3.075825,0.61690676,0.00031850248,-0.14261465,0.04682762,-0.0013227505,0.032773525,0.0016645824,0.025447542,0.47762695,-1.3557426,1.8707937,-2.0816967,-1.5743922,2.447999,-0.18364519,0.1819205,-0.2298896,0.060907032,-0.030788677,-0.20886016,-0.45968673,0.1340753,-9.576807,0.92093146,47.681515,-1.1116295,-2.1947114,-3.5084996,-0.04772693,-0.16625804,-0.23798425,28.5625,29.8125,28.875,32.6875,35.0625,36.0625
0.30205247,-0.78076696,-0.87428147,-1.6831914,-0.03830941,0.07183974,-0.1597754,-0.4101707,-0.3620872,0.06010198,-3.0758374,0.6167208,0.00029752083,-0.14280711,0.04651053,-0.0018687692,0.033781916,-1.3520884e-05,0.018345583,0.47729102,-1.3553941,1.8703254,-2.0815527,-1.5744046,2.4475455,-0.18309246,0.18461809,-0.23234656,0.062636174,-0.030903898,-0.20120311,-0.4405331,0.076614454,-9.557653,0.85155696,47.65912,-1.0585666,-2.3621707,-3.4800413,-0.050346047,-0.14872468,-0.34483695,28.5625,29.8125,28.875,32.6875,35.0625,36.0625
0.3040525,-0.8701148,-0.7102013,-1.5579748,-0.036725443,0.08440623,-0.16112274,-0.4104735,-0.3619982,0.060102556,-3.0757983,0.61665744,0.0004030167,-0.14449479,0.04704896,-0.0017945778,0.033398643,-0.00057523383,0.012454777,0.47693,-1.3550217,1.8698591,-2.0814807,-1.574488,2.4471502,-0.18569285,0.18672305,-0.23539832,0.06388869,-0.030301668,-0.19791467,-0.24899697,-0.038307227,-9.461885,0.9545008,47.711063,-1.0155339,-2.3632326,-3.4515362,-0.024511794,-0.12234192,-0.46904248,28.5625,29.8125,28.875,32.6875,35.0625,36.0625
0.30605248,-0.9164715,-0.6327577,-1.5694851,-0.030688144,0.08215488,-0.16977309,-0.41073844,-0.3618901,0.060081378,-3.0756798,0.61657286,0.00034793685,-0.14450468,0.04693647,-0.0016646831,0.03274389,-0.002024508,0.01526408,0.47657016,-1.3546377,1.8694037,-2.0813,-1.5745715,2.446753,-0.18613309,0.1871912,-0.2367307,0.06569646,-0.029090026,-0.20116591,-0.28730422,0.05746084,-9.442732,0.8940802,47.687782,-1.0178677,-2.4462428,-3.538161,-0.024767987,-0.118212916,-0.51068795,28.5625,29.8125,28.875,32.6875,35.0625,36.0625
0.30805165,-1.4254148,-0.37867776,-1.2724158,-0.023190672,0.06313983,-0.16644877,-0.41104782,-0.3618077,0.060114883,-3.0756974,0.6165302,0.00045175088,-0.14430042,0.046675857,-0.0015822557,0.032900423,-0.0031183523,0.027884264,0.47618616,-1.3543135,1.8689121,-2.0811913,-1.5746077,2.4463403,-0.18558408,0.18776107,-0.2380474,0.06742143,-0.02875399,-0.21324,-0.2681506,0.038307227,-9.423578,0.93436235,47.689575,-1.0890977,-2.4982371,-3.391367,-0.02382767,-0.12894109,-0.4106459,28.5625,29.8125,28.875,32.6875,35.0625,36.0625
0.3100517,-0.41459653,-0.0454987,-1.2899576,-0.002568356,0.07811116,-0.16457088,-0.4113491,-0.36171052,0.060107637,-3.0756373,0.61652637,0.00044861363,-0.14380327,0.045065697,-0.0011920385,0.032655153,-0.0046440056,0.044365916,0.47579145,-1.3539175,1.868421,-2.0810587,-1.5746549,2.4459512,-0.18285412,0.18945234,-0.2417601,0.07060892,-0.027890671,-0.22699322,-0.3256114,0.019153614,-9.289502,0.9231726,47.661808,-1.3543346,-2.3800454,-3.4613242,-0.02742704,-0.1248413,-0.28339997,28.5625,29.8125,28.875,32.6875,35.0625,36.0625
0.31205192,-0.17968537,0.4745395,-1.1203228,-0.0047492725,0.07928159,-0.16711065,-0.41164055,-0.36163166,0.06012393,-3.0756404,0.6162725,0.00050281256,-0.14309713,0.044301875,-0.0005045892,0.03295284,-0.0061539994,0.051973682,0.475444,-1.3535582,1.8679179,-2.0809143,-1.574715,2.445445,-0.1810862,0.18942635,-0.24423322,0.07453933,-0.027483199,-0.23283435,-0.2681506,-0.038307227,-9.212888,0.87617236,47.653748,-1.4819026,-2.2928083,-3.4544919,-0.069261834,-0.115837365,-0.1744367,28.5625,29.8125,28.875,32.6875,35.0625,36.0625
0.31405187,-0.5761586,0.07053399,-1.2995237,0.018969087,0.056980498,-0.14779578,-0.41191095,-0.361528,0.060095202,-3.075579,0.61605394,0.0003858135,-0.14396092,0.04512567,-0.00047782945,0.03364329,-0.008544391,0.04549777,0.47505903,-1.35315,1.8674496,-2.080733,-1.5747513,2.4449317,-0.18336247,0.19106013,-0.24717923,0.0782897,-0.02702554,-0.22863248,-0.3256114,0.019153614,-9.212888,0.95897776,47.69763,-1.3504472,-2.1741066,-3.2463028,-0.09256839,-0.11020994,-0.17460814,28.5625,29.8125,28.875,32.6875,35.0625,36.0625
0.31605205,-0.11553336,-0.29323936,-1.3407476,0.032646537,0.055404823,-0.15205735,-0.4122051,-0.36143082,0.06010226,-3.0755231,0.61593133,0.0004058804,-0.14463075,0.04649776,-0.00017128099,0.033913426,-0.01105037,0.035306122,0.47468615,-1.3527781,1.8669466,-2.0805643,-1.5748228,2.4444897,-0.18665513,0.19111887,-0.24891466,0.08231761,-0.026111836,-0.22173621,-0.3256114,0.11492168,-9.212888,0.86945957,47.689575,-1.3926232,-2.2161627,-3.3174117,-0.15859482,-0.116359994,-0.2634632,28.5625,29.8125,28.875,32.6875,35.0625,36.0625
0.31805205,-0.17051168,-0.30279294,-1.1102806,0.0077144867,0.0484289,-0.14887232,-0.4124828,-0.36134654,0.06010719,-3.0754848,0.6157539,0.00043986176,-0.14489713,0.04739641,4.1642208e-05,0.03482653,-0.013375385,0.02832143,0.47434956,-1.352418,1.8664678,-2.0804188,-1.5748948,2.4440475,-0.18841586,0.19149111,-0.25080645,0.08631899,-0.025855972,-0.21651228,-0.28730422,0.05746084,-9.155427,0.8537928,47.705692,-1.3261284,-2.3067667,-3.326988,-0.19708003,-0.13480836,-0.3673664,28.5625,29.8125,28.875,32.6875,35.0625,36.0625
0.3200522,0.015700886,-0.26360926,-1.1794193,-0.008554776,0.055722874,-0.16821672,-0.41280156,-0.36123207,0.06012231,-3.0754313,0.61576205,0.00042507457,-0.14496864,0.04810343,-0.0010345343,0.03636359,-0.01672063,0.025325788,0.47390535,-1.352046,1.8659409,-2.0802267,-1.5749305,2.4436154,-0.1895982,0.1941079,-0.25211692,0.08867911,-0.025709318,-0.21469808,-0.19153613,-0.019153614,-9.174581,0.90527004,47.64658,-1.3339839,-2.1921349,-3.277192,-0.24088442,-0.12224898,-0.4166367,28.5625,29.8125,28.875,32.6875,35.0625,36.0625
0.3220523,-0.00212768,-0.5745477,-1.5129594,-0.0022743843,0.05235532,-0.15847073,-0.41309488,-0.36113688,0.0601243,-3.0753603,0.6155908,0.00042767156,-0.14526184,0.0486059,-0.0016862289,0.03682143,-0.018848468,0.029351432,0.4735449,-1.3516496,1.8654145,-2.080035,-1.5750145,2.4431574,-0.19087584,0.19586211,-0.25311676,0.08997591,-0.02518616,-0.2200019,-0.076614454,0.0,-9.174581,0.92093146,47.66808,-1.2652088,-2.1533375,-3.397299,-0.2659155,-0.1211617,-0.40296993,28.5625,29.8125,28.875,32.6875,35.0625,36.0625
0.32405224,-0.0032161775,-0.0900458,-1.1314248,-0.018529518,0.058851164,-0.1674716,-0.4133902,-0.3610342,0.060124032,-3.0753043,0.6154949,0.00039725294,-0.14763577,0.04844814,-0.0010263998,0.034871932,-0.016732825,0.039779827,0.4731484,-1.3512655,1.8649105,-2.0798557,-1.5750622,2.4427085,-0.19293924,0.19760056,-0.2565216,0.0887944,-0.024490204,-0.2324943,-0.05746084,0.076614454,-9.251195,0.9097417,47.686886,-1.1825927,-2.1401927,-3.4125724,-0.28923276,-0.122990325,-0.31391445,28.5625,29.8125,28.875,32.6875,35.0625,36.0625
0.3260522,-0.06643012,-0.17267545,-1.1089554,-0.024124006,0.06972474,-0.1775175,-0.4136564,-0.36092597,0.060084205,-3.0752125,0.6152995,0.00028872123,-0.14876299,0.04960554,-0.0013681169,0.03429839,-0.017491335,0.045913316,0.47277513,-1.3508457,1.8644556,-2.0796883,-1.5751218,2.4422252,-0.19618806,0.1983852,-0.2567167,0.08855266,-0.02370772,-0.2418773,-0.076614454,0.019153614,-9.193734,0.88960326,47.675243,-1.1197212,-2.1838582,-3.428132,-0.3217691,-0.12785445,-0.16477877,28.5625,29.8125,28.875,32.6875,35.0625,36.0625
0.32805228,-0.8585703,-0.81343305,-1.3348453,-0.0080727525,0.045673393,-0.15058884,-0.41397563,-0.36082664,0.06008071,-3.0751894,0.6152186,0.00023675733,-0.1511994,0.04968153,-0.0014199077,0.03232511,-0.013625309,0.044314485,0.47234252,-1.3504252,1.8639177,-2.0795228,-1.5751337,2.4417453,-0.19822325,0.20001756,-0.25747874,0.08332762,-0.023749955,-0.2423118,-0.05746084,0.076614454,-9.270349,0.8985519,47.689575,-1.0689054,-2.0283241,-3.4550805,-0.2789747,-0.12914217,-0.14379954,28.5625,29.8125,28.875,32.6875,35.0625,36.0625
0.33005232,-0.18573488,-1.3301345,-1.2604766,-0.022936065,0.07441671,-0.1571469,-0.4142609,-0.36072096,0.060086556,-3.0751395,0.6150403,0.00021728038,-0.15296654,0.05023797,-0.0003670951,0.031157512,-0.011060851,0.03465244,0.471958,-1.3500662,1.863427,-2.0793312,-1.5751938,2.441256,-0.20044693,0.19941434,-0.25906354,0.082711115,-0.023880845,-0.23487106,-0.28730422,0.1340753,-9.270349,0.92093146,47.679718,-1.0073059,-2.0332956,-3.4670107,-0.26771343,-0.1392664,-0.19387895,28.5625,29.8125,28.875,32.6875,35.0625,36.0625
0.33205235,-0.46865264,-1.2191411,-1.3284482,-0.0487472,0.07452787,-0.15401113,-0.41457352,-0.36062592,0.060083836,-3.075092,0.6149419,0.00020321694,-0.15726101,0.050244555,0.00071434106,0.027861465,-0.004655018,0.02023823,0.47156087,-1.3496459,1.8628873,-2.0791657,-1.5752419,2.4408038,-0.2039939,0.20123512,-0.26257053,0.077221826,-0.023858761,-0.22400121,-0.38307226,0.24899697,-9.270349,0.9567419,47.664497,-0.9714054,-2.0929422,-3.4650383,-0.22324464,-0.13401583,-0.31759652,28.5625,29.8125,28.875,32.6875,35.0625,36.0625
0.33405247,-1.349738,-1.6154345,-1.6697736,-0.032202583,0.06357773,-0.15079878,-0.41486496,-0.3605206,0.060066517,-3.075013,0.6148907,0.0001443432,-0.15923515,0.049417313,0.00080535293,0.026086418,-0.0023216284,0.012022751,0.47116467,-1.349237,1.8623942,-2.0789993,-1.5752896,2.440386,-0.20446634,0.2039918,-0.265614,0.07463742,-0.023347322,-0.21625733,-0.47884035,0.22984336,-9.308656,0.90750587,47.68062,-0.9889406,-2.1952982,-3.400723,-0.1785087,-0.12496166,-0.44179988,28.5625,29.8125,28.875,32.6875,35.0625,36.0625
0.33605257,-1.4086291,-1.5482997,-1.4679006,-0.050964613,0.090578645,-0.14941393,-0.41517824,-0.36041957,0.06007433,-3.0749724,0.61478484,0.0001402316,-0.15849501,0.048089884,0.0002817637,0.025711844,-0.0020988877,0.012433693,0.47075754,-1.3488412,1.8618568,-2.07882,-1.5753378,2.4399183,-0.20159802,0.20519103,-0.26559228,0.073039204,-0.023123449,-0.21380015,-0.47884035,0.15322891,-9.423578,0.84484416,47.687782,-1.0290124,-2.2017217,-3.4045541,-0.14633133,-0.1560264,-0.54931766,28.5625,29.8125,28.875,32.6875,35.0625,36.0625
0.33805257,-1.4319962,-1.5588958,-1.4860595,-0.06518922,0.12411935,-0.17213735,-0.41547975,-0.36032814,0.060058404,-3.0749376,0.6147124,9.899441e-05,-0.15898022,0.04707187,-0.0013647053,0.026644394,-0.003496815,0.024056409,0.47036204,-1.34842,1.8613533,-2.0786889,-1.5753616,2.4394822,-0.20000719,0.21054697,-0.26815936,0.07186027,-0.023380978,-0.22382826,-0.45968673,0.19153613,-9.423578,0.9791215,47.690468,-1.2154796,-2.1646576,-3.4372168,-0.12939864,-0.15998112,-0.5127441,28.5625,29.8125,28.875,32.6875,35.0625,36.0625
0.3400526,-1.6259749,-1.1522615,-1.6539807,-0.051710896,0.13541913,-0.16553889,-0.41580707,-0.36023924,0.060061593,-3.0749106,0.6145251,0.00014798537,-0.1608825,0.04616053,-7.003651e-05,0.024977064,-0.0017209282,0.038349282,0.46997795,-1.3479875,1.8607897,-2.0785449,-1.5754331,2.4389849,-0.20032029,0.2120929,-0.27332336,0.07304504,-0.022767933,-0.23843561,-0.51714754,0.24899697,-9.385271,1.0149267,47.664497,-1.3103993,-2.176551,-3.437221,-0.07494588,-0.17035559,-0.39104438,28.5625,29.8125,28.875,32.6875,35.0625,36.0625
0.34205252,-2.1645844,-1.6943533,-1.8608015,-0.021631483,0.11336874,-0.14991857,-0.4161107,-0.36015463,0.060040127,-3.0748744,0.61437976,7.768925e-05,-0.16220926,0.046887584,0.00030433643,0.024871431,-0.0012862346,0.046211805,0.46959317,-1.3475319,1.8602508,-2.078389,-1.5754579,2.4385142,-0.20240629,0.21266454,-0.27511692,0.07377141,-0.022931164,-0.24838144,-0.4405331,0.28730422,-9.461885,0.89631605,47.639416,-1.2748177,-2.3810177,-3.2918968,-0.09367577,-0.18978979,-0.26344547,28.5625,29.8125,28.875,32.6875,35.0625,36.0625
0.34405258,-1.3302004,-0.7168291,-1.9102118,-0.04550381,0.10692055,-0.1581557,-0.41644558,-0.3600344,0.06003081,-3.0748265,0.6142756,5.754879e-05,-0.16275467,0.047922563,-0.0011838785,0.026040383,-0.0028589738,0.044007223,0.46913663,-1.3470993,1.8597125,-2.0782335,-1.5755056,2.437999,-0.20420922,0.2151837,-0.27463084,0.07267921,-0.023280786,-0.24797685,-0.40222588,0.22984336,-9.5385,0.9365982,47.666286,-1.3431721,-2.3998451,-3.4491615,-0.05226686,-0.19549528,-0.24546646,28.5625,29.8125,28.875,32.6875,35.0625,36.0625
0.34605175,-1.3504946,-1.5702672,-1.8367672,-0.043558337,0.081403226,-0.15268442,-0.41678137,-0.35997128,0.060054373,-3.074851,0.61405134,0.00019429933,-0.16134438,0.04800806,-0.0011439911,0.027817832,-0.0044242293,0.038990133,0.46878964,-1.34668,1.859126,-2.0781243,-1.5755776,2.437509,-0.20248039,0.21420494,-0.2742348,0.07547178,-0.02411791,-0.24122848,-0.49799395,0.3256114,-9.481039,0.88289046,47.67345,-1.4021322,-2.3133698,-3.5568552,-0.03554792,-0.17141089,-0.3017444,28.5625,29.8125,28.875,32.6875,35.0625,36.0625
0.34805185,-0.9668543,-1.5399824,-1.6098716,-0.063059434,0.07543753,-0.14583725,-0.4170953,-0.3598629,0.060028676,-3.074791,0.6140241,0.000121587516,-0.16196167,0.04899328,-0.0029868009,0.030267278,-0.007022257,0.03231017,0.46835712,-1.3462349,1.858612,-2.0779812,-1.5756019,2.4370675,-0.20386513,0.21832155,-0.27519438,0.075752616,-0.02513768,-0.23592539,-0.68953013,0.2681506,-9.32781,0.9634547,47.689575,-1.3600202,-2.3222508,-3.691113,-0.029417913,-0.16549286,-0.4046321,28.5625,29.8125,28.875,32.6875,35.0625,36.0625
0.35005224,-0.22221425,-0.7347408,-1.6109374,-0.06718369,0.0776507,-0.16702032,-0.4174473,-0.35977495,0.060045637,-3.0747714,0.61392343,0.00019099445,-0.16401416,0.04905107,-0.0014785185,0.029242821,-0.0034337325,0.03165738,0.4679487,-1.3457918,1.8580006,-2.0778258,-1.5756625,2.436599,-0.20508666,0.21798876,-0.27822617,0.075428456,-0.025856629,-0.23649004,-0.40222588,0.15322891,-9.3661175,0.9567419,47.67614,-1.3394454,-2.201467,-3.6993382,-0.015851684,-0.17425194,-0.44305122,28.5625,29.8125,28.875,32.6875,35.0625,36.0625
0.3520524,-0.6093718,-0.7999626,-1.7153594,-0.032941826,0.060781967,-0.1592851,-0.4177795,-0.35968083,0.060048237,-3.074749,0.61380017,0.00021591327,-0.16588512,0.0505485,-0.00038783404,0.029969696,-0.0027751152,0.036440827,0.46754,-1.3453597,1.8574375,-2.0776808,-1.5757111,2.4361165,-0.208395,0.21777299,-0.28115278,0.07825282,-0.026841987,-0.24457592,-0.1340753,0.15322891,-9.32781,0.95226496,47.63315,-1.3317986,-2.25385,-3.5296464,0.008050322,-0.1654276,-0.4058165,28.5625,29.8125,28.875,32.6875,35.0625,36.0625
0.3540532,-0.5681676,-0.29008505,-1.6733841,-0.0016043554,0.049005877,-0.15527509,-0.4181238,-0.35955518,0.060036294,-3.0746741,0.61370194,0.00020577302,-0.16746297,0.051682774,0.000376908,0.029441819,-0.0036240187,0.046727836,0.46708268,-1.3449043,1.8568739,-2.0775125,-1.5757827,2.4356077,-0.21190886,0.21812479,-0.28407732,0.081244744,-0.026061649,-0.25837895,-0.19153613,0.05746084,-9.289502,0.9679317,47.664497,-1.2723057,-2.2115915,-3.51615,-0.0017860953,-0.1843661,-0.27260876,28.5625,29.8125,28.875,32.6875,35.0625,36.0625
0.35605302,-0.40648016,0.28188843,-1.5879973,0.0253113,0.049381096,-0.14967796,-0.4184604,-0.35946634,0.060011458,-3.0746465,0.61344296,0.0001943861,-0.16667372,0.052281443,-0.0006543057,0.030702151,-0.008864213,0.053184446,0.4666863,-1.3444003,1.8562878,-2.077379,-1.5758423,2.4350533,-0.21278694,0.22010137,-0.2852135,0.08558467,-0.024869554,-0.26571855,-0.22984336,-0.095768064,-9.232041,0.90750587,47.666286,-1.0787462,-2.2622943,-3.3986115,-0.016846433,-0.21878356,-0.1427179,28.5625,29.8125,28.875,32.6875,35.0625,36.0625
0.35805237,-0.09510706,0.6491313,-1.7903585,0.049170997,0.04746872,-0.14217435,-0.41880336,-0.35937858,0.06003618,-3.0746527,0.6133911,0.0002392036,-0.16832365,0.053489145,0.00014896243,0.030440008,-0.011356967,0.046237264,0.4662648,-1.343992,1.8556999,-2.0772216,-1.5758656,2.434599,-0.21683279,0.22128853,-0.2897952,0.0910819,-0.023504158,-0.26282355,-0.17238252,-0.11492168,-9.385271,0.8918391,47.667187,-0.898366,-2.4379117,-3.3869445,-0.05638913,-0.228639,-0.12514088,28.5625,29.8125,28.875,32.6875,35.0625,36.0625
0.36005333,-0.0060721394,0.9504548,-1.589769,0.033610053,0.048760146,-0.14553617,-0.41912222,-0.359269,0.060023036,-3.0746138,0.6131974,0.000110198715,-0.16849196,0.054004814,0.00018307377,0.032364428,-0.014385841,0.035255004,0.46582076,-1.3435357,1.8551234,-2.0769923,-1.5758775,2.434039,-0.21744479,0.2230796,-0.29333907,0.09644682,-0.023857102,-0.25244763,-0.19153613,-0.22984336,-9.3661175,0.9410752,47.635834,-0.90804255,-2.5052502,-3.1979203,-0.11619806,-0.24671492,-0.22755569,28.5625,29.8125,28.875,32.6875,35.0625,36.0625
0.36205265,0.69300425,0.33058387,-1.4228076,0.033207502,0.0651132,-0.14548026,-0.41946992,-0.3591631,0.060028277,-3.0745614,0.61309755,0.00011477509,-0.16789337,0.055277694,-0.00094863726,0.036437146,-0.019230684,0.023826096,0.4653883,-1.3430797,1.8545135,-2.0767992,-1.5759381,2.4335513,-0.21800867,0.22558567,-0.295127,0.10192274,-0.02529244,-0.24157311,-0.21068975,-0.21068975,-9.346964,0.92764956,47.627773,-0.83762395,-2.3799376,-3.2245889,-0.19714126,-0.23350602,-0.36676833,28.5625,29.8125,28.875,32.6875,35.0625,36.0625
0.36405233,-0.20104398,-0.10619494,-1.4205779,0.025829455,0.056019463,-0.14282192,-0.41979206,-0.35904747,0.0600041,-3.0744317,0.6130344,1.2737178e-05,-0.16682073,0.055885915,-0.0023430448,0.039651103,-0.02349933,0.018644487,0.4649687,-1.3425874,1.8539156,-2.0765584,-1.5760106,2.4331093,-0.21736133,0.2279418,-0.29569998,0.10540303,-0.026267156,-0.23573515,-0.30645782,-0.24899697,-9.174581,0.9321212,47.668976,-0.9940492,-2.5137253,-3.2593782,-0.25119507,-0.22873905,-0.48952824,28.5625,29.8125,28.875,32.6875,35.0625,36.0625
0.36605248,0.44967496,0.52967674,-1.5371829,0.015442716,0.08064238,-0.16454233,-0.4201269,-0.3589297,0.06000523,-3.0743682,0.61301553,-3.4323843e-05,-0.16589122,0.056204323,-0.0030249022,0.041138437,-0.025770266,0.026159232,0.46451336,-1.3421555,1.8533415,-2.0763543,-1.5760468,2.4326506,-0.21670893,0.22849436,-0.29528272,0.10707529,-0.026635317,-0.24259432,-0.21068975,-0.28730422,-9.251195,0.95226496,47.666286,-1.1599457,-2.4726815,-3.421788,-0.2941596,-0.2511451,-0.4790315,28.5625,29.8125,28.875,32.6875,35.0625,36.0625
0.36805278,-0.23259744,0.75957257,-1.7968099,0.004907077,0.062719695,-0.16949211,-0.42044938,-0.3588252,0.059986953,-3.0742962,0.61276144,-0.00013052071,-0.16617304,0.056341995,-0.0027704905,0.04084101,-0.02528679,0.042706706,0.46410513,-1.341664,1.8527311,-2.0761154,-1.5761069,2.4320931,-0.2169631,0.22822855,-0.2956156,0.10699444,-0.02670419,-0.2593931,0.05746084,-0.2681506,-9.519346,0.947788,47.658226,-1.13743,-2.6202607,-3.4569528,-0.33470917,-0.2757764,-0.34698537,28.5625,29.8125,28.875,32.6875,35.0625,36.0625
0.3700534,-0.382885,-0.72667867,-1.2619159,-0.019908533,0.0892951,-0.16402754,-0.42078906,-0.3586929,0.05997982,-3.074181,0.6125974,-0.00012315226,-0.16839568,0.05624089,-0.0029512155,0.040406547,-0.022081649,0.053213146,0.46367297,-1.3412075,1.8521436,-2.0759013,-1.5762271,2.4315736,-0.21778928,0.23084712,-0.29764545,0.103245266,-0.027850658,-0.2707164,-0.019153614,-0.19153613,-9.385271,0.9634547,47.655537,-1.1955056,-2.4614437,-3.5014992,-0.32881966,-0.24584931,-0.2054851,28.5625,29.8125,28.875,32.6875,35.0625,36.0625
0.37205306,-0.31608665,-0.5849057,-1.1998272,-0.045728296,0.09448335,-0.15594307,-0.42113894,-0.35859597,0.06000889,-3.0741794,0.6123883,-0.00012387506,-0.17106183,0.05526873,-0.00249623,0.037569582,-0.017144004,0.050903928,0.4632407,-1.3407751,1.8514975,-2.0756638,-1.5762633,2.4310112,-0.21839494,0.23297767,-0.30018407,0.09795568,-0.02755248,-0.2690129,-0.3256114,-0.15322891,-9.3661175,0.9186956,47.6421,-1.1680759,-2.543386,-3.5152268,-0.28563356,-0.2691905,-0.15087423,28.5625,29.8125,28.875,32.6875,35.0625,36.0625
