Tylouw/Master_Thesis_Code/training_data_v2/rect_rod_t0.2/sample_14_session_1.csv
timestamp[s],tcp_force_x[N],tcp_force_y[N],tcp_force_z[N],tcp_force_rx[Nm?],tcp_force_ry[Nm?],tcp_force_rz[Nm?],tcp_pose_x[m],tcp_pose_y[m],tcp_pose_z[m],tcp_pose_rx[rot_vec_x],tcp_pose_ry[rot_vec_y],tcp_pose_rz[rot_vec_z],tcp_velo_x[m/s],tcp_velo_y[m/s],tcp_velo_z[m/s],tcp_velo_rx[rot_vec_x/s],tcp_velo_ry[rot_vec_y/s],tcp_velo_rz[rot_vec_z/s],q1[rad],q2[rad],q3[rad],q4[rad],q5[rad],q6[rad],qd1[rad/s],qd2[rad/s],qd3[rad/s],qd4[rad/s],qd5[rad/s],qd6[rad/s],tool_acc_x,tool_acc_y,tool_acc_z,current_of_whole_robot[A],voltage_of_whole_robot[V],current_J1[A],current_J2[A],current_J3[A],current_J4[A],current_J5[A],current_J6[A],temp_J1[C],temp_J2[C],temp_J3[C],temp_J4[C],temp_J5[C],temp_J6[C]
8.09001e-07,0.26163784,-0.27380258,-0.1063223,-0.017291525,0.02319846,-0.009533405,-0.3893175,-0.36871818,0.059983164,-3.0786643,0.6248816,0.00013367334,8.5760985e-05,3.9928582e-05,-8.088019e-05,6.612658e-05,-0.0004108321,5.314174e-05,0.50505686,-1.3816078,1.9042109,-2.0918915,-1.5708655,2.4800253,-7.5409574e-05,0.00010060991,-9.32843e-07,0.00029131645,0.00014158807,-0.00012877893,0.095768064,0.076614454,-8.714894,0.7150385,47.65106,-0.24052987,-3.118567,-2.297876,-0.18380132,0.14609334,-0.014387097,28.4375,29.6875,28.8125,32.5625,34.9375,36.0
0.0020518801,-0.19029133,-0.6013512,-0.2225814,-0.004759764,0.014303616,-6.694954e-05,-0.38934377,-0.36871234,0.06000938,-3.078678,0.6249227,0.0002597256,-0.00082596473,-0.00046636633,-0.001202541,-0.0023292357,0.003899331,5.0210325e-05,0.5050448,-1.3816435,1.9042,-2.0919197,-1.5709013,2.4800372,-7.4371106e-05,0.0009042836,0.0037539583,-0.009198295,0.00013848123,-0.00012519561,0.05746084,0.21068975,-8.676587,0.7709874,47.68062,-0.19179964,-3.0907273,-2.40749,-0.14893481,0.14239275,-0.025278065,28.4375,29.6875,28.8125,32.5625,34.9375,36.0
0.004052521,-0.23230799,-0.40271664,-0.18759437,-0.010414519,0.014518281,-0.010602605,-0.3893336,-0.3687502,0.060014036,-3.0787437,0.6248976,0.00022470197,-0.0011444901,-0.00064356445,-0.0017830083,-0.0023525842,0.0039400468,4.826908e-05,0.5050808,-1.3816309,1.9041771,-2.091931,-1.5708417,2.4800491,-7.3360774e-05,0.0023852815,0.0036476108,-0.010619866,0.00013550284,-0.000121806705,0.038307227,0.22984336,-8.7532015,0.75755644,47.67345,-0.19866201,-3.381001,-2.6119785,-0.03630344,0.13393348,-0.026009059,28.4375,29.6875,28.8125,32.5625,34.9375,36.0
0.006052645,0.022482455,-0.25727963,-0.25506037,0.011232767,0.0033308761,-0.0069410717,-0.38934788,-0.36873233,0.059999168,-3.0787306,0.6248754,0.0002217994,-0.00039930182,-0.00022834595,-0.001022196,-0.0011569604,0.001802553,4.580101e-05,0.5050448,-1.3816074,1.904188,-2.091953,-1.5708536,2.480001,-7.237752e-05,0.0010104816,0.0023875402,-0.0055358373,0.00013264964,-0.00011859613,-0.076614454,0.19153613,-8.580819,0.7351769,47.707485,-0.18767563,-3.3293586,-2.541037,-0.08330249,0.13898145,-0.02445012,28.4375,29.6875,28.8125,32.5625,34.9375,36.0
0.008052638,0.17540921,0.2200671,-0.92314225,0.04882823,-0.019161284,-0.0034159727,-0.38934037,-0.36870763,0.059986934,-3.078658,0.62493783,0.00020169061,-0.00036318324,-0.00020722773,0.0006352783,-0.0011468858,0.0018011171,6.0945014e-05,0.5050329,-1.3816081,1.9042109,-2.0919273,-1.5708898,2.4800372,-7.142022e-05,-0.0011356485,0.00015777527,-0.0011538,0.0001299143,-0.00013267869,-0.095768064,0.17238252,-8.791509,0.7217513,47.68599,-0.17574853,-3.173656,-2.4253492,-0.12613417,0.13106868,-0.012848614,28.4375,29.6875,28.8125,32.5625,34.9375,36.0
0.010051667,0.3158344,0.78609324,-1.115634,0.033595838,-0.008708784,-0.00914147,-0.38931644,-0.36870778,0.059958886,-3.078651,0.6249173,9.363598e-05,-0.00011788247,-6.590663e-05,0.0005196274,-0.0006248818,0.0008668299,5.6229692e-05,0.5050329,-1.381584,1.9042462,-2.0919273,-1.5708536,2.4800253,-7.822443e-05,-0.0009882246,2.1167566e-06,-7.53349e-05,0.00012728928,-0.00013479867,-0.095768064,0.21068975,-9.193734,0.67475104,47.691364,-0.79591537,-2.834052,-2.7816873,-0.1485419,0.14782584,-0.10149081,28.4375,29.6875,28.8125,32.5625,34.9375,36.0
0.01205252,0.0036315958,-0.19796532,-1.1600274,-0.0010070989,0.013143326,-0.01109456,-0.38930112,-0.36871514,0.05995555,-3.0786593,0.6248806,3.7663114e-05,0.0010460723,0.0005938235,-0.00284432,0.0033857713,-0.0063715545,0.00026355372,0.50504476,-1.3815824,1.9042462,-2.0919025,-1.5708297,2.4800131,-0.000101670215,0.005066327,2.839899e-08,0.0021474215,0.0001247684,-0.00036484012,0.05746084,0.05746084,-9.270349,0.87393653,47.67166,-0.9943905,-2.759348,-2.930934,-0.15323772,0.13853127,-0.1371683,28.4375,29.6875,28.8125,32.5625,34.9375,36.0
0.014052545,-0.6318761,-1.006221,-1.2346472,-0.042038064,0.033255585,-0.010245013,-0.38931468,-0.36870423,0.059962183,-3.0786512,0.62482077,5.8651898e-05,-0.0027976008,0.005614498,-0.0062476206,0.0065736175,-0.012134745,-0.0009972799,0.50502855,-1.3815795,1.9042224,-2.0918787,-1.5708536,2.4799607,-0.012148077,0.011614562,3.810087e-10,0.0021836043,0.00012234523,-0.011149372,-0.019153614,0.038307227,-9.308657,0.75084364,47.691364,-0.44864827,-3.3401842,-3.0623093,-0.1728533,0.16944644,-0.096506916,28.4375,29.6875,28.8125,32.5625,34.9375,36.0
0.016052626,-1.3696615,-1.3833227,-1.4310092,-0.059374817,0.048407257,-0.020816203,-0.38932288,-0.3686845,0.05993126,-3.078591,0.62494,-3.5087713e-05,-0.0056313947,0.004816455,-0.002634144,0.0026513147,-0.0050919,0.004723518,0.5049802,-1.3815209,1.9042209,-2.0918677,-1.5708417,2.4799943,-0.01346257,0.008283369,-0.004156638,0.0016091256,0.00013491264,-0.018183459,-0.095768064,0.13407528,-9.404425,0.800085,47.72719,-0.5392313,-3.117618,-2.9879613,-0.14329231,0.17224872,-0.025071628,28.4375,29.6875,28.8125,32.5625,34.9375,36.0
0.018052291,-1.3017843,-1.0786798,-1.4446604,-0.05611237,0.069283664,-0.049108744,-0.38931975,-0.3686731,0.059918594,-3.0785773,0.62493473,-9.057221e-05,-0.006271896,0.004158003,-0.0018335364,0.0016291246,-0.003281306,0.009622547,0.5049565,-1.381509,1.9042329,-2.0918553,-1.5708297,2.479969,-0.012961971,0.00813246,-0.005716558,0.0012404008,0.00014772544,-0.02258126,-0.38307226,0.24899697,-9.461885,0.7239871,47.687782,-0.73539865,-2.822642,-3.0418272,-0.14032944,0.16931382,-0.004088973,28.4375,29.6875,28.8125,32.5625,34.9375,36.0
0.0200522,-1.7908254,-0.45524088,-1.7295403,-0.023476873,0.07147882,-0.06364609,-0.3893266,-0.36865985,0.059902556,-3.078563,0.6248954,-0.0001610332,-0.0064190277,0.0051304116,-0.0027080267,0.0024383569,-0.0048526027,0.007108723,0.50492007,-1.3814725,1.9042209,-2.0918314,-1.5708174,2.47991,-0.014769223,0.008977169,-0.0047040875,0.0011500765,0.00020050851,-0.021875057,-0.51714754,0.19153613,-9.595961,0.7284641,47.683304,-0.8478135,-2.926066,-3.24901,-0.1417371,0.16853733,0.012259955,28.4375,29.6875,28.8125,32.5625,34.9375,36.0
0.022052076,-1.5118319,-0.10351618,-1.8493208,-0.00090101425,0.08108143,-0.08349274,-0.3893114,-0.3686612,0.05988709,-3.0785542,0.6248192,-0.00017820412,-0.0069529666,0.004668676,-0.0027722118,-0.0005219606,-0.0063397884,0.002085238,0.5049434,-1.3814602,1.9042443,-2.0918434,-1.5708283,2.4798868,-0.01655834,0.0099544395,-0.0056811655,0.0010074383,0.0035088435,-0.01864586,-0.49799395,0.11492168,-9.825804,0.7597976,47.691364,-0.8433018,-2.8584628,-3.3691766,-0.16098921,0.16269751,-0.0688867,28.4375,29.6875,28.8125,32.5625,34.9375,36.0
0.02405214,-1.6220008,-0.3401209,-2.0841165,0.008287248,0.07564787,-0.09887776,-0.38933685,-0.36865357,0.05989525,-3.078561,0.6248228,-0.0001643344,-0.008647148,0.0047049844,-0.0027143906,-0.0013313489,-0.0061748954,-0.0015148582,0.5049067,-1.3814476,1.9042081,-2.0918314,-1.5708283,2.4798515,-0.018594133,0.01214586,-0.008399883,0.0009969419,0.004131946,-0.017081127,-0.5363012,0.05746084,-9.787497,0.7329411,47.66987,-0.90628326,-2.8573418,-3.3550596,-0.15629359,0.14142017,-0.07118375,28.4375,29.6875,28.8125,32.5625,34.9375,36.0
0.026052104,-1.336825,-0.10435824,-2.0100057,-0.0021398133,0.09103531,-0.11896888,-0.38934663,-0.3686553,0.059870854,-3.078563,0.624881,-0.00025537531,-0.0096406415,0.0046406463,-0.0024907405,-0.0009041513,-0.0054850047,-0.002298802,0.50487065,-1.381387,1.9041947,-2.0918434,-1.5707806,2.4798515,-0.018971179,0.013473311,-0.010582024,0.0014580555,0.0034200053,-0.01667207,-0.6895301,0.0,-9.768343,0.7217513,47.734352,-0.8941262,-2.9000788,-3.3143387,-0.13962281,0.13464324,-0.10271442,28.4375,29.6875,28.8125,32.5625,34.9375,36.0
0.028052514,-2.0853179,-0.511622,-2.024353,0.002436304,0.09040873,-0.11906148,-0.38936973,-0.36864495,0.059864134,-3.0785332,0.6248551,-0.00026128715,-0.010091729,0.0050002933,-0.0030580861,0.0003672693,-0.006258777,-0.003277388,0.5048465,-1.3813384,1.904147,-2.091819,-1.5708045,2.479815,-0.019536847,0.015235764,-0.0114686135,0.0018768334,0.002680092,-0.016257321,-0.6703765,-0.095768064,-9.825804,0.7709874,47.691364,-0.9674162,-2.8073268,-3.3558474,-0.16553345,0.16673432,-0.106601655,28.4375,29.6875,28.8125,32.5625,34.9375,36.0
0.030052325,-2.2224486,-0.3433081,-2.0079303,-0.015662935,0.10073714,-0.12598893,-0.38941324,-0.36864212,0.059871573,-3.0785708,0.62492174,-0.00022683521,-0.011836665,0.0050167474,-0.002010771,-0.00078047946,-0.004045511,-0.00516249,0.50478613,-1.3813143,1.9041098,-2.0918553,-1.5707806,2.4797914,-0.021150462,0.015309135,-0.013911756,0.0017551376,0.0026092334,-0.015984556,-0.842759,-0.038307227,-9.883265,0.7642693,47.705692,-0.9490782,-2.8423266,-3.331325,-0.13690947,0.17095502,-0.13375045,28.4375,29.6875,28.8125,32.5625,34.9375,36.0
0.032052185,-2.1556013,-0.78039306,-2.1616633,-0.012742325,0.10039572,-0.14554033,-0.3894104,-0.3686219,0.05986654,-3.0785465,0.62484026,-0.00027273814,-0.011797897,0.005043597,-0.0028461977,-0.0011940631,-0.0059323944,-0.006249843,0.5047619,-1.3813137,1.9041098,-2.0918076,-1.5707921,2.4797194,-0.021955647,0.01685043,-0.013780748,0.0015296277,0.0038827434,-0.015704567,-0.8236054,-0.05746084,-9.921572,0.78217715,47.677036,-0.9896807,-2.8167067,-3.304613,-0.16000156,0.17384511,-0.13745753,28.4375,29.6875,28.8125,32.5625,34.9375,36.0
0.034052365,-1.5304658,-0.28805915,-1.8695326,-0.017962921,0.103695095,-0.15758483,-0.3894562,-0.36860728,0.059852388,-3.0785077,0.6249863,-0.00026207932,-0.012967185,0.0048091444,-0.0018122108,-0.0030604464,-0.004177417,-0.00658984,0.50470155,-1.3812419,1.9040626,-2.0918314,-1.5708035,2.4797552,-0.02313933,0.01627113,-0.015394525,0.0012811575,0.004663169,-0.016549055,-0.91937345,0.0,-9.883265,0.7978386,47.685097,-1.0180795,-2.8556092,-3.357904,-0.15907884,0.16209733,-0.15740128,28.4375,29.6875,28.8125,32.5625,34.9375,36.0
0.036052164,-1.6766104,-0.25891772,-1.9960961,0.0027751813,0.084267065,-0.15929922,-0.3894679,-0.36859563,0.05983366,-3.0785205,0.6249894,-0.000354386,-0.013873973,0.0052386206,-0.0020251353,-0.003954102,-0.0048170146,-0.00806721,0.504641,-1.3812054,1.9040622,-2.0918314,-1.5707554,2.4796948,-0.025389161,0.0172233,-0.015981123,0.0010404161,0.0057518394,-0.017323248,-0.6512228,-0.05746084,-9.864111,0.75084364,47.70211,-0.9715208,-2.8015883,-3.3538752,-0.156147,0.16161266,-0.18332002,28.4375,29.6875,28.8125,32.5625,34.9375,36.0
0.038052574,-1.1848372,0.009206479,-1.7973437,0.008867379,0.07555965,-0.18275578,-0.38951302,-0.36859897,0.05986844,-3.078548,0.6250528,-0.00028192066,-0.015426339,0.005423988,-0.0010456749,-0.0049323533,-0.0027210787,-0.008428174,0.5046044,-1.3812056,1.9039778,-2.0918076,-1.5707554,2.4796944,-0.027049294,0.016934255,-0.017830603,0.0008720052,0.0055910335,-0.018621057,-0.53630114,-0.019153614,-9.691729,0.79560274,47.668976,-0.9111097,-2.7030296,-3.3086824,-0.13579324,0.15862663,-0.17997432,28.4375,29.6875,28.8125,32.5625,34.9375,36.0
0.040051613,-1.1444145,-0.33808997,-1.9052374,0.015359599,0.06412261,-0.18014725,-0.38955075,-0.36856994,0.059854064,-3.0785177,0.62512344,-0.00031064413,-0.016305022,0.005474006,-0.00087548146,-0.005435624,-0.0022951534,-0.008010638,0.50452024,-1.3811573,1.9039534,-2.0918076,-1.5707554,2.4796581,-0.028097155,0.017673494,-0.019064838,0.000750405,0.0058218404,-0.020086367,-0.47884035,-0.019153614,-9.749189,0.76874626,47.666286,-0.9512826,-2.7777894,-3.3416243,-0.16000372,0.1572373,-0.19156638,28.4375,29.6875,28.8125,32.5625,34.9375,36.0
0.04205169,-1.0473791,-0.23023042,-1.7450993,0.0017387399,0.07400585,-0.18461166,-0.38958547,-0.36856332,0.05983841,-3.078532,0.62504977,-0.00028358883,-0.01683112,0.0053257607,-0.00084532663,-0.006538532,-0.002604606,-0.0085696,0.50448406,-1.381097,1.9039286,-2.0918558,-1.5707673,2.4795742,-0.029032627,0.018363072,-0.019928968,0.0006586241,0.0069350027,-0.020464303,-0.2873042,0.076614454,-9.576807,0.7777002,47.679718,-0.97727585,-2.7050083,-3.300912,-0.13842288,0.14692771,-0.2094643,28.4375,29.6875,28.8125,32.5625,34.9375,36.0
0.044052582,-1.3019457,-0.11546847,-2.0197654,-0.008703957,0.05669705,-0.1908819,-0.3896297,-0.36855996,0.0598655,-3.078577,0.6252506,-0.00027399202,-0.018252224,0.0057329903,-5.1578692e-05,-0.0073621054,-0.0010005445,-0.009063553,0.5043996,-1.3811091,1.9038814,-2.0918558,-1.5707072,2.4796093,-0.031006869,0.018027896,-0.021322373,0.0005868954,0.0068785264,-0.021943558,-0.22984336,0.076614454,-9.672575,0.7486078,47.66987,-0.96852213,-2.6972084,-3.2456305,-0.1316767,0.14148097,-0.23808254,28.4375,29.6875,28.8125,32.5625,34.9375,36.0
0.046052504,-0.71715444,-0.67774266,-1.7908305,-0.009891964,0.052029878,-0.16753402,-0.3896836,-0.3685153,0.059852682,-3.0784762,0.62522936,-0.00025992258,-0.020015003,0.0067114444,1.018131e-05,-0.0069599315,-0.00032011053,-0.009761432,0.5043267,-1.3810246,1.903797,-2.0917957,-1.5707916,2.479536,-0.033869956,0.019201532,-0.02283881,0.0005292743,0.0061924127,-0.024107158,-0.05746084,-0.038307227,-9.672575,0.7933669,47.70211,-0.86452436,-2.6831222,-3.3277972,-0.12351865,0.15298492,-0.21570091,28.4375,29.6875,28.8125,32.5625,34.9375,36.0
0.048051666,-0.4244692,-0.6138008,-1.7895445,-0.014517883,0.045457687,-0.16827433,-0.38969496,-0.3685222,0.05984616,-3.0785515,0.6251677,-0.00029197717,-0.021509748,0.0071608587,0.00054881594,-0.0069621215,0.0012130806,-0.009044975,0.50429016,-1.3810124,1.9038085,-2.0918438,-1.5707315,2.4794514,-0.03555775,0.019624133,-0.02455319,0.00048197364,0.005449702,-0.02650919,-0.076614454,0.11492168,-9.634268,0.7463667,47.690468,-0.92210114,-2.6065826,-3.2410436,-0.13638687,0.16617957,-0.23572382,28.4375,29.6875,28.8125,32.5625,34.9375,36.0
0.05005219,0.048861098,-0.69578284,-1.8089617,-0.010681239,0.040265325,-0.16639447,-0.38976404,-0.36850047,0.059848066,-3.0785575,0.62526524,-0.00027509304,-0.022868842,0.007686998,0.001162162,-0.0076344963,0.0024386793,-0.009223815,0.5041816,-1.3809526,1.903736,-2.0918558,-1.5707196,2.479403,-0.037703265,0.019457284,-0.025743838,0.0004424421,0.005444286,-0.02847526,-0.038307227,0.21068975,-9.615114,0.7150385,47.694946,-0.82096875,-2.6386492,-3.2170548,-0.14535584,0.17230019,-0.21710883,28.4375,29.6875,28.8125,32.5625,34.9375,36.0
0.05205203,-0.5145431,-0.54259944,-1.6264458,-0.01610511,0.021914009,-0.159629,-0.38981193,-0.36847338,0.05985084,-3.078506,0.62529284,-0.0002413807,-0.02363208,0.008021005,0.00072609924,-0.007852636,0.0015345527,-0.0090003535,0.5041213,-1.380904,1.903664,-2.0918195,-1.5707678,2.4793665,-0.03936585,0.02100903,-0.026579238,0.00040890963,0.006069616,-0.030361874,-0.05746084,0.1340753,-9.481039,0.800085,47.690468,-0.7559994,-2.65001,-3.2333338,-0.12922749,0.1738519,-0.23910381,28.4375,29.6875,28.8125,32.5625,34.9375,36.0
0.054052033,0.079713754,-0.6710965,-1.8253373,-0.018280564,0.030644013,-0.15813477,-0.38986877,-0.36847752,0.059876516,-3.078605,0.6253508,-0.00018848691,-0.023540856,0.007732848,0.0004532231,-0.008419345,0.00069066667,-0.008206002,0.50403744,-1.3809037,1.9036163,-2.0918682,-1.5707072,2.4793062,-0.039356124,0.021750845,-0.026827985,0.00038010464,0.006976024,-0.031147176,-0.038307227,0.21068975,-9.346964,0.83589023,47.690468,-0.7914938,-2.5977054,-3.2410038,-0.14515172,0.17102638,-0.23800942,28.4375,29.6875,28.8125,32.5625,34.9375,36.0
0.056052,-0.46375537,-0.81944025,-1.5456088,-0.015196825,0.021985618,-0.15908733,-0.38991782,-0.36843604,0.05986914,-3.0785582,0.6254176,-0.00021952437,-0.024216855,0.007814868,0.00072814536,-0.009142478,0.0010621847,-0.00790869,0.50392926,-1.3808557,1.9035681,-2.091832,-1.5707191,2.4792457,-0.04040257,0.021913325,-0.027641267,0.0003550929,0.007427153,-0.032491583,-0.019153614,0.22984336,-9.461885,0.76874626,47.719128,-0.8824277,-2.5507493,-3.2626367,-0.12764812,0.17252162,-0.24115993,28.4375,29.6875,28.8125,32.5625,34.9375,36.0
0.058052365,-0.4117929,-0.76691186,-1.4066856,-0.016435679,0.025351685,-0.16070993,-0.38995928,-0.3684391,0.059869487,-3.0785878,0.62540424,-0.00023046564,-0.026107898,0.008259195,0.0015244761,-0.010503868,0.0024471912,-0.008863977,0.5038805,-1.3807955,1.9034961,-2.091832,-1.5706948,2.4791849,-0.043235052,0.02213685,-0.029713806,0.00033317172,0.00794634,-0.034368675,0.0,0.2681506,-9.481039,0.74413085,47.64389,-0.8500544,-2.5343046,-3.2699862,-0.11514634,0.17109117,-0.25763476,28.4375,29.6875,28.8125,32.5625,34.9375,36.0
0.060052246,-0.20256947,-0.3835912,-1.388302,-0.023604134,0.032868043,-0.16390693,-0.3900309,-0.36843514,0.059889983,-3.078653,0.62545633,-0.00018235786,-0.027060743,0.008258925,0.0016508227,-0.01152765,0.0024255689,-0.00919147,0.50378406,-1.3807589,1.9034117,-2.0918558,-1.5706581,2.4791126,-0.044682577,0.023091856,-0.031125976,0.0003138019,0.0088532735,-0.03548885,-0.095768064,0.30645782,-9.404425,0.7866488,47.687782,-0.78696156,-2.632564,-3.2028947,-0.14327666,0.16633688,-0.25781482,28.4375,29.6875,28.8125,32.5625,34.9375,36.0
0.062052295,-0.09480625,-0.6139008,-1.4448898,-0.019941438,0.03895803,-0.15552606,-0.3900617,-0.36841553,0.059886824,-3.0786612,0.6255148,-0.00023323888,-0.027631681,0.008317522,0.001384904,-0.011982103,0.0017592182,-0.009398081,0.5037,-1.3807346,1.9033874,-2.0918438,-1.5706223,2.479064,-0.0457587,0.024341548,-0.031994738,0.00029656157,0.009571086,-0.036359068,-0.076614454,0.19153613,-9.423578,0.7732232,47.68599,-0.8154535,-2.5578246,-3.2229266,-0.13197291,0.14533775,-0.28713495,28.4375,29.6875,28.8125,32.5625,34.9375,36.0
0.06405233,-0.8058185,-0.6519577,-1.6025065,-0.01890993,0.03141911,-0.15130657,-0.3901284,-0.36840165,0.059892133,3.078657,-0.62561065,0.00024280112,-0.028608494,0.008754537,0.0013982845,-0.011586787,0.002215787,-0.010008483,0.5035918,-1.3806742,1.903304,-2.0918438,-1.5705861,2.479016,-0.047044154,0.02522706,-0.033069402,0.00028111637,0.009003688,-0.037032425,-0.1340753,0.22984336,-9.461885,0.7486078,47.691364,-0.8226383,-2.534594,-3.228362,-0.13553992,0.16080204,-0.28403762,28.4375,29.6875,28.8125,32.5625,34.9375,36.0
0.06605184,-1.0767105,-0.75270176,-1.4326162,-0.01399174,0.039959088,-0.1549288,-0.3901864,-0.3683747,0.059901923,3.0786638,-0.62555254,0.00017512032,-0.02961155,0.008787981,0.0016475057,-0.012490714,0.0025303524,-0.009505003,0.5035075,-1.38065,1.9032558,-2.0918558,-1.5706104,2.4788947,-0.04842879,0.025971478,-0.03451389,0.00026720116,0.009642309,-0.038920496,-0.19153613,0.15322891,-9.3661175,0.7866488,47.72808,-0.8217766,-2.4639103,-3.2512732,-0.1338497,0.16520111,-0.31662175,28.4375,29.6875,28.8125,32.5625,34.9375,36.0
0.068052076,-1.1112949,-0.43021277,-1.4221381,-0.010542185,0.051920276,-0.15656704,-0.390254,-0.3683614,0.059905097,3.0786185,-0.6256003,0.00019891537,-0.030046005,0.008945604,0.0016086362,-0.012656538,0.0024527584,-0.0074785524,0.5033995,-1.3805778,1.9031605,-2.0918438,-1.5705742,2.4788222,-0.04920523,0.026449889,-0.034989588,0.0002546001,0.009825074,-0.041723292,-0.26815057,0.11492168,-9.385271,0.75084364,47.68599,-0.8395212,-2.5196915,-3.2509587,-0.12937137,0.12882681,-0.30651,28.4375,29.6875,28.8125,32.5625,34.9375,36.0
0.07005219,-1.2191979,-0.618691,-1.3127911,1.7884922e-05,0.055982415,-0.14614753,-0.3903087,-0.36835936,0.05990712,3.0785742,-0.6255529,0.00021858177,-0.031250633,0.009568972,0.001808907,-0.0129514225,0.0029153074,-0.0087679215,0.503315,-1.3805176,1.9030875,-2.0918558,-1.570526,2.4787138,-0.051391754,0.026883489,-0.035956264,0.00024313355,0.009859843,-0.0426198,-0.2681506,0.095768064,-9.404425,0.7642693,47.694946,-0.8613477,-2.442669,-3.2579157,-0.12233554,0.13790078,-0.31202152,28.4375,29.6875,28.8125,32.5625,34.9375,36.0
0.07205226,-1.0665196,0.0007490687,-1.2726824,-0.008510597,0.066173226,-0.15632556,-0.39038056,-0.36833012,0.059920236,3.0785408,-0.6256442,0.00016285722,-0.03273068,0.0100232195,0.001979698,-0.013967083,0.0030178668,-0.012035846,0.50320625,-1.3804812,1.9030145,-2.0918558,-1.5705379,2.4786663,-0.054051023,0.02789737,-0.037541904,0.00023265551,0.010699185,-0.042011213,-0.2873042,0.11492168,-9.289502,0.78888994,47.70211,-0.70445204,-2.479575,-3.1936877,-0.13793103,0.14440276,-0.34679326,28.4375,29.6875,28.8125,32.5625,34.9375,36.0
0.07405209,-0.8848163,-0.110800825,-1.2836503,-0.0014739728,0.07711869,-0.15751216,-0.3904663,-0.3683301,0.059929043,3.0785046,-0.6255746,0.00013144995,-0.032261487,0.008951325,0.0019825797,-0.014475373,0.0029046854,-0.0067095724,0.50311106,-1.3803848,1.9028834,-2.0918682,-1.5705136,2.4785323,-0.052112717,0.02860549,-0.038385488,0.00022304409,0.01120023,-0.04539894,-0.38307226,0.076614454,-9.308656,0.7597976,47.67614,-0.90399134,-2.4853854,-3.2726674,-0.12614438,0.11565331,-0.34418035,28.4375,29.6875,28.8125,32.5625,34.9375,36.0
0.076051965,-1.7769419,-0.39409438,-1.3741153,0.0051378603,0.06516184,-0.1521407,-0.3905036,-0.36830395,0.05991701,3.078481,-0.6256285,0.0002253379,-0.033633564,0.009991095,0.001913869,-0.014113225,0.0031076223,-0.006817383,0.5030023,-1.3803365,1.9028481,-2.0918438,-1.5704654,2.47846,-0.054874487,0.029405108,-0.03917392,0.00021419514,0.010782723,-0.048052263,-0.40222588,0.038307227,-9.251195,0.69041777,47.69763,-0.8739301,-2.410719,-3.2304864,-0.13805856,0.117665224,-0.338087,28.4375,29.6875,28.8125,32.5625,34.9375,36.0
0.07805227,-0.89793485,-0.06644324,-1.354719,0.005499679,0.0903994,-0.16180792,-0.39058048,-0.3683076,0.059959646,3.0784192,-0.62553537,0.000107270746,-0.03485761,0.010609554,0.0015647091,-0.014510832,0.0023283765,-0.0041401586,0.5029297,-1.3803239,1.9027389,-2.0918558,-1.570454,2.4783373,-0.057499867,0.031037122,-0.04030668,0.00020602132,0.01151073,-0.05335396,-0.4405331,0.019153614,-9.346964,0.784413,47.678825,-0.8257204,-2.4811816,-3.2134323,-0.14132062,0.11258507,-0.29944292,28.4375,29.6875,28.8125,32.5625,34.9375,36.0
0.08005228,-0.9250129,0.3961011,-1.316485,-0.00017096732,0.083279796,-0.16197458,-0.3906426,-0.36826548,0.059922166,3.0784276,-0.6256342,0.00021952567,-0.035811946,0.011101787,0.0016323337,-0.014623585,0.0025753279,-0.0052819666,0.50278544,-1.3802037,1.9026793,-2.0918438,-1.5704292,2.4782536,-0.059192657,0.03160514,-0.04113461,0.00019844943,0.01148616,-0.053905327,-0.47884035,-0.038307227,-9.3661175,0.75755644,47.703903,-0.771407,-2.4688616,-3.2076302,-0.12444984,0.09059562,-0.30034205,28.4375,29.6875,28.8125,32.5625,34.9375,36.0
0.08205252,-1.4297626,-0.03751616,-1.4175122,0.0068458514,0.0725165,-0.14887159,-0.39071214,-0.368242,0.059917055,3.0784032,-0.6256264,0.00023098923,-0.0352202,0.0100946175,0.0012249066,-0.014749205,0.0017475685,-0.0007841055,0.50266635,-1.3801311,1.9026078,-2.0918558,-1.5704054,2.4781327,-0.057256084,0.032991048,-0.041847084,0.00019141362,0.011995288,-0.056466706,-0.47884035,-0.11492168,-9.289502,0.78888994,47.698532,-1.015506,-2.4513104,-3.2333913,-0.13480301,0.11360049,-0.29091394,28.4375,29.6875,28.8125,32.5625,34.9375,36.0
0.084052324,-1.1336153,0.17752463,-1.2467611,-0.0009655,0.0791617,-0.16082206,-0.39076442,-0.36822847,0.059921253,3.0783706,-0.6255596,0.00029191546,-0.03655455,0.011127666,0.0013751305,-0.014553011,0.0023146058,0.00091256545,0.50255775,-1.3800828,1.9025358,-2.091832,-1.5703458,2.4779866,-0.059949864,0.033247292,-0.042491335,0.00018486004,0.011549968,-0.06085623,-0.47884035,-0.076614454,-9.289503,0.7777002,47.690468,-0.92674005,-2.4297385,-3.2184896,-0.14177746,0.10228124,-0.25545686,28.4375,29.6875,28.8125,32.5625,34.9375,36.0
0.08605227,-1.4558699,0.032628812,-1.4591967,0.0062829824,0.07050065,-0.1557588,-0.3908447,-0.3681765,0.059928674,3.0784028,-0.625508,0.00021463717,-0.03724718,0.0116817625,0.0009024562,-0.013652927,0.0018921334,0.003009222,0.5024256,-1.3800464,1.9024757,-2.091832,-1.5703939,2.4778183,-0.06115329,0.034690604,-0.043123066,0.00017874072,0.0109660635,-0.064154744,-0.38307226,-0.17238252,-9.481039,0.7351769,47.73077,-0.9264507,-2.5023847,-3.2537074,-0.13038224,0.11130136,-0.21576363,28.4375,29.6875,28.8125,32.5625,34.9375,36.0
0.08805264,-1.0326049,-0.44040278,-1.3841798,0.012771131,0.073448874,-0.15102293,-0.39092523,-0.36815438,0.059921876,3.078383,-0.6255199,0.0002138395,-0.038010318,0.011489142,0.0009770157,-0.0140912365,0.0021001445,0.005819984,0.50230575,-1.3799499,1.9023799,-2.0918438,-1.5703815,2.4777083,-0.06170429,0.035861883,-0.0446798,0.00017301292,0.011248694,-0.06751596,-0.4213795,-0.076614454,-9.3661175,0.77545905,47.688675,-1.0105754,-2.5384555,-3.2433295,-0.13083215,0.107262485,-0.1872927,28.4375,29.6875,28.8125,32.5625,34.9375,36.0
0.09005185,-0.7158256,0.051072434,-1.466063,-0.0009046913,0.07167957,-0.15467359,-0.39103296,-0.36813435,0.059946623,3.078307,-0.6255613,0.00017825332,-0.039924398,0.01136347,0.0018632968,-0.01495787,0.004141692,0.0067062974,0.5021496,-1.3798777,1.9022354,-2.091832,-1.5703458,2.4775877,-0.06311673,0.036841296,-0.047854647,0.00016764144,0.011024538,-0.069812305,-0.36391866,0.0,-9.32781,0.75084364,47.695843,-1.0304885,-2.4598482,-3.154842,-0.14042845,0.113329366,-0.13491453,28.4375,29.6875,28.8125,32.5625,34.9375,36.0
0.09205183,-0.6446429,-0.1082567,-1.6557922,-0.00097142364,0.069204375,-0.15578696,-0.3911049,-0.368093,0.059925918,3.0783103,-0.6255411,0.00020626928,-0.03916677,0.01200569,0.00042044854,-0.013582324,0.0014398027,0.008258621,0.5020057,-1.3797929,1.9021877,-2.0918558,-1.5703338,2.4774308,-0.06354484,0.03816313,-0.046138205,0.0001625929,0.011123451,-0.07179351,-0.2681506,-0.019153614,-9.289502,0.8023209,47.689575,-1.0445356,-2.5549376,-3.2385397,-0.14469187,0.11547358,-0.118871465,28.4375,29.6875,28.8125,32.5625,34.9375,36.0
0.0940519,-0.8832787,-0.47744584,-1.6542196,-0.00485257,0.056125917,-0.14574358,-0.39119294,-0.36808208,0.059944198,3.0782518,-0.6255479,0.00013448056,-0.03993248,0.012111087,0.00077871676,-0.014484696,0.0018941191,0.008566139,0.50189745,-1.3797328,1.9020804,-2.0918796,-1.570321,2.4773343,-0.06477989,0.038227387,-0.047029495,0.00015784008,0.011700276,-0.073335655,-0.15322891,0.076614454,-9.32781,0.77545905,47.67614,-1.0239716,-2.4438524,-3.3791451,-0.14673424,0.10049373,-0.07800464,28.4375,29.6875,28.8125,32.5625,34.9375,36.0
0.096052155,-0.07003635,-0.17357151,-1.4627873,-0.023740532,0.06567605,-0.16209705,-0.39125404,-0.3680417,0.059922352,3.0782924,-0.6254981,0.00021760279,-0.040899944,0.012275745,0.00032118915,-0.013884081,0.0015314904,0.007570938,0.50176555,-1.379636,1.9020075,-2.0918438,-1.5703095,2.4771662,-0.06572354,0.040536575,-0.048723698,0.00015335705,0.011341157,-0.07328328,-0.21068975,0.05746084,-9.32781,0.8179876,47.70032,-1.1315434,-2.501647,-3.2870593,-0.13033651,0.10848537,-0.07231847,28.4375,29.6875,28.8125,32.5625,34.9375,36.0
0.09805314,-0.2618699,-0.68196636,-1.6624429,-0.013562752,0.053272024,-0.14820828,-0.39135653,-0.36802304,0.059944812,3.0782034,-0.62552,0.00018084102,-0.043120455,0.012202764,0.0016805922,-0.015228504,0.004387218,0.0051613897,0.50160927,-1.3795757,1.9018878,-2.0918558,-1.5702618,2.4770348,-0.06752358,0.040798888,-0.05212641,0.00014912193,0.011145724,-0.0726713,-0.17238252,0.11492168,-9.423578,0.800085,47.693153,-1.1960151,-2.5636072,-3.1727176,-0.14987233,0.09812893,-0.06852312,28.4375,29.6875,28.8125,32.5625,34.9375,36.0
0.100052774,-0.65045303,-1.1715062,-1.7065014,-0.0057452046,0.04095622,-0.14129275,-0.39144614,-0.36799836,0.05993714,3.0782018,-0.62544286,0.00017878266,-0.043506373,0.012781972,0.0012689746,-0.014411738,0.003947957,0.003408223,0.5014771,-1.3794676,1.90178,-2.0918682,-1.5702499,2.4768548,-0.06852884,0.041603036,-0.05214486,0.00014511407,0.010642797,-0.07192252,-0.076614454,0.15322891,-9.385271,0.75084364,47.66987,-1.1187348,-2.4451096,-3.181731,-0.1414956,0.088685505,-0.06915957,28.4375,29.6875,28.8125,32.5625,34.9375,36.0
0.10205226,-0.15049759,-0.77354115,-1.6595811,-0.027948838,0.04817311,-0.15274641,-0.39152995,-0.36798203,0.059944417,3.0781693,-0.62543774,0.00017621584,-0.04368653,0.013906466,0.00011601797,-0.012601017,0.002277643,0.0009441267,0.50135696,-1.3793828,1.9016603,-2.0918558,-1.5702261,2.4767356,-0.07008848,0.043108318,-0.05130587,0.00014131628,0.009862141,-0.07101699,-0.19153613,0.22984336,-9.481039,0.8179876,47.66987,-1.1382413,-2.5720778,-3.3629298,-0.14767596,0.10389486,-0.07236064,28.4375,29.6875,28.8125,32.5625,34.9375,36.0
0.10405195,-0.28032032,-1.0905701,-1.6561927,-0.031268835,0.041568752,-0.15109041,-0.39161503,-0.3679342,0.059951775,3.0781908,-0.6254237,0.00015221324,-0.045528382,0.0139466105,0.0008484825,-0.013906633,0.003650985,-0.0026759426,0.5012124,-1.3793225,1.901564,-2.0918195,-1.5702499,2.4765797,-0.07215034,0.04399891,-0.05402733,0.00013771222,0.010342109,-0.06945813,-0.11492168,0.28730422,-9.404425,0.8157518,47.661808,-1.0968441,-2.5225542,-3.2418349,-0.14569017,0.09996729,-0.09493272,28.4375,29.6875,28.8125,32.5625,34.9375,36.0
0.106052324,-0.26944736,-1.094191,-1.6669321,-0.030913744,0.036318343,-0.14891417,-0.39173007,-0.36792007,0.0599435,3.0781078,-0.6254849,0.00017091792,-0.046277154,0.014190697,0.0011488338,-0.014448111,0.0041554277,-0.0056640315,0.5010445,-1.3791784,1.9014205,-2.0918558,-1.5701898,2.4764605,-0.07338049,0.044038884,-0.054762222,0.00013428727,0.010576722,-0.06769981,-0.095768064,0.34476504,-9.3661175,0.82694155,47.711964,-1.1474503,-2.5223646,-3.2503524,-0.16507179,0.11356804,-0.11748328,28.4375,29.6875,28.8125,32.5625,34.9375,36.0
0.1080519,-0.17305568,-1.125499,-1.8806788,-0.030716226,0.03937019,-0.14675479,-0.39178574,-0.36788017,0.059926473,3.0780861,-0.62548107,0.00027606488,-0.04694257,0.014473354,8.262604e-05,-0.013855006,0.0023527183,-0.008219171,0.5008883,-1.3791173,1.9013842,-2.0918438,-1.5701298,2.4763045,-0.07467609,0.047036193,-0.05588644,0.00013102865,0.01091852,-0.06644015,-0.076614454,0.30645782,-9.385271,0.71279734,47.687782,-1.119039,-2.550109,-3.2472396,-0.15318659,0.11862786,-0.14775026,28.4375,29.6875,28.8125,32.5625,34.9375,36.0
0.11005195,-0.40703338,-1.0747275,-1.6961695,-0.028289234,0.036669012,-0.1402991,-0.3919025,-0.3678502,0.059948895,3.0780468,-0.6254929,0.00015280288,-0.047455307,0.014512706,7.429645e-05,-0.014643072,0.0020252825,-0.0105173355,0.5007442,-1.3790449,1.9012531,-2.0918682,-1.5701531,2.476173,-0.075729705,0.047629412,-0.056571413,0.00012792455,0.011771894,-0.0651953,-0.076614454,0.30645782,-9.3661175,0.7418897,47.709274,-1.1651855,-2.5742579,-3.2926302,-0.15549937,0.11081888,-0.19196293,28.4375,29.6875,28.8125,32.5625,34.9375,36.0
0.112052254,-0.4338479,-1.0146652,-1.7824225,-0.02738407,0.04646203,-0.13837296,-0.39202836,-0.36783102,0.059968118,3.0779924,-0.6254817,7.792198e-05,-0.048725072,0.0148102455,0.0014107476,-0.015417394,0.0047775907,-0.012038118,0.50058824,-1.3789375,1.9010848,-2.0918796,-1.5701417,2.476017,-0.076985225,0.046109494,-0.057810515,0.00010552888,0.011133472,-0.06492826,-0.1340753,0.24899697,-9.32781,0.73741806,47.684196,-1.2229363,-2.4943566,-3.2567782,-0.16826096,0.0960557,-0.20755565,28.4375,29.6875,28.8125,32.5625,34.9375,36.0
0.11405248,-0.601735,-0.8986174,-2.0832713,-0.015193277,0.04873782,-0.14879231,-0.39208066,-0.36779478,0.059938427,3.0780041,-0.6255596,0.00021554579,-0.04923284,0.014625023,0.0010871367,-0.015479337,0.0042754123,-0.010524819,0.5004565,-1.3788288,1.9010128,-2.091832,-1.5701059,2.4759324,-0.07731414,0.047812745,-0.0590954,0.00010187223,0.0114226,-0.06677097,-0.11492168,0.22984336,-9.423578,0.80456203,47.67166,-1.3407662,-2.4124205,-3.2443933,-0.16942134,0.1142445,-0.24277554,28.4375,29.6875,28.8125,32.5625,34.9375,36.0
0.11605242,-0.84627604,-0.5990682,-1.6503326,-0.014881881,0.05055809,-0.14233857,-0.39218318,-0.3677802,0.059946746,3.0779219,-0.6255831,0.00022221082,-0.050806493,0.015735537,0.00070559426,-0.01593345,0.003383477,-0.013840633,0.50029933,-1.3787321,1.9008821,-2.0918438,-1.5700454,2.4758003,-0.08113532,0.049343146,-0.060038228,8.224454e-05,0.0122518,-0.06727611,-0.15322891,0.17238252,-9.442732,0.7284641,47.652847,-1.1121061,-2.529737,-3.2441947,-0.16982037,0.09418463,-0.2443175,28.4375,29.6875,28.8125,32.5625,34.9375,36.0
0.11805182,-0.96246994,-0.1830621,-1.5804777,-0.019730428,0.05294477,-0.1464357,-0.3923172,-0.3677332,0.05996406,3.077869,-0.62568635,0.00016471467,-0.050431043,0.015083835,-0.00034676428,-0.015320039,0.0015875761,-0.013356272,0.50009626,-1.378635,1.9007252,-2.091832,-1.5700454,2.4756684,-0.07987163,0.05207161,-0.060874704,6.118214e-05,0.012577846,-0.06649578,-0.24899697,0.11492168,-9.442732,0.77545905,47.66987,-1.2775631,-2.6569242,-3.234838,-0.18820089,0.10572265,-0.31446812,28.4375,29.6875,28.8125,32.5625,34.9375,36.0
0.12005179,-0.4337221,-0.021884333,-1.5549916,-0.016160252,0.06978663,-0.15019023,-0.39238912,-0.3677114,0.059948932,3.0778592,-0.6256281,0.00024271345,-0.052522037,0.016437624,0.00081097597,-0.016621709,0.0036656135,-0.01628844,0.49996305,-1.3785274,1.9006294,-2.0918195,-1.5699972,2.4755,-0.08415592,0.05055078,-0.061686784,-4.8283095e-05,0.012722041,-0.06784828,-0.2873042,0.1340753,-9.461885,0.779936,47.660015,-1.2911115,-2.6154315,-3.2832656,-0.18313101,0.09079189,-0.32716954,28.4375,29.6875,28.8125,32.5625,34.9375,36.0
0.12205217,-0.7974532,-0.5940136,-1.5061268,0.009953151,0.066895194,-0.14127137,-0.39249682,-0.36769688,0.059963156,3.0777853,-0.62566847,0.00015254642,-0.053094678,0.015671225,0.0017622025,-0.017453302,0.005647454,-0.014125583,0.49983162,-1.3784436,1.9005088,-2.0918682,-1.5699853,2.4754033,-0.08324027,0.05029396,-0.0635443,-6.769256e-05,0.012505802,-0.069093496,-0.3256114,0.038307227,-9.423578,0.80679786,47.683304,-1.2702821,-2.4266644,-3.2749739,-0.20231271,0.09667368,-0.34213,28.4375,29.6875,28.8125,32.5625,34.9375,36.0
0.124052,-1.0314444,0.026387684,-1.5645492,0.004095072,0.07007853,-0.14478214,-0.39261377,-0.3676585,0.059965618,3.0777626,-0.62570405,0.00015378626,-0.0537384,0.01629811,0.0007862893,-0.016747935,0.0040046573,-0.018480366,0.4996515,-1.3783225,1.9003543,-2.0918438,-1.5699733,2.4752483,-0.08497264,0.052609604,-0.06407108,-7.605915e-05,0.012674339,-0.06647057,-0.30645782,-0.095768064,-9.423578,0.85155696,47.655537,-1.3652296,-2.4793978,-3.2776923,-0.20043015,0.09483136,-0.41008794,28.4375,29.6875,28.8125,32.5625,34.9375,36.0
0.12605186,-1.3203253,-0.37786618,-1.4150022,0.021126311,0.068636104,-0.1345487,-0.39273283,-0.36764172,0.059969664,3.0776892,-0.6256877,0.00013203741,-0.054869987,0.016794665,0.00086634536,-0.016843027,0.004358905,-0.018060004,0.4994833,-1.3782022,1.9002107,-2.0918796,-1.5699252,2.4750793,-0.086777575,0.053424392,-0.0652196,-9.143587e-05,0.012592656,-0.06869447,-0.3256114,-0.076614454,-9.3661175,0.74413085,47.666286,-1.3510897,-2.5216625,-3.312874,-0.1908262,0.10403577,-0.45267236,28.4375,29.6875,28.8125,32.5625,34.9375,36.0
0.12805255,-1.4837636,0.5089715,-1.417646,0.006563036,0.07061058,-0.14982049,-0.39282858,-0.36759087,0.059950937,3.0776763,-0.62572163,0.00023850072,-0.05575355,0.01686036,0.00095535116,-0.017626995,0.0043668295,-0.015743472,0.49927932,-1.3780817,1.9001025,-2.0918438,-1.569877,2.474898,-0.08810772,0.054330487,-0.06650097,-9.206799e-05,0.013275266,-0.07234178,-0.4405331,-0.076614454,-9.385271,0.80679786,47.690468,-1.3200312,-2.4651668,-3.2568421,-0.2130263,0.08947001,-0.46184307,28.4375,29.6875,28.8125,32.5625,34.9375,36.0
0.13005188,-0.8082537,0.18356347,-1.4697974,0.013920731,0.09419051,-0.14666319,-0.39294592,-0.36754754,0.059935063,3.0776684,-0.6257585,0.00023840755,-0.058038313,0.018280845,0.0010581001,-0.018080814,0.005151421,-0.016935052,0.4990981,-1.3779373,1.8999704,-2.0918562,-1.569877,2.474741,-0.09259534,0.055254225,-0.06769269,-0.0007250952,0.0132979825,-0.07563717,-0.3256114,-0.17238252,-9.461885,0.83589023,47.68599,-1.2012475,-2.5193095,-3.3072114,-0.19750944,0.08619921,-0.46167505,28.4375,29.6875,28.8125,32.5625,34.9375,36.0
0.13205178,-1.3832276,-0.056114815,-1.5639241,0.011548037,0.09121746,-0.14774679,-0.39306697,-0.36751658,0.059960548,3.0776026,-0.62575704,0.00017742792,-0.058640935,0.016937606,0.001410554,-0.01870646,0.0061832094,-0.007478938,0.4989192,-1.3778647,1.8998264,-2.0918562,-1.5698527,2.4745696,-0.09090445,0.057162106,-0.07074544,-0.0007749588,0.013359061,-0.08339999,-0.49799395,-0.15322891,-9.404425,0.842603,47.68062,-1.4142294,-2.5033684,-3.137683,-0.21547258,0.08897692,-0.43261445,28.4375,29.6875,28.8125,32.5625,34.9375,36.0
0.13405171,-0.9846254,0.524067,-1.3668426,-0.0080233095,0.10648947,-0.16450275,-0.39318833,-0.36747524,0.059951797,3.077581,-0.6257914,0.00014983668,-0.0597975,0.01922595,0.0007196683,-0.017448375,0.0050855256,-0.0084313555,0.49873802,-1.3777324,1.8996948,-2.0918796,-1.5698532,2.4744127,-0.09543881,0.057450343,-0.069541894,-0.0006934295,0.012788685,-0.086981595,-0.57460845,-0.11492168,-9.423578,0.7530795,47.623295,-1.3321714,-2.5769033,-3.3644981,-0.20636025,0.093778886,-0.38689965,28.4375,29.6875,28.8125,32.5625,34.9375,36.0
0.13605167,-1.7826054,0.059927203,-1.734135,0.0021218269,0.0940263,-0.15249904,-0.39328903,-0.36744314,0.059938665,3.0775318,-0.6258337,0.00025157566,-0.060997855,0.018418089,0.0019762602,-0.018855205,0.007531759,-0.00095765875,0.49854636,-1.3776002,1.8995627,-2.0918558,-1.5697812,2.4742537,-0.09520118,0.057464156,-0.07243966,-0.0006154293,0.012852926,-0.0942169,-0.5746084,-0.05746084,-9.442732,0.79560274,47.687782,-1.2408117,-2.4418452,-3.30345,-0.21349618,0.11322791,-0.3675111,28.4375,29.6875,28.8125,32.5625,34.9375,36.0
0.13805202,-0.9816992,-0.32414505,-1.8023436,0.0048762667,0.11054986,-0.14662789,-0.39342347,-0.36740667,0.0599611,3.0774803,-0.6257643,0.00016150287,-0.06337469,0.019196643,0.0028156617,-0.019854233,0.009229746,0.0011871697,0.49835372,-1.3775159,1.8994173,-2.0918796,-1.5697693,2.4740243,-0.098716095,0.05799196,-0.07499077,-0.00055243407,0.0129281245,-0.09987453,-0.57460845,0.038307227,-9.519346,0.7665104,47.67614,-1.2464983,-2.3932292,-3.1156704,-0.23239082,0.091675416,-0.26916793,28.4375,29.6875,28.8125,32.5625,34.9375,36.0
0.14005202,-1.600657,-0.58568335,-1.6627812,-0.007977122,0.100331925,-0.14985794,-0.39353445,-0.36734584,0.05993867,3.0774946,-0.6258607,0.00022352095,-0.0630277,0.021006793,-0.00018484703,-0.01657524,0.0040692873,0.0034952483,0.49814916,-1.3773704,1.8992876,-2.0918438,-1.5697693,2.4738781,-0.10116383,0.06200813,-0.072949626,-0.00050110416,0.01251916,-0.104630865,-0.7852981,0.19153613,-9.519346,0.8090337,47.666286,-1.1351157,-2.6173956,-3.273077,-0.23496285,0.12332121,-0.2160111,28.4375,29.6875,28.8125,32.5625,34.9375,36.0
0.14205196,-1.3144715,-0.81260663,-1.9049062,-0.01162639,0.109332554,-0.14546019,-0.39366478,-0.36731806,0.059944097,3.0774412,-0.62577116,0.000240886,-0.06534862,0.02103792,0.002199546,-0.019571062,0.0081822025,0.0044919923,0.4979448,-1.3772391,1.8991197,-2.0918438,-1.5697087,2.4736247,-0.103734046,0.059791736,-0.07574425,-0.0005243801,0.013189051,-0.10819719,-0.61291564,0.11492168,-9.557653,0.80679786,47.67345,-1.0902563,-2.4806693,-3.2249014,-0.2500962,0.11659525,-0.1842688,28.4375,29.6875,28.8125,32.5625,34.9375,36.0
0.14405201,-0.81803644,-0.08197218,-1.7642035,-0.03675438,0.114374906,-0.15263486,-0.39380622,-0.36726645,0.059956536,3.077422,-0.6257104,0.00018212525,-0.06680192,0.02215211,0.0019011139,-0.019077616,0.0079958355,0.0024022693,0.49772814,-1.3771306,1.8989629,-2.0918438,-1.5697092,2.4733727,-0.106701754,0.061159223,-0.07668777,-0.0005440332,0.01285176,-0.1090737,-0.49799395,0.076614454,-9.576807,0.80679786,47.668976,-0.9504572,-2.3611245,-3.1975412,-0.24770212,0.10435589,-0.14226261,28.4375,29.6875,28.8125,32.5625,34.9375,36.0
0.14605227,-1.2734393,-0.45008376,-1.7683659,-0.023507623,0.09360829,-0.14714125,-0.3939395,-0.36721987,0.059957698,3.0773818,-0.6257029,0.0001655381,-0.06774249,0.022781821,0.0014097898,-0.018948607,0.0071221036,-0.000544605,0.4975121,-1.3770099,1.8988198,-2.0918558,-1.5696849,2.4731572,-0.108784564,0.062796846,-0.07752588,-0.0005107,0.013160203,-0.10820886,-0.6512228,0.095768064,-9.576807,0.7665104,47.71286,-0.9440408,-2.4885266,-3.19344,-0.24499266,0.12534161,-0.13443992,28.4375,29.6875,28.8125,32.5625,34.9375,36.0
0.14805174,-1.0491575,-0.30357143,-1.7875172,-0.016054044,0.09685515,-0.14125036,-0.394119,-0.36716977,0.059974086,3.0772924,-0.6257826,9.060478e-05,-0.06919818,0.023364564,0.002081769,-0.019069472,0.008846471,-0.006100034,0.49724802,-1.3768657,1.8986171,-2.0918796,-1.569661,2.4729543,-0.11061531,0.0627137,-0.07894777,-0.000574021,0.012450591,-0.10448209,-0.7661445,0.05746084,-9.595961,0.7732232,47.67345,-0.86529845,-2.423945,-3.2457666,-0.23823225,0.15356602,-0.16952202,28.4375,29.6875,28.8125,32.5625,34.9375,36.0
0.15005177,-1.1825987,-0.23363504,-1.6844552,-0.0071024094,0.09764365,-0.14314623,-0.39422196,-0.36713943,0.05996581,3.0772798,-0.6257445,0.00014200257,-0.06983301,0.023386417,0.0019836423,-0.020415854,0.008595825,-0.012409668,0.4970799,-1.3767333,1.8984736,-2.0918562,-1.5696248,2.472764,-0.11201439,0.06338173,-0.07937138,-0.0012443335,0.013748729,-0.09957225,-0.68953013,0.095768064,-9.576807,0.7217513,47.675243,-0.8949982,-2.4888864,-3.2620902,-0.24951221,0.14023863,-0.23072103,28.4375,29.6875,28.8125,32.5625,34.9375,36.0
0.1520525,-1.3397591,0.24817713,-1.7476627,-0.011831627,0.096206374,-0.1441637,-0.39435008,-0.36708933,0.059943344,3.0772378,-0.62575656,0.00021769365,-0.0702062,0.023296861,0.0017276215,-0.021001343,0.008555624,-0.01599184,0.49684033,-1.3765768,1.898342,-2.091869,-1.5695642,2.4725373,-0.1125019,0.06423914,-0.07962286,-0.0020901088,0.014280576,-0.09647783,-0.49799395,0.1340753,-9.385271,0.7665104,47.645687,-0.93568456,-2.41001,-3.2535546,-0.24275774,0.1306794,-0.25613695,28.4375,29.6875,28.8125,32.5625,34.9375,36.0
0.15405177,-0.52091837,-0.09854733,-1.570751,-0.002846398,0.110027105,-0.14645265,-0.39451054,-0.3670502,0.05996666,3.0771482,-0.62583315,0.00014050164,-0.0722761,0.022354435,0.002904476,-0.02314953,0.011193602,-0.01664517,0.49661246,-1.3764564,1.8981489,-2.0918806,-1.5695404,2.4723687,-0.11316734,0.0655828,-0.083775796,-0.0026203552,0.0149142165,-0.09648723,-0.30645782,0.095768064,-9.3661175,0.8537928,47.668976,-0.9807078,-2.32012,-3.20444,-0.24695563,0.14821088,-0.316018,28.4375,29.6875,28.8125,32.5625,34.9375,36.0
0.15605223,-0.9862426,0.12305606,-1.7104057,0.007383502,0.07244515,-0.14271376,-0.3946638,-0.36697704,0.059961643,3.0771153,-0.6259209,0.00011336673,-0.07171679,0.023141962,0.0019469595,-0.02165197,0.009389051,-0.0162202,0.4963489,-1.3763243,1.8980063,-2.0918925,-1.5695404,2.4721642,-0.113662645,0.066109955,-0.08230249,-0.002314161,0.014469126,-0.097407475,-0.3256114,0.019153614,-9.385271,0.7978386,47.704796,-0.9682468,-2.4201221,-3.245378,-0.2556367,0.14227009,-0.30903453,28.4375,29.6875,28.8125,32.5625,34.9375,36.0
0.15805253,-0.22594099,0.18077575,-1.7601174,0.01152518,0.065403745,-0.14371246,-0.39480188,-0.36693817,0.059951566,3.0770595,-0.6259689,0.00017495162,-0.074201934,0.024367826,0.0027337153,-0.022076342,0.010958012,-0.01939972,0.4961199,-1.3761557,1.8978266,-2.09188,-1.5694808,2.4719722,-0.11773032,0.06652115,-0.08467808,-0.0019199414,0.01409611,-0.0982945,-0.24899697,-0.019153614,-9.308656,0.78888994,47.683304,-0.99453104,-2.3372762,-3.3349156,-0.25099373,0.16673428,-0.32322398,28.4375,29.6875,28.8125,32.5625,34.9375,36.0
0.16005264,-0.36553955,0.14846312,-1.5233235,0.0039154114,0.04246149,-0.1525775,-0.39497635,-0.3669057,0.05999252,3.0769691,-0.6259866,1.6370932e-05,-0.074325964,0.022786196,0.0030949942,-0.022296673,0.0120171085,-0.01730152,0.4959055,-1.3760471,1.8976101,-2.091904,-1.5694808,2.4717805,-0.114952765,0.06816904,-0.08748747,-0.0017914539,0.013796688,-0.097611815,-0.11492168,-0.038307227,-9.3661175,0.78217715,47.698532,-1.1447124,-2.4057903,-3.0506353,-0.2626045,0.19348258,-0.38433823,28.4375,29.6875,28.8125,32.5625,34.9375,36.0
0.16205174,-0.4483041,-0.776848,-1.7440463,0.015395179,0.033067252,-0.1323162,-0.39510545,-0.36681655,0.059972405,3.077017,-0.6259961,5.0471877e-05,-0.0759289,0.02496304,0.0025974787,-0.02220629,0.011028114,-0.019983172,0.49565187,-1.3759149,1.8974909,-2.0918686,-1.5695041,2.4715269,-0.12029089,0.0685981,-0.08683843,-0.0019535678,0.0141918175,-0.10026935,0.0,0.019153614,-9.32781,0.8537928,47.703007,-0.84347695,-2.343976,-3.215878,-0.25759336,0.19827555,-0.35384333,28.4375,29.6875,28.8125,32.5625,34.9375,36.0
0.16405195,0.43799636,-0.43113306,-1.8434397,-0.005835074,0.0558307,-0.1462375,-0.3952614,-0.36678123,0.05997578,3.076893,-0.62614334,2.4256276e-05,-0.076399416,0.024656698,0.0024593004,-0.022450153,0.011083826,-0.020567121,0.4954128,-1.3757703,1.8973225,-2.0919168,-1.5694445,2.4713955,-0.12028309,0.06991012,-0.08802428,-0.0022367171,0.014388028,-0.099676,0.05746084,0.038307227,-9.404425,0.7709874,47.674347,-1.0577545,-2.2970407,-3.1696002,-0.24833885,0.20677462,-0.40811825,28.4375,29.6875,28.8125,32.5625,34.9375,36.0
0.16605201,0.57573146,-0.5161721,-1.6361701,-0.023452822,0.06392325,-0.15614624,-0.3954113,-0.36672908,0.059984494,3.0768657,-0.6261515,3.6610378e-05,-0.076981634,0.024891343,0.001994909,-0.022444114,0.010513508,-0.014542564,0.49517286,-1.3756257,1.8971204,-2.091869,-1.5694202,2.4711642,-0.12133972,0.07136582,-0.088629685,-0.0025682838,0.014664914,-0.1067567,0.05746084,0.15322891,-9.385271,0.7486078,47.71286,-1.0164555,-2.3837945,-3.2658048,-0.25085342,0.21428934,-0.38080794,28.4375,29.6875,28.8125,32.5625,34.9375,36.0
0.16805194,0.2816798,-0.46702984,-1.4729714,-0.033553302,0.058301475,-0.15557508,-0.39557245,-0.36667824,0.05999288,3.0768046,-0.626176,-3.7123216e-05,-0.07779411,0.025570245,0.0018274869,-0.022670815,0.009745818,-0.0125519745,0.4949327,-1.3754932,1.896952,-2.0919044,-1.5694083,2.4709473,-0.12353872,0.072140224,-0.08927765,-0.0021186522,0.015245724,-0.11094515,0.0,0.1340753,-9.385271,0.78888994,47.688675,-1.0969697,-2.3438168,-3.2136126,-0.26364982,0.21982044,-0.33715183,28.4375,29.6875,28.8125,32.5625,34.9375,36.0
0.17005235,0.015142757,-1.0108975,-1.846315,-0.013931933,0.050101567,-0.14438099,-0.39572728,-0.36661246,0.059981383,3.076768,-0.62625736,1.5862659e-05,-0.07697193,0.024625482,0.0012353691,-0.023075847,0.0080165425,-0.0037416976,0.4946579,-1.3753247,1.8967727,-2.09188,-1.5693716,2.470728,-0.12189278,0.07356156,-0.08971019,-0.0017641856,0.016434751,-0.11810981,0.038307227,0.22984336,-9.3661175,0.800085,47.689575,-1.1476978,-2.3629074,-3.3033748,-0.2509677,0.24164185,-0.27824423,28.4375,29.6875,28.8125,32.5625,34.9375,36.0
0.17205206,0.52318823,-0.8278607,-1.8128228,-0.02287299,0.051294688,-0.15284082,-0.39585897,-0.36657053,0.059969023,3.076766,-0.6261404,2.7131937e-05,-0.07939052,0.02615266,0.0015714718,-0.023864307,0.008536357,-0.0020958013,0.49445233,-1.3751682,1.8966178,-2.091892,-1.5693477,2.4704497,-0.12691237,0.074263826,-0.09134332,-0.0016513848,0.016891142,-0.12477458,0.17238252,0.24899697,-9.481039,0.8023209,47.689575,-1.0190191,-2.3262758,-3.248588,-0.27739912,0.23698017,-0.22611594,28.4375,29.6875,28.8125,32.5625,34.9375,36.0
0.17405201,0.2374112,-0.8101635,-1.625939,-0.036921296,0.04352975,-0.14660077,-0.39603922,-0.3665259,0.059987545,3.0766907,-0.62613904,-2.1966744e-05,-0.078885324,0.02475911,0.002020479,-0.02520819,0.008767773,0.0049138465,0.49419004,-1.375012,1.8963903,-2.091892,-1.569311,2.4701962,-0.12473178,0.07436339,-0.09255374,-0.0013698409,0.01798203,-0.12960233,0.038307227,0.34476504,-9.423578,0.8157518,47.67345,-1.1945415,-2.3606176,-3.2767239,-0.27290365,0.2193713,-0.12057215,28.4375,29.6875,28.8125,32.5625,34.9375,36.0
0.17605196,-0.37410006,-1.1408731,-1.8131323,-0.034315452,0.027853416,-0.14172561,-0.3962241,-0.3664662,0.060005624,3.0766232,-0.62612313,-0.00012367673,-0.07969688,0.025190193,0.00072668854,-0.024067998,0.006786979,0.0063762367,0.493914,-1.3748788,1.8961991,-2.0919278,-1.5692996,2.469919,-0.12611565,0.07801148,-0.09396762,-0.0013087551,0.017935406,-0.13244581,0.0,0.36391866,-9.32781,0.75755644,47.657326,-1.198444,-2.3712487,-3.332182,-0.30178088,0.24348354,-0.11188473,28.4375,29.6875,28.8125,32.5625,34.9375,36.0
0.17805183,0.50588155,-0.7411476,-1.7106417,-0.05271179,0.057229724,-0.14793523,-0.3963574,-0.36641678,0.05998827,3.0765574,-0.62619007,1.613633e-05,-0.080835946,0.025954353,0.0018013249,-0.02496535,0.008998561,0.00033380612,0.49364978,-1.374711,1.8960313,-2.091892,-1.5692033,2.4697049,-0.1282291,0.076114066,-0.09409017,-0.0016489457,0.017671542,-0.12851767,0.095768064,0.2681506,-9.346964,0.83589023,47.65912,-1.140745,-2.3523765,-3.3281584,-0.2961201,0.26313585,-0.118406355,28.4375,29.6875,28.8125,32.5625,34.9375,36.0
0.1800516,0.32804948,-0.52239263,-1.6570094,-0.057624675,0.05937415,-0.15599789,-0.39648035,-0.36637294,0.059969716,3.0765507,-0.62607574,7.988026e-05,-0.08151555,0.0259726,0.0020587523,-0.026207892,0.00949498,-0.0050550774,0.4934339,-1.3745549,1.8958882,-2.0918925,-1.5691546,2.4694185,-0.129369,0.076168455,-0.094626,-0.0021928856,0.018525688,-0.12426888,0.019153614,0.28730422,-9.442732,0.8537928,47.689575,-1.1680866,-2.3163753,-3.3181212,-0.2928284,0.26510006,-0.13457432,28.4375,29.6875,28.8125,32.5625,34.9375,36.0
0.18205257,0.11657714,-0.80776596,-1.6253531,-0.04367097,0.05997896,-0.15318285,-0.39669564,-0.3663413,0.060012445,3.07642,-0.6261278,-8.236656e-05,-0.08353573,0.025617462,0.0010937563,-0.026185542,0.008679101,-0.011201798,0.49317,-1.3743969,1.8956116,-2.0919282,-1.5691308,2.469204,-0.1307796,0.08159718,-0.09876121,-0.002758109,0.018899983,-0.11952743,-0.1340753,0.17238252,-9.442732,0.8560339,47.693153,-1.2019389,-2.3967211,-3.240145,-0.27941206,0.2730511,-0.19738767,28.4375,29.6875,28.8125,32.5625,34.9375,36.0
0.18405259,-0.10864611,-0.674869,-1.359441,-0.029663576,0.057970285,-0.15114014,-0.3968548,-0.3662705,0.060013305,3.076389,-0.6261615,-0.00012601318,-0.08306358,0.026693668,0.0011115919,-0.026641605,0.008087396,-0.0167699,0.492906,-1.3742657,1.8954567,-2.0919406,-1.5691303,2.468965,-0.13253845,0.07928046,-0.096033566,-0.0028670265,0.019591643,-0.11571899,-0.24899697,0.22984336,-9.32781,0.80679786,47.684196,-1.152657,-2.3381371,-3.3833978,-0.2724994,0.27708787,-0.26356292,28.4375,29.6875,28.8125,32.5625,34.9375,36.0
0.18605167,-0.23203455,-0.18354186,-1.5489311,-0.01347434,0.061819747,-0.14738093,-0.3969954,-0.3662373,0.06001978,3.076312,-0.62618595,-8.220125e-05,-0.085519336,0.026553098,0.0015924252,-0.028395087,0.008787681,-0.021309277,0.49267775,-1.3741205,1.895264,-2.0919168,-1.5690583,2.468762,-0.13523711,0.08190191,-0.10029281,-0.0026702557,0.02080105,-0.11387581,-0.19153613,0.11492168,-9.308657,0.7777002,47.73256,-1.1273103,-2.2496128,-3.3017776,-0.28295007,0.27570274,-0.31446734,28.4375,29.6875,28.8125,32.5625,34.9375,36.0
0.18805164,-0.6911978,-0.42160013,-1.4965893,0.007295979,0.059110306,-0.13002618,-0.39719036,-0.36617467,0.0600133,3.0762324,-0.62628555,-7.349243e-05,-0.08521625,0.027841633,-0.0003110479,-0.026883986,0.0050471155,-0.024688032,0.4923655,-1.3739156,1.895038,-2.0919282,-1.5690101,2.468522,-0.13734479,0.084098466,-0.09862989,-0.0025109218,0.021250071,-0.112604424,-0.30645782,0.076614454,-9.32781,0.84484416,47.703007,-1.1099883,-2.306203,-3.4525242,-0.27988732,0.28247947,-0.36163035,28.4375,29.6875,28.8125,32.5625,34.9375,36.0
0.19005245,-1.1691104,-0.05075333,-1.3652076,0.0074468325,0.061981704,-0.13937055,-0.39733225,-0.36611617,0.059989937,3.0762017,-0.6262425,6.215091e-07,-0.087668516,0.028373681,0.00033454323,-0.027918624,0.0064638304,-0.029367762,0.49210113,-1.373747,1.8948935,-2.0919406,-1.56895,2.4682348,-0.14056304,0.08551181,-0.10179327,-0.0024893715,0.02148675,-0.11114177,-0.4213795,-0.019153614,-9.174581,0.7642693,47.71823,-1.1664224,-2.346222,-3.381676,-0.2916358,0.2829733,-0.4131115,28.4375,29.6875,28.8125,32.5625,34.9375,36.0
0.19205236,-1.1507099,0.40633887,-1.1885128,0.0011952603,0.08488503,-0.14582212,-0.39751723,-0.36605206,0.059990577,3.0761344,-0.6263983,2.5336014e-05,-0.08709535,0.026605582,-0.000120202676,-0.028474132,0.0055896714,-0.026450738,0.4918028,-1.3735541,1.8946546,-2.0919044,-1.5689133,2.4680424,-0.13757189,0.08798552,-0.103703186,-0.0025378359,0.022391517,-0.11106633,-0.4405331,-0.05746084,-9.212888,0.75755644,47.63046,-1.1653428,-2.3488948,-3.346744,-0.29822072,0.27611017,-0.4660478,28.4375,29.6875,28.8125,32.5625,34.9375,36.0
0.19405238,-1.1116961,0.066750824,-1.2935779,0.009121417,0.10727077,-0.14258261,-0.39771014,-0.36603498,0.06002711,3.0759838,-0.6264042,-0.00010337899,-0.08896533,0.02698042,0.0011597276,-0.030499902,0.007843218,-0.026482085,0.49156207,-1.3734101,1.8944143,-2.0919645,-1.5688533,2.4678247,-0.14029169,0.0871304,-0.10554871,-0.002765662,0.023135336,-0.11375063,-0.5363012,-0.076614454,-9.270349,0.8247004,47.668976,-1.0910367,-2.4460282,-3.2324955,-0.27569073,0.26638925,-0.49755412,28.4375,29.6875,28.8125,32.5625,34.9375,36.0
0.19605234,-1.6839756,0.29763737,-1.0994269,-0.0021296388,0.11469086,-0.148308,-0.39783782,-0.3659721,0.059982598,3.0760014,-0.62644213,6.175676e-05,-0.0886799,0.027044427,0.000848488,-0.030468944,0.006711716,-0.019697567,0.49131083,-1.3731937,1.8942474,-2.0919168,-1.5688051,2.4675949,-0.14041427,0.08749113,-0.10541114,-0.0022290421,0.02364829,-0.120660044,-0.59376204,-0.095768064,-9.232041,0.8806493,47.692257,-1.3321948,-2.278605,-3.346924,-0.28172702,0.26868352,-0.48595515,28.4375,29.6875,28.8125,32.5625,34.9375,36.0
0.19805297,-1.703731,0.23223287,-1.10379,-0.0034599726,0.12203322,-0.15276246,-0.398056,-0.36590716,0.059999906,3.0758991,-0.62649405,1.0319439e-05,-0.0913107,0.027503248,0.00022264136,-0.030543733,0.005954788,-0.015210965,0.49097437,-1.3730117,1.8939942,-2.0919278,-1.5687569,2.467304,-0.14376868,0.09223719,-0.109688826,-0.0020375866,0.024091598,-0.12849674,-0.6512228,-0.076614454,-9.251195,0.77545905,47.66987,-1.2650833,-2.530569,-3.0857205,-0.30460262,0.2544754,-0.41763073,28.4375,29.6875,28.8125,32.5625,34.9375,36.0
0.20005217,-1.2135398,0.5607117,-1.3515314,-0.0008814674,0.1254585,-0.1567509,-0.39822915,-0.36585143,0.059986923,3.0758533,-0.6265164,-8.61895e-06,-0.09204705,0.029765194,0.00017557137,-0.02993974,0.0056454553,-0.007667206,0.4907096,-1.3728204,1.8938044,-2.091964,-1.5687336,2.4670591,-0.14795789,0.09055079,-0.10764616,-0.0018023524,0.023738658,-0.14023012,-0.61291564,-0.05746084,-9.308657,0.7732232,47.679718,-1.2256042,-2.2854228,-3.330983,-0.2981804,0.25663292,-0.31998995,28.4375,29.6875,28.8125,32.5625,34.9375,36.0
0.20205224,-0.9035624,0.47350642,-1.3855003,0.0031758393,0.11428013,-0.1521876,-0.39839995,-0.3657849,0.059975613,3.0757966,-0.62651956,6.414605e-05,-0.09326565,0.028307531,0.0006647997,-0.03038761,0.007107705,-0.000102523714,0.4903988,-1.3726391,1.8936118,-2.0919516,-1.5686616,2.4667575,-0.14637029,0.09338846,-0.11220374,-0.001552434,0.023451278,-0.14620516,-0.7086837,-0.19153613,-9.251195,0.80456203,47.690468,-1.2332258,-2.3323655,-3.118092,-0.31501418,0.26918858,-0.22928202,28.4375,29.6875,28.8125,32.5625,34.9375,36.0
0.20405242,-1.2205981,-0.14381847,-1.2953506,0.012917877,0.109384134,-0.14250793,-0.39860556,-0.36572847,0.0599837,3.0757394,-0.6264858,-2.4048364e-05,-0.093836255,0.029568389,0.0002924427,-0.02995836,0.006468641,0.0018889616,0.49011055,-1.3724471,1.8933734,-2.0919878,-1.5686492,2.4664557,-0.14890313,0.09340547,-0.111381024,-0.0016080588,0.023400884,-0.15072796,-0.80445176,-0.05746084,-9.251195,0.7978386,47.664497,-1.1906023,-2.4429073,-3.2958536,-0.30215612,0.26957828,-0.17727646,28.4375,29.6875,28.8125,32.5625,34.9375,36.0
0.20605244,-1.6272933,-0.13147518,-1.1916784,0.0126894545,0.11286907,-0.14217769,-0.39878505,-0.36565888,0.059971806,3.0756855,-0.6265504,7.716312e-05,-0.09521677,0.029568503,-0.00028609682,-0.030051041,0.006071546,0.0019081275,0.489787,-1.3722419,1.8931454,-2.0919406,-1.5685772,2.4661794,-0.15024959,0.09657372,-0.113745056,-0.0020850569,0.023668176,-0.1520927,-0.8619126,0.019153614,-9.212888,0.7866488,47.703903,-1.2662053,-2.5035028,-3.206483,-0.2859455,0.28000143,-0.14446822,28.4375,29.6875,28.8125,32.5625,34.9375,36.0
0.20805214,-0.9405132,0.28839317,-1.2936804,0.0018406772,0.13772441,-0.1468971,-0.39899293,-0.365614,0.05999432,3.0755801,-0.62653375,2.2890308e-05,-0.09660718,0.029632095,0.000103785016,-0.03098549,0.0070916186,-0.0072048055,0.48948696,-1.3720614,1.8928822,-2.091952,-1.5685171,2.4658825,-0.15174891,0.0975008,-0.11566765,-0.0024309182,0.024014685,-0.14447588,-0.8619126,-0.019153614,-9.251195,0.73741806,47.667187,-1.309559,-2.4925356,-3.1295838,-0.29710162,0.28328905,-0.1727727,28.4375,29.6875,28.8125,32.5625,34.9375,36.0
0.21005216,-1.1805942,-0.03182996,-1.2102146,0.00038600055,0.1306005,-0.1435488,-0.39915317,-0.36553332,0.059964083,3.0755897,-0.62659425,9.241863e-05,-0.09731933,0.029548962,0.00051765004,-0.031113347,0.0080913715,-0.011704045,0.48919952,-1.3718572,1.8927025,-2.0919282,-1.5685052,2.4656317,-0.15196508,0.097857274,-0.11707685,-0.0023202247,0.023646409,-0.1401935,-0.7469909,0.05746084,-9.3661175,0.800085,47.677036,-1.2751188,-2.4556675,-3.1847262,-0.30093995,0.2942035,-0.22684419,28.4375,29.6875,28.8125,32.5625,34.9375,36.0
0.21205223,-1.0275813,0.32807097,-1.2317733,-0.013182066,0.122042224,-0.14573824,-0.39936844,-0.36547536,0.05998802,3.075453,-0.62668145,4.7787962e-05,-0.09832356,0.029941361,0.00060081296,-0.030760167,0.008357214,-0.015953036,0.48886406,-1.3716885,1.8924502,-2.0919402,-1.5684336,2.4653683,-0.15318653,0.098919034,-0.11864462,-0.0018703903,0.023222422,-0.1371632,-0.7469909,0.19153613,-9.270349,0.83365434,47.640312,-1.2821892,-2.513706,-3.1095035,-0.31577235,0.30241138,-0.29496744,28.4375,29.6875,28.8125,32.5625,34.9375,36.0
0.21405222,-0.38119832,0.060253955,-1.5085118,-0.011137001,0.113810346,-0.15560322,-0.39954355,-0.36539537,0.059950102,3.075471,-0.6267038,0.00011975564,-0.09899221,0.029965667,0.0010083764,-0.03159887,0.008868542,-0.017099738,0.4885643,-1.3714483,1.8922476,-2.0919278,-1.5684212,2.4650803,-0.15407234,0.098960906,-0.11967691,-0.001718841,0.023720311,-0.13690297,-0.47884035,0.095768064,-9.461885,0.8023209,47.664497,-1.4276526,-2.487261,-3.1236768,-0.32816118,0.31174818,-0.32490832,28.4375,29.6875,28.8125,32.5625,34.9375,36.0
0.2160522,-0.16227221,-0.20792201,-1.5851407,-0.018662885,0.09805089,-0.14855945,-0.3997746,-0.3653387,0.05997227,3.0753388,-0.62673396,6.387862e-05,-0.09954703,0.030587861,5.904919e-05,-0.030916547,0.007192585,-0.01902592,0.4882166,-1.3712552,1.8919729,-2.0919516,-1.5683488,2.4647684,-0.15565716,0.10118441,-0.12021273,-0.0015896353,0.023924554,-0.13655856,-0.4213795,0.095768064,-9.500193,0.75755644,47.68062,-1.3868237,-2.5140824,-3.1684594,-0.32342273,0.31919175,-0.36264044,28.4375,29.6875,28.8125,32.5625,34.9375,36.0
0.2180523,0.09121764,-0.53129333,-1.6484866,-0.020215208,0.08344251,-0.15048775,-0.39997187,-0.36524388,0.059939723,3.0753045,-0.62693787,7.710626e-05,-0.10106257,0.031304643,0.0008466282,-0.03195882,0.008482082,-0.020871839,0.48788002,-1.3710271,1.8917807,-2.091976,-1.5683488,2.4645636,-0.15834764,0.10070504,-0.12148092,-0.0014607492,0.024245314,-0.13740292,-0.3256114,0.21068975,-9.404425,0.800085,47.698532,-1.3163426,-2.3943994,-3.157813,-0.31043476,0.31617847,-0.37147716,28.4375,29.6875,28.8125,32.5625,34.9375,36.0
0.22005223,0.43451375,-0.61931485,-1.7892478,-0.030341232,0.08314178,-0.1422069,-0.400232,-0.36519796,0.059989363,3.0751522,-0.62699884,-3.647647e-05,-0.10341025,0.031561412,0.002124247,-0.033214364,0.011293573,-0.019068532,0.48753256,-1.3708229,1.8914222,-2.091964,-1.5682892,2.464274,-0.16067526,0.100956775,-0.124671444,-0.0015666309,0.024066042,-0.14152935,-0.1340753,0.1340753,-9.461885,0.8224646,47.70211,-1.3478358,-2.3659976,-3.0996995,-0.32374915,0.35203844,-0.36828756,28.4375,29.6875,28.8125,32.5625,34.9375,36.0
0.22205213,0.1383303,-0.42599615,-2.007293,-0.031898793,0.067525044,-0.14637767,-0.40041673,-0.3651199,0.059971094,3.0751507,-0.62691677,-1.1103482e-05,-0.102309085,0.033258162,-0.0012072686,-0.03019274,0.0057016807,-0.013296244,0.48722067,-1.3706174,1.891219,-2.0919645,-1.5682648,2.463911,-0.16245715,0.10444875,-0.12114451,-0.002200025,0.024043232,-0.14908445,0.019153614,0.1340753,-9.519346,0.8224646,47.690468,-1.1764643,-2.567806,-3.2454965,-0.3182748,0.35577178,-0.3179441,28.4375,29.6875,28.8125,32.5625,34.9375,36.0
0.2240521,0.5792431,-0.33644137,-2.041832,-0.03528045,0.05956672,-0.14718643,-0.40063414,-0.3650649,0.059976682,3.0750418,-0.62698615,-3.8854498e-05,-0.10543027,0.033079695,0.0015658227,-0.034249824,0.010741394,-0.0075547923,0.48689598,-1.3704021,1.8909553,-2.0919883,-1.5682043,2.4636438,-0.16563943,0.10264034,-0.12519625,-0.0026573963,0.025296623,-0.15800448,0.095768064,0.21068975,-9.576807,0.83589023,47.679718,-1.0663499,-2.377949,-3.129323,-0.31546497,0.34920105,-0.2242389,28.4375,29.6875,28.8125,32.5625,34.9375,36.0
0.22605225,0.6667842,-0.8121126,-2.000674,-0.020542733,0.04888939,-0.15011035,-0.40081882,-0.36499754,0.059950925,3.0750117,-0.6268979,5.001883e-05,-0.104421325,0.033018894,-0.0008405396,-0.03312425,0.006105501,0.00050682266,0.48657268,-1.3701724,1.8907403,-2.0919883,-1.5681318,2.4632692,-0.16530049,0.10656279,-0.12441903,-0.0026975852,0.026493045,-0.16572657,0.076614454,0.21068975,-9.557653,0.80456203,47.716442,-1.1142695,-2.6290045,-3.2988868,-0.32071877,0.3482746,-0.11701964,28.4375,29.6875,28.8125,32.5625,34.9375,36.0
0.22805229,0.6994354,-0.49662495,-1.8695112,-0.024060825,0.037094757,-0.1448331,-0.4010256,-0.3649209,0.05995218,3.074974,-0.6268683,5.6092154e-05,-0.10484134,0.0335377,-0.00022378417,-0.03422773,0.0067382082,0.0022526407,0.4862369,-1.3699689,1.8904895,-2.0919645,-1.568096,2.46292,-0.16689698,0.1050602,-0.12406802,-0.0025999383,0.027191876,-0.16906829,0.019153614,0.2681506,-9.557653,0.82694155,47.66808,-1.1083436,-2.406782,-3.3553636,-0.31275424,0.34861916,-0.038237855,28.4375,29.6875,28.8125,32.5625,34.9375,36.0
0.23005234,0.67880285,-0.6084359,-2.2550037,-0.010079063,0.03864494,-0.13561873,-0.401259,-0.3648529,0.059957817,3.0748656,-0.6269066,1.5576572e-05,-0.10519498,0.03453302,-0.001455714,-0.03322144,0.0042819865,-0.0046794415,0.48587686,-1.3697518,1.8902262,-2.0920002,-1.568036,2.4625978,-0.16896015,0.10721896,-0.123947844,-0.0022310659,0.027461212,-0.16419677,0.19153613,0.22984336,-9.691729,0.8627467,47.658226,-1.028734,-2.5114853,-3.4967828,-0.3189271,0.3455978,-0.06043584,28.4375,29.6875,28.8125,32.5625,34.9375,36.0
0.23205227,0.2371474,-0.72187376,-2.1871495,-0.009613127,0.034086797,-0.13567516,-0.40147236,-0.364787,0.059968658,3.0747788,-0.6269684,-3.499281e-05,-0.10712084,0.034155335,0.00024291736,-0.035099763,0.007361546,-0.012328835,0.48555356,-1.3695598,1.8899754,-2.0920117,-1.5680002,2.4623244,-0.17009512,0.10681844,-0.12739798,-0.0019843974,0.027681235,-0.15767905,0.19153613,0.15322891,-9.634268,0.7486078,47.66271,-1.1551821,-2.3812222,-3.4345732,-0.31542972,0.35917214,-0.11420056,28.4375,29.6875,28.8125,32.5625,34.9375,36.0
0.23405203,0.5129778,-0.734031,-1.9613713,-0.01562234,0.04179642,-0.13611363,-0.40165597,-0.3647156,0.05993345,3.0747602,-0.6268905,0.000108386084,-0.10635202,0.03531466,-0.00084401865,-0.03496796,0.0044353665,-0.020695183,0.48521763,-1.3693076,1.8897494,-2.0919878,-1.5679158,2.4619422,-0.17204528,0.106527895,-0.12465162,-0.001790261,0.028921429,-0.15126447,0.1340753,0.17238252,-9.461885,0.7978386,47.65464,-1.1012642,-2.2964246,-3.5099425,-0.33147085,0.3470806,-0.23677722,28.4375,29.6875,28.8125,32.5625,34.9375,36.0
0.23605192,0.5525351,-0.2024621,-1.9617219,-0.023588253,0.035249256,-0.14399762,-0.4018921,-0.3646356,0.0599384,3.0746503,-0.627103,4.596717e-05,-0.108954236,0.035303194,-0.00025297052,-0.037377536,0.0051071346,-0.03059309,0.48485708,-1.3690906,1.8894848,-2.0920117,-1.5678905,2.4617286,-0.17536959,0.108863436,-0.12881804,-0.0016878041,0.030734364,-0.14468542,0.095768064,0.17238252,-9.519346,0.80456203,47.701214,-0.98784816,-2.4897666,-3.4025679,-0.3057027,0.3232972,-0.29436675,28.4375,29.6875,28.8125,32.5625,34.9375,36.0
0.23805194,0.21425323,-0.7870241,-2.0274546,-0.011371211,0.021128168,-0.13835672,-0.40212077,-0.36459222,0.05996721,3.0745146,-0.62709385,2.4631132e-05,-0.11005268,0.035710473,0.000100538804,-0.038350504,0.005547906,-0.034611665,0.48452145,-1.3688865,1.8891734,-2.0919998,-1.5677947,2.4614048,-0.17734762,0.10910712,-0.12993662,-0.001640339,0.031403933,-0.14264098,0.019153614,0.17238252,-9.5385,0.82022345,47.684196,-0.9875011,-2.3030746,-3.4380102,-0.31443846,0.32791132,-0.35920605,28.4375,29.6875,28.8125,32.5625,34.9375,36.0
0.2400522,0.726588,-0.37948012,-1.8774621,-0.03353977,0.047011636,-0.136372,-0.40231398,-0.36451852,0.059966065,3.0744057,-0.6272272,7.9605066e-05,-0.11094651,0.03557481,-4.0855477e-05,-0.039148718,0.0051002917,-0.03878031,0.48417363,-1.3687053,1.8889574,-2.0919878,-1.5677103,2.4611542,-0.17839575,0.11088273,-0.13176914,-0.0015486042,0.032318603,-0.13951798,-0.019153614,0.21068975,-9.461885,0.800085,47.661808,-0.9940865,-2.478553,-3.4150434,-0.3198828,0.311903,-0.43085608,28.4375,29.6875,28.8125,32.5625,34.9375,36.0
0.24205212,0.033200968,-0.4958239,-1.8953735,-0.035707597,0.06124625,-0.13731797,-0.4025377,-0.36446372,0.05996978,3.074299,-0.6272414,6.508984e-05,-0.11177147,0.035419684,0.00016271698,-0.04206615,0.004170591,-0.039006483,0.48383766,-1.3684771,1.8886822,-2.0920117,-1.5676373,2.460841,-0.18064351,0.11146256,-0.13295773,-0.0014578142,0.035353716,-0.1415338,-0.22984336,0.22984336,-9.576807,0.86498255,47.660015,-0.97442466,-2.3958817,-3.4562688,-0.31619114,0.2846281,-0.4996578,28.4375,29.6875,28.8125,32.5625,34.9375,36.0
0.24405222,-0.41244346,-0.5305093,-1.7772702,-0.040827345,0.096540086,-0.1397739,-0.40277976,-0.36438602,0.05997364,3.0741847,-0.6274211,6.826376e-05,-0.112072356,0.034983248,4.542441e-05,-0.042768627,0.0036204322,-0.030413488,0.48345476,-1.3682364,1.8883837,-2.0919998,-1.5675768,2.460585,-0.18063699,0.11279375,-0.13436522,-0.0011750701,0.036265988,-0.15011714,-0.22984336,0.22984336,-9.634268,0.800085,47.660015,-1.1544278,-2.3389251,-3.4442165,-0.34314156,0.2538413,-0.46410805,28.4375,29.6875,28.8125,32.5625,34.9375,36.0
0.24605207,-0.76487046,-0.68781227,-1.8241856,-0.04387115,0.12317936,-0.14632209,-0.4029747,-0.36430457,0.05995742,3.0741484,-0.6274068,0.00014266826,-0.111893736,0.034500223,-0.00013021086,-0.042486615,0.0034321283,-0.017961808,0.48310784,-1.3680199,1.8881568,-2.091976,-1.5675167,2.460234,-0.17950346,0.113732785,-0.13515715,-0.00096593046,0.036136776,-0.16143566,-0.30645782,0.24899697,-9.672575,0.84708,47.699425,-1.1299665,-2.401672,-3.4752202,-0.3463629,0.24093544,-0.37672305,28.4375,29.6875,28.8125,32.5625,34.9375,36.0
0.24805191,-0.9017822,-0.34119305,-1.7818575,-0.052994207,0.13315213,-0.15689872,-0.40319934,-0.36425623,0.05997456,3.0740156,-0.6274098,0.00016260173,-0.112591356,0.034062907,-6.1172e-05,-0.043917514,0.0031110425,-0.007833892,0.48276043,-1.3678033,1.8878568,-2.091964,-1.567408,2.4599056,-0.18018794,0.11507945,-0.13697,-0.00081891485,0.03759679,-0.17224321,-0.3256114,0.30645782,-9.672575,0.82022345,47.670765,-1.212868,-2.3406682,-3.4167154,-0.33541018,0.21272552,-0.25491446,28.4375,29.6875,28.8125,32.5625,34.9375,36.0
0.25005186,-0.9090605,-0.84687376,-1.7005991,-0.051814675,0.13413486,-0.14206854,-0.40343085,-0.36419564,0.059990734,3.0738869,-0.6274939,0.00016126715,-0.112712726,0.03264308,0.00022122006,-0.045890424,0.0030439072,-0.0010566793,0.48240158,-1.3675866,1.8875588,-2.0919516,-1.5673236,2.459616,-0.178924,0.116334796,-0.13914907,-0.0007107776,0.03940588,-0.17775092,-0.61291564,0.2681506,-9.557653,0.8560339,47.68599,-1.2754643,-2.3997195,-3.4092631,-0.33994988,0.18575668,-0.181684,28.4375,29.6875,28.8125,32.5625,34.9375,36.0
0.25205258,-0.7095194,-0.59963113,-1.6766903,-0.052894656,0.12652484,-0.14824466,-0.40366924,-0.36411715,0.059984576,3.0738165,-0.6274599,0.00013316315,-0.11514379,0.03301509,0.0013884484,-0.046941385,0.005655944,-0.0025642735,0.48202932,-1.3673463,1.8872942,-2.0919878,-1.5672759,2.4592316,-0.18143386,0.11688839,-0.14248326,-0.00070417376,0.03914127,-0.17874992,-0.59376204,0.3256114,-9.500193,0.9231726,47.686886,-1.2661688,-2.3131752,-3.4224243,-0.343305,0.16251363,-0.13952056,28.4375,29.6875,28.8125,32.5625,34.9375,36.0
0.2540518,-0.9729819,-0.38371095,-1.6990813,-0.036267757,0.10053465,-0.13320653,-0.40390787,-0.3640432,0.05997907,3.073746,-0.62742823,0.00013479262,-0.116126016,0.03396227,0.00037256652,-0.0456228,0.004367575,-0.008654894,0.48165742,-1.3670931,1.8870071,-2.0919998,-1.5672163,2.4588492,-0.18344054,0.11954096,-0.14337505,-0.0006993554,0.03857444,-0.17466426,-0.59376204,0.17238252,-9.576807,0.86498255,47.66987,-1.1959798,-2.414467,-3.2519329,-0.3389962,0.14873308,-0.1784728,28.4375,29.6875,28.8125,32.5625,34.9375,36.0
0.25605193,-0.65646917,-0.22932057,-1.5160093,-0.026730914,0.09905298,-0.14345038,-0.4041402,-0.36401287,0.060012102,3.0735812,-0.6274736,0.000111015375,-0.11749525,0.033183146,0.0011227713,-0.04703797,0.0058385623,-0.0154663045,0.48133427,-1.3668765,1.886671,-2.0919874,-1.5671076,2.4585757,-0.18358943,0.120882995,-0.14670357,-0.0006666743,0.03914827,-0.16799545,-0.78529817,0.15322891,-9.442732,0.78217715,47.704796,-1.3777382,-2.4759026,-3.1400952,-0.33425266,0.120452866,-0.25617814,28.4375,29.6875,28.8125,32.5625,34.9375,36.0
0.2580523,-0.8862933,-0.24684292,-1.184667,-0.019032512,0.097879305,-0.14041755,-0.40438047,-0.36394742,0.06001898,3.0734284,-0.62753683,0.0001432921,-0.11763829,0.033338897,-0.000319459,-0.04548586,0.0038071668,-0.017643915,0.4809386,-1.366647,1.8863844,-2.0919998,-1.5669879,2.4582393,-0.1836081,0.124276236,-0.14749788,-0.00071753596,0.038726047,-0.16583373,-0.7278373,0.22984336,-9.346964,0.80456203,47.682407,-1.4787061,-2.4025128,-3.1838255,-0.3358121,0.11308749,-0.31261143,28.4375,29.6875,28.8125,32.5625,34.9375,36.0
0.26005226,-1.2206241,-0.1662019,-1.2706658,-0.0060153822,0.097007535,-0.13605726,-0.40463117,-0.36387628,0.060012456,3.07334,-0.627539,0.00015340022,-0.1197998,0.03330666,0.0018021937,-0.04796148,0.009140668,-0.019659808,0.48055404,-1.3663715,1.886073,-2.0920122,-1.5669163,2.4578676,-0.18518229,0.12206234,-0.14926668,-0.0025826027,0.038463525,-0.16539025,-0.45968673,0.15322891,-9.346964,0.8090337,47.703903,-1.5110426,-2.5020075,-3.0869505,-0.33229768,0.092050195,-0.36858606,28.4375,29.6875,28.8125,32.5625,34.9375,36.0
0.2620523,-0.4645973,0.53283715,-1.3999997,-0.006077923,0.11091609,-0.15739812,-0.40485635,-0.36380157,0.060002804,3.0732641,-0.6275642,0.00016918116,-0.121936284,0.033810083,0.0009376423,-0.047904104,0.008533372,-0.022540962,0.48019293,-1.3661298,1.8858088,-2.0920246,-1.5668558,2.4575322,-0.18795379,0.12627558,-0.1522117,-0.0032630835,0.038701423,-0.1652772,-0.2681506,0.019153614,-9.346964,0.8605109,47.687782,-1.4408357,-2.580742,-3.0007813,-0.31385756,0.06982997,-0.37445652,28.4375,29.6875,28.8125,32.5625,34.9375,36.0
0.26405224,-0.27112535,0.059845123,-1.1422236,0.004277327,0.08973185,-0.14162855,-0.40511483,-0.3637297,0.060025238,3.073134,-0.6276684,0.000110515626,-0.12344375,0.03560407,0.0019513476,-0.04764108,0.010432026,-0.020095611,0.47980812,-1.3659024,1.8854865,-2.0920246,-1.5667962,2.4572294,-0.19151822,0.12427553,-0.15226857,-0.0027166216,0.037638552,-0.17128563,-0.21068975,0.05746084,-9.3661175,0.8873621,47.67614,-1.3902926,-2.412489,-3.247227,-0.31637156,0.06581731,-0.3564101,28.4375,29.6875,28.8125,32.5625,34.9375,36.0
0.2660522,0.1861414,0.121569246,-1.1463054,0.0045774807,0.08344818,-0.15150662,-0.40536883,-0.36365277,0.060025487,3.0730386,-0.62764376,9.572225e-05,-0.12311103,0.03644801,0.00025701828,-0.044723026,0.0077530914,-0.011076661,0.47941193,-1.365649,1.8851885,-2.092048,-1.5667251,2.4568303,-0.19172822,0.12704904,-0.15192811,-0.0020387731,0.036340684,-0.18051428,-0.3256114,0.095768064,-9.11712,0.8403672,47.716442,-1.4345639,-2.4835634,-3.1566448,-0.30439308,0.05101452,-0.27088693,28.4375,29.6875,28.8125,32.5625,34.9375,36.0
0.26805222,-0.58014065,-0.28132433,-1.4967544,0.030682335,0.054627538,-0.13794263,-0.4056176,-0.36358303,0.06003415,3.0729644,-0.6275844,8.0611164e-05,-0.12385217,0.037506,0.00018420028,-0.044061333,0.0076209954,-0.0029472527,0.47903943,-1.365397,1.8848647,-2.0920355,-1.566665,2.4564304,-0.19374976,0.12724912,-0.15214622,-0.0015310385,0.035868738,-0.19066413,-0.13407528,0.05746084,-9.193734,0.8179876,47.67614,-1.3520918,-2.455484,-3.2016091,-0.3053105,0.041361175,-0.1717106,28.4375,29.6875,28.8125,32.5625,34.9375,36.0
0.2700525,-0.45591784,0.01722533,-1.3482091,0.012974111,0.059317935,-0.14905874,-0.4058864,-0.36353484,0.060061187,3.0728185,-0.62761,-7.7390605e-06,-0.12465267,0.03888545,-0.00047971227,-0.04234593,0.0068843337,-0.0006654516,0.47867844,-1.3651444,1.8845071,-2.0920599,-1.566593,2.4561045,-0.1959473,0.1284902,-0.15223105,-0.0011938293,0.034735456,-0.19514108,-0.095768064,-0.05746084,-9.251195,0.8291774,47.67345,-1.2830467,-2.3936162,-3.3647275,-0.31869853,0.045831524,-0.06852231,28.4375,29.6875,28.8125,32.5625,34.9375,36.0
0.27205235,-0.13394885,-0.049107663,-1.1314104,0.0012407241,0.0700528,-0.13880548,-0.40612823,-0.36342525,0.06003653,3.072758,-0.6277155,6.4759166e-05,-0.12619452,0.039439205,0.00024611532,-0.04207045,0.008917334,-0.0044059497,0.47824582,-1.3648797,1.8842438,-2.092048,-1.5665334,2.4557457,-0.19738545,0.12868604,-0.15416254,-0.0011150076,0.033551916,-0.19284077,-0.36391866,-0.13407528,-9.232041,0.8784135,47.661808,-1.1993331,-2.4574628,-3.3037932,-0.29579443,0.061823927,-0.0716811,28.4375,29.6875,28.8125,32.5625,34.9375,36.0
0.2740525,-0.07107728,0.17666993,-0.96853834,0.0073878784,0.07552131,-0.14856242,-0.4063797,-0.36332008,0.060015652,3.0726986,-0.62778527,0.00012320072,-0.12684469,0.0410189,-0.0010271101,-0.0395432,0.007362818,-0.012831225,0.47781304,-1.3646029,1.8839573,-2.0920355,-1.5664748,2.4553642,-0.19954306,0.13081828,-0.15389992,-0.0009625665,0.03201374,-0.18657592,-0.30645782,-0.17238252,-9.11712,0.7709874,47.66808,-1.0865712,-2.4215803,-3.3436174,-0.29755843,0.059317976,-0.12812379,28.4375,29.6875,28.8125,32.5625,34.9375,36.0
0.27605247,-0.47291434,0.85294324,-0.8587169,0.022094196,0.082651734,-0.14673077,-0.40664208,-0.36327446,0.060041405,3.072533,-0.6277559,6.5532455e-05,-0.12912704,0.041511714,0.0013091684,-0.041078176,0.01193194,-0.023176786,0.47744048,-1.3643636,1.8836211,-2.0920718,-1.5663666,2.454995,-0.20178454,0.12849203,-0.15646464,-0.000835702,0.031277973,-0.17846861,-0.1340753,-0.11492168,-9.078813,0.78888994,47.694946,-1.0429876,-2.2471325,-3.3104446,-0.29893354,0.076306224,-0.24322584,28.4375,29.6875,28.8125,32.5625,34.9375,36.0
0.27805245,-0.399738,1.15331,-0.99965644,0.03980782,0.08198246,-0.15295447,-0.40690187,-0.3631695,0.060032293,3.07244,-0.6279518,8.359176e-05,-0.13029924,0.04246457,0.001547233,-0.041069563,0.012508283,-0.032351516,0.47700772,-1.364099,1.8833226,-2.0920599,-1.5663184,2.4546967,-0.20410942,0.12859601,-0.15718183,-0.0007376833,0.030997049,-0.1716184,-0.3256114,-0.15322891,-9.136273,0.800085,47.68062,-1.0991714,-2.1794314,-3.3298163,-0.29895195,0.074801534,-0.31964937,28.4375,29.6875,28.8125,32.5625,34.9375,36.0
0.28005236,-0.4155055,1.316481,-0.9895168,0.039026026,0.07898211,-0.1519541,-0.40716833,-0.36310554,0.06004998,3.0723221,-0.6279872,5.1565286e-05,-0.13200769,0.042486265,0.0019795601,-0.041534085,0.013708949,-0.038028214,0.47662354,-1.3638344,1.8829631,-2.0920475,-1.5662464,2.45435,-0.20542428,0.13025413,-0.1601922,-0.00066023844,0.030862525,-0.16725305,-0.30645782,-0.15322891,-9.136273,0.8023209,47.709274,-1.1051264,-2.2602246,-3.3742933,-0.301062,0.05779361,-0.4228196,28.4375,29.6875,28.8125,32.5625,34.9375,36.0
0.28205264,-1.0591935,0.9296696,-1.1170859,0.033495136,0.06994625,-0.15995352,-0.4073932,-0.36299843,0.06002062,3.072261,-0.62808925,0.00015156259,-0.13112006,0.04325763,0.0007718884,-0.039463717,0.011858752,-0.037516143,0.47620377,-1.3635819,1.8827246,-2.092035,-1.5661749,2.454002,-0.20523274,0.13090232,-0.1582797,-0.00059752585,0.029884739,-0.16757719,-0.28730422,-0.15322891,-9.174581,0.91198283,47.69763,-1.1968505,-2.184187,-3.4878836,-0.29332924,0.078442134,-0.48864257,28.4375,29.6875,28.8125,32.5625,34.9375,36.0
0.2840526,-0.5331254,0.55531067,-1.4164512,0.013558305,0.1042059,-0.15740208,-0.40766636,-0.36292043,0.06002922,3.0721936,-0.62814415,0.00010106447,-0.13144864,0.042013783,0.0011831215,-0.039115928,0.013336325,-0.025416516,0.47582054,-1.3632929,1.8823537,-2.0920112,-1.5661515,2.453662,-0.20272797,0.13241911,-0.16111638,-0.0003688831,0.028948396,-0.17717138,-0.47884035,-0.038307227,-9.404425,0.86945957,47.67614,-1.4126806,-2.173811,-3.3703322,-0.2831295,0.10096226,-0.4588005,28.4375,29.6875,28.8125,32.5625,34.9375,36.0
0.286052,-1.1650265,-0.18479235,-1.604568,-0.00391493,0.1115584,-0.15808815,-0.40791944,-0.36280054,0.060014397,3.0721343,-0.62821937,0.00010439966,-0.13226984,0.041373946,0.0014356879,-0.038516667,0.0145673575,-0.011794696,0.47537714,-1.3630522,1.8821019,-2.0920236,-1.5661157,2.4532733,-0.20160852,0.13428268,-0.16402237,-6.590353e-05,0.027909271,-0.18967433,-0.2873042,0.019153614,-9.481039,0.85826975,47.719128,-1.5834546,-2.1538844,-3.3350453,-0.29937458,0.11012077,-0.3560222,28.4375,29.6875,28.8125,32.5625,34.9375,36.0
0.28805193,-1.4146692,-0.55978024,-1.841133,-0.022519374,0.11400097,-0.15526111,-0.40817764,-0.3627383,0.060016245,3.0720623,-0.62818,0.00012867623,-0.13457468,0.041945215,0.0023304846,-0.03902046,0.016841536,-0.004142327,0.47500432,-1.3627517,1.8817295,-2.0919874,-1.5660442,2.4528854,-0.2041096,0.13510446,-0.16708487,-4.303029e-06,0.027365977,-0.1998271,-0.34476507,0.17238252,-9.615114,0.76874626,47.660015,-1.5464286,-2.1538467,-3.2074575,-0.27814502,0.13146238,-0.24515152,28.4375,29.6875,28.8125,32.5625,34.9375,36.0
0.29005188,-1.0832108,-0.7284587,-1.9039263,-0.04671817,0.11326704,-0.15577686,-0.40843454,-0.36263254,0.060003985,3.0719874,-0.6281642,0.0001579486,-0.13480213,0.043881834,-0.00054350885,-0.03643115,0.011915125,-0.0025848094,0.47455928,-1.3624977,1.8814558,-2.0919993,-1.5659717,2.4524403,-0.20742284,0.13947995,-0.16584928,-2.8095704e-07,0.027355487,-0.20469706,-0.47884035,0.24899697,-9.653421,0.87617236,47.668976,-1.4657396,-2.3203232,-3.4611034,-0.28464073,0.15376097,-0.1550768,28.4375,29.6875,28.8125,32.5625,34.9375,36.0
0.29205185,-0.6180063,-1.055565,-2.2311609,-0.06255757,0.10000883,-0.15641062,-0.40873107,-0.36254334,0.060033068,3.071938,-0.6281754,-2.4334242e-05,-0.13557094,0.04486327,0.00069507986,-0.03648747,0.012924679,-0.008218037,0.47417456,-1.3622342,1.8810738,-2.0919983,-1.566008,2.4520693,-0.20935798,0.13744798,-0.16669565,0.0019411929,0.026967756,-0.20099689,-0.4405331,0.38307226,-9.730036,0.8873621,47.65912,-1.399555,-2.169449,-3.4149194,-0.3025514,0.16667584,-0.16415498,28.4375,29.6875,28.8125,32.5625,34.9375,36.0
0.29405186,-1.346735,-2.2031069,-2.358913,-0.06261107,0.07249563,-0.14152555,-0.4090358,-0.36245143,0.06003886,3.0718033,-0.6282501,-4.6180714e-05,-0.13748635,0.046120714,-3.493905e-05,-0.03542542,0.012324426,-0.018354256,0.47370514,-1.3619331,1.8807029,-2.0920107,-1.5659245,2.4516642,-0.21256141,0.14049348,-0.16873296,0.0019500867,0.026294656,-0.19406243,-0.45968673,0.51714754,-9.844957,0.88960326,47.675243,-1.2623175,-2.3630314,-3.3957648,-0.3057898,0.1934388,-0.24119219,28.4375,29.6875,28.8125,32.5625,34.9375,36.0
0.2960518,-0.22491124,-1.6294991,-2.315082,-0.0910771,0.09002684,-0.16258296,-0.4092682,-0.3623586,0.06001553,3.0717502,-0.6282596,6.4714804e-05,-0.13864848,0.046405945,-0.0010126539,-0.035597,0.011436309,-0.023563245,0.47329652,-1.3616558,1.8804153,-2.091975,-1.5658401,2.4512684,-0.21425824,0.14361648,-0.17004901,0.000863235,0.026839204,-0.19054866,-0.30645782,0.40222588,-9.998186,0.7732232,47.695843,-1.25581,-2.3256612,-3.3444014,-0.31081015,0.22360784,-0.302387,28.4375,29.6875,28.8125,32.5625,34.9375,36.0
0.2980523,-0.5102162,-2.1851416,-2.4386525,-0.077309296,0.07219891,-0.14651796,-0.40957862,-0.36225083,0.06003038,3.0716555,-0.62841576,-2.7578042e-05,-0.14030015,0.047500584,-0.0014911492,-0.03471927,0.011677576,-0.029399496,0.47284,-1.3613669,1.8800324,-2.0919635,-1.5658282,2.450922,-0.21682873,0.14573106,-0.17141195,0.00029820498,0.02595838,-0.18728215,-0.28730422,0.4405331,-9.883265,0.90750587,47.703007,-1.232178,-2.4347289,-3.3640828,-0.29578465,0.24472004,-0.3847478,28.4375,29.6875,28.8125,32.5625,34.9375,36.0
0.3000524,-0.14795342,-1.2103891,-2.0739546,-0.08021427,0.07122883,-0.16263236,-0.40987375,-0.36216673,0.060045045,3.0715175,-0.62852186,-0.00010214068,-0.14182122,0.047813017,-0.0012604196,-0.036145344,0.011942917,-0.031174177,0.47240725,-1.3610901,1.8796729,-2.0919874,-1.5657681,2.4505737,-0.21923453,0.14693968,-0.17339344,0.00020714612,0.027136775,-0.18790674,-0.17238252,0.34476504,-9.80665,0.8537928,47.678825,-1.1037753,-2.5130074,-3.3089638,-0.26899427,0.26198223,-0.39573088,28.4375,29.6875,28.8125,32.5625,34.9375,36.0
0.30205244,-0.030118633,-1.0682008,-1.9231802,-0.044210557,0.058297448,-0.16127256,-0.41017056,-0.36209086,0.060052503,3.0714033,-0.62851316,-0.00017393685,-0.14243484,0.04831871,-0.0023380292,-0.03732408,0.009151756,-0.026846692,0.47198656,-1.3607887,1.8793029,-2.0920236,-1.5657071,2.4501626,-0.2219131,0.14938581,-0.17394155,0.00030861094,0.029514914,-0.19490331,-0.13407528,0.34476504,-9.730036,0.8940802,47.675243,-1.0752916,-2.6426384,-3.3499813,-0.27387425,0.26084524,-0.34731936,28.4375,29.6875,28.8125,32.5625,34.9375,36.0
0.3040526,-0.41239005,-0.3192729,-1.7324668,-0.029434934,0.0419598,-0.15653804,-0.41045037,-0.3619839,0.060034335,3.071328,-0.6285301,-0.00016385256,-0.14391671,0.04934288,-0.0012385101,-0.039057106,0.010941658,-0.018278863,0.47152928,-1.3604902,1.8789915,-2.0920475,-1.565647,2.4497259,-0.22524492,0.14767618,-0.17438173,0.00015953417,0.030313069,-0.20680025,-0.095768064,0.21068975,-9.557653,0.86945957,47.672558,-0.9785322,-2.3326578,-3.4306903,-0.2661966,0.26046425,-0.2648595,28.4375,29.6875,28.8125,32.5625,34.9375,36.0
0.30605167,0.05262623,-0.049424503,-1.6002251,-0.0071370928,0.05582059,-0.16161244,-0.4107629,-0.36188263,0.06005911,3.0711927,-0.6286317,-0.0002644662,-0.14521183,0.04902597,-0.00092339143,-0.040558502,0.011508545,-0.010605268,0.47106075,-1.3602259,1.878621,-2.0920594,-1.5655984,2.4493387,-0.22636546,0.14920686,-0.176939,6.4828586e-05,0.03146309,-0.21558678,-0.19153613,0.076614454,-9.404425,0.87393653,47.70032,-0.97531605,-2.4281578,-3.3210425,-0.2607475,0.26345864,-0.10220288,28.4375,29.6875,28.8125,32.5625,34.9375,36.0
0.3080526,-0.042598072,0.3126651,-1.2528925,-0.00048724044,0.063318245,-0.16477987,-0.4110143,-0.36181304,0.060059037,3.0711017,-0.6285715,-0.0001633302,-0.14455646,0.047020093,-0.0012660595,-0.041809555,0.010637247,-0.0065948665,0.4706542,-1.3599374,1.8782614,-2.0919993,-1.5654777,2.4489064,-0.22323027,0.15145306,-0.17887767,4.2328434e-06,0.03298651,-0.21645647,-0.24899697,0.05746084,-9.308656,0.85155696,47.670765,-1.1205359,-2.4382286,-3.2324028,-0.24506527,0.2828206,-0.0640765,28.4375,29.6875,28.8125,32.5625,34.9375,36.0
0.31005284,-1.0996162,0.2194107,-0.9545374,0.005085684,0.06555898,-0.1500182,-0.4113216,-0.36171338,0.060063884,3.0709825,-0.6285897,-0.00023861599,-0.14417097,0.04670574,-0.0017586623,-0.041834727,0.009622205,-0.01320742,0.47018674,-1.3596493,1.8779157,-2.0920475,-1.5654181,2.448466,-0.22250578,0.1524288,-0.17896867,2.7637444e-07,0.033472147,-0.2091144,-0.40222588,0.019153614,-9.136273,0.83813137,47.695843,-1.2846432,-2.5352974,-3.4276469,-0.2237358,0.2712337,-0.1427494,28.4375,29.6875,28.8125,32.5625,34.9375,36.0
0.31205198,-0.79853994,0.37010247,-0.9632981,0.01643702,0.09452752,-0.15880889,-0.4116395,-0.36161602,0.060071208,3.0708673,-0.62864655,-0.0002602779,-0.14558128,0.045975,2.5705622e-05,-0.043250166,0.01328325,-0.021757575,0.46970683,-1.3593259,1.877508,-2.092035,-1.5653461,2.448037,-0.22206505,0.15162869,-0.18208958,1.8045275e-08,0.033057958,-0.20012143,-0.38307226,-0.076614454,-9.155427,0.80679786,47.693153,-1.389332,-2.3859215,-3.367553,-0.22174853,0.2866627,-0.23392142,28.4375,29.6875,28.8125,32.5625,34.9375,36.0
0.3140521,-0.16221575,1.0740067,-0.9015113,0.013127831,0.1010527,-0.16034016,-0.41190523,-0.36152312,0.06006113,3.0707908,-0.6286733,-0.0002476712,-0.14658368,0.045927577,0.0004844982,-0.044382993,0.014006574,-0.030482778,0.4692864,-1.359038,1.8771852,-2.092035,-1.5652856,2.4476433,-0.22310552,0.15213421,-0.18377109,1.1782276e-09,0.033722702,-0.19243282,-0.15322891,-0.1340753,-9.097966,0.89631605,47.675243,-1.5292861,-2.2498279,-3.4445984,-0.21280755,0.291334,-0.3404488,28.4375,29.6875,28.8125,32.5625,34.9375,36.0
0.3160521,-0.25126016,0.92151856,-1.0450763,0.033891797,0.06151358,-0.1686566,-0.41220108,-0.361427,0.06006033,3.0707157,-0.6287376,-0.00024785224,-0.1476589,0.045867413,0.001061924,-0.04577781,0.014876981,-0.03720877,0.4688424,-1.3587142,1.8767899,-2.0919993,-1.5652369,2.4472494,-0.22427917,0.15247846,-0.18553157,7.692984e-11,0.03456568,-0.18687601,-0.1340753,-0.05746084,-9.136273,0.82022345,47.70211,-1.4128907,-2.2679682,-3.366541,-0.20255679,0.29098576,-0.4632762,28.4375,29.6875,28.8125,32.5625,34.9375,36.0
0.3180519,-0.07766944,0.9973965,-1.0057379,0.0278296,0.032837775,-0.16217068,-0.41252705,-0.3613611,0.060107954,3.070507,-0.6288084,-0.00044379607,-0.1492065,0.046058577,0.0007400139,-0.046206113,0.014544806,-0.037618484,0.46840942,-1.358461,1.8763946,-2.0920713,-1.5651649,2.4468882,-0.22610524,0.15528071,-0.18819669,5.022968e-12,0.03515339,-0.18828201,-0.11492168,-0.1340753,-9.021352,0.87617236,47.65912,-1.4464203,-2.3551433,-3.2656024,-0.17649367,0.30488923,-0.48619938,28.4375,29.6875,28.8125,32.5625,34.9375,36.0
0.32005197,-0.53489494,0.46674573,-1.4329178,0.027584905,0.012911632,-0.16323693,-0.41281772,-0.3612353,0.060083788,3.0704463,-0.6289617,-0.00041515726,-0.15054289,0.046754066,0.0017323276,-0.04667463,0.016759278,-0.027763389,0.4679289,-1.3581381,1.8760585,-2.0920594,-1.5651296,2.4465115,-0.22793867,0.15431008,-0.18932271,3.2796395e-13,0.03464277,-0.19997244,-0.17238252,0.0,-9.11712,0.88289046,47.661808,-1.3811268,-2.1547775,-3.1858835,-0.1590417,0.33173817,-0.4408834,28.4375,29.6875,28.8125,32.5625,34.9375,36.0
0.3220519,-0.34204832,0.01827561,-1.6002147,0.018213011,0.034900703,-0.16474493,-0.4130938,-0.36113855,0.060066856,3.0703704,-0.6289577,-0.00032328092,-0.15158686,0.047882885,0.0023538235,-0.047170136,0.016502786,-0.01621198,0.46747223,-1.3578147,1.8756999,-2.0920227,-1.5650328,2.4460623,-0.23095591,0.1537285,-0.19050187,0.0018824968,0.03528841,-0.21453941,0.0,0.095768064,-9.308657,0.9231726,47.64389,-1.4247111,-2.0485845,-3.227041,-0.16997188,0.33805472,-0.30518562,28.4375,29.6875,28.8125,32.5625,34.9375,36.0
0.32405165,-0.6292481,-1.1839149,-1.7038292,-0.009260023,0.06800193,-0.15220708,-0.41342363,-0.3610219,0.060090885,3.0702467,-0.6290822,-0.0003957648,-0.15298362,0.04939046,0.0023874368,-0.047284987,0.015233457,-0.01065331,0.4669665,-1.3575263,1.8752931,-2.0919979,-1.5649847,2.4456508,-0.2349515,0.15451108,-0.19197728,0.0037374296,0.03604839,-0.22408774,-0.114921674,0.19153613,-9.500193,0.8605109,47.647476,-1.3311901,-2.0601587,-3.3224528,-0.19443282,0.3489936,-0.16790105,28.4375,29.6875,28.8125,32.5625,34.9375,36.0
0.32605255,-1.1695256,-1.2323167,-1.5925596,-0.051679026,0.09740599,-0.16139252,-0.4136981,-0.36093563,0.060081277,3.070165,-0.6289877,-0.0003225145,-0.15271056,0.050234802,0.0015351832,-0.046681944,0.012425424,-0.011574436,0.46652243,-1.3572145,1.8749346,-2.0919735,-1.5648764,2.4451585,-0.236434,0.15547208,-0.19157806,0.0051970454,0.036800243,-0.22464609,-0.59376204,0.2681506,-9.3661175,0.78888994,47.678825,-1.1698357,-2.0160222,-3.2944088,-0.1953778,0.36301696,-0.14215186,28.4375,29.6875,28.8125,32.5625,34.9375,36.0
0.32805252,-1.1456332,-1.1621677,-1.7814596,-0.061775498,0.12720099,-0.15509513,-0.4139718,-0.3608525,0.060081583,3.0700486,-0.62900865,-0.00023896719,-0.1541213,0.051376276,0.001264751,-0.047532514,0.011308568,-0.023189664,0.4660771,-1.3569143,1.8745621,-2.0919254,-1.5647558,2.4447415,-0.24014069,0.15675099,-0.192625,0.0055718194,0.038041126,-0.21673186,-0.5554548,0.3256114,-9.557653,0.85826975,47.67345,-0.97382545,-2.0270615,-3.247493,-0.21746787,0.3465593,-0.20704135,28.4375,29.6875,28.8125,32.5625,34.9375,36.0
0.33005244,-0.8072726,-1.1024226,-2.218708,-0.051187515,0.12724665,-0.15569632,-0.4143052,-0.3607367,0.060095184,3.0699563,-0.62907,-0.0003361768,-0.15434027,0.050518166,0.0007090549,-0.048529398,0.010002528,-0.029878918,0.46558532,-1.3566015,1.8741549,-2.0919254,-1.5647315,2.4443004,-0.23960009,0.15934141,-0.19452222,0.0055728583,0.039513588,-0.2094921,-0.30645782,0.24899697,-9.768343,0.8560339,47.68062,-1.0206058,-2.2209055,-3.3248472,-0.20798422,0.3527661,-0.30943143,28.4375,29.6875,28.8125,32.5625,34.9375,36.0
0.3320523,-1.3320725,-1.2465215,-1.9275804,-0.048972096,0.09461745,-0.15675749,-0.41460198,-0.36063817,0.060079604,3.06986,-0.6291079,-0.00029999463,-0.15422836,0.050674047,-0.0016523482,-0.04676755,0.0065113837,-0.03308145,0.4651176,-1.3562641,1.8737844,-2.0919254,-1.5646476,2.443869,-0.2395943,0.16418459,-0.19494733,0.0050816312,0.039507676,-0.20628172,-0.53630114,0.3256114,-9.672575,0.8605109,47.682407,-1.2396418,-2.2453804,-3.4023771,-0.21011183,0.35109222,-0.3602211,28.4375,29.6875,28.8125,32.5625,34.9375,36.0
0.33405238,-0.9801308,-1.3250473,-1.881715,-0.034503672,0.09438316,-0.1542962,-0.41493684,-0.36053258,0.06008678,3.0697227,-0.62923175,-0.00033912653,-0.15639184,0.04988954,2.8322002e-06,-0.04900656,0.01045106,-0.032212425,0.4646134,-1.3559284,1.8733643,-2.0919259,-1.5645756,2.4434605,-0.24007747,0.16446589,-0.19888555,0.0042552315,0.039771345,-0.20762847,-0.6512228,0.34476504,-9.500193,0.87393653,47.668976,-1.248903,-2.1696048,-3.3649464,-0.1685462,0.36578387,-0.40315196,28.4375,29.6875,28.8125,32.5625,34.9375,36.0
0.3360522,-0.7613845,-0.7777665,-2.29118,-0.0110092275,0.07995861,-0.1574932,-0.41525984,-0.36044517,0.06010038,3.06962,-0.6291655,-0.0004166569,-0.15665147,0.049558543,-0.00073730707,-0.049720056,0.009532462,-0.022429055,0.46415707,-1.355604,1.8729461,-2.0919387,-1.564515,2.4429765,-0.24024858,0.16656598,-0.19959886,0.003459034,0.04090577,-0.21757443,-0.22984336,0.21068975,-9.730036,0.8560339,47.698532,-1.2657574,-2.3783517,-3.394264,-0.15738207,0.36295414,-0.343043,28.4375,29.6875,28.8125,32.5625,34.9375,36.0
0.33805203,-0.031431757,-0.5019586,-1.8106346,-0.015002479,0.0829173,-0.16944896,-0.41556832,-0.360336,0.060104914,3.0695167,-0.6292124,-0.00045091563,-0.15633422,0.049748614,-0.002081348,-0.049851518,0.006772659,-0.011749909,0.46367726,-1.3553038,1.8725742,-2.0919383,-1.5644549,2.4425397,-0.24100016,0.16872782,-0.19918591,0.0033931371,0.04234938,-0.22899714,-0.19153613,0.17238252,-9.749189,0.9164598,47.689575,-1.2831019,-2.2609396,-3.473578,-0.15654127,0.34657434,-0.20821433,28.4375,29.6875,28.8125,32.5625,34.9375,36.0
0.340052,-0.4871811,-0.4385801,-1.5130075,-0.03111076,0.06292477,-0.16024707,-0.41586402,-0.3602632,0.06008901,3.069399,-0.6291678,-0.0003955347,-0.15701179,0.04936095,-0.0022174234,-0.052205693,0.0058769276,-0.008077969,0.46323228,-1.3549435,1.8721794,-2.0919502,-1.5643338,2.4420824,-0.24229862,0.17016585,-0.20060597,0.0031934567,0.044901915,-0.23395538,-0.40222588,0.114921674,-9.461885,0.87617236,47.661808,-1.315696,-2.4269829,-3.5185332,-0.13440809,0.3302395,-0.10002318,28.4375,29.6875,28.8125,32.5625,34.9375,36.0
0.34205207,0.0965655,-0.57179934,-1.7862881,-0.016899353,0.07377786,-0.15772967,-0.41618246,-0.36014876,0.06009561,3.0692875,-0.62924165,-0.0004043347,-0.15786576,0.048611805,-0.0010480159,-0.05454567,0.007356947,-0.011495649,0.46272838,-1.3546319,1.8717836,-2.0919259,-1.5642613,2.4416394,-0.24244982,0.16981365,-0.20293893,0.0035224291,0.046341363,-0.23067994,-0.38307226,0.038307227,-9.461885,0.9186956,47.65464,-1.3984833,-2.3363855,-3.4828353,-0.14444986,0.3030305,-0.096073106,28.4375,29.6875,28.8125,32.5625,34.9375,36.0
0.34405196,-0.7780062,-0.86537886,-1.6301687,-0.021489352,0.052724067,-0.14211196,-0.4165128,-0.36006317,0.060099386,3.069158,-0.6292402,-0.00041658024,-0.15827097,0.048728637,-0.0012735128,-0.056283742,0.005185555,-0.023013173,0.46224836,-1.3542718,1.8713411,-2.0919254,-1.5641645,2.4411757,-0.24431369,0.170958,-0.20411795,0.0046968376,0.04884594,-0.22101183,-0.15322891,0.15322891,-9.385271,0.92093146,47.645687,-1.4270482,-2.3780005,-3.3489268,-0.13677454,0.2911444,-0.20371233,28.4375,29.6875,28.8125,32.5625,34.9375,36.0
0.34605223,0.18519755,-0.56174403,-1.7245208,-0.013486426,0.0549607,-0.15831374,-0.41685247,-0.35997444,0.06013837,3.0689914,-0.6292686,-0.00049040467,-0.15969683,0.048825823,-0.0012602361,-0.057324484,0.005101073,-0.034111008,0.4617557,-1.3539712,1.8708857,-2.091902,-1.5640677,2.440723,-0.24605262,0.17294271,-0.20659629,0.0047813836,0.049800884,-0.2116414,-0.17238252,0.22984336,-9.251195,0.88960326,47.690468,-1.3062285,-2.4516034,-3.3513465,-0.104941465,0.24228656,-0.29490724,28.4375,29.6875,28.8125,32.5625,34.9375,36.0
0.3480518,0.62226385,-0.49754003,-1.5683991,-0.017876782,0.04930397,-0.1511186,-0.41718763,-0.359861,0.06012229,3.0688367,-0.62949127,-0.00046231522,-0.16224068,0.049253143,-6.348726e-05,-0.06062955,0.006495228,-0.044118766,0.46122584,-1.3535997,1.8704771,-2.091914,-1.5639709,2.4403527,-0.25010854,0.17332934,-0.20984305,0.0049196808,0.052125648,-0.2056762,-0.24899697,0.17238252,-9.251195,0.8717007,47.683304,-1.1676685,-2.2140992,-3.2092242,-0.10640381,0.23340973,-0.42382497,28.4375,29.6875,28.8125,32.5625,34.9375,36.0
0.35005167,0.65072966,-0.3375217,-1.544955,-0.018572748,0.042885825,-0.16131389,-0.4174987,-0.35976022,0.060111944,3.0687428,-0.6295474,-0.00041493346,-0.16345873,0.049674213,3.4314482e-05,-0.061635844,0.0066827917,-0.04675203,0.46074554,-1.3532398,1.8700584,-2.0918782,-1.563887,2.43992,-0.25214815,0.17431203,-0.21126796,0.0047814064,0.05295714,-0.20507742,-0.11492168,0.076614454,-9.251195,0.90527004,47.639416,-1.0773821,-2.2591166,-3.2521462,-0.09847989,0.2084133,-0.5006,28.4375,29.6875,28.8125,32.5625,34.9375,36.0
0.35205257,-0.033143617,-0.3034688,-1.5147145,-0.0065964377,0.034221176,-0.155883,-0.41782573,-0.35967457,0.060118455,3.0685315,-0.6296512,-0.0004259744,-0.16354644,0.050718796,-0.00067380746,-0.060266666,0.0056989486,-0.03855973,0.46024123,-1.3529156,1.8696641,-2.0919254,-1.563743,2.4395084,-0.2533459,0.1750051,-0.21061224,0.00504682,0.052264985,-0.2144653,0.019153614,0.05746084,-9.059659,0.9701675,47.664497,-1.1739311,-2.1700287,-3.3272743,-0.09588952,0.1979599,-0.46986622,28.4375,29.6875,28.8125,32.5625,34.9375,36.0
0.3540525,-0.27444068,0.05685133,-1.3856091,-0.0032303685,0.04933356,-0.1583253,-0.4181444,-0.3595763,0.060115058,3.0683975,-0.62968975,-0.000371745,-0.16425644,0.05032135,-0.0015983661,-0.060616832,0.0034301032,-0.025124466,0.45973733,-1.3525666,1.8692454,-2.0919015,-1.5636224,2.4390464,-0.2539406,0.17894803,-0.2135644,0.0060808966,0.05368957,-0.22848597,-0.095768064,0.19153613,-9.193734,0.87393653,47.664497,-1.1698174,-2.292071,-3.4058867,-0.0777055,0.17811126,-0.3402171,28.4375,29.6875,28.8125,32.5625,34.9375,36.0
0.35605243,-0.16400132,-0.09729748,-1.4243785,-0.0018748252,0.08097823,-0.15493008,-0.41847083,-0.35948417,0.060119297,3.0682483,-0.6296934,-0.0003919449,-0.16418017,0.05059046,-0.0016316214,-0.06235112,0.0020422686,-0.017333604,0.4592448,-1.3522315,1.8688372,-2.091925,-1.5635136,2.438576,-0.25549796,0.17856963,-0.21320929,0.006689925,0.055954028,-0.23781984,-0.24899697,0.11492168,-9.251195,0.80456203,47.690468,-1.0941627,-2.1660032,-3.5093026,-0.087468326,0.12514605,-0.20387922,28.4375,29.6875,28.8125,32.5625,34.9375,36.0
0.35805234,-1.0181862,-0.4842555,-1.6714629,0.0062327096,0.07639264,-0.149463,-0.41880068,-0.3593688,0.060104612,3.0681515,-0.6296942,-0.00028340463,-0.16578892,0.051112235,-0.0004311775,-0.06296459,0.0036733965,-0.019672519,0.4587043,-1.3518478,1.8683938,-2.0918653,-1.563394,2.4380488,-0.257404,0.17828745,-0.21594782,0.008032268,0.055792186,-0.23738721,-0.2681506,0.15322891,-9.289502,0.91198283,47.66808,-1.1836475,-2.145268,-3.4170709,-0.077156484,0.08474882,-0.19282475,28.4375,29.6875,28.8125,32.5625,34.9375,36.0
0.36005235,-0.62266237,-0.10980098,-1.474163,-0.006201277,0.091735825,-0.14708121,-0.41911677,-0.3592606,0.06009245,3.068011,-0.62980396,-0.00021810076,-0.1666246,0.051520575,-0.0006260236,-0.06008071,0.004956837,-0.0263477,0.4581882,-1.3514992,1.867998,-2.091853,-1.5632752,2.43762,-0.25665638,0.18011738,-0.21783122,0.0082231,0.05261406,-0.2299761,-0.4213795,0.11492168,-9.308656,0.8157518,47.68062,-1.1555237,-2.234395,-3.4269307,-0.084848,0.0986615,-0.26238152,28.4375,29.6875,28.8125,32.5625,34.9375,36.0
0.36205232,-0.90477633,-0.3430257,-1.3539337,-0.016703814,0.10422262,-0.14409555,-0.41945082,-0.3591672,0.06009596,3.067898,-0.62980175,-0.00020269187,-0.16785052,0.051382966,-0.00061530207,-0.059933037,0.005509599,-0.03218276,0.45769623,-1.3511268,1.8675321,-2.0918167,-1.5631794,2.4371417,-0.2570019,0.18233794,-0.22063431,0.008382407,0.052226547,-0.2244842,-0.61291564,0.095768064,-9.193734,0.90750587,47.66808,-1.2816354,-2.265337,-3.3042798,-0.07734352,0.07537338,-0.3569673,28.4375,29.6875,28.8125,32.5625,34.9375,36.0
0.36405215,-1.1364073,0.03938599,-1.5274833,-0.014343711,0.10924809,-0.15739416,-0.41979966,-0.3590636,0.060104314,3.0677407,-0.6298845,-0.0002098942,-0.1679125,0.051501665,-0.00048990647,-0.05905066,0.0062039844,-0.03302759,0.4571682,-1.3507674,1.8670768,-2.0918052,-1.5630716,2.4366863,-0.25638312,0.18236367,-0.22105563,0.0085885925,0.051154282,-0.22302148,-0.6703765,0.05746084,-9.270349,0.92764956,47.647476,-1.3132007,-2.1888523,-3.3820133,-0.100938976,0.08333878,-0.38908315,28.4375,29.6875,28.8125,32.5625,34.9375,36.0
0.3660521,-1.481085,-0.5710128,-1.7370627,0.00036587226,0.11225838,-0.15476856,-0.42012572,-0.35894457,0.060074978,3.0676277,-0.6300661,-0.00012118392,-0.16773483,0.052123897,-0.0019446947,-0.055331152,0.004777779,-0.025141256,0.45664105,-1.3503705,1.8666581,-2.091781,-1.5629762,2.4362876,-0.25546882,0.18527976,-0.22150458,0.0091538085,0.048503924,-0.23000619,-0.4213795,0.1340753,-9.3661175,0.88289046,47.67614,-1.4281574,-2.201655,-3.458326,-0.08060023,0.0747613,-0.3924581,28.4375,29.6875,28.8125,32.5625,34.9375,36.0
0.36805212,-1.1400084,0.46737248,-1.2411462,-0.03633565,0.12902084,-0.17520408,-0.42048112,-0.35885426,0.06010042,3.0674608,-0.63004386,-0.00016240761,-0.16993968,0.053889945,-0.0007928284,-0.05342119,0.007990101,-0.0152813755,0.4561241,-1.3500232,1.8661784,-2.0917685,-1.5628575,2.435779,-0.25820056,0.18466666,-0.22362994,0.010012652,0.045492794,-0.2426071,-0.53630114,0.17238252,-9.32781,0.8493211,47.674347,-1.4677911,-2.1023989,-3.4510875,-0.08054,0.12006059,-0.27547002,28.4375,29.6875,28.8125,32.5625,34.9375,36.0
0.37005207,-1.4101374,-0.09932906,-1.3055397,-0.01638801,0.11967385,-0.15533441,-0.42082772,-0.3587393,0.060075756,3.0673788,-0.6300438,-0.00011759827,-0.17220905,0.05586903,-0.00055802224,-0.05222124,0.009535133,-0.010159585,0.45559484,-1.3496034,1.865724,-2.0917566,-1.5627741,2.4352608,-0.26214918,0.18539628,-0.22512875,0.0100452425,0.043810874,-0.25168487,-0.49799395,0.21068975,-9.289502,0.9097417,47.687782,-1.2866545,-2.1576235,-3.4093316,-0.079759166,0.1468742,-0.14223127,28.4375,29.6875,28.8125,32.5625,34.9375,36.0
0.37205178,-1.2534574,0.12040266,-1.6842192,0.012909282,0.09880239,-0.15312107,-0.42118904,-0.35860184,0.06008904,3.0672524,-0.6301719,-0.00016936634,-0.17274575,0.05618147,-0.001760245,-0.05032089,0.008783959,-0.011153363,0.45503077,-1.3492664,1.865281,-2.0917327,-1.5627145,2.4347937,-0.26207227,0.18861446,-0.226241,0.009484917,0.042461812,-0.25061667,-0.40222588,0.038307227,-9.270349,0.9231726,47.667187,-1.3006116,-2.2501166,-3.4279358,-0.07629538,0.15217885,-0.1004525,28.4375,29.6875,28.8125,32.5625,34.9375,36.0
0.3740519,-0.43419206,0.92186815,-1.4182041,0.005216107,0.092520274,-0.15863144,-0.42151567,-0.35850325,0.060068298,3.067152,-0.6301741,-0.00012917902,-0.17399824,0.05648199,-0.001292654,-0.04946774,0.010329412,-0.019282453,0.45453912,-1.3488704,1.864849,-2.0917327,-1.5626191,2.4343169,-0.2625056,0.18954816,-0.22859073,0.009874098,0.040986888,-0.2429258,-0.49799395,0.0,-9.346964,0.87617236,47.658226,-1.4642351,-2.2907395,-3.3363175,-0.061842658,0.18501478,-0.15633354,28.4375,29.6875,28.8125,32.5625,34.9375,36.0
