Tylouw/Master_Thesis_Code/test_recorded_data/trial7/insertion_1_2026-01-26_10-18-42.csv
num_insertion,tcp_force_x[N],tcp_force_y[N],tcp_force_z[N],tcp_force_rx[Nm?],tcp_force_ry[Nm?],tcp_force_rz[Nm?],tcp_pose_x[m],tcp_pose_y[m],tcp_pose_z[m],tcp_pose_rx[rot_vec_x],tcp_pose_ry[rot_vec_y],tcp_pose_rz[rot_vec_z],tcp_velo_x[m/s],tcp_velo_y[m/s],tcp_velo_z[m/s],tcp_velo_rx[rot_vec_x/s],tcp_velo_ry[rot_vec_y/s],tcp_velo_rz[rot_vec_z/s],q1[rad],q2[rad],q3[rad],q4[rad],q5[rad],q6[rad],qd1[rad/s],qd2[rad/s],qd3[rad/s],qd4[rad/s],qd5[rad/s],qd6[rad/s],tool_acc_x,tool_acc_y,tool_acc_z,current_of_whole_robot[A],voltage_of_whole_robot[V],current_J1[A],current_J2[A],current_J3[A],current_J4[A],current_J5[A],current_J6[A],temp_J1[C],temp_J2[C],temp_J3[C],temp_J4[C],temp_J5[C],temp_J6[C]
1.0,0.48982759068505627,0.9748292942194174,0.11401288878447662,0.02268547792696876,-0.06381505171419849,-0.03738878505646995,-0.538716132897007,-0.3244577696303101,0.05999908244811508,-3.078649613656865,0.6248555481535888,1.9009707331569554e-05,0.0015089918851023596,-0.0014313118499795412,0.00135983875420064,-0.0011710894944327627,0.004232807451110764,0.0027110792809239472,0.32665789127349854,-1.1521189969829102,1.6627257505999964,-2.0798398456969203,-1.571369473134176,2.3016531467437744,0.0031201886013150215,-0.004905779380351305,0.004682757891714573,-0.004160735756158829,-0.00024850753834471107,0.0004075144533999264,0.6129156351089478,-0.28730422258377075,-9.193734169006348,0.7687462568283081,47.6734504699707,-0.23507201671600342,-4.236663818359375,-2.659635543823242,-0.40913712978363037,-0.029300004243850708,-0.1981843262910843,24.1875,25.0625,24.0625,26.25,26.75,27.1875
1.0,0.923052315378203,1.2419887677460297,-0.1292722386226435,0.056317673755423805,-0.08862441651466796,-0.033645995440549734,-0.5386871848958211,-0.3244899070340456,0.05998598648589015,-3.078676576292823,0.6247475674361135,-4.810924154847581e-06,-0.00045699596975866955,-0.0011503175576224101,0.0017946626552584545,-0.0016254002632785124,0.005535026531789049,0.0013090170779769456,0.32668137550354004,-1.1521063906005402,1.6627357641803187,-2.0798636875548304,-1.571345631276266,2.3016412258148193,0.001651211641728878,-0.0028551165014505386,0.0007286846521310508,-0.003636501729488373,-0.00024385543656535447,0.0003407302137929946,0.4405331015586853,-0.1149216815829277,-9.193734169006348,0.8179876208305359,47.67882537841797,-0.1710541546344757,-4.353113651275635,-2.374762773513794,-0.4178731441497803,-0.029961051419377327,-0.20413872599601746,24.1875,25.0625,24.0625,26.25,26.75,27.1875
1.0,-0.0005132481066531247,0.2230157523495335,-0.27672119748732216,0.030811797706469007,-0.07394849906320021,-0.02463690955017005,-0.538671438417022,-0.3244768214640408,0.060003912642398904,-3.078636701343712,0.624777597636233,-1.9180505312391752e-05,-0.0006126805951330995,-0.0008236604068855961,0.0016171495263224683,-0.0013121080208507905,0.00458933231175562,0.0007788888949010898,0.32668113708496094,-1.1521542233279725,1.662748161946432,-2.079803606072897,-1.571369473134176,2.3016648292541504,0.001062396913766861,-0.002225368283689022,9.776234946912155e-06,-0.002551155863329768,-0.00023610400967299938,0.0002825021219905466,0.09576806426048279,0.1149216741323471,-9.327810287475586,0.7508436441421509,47.71017074584961,-0.13086912035942078,-4.30855655670166,-2.3194363117218018,-0.4324558973312378,-0.03347396105527878,-0.20223645865917206,24.1875,25.0625,24.0625,26.25,26.75,27.1875
1.0,-1.5891568618285365,-1.8045329040478175,0.00442068673871305,-0.014122347496769078,-0.01354300682036843,-0.031560451151714505,-0.5386790690576243,-0.32447938348939476,0.06001331613482383,-3.0786499938443543,0.6247995189980626,2.7591622341183698e-05,-0.00017735809609525075,-0.000525027099629122,0.0009130728682196076,-0.0005436084700951301,0.00230908866390161,0.0005030180915027904,0.32668107748031616,-1.1521658164313813,1.662748161946432,-2.0798264942564906,-1.571369473134176,2.3016767501831055,0.0008272354607470334,-0.0013168948935344815,1.3116066099883028e-07,-0.0010437407763674855,-0.00022862260811962187,0.00032394181471318007,-0.09576806426048279,0.19153612852096558,-9.346963882446289,0.7732232213020325,47.656429290771484,-0.11935187876224518,-4.034879684448242,-2.1185176372528076,-0.4854370057582855,-0.01182230282574892,-0.21550384163856506,24.1875,25.0625,24.0625,26.25,26.75,27.1875
1.0,-3.147195122517192,-2.6734441635702515,-0.06922320663784759,-0.0750268864479173,0.053388717137661065,-0.02670103321734873,-0.5386630261498192,-0.3244507109058845,0.06000055720644473,-3.0785767557734083,0.6248422832631558,-6.812727182508717e-05,-0.00011812844399486501,-0.00023923986323792695,0.0005519692393245491,-0.00022442080597847124,0.0013490714343345504,0.000135024019365883,0.3266569674015045,-1.152165637617447,1.6627605597125452,-2.079754491845602,-1.5713933149920862,2.3016886711120605,0.0004146457649767399,-0.0008112037321552634,1.7596875068193185e-09,-0.0005376611370593309,-0.00022158668434713036,0.00027963807224296033,-0.325611412525177,0.26815059781074524,-9.442731857299805,0.8247004151344299,47.71375274658203,-0.08875180780887604,-4.034132957458496,-2.061812162399292,-0.507125973701477,-0.012118356302380562,-0.21557942032814026,24.1875,25.0625,24.0625,26.25,26.75,27.1875
1.0,-3.361756504411154,-3.175306101126519,0.3444856210717571,-0.09970255549452933,0.10600872562395625,-0.028464079687686644,-0.5386598013628141,-0.32445691829088674,0.05998141886443592,-3.0786206621122862,0.6247940962168664,-0.00012685860287022128,0.00418505172019594,0.0010829233950604142,-0.004056252767715561,0.0029679941272156645,-0.008032892585359979,0.00039450692820914787,0.32664498686790466,-1.1521412593177338,1.6627753416644495,-2.079778333703512,-1.571345631276266,2.3016409873962402,0.0006357590900734067,0.0002710942062549293,0.00895428191870451,-0.0006640366045758128,-0.00021497001580428332,0.00024228528491221368,-0.363918662071228,0.28730422258377075,-9.461885452270508,0.7732232213020325,47.6680793762207,-0.1622435748577118,-3.9554965496063232,-2.52988338470459,-0.5678145885467529,-0.02401083894073963,-0.21795666217803955,24.1875,25.0625,24.0625,26.25,26.75,27.1875
1.0,-2.854113456785409,-2.1284629655885325,0.6729136254337781,-0.07716436495828116,0.08296250651849611,-0.02869733979047161,-0.5386439076999159,-0.32445223021097847,0.059998353169420426,-3.078573772469918,0.6248218060226655,-8.675135609654661e-05,0.0037715178682248907,0.00021855478091116766,-0.0036420441654375114,0.002492302532534239,-0.006661419520432173,0.0015337340961631288,0.3266693651676178,-1.1521890622428437,1.6627982298480433,-2.07975496868276,-1.5713933149920862,2.3016886711120605,0.0017464589327573776,0.0007506454712711275,0.007444886956363916,-0.001085798954591155,-0.00020873767789453268,0.00021350102906581014,-0.2106897532939911,0.325611412525177,-9.327810287475586,0.7754590511322021,47.67882537841797,-0.20314845442771912,-3.9826502799987793,-2.479459762573242,-0.602036714553833,-0.025103460997343063,-0.22506272792816162,24.1875,25.0625,24.0625,26.25,26.75,27.1875
1.0,-1.170400585403071,0.027928080448834325,0.5797464210922211,-0.009999024624776661,0.023617808804002237,-0.03349547910408018,-0.5386807199172181,-0.32447589771253105,0.06002273856241433,-3.0786951720984392,0.6248275784114626,5.045594758313227e-05,0.00044144423653860997,-0.0009515574759129747,-0.0014880509234834471,-0.000812527411441774,0.0030017256166750225,0.0016841080676201978,0.3266574442386627,-1.1522012215903779,1.6627848784076136,-2.0798655949034632,-1.5713337103473108,2.3016648292541504,0.0017953482456505299,0.0004246015741955489,0.004614091012626886,-0.008141648955643177,-0.00020285588107071817,0.00010880376794375479,-0.28730422258377075,0.28730422258377075,-9.097966194152832,0.7754590511322021,47.704795837402344,-0.2380487620830536,-3.856459140777588,-2.1769726276397705,-0.5777756571769714,-0.031159821897745132,-0.230631023645401,24.1875,25.0625,24.0625,26.25,26.75,27.1875
1.0,0.06361205888847354,1.2817135355395006,0.43652442535625235,0.043771225715796225,-0.03212097500172892,-0.03672852270720521,-0.5386537781710266,-0.324478440717806,0.05999865733778054,-3.0786719172452024,0.6247463371435203,-1.714890756186304e-05,-0.0021867888704460185,-0.0017274369707381584,-0.00018795666781756348,-0.0035136822195582095,0.010895104511116721,0.0015135755130090075,0.32668131589889526,-1.1521892112544556,1.6628206411944788,-2.0798565349974574,-1.571345631276266,2.3016409873962402,0.0016061014030128717,0.00032671255758032203,0.00339144398458302,-0.015163877978920937,-0.00019729640916921198,8.712851558811963e-05,-0.24899697303771973,0.24899697303771973,-9.02135181427002,0.8067978620529175,47.65374755859375,-0.22661185264587402,-3.835968494415283,-2.0428848266601562,-0.5252913236618042,-0.0045141433365643024,-0.24321553111076355,24.1875,25.0625,24.0625,26.25,26.75,27.1875
1.0,0.10053316302103188,1.2101209077887933,0.582016981522938,0.04415135137948441,-0.058086150180168175,-0.034593929444307246,-0.5386917190937502,-0.32447198551760054,0.060011869740507345,-3.0786859892185157,0.6248069065291821,8.924045563526314e-05,-0.0026150555511367775,-0.0016382514285493155,-0.00014749587879457805,-0.0038785697197555938,0.011947615168402812,0.0012294982215482959,0.326657235622406,-1.1521772605231781,1.6627848784076136,-2.0799042187132777,-1.571357552205221,2.3016529083251953,0.001241102465428412,0.00039698227192275226,0.003492656396701932,-0.0164493378251791,-0.00019203417468816042,5.688869805453578e-06,-0.1149216815829277,0.2298433631658554,-8.925583839416504,0.7956027388572693,47.703006744384766,-0.20651911199092865,-3.740858554840088,-1.997065544128418,-0.5061650276184082,-0.02390948310494423,-0.2308226376771927,24.1875,25.0625,24.0625,26.25,26.75,27.1875
1.0,-0.5365969157230144,0.18455838905877087,0.6633187966581653,0.02230132112495986,-0.04042613974197253,-0.027281626172744527,-0.5386860361467609,-0.32447774159789017,0.059993414138449525,-3.078667427774634,0.6248032625299997,3.818366002767899e-05,-0.0020104036513987583,-0.0012611283806007727,-0.000770016299613759,-0.0032508182479040683,0.010074545117807188,0.0009670415920617117,0.3266690671443939,-1.1521410805037995,1.6627734343158167,-2.079891344110006,-1.571357552205221,2.3016648292541504,0.0009728751028887928,0.0006031317752785981,0.004426150117069483,-0.015613559633493423,-0.00018157216254621744,3.714425247380859e-07,-0.17238251864910126,-0.038307227194309235,-8.829815864562988,0.7933669090270996,47.68240737915039,-0.20068110525608063,-3.6580681800842285,-1.9617226123809814,-0.5276653170585632,-0.034506905823946,-0.24265870451927185,24.1875,25.0625,24.0625,26.25,26.75,27.1875
1.0,-1.5663775753447933,-0.46423068827417807,0.883051536622903,0.007124203955307716,-0.022324485521829845,-0.02821279790242413,-0.538692977113991,-0.32448004516371765,0.06000637823199839,-3.078679783911696,0.6248632652571751,0.00010292118997179457,-0.0009308963247068507,-0.0006200465828181367,-0.003469246842902453,-0.0012534661969206672,0.004151887627704688,0.0005397585271981337,0.3267049193382263,-1.1521158975413819,1.662833038960592,-2.080011030236715,-1.571357552205221,2.3016767501831055,0.0005438083899207413,0.004207811783999205,0.005072117317467928,-0.013613873161375523,-0.00016665918519720435,1.5835177613610085e-09,0.05746084079146385,-0.3064578175544739,-9.02135181427002,0.7016075849533081,47.69673538208008,-0.1422639936208725,-3.7374632358551025,-1.9105885028839111,-0.590929388999939,-0.0379386767745018,-0.2431585192680359,24.1875,25.0625,24.0625,26.25,26.75,27.1875
1.0,-0.15985561639118911,1.4925663031862153,0.9971952434024463,0.012806124632476119,-0.006632057393018866,-0.051365292453532975,-0.5386779040166443,-0.32449398983020455,0.059965344228832346,-3.07871067830888,0.6247740501515217,2.4934582577460525e-05,-0.001662399960929573,-0.0008246342606688352,-0.0027890207155453336,-0.0020877826900285845,0.006580982730344674,0.0004669844098265871,0.3266809284687042,-1.1521160763553162,1.662821118031637,-2.07997526744985,-1.5713217894183558,2.3016529083251953,0.0004718093550764024,0.0036762356758117676,0.004631709773093462,-0.015210281126201153,-0.00016070049605332315,1.0339241268697563e-10,0.15322890877723694,-0.3064578175544739,-8.983044624328613,0.7777001857757568,47.70390319824219,-0.22367790341377258,-3.6799798011779785,-1.7817703485488892,-0.5919969081878662,-0.023506442084908485,-0.2645191550254822,24.1875,25.0625,24.0625,26.25,26.75,27.1875
1.0,0.7090048955047832,1.7982494256666817,0.6724072953730271,0.041920470562793605,-0.03119126414386323,-0.05701080133742372,-0.5387142134681047,-0.3244830058894598,0.059970247435716884,-3.078731434682266,0.6248551230539641,0.00012277589006568626,-0.0019047360702551606,-0.0008733497815404795,-0.0026139931440591377,-0.002667655637769781,0.008266847909059764,0.0004114005731940127,0.3266449272632599,-1.1521043342402955,1.6628101507769983,-2.080048223535055,-1.5713217894183558,2.3016648292541504,0.0004170929023530334,0.0030696257017552853,0.005552577320486307,-0.017307354137301445,-0.0001551582827232778,6.750785260661862e-12,0.15322890877723694,-0.28730422258377075,-8.9064302444458,0.7508436441421509,47.71733474731445,-0.2409232258796692,-3.587749481201172,-1.7554787397384644,-0.5714938640594482,-0.03840895742177963,-0.24301713705062866,24.1875,25.0625,24.0625,26.25,26.75,27.1875
1.0,0.9513845703775348,1.6995906140059618,0.4916447505120532,0.05225174981629114,-0.05606637183526059,-0.04333485869829702,-0.538713221995593,-0.324498483485112,0.059980646127252096,-3.0787560297972627,0.62478334581917,0.00022351568534322166,-0.0013150624346596684,-0.0006456373409459521,-0.003121248248707636,-0.002371714147403559,0.00738446496572715,0.00036800458717360234,0.32668089866638184,-1.1521283847144623,1.6628335157977503,-2.0801078281798304,-1.571345631276266,2.3016529083251953,0.0003737585211638361,0.0028090407140552998,0.0071565015241503716,-0.017720021307468414,-0.00014998654660303146,4.4077802931023757e-13,0.2298433631658554,-0.15322890877723694,-8.944737434387207,0.6613254547119141,47.718231201171875,-0.18264985084533691,-3.4874424934387207,-1.8552963733673096,-0.5400781035423279,-0.033706363290548325,-0.26543986797332764,24.1875,25.0625,24.0625,26.25,26.75,27.1875
1.0,0.8760449016424907,0.9901317640695437,0.43596292495331723,0.03239832299962311,-0.059936715151208686,-0.048683765791041785,-0.5387036913473873,-0.3244490385885489,0.059945783827944826,-3.078652707903346,0.624838642658969,0.00012927161865309645,-0.0002777550520254191,-0.0002627524704397347,-0.004554802026338676,-0.0011340254271480705,0.003813784083300673,0.0012558005484828133,0.3266329765319824,-1.152103917007782,1.662870232258932,-2.080071588555807,-1.5713933149920862,2.301652669906616,0.0003385908203199506,0.004073513206094503,0.00834289938211441,-0.016391977667808533,-0.00017033476615324616,-0.0009220641804859042,0.2106897532939911,-0.09576806426048279,-9.078812599182129,0.7441308498382568,47.693153381347656,-0.22343197464942932,-3.4621078968048096,-1.8655169010162354,-0.5442724227905273,-0.021880589425563812,-0.25193873047828674,24.1875,25.0625,24.0625,26.25,26.75,27.1875
1.0,0.27645102495036694,-0.48771868226888965,0.37195553174026075,0.010491538348121653,-0.05379516787488433,-0.038553699345208164,-0.5386994851046812,-0.32448973607310133,0.05994984279391605,-3.0787410318562847,0.6247797937370643,0.0001448487208541712,0.0007764719834417792,0.0001629488208309919,-0.006742550323518829,0.0004948656702407171,-0.0009398733522902946,0.0012924050878246748,0.3266688287258148,-1.1521031421474,1.6628707090960901,-2.0801192722716273,-1.5713337103473108,2.301640510559082,0.00024146608484443277,0.00675579346716404,0.009237974882125854,-0.01494427677243948,-0.00018227798864245415,-0.0010546845151111484,0.2106897532939911,-0.019153613597154617,-9.136273384094238,0.7754590511322021,47.70748519897461,-0.17266039550304413,-3.505704879760742,-1.880091667175293,-0.579032301902771,-0.02031857520341873,-0.2571273446083069,24.1875,25.0625,24.0625,26.25,26.75,27.1875
1.0,0.0693449547115064,-0.5630174529912452,0.26194313797156926,-0.024375370488485835,-0.02199038487489044,-0.051816818219651124,-0.5386694808679934,-0.32446044099162014,0.05989545841267643,-3.0786531016673835,0.6247809842048685,2.502617131945172e-05,0.0014284043201674694,0.0004118867768071315,-0.007590040338841312,0.0013832523408541647,-0.0034623635180488937,0.0012609665443223434,0.32665687799453735,-1.1520668131164093,1.662943188344137,-2.080118795434469,-1.571369473134176,2.301640510559082,0.00021384964929893613,0.0076336911879479885,0.009616199880838394,-0.013526163063943386,-0.00021013367222622037,-0.0010500513017177582,0.17238251864910126,0.0,-9.232041358947754,0.7217512726783752,47.71017074584961,-0.24423620104789734,-3.564760208129883,-1.8061672449111938,-0.6047067642211914,-0.025355681777000427,-0.26211413741111755,24.1875,25.0625,24.0625,26.25,26.75,27.1875
1.0,-0.2088691961334575,-0.8926866499571925,0.20473272360089864,-0.028104993200173244,-0.0033144708852231647,-0.03915846293905324,-0.5386645977690852,-0.32445473398229097,0.05987579035279783,-3.078638308200375,0.6248164014703653,-3.2255582493857526e-05,0.0017416494203619424,0.0005683127551236187,-0.00753813909760649,0.0016273812476187406,-0.0037772106210960635,0.0014029447056949059,0.3266448378562927,-1.152043030863144,1.6629546324359339,-2.080118795434469,-1.571357552205221,2.301652431488037,0.00020020687952637672,0.007044663652777672,0.010241190902888775,-0.013185125775635242,-0.0003382018767297268,-0.0012053553946316242,0.24899697303771973,0.17238251864910126,-9.308656692504883,0.7418897151947021,47.6895751953125,-0.18898075819015503,-3.4402246475219727,-1.7679696083068848,-0.6273263692855835,-0.02584434300661087,-0.25746938586235046,24.1875,25.0625,24.0625,26.25,26.75,27.1875
1.0,-0.5691774850588469,-0.8611024423522772,0.1358837342006839,-0.025644399121665145,-0.0011137085897007931,-0.03444701347919351,-0.538657066071481,-0.32445236603059807,0.05987014268595717,-3.0786155521788334,0.6247926150386862,-3.067752215093816e-05,0.0022053687516305955,0.0009996707253636132,-0.007941742673267442,0.0020861533936204733,-0.00462130581805844,0.00102886099821967,0.3266567587852478,-1.1520430904677887,1.6629675070392054,-2.080118795434469,-1.5713813940631312,2.301652431488037,-0.00014193168317433447,0.006701020989567041,0.011662324890494347,-0.013315360993146896,-0.0004989408771507442,-0.0011731126578524709,0.2298433631658554,0.2106897532939911,-9.289502143859863,0.7217512726783752,47.67255783081055,-0.18287348747253418,-3.408812999725342,-1.901989459991455,-0.6492677330970764,-0.02253009006381035,-0.2617345452308655,24.1875,25.0625,24.0625,26.25,26.75,27.1875
1.0,-0.702040860711501,-0.8526499377781418,0.04110245788627784,-0.017434527614880194,-0.019409753290101077,-0.03360107714420553,-0.5386285165185557,-0.3244659345319526,0.059833012595300494,-3.078604731464965,0.6247520263509931,-8.102693579334638e-05,0.0019495755381021245,0.000899367806813868,-0.009209737843650017,0.0022159405281029026,-0.005097898826096915,0.0009871020909264488,0.3266926407814026,-1.1520183843425293,1.6630280653582972,-2.0801669559874476,-1.5713813940631312,2.301664352416992,-0.00013562939420808107,0.008982226252555847,0.011793934740126133,-0.015235216356813908,-0.000473102176329121,-0.0011254724813625216,0.17238251864910126,0.28730422258377075,-9.27034854888916,0.8112748265266418,47.71464920043945,-0.2317286729812622,-3.399527072906494,-1.892500877380371,-0.6582276225090027,-0.026448629796504974,-0.2475791871547699,24.1875,25.0625,24.0625,26.25,26.75,27.1875
1.0,-0.07242243478734614,-0.6877196615170773,0.09282699334086915,-0.03157644707626935,-0.018090386901988373,-0.045397292563246164,-0.5386308044237681,-0.3244511834167615,0.05981696184810789,-3.078583556557149,0.6247669597174801,-0.00012895857268858824,0.0019448785046139246,0.0008794966851188856,-0.010028328793371503,0.002065585540034276,-0.004779373271618775,0.0009706166322175206,0.32666870951652527,-1.1519940358451386,1.6630280653582972,-2.080155988732809,-1.5713813940631312,2.301652431488037,-0.00012617904576472938,0.009777823463082314,0.01309195812791586,-0.017678914591670036,-0.00043604231905192137,-0.001100308494642377,0.05746084079146385,0.363918662071228,-9.232041358947754,0.7978386282920837,47.71464920043945,-0.15079472959041595,-3.5288619995117188,-1.8026747703552246,-0.649958610534668,-0.011166661977767944,-0.259698748588562,24.1875,25.0625,24.0625,26.25,26.75,27.1875
1.0,0.06151019647873951,-0.9330202422867458,0.004746275746893442,-0.04203477350792965,-0.016587435056149985,-0.047164428965025075,-0.5386476390424272,-0.32444136343526797,0.05982393518062182,-3.078611322269003,0.6248110615406873,-3.2193867540176546e-05,0.0016788292488759222,0.0007730260926905301,-0.009962811989807606,0.0015583894327217517,-0.0033934470762220347,0.0009654240174794587,0.32664474844932556,-1.1520181757262726,1.6630647818194788,-2.0802399120726527,-1.5713813940631312,2.301652431488037,-0.00011791226279456168,0.009553736075758934,0.013667489401996136,-0.019505878910422325,-0.0004035121528431773,-0.0010876451851800084,0.13407529890537262,0.325611412525177,-9.308655738830566,0.7754590511322021,47.70927429199219,-0.23871874809265137,-3.357025146484375,-1.8315917253494263,-0.6499829292297363,-0.03161284327507019,-0.2572989761829376,24.1875,25.0625,24.0625,26.25,26.75,27.1875
1.0,0.07158647375389687,-0.937615916985433,0.07759042480452624,-0.05062357200548959,-0.020179996391272926,-0.046311003795004975,-0.538646849147659,-0.32444111564759426,0.05978546329362544,-3.078601537124666,0.6247708657321549,-7.987100674977563e-05,0.0014513421738698241,0.000699815107102658,-0.010540189161020435,0.0015100246225007723,-0.0031667031043873055,0.0010867966012936482,0.32664474844932556,-1.1519578260234375,1.6630762259112757,-2.0802766285338343,-1.5713813940631312,2.301628589630127,-0.00011066215665778145,0.010601277463138103,0.01384661439806223,-0.020962730050086975,-0.0004336225101724267,-0.0012021075235679746,0.09576806426048279,0.3064578175544739,-9.346963882446289,0.7396538853645325,47.71733474731445,-0.2590436339378357,-3.389286994934082,-1.8497419357299805,-0.6344974040985107,-0.023218844085931778,-0.26084262132644653,24.1875,25.0625,24.0625,26.25,26.75,27.1875
1.0,-0.6706439215099548,-1.108702038522363,0.14067636702676659,-0.04149127598224015,-0.028010270497825313,-0.034101817543735334,-0.5386456701714848,-0.324437081137862,0.05976793307201997,-3.0785617265255283,0.6247812343804976,-6.653965635649455e-05,0.0013008243822891295,0.0006362867019628555,-0.0110270284234836,0.0014211968950290747,-0.0029883278266519186,0.0015864248605625855,0.3266567885875702,-1.151933566933014,1.6630876700030726,-2.0803009472289027,-1.5714176336871546,2.301652193069458,-0.00010425172513350844,0.011403053067624569,0.01412122417241335,-0.02223679982125759,-0.0004092368180863559,-0.0016957190819084644,0.1149216815829277,0.28730422258377075,-9.27034854888916,0.7396538853645325,47.69584274291992,-0.21909861266613007,-3.4089035987854004,-1.8872103691101074,-0.6371592879295349,-0.02263690158724785,-0.2575838565826416,24.1875,25.0625,24.0625,26.25,26.75,27.1875
1.0,-0.7848274044893784,-0.9880954995529974,-0.09433885529733645,-0.024453821214935417,-0.02398973700774966,-0.02928454004745118,-0.5386401406170018,-0.3244503978461749,0.059771475048338574,-3.0786275842952797,0.624756592474208,-5.6057583839500104e-05,0.0009278267486433488,0.0005289926918136609,-0.010906161318043369,0.00094849988657835,-0.0016801680307704334,0.001625697615900623,0.3266567587852478,-1.1519575876048584,1.663123909627096,-2.080349107781881,-1.571369473134176,2.301628351211548,-0.00014711590483784676,0.011352836154401302,0.014248893596231937,-0.02370494417846203,-0.0003844960010610521,-0.0017784966621547937,0.19153612852096558,0.3064578175544739,-9.327810287475586,0.6456586718559265,47.70390319824219,-0.2018890082836151,-3.435530662536621,-1.81473970413208,-0.6356696486473083,-0.021510686725378036,-0.26025399565696716,24.1875,25.0625,24.0625,26.25,26.75,27.1875
1.0,-0.2868340725327858,-0.414003840807703,0.16508126088636316,-0.016719043096409196,-0.015215368760031683,-0.038919186228883615,-0.5386442027259595,-0.3244477587371788,0.05972677560210904,-3.078632034057339,0.6247569837678245,-8.16980177200818e-05,0.0005544111426799862,0.00038950743300790854,-0.011574376909158393,0.0008039050416761987,-0.0013357647806929585,0.0016504499319965884,0.3266447186470032,-1.1518971186927338,1.6631601492511194,-2.0804339847960414,-1.571357552205221,2.3016159534454346,-0.00014013260079082102,0.012763366103172302,0.014189113862812519,-0.02542835660278797,-0.0003623866941779852,-0.001796774915419519,0.19153614342212677,0.2298433631658554,-9.327810287475586,0.7038487195968628,47.690467834472656,-0.2483735978603363,-3.387425422668457,-1.8119759559631348,-0.6341428756713867,-0.016509942710399628,-0.26590248942375183,24.1875,25.0625,24.0625,26.25,26.75,27.1875
1.0,0.05671585362419679,-0.1683837700637557,0.04262902565869308,-0.012746915309708501,-0.01534410022588566,-0.03854176299952813,-0.5386221804167058,-0.3244364793674722,0.05969855112313652,-3.0785965501211026,0.6247306295896012,-0.00015217350262176465,-7.060453055145928e-05,0.00016574733437462027,-0.010890811306597071,-0.00014024427288726057,0.001374261377944149,0.0015710550391913524,0.3266447186470032,-1.151885376577713,1.6632078329669397,-2.0804344616331996,-1.571369473134176,2.3016040325164795,-0.00013322648010216653,0.01190438587218523,0.014319821260869503,-0.02756984904408455,-0.00034266983857378364,-0.0017114727525040507,0.2106897532939911,0.2106897532939911,-9.289502143859863,0.8291773796081543,47.700321197509766,-0.23252859711647034,-3.3909356594085693,-1.768993854522705,-0.6030490398406982,-0.021296480670571327,-0.25942739844322205,24.1875,25.0625,24.0625,26.25,26.75,27.1875
1.0,0.07940237392739478,-0.1536460709110243,0.22432350281973876,-0.018601412169072386,-0.02661029109730755,-0.0386256447881821,-0.5386307831828158,-0.32445137595375256,0.059662549567339046,-3.0785985177688575,0.6246545321826061,-7.535917080632417e-05,-0.0009414389645549577,-0.00015029166229491465,-0.011154543181602304,-0.0009088869976916013,0.0035131510520240313,0.0013510035063682255,0.3266807496547699,-1.151825026874878,1.6632326284991663,-2.080555101434225,-1.5714057127581995,2.3015923500061035,-0.0001212586066685617,0.012982840649783611,0.014130424708127975,-0.030731474980711937,-0.0003090400423388928,-0.0014806455001235008,0.13407529890537262,0.17238251864910126,-9.174580574035645,0.7306999564170837,47.711063385009766,-0.26800915598869324,-3.377438545227051,-1.7296154499053955,-0.5896661281585693,-0.007589351385831833,-0.2540777027606964,24.1875,25.0625,24.0625,26.25,26.75,27.1875
1.0,0.2680417995736324,-0.287468211603947,0.061001498093764976,-0.011937716898234928,-0.01962463994816005,-0.040108928364234624,-0.5386390097385055,-0.32442700470080005,0.059619279453612506,-3.078575305335136,0.6247648906840718,-0.00011646843482191676,-0.0007663847484940534,-9.884538649374957e-05,-0.012020168841781578,-0.0007122251305067847,0.0028853674549045834,0.0012551847670550004,0.3266328275203705,-1.1517767769149323,1.6632798353778284,-2.080627580682272,-1.5713933149920862,2.3016161918640137,-0.00011604649625951424,0.013941884972155094,0.015027256682515144,-0.03192969039082527,-0.00029458384960889816,-0.0013798734871670604,0.15322890877723694,0.17238251864910126,-9.21288776397705,0.7396538853645325,47.68240737915039,-0.24527612328529358,-3.3257269859313965,-1.7761766910552979,-0.5830579996109009,-0.013541003689169884,-0.25807690620422363,24.1875,25.0625,24.0625,26.25,26.75,27.1875
1.0,-0.023025848919161103,-0.09450455411256467,0.18072799887084787,-0.01322292848081915,-0.018111845975156433,-0.0395551019716387,-0.538636425475507,-0.3244607446603211,0.05960628006849639,-3.0786305219017356,0.624680484559232,-0.000127747793002752,-0.0010670377326078792,-0.00020882450491909122,-0.012003650312156389,-0.0010307417243017288,0.0037758463252416464,0.0012497000187374314,0.32666870951652527,-1.1517408353141327,1.6632674376117151,-2.0806638203062953,-1.571357552205221,2.3015923500061035,-0.00011126415483886376,0.01410974096506834,0.01500161923468113,-0.03301749750971794,-0.0002814220206346363,-0.001370048150420189,0.13407529890537262,0.09576806426048279,-9.193734169006348,0.7933669090270996,47.703006744384766,-0.2712007761001587,-3.406923770904541,-1.735696792602539,-0.5701401233673096,-0.02707504853606224,-0.2628524601459503,24.1875,25.0625,24.0625,26.25,26.75,27.1875
1.0,-0.1893349597736119,-0.058840396775695525,0.12347748234458691,-0.005777374919576453,-0.012170095194954357,-0.0452769828909647,-0.5385977280221431,-0.3244513132370635,0.05955617593389373,-3.0786094108827515,0.6247144693127856,-0.0002022875019520594,-0.0016565537348420733,-0.0004169719098393653,-0.01208458596411621,-0.0014098058947032545,0.0048426019983946545,0.0013065349624577878,0.32666870951652527,-1.1517405372909089,1.6633995215045374,-2.080748220483297,-1.571345631276266,2.3016161918640137,-0.00010686052701203153,0.014928076416254044,0.014338361099362373,-0.03430459648370743,-0.0002693852293305099,-0.0014229437801986933,0.07661445438861847,0.09576806426048279,-9.251194953918457,0.8045620322227478,47.68867492675781,-0.21401000022888184,-3.3221435546875,-1.692387342453003,-0.5650635957717896,-0.008908042684197426,-0.2523788511753082,24.1875,25.0625,24.0625,26.25,26.75,27.1875
1.0,0.06348813848460197,0.23521532467395093,0.20343444058365298,-0.009514941374170367,0.0030360085999722656,-0.043283857444384975,-0.5386331063231019,-0.3244594276600007,0.059560170606409946,-3.0786496298411605,0.6247226973056358,-0.00012940511718040855,-0.0014647907889847795,-0.0003576879291894859,-0.012460199775615632,-0.001452756532431795,0.004934300776828176,0.0012745025908972602,0.3266567885875702,-1.1517045360854645,1.6633513609515589,-2.080796857873434,-1.5713337103473108,2.3016042709350586,-0.0001027919352054596,0.014899620786309242,0.01550836768001318,-0.03554680198431015,-0.0002583360765129328,-0.0013872655108571053,0.09576806426048279,0.05746084079146385,-9.251194953918457,0.7486078143119812,47.70121383666992,-0.24873687326908112,-3.4205503463745117,-1.6635339260101318,-0.5493625402450562,-0.019732747226953506,-0.25951385498046875,24.1875,25.0625,24.0625,26.25,26.75,27.1875
1.0,-0.5303906812850971,0.01602354096584277,0.10676008202645279,-0.0035096356976751747,-0.009198121347234672,-0.04242136592762516,-0.5386331207838646,-0.32443291000518276,0.05951938238035237,-3.078579694801735,0.6246701189318319,-8.075811405810946e-05,-0.0016832560207573834,-0.0004522817498244165,-0.012896342720891792,-0.0016175952074462953,0.005379562528529853,0.0014340052608009775,0.3266567885875702,-1.1516683858684083,1.6634123961078089,-2.0808807812132777,-1.5714176336871546,2.3015804290771484,-7.73520878283307e-05,0.015664534643292427,0.01577181927859783,-0.03704996407032013,-0.00024815849610604346,-0.0015218021580949426,0.019153613597154617,0.07661445438861847,-9.308655738830566,0.7083203792572021,47.68867492675781,-0.18485933542251587,-3.358227252960205,-1.676436185836792,-0.525027334690094,-0.023167438805103302,-0.25373008847236633,24.1875,25.0625,24.0625,26.25,26.75,27.1875
1.0,-0.5591349866955986,0.031055436619212312,0.20591033386377983,-0.0099765029548695,-0.009730494297751517,-0.04163687224595803,-0.5386274727514573,-0.3244577438623877,0.059485853447969916,-3.0786183288929783,0.6246781133064586,-0.00016216046017406772,-0.0013121496032003379,-0.0003374248745373561,-0.013315584196355855,-0.0014897834489781708,0.004975997816220478,0.001420321866095352,0.32666870951652527,-1.1516083639911194,1.663412872944967,-2.080916544000143,-1.571357552205221,2.3015923500061035,-6.383105937857181e-05,0.015567266382277012,0.01702086441218853,-0.03777844086289406,-0.0002387531567364931,-0.0014947927556931973,0.0,0.038307227194309235,-9.27034854888916,0.7665104269981384,47.68867492675781,-0.2766050696372986,-3.3711047172546387,-1.7420756816864014,-0.5097724795341492,-0.032970331609249115,-0.2570685148239136,24.1875,25.0625,24.0625,26.25,26.75,27.1875
1.0,-0.8336171185898352,-0.23487447050186566,0.1556825843603856,-0.0014267547398275947,-0.01768611093377766,-0.02997722994368711,-0.5386293482670923,-0.324450853223397,0.05945857425425863,-3.0786160999793473,0.6246776688413908,-9.423101697953289e-05,-0.0014032180579370722,-0.0003732024714825879,-0.013982695443757005,-0.001352832869577367,0.004539119562697781,0.0015030585218667244,0.32666870951652527,-1.151595876818039,1.6634843985186976,-2.08103670696401,-1.5713813940631312,2.3015923500061035,-6.150508852442726e-05,0.01677328534424305,0.017024625092744827,-0.038530584424734116,-0.00023003378009889275,-0.0015753390034660697,0.019153613597154617,-0.038307227194309235,-9.308656692504883,0.8202234506607056,47.71554183959961,-0.2697700262069702,-3.3718814849853516,-1.7237703800201416,-0.5089342594146729,-0.007676055654883385,-0.2603967487812042,24.1875,25.0625,24.0625,26.25,26.75,27.1875
1.0,-0.21650419314983527,0.24751504361430088,0.20852295999270662,-0.011441853060162833,-0.0010442193851858163,-0.04881216337362957,-0.5386340497868195,-0.3244642539722028,0.05944896783274059,-3.078625880250468,0.6246993568857092,-1.9920354161409827e-05,-0.0014106598404364495,-0.00037955698354812426,-0.013880058817163492,-0.001536718199349463,0.00505490315708763,0.001574993061077899,0.326692670583725,-1.1515841049006958,1.663508717213766,-2.081120630303854,-1.5713933149920862,2.301628589630127,-5.947110548731871e-05,0.016400489956140518,0.017445867881178856,-0.03912660479545593,-0.00022192936739884317,-0.0016455212607979774,0.09576806426048279,-0.07661445438861847,-9.27034854888916,0.7418897151947021,47.711063385009766,-0.3026016354560852,-3.30238938331604,-1.7291710376739502,-0.5041341781616211,-0.02060367539525032,-0.25431549549102783,24.1875,25.0625,24.0625,26.25,26.75,27.1875
1.0,-0.8223883179389705,-0.1361260940992777,0.07345305684425187,0.0023969984682134546,-0.014135796369984847,-0.033084363040790134,-0.5386424265933191,-0.32443204169822437,0.0594041834341299,-3.078614605617069,0.6247158354771676,-7.828237739366851e-05,-0.0014929089968063471,-0.0004115821926206651,-0.014563742602186453,-0.0014185504233739225,0.004677486760382467,0.0014911876927817176,0.3266328275203705,-1.1515357357314606,1.6635564009295862,-2.0811807117857875,-1.5713813940631312,2.3015804290771484,-5.7568940974306315e-05,0.01757502369582653,0.017562920227646828,-0.040022820234298706,-0.00021437708346638829,-0.0015599842881783843,0.0,-0.1149216815829277,-9.308656692504883,0.7262282371520996,47.6976318359375,-0.32010534405708313,-3.4154937267303467,-1.6971721649169922,-0.4888063073158264,-0.0315474309027195,-0.2600823938846588,24.1875,25.0625,24.0625,26.25,26.75,27.1875
1.0,-0.572013642902197,0.049229648997370146,0.20930032195713305,0.0010233706130026248,-0.0033785936553895894,-0.04546676136052411,-0.538637312035555,-0.32446491889381374,0.059386849636838296,-3.0786656266898764,0.6246496864282264,-9.08532958933427e-05,-0.0013363970484223885,-0.0003616659123987334,-0.014780989302044365,-0.0013014359233989488,0.0043113115402019266,0.001345337571570581,0.32666870951652527,-1.151499794130661,1.6635564009295862,-2.0812283955016078,-1.571345631276266,2.3015685081481934,-5.5784719734219834e-05,0.01768255978822708,0.017924455925822258,-0.04010744392871857,-0.00020732110715471208,-0.0014123460277915,-0.038307227194309235,0.019153613597154617,-9.27034854888916,0.7329410910606384,47.6895751953125,-0.2642516791820526,-3.313551187515259,-1.7501490116119385,-0.49853652715682983,-0.025914188474416733,-0.2529434263706207,24.1875,25.0625,24.0625,26.25,26.75,27.1875
1.0,-0.4434292474576219,0.2706458958313626,0.04533394019713885,-0.004122526495228164,-0.0021399305440329246,-0.047299699549253046,-0.5386255228247039,-0.32445742535062055,0.05933465352728623,-3.07861583555571,0.6246775498716327,-9.613587587593101e-05,-0.0006283600884518138,-0.0001234060327344876,-0.015631154690152256,-0.0006533905207538738,0.002388902876585244,0.00140854821761084,0.3266807496547699,-1.1514516335776825,1.6636293570147913,-2.081324716607565,-1.5713813940631312,2.3016042709350586,-5.4107749747345224e-05,0.018149523064494133,0.019118430092930794,-0.03973976522684097,-0.0002007150324061513,-0.0014735434670001268,0.038307227194309235,-0.019153613597154617,-9.232041358947754,0.7195101380348206,47.66001510620117,-0.3181858956813812,-3.4258856773376465,-1.7267476320266724,-0.4944072365760803,-0.020910002291202545,-0.23352031409740448,24.1875,25.0625,24.0625,26.25,26.75,27.1875
1.0,-0.14233275634162318,0.07239475289497135,0.259561947763173,-0.007713873723587721,0.0026588557447143665,-0.038424391898288696,-0.5386533796835737,-0.32444356945821945,0.059312773586470025,-3.0786283263390275,0.6247378465297703,-3.136501850833211e-05,-0.00028391601731201033,1.9774945800260936e-06,-0.016506264519407125,-6.942047889153051e-05,0.0006512136186017696,0.0012475213926868517,0.32664474844932556,-1.1514150661281128,1.663652245198385,-2.0814320049681605,-1.5713813940631312,2.3016042709350586,-6.978803867241368e-05,0.019324656575918198,0.01937527395784855,-0.03933855891227722,-0.00019451715343166143,-0.0013278430560603738,0.038307227194309235,-0.07661445438861847,-9.251194953918457,0.7262282371520996,47.6895751953125,-0.3303479552268982,-3.367138385772705,-1.736027479171753,-0.5104668736457825,-0.02710285782814026,-0.22962450981140137,24.1875,25.0625,24.0625,26.25,26.75,27.1875
1.0,-0.3200915310785543,0.12236993156490279,0.4552791551370233,-0.007491771150586364,-0.013214061419430675,-0.045227041587457925,-0.5386276708142724,-0.32446215562009667,0.05928143591890489,-3.0786212274797857,0.6246595857656225,-5.494331795275568e-05,-0.00042148945393977806,-4.2535176593413624e-05,-0.016410578027580693,-0.00014118918779501078,0.0008427385183010593,0.0010974293814005503,0.326692670583725,-1.1513911944678803,1.6637008825885218,-2.081480165521139,-1.5713933149920862,2.3016042709350586,-7.643820572411641e-05,0.019409850239753723,0.0190277062356472,-0.039280615746974945,-0.00018869042105507106,-0.0011844061082229018,0.05746084079146385,0.019153613597154617,-9.232041358947754,0.7239871025085449,47.66539001464844,-0.2762914001941681,-3.3573362827301025,-1.7547194957733154,-0.5091342926025391,-0.027689501643180847,-0.23118948936462402,24.1875,25.0625,24.0625,26.25,26.75,27.1875
1.0,-0.4263806459614226,-0.18125561085631323,0.31141403905434284,-0.0030823327054613344,-0.01806224275918719,-0.043050461630247304,-0.5386239847580386,-0.3244762619727535,0.05926553759299755,-3.0786642614054687,0.6246112908596205,-4.176208431992198e-05,0.00015763417092333563,0.00015203269167144955,-0.01694380540428717,0.0003514761468269076,-0.0006180660378230937,0.0009362465550720386,0.3267047107219696,-1.1513791543296357,1.6637361685382288,-2.0815512142577113,-1.571369473134176,2.3015806674957275,-7.444626680808142e-05,0.019544152542948723,0.019936781376600266,-0.038782309740781784,-0.00018320359231438488,-0.0010209293104708195,0.07661445438861847,0.05746084079146385,-9.27034854888916,0.7239871025085449,47.703006744384766,-0.3347121477127075,-3.3320250511169434,-1.6755672693252563,-0.5288563966751099,-0.0379340797662735,-0.2225702404975891,24.1875,25.0625,24.0625,26.25,26.75,27.1875
1.0,-0.3283569166927889,-0.17127024160755888,0.147810758876629,-0.0039350974178252365,-0.025396663479399978,-0.03788403667411111,-0.538650450820686,-0.3244311047764763,0.05921039033662304,-3.0786115733757033,0.6247348953294125,-4.082449066208116e-05,7.061467876978105e-05,0.00012297085013989847,-0.017416422360338857,0.0005880606113136341,-0.0012964241511291244,0.0007788116959781469,0.3266328275203705,-1.1513068538955231,1.6637848059283655,-2.081658979455465,-1.5713933149920862,2.3015925884246826,-7.245016604429111e-05,0.02064540795981884,0.019452856853604317,-0.03868121653795242,-0.00019051031267736107,-0.0008613216341473162,0.09576806426048279,0.038307227194309235,-9.174580574035645,0.6926589012145996,47.660911560058594,-0.32506003975868225,-3.3456907272338867,-1.6730067729949951,-0.5352977514266968,-0.026228666305541992,-0.23423728346824646,24.1875,25.0625,24.0625,26.25,26.75,27.1875
1.0,-0.5647141511080399,-0.5184605727651528,0.2465870142896317,0.004040959179322668,-0.031684842792476825,-0.03645176498643382,-0.5386585037621823,-0.32446450007829464,0.059207178612402656,-3.0786908785401237,0.6246745315764207,-1.2867368234383126e-05,9.49233407563022e-05,0.00013212952994220775,-0.017406408583805266,0.0005677074509414993,-0.0012156819546394512,0.000619602661062219,0.3266567885875702,-1.1512829822352906,1.6637724081622522,-2.081719060937399,-1.571345631276266,2.3015687465667725,-7.055694732116535e-05,0.020539643242955208,0.019606634974479675,-0.03881214186549187,-0.00019702065037563443,-0.0007002735510468483,0.09576806426048279,0.07661445438861847,-9.21288776397705,0.7172743082046509,47.6707649230957,-0.370624303817749,-3.316030502319336,-1.6460344791412354,-0.5626381635665894,-0.021525591611862183,-0.2364659309387207,24.1875,25.0625,24.0625,26.25,26.75,27.1875
1.0,0.21942048535241826,0.015635670766120796,0.3746190221062086,-0.009489094772471417,-0.016224326802266757,-0.04594627214200371,-0.5386544788304773,-0.324455837692962,0.0591053134808929,-3.078634463691903,0.6246821543612058,-9.872016260549283e-06,0.0007125009271022658,0.00035168084897728604,-0.018706657186296872,0.0011319499375606991,-0.0029058698504834104,0.000432827269593494,0.32666870951652527,-1.1511625212481995,1.6638816038714808,-2.0819231472411097,-1.5713933149920862,2.3015925884246826,-8.93672404345125e-05,0.021592896431684494,0.02130783721804619,-0.03978476673364639,-0.00018755326163955033,-0.0005323760560713708,0.1149216815829277,0.13407529890537262,-9.251194953918457,0.7306999564170837,47.660911560058594,-0.3633726239204407,-3.370136260986328,-1.6328988075256348,-0.5669345855712891,-0.008601163513958454,-0.23757967352867126,24.1875,25.0625,24.0625,26.25,26.75,27.1875
1.0,0.29609166771235623,-0.007663777217071455,0.5477462676708302,-0.00875651156035593,-0.016392793166630525,-0.04080742978706592,-0.5386611376924929,-0.3244351499272949,0.05908094564161101,-3.078593988090374,0.6246738502760649,2.879759437230994e-05,0.0007727947998048049,0.00038288435251960514,-0.01884811633355495,0.0012414663603276873,-0.0032429239815482086,0.0004395091236649366,0.3266567885875702,-1.1511385303786774,1.6639168898211878,-2.081982751885885,-1.5714414755450647,2.3015806674957275,-0.00010817003931151703,0.021793276071548462,0.021317506209015846,-0.03964049369096756,-0.0001827949599828571,-0.0005577784031629562,0.19153612852096558,0.1149216815829277,-9.21288776397705,0.7351769208908081,47.718231201171875,-0.34379735589027405,-3.27268123626709,-1.6651324033737183,-0.5948692560195923,-0.015473544597625732,-0.2441362589597702,24.1875,25.0625,24.0625,26.25,26.75,27.1875
1.0,0.5311189532801813,0.35812806199668296,0.5641506695809837,-0.01732118977908642,-0.022784818117485874,-0.04852664963650273,-0.5386629311662916,-0.32444675473170004,0.05905401465946422,-3.0786498644287827,0.6247620336723896,-3.842414310807847e-05,0.0008171249727301815,0.0004115174871876688,-0.019366485679769164,0.0013223736632607176,-0.0034990276276041002,0.00037367328545284575,0.3266328275203705,-1.151102439766266,1.6639412085162562,-2.0820428333678187,-1.571357552205221,2.3016045093536377,-0.00013158754154574126,0.022419163957238197,0.021813945844769478,-0.04049426689743996,-0.0001782690524123609,-0.0005155641119927168,0.26815059781074524,0.1149216815829277,-9.117119789123535,0.7195101380348206,47.6627082824707,-0.35241079330444336,-3.349215030670166,-1.7055331468582153,-0.6222078800201416,-0.03477970138192177,-0.24971133470535278,24.1875,25.0625,24.0625,26.25,26.75,27.1875
1.0,0.40200945421284184,0.009805599350112382,0.5347283584238569,-0.012315643424749598,-0.026574816657877542,-0.0446093238116643,-0.5386563775540718,-0.324444726016711,0.058997503608908264,-3.0786392599951946,0.6246834977060027,-3.4591616342213725e-05,0.00048393809724646934,0.00031775405355270405,-0.01973501904867884,0.000971885888896819,-0.0024905100593865526,0.00029543168011418066,0.3266447186470032,-1.1510422688773652,1.6640127340899866,-2.082163473168844,-1.5713813940631312,2.3015687465667725,-0.00016477855388075113,0.023019414395093918,0.02230142429471016,-0.04264967143535614,-0.00017396168550476432,-0.00047124939737841487,0.17238251864910126,0.09576806426048279,-9.059659004211426,0.6814691424369812,47.70390319824219,-0.368742436170578,-3.2831649780273438,-1.6665608882904053,-0.6061952114105225,-0.02454226464033127,-0.23854388296604156,24.1875,25.0625,24.0625,26.25,26.75,27.1875
1.0,0.12411286931743203,0.08960126772430324,0.5557723135952854,-0.010915112489950153,-0.0338478694107226,-0.037571957971690544,-0.5386411182937808,-0.3244200046716077,0.05894408436317922,-3.078608197519632,0.6247347393655166,-0.00012637844247180352,0.0006504510610956371,0.00038747825940338003,-0.02028406662114378,0.0013007010818496616,-0.0034725336235076625,0.00023546431590683103,0.3266088366508484,-1.1510059398463746,1.6640966574298304,-2.0822230778136195,-1.571369473134176,2.3015687465667725,-0.00018711994925979525,0.023802965879440308,0.02242831140756607,-0.042524512857198715,-0.0001698575943009928,-0.0004334336845204234,0.26815059781074524,0.09576806426048279,-9.136273384094238,0.7620334029197693,47.703006744384766,-0.404729425907135,-3.3689255714416504,-1.6122039556503296,-0.6222376823425293,-0.01597546972334385,-0.23414647579193115,24.1875,25.0625,24.0625,26.25,26.75,27.1875
1.0,0.0377439263338384,-0.14799882824502114,0.40031035178780516,-0.003544793949016495,-0.036719103235183834,-0.045091339124623445,-0.5386305152006248,-0.3244513049169118,0.058894005231144964,-3.078620794061381,0.6246605406318668,-0.0001705532121941819,0.0014859632105872743,0.0006697130384129486,-0.02097628890708521,0.0022715209591800223,-0.006331065204919361,0.0002687439140471766,0.3266567587852478,-1.150921807890274,1.6641090551959437,-2.0822941265501917,-1.571357552205221,2.3015687465667725,-0.0001847376552177593,0.024306965991854668,0.02281518653035164,-0.04039650037884712,-0.00016594250337220728,-0.0004633544886019081,0.13407529890537262,0.17238251864910126,-9.078812599182129,0.7508436441421509,47.656429290771484,-0.35151559114456177,-3.4374308586120605,-1.6329456567764282,-0.6675843596458435,-0.014525637030601501,-0.22385567426681519,24.1875,25.0625,24.0625,26.25,26.75,27.1875
1.0,0.1970562122802334,-0.14215613327872995,0.4584988013104368,-0.0040928683651579294,-0.026072892818700427,-0.040877335708998666,-0.5386489265437322,-0.3244497888375708,0.05886455097185472,-3.07863468867905,0.6246827145835678,-0.00012252740980821946,0.0014321197818832356,0.0006627661933503473,-0.02097928346947046,0.002067631961180708,-0.005744465072730836,0.000221005142297088,0.3266447186470032,-1.1508738559535523,1.664133373891012,-2.0824018917479457,-1.571357552205221,2.3015687465667725,-0.00020412747107911855,0.024106597527861595,0.02330728992819786,-0.04130925238132477,-0.00016220411635003984,-0.0004353710392024368,0.2106897532939911,0.19153612852096558,-9.097966194152832,0.7284641265869141,47.681514739990234,-0.36301663517951965,-3.329977512359619,-1.6408309936523438,-0.6982647776603699,-0.013824994675815105,-0.21890130639076233,24.1875,25.0625,24.0625,26.25,26.75,27.1875
1.0,0.1747779348799344,-0.1328951686083246,0.3963941405744505,-0.008366321784388224,-0.020719568524180075,-0.04549639967047515,-0.5386350726505387,-0.32443375966026394,0.058831629854442846,-3.0785856743271163,0.6247109113826789,-0.00012532105922522188,0.0011361792472894168,0.0005573892339843508,-0.021199441901874522,0.0018543025479959804,-0.0051351211965213125,0.0001973657363721259,0.3266447186470032,-1.1508618158153077,1.6642048994647425,-2.0824624500670375,-1.5713933149920862,2.3015925884246826,-0.0001994634367292747,0.024690324440598488,0.023262562230229378,-0.042493853718042374,-0.0001586300932103768,-0.00040746325976215303,0.17238251864910126,0.19153612852096558,-9.059659004211426,0.6702793836593628,47.68061828613281,-0.4095015525817871,-3.257254123687744,-1.6335978507995605,-0.6973329782485962,-0.03018030896782875,-0.23146657645702362,24.1875,25.0625,24.0625,26.25,26.75,27.1875
1.0,-0.013547128769941796,-0.7104295200867223,0.3771068116546153,-0.005517900707262522,-0.02071962744687325,-0.04125281671611282,-0.5386181502277787,-0.32444358410559127,0.05875229150100525,-3.078568921488407,0.6246118034407371,-0.00022315238875947975,0.0012188405090307562,0.0005806507847135357,-0.022077942162783613,0.0019517579217424228,-0.005438742286267111,0.00017757161938621995,0.3266686797142029,-1.1507535737803956,1.664253060017721,-2.0825468502440394,-1.5713933149920862,2.3015568256378174,-0.00019409978995099664,0.025701375678181648,0.024219399318099022,-0.044142913073301315,-0.00015521056775469333,-0.00038271493394859135,0.2106897532939911,0.1149216815829277,-9.174580574035645,0.6814691424369812,47.66449737548828,-0.3449392020702362,-3.3091864585876465,-1.6596994400024414,-0.7246841192245483,-0.02792372554540634,-0.22304964065551758,24.1875,25.0625,24.0625,26.25,26.75,27.1875
1.0,-0.09893979327007627,-0.4899027533246903,0.23050049737987588,-0.010245172951234722,-0.02080464990831725,-0.04250293025156286,-0.5386354202632294,-0.3244340534089179,0.05874226265199478,-3.078560484407216,0.6246673995140144,-0.00014012887018257657,0.001525479771661547,0.0006754182719153555,-0.02272058447918838,0.0022726832695162185,-0.006445423890550621,0.00016077986973719093,0.3266567587852478,-1.1507414442351838,1.6642778555499476,-2.082630773583883,-1.5714176336871546,2.3015806674957275,-0.00018900440772995353,0.026318728923797607,0.024862855672836304,-0.0443473756313324,-0.00013523244706448168,-0.0003607877006288618,0.15322890877723694,0.09576806426048279,-9.21288776397705,0.6971306204795837,47.64836883544922,-0.3629496097564697,-3.3693881034851074,-1.632063388824463,-0.7449870109558105,-0.03643712401390076,-0.22082440555095673,24.1875,25.0625,24.0625,26.25,26.75,27.1875
1.0,-0.18715014816464123,-0.22809004708813804,0.3112816733740412,-0.013188286899379797,-0.025392188084977917,-0.0383244147777255,-0.5386236792773377,-0.3244337079306708,0.05869373475083828,-3.0785621157005374,0.6247253482943562,-0.00021800051738159396,0.0021225241753450104,0.000869951960820892,-0.02305281899616959,0.0028542483797033545,-0.008208418240738835,0.000146662923929603,0.3266447186470032,-1.1506934028914948,1.6643369833575647,-2.0827018223204554,-1.5713813940631312,2.3016045093536377,-0.00018416973762214184,0.026347901672124863,0.02525210566818714,-0.042909469455480576,-0.00011610968067543581,-0.0003412380756344646,0.13407528400421143,0.17238251864910126,-9.155426979064941,0.7441308498382568,47.66718673706055,-0.39073336124420166,-3.2789363861083984,-1.621891736984253,-0.7793124914169312,-0.005844563245773315,-0.22707027196884155,24.1875,25.0625,24.0625,26.25,26.75,27.1875
1.0,0.02486989149941189,-0.029011993699054592,0.1884406427271457,-0.011992144752602837,-0.02111527357686599,-0.0416289173947281,-0.5386499715433161,-0.3244311894558229,0.05866636025275812,-3.0785852357801247,0.6247113647908465,-0.00012794040516724662,0.0016191135450773263,0.0006937001459936993,-0.023248867860336482,0.002296709664402972,-0.006591650157429034,0.00013278009420812544,0.3266327977180481,-1.1506451529315491,1.6643617788897913,-2.082834383050436,-1.5713933149920862,2.3015809059143066,-0.00017957658565137535,0.026821505278348923,0.025611406192183495,-0.04545257240533829,-0.00011219303996767849,-0.0003236983029637486,0.2106897532939911,0.13407529890537262,-9.27034854888916,0.7374180555343628,47.702110290527344,-0.3886767327785492,-3.3489725589752197,-1.660228967666626,-0.8328790664672852,-0.01924714259803295,-0.22170689702033997,24.1875,25.0625,24.0625,26.25,26.75,27.1875
1.0,0.21018046293609144,-0.3821335379344317,0.10453319790096455,-0.009075877078660349,-0.006273944956979604,-0.04278722975897666,-0.5386183265925741,-0.3244588013375201,0.05859562289880921,-3.0786093044691287,0.6246206590356356,-0.00026200903232738643,0.001129427719945101,0.0005224772244747129,-0.023804590944780445,0.0018924831675735366,-0.005424250636573934,0.00012045056842412575,0.3266686797142029,-1.1505609911731263,1.6644213835345667,-2.082907339135641,-1.571345631276266,2.3015570640563965,-0.00017520667461212724,0.027924271300435066,0.025938954204320908,-0.04811825975775719,-0.00010939879575744271,-0.0003078744630329311,0.07661445438861847,0.13407528400421143,-9.289502143859863,0.6993717551231384,47.692256927490234,-0.394176721572876,-3.39267635345459,-1.6239397525787354,-0.8261207938194275,-0.031875524669885635,-0.2247946560382843,24.1875,25.0625,24.0625,26.25,26.75,27.1875
1.0,-0.12986895260216685,-0.24754670662184391,0.3356512837879344,-0.018362014330016746,-0.006598149691078443,-0.046254222670662135,-0.5386064257037445,-0.32442015714356853,0.058524533349691155,-3.078528384334137,0.6246807726792102,-0.0003320967388347416,0.001062078295490003,0.0004956793649637947,-0.02424819429861923,0.0018136817035728126,-0.005206614890435431,0.00010987128111859961,0.3266327977180481,-1.1505008202842255,1.6645177046405237,-2.0829912624754847,-1.5713813940631312,2.3015689849853516,-0.0001710442011244595,0.028481751680374146,0.02646837756037712,-0.049436599016189575,-0.00010679785918910056,-0.0002935257216449827,0.05746084079146385,0.15322890877723694,-9.21288776397705,0.7418897151947021,47.674346923828125,-0.3833045959472656,-3.3605728149414062,-1.6882444620132446,-0.8268477320671082,-0.01887696050107479,-0.2344442456960678,24.1875,25.0625,24.0625,26.25,26.75,27.1875
1.0,-0.829597845470241,-0.3347853405968187,0.36489102385244626,-0.017203947603541377,-0.02155961259631625,-0.0357364347342914,-0.5386072696814528,-0.324436028272444,0.0584790602874769,-3.078539817189593,0.6246829671788744,-0.00030129728263020034,0.0008944988207735858,0.0004351337610303194,-0.02455154566572642,0.001564969391268647,-0.0044883734629335564,0.00011954631080064552,0.3266567587852478,-1.1504406493953248,1.6645668188678187,-2.083123346368307,-1.5713813940631312,2.3015928268432617,-0.00016729718481656164,0.028826793655753136,0.027059610933065414,-0.05113295465707779,-0.00010432158887851983,-0.0003000378201249987,0.07661445438861847,0.05746084079146385,-9.174580574035645,0.7888899445533752,47.6895751953125,-0.41579025983810425,-3.4126741886138916,-1.6458195447921753,-0.8314276933670044,-0.017149902880191803,-0.21921950578689575,24.1875,25.0625,24.0625,26.25,26.75,27.1875
1.0,-0.359756202231305,-0.22360780978064226,0.1568455970730172,-0.01642915051653717,-0.00535458467914399,-0.04413484637544063,-0.5386148708142391,-0.3244153082555567,0.0584297561382279,-3.0785138110512995,0.6247544256019284,-0.0003320485972952484,0.00046270809097193657,0.0003970099748280719,-0.024410609141960894,0.000924823570837697,-0.002619282125926642,-4.523451735002524e-05,0.32662081718444824,-1.150380865936615,1.664614502583639,-2.083208223382467,-1.5713813940631312,2.301604747772217,-0.00033663271460682154,0.028499754145741463,0.02771751396358013,-0.05343949794769287,-0.00010195791401201859,-0.000305520195979625,0.09576806426048279,0.038307227194309235,-9.251194953918457,0.7441308498382568,47.711063385009766,-0.399447500705719,-3.307554006576538,-1.6677104234695435,-0.8453019857406616,-0.04596544802188873,-0.23418577015399933,24.1875,25.0625,24.0625,26.25,26.75,27.1875
1.0,-1.074124492836948,-0.5396433447747562,0.11356993826082067,-0.008617307895847193,-0.022494988022859926,-0.032500094717948756,-0.5386073935342679,-0.32444004198708337,0.05840093401005389,-3.078538178382051,0.6246445692498165,-0.00028979292006284024,-0.000959127929091845,-0.000117849054092621,-0.02578915875322362,-0.0004487341875515967,0.001369450718344268,-2.899616908503866e-05,0.3266686499118805,-1.1502480965903779,1.6647332350360315,-2.083426614800924,-1.571369473134176,2.3015809059143066,-0.00029483894468285143,0.031126735731959343,0.029028810560703278,-0.06159636005759239,-9.753774793352932e-05,-0.0002827456337399781,0.07661445438861847,0.05746084079146385,-9.308655738830566,0.7060845494270325,47.654640197753906,-0.44349366426467896,-3.3841373920440674,-1.7307751178741455,-0.8176164627075195,-0.03288048505783081,-0.22953790426254272,24.1875,25.0625,24.0625,26.25,26.75,27.1875
1.0,-0.3806277039079411,-0.10460549411018144,0.18297186502151122,-0.019671613078916707,-0.0010482701966686879,-0.03924225084083216,-0.538578691815416,-0.3244376680373264,0.05825433511827194,-3.078532432514307,0.6246435514083605,-0.00045500779817746493,-0.0006630510540601832,-2.940183968217333e-05,-0.026313301819202654,-0.0001747485531777885,0.0005573232676637261,-2.1505023142155135e-05,0.3266567289829254,-1.150187925701477,1.6648171583758753,-2.083534379998678,-1.571345631276266,2.3015689849853516,-0.00027670696727000177,0.031542595475912094,0.029689906165003777,-0.06181621551513672,-9.546842193230987e-05,-0.0002720648190006614,0.019153613597154617,0.13407529890537262,-9.27034854888916,0.7418897151947021,47.657325744628906,-0.42735081911087036,-3.433547258377075,-1.7612241506576538,-0.7994322776794434,-0.04220990836620331,-0.21954256296157837,24.1875,25.0625,24.0625,26.25,26.75,27.1875
1.0,-0.5267847246593419,-0.32621723346914994,0.21457859505383584,-0.01920958501701873,0.005070630897169243,-0.042974647309315765,-0.5386000907128178,-0.3244492489059512,0.05821465111295013,-3.0785470403782282,0.6245698968656369,-0.00034522801499020574,-0.0015084670585974284,-0.0003291414798055245,-0.0262886509981228,-0.0012345189978970545,0.0036527229844871842,-1.6956456552010598e-05,0.3266806900501251,-1.1501159530929108,1.66484243074526,-2.083691736260885,-1.5713813940631312,2.3015451431274414,-0.0002606749185360968,0.03173237293958664,0.03028671257197857,-0.0658745989203453,-9.348514868179336e-05,-0.0002621579042170197,0.05746084079146385,0.17238251864910126,-9.27034854888916,0.7463666796684265,47.72808074951172,-0.4450570046901703,-3.357865333557129,-1.7141484022140503,-0.7998377084732056,-0.04215071350336075,-0.2220318615436554,24.1875,25.0625,24.0625,26.25,26.75,27.1875
1.0,-0.7918347467974268,-0.4186015915339809,0.08208975454895019,-0.01688360479495037,-0.002666175611233874,-0.03792469166668556,-0.5386135242243533,-0.324434250726374,0.05816761810724233,-3.078539470350327,0.6246643476292034,-0.00035228212670240897,-0.003037391680876101,-0.0008610111104513881,-0.026213441578847016,-0.003034108922220251,0.008913605842585073,-1.4496123156775324e-05,0.3266446888446808,-1.1500558418086548,1.6648901144610804,-2.083801408807272,-1.571369473134176,2.3015689849853516,-0.0002464002463966608,0.03220411762595177,0.030978599563241005,-0.07259839028120041,-9.158240573015064e-05,-0.0002529466582927853,0.0,0.1149216815829277,-9.308656692504883,0.7620334029197693,47.712860107421875,-0.45106005668640137,-3.4464645385742188,-1.692955493927002,-0.7310166358947754,-0.030791383236646652,-0.21186575293540955,24.1875,25.0625,24.0625,26.25,26.75,27.1875
1.0,-0.706911398342326,-0.10571870758778912,0.1128139198857897,-0.02543888182866311,0.005701523615460858,-0.041592282977797435,-0.5386090393159129,-0.32443679125005387,0.05811257319941801,-3.078545320148989,0.6246462919167786,-0.0003098572151386415,-0.0028170808980305115,-0.0007949494292100763,-0.026865986482211893,-0.002997422713565626,0.00879687726928531,-1.0744733645035379e-05,0.3266567289829254,-1.150007740860321,1.6649859587298792,-2.0839697323241175,-1.5713813940631312,2.3015689849853516,-0.00023360736668109894,0.03256382793188095,0.03231585770845413,-0.07417304068803787,-8.975579839898273e-05,-0.000244360591750592,-0.038307227194309235,0.09576806426048279,-9.346963882446289,0.7374180555343628,47.70748519897461,-0.4195619523525238,-3.404557228088379,-1.8159492015838623,-0.6875649690628052,-0.02486560121178627,-0.2182203084230423,24.1875,25.0625,24.0625,26.25,26.75,27.1875
1.0,-0.6042891044388745,-0.4522613311879614,0.09552243074631024,-0.02345542852180046,0.005297741941288476,-0.03988930389823299,-0.538607274345499,-0.32443621806784984,0.05805309616779214,-3.0785387841687872,0.6246450135821086,-0.00032830497077185745,-0.0030715716462216946,-0.0008899916151646919,-0.02714131736819387,-0.0034337775109973645,0.010067235585988668,-8.113288995590474e-06,0.3266567289829254,-1.1499355894378205,1.6650474707232874,-2.0840898952879847,-1.5713813940631312,2.3015689849853516,-0.00022207736037671566,0.03278222307562828,0.03318723291158676,-0.07660602033138275,-8.800045179668814e-05,-0.00023633820819668472,-0.019153613597154617,-0.038307227194309235,-9.308655738830566,0.7262282371520996,47.69136428833008,-0.459320068359375,-3.445822238922119,-1.777989387512207,-0.662291944026947,-0.03552810847759247,-0.20871660113334656,24.1875,25.0625,24.0625,26.25,26.75,27.1875
1.0,-0.7603971660021537,-0.5999549262656216,0.09821536381224945,-0.012076393039870672,-0.007334760771935537,-0.04423914897322581,-0.5386234289781308,-0.324433753628137,0.05800576628336496,-3.0785778455341837,0.6247105678177988,-0.0002650998836304176,-0.0038973794410128784,-0.0011751471096098308,-0.027105259471705064,-0.004383710684320374,0.012882268223153973,-6.557386004037407e-06,0.3266327977180481,-1.1498875480941315,1.6651313940631312,-2.084282537499899,-1.571357552205221,2.3015809059143066,-0.00021163154451642185,0.033063147217035294,0.03352862596511841,-0.08019928634166718,-9.91212873486802e-05,-0.00022882629127707332,-0.038307227194309235,0.13407529890537262,-9.346963882446289,0.6814691424369812,47.651954650878906,-0.49741053581237793,-3.4899864196777344,-1.811457633972168,-0.6218058466911316,-0.024494513869285583,-0.2087259590625763,24.1875,25.0625,24.0625,26.25,26.75,27.1875
1.0,-0.7258507313062957,-0.37785756973292484,-0.03702972862018543,-0.009774681413286707,-0.008564192235239413,-0.037441214578291124,-0.5386275052968601,-0.3244391295047365,0.057946073129836684,-3.0785718031554645,0.6246903104820432,-0.00025538382781864136,-0.004222621087870106,-0.0012688155405338813,-0.02749120423965583,-0.0046644513126393354,0.013705345825144486,-4.036884365499023e-05,0.3266446888446808,-1.1498034459403534,1.6651795546161097,-2.0844150982298792,-1.571369473134176,2.3015809059143066,-0.00023775962472427636,0.03377389907836914,0.033843182027339935,-0.0820942297577858,-0.00010133501200471073,-0.0002217770233983174,-0.038307227194309235,0.15322890877723694,-9.327810287475586,0.7530794739723206,47.6895751953125,-0.411787748336792,-3.4055378437042236,-1.8441085815429688,-0.5718958377838135,-0.013006714172661304,-0.216834157705307,24.1875,25.0625,24.0625,26.25,26.75,27.1875
1.0,-0.3911543620460071,-0.04197542129681177,0.056719877783004406,-0.01959907494247537,-0.005060232779990599,-0.039750081902708526,-0.5386428765517348,-0.3244561867986481,0.05790960739625586,-3.0785999697978754,0.6247150243526154,-0.00013136840764977926,-0.004412838766994651,-0.0013382638492730882,-0.027753174980759104,-0.004772738438681002,0.014012239330119084,-4.1591178335437104e-05,0.3266686499118805,-1.1497554343989869,1.6652386824237269,-2.084606786767477,-1.5713813940631312,2.301616668701172,-0.00023205891193356365,0.034341491758823395,0.03385307267308235,-0.08299713581800461,-9.972957923309878e-05,-0.00021514933905564249,0.05746084079146385,0.15322890877723694,-9.346963882446289,0.7687462568283081,47.68240737915039,-0.4542333483695984,-3.482018232345581,-1.8607200384140015,-0.5228763818740845,-0.02632036805152893,-0.21084675192832947,24.1875,25.0625,24.0625,26.25,26.75,27.1875
1.0,-0.2621553219913555,-0.3429732860831208,0.04409533154080568,-0.006501746265771014,-0.013161256924922723,-0.04096407908265552,-0.5386418951789316,-0.3244325964459996,0.057808986477379476,-3.0785741421901767,0.6247482570313412,-0.00018246878231875847,-0.003832016023520894,-0.0011313368172202764,-0.028908255626615767,-0.003902786157270754,0.011449605342054931,-6.206247162499103e-05,0.3266327679157257,-1.1496468645385285,1.665358845387594,-2.0847979984679164,-1.5713813940631312,2.301604747772217,-0.0002468902384862304,0.0357813723385334,0.034280333667993546,-0.08215800672769547,-9.793815843295306e-05,-0.00020890613086521626,-0.05746084079146385,0.13407529890537262,-9.27034854888916,0.6590895652770996,47.671661376953125,-0.44325608015060425,-3.4683003425598145,-1.7825472354888916,-0.5216069221496582,-0.03622082993388176,-0.2224908173084259,24.1875,25.0625,24.0625,26.25,26.75,27.1875
1.0,-0.40030421354973605,-0.09195021222554213,0.21035713862525085,-0.0021931052992631775,-0.02546733657360283,-0.03952656957274491,-0.538663519753571,-0.32443979272316714,0.05778488454487288,-3.0786326731554796,0.6246838344927252,-0.00013740355802603442,-0.0023734100041153715,-0.0006327182696134839,-0.0301040166943725,-0.0026473972169141465,0.007765642283072185,-6.936538243157951e-05,0.32662084698677063,-1.1495987933925171,1.6653707663165491,-2.084905286828512,-1.571357552205221,2.3015451431274414,-0.00024919939460232854,0.035953082144260406,0.03639058396220207,-0.08054797351360321,-9.619474440114573e-05,-0.00020301526819821447,0.0,0.09576806426048279,-9.251194953918457,0.7351769208908081,47.70390319824219,-0.4704657793045044,-3.531582832336426,-1.9288005828857422,-0.5086184144020081,-0.025342367589473724,-0.21803148090839386,24.1875,25.0625,24.0625,26.25,26.75,27.1875
1.0,-0.280211377787996,-0.2816240728162294,0.30178685793490395,0.00394863155873597,-0.03174774019215621,-0.03395722674987786,-0.5386676443561619,-0.32446097245475364,0.05771834169382056,-3.0786232162000187,0.6246626242747517,-6.309053239448894e-05,-0.0008648882912269762,-0.00010310353707555295,-0.03070026854131371,-0.001176225744752002,0.0034530944277021145,-9.682878090968525e-05,0.3266686499118805,-1.1495030683330079,1.665431324635641,-2.085095544854635,-1.5713933149920862,2.3015809059143066,-0.00027275067986920476,0.03564080223441124,0.03728151693940163,-0.0765700563788414,-9.45110950851813e-05,-0.00019744757446460426,0.09576806426048279,0.05746084079146385,-9.289502143859863,0.6993717551231384,47.725399017333984,-0.4743857681751251,-3.4965410232543945,-1.9318382740020752,-0.5385079979896545,-0.03284459933638573,-0.21271973848342896,24.1875,25.0625,24.0625,26.25,26.75,27.1875
1.0,-0.3103735176633913,0.30662056561416096,0.1543590375195481,0.004477867355961033,-0.04702764297171057,-0.03200034751413452,-0.5386418136979648,-0.3244364273775429,0.05762751594855098,-3.0785936346078566,0.624695108821674,-0.00019836888837664992,-0.0009507611548026003,-0.00012357660964926805,-0.030907302189747285,-0.000638270684871414,0.0018643609493274457,-0.00011609550612728232,0.3266327679157257,-1.149430738096573,1.6655634085284632,-2.0852142773070277,-1.571369473134176,2.3015689849853516,-0.0002876545477192849,0.036909572780132294,0.035489313304424286,-0.07436928153038025,-9.288542787544429e-05,-0.0001921772345667705,0.2298433631658554,0.09576806426048279,-9.251194953918457,0.7597975730895996,47.69673538208008,-0.4917830526828766,-3.5403616428375244,-1.9033186435699463,-0.5559219121932983,-0.035113804042339325,-0.22678408026695251,24.1875,25.0625,24.0625,26.25,26.75,27.1875
1.0,0.04941449273869776,0.08506198507010065,0.21242513122601608,0.01688493977724588,-0.04211794322788817,-0.036492157330879814,-0.5386670401985909,-0.3244450412793276,0.05759195617880117,-3.078625890787924,0.6247209052553425,-0.00010017990688285495,-0.0007850938429948045,-4.739262500625701e-05,-0.03101605983814967,-0.00027702575161814226,0.0007994890948754786,-0.00015170933344982576,0.3266327381134033,-1.1493706864169617,1.665598217641012,-2.085381647149557,-1.571369473134176,2.3015809059143066,-0.00031878359732218087,0.03722260892391205,0.035008806735277176,-0.07307733595371246,-9.131483966484666e-05,-0.00018718073260970414,0.17238251864910126,0.1149216815829277,-9.251194953918457,0.7866488099098206,47.69853210449219,-0.5123846530914307,-3.4707400798797607,-1.7401708364486694,-0.5896244645118713,-0.023780811578035355,-0.22297868132591248,24.1875,25.0625,24.0625,26.25,26.75,27.1875
1.0,0.06196099930202528,0.03970022656473123,0.3087790306255097,0.013438648329499604,-0.03945526124122841,-0.04389097942684391,-0.5386728608532846,-0.3244433003339208,0.05751396328212616,-3.078616376679426,0.6246807955068097,-0.00011039839576113039,0.0006631759231020074,0.0004759811685747084,-0.032700442249207075,0.0010200128931963158,-0.0030110458304998026,-0.00020199262506214995,0.3266327381134033,-1.1492623847774048,1.665659252797262,-2.085536619225973,-1.5713813940631312,2.3015570640563965,-0.00036498834379017353,0.038030724972486496,0.03755446523427963,-0.07240588217973709,-8.97962017916143e-05,-0.00018243769591208547,0.15322890877723694,0.07661445438861847,-9.155426979064941,0.6881819367408752,47.718231201171875,-0.4672587215900421,-3.476613998413086,-1.8209692239761353,-0.585235059261322,-0.022595228627324104,-0.2215002179145813,24.1875,25.0625,24.0625,26.25,26.75,27.1875
1.0,0.011474934026203889,-0.08090691624198165,0.37589589816696156,0.0018830518900517165,-0.035093643336595655,-0.03851824987039925,-0.5386609096532307,-0.32443545182864975,0.05745837647154489,-3.078598777370256,0.6247155199047392,-0.00010140572061412262,0.0008367246991979585,0.0005536512032321347,-0.03360870941629659,0.0016063236136023345,-0.0047443743126162,-0.00023604382817104413,0.32663270831108093,-1.1492258471301575,1.665767017995016,-2.0856806240477503,-1.5713933149920862,2.3015809059143066,-0.0003949548117816448,0.039616405963897705,0.037294529378414154,-0.0719018280506134,-8.832748426357284e-05,-0.00017792897415347397,0.3064578175544739,0.038307227194309235,-9.059659004211426,0.7105615139007568,47.67882537841797,-0.5338104963302612,-3.6295597553253174,-1.8606574535369873,-0.6150106191635132,-0.01789768785238266,-0.21282440423965454,24.1875,25.0625,24.0625,26.25,26.75,27.1875
1.0,-0.20395785751493903,-0.005632251288375675,0.30304026269031253,-0.0034989224699167945,-0.03639525734694157,-0.0367339219825398,-0.538678465377641,-0.32445260970306933,0.057410658401707365,-3.0786501313432013,0.6247074266865029,-8.247911267878782e-05,0.0015326825079483711,0.0012791381745110946,-0.03315102038312632,0.0022008870961060076,-0.006482114452654629,-0.0009953580762923505,0.3266443908214569,-1.1490705472281952,1.6658862272845667,-2.085954805413717,-1.571357552205221,2.3015809059143066,-0.0011468525044620037,0.03797690197825432,0.037895575165748596,-0.06902673095464706,-8.552942745154724e-05,-0.0001695486280368641,0.24899697303771973,0.07661445438861847,-9.136273384094238,0.7665104269981384,47.736141204833984,-0.42522066831588745,-3.537199020385742,-1.8020811080932617,-0.6730684041976929,-0.016323257237672806,-0.21468257904052734,24.1875,25.0625,24.0625,26.25,26.75,27.1875
1.0,-0.004220748876038261,-0.015508150942367684,0.3935746334050021,0.004930461579943883,-0.03543891632819685,-0.040170300551270355,-0.5386602353172052,-0.3244541797889725,0.05733775259542348,-3.078632783938993,0.6247039064875071,-0.00013058494224733684,0.001670132205173244,0.0012423382398830717,-0.03411838909593218,0.0029906863327392725,-0.008783068065339366,-0.0008662492143003871,0.32662057876586914,-1.1489739579013367,1.665921990071432,-2.0861216984190882,-1.5713813940631312,2.3015689849853516,-0.001014641602523625,0.04012211784720421,0.03678452968597412,-0.0676281601190567,-9.461462468607351e-05,-0.00016564768156968057,0.3064578175544739,0.13407528400421143,-8.983044624328613,0.7486078143119812,47.711063385009766,-0.45225703716278076,-3.4870197772979736,-1.7425463199615479,-0.7102971076965332,-0.015406791120767593,-0.21407265961170197,24.1875,25.0625,24.0625,26.25,26.75,27.1875
1.0,0.5112812985927376,0.15409746530142937,0.4097792299433734,0.011181597563227596,-0.03481731541939405,-0.0399563282776862,-0.5386859034499187,-0.3244322370012453,0.05719017943352406,-3.078599003735059,0.6247353810426142,-0.00013010886355241445,0.0017273054998258376,0.0011712283986090772,-0.03433837573005924,0.002917346458341304,-0.008564049201944228,-0.0007299952158624112,0.3266085982322693,-1.1488660138896485,1.6660063902484339,-2.086266180078024,-1.5713813940631312,2.3015689849853516,-0.0008743752259761095,0.040251851081848145,0.0373053103685379,-0.06850963830947876,-9.648458217270672e-05,-0.00016192228940781206,0.325611412525177,0.13407528400421143,-9.078812599182129,0.7172743082046509,47.690467834472656,-0.5116116404533386,-3.604428768157959,-1.6933393478393555,-0.716856837272644,-0.050563082098960876,-0.22139587998390198,24.1875,25.0625,24.0625,26.25,26.75,27.1875
1.0,-0.08720472321219519,-0.23606941515473878,0.358156377933308,0.005652815863689679,-0.050038783755596596,-0.0296882693347808,-0.5386642269283654,-0.3244055267734311,0.05712870902732203,-3.078566253301898,0.6247480445908552,-0.0001727060620365441,0.0032094709283481413,0.0016747950094708204,-0.03616681916846057,0.004536502928064531,-0.013322842343946728,-0.0007306528070161921,0.3265846371650696,-1.1488414865783234,1.6661384741412562,-2.086384435693258,-1.5713933149920862,2.3015570640563965,-0.0008726491942070425,0.04169134050607681,0.03903280943632126,-0.0666499212384224,-9.524269262328744e-05,-0.00015836038801353425,0.17238251864910126,0.1149216815829277,-9.002198219299316,0.7217512726783752,47.69673538208008,-0.44211477041244507,-3.5554745197296143,-1.8115293979644775,-0.7582277655601501,-0.024108659476041794,-0.20610865950584412,24.1875,25.0625,24.0625,26.25,26.75,27.1875
1.0,-0.061110424483140136,-0.3389085540247802,0.3207796269419999,-0.004953569420092611,-0.041993641375703786,-0.0357040916720655,-0.5386611042392011,-0.3243967774185283,0.05705399991079996,-3.0785278486132803,0.6248166534384284,-0.00023786219108423763,0.00309111947886262,0.0015748238003328928,-0.036415937758267,0.004507544545120967,-0.013247182117203831,-0.0006435340045437543,0.3265727460384369,-1.1487454038909455,1.6661985556231897,-2.0864926777281703,-1.5713933149920862,2.3015928268432617,-0.0007819739985279739,0.04227500036358833,0.03890913352370262,-0.06719086319208145,-9.383823635289446e-05,-0.0001549524604342878,0.13407529890537262,0.13407529890537262,-9.078812599182129,0.6747510433197021,47.68240737915039,-0.5641871690750122,-3.6103057861328125,-1.765648365020752,-0.8116515278816223,-0.0209670253098011,-0.20263643562793732,24.1875,25.0625,24.0625,26.25,26.75,27.1875
1.0,-0.42296777605429736,-0.5690177861701997,0.3365788164527244,-0.012968815071677476,-0.038604220156359,-0.0373201818705905,-0.5386645188762315,-0.3244173747822976,0.05699745275509341,-3.0785378446179066,0.6247802785499486,-0.00019305009836694458,0.0018387400534669673,0.0010981847065783081,-0.03467610767477197,0.0025552362891517583,-0.0075148771680371524,-0.0005721608881114637,0.32660865783691406,-1.1486621063998719,1.66624623933901,-2.086649557153219,-1.5714057127581995,2.301604747772217,-0.000705377315171063,0.04000290855765343,0.03900732472538948,-0.07107261568307877,-9.246185072697699e-05,-0.000151687694597058,0.1149216815829277,0.2106897532939911,-9.059659004211426,0.7262282371520996,47.730770111083984,-0.5019868612289429,-3.5285322666168213,-1.8243906497955322,-0.8081001043319702,-0.03794503211975098,-0.20859718322753906,24.1875,25.0625,24.0625,26.25,26.75,27.1875
1.0,-0.29966032924028846,-0.9307678502890402,0.3655819886496198,-0.01897156811524965,-0.018613095855079857,-0.04136385482629675,-0.5386412042013703,-0.32440193116362415,0.05691361134493242,-3.078503094033904,0.6246967343452012,-0.0002555568904745162,0.00215442666873878,0.0011364914329942742,-0.03597879893000066,0.0031795312667566014,-0.009326735659070029,-0.0004644274964224288,0.32660868763923645,-1.1485897463611145,1.6663654486285608,-2.086781164208883,-1.5714295546161097,2.3015570640563965,-0.0005947151803411543,0.04188693314790726,0.03942998871207237,-0.07146289944648743,-0.00010244251461699605,-0.00014855786866974086,0.15322890877723694,0.28730422258377075,-9.02135181427002,0.7418897151947021,47.72987747192383,-0.4640817940235138,-3.518097400665283,-1.7055621147155762,-0.8239531517028809,-0.03559263050556183,-0.20077598094940186,24.1875,25.0625,24.0625,26.25,26.75,27.1875
1.0,0.16591815566461549,-0.09887149829109576,0.3928179560869834,-0.037724611964736345,0.0022316678621306617,-0.053730836485512676,-0.5386370341532551,-0.32443510467826225,0.056844008070080054,-3.078555653741727,0.624726548147704,-0.0002889445530016001,0.00179286082347803,0.0010319802057550602,-0.036609432491732166,0.002836917893751999,-0.008329947844412764,-0.000497881564149041,0.32663264870643616,-1.1484931868365784,1.666426960621969,-2.086949964562887,-1.571369473134176,2.3015928268432617,-0.0006242701201699674,0.0428747721016407,0.04009915888309479,-0.07417391985654831,-0.00010254645167151466,-0.00014555452798958868,0.19153612852096558,0.24899697303771973,-9.117119789123535,0.7239871025085449,47.700321197509766,-0.5469008088111877,-3.6124227046966553,-1.7643468379974365,-0.8470337390899658,-0.024338647723197937,-0.2008100152015686,24.1875,25.0625,24.0625,26.25,26.75,27.1875
1.0,-0.5071918802154998,-0.6960686315644895,0.2697520176777183,-0.028681508327406326,-0.006059653079429181,-0.04244547318875573,-0.5386232986014219,-0.32442288242796286,0.056777539715562236,-3.0785341236133625,0.6247031285719513,-0.0002843649260982757,0.0007123030440970812,0.0006809519198705206,-0.0369330447474532,0.001799571201613006,-0.005304498050719558,-0.000531106302600074,0.32663261890411377,-1.1484449964812775,1.6665461699115198,-2.087106843987936,-1.5713933149920862,2.3015809059143066,-0.0006529436795972288,0.04399733990430832,0.04029356315732002,-0.07868923991918564,-0.0001012071588775143,-0.00014267029473558068,0.2106897532939911,0.26815059781074524,-9.193734169006348,0.6993717551231384,47.65553665161133,-0.5413731336593628,-3.597278118133545,-1.8443790674209595,-0.8158662915229797,-0.02839549444615841,-0.2067958116531372,24.1875,25.0625,24.0625,26.25,26.75,27.1875
1.0,-1.378813532466156,-1.1284593131647442,-0.008148487339397352,-0.0266802698482319,-0.017826776482553524,-0.027856074623772414,-0.538636189895022,-0.32441566716558606,0.05669429513079194,-3.0785187291600824,0.624700041648147,-0.00028889303902175883,-0.00021851283960623843,0.00037820237600464995,-0.03641190577710814,0.0003503622771542137,-0.0010589287319452655,-0.0005591748317208986,0.3266206979751587,-1.1483253699592133,1.6666067282306116,-2.087276598016256,-1.5714057127581995,2.3015689849853516,-0.0006762731354683638,0.04316910728812218,0.041329275816679,-0.08338282257318497,-9.981088805943727e-05,-0.00013989819854032248,0.19153614342212677,0.26815059781074524,-9.21288776397705,0.7418897151947021,47.699424743652344,-0.5073450207710266,-3.6228485107421875,-1.7824888229370117,-0.7988084554672241,-0.021962422877550125,-0.20609107613563538,24.1875,25.0625,24.0625,26.25,26.75,27.1875
1.0,-1.2006852253141422,-1.5061652813934123,-0.159650858841149,-0.020252188551433695,-0.011471338026624795,-0.03542517957324045,-0.5386225402770047,-0.3244225231916537,0.05661865896182755,-3.078528069756707,0.6247211360237607,-0.00036643190241934743,-0.0008938711504719477,0.00011597064159474745,-0.037244224330494125,-0.0002515613575272861,0.0006877846343655963,-0.000515923704322389,0.3266207277774811,-1.1482409101775666,1.6666906515704554,-2.0874091587462367,-1.571369473134176,2.3015809059143066,-0.0006289997254498303,0.04473525285720825,0.041950125247240067,-0.08741731941699982,-9.844645683187991e-05,-0.00013723166193813086,-0.038307227194309235,0.2106897532939911,-9.308655738830566,0.7351769208908081,47.70927429199219,-0.47585901618003845,-3.5662760734558105,-1.8278226852416992,-0.7458058595657349,-0.023374466225504875,-0.20958855748176575,24.1875,25.0625,24.0625,26.25,26.75,27.1875
1.0,-1.0922469276520559,-0.8612188818523234,0.001797324641121874,-0.03635270731312988,-0.0023026307275511738,-0.031836836175901266,-0.5386109967661705,-0.32440335769844736,0.05652088821011078,-3.078489866832539,0.624616374919232,-0.00037390103301216033,-0.0025110319203703563,-0.00034873053816914423,-0.036897554049805555,-0.002171367202983778,0.006305569620282133,-0.0006562461417581354,0.3266206681728363,-1.148144857292511,1.6668227354632776,-2.0876037083067835,-1.5714176336871546,2.301520347595215,-0.0007640882977284491,0.04480335861444473,0.04257115349173546,-0.09404322504997253,-9.711870370665565e-05,-0.00013466500968206674,-0.2298433780670166,0.24899697303771973,-9.308655738830566,0.7127973437309265,47.718231201171875,-0.5215588808059692,-3.6643998622894287,-1.8263814449310303,-0.704513430595398,-0.03195562958717346,-0.2071978747844696,24.1875,25.0625,24.0625,26.25,26.75,27.1875
1.0,-1.3591570158003465,-1.490390423289405,-0.11314768031722024,-0.01987284932293672,-0.0014704202508991774,-0.024992985625717085,-0.5386295823501909,-0.32440961055157075,0.05645497672483446,-3.07850601053968,0.6247361611244406,-0.0003438328642435239,-0.0027051282495307995,-0.0004045412138806429,-0.03753599809113117,-0.0023281590845002044,0.006753831422093055,-0.0006765556090596011,0.3266086280345917,-1.1480488640121003,1.6668818632708948,-2.087795396844381,-1.5713933149920862,2.3015809059143066,-0.0007812893018126488,0.0457366481423378,0.043177105486392975,-0.09605734050273895,-9.582615894032642e-05,-0.00013219231914263219,0.038307227194309235,0.26815059781074524,-9.289502143859863,0.7441308498382568,47.71733474731445,-0.505806028842926,-3.578068733215332,-1.8639509677886963,-0.6510666608810425,-0.023000264540314674,-0.20882290601730347,24.1875,25.0625,24.0625,26.25,26.75,27.1875
1.0,-1.015377659184806,-0.6258133558582789,0.006994551862729971,-0.03700673184566923,0.0006006571001595743,-0.03900247995043189,-0.5386293018447779,-0.3244133449483023,0.05636937694672775,-3.078529615232541,0.6247028265089456,-0.00033739060339791244,-0.0037644320710858744,-0.0008224473699089276,-0.03753214841262512,-0.003673520762417883,0.010741702283745958,-0.0005865218607243941,0.32660865783691406,-1.1479525131038208,1.6669910589801233,-2.088012834588522,-1.5713813940631312,2.3015570640563965,-0.0006868327036499977,0.04601399227976799,0.04398275166749954,-0.10134897381067276,-0.00011194066610187292,-0.00012980906467419118,-0.019153613597154617,0.19153612852096558,-9.28950309753418,0.7329410910606384,47.70838165283203,-0.5577083826065063,-3.63181471824646,-1.8677515983581543,-0.6095921993255615,-0.03017556667327881,-0.21333858370780945,24.1875,25.0625,24.0625,26.25,26.75,27.1875
1.0,-1.0599550484352644,-0.45785987036724646,-0.010783942737865839,-0.02067236919380567,-0.007983551079828257,-0.03915155807081178,-0.5386689587640622,-0.32442671975670634,0.05633812656183232,-3.07859408108253,0.6247924800587841,-0.00019451397037000876,-0.00418645781708934,-0.0010158699288649663,-0.03739642180837516,-0.004065147028356316,0.011896623626839875,-0.0005117990803425522,0.32659676671028137,-1.1478926700404664,1.6670272986041468,-2.0882283649840296,-1.571357552205221,2.3015928268432617,-0.0006093439878895879,0.046225473284721375,0.04362422600388527,-0.10242143273353577,-0.00011477417137939483,-0.0001275101094506681,0.07661445438861847,0.15322890877723694,-9.327810287475586,0.7530794739723206,47.7164421081543,-0.5279731154441833,-3.615602493286133,-1.8603112697601318,-0.5542804598808289,-0.009260766208171844,-0.20554226636886597,24.1875,25.0625,24.0625,26.25,26.75,27.1875
1.0,-0.5913536897699008,-0.5280142947599643,-0.1639728438961834,-0.007968008931203484,-0.0018900122762729686,-0.03926048588787341,-0.5386540014417588,-0.3244297167603524,0.05621816948184022,-3.0785498012833794,0.6247259307802835,-0.00027360788502964786,-0.0036657969152613444,-0.0008793797009452808,-0.03787494407538392,-0.0035389770787683434,0.0103443910107496,-0.0004517566180838773,0.32662075757980347,-1.1477366548827668,1.6671226660357874,-2.088407655755514,-1.5713813940631312,2.3015809059143066,-0.0005475216312333941,0.04653731361031532,0.04408271610736847,-0.10155278444290161,-0.00011228159564780071,-0.00012529129162430763,0.09576806426048279,0.15322890877723694,-9.385271072387695,0.7530794739723206,47.7164421081543,-0.5755482316017151,-3.663726329803467,-1.8294854164123535,-0.5524063110351562,-0.023982588201761246,-0.20060625672340393,24.1875,25.0625,24.0625,26.25,26.75,27.1875
1.0,-0.2179002395811443,-0.26766944414591837,-0.28915741725788224,0.006284194398350406,-0.02094621199209049,-0.03530099907150191,-0.5386428359306917,-0.32442593998264774,0.05613630634243427,-3.0785496230688,0.6247259871748704,-0.000274650474680817,-0.003383385357792703,-0.0008168551490328218,-0.03823311799414696,-0.0029377643359875232,0.008569627437509712,-0.0004027100648923289,0.32662075757980347,-1.1476644736579438,1.6672537962542933,-2.0886103115477503,-1.5713813940631312,2.3015809059143066,-0.0004970967420376837,0.04733043164014816,0.04339414834976196,-0.0997835099697113,-0.00010957209451589733,-0.00012314821651671082,0.09576806426048279,0.1149216815829277,-9.346963882446289,0.7530794739723206,47.72897720336914,-0.6178004145622253,-3.611726760864258,-1.822596549987793,-0.5507367253303528,-0.026279279962182045,-0.21059104800224304,24.1875,25.0625,24.0625,26.25,26.75,27.1875
1.0,-0.24928784420029917,0.5985726445874415,-0.0013665202782610017,0.017499114466366907,-0.04581494212083176,-0.03388574499101512,-0.5386904555234756,-0.3244229378697438,0.05600528328061402,-3.0785851917430183,0.6247335762633048,-0.00014144352916491438,-0.0007459358200617969,7.644403810930442e-05,-0.040179707067752084,-9.761326884022457e-05,0.0002276568479310066,-0.00039656757050741275,0.32659679651260376,-1.147472308283188,1.6673749128924769,-2.089015146295065,-1.5713933149920862,2.3015570640563965,-0.0004897305625490844,0.04831331968307495,0.04505424201488495,-0.09361429512500763,-0.00010448514512972906,-0.00011907493899343535,0.05746084079146385,-0.05746084079146385,-9.308656692504883,0.7217512726783752,47.72092056274414,-0.591934323310852,-3.669288158416748,-1.8397626876831055,-0.5932572484016418,-0.024891752749681473,-0.19694413244724274,24.1875,25.0625,24.0625,26.25,26.75,27.1875
1.0,0.41849747191607234,0.8492070249223258,-0.036889217530487024,0.020997935799341113,-0.03819708284489571,-0.04261116007085309,-0.5386713653058622,-0.3244395635715652,0.05591703327357225,-3.07859734168457,0.6247168776299505,-0.00019331110335458045,-0.0009802224944013781,1.3121170470151475e-05,-0.03977018113640426,0.0002095002554802273,-0.0006818267784238975,-0.00042446126473370143,0.32662075757980347,-1.1473761659911652,1.6674817244159144,-2.089193960229391,-1.571369473134176,2.3015689849853516,-0.0005166199407540262,0.048816028982400894,0.04281515255570412,-0.09091798216104507,-0.00010211424523731694,-0.00011713759158737957,0.09576806426048279,-0.09576806426048279,-9.251194953918457,0.7060845494270325,47.72270965576172,-0.5639355182647705,-3.677621841430664,-1.6827640533447266,-0.6224053502082825,-0.035881415009498596,-0.20820125937461853,24.1875,25.0625,24.0625,26.25,26.75,27.1875
1.0,0.41861819465047345,0.5957474524325266,-0.1751969604458386,0.031225960798482458,-0.03399964656444103,-0.03461908694038106,-0.5386746077550046,-0.3244329189257793,0.05582422774294943,-3.078585021586891,0.6247145906729537,-0.00022789939569564158,0.0007169200679895799,0.000553648919746169,-0.041287702445193454,0.0019183416864143406,-0.005700651653563984,-0.00036705146650523024,0.3266087472438812,-1.1472559434226532,1.6675651709186,-2.089372297326559,-1.571369473134176,2.3015570640563965,-0.00045879685785621405,0.049614548683166504,0.044518910348415375,-0.08811849355697632,-9.984819917008281e-05,-0.00011526245361892506,0.1149216815829277,-0.2106897532939911,-9.289502143859863,0.7351769208908081,47.70927429199219,-0.5734415054321289,-3.706854820251465,-1.7225046157836914,-0.6845163106918335,-0.03785518556833267,-0.19637534022331238,24.1875,25.0625,24.0625,26.25,26.75,27.1875
1.0,0.1730018014010872,0.6613801119394516,-0.09810808791234779,0.025309861590757064,-0.03695658961981441,-0.03242751160196258,-0.5386516354050125,-0.32443294729280414,0.055718293541654,-3.0785415000201906,0.6247438224154838,-0.000327726488108051,0.001491585462007634,0.000817491750974052,-0.041496430797467274,0.002689166502713828,-0.007963169104071967,-0.00036805409007886064,0.32662078738212585,-1.1471362274936219,1.6676738897906702,-2.089527269402975,-1.571369473134176,2.3015928268432617,-0.00045894301729276776,0.04938912019133568,0.044779807329177856,-0.08576374500989914,-9.768075688043609e-05,-0.00011344633821863681,0.09576806426048279,-0.17238251864910126,-9.327810287475586,0.7553206086158752,47.723602294921875,-0.5838614702224731,-3.7028963565826416,-1.72017502784729,-0.723377525806427,-0.030421223491430283,-0.18912988901138306,24.1875,25.0625,24.0625,26.25,26.75,27.1875
1.0,0.11570508171468666,0.6336417635156926,0.04401778856801662,0.015003109782295812,-0.024638051381274895,-0.04646640763827063,-0.5386540355395731,-0.324426293311756,0.05565042334838616,-3.07851141124015,0.6246803911045323,-0.0002916368634919641,0.0022953021243986675,0.001125494387344124,-0.04189580795033814,0.003459286936320617,-0.01022420030861375,-0.00042188264333739925,0.32663267850875854,-1.1470522445491333,1.6677458922015589,-2.0896817646422328,-1.5714176336871546,2.3015689849853516,-0.0005118236294947565,0.04928065836429596,0.045422375202178955,-0.08390927314758301,-9.560550097376108e-05,-0.00011168652417836711,0.15322890877723694,-0.2106897532939911,-9.327810287475586,0.7105615139007568,47.72987747192383,-0.6013705134391785,-3.6453797817230225,-1.707543134689331,-0.7766779661178589,-0.024116728454828262,-0.2028215080499649,24.1875,25.0625,24.0625,26.25,26.75,27.1875
1.0,-0.1255205564611215,0.21305509727818156,-0.08098419381672993,0.020001761386960498,-0.026549692923388376,-0.03239273065539797,-0.5386480082717552,-0.324420181831111,0.055554752564579646,-3.078513557659595,0.6247384961123336,-0.0003685421045473241,0.0020572780463426693,0.0010631037541265253,-0.04152447909642819,0.0031947103317466166,-0.009453621292278955,-0.0004536432579641024,0.32660871744155884,-1.146944449549057,1.6678536573993128,-2.0898620090880335,-1.5713813940631312,2.3015809059143066,-0.0005417176289483905,0.04895280301570892,0.045071374624967575,-0.08404514938592911,-9.361637057736516e-05,-0.0001099804721889086,0.17238251864910126,-0.24899697303771973,-9.327810287475586,0.7172743082046509,47.72270965576172,-0.5620936155319214,-3.6248178482055664,-1.7253444194793701,-0.8306981325149536,-0.030221041291952133,-0.1921081840991974,24.1875,25.0625,24.0625,26.25,26.75,27.1875
1.0,-0.10548329618868474,0.337650000422653,-0.1329787673062757,0.010175382043077538,-0.02399857584226125,-0.03715596837243666,-0.5386503964525858,-0.32442464173369745,0.05549497621049709,-3.078541313563487,0.6246873013630352,-0.0003605151375600295,0.0007129116624677849,0.0009844626902709467,-0.04011653896628284,0.0019359616535994727,-0.0057640528905128175,-0.0010519266270255642,0.32660847902297974,-1.1468730729869385,1.6679251829730433,-2.090017934838766,-1.571369473134176,2.3015451431274414,-0.0011273472337052226,0.04787279665470123,0.04371139779686928,-0.08550354838371277,-9.170846169581637e-05,-9.827111352933571e-05,0.038307227194309235,-0.2298433631658554,-9.385271072387695,0.7351769208908081,47.71554183959961,-0.5689923763275146,-3.534585952758789,-1.532503604888916,-0.8556104898452759,-0.03845495730638504,-0.2009241282939911,24.1875,25.0625,24.0625,26.25,26.75,27.1875
1.0,-0.0956481625210181,-0.10921638165290473,-0.1227517920969889,0.008840990917056764,-0.008636805651022563,-0.03460100909880673,-0.5386489046643835,-0.324416633921571,0.05541129165884365,-3.0785076946448213,0.624718702692609,-0.0003588040622714835,0.0008810543333241965,0.001078283601605231,-0.041255945615962686,0.0020804270647371845,-0.006202320203731241,-0.0011149693721076706,0.32660847902297974,-1.1467765730670472,1.6680215040790003,-2.0901981792845667,-1.5713933149920862,2.3015689849853516,-0.0011851669987663627,0.049054764211177826,0.045142460614442825,-0.08765514194965363,-8.98768485058099e-05,-9.360771218780428e-05,0.1149216815829277,-0.15322890877723694,-9.385271072387695,0.7530794739723206,47.73255920410156,-0.6018721461296082,-3.5361196994781494,-1.561840295791626,-0.8654081225395203,-0.03338637948036194,-0.1877622902393341,24.1875,25.0625,24.0625,26.25,26.75,27.1875
1.0,-0.44217403742725503,-0.5157393972087724,-0.20513949350866562,-0.001292446538700448,4.980710247394466e-05,-0.04200620843626908,-0.5386360742154142,-0.32440455211450203,0.05532369782422014,-3.0784907910621953,0.6247153375644211,-0.00040577229502393377,-0.0001593067140762498,0.0007066321478934896,-0.04143987227051432,0.0007008484879269702,-0.0021437524742312,-0.0010902315207483829,0.32659655809402466,-1.146692470913269,1.6681416670428675,-2.090367933312887,-1.5713933149920862,2.3015570640563965,-0.001156602636910975,0.0494324192404747,0.04637320712208748,-0.09355016052722931,-9.678774222265929e-05,-9.203106310451403e-05,0.13407529890537262,0.019153613597154617,-9.366117477416992,0.7172743082046509,47.734352111816406,-0.5700011849403381,-3.6034281253814697,-1.6522331237792969,-0.8423006534576416,-0.020663727074861526,-0.1978524923324585,24.1875,25.0625,24.0625,26.25,26.75,27.1875
1.0,-0.841817968797684,-0.4845470040643538,-0.260434470494321,-0.02964225449867542,0.005848603253397526,-0.04439480245556838,-0.5386407782393952,-0.32441370868864045,0.05523425575641869,-3.0785047192616726,0.6246992848106767,-0.00045286084786271035,-0.0016348576241479644,0.0003764548272023389,-0.03911972969425169,-0.001503843148290001,0.004356704212179355,-0.001355763691016426,0.3265964984893799,-1.1465617579272767,1.6682007948504847,-2.090537210504049,-1.571369473134176,2.3015451431274414,-0.0014187648193910718,0.04631778970360756,0.046277858316898346,-0.09720432013273239,-0.0001031247666105628,-9.069250518223271e-05,0.05746084079146385,0.09576806426048279,-9.385271072387695,0.7284641265869141,47.76122283935547,-0.5730164051055908,-3.327695846557617,-1.6045258045196533,-0.8355028629302979,-0.041905879974365234,-0.20180539786815643,24.1875,25.0625,24.0625,26.25,26.75,27.1875
1.0,-1.5679608546527166,-1.385327443915572,-0.3926826784867233,-0.02896035699162796,0.007769413371657798,-0.024478213830659935,-0.5386391420427658,-0.3244094327287379,0.055161659982909644,-3.078490780898688,0.6247537851199407,-0.00042393118422519673,-0.00380779465788442,-0.0004316993240631184,-0.03919177677433618,-0.0038719457235139405,0.011279089119099741,-0.0012594169337405735,0.32659652829170227,-1.1464894276908417,1.6683090368853968,-2.0907322369017542,-1.5713813940631312,2.3015809059143066,-0.001317600253969431,0.04756338894367218,0.046752139925956726,-0.10624043643474579,-0.00010171689064009115,-8.940466068452224e-05,0.05746084079146385,0.15322890877723694,-9.423578262329102,0.7150384783744812,47.711063385009766,-0.5318816304206848,-3.285398006439209,-1.6419312953948975,-0.7597018480300903,-0.023700354620814323,-0.19546440243721008,24.1875,25.0625,24.0625,26.25,26.75,27.1875
1.0,-0.8513471667586232,-1.2505925214305795,-0.5189347472247323,-0.04717581303559544,0.0323089754257389,-0.04115980862457305,-0.538646179027711,-0.3243963814059885,0.0550867932980067,-3.0784724672929356,0.6247693425293883,-0.0003888576768014892,-0.004640818083338402,-0.0007615249839672396,-0.039094306934864965,-0.004883398072724326,0.014273192139887989,-0.0011869316475351574,0.32658451795578003,-1.1464053255370636,1.6684053579913538,-2.09092440227651,-1.5714057127581995,2.3015809059143066,-0.0012423921143636107,0.04775002971291542,0.047113724052906036,-0.10994896292686462,-0.00011222298780921847,-8.815353794489056e-05,0.0,0.2298433631658554,-9.557653427124023,0.6837049722671509,47.69673538208008,-0.5982524156570435,-3.308310031890869,-1.669513463973999,-0.7209887504577637,-0.03646305203437805,-0.2048744559288025,24.1875,25.0625,24.0625,26.25,26.75,27.1875
1.0,-0.9852465288038679,-1.3936488810479486,-0.4087143941170499,-0.055546192555957025,0.0322434023458036,-0.042496961397652515,-0.5386484959420726,-0.32439723358640393,0.05499879345097647,-3.0784847758972056,0.6247719108975136,-0.00035588556148289605,-0.0056293097316804635,-0.0011641372259876726,-0.04011825310108041,-0.0057196697295381,0.016712345074582125,-0.0010897252703576147,0.3265845477581024,-1.1463086766055604,1.6685250441180628,-2.0911652050414027,-1.5714057127581995,2.3015809059143066,-0.0011421653907746077,0.04990719258785248,0.04762157425284386,-0.11519249528646469,-0.0001141220927820541,-8.693707786733285e-05,-0.15322890877723694,0.24899697303771973,-9.691728591918945,0.7351769208908081,47.71554183959961,-0.5989477634429932,-3.4596457481384277,-1.6438149213790894,-0.6585372686386108,-0.03646934777498245,-0.20256194472312927,24.1875,25.0625,24.0625,26.25,26.75,27.1875
1.0,-0.6902493982337596,-1.748244145986933,-0.4380756635435158,-0.04548191169929719,0.028057981484305234,-0.041819652585361376,-0.5386661315433146,-0.3243991728778153,0.05492173996140795,-3.078528571074554,0.6248385749736269,-0.00031854457906093546,-0.006757127646873192,-0.00149191981063208,-0.03919768622122821,-0.0073467204479733626,0.021482994962653313,-0.0011807806174870634,0.3265605568885803,-1.1462131303599854,1.6686213652240198,-2.0914060078062953,-1.571369473134176,2.3015928268432617,-0.0012300389353185892,0.04871863126754761,0.04819609969854355,-0.11961893737316132,-0.0001123439651564695,-8.575380343245342e-05,-0.07661445438861847,0.363918662071228,-9.615114212036133,0.7016075849533081,47.700321197509766,-0.5871106386184692,-3.361025810241699,-1.5726244449615479,-0.6138861775398254,-0.027493461966514587,-0.19763070344924927,24.1875,25.0625,24.0625,26.25,26.75,27.1875
1.0,-1.0607764979595717,-1.3291827682142585,-0.5977204210094844,-0.04819078388191977,0.008254418086979218,-0.03987696648852203,-0.5386640685601625,-0.324402544589895,0.05482667353530049,-3.0785284094129355,0.6248193749368736,-0.00029300338629737474,-0.0066889166316407055,-0.0014597577178135613,-0.03905329166649014,-0.007536707453368518,0.022079337218907962,-0.00119008081115824,0.32657256722450256,-1.1461054545691987,1.668741528187887,-2.0916458568968714,-1.5713813940631312,2.3015928268432617,-0.001237871591001749,0.04810246825218201,0.04889485239982605,-0.12032725661993027,-0.00012409845658112317,-8.460220851702616e-05,-0.07661445438861847,0.38307225704193115,-9.615114212036133,0.7239871025085449,47.72270965576172,-0.571527898311615,-3.1929426193237305,-1.6259952783584595,-0.5708039999008179,-0.024511687457561493,-0.21454522013664246,24.1875,25.0625,24.0625,26.25,26.75,27.1875
1.0,-0.7841030288050375,-1.2790877014444804,-0.608309024674677,-0.033572193173829104,-0.0021263726600117203,-0.032938404289345524,-0.5386846695051879,-0.3244173718069469,0.054753095909555266,-3.0785645838995785,0.6247122532970789,-0.00018023768628196073,-0.005559050714044241,-0.0006866972624163957,-0.04117500393645927,-0.005634685668645028,0.016486303901461066,-0.0017881385215522232,0.32659634947776794,-1.1459966760924836,1.6688135305987757,-2.09189571956777,-1.5714057127581995,2.3015451431274414,-0.0018363960552960634,0.050686806440353394,0.04949772730469704,-0.11760687083005905,-0.00012385632726363838,-8.348115807166323e-05,-0.07661445438861847,0.3447650372982025,-9.653421401977539,0.7060845494270325,47.702110290527344,-0.5383638739585876,-3.3150794506073,-1.615586519241333,-0.5527170300483704,-0.03868953883647919,-0.20231853425502777,24.1875,25.0625,24.0625,26.25,26.75,27.1875
1.0,0.086227615108871,-0.6755198476489417,-0.3241348140561154,-0.026348960514415525,-0.008341048178881785,-0.043083288344643055,-0.538699885318896,-0.32439925368123507,0.05465855429507366,-3.078541852981124,0.6248227022998624,-0.00018201318472472902,-0.004636399152720316,-0.0004222315990268546,-0.04162798321914889,-0.004543975799341134,0.01341889763728947,-0.0016901111500277105,0.326560378074646,-1.1458768111518403,1.6689098517047327,-2.0921107731261195,-1.5714057127581995,2.3015809059143066,-0.0017386170802637935,0.0509178601205349,0.049532074481248856,-0.11461692303419113,-0.00016503500228282064,-8.238937152782455e-05,0.019153613597154617,0.325611412525177,-9.461885452270508,0.7351769208908081,47.71464920043945,-0.5493935346603394,-3.401277542114258,-1.5892183780670166,-0.5989682078361511,-0.03028755821287632,-0.1936885118484497,24.1875,25.0625,24.0625,26.25,26.75,27.1875
