Tylouw/Master_Thesis_Code/test_recorded_data/real_test11/sample_6_session_2.csv
timestamp[s],tcp_force_x[N],tcp_force_y[N],tcp_force_z[N],tcp_force_rx[Nm?],tcp_force_ry[Nm?],tcp_force_rz[Nm?],tcp_pose_x[m],tcp_pose_y[m],tcp_pose_z[m],tcp_pose_rx[rot_vec_x],tcp_pose_ry[rot_vec_y],tcp_pose_rz[rot_vec_z],tcp_velo_x[m/s],tcp_velo_y[m/s],tcp_velo_z[m/s],tcp_velo_rx[rot_vec_x/s],tcp_velo_ry[rot_vec_y/s],tcp_velo_rz[rot_vec_z/s],q1[rad],q2[rad],q3[rad],q4[rad],q5[rad],q6[rad],qd1[rad/s],qd2[rad/s],qd3[rad/s],qd4[rad/s],qd5[rad/s],qd6[rad/s],tool_acc_x,tool_acc_y,tool_acc_z,current_of_whole_robot[A],voltage_of_whole_robot[V],current_J1[A],current_J2[A],current_J3[A],current_J4[A],current_J5[A],current_J6[A],temp_J1[C],temp_J2[C],temp_J3[C],temp_J4[C],temp_J5[C],temp_J6[C]
8.549832e-07,-0.045781754,-0.21160875,1.1077579,-0.010258495,0.013811901,0.017741162,-0.38107017,-0.34854722,0.05999993,-3.078555,0.62486565,-0.00011640696,0.0018843806,0.0009916112,-0.0021705662,0.002012634,-0.0041004615,4.5338144e-05,0.47782204,-1.4259576,1.9576668,-2.1008093,-1.5707573,2.452764,-8.677387e-05,0.00076555455,0.0041714986,-0.00037074642,0.00010645732,-0.00013420556,0.05746084,0.15322891,-8.714894,0.70608455,47.755844,-0.3206232,-2.7055364,-2.5028358,-0.47252858,0.09455184,-0.024506953,24.5625,24.875,24.25,26.0625,26.0625,26.375
0.002054359,0.21102451,-0.19563797,0.85390085,-0.0025120212,0.022054391,0.012271529,-0.3810828,-0.34854034,0.05999953,-3.078563,0.6249447,-7.075806e-05,-0.0007658411,-0.0003901588,-0.0030807802,-0.001236278,0.0021245417,4.6306963e-05,0.47779807,-1.4259683,1.9576916,-2.1008608,-1.5707573,2.4527884,-8.5132306e-05,0.0043961825,0.0046466747,-0.011498362,0.00010439924,-0.00013095258,0.1340753,0.095768064,-8.6574335,0.82022345,47.770176,-0.2784081,-2.7715428,-2.4675255,-0.4102665,0.09657417,-0.045479216,24.5625,24.875,24.25,26.0625,26.0625,26.375
0.004055011,-0.17544031,-0.100503825,1.03475,-0.006413706,0.009113284,0.009729088,-0.38104957,-0.34853852,0.059954345,-3.078542,0.6249212,-0.00017973421,-0.0017241157,-0.00088965165,-0.0028234199,-0.0025113164,0.004575193,6.551282e-05,0.4778101,-1.4259323,1.9577621,-2.1008976,-1.5707334,2.4527884,-8.35516e-05,0.0048242477,0.004194048,-0.014236298,0.00010241905,-0.00014773551,0.076614454,0.21068975,-8.676587,0.77545905,47.779133,-0.2938371,-3.129342,-2.7090006,-0.31031677,0.09293893,-0.030058814,24.5625,24.875,24.25,26.0625,26.0625,26.375
0.006054352,0.14558695,0.27624545,1.1294423,0.009512662,0.00044202534,0.013625837,-0.381063,-0.34852332,0.0599586,-3.0785303,0.62488,-0.00015793153,-0.0013232188,-0.0006832467,-0.0012238036,-0.002194501,0.003967133,6.436664e-05,0.47778615,-1.4259331,1.9577502,-2.1008832,-1.5707573,2.4527402,-8.202862e-05,0.0021755232,0.0023871532,-0.00909505,0.00010875667,-0.00014561757,0.095768064,0.21068975,-8.561666,0.7642693,47.765697,-0.29748583,-3.0142846,-2.5800726,-0.3242243,0.080731474,-0.032315865,24.5625,24.875,24.25,26.0625,26.0625,26.375
0.008053715,0.80279404,0.8247197,0.5718409,0.044392653,-0.01144052,0.015087097,-0.38107353,-0.34854227,0.05996863,-3.078563,0.62490547,-8.63809e-05,-0.0005142114,-0.000264562,-0.0007351403,-0.0010290495,0.0017223506,6.195588e-05,0.4778101,-1.4259336,1.9577383,-2.1009295,-1.5707573,2.452776,-8.05602e-05,0.0010239994,0.001556002,-0.004583097,0.00011456637,-0.00014241072,-0.05746084,0.19153613,-8.772355,0.77545905,47.747787,-0.3139637,-2.9174604,-2.538049,-0.37071964,0.10013422,-0.031417657,24.5625,24.875,24.25,26.0625,26.0625,26.375
0.0100536905,0.40031144,1.0752078,0.26460057,0.04986098,-0.025937013,0.015672442,-0.38107115,-0.3485432,0.05996886,-3.0785646,0.6248485,-7.402053e-05,-0.00042853827,-0.00021967437,0.00014891227,-0.0011434216,0.0019529994,6.9662936e-05,0.47782204,-1.4259341,1.9577383,-2.100929,-1.5707697,2.452752,-7.924075e-05,-0.00047613028,0.0007877853,-0.0025721553,0.0001130196,-0.00014904975,0.019153614,0.076614454,-9.078813,0.7105615,47.71017,-0.5883281,-2.1007981,-3.1640491,-0.41397494,0.10557902,-0.06326278,24.5625,24.875,24.25,26.0625,26.0625,26.375
0.01205339,0.54573214,0.14564875,0.002332596,0.023039982,-0.0014307651,0.016363299,-0.38107347,-0.3485377,0.059957355,-3.0785275,0.6248792,-0.00013335895,-0.0021345932,-0.0010716383,-0.0016428127,0.0005613065,-0.0013574193,0.000115207775,0.47781008,-1.4258956,1.9577125,-2.1008933,-1.5707697,2.452764,-0.00014990453,0.008154357,-0.005199698,-0.0014916216,0.00011106059,-0.00026107777,0.17238252,0.076614454,-9.136273,0.7239871,47.747787,-0.6914398,-2.0621877,-3.343798,-0.40768203,0.090373024,-0.091578856,24.5625,24.875,24.25,26.0625,26.0625,26.375
0.014054056,-0.034268595,-0.09928626,-0.10773346,-0.020198246,0.016835853,0.0068362467,-0.38106143,-0.3485304,0.059927225,-3.0784678,0.6248673,-0.000251645,-0.005445243,0.00036188104,-0.004448826,0.0029881878,-0.0060896194,-0.0021753835,0.47780824,-1.4258318,1.9576977,-2.1008456,-1.5707697,2.4527624,-0.005776799,0.018204974,-0.010333621,-0.0010907486,0.00012071128,-0.0035932972,0.038307227,0.1340753,-9.3661175,0.7642693,47.723602,-0.5575727,-2.8846173,-3.0556068,-0.40960515,0.099507995,-0.09383092,24.5625,24.875,24.25,26.0625,26.0625,26.375
0.016054053,-1.1267492,-1.4704943,-0.1466469,-0.03928803,0.041317992,0.013201351,-0.38106498,-0.3485366,0.0599077,-3.0784698,0.62479,-0.00030881388,-0.0056488034,0.00074851763,-0.004148042,0.002882529,-0.0058906055,0.0012127354,0.47780785,-1.4257722,1.9576744,-2.100845,-1.5707573,2.4527135,-0.0066530704,0.017434726,-0.01024826,-0.0006318042,0.00012251166,-0.007857955,-0.22984336,0.2873042,-9.500193,0.7329411,47.7245,-0.47715956,-2.693276,-3.2857716,-0.40624544,0.10819131,-0.06540938,24.5625,24.875,24.25,26.0625,26.0625,26.375
0.01805421,-1.7128553,-1.7759072,-0.2595167,-0.05978192,0.061384078,0.006556502,-0.38104564,-0.34851736,0.059885498,-3.0784264,0.62485754,-0.00039382506,-0.0054421374,0.0004598399,-0.0036733341,0.0027373657,-0.005752445,0.0026467661,0.47778413,-1.4257724,1.9577225,-2.1008327,-1.5707458,2.4527373,-0.005991067,0.01679693,-0.010843095,0.00041113308,0.00018804458,-0.008630125,-0.2681506,0.34476504,-9.653421,0.7777002,47.7451,-0.617156,-2.4182744,-3.527584,-0.43014866,0.13158166,-0.07576864,24.5625,24.875,24.25,26.0625,26.0625,26.375
0.020053828,-1.1766996,-1.6422408,-0.44032636,-0.054228343,0.07994885,-0.007281955,-0.38105023,-0.34853318,0.0598776,-3.0784268,0.62481976,-0.00040807604,-0.0069994954,-0.0002449319,-0.0032804438,0.0021967466,-0.0048499424,0.0015419032,0.47780794,-1.4257237,1.9576849,-2.1008322,-1.5707458,2.4527376,-0.0062202145,0.019349571,-0.014711931,0.0006772107,0.00024585245,-0.007752217,-0.47884035,0.4405331,-9.80665,0.75755644,47.734352,-0.71790934,-2.3638391,-3.4996433,-0.4321046,0.12844633,-0.08957721,24.5625,24.875,24.25,26.0625,26.0625,26.375
0.022053463,-1.5034056,-1.4437349,-0.5675631,-0.043710276,0.061900973,-0.0017754579,-0.38105386,-0.34853053,0.059864722,-3.0784018,0.6248537,-0.00050582254,-0.007629429,-0.0002540223,-0.003494035,0.0012571138,-0.0067551774,0.00015630046,0.4777834,-1.4256752,1.9576482,-2.1007845,-1.5707206,2.4527373,-0.007899047,0.021099167,-0.016516984,0.0019864393,0.001954714,-0.008047922,-0.51714754,0.45968673,-9.80665,0.79560274,47.745995,-0.71987814,-2.3894038,-3.4480088,-0.432427,0.12703304,-0.12304363,24.5625,24.875,24.25,26.0625,26.0625,26.375
0.024054067,-0.7390254,-1.1268775,-0.63287395,-0.03964695,0.0682887,-0.016289197,-0.3810849,-0.34853527,0.059864182,-3.0784113,0.6248367,-0.0004649404,-0.009215086,-0.0003278372,-0.0027884936,-0.00054723234,-0.005317664,-0.00027525646,0.4777708,-1.425627,1.9576,-2.1008084,-1.5707325,2.452713,-0.009843465,0.02154947,-0.018516824,0.0014261121,0.0028898304,-0.009561375,-0.51714754,0.49799395,-9.902418,0.7933669,47.711964,-0.7682712,-2.3578563,-3.4880486,-0.43589836,0.122386545,-0.12407982,24.5625,24.875,24.25,26.0625,26.0625,26.375
0.026053665,-1.2528615,-1.1707199,-0.5742695,-0.04527405,0.05377052,-0.018896239,-0.38112324,-0.3485194,0.059861306,-3.0783896,0.6248503,-0.00044131052,-0.00994422,-0.0004977352,-0.0025187773,-0.00081381714,-0.0043087127,0.0014961106,0.4777226,-1.425579,1.9575518,-2.1008084,-1.5707563,2.452676,-0.010065115,0.022132434,-0.019704899,0.001013109,0.0026580032,-0.011553165,-0.5554548,0.49799395,-9.9790325,0.81351066,47.728977,-0.7770921,-2.3120677,-3.55051,-0.4274013,0.11944044,-0.110741735,24.5625,24.875,24.25,26.0625,26.0625,26.375
0.028053232,-1.0768802,-0.9452321,-0.44868204,-0.04665385,0.063205875,-0.04433424,-0.38111392,-0.34851658,0.059819587,-3.078348,0.6247463,-0.00053075893,-0.011436588,-0.00035306404,-0.002360493,-0.00071980344,-0.0032872555,0.0011865597,0.47773418,-1.4254944,1.9575509,-2.1008089,-1.5707687,2.4526281,-0.011341534,0.023805546,-0.021897642,0.00067056605,0.0020978993,-0.012517673,-0.61291564,0.36391866,-9.80665,0.7463667,47.7254,-0.7518267,-2.3201883,-3.551971,-0.44653907,0.1304073,-0.097874895,24.5625,24.875,24.25,26.0625,26.0625,26.375
0.030053563,-0.82987785,-0.89448756,-0.50279737,-0.029903855,0.07690357,-0.05028383,-0.38116014,-0.3485286,0.059834674,-3.078397,0.62489074,-0.0005302144,-0.012925164,-0.000645635,-0.0021280025,-0.0011665956,-0.0022066147,0.00065367797,0.47767398,-1.4254578,1.9574775,-2.1008208,-1.5707091,2.4526517,-0.012129597,0.025785025,-0.024582414,0.0002120106,0.0019913798,-0.01277078,-0.57460845,0.3256114,-9.691729,0.71279734,47.719128,-0.75368077,-2.2461371,-3.511153,-0.42568946,0.13216738,-0.1253203,24.5625,24.875,24.25,26.0625,26.0625,26.375
0.03205331,-1.6094514,-0.88422954,-0.47732493,1.4296283e-05,0.054995105,-0.041685507,-0.38117465,-0.34852925,0.05981445,-3.07839,0.6248127,-0.00057446066,-0.014166296,-0.0007195295,-0.0018820825,-0.0014423485,-0.0015285427,-0.0001644103,0.47766164,-1.4253856,1.9574412,-2.1008208,-1.5707091,2.4525917,-0.013100784,0.02724521,-0.026822884,0.0002636202,0.001919289,-0.0129224565,-0.45968673,0.1340753,-9.595961,0.784413,47.73077,-0.8232266,-2.329784,-3.4962487,-0.42052606,0.13961744,-0.13322988,24.5625,24.875,24.25,26.0625,26.0625,26.375
0.034054276,-1.0677187,-0.2389905,-0.28286,0.013640652,0.052664764,-0.022770712,-0.3812127,-0.3485337,0.059820145,-3.078384,0.6247928,-0.0005369929,-0.015434055,-0.0008882717,-0.0015083747,-0.0029562707,-0.0011767218,-0.0013020308,0.47764912,-1.4253253,1.9573568,-2.1008089,-1.570732,2.4525676,-0.014739338,0.028329514,-0.02891401,0.00025743176,0.0030974126,-0.013424517,-0.34476507,0.076614454,-9.595961,0.74413085,47.707485,-0.87236136,-2.26607,-3.543563,-0.4140736,0.14183101,-0.14597866,24.5625,24.875,24.25,26.0625,26.0625,26.375
0.036053985,-0.9533509,0.21434617,-0.21838786,0.0254481,0.03335753,-0.025615828,-0.38126877,-0.34856236,0.05984481,-3.07847,0.62484866,-0.00044115496,-0.01710812,-0.0017821726,-0.00057886005,-0.0051107593,0.0004269261,-0.0010504099,0.47762492,-1.4252889,1.9572724,-2.1008685,-1.5706962,2.4525673,-0.015458322,0.029669931,-0.03253723,0.00012189867,0.0042665647,-0.014394954,-0.3256114,0.076614454,-9.634268,0.779936,47.71286,-0.84413415,-2.272859,-3.3851686,-0.4033622,0.119315654,-0.1474937,24.5625,24.875,24.25,26.0625,26.0625,26.375
0.038053565,-0.2767217,0.5506836,-0.24877203,0.021838805,0.038705047,-0.035314232,-0.38128036,-0.3485592,0.05981284,-3.0784285,0.6248023,-0.0005692885,-0.017963452,-0.0019444749,-0.00065305165,-0.0058851875,0.0001026434,-0.0009395417,0.47760046,-1.4251803,1.9572109,-2.1008208,-1.5706838,2.4525192,-0.016501673,0.031244462,-0.034162045,0.00010137176,0.005097941,-0.015550177,-0.21068975,-0.05746084,-9.576807,0.7396539,47.70211,-0.821103,-2.2893243,-3.4167137,-0.38687027,0.11536214,-0.16202074,24.5625,24.875,24.25,26.0625,26.0625,26.375
0.040053263,-0.5331327,0.29691172,-0.3028697,0.02048881,0.022732785,-0.032844044,-0.3813312,-0.34855437,0.059838254,-3.0784454,0.6248634,-0.0004849844,-0.01889547,-0.0025057613,-0.00016308618,-0.0074779694,0.0006780716,-0.0016377178,0.47755226,-1.4251682,1.9571389,-2.1008208,-1.5706953,2.452507,-0.017109422,0.03208922,-0.03624332,9.069036e-05,0.0062446687,-0.015460488,-0.22984336,-0.076614454,-9.557653,0.7530795,47.692257,-0.84710604,-2.2742028,-3.385802,-0.37356687,0.08530384,-0.14529824,24.5625,24.875,24.25,26.0625,26.0625,26.375
0.04205377,-0.24263126,0.0450294,-0.07113606,0.009945613,0.042083446,-0.043752506,-0.3813503,-0.34854883,0.059823994,-3.0784202,0.62481976,-0.00049099815,-0.020034125,-0.0030737333,0.00029351763,-0.0085573895,0.0014579552,-0.0031223278,0.4775402,-1.4251078,1.9571027,-2.1008208,-1.5707191,2.452471,-0.017540338,0.033467196,-0.038874958,0.00015327895,0.0068395864,-0.014406587,-0.17238252,-0.038307227,-9.5385,0.71279734,47.711063,-0.7732035,-2.2243855,-3.4531875,-0.361423,0.07754711,-0.14746147,24.5625,24.875,24.25,26.0625,26.0625,26.375
0.04405364,-0.43137598,-0.14896931,-0.28854534,-0.0017600654,0.043101627,-0.030676536,-0.38142684,-0.348561,0.059843518,-3.0784662,0.6249651,-0.00043676744,-0.021223038,-0.0030746432,0.000992538,-0.00938717,0.0028084859,-0.0056269635,0.47746775,-1.4250358,1.9569815,-2.100845,-1.5706834,2.4524834,-0.018707946,0.03361686,-0.04065688,0.00020544753,0.006954239,-0.013068369,-0.21068975,0.05746084,-9.481039,0.7150385,47.75316,-0.7622851,-2.1229444,-3.394189,-0.3676579,0.06616794,-0.17435676,24.5625,24.875,24.25,26.0625,26.0625,26.375
0.046053413,-0.7404308,-0.40270397,-0.22684862,-0.0015566071,0.033550072,-0.023805091,-0.38147056,-0.34857914,0.059855342,-3.078503,0.6249923,-0.00041759753,-0.022323899,-0.0033819096,0.0013034792,-0.009681424,0.0036307506,-0.0063233953,0.4774437,-1.4249755,1.9568857,-2.100845,-1.570659,2.4524717,-0.019100236,0.03504669,-0.04301409,0.00026824392,0.0068335626,-0.012762358,-0.15322891,0.0,-9.576807,0.784413,47.72002,-0.8630972,-2.1216888,-3.4172134,-0.36638948,0.078054026,-0.18411085,24.5625,24.875,24.25,26.0625,26.0625,26.375
0.048054423,-0.614793,-0.8047394,-0.396318,0.0038197127,0.03489576,-0.024865134,-0.38150454,-0.3485877,0.059857223,-3.0785077,0.6249741,-0.00044595264,-0.02268084,-0.0035192603,0.00014369274,-0.008838107,0.0013782557,-0.006548836,0.47741964,-1.4249026,1.9567899,-2.1008089,-1.5706471,2.4524357,-0.019370656,0.038682405,-0.044586733,0.0005925784,0.0071168956,-0.012806661,-0.11492168,0.11492168,-9.595961,0.79560274,47.74241,-0.77175474,-2.182769,-3.33105,-0.35138574,0.07561581,-0.1841934,24.5625,24.875,24.25,26.0625,26.0625,26.375
0.05005344,-0.42012906,-0.91267675,-0.37578672,-0.0018380026,0.028164282,-0.0243218,-0.38152245,-0.34857628,0.05983231,-3.0784705,0.62500596,-0.00050366553,-0.023795797,-0.0029807845,0.0006003112,-0.007670038,0.0017126484,-0.0074294815,0.47738308,-1.4248302,1.9567641,-2.100808,-1.5706476,2.4524238,-0.020582603,0.039502323,-0.046982415,0.0024125949,0.005924241,-0.013135044,-0.095768064,0.2681506,-9.576807,0.7665104,47.760323,-0.75159967,-2.2020311,-3.4474654,-0.35728383,0.08029911,-0.18557645,24.5625,24.875,24.25,26.0625,26.0625,26.375
0.05205396,-0.19836102,-0.9922251,-0.29950917,-0.014096299,0.03074115,-0.02855502,-0.3816078,-0.34857345,0.05985344,-3.0784757,0.625026,-0.00039469064,-0.024756243,-0.0027626639,0.001801351,-0.007534965,0.0039321003,-0.00785394,0.47732294,-1.4247468,1.9566206,-2.1008074,-1.5706843,2.4523757,-0.021111531,0.038337406,-0.048600696,0.0032904898,0.0047842194,-0.0132365925,-0.095768064,0.34476504,-9.557653,0.7239871,47.76928,-0.79117215,-2.0686991,-3.4247808,-0.3684001,0.08592357,-0.20887236,24.5625,24.875,24.25,26.0625,26.0625,26.375
0.054053545,-0.62064594,-1.1458566,-0.39828658,-0.026593568,0.031667717,-0.025481079,-0.38164112,-0.3486016,0.059855502,-3.0785313,0.62501854,-0.0004125211,-0.025667185,-0.0026684038,0.0012615591,-0.006312554,0.0038398223,-0.008245894,0.4773108,-1.424674,1.9565357,-2.1008198,-1.5706362,2.4523518,-0.02144047,0.040985253,-0.050327957,0.0030179431,0.0037368985,-0.013170202,-0.095768064,0.38307226,-9.519346,0.7933669,47.71823,-0.81242955,-2.0207424,-3.4556394,-0.3693553,0.10502149,-0.22316135,24.5625,24.875,24.25,26.0625,26.0625,26.375
0.05605327,-0.8588692,-1.5448875,-0.27664447,-0.03148604,0.031465627,-0.029582307,-0.38172108,-0.34859136,0.05985578,-3.078503,0.62510806,-0.0004015142,-0.026884329,-0.0028648456,0.0014193681,-0.0062744776,0.005009072,-0.007899559,0.4772267,-1.4245536,1.9563922,-2.100796,-1.5706486,2.4523273,-0.021836784,0.04263516,-0.052451577,0.0024727525,0.0031604343,-0.013910369,-0.076614454,0.36391866,-9.500193,0.7642693,47.7451,-0.81623864,-2.0451188,-3.446693,-0.35515895,0.115741886,-0.23350066,24.5625,24.875,24.25,26.0625,26.0625,26.375
0.058054052,-0.5899912,-1.7013216,-0.28649926,-0.038093943,0.036962092,-0.03337137,-0.38176385,-0.34861064,0.05986509,-3.078547,0.6251175,-0.00043328293,-0.029296419,-0.0037365472,0.0022588384,-0.0075029237,0.007029767,-0.0081652235,0.47719043,-1.4244809,1.9562825,-2.1007717,-1.5706009,2.4522913,-0.02261452,0.045518484,-0.057653308,0.0024322113,0.003312544,-0.014419605,-0.1340753,0.45968673,-9.519346,0.78217715,47.7451,-0.75357723,-2.1041648,-3.31383,-0.324225,0.12275161,-0.21159771,24.5625,24.875,24.25,26.0625,26.0625,26.375
0.060053464,-0.4505439,-1.3637168,-0.12689249,-0.033030543,0.035635535,-0.03311039,-0.38184032,-0.34861672,0.059891045,-3.0785868,0.62522155,-0.00031881043,-0.028419636,-0.003207408,0.00034566177,-0.0063764723,0.0030643223,-0.007873347,0.47713023,-1.4244322,1.9561757,-2.100808,-1.5706004,2.452291,-0.02327549,0.04790308,-0.05600482,0.0024362174,0.0041382136,-0.0153740235,-0.11492168,0.47884035,-9.423578,0.779936,47.7254,-0.81813073,-2.1497507,-3.391717,-0.33276433,0.1314732,-0.23821592,24.5625,24.875,24.25,26.0625,26.0625,26.375
0.06205378,-0.75107217,-1.7407209,-0.24422152,-0.008747688,0.016704746,-0.025801042,-0.3818716,-0.34861088,0.05988792,-3.078552,0.6251954,-0.00033724896,-0.029721977,-0.0039244327,0.0022266884,-0.00865044,0.0059151542,-0.0076665585,0.47710606,-1.4243605,1.9560903,-2.1007602,-1.5706238,2.452255,-0.023660103,0.046539884,-0.058907207,0.0031222578,0.004843891,-0.015965711,-0.076614454,0.38307226,-9.442732,0.8314132,47.760323,-0.7927975,-2.0571291,-3.4402008,-0.3507497,0.11682298,-0.23763385,24.5625,24.875,24.25,26.0625,26.0625,26.375
0.06405357,-0.11717645,-0.8490893,-0.11229924,-0.017259222,0.02462057,-0.025096769,-0.38193586,-0.34861487,0.05986374,-3.0785465,0.62519306,-0.00037950257,-0.031253494,-0.004796644,0.002353713,-0.009671992,0.005905559,-0.0076912413,0.47704595,-1.4242039,1.9559692,-2.1007712,-1.5706118,2.4521942,-0.02410892,0.04982855,-0.06304635,0.0035093953,0.005747808,-0.016389076,-0.095768064,0.38307226,-9.461885,0.7239871,47.694946,-0.8003986,-2.026433,-3.3131213,-0.3499569,0.12497707,-0.24180853,24.5625,24.875,24.25,26.0625,26.0625,26.375
0.06605362,-0.20237775,-0.69907624,-0.07155773,-0.014898126,0.024271557,-0.024094269,-0.38200775,-0.3486408,0.059893645,-3.0786242,0.62520903,-0.00028630794,-0.032538272,-0.00525646,0.002229876,-0.009898297,0.006175291,-0.007447371,0.4770098,-1.4241431,1.9558371,-2.100796,-1.5705875,2.4521582,-0.024521928,0.052627526,-0.06589218,0.003213084,0.005819977,-0.0170436,-0.038307227,0.40222588,-9.270349,0.7777002,47.737934,-0.81334203,-2.1346042,-3.2167695,-0.3225103,0.11445664,-0.27104887,24.5625,24.875,24.25,26.0625,26.0625,26.375
0.06805414,-0.32572603,-1.0270005,0.022618515,-0.011514295,0.031378947,-0.02830368,-0.3820962,-0.34866157,0.05991376,-3.0786633,0.62533224,-0.00022400562,-0.032757174,-0.0049967803,0.0015721627,-0.009489827,0.005186347,-0.007433413,0.4769495,-1.4240347,1.9556702,-2.100808,-1.5705637,2.45217,-0.025237788,0.054048643,-0.06594811,0.002914451,0.00591197,-0.017772857,-0.15322891,0.36391866,-9.232041,0.7777002,47.737934,-0.7449665,-2.0395393,-3.3812923,-0.30980468,0.11572169,-0.28557244,24.5625,24.875,24.25,26.0625,26.0625,26.375
0.07005344,-0.37805122,-0.8212414,0.21699993,-0.02107469,0.04057362,-0.033200994,-0.38214865,-0.348691,0.05991915,-3.0786982,0.62526155,-0.0002466691,-0.034247305,-0.0058513153,0.0025072454,-0.010970043,0.006593748,-0.0064539444,0.4769374,-1.4239144,1.9555124,-2.1007717,-1.5705394,2.4521093,-0.025523,0.05539272,-0.06974293,0.0034335232,0.0065738885,-0.019036604,-0.076614454,0.34476504,-9.232041,0.8112748,47.7451,-0.8088577,-2.085166,-3.221632,-0.3000779,0.1126149,-0.2665863,24.5625,24.875,24.25,26.0625,26.0625,26.375
0.07205411,-0.6274209,-0.8476592,0.41253895,-0.007077368,0.028608728,-0.028263543,-0.38223,-0.34868827,0.059940632,-3.078703,0.6253777,-0.00016342466,-0.034657545,-0.006036444,0.0024269437,-0.011434492,0.0053251134,-0.0061378246,0.4768652,-1.423842,1.9553803,-2.1007707,-1.5705513,2.452109,-0.026212055,0.05681054,-0.071455695,0.0046390784,0.0075697284,-0.020042112,-0.11492168,0.30645782,-9.136273,0.7642693,47.698532,-0.8289058,-2.0721388,-3.1667843,-0.30003127,0.11002771,-0.2680853,24.5625,24.875,24.25,26.0625,26.0625,26.375
0.07405362,0.0006879186,-0.45403516,0.4503179,-0.0053988486,0.036394693,-0.027892485,-0.38229007,-0.34870592,0.05993194,3.0787015,-0.6253966,0.0002013759,-0.035021048,-0.00629342,0.0021413679,-0.0113457665,0.0038610494,-0.005591838,0.47681722,-1.4237096,1.9552492,-2.1007707,-1.5705146,2.452073,-0.026470864,0.058845144,-0.07342322,0.0059125107,0.008161915,-0.0208468,-0.19153613,0.30645782,-9.11712,0.8179876,47.737934,-0.85636693,-2.0173514,-3.1798315,-0.31704473,0.09135541,-0.29617345,24.5625,24.875,24.25,26.0625,26.0625,26.375
0.07605413,-0.4153884,-0.52960736,0.3698698,0.012691799,0.021163438,-0.021305168,-0.38237625,-0.3487168,0.059950527,3.0786638,-0.62542653,0.00014174501,-0.036396157,-0.0065773986,0.00253847,-0.011599911,0.0050655687,-0.004936587,0.47675693,-1.4236013,1.9550804,-2.1007593,-1.5705146,2.4520364,-0.027013272,0.060443226,-0.0761469,0.0058530946,0.007830447,-0.022041945,-0.17238252,0.21068975,-9.11712,0.7597976,47.71017,-0.87213767,-2.0359926,-3.1597009,-0.3169536,0.08896529,-0.2944273,24.5625,24.875,24.25,26.0625,26.0625,26.375
0.07805389,-0.5520608,-0.11643268,0.40037614,0.008205937,0.017020421,-0.024313027,-0.38242015,-0.34872854,0.05993271,3.0787287,-0.6253048,0.0001891533,-0.037553456,-0.0070594614,0.0026248083,-0.011844425,0.005732716,-0.004157147,0.47674492,-1.4234568,1.9549478,-2.100723,-1.5705265,2.4519403,-0.027161105,0.06260874,-0.07876959,0.0056055584,0.0077342964,-0.022967761,-0.15322891,0.15322891,-9.11712,0.8179876,47.72719,-0.91811067,-2.0628707,-3.1392121,-0.29118967,0.094387904,-0.28291383,24.5625,24.875,24.25,26.0625,26.0625,26.375
0.08005344,-0.7062455,-0.2614617,0.27622914,0.010459108,0.019878928,-0.027312886,-0.38252634,-0.34875384,0.059953246,3.0786293,-0.62534153,0.00013381852,-0.038255308,-0.0077204998,0.0030497198,-0.012999811,0.0066482243,-0.0034206707,0.47666097,-1.4233248,1.9547557,-2.1007469,-1.5704788,2.451892,-0.027016694,0.06335213,-0.08051883,0.005267478,0.008339103,-0.023559032,-0.15322891,0.17238252,-9.136273,0.800085,47.73883,-0.9680769,-1.9406371,-3.0636363,-0.28818357,0.0992323,-0.29425913,24.5625,24.875,24.25,26.0625,26.0625,26.375
0.082053214,-0.9510318,-0.58228886,0.06965743,0.01340231,0.02464081,-0.02338296,-0.38260373,-0.3487447,0.05993577,3.078649,-0.62542176,0.00014359839,-0.038611334,-0.0072335633,0.00087857986,-0.010224673,0.0025424145,-0.003699185,0.4765887,-1.4231668,1.9546121,-2.1007345,-1.5705026,2.4518673,-0.027825857,0.06896846,-0.08221225,0.0062681804,0.0077556088,-0.02408751,-0.34476507,0.1340753,-9.212888,0.8314132,47.72629,-0.9055394,-2.2413878,-3.072715,-0.2968895,0.084072985,-0.31134242,24.5625,24.875,24.25,26.0625,26.0625,26.375
0.0840539,-0.58272934,-0.3669145,0.1907423,0.0045641265,0.042746544,-0.025357613,-0.38267815,-0.34875828,0.059954353,3.078596,-0.6254689,0.000121460136,-0.039546356,-0.007679883,0.0032841372,-0.012190221,0.0061513097,-0.003543532,0.4765287,-1.4230717,1.9544557,-2.1007106,-1.5704788,2.4518435,-0.027944427,0.06571757,-0.0842733,0.007472453,0.007846443,-0.024361312,-0.30645782,0.21068975,-9.155427,0.7777002,47.716442,-0.96510035,-1.9527057,-3.0617044,-0.30387834,0.09611332,-0.32212543,24.5625,24.875,24.25,26.0625,26.0625,26.375
0.08605328,-0.96640164,-0.87258375,0.11320453,0.008008777,0.033102192,-0.022740213,-0.38275072,-0.34878895,0.059953198,3.0785625,-0.6254613,0.00014563628,-0.03972608,-0.007839271,0.0025276365,-0.011614154,0.0037388206,-0.002232033,0.47649264,-1.4229146,1.954276,-2.1006978,-1.5704426,2.451807,-0.028207839,0.068519615,-0.08607676,0.00888112,0.008441085,-0.025935967,-0.21068975,0.19153613,-9.232041,0.78217715,47.72092,-1.0209736,-1.9911504,-3.069427,-0.32093132,0.089708894,-0.3071301,24.5625,24.875,24.25,26.0625,26.0625,26.375
0.088053614,-0.7315599,-0.46497226,0.17618649,-0.002487117,0.034525823,-0.023715824,-0.38282984,-0.3487982,0.059951134,3.0785527,-0.6254211,0.00017281603,-0.04004458,-0.007493328,0.00044311292,-0.010051212,-0.00017515307,-0.0025906505,0.47642034,-1.4227687,1.9541086,-2.100674,-1.5704182,2.451711,-0.029371023,0.07356669,-0.08713938,0.009091494,0.008845904,-0.026739877,-0.19153613,0.21068975,-9.212888,0.7597976,47.723602,-1.0063932,-2.077819,-3.1320243,-0.30981043,0.06554518,-0.3249684,24.5625,24.875,24.25,26.0625,26.0625,26.375
0.090053394,-0.9243359,-0.89226836,0.04006665,-0.0043364405,0.031930387,-0.025082152,-0.38287464,-0.3488055,0.05991908,3.0786047,-0.62541234,0.00029942463,-0.040918674,-0.008025856,0.0020673003,-0.012084471,0.0029540076,-0.0025137155,0.47638416,-1.4225893,1.9539632,-2.1006143,-1.5704063,2.4516628,-0.029462153,0.07152165,-0.08844241,0.008725761,0.009211829,-0.026908973,-0.21068975,0.22984336,-9.251195,0.7597976,47.71465,-1.0046146,-2.0257142,-3.1654391,-0.3063975,0.07136734,-0.3392632,24.5625,24.875,24.25,26.0625,26.0625,26.375
0.092053995,-1.2456131,-0.80691653,-0.10140521,-0.006545948,0.022377321,-0.018518746,-0.3829827,-0.3488252,0.059961457,3.0785155,-0.6254324,0.00016641249,-0.04196756,-0.0081082415,0.001298317,-0.010852247,0.0017677367,-0.0027197981,0.47631213,-1.4225038,1.9537715,-2.1006262,-1.5703949,2.4516146,-0.029915173,0.07544118,-0.09129646,0.009282539,0.008659575,-0.027152106,-0.13407528,0.22984336,-9.308656,0.86945957,47.717335,-1.046501,-2.043427,-3.2120667,-0.3113466,0.077123,-0.3247746,24.5625,24.875,24.25,26.0625,26.0625,26.375
0.09405366,-0.7158307,-1.1052419,0.012030936,-0.0023371927,0.03280155,-0.019575145,-0.38308612,-0.3488429,0.059955034,3.0784845,-0.625464,0.00015249217,-0.041967586,-0.008104665,0.00022606913,-0.011052328,-0.0002282908,-0.0031988032,0.4762399,-1.422311,1.9535683,-2.1006382,-1.570382,2.4515662,-0.030619359,0.07758338,-0.09117721,0.008700357,0.00975245,-0.02737828,-0.11492168,0.3256114,-9.251195,0.79560274,47.711964,-1.0855447,-2.1179788,-3.2251873,-0.31962848,0.07181266,-0.34063393,24.5625,24.875,24.25,26.0625,26.0625,26.375
0.09605425,-0.37878165,-0.8759967,0.028967379,-0.008454454,0.03384065,-0.022881271,-0.38317692,-0.348838,0.059974384,3.078476,-0.625481,0.000112422706,-0.042502493,-0.007968373,-0.00015561812,-0.010455801,-0.00059986295,-0.0021535128,0.47615564,-1.4222022,1.953389,-2.1005905,-1.5703944,2.4514937,-0.031109361,0.07918399,-0.09213424,0.008662587,0.0093915975,-0.028912129,-0.17238252,0.30645782,-9.3661175,0.7463667,47.704796,-1.0981436,-2.108094,-3.3791971,-0.31623936,0.061292887,-0.3804782,24.5625,24.875,24.25,26.0625,26.0625,26.375
0.09805357,-0.5534106,-0.6636421,-0.061021704,-0.0033078815,0.022121089,-0.025682075,-0.3832705,-0.34886575,0.05997595,3.0784295,-0.62545246,0.00010294142,-0.044269484,-0.008209739,0.0006247764,-0.010148109,0.001515958,-0.00097475166,0.47609547,-1.4220337,1.9531955,-2.1006024,-1.5703586,2.4514217,-0.031488754,0.08073175,-0.09578186,0.009029497,0.008142889,-0.030466288,-0.076614454,0.30645782,-9.32781,0.78888994,47.71465,-1.0832916,-2.1954699,-3.1755104,-0.31305164,0.08031951,-0.35854757,24.5625,24.875,24.25,26.0625,26.0625,26.375
0.1000541,-0.23586546,-0.46007013,-0.07930514,-0.008330103,0.024779178,-0.023135075,-0.3833504,-0.34887335,0.05996989,3.0784497,-0.6254373,0.00013651486,-0.044065278,-0.007743699,-0.0004660833,-0.009024263,-0.00060394214,-0.001733806,0.47603536,-1.4218647,1.9530052,-2.1005538,-1.5703586,2.4513497,-0.032101527,0.08247998,-0.09535343,0.009252622,0.008116404,-0.030320201,-0.095768064,0.28730422,-9.423578,0.8157518,47.73256,-1.1211956,-2.0840845,-3.3945038,-0.3293653,0.08668495,-0.35816228,24.5625,24.875,24.25,26.0625,26.0625,26.375
0.10205381,-0.12628509,-0.5421255,-0.029530693,-0.016058581,0.023714937,-0.023861472,-0.38341773,-0.34888983,0.059944965,3.0784564,-0.6254579,0.00021830095,-0.04509584,-0.0081536975,-0.00032779525,-0.009408966,1.9807545e-05,-0.0029426205,0.47598708,-1.4216721,1.9528364,-2.1005304,-1.5703348,2.4513135,-0.032347504,0.08421358,-0.09762308,0.009058666,0.008165879,-0.029356414,-0.095768064,0.24899697,-9.385271,0.73069996,47.733456,-1.1077558,-2.0840394,-3.3606467,-0.32671872,0.08383362,-0.39026457,24.5625,24.875,24.25,26.0625,26.0625,26.375
0.10405353,-0.12045072,-0.4651119,0.08406793,-0.019348636,0.016029982,-0.029535996,-0.3835428,-0.3489028,0.059958074,3.0783906,-0.62553996,0.00018601875,-0.04515704,-0.00824671,-0.00071033987,-0.009042264,-0.0006809009,-0.0021373373,0.47587925,-1.4214914,1.952597,-2.100518,-1.5703105,2.4512653,-0.032221194,0.08541212,-0.09816534,0.009195073,0.00816195,-0.030034605,-0.019153614,0.24899697,-9.32781,0.78217715,47.737934,-1.1452279,-2.060043,-3.4975781,-0.3044328,0.07828764,-0.4100495,24.5625,24.875,24.25,26.0625,26.0625,26.375
0.10605338,-0.5716725,-1.1349564,-0.16349663,-0.0054096095,0.008274631,-0.01857316,-0.3836315,-0.34893686,0.059969213,3.0783699,-0.6254778,0.00018288502,-0.046308942,-0.0077633606,-0.00075267657,-0.009081472,-0.0008905099,-0.0020234934,0.4758426,-1.4213227,1.9523705,-2.1004822,-1.5702866,2.4511926,-0.03421109,0.086730555,-0.09967154,0.009552444,0.008291414,-0.032137487,0.05746084,0.24899697,-9.385271,0.7642693,47.73077,-1.1041067,-2.0115423,-3.4989471,-0.30738217,0.0749968,-0.4060783,24.5625,24.875,24.25,26.0625,26.0625,26.375
0.1080538,-0.21953177,-0.8784951,-0.026655529,-0.0079327915,0.009823727,-0.028025879,-0.38371223,-0.3489426,0.059971597,3.0783594,-0.6255135,0.00020831564,-0.047622375,-0.008479842,-9.807513e-05,-0.010357036,3.90506e-05,-0.0010877813,0.4757705,-1.4211782,1.9521888,-2.1004345,-1.5702742,2.4511442,-0.034592617,0.08822681,-0.102981545,0.009954526,0.00899338,-0.033454,-0.019153614,0.3256114,-9.308656,0.800085,47.74062,-1.0925989,-2.0299644,-3.5229723,-0.3162336,0.08106503,-0.38228542,24.5625,24.875,24.25,26.0625,26.0625,26.375
0.11005424,-0.12824465,-0.8851947,-0.12891912,-0.0065249186,0.015351454,-0.025564311,-0.383831,-0.3489659,0.05998305,3.0783322,-0.62546927,0.00011053424,-0.047606938,-0.008202298,-0.00089343527,-0.010060793,-0.0010676681,-0.000121688616,0.4757103,-1.4209975,1.9519614,-2.1004584,-1.5702862,2.45106,-0.035216812,0.089403905,-0.10237598,0.009291162,0.00923956,-0.035043996,0.095768064,0.30645782,-9.289502,0.7933669,47.755844,-1.1576133,-1.9516646,-3.6431918,-0.31310079,0.07953301,-0.40545797,24.5625,24.875,24.25,26.0625,26.0625,26.375
0.112053774,-0.41773793,-0.8184,-0.2360152,-0.009823733,0.017913757,-0.020616287,-0.38394183,-0.3489737,0.059979595,3.0783134,-0.6254815,0.00010897619,-0.048535436,-0.009440617,-0.0009793495,-0.009993323,-0.0009422913,0.0035449981,0.47561485,-1.4208043,1.9517454,-2.1004465,-1.5702747,2.4509747,-0.03378365,0.09292931,-0.10630486,0.009616583,0.009115573,-0.037274856,0.076614454,0.30645782,-9.289502,0.80679786,47.761223,-1.2654815,-1.9906398,-3.652923,-0.312818,0.10646535,-0.4016435,24.5625,24.875,24.25,26.0625,26.0625,26.375
0.11405373,-0.6121066,-0.84088683,-0.12191816,-0.0038889493,0.016729653,-0.024566725,-0.3840073,-0.3490047,0.05996575,3.0782905,-0.6254785,0.00018774069,-0.049863108,-0.009216514,0.00050205,-0.012613955,0.0012681477,0.0010228278,0.47557774,-1.4206249,1.9515661,-2.1004221,-1.5702256,2.4509387,-0.03623897,0.090818934,-0.10726567,0.009520137,0.010430251,-0.037209835,0.0,0.2681506,-9.308656,0.84708,47.746887,-1.2302208,-1.9672508,-3.6305995,-0.3111448,0.07637376,-0.39560312,24.5625,24.875,24.25,26.0625,26.0625,26.375
0.1160541,-0.11625024,-0.25605455,-0.1944424,-0.010208916,0.026915591,-0.031437308,-0.38411194,-0.34902018,0.059972234,3.0782912,-0.625421,0.0002263932,-0.051582076,-0.009781088,0.00080461404,-0.012933392,0.0024062903,0.0007062178,0.47549394,-1.4204316,1.9513139,-2.1003506,-1.5702022,2.450819,-0.036644947,0.0935404,-0.111072406,0.00944998,0.01018498,-0.037296724,-0.038307227,0.2681506,-9.385271,0.82694155,47.733456,-1.1794031,-1.8733902,-3.540671,-0.2988276,0.07330933,-0.37956193,24.5625,24.875,24.25,26.0625,26.0625,26.375
0.11805393,-0.7237509,-0.7657212,-0.2930546,-0.0047194436,0.012905489,-0.02381472,-0.38422653,-0.34903917,0.059983987,3.078256,-0.6254319,7.452011e-05,-0.052647706,-0.009376903,0.0009600744,-0.012289027,0.0024508985,0.00261045,0.47544548,-1.420275,1.9511212,-2.1004102,-1.570238,2.450782,-0.037944116,0.09477121,-0.11308744,0.010492032,0.009594436,-0.040497467,-0.1340753,0.28730422,-9.423578,0.85155696,47.746887,-1.1766349,-1.9529681,-3.5024307,-0.31296757,0.07020205,-0.40231508,24.5625,24.875,24.25,26.0625,26.0625,26.375
0.12005371,-1.0752555,-1.2308635,-0.35282812,-0.0050805593,0.014481529,-0.011935126,-0.38432848,-0.34904367,0.059976093,3.0782769,-0.6253777,0.00018441293,-0.054079417,-0.009291594,0.0015210026,-0.01355082,0.0035775385,0.0032462708,0.4753367,-1.4200587,1.9508699,-2.1003144,-1.5702022,2.4506369,-0.03977872,0.09528923,-0.114921086,0.010229821,0.010195013,-0.042968262,-0.22984336,0.3256114,-9.404425,0.7105615,47.72271,-1.1209283,-1.806416,-3.5177565,-0.32202297,0.07913875,-0.36345005,24.5625,24.875,24.25,26.0625,26.0625,26.375
0.12205414,-0.8961803,-0.57651657,-0.3934879,-0.022706883,0.029896041,-0.024848243,-0.38442716,-0.34907475,0.05997512,3.0782628,-0.6253341,0.00014149617,-0.054556217,-0.010148427,0.0015678579,-0.013560263,0.0040506306,0.0061009973,0.47530118,-1.4198657,1.9506539,-2.1003268,-1.5702022,2.450576,-0.038553312,0.097120434,-0.117132924,0.010187305,0.009984242,-0.04459561,-0.22984336,0.2681506,-9.481039,0.83589023,47.768383,-1.2001055,-1.8086336,-3.5791426,-0.31502602,0.08428836,-0.34725994,24.5625,24.875,24.25,26.0625,26.0625,26.375
0.12405351,-1.4417717,-1.38326,-0.5093477,-0.012277971,0.032446112,-0.017114991,-0.38455045,-0.34908158,0.059985884,3.078216,-0.6253047,0.00016217913,-0.0550545,-0.0100964075,0.0011515062,-0.012911468,0.0024378593,0.0073618707,0.47516903,-1.4196848,1.9504136,-2.1002896,-1.5701541,2.4504316,-0.03918724,0.09938974,-0.11913088,0.011650664,0.01014693,-0.046489365,-0.22984336,0.24899697,-9.653421,0.86945957,47.752266,-1.3059254,-1.8303254,-3.5117445,-0.34753272,0.09050127,-0.30943537,24.5625,24.875,24.25,26.0625,26.0625,26.375
0.12605394,-1.4464624,-1.4218156,-0.48735583,-0.017582173,0.041300233,-0.019627366,-0.38466698,-0.34911233,0.05999673,3.0781877,-0.6252791,0.00013017213,-0.05671206,-0.010613784,0.0019513853,-0.015156011,0.0040461197,0.0076633785,0.47510853,-1.4194804,1.9501494,-2.1002662,-1.5701417,2.4503589,-0.04058621,0.10026078,-0.12182942,0.011018744,0.011402564,-0.04818944,-0.2873042,0.2873042,-9.691729,0.8023209,47.747787,-1.2655197,-1.7384251,-3.525049,-0.32439214,0.06462777,-0.29575834,24.5625,24.875,24.25,26.0625,26.0625,26.375
0.12805375,-1.4978766,-1.6251875,-0.5815487,-0.00841697,0.041391216,-0.01916078,-0.38474706,-0.34913248,0.05998208,3.078198,-0.6252434,0.0002264196,-0.058353417,-0.009863873,0.0013111116,-0.014182916,0.0029897387,0.0069170003,0.47504765,-1.419275,1.9499339,-2.1002066,-1.5701059,2.4502745,-0.04315432,0.103564866,-0.12430014,0.011574638,0.011014981,-0.050009668,-0.2681506,0.34476504,-9.653421,0.80679786,47.7254,-1.1702747,-1.7702737,-3.5356236,-0.32784498,0.08055016,-0.27121812,24.5625,24.875,24.25,26.0625,26.0625,26.375
0.13005379,-1.3303359,-1.1002312,-0.40638933,-0.0143884,0.04484143,-0.02481534,-0.38489813,-0.34916723,0.060010396,3.0780954,-0.6252599,0.00015850185,-0.05908248,-0.010093264,0.0005207512,-0.0132162245,0.002216819,0.008925443,0.47493958,-1.4190696,1.949634,-2.1002066,-1.5700577,2.4501898,-0.04306835,0.10690348,-0.12629293,0.011364803,0.010510246,-0.05192902,-0.28730422,0.24899697,-9.768343,0.80456203,47.728977,-1.2466327,-1.8084528,-3.483385,-0.3364678,0.08312684,-0.22323868,24.5625,24.875,24.25,26.0625,26.0625,26.375
0.13205343,-1.1960732,-0.8169964,-0.35531965,-0.01471725,0.04838598,-0.024645487,-0.38499588,-0.3491729,0.05998537,3.0781515,-0.6252125,0.00021958633,-0.062577374,-0.011709504,0.0030323837,-0.017211357,0.007960472,0.009545654,0.4748674,-1.4188292,1.9494046,-2.100159,-1.5700692,2.450081,-0.043978855,0.107787736,-0.13275607,0.010006599,0.011418057,-0.05345795,-0.34476504,0.19153613,-9.634268,0.7665104,47.73256,-1.2428312,-1.8816483,-3.2655919,-0.3117959,0.064724796,-0.18562026,24.5625,24.875,24.25,26.0625,26.0625,26.375
0.13405423,-1.615177,-0.7213538,-0.39465344,-0.005620049,0.041741543,-0.019994162,-0.38511488,-0.34921756,0.060011514,3.0780797,-0.6250825,0.00015120397,-0.06243778,-0.0109208375,0.00013417144,-0.014520377,0.0034921507,0.0091356095,0.474807,-1.4186592,1.9491528,-2.1001713,-1.570022,2.4499488,-0.045008533,0.11315908,-0.13213526,0.009223588,0.011073176,-0.054075476,-0.40222588,0.19153613,-9.5385,0.81351066,47.733456,-1.2179794,-1.9074632,-3.3458185,-0.31337425,0.068539836,-0.18619992,24.5625,24.875,24.25,26.0625,26.0625,26.375
0.13605359,-1.2454109,-0.64923614,-0.29425502,-0.0055717453,0.05969562,-0.027716352,-0.38525075,-0.34923562,0.060029738,3.0780277,-0.62505203,0.00010143318,-0.06476007,-0.011728374,0.002147587,-0.017121088,0.008132985,0.009164945,0.47469887,-1.4184674,1.9488887,-2.1001594,-1.5699977,2.4498284,-0.045800116,0.11257751,-0.13585217,0.0082080485,0.011259423,-0.05489406,-0.47884035,0.24899697,-9.653421,0.77545905,47.74868,-1.226353,-1.942477,-3.2236273,-0.30725142,0.06528017,-0.16358848,24.5625,24.875,24.25,26.0625,26.0625,26.375
0.13805416,-1.5476999,-0.6227973,-0.08433908,-0.014768679,0.056183737,-0.027536139,-0.38539782,-0.34927514,0.06004289,3.0779898,-0.6250072,4.263727e-05,-0.06605625,-0.011775847,0.001899857,-0.016736083,0.0083279675,0.006969072,0.47462645,-1.418214,1.9485654,-2.1001475,-1.5699857,2.449733,-0.046600625,0.11521956,-0.13829951,0.008018068,0.010825738,-0.05349603,-0.47884035,0.2681506,-9.461885,0.8605109,47.734352,-1.2323579,-1.7964454,-3.3084874,-0.31112,0.068341166,-0.13138369,24.5625,24.875,24.25,26.0625,26.0625,26.375
0.1400541,-1.4043432,-0.6785977,-0.058281463,-0.017613085,0.05940375,-0.027857682,-0.3855258,-0.34926903,0.060036022,3.077996,-0.6250284,3.3848726e-05,-0.066615604,-0.011653662,0.0012119112,-0.01585194,0.0067557665,0.0056703533,0.47450635,-1.4179968,1.9483265,-2.1001236,-1.5699977,2.4496255,-0.04726087,0.11791315,-0.14003569,0.008863695,0.010757198,-0.05285645,-0.49799395,0.30645782,-9.404425,0.83365434,47.737038,-1.2021428,-1.8874302,-3.3231072,-0.28532588,0.072708614,-0.13282649,24.5625,24.875,24.25,26.0625,26.0625,26.375
0.14205404,-1.4600658,-0.7456418,-0.20081453,-0.019053396,0.055926405,-0.022004088,-0.38569835,-0.34930375,0.06006976,3.077922,-0.62501305,-0.000112494716,-0.06811356,-0.01175644,0.0014112545,-0.016224371,0.0073985835,0.0045577567,0.47441,-1.4177681,1.9479898,-2.1001356,-1.5699977,2.4495292,-0.048446193,0.11988874,-0.14278908,0.0089005325,0.01079663,-0.05292634,-0.47884035,0.2681506,-9.423578,0.75084364,47.719128,-1.2747862,-1.8157232,-3.2174108,-0.291298,0.057585523,-0.1253123,24.5625,24.875,24.25,26.0625,26.0625,26.375
0.14405388,-1.7512271,-1.1962126,0.12474943,-0.011370579,0.05384323,-0.017359093,-0.38581097,-0.34931135,0.060052864,3.0779188,-0.62499493,-5.1402735e-06,-0.06832518,-0.01108108,0.00031808572,-0.014514242,0.005894592,0.0010330074,0.4742897,-1.4175268,1.947738,-2.100076,-1.56995,2.449398,-0.04926971,0.12200592,-0.14274289,0.008861279,0.009959756,-0.050224606,-0.5363012,0.2681506,-9.32781,0.75084364,47.713753,-1.2428607,-1.8448782,-3.4228907,-0.28181607,0.064746834,-0.12376475,24.5625,24.875,24.25,26.0625,26.0625,26.375
0.1460538,-0.9146456,-0.6764911,0.30694732,-0.018593242,0.057454757,-0.033268943,-0.38597026,-0.34935215,0.060083274,3.0778258,-0.62501526,-8.449006e-05,-0.06931589,-0.010948163,0.00051869644,-0.014620731,0.00646857,-0.0010642654,0.47419325,-1.4172984,1.9474038,-2.100064,-1.5699142,2.4493263,-0.05027478,0.122917436,-0.14428931,0.008939559,0.009794389,-0.049130514,-0.4213795,0.2681506,-9.3661175,0.79560274,47.6636,-1.2211134,-1.8353553,-3.335665,-0.28993395,0.099932805,-0.13200735,24.5625,24.875,24.25,26.0625,26.0625,26.375
0.14805335,-1.0224149,-0.8348627,0.31236455,-0.0008483596,0.04268214,-0.022143459,-0.38611192,-0.3493845,0.06008766,3.0778039,-0.6249726,-0.00014211376,-0.07048762,-0.011178019,0.00043807807,-0.014949021,0.0069400636,-0.0028559982,0.47412103,-1.4170455,1.9471034,-2.100064,-1.5699142,2.4492304,-0.050963107,0.12498517,-0.14638421,0.008397048,0.009867883,-0.048025332,-0.4405331,0.28730422,-9.232041,0.7777002,47.67345,-1.181768,-1.778328,-3.4276683,-0.27870286,0.0941204,-0.15828276,24.5625,24.875,24.25,26.0625,26.0625,26.375
0.15005448,-0.80738616,-0.40953788,0.6152065,0.0021595317,0.04046496,-0.025840577,-0.38628355,-0.34938437,0.060105022,3.077746,-0.6250005,-0.00024114744,-0.07176218,-0.010181291,-0.0015133681,-0.013104473,0.004261391,-0.005249228,0.47396427,-1.4168276,1.9468163,-2.100076,-1.5699142,2.4490986,-0.05358387,0.13006361,-0.14765564,0.007818607,0.00945126,-0.04825031,-0.38307226,0.22984336,-9.136273,0.83813137,47.70032,-1.1384095,-1.936912,-3.4615898,-0.24583432,0.09162392,-0.15865742,24.5625,24.875,24.25,26.0625,26.0625,26.375
0.15205415,-0.20973705,-0.06354038,0.62744075,0.012136843,0.04139705,-0.023644939,-0.3864491,-0.34940606,0.060108613,3.0776873,-0.6250867,-0.00028889184,-0.073597096,-0.010640088,0.0016991312,-0.015915832,0.0104475655,-0.008496237,0.4738439,-1.4165527,1.9464926,-2.100076,-1.5699023,2.4490397,-0.054201335,0.12585147,-0.15016635,0.0077550835,0.009125863,-0.04561961,-0.17238252,0.1340753,-9.040505,0.8291774,47.711964,-1.0310222,-1.7433789,-3.4099615,-0.2357893,0.116944715,-0.16415147,24.5625,24.875,24.25,26.0625,26.0625,26.375
0.15405346,-0.7787032,-0.1307678,0.8634313,0.025713732,0.016718345,-0.022784006,-0.38657784,-0.3494431,0.060104303,3.0776153,-0.62511027,-0.00029470283,-0.072609775,-0.011469313,-0.0007428479,-0.014789737,0.005595,-0.009401882,0.47376058,-1.4163103,1.9462293,-2.1000993,-1.5698537,2.4489803,-0.052599132,0.13114694,-0.15072705,0.007848856,0.010337948,-0.043111082,-0.095768064,0.05746084,-8.925584,0.82022345,47.69763,-1.2227288,-1.9553214,-3.475538,-0.22255382,0.09459171,-0.21381447,24.5625,24.875,24.25,26.0625,26.0625,26.375
0.1560538,-0.2998876,0.6063834,1.0585812,0.021137873,0.016333101,-0.037859656,-0.38674933,-0.34947404,0.060128547,3.0775545,-0.62509835,-0.00038592596,-0.07462875,-0.010881815,0.00019485412,-0.015073865,0.007158481,-0.011484809,0.4736516,-1.4160581,1.9458817,-2.100088,-1.5698422,2.4488719,-0.055145852,0.13164994,-0.15368873,0.008790284,0.009878718,-0.0435725,-0.1340753,0.095768064,-8.829816,0.784413,47.660015,-1.1255256,-1.7364492,-3.4489307,-0.22099254,0.09567699,-0.22125992,24.5625,24.875,24.25,26.0625,26.0625,26.375
0.15805355,-0.4308366,0.10681103,0.50083226,0.041672684,0.0019145345,-0.024340823,-0.38687402,-0.3494854,0.060111307,3.0775583,-0.6251008,-0.00031673498,-0.076323256,-0.0100635225,-7.9345125e-05,-0.01501113,0.006466486,-0.014370516,0.47354266,-1.4157931,1.9456056,-2.1000397,-1.5698184,2.448764,-0.05826964,0.13392535,-0.1558274,0.0092994245,0.0101350425,-0.04380987,-0.038307227,0.076614454,-8.887277,0.83589023,47.71823,-1.0654578,-1.8136137,-3.4143925,-0.20268656,0.10684116,-0.25512826,24.5625,24.875,24.25,26.0625,26.0625,26.375
0.16005337,0.5365241,0.34647235,0.684266,0.02656602,0.017998649,-0.037910126,-0.38703772,-0.3495154,0.0601357,3.0775077,-0.62508976,-0.00041684223,-0.07677994,-0.010330163,-0.00033520872,-0.014608769,0.0058119907,-0.01437632,0.47344658,-1.4155523,1.9452704,-2.1000273,-1.5698184,2.4486678,-0.0581483,0.13587973,-0.15766829,0.00995303,0.010077551,-0.04368086,-0.11492168,0.095768064,-8.963891,0.88960326,47.752266,-0.9878577,-1.7801912,-3.469037,-0.1917251,0.11031573,-0.26051182,24.5625,24.875,24.25,26.0625,26.0625,26.375
0.16205412,0.27159828,0.03190259,0.80218625,0.013730583,0.013703959,-0.025880452,-0.38720223,-0.34952074,0.060127497,3.0774531,-0.6251932,-0.00042029415,-0.07666851,-0.010492297,-0.00072457927,-0.01378168,0.0046352055,-0.013713527,0.473291,-1.4152756,1.944971,-2.1000268,-1.5697945,2.4485838,-0.057598595,0.13730416,-0.15868618,0.010974398,0.00988084,-0.04379319,-0.05746084,0.17238252,-8.848969,0.800085,47.737038,-1.1282519,-1.7298825,-3.4928944,-0.21034902,0.12764314,-0.26359108,24.5625,24.875,24.25,26.0625,26.0625,26.375
0.1640537,-0.11941834,-0.07747917,0.4859217,0.0011924009,0.014172378,-0.024043903,-0.3873552,-0.34952682,0.0601124,3.0774548,-0.6253104,-0.00039876578,-0.07835953,-0.009770114,-0.0018435089,-0.012581643,0.0020650907,-0.015903756,0.47316992,-1.4149736,1.9446472,-2.0999787,-1.569806,2.448536,-0.06044267,0.14209828,-0.16199422,0.01232384,0.009980574,-0.044445325,-0.019153614,0.2681506,-8.925584,0.7978386,47.71286,-0.9917122,-1.7935765,-3.2806501,-0.20452645,0.1270704,-0.2885986,24.5625,24.875,24.25,26.0625,26.0625,26.375
0.1660541,-0.5960522,-0.73874855,0.24311675,0.0056785634,0.010426674,-0.021253472,-0.3874822,-0.34955987,0.060104396,3.0774264,-0.6252844,-0.00031014657,-0.08015689,-0.010613562,0.0009909607,-0.016078876,0.006643824,-0.015910087,0.47307375,-1.4146984,1.9443353,-2.0999186,-1.5697454,2.4484272,-0.061214305,0.13928656,-0.16538276,0.01285545,0.011001836,-0.045210384,-0.05746084,0.2681506,-9.11712,0.7978386,47.73256,-0.9302745,-1.7042646,-3.4229853,-0.19613945,0.13135488,-0.32071957,24.5625,24.875,24.25,26.0625,26.0625,26.375
0.16805416,-0.065857284,-0.4174507,0.24828413,-0.017851448,0.027891923,-0.031158274,-0.38766357,-0.3495688,0.060108483,3.077385,-0.6253336,-0.00034038367,-0.081661075,-0.010993801,0.0005413327,-0.015921714,0.0056719766,-0.01619773,0.4729174,-1.4144083,1.9439868,-2.0998943,-1.569734,2.448307,-0.062063355,0.14344853,-0.16935292,0.013602116,0.011301876,-0.04576922,-0.13407528,0.2681506,-9.174581,0.78888994,47.707485,-0.92439485,-1.8791189,-3.3512745,-0.19010346,0.14366111,-0.30962378,24.5625,24.875,24.25,26.0625,26.0625,26.375
0.17005374,-0.8009747,-1.3795863,-0.11187357,-0.008123953,0.026600385,-0.019894697,-0.3878159,-0.34958357,0.0601189,3.0773249,-0.62539804,-0.0003986547,-0.08085452,-0.010293149,-0.00075098366,-0.014549993,0.0023656536,-0.016254907,0.47279716,-1.4141799,1.9437002,-2.0998938,-1.5697216,2.4482348,-0.06272219,0.14470786,-0.16813354,0.014693142,0.011596149,-0.046371005,-0.3256114,0.38307226,-9.308657,0.8560339,47.703007,-0.90023863,-1.7300786,-3.4677176,-0.20868218,0.14053409,-0.32557815,24.5625,24.875,24.25,26.0625,26.0625,26.375
0.17205326,-0.7863783,-1.1152388,-0.13194981,-0.0227912,0.045457616,-0.031096188,-0.3879937,-0.34962246,0.060125586,3.0772996,-0.62539214,-0.00038804562,-0.08180135,-0.010321309,-0.0010664288,-0.014216852,0.0016744226,-0.016535668,0.4726889,-1.4138427,1.9432806,-2.0998223,-1.5696977,2.4481263,-0.06350633,0.14718063,-0.1704444,0.0153011605,0.011612602,-0.04687298,-0.2681506,0.4405331,-9.423578,0.92764956,47.7245,-0.9213381,-1.8295759,-3.412739,-0.20930868,0.15375035,-0.36344978,24.5625,24.875,24.25,26.0625,26.0625,26.375
0.17405412,-1.5910026,-1.5672314,-0.41550598,-0.032609787,0.050398197,-0.022268474,-0.38813487,-0.3496315,0.0601012,3.077302,-0.62545043,-0.00032831213,-0.08320561,-0.010531033,-0.0007425863,-0.014712721,0.0021034845,-0.017133499,0.47256875,-1.4135416,1.9429811,-2.0997856,-1.5696853,2.4480424,-0.06453195,0.14903921,-0.17349964,0.015891638,0.011853152,-0.047299773,-0.30645782,0.5554548,-9.519346,0.86945957,47.719128,-0.90102696,-1.7839729,-3.4293666,-0.22451831,0.16253385,-0.38110813,24.5625,24.875,24.25,26.0625,26.0625,26.375
0.17605394,-1.9144977,-2.2853422,-0.3221291,-0.029467473,0.051082302,-0.020688593,-0.3883119,-0.34964272,0.060094517,3.0772715,-0.62554044,-0.0002891116,-0.08433654,-0.01085479,-0.00023849287,-0.015608601,0.0033504532,-0.017142983,0.47241244,-1.4132171,1.9426092,-2.099726,-1.569661,2.4479463,-0.065089144,0.1498628,-0.17558534,0.015638476,0.012079685,-0.047846667,-0.38307226,0.5554548,-9.519346,0.83365434,47.737934,-0.9187795,-1.781416,-3.4384599,-0.22077848,0.16412619,-0.39385426,24.5625,24.875,24.25,26.0625,26.0625,26.375
0.17805348,-1.573729,-1.6674099,-0.44159546,-0.043262754,0.0520753,-0.02335615,-0.38846216,-0.34964415,0.060064916,3.0772543,-0.62563366,-0.00019597774,-0.08572357,-0.010755893,0.00032600388,-0.016008073,0.004841166,-0.018023763,0.4722561,-1.4129045,1.9423088,-2.0996907,-1.5696257,2.4478505,-0.06626893,0.15050799,-0.17763928,0.01554309,0.0117522115,-0.048145086,-0.47884035,0.4405331,-9.615114,0.8672237,47.74868,-0.85585445,-1.6402303,-3.4646988,-0.21090585,0.16437265,-0.40853393,24.5625,24.875,24.25,26.0625,26.0625,26.375
0.1800538,-2.0747147,-1.7972857,-0.6345745,-0.024564058,0.039961934,-0.017661711,-0.38864905,-0.3496877,0.060084593,3.077185,-0.62561923,-0.00027114127,-0.087210245,-0.011008275,-0.0003518482,-0.016754722,0.004395973,-0.019156197,0.47214758,-1.4126027,1.9419135,-2.0996788,-1.5696009,2.447742,-0.06768633,0.15411821,-0.18002816,0.014378321,0.01261724,-0.048427656,-0.49799395,0.4405331,-9.615114,0.8179876,47.744205,-0.8142382,-1.813597,-3.4629266,-0.19607735,0.16550604,-0.45045203,24.5625,24.875,24.25,26.0625,26.0625,26.375
0.18205336,-1.6380547,-1.1669112,-0.678333,-0.02327575,0.040432066,-0.018151568,-0.38881972,-0.34969538,0.06007946,3.0771527,-0.62569004,-0.00024409432,-0.08752285,-0.010958399,-0.0020203101,-0.015895303,0.0016789574,-0.019515758,0.47199136,-1.4123015,1.9415673,-2.099631,-1.5695771,2.4476342,-0.06831644,0.15823938,-0.18092147,0.013962927,0.013086135,-0.048697397,-0.38307226,0.38307226,-9.749189,0.88289046,47.717335,-0.75847983,-1.8101346,-3.4751496,-0.20237923,0.16696265,-0.48632723,24.5625,24.875,24.25,26.0625,26.0625,26.375
0.18405406,-0.90189725,-0.56599176,-0.62888986,-0.010111265,0.043947138,-0.029048804,-0.38901305,-0.34972847,0.06007818,3.0770872,-0.62573284,-0.0002909638,-0.08809018,-0.010648702,-0.0028291992,-0.015504986,0.0009994791,-0.019000372,0.471859,-1.4119643,1.9411844,-2.0996435,-1.5695528,2.4475372,-0.06930704,0.16021763,-0.18119913,0.013049739,0.013050202,-0.050202135,-0.34476504,0.22984336,-9.730036,0.8403672,47.74241,-0.7355162,-1.8920574,-3.5508747,-0.18596399,0.17971794,-0.48828596,24.5625,24.875,24.25,26.0625,26.0625,26.375
0.18605404,-1.2283529,-0.7166073,-0.5048805,0.0015656053,0.03551281,-0.025558354,-0.38919806,-0.34974334,0.060071293,3.0770466,-0.62583965,-0.00026551515,-0.08913646,-0.010520856,-0.003698084,-0.015067401,-0.00034325692,-0.018628553,0.47170264,-1.4116268,1.9408001,-2.0995953,-1.5695289,2.4474528,-0.0705724,0.16365717,-0.18323343,0.013043751,0.013269066,-0.051838025,-0.30645782,0.21068975,-9.672575,0.8493211,47.744205,-0.7581855,-2.0154557,-3.5376515,-0.16974878,0.18386357,-0.48642087,24.5625,24.875,24.25,26.0625,26.0625,26.375
0.18805368,-1.4181609,-0.6877515,-0.4723612,0.00967847,0.034038197,-0.021613505,-0.3893612,-0.34977454,0.06007175,3.077008,-0.6257908,-0.00029684033,-0.09066035,-0.010897723,-0.0034229215,-0.015635015,0.0010155642,-0.0153502915,0.47159448,-1.4113379,1.9404658,-2.0995953,-1.5695046,2.4473193,-0.071176134,0.16560256,-0.18600377,0.012407884,0.0131573845,-0.05571777,-0.28730422,0.17238252,-9.595961,0.8918391,47.728977,-0.6827398,-2.0565877,-3.5672827,-0.146553,0.18164228,-0.49479955,24.5625,24.875,24.25,26.0625,26.0625,26.375
0.19005416,-1.079317,-0.44461137,-0.26503262,0.008402892,0.045742806,-0.02820705,-0.38956386,-0.34978774,0.060072258,3.0769594,-0.6258731,-0.00032654547,-0.09035024,-0.0117578525,-0.0038295297,-0.015477951,-0.000110574176,-0.009880944,0.47142705,-1.411001,1.9400705,-2.099571,-1.5694927,2.4472096,-0.06957671,0.1674559,-0.18741204,0.013043447,0.01353507,-0.059586637,-0.21068975,0.15322891,-9.5385,0.8403672,47.751366,-0.811594,-2.0358984,-3.6210456,-0.13067389,0.18485418,-0.4729898,24.5625,24.875,24.25,26.0625,26.0625,26.375
0.19205397,-0.5653137,-0.08041639,-0.14989045,0.0046330844,0.049853213,-0.029916767,-0.3897375,-0.34984148,0.060072694,3.0768902,-0.6258207,-0.00029774912,-0.09179493,-0.011799918,-0.0043160855,-0.0146883,-0.0005793356,-0.009624738,0.47131866,-1.410663,1.9396743,-2.0995471,-1.5694207,2.4470775,-0.07045058,0.1711001,-0.19064665,0.013419058,0.013042353,-0.06071421,-0.1340753,0.11492168,-9.500193,0.8940802,47.74062,-0.8349935,-2.2649913,-3.5113034,-0.12630859,0.19281256,-0.46169317,24.5625,24.875,24.25,26.0625,26.0625,26.375
0.19405398,-0.4183131,0.0745769,-0.18545389,0.003122701,0.03456373,-0.028198106,-0.38995892,-0.3498455,0.0600912,3.0768237,-0.6259201,-0.0003856475,-0.09388751,-0.011892215,-0.0032493004,-0.016034424,0.0011406003,-0.007596003,0.47112605,-1.410351,1.9392666,-2.0995233,-1.5694207,2.4469557,-0.072386764,0.17208469,-0.19441085,0.014060992,0.013465105,-0.064676575,-0.095768064,0.095768064,-9.423578,0.83365434,47.73256,-0.6946205,-2.005436,-3.53563,-0.11828371,0.19671822,-0.44143432,24.5625,24.875,24.25,26.0625,26.0625,26.375
0.19605358,-0.51053417,-0.44350162,-0.0074860905,0.02000308,0.013780873,-0.023743873,-0.39016354,-0.34987593,0.06008248,3.0767999,-0.6258901,-0.0004431931,-0.09403909,-0.013583234,-0.0021261561,-0.016635958,0.003742418,0.0026965463,0.47099534,-1.4099783,1.9388589,-2.0995352,-1.5694212,2.4468095,-0.06909767,0.17207667,-0.197035,0.014114337,0.012828319,-0.07167824,-0.1340753,0.15322891,-9.289503,0.88960326,47.72719,-0.94355595,-2.034391,-3.4850607,-0.09718676,0.21842195,-0.37256467,24.5625,24.875,24.25,26.0625,26.0625,26.375
0.19805422,0.01999727,-0.07271931,-0.063658826,0.011591698,0.013257991,-0.028431745,-0.39035395,-0.34989154,0.060080193,3.076777,-0.6258853,-0.00048637204,-0.09591748,-0.014055009,-0.0014003109,-0.018006567,0.0052070953,0.0020206198,0.47085094,-1.4096535,1.9384865,-2.0995233,-1.5694207,2.4466653,-0.07026711,0.1737971,-0.20074217,0.014174564,0.013382237,-0.07216948,-0.11492168,0.21068975,-9.212888,0.8605109,47.734352,-0.9352608,-2.0238907,-3.4019494,-0.10231562,0.21288015,-0.32961178,24.5625,24.875,24.25,26.0625,26.0625,26.375
0.20005421,-0.13606052,-0.46409023,-0.23940843,0.014618455,0.0045280163,-0.025729012,-0.39052922,-0.3499305,0.06008264,3.0767643,-0.6258034,-0.00042162812,-0.09659984,-0.014467511,-0.0010308488,-0.018185373,0.0062027955,0.006147616,0.470731,-1.409305,1.9380563,-2.0994275,-1.569373,2.446496,-0.0699276,0.17458774,-0.20257334,0.014257576,0.013091793,-0.07595631,-0.095768064,0.21068975,-9.155427,0.90750587,47.703007,-0.93997157,-2.0243847,-3.407064,-0.092020184,0.25075158,-0.29204902,24.5625,24.875,24.25,26.0625,26.0625,26.375
0.20205377,-0.14932913,-1.0131465,-0.21453512,0.0022725863,0.012167203,-0.024360748,-0.39074808,-0.34993795,0.060083114,3.0767076,-0.62588596,-0.00046475558,-0.09707535,-0.014993228,-0.0005689847,-0.019388068,0.005828135,0.008419374,0.47053894,-1.4089563,1.9376496,-2.099415,-1.5693601,2.446363,-0.070172794,0.1752436,-0.20473588,0.0155551955,0.014341555,-0.078471996,0.019153614,0.34476507,-9.251195,0.8717007,47.70838,-0.9528003,-1.8574593,-3.3883004,-0.05868352,0.24943867,-0.24391711,24.5625,24.875,24.25,26.0625,26.0625,26.375
0.2040542,-0.75939,-1.9590988,0.021285208,-0.014275414,0.010815395,-0.009878325,-0.3909136,-0.34998548,0.060080543,3.0766988,-0.62571096,-0.00042898566,-0.09725653,-0.014927515,-0.0018422919,-0.017287144,0.0023243083,0.009154801,0.470443,-1.4086183,1.9372538,-2.0993664,-1.5693125,2.4461591,-0.07023482,0.17947415,-0.20733973,0.018011304,0.014060256,-0.07926796,-0.038307227,0.47884035,-9.232041,0.85826975,47.684196,-1.023995,-1.9356723,-3.3621519,-0.077368155,0.26839715,-0.20977856,24.5625,24.875,24.25,26.0625,26.0625,26.375
0.20605357,-0.42837808,-1.995402,-0.14804943,-0.028972194,0.019395877,-0.022960145,-0.3911262,-0.3500121,0.060079314,3.076671,-0.62570465,-0.0004837395,-0.0981919,-0.015108932,-0.0005989084,-0.017811058,0.0034294263,0.009142123,0.47029865,-1.4082464,1.9368237,-2.099353,-1.5693125,2.4460146,-0.07068512,0.17903592,-0.21020488,0.020094957,0.014030708,-0.07970417,-0.019153614,0.5554548,-9.232041,0.8940802,47.693153,-1.002861,-1.8592341,-3.363503,-0.094160706,0.28002837,-0.17905912,24.5625,24.875,24.25,26.0625,26.0625,26.375
0.20805484,-0.29041943,-1.8022879,-0.14869969,-0.04162787,0.035794623,-0.022375379,-0.39131892,-0.35002366,0.060079828,3.076653,-0.6257014,-0.00045834738,-0.09861183,-0.014674975,-0.00052574935,-0.01774993,0.003283245,0.007541431,0.47013056,-1.4079102,1.9364175,-2.0992815,-1.5692886,2.445847,-0.07177818,0.17909205,-0.21060917,0.020604748,0.014043709,-0.07919659,-0.038307227,0.5554548,-9.308657,0.94331104,47.683304,-1.0727495,-1.7897556,-3.4484272,-0.09002781,0.28832608,-0.14508805,24.5625,24.875,24.25,26.0625,26.0625,26.375
0.21005346,-1.0728,-2.1781108,-0.06015141,-0.032881573,0.011929214,-0.008587274,-0.39151698,-0.35006228,0.060072295,3.0765753,-0.6257253,-0.0004149505,-0.099395275,-0.015148668,-0.00028206513,-0.019168781,0.0036883117,0.005024473,0.46997422,-1.4075372,1.9359978,-2.0992577,-1.5692161,2.4457157,-0.072284885,0.18002735,-0.21223699,0.020294804,0.015121557,-0.07718521,0.0,0.5363012,-9.289503,0.85826975,47.7451,-1.0025463,-1.801527,-3.4755049,-0.09455621,0.27237782,-0.15204495,24.5625,24.875,24.25,26.0625,26.0625,26.375
0.21205379,-0.0077402173,-1.401325,0.03889065,-0.0404661,0.022873923,-0.024818428,-0.39172307,-0.35009676,0.060056627,3.076578,-0.6256317,-0.00041534373,-0.10135091,-0.01598562,0.00082871626,-0.020458708,0.0060899565,0.0013417194,0.4698422,-1.4071282,1.9355549,-2.0992339,-1.5692042,2.4455252,-0.07255223,0.1815605,-0.21664564,0.020442806,0.015172429,-0.07376754,0.0,0.5554548,-9.289502,0.9164598,47.721813,-1.0103829,-1.7166775,-3.4740758,-0.07638825,0.29078057,-0.16010778,24.5625,24.875,24.25,26.0625,26.0625,26.375
0.21405332,0.15060659,-1.3255485,-0.12474933,-0.015251835,0.010939992,-0.021254852,-0.3919323,-0.35010776,0.0600556,3.076537,-0.62572116,-0.00045650481,-0.102478944,-0.015822383,0.0006020307,-0.02124158,0.0056321654,-0.0046123876,0.4696736,-1.4067794,1.9351481,-2.09921,-1.5692037,2.445418,-0.07436665,0.18336298,-0.2182365,0.020278534,0.016072592,-0.06962639,0.076614454,0.4405331,-9.251195,0.8784135,47.703903,-1.0186136,-1.7322859,-3.4896407,-0.067269884,0.29504314,-0.20495695,24.5625,24.875,24.25,26.0625,26.0625,26.375
0.21605393,0.23354182,-0.9322962,-0.13097885,-0.0046145516,0.008695407,-0.014368508,-0.3921449,-0.35018167,0.060082644,3.0764787,-0.6255745,-0.00053500436,-0.10233909,-0.01593156,-6.6154105e-05,-0.020976828,0.0047980165,-0.0055420473,0.4695898,-1.4064068,1.934647,-2.0991743,-1.569168,2.4452503,-0.07409706,0.18460992,-0.21810186,0.019762224,0.016218767,-0.06842558,0.11492168,0.40222588,-9.270349,0.8806493,47.709274,-1.0180821,-1.8788496,-3.4848418,-0.04759857,0.31546175,-0.22192194,24.5625,24.875,24.25,26.0625,26.0625,26.375
0.21805349,0.23655678,-0.8012129,-0.37084427,0.0035238634,0.0032865359,-0.018673182,-0.39235213,-0.35019323,0.06005069,3.0764024,-0.6257922,-0.000442294,-0.102643415,-0.016907407,-0.00084709685,-0.02139618,0.002912498,-0.009241083,0.4693859,-1.405997,1.9342397,-2.09915,-1.5691074,2.445192,-0.07337499,0.18820821,-0.22066441,0.020214705,0.017435089,-0.06400325,0.095768064,0.3256114,-9.32781,0.86945957,47.74062,-1.1368449,-1.9834335,-3.500256,-0.04537057,0.30271077,-0.2683766,24.5625,24.875,24.25,26.0625,26.0625,26.375
0.22005433,-0.57321113,-1.3416593,-0.20565511,0.012643335,-0.015063455,-0.00698228,-0.3925467,-0.3502568,0.060049113,3.0763555,-0.6256684,-0.00039904803,-0.104338236,-0.016261993,-0.0010784173,-0.02155148,0.002325515,-0.012986749,0.46927717,-1.4056,1.9337724,-2.0991023,-1.5690354,2.4450123,-0.07622761,0.19056022,-0.22304142,0.020696668,0.017836308,-0.06310855,0.05746084,0.38307226,-9.193734,0.9030289,47.752266,-1.0362511,-1.8707708,-3.5199256,-0.041289117,0.31135878,-0.30443108,24.5625,24.875,24.25,26.0625,26.0625,26.375
0.22205396,0.067401946,-0.93793195,-0.2910788,0.005100264,0.011314656,-0.02231795,-0.39276347,-0.3502782,0.06004621,3.0762885,-0.6257471,-0.00040484857,-0.10413118,-0.017186098,-0.0014650614,-0.021044856,0.0012337029,-0.008819372,0.4690977,-1.405227,1.9333414,-2.099078,-1.5689992,2.4448907,-0.07439533,0.1927808,-0.2250225,0.021669354,0.017883979,-0.06544209,0.05746084,0.3256114,-9.251195,0.8023209,47.745995,-1.1283416,-1.9830858,-3.5442288,-0.046290353,0.3147302,-0.29984018,24.5625,24.875,24.25,26.0625,26.0625,26.375
0.22405387,-0.2394795,-0.89880687,-0.09005388,0.010004046,0.008345686,-0.014971128,-0.39295197,-0.35030845,0.06001398,3.076339,-0.6257004,-0.00035373363,-0.10447184,-0.017790778,-0.0018247186,-0.021267017,6.408533e-05,-0.008431182,0.46898976,-1.4047934,1.9328984,-2.0990179,-1.5690111,2.4447474,-0.0740568,0.19511266,-0.2271559,0.022412475,0.018605763,-0.06549152,0.038307227,0.19153613,-9.308656,0.9410752,47.73256,-1.2122066,-1.909678,-3.5611792,-0.03316024,0.31937099,-0.29892483,24.5625,24.875,24.25,26.0625,26.0625,26.375
0.22605354,-0.310981,-0.38583475,0.16615228,-0.0036365967,0.018313063,-0.018479077,-0.3931679,-0.35033303,0.0600086,3.0762846,-0.6257088,-0.00033235693,-0.10575413,-0.017506126,-0.0019045348,-0.021372238,-4.93998e-05,-0.011225476,0.46880928,-1.4044087,1.9324564,-2.0989816,-1.5689629,2.4445794,-0.07572785,0.1969478,-0.22924303,0.02272237,0.018748369,-0.06436684,-0.038307227,0.17238252,-9.193734,0.9254084,47.747787,-1.2532738,-1.9383038,-3.5207818,-0.023802247,0.30889076,-0.32222736,24.5625,24.875,24.25,26.0625,26.0625,26.375
0.22805382,-0.0006326513,-0.14012448,-0.23734367,0.0036172979,0.02665918,-0.030423626,-0.39339596,-0.35038447,0.06003766,3.0761893,-0.625766,-0.00037162594,-0.10679619,-0.017852403,-0.0016813847,-0.022008747,0.00084060535,-0.010844249,0.46866506,-1.4040358,1.9319414,-2.09891,-1.5689148,2.4444833,-0.07609847,0.19828106,-0.23127998,0.022351108,0.01891609,-0.06511631,-0.076614454,0.19153613,-9.289502,0.8493211,47.73256,-1.1567271,-1.9914812,-3.5087204,-0.01840559,0.31823486,-0.33977473,24.5625,24.875,24.25,26.0625,26.0625,26.375
0.23005332,-0.83856463,-0.61424655,-0.28260157,0.014351682,0.014112613,-0.012048813,-0.39358848,-0.35042292,0.06001828,3.07618,-0.6257638,-0.00032861173,-0.106591575,-0.018242259,-0.0027889544,-0.02156407,-0.001789896,-0.010326286,0.46854538,-1.4036262,1.9314994,-2.098862,-1.5688909,2.4443636,-0.07568976,0.20124134,-0.23243932,0.02309919,0.01970685,-0.065225005,-0.05746084,0.3256114,-9.308656,0.8918391,47.7254,-1.2161709,-2.01064,-3.575646,-0.026619209,0.31665573,-0.3602842,24.5625,24.875,24.25,26.0625,26.0625,26.375
0.23205386,-0.6966778,-1.0661962,-0.0853455,0.007875867,0.029162545,-0.0224566,-0.39380378,-0.350445,0.06001363,3.0761554,-0.6257968,-0.00030168556,-0.107684895,-0.018014304,-0.0028028914,-0.021354854,-0.0020376036,-0.011628947,0.4683769,-1.4032291,1.9310325,-2.0987895,-1.5688671,2.444219,-0.076952554,0.20295183,-0.23465736,0.023927404,0.019630175,-0.06518423,-0.24899697,0.2681506,-9.270349,0.90527004,47.73256,-1.2938182,-2.1026664,-3.628533,-0.009599862,0.31921697,-0.37613678,24.5625,24.875,24.25,26.0625,26.0625,26.375
0.23405321,-0.72992903,-0.84001106,-0.27331594,0.0020633829,0.041259147,-0.016198752,-0.39400306,-0.35048163,0.059983913,3.0761414,-0.6257541,-0.00022231502,-0.10929724,-0.018536126,-0.001763896,-0.022341035,-0.0003288867,-0.011146924,0.46823275,-1.4027964,1.9305896,-2.0987532,-1.5688189,2.4440503,-0.07748527,0.20395921,-0.23846896,0.024769291,0.019733764,-0.066197895,-0.3256114,0.24899697,-9.346964,0.8985519,47.755844,-1.2697465,-2.0059566,-3.5623374,-0.02620985,0.33051437,-0.38672715,24.5625,24.875,24.25,26.0625,26.0625,26.375
0.23605385,-1.4886926,-0.85165644,-0.3684284,-0.00033333703,0.031725712,-0.019664293,-0.39419773,-0.35053417,0.05996838,3.0761025,-0.6257457,-0.00014616357,-0.11006635,-0.018903825,-0.00207132,-0.022777092,-0.00059683085,-0.009619879,0.46811268,-1.4023752,1.9301223,-2.0986936,-1.5687584,2.4439301,-0.07779864,0.20611274,-0.24028476,0.024482021,0.020242402,-0.068037495,-0.24899697,0.22984336,-9.385271,0.9298854,47.750473,-1.2130643,-2.091976,-3.4873605,-0.013625866,0.33407027,-0.396631,24.5625,24.875,24.25,26.0625,26.0625,26.375
0.2380534,-1.4875052,-0.81680363,-0.14823468,-0.011764464,0.05322078,-0.016817497,-0.39442778,-0.3505587,0.059968006,3.0760293,-0.6258831,-0.00011066957,-0.11135792,-0.0188006,-0.0015087264,-0.023292547,-6.4641636e-06,-0.0083495425,0.4679203,-1.4019667,1.9296321,-2.0986216,-1.5687102,2.443833,-0.079182446,0.20694883,-0.24283679,0.0254503,0.020439675,-0.07069047,-0.36391866,0.22984336,-9.32781,0.9030289,47.733456,-1.2935584,-1.9670286,-3.469266,-0.021106392,0.3328566,-0.39574558,24.5625,24.875,24.25,26.0625,26.0625,26.375
0.24005406,-1.0795099,-0.62285256,-0.3901698,-0.014578351,0.07148297,-0.027404005,-0.39465657,-0.3506047,0.059980623,3.075957,-0.6258094,-9.7977245e-05,-0.11208771,-0.018490357,-0.0010549417,-0.023205033,0.00045974832,-0.0059688604,0.46775183,-1.4015703,1.929129,-2.0985615,-1.5686387,2.443628,-0.08012785,0.20698151,-0.24420668,0.026427187,0.020161204,-0.074015394,-0.40222588,0.21068975,-9.442732,0.91421866,47.746887,-1.2346957,-1.8622866,-3.5160227,-0.031022955,0.31568435,-0.35831916,24.5625,24.875,24.25,26.0625,26.0625,26.375
0.24205351,-1.2857155,-0.6284313,-0.4032421,-0.010012528,0.078554295,-0.018364495,-0.39490762,-0.35063398,0.05999118,3.0759215,-0.6258197,-0.00022108037,-0.11453354,-0.018330801,-0.00030200375,-0.024478408,0.0021078119,-0.004796957,0.4675951,-1.4011616,1.9286269,-2.0985496,-1.5686625,2.4434826,-0.08276285,0.20865107,-0.24794911,0.02646258,0.020561365,-0.0778188,-0.53630114,0.17238252,-9.595961,0.9097417,47.723602,-1.2781934,-1.9468961,-3.5519698,-0.031847585,0.32624784,-0.33273143,24.5625,24.875,24.25,26.0625,26.0625,26.375
0.24405402,-1.7973533,-0.27197888,-0.5179407,-0.00957182,0.06635662,-0.013860304,-0.39510086,-0.3506648,0.059934705,3.0759137,-0.625892,-5.4376906e-05,-0.114927106,-0.018938059,-0.00025289692,-0.025171803,0.002339847,-0.0006313972,0.46743912,-1.4006807,1.9281853,-2.0985014,-1.5686024,2.443373,-0.08231741,0.2097548,-0.2494056,0.026309514,0.02107364,-0.08154,-0.51714754,0.15322891,-9.557653,0.83813137,47.71465,-1.2204458,-1.924348,-3.5138617,-0.022882067,0.33658284,-0.28684914,24.5625,24.875,24.25,26.0625,26.0625,26.375
0.24605343,-1.2599466,-0.12666138,-0.6449858,0.018960604,0.07226533,-0.02181316,-0.3953389,-0.3507208,0.059967443,3.0758529,-0.62574166,-0.0001084503,-0.116089776,-0.01897645,-0.00014909547,-0.025469009,0.0032791833,0.0029905553,0.46729508,-1.4002956,1.9276465,-2.09843,-1.5685543,2.4431431,-0.08312133,0.2111113,-0.25116786,0.025759688,0.020927047,-0.085963316,-0.45968673,0.1340753,-9.519346,0.8851263,47.719128,-1.1965798,-1.8923461,-3.5596924,-0.009373553,0.33711892,-0.23988014,24.5625,24.875,24.25,26.0625,26.0625,26.375
0.24805412,-1.2586298,-0.48175246,-0.5907552,0.031672645,0.059088424,-0.01121924,-0.39559507,-0.35073897,0.059944276,3.0758069,-0.6258302,-7.0869435e-05,-0.11939228,-0.017553668,0.000467895,-0.026195368,0.0047829356,0.0003874005,0.46707705,-1.3998148,1.9271315,-2.0983937,-1.5685185,2.4429865,-0.0884254,0.21280862,-0.2546807,0.025919123,0.020898856,-0.08866271,-0.4405331,0.22984336,-9.557653,0.8851263,47.72271,-0.97113264,-2.0484269,-3.6460795,-0.012665179,0.33757108,-0.18393195,24.5625,24.875,24.25,26.0625,26.0625,26.375
0.25005376,-1.2859129,-0.31684715,-0.4502125,0.013140894,0.055565957,-0.023291336,-0.39581782,-0.35075578,0.059927586,3.0757918,-0.6258049,-1.6879783e-05,-0.11796185,-0.018269962,-0.0013737591,-0.024402363,0.00066738954,0.0039131613,0.4668861,-1.399393,1.9266647,-2.0983336,-1.5684823,2.442782,-0.08600373,0.21634527,-0.25497445,0.027167171,0.02115602,-0.08976675,-0.49799395,0.17238252,-9.5385,0.9298854,47.745995,-1.1426623,-2.0016816,-3.6717906,-0.00044289115,0.33824772,-0.14263578,24.5625,24.875,24.25,26.0625,26.0625,26.375
0.2520543,-1.5892226,-0.68047774,-0.52080727,-0.0011883082,0.04370406,-0.01819954,-0.39605662,-0.35080674,0.059927143,3.0757556,-0.62570125,-3.6266956e-05,-0.11953195,-0.017032139,-0.0012957253,-0.02367241,8.326553e-05,0.0032999297,0.46674088,-1.3989481,1.9261392,-2.0982974,-1.5684465,2.442577,-0.089239605,0.21760589,-0.2571068,0.028902628,0.020776624,-0.092387915,-0.40222588,0.15322891,-9.461885,0.96569055,47.72092,-1.0336756,-1.917903,-3.8075216,-0.022941662,0.34256184,-0.08557689,24.5625,24.875,24.25,26.0625,26.0625,26.375
0.2540538,-1.2445214,-0.59769523,-0.42791083,-0.008519731,0.0419406,-0.021609364,-0.39627656,-0.35083202,0.059915006,3.075715,-0.62575364,2.7745922e-05,-0.12172826,-0.01654449,-0.0009793842,-0.02316687,0.000856938,-0.002251043,0.46656018,-1.3985268,1.9256595,-2.0982249,-1.5683988,2.4424343,-0.091443814,0.22005181,-0.26098657,0.029876553,0.019965613,-0.08903991,-0.30645782,0.17238252,-9.461885,0.8851263,47.73256,-0.8382147,-2.034959,-3.7235897,-0.026788328,0.34797058,-0.099327445,24.5625,24.875,24.25,26.0625,26.0625,26.375
0.25605357,-1.0848204,-1.0441971,-0.46053508,-0.0013351134,0.035548903,-0.015261375,-0.39655954,-0.35086012,0.059922908,3.0756485,-0.62579876,-2.0246322e-05,-0.12376944,-0.016963068,-3.7735317e-05,-0.024694683,0.0022865245,-0.0058168625,0.46634367,-1.3980582,1.9250845,-2.0981767,-1.5683745,2.4422548,-0.09287966,0.2216582,-0.26525706,0.030575922,0.020683534,-0.086906694,-0.34476504,0.19153613,-9.557653,0.90527004,47.73256,-0.8161909,-2.1317487,-3.5976212,-0.046265062,0.3470372,-0.10290012,24.5625,24.875,24.25,26.0625,26.0625,26.375
0.25805336,-1.0756928,-0.75233024,-0.3684929,0.0010840535,0.029286793,-0.01449903,-0.3967721,-0.35090268,0.059906606,3.0756235,-0.6257373,2.9949735e-05,-0.12519415,-0.01745992,8.341977e-05,-0.025070129,0.0023697005,-0.008849324,0.46619958,-1.3976251,1.9246057,-2.0981286,-1.5683264,2.4420757,-0.09338751,0.22443727,-0.26903594,0.03133299,0.020972101,-0.08438023,-0.34476504,0.19153613,-9.500193,0.9768804,47.72719,-0.83075166,-2.0446305,-3.5373158,-0.053143255,0.36193717,-0.12694311,24.5625,24.875,24.25,26.0625,26.0625,26.375
0.26005378,-0.6883297,-0.66877437,-0.37785405,0.00963605,0.039313,-0.014435483,-0.39705452,-0.35096225,0.0599412,3.0755286,-0.62569934,-7.743007e-05,-0.12480311,-0.017139865,-0.00079216424,-0.02380097,4.068625e-05,-0.011692187,0.4660315,-1.3971795,1.9239963,-2.0980804,-1.5682906,2.4418964,-0.09346576,0.22596069,-0.26920712,0.0326321,0.02089405,-0.08161334,-0.34476504,0.24899697,-9.442732,0.79560274,47.70032,-0.83538985,-2.03122,-3.4999294,-0.056145,0.37304032,-0.13727386,24.5625,24.875,24.25,26.0625,26.0625,26.375
0.26205412,-1.2382293,-0.46966594,-0.37968946,0.0015312856,0.03140072,-0.01745644,-0.3972954,-0.35097167,0.059920616,3.0755262,-0.6257387,-3.2134092e-05,-0.12630817,-0.01790254,-9.4312425e-05,-0.024940303,0.000766002,-0.015278096,0.46582735,-1.3967223,1.9234933,-2.098008,-1.5682777,2.4417174,-0.093812,0.22794881,-0.27346435,0.033736646,0.021573313,-0.07837209,-0.36391866,0.2681506,-9.442732,0.87617236,47.719128,-0.84402364,-2.0375626,-3.4393377,-0.07198189,0.383698,-0.17749266,24.5625,24.875,24.25,26.0625,26.0625,26.375
0.2640538,-0.92158186,-0.86524904,-0.26978394,0.007960535,0.041908517,-0.010626764,-0.39755556,-0.35100105,0.0599219,3.0754502,-0.6258786,2.899126e-05,-0.12807292,-0.018720753,0.0012173131,-0.02667814,0.002336128,-0.018450676,0.46561128,-1.3962536,1.9229187,-2.0979002,-1.5682176,2.4415987,-0.094380975,0.2290689,-0.27817634,0.035145383,0.022411639,-0.07576634,-0.34476504,0.30645782,-9.346964,0.8537928,47.687782,-0.9384025,-2.0486126,-3.4034867,-0.09552879,0.37267274,-0.21838625,24.5625,24.875,24.25,26.0625,26.0625,26.375
0.2660534,-1.0948526,-0.97520006,-0.32518935,-0.00089001254,0.037500173,-0.017483175,-0.397785,-0.35103834,0.059903037,3.075407,-0.62590873,8.042905e-05,-0.12733217,-0.019080026,-3.1365653e-05,-0.025993966,-0.0009699234,-0.019180145,0.46544367,-1.3957962,1.9224166,-2.097852,-1.5681695,2.4414556,-0.093582116,0.23164855,-0.27872437,0.036375728,0.023284847,-0.074237466,-0.30645782,0.40222588,-9.404425,0.87393653,47.696735,-0.8444278,-2.0257144,-3.3344483,-0.10619807,0.37810698,-0.26497093,24.5625,24.875,24.25,26.0625,26.0625,26.375
0.2680537,-0.45024845,-0.8307392,-0.18487932,-0.023039978,0.056491505,-0.026358152,-0.39805987,-0.35106036,0.05992247,3.075361,-0.6259936,2.6093065e-05,-0.12625277,-0.019397002,0.00039315544,-0.025731785,-0.0015837926,-0.018425105,0.4652402,-1.395352,1.9218315,-2.0977552,-1.5681695,2.4413114,-0.09202421,0.2301606,-0.27848446,0.03829272,0.023334768,-0.07343438,-0.19153614,0.38307226,-9.404425,0.9298854,47.71465,-1.0360332,-1.9028708,-3.5722218,-0.14213675,0.3769148,-0.281214,24.5625,24.875,24.25,26.0625,26.0625,26.375
0.27005398,-0.8284441,-1.1622218,-0.3682538,-0.027428051,0.042107463,-0.020223143,-0.39831218,-0.35108954,0.059895862,3.0753522,-0.62601316,0.00010885125,-0.127687,-0.017335484,0.00036958195,-0.02488354,-0.0020010155,-0.023290882,0.4650466,-1.394836,1.9212698,-2.0976708,-1.5681337,2.4411314,-0.09641976,0.23008683,-0.27869645,0.039339975,0.02276382,-0.072965644,-0.095768064,0.38307226,-9.461885,0.9186956,47.744205,-0.86055356,-1.7810514,-3.6238208,-0.19030678,0.37686425,-0.32371733,24.5625,24.875,24.25,26.0625,26.0625,26.375
0.27205345,-0.24869668,-1.0886633,-0.24432518,-0.033274647,0.041923963,-0.017147511,-0.3985841,-0.35113186,0.059922338,3.0752184,-0.62613726,5.115068e-05,-0.12775032,-0.018376531,0.0009627207,-0.024940161,-0.00089069403,-0.020414593,0.46484345,-1.3944154,1.9207071,-2.097623,-1.5680736,2.441023,-0.0942978,0.23050153,-0.28076795,0.039991606,0.022323929,-0.07371742,-0.15322891,0.34476504,-9.442732,0.900793,47.73883,-0.9982705,-1.6842053,-3.7575197,-0.21460882,0.38286954,-0.32000074,24.5625,24.875,24.25,26.0625,26.0625,26.375
0.27405384,-0.46306708,-1.0332148,-0.15568921,-0.014574656,0.01929544,-0.017651156,-0.39882183,-0.3511787,0.059902497,3.0751684,-0.6261286,0.00016607168,-0.12960768,-0.01902937,0.0009966401,-0.026514012,-0.00073853874,-0.023943614,0.46466297,-1.393922,1.9201564,-2.0975392,-1.5679892,2.4408438,-0.09554739,0.23381405,-0.28479338,0.03986262,0.023649018,-0.07143587,-0.076614454,0.34476504,-9.385271,0.8985519,47.719128,-0.95982444,-1.7979008,-3.6671762,-0.21281245,0.39101908,-0.37847593,24.5625,24.875,24.25,26.0625,26.0625,26.375
0.276054,0.4811309,-0.3223955,-0.41922387,-0.0037856607,0.022379832,-0.024808208,-0.3991014,-0.35122073,0.05990901,3.075101,-0.62619144,9.384699e-05,-0.13004789,-0.019470653,0.00032492034,-0.027693143,-0.002319257,-0.024649551,0.4644827,-1.3934406,1.9195703,-2.0975034,-1.5679764,2.4407117,-0.09619215,0.23624475,-0.28617114,0.039693404,0.025414694,-0.071371295,0.019153614,0.30645782,-9.32781,0.9164598,47.711063,-0.9104539,-1.7772577,-3.6723812,-0.24166355,0.36758995,-0.42672405,24.5625,24.875,24.25,26.0625,26.0625,26.375
0.27805346,0.44303045,-0.40486082,-0.37048244,0.01724444,0.007311691,-0.020994438,-0.3993933,-0.3512651,0.05992755,3.074979,-0.62633806,6.743192e-05,-0.13122676,-0.019681634,-0.00050794275,-0.028149882,-0.0037414702,-0.023750441,0.46426648,-1.3929585,1.9189476,-2.0974314,-1.5679168,2.440603,-0.097421676,0.24002407,-0.28878093,0.039602946,0.026465563,-0.07349605,0.095768064,0.30645782,-9.346964,0.8873621,47.72719,-0.9294924,-1.887723,-3.601547,-0.24629636,0.35421926,-0.42334843,24.5625,24.875,24.25,26.0625,26.0625,26.375
0.2800532,-0.33995125,-0.6006381,-0.89591825,0.022848275,-0.026312053,-0.0023325137,-0.39963645,-0.35130847,0.05992074,3.0749547,-0.62631416,0.00013426002,-0.1322745,-0.02048095,-0.000863143,-0.028200842,-0.0036748427,-0.024445632,0.46409854,-1.3924769,1.9183749,-2.0973241,-1.5678686,2.4404235,-0.09687494,0.24336216,-0.29192707,0.039333206,0.026471527,-0.07225288,0.15322891,0.36391866,-9.461885,0.92093146,47.728977,-0.9715526,-2.0619614,-3.7401295,-0.26258445,0.36020672,-0.49066764,24.5625,24.875,24.25,26.0625,26.0625,26.375
0.28205398,0.17989635,-0.8553488,-0.5665668,-0.012950015,-0.0012312226,-0.015758155,-0.39991075,-0.35133466,0.0599157,3.0748582,-0.6265035,0.00020622551,-0.13401261,-0.021217262,-0.00025009332,-0.029177397,-0.0028261316,-0.021642484,0.4638585,-1.3919837,1.917787,-2.0972283,-1.5677961,2.4403143,-0.09732688,0.24583957,-0.29655612,0.040308207,0.02696626,-0.075505726,0.24899697,0.34476504,-9.461885,0.93436235,47.74868,-0.9166446,-2.0686634,-3.5203114,-0.27199194,0.362035,-0.49272746,24.5625,24.875,24.25,26.0625,26.0625,26.375
0.2840537,0.018652303,-1.623002,-0.5877203,-0.029781511,0.008361305,-0.0159202,-0.4001757,-0.3513862,0.059928056,3.0748043,-0.62639266,0.00021086191,-0.13510537,-0.02195035,4.5526795e-05,-0.030074734,-0.002593358,-0.017102014,0.4636785,-1.3915141,1.9171895,-2.097144,-1.567736,2.4400723,-0.097366266,0.24792211,-0.29993424,0.04101467,0.027673915,-0.08008254,0.15322891,0.34476504,-9.423578,0.84484416,47.734352,-1.024322,-2.1314318,-3.4128225,-0.30887163,0.34233713,-0.47598526,24.5625,24.875,24.25,26.0625,26.0625,26.375
0.28605336,0.09887365,-1.4242334,-0.91318697,-0.026698539,0.006621051,-0.01896309,-0.40043145,-0.35142025,0.059932485,3.074764,-0.62641823,0.00020431192,-0.13527773,-0.023212167,0.0011334522,-0.031725466,-0.00023469314,-0.009944771,0.46349925,-1.391058,1.9166259,-2.0970604,-1.5677122,2.4399145,-0.095515035,0.24700753,-0.30132005,0.040488396,0.028107041,-0.08538737,0.17238252,0.34476504,-9.519346,0.9567419,47.757637,-1.0913899,-2.0808508,-3.435769,-0.3253466,0.32997763,-0.45020938,24.5625,24.875,24.25,26.0625,26.0625,26.375
0.2880544,-0.58992344,-2.2120502,-0.7646896,-0.03391408,0.009086356,-0.008858427,-0.40071186,-0.35149854,0.05995259,3.074637,-0.6264486,0.00021442414,-0.13720228,-0.021965858,0.00042742668,-0.03158527,-0.0006967996,-0.008200005,0.46332973,-1.3905531,1.9159693,-2.0969765,-1.5676159,2.4397805,-0.099319644,0.24956237,-0.3026606,0.039779965,0.028203998,-0.09093406,0.019153614,0.5554548,-9.595961,0.86498255,47.7451,-0.987105,-1.9970062,-3.4807942,-0.34637618,0.3037478,-0.3911957,24.5625,24.875,24.25,26.0625,26.0625,26.375
0.29005402,-0.5276803,-2.1936429,-0.5800168,-0.047807943,0.0236805,-0.01507159,-0.40099412,-0.3515301,0.05994564,3.0745997,-0.62645394,0.00023766128,-0.13566552,-0.023953967,-0.0005450806,-0.03235048,-0.0013030431,0.0015121978,0.46311557,-1.3900359,1.9153594,-2.0968935,-1.5675796,2.4395747,-0.09504919,0.25108653,-0.30187932,0.037697874,0.029172132,-0.096374966,0.0,0.59376204,-9.557653,0.89631605,47.72719,-1.2939913,-1.9315529,-3.6508727,-0.354639,0.29916197,-0.3420288,24.5625,24.875,24.25,26.0625,26.0625,26.375
0.29205334,-0.54036236,-2.0966809,-0.63256496,-0.043495487,0.033934698,-0.017828176,-0.40129805,-0.35157746,0.059963454,3.074517,-0.6264561,0.0001713267,-0.13794875,-0.022719095,0.00040949244,-0.03473537,0.0012083085,0.000680591,0.46290988,-1.3895319,1.9147142,-2.096835,-1.5675429,2.4393814,-0.099713,0.24983743,-0.30233407,0.03610768,0.030199371,-0.100204036,0.095768064,0.57460845,-9.634268,0.9567419,47.73256,-1.1584326,-1.9576464,-3.7517037,-0.32447132,0.29585844,-0.26866564,24.5625,24.875,24.25,26.0625,26.0625,26.375
0.29405406,-0.7097036,-1.8689384,-0.33300593,-0.029598692,0.030206297,-0.008658096,-0.40154624,-0.35160664,0.05993625,3.0745013,-0.626411,0.000276895,-0.1393199,-0.024923781,0.0010774476,-0.03733708,0.0037684394,0.0056615826,0.46270669,-1.3890265,1.914164,-2.0967515,-1.5674828,2.4391522,-0.09773817,0.25235993,-0.30652744,0.034343895,0.031377777,-0.10320832,-0.019153614,0.4213795,-9.461885,0.90527004,47.71823,-1.1741059,-1.8087988,-3.724945,-0.33211148,0.2721832,-0.23822126,24.5625,24.875,24.25,26.0625,26.0625,26.375
0.29605383,-0.18451554,-0.82559955,-0.3298621,-0.015094066,0.02817134,-0.015623785,-0.4018253,-0.35168025,0.05993989,3.0743997,-0.62635154,0.00027173368,-0.14143853,-0.025614152,0.0023060385,-0.040272333,0.0076145236,0.006098198,0.4625381,-1.38851,1.9135412,-2.0967162,-1.567398,2.4389598,-0.098862335,0.25250736,-0.30907747,0.032010764,0.032291673,-0.104765035,-0.076614454,0.2873042,-9.442732,0.8560339,47.72092,-1.1989152,-1.7025058,-3.7257576,-0.3073147,0.24379501,-0.19164652,24.5625,24.875,24.25,26.0625,26.0625,26.375
0.29805365,-0.20345451,0.24982911,-0.26950008,2.9379842e-06,0.02520298,-0.019924883,-0.40212485,-0.35175934,0.059971265,3.0742798,-0.62625015,0.00018090724,-0.14432223,-0.026388776,0.0040808064,-0.04320002,0.012157423,0.0048201345,0.4623696,-1.3880173,1.9128832,-2.0966809,-1.567326,2.4387438,-0.100300334,0.25308886,-0.31357372,0.030565148,0.03289043,-0.104918346,-0.095768064,0.2681506,-9.385271,0.8985519,47.737934,-1.1423223,-1.5678148,-3.5943825,-0.26899394,0.21305771,-0.14551544,24.5625,24.875,24.25,26.0625,26.0625,26.375
0.3000534,-0.30254945,0.43270397,-0.46965885,0.025091713,0.020675348,-0.011476497,-0.40238956,-0.35180295,0.05995142,3.0742311,-0.6262224,0.00022863095,-0.14558463,-0.02693219,0.0029571455,-0.042708024,0.0107312,0.0012507264,0.46217752,-1.3874993,1.9123086,-2.0966327,-1.5672659,2.438541,-0.10047761,0.2582392,-0.31718493,0.030522468,0.033076167,-0.10152371,-0.076614454,0.28730422,-9.481039,0.9545008,47.75316,-1.1377932,-1.6582302,-3.5107486,-0.25367802,0.17538434,-0.1685381,24.5625,24.875,24.25,26.0625,26.0625,26.375
0.30205336,-0.44611105,0.001607833,-0.49385008,0.02693261,0.039677225,-0.016723908,-0.4027135,-0.35185236,0.05997409,3.0741189,-0.6262395,0.00019872742,-0.1457693,-0.0261781,0.0008422341,-0.04056587,0.007077019,-0.0031626667,0.46193725,-1.3869696,1.9116153,-2.0965493,-1.5671943,2.4383261,-0.10164521,0.2625823,-0.3177004,0.030925846,0.032793514,-0.098275065,-0.24899697,0.30645782,-9.519346,0.9097417,47.723602,-1.1423526,-1.8479688,-3.5335515,-0.24255309,0.16080664,-0.17113402,24.5625,24.875,24.25,26.0625,26.0625,26.375
0.30405414,-1.7171348,-0.56662005,-0.36526442,-0.0046425248,0.04310506,-0.0066011855,-0.4029547,-0.3519136,0.05996092,3.0740652,-0.62621313,0.00029907902,-0.14741716,-0.02667042,0.001911302,-0.04174562,0.009890143,-0.010192008,0.46178114,-1.3864644,1.9110292,-2.0964534,-1.56711,2.4381607,-0.10199618,0.26301485,-0.32063615,0.0303754,0.032573827,-0.09159634,-0.49799395,0.38307226,-9.423578,0.90527004,47.733456,-1.1550698,-1.9597511,-3.5688217,-0.23084728,0.14927149,-0.25657466,24.5625,24.875,24.25,26.0625,26.0625,26.375
0.30605385,-1.7464586,-0.9399991,-0.38681102,-0.030497871,0.072500184,-0.017705148,-0.40327004,-0.35195145,0.059959985,3.0739634,-0.62625134,0.00029807,-0.14876023,-0.025863033,0.0014913254,-0.040820085,0.009728757,-0.01440671,0.4615288,-1.3859229,1.9103836,-2.0964057,-1.5670384,2.4379456,-0.10395692,0.2650836,-0.3222805,0.030517144,0.03181985,-0.08934076,-0.51714754,0.38307226,-9.481039,0.92093146,47.71823,-1.1855327,-1.9642856,-3.588852,-0.23983136,0.13202399,-0.3014364,24.5625,24.875,24.25,26.0625,26.0625,26.375
0.30805326,-1.8082588,-1.3639333,-0.49342877,-0.033929728,0.09100172,-0.020702379,-0.40356088,-0.35203442,0.05999252,3.0738142,-0.626278,0.00026121718,-0.14918226,-0.026045188,0.0019427683,-0.040677745,0.009921245,-0.014423544,0.46136057,-1.3854305,1.9097136,-2.0963333,-1.5669426,2.4378135,-0.10377958,0.2654831,-0.32422325,0.03196548,0.031619113,-0.08914315,-0.47884035,0.38307226,-9.5385,0.9365982,47.703903,-1.0532916,-1.9204063,-3.5523014,-0.22508037,0.1350044,-0.3126197,24.5625,24.875,24.25,26.0625,26.0625,26.375
0.31005496,-1.8003663,-0.8823811,-0.320954,-0.033777826,0.078228824,-0.023252096,-0.40386754,-0.35206416,0.059988867,3.0737646,-0.6263246,0.00024368681,-0.14979118,-0.025535682,0.0011084892,-0.039617438,0.009104097,-0.014917559,0.46113235,-1.3848895,1.9090685,-2.0962613,-1.5669192,2.437621,-0.104707904,0.2676128,-0.32492095,0.031750344,0.031041253,-0.0895769,-0.6895301,0.30645782,-9.615114,0.9388393,47.696735,-1.185529,-1.8461837,-3.7029753,-0.2347244,0.11612083,-0.32486403,24.5625,24.875,24.25,26.0625,26.0625,26.375
0.3120536,-1.766767,-0.20274855,-0.3130699,-0.032355096,0.07003169,-0.023083959,-0.4041719,-0.35211,0.059992477,3.0736737,-0.6263073,0.00024289686,-0.15072702,-0.024627866,0.0004979996,-0.03882456,0.009365097,-0.016392156,0.46090367,-1.3843607,1.9084238,-2.0962021,-1.5668472,2.4373937,-0.10645181,0.26885167,-0.32485846,0.03058561,0.030224055,-0.08984563,-0.5554548,0.24899697,-9.461885,0.9545008,47.694054,-0.9406147,-1.8044149,-3.7304487,-0.22548316,0.12162176,-0.34941974,24.5625,24.875,24.25,26.0625,26.0625,26.375
0.314054,-1.4480964,-0.19110774,-0.13806555,-0.005475019,0.0648644,-0.015514873,-0.4044991,-0.3521799,0.060015023,3.0735352,-0.62639284,0.00012962207,-0.15286085,-0.025783148,0.001271999,-0.0396912,0.012312118,-0.016311953,0.46071205,-1.3838191,1.907729,-2.0961783,-1.566799,2.4372737,-0.10585224,0.2715385,-0.3297256,0.02975107,0.02969249,-0.08932099,-0.53630114,0.24899697,-9.423578,0.8851263,47.68062,-1.1520488,-1.7306185,-3.7882814,-0.18607645,0.09647321,-0.36782825,24.5625,24.875,24.25,26.0625,26.0625,26.375
0.31605324,-1.3579046,-0.12248451,-0.16116299,0.005084094,0.058482014,-0.019952362,-0.40480545,-0.35224053,0.060023114,3.07343,-0.6264093,0.00011308643,-0.15501897,-0.026174735,0.002076789,-0.04016448,0.015377948,-0.017521543,0.4605079,-1.3832779,1.9070591,-2.0961187,-1.5667275,2.4370937,-0.106334046,0.27322134,-0.33347288,0.028871898,0.028753513,-0.08859108,-0.51714754,0.2681506,-9.346964,0.9545008,47.70211,-1.104617,-1.7246573,-3.649053,-0.13426709,0.097534865,-0.42013425,24.5625,24.875,24.25,26.0625,26.0625,26.375
0.31805375,-0.7138349,0.30090076,0.057309218,0.01237655,0.06648354,-0.024884814,-0.4051177,-0.35228387,0.06001521,3.0733626,-0.6264507,8.964357e-05,-0.15729164,-0.026174912,0.0028733483,-0.04020622,0.017683268,-0.014394225,0.4602915,-1.3827128,1.9063996,-2.096071,-1.5666918,2.4369123,-0.10756341,0.27505192,-0.3376548,0.029169904,0.027782584,-0.09294644,-0.63206923,0.15322891,-9.232041,0.95897776,47.703903,-1.126524,-1.8081731,-3.512157,-0.1374918,0.08851585,-0.38042837,24.5625,24.875,24.25,26.0625,26.0625,26.375
0.32005405,-1.2684737,0.12856634,-0.10276563,0.028290093,0.04967287,-0.013803658,-0.40545127,-0.3523353,0.060041152,3.0732396,-0.626501,-9.071324e-06,-0.15857214,-0.02658038,0.004237515,-0.040772595,0.020646617,-0.0130552435,0.46006358,-1.3821845,1.9057063,-2.0960228,-1.5666441,2.436732,-0.107343525,0.27460235,-0.34043053,0.029506896,0.026991028,-0.09406303,-0.47884035,0.24899697,-9.270349,0.9388393,47.705692,-1.121681,-1.7073624,-3.5218966,-0.08993234,0.0851253,-0.38207933,24.5625,24.875,24.25,26.0625,26.125,26.375
0.3220535,-1.1468365,0.0539112,-0.0060548233,0.01823954,0.05615089,-0.02345343,-0.4057766,-0.35238656,0.060037624,3.073149,-0.626497,-3.571718e-05,-0.15901665,-0.025582425,0.0034675156,-0.039077017,0.018419068,-0.006809857,0.4598352,-1.3816075,1.9050249,-2.0959861,-1.5665845,2.4365132,-0.109011926,0.27654985,-0.34158552,0.031509414,0.026502492,-0.10197583,-0.45968673,0.19153613,-9.346964,0.9545008,47.719128,-1.1076478,-1.5714185,-3.5952823,-0.07301323,0.087739594,-0.3313235,24.5625,24.875,24.25,26.0625,26.125,26.375
0.32405403,-1.45766,-0.28300205,0.15585122,0.00498243,0.054846395,-0.010279561,-0.40608296,-0.3524308,0.060034737,3.0731103,-0.62650764,1.5178358e-05,-0.16000202,-0.02482884,0.0036858642,-0.037415322,0.018012917,-0.004508876,0.45961866,-1.3810301,1.9043192,-2.0958536,-1.5665368,2.4363086,-0.110228956,0.2777208,-0.34420535,0.03408962,0.025211845,-0.10549571,-0.45968673,0.17238252,-9.11712,0.9030289,47.71823,-1.0501087,-1.483228,-3.5158496,-0.08187571,0.10600525,-0.26013935,24.5625,24.875,24.25,26.0625,26.125,26.375
0.32605347,-1.1240016,0.002267349,0.11440544,0.0064240703,0.057422455,-0.022883795,-0.40642613,-0.35249296,0.06007353,3.0729675,-0.6265143,-0.00014157915,-0.16084278,-0.023483798,0.0019575963,-0.034017842,0.01539348,-0.0013032701,0.45940202,-1.3805124,1.9036139,-2.0958292,-1.5664896,2.436115,-0.111986086,0.28190443,-0.34561372,0.035207044,0.023368666,-0.11045728,-0.38307226,0.17238252,-9.078813,0.95002913,47.71286,-0.97182,-1.6949066,-3.4610825,-0.08113278,0.10560725,-0.20677958,24.5625,24.875,24.25,26.0625,26.125,26.375
0.32805392,-0.9973469,-0.042130135,0.13631451,0.021903256,0.0558792,-0.017674748,-0.40674737,-0.35252333,0.060049232,3.0729253,-0.6265033,-0.00010630353,-0.16221718,-0.022490816,0.0009628454,-0.03232121,0.014326983,0.0010691625,0.45914945,-1.3799105,1.902944,-2.0957692,-1.5664419,2.4358613,-0.114096425,0.28519526,-0.34748068,0.035525415,0.022340367,-0.11494111,-0.38307226,0.17238252,-9.251195,0.8940802,47.719128,-0.9043062,-1.7962961,-3.6512456,-0.052650668,0.120203145,-0.118124485,24.5625,24.875,24.25,26.0625,26.125,26.375
0.3300535,-1.2363932,-0.15153971,0.23035264,0.022219542,0.060531363,-0.01008801,-0.40707022,-0.35259378,0.060063418,3.0728064,-0.62645763,-0.00011253318,-0.16202024,-0.023686603,0.0006187453,-0.03194464,0.013513084,0.003915101,0.45893434,-1.379345,1.9022268,-2.0956972,-1.5663456,2.4356334,-0.11177142,0.2875612,-0.34985504,0.036448535,0.022376962,-0.11545942,-0.30645782,0.095768064,-9.155427,0.9388393,47.773754,-1.0097984,-1.8348095,-3.6352897,-0.04677674,0.14737216,-0.0725445,24.5625,24.875,24.25,26.0625,26.125,26.375
0.3320539,-1.0092928,0.35797766,-0.088590175,0.018148206,0.048121907,-0.015748702,-0.40738282,-0.35263857,0.060055967,3.072781,-0.62637794,-0.00013095941,-0.1644388,-0.023017747,0.0011141184,-0.032605655,0.014036324,-0.00086236023,0.45872897,-1.378768,1.9015445,-2.0956252,-1.5663213,2.435382,-0.11508731,0.2895463,-0.3537415,0.037587896,0.022736117,-0.11399499,-0.21068975,0.21068975,-9.059659,0.8605109,47.763905,-0.9526926,-1.9640744,-3.5894885,-0.04549436,0.14890957,-0.068486325,24.5625,24.875,24.25,26.0625,26.125,26.375
0.33405322,-0.5735148,-0.356411,0.2484866,0.015034876,0.046954744,-0.013011782,-0.4077444,-0.35266057,0.060058005,3.07273,-0.6264639,-0.0002288239,-0.16393742,-0.023685865,0.0006151516,-0.03142111,0.013097037,-0.0024097445,0.45846602,-1.3781669,1.9008144,-2.0955646,-1.5663341,2.4351797,-0.11296891,0.29120892,-0.35494554,0.03848693,0.022090755,-0.11032874,-0.22984336,0.2681506,-8.963891,0.9925471,47.747787,-1.0638702,-1.8118713,-3.590187,-0.023530655,0.14758599,-0.08519182,24.5625,24.875,24.25,26.0625,26.125,26.375
0.33605364,-0.40546975,-0.18084098,0.37218285,-0.010298446,0.033438887,-0.008107305,-0.40806168,-0.35272267,0.06004575,3.0726516,-0.62645054,-0.0001734713,-0.16533457,-0.023612645,0.0017780788,-0.031424522,0.015493907,-0.00703774,0.45824984,-1.3775539,1.9000973,-2.0954807,-1.5662502,2.4349656,-0.1134939,0.29096854,-0.3576484,0.039278947,0.02102231,-0.10622702,-0.24899697,0.2681506,-8.925584,0.9030289,47.762115,-0.9900428,-1.9116652,-3.5594356,-0.016168678,0.15848386,-0.11153129,24.5625,24.875,24.25,26.0625,26.125,26.375
0.33805424,-0.09787251,-0.36944577,0.21162762,-0.004288824,0.015689615,-0.002279877,-0.40841743,-0.35274357,0.06005428,3.0726058,-0.6265199,-0.0002969323,-0.16584708,-0.023623671,0.0011774644,-0.030523336,0.014024492,-0.012005743,0.45799768,-1.376977,1.8993806,-2.095421,-1.5662745,2.4347632,-0.113671124,0.29361773,-0.35987046,0.04055052,0.020859629,-0.101434074,-0.17238252,0.2873042,-8.829816,0.9186956,47.737038,-1.053178,-1.7148603,-3.563869,0.001629784,0.16965923,-0.16676757,24.5625,24.875,24.25,26.0625,26.125,26.375
0.34005356,-0.13384657,-1.0930095,0.12793507,-0.009202869,0.005721555,-0.0058964314,-0.40870634,-0.35277686,0.0600266,3.0726311,-0.626488,-0.00019636158,-0.167734,-0.024242338,0.0025669984,-0.031121552,0.016809039,-0.015387421,0.45779368,-1.3763762,1.8986982,-2.0952766,-1.5662502,2.4345362,-0.11365541,0.29451084,-0.36446276,0.04148184,0.020144254,-0.09803801,-0.15322891,0.34476504,-8.868123,0.9925471,47.741516,-1.0325118,-1.7000339,-3.4653068,-0.010102418,0.19861606,-0.1883777,24.5625,24.875,24.25,26.0625,26.125,26.375
0.3420541,0.07718291,-1.0575197,0.27648014,-0.017877879,0.002609125,-0.012757462,-0.4090576,-0.35280496,0.060004383,3.0725255,-0.62669843,-0.00016524085,-0.16822574,-0.024553599,0.0032064891,-0.031452846,0.017451908,-0.019495223,0.45750588,-1.3757393,1.8979796,-2.095216,-1.5661901,2.434394,-0.113391995,0.29459298,-0.36645424,0.042660203,0.020150261,-0.09366607,-0.11492168,0.34476504,-8.868123,0.9768804,47.704796,-1.0404644,-1.6572793,-3.4763377,0.017677298,0.21848899,-0.26754206,24.5625,24.875,24.25,26.0625,26.125,26.375
0.34405372,-0.13469598,-1.107087,0.22429374,-0.013916524,-0.0018634413,-0.0038601568,-0.40939075,-0.3529,0.060031097,3.072417,-0.6266368,-0.0002502676,-0.16908605,-0.023397565,0.0021595901,-0.030920152,0.014815056,-0.020942489,0.45734873,-1.3751498,1.8972033,-2.095144,-1.5661305,2.4342127,-0.116422676,0.2970358,-0.36738345,0.043761235,0.02085843,-0.0952454,-0.15322891,0.49799395,-8.963891,1.044019,47.71286,-0.99579114,-1.641564,-3.5307364,0.017708994,0.2266995,-0.27235842,24.5625,24.875,24.25,26.0625,26.125,26.375
0.34605345,-0.19370948,-1.0179106,0.09495278,-0.016050082,0.0071766735,-0.00157268,-0.40973508,-0.3529227,0.060017146,3.0723138,-0.6268272,-0.00019043229,-0.16776632,-0.024962246,0.0018038844,-0.030512866,0.011645331,-0.021287065,0.4570502,-1.3745372,1.8964857,-2.0950468,-1.5660576,2.4340467,-0.11311312,0.29908782,-0.36999616,0.047338616,0.021889327,-0.0915881,0.0,0.40222588,-8.944737,0.97464454,47.72719,-1.1597733,-1.7324057,-3.5314116,0.004332174,0.24233007,-0.3258922,24.5625,24.875,24.25,26.0625,26.125,26.375
0.348054,0.16457464,-0.1336655,-0.028364578,-0.017686365,0.014301796,-0.008912664,-0.4100672,-0.35296178,0.060009766,3.072282,-0.6267847,-0.0002071081,-0.16892551,-0.02335912,0.00027419263,-0.029300349,0.0073413565,-0.026650937,0.4568205,-1.3739346,1.8957676,-2.0949628,-1.5660332,2.433795,-0.11721071,0.30299085,-0.3718678,0.04970322,0.022704521,-0.0903185,0.038307227,0.4213795,-9.078813,0.8851263,47.734352,-0.99103117,-1.8022423,-3.585225,-0.034433454,0.24986207,-0.3753649,24.5625,24.875,24.25,26.0625,26.125,26.375
0.35005352,-0.18092754,-0.6145879,-0.049343247,-0.0038356532,0.014283436,0.00023575319,-0.41039604,-0.3530204,0.059986174,3.0722253,-0.62690634,-0.00011434635,-0.16943282,-0.024298575,0.0005597813,-0.030283941,0.008150681,-0.026370266,0.45660505,-1.3732611,1.8949908,-2.0948312,-1.5659732,2.4336631,-0.11622361,0.30409682,-0.37398455,0.04955915,0.0232244,-0.08961098,-0.076614454,0.47884035,-9.11712,0.89631605,47.74331,-1.0561223,-1.9153796,-3.5775862,-0.028082501,0.23329741,-0.41992956,24.5625,24.875,24.25,26.0625,26.125,26.375
0.35205403,0.15360981,-0.60353,-0.13824469,-0.0066342475,0.02462295,-0.0062349755,-0.4107342,-0.35304427,0.059959974,3.072203,-0.6269789,-9.762068e-05,-0.16882597,-0.023122353,-0.0018035055,-0.027708782,0.0014301058,-0.027298419,0.4563524,-1.3726239,1.8942732,-2.0947459,-1.5659612,2.433459,-0.117994845,0.3082919,-0.37461942,0.053175293,0.02388927,-0.090452515,0.076614454,0.3256114,-9.11712,0.99031126,47.741516,-1.0316193,-1.8907168,-3.7067714,-0.054347117,0.24230851,-0.4495675,24.5625,24.875,24.25,26.0625,26.125,26.375
0.3540544,-0.05195834,-0.3368408,-0.03704086,-0.005436406,0.012866882,-0.007818689,-0.41108322,-0.3531234,0.059983715,3.0720744,-0.62700784,-0.00015498143,-0.16980487,-0.022675576,-0.0019511288,-0.02593049,-0.00097375247,-0.025321987,0.45614818,-1.3720219,1.893484,-2.0946605,-1.5658892,2.43329,-0.11913383,0.31127453,-0.37900293,0.057546116,0.023376182,-0.09356548,0.11492168,0.3256114,-9.097966,1.061927,47.711063,-0.90919983,-1.9672999,-3.6123276,-0.09224361,0.26286057,-0.4825518,24.5625,24.875,24.25,26.0625,26.125,26.375
0.35605374,-0.08929806,-0.8069148,0.011085554,0.00907336,0.004668957,-0.003401605,-0.4114252,-0.35312515,0.059957042,3.0720484,-0.62719136,-6.986496e-05,-0.17076981,-0.022436246,-0.0015366322,-0.02539448,-0.0018500693,-0.020760944,0.45584777,-1.3713853,1.892754,-2.094516,-1.5658654,2.4331079,-0.12015592,0.31267935,-0.3825272,0.06072525,0.02329995,-0.09914921,-0.05746084,0.36391866,-9.078813,0.95226496,47.713753,-0.9336344,-2.016141,-3.5468774,-0.15319407,0.29414824,-0.46350068,24.5625,24.875,24.25,26.0625,26.125,26.375
0.35805345,0.39715925,0.13595468,-0.031895902,-9.493188e-06,0.0111827385,-0.012819852,-0.41176844,-0.35317427,0.059944313,3.072023,-0.6271814,-3.0330839e-05,-0.172017,-0.023249445,-0.0010618557,-0.02697739,-3.1175376e-05,-0.012334394,0.45561978,-1.3707243,1.8919657,-2.0943844,-1.5658292,2.4328773,-0.120078005,0.31395456,-0.3850814,0.059721995,0.023946453,-0.1074958,-0.019153614,0.28730422,-9.174581,0.90750587,47.72629,-0.9582926,-1.9217379,-3.4970598,-0.1763885,0.29389584,-0.39462036,24.5625,24.875,24.25,26.0625,26.125,26.375
0.36005336,0.12510407,-0.17899497,-0.50990546,0.015644236,0.0050518597,-0.004119071,-0.41208863,-0.35322064,0.059917126,3.071969,-0.6272447,4.486614e-05,-0.1727742,-0.02429876,-1.1317992e-05,-0.028849006,0.00018825081,-0.007571281,0.4553918,-1.3700869,1.8912462,-2.094288,-1.5657686,2.432696,-0.11977649,0.3146014,-0.38891667,0.061918598,0.025545517,-0.11195317,-0.038307227,0.2681506,-9.193734,0.90527004,47.70838,-0.97770226,-2.0030222,-3.4455826,-0.19266772,0.28688627,-0.32805014,24.5625,24.875,24.25,26.0625,26.125,26.375
0.36205345,-0.18850169,0.12205184,-0.39911237,0.004767311,0.01563376,-0.0062347255,-0.41241762,-0.35328686,0.0599099,3.0719328,-0.6271729,0.00016007392,-0.17217667,-0.023936603,-5.4154025e-05,-0.028036255,-0.0010509677,0.001673424,0.4551761,-1.3694265,1.8904346,-2.0941083,-1.5656847,2.4324405,-0.11966617,0.31402683,-0.3887744,0.06388298,0.025398975,-0.121089615,-0.15322891,0.28730422,-9.289502,0.9030289,47.705692,-0.9902591,-1.8624494,-3.5253172,-0.250946,0.30425465,-0.24999571,24.5625,24.875,24.25,26.0625,26.125,26.375
0.36405334,-0.36901957,-0.20228927,-0.6211992,0.0010191107,0.044421177,-0.010269152,-0.4127454,-0.35333213,0.05990899,3.0718937,-0.6271841,0.0002119032,-0.17100513,-0.023225145,-0.0025427057,-0.026034934,-0.0067158346,0.0029876847,0.45494798,-1.3688133,1.8896698,-2.0939515,-1.5656365,2.4322248,-0.120196976,0.31740335,-0.3876799,0.06539868,0.026105158,-0.12293369,-0.095768064,0.2681506,-9.500193,1.0015011,47.729877,-1.15695,-1.8481774,-3.7832077,-0.28846025,0.3109863,-0.18528096,24.5625,24.875,24.25,26.0625,26.125,26.375
0.36605346,-1.287195,-0.4936207,-0.58351815,-0.0202651,0.047428094,-0.004093977,-0.41310018,-0.35337532,0.059900906,3.071881,-0.6271213,0.00022487491,-0.17053176,-0.024463577,-0.0027843744,-0.026536738,-0.007336992,0.0064814673,0.4547086,-1.3681517,1.8888687,-2.0938194,-1.5656122,2.4319482,-0.11799536,0.3187698,-0.38903007,0.06573341,0.026833558,-0.12422379,-0.05746084,0.22984336,-9.634268,0.9992599,47.690468,-1.1534417,-1.9242201,-3.899939,-0.32231852,0.32264733,-0.121532574,24.5625,24.875,24.25,26.0625,26.125,26.375
0.3680539,-0.50888467,-0.75778216,-0.5972485,-0.035861567,0.07255536,-0.013281874,-0.41342503,-0.35340568,0.059876468,3.071843,-0.6271747,0.000357376,-0.17325313,-0.023100818,-0.0036630782,-0.026306143,-0.008059035,0.00012426858,0.45444313,-1.3675135,1.8881272,-2.0936644,-1.5655397,2.4317212,-0.12251002,0.32289818,-0.3920808,0.06541219,0.026923845,-0.12238104,-0.19153614,0.28730422,-9.576807,0.9567419,47.717335,-1.0612304,-2.035746,-3.8804698,-0.35083956,0.3104247,-0.12908162,24.5625,24.875,24.25,26.0625,26.125,26.375
0.37005368,-0.75366426,-0.8699406,-0.74930704,-0.033495832,0.063207075,-0.003472766,-0.41380325,-0.3534612,0.0598985,3.071775,-0.6271422,0.0003314443,-0.17462894,-0.024430392,-0.0038391934,-0.026947202,-0.0062743532,-0.003174978,0.45419168,-1.3668638,1.887266,-2.0935094,-1.5654925,2.4314587,-0.12110289,0.3263214,-0.39553553,0.06354762,0.026695112,-0.11767211,-0.2681506,0.3256114,-9.730036,0.89631605,47.68062,-1.0445784,-2.1426787,-3.8676448,-0.35591793,0.32128662,-0.14910194,24.5625,24.875,24.25,26.0625,26.125,26.375
0.37205416,-0.76493603,-1.1192017,-1.0783607,-0.030637417,0.0522261,0.0008797551,-0.41414768,-0.35349366,0.05986751,3.0717933,-0.6271122,0.00038892374,-0.17800328,-0.02474895,-0.0025307084,-0.029146744,-0.0013837266,-0.011248713,0.45395094,-1.3661791,1.8864883,-2.0933788,-1.5654801,2.4311972,-0.12310891,0.32781973,-0.39993274,0.061063595,0.026486123,-0.11160416,-0.36391866,0.3256114,-9.902418,0.9186956,47.704796,-0.94723785,-2.1471844,-3.7322354,-0.37172985,0.3605792,-0.20565005,24.5625,24.875,24.25,26.0625,26.125,26.375
