Tylouw/Master_Thesis_Code/test_recorded_data/real_test11/sample_13_session_3.csv
timestamp[s],tcp_force_x[N],tcp_force_y[N],tcp_force_z[N],tcp_force_rx[Nm?],tcp_force_ry[Nm?],tcp_force_rz[Nm?],tcp_pose_x[m],tcp_pose_y[m],tcp_pose_z[m],tcp_pose_rx[rot_vec_x],tcp_pose_ry[rot_vec_y],tcp_pose_rz[rot_vec_z],tcp_velo_x[m/s],tcp_velo_y[m/s],tcp_velo_z[m/s],tcp_velo_rx[rot_vec_x/s],tcp_velo_ry[rot_vec_y/s],tcp_velo_rz[rot_vec_z/s],q1[rad],q2[rad],q3[rad],q4[rad],q5[rad],q6[rad],qd1[rad/s],qd2[rad/s],qd3[rad/s],qd4[rad/s],qd5[rad/s],qd6[rad/s],tool_acc_x,tool_acc_y,tool_acc_z,current_of_whole_robot[A],voltage_of_whole_robot[V],current_J1[A],current_J2[A],current_J3[A],current_J4[A],current_J5[A],current_J6[A],temp_J1[C],temp_J2[C],temp_J3[C],temp_J4[C],temp_J5[C],temp_J6[C]
6.5998756e-07,-0.16156322,-0.8216161,0.1794201,-0.042430185,0.035468165,-0.009288741,-0.38106328,-0.3485369,0.059979472,-3.0785506,0.6248839,-0.00011778226,0.0019931167,0.0010291032,-0.001749795,0.0019971349,-0.004136546,1.3437556e-05,0.4778101,-1.4259579,1.9577273,-2.1008685,-1.5707573,2.452764,-7.330641e-05,-6.8975583e-06,0.0038316324,0.0007663811,0.00013865708,-8.907162e-05,0.095768064,0.1340753,-8.714894,0.6859408,47.694054,0.050260074,-2.7574177,-2.4326248,-0.45209432,0.14507245,0.10568808,27.625,28.6875,27.875,31.75,33.6875,34.5625
0.002052511,-0.15561299,-0.8896689,-0.055231854,-0.03881584,0.04037495,-0.0027981028,-0.38104993,-0.3485454,0.059967786,-3.0785594,0.62486666,-0.00016720737,-0.0007522907,-0.00040146968,-0.0031718214,-0.0014631924,0.0024956136,1.607235e-05,0.47782204,-1.4259443,1.9577397,-2.1008732,-1.5707334,2.452764,-7.1843475e-05,0.004250369,0.0052161464,-0.012355981,0.00013445706,-8.76263e-05,0.019153614,0.11492168,-8.6574335,0.7083204,47.705692,0.029166318,-2.8902996,-2.4826722,-0.38455,0.12618092,0.11909827,27.625,28.6875,27.875,31.75,33.6875,34.5625
0.004051885,0.46314564,-0.47999915,0.18858363,-0.046868753,0.053944524,-0.01640221,-0.38108358,-0.34852514,0.059956927,-3.0785196,0.6248777,-0.00011885939,-0.0014074931,-0.000742306,-0.0029356466,-0.0021234378,0.003770121,1.6801096e-05,0.47778615,-1.4258964,1.9577154,-2.1008976,-1.5707816,2.4527402,-7.04379e-05,0.004728459,0.0043757455,-0.013429032,0.00013055252,-8.6227126e-05,0.17238252,0.15322891,-8.619126,0.72622824,47.705692,0.054099888,-3.123809,-2.7546234,-0.3050962,0.12695757,0.11357558,27.625,28.6875,27.875,31.75,33.6875,34.5625
0.006052236,0.5148314,-0.014560966,-0.0123589765,-0.017346635,0.028985081,-0.015032885,-0.38108966,-0.34853306,0.05996673,-3.0785372,0.6248428,-3.901167e-05,-0.0006926637,-0.0003689123,-0.0017819582,-0.0011580397,0.0019347585,1.6148586e-05,0.4778101,-1.425909,1.9577149,-2.1009305,-1.5708054,2.4527402,-6.908602e-05,0.0026836945,0.0027661785,-0.007700947,0.0001268711,-8.4871834e-05,0.05746084,0.15322891,-8.714894,0.77545905,47.69763,0.07369628,-3.0890112,-2.6411185,-0.3324557,0.13250083,0.1215284,27.625,28.6875,27.875,31.75,33.6875,34.5625
0.00805244,0.07932362,0.028382396,-0.635012,0.028570382,-0.011557427,-0.00046845074,-0.38105735,-0.34853414,0.059955448,-3.0785213,0.6248202,-0.00010783098,-0.00032813204,-0.00017774459,-0.00048080934,-0.0010714161,0.0017885119,1.5506777e-05,0.4778342,-1.4259219,1.9577497,-2.1009057,-1.5707935,2.452752,-6.778527e-05,0.00020527655,0.0017932897,-0.004079922,0.00012339195,-8.355854e-05,0.05746084,0.15322891,-8.829816,0.7396539,47.709274,0.05845605,-2.876358,-2.5845854,-0.36203188,0.13166066,0.11544667,27.625,28.6875,27.875,31.75,33.6875,34.5625
0.010052567,0.52521783,-0.2035312,-1.1806352,0.022712648,-0.0023378772,-0.0066124536,-0.38107854,-0.34853142,0.059951983,-3.0785303,0.6248799,-0.00015856087,-0.000586031,-0.00031164594,0.000108089145,-0.0011317155,0.0019131466,1.5890913e-05,0.47778615,-1.425886,1.957714,-2.1008937,-1.5707573,2.4527402,-6.653259e-05,2.754047e-06,0.00033097857,-0.0025534707,0.000120098804,-8.228532e-05,0.076614454,0.19153613,-9.097966,0.7486078,47.68062,-0.22629333,-2.238377,-3.2166672,-0.36910462,0.118192084,0.0772229,27.625,28.6875,27.875,31.75,33.6875,34.5625
0.012052921,0.8254004,-0.66831297,-1.1976322,-0.02207169,0.031040644,-0.01743911,-0.3810575,-0.34852266,0.05991619,-3.0784757,0.6248306,-0.00025043302,-0.0010786195,-0.0005380137,-0.0016469756,0.0011015097,-0.0023987493,-2.9408377e-05,0.47779807,-1.4258366,1.9577364,-2.1008804,-1.5707697,2.4527283,-0.00012300447,0.0062599573,-0.0032962325,-0.00032756073,0.00011697644,-9.1080714e-05,0.095768064,0.1340753,-9.212888,0.68146914,47.694946,-0.36154932,-2.000803,-3.278813,-0.35505575,0.090134054,0.07609527,27.625,28.6875,27.875,31.75,33.6875,34.5625
0.01405202,-0.5264343,-1.771923,-1.3120723,-0.0549224,0.03867997,-0.003971351,-0.38104817,-0.34850153,0.05990291,-3.0783892,0.62493074,-0.00031725643,-0.0046993745,-0.00011792726,-0.004611026,0.0035420202,-0.00709215,-0.0041029337,0.47778466,-1.4258198,1.957734,-2.1008208,-1.5707935,2.4527884,-0.004215591,0.018573428,-0.010625816,-2.1387375e-05,9.2737486e-05,-0.000104503386,-0.038307227,0.21068975,-9.385271,0.7777002,47.675243,-0.25215778,-2.9355779,-3.1038651,-0.3538416,0.0952919,0.04271932,27.625,28.6875,27.875,31.75,33.6875,34.5625
0.016052714,-0.4553844,-2.1158159,-1.4961679,-0.085002825,0.0824415,-0.013602384,-0.38103664,-0.34850368,0.05987788,-3.0783806,0.6248726,-0.00041575907,-0.004809318,0.001546468,-0.0041935653,0.004811764,-0.009470998,-0.00715514,0.47778362,-1.4257723,1.957734,-2.100807,-1.5707697,2.452752,-0.0072595607,0.017248478,-0.011090596,0.0044647455,6.8328816e-05,-9.710121e-05,-0.28730422,0.34476504,-9.576807,0.7642693,47.704796,-0.16979054,-2.6645036,-3.3063037,-0.3740312,0.0836449,0.018030044,27.625,28.6875,27.875,31.75,33.6875,34.5625
0.01805263,-1.0364943,-2.630191,-1.5691804,-0.085998744,0.105962954,-0.012907624,-0.3810456,-0.34850842,0.059876677,-3.0783775,0.624889,-0.00041556903,-0.005165657,0.0013811507,-0.0032057415,0.0046370416,-0.008647685,-0.004352447,0.4777837,-1.4257487,1.9577097,-2.1008065,-1.5707697,2.4527628,-0.007149444,0.016394416,-0.012766149,0.0061832643,-0.0001560151,-0.0027888748,-0.3256114,0.38307226,-9.634268,0.7172743,47.71017,-0.24925372,-2.4304926,-3.498383,-0.39602208,0.07139129,0.017724378,27.625,28.6875,27.875,31.75,33.6875,34.5625
0.020052021,-1.2493633,-2.0425496,-1.6544099,-0.08472536,0.10783422,-0.019518675,-0.3810329,-0.3484907,0.059842095,-3.0783103,0.62483585,-0.00053457543,-0.006228376,0.0008858424,-0.0033664913,0.0044277585,-0.008102181,-0.0010599514,0.47777164,-1.4256879,1.9577087,-2.1007593,-1.5707816,2.4527261,-0.007207007,0.018811896,-0.014974794,0.005393399,-0.00022993401,-0.0061371084,-0.45968673,0.5363012,-9.730036,0.7597976,47.664497,-0.3719595,-2.4337726,-3.5282602,-0.3929652,0.05664708,0.039056018,27.625,28.6875,27.875,31.75,33.6875,34.5625
0.022052187,-1.5659838,-1.8818965,-1.5076566,-0.085890844,0.10913721,-0.023622483,-0.38103884,-0.34850928,0.05984791,-3.0783546,0.62478715,-0.00052953116,-0.0077256677,0.00067154644,-0.0029038028,0.0037237084,-0.006784756,-0.00079056056,0.47778338,-1.4256755,1.9576839,-2.1007707,-1.5707573,2.4527018,-0.008221893,0.020174276,-0.017513648,0.005076143,-0.00021715133,-0.007419854,-0.5554548,0.63206923,-9.80665,0.68146914,47.666286,-0.4276387,-2.363742,-3.4428866,-0.37527043,0.069056496,0.043163013,27.625,28.6875,27.875,31.75,33.6875,34.5625
0.024052216,-0.870693,-1.8396934,-1.864675,-0.084768005,0.11857719,-0.03795294,-0.38108596,-0.34850013,0.059864387,-3.0783346,0.62482125,-0.0004640829,-0.008982295,0.0005816943,-0.0023843297,0.0031601829,-0.005605365,-0.001668944,0.47774705,-1.4256393,1.9575995,-2.1007469,-1.5707935,2.4526894,-0.009195119,0.020991942,-0.019632827,0.0050710924,-0.0002637039,-0.0075134085,-0.5554548,0.51714754,-9.902418,0.7597976,47.704796,-0.48552164,-2.442495,-3.551777,-0.35389373,0.031021707,0.03737609,27.625,28.6875,27.875,31.75,33.6875,34.5625
0.02605281,-0.95486164,-1.8867891,-1.829811,-0.0822822,0.11035434,-0.027043225,-0.3811082,-0.34849977,0.059839778,-3.0783122,0.62491494,-0.00053087436,-0.010056258,0.0011810587,-0.0024317587,0.0038510372,-0.0062130485,-0.004113354,0.47771028,-1.4255549,1.9575623,-2.1007588,-1.5707697,2.452714,-0.011037071,0.022495262,-0.021522904,0.0063166134,-0.0005991953,-0.006909315,-0.59376204,0.38307226,-9.940725,0.8112748,47.65464,-0.48350763,-2.3677268,-3.503108,-0.3565644,0.013394613,0.018368715,27.625,28.6875,27.875,31.75,33.6875,34.5625
0.028051902,-1.1095556,-1.4700028,-1.5977864,-0.07671436,0.09975865,-0.045816027,-0.3811236,-0.34851196,0.059830904,-3.0783215,0.62487847,-0.00055723777,-0.0111075025,0.0012664646,-0.0021910297,0.004294382,-0.0060063913,-0.0045524347,0.4777099,-1.4254944,1.9575137,-2.1007588,-1.5707577,2.4526896,-0.011843209,0.023917189,-0.023922833,0.0073167323,-0.0010910803,-0.007274119,-0.6512229,0.34476504,-9.864111,0.73069996,47.704796,-0.42736888,-2.3828533,-3.5104635,-0.34867188,0.014706865,-0.005865145,27.625,28.6875,27.875,31.75,33.6875,34.5625
0.030052138,-1.2116139,-1.3548509,-1.571663,-0.052847907,0.10034502,-0.041949265,-0.38114265,-0.34850806,0.059826307,-3.0782912,0.62487227,-0.00061654375,-0.012505743,0.0015676434,-0.0019565676,0.004863279,-0.0052826833,-0.004977517,0.47768557,-1.4254342,1.9574417,-2.1006982,-1.5707582,2.4526653,-0.013125531,0.025431313,-0.026295107,0.0077966214,-0.0019340822,-0.008128194,-0.57460845,0.30645782,-9.80665,0.7239871,47.688675,-0.541325,-2.3399637,-3.4570327,-0.34502262,0.013451012,-0.019982066,27.625,28.6875,27.875,31.75,33.6875,34.5625
0.032052208,-0.9992821,-0.30902177,-1.4508407,-0.041984174,0.10246125,-0.063090995,-0.3811839,-0.3485094,0.059835065,-3.07831,0.6249714,-0.00054344797,-0.013558456,0.0015396844,-0.001830811,0.0047758436,-0.004786806,-0.004890082,0.47764945,-1.4254096,1.9574045,-2.100746,-1.5707577,2.4526887,-0.013949209,0.026822234,-0.02817019,0.0078005656,-0.002088691,-0.009037942,-0.45968673,0.095768064,-9.672575,0.7172743,47.689575,-0.5491166,-2.3259988,-3.4661193,-0.34155503,0.0069329673,-0.0020796475,27.625,28.6875,27.875,31.75,33.6875,34.5625
0.034052495,-0.5939128,-0.056139644,-1.3403083,-0.02281377,0.09872087,-0.06869536,-0.38122416,-0.34849212,0.059828524,-3.0782588,0.62496275,-0.0005244228,-0.015144209,0.0015239597,-0.0010577051,0.0037300892,-0.0033950026,-0.006469718,0.4776127,-1.4253377,1.957332,-2.100722,-1.5708059,2.4526532,-0.015572151,0.027448965,-0.030694555,0.007979898,-0.0018052075,-0.009080451,-0.40222588,-0.038307227,-9.615114,0.7486078,47.67166,-0.5248644,-2.3035955,-3.546325,-0.3123692,-0.003553339,-0.037618812,27.625,28.6875,27.875,31.75,33.6875,34.5625
0.036052074,-0.32391334,0.25906503,-1.3169367,-0.017850317,0.08346878,-0.085339926,-0.38125235,-0.34850425,0.059833046,-3.0783033,0.62500954,-0.0005420659,-0.016626561,0.00063848984,-0.0001300388,0.0024484147,-0.0019103527,-0.0051807347,0.47757682,-1.4253013,1.9572829,-2.100734,-1.5707577,2.4526408,-0.01566096,0.028890284,-0.03458179,0.008516707,-0.0013571819,-0.010457122,-0.34476504,-0.15322891,-9.576807,0.79560274,47.70659,-0.48394668,-2.2581007,-3.3403711,-0.30557254,-0.01936599,-0.042982325,27.625,28.6875,27.875,31.75,33.6875,34.5625
0.038052287,-0.66743475,0.0667938,-1.2624112,-0.0019465017,0.06063725,-0.07986852,-0.38127518,-0.34851602,0.0598447,-3.0782957,0.6250075,-0.0005579723,-0.017316755,0.00073356135,-0.00043235152,0.0030194935,-0.003103836,-0.005172238,0.47757655,-1.4252526,1.957187,-2.100674,-1.5707577,2.4526403,-0.016494855,0.031050375,-0.03663051,0.00972749,-0.0013180515,-0.011298444,-0.4213795,-0.076614454,-9.615114,0.7172743,47.66808,-0.57545185,-2.2580695,-3.3939142,-0.30387956,-0.06492733,-0.037172914,27.625,28.6875,27.875,31.75,33.6875,34.5625
0.04005234,-0.52318305,0.19428732,-1.2639264,-0.0052452283,0.059688613,-0.09621283,-0.38132137,-0.34851292,0.05984587,-3.0782855,0.62498647,-0.00058591604,-0.018324314,0.00072425604,0.000102594866,0.0031419746,-0.0027047216,-0.0051508415,0.47752827,-1.4251684,1.9570774,-2.1006258,-1.5707577,2.4525802,-0.017216878,0.031943697,-0.03918429,0.011090668,-0.0016135231,-0.012040067,-0.28730422,-0.095768064,-9.5385,0.7597976,47.687782,-0.55853975,-2.3146574,-3.4043012,-0.31121945,-0.07302518,-0.036211383,27.625,28.6875,27.875,31.75,33.6875,34.5625
0.04205226,0.01149927,0.10038928,-1.1219243,-0.010511725,0.077469334,-0.108272724,-0.38134843,-0.34851947,0.05983316,-3.0782802,0.6250046,-0.00058568176,-0.019493671,0.0017522173,-7.80421e-05,0.006006589,-0.0021919387,-0.0055113737,0.4775158,-1.425096,1.9570292,-2.100649,-1.5707592,2.4525797,-0.018318072,0.0335915,-0.040855527,0.011985153,-0.0043954267,-0.012774027,-0.15322891,-0.076614454,-9.595961,0.7530795,47.698532,-0.4715697,-2.2630746,-3.342034,-0.312924,-0.05908066,-0.06714813,27.625,28.6875,27.875,31.75,33.6875,34.5625
0.04405252,-0.52330655,0.05837776,-1.1662022,-0.025804747,0.064978965,-0.11227287,-0.38141826,-0.3485153,0.05985166,-3.0782802,0.6250822,-0.0005560068,-0.021364529,0.001804356,0.0009641378,0.0064773727,0.00036230675,-0.0062728412,0.4774437,-1.4250237,1.9568962,-2.1006129,-1.5707592,2.4525561,-0.019099683,0.03441026,-0.044306275,0.012570359,-0.0059933946,-0.012789249,-0.19153613,0.038307227,-9.615114,0.7083204,47.703903,-0.5163804,-2.231894,-3.3593748,-0.3090206,-0.047903508,-0.05545638,27.625,28.6875,27.875,31.75,33.6875,34.5625
0.046052027,-0.29493833,-1.0913441,-1.2704556,-0.026633676,0.07326682,-0.12193972,-0.38142222,-0.34849733,0.05983187,-3.0782015,0.625066,-0.00062194373,-0.021861678,0.0015047177,0.0013924037,0.005670247,0.0008989823,-0.006447669,0.4774316,-1.4249637,1.9568595,-2.1005528,-1.5707954,2.452544,-0.01933044,0.034565207,-0.045508858,0.01276821,-0.005526388,-0.0128450915,-0.17238252,0.17238252,-9.5385,0.80456203,47.689575,-0.58410203,-2.1718698,-3.3468142,-0.31082657,-0.06072343,-0.05863917,27.625,28.6875,27.875,31.75,33.6875,34.5625
0.048052106,0.19675083,-1.0225092,-1.5039816,-0.04621156,0.07483402,-0.13043241,-0.38150296,-0.3485145,0.059869286,-3.0782425,0.62511384,-0.00049587677,-0.022648597,0.0018179279,0.0006209327,0.007021589,-0.00074298587,-0.00796646,0.47739515,-1.4249029,1.9567045,-2.1005523,-1.5708073,2.4525323,-0.020322597,0.037693232,-0.04753834,0.013750336,-0.005972882,-0.012316743,-0.11492168,0.19153613,-9.519346,0.7463667,47.72719,-0.5006735,-2.1624775,-3.4124672,-0.32781076,-0.04839555,-0.07715927,27.625,28.6875,27.875,31.75,33.6875,34.5625
0.050052524,-0.61481404,-1.8538618,-1.7087817,-0.043562327,0.04870194,-0.13042071,-0.38153008,-0.34847912,0.059852533,-3.078145,0.62509334,-0.000537441,-0.024141131,0.002386622,0.0004533367,0.008999043,0.00010215438,-0.009198811,0.47734678,-1.4248301,1.9566435,-2.1004808,-1.5708684,2.4524837,-0.021316122,0.0400391,-0.049865864,0.013896666,-0.008123313,-0.0120713385,-0.095768064,0.2873042,-9.5385,0.7709874,47.687782,-0.5326476,-2.2591667,-3.4192986,-0.33166683,-0.074209705,-0.08800727,27.625,28.6875,27.875,31.75,33.6875,34.5625
0.052052375,-0.13053857,-1.7979923,-1.4752989,-0.06559191,0.058670364,-0.14877966,-0.3815789,-0.3484767,0.059835445,-3.0781343,0.6252071,-0.0006013642,-0.02580968,0.0028333555,0.0021124287,0.010008896,0.004759573,-0.0096110655,0.4772747,-1.4247228,1.95656,-2.1004808,-1.5708336,2.452484,-0.021671709,0.03845358,-0.051826365,0.0137805445,-0.011164802,-0.012007189,-0.095768064,0.34476504,-9.595961,0.6971306,47.63852,-0.50842935,-2.1200142,-3.362692,-0.31948584,-0.027809745,-0.100002125,27.625,28.6875,27.875,31.75,33.6875,34.5625
0.05405235,-0.81294876,-1.9710928,-1.479565,-0.066453256,0.052011825,-0.14757907,-0.38163975,-0.34848586,0.0598641,-3.0781434,0.6251515,-0.0004523555,-0.02686773,0.00352392,0.0017398602,0.012879079,0.0056217727,-0.010133607,0.4772746,-1.4246744,1.9564394,-2.1004808,-1.5708951,2.4524481,-0.021961205,0.040532913,-0.053347815,0.013785319,-0.014112577,-0.011767735,-0.019153614,0.36391866,-9.5385,0.7665104,47.64121,-0.5312824,-2.0092397,-3.454957,-0.3353452,-0.012360928,-0.096622705,27.625,28.6875,27.875,31.75,33.6875,34.5625
0.05605185,-0.6742199,-1.8462987,-1.4045287,-0.06835145,0.061640527,-0.15695475,-0.38171747,-0.34848338,0.059896555,-3.078153,0.62526894,-0.00042039662,-0.029082544,0.0032874157,0.0024254536,0.012958922,0.0075675063,-0.010502014,0.4771903,-1.4246135,1.956282,-2.1004207,-1.5708827,2.452436,-0.022951419,0.04292063,-0.0577039,0.014064312,-0.015085891,-0.012385558,0.0,0.4405331,-9.653421,0.80456203,47.67614,-0.47502732,-2.0565224,-3.3633928,-0.3327859,0.017758142,-0.12528121,27.625,28.6875,27.875,31.75,33.6875,34.5625
0.058052078,-0.59399337,-2.3625827,-1.4000432,-0.06539083,0.058933727,-0.15860613,-0.38175207,-0.34845695,0.05987488,-3.0780647,0.6252894,-0.00046282355,-0.02879154,0.0030537222,0.0010731134,0.011882984,0.003961588,-0.011437081,0.47714192,-1.4245168,1.9562105,-2.100373,-1.5709299,2.4524117,-0.02396144,0.045611188,-0.05768518,0.014053258,-0.012475014,-0.012464523,-0.076614454,0.5363012,-9.576807,0.72622824,47.695843,-0.49480164,-2.0616887,-3.3211505,-0.33024853,-0.018566985,-0.1389595,27.625,28.6875,27.875,31.75,33.6875,34.5625
0.06005224,-0.59471357,-2.5563617,-1.4602573,-0.06755578,0.046190042,-0.17160013,-0.38181183,-0.3484681,0.05986258,-3.0780618,0.6253079,-0.00046429972,-0.02925662,0.0023093643,0.00069156475,0.010570794,0.002332111,-0.011152574,0.47710583,-1.4243841,1.9560899,-2.100385,-1.5709289,2.4523876,-0.02430646,0.04814374,-0.05980672,0.014479589,-0.010565137,-0.013096713,-0.15322891,0.6512229,-9.519346,0.800085,47.704796,-0.5542928,-2.2321472,-3.5131867,-0.32480252,-0.018332662,-0.12986758,27.625,28.6875,27.875,31.75,33.6875,34.5625
0.06205212,0.0020712607,-1.9663124,-1.3124336,-0.08352922,0.04331117,-0.17366281,-0.3818587,-0.3484787,0.059882488,-3.0780933,0.62537223,-0.00047018283,-0.030866735,0.0010833979,0.002288531,0.0074012564,0.0049987077,-0.011344308,0.47705778,-1.4243363,1.9559816,-2.1003492,-1.5708927,2.4523757,-0.024639785,0.048127983,-0.06338865,0.014247222,-0.008982026,-0.013240036,-0.038307227,0.6512228,-9.385271,0.7239871,47.69763,-0.5599036,-2.1449733,-3.345662,-0.31814355,-0.042809337,-0.14813122,27.625,28.6875,27.875,31.75,33.6875,34.5625
0.06405207,0.089928605,-1.9512601,-1.1936973,-0.072824396,0.048164353,-0.18502842,-0.3819405,-0.34848365,0.059902113,-3.0780523,0.6253252,-0.00035646246,-0.032906827,0.0003224111,0.0031141262,0.0067379405,0.007224055,-0.011004685,0.47704569,-1.4242158,1.9557885,-2.1003015,-1.5709771,2.4523396,-0.024882864,0.050397344,-0.06784927,0.014157176,-0.009424361,-0.013819444,-0.076614454,0.45968673,-9.404425,0.7463667,47.689575,-0.5381084,-2.0765257,-3.151538,-0.29308128,-0.08053568,-0.16643044,27.625,28.6875,27.875,31.75,33.6875,34.5625
0.06605119,-0.22018248,-1.8027809,-1.3772943,-0.060602628,0.055233568,-0.18392652,-0.3819965,-0.34847644,0.059909005,-3.0780451,0.6254002,-0.00037127177,-0.032376852,0.0015281008,0.0012071276,0.009961113,0.0039900504,-0.01118968,0.47697338,-1.424143,1.9556812,-2.1002648,-1.5709652,2.452315,-0.025637792,0.05292145,-0.06648017,0.01462105,-0.010799212,-0.014386901,-0.17238252,0.47884035,-9.32781,0.7642693,47.678825,-0.5634608,-2.153087,-3.326056,-0.30311936,-0.038278315,-0.17525491,27.625,28.6875,27.875,31.75,33.6875,34.5625
0.06805254,-0.47878215,-1.3341806,-0.90901834,-0.052891783,0.06488501,-0.17211482,-0.38208273,-0.348481,0.059929583,-3.0780513,0.6254205,-0.00026163665,-0.034198698,0.0009194575,0.002250023,0.009189317,0.006249158,-0.010551997,0.47692534,-1.4240466,1.9555243,-2.1002648,-1.5710014,2.452279,-0.026000638,0.054252815,-0.07045022,0.0148983,-0.011158205,-0.0153852245,-0.05746084,0.36391866,-9.212888,0.7217513,47.67614,-0.59076494,-2.1237779,-3.2826004,-0.2825797,-0.05251854,-0.16746598,27.625,28.6875,27.875,31.75,33.6875,34.5625
0.070053,-0.551911,-1.3260971,-0.736634,-0.028186101,0.07930238,-0.15993564,-0.38215128,-0.34848234,0.05993092,-3.0780563,0.6255369,-0.00029730907,-0.03536507,0.00097264146,0.0023875383,0.009943876,0.0072121317,-0.010451101,0.47684115,-1.4239384,1.9553922,-2.100241,-1.5709656,2.452267,-0.026440134,0.055864368,-0.072621696,0.01495249,-0.012275313,-0.015922055,-0.095768064,0.3256114,-9.174581,0.79560274,47.67614,-0.64544094,-2.0945714,-3.221564,-0.2638778,-0.043718196,-0.18695325,27.625,28.6875,27.875,31.75,33.6875,34.5625
0.072052315,-0.39470825,-1.1602091,-0.7568002,-0.02026967,0.08128906,-0.16417503,-0.38222736,-0.3485061,0.059942503,-3.0780675,0.6254998,-0.00022913278,-0.036634777,0.00077327515,0.0026712453,0.010458276,0.008224969,-0.009808466,0.4768291,-1.4238061,1.955212,-2.100229,-1.5709904,2.4522305,-0.026652936,0.05771759,-0.075467,0.015283305,-0.013202393,-0.016774468,-0.22984336,0.34476504,-9.11712,0.72622824,47.684196,-0.6303486,-2.1377437,-3.2046776,-0.2623539,-0.052149266,-0.19121264,27.625,28.6875,27.875,31.75,33.6875,34.5625
0.074052475,0.16595985,-0.81760967,-0.6518298,-0.022624634,0.09363523,-0.17113,-0.38229498,-0.34848514,0.059931543,-3.0780163,0.6255466,-0.00024938546,-0.038227502,0.00052718085,0.0031261966,0.0106632225,0.0097703235,-0.0096310545,0.47674492,-1.4236856,1.9550914,-2.1001933,-1.5710143,2.452182,-0.02709622,0.05960133,-0.0786739,0.015328995,-0.014101161,-0.01739101,-0.21068975,0.22984336,-9.174581,0.77545905,47.65912,-0.64372706,-2.1108794,-3.1611307,-0.25350767,-0.045662858,-0.21630938,27.625,28.6875,27.875,31.75,33.6875,34.5625
0.076052465,-0.7288106,-0.97445464,-0.76693416,-0.016708847,0.05562573,-0.15449826,-0.38237172,-0.34849194,0.059940025,-3.0779877,0.62552124,-0.00013443966,-0.03883267,0.00037713538,0.0030651628,0.010859877,0.00925353,-0.00921808,0.4767328,-1.4235653,1.9549345,-2.1001928,-1.5710863,2.452158,-0.02742399,0.061229523,-0.08058918,0.016163502,-0.014040637,-0.018131346,-0.17238252,0.17238252,-9.174581,0.7777002,47.675243,-0.64343214,-2.1458306,-3.0873432,-0.25240695,-0.035063863,-0.22856304,27.625,28.6875,27.875,31.75,33.6875,34.5625
0.078052975,0.24970265,-0.45590445,-0.6889012,-0.028664632,0.073035434,-0.17003313,-0.3824579,-0.34850734,0.059977822,-3.078004,0.62560064,-0.00010343458,-0.039257657,0.0002977612,0.0027909582,0.011599303,0.008503613,-0.008407885,0.47667283,-1.4234688,1.954719,-2.1001089,-1.5710744,2.4521456,-0.027464414,0.063062586,-0.08225001,0.016996983,-0.014354777,-0.018980904,-0.21068975,0.17238252,-9.174581,0.7239871,47.71017,-0.75218076,-2.057043,-3.1150432,-0.23347135,-0.05367787,-0.20316854,27.625,28.6875,27.875,31.75,33.6875,34.5625
0.08005186,-0.24765724,-0.9088528,-0.69224316,-0.014792898,0.06611681,-0.15859792,-0.38253528,-0.34849373,0.0599654,-3.0779648,0.6256499,-6.8951806e-05,-0.04010265,0.00026852472,0.0033387046,0.011971129,0.009073584,-0.008235022,0.47660074,-1.4233369,1.9545993,-2.1001203,-1.5711106,2.4521093,-0.02779913,0.063735805,-0.084577724,0.018315807,-0.014948715,-0.019486327,-0.36391866,0.15322891,-9.193734,0.7620334,47.67614,-0.7927061,-2.05882,-3.0971203,-0.24490085,-0.04189975,-0.20449452,27.625,28.6875,27.875,31.75,33.6875,34.5625
0.08205273,-0.4609979,-0.4830278,-0.79663855,-0.022298917,0.07416132,-0.1623297,-0.38260517,-0.34850702,0.05995481,-3.0779583,0.6256098,-0.00012612763,-0.040623825,0.00085827266,0.0012493392,0.015135455,0.005072352,-0.007860685,0.47655237,-1.4231666,1.9544181,-2.1000721,-1.5710992,2.4520369,-0.02868836,0.06949155,-0.08670147,0.019693216,-0.015927685,-0.020745724,-0.2681506,0.19153613,-9.289503,0.77545905,47.667187,-0.82501876,-2.2531123,-3.0532818,-0.2387738,-0.02641261,-0.22460108,27.625,28.6875,27.875,31.75,33.6875,34.5625
0.08405171,-0.64603466,-0.7838888,-0.9595889,-0.023741199,0.08112125,-0.15379488,-0.382694,-0.34850195,0.059981175,-3.0779371,0.6256433,-3.5074958e-05,-0.041528225,0.00013077869,0.0035568522,0.012375292,0.008298271,-0.007045491,0.47649235,-1.4230716,1.9542383,-2.1000235,-1.5711468,2.4520006,-0.028850337,0.06656361,-0.0888473,0.020628419,-0.014956901,-0.021724941,-0.30645782,0.17238252,-9.232041,0.7553206,47.68062,-0.8558489,-1.997594,-3.0923095,-0.22046977,-0.008696816,-0.24956132,27.625,28.6875,27.875,31.75,33.6875,34.5625
0.086052164,-1.2110474,-1.1291841,-0.9775275,-0.027472675,0.07486943,-0.15267906,-0.38278097,-0.3484912,0.059962653,-3.0778556,0.62576133,-8.770663e-05,-0.04174876,-7.702811e-05,0.0026847806,0.012248131,0.0057420796,-0.007177821,0.47640818,-1.4228785,1.9540461,-2.099963,-1.5711702,2.4520006,-0.029508464,0.06941377,-0.090310425,0.021447906,-0.013674387,-0.022251384,-0.24899697,0.22984336,-9.289503,0.7866488,47.682407,-0.868852,-2.0838404,-3.136681,-0.21480297,-0.038526434,-0.2461217,27.625,28.6875,27.875,31.75,33.6875,34.5625
0.08805225,-0.8276412,-1.4957443,-1.139566,-0.02791543,0.07812611,-0.14682427,-0.3828256,-0.34850317,0.059958834,-3.0778425,0.62566197,-0.00012194941,-0.04188934,-0.0001725298,0.00088277896,0.013629269,0.0019244303,-0.006549146,0.47639593,-1.4227567,1.9539021,-2.0999033,-1.5711821,2.4519281,-0.02980566,0.07435069,-0.092024155,0.022247791,-0.0131542515,-0.023176337,-0.22984336,0.21068975,-9.232041,0.7284641,47.684196,-0.9287836,-2.1715527,-3.1166577,-0.20321074,-0.028728709,-0.23009777,27.625,28.6875,27.875,31.75,33.6875,34.5625
0.09005258,-0.92814165,-1.673754,-1.2077192,-0.03553647,0.06534807,-0.14034727,-0.38291448,-0.34851542,0.059971664,-3.0778506,0.6256621,-0.000106027204,-0.043760605,-0.00064914965,0.0033332447,0.0122507885,0.0068834196,-0.0060606063,0.476336,-1.4226131,1.953698,-2.0998557,-1.5711826,2.4518673,-0.029989108,0.07233101,-0.09540749,0.022614453,-0.014209844,-0.023845088,-0.21068975,0.15322891,-9.2703495,0.77545905,47.668976,-0.865347,-2.093705,-3.1882873,-0.19790538,-0.03141571,-0.24571502,27.625,28.6875,27.875,31.75,33.6875,34.5625
0.09205254,-0.8909104,-1.9302169,-1.2023578,-0.032887045,0.058487393,-0.1395397,-0.38299403,-0.3485163,0.05997073,-3.0778,0.62569,-0.00010203882,-0.04309578,0.0003497519,0.0008787229,0.014947103,0.0025506916,-0.005790789,0.47628766,-1.4224558,1.9535068,-2.099796,-1.5712188,2.451843,-0.030879002,0.07588601,-0.09387122,0.022609148,-0.014617553,-0.025003823,-0.21068975,0.17238252,-9.404425,0.7284641,47.674347,-0.9423411,-2.1277332,-3.2328196,-0.18010291,-0.010184086,-0.24991405,27.625,28.6875,27.875,31.75,33.6875,34.5625
0.09405258,-0.4647018,-1.3294975,-1.1112134,-0.04741358,0.057862427,-0.15268537,-0.38310528,-0.34850436,0.059968762,-3.0777693,0.6257809,-6.6596236e-05,-0.044536747,-5.528944e-05,0.0008656661,0.014777875,0.0028845728,-0.0062405583,0.47617945,-1.4222866,1.9533151,-2.0997837,-1.5712427,2.4517956,-0.03146934,0.07871801,-0.09709375,0.022623166,-0.014627433,-0.025142495,-0.24899697,0.22984336,-9.404425,0.7777002,47.696735,-0.91679037,-2.1097717,-3.3051496,-0.1707932,-0.026677601,-0.25912234,27.625,28.6875,27.875,31.75,33.6875,34.5625
0.09605199,-0.14364672,-1.4541993,-1.0744994,-0.0386824,0.06858237,-0.14830264,-0.38319945,-0.3485064,0.0599812,-3.0777462,0.62579405,-1.7123753e-05,-0.04465981,-0.00028647718,0.0005369095,0.0146503495,0.0019237605,-0.0052224565,0.4761195,-1.4221421,1.9531106,-2.0997355,-1.5712785,2.451747,-0.03152164,0.080057256,-0.09795543,0.022936607,-0.0140753975,-0.026213631,-0.24899697,0.24899697,-9.385271,0.7150385,47.687782,-0.9792326,-2.1645617,-3.1844926,-0.16334996,-0.021734744,-0.2762754,27.625,28.6875,27.875,31.75,33.6875,34.5625
0.09805243,-0.34295467,-1.366008,-1.3738598,-0.04278309,0.060700603,-0.14628619,-0.38329569,-0.3485046,0.059988886,-3.07774,0.6258116,6.810272e-06,-0.045467075,-0.00019432201,0.0005880932,0.015035928,0.0020105836,-0.0052886466,0.4760354,-1.4219974,1.9529194,-2.0996993,-1.5712904,2.4516747,-0.0321675,0.08133578,-0.099665135,0.023466846,-0.014460828,-0.026791742,-0.11492168,0.24899697,-9.500193,0.7777002,47.71823,-1.0276419,-2.2429519,-3.365255,-0.16297278,-0.019938871,-0.25897533,27.625,28.6875,27.875,31.75,33.6875,34.5625
0.10005263,-0.2335162,-1.5071924,-1.2798771,-0.047037285,0.0568375,-0.15365088,-0.38336387,-0.3485132,0.05997852,-3.077694,0.6257833,-2.2633865e-06,-0.046170216,-0.00031616766,0.0005826387,0.014736532,0.0018829113,-0.0057146642,0.47601122,-1.421829,1.9527396,-2.0996516,-1.5713266,2.451639,-0.03280073,0.0826281,-0.10119017,0.023673223,-0.014140243,-0.02699819,-0.076614454,0.24899697,-9.500193,0.85826975,47.703007,-1.0123434,-2.0959766,-3.3284197,-0.14716649,-0.027801424,-0.26893806,27.625,28.6875,27.875,31.75,33.6875,34.5625
0.10205181,-0.07620164,-1.9617618,-1.5310447,-0.039339226,0.056857128,-0.15040395,-0.38345665,-0.34850273,0.059962254,-3.0776293,0.6258268,-7.9782956e-05,-0.046759073,-0.00034055038,0.00026324956,0.015029301,0.0014302443,-0.0056662555,0.47591498,-1.4216243,1.9525236,-2.0995677,-1.5713385,2.4515781,-0.033250194,0.08438442,-0.102506414,0.023767835,-0.014198489,-0.027494034,-0.11492168,0.30645782,-9.385271,0.76874626,47.696735,-1.0933559,-2.1112952,-3.441907,-0.12008858,-0.035882328,-0.28470755,27.625,28.6875,27.875,31.75,33.6875,34.5625
0.10405191,0.066100754,-1.3293629,-1.1589392,-0.053795855,0.050683223,-0.1537539,-0.38356736,-0.34850624,0.05997287,-3.0776234,0.625865,1.1830948e-05,-0.04710492,0.0003355849,-0.00035329623,0.015878918,-0.00026378626,-0.0071324524,0.4758425,-1.4214675,1.95232,-2.0995672,-1.5713743,2.4515305,-0.034769993,0.085825965,-0.102965966,0.024678767,-0.01417576,-0.027548086,-0.038307227,0.24899697,-9.442732,0.800085,47.687782,-1.1097989,-2.0566487,-3.5522904,-0.07947738,-0.032084778,-0.3023832,27.625,28.6875,27.875,31.75,33.6875,34.5625
0.10605239,0.1093204,-1.1602972,-1.2163503,-0.056699738,0.052845728,-0.15424128,-0.3836657,-0.34849653,0.05998908,-3.0775423,0.62590617,5.3547163e-05,-0.04901315,0.00049545633,0.0005244602,0.015878543,0.0004984093,-0.008266527,0.47578168,-1.4213109,1.9520792,-2.099459,-1.5714468,2.451506,-0.036567915,0.087326296,-0.107155494,0.026688145,-0.014530471,-0.028208943,-0.05746084,0.28730422,-9.404425,0.7709874,47.664497,-1.0207248,-2.0663083,-3.389187,-0.10068965,-0.030690674,-0.30003804,27.625,28.6875,27.875,31.75,33.6875,34.5625
0.10805255,0.25437215,-1.1005595,-1.1439991,-0.044037767,0.054765347,-0.15079445,-0.38377807,-0.3485078,0.060000706,-3.0775826,0.625894,0.00012385983,-0.04785819,0.00096469774,-0.000675027,0.017273108,-0.0026670957,-0.0068583675,0.475698,-1.4211546,1.9518765,-2.0994709,-1.5714463,2.4514096,-0.036464907,0.088187136,-0.105662465,0.027783932,-0.014314462,-0.029516222,-0.05746084,0.21068975,-9.346964,0.72622824,47.66987,-1.0377448,-2.0161104,-3.671122,-0.09341596,-0.04158195,-0.30527845,27.625,28.6875,27.875,31.75,33.6875,34.5625
0.11005269,-0.26043844,-1.3511536,-1.286733,-0.03722088,0.055262182,-0.14609158,-0.3838741,-0.34850618,0.059989344,-3.077517,0.6258403,9.804212e-05,-0.049722616,-0.00049691746,0.00133584,0.015685719,0.0008267728,-0.0050361254,0.47563827,-1.4209378,1.9516352,-2.0993865,-1.5714949,2.451325,-0.035447616,0.08875868,-0.11117994,0.028894683,-0.014515359,-0.030317321,-0.019153614,0.17238252,-9.404425,0.8403672,47.647476,-1.1808009,-2.0406003,-3.489443,-0.090407304,-0.030175295,-0.3250277,27.625,28.6875,27.875,31.75,33.6875,34.5625
0.11205164,0.09079068,-0.82697916,-0.9973251,-0.044414796,0.064052135,-0.16007927,-0.38396415,-0.34852332,0.059994053,-3.0775027,0.62595516,8.211532e-05,-0.050403636,0.00012689104,-0.00040653656,0.017419232,-0.0031639712,-0.0070060026,0.47557753,-1.4207681,1.9514192,-2.0993378,-1.5714821,2.4513378,-0.037354253,0.09365608,-0.113137245,0.030294716,-0.01423075,-0.030253196,-0.038307227,0.2681506,-9.423578,0.7597976,47.696735,-1.2443266,-2.0360494,-3.5149932,-0.07726889,-0.037986465,-0.32996923,27.625,28.6875,27.875,31.75,33.6875,34.5625
0.11405204,-0.30655232,-1.2382436,-1.250246,-0.032901634,0.0542872,-0.14144915,-0.38408726,-0.34851742,0.06001465,-3.0774722,0.62594897,0.00017217522,-0.052402377,0.00010672921,0.0018157581,0.016043644,0.0009547128,-0.009029843,0.47549313,-1.4206007,1.951167,-2.0992782,-1.5715426,2.4512537,-0.038705148,0.09181938,-0.11628134,0.030984057,-0.014898128,-0.02957812,-0.076614454,0.19153613,-9.3661175,0.8023209,47.68062,-1.1576744,-1.9122045,-3.4239326,-0.0653436,-0.063198246,-0.3528241,27.625,28.6875,27.875,31.75,33.6875,34.5625
0.11605221,0.096431494,-0.78861564,-1.2663386,-0.047849994,0.06401641,-0.15046364,-0.38416842,-0.34851655,0.060004503,-3.0774477,0.6259242,8.343104e-05,-0.052801732,0.00017695552,0.0008738192,0.016949428,-0.0014815001,-0.008544275,0.475409,-1.4204192,1.9509634,-2.0991938,-1.5715302,2.4511573,-0.039383195,0.09503198,-0.118090056,0.032157768,-0.01459277,-0.030740317,-0.038307227,0.21068975,-9.423578,0.8314132,47.684196,-1.2212641,-1.8871377,-3.4600344,-0.06180022,-0.04608096,-0.34203306,27.625,28.6875,27.875,31.75,33.6875,34.5625
0.11805227,0.07541918,-1.2544717,-1.2396114,-0.045980122,0.069135256,-0.15230739,-0.38427693,-0.3485114,0.0599974,-3.0773938,0.6259714,8.984048e-05,-0.05456368,0.00087969966,0.0021777165,0.016429324,0.0003194881,-0.009801817,0.47532392,-1.4202156,1.9507354,-2.0991457,-1.5715669,2.4511087,-0.041991625,0.09424439,-0.12049026,0.03350391,-0.014959023,-0.032089297,-0.19153614,0.24899697,-9.461885,0.73741806,47.71823,-1.0766978,-1.9156324,-3.4455056,-0.06420106,-0.05057735,-0.35478884,27.625,28.6875,27.875,31.75,33.6875,34.5625
0.12005238,-0.36526063,-1.4779369,-1.2420559,-0.051832322,0.07379899,-0.1549123,-0.38439664,-0.34850454,0.060014986,-3.0773263,0.6259944,0.000117902055,-0.05450866,0.0003438903,0.0017535613,0.017280346,-0.0010533294,-0.0077864155,0.4752404,-1.4200225,1.950447,-2.0990255,-1.5716265,2.4510484,-0.040893376,0.09647454,-0.122378,0.034767985,-0.015090813,-0.033004783,-0.3256114,0.30645782,-9.461885,0.8314132,47.681515,-1.140789,-1.8851595,-3.4775348,-0.035637997,-0.059432663,-0.3554253,27.625,28.6875,27.875,31.75,33.6875,34.5625
0.12205255,-0.72712374,-1.3830248,-1.4109149,-0.051809173,0.079447046,-0.15331185,-0.3844823,-0.3485238,0.06000763,-3.0773437,0.6259193,6.119261e-05,-0.055149622,9.8632154e-05,0.0017830612,0.017896866,-0.0018065947,-0.005951627,0.47518045,-1.4198294,1.9502314,-2.0989764,-1.5716027,2.4509394,-0.0409015,0.09847316,-0.12514205,0.03648413,-0.015299207,-0.034845512,-0.24899697,0.24899697,-9.519346,0.7665104,47.666286,-1.2591238,-1.8289777,-3.4855332,-0.05639063,-0.08634884,-0.331599,27.625,28.6875,27.875,31.75,33.6875,34.5625
0.12405185,-0.50545126,-1.1018074,-1.2104567,-0.055388138,0.09938666,-0.15715916,-0.38459942,-0.34850815,0.060006227,-3.077276,0.6259831,0.00010463946,-0.05684182,2.8628545e-05,0.0023533166,0.016613076,-0.0010412334,-0.006711664,0.47508383,-1.4196371,1.9500035,-2.0989287,-1.5716623,2.4508915,-0.042819083,0.09979983,-0.1280524,0.03679239,-0.01451548,-0.036003076,-0.22984336,0.21068975,-9.615114,0.8605109,47.675243,-1.2443955,-1.8095884,-3.4196095,-0.06360412,-0.09019633,-0.32004946,27.625,28.6875,27.875,31.75,33.6875,34.5625
0.12605199,-0.9564749,-1.1405444,-1.2540421,-0.053178966,0.09300398,-0.15182637,-0.38474572,-0.34852904,0.06004429,-3.0773127,0.6259924,0.00017809187,-0.05894154,0.0007159494,0.0022520928,0.017171133,0.00029928633,-0.009802815,0.4749869,-1.419444,1.9496793,-2.0988576,-1.5716628,2.450796,-0.045218844,0.10207588,-0.13020511,0.03573554,-0.01563009,-0.03530856,-0.34476504,0.11492168,-9.653421,0.8157518,47.684196,-1.1445735,-1.7893816,-3.4134803,-0.041414075,-0.07561962,-0.3453575,27.625,28.6875,27.875,31.75,33.6875,34.5625
0.12805215,-0.9325901,-1.0532805,-1.0810231,-0.047392447,0.09211998,-0.15269524,-0.3848572,-0.34852856,0.06004338,-3.0772471,0.62601525,0.00018135832,-0.061204758,-0.0007052811,0.0039311824,0.015337209,0.0030543997,-0.008750752,0.474915,-1.4192271,1.9494137,-2.0987732,-1.571711,2.4507468,-0.044993203,0.10389318,-0.13638647,0.03680579,-0.015272204,-0.036132134,-0.34476504,0.076614454,-9.653421,0.7597976,47.705692,-1.1811366,-1.817671,-3.324133,-0.036807522,-0.09380185,-0.36680865,27.625,28.6875,27.875,31.75,33.6875,34.5625
0.13005285,-0.77829754,-0.6575294,-1.0482693,-0.04633652,0.096727654,-0.15165986,-0.38501182,-0.348541,0.060079217,-3.0772436,0.6260706,0.0002853378,-0.060805,0.00053201057,0.0008245326,0.01923444,-0.0022836493,-0.0071238372,0.4748187,-1.4190211,1.9490794,-2.0987012,-1.5717472,2.4506857,-0.046136633,0.10931838,-0.13559778,0.037119016,-0.016295714,-0.038900767,-0.4213795,0.17238252,-9.672575,0.83365434,47.66808,-1.2182099,-1.8614058,-3.3561857,-0.0071126693,-0.11393948,-0.3396755,27.625,28.6875,27.875,31.75,33.6875,34.5625
0.13205205,-0.94237,-1.1339486,-1.4634271,-0.024983607,0.08946551,-0.15082179,-0.38507205,-0.34851384,0.06002519,-3.0771158,0.6260254,0.00014262584,-0.06247588,0.00010993895,0.0025327555,0.018123042,0.00046341613,-0.005827469,0.4747465,-1.4187932,1.9489225,-2.0986173,-1.5717953,2.4506018,-0.046726495,0.10890319,-0.13931347,0.03829437,-0.016576635,-0.040782344,-0.40222588,0.22984336,-9.615114,0.8023209,47.66987,-1.2013764,-1.921319,-3.1416874,-0.006731336,-0.11235866,-0.31093657,27.625,28.6875,27.875,31.75,33.6875,34.5625
0.1340521,-0.70145917,-0.6615095,-1.3188171,-0.036929257,0.09896426,-0.15217732,-0.38525644,-0.34852806,0.06009204,-3.0771708,0.62605494,0.00034810443,-0.06276459,0.00082096516,0.00022547107,0.021174446,-0.004510667,-0.005443529,0.47462595,-1.4186229,1.9485635,-2.0985682,-1.5718311,2.4504929,-0.047942273,0.11473747,-0.14116445,0.040126093,-0.017013688,-0.042381972,-0.47884035,0.22984336,-9.634268,0.83589023,47.65643,-1.2161167,-2.008462,-3.2346866,-0.025895718,-0.11320322,-0.29392365,27.625,28.6875,27.875,31.75,33.6875,34.5625
0.1360525,-1.3261337,-1.3651143,-1.2473722,-0.038855296,0.09053766,-0.1461564,-0.3853396,-0.34851897,0.060054686,-3.0770664,0.62610984,0.00019904827,-0.06435349,0.00064204686,0.0017259426,0.019705066,-0.001545547,-0.0051643043,0.4745417,-1.418371,1.9483355,-2.098461,-1.5718435,2.4504564,-0.04902352,0.11383566,-0.14358667,0.040137853,-0.017074576,-0.04373909,-0.47884035,0.24899697,-9.615114,0.842603,47.684196,-1.1833427,-1.976193,-3.267931,-0.011317367,-0.11962132,-0.29109567,27.625,28.6875,27.875,31.75,33.6875,34.5625
0.1380527,-0.99309963,-1.3659945,-1.1232451,-0.056597516,0.104533404,-0.15426104,-0.3854979,-0.34853548,0.060078766,-3.0770757,0.62613016,0.0002521632,-0.06554982,0.00047303835,0.001420238,0.019806039,-0.0020595647,-0.0045700273,0.47443342,-1.4181297,1.9479874,-2.098389,-1.571855,2.4503598,-0.04988422,0.11675736,-0.14633998,0.040468235,-0.016935507,-0.04519328,-0.53630114,0.2681506,-9.5385,0.7665104,47.711063,-1.2296314,-1.8530691,-3.249257,0.013664499,-0.14917797,-0.2745422,27.625,28.6875,27.875,31.75,33.6875,34.5625
0.14005215,-1.6693413,-1.9280393,-1.1322907,-0.052187856,0.090567715,-0.1393693,-0.38559878,-0.34852675,0.060087197,-3.0770075,0.6260582,0.0002767893,-0.06510222,0.0017667995,-1.2266971e-05,0.023577278,-0.006167913,-0.0038228703,0.47437307,-1.4179485,1.9477357,-2.0982797,-1.5719284,2.4502635,-0.050797887,0.11928598,-0.14671788,0.043693744,-0.018410858,-0.046850115,-0.53630114,0.36391866,-9.500193,0.86498255,47.68599,-1.1572757,-1.9422717,-3.349912,-0.021939028,-0.14263788,-0.22986515,27.625,28.6875,27.875,31.75,33.6875,34.5625
0.14205228,-1.160842,-1.7112505,-0.8809923,-0.06400482,0.10428103,-0.15461238,-0.3857923,-0.34852773,0.06012363,-3.0770142,0.62609607,0.00042211547,-0.06549266,0.002422784,-0.0002817398,0.025094898,-0.007958392,-0.0031535008,0.47422868,-1.4177077,1.9473652,-2.098231,-1.5719761,2.4501421,-0.05194104,0.12072864,-0.14834277,0.046156544,-0.018941099,-0.04866244,-0.51714754,0.40222588,-9.423578,0.7777002,47.675243,-1.2604797,-1.8594444,-3.343647,-0.020716108,-0.1293435,-0.20390294,27.625,28.6875,27.875,31.75,33.6875,34.5625
0.14405225,-0.5497399,-1.4194257,-0.7900206,-0.05206653,0.10332577,-0.15281607,-0.38591525,-0.34853482,0.0601326,-3.0769887,0.6260914,0.0004297859,-0.06665589,0.0024934488,-0.00055316824,0.02536899,-0.008988806,-0.00304186,0.47414422,-1.4174907,1.9470767,-2.0981472,-1.5719999,2.4500582,-0.05325113,0.12348331,-0.15115719,0.047252692,-0.018721282,-0.050082866,-0.4405331,0.38307226,-9.289503,0.7933669,47.661808,-1.1542246,-1.9875482,-3.4018204,-0.03908509,-0.12363882,-0.17632283,27.625,28.6875,27.875,31.75,33.6875,34.5625
0.14605184,-0.6482079,-0.7780456,-0.69258976,-0.041024417,0.075387344,-0.14836448,-0.3860518,-0.3485264,0.06011125,-3.076918,0.62605715,0.00040111854,-0.06702625,0.0029554204,-0.0005752109,0.025912283,-0.00963374,-0.0031408127,0.4740359,-1.4172024,1.9467782,-2.0980752,-1.5720485,2.4499378,-0.054257076,0.12394782,-0.1519271,0.048374917,-0.01891531,-0.050988086,-0.2681506,0.2873042,-9.212888,0.8314132,47.675243,-1.1775036,-1.7897847,-3.400844,-0.039288934,-0.13233323,-0.16597253,27.625,28.6875,27.875,31.75,33.6875,34.5625
0.14805205,-0.4511673,-0.24179065,-0.28496101,-0.035013106,0.054202095,-0.15406084,-0.38621005,-0.34851763,0.060123738,-3.0768847,0.62612754,0.00042199527,-0.06833418,0.0036007105,-0.0005493401,0.025626203,-0.010950027,-0.0054259035,0.47389096,-1.4169614,1.9464539,-2.0979908,-1.5720719,2.4498413,-0.05710974,0.12558296,-0.15429206,0.05013762,-0.018064577,-0.051556557,-0.22984336,0.1340753,-9.097966,0.77545905,47.67345,-1.0659908,-1.8889599,-3.3803048,-0.057400882,-0.16725743,-0.10539049,27.625,28.6875,27.875,31.75,33.6875,34.5625
0.15005262,-0.0037997058,-0.41570285,-0.21408412,-0.009127164,0.050672572,-0.15312614,-0.38636637,-0.348527,0.06015979,-3.0768836,0.6261268,0.00053778227,-0.06771307,0.003164415,-0.0024759353,0.028310027,-0.015249769,-0.0047433823,0.47379565,-1.4167554,1.9461187,-2.0979183,-1.5721196,2.449746,-0.055477176,0.13068467,-0.15619414,0.051987473,-0.018489156,-0.050605237,-0.28730422,0.1340753,-8.925584,0.92764956,47.67614,-1.157341,-1.9676862,-3.423478,-0.067930035,-0.16596657,-0.0966212,27.625,28.6875,27.875,31.75,33.6875,34.5625
0.15205194,0.36494604,0.5548813,-0.012414652,-0.010536733,0.04746211,-0.15322767,-0.38650572,-0.34851047,0.06014044,-3.0768075,0.6261711,0.0004998286,-0.06941168,0.003673153,0.00015474817,0.027362868,-0.011652646,-0.008498082,0.47366294,-1.4164805,1.9458307,-2.0978453,-1.5721563,2.4496508,-0.057376873,0.12744996,-0.15908328,0.054479726,-0.019292612,-0.04874691,-0.19153613,0.076614454,-8.829816,0.779936,47.67166,-1.1464796,-1.7493608,-3.4030714,-0.08470644,-0.17163351,-0.09200573,27.625,28.6875,27.875,31.75,33.6875,34.5625
0.1540519,0.75428075,0.63056105,0.014802738,0.0015630318,0.054163683,-0.16066031,-0.3866347,-0.34851366,0.06012783,-3.076752,0.6261592,0.00044655954,-0.07036622,0.004427954,-0.0005760608,0.028692046,-0.014481184,-0.009747806,0.47356626,-1.416203,1.9455189,-2.097749,-1.5721802,2.449554,-0.059623085,0.13063884,-0.16168469,0.057010803,-0.01919141,-0.049741197,-0.17238252,0.019153614,-8.772355,0.8537928,47.657326,-1.1271615,-1.8579526,-3.3880322,-0.120259896,-0.18540178,-0.101726726,27.625,28.6875,27.875,31.75,33.6875,34.5625
0.15605216,0.89718044,0.44055432,-0.18620376,0.00806488,0.04908818,-0.15750755,-0.38676673,-0.34849107,0.06011875,-3.0766773,0.6261653,0.0003643694,-0.07208874,0.0048500677,-0.00011712024,0.02924573,-0.014821732,-0.012425365,0.47342134,-1.4159501,1.9452189,-2.0976164,-1.572204,2.4494226,-0.061685875,0.13269992,-0.16569857,0.059517473,-0.019539239,-0.049122177,-0.095768064,0.019153614,-8.772355,0.76874626,47.67345,-0.9575785,-1.8167045,-3.4012203,-0.14745569,-0.20386982,-0.080591045,27.625,28.6875,27.875,31.75,33.6875,34.5625
0.15805236,0.29805118,-0.5467971,-0.124252774,0.009800815,0.039339963,-0.14457789,-0.38692454,-0.3484698,0.0601423,-3.0765688,0.6262775,0.0004404996,-0.07033339,0.0048888875,-0.0017697893,0.031747524,-0.01951013,-0.014254738,0.47330207,-1.4157213,1.9448723,-2.0974839,-1.5723003,2.4493876,-0.06007708,0.13492493,-0.165064,0.06197036,-0.019622369,-0.045683965,-0.095768064,0.038307227,-8.695741,0.8291774,47.72808,-1.1069515,-1.8698497,-3.4240775,-0.18768355,-0.19687447,-0.09123214,27.625,28.6875,27.875,31.75,33.6875,34.5625
0.16005263,0.34098595,-0.12904304,-0.07975864,-0.0149247255,0.044322986,-0.15196547,-0.38705736,-0.34845868,0.06013746,-3.0764897,0.62628144,0.000318307,-0.072336234,0.0053742533,-0.001623837,0.031621303,-0.020213148,-0.017350757,0.4731691,-1.4154439,1.9445237,-2.097304,-1.5723122,2.4492674,-0.06299964,0.13762212,-0.16892202,0.06369511,-0.019203002,-0.04550754,-0.095768064,0.05746084,-8.829816,0.83813137,47.703007,-0.9992044,-1.8757286,-3.309988,-0.21927556,-0.20520599,-0.10105083,27.625,28.6875,27.875,31.75,33.6875,34.5625
0.16205172,0.122770384,-0.014662639,-0.39500916,-0.02544908,0.045326415,-0.15047401,-0.38721237,-0.3484659,0.06013631,-3.0764503,0.62635136,0.00029942463,-0.07413917,0.0056229727,-0.0009779421,0.03218673,-0.019305661,-0.01973753,0.4730487,-1.415155,1.9441751,-2.0972197,-1.5723246,2.4491959,-0.06445242,0.13930567,-0.17272432,0.0652658,-0.020128367,-0.04456891,-0.095768064,0.095768064,-9.021352,0.7642693,47.705692,-0.91426456,-1.796907,-3.2461,-0.2568351,-0.21650758,-0.13060002,27.625,28.6875,27.875,31.75,33.6875,34.5625
0.16405192,0.14175437,-0.8818587,-0.7696503,-0.0270319,0.06436712,-0.14835568,-0.38733506,-0.34845012,0.060118336,-3.0763535,0.62629366,0.00021023309,-0.07542227,0.0057727783,-0.002125875,0.03369242,-0.020849146,-0.020597944,0.47294018,-1.4148769,1.9438637,-2.0970757,-1.5723728,2.449064,-0.065441474,0.14401841,-0.17560707,0.06549358,-0.020779978,-0.04469154,-0.21068975,0.15322891,-9.193734,0.81351066,47.67345,-0.94121975,-1.980147,-3.0899715,-0.29690498,-0.2314696,-0.12355359,27.625,28.6875,27.875,31.75,33.6875,34.5625
0.16605194,-0.68687654,-1.2009903,-0.8838798,-0.04536397,0.06764635,-0.14890957,-0.3874999,-0.34843144,0.060138106,-3.076242,0.62638724,0.00018188271,-0.07723037,0.0051919776,-8.8256806e-05,0.030997252,-0.016466929,-0.024186969,0.47279593,-1.4146018,1.943456,-2.0968726,-1.5724329,2.4489927,-0.06627568,0.14228992,-0.17809996,0.0645841,-0.020388,-0.04193532,-0.30645782,0.3256114,-9.097966,0.87617236,47.68062,-0.93125594,-1.7195134,-3.3426378,-0.31644332,-0.23256329,-0.113767385,27.625,28.6875,27.875,31.75,33.6875,34.5625
0.16805209,-0.6228549,-1.3222979,-1.0282254,-0.06879248,0.093629405,-0.15473755,-0.3876232,-0.34840024,0.060098805,-3.0760996,0.6264935,3.783539e-05,-0.07799142,0.0053124586,-0.0008695796,0.031021226,-0.016311843,-0.02732489,0.47265172,-1.4143008,1.94317,-2.096742,-1.5724686,2.4489334,-0.06708427,0.14433381,-0.17824607,0.06255945,-0.020491855,-0.039602045,-0.4213795,0.38307226,-9.346964,0.7620334,47.70211,-0.890857,-1.8136554,-3.3008766,-0.32287854,-0.24655876,-0.16098452,27.625,28.6875,27.875,31.75,33.6875,34.5625
0.17005228,-1.4117608,-2.0430543,-1.3472695,-0.07995504,0.10424537,-0.14897285,-0.38775983,-0.3483824,0.060067788,-3.0759764,0.62654495,-8.9784924e-05,-0.07989921,0.0051766457,-0.0011549689,0.030658757,-0.014564693,-0.027841978,0.4725194,-1.4139752,1.9428338,-2.0965989,-1.5725049,2.4488492,-0.0682299,0.14719729,-0.1803737,0.06009945,-0.020984616,-0.040224556,-0.38307226,0.49799395,-9.442732,0.7866488,47.682407,-0.89624476,-1.8172469,-3.3474922,-0.32989174,-0.23634411,-0.19308183,27.625,28.6875,27.875,31.75,33.6875,34.5625
0.1720526,-1.674539,-2.440617,-1.2888352,-0.09995296,0.11723881,-0.15279421,-0.38795072,-0.34838155,0.060093623,-3.075939,0.6265757,-3.1699943e-05,-0.08077301,0.0050803865,-0.0014080415,0.030527215,-0.014672562,-0.02795629,0.47237518,-1.4136863,1.9424151,-2.0964792,-1.5725526,2.4487293,-0.06891509,0.14913253,-0.18199876,0.05981892,-0.020826938,-0.040795073,-0.40222588,0.51714754,-9.595961,0.7597976,47.66271,-0.8669138,-1.8168626,-3.3082318,-0.32191646,-0.26027352,-0.21477714,27.625,28.6875,27.875,31.75,33.6875,34.5625
0.1740526,-1.4870478,-2.5127482,-1.4611329,-0.112610675,0.12641895,-0.15010427,-0.38810968,-0.34835887,0.060081262,-3.0758362,0.62672746,-0.00011054635,-0.08348234,0.004816115,-0.0012285213,0.028518178,-0.010137304,-0.02986282,0.4722065,-1.4133854,1.9420675,-2.0963495,-1.5725769,2.4486687,-0.070675924,0.15103363,-0.18340316,0.0543664,-0.021123983,-0.04064488,-0.51714754,0.51714754,-9.691729,0.81351066,47.661808,-0.86594546,-1.8828743,-3.3731675,-0.30116925,-0.28052825,-0.20139675,27.625,28.6875,27.875,31.75,33.6875,34.5625
0.17605172,-1.3612343,-2.524634,-1.5482916,-0.10550208,0.12777795,-0.14898366,-0.38827938,-0.34835836,0.0600843,-3.075774,0.62671536,-5.481614e-05,-0.08567543,0.004402384,-0.0003583991,0.026879402,-0.0056316233,-0.030874005,0.4720982,-1.4130851,1.941696,-2.0962665,-1.5726494,2.4485612,-0.07151022,0.15158138,-0.18528602,0.05094081,-0.02172802,-0.040464353,-0.61291564,0.51714754,-9.691729,0.83365434,47.672558,-0.7758896,-1.8134615,-3.4153013,-0.270238,-0.27224803,-0.2269415,27.625,28.6875,27.875,31.75,33.6875,34.5625
0.17805186,-1.5265186,-2.0751386,-1.6603134,-0.09587894,0.11251932,-0.14381462,-0.3884479,-0.34835896,0.060096554,-3.0757318,0.6268406,-5.8950962e-05,-0.08653862,0.004615431,-0.0015954146,0.027520685,-0.006018094,-0.031227278,0.4719541,-1.4128078,1.9413246,-2.0961602,-1.5726613,2.4485009,-0.07236893,0.15473838,-0.18564561,0.04877608,-0.022133123,-0.040967286,-0.5554548,0.5363012,-9.672575,0.80456203,47.698532,-0.770949,-1.7102276,-3.529882,-0.21956083,-0.28889084,-0.25215867,27.625,28.6875,27.875,31.75,33.6875,34.5625
0.1800522,-1.1288234,-1.7847612,-1.7815906,-0.08091823,0.11084888,-0.15385717,-0.38860577,-0.34834966,0.06006735,-3.0756474,0.6268609,-0.00015562928,-0.08802165,0.003895743,-0.0004143894,0.026434239,-0.0033018286,-0.03089663,0.4718099,-1.412459,1.940965,-2.0960524,-1.5726851,2.4483805,-0.07222418,0.15516934,-0.1888591,0.048641875,-0.022414075,-0.041148614,-0.53630114,0.36391866,-9.80665,0.900793,47.684196,-0.8100085,-1.847053,-3.5178812,-0.21149902,-0.31947908,-0.28141573,27.625,28.6875,27.875,31.75,33.6875,34.5625
0.18205246,-0.6585303,-1.2420139,-1.721035,-0.06990736,0.11854845,-0.14899479,-0.3888269,-0.34834293,0.060090464,-3.0756013,0.62704456,-5.3534306e-05,-0.090526246,0.004771811,-0.0014222087,0.026332742,-0.0029301897,-0.033685762,0.47162876,-1.4121451,1.9405345,-2.0959814,-1.5727333,2.4483202,-0.07592466,0.15914917,-0.19059435,0.046012565,-0.022504754,-0.042058885,-0.51714754,0.28730422,-9.864111,0.8672237,47.695843,-0.6220492,-1.9970994,-3.679475,-0.17146656,-0.3479834,-0.2870555,27.625,28.6875,27.875,31.75,33.6875,34.5625
0.18405245,-1.3072726,-0.9281209,-1.5702285,-0.05851358,0.09599477,-0.14361136,-0.38899317,-0.3483434,0.06007458,-3.0755167,0.62712204,-6.821613e-05,-0.090073995,0.0036473882,-0.0028113802,0.026877442,-0.0038361386,-0.031131292,0.47150964,-1.4118079,1.940163,-2.095898,-1.572781,2.4482605,-0.07344568,0.1624783,-0.19085225,0.04399139,-0.022587711,-0.042132113,-0.51714754,0.22984336,-9.749189,0.8537928,47.684196,-0.74661183,-2.046453,-3.646552,-0.1072506,-0.3391662,-0.29069412,27.625,28.6875,27.875,31.75,33.6875,34.5625
0.18605186,-1.224512,-0.9038648,-1.6103967,-0.045653682,0.09605496,-0.14655389,-0.38918802,-0.3483261,0.06008019,-3.0754325,0.62725794,-2.7764463e-05,-0.09116456,0.0034507872,-0.002892133,0.027458876,-0.005053257,-0.03085393,0.47134143,-1.4114947,1.9397672,-2.095801,-1.572841,2.4481883,-0.07405679,0.16549602,-0.19468231,0.046143852,-0.022561198,-0.04301853,-0.4405331,0.17238252,-9.80665,0.7530795,47.652847,-0.84225184,-2.1127877,-3.7765641,-0.10445981,-0.3479253,-0.30884993,27.625,28.6875,27.875,31.75,33.6875,34.5625
0.18805215,-0.6995527,-0.6596467,-1.5031093,-0.030010948,0.094944276,-0.15242003,-0.38938275,-0.34830785,0.060061745,-3.075341,0.6273937,-8.8743116e-07,-0.093588926,0.004740526,-0.0025452196,0.027871529,-0.0041558505,-0.034971766,0.47117212,-1.4111458,1.9393963,-2.0957534,-1.5729016,2.4481158,-0.07796707,0.16698739,-0.19738181,0.046736684,-0.023344332,-0.042806525,-0.30645782,0.11492168,-9.672575,0.7597976,47.68062,-0.7045292,-2.1520536,-3.7323523,-0.08201219,-0.3674227,-0.341159,27.625,28.6875,27.875,31.75,33.6875,34.5625
0.19005235,-0.12615128,-0.01883506,-1.1429105,-0.025203176,0.08278271,-0.14025676,-0.389583,-0.34832278,0.060063742,-3.0753415,0.6274295,1.2683092e-05,-0.09371786,0.0026478476,-0.0018558999,0.027983213,-0.0021787973,-0.030202221,0.47101778,-1.4107966,1.9389752,-2.0956933,-1.5729021,2.447984,-0.07370474,0.16866946,-0.20100167,0.04696239,-0.024351295,-0.04330889,-0.17238252,-0.019153614,-9.672575,0.89631605,47.695843,-0.88931906,-2.1573713,-3.5921638,-0.04646167,-0.38919294,-0.36413607,27.625,28.6875,27.875,31.75,33.6875,34.5625
0.19205235,0.15605342,0.22532251,-0.9474717,-0.020872943,0.0701209,-0.16003615,-0.38975686,-0.34832415,0.06007481,-3.075268,0.6274722,6.726803e-05,-0.095403515,0.002558858,-0.000772876,0.027886203,-0.0005483665,-0.03091052,0.47090936,-1.4104964,1.938579,-2.095585,-1.5729741,2.447912,-0.074606925,0.16951653,-0.20483327,0.048446212,-0.025011903,-0.043498717,-0.19153613,0.076614454,-9.442732,0.78217715,47.691364,-0.9347261,-2.1845903,-3.4203277,-0.027003802,-0.39243263,-0.38096833,27.625,28.6875,27.875,31.75,33.6875,34.5625
0.19405241,0.48123038,0.13847364,-1.2091978,-0.011650087,0.061742213,-0.15198334,-0.3899602,-0.34831086,0.06007781,-3.0751944,0.627552,0.000106656415,-0.09638874,0.0027031568,-0.001106571,0.029344816,-0.0013970223,-0.03083773,0.47074127,-1.4101588,1.9381608,-2.0954893,-1.5730346,2.4478035,-0.07510932,0.17238487,-0.20776866,0.049926423,-0.025933828,-0.044069003,-0.095768064,0.05746084,-9.308657,0.8672237,47.691364,-0.8562771,-2.1882849,-3.3389115,0.010432707,-0.37716955,-0.39174774,27.625,28.6875,27.875,31.75,33.6875,34.5625
0.19605246,0.24610893,-0.119192116,-1.2119495,-0.018133538,0.041595243,-0.1448772,-0.39013544,-0.3482928,0.060058396,-3.0750682,0.62765944,8.458318e-05,-0.09643009,0.002467957,-0.0011584157,0.030368641,-0.002625006,-0.030031027,0.47059754,-1.4098104,1.9377784,-2.0953805,-1.5731066,2.4477434,-0.07445956,0.17385145,-0.20990005,0.052144088,-0.026294751,-0.044222057,-0.05746084,0.21068975,-9.385271,0.7866488,47.675243,-0.9741136,-2.1120648,-3.3822336,0.016608138,-0.3885249,-0.42481962,27.625,28.6875,27.875,31.75,33.6875,34.5625
0.19805264,0.13529767,-1.1719347,-1.0182841,-0.034677483,0.043500084,-0.14321533,-0.39033058,-0.34830436,0.060063038,-3.0750132,0.6277057,8.692985e-05,-0.09696906,0.0025450531,-0.0011822787,0.031897828,-0.0034583039,-0.029881025,0.47046545,-1.4094493,1.9373235,-2.0952604,-1.5731434,2.4476476,-0.07440199,0.17569514,-0.21253473,0.05436941,-0.027284121,-0.044309393,-0.038307227,0.17238252,-9.32781,0.77545905,47.703903,-1.0021107,-2.06004,-3.3245158,0.010490969,-0.3954182,-0.45390904,27.625,28.6875,27.875,31.75,33.6875,34.5625
0.20005359,0.05548673,-2.105853,-1.2173425,-0.054820463,0.051586818,-0.14437199,-0.390578,-0.3482801,0.060089346,-3.0749316,0.6278797,0.00023658124,-0.09819309,0.002617132,0.00025350152,0.032330003,-0.0019176886,-0.02849696,0.4702613,-1.4091129,1.9368557,-2.0951755,-1.5732392,2.447563,-0.07487058,0.17535801,-0.2160856,0.057069317,-0.028373912,-0.04615862,-0.05746084,0.3256114,-9.32781,0.7978386,47.657326,-1.0657218,-2.060604,-3.420004,-0.0030816814,-0.40047157,-0.4537192,27.625,28.6875,27.875,31.75,33.6875,34.5625
0.20205218,0.057528723,-1.971087,-1.109052,-0.07863638,0.060418803,-0.1501296,-0.39075086,-0.3482757,0.060092866,-3.0748494,0.6278995,0.00020591545,-0.09827198,0.0037955947,-0.00028379154,0.03504922,-0.00451441,-0.028189791,0.47012904,-1.4087882,1.936437,-2.0950186,-1.5732878,2.447454,-0.07617116,0.17670716,-0.21721873,0.060394514,-0.029624773,-0.047760237,0.05746084,0.49799395,-9.308657,0.82022345,47.694946,-0.9781198,-1.9649293,-3.3867478,0.0034105538,-0.37414634,-0.4643685,27.625,28.6875,27.875,31.75,33.6875,34.5625
0.2040525,-0.048162334,-2.2707262,-0.9022302,-0.08219688,0.060629193,-0.14508742,-0.39093956,-0.34826443,0.06008846,-3.074731,0.6279321,0.0002609567,-0.09769939,0.0051077916,-0.0009932964,0.038545217,-0.00858433,-0.027384214,0.4700087,-1.408439,1.9360188,-2.094909,-1.5733961,2.4473696,-0.07710759,0.17795017,-0.21820703,0.06534293,-0.030896932,-0.049496934,0.076614454,0.40222588,-9.270349,0.8493211,47.689575,-1.0194639,-2.0807886,-3.3920717,-0.05170575,-0.382891,-0.46541524,27.625,28.6875,27.875,31.75,33.6875,34.5625
0.20605221,0.22871582,-1.6725217,-0.8795745,-0.086136654,0.061126605,-0.15728164,-0.39111614,-0.34826162,0.060057815,-3.074656,0.6279126,0.00013692045,-0.09927242,0.0043692817,-0.0004465846,0.03854772,-0.0073384293,-0.02247652,0.4698528,-1.4080418,1.9355997,-2.0947773,-1.5734085,2.4472115,-0.076797895,0.18046513,-0.22259805,0.066093326,-0.03149002,-0.054087263,0.05746084,0.34476504,-9.308656,0.83813137,47.66987,-1.0459616,-2.0367236,-3.388393,-0.028291037,-0.3751412,-0.4540999,27.625,28.6875,27.875,31.75,33.6875,34.5625
0.20805252,0.24494597,-1.9612496,-1.0675569,-0.04190371,0.03939481,-0.14730321,-0.3913582,-0.3482358,0.060071282,-3.0745478,0.6281222,0.000188314,-0.10004906,0.0056525026,-0.00012510241,0.038922857,-0.009491007,-0.025100041,0.46963564,-1.4076698,1.9351085,-2.0946443,-1.57348,2.4471395,-0.080093555,0.18055734,-0.22434326,0.06982082,-0.030852908,-0.054761168,0.019153614,0.34476504,-9.174581,0.81351066,47.672558,-0.9199064,-1.8755206,-3.4845943,-0.07452147,-0.38997996,-0.46359745,27.625,28.6875,27.875,31.75,33.6875,34.5625
0.21005198,0.92242324,-0.9389153,-0.903942,-0.03962683,0.04068361,-0.15196796,-0.39154422,-0.34824792,0.060065374,-3.0744858,0.6280679,0.00019679999,-0.0976425,0.005899045,-0.0011007866,0.04274424,-0.015139288,-0.020342251,0.4695286,-1.4072971,1.934666,-2.0945342,-1.5735406,2.447007,-0.07778375,0.18146835,-0.2246099,0.07593202,-0.0317018,-0.0572057,0.038307227,0.38307226,-9.193734,0.8224646,47.67345,-1.0701268,-1.824234,-3.4254847,-0.13116375,-0.39143455,-0.42660758,27.625,28.6875,27.875,31.75,33.6875,34.5625
0.21205221,0.9867773,-0.83412224,-0.9029876,-0.018053334,0.036371794,-0.1493643,-0.39175752,-0.34822088,0.060070198,-3.074375,0.6281375,0.0001912284,-0.09905568,0.006301962,-0.0011148101,0.044429682,-0.014080497,-0.016522102,0.46933624,-1.4069362,1.9341997,-2.0943673,-1.5736135,2.4468727,-0.07842091,0.18353538,-0.22706717,0.07612421,-0.033708446,-0.061652385,0.11492168,0.2873042,-9.097966,0.8851263,47.66091,-1.1220603,-1.8402089,-3.492138,-0.15494376,-0.36007333,-0.40203398,27.625,28.6875,27.875,31.75,33.6875,34.5625
0.21405238,0.68487656,-0.26775306,-0.83251315,-0.024048839,0.04351549,-0.14846224,-0.3919744,-0.3482289,0.060079172,-3.0743337,0.62818533,0.00021905574,-0.1005125,0.007986552,-0.0028038446,0.048012763,-0.018293766,-0.014090895,0.46917892,-1.4065617,1.933721,-2.094258,-1.5736498,2.4467509,-0.08179681,0.18897231,-0.23027292,0.07925101,-0.035017308,-0.06745281,0.11492168,0.30645782,-9.059659,0.85155696,47.65912,-0.9228637,-1.9523036,-3.4530663,-0.18389583,-0.34796226,-0.33889124,27.625,28.6875,27.875,31.75,33.6875,34.5625
0.21605186,0.12638861,-0.8457644,-0.78161824,-0.017651504,0.048990313,-0.13789682,-0.39213133,-0.34821102,0.06004293,-3.074171,0.62813014,9.238632e-05,-0.09989828,0.006953103,-0.0026491138,0.049470793,-0.018703269,-0.011135535,0.46906036,-1.4061652,1.9333013,-2.094066,-1.5737337,2.4466193,-0.078672625,0.19009355,-0.23245734,0.08133354,-0.03614818,-0.06727301,0.05746084,0.19153614,-9.040505,0.8784135,47.666286,-1.1769233,-1.9030442,-3.412319,-0.2235409,-0.33070204,-0.32243228,27.625,28.6875,27.875,31.75,33.6875,34.5625
0.21805269,0.24573377,-0.62972844,-0.6578486,-0.02523245,0.062606126,-0.14780258,-0.39233798,-0.34821832,0.06006215,-3.074126,0.62813807,6.821501e-05,-0.10168047,0.007468593,-0.0013941354,0.049729355,-0.016773708,-0.009267304,0.46890384,-1.4058049,1.9327992,-2.0938861,-1.5737585,2.4464738,-0.08040196,0.19001341,-0.23566619,0.083003774,-0.037271302,-0.07086377,0.019153614,0.019153614,-9.136273,0.83589023,47.678825,-1.1681716,-1.8749588,-3.46637,-0.27408898,-0.32073057,-0.26217288,27.625,28.6875,27.875,31.75,33.6875,34.5625
0.22005278,0.18278396,-0.533585,-0.53050697,-0.028711358,0.06571342,-0.14993547,-0.39254567,-0.34820908,0.06005184,-3.0740342,0.62811756,5.989881e-05,-0.1031236,0.007268072,-0.0017501566,0.049433332,-0.0175992,-0.008159945,0.46874726,-1.4054072,1.9323324,-2.0937545,-1.57383,2.4463167,-0.08168294,0.19342642,-0.2389896,0.083496265,-0.03665655,-0.073250405,0.038307227,-0.076614454,-9.11712,0.900793,47.691364,-1.092398,-1.996745,-3.3448122,-0.30324972,-0.31360766,-0.22450158,27.625,28.6875,27.875,31.75,33.6875,34.5625
0.22205186,0.21589968,-0.85184526,-0.77008986,-0.012625071,0.057963703,-0.14318646,-0.39273763,-0.34818745,0.060026307,-3.073903,0.62805146,-1.0169379e-05,-0.103244066,0.0072511216,-0.0028874842,0.050203815,-0.0183683,-0.0077221924,0.46859133,-1.4049978,1.9318784,-2.0935872,-1.5739144,2.446137,-0.08148338,0.19576535,-0.23884228,0.082032956,-0.037015278,-0.073482275,-0.11492168,0.019153614,-9.136273,0.8627467,47.66271,-1.1697171,-2.0838418,-3.3755121,-0.30223307,-0.29160017,-0.19091132,27.625,28.6875,27.875,31.75,33.6875,34.5625
0.22405182,0.13855386,-0.79006916,-0.62651163,-0.023881966,0.06895347,-0.15951876,-0.39295605,-0.34817135,0.06003189,-3.0738034,0.628203,-2.2013266e-05,-0.10553108,0.0072059454,-0.0020667952,0.050583605,-0.013949389,-0.008280043,0.4683991,-1.4046252,1.9313987,-2.0934327,-1.5739635,2.4460526,-0.08188406,0.19690195,-0.24161083,0.079891995,-0.03937068,-0.07331197,-0.1340753,0.11492168,-9.174581,0.88289046,47.675243,-1.1466286,-2.0769944,-3.5035596,-0.2971262,-0.28114775,-0.17526463,27.625,28.6875,27.875,31.75,33.6875,34.5625
0.22605266,0.17074397,-0.46411994,-0.7037176,-0.04495782,0.08966227,-0.16169874,-0.39315677,-0.348161,0.06002972,-3.073683,0.6281595,-6.342353e-05,-0.107812926,0.006876611,-0.001861093,0.050061494,-0.010738421,-0.009953339,0.468255,-1.4042275,1.9308966,-2.093229,-1.5740474,2.4458973,-0.08265185,0.19936356,-0.24436818,0.07708185,-0.040376343,-0.07239639,-0.28730422,0.21068975,-9.155427,0.8493211,47.66987,-1.2001748,-2.1745317,-3.492465,-0.2685259,-0.24788068,-0.13949482,27.625,28.6875,27.875,31.75,33.6875,34.5625
0.22805214,-0.5890265,-0.7893226,-0.9656743,-0.046775345,0.08789669,-0.15005967,-0.39335552,-0.34815434,0.060007725,-3.0735571,0.628095,-6.2212435e-05,-0.109720625,0.006485519,-0.0014973708,0.048779853,-0.007591151,-0.012293546,0.4681348,-1.403807,1.9304298,-2.0930989,-1.5741557,2.4457536,-0.0834339,0.20078433,-0.2462631,0.074163035,-0.04066912,-0.070832215,-0.2873042,0.19153613,-9.289503,0.8157518,47.72002,-1.2075915,-2.1288626,-3.4295156,-0.23081213,-0.2233069,-0.12648591,27.625,28.6875,27.875,31.75,33.6875,34.5625
0.23005264,-1.0878677,-1.5585642,-1.2844682,-0.05602374,0.10000191,-0.14738582,-0.3935871,-0.34813145,0.060009617,-3.073461,0.62819165,-9.1841495e-05,-0.111968376,0.0061362297,-0.0009538405,0.047906224,-0.004199212,-0.015717098,0.46791857,-1.4034101,1.9299272,-2.0929325,-1.5742038,2.4456105,-0.08427042,0.20257467,-0.24912217,0.071810395,-0.041433983,-0.06823756,-0.5363012,0.2681506,-9.442732,0.81351066,47.67166,-1.2543191,-2.1158864,-3.412788,-0.21306458,-0.19388163,-0.15335883,27.625,28.6875,27.875,31.75,33.6875,34.5625
0.23205264,-1.122481,-1.9538634,-1.1555068,-0.08457089,0.12875581,-0.14693215,-0.39380842,-0.34811378,0.060003918,-3.0733035,0.6282173,-5.669208e-05,-0.112677254,0.0061480985,-0.0012422871,0.04771141,-0.0035973955,-0.019274553,0.46777433,-1.4029893,1.9294142,-2.092765,-1.5743359,2.4455032,-0.08480278,0.20378362,-0.24964531,0.07049628,-0.041535452,-0.06520844,-0.80445176,0.2681506,-9.423578,0.8179876,47.66271,-1.2356104,-2.0182543,-3.54333,-0.19786102,-0.18618435,-0.17591695,27.625,28.6875,27.875,31.75,33.6875,34.5625
0.2340526,-1.9164553,-2.032403,-1.346951,-0.090981424,0.12792224,-0.14593677,-0.39402947,-0.3480875,0.059981737,-3.0731876,0.6282932,-0.000104189276,-0.114344716,0.007072718,-0.0017494153,0.047019076,-0.0033767594,-0.025903353,0.46756917,-1.4025687,1.9289469,-2.092634,-1.5743955,2.445361,-0.08816836,0.20548297,-0.2501582,0.068798944,-0.041022565,-0.061943445,-0.8236054,0.36391866,-9.461885,0.88289046,47.66987,-1.2236457,-2.0493517,-3.5541139,-0.17119955,-0.17556024,-0.2077616,27.625,28.6875,27.875,31.75,33.6875,34.5625
0.23605226,-1.4952624,-1.9567626,-1.4526016,-0.09095747,0.14817335,-0.14911297,-0.39423078,-0.34808823,0.059980948,-3.073098,0.62833065,-0.00017587095,-0.11535237,0.0054020425,-0.0006153228,0.044670243,-0.00014119668,-0.025350658,0.46741387,-1.402172,1.9284447,-2.0924432,-1.5744313,2.445241,-0.08647856,0.20583189,-0.25287142,0.067210004,-0.040398628,-0.060804367,-0.7469909,0.30645782,-9.595961,0.90527004,47.677036,-1.2051607,-1.9535639,-3.5024447,-0.12873068,-0.16920072,-0.21625283,27.625,28.6875,27.875,31.75,33.6875,34.5625
0.23805238,-1.43732,-1.5547253,-1.3124539,-0.07174962,0.14047343,-0.15055157,-0.394475,-0.3480879,0.05997795,-3.0730114,0.6283732,-8.676813e-05,-0.1171901,0.0057160035,-0.00022087565,0.044929218,0.000120985555,-0.03166999,0.46725717,-1.4017389,1.9279293,-2.0923584,-1.5745276,2.4451225,-0.08838022,0.20797314,-0.25669625,0.068782546,-0.04074205,-0.056383304,-0.7086837,0.2681506,-9.557653,0.84708,47.698532,-1.2534399,-1.9096994,-3.5360599,-0.11713826,-0.14030279,-0.26483044,27.625,28.6875,27.875,31.75,33.6875,34.5625
0.24005277,-1.0004302,-0.8720016,-1.4448882,-0.03907961,0.12962219,-0.1473336,-0.39469287,-0.34806237,0.059955508,-3.072864,0.62847775,-0.00015376016,-0.11892809,0.005999173,-0.00078335183,0.043509897,0.00045941837,-0.033730768,0.46706408,-1.4013054,1.9274391,-2.092192,-1.5745991,2.4450142,-0.09105198,0.21044703,-0.25786313,0.06651611,-0.039647013,-0.056993965,-0.7661445,0.21068975,-9.615114,0.947788,47.690468,-0.99177206,-2.0097303,-3.5835426,-0.07843211,-0.15153201,-0.29340133,27.625,28.6875,27.875,31.75,33.6875,34.5625
0.24205263,-0.99317646,-0.21162085,-1.6318413,-0.034731064,0.115897894,-0.15242289,-0.39496237,-0.34803924,0.059949223,-3.0727463,0.62854654,-5.6347337e-05,-0.1193317,0.005531369,-0.001035593,0.042383023,0.00033308833,-0.031607423,0.46686018,-1.4008485,1.9269007,-2.0920966,-1.5747188,2.444869,-0.09118095,0.21172662,-0.2586627,0.06561396,-0.038599778,-0.059250254,-0.78529817,0.24899697,-9.768343,0.82022345,47.688675,-1.1007712,-1.9940367,-3.5993226,-0.04058318,-0.14511216,-0.29131746,27.625,28.6875,27.875,31.75,33.6875,34.5625
0.2440517,-1.1785431,-0.9663187,-1.5970486,-0.023688503,0.10860978,-0.14505394,-0.39519584,-0.3480351,0.059950672,-3.0726411,0.62866014,-3.7814316e-05,-0.12079759,0.0067174877,-0.0012917948,0.04299351,-0.0025760937,-0.03467139,0.466691,-1.4004272,1.9263748,-2.0919516,-1.5747904,2.4447849,-0.094971985,0.21429646,-0.26195884,0.06919663,-0.03784286,-0.05997824,-0.57460845,0.11492168,-9.672575,0.8560339,47.63852,-0.9898933,-1.971486,-3.6706762,-0.026477803,-0.1452392,-0.27849448,27.625,28.6875,27.875,31.75,33.6875,34.5625
0.24605192,-0.78140455,-1.1106975,-1.6142057,-0.02417011,0.09989016,-0.14815792,-0.3954539,-0.34803858,0.059962,-3.0725982,0.6287495,3.2453238e-05,-0.12186934,0.006866663,-0.002109927,0.043282595,-0.004265559,-0.038280323,0.4664986,-1.4000055,1.9258364,-2.0918558,-1.5748385,2.4446542,-0.09642607,0.21778995,-0.26436675,0.06974721,-0.037341017,-0.057825163,-0.45968673,0.076614454,-9.653421,0.9254084,47.667187,-0.9089241,-2.0592074,-3.6820607,-0.017341293,-0.12953204,-0.331597,27.625,28.6875,27.875,31.75,33.6875,34.5625
0.2480523,-0.45303646,-0.60673404,-1.5173937,-0.04736506,0.10032502,-0.14441775,-0.3956931,-0.34801528,0.059927244,-3.0724406,0.6288109,-1.2134143e-05,-0.123419754,0.006222326,-0.0013502033,0.041494947,-0.003270631,-0.038319703,0.46630624,-1.3995125,1.9253095,-2.0917118,-1.5749339,2.4445212,-0.09731758,0.21921305,-0.26796547,0.0702101,-0.03621204,-0.058677178,-0.53630114,-0.05746084,-9.691729,0.8851263,47.694946,-0.7680131,-2.1509895,-3.5965385,0.031293377,-0.1443363,-0.3320515,27.625,28.6875,27.875,31.75,33.6875,34.5625
0.25005254,-0.3402564,-0.6397422,-1.3504106,-0.0474783,0.094390854,-0.14772598,-0.39592558,-0.34800372,0.059924133,-3.0723403,0.6288674,-5.8595306e-06,-0.12434934,0.006411066,-0.00048561476,0.04131094,-0.003912991,-0.038993154,0.46612567,-1.3990922,1.9247946,-2.0915668,-1.5750059,2.4443893,-0.098681055,0.21962674,-0.27126393,0.07357078,-0.035767566,-0.059366737,-0.45968673,-0.05746084,-9.615114,0.9545008,47.670765,-0.81352097,-2.098635,-3.5041673,0.0053041624,-0.14681272,-0.32808727,27.625,28.6875,27.875,31.75,33.6875,34.5625
0.25205258,-0.50923055,-0.67381364,-1.4330404,-0.02119731,0.07175565,-0.1446749,-0.39619172,-0.34797347,0.05991707,-3.0722136,0.629032,5.2057498e-05,-0.12485125,0.0057671433,-0.00025738808,0.0416104,-0.0054651084,-0.038837396,0.46589795,-1.398647,1.9242676,-2.091458,-1.5751017,2.4442813,-0.0981844,0.22196518,-0.2753296,0.07680556,-0.035344638,-0.059025463,-0.2681506,0.038307227,-9.481039,0.8314132,47.67614,-0.896425,-2.1363857,-3.6576324,-0.0025339334,-0.14406325,-0.36454457,27.625,28.6875,27.875,31.75,33.6875,34.5625
0.25405252,0.12397952,-0.24191688,-1.463935,-0.009303658,0.068387106,-0.14759229,-0.3964369,-0.34795296,0.059901875,-3.072061,0.6291343,3.48394e-05,-0.12508328,0.0054357,-0.0007536921,0.042772718,-0.008992509,-0.038625065,0.46570593,-1.3981768,1.9237164,-2.0912888,-1.5751976,2.4441736,-0.098077185,0.22551744,-0.27936694,0.08094965,-0.03480845,-0.05912864,-0.34476504,0.076614454,-9.519346,0.8605109,47.688675,-0.88494325,-2.2702472,-3.5946581,-0.011156118,-0.15683821,-0.3902782,27.625,28.6875,27.875,31.75,33.6875,34.5625
0.256052,0.115152314,-0.23288748,-1.1649604,-0.0121482,0.057633262,-0.14550339,-0.39668667,-0.3479491,0.05991056,-3.071988,0.62923324,1.9267703e-05,-0.12635238,0.0059243054,-0.00043621575,0.042908374,-0.011456488,-0.039466996,0.46550098,-1.3977439,1.9231538,-2.09112,-1.5752333,2.4440403,-0.10058835,0.22768228,-0.2837027,0.08536299,-0.03383675,-0.060800035,-0.22984336,0.11492168,-9.385271,0.8784135,47.666286,-0.8417876,-2.2967033,-3.3598108,-0.041730314,-0.1704821,-0.39817503,27.625,28.6875,27.875,31.75,33.6875,34.5625
0.25805467,0.30075097,-0.5685596,-1.7608929,0.0030230898,0.040100276,-0.13711327,-0.39694187,-0.34794098,0.059914086,-3.0718539,0.62931734,3.0605013e-05,-0.12483953,0.0049893307,3.87136e-05,0.04425732,-0.015519652,-0.034709297,0.46532202,-1.3972756,1.9225558,-2.0909255,-1.5753292,2.4439318,-0.09793105,0.2282755,-0.28717163,0.0924514,-0.033227094,-0.06290101,-0.11492168,0.21068975,-9.481039,0.77545905,47.694946,-0.93385077,-2.2511413,-3.3535287,-0.09835305,-0.17465568,-0.3946765,27.625,28.6875,27.875,31.75,33.6875,34.5625
0.26005182,0.5180857,-0.73496485,-1.7116412,-0.02421474,0.04036822,-0.14433342,-0.39717636,-0.34790638,0.05989477,-3.0716925,0.629457,-7.926825e-05,-0.12492805,0.0075421263,-0.0016378809,0.047294527,-0.020573894,-0.036203794,0.46509266,-1.3968183,1.9220179,-2.09071,-1.5753893,2.4438112,-0.1020915,0.23027653,-0.2864812,0.095617436,-0.03369236,-0.06556074,-0.1340753,0.30645782,-9.519346,0.83365434,47.701214,-0.81683147,-2.258842,-3.4877286,-0.16342235,-0.16549751,-0.37333065,27.625,28.6875,27.875,31.75,33.6875,34.5625
0.262052,0.3365993,-1.4542983,-1.5943466,-0.06483846,0.041483726,-0.14041103,-0.3974355,-0.34791556,0.05990861,-3.0716145,0.62943673,-6.096713e-05,-0.12282173,0.0070703407,-0.0023580103,0.04969726,-0.025263773,-0.030955624,0.46492562,-1.3963495,1.9213957,-2.0905163,-1.5754613,2.4436421,-0.09930191,0.23140533,-0.2873788,0.10063379,-0.033746317,-0.06801808,-0.038307227,0.30645782,-9.404425,0.800085,47.66987,-0.9541018,-2.206901,-3.5320292,-0.21260712,-0.16955736,-0.36268073,27.625,28.6875,27.875,31.75,33.6875,34.5625
0.26405218,0.31968415,-2.3328125,-1.2455214,-0.0779318,0.04899342,-0.14207149,-0.39768514,-0.34785947,0.059906557,-3.071457,0.6295356,-0.00011872728,-0.12329623,0.008114338,-0.0024623545,0.051492665,-0.026934838,-0.029158574,0.46466112,-1.3959291,1.9208583,-2.090288,-1.5755457,2.4434605,-0.10089397,0.23231713,-0.28894395,0.10355786,-0.034631964,-0.071398474,-0.076614454,0.36391866,-9.346964,0.85155696,47.63315,-0.9655807,-2.026823,-3.6380281,-0.29069462,-0.1589301,-0.3295796,27.625,28.6875,27.875,31.75,33.6875,34.5625
0.2660525,0.16799986,-2.2150462,-1.1964628,-0.094138816,0.06251543,-0.14333753,-0.3979505,-0.3478556,0.05990798,-3.0713322,0.6295838,-0.000104984414,-0.12453429,0.0076105045,-0.0017553832,0.050003193,-0.025554175,-0.025949,0.46448097,-1.3954363,1.9202365,-2.0900967,-1.575641,2.4433272,-0.10145548,0.23303281,-0.29147184,0.103434324,-0.03395263,-0.07517023,-0.17238252,0.34476504,-9.385271,0.8627467,47.675243,-0.8890352,-2.002292,-3.6451645,-0.31515458,-0.16687135,-0.28628042,27.625,28.6875,27.875,31.75,33.6875,34.5625
0.26805264,0.2700938,-1.853549,-1.3080934,-0.08361959,0.07221627,-0.14927687,-0.398187,-0.34783602,0.0598856,-3.0711887,0.62960905,-0.00022664665,-0.12701398,0.006879407,0.00033488296,0.046736136,-0.020362053,-0.024387376,0.4642766,-1.3949441,1.9196614,-2.0898697,-1.5757011,2.443158,-0.10263138,0.23202704,-0.29476154,0.10159729,-0.03339921,-0.077904776,0.05746084,0.36391866,-9.423578,0.85155696,47.705692,-0.87135947,-1.9460194,-3.5572782,-0.3441983,-0.17084315,-0.24942884,27.625,28.6875,27.875,31.75,33.6875,34.5625
0.27005205,-0.06338607,-1.7039499,-1.4633381,-0.061706074,0.06014112,-0.14080295,-0.39846766,-0.34782484,0.059914812,-3.0711021,0.6297232,-0.0002002051,-0.12975568,0.0057006334,0.0016312981,0.044190396,-0.013922766,-0.019928213,0.46404865,-1.3944993,1.9190267,-2.0896556,-1.5757617,2.443013,-0.102478735,0.23288926,-0.2977387,0.09678283,-0.0340512,-0.08220502,0.15322891,0.3256114,-9.442732,0.88289046,47.694946,-0.86902535,-1.8245697,-3.5697432,-0.32250142,-0.16869119,-0.18208182,27.625,28.6875,27.875,31.75,33.6875,34.5625
0.27205217,-0.0010330062,-2.06446,-1.6035737,-0.053609308,0.06337112,-0.13958782,-0.39872968,-0.34782732,0.059913576,-3.0710278,0.62980175,-0.00022902046,-0.1318599,0.0039216657,0.0022646326,0.040090546,-0.008902744,-0.01973471,0.46384495,-1.3940178,1.9184293,-2.0894907,-1.575797,2.4428685,-0.10201966,0.23434901,-0.2996877,0.09093489,-0.0326578,-0.081944115,0.15322891,0.3256114,-9.385271,0.8717007,47.68062,-0.9243212,-1.9551139,-3.5133023,-0.2619753,-0.19992518,-0.16639876,27.625,28.6875,27.875,31.75,33.6875,34.5625
0.2740525,-0.109831624,-1.645103,-1.4462954,-0.07521603,0.07285571,-0.14874926,-0.3989829,-0.3478118,0.059901472,-3.0709116,0.62983376,-0.00026565298,-0.13534893,0.0022173154,0.0037121172,0.03589854,-0.0026640506,-0.018134024,0.46364075,-1.3935372,1.9178547,-2.0893128,-1.5758685,2.4427,-0.10260465,0.23643585,-0.30446723,0.086145744,-0.031741466,-0.08412965,0.076614454,0.3256114,-9.461885,0.90750587,47.66987,-0.9472891,-1.9147,-3.4619672,-0.19323894,-0.20668083,-0.12381232,27.625,28.6875,27.875,31.75,33.6875,34.5625
0.27605265,-0.16241339,-2.1153557,-1.5121448,-0.07754762,0.06806996,-0.14518736,-0.3992318,-0.34783232,0.05989838,-3.0708604,0.62980354,-0.0003205349,-0.13674273,0.0006977179,0.0034818065,0.03506564,-0.00033025414,-0.01860459,0.46347344,-1.3930436,1.9172438,-2.089134,-1.5758928,2.4425209,-0.1009035,0.2399501,-0.3075039,0.0832136,-0.032052007,-0.08195212,0.076614454,0.3256114,-9.5385,0.900793,47.684196,-1.1085651,-1.8532283,-3.3338323,-0.13327271,-0.23442078,-0.08743456,27.625,28.6875,27.875,31.75,33.6875,34.5625
0.27805176,0.061026424,-2.53532,-1.7052841,-0.06654075,0.06233777,-0.1352528,-0.39953583,-0.3478017,0.059918683,-3.0707333,0.6298554,-0.00018751304,-0.13841416,0.0016169071,0.0020928362,0.036633376,-0.0009905299,-0.022671103,0.4632446,-1.3925736,1.9166101,-2.088967,-1.5760368,2.4423416,-0.1031686,0.24414472,-0.30903018,0.08183141,-0.033162042,-0.08014283,0.05746084,0.34476504,-9.595961,0.9298854,47.69763,-0.9526651,-2.0671263,-3.3592877,-0.10343704,-0.24122334,-0.09727622,27.625,28.6875,27.875,31.75,33.6875,34.5625
0.2800521,-0.14258008,-2.504214,-2.153832,-0.073709436,0.06099645,-0.13851683,-0.39980942,-0.34781462,0.059923768,-3.0706713,0.6298798,-0.00015064407,-0.1380496,0.00082677294,0.0011649651,0.037749246,-0.0021983038,-0.022518426,0.46306536,-1.3920802,1.9159883,-2.0888236,-1.5760969,2.442186,-0.101098984,0.2468689,-0.31022248,0.08188017,-0.033619314,-0.07822199,-0.15322891,0.49799395,-9.710882,0.9321212,47.67614,-1.233812,-2.0963495,-3.540378,-0.07303227,-0.25812528,-0.1086187,27.625,28.6875,27.875,31.75,33.6875,34.5625
0.2820522,0.19454785,-2.1447592,-1.7988687,-0.101564266,0.089499876,-0.14242494,-0.40007207,-0.34780842,0.059920758,-3.0705857,0.62996167,-0.00019670917,-0.13836837,0.0030054098,-0.0008913404,0.040208016,-0.006558414,-0.029672792,0.46284783,-1.3915989,1.9153908,-2.0886433,-1.5761336,2.4420314,-0.104924664,0.24975736,-0.3092854,0.083063014,-0.03386215,-0.07489,-0.15322891,0.4213795,-9.749189,0.91198283,47.667187,-0.9768146,-2.0693674,-3.6720076,-0.055387024,-0.25595486,-0.13508818,27.625,28.6875,27.875,31.75,33.6875,34.5625
0.28405216,0.31024674,-2.304839,-1.9228992,-0.09724172,0.09160871,-0.14796914,-0.40036738,-0.34781644,0.05993708,-3.0705266,0.6299869,-9.403645e-05,-0.13788924,0.0027219285,-0.0010879084,0.040604413,-0.0076098205,-0.031399105,0.4626565,-1.391106,1.9147462,-2.0885112,-1.5762175,2.441864,-0.10399727,0.25026274,-0.30979344,0.084185235,-0.033737466,-0.072237745,0.019153614,0.3256114,-9.710882,0.8940802,47.691364,-1.1005712,-2.1923018,-3.760225,-0.052758165,-0.25645906,-0.14690721,27.625,28.6875,27.875,31.75,33.6875,34.5625
0.28605235,-0.4990379,-2.2721,-1.6798255,-0.08709616,0.06087261,-0.13973068,-0.40063402,-0.34782204,0.059926122,-3.0704467,0.63010675,-0.00017869975,-0.14015412,0.001855984,0.0004056613,0.03795144,-0.0051194956,-0.03502631,0.4624401,-1.390589,1.9141244,-2.0883315,-1.5762285,2.4417334,-0.105164364,0.25129747,-0.31463102,0.08457696,-0.032483548,-0.069780655,-0.05746084,0.3256114,-9.557653,0.9388393,47.68062,-1.1383862,-2.1619546,-3.7522874,-0.020107763,-0.28064764,-0.17575543,27.625,28.6875,27.875,31.75,33.6875,34.5625
0.28805256,0.072703995,-1.6741487,-1.4958934,-0.06769441,0.07011225,-0.13373022,-0.40093884,-0.34782085,0.059936132,-3.0703301,0.6302358,-5.425335e-05,-0.14064199,0.0021671762,9.524072e-05,0.038560785,-0.008374904,-0.038578548,0.46224767,-1.3900725,1.9134659,-2.088198,-1.5763487,2.4416373,-0.106611855,0.25375882,-0.31780598,0.08847027,-0.031569112,-0.06768064,-0.28730422,0.22984336,-9.500193,0.8918391,47.682407,-1.042663,-2.0244098,-3.7016895,-0.013434894,-0.33187145,-0.21624199,27.625,28.6875,27.875,31.75,33.6875,34.5625
0.2900521,0.71643895,-0.59778523,-1.7577723,-0.017420495,0.05989488,-0.14620173,-0.40121952,-0.34782475,0.05994172,-3.0702558,0.6302793,-2.9943842e-06,-0.14284025,0.0021978882,0.0019151282,0.03847922,-0.004447101,-0.041130297,0.4620553,-1.3895797,1.9128426,-2.0880544,-1.5764211,2.4414823,-0.10742496,0.25342083,-0.32186088,0.08931636,-0.033251747,-0.06593014,-0.19153613,0.17238252,-9.576807,1.061927,47.667187,-1.0644383,-1.9939461,-3.5662484,-0.009606417,-0.34375548,-0.24372627,27.625,28.6875,27.875,31.75,33.6875,34.5625
0.29205203,0.39272457,0.23656066,-1.422712,0.004719977,0.043516748,-0.1410921,-0.40152976,-0.34781164,0.059956443,-3.0701418,0.630427,4.2781943e-05,-0.1431339,0.0024207244,0.0030117852,0.040105082,-0.0053776735,-0.041882537,0.4618153,-1.3890631,1.9121593,-2.0878608,-1.5765055,2.44135,-0.107303865,0.25334883,-0.32559487,0.09467557,-0.034291208,-0.06504901,-0.11492168,0.19153613,-9.442732,0.900793,47.689575,-1.1419045,-1.9592475,-3.4132528,0.0068953778,-0.33915123,-0.27571103,27.625,28.6875,27.875,31.75,33.6875,34.5625
0.29405254,0.052956212,0.14192416,-1.3812126,0.016142963,0.054159172,-0.13996524,-0.4017906,-0.34783015,0.059949912,-3.070062,0.63052565,-1.7331255e-05,-0.14274016,0.0028326635,0.0027369221,0.041865136,-0.009703564,-0.04331382,0.46163526,-1.3885458,1.9115256,-2.0876791,-1.5765294,2.4412425,-0.10781161,0.25507674,-0.32840547,0.10041191,-0.033937123,-0.064124875,-0.2873042,0.095768064,-9.385271,0.8918391,47.668976,-1.1314889,-1.8755255,-3.5123453,-0.06286461,-0.37136823,-0.30854887,27.625,28.6875,27.875,31.75,33.6875,34.5625
0.2960521,-0.71125376,0.0035579612,-1.5139847,0.023190837,0.053581133,-0.13405278,-0.40207064,-0.3477941,0.059950393,-3.0699074,0.630646,-6.207254e-05,-0.14264424,0.004628475,0.0025739027,0.044386,-0.014774704,-0.04436418,0.46138212,-1.3880533,1.9108919,-2.0874379,-1.5766138,2.4410853,-0.110736094,0.2558097,-0.3305967,0.107508495,-0.033947222,-0.065995716,-0.45968673,-0.05746084,-9.404425,0.900793,47.650166,-0.9391219,-1.7699898,-3.4784276,-0.12180175,-0.38483715,-0.32861996,27.625,28.6875,27.875,31.75,33.6875,34.5625
0.29805282,-0.8296342,0.015303813,-1.324246,0.0032285422,0.08522206,-0.14679398,-0.4023735,-0.3477973,0.059974868,-3.069813,0.6307994,-6.879208e-05,-0.14210385,0.0046799458,0.0019208125,0.047271796,-0.019240895,-0.044882543,0.46115446,-1.3875359,1.9101738,-2.0871966,-1.5766615,2.4409664,-0.109877154,0.25884447,-0.3340728,0.11323347,-0.034542106,-0.06461231,-0.38307226,-0.19153613,-9.423578,0.8873621,47.698532,-1.0529902,-1.7938216,-3.508216,-0.21285021,-0.3963974,-0.34505683,27.625,28.6875,27.875,31.75,33.6875,34.5625
0.30005226,-0.846364,0.031706426,-1.0845119,-0.019498644,0.12018684,-0.14494938,-0.40264317,-0.34779933,0.059977427,-3.0697017,0.6308336,-0.00012352069,-0.14194132,0.006462972,-0.0006265211,0.05160459,-0.024289666,-0.04792388,0.4609618,-1.3870182,1.9095052,-2.0869563,-1.576722,2.4408102,-0.11170957,0.26320392,-0.33393604,0.11518938,-0.03617943,-0.0633898,-0.57460845,-0.21068975,-9.3661175,0.88960326,47.668976,-0.9853945,-1.9121614,-3.5009952,-0.26200083,-0.40254867,-0.41150612,27.625,28.6875,27.875,31.75,33.6875,34.5625
0.30205232,-1.4809034,0.15703052,-0.984695,-0.0274397,0.13135158,-0.14397338,-0.40290844,-0.3477717,0.059965327,-3.0695388,0.63100946,-0.00022136573,-0.14213528,0.007172687,-0.0013271426,0.0547453,-0.025841013,-0.047246076,0.46072197,-1.3865124,1.9088839,-2.086716,-1.5767831,2.4407022,-0.11166276,0.2653997,-0.33551222,0.117347546,-0.03832315,-0.064002015,-0.63206923,-0.22984336,-9.3661175,0.9545008,47.66987,-1.057993,-2.0453887,-3.6071448,-0.31468377,-0.40506706,-0.44065136,27.625,28.6875,27.875,31.75,33.6875,34.5625
0.3040523,-2.3711746,-0.73517513,-0.9589047,-0.010555165,0.13439329,-0.13839763,-0.40320545,-0.34778485,0.059969224,-3.06945,0.631105,-0.00023863577,-0.14404076,0.0070901285,-0.0016423517,0.054721456,-0.023064556,-0.0457598,0.46051776,-1.3859591,1.9081787,-2.0865142,-1.5768317,2.4405699,-0.1122841,0.2679172,-0.3371159,0.11391689,-0.039570633,-0.06609852,-0.51714754,-0.19153613,-9.346964,0.90750587,47.667187,-1.117852,-2.033135,-3.683087,-0.2845546,-0.40015727,-0.4325321,27.625,28.6875,27.875,31.75,33.6875,34.5625
0.30605188,-1.4769443,-0.24455109,-0.87675357,-0.024929592,0.15105347,-0.15271115,-0.40351254,-0.34776747,0.059988733,-3.069304,0.63124627,-0.00019736278,-0.14713672,0.006801862,0.00018280277,0.053555828,-0.016164757,-0.047394868,0.46028963,-1.3854424,1.9074725,-2.0862758,-1.57694,2.4404497,-0.113069795,0.267816,-0.3405714,0.11077107,-0.041615345,-0.065232314,-0.4405331,-0.21068975,-9.308657,0.9455522,47.66091,-1.0122473,-2.0307293,-3.5753143,-0.29787448,-0.38285598,-0.4770882,27.625,28.6875,27.875,31.75,33.6875,34.5625
0.30805215,-0.85567874,-0.1606299,-0.96271366,-0.017826708,0.1352797,-0.14890394,-0.4038056,-0.34773135,0.059975706,-3.0691395,0.6313241,-0.00018595094,-0.1511814,0.006000789,0.0019902885,0.05152672,-0.0068788882,-0.0445995,0.46004942,-1.384914,1.9068378,-2.0860865,-1.577061,2.4402804,-0.113588125,0.2686619,-0.3444085,0.10451094,-0.04397465,-0.06852493,-0.47884035,-0.15322891,-9.289502,0.8717007,47.7254,-1.0547066,-1.8248165,-3.5033805,-0.23574191,-0.39311045,-0.48881364,27.625,28.6875,27.875,31.75,33.6875,34.5625
0.31005284,-1.1335789,-0.9537362,-1.0862432,-0.013598769,0.10648272,-0.14316677,-0.4041007,-0.34771594,0.05998856,-3.0690014,0.6314468,-0.000196014,-0.1554049,0.005903957,0.0035849127,0.050160628,0.0012311145,-0.042797733,0.4598208,-1.384397,1.9061435,-2.0858371,-1.5771459,2.4401472,-0.11543503,0.269847,-0.34842145,0.09943469,-0.04640075,-0.0721522,-0.6512229,0.11492168,-9.270349,0.95226496,47.70211,-0.98097235,-1.8692036,-3.4764185,-0.15758274,-0.35981703,-0.47437677,27.625,28.6875,27.875,31.75,33.6875,34.5625
0.31205198,-1.1525329,-0.9871439,-1.3193074,-0.03317917,0.09136563,-0.13761255,-0.4044337,-0.3476953,0.0600082,-3.0688608,0.63156796,-9.14136e-05,-0.15686496,0.006432023,0.0026800488,0.051134277,0.00256194,-0.039937347,0.45958054,-1.3838557,1.9054154,-2.085634,-1.5772785,2.4400017,-0.11654914,0.2725221,-0.34897915,0.096515365,-0.04789876,-0.0761154,-0.57460845,0.15322891,-9.3661175,0.947788,47.661808,-0.9714686,-1.8245085,-3.533638,-0.093806624,-0.3420362,-0.45275685,27.625,28.6875,27.875,31.75,33.6875,34.5625
0.31405202,-0.67222196,-1.1005728,-1.4334599,-0.07742029,0.10016354,-0.14819345,-0.40476924,-0.3476888,0.06002175,-3.068763,0.6316981,9.593763e-06,-0.15767223,0.0072779525,0.002373414,0.053989563,0.0029563361,-0.035648543,0.45934042,-1.3833029,1.9046978,-2.085478,-1.5773753,2.4398563,-0.11685316,0.27408376,-0.35040888,0.097256795,-0.050662518,-0.08068986,-0.49799395,0.2681506,-9.557653,0.9388393,47.65643,-0.8763565,-1.7810342,-3.5625432,-0.0653258,-0.3032307,-0.39718512,27.625,28.6875,27.875,31.75,33.6875,34.5625
0.3160521,-1.4490575,-2.5313754,-1.0879318,-0.097453356,0.097263746,-0.14128435,-0.40507525,-0.34765112,0.060003813,-3.0685778,0.6317528,-2.960657e-05,-0.15982662,0.008814534,0.0022280556,0.056679685,0.0032215628,-0.03388264,0.45908725,-1.382725,1.9040035,-2.0852382,-1.5774964,2.4396625,-0.11963757,0.27670723,-0.35364223,0.0987773,-0.05323479,-0.08521537,-0.80445176,0.3256114,-9.481039,0.90750587,47.668976,-0.79967844,-1.7945391,-3.6177363,-0.06363395,-0.2827186,-0.37280875,27.625,28.6875,27.875,31.75,33.6875,34.5625
0.31805238,-0.7925225,-2.2665498,-1.3347297,-0.10679351,0.12155216,-0.15268077,-0.4053915,-0.34764025,0.06003479,-3.068483,0.63184357,2.8318418e-05,-0.15867852,0.008105113,0.0025283087,0.05708444,0.002210105,-0.027280763,0.4588483,-1.3822209,1.9032868,-2.0850103,-1.5775799,2.4394932,-0.11733899,0.27606532,-0.35418952,0.10100322,-0.05317539,-0.089518875,-0.6512228,0.30645782,-9.404425,0.92093146,47.685097,-0.9820249,-1.723307,-3.623261,-0.07290181,-0.24117786,-0.31710935,27.625,28.6875,27.875,31.75,33.6875,34.5625
0.32005242,-1.185602,-1.8635129,-1.326178,-0.08224054,0.11315013,-0.14543669,-0.4057329,-0.34761876,0.06004275,-3.0683386,0.63190687,0.00013154406,-0.16014391,0.008347365,0.0020233525,0.05753988,0.0024568243,-0.025214214,0.45860782,-1.3816439,1.9025449,-2.084819,-1.5777243,2.439312,-0.11854978,0.2789248,-0.35639188,0.10028013,-0.053725082,-0.09279015,-0.45968673,0.4213795,-9.481039,0.92093146,47.690468,-0.83812225,-1.733845,-3.6834235,-0.038206656,-0.23045132,-0.2515336,27.625,28.6875,27.875,31.75,33.6875,34.5625
0.3220518,-1.2090981,-1.5432543,-1.1188747,-0.067598894,0.112299204,-0.14313565,-0.40606752,-0.34759566,0.06002916,-3.0681963,0.631971,0.00017861096,-0.16107243,0.008839164,0.0026317714,0.05834445,0.0034279574,-0.023754127,0.4583557,-1.3810426,1.9018282,-2.0846508,-1.577845,2.4391193,-0.11933442,0.27896297,-0.35825413,0.10155328,-0.054900393,-0.095023796,-0.45968673,0.38307226,-9.404425,0.9925471,47.670765,-0.93847775,-1.5670857,-3.6593807,0.007756068,-0.20389432,-0.2139418,27.625,28.6875,27.875,31.75,33.6875,34.5625
0.3240518,-1.1456546,-1.319219,-1.0384326,-0.050280828,0.09800031,-0.13461344,-0.40640464,-0.34757558,0.060039606,-3.0680914,0.63206285,0.00024872136,-0.16252246,0.008896368,0.0024699692,0.060736217,0.003001465,-0.023026178,0.45809174,-1.3804888,1.9011096,-2.084471,-1.5779413,2.4389272,-0.11931423,0.28275928,-0.36304045,0.10396252,-0.05687307,-0.09571514,-0.2873042,0.24899697,-9.289502,0.947788,47.691364,-0.96607566,-1.767472,-3.614376,-0.0074483436,-0.1590313,-0.1930151,27.625,28.6875,27.875,31.75,33.6875,34.5625
0.3260521,0.11510885,-0.30457366,-0.75977117,-0.041296244,0.08776396,-0.15014254,-0.40673208,-0.34755775,0.060034048,-3.0679536,0.6321685,0.00025618277,-0.16230556,0.008953967,0.0015567146,0.060638398,-0.0026934054,-0.025788533,0.4578393,-1.3798994,1.9003795,-2.0842655,-1.5780362,2.4387596,-0.12073139,0.28594154,-0.3659515,0.108733624,-0.054268293,-0.094383694,-0.2681506,0.28730422,-9.232041,0.92764956,47.67614,-0.93896985,-1.7753706,-3.6537874,-0.030425837,-0.14045146,-0.1386866,27.625,28.6875,27.875,31.75,33.6875,34.5625
0.32805213,0.94397247,-0.20288838,-0.8330334,-0.023641663,0.06369209,-0.14691895,-0.40705928,-0.3475446,0.060027543,-3.0678222,0.6321413,0.0002876071,-0.16104789,0.009582188,0.0004087447,0.06497676,-0.009496374,-0.029076656,0.45761153,-1.3792976,1.8996366,-2.084059,-1.5781568,2.4385328,-0.12007982,0.28917506,-0.36907732,0.11665497,-0.055133887,-0.09043365,-0.11492168,0.2681506,-9.232041,0.86498255,47.690468,-0.9748546,-1.9461395,-3.5216951,-0.08467837,-0.12554869,-0.17441936,27.625,28.6875,27.875,31.75,33.6875,34.5625
0.33005226,1.4713037,0.04588592,-0.9533516,-0.006654315,0.030129807,-0.14616297,-0.40738696,-0.34751317,0.060031466,-3.0676482,0.63227874,0.0003303677,-0.16179916,0.010464375,0.00041111666,0.06632317,-0.011441813,-0.03242699,0.4573589,-1.3787324,1.898908,-2.0838306,-1.5782884,2.4383898,-0.1218996,0.2906335,-0.37173986,0.12018664,-0.055487085,-0.0888964,0.095768064,0.13407528,-9.251195,0.92764956,47.690468,-1.0095067,-2.1048634,-3.4773326,-0.13197641,-0.11481966,-0.18106058,27.625,28.6875,27.875,31.75,33.6875,34.5625
0.33205253,1.697791,-0.105216846,-0.7019284,-0.02206224,0.008195522,-0.14703168,-0.40772355,-0.34749377,0.06003309,-3.0674663,0.63245183,0.00037350837,-0.16019033,0.0093552,0.00012942363,0.06773568,-0.016985472,-0.036968,0.4571199,-1.3781316,1.8981417,-2.0835998,-1.5784205,2.4382837,-0.11924595,0.29295015,-0.37560403,0.12735859,-0.054273717,-0.08170577,0.15322891,0.11492168,-9.040505,0.90750587,47.67614,-1.0219687,-2.024558,-3.4302044,-0.19309539,-0.0860215,-0.23489365,27.625,28.6875,27.875,31.75,33.6875,34.5625
0.3340523,1.8456013,-0.54775167,-0.3541847,-0.03466606,0.014878437,-0.15598398,-0.40803996,-0.34747604,0.06001663,-3.0673041,0.63245857,0.00029356166,-0.16232406,0.010305287,0.0011638458,0.06608477,-0.01644133,-0.043072272,0.4568784,-1.377506,1.8973769,-2.0833251,-1.5785159,2.4380686,-0.123349935,0.29302382,-0.37859914,0.12905397,-0.053045113,-0.079706475,0.0,0.15322891,-8.810662,0.93436235,47.682407,-1.0065906,-1.9783145,-3.406868,-0.2336223,-0.078839496,-0.30336183,27.625,28.6875,27.875,31.75,33.6875,34.5625
0.3360526,1.2987174,-0.91996664,-0.76280344,-0.025437599,0.0073610283,-0.1493719,-0.4083811,-0.34745622,0.060021453,-3.06716,0.63250387,0.00032410698,-0.16201103,0.008875949,0.00032651378,0.06432975,-0.019143308,-0.042388417,0.45662695,-1.376905,1.8966001,-2.0830853,-1.5786346,2.4378653,-0.122205146,0.2960864,-0.38062254,0.12963709,-0.050295092,-0.07926167,0.114921674,0.15322891,-8.791509,0.9030289,47.65464,-1.0332363,-1.9044735,-3.4183986,-0.27415818,-0.09736404,-0.30482662,27.625,28.6875,27.875,31.75,33.6875,34.5625
0.33805194,1.0972466,-0.7712512,-0.5245033,-0.04286834,0.018215021,-0.1472036,-0.40869677,-0.34743303,0.06001136,-3.0669992,0.63268006,0.000255296,-0.16433755,0.007880493,0.0015276595,0.060200155,-0.016112136,-0.044190586,0.45636234,-1.3763162,1.8958691,-2.082835,-1.5787061,2.4377327,-0.123800844,0.2969576,-0.38413787,0.12771474,-0.047955528,-0.07906602,0.24899697,0.19153613,-8.848969,0.92093146,47.689575,-0.9465749,-1.8809881,-3.4068828,-0.24888486,-0.108719856,-0.315445,27.625,28.6875,27.875,31.75,33.6875,34.5625
0.34005198,0.9011938,-0.8171082,-0.43549767,-0.07253387,0.044096477,-0.14956418,-0.40900695,-0.34741253,0.05999883,-3.0668166,0.63275594,0.0001631791,-0.16673815,0.0068165935,0.0023654425,0.055356536,-0.010454958,-0.04580942,0.45612207,-1.3757039,1.8951052,-2.082538,-1.5788015,2.4375648,-0.1250204,0.29704213,-0.38484773,0.12110554,-0.046134867,-0.07867325,0.038307227,0.15322891,-8.829816,0.94331104,47.664497,-0.86380017,-1.7492399,-3.43315,-0.21952397,-0.12534773,-0.33899617,27.625,28.6875,27.875,31.75,33.6875,34.5625
0.34205207,0.3633062,-1.898737,-0.65256417,-0.058468144,0.046870086,-0.1403781,-0.40933877,-0.3474069,0.06000545,-3.0667033,0.63282883,0.00017600537,-0.16831036,0.0062333033,0.0020213763,0.052944776,-0.009328869,-0.047470823,0.45588183,-1.3751141,1.8943394,-2.082311,-1.578885,2.4373858,-0.1262493,0.29950356,-0.3865079,0.1182115,-0.04448508,-0.07825019,0.038307227,0.22984336,-8.887277,0.9321212,47.68599,-0.82273173,-1.7615695,-3.567007,-0.1584796,-0.15743889,-0.35018328,27.625,28.6875,27.875,31.75,33.6875,34.5625
0.34405217,0.37925795,-1.6956978,-0.8450626,-0.07124482,0.058939125,-0.14018352,-0.4096569,-0.3473692,0.059970196,-3.0664735,0.63302857,4.0981813e-05,-0.171442,0.004553861,0.0031632814,0.04871259,-0.0030313418,-0.048128158,0.45560572,-1.3744649,1.8935856,-2.0820262,-1.5789803,2.4372659,-0.12649694,0.30130965,-0.39017722,0.1125378,-0.043497123,-0.07783854,0.095768064,0.21068975,-9.040505,0.94331104,47.67166,-0.7857671,-1.9213421,-3.4841027,-0.08810967,-0.1680109,-0.36110187,27.625,28.6875,27.875,31.75,33.6875,34.5625
0.34605202,0.059096627,-1.8346889,-0.88321614,-0.07786365,0.064294994,-0.1468769,-0.40998808,-0.3473829,0.059990946,-3.0664122,0.6331295,7.780616e-05,-0.17221943,0.003559646,0.0024703625,0.04837292,-0.0034117256,-0.047884017,0.4553779,-1.3738989,1.8928202,-2.0818226,-1.5790285,2.4371097,-0.12560286,0.30497062,-0.3929475,0.11182972,-0.043034222,-0.077190675,0.038307227,0.24899697,-9.097966,0.9298854,47.661808,-0.9480957,-1.926615,-3.5148869,-0.042822078,-0.1949305,-0.4053663,27.625,28.6875,27.875,31.75,33.6875,34.5625
0.34805256,-0.18650533,-1.5751749,-1.0194992,-0.074443765,0.061617095,-0.14797194,-0.41032365,-0.34736067,0.05995756,-3.0662365,0.6332028,-3.172566e-06,-0.17277288,0.0027592352,0.003042897,0.046878237,-0.003223496,-0.042656753,0.4551141,-1.3732258,1.892043,-2.0815828,-1.5791239,2.4369159,-0.1253067,0.30565825,-0.3954782,0.11278236,-0.04182688,-0.08212544,-0.038307227,0.40222588,-9.212888,0.9186956,47.690468,-0.93155694,-2.0347795,-3.4834032,-0.03328586,-0.19184718,-0.37898067,27.625,28.6875,27.875,31.75,33.6875,34.5625
0.35005274,-0.26893166,-1.2825502,-1.3719721,-0.058782253,0.05791973,-0.13952605,-0.41066438,-0.34735295,0.05994866,-3.0661016,0.63336754,-5.582886e-05,-0.17445207,0.0029939637,0.0024546518,0.04686658,-0.0041041602,-0.044342555,0.45484924,-1.3725885,1.8912519,-2.0813434,-1.5791839,2.4367726,-0.1272248,0.30930814,-0.39874434,0.113165684,-0.041450612,-0.082355894,-0.34476504,0.36391866,-9.251195,0.92093146,47.68062,-0.961819,-1.9215443,-3.4284687,-0.005415936,-0.23343344,-0.36886412,27.625,28.6875,27.875,31.75,33.6875,34.5625
0.3520518,-0.17547174,-1.1997805,-1.6034424,-0.05280166,0.072483145,-0.14724489,-0.41101816,-0.3473592,0.059970707,-3.065984,0.6334127,3.0829116e-05,-0.17178257,0.0019012244,0.000111124136,0.04927088,-0.009923959,-0.036143303,0.454635,-1.3719746,1.8904179,-2.0811036,-1.5793041,2.4366028,-0.12318569,0.31281736,-0.39823866,0.11537965,-0.041083205,-0.08651875,-0.24899697,0.45968673,-9.404425,0.9298854,47.661808,-1.0861291,-2.0616114,-3.562151,0.004640527,-0.27312866,-0.36473218,27.625,28.6875,27.875,31.75,33.6875,34.5625
0.35405186,-0.77708745,-1.9591959,-1.5804467,-0.06454107,0.08375532,-0.1449694,-0.41131005,-0.34733644,0.059936926,-3.0657818,0.63348347,-0.00016376255,-0.17077494,0.0047588097,-0.0021543344,0.052849334,-0.018712243,-0.03510911,0.4543932,-1.3713372,1.8896636,-2.0807774,-1.5793756,2.436433,-0.12749313,0.31517783,-0.39745542,0.12163887,-0.040486977,-0.09185812,-0.24899697,0.4213795,-9.404425,0.9545008,47.661808,-0.94466543,-2.0723624,-3.8344154,-0.043104835,-0.2623791,-0.27428478,27.625,28.6875,27.875,31.75,33.6875,34.5625
0.35605195,-0.94814295,-1.907206,-1.5259414,-0.09971365,0.09723368,-0.13250002,-0.411685,-0.34731895,0.05996194,-3.0656712,0.6336294,-8.547865e-05,-0.16896132,0.005437551,-0.0027408989,0.056179356,-0.025442688,-0.031496383,0.45410573,-1.3707365,1.8888401,-2.0805476,-1.5794715,2.436252,-0.1269397,0.31624824,-0.39942002,0.12999558,-0.04054501,-0.09491705,-0.38307226,0.40222588,-9.5385,0.9791215,47.651955,-1.017684,-2.0120215,-3.9175968,-0.121368855,-0.30860233,-0.25309315,27.625,28.6875,27.875,31.75,33.6875,34.5625
0.35805207,-1.0911782,-2.0464175,-1.6589408,-0.08433994,0.088000715,-0.1348191,-0.41201812,-0.3473138,0.05993086,-3.065533,0.6336551,-0.00020263995,-0.16924737,0.0067531816,-0.0023839239,0.05821171,-0.029412815,-0.02889269,0.4538528,-1.3700511,1.8880376,-2.0802934,-1.5795316,2.4360344,-0.1292195,0.31702128,-0.40294057,0.13714428,-0.040681146,-0.0997938,-0.38307226,0.34476504,-9.672575,0.9768804,47.703007,-0.9383557,-2.0703144,-3.8486776,-0.20946372,-0.319439,-0.18833283,27.625,28.6875,27.875,31.75,33.6875,34.5625
0.36005208,-0.8901235,-1.4317704,-1.7515279,-0.065203115,0.08134862,-0.13129611,-0.4123533,-0.34729707,0.059923705,-3.065361,0.6337118,-0.00028190127,-0.17063008,0.006456218,-0.00047633168,0.057563897,-0.027603947,-0.025330355,0.45360073,-1.3694032,1.8872122,-2.0799816,-1.5796274,2.4358416,-0.12957184,0.31640446,-0.40743718,0.14029463,-0.040948357,-0.103700146,-0.38307226,0.28730422,-9.634268,0.9679317,47.65912,-0.87761116,-2.017518,-3.80555,-0.27841628,-0.3576085,-0.11887592,27.625,28.6875,27.875,31.75,33.6875,34.5625
0.36205202,-0.928992,-1.0760142,-1.7871597,-0.039941285,0.079188935,-0.13081883,-0.41270015,-0.34730318,0.059927437,-3.0652747,0.63374984,-0.00032026175,-0.17185962,0.0059941662,-0.001034814,0.05866777,-0.028962119,-0.02566792,0.45334905,-1.3687652,1.8863863,-2.0797293,-1.579676,2.4356258,-0.12941457,0.32093024,-0.41216636,0.14219365,-0.041367527,-0.1031971,-0.4405331,0.05746084,-9.672575,0.9947882,47.657326,-1.0010207,-1.9901669,-3.5801516,-0.30601516,-0.36872426,-0.08705173,27.625,28.6875,27.875,31.75,33.6875,34.5625
0.36405244,-0.27363083,-0.3991975,-1.5744483,-0.036448564,0.09637727,-0.1462746,-0.41305262,-0.34730116,0.05993661,-3.0651321,0.6338163,-0.0003374774,-0.17521235,0.0053403676,0.0001662707,0.05592833,-0.021811128,-0.028352756,0.45310822,-1.368116,1.8855246,-2.0794327,-1.5797719,2.4354463,-0.13053875,0.32182005,-0.41485357,0.13635983,-0.042064335,-0.10162566,-0.30645782,-0.038307227,-9.749189,0.9612189,47.68062,-0.82294023,-2.0052457,-3.5681415,-0.30581057,-0.38125628,-0.052260317,27.625,28.6875,27.875,31.75,33.6875,34.5625
0.36605254,-0.57676286,-0.5094588,-1.6983124,-0.024425348,0.10322813,-0.13954246,-0.41341552,-0.34729365,0.059924018,-3.065006,0.6339451,-0.00041939112,-0.17769721,0.005546526,-0.00074046385,0.054664932,-0.01998774,-0.034893375,0.45281994,-1.3674301,1.8846759,-2.079171,-1.57982,2.435256,-0.13302809,0.3255758,-0.41653034,0.13210769,-0.041732647,-0.097571865,-0.4213795,-0.019153614,-9.653421,0.92764956,47.65912,-1.0297928,-2.1196768,-3.5947301,-0.27588102,-0.41152745,-0.079158105,27.625,28.6875,27.875,31.75,33.6875,34.5625
0.36805245,-0.5194679,-0.62289226,-1.8787916,-0.029729,0.12631653,-0.14853898,-0.4137853,-0.34726098,0.05991455,-3.0648372,0.63408184,-0.0004279774,-0.17892082,0.0041259932,-0.001372184,0.054192282,-0.015128764,-0.035689145,0.45252064,-1.3667684,1.8838519,-2.078922,-1.5799288,2.4350655,-0.1304018,0.32815823,-0.41684082,0.12527461,-0.04344428,-0.094130166,-0.57460845,-0.05746084,-9.749189,0.8851263,47.68062,-0.9771917,-2.1955385,-3.7222922,-0.1892672,-0.42776573,-0.112796605,27.625,28.6875,27.875,31.75,33.6875,34.5625
0.37005267,-0.33560798,-0.9652292,-1.7556878,-0.062064264,0.14970477,-0.14813487,-0.414084,-0.34727585,0.059889168,-3.0647016,0.63405377,-0.0005296643,-0.18173432,0.0043068174,-0.0020124128,0.054580513,-0.011442167,-0.040655553,0.45234022,-1.3661188,1.8830751,-2.0786602,-1.5800012,2.4348865,-0.13173577,0.33201003,-0.41912714,0.12058989,-0.04541263,-0.09047248,-0.22984336,-0.095768064,-9.864111,0.97464454,47.668976,-1.0193985,-2.2993748,-3.8398504,-0.11428799,-0.4393297,-0.13556696,27.625,28.6875,27.875,31.75,33.6875,34.5625
0.372052,-1.3939574,-1.3711935,-1.3863361,-0.08805189,0.12871909,-0.13312872,-0.41449293,-0.3472704,0.059926078,-3.0646222,0.63420945,-0.0004156878,-0.18203664,0.0041995584,-0.00201008,0.055190712,-0.011570748,-0.041698754,0.45204034,-1.3654813,1.8821777,-2.0784318,-1.5800856,2.434695,-0.13132845,0.33304197,-0.42077342,0.12158116,-0.04590314,-0.0890186,-0.22984336,-0.1340753,-9.672575,0.97464454,47.67614,-1.0048137,-2.345972,-3.8670487,-0.088925645,-0.4442802,-0.16644742,27.625,28.6875,27.875,31.75,33.6875,34.5625
0.37405208,-0.8936533,-1.172958,-1.7877942,-0.0640855,0.092674635,-0.1322687,-0.41486663,-0.34725553,0.059913266,-3.064459,0.63434863,-0.00038084714,-0.18639487,0.0030441931,0.00053345883,0.05285652,-0.0028962437,-0.046032913,0.4517765,-1.364796,1.8813399,-2.0782182,-1.5802063,2.4345407,-0.1317922,0.33421364,-0.42744076,0.11827437,-0.047597535,-0.08512734,-0.30645782,0.0,-9.595961,1.0238806,47.661808,-1.047878,-2.2881036,-3.656166,-0.031165441,-0.47590768,-0.1795347,27.625,28.6875,27.875,31.75,33.6875,34.5625
