Tylouw/Master_Thesis_Code/test_recorded_data/real_test11/sample_2_session_1.csv
timestamp[s],tcp_force_x[N],tcp_force_y[N],tcp_force_z[N],tcp_force_rx[Nm?],tcp_force_ry[Nm?],tcp_force_rz[Nm?],tcp_pose_x[m],tcp_pose_y[m],tcp_pose_z[m],tcp_pose_rx[rot_vec_x],tcp_pose_ry[rot_vec_y],tcp_pose_rz[rot_vec_z],tcp_velo_x[m/s],tcp_velo_y[m/s],tcp_velo_z[m/s],tcp_velo_rx[rot_vec_x/s],tcp_velo_ry[rot_vec_y/s],tcp_velo_rz[rot_vec_z/s],q1[rad],q2[rad],q3[rad],q4[rad],q5[rad],q6[rad],qd1[rad/s],qd2[rad/s],qd3[rad/s],qd4[rad/s],qd5[rad/s],qd6[rad/s],tool_acc_x,tool_acc_y,tool_acc_z,current_of_whole_robot[A],voltage_of_whole_robot[V],current_J1[A],current_J2[A],current_J3[A],current_J4[A],current_J5[A],current_J6[A],temp_J1[C],temp_J2[C],temp_J3[C],temp_J4[C],temp_J5[C],temp_J6[C]
8.7800436e-07,-0.16096377,0.7902233,1.14289,-0.021280877,0.009610294,-0.010026885,-0.38151777,-0.34954333,0.059924003,-3.078478,0.62488675,-0.00029498007,-0.0013403865,-0.0007036528,-0.0010289416,-0.0012273991,0.0021122186,2.8114635e-05,0.479166,-1.4235134,1.9549626,-2.100416,-1.5707458,2.4541326,-6.2716324e-05,0.0031973312,-2.269811e-05,-0.0056152525,0.00010233046,-8.9399175e-05,0.15322891,-0.05746084,-8.695741,0.7239871,47.707485,-0.07958107,-3.1345367,-2.1595626,-0.50077266,0.16045994,-0.20620245,22.875,22.5625,22.3125,22.6875,22.4375,22.625
0.002055253,-0.10012868,0.486529,0.8282079,-0.011437951,0.0031305482,-0.0042270324,-0.38152125,-0.34954357,0.05993363,-3.0784783,0.62481004,-0.00017540684,-0.0022584538,-0.00118305,-0.0020599316,-0.003997528,0.007414447,2.7239515e-05,0.47920188,-1.4235373,1.9549769,-2.100456,-1.5708054,2.4541206,-6.164254e-05,0.0033094233,0.004656183,-0.016388476,0.00010089652,-8.765761e-05,0.15322891,-0.038307227,-8.504205,0.7620334,47.704796,-0.111614585,-3.1200516,-2.1226125,-0.43149996,0.14799905,-0.22173244,22.875,22.5625,22.3125,22.6875,22.4375,22.625
0.004054785,-0.20813663,0.5997293,1.052876,-0.0053745187,-0.0024113036,0.00069065863,-0.38154018,-0.34955758,0.05994646,-3.078533,0.6248787,-0.00016540074,-0.002197762,-0.001151122,-0.0020285372,-0.004179633,0.0077683586,2.637849e-05,0.47917792,-1.4235374,1.9549531,-2.1004794,-1.5707573,2.4541326,-6.0604747e-05,0.0028878448,0.0051798625,-0.016888576,9.9502206e-05,-8.59828e-05,0.11492168,-0.05746084,-8.63828,0.7620334,47.723602,-0.063342825,-3.2916198,-2.6353538,-0.33118683,0.15472233,-0.21722138,22.875,22.5625,22.3125,22.6875,22.4375,22.625
0.006054824,0.5247662,1.3605504,1.1035192,0.01001633,-0.013439888,-0.00916444,-0.38154483,-0.34954438,0.059944805,-3.0785177,0.62489474,-0.00012736704,-0.0020866443,-0.0011005665,-0.0008410834,-0.0034374942,0.006356359,5.388168e-05,0.479166,-1.4235498,1.954976,-2.1005013,-1.5707816,2.4541326,-4.644131e-05,0.0020263395,0.002217742,-0.011469806,9.814577e-05,-9.903401e-05,0.095768064,-0.05746084,-8.504205,0.7396539,47.703903,-0.10093714,-3.2738943,-2.4342794,-0.35874975,0.15814653,-0.22428684,22.875,22.5625,22.3125,22.6875,22.4375,22.625
0.008054022,0.7704936,2.3286147,0.74353445,0.030691165,-0.03184418,-0.009954075,-0.3815314,-0.34955716,0.059920635,-3.0785263,0.6249164,-0.00019219286,-0.002468152,-0.0013007734,0.0010014294,-0.003485521,0.0064595034,5.7134068e-05,0.47917792,-1.4235142,1.9549984,-2.1005352,-1.5707458,2.4541569,-4.3996384e-05,0.00053403946,-0.0014322062,-0.0064412165,9.685242e-05,-9.923712e-05,0.11492168,0.019153614,-8.695741,0.7486078,47.704796,-0.052009907,-3.2490268,-2.1980977,-0.3917811,0.15951052,-0.20964943,22.875,22.5625,22.3125,22.6875,22.4375,22.625
0.010054376,0.7374162,1.960244,0.3589148,0.025743777,-0.0263613,-0.009127942,-0.38151902,-0.3495555,0.059926823,-3.0785,0.6248726,-0.00019919508,-0.001599351,-0.0008414844,0.000747606,-0.002047739,0.003709976,4.6133333e-05,0.47920188,-1.4235263,1.9549869,-2.1004865,-1.5707697,2.4541569,-5.2762913e-05,0.0005126858,-0.0015702527,-0.0031790598,9.578918e-05,-9.7575976e-05,0.095768064,0.019153614,-8.944737,0.71951014,47.694054,-0.32145074,-2.4110568,-2.8986173,-0.4219612,0.13079306,-0.2821088,22.875,22.5625,22.3125,22.6875,22.4375,22.625
0.012054053,0.17056242,0.78302103,0.17332678,-0.019935835,-0.0023481352,-0.019239925,-0.38154015,-0.34955305,0.05991818,-3.0784848,0.62490785,-0.00021515574,-0.0023555316,-0.0012272486,-0.0014036517,0.0003064419,-0.0007975919,6.222487e-05,0.47917792,-1.4234761,1.9549493,-2.100486,-1.5707697,2.4541569,-6.48148e-05,0.008091193,-0.0056764125,-0.0015660619,7.993139e-05,-0.00012274848,0.095768064,0.095768064,-9.155427,0.73069996,47.695843,-0.36701316,-2.2862606,-3.174954,-0.39811414,0.12629429,-0.2984824,22.875,22.5625,22.3125,22.6875,22.4375,22.625
0.014054462,-0.72219175,-0.48788995,-0.04975706,-0.05624375,0.021617066,-0.014081313,-0.3814967,-0.34952277,0.059866693,-3.0783904,0.62486935,-0.00040932157,-0.0043540914,-7.665895e-05,-0.0045323255,0.0037559841,-0.007438099,-0.00058119925,0.47916448,-1.4234363,1.9550074,-2.100425,-1.5707697,2.4541314,-0.003959034,0.018044429,-0.010407867,0.00069466396,7.387079e-05,-0.0033700375,0.0,0.19153613,-9.308656,0.7530795,47.690468,-0.3627076,-3.1890082,-3.1064177,-0.42012978,0.12367672,-0.32408756,22.875,22.5625,22.3125,22.6875,22.4375,22.625
0.016053919,-1.2021548,-1.2201931,-0.043832533,-0.075029984,0.047554556,-0.013751394,-0.3815276,-0.34953186,0.05987935,-3.0784018,0.6248883,-0.0003805584,-0.005223519,0.0006306609,-0.0031479097,0.0042535863,-0.008386934,0.0028243533,0.47915193,-1.4234008,1.954935,-2.1004117,-1.5707697,2.4541292,-0.006016796,0.017255992,-0.013885739,0.0060314774,7.21025e-05,-0.008832777,-0.24899697,0.4405331,-9.519346,0.7105615,47.688675,-0.22919807,-2.8019,-3.1920714,-0.46241194,0.12614559,-0.2654542,22.875,22.5625,22.3125,22.6875,22.4375,22.625
0.018053755,-1.3141289,-1.5672275,-0.32296142,-0.07757958,0.074733555,-0.018599598,-0.38147926,-0.3495338,0.059846815,-3.0783737,0.62476677,-0.00048043585,-0.006072763,-0.00033502845,-0.002000856,0.002889198,-0.0057726493,0.005121672,0.47920015,-1.423389,1.9549931,-2.1003997,-1.5707697,2.4541051,-0.0050919247,0.016959462,-0.016058968,0.005552102,7.06683e-05,-0.010204094,-0.30645782,0.61291564,-9.576807,0.7777002,47.690468,-0.31710866,-2.580877,-3.2335894,-0.47158486,0.12470484,-0.26451337,22.875,22.5625,22.3125,22.6875,22.4375,22.625
0.020054115,-2.033417,-1.9080304,-0.45242152,-0.07698906,0.07185936,-0.017344808,-0.38152182,-0.34952918,0.05985274,-3.0783703,0.6248237,-0.0004654217,-0.0071893185,-0.0013564677,-0.0023488724,0.002342158,-0.004737968,0.0057224357,0.4791525,-1.4233398,1.9549211,-2.1003892,-1.5707697,2.4540935,-0.0043164366,0.020151729,-0.018465653,0.0035961873,6.930657e-05,-0.0100272745,-0.47884035,0.8619126,-9.844957,0.784413,47.690468,-0.43692926,-2.6006796,-3.199538,-0.44195718,0.11771853,-0.2750437,22.875,22.5625,22.3125,22.6875,22.4375,22.625
0.022054281,-2.1700737,-1.9848896,-0.41607657,-0.08724054,0.07696092,-0.02765538,-0.3815359,-0.34955457,0.059852634,-3.0783904,0.62477,-0.0004792719,-0.00757393,-0.0014866916,-0.003036339,0.002687169,-0.0053789257,0.0060454938,0.47917637,-1.423279,1.9548491,-2.1003768,-1.5707573,2.4540813,-0.004434468,0.022302072,-0.019194014,0.0029021446,5.5383087e-05,-0.010467497,-0.47884035,0.7278373,-9.883265,0.82694155,47.694054,-0.53686774,-2.6399293,-3.2669806,-0.41033736,0.097922325,-0.28549597,22.875,22.5625,22.3125,22.6875,22.4375,22.625
0.024054244,-2.0665126,-2.074089,-0.81460154,-0.086314894,0.06250358,-0.03447242,-0.3815664,-0.34955457,0.05985695,-3.0783868,0.62476933,-0.00042577198,-0.009105424,-0.0012845305,-0.0018835465,0.0017306001,-0.0035347731,0.0051245345,0.47916386,-1.4232432,1.954801,-2.1003888,-1.5707816,2.454069,-0.00620767,0.02185855,-0.021468215,0.0035419995,5.0338913e-05,-0.011318788,-0.4213795,0.7278373,-9.902418,0.8090337,47.69763,-0.50147074,-2.5066838,-3.2848275,-0.3792627,0.10056409,-0.32037228,22.875,22.5625,22.3125,22.6875,22.4375,22.625
0.026054304,-1.794626,-1.6867939,-0.7602499,-0.08419424,0.055315327,-0.04643533,-0.3815701,-0.34954908,0.059824463,-3.0783849,0.6247685,-0.0005194128,-0.010041689,-0.0012151526,-0.0015371218,0.0019037763,-0.0038723573,0.005762343,0.47912747,-1.4231827,1.9548115,-2.1004121,-1.5707458,2.4540322,-0.0071977065,0.023090174,-0.02406456,0.005286309,4.916038e-05,-0.0129454825,-0.57460845,0.59376204,-9.883265,0.77545905,47.71286,-0.5640451,-2.572751,-3.2841399,-0.40607214,0.08283511,-0.31045544,22.875,22.5625,22.3125,22.6875,22.4375,22.625
0.02805437,-2.0128396,-1.0565042,-0.7959927,-0.06627998,0.038619377,-0.05092415,-0.38160342,-0.34953302,0.05983513,-3.0783498,0.62479967,-0.00048467822,-0.011081275,-0.0014990573,-0.00092642254,0.0017619559,-0.0033619704,0.0061476105,0.47909132,-1.4231583,1.9547509,-2.1003754,-1.5707816,2.45402,-0.0075841276,0.024193956,-0.0270261,0.0066255825,-6.4128406e-05,-0.01371555,-0.57460845,0.57460845,-9.921572,0.7642693,47.68599,-0.5878921,-2.5165179,-3.2292166,-0.4128791,0.085783094,-0.31089738,22.875,22.5625,22.3125,22.6875,22.4375,22.625
0.030054532,-1.1034445,-0.66861457,-0.64583105,-0.037854943,0.062814236,-0.07644489,-0.3816367,-0.34955454,0.059839834,-3.0783665,0.6248034,-0.00048163754,-0.012706588,-0.001673391,-0.0007745699,0.001384135,-0.002444273,0.006028734,0.47909084,-1.4230853,1.9546541,-2.100364,-1.5707697,2.4540198,-0.008719836,0.026420105,-0.029822916,0.006208043,-0.00015923321,-0.014730364,-0.49799395,0.40222588,-9.768343,0.76874626,47.704796,-0.57078564,-2.5290613,-3.2061691,-0.38331205,0.07671352,-0.31809497,22.875,22.5625,22.3125,22.6875,22.4375,22.625
0.03205457,-1.0169215,0.44349164,-0.47258756,-0.02647916,0.056497015,-0.10161405,-0.38165125,-0.34956875,0.059827916,-3.0783935,0.6246732,-0.00048106597,-0.014880369,-0.0020763178,-0.00049775105,0.00047439552,-0.00057760003,0.0056724534,0.47910252,-1.4230244,1.9546174,-2.1003888,-1.5707697,2.4539468,-0.009979317,0.029111559,-0.033220362,0.0048382357,-0.00022333459,-0.015631048,-0.38307226,0.21068975,-9.768343,0.81351066,47.69763,-0.5815759,-2.5596433,-3.1507154,-0.35752624,0.06472187,-0.3304776,22.875,22.5625,22.3125,22.6875,22.4375,22.625
0.034054488,-1.5337244,0.3835401,-0.2863111,-0.002886414,0.045238987,-0.1038875,-0.38169253,-0.34956557,0.05983238,-3.0783772,0.6247079,-0.00046935576,-0.016132332,-0.0023590701,-0.00014940384,-0.00013401944,0.00055306643,0.0062465393,0.4790663,-1.4229639,1.9545325,-2.1003644,-1.5707816,2.4539344,-0.010645036,0.0304362,-0.03544379,0.004452732,-0.00021094801,-0.016869485,-0.22984336,0.038307227,-9.634268,0.784413,47.72719,-0.6272151,-2.608263,-3.139379,-0.34231788,0.053889606,-0.31376845,22.875,22.5625,22.3125,22.6875,22.4375,22.625
0.03605429,-1.0696366,0.69823056,-0.35338497,0.013981743,0.040997855,-0.118487746,-0.38175815,-0.34959248,0.059855383,-3.0784452,0.6247413,-0.0004170289,-0.017749881,-0.0026575325,0.0006682112,-0.0009397196,0.002182552,0.0063042617,0.47902998,-1.4228915,1.9544,-2.1003764,-1.5707458,2.4539104,-0.011585381,0.031492174,-0.0385806,0.0047167386,-0.0002523621,-0.01786581,-0.19153613,-0.05746084,-9.615114,0.8224646,47.74868,-0.6141901,-2.5273175,-3.0623214,-0.3103832,0.041939974,-0.3096702,22.875,22.5625,22.3125,22.6875,22.4375,22.625
0.03805442,-0.38113964,0.7947756,-0.44977105,0.021452237,0.03697407,-0.11913721,-0.38178053,-0.34957945,0.059823018,-3.0783877,0.6247879,-0.0004802069,-0.018416869,-0.0023840808,0.0004723014,-0.00015940574,0.0007539443,0.0054014567,0.47899356,-1.4227948,1.9543632,-2.1003754,-1.5707573,2.4539104,-0.012664455,0.033391494,-0.04073428,0.0065984577,-0.00028782748,-0.01804099,-0.15322891,-0.15322891,-9.500193,0.86945957,47.72002,-0.6012199,-2.5611875,-3.0303063,-0.3388251,0.038324475,-0.2885692,22.875,22.5625,22.3125,22.6875,22.4375,22.625
0.04005473,-0.39110082,0.8885232,-0.41131556,0.021376915,0.029585823,-0.10352578,-0.38181737,-0.3495984,0.05983957,-3.078424,0.6247185,-0.00043692003,-0.019198222,-0.00217163,0.00014873255,0.00083976885,-0.00018021745,0.004673419,0.4789933,-1.4227461,1.9542669,-2.100363,-1.5707577,2.4538622,-0.0134682655,0.035623573,-0.04280323,0.0077265142,-0.00074527255,-0.018114716,-0.15322891,-0.1340753,-9.385271,0.7463667,47.701214,-0.63982844,-2.5956562,-3.0730658,-0.30422637,0.04401539,-0.2826309,22.875,22.5625,22.3125,22.6875,22.4375,22.625
0.042053953,-0.55601764,0.73026526,-0.3051017,0.017384896,0.026527815,-0.10905655,-0.38185933,-0.34959307,0.05982342,-3.078417,0.6246802,-0.00046544804,-0.020127773,-0.0018440372,0.00081049954,0.0007383652,0.0004125726,0.0024918995,0.47894493,-1.42265,1.954194,-2.100363,-1.5707577,2.453791,-0.014787262,0.035525415,-0.044480264,0.008929654,-0.0009293155,-0.017251233,-0.05746084,-0.15322891,-9.442732,0.784413,47.70211,-0.66264075,-2.5189502,-3.099485,-0.30170116,0.040236127,-0.28595728,22.875,22.5625,22.3125,22.6875,22.4375,22.625
0.044054076,-0.97681314,0.4074548,-0.21325801,0.010545541,0.026141733,-0.097810715,-0.38188535,-0.34958398,0.059836667,-3.0783834,0.6247128,-0.0004564302,-0.021648612,-0.0017671712,0.0015262159,0.00059475924,0.0024532403,0.0010564608,0.4789205,-1.4226257,1.9541224,-2.1003034,-1.5707821,2.4537911,-0.01579972,0.036090855,-0.04671586,0.0087251635,-0.001747534,-0.016825372,-0.095768064,-0.038307227,-9.481039,0.74413085,47.696735,-0.57689834,-2.4053771,-3.0980349,-0.29695055,0.01280394,-0.29715523,22.875,22.5625,22.3125,22.6875,22.4375,22.625
0.04605371,-0.9936696,-0.26846325,-0.45937273,0.013403291,0.03407741,-0.100957096,-0.3819337,-0.34961358,0.059851076,-3.0784178,0.62470037,-0.0004260375,-0.021720227,-0.0016349256,0.0008128009,0.0020847195,3.1957046e-05,0.001270999,0.4789204,-1.4225408,1.9539894,-2.10029,-1.5707701,2.453779,-0.015967477,0.038612783,-0.0484324,0.010756142,-0.0019527017,-0.017206471,-0.17238252,0.076614454,-9.481039,0.7239871,47.71554,-0.6313915,-2.4987419,-3.1059961,-0.28348145,0.01162136,-0.27834445,22.875,22.5625,22.3125,22.6875,22.4375,22.625
0.04805389,-0.6389925,-0.2923816,-0.43755782,-0.0034300548,0.04507719,-0.103658766,-0.38198182,-0.34959158,0.05984778,-3.0783675,0.6247278,-0.0004210451,-0.021641143,-0.0013296611,0.00048507666,0.0032294306,-0.0019614606,0.0016972126,0.47886035,-1.4224683,1.9539059,-2.1002538,-1.5708064,2.4537425,-0.01637092,0.039790265,-0.049537547,0.012979906,-0.002048316,-0.018035589,-0.15322891,0.15322891,-9.595961,0.7777002,47.71286,-0.6403208,-2.415853,-3.2545094,-0.3004982,0.014277578,-0.28089875,22.875,22.5625,22.3125,22.6875,22.4375,22.625
0.050053783,-0.8590258,-0.3101431,-0.35569313,-0.02076051,0.036325134,-0.10123951,-0.38203818,-0.3495917,0.05985706,-3.0783813,0.62474954,-0.00041790536,-0.02304992,-0.0020303845,0.0014615624,0.0022602186,-0.00020379861,0.0026055274,0.47880033,-1.4223958,1.9537963,-2.1002295,-1.570794,2.4536943,-0.016458426,0.04078309,-0.05301502,0.013457772,-0.0020047172,-0.019029729,-0.15322891,0.24899697,-9.481039,0.7642693,47.729877,-0.617738,-2.3659935,-3.20934,-0.30855906,0.022558518,-0.2569804,22.875,22.5625,22.3125,22.6875,22.4375,22.625
0.052053794,-0.762341,-1.3119347,-0.5633603,-0.012861998,0.033317305,-0.09698511,-0.38207868,-0.34960818,0.05985252,-3.078364,0.62474597,-0.00042202725,-0.024089783,-0.002009794,0.0013902569,0.0021880746,4.9276958e-05,0.0027052811,0.4788,-1.4222871,1.953677,-2.1002057,-1.5708064,2.453694,-0.01741917,0.04243847,-0.05469555,0.013224828,-0.00206223,-0.020088952,-0.19153613,0.3256114,-9.461885,0.7396539,47.71465,-0.60207427,-2.2737272,-3.2015047,-0.30509567,0.002152061,-0.2598766,22.875,22.5625,22.3125,22.6875,22.4375,22.625
0.054053877,-0.65602493,-1.2821515,-0.4875504,-0.03288093,0.03852268,-0.09000107,-0.38210052,-0.34961498,0.059867974,-3.0783827,0.62467206,-0.0004754391,-0.024024446,-0.001964366,0.00070471637,0.002477368,-0.0007474174,0.002859691,0.47877604,-1.4222509,1.9535812,-2.1001222,-1.5707821,2.4536216,-0.017508637,0.043609902,-0.054305397,0.012503633,-0.0019534214,-0.02033287,-0.15322891,0.36391866,-9.500193,0.784413,47.70838,-0.6382115,-2.2499166,-3.3560643,-0.30283695,0.0022965283,-0.24976727,22.875,22.5625,22.3125,22.6875,22.4375,22.625
0.05605482,-1.0006279,-1.838248,-0.5095441,-0.034507267,0.03712032,-0.09467185,-0.3821568,-0.34960204,0.0598649,-3.0783186,0.62471664,-0.00043079403,-0.025111245,-0.002424368,0.0010443983,0.0019425834,0.0005548916,0.002157675,0.47873995,-1.4221544,1.9534725,-2.100098,-1.5708421,2.4536216,-0.017612072,0.044899534,-0.056430835,0.011936514,-0.0020845518,-0.019732637,-0.1340753,0.38307226,-9.5385,0.7642693,47.709274,-0.62348837,-2.1930094,-3.4008203,-0.3038437,-0.020189162,-0.2477892,22.875,22.5625,22.3125,22.6875,22.4375,22.625
0.05805387,-1.499411,-1.6313163,-0.49452618,-0.036428142,0.021416023,-0.089347936,-0.3822301,-0.349615,0.059878156,-3.078371,0.6247467,-0.00037948522,-0.027796414,-0.0031603859,0.002601418,0.0006332454,0.004486129,0.0018582171,0.47867963,-1.4220695,1.9533509,-2.1001227,-1.5708183,2.4535735,-0.018360296,0.04625212,-0.061439596,0.011502868,-0.002743957,-0.020177463,-0.019153614,0.47884035,-9.500193,0.76874626,47.71286,-0.6519363,-2.2361367,-3.2925396,-0.29038697,-0.021766644,-0.2489944,22.875,22.5625,22.3125,22.6875,22.4375,22.625
0.06005416,-1.29347,-1.2804971,-0.34261796,-0.035728153,0.0336762,-0.092905805,-0.3822745,-0.3496511,0.059883058,-3.0784268,0.6247192,-0.0003728802,-0.028231326,-0.0028173148,0.002241599,0.001987398,0.0042022965,0.002408296,0.4786795,-1.4219732,1.9532322,-2.1001346,-1.570783,2.4535491,-0.018674405,0.0476281,-0.062270816,0.011838241,-0.003815898,-0.021039132,-0.17238252,0.45968673,-9.385271,0.76874626,47.716442,-0.62083566,-2.1502779,-3.2475264,-0.29313758,-0.019214533,-0.24781829,22.875,22.5625,22.3125,22.6875,22.4375,22.625
0.062054403,-1.1343105,-1.7048914,-0.22240934,-0.021311333,0.033091534,-0.08861855,-0.38232395,-0.3496456,0.059889343,-3.0783827,0.6246327,-0.0003705382,-0.028619904,-0.0023393468,0.0016236936,0.0030480127,0.003538655,0.003119898,0.47865525,-1.4218765,1.9530882,-2.1000502,-1.5708312,2.4534767,-0.019464795,0.049088277,-0.062497213,0.011682912,-0.004453938,-0.022539372,-0.17238252,0.5554548,-9.423578,0.78217715,47.707485,-0.58780134,-2.1358442,-3.4363642,-0.2867053,-0.015155577,-0.23842427,22.875,22.5625,22.3125,22.6875,22.4375,22.625
0.06405427,-1.3209337,-1.5159265,-0.24575351,-0.02547823,0.02514425,-0.08136187,-0.38241452,-0.34964108,0.059919298,-3.078389,0.6247483,-0.00028471285,-0.030609084,-0.0030597385,0.0026455824,0.0019314403,0.0060351314,0.004485776,0.47857118,-1.4218038,1.9529313,-2.1000268,-1.5708431,2.453464,-0.01991365,0.050643906,-0.06656353,0.0114629455,-0.004620982,-0.024351757,-0.038307227,0.5554548,-9.3661175,0.7284641,47.691364,-0.65170866,-2.0657833,-3.3853106,-0.2681593,-0.0027208447,-0.22328597,22.875,22.5625,22.3125,22.6875,22.4375,22.625
0.066053845,-1.3617045,-1.4195341,-0.07413902,-0.018836489,0.012616651,-0.083639346,-0.38247848,-0.34966063,0.059911944,-3.0784276,0.62473685,-0.0003069486,-0.031074625,-0.0034410553,0.0026233778,0.0016893873,0.005808309,0.004904624,0.4785231,-1.4216714,1.9527992,-2.1000388,-1.5708069,2.453404,-0.01986992,0.052023336,-0.06816873,0.011778043,-0.0043040696,-0.024726585,-0.05746084,0.53630114,-9.270349,0.77545905,47.70211,-0.66069996,-1.982644,-3.395855,-0.25960657,-0.026223695,-0.21586995,22.875,22.5625,22.3125,22.6875,22.4375,22.625
0.06805389,-0.6603148,-0.6274211,-0.10234467,-0.025084522,0.026254512,-0.08911189,-0.38252947,-0.349658,0.059908718,-3.0784059,0.62471247,-0.00029760157,-0.03222212,-0.003752607,0.0025554916,0.001594976,0.0068321684,0.0052818796,0.47848707,-1.4215746,1.9526905,-2.100015,-1.5708312,2.4533556,-0.020120697,0.054022573,-0.07006501,0.0107232835,-0.0046986076,-0.02535237,0.038307227,0.36391866,-9.289502,0.7777002,47.711964,-0.6356549,-2.0305324,-3.388878,-0.26250932,-0.04269527,-0.20923945,22.875,22.5625,22.3125,22.6875,22.4375,22.625
0.07005433,-0.59277827,-0.20959802,0.07474819,-0.021127356,0.023552533,-0.096848555,-0.38258478,-0.34966433,0.059903543,-3.0783832,0.62468857,-0.00028951865,-0.03354986,-0.0038049398,0.0027593174,0.0016643286,0.0075381855,0.0057623,0.4784628,-1.421454,1.9525589,-2.099991,-1.5708555,2.4533193,-0.020998167,0.05578472,-0.07259089,0.010892582,-0.005091078,-0.026707966,0.095768064,0.36391866,-9.136273,0.81351066,47.72719,-0.631658,-1.9689484,-3.443715,-0.21469614,-0.04566262,-0.19409019,22.875,22.5625,22.3125,22.6875,22.4375,22.625
0.07205434,-0.56586695,-0.15303421,0.17232105,-0.009453656,0.023474159,-0.08810708,-0.38267136,-0.34967327,0.059915148,-3.0784028,0.6247491,-0.00025968428,-0.033579588,-0.0038799194,0.0020083135,0.0025839957,0.0057524336,0.006841575,0.47839087,-1.4213328,1.952391,-2.0999787,-1.5708436,2.4532828,-0.02089105,0.05808112,-0.073693566,0.0117072305,-0.005084976,-0.02767957,-0.019153614,0.28730422,-9.136273,0.8157518,47.694946,-0.6508012,-1.9730006,-3.4927874,-0.22081494,-0.036884256,-0.18798617,22.875,22.5625,22.3125,22.6875,22.4375,22.625
0.07405429,-0.84391356,-0.014110508,0.017321704,-0.0023165771,0.01965325,-0.0869208,-0.38277084,-0.34972313,0.059970472,-3.0785077,0.624636,-4.4733486e-05,-0.035809625,-0.004813981,0.0034819327,0.0011148471,0.008911338,0.006836835,0.47840264,-1.4212484,1.9521736,-2.1000025,-1.5708674,2.4532108,-0.021193312,0.059345614,-0.07853011,0.011798576,-0.00524099,-0.027975053,-0.11492168,0.34476504,-9.174581,0.7777002,47.683304,-0.56946695,-1.9816301,-3.4256868,-0.21090439,-0.03653229,-0.1771311,22.875,22.5625,22.3125,22.6875,22.4375,22.625
0.07605364,-0.43087798,0.07805335,0.15458135,-0.0027893034,0.028376989,-0.099502794,-0.3828269,-0.3497229,0.05995261,-3.0784676,0.62464786,-0.00014699342,-0.035269126,-0.0043020495,0.0022682745,0.0025413146,0.005750116,0.005401545,0.47834262,-1.4210917,1.9520186,-2.0999305,-1.5708555,2.4531634,-0.021719268,0.06119561,-0.07816863,0.013049685,-0.0050498866,-0.02706582,-0.095768064,0.26815057,-9.155427,0.7038487,47.703903,-0.6855477,-1.9161491,-3.501331,-0.1913149,-0.057827428,-0.18039042,22.875,22.5625,22.3125,22.6875,22.4375,22.625
0.078054585,-0.39576116,0.09575809,0.15444012,-0.0018479398,0.023804503,-0.1019152,-0.3828898,-0.34973547,0.059950214,-3.0784755,0.62464887,-0.0001336484,-0.03576217,-0.0045014755,0.0022113873,0.0025412792,0.0049986104,0.005511087,0.4783064,-1.4209712,1.951886,-2.09993,-1.570855,2.453127,-0.022040721,0.062717736,-0.08001208,0.014036643,-0.00470533,-0.027496535,-0.038307227,0.19153613,-9.097966,0.81351066,47.690468,-0.71488416,-1.8591604,-3.619679,-0.1861048,-0.057689942,-0.18506682,22.875,22.5625,22.3125,22.6875,22.4375,22.625
0.08005363,-0.6246744,-0.0527257,0.14139186,-0.0015271178,0.0228249,-0.09719464,-0.38296935,-0.34975904,0.059967294,-3.0785105,0.6245778,-6.427222e-05,-0.037455224,-0.0053372793,0.002233086,0.0032853747,0.005046305,0.0073351352,0.4782826,-1.4208493,1.9517049,-2.0999177,-1.5708674,2.4530544,-0.021676328,0.06709584,-0.085370146,0.015318426,-0.005395485,-0.028952131,-0.11492168,0.17238252,-9.212888,0.81351066,47.690468,-0.6915703,-1.9619521,-3.3793159,-0.20212176,-0.05287578,-0.18207236,22.875,22.5625,22.3125,22.6875,22.4375,22.625
0.08205455,-0.58340275,-0.078471966,0.040045828,-0.0013509332,0.025655534,-0.09650988,-0.38303494,-0.34974813,0.059939288,-3.0784461,0.6245832,-0.00015545374,-0.03789731,-0.005085501,0.002894644,0.0033729225,0.006184268,0.008393492,0.47821042,-1.4206696,1.9515494,-2.099858,-1.5708793,2.4529939,-0.022131037,0.066150285,-0.085933544,0.015858438,-0.005999611,-0.030463649,-0.17238252,0.19153613,-9.193734,0.79560274,47.717335,-0.7318531,-1.9225404,-3.5125356,-0.18466328,-0.071088076,-0.16039199,22.875,22.5625,22.3125,22.6875,22.4375,22.625
0.084054366,-0.7199629,-0.01957846,0.014612108,-0.0052372147,0.03473477,-0.09404859,-0.38312775,-0.34974,0.05997579,-3.078442,0.6246596,-7.360865e-05,-0.039523605,-0.0050526806,0.0033990901,0.0036771346,0.007289664,0.0077315723,0.4781261,-1.4205968,1.9513692,-2.099798,-1.5709037,2.4529579,-0.023175027,0.067832805,-0.089179285,0.016581705,-0.006781985,-0.030842898,-0.19153613,0.22984336,-9.155427,0.7866488,47.719128,-0.67866975,-1.82494,-3.4420614,-0.18774173,-0.07006827,-0.15075383,22.875,22.5625,22.3125,22.6875,22.4375,22.625
0.086054176,-0.86913335,-0.29207534,-0.14749159,6.1981904e-05,0.04162405,-0.09122631,-0.38319814,-0.3497539,0.05997458,-3.0784454,0.62454486,-5.0499413e-05,-0.040880803,-0.0045875446,0.0025031297,0.0059819627,0.00627149,0.006785701,0.47810167,-1.4204514,1.9511999,-2.0997732,-1.5709285,2.4528615,-0.02422356,0.07197892,-0.09204441,0.017269976,-0.00836446,-0.030940834,-0.21068975,0.21068975,-9.346964,0.8493211,47.719128,-0.6305188,-1.8136704,-3.446813,-0.16720852,-0.04440687,-0.16643658,22.875,22.5625,22.3125,22.6875,22.4375,22.625
0.08805421,-1.1065394,-0.4877547,-0.31316966,-0.008092633,0.045935314,-0.095101,-0.38323483,-0.3497792,0.05995642,-3.0784464,0.624526,-0.00014453853,-0.041643083,-0.0046544373,0.0030597728,0.0064062867,0.007543407,0.006745088,0.47808966,-1.4203069,1.9510678,-2.0997374,-1.5708932,2.4528377,-0.024180776,0.072276466,-0.09378289,0.017781366,-0.009330409,-0.030854493,-0.22984336,0.28730422,-9.346964,0.779936,47.690468,-0.6414207,-1.8913219,-3.489117,-0.16847053,-0.051403336,-0.16587286,22.875,22.5625,22.3125,22.6875,22.4375,22.625
0.09005572,-1.847696,-1.1306067,-0.46061242,-0.012343185,0.04266271,-0.08874054,-0.3833295,-0.34979478,0.05997152,-3.0784533,0.6245268,-0.00013220489,-0.0421542,-0.004813812,0.0031827218,0.0070623728,0.0072709587,0.007153265,0.47802985,-1.4201505,1.9508404,-2.0996768,-1.5708932,2.4527776,-0.02406625,0.073618904,-0.095914215,0.019115033,-0.009788695,-0.031146428,-0.28730422,0.2681506,-9.3661175,0.7665104,47.690468,-0.7265141,-1.7343326,-3.4877462,-0.16284515,-0.042455826,-0.15782955,22.875,22.5625,22.3125,22.6875,22.4375,22.625
0.092054464,-1.49561,-1.1777992,-0.4149566,-0.021005489,0.050596315,-0.08530773,-0.3834274,-0.34981477,0.05998721,-3.0784466,0.6244475,-5.6195087e-05,-0.042593185,-0.005054357,0.0026767508,0.00834995,0.0064029437,0.008094072,0.478006,-1.4199814,1.9506,-2.0996292,-1.5709413,2.4527054,-0.023559004,0.076299265,-0.098017864,0.0199022,-0.010534709,-0.031577602,-0.24899697,0.36391866,-9.481039,0.7911258,47.70032,-0.80856645,-1.7857882,-3.5414138,-0.15572625,-0.039094545,-0.15426312,22.875,22.5625,22.3125,22.6875,22.4375,22.625
0.09405353,-1.5766166,-1.4456478,-0.679639,-0.024566963,0.049556833,-0.08720886,-0.38351423,-0.34981495,0.059997726,-3.0784485,0.6244675,-1.6967444e-05,-0.04370517,-0.005294576,0.0030420294,0.00739366,0.0068635745,0.007124158,0.47793362,-1.419861,1.9504327,-2.0996053,-1.5709528,2.4526453,-0.024560278,0.07744243,-0.10021608,0.02010497,-0.009900854,-0.031609114,-0.24899697,0.3256114,-9.557653,0.79560274,47.73077,-0.77100074,-1.8239765,-3.5716205,-0.1683704,-0.023841854,-0.1718839,22.875,22.5625,22.3125,22.6875,22.4375,22.625
0.09605363,-1.4665781,-1.4329035,-0.7586894,-0.030378545,0.04235188,-0.088357486,-0.38361174,-0.34983176,0.06000011,-3.0784333,0.6245039,-3.406803e-05,-0.044976894,-0.00546978,0.0029562416,0.006555422,0.006380658,0.0056859786,0.47787306,-1.4196678,1.9501923,-2.0995448,-1.5709523,2.4526095,-0.026035342,0.07978532,-0.10277684,0.02036208,-0.008939627,-0.03164602,-0.24899697,0.24899697,-9.691729,0.8247004,47.747787,-0.7121086,-1.710875,-3.5332131,-0.14333034,-0.049946398,-0.17179714,22.875,22.5625,22.3125,22.6875,22.4375,22.625
0.0980535,-1.5118896,-0.95431423,-0.6267401,-0.03966151,0.036077227,-0.08503167,-0.38368037,-0.34985396,0.059994996,-3.0784411,0.62439066,-6.368514e-05,-0.045845658,-0.005768225,0.0026397274,0.0066294814,0.0058542835,0.004674946,0.47784898,-1.419499,1.9499997,-2.099497,-1.5709523,2.452514,-0.026414888,0.082352325,-0.10505637,0.020575454,-0.008768244,-0.031013168,-0.3256114,0.30645782,-9.634268,0.82022345,47.733456,-0.67400247,-1.7852046,-3.508278,-0.13964663,-0.045307882,-0.17542806,22.875,22.5625,22.3125,22.6875,22.4375,22.625
0.100054055,-1.2567337,-0.94017637,-0.5784101,-0.025812827,0.03928488,-0.090066746,-0.38381398,-0.34985146,0.060022112,-3.0784557,0.6243933,8.552612e-05,-0.047594074,-0.006279869,0.0029714052,0.0067731156,0.0072851186,0.0040325057,0.4777529,-1.4193537,1.9497713,-2.099497,-1.5710009,2.4524179,-0.026597383,0.08508008,-0.10893776,0.020525247,-0.009559266,-0.030550271,-0.3256114,0.34476507,-9.653421,0.8179876,47.741516,-0.7014955,-1.7506528,-3.5018678,-0.14184558,-0.03824791,-0.20099175,22.875,22.5625,22.3125,22.6875,22.4375,22.625
0.1020539,-1.4336585,-1.3781296,-0.78616977,-0.011899577,0.03897867,-0.07824633,-0.38389885,-0.34988204,0.0600244,-3.0784445,0.62441033,6.869885e-05,-0.04899877,-0.006478691,0.0029505794,0.005622423,0.0072024777,0.0023323284,0.4777283,-1.4191608,1.9495314,-2.099437,-1.5710005,2.4524055,-0.028214006,0.087288246,-0.11138682,0.020306464,-0.008505491,-0.030466855,-0.24899697,0.38307226,-9.576807,0.79560274,47.705692,-0.6765982,-1.7965567,-3.455822,-0.13231397,-0.06264369,-0.21698707,22.875,22.5625,22.3125,22.6875,22.4375,22.625
0.10405361,-1.321872,-1.0498767,-0.8683194,-0.014739514,0.03623533,-0.088551685,-0.38401175,-0.34989995,0.06004746,-3.0784743,0.6244174,0.00012713522,-0.050295044,-0.006600921,0.0012835821,0.0071032825,0.004598017,0.0018014407,0.477656,-1.4190025,1.9492892,-2.0994012,-1.5710005,2.452334,-0.029103039,0.09353812,-0.114789076,0.020452268,-0.008628677,-0.030822597,-0.17238252,0.30645782,-9.634268,0.7396539,47.71823,-0.59575766,-1.7918098,-3.2694082,-0.11627921,-0.051871315,-0.2184232,22.875,22.5625,22.3125,22.6875,22.4375,22.625
0.10605397,-1.0997386,-0.9931691,-0.5026999,-0.018608548,0.04189321,-0.08955447,-0.38409293,-0.3499175,0.06005884,-3.0784824,0.62436044,0.00015071081,-0.051506568,-0.007133852,0.0022459798,0.0070836986,0.0062159826,0.0022910456,0.4776202,-1.418858,1.9490865,-2.0993526,-1.5710129,2.4522617,-0.028797342,0.09443761,-0.11829374,0.021613456,-0.009359611,-0.03100375,-0.24899697,0.38307226,-9.576807,0.82022345,47.701214,-0.67073643,-1.8446443,-3.4318495,-0.09722817,-0.058440838,-0.25474632,22.875,22.5625,22.3125,22.6875,22.4375,22.625
0.108053505,-1.3768579,-1.27051,-0.33470377,-0.02395015,0.029452926,-0.08691387,-0.3842002,-0.34991732,0.060039256,-3.0784376,0.6243687,0.00012663152,-0.051224254,-0.0070231254,-0.00083868334,0.011227828,0.00044501692,0.0036413805,0.47753647,-1.4186274,1.9488586,-2.0993168,-1.5710367,2.452189,-0.02806057,0.10202224,-0.120296255,0.023063324,-0.010389986,-0.031613324,-0.21068975,0.4405331,-9.461885,0.7777002,47.70659,-0.73670065,-2.0144088,-3.2737002,-0.09969659,-0.037456095,-0.27092057,22.875,22.5625,22.3125,22.6875,22.4375,22.625
0.11005419,-1.150167,-1.4587636,-0.37256923,-0.02773097,0.028801188,-0.08755268,-0.38431767,-0.34994447,0.060079597,-3.0784657,0.6243558,0.00026656548,-0.053130586,-0.0074367006,0.0018190561,0.00890934,0.0047889547,0.003622931,0.47750002,-1.418484,1.948594,-2.0992806,-1.5710734,2.452141,-0.029110055,0.09956283,-0.12379125,0.024091974,-0.010329931,-0.032644242,-0.22984336,0.51714754,-9.442732,0.7597976,47.704796,-0.71620953,-1.8422406,-3.2635999,-0.10111878,-0.034692526,-0.2699356,22.875,22.5625,22.3125,22.6875,22.4375,22.625
0.11205389,-0.88956755,-1.4582555,-0.2958669,-0.03216316,0.03041246,-0.09151148,-0.38441947,-0.3499478,0.060063362,-3.0784132,0.6243642,0.00022831022,-0.05429991,-0.007069157,0.0009267544,0.010383283,0.003428274,0.0031036267,0.4774276,-1.4182545,1.9483541,-2.09922,-1.5710973,2.4520807,-0.03037871,0.10332119,-0.1262099,0.024638724,-0.011019579,-0.03339029,-0.24899697,0.4213795,-9.423578,0.7732232,47.70032,-0.6733439,-1.9840523,-3.2354422,-0.09102072,-0.029812314,-0.28649157,22.875,22.5625,22.3125,22.6875,22.4375,22.625
0.11405485,-0.9468652,-1.3181099,-0.12871575,-0.039100327,0.033194274,-0.091580495,-0.38454783,-0.34998313,0.06010512,-3.0784562,0.62437165,0.0003414137,-0.055436254,-0.007640015,0.0016413898,0.00966291,0.0045178486,0.004205928,0.47737956,-1.418086,1.9480547,-2.0991724,-1.5711092,2.452032,-0.030491766,0.104393594,-0.12923522,0.0252909,-0.010882822,-0.03460529,-0.28730422,0.47884035,-9.346964,0.78217715,47.704796,-0.69943976,-1.8317509,-3.2806926,-0.093090944,-0.036578603,-0.30038044,22.875,22.5625,22.3125,22.6875,22.4375,22.625
0.11605349,-1.0777726,-1.5464288,0.0012920484,-0.032914724,0.03837363,-0.09348644,-0.38464707,-0.3499961,0.06008911,-3.0784526,0.62429357,0.00033578306,-0.055489477,-0.007119998,0.0008565696,0.011253048,0.0032549896,0.0048085074,0.47731948,-1.4178692,1.9478396,-2.0991595,-1.571122,2.4519238,-0.030910924,0.10592491,-0.12931229,0.025690319,-0.0117150005,-0.035625376,-0.19153613,0.4213795,-9.32781,0.8090337,47.70032,-0.70004797,-1.7422059,-3.2897758,-0.06851643,-0.022956,-0.29698277,22.875,22.5625,22.3125,22.6875,22.4375,22.625
0.118054196,-1.3467823,-1.3221352,0.1683177,-0.029083442,0.039041143,-0.08203194,-0.3847673,-0.3500093,0.060087495,-3.07841,0.62434137,0.0003296673,-0.056894466,-0.0076520923,0.0013214818,0.0106352195,0.0038094686,0.005776426,0.47724727,-1.4176283,1.9475507,-2.099088,-1.5711454,2.4518871,-0.031434566,0.1079778,-0.13293222,0.026477559,-0.011428132,-0.037115235,-0.15322891,0.38307226,-9.232041,0.86945957,47.746887,-0.7108703,-1.8306999,-3.204751,-0.06161505,-0.012939301,-0.31308466,22.875,22.5625,22.3125,22.6875,22.4375,22.625
0.12005372,-0.6647274,-0.6980308,0.1015815,-0.017366484,0.0477149,-0.092626825,-0.38487715,-0.35004857,0.060108658,-3.0784378,0.62423086,0.00036899943,-0.057191577,-0.0077988855,0.0009320174,0.010827281,0.0024871917,0.007046546,0.47722328,-1.4174234,1.9472507,-2.099016,-1.5711573,2.4517908,-0.031721268,0.10984269,-0.13439986,0.027339954,-0.010991966,-0.038672213,-0.15322891,0.3256114,-9.11712,0.81351066,47.73077,-0.7127298,-1.8186893,-3.3173423,-0.051397678,-0.015854627,-0.31849605,22.875,22.5625,22.3125,22.6875,22.4375,22.625
0.12205434,-0.6458585,-0.26443413,0.395765,-0.005580468,0.03644133,-0.09621202,-0.38502017,-0.35007092,0.06013614,-3.0784829,0.6242208,0.00048001346,-0.05809046,-0.007984301,0.0009440309,0.010706921,0.0026302806,0.007516362,0.47713903,-1.4172307,1.9469641,-2.0990036,-1.5711693,2.4516947,-0.032228805,0.111498386,-0.13637859,0.027478568,-0.010951846,-0.039649367,-0.15322891,0.21068975,-9.059659,0.800085,47.70032,-0.7114067,-1.7290561,-3.3051162,-0.04049275,-0.029301532,-0.3109942,22.875,22.5625,22.3125,22.6875,22.4375,22.625
0.12405424,-0.42536038,0.23242792,0.7040234,-0.0039774845,0.029876536,-0.09502698,-0.38512832,-0.35009086,0.060120687,-3.078496,0.6242033,0.0004659599,-0.05901127,-0.0083922325,0.0008002853,0.009538477,0.0028829565,0.007401389,0.4770668,-1.4170018,1.9467367,-2.099004,-1.5711569,2.45161,-0.032931354,0.1132213,-0.1378142,0.02642635,-0.0100356825,-0.04023722,-0.076614454,0.17238252,-8.887277,0.83365434,47.694054,-0.709748,-1.7767366,-3.4263153,-0.016477711,-0.041400757,-0.32908905,22.875,22.5625,22.3125,22.6875,22.4375,22.625
0.12605356,-0.34332356,0.3076691,0.6806388,0.01133377,0.01627987,-0.09284464,-0.38524437,-0.35010186,0.06012932,-3.0784352,0.6242288,0.000510056,-0.059991024,-0.008430187,-0.00052543485,0.010780809,0.0011756062,0.00687774,0.47701868,-1.4167838,1.9464477,-2.0989206,-1.5712174,2.4515858,-0.0335437,0.117879845,-0.14009245,0.026131453,-0.010361631,-0.04032344,-0.019153614,0.1340753,-8.829816,0.8537928,47.683304,-0.71263766,-1.9841628,-3.3364317,0.031950038,-0.03720266,-0.33854702,22.875,22.5625,22.3125,22.6875,22.4375,22.625
0.12805416,-0.42855352,0.31988573,0.5305559,0.022376554,0.0044968957,-0.08784145,-0.38541445,-0.35014698,0.060154356,-3.0785148,0.62418747,0.00061468524,-0.060961384,-0.008256978,0.0014053745,0.010013211,0.0044957153,0.0064382073,0.47693443,-1.416521,1.9460887,-2.09892,-1.5712055,2.4514658,-0.034175254,0.11501191,-0.14144306,0.027050633,-0.011201091,-0.040515278,0.019153614,0.05746084,-8.791509,0.76874626,47.690468,-0.7466543,-1.6348672,-3.4044209,0.04253639,-0.028364515,-0.3499129,22.875,22.5625,22.3125,22.6875,22.4375,22.625
0.13005425,-0.49957642,0.6237728,0.6291807,0.025660647,0.0019079858,-0.090863205,-0.38550612,-0.35014287,0.060128916,-3.078464,0.62419504,0.0005482037,-0.06149345,-0.008783236,0.00037081278,0.010713453,0.0012961057,0.008574189,0.4768504,-1.4163028,1.9458851,-2.0988715,-1.571217,2.4513931,-0.034265902,0.119695134,-0.14493302,0.029015673,-0.010360333,-0.042740434,-0.038307227,0.038307227,-8.63828,0.7933669,47.66091,-0.70541084,-1.9212968,-3.380489,0.050997723,-0.032750506,-0.35669056,22.875,22.5625,22.3125,22.6875,22.4375,22.625
0.13205402,-0.124166965,0.68628997,0.45103502,0.026343085,0.01377596,-0.088534586,-0.38564768,-0.3501736,0.06016346,-3.0784817,0.62415916,0.0006278273,-0.061529506,-0.008871997,-0.00029085777,0.011784826,-0.0003029872,0.009117114,0.47679043,-1.416086,1.9455379,-2.098787,-1.5712413,2.4513087,-0.033988647,0.121885516,-0.14618374,0.029987462,-0.010577074,-0.04300554,-0.038307227,0.21068975,-8.7532015,0.72622824,47.677036,-0.7903657,-1.8002007,-3.4255502,0.048532143,-0.029324807,-0.3593505,22.875,22.5625,22.3125,22.6875,22.4375,22.625
0.1340535,-0.5928014,0.87209654,0.51650566,0.014508704,0.009902615,-0.092677444,-0.38576153,-0.35020545,0.060165823,-3.0785003,0.6241062,0.0006413415,-0.062350538,-0.008629708,-0.00031915633,0.012648655,-0.0014607568,0.006798728,0.47674218,-1.4158571,1.9452614,-2.0987508,-1.5712413,2.4512253,-0.035003085,0.12379367,-0.14883043,0.03215226,-0.010813838,-0.041700233,-0.038307227,0.1340753,-8.829816,0.8179876,47.684196,-0.7249577,-1.8080583,-3.5013237,0.06334927,-0.034223568,-0.37684909,22.875,22.5625,22.3125,22.6875,22.4375,22.625
0.13605332,-0.4449165,-0.27655622,0.31299636,0.020723313,0.024410238,-0.094735675,-0.38586238,-0.35019284,0.060133524,-3.0783818,0.6240809,0.0005235378,-0.061485786,-0.008376037,-0.0020162961,0.0144506,-0.0066272398,0.008500295,0.4766581,-1.4155797,1.9449862,-2.0986187,-1.571289,2.4511406,-0.03514029,0.12712467,-0.14942642,0.034827713,-0.010045993,-0.0435385,-0.038307227,0.095768064,-8.829816,0.81351066,47.691364,-0.7825695,-1.8166026,-3.4633057,0.05319632,-0.041048728,-0.41806012,22.875,22.5625,22.3125,22.6875,22.4375,22.625
0.13805366,-0.81817144,-0.10664716,0.3134413,-0.007103088,0.021072734,-0.09266102,-0.38598755,-0.3502257,0.060130302,-3.078422,0.62401026,0.00051311974,-0.06266925,-0.008955781,-0.0009917796,0.014439177,-0.0053558443,0.010661787,0.47658625,-1.4153273,1.9446977,-2.0985935,-1.5712656,2.4510198,-0.034814566,0.12811808,-0.15334424,0.03661843,-0.010624043,-0.0453718,-0.11492168,0.17238252,-9.059659,0.81351066,47.70211,-0.82224035,-1.8428502,-3.3535109,0.025386497,-0.04829057,-0.40731943,22.875,22.5625,22.3125,22.6875,22.4375,22.625
0.1400533,-1.0059049,-0.66328895,0.29253685,-0.011909537,0.02905511,-0.09181035,-0.3861108,-0.3502138,0.060126297,-3.0783088,0.6239657,0.00051797065,-0.063931204,-0.009129262,-0.0010827453,0.014813909,-0.00523683,0.013754522,0.47651404,-1.4150741,1.9443859,-2.0984619,-1.5713614,2.4509344,-0.035393983,0.13071355,-0.1562293,0.036967803,-0.011021803,-0.04904085,-0.1340753,0.26815057,-9.174581,0.8291774,47.66808,-0.85534286,-1.8343718,-3.4435163,0.029375488,-0.020259425,-0.38541105,22.875,22.5625,22.3125,22.6875,22.5,22.625
0.14205408,-1.1614113,-0.9528796,0.0010971951,-0.017517123,0.029097814,-0.08731227,-0.38623405,-0.35023025,0.060108926,-3.0782747,0.62393975,0.00044159268,-0.064463735,-0.0094206445,-0.00053192204,0.015086454,-0.00558972,0.014216816,0.47643012,-1.4147853,1.944074,-2.098377,-1.5713614,2.4508388,-0.035296474,0.13160706,-0.15909812,0.039380863,-0.0111068785,-0.049403787,-0.17238252,0.38307226,-9.232041,0.8112748,47.687782,-0.8403437,-1.8340583,-3.496436,-0.004571642,-0.03695202,-0.38316113,22.875,22.5625,22.3125,22.6875,22.5,22.625
0.14405367,-1.2095463,-1.2482651,-0.2430453,-0.029949453,0.034510113,-0.08820797,-0.3863377,-0.35026357,0.06010456,-3.0782626,0.6238022,0.00036365204,-0.06361347,-0.008581401,-0.0033591606,0.0189807,-0.012256909,0.014031352,0.47639385,-1.4145193,1.9437507,-2.0982563,-1.5713614,2.4507184,-0.03573057,0.13706474,-0.15957661,0.04211323,-0.011508464,-0.04965046,-0.21068975,0.5363012,-9.308657,0.83589023,47.72629,-0.9027736,-1.79154,-3.4573958,-0.032896258,-0.024473347,-0.394839,22.875,22.5625,22.3125,22.6875,22.5,22.625
0.14605422,-1.7591535,-2.0138142,-0.50247025,-0.027442396,0.027162062,-0.08404504,-0.38646218,-0.35028994,0.060114,-3.0782397,0.623795,0.00034529506,-0.064664856,-0.009258848,-0.0019087825,0.017520199,-0.010607374,0.017288418,0.47633395,-1.4142673,1.9434146,-2.098148,-1.5713733,2.4506571,-0.03582735,0.136652,-0.16277933,0.043587405,-0.010973857,-0.05300384,-0.24899697,0.5746084,-9.481039,0.85155696,47.73883,-0.9721753,-1.7720737,-3.4112282,-0.047715202,-0.023836557,-0.36957392,22.875,22.5625,22.3125,22.6875,22.5,22.625
0.14805381,-1.5015085,-1.7109871,-0.66704166,-0.049951416,0.033786334,-0.08225893,-0.38657454,-0.3502811,0.06007595,-3.0781155,0.6237103,0.00025396005,-0.0655225,-0.009658515,-0.0017929374,0.017578898,-0.010916552,0.020395882,0.47626182,-1.4139544,1.9431142,-2.0980284,-1.5714453,2.4505482,-0.03594307,0.13869286,-0.1656979,0.044759303,-0.010897602,-0.056224287,-0.28730422,0.7086837,-9.595961,0.78217715,47.70032,-0.99363136,-1.8766059,-3.4129763,-0.058626786,-0.041417323,-0.3496474,22.875,22.5625,22.3125,22.6875,22.5,22.625
0.1500535,-1.1931288,-1.7816863,-0.6041296,-0.054190043,0.0513352,-0.08662828,-0.3867221,-0.35031873,0.060092617,-3.078163,0.6236415,0.00025672352,-0.06625574,-0.009795388,-0.0017939763,0.018236125,-0.011554631,0.022373753,0.47617778,-1.4136894,1.9427546,-2.097956,-1.5714215,2.4504154,-0.036163397,0.1406819,-0.1683727,0.046313237,-0.011192631,-0.058420908,-0.21068975,0.7086837,-9.653421,0.8314132,47.703903,-1.000034,-1.7758794,-3.4159124,-0.09923479,-0.02916585,-0.32126975,22.875,22.5625,22.3125,22.6875,22.5,22.625
0.15205438,-1.0130075,-1.6965204,-0.55240905,-0.059187002,0.04741283,-0.09630654,-0.3868955,-0.35033685,0.060119543,-3.0781744,0.62354577,0.0003591633,-0.06688653,-0.0102595445,-0.0017824861,0.017829409,-0.012070828,0.02500449,0.47608182,-1.4134244,1.9423717,-2.097884,-1.5714692,2.4502585,-0.03628332,0.14246692,-0.17066441,0.047084033,-0.010597901,-0.061172012,-0.095768064,0.61291564,-9.615114,0.8224646,47.72002,-1.0539672,-1.8651922,-3.4360495,-0.12965806,-0.044663846,-0.27936608,22.875,22.5625,22.3125,22.6875,22.5,22.625
0.15405391,-1.1116078,-1.6107225,-0.56499314,-0.052372906,0.043480694,-0.08443392,-0.3869824,-0.35034782,0.06006754,-3.0780966,0.623471,0.00018014712,-0.06802604,-0.010252778,-0.0015134122,0.01804555,-0.011582003,0.026956392,0.47602162,-1.4131117,1.9421085,-2.0977876,-1.5714692,2.4501617,-0.03704567,0.14389178,-0.17311779,0.047775794,-0.011029234,-0.063882664,-0.076614454,0.5554548,-9.595961,0.83589023,47.723602,-1.0383551,-1.7781785,-3.4478498,-0.15235738,-0.044045445,-0.25359976,22.875,22.5625,22.3125,22.6875,22.5,22.625
0.15605389,-1.2472917,-1.4718399,-0.660341,-0.033547036,0.028732123,-0.07852011,-0.38712695,-0.35037953,0.060054254,-3.0780995,0.62339187,0.00012326679,-0.06858111,-0.010818082,-0.0018610975,0.018567178,-0.012534557,0.030025315,0.47593766,-1.4127866,1.941748,-2.097716,-1.5714573,2.4500282,-0.03651631,0.14674503,-0.17588088,0.04876925,-0.011065462,-0.06642024,-0.19153613,0.4405331,-9.634268,0.7709874,47.729877,-1.1080356,-1.6981841,-3.4017646,-0.17996168,-0.03609923,-0.22327648,22.875,22.5625,22.3125,22.6875,22.5,22.625
0.15805438,-0.9826034,-0.83915323,-0.7001479,-0.017344352,0.019053435,-0.08912481,-0.3873085,-0.35039726,0.060092315,-3.078108,0.62333524,0.00026655218,-0.06867234,-0.010946749,-0.002039156,0.018602025,-0.01311939,0.03175235,0.47584173,-1.412534,1.9413537,-2.0976436,-1.5715173,2.449896,-0.036502957,0.1475832,-0.1765582,0.049136847,-0.01082728,-0.068134844,-0.076614454,0.36391866,-9.672575,0.83365434,47.703903,-1.1579969,-1.7988219,-3.5474284,-0.19182631,-0.051604226,-0.16651647,22.875,22.5625,22.3125,22.6875,22.5,22.625
0.16005388,-0.48552632,-0.3999945,-0.78910077,-0.0095946165,0.018448194,-0.09450783,-0.38743895,-0.35041487,0.060060974,-3.0780644,0.6231921,0.00018534956,-0.07113008,-0.010527516,-0.0026210446,0.019522486,-0.013799316,0.029757263,0.47576886,-1.4121959,1.9410166,-2.0975597,-1.5715412,2.4497397,-0.039128747,0.15247923,-0.18106326,0.049770866,-0.011350006,-0.068760835,-0.019153614,0.3256114,-9.615114,0.8247004,47.70211,-1.0598273,-1.9341998,-3.496174,-0.21300992,-0.06206692,-0.14515547,22.875,22.5625,22.3125,22.6875,22.5,22.625
0.1620535,-0.45626011,-0.24651748,-0.688714,0.0014899905,0.009092943,-0.08978968,-0.38761604,-0.3504571,0.06008957,-3.0780895,0.62312067,0.00026483941,-0.07081963,-0.01098834,-0.0033613497,0.01978422,-0.015948923,0.029277042,0.47569713,-1.4118948,1.940585,-2.0974753,-1.5715655,2.4496205,-0.038499165,0.15463108,-0.18210654,0.05068898,-0.010596155,-0.06765247,-0.05746084,0.22984336,-9.500193,0.8090337,47.703007,-1.0721605,-1.9310608,-3.6288652,-0.22586873,-0.049178742,-0.11642827,22.875,22.5625,22.3125,22.6875,22.5,22.625
0.1640542,-0.39937067,0.06824562,-0.5604496,0.0027863414,0.008854209,-0.092757456,-0.38773584,-0.3504828,0.060072947,-3.0780907,0.622927,0.00016078855,-0.07084995,-0.01118397,-0.0045060683,0.021016425,-0.017833164,0.030818785,0.47562534,-1.4115936,1.9402512,-2.097368,-1.5715536,2.4494278,-0.03801215,0.15776983,-0.18320042,0.05088344,-0.010838121,-0.06870501,-0.095768064,0.15322891,-9.404425,0.91421866,47.70211,-1.2289157,-1.9902627,-3.5766978,-0.24642634,-0.031153707,-0.09809208,22.875,22.5625,22.3125,22.6875,22.5,22.625
0.16605388,-0.94253355,-0.10700935,-0.5097071,0.0034993044,-0.00020147096,-0.085697815,-0.3879064,-0.35052374,0.06009319,-3.0780954,0.6229116,0.00025188195,-0.071390145,-0.010393826,-0.0053152936,0.022270057,-0.019391837,0.025371986,0.47556475,-1.4112926,1.9398445,-2.0973084,-1.5715894,2.4493573,-0.03961736,0.15971369,-0.18377478,0.05147572,-0.011235114,-0.06486271,-0.05746084,0.15322891,-9.3661175,0.8493211,47.72719,-1.2742047,-2.0882123,-3.6587253,-0.26803225,-0.054063413,-0.12549068,22.875,22.5625,22.3125,22.6875,22.5,22.625
0.16805336,-0.6604308,-0.016594121,-0.3545378,-0.0035575763,0.009518556,-0.08644342,-0.38801286,-0.35051793,0.06006456,-3.07801,0.6227796,0.00012394709,-0.07247183,-0.010769947,-0.004955698,0.020645745,-0.019288655,0.022225581,0.4754801,-1.4110038,1.9395441,-2.0971644,-1.5716246,2.4492013,-0.040810745,0.16088252,-0.18604556,0.051736068,-0.009852074,-0.06291008,-0.019153614,0.13407528,-9.404425,0.81351066,47.70211,-1.1670796,-2.0007827,-3.6895113,-0.2877958,-0.06116025,-0.1369773,22.875,22.5625,22.3125,22.6875,22.5,22.625
0.17005377,-0.65417206,-0.229341,-0.25448963,-0.006206965,0.015204412,-0.086602986,-0.38817403,-0.35054865,0.06005515,-3.0780098,0.622799,6.922197e-05,-0.07470898,-0.011459111,-0.0045334054,0.019568337,-0.017707469,0.021070631,0.47537196,-1.4106663,1.9391598,-2.0970929,-1.5716008,2.4491055,-0.041751105,0.16397424,-0.1905093,0.05120904,-0.009632966,-0.062693134,-0.05746084,0.1340753,-9.32781,0.800085,47.694946,-1.2612437,-2.1671786,-3.610303,-0.29690987,-0.06598877,-0.13104029,22.875,22.5625,22.3125,22.6875,22.5,22.625
0.17205359,-1.3262886,-0.44261977,0.06407221,-0.0053572543,0.014530812,-0.076493196,-0.3883034,-0.3505993,0.06005564,-3.0780084,0.6226664,-1.6504731e-05,-0.077507444,-0.011782752,-0.0032957364,0.018211344,-0.01419072,0.01676438,0.47533533,-1.4103419,1.9387516,-2.0969493,-1.5715889,2.4489865,-0.04344403,0.16545932,-0.19490913,0.05038035,-0.010049879,-0.06007594,-0.22984336,0.2681506,-9.174581,0.8493211,47.704796,-1.1243641,-1.9100275,-3.5291972,-0.3071037,-0.05952783,-0.15046646,22.875,22.5625,22.3125,22.6875,22.5,22.625
0.17405406,-1.2105303,-0.47033712,-0.058000237,-0.0052002957,0.027765205,-0.09424592,-0.38848418,-0.3506235,0.06009584,-3.0780065,0.62262815,0.000113972914,-0.07876388,-0.013466191,-0.0018371394,0.01555039,-0.01068016,0.014912261,0.47525185,-1.4100775,1.9383329,-2.096854,-1.571649,2.4488797,-0.042089075,0.16558683,-0.1981463,0.04914707,-0.009295875,-0.05686944,-0.22984336,0.24899697,-9.212888,0.8090337,47.695843,-1.235381,-1.9173496,-3.4390745,-0.31285492,-0.078049384,-0.21738727,22.875,22.5625,22.3125,22.6875,22.5,22.625
0.17605385,-1.8452576,-0.9355772,-0.17211384,-0.007601488,0.028572159,-0.08946471,-0.388652,-0.3506376,0.0600749,-3.0779529,0.6226169,3.582559e-05,-0.08000785,-0.013625126,-0.0018195976,0.016050894,-0.009140654,0.014224765,0.47513187,-1.4097044,1.9379257,-2.0967467,-1.5716614,2.4487598,-0.042167258,0.16743131,-0.20015188,0.04817127,-0.010457492,-0.056255538,-0.38307226,0.2681506,-9.232041,0.83589023,47.704796,-1.3012605,-1.8872944,-3.5023634,-0.2982354,-0.09516375,-0.21864086,22.875,22.5625,22.3125,22.6875,22.5,22.625
0.17805336,-1.4563673,-0.9173935,-0.036200512,-0.03496968,0.058231063,-0.08832036,-0.3887926,-0.3506761,0.060053676,-3.0779383,0.6225374,-2.6302507e-05,-0.082302205,-0.013787965,-0.0009110214,0.014318064,-0.006221193,0.012069362,0.4750712,-1.4093559,1.9375552,-2.0966752,-1.5716609,2.4486516,-0.04406722,0.16834272,-0.20300528,0.046723507,-0.010264989,-0.055998415,-0.49799395,0.40222588,-9.346964,0.8291774,47.683304,-1.2636704,-1.8282983,-3.456243,-0.28633437,-0.09945491,-0.24403897,22.875,22.5625,22.3125,22.6875,22.5,22.625
0.18005398,-1.8580806,-1.5230211,-0.11795262,-0.04651793,0.06695518,-0.09885949,-0.3889891,-0.35069594,0.06008876,-3.077943,0.6224815,5.0387684e-05,-0.0830361,-0.013546326,-0.0008592289,0.014007534,-0.0065381536,0.010327116,0.4749507,-1.4090554,1.9371008,-2.0965555,-1.5716971,2.4484959,-0.045392726,0.16914353,-0.20422009,0.047273107,-0.009844458,-0.055582482,-0.51714754,0.53630114,-9.3661175,0.8023209,47.703903,-1.2002575,-1.6871775,-3.49163,-0.30369294,-0.09301939,-0.26701808,22.875,22.5625,22.3125,22.6875,22.5,22.625
0.18205364,-2.5637271,-2.116452,-0.37683275,-0.048291173,0.061237257,-0.08763816,-0.38915122,-0.35072318,0.06007809,-3.0779083,0.62245417,3.1735075e-05,-0.084105045,-0.013730053,-0.0022485182,0.015216428,-0.006553067,0.010206507,0.47486675,-1.4087056,1.9367021,-2.0964725,-1.5717214,2.4483995,-0.045325387,0.17349073,-0.20558026,0.04485411,-0.010924113,-0.055390093,-0.61291564,0.49799395,-9.346964,0.8560339,47.703903,-1.2246642,-1.7261039,-3.4402733,-0.30075827,-0.083443195,-0.28201744,22.875,22.5625,22.3125,22.6875,22.5,22.625
0.18405429,-2.656737,-2.0705922,-0.22471765,-0.049787752,0.06812748,-0.077780426,-0.3893022,-0.35078067,0.060100254,-3.0779226,0.62238014,2.8791983e-05,-0.087063126,-0.014688416,0.000510966,0.011421119,0.00092001696,0.009536862,0.47483036,-1.4083939,1.9362615,-2.0963418,-1.5717214,2.4483154,-0.04626973,0.17151675,-0.2089573,0.04182317,-0.010980425,-0.05566299,-0.5746084,0.51714754,-9.461885,0.779936,47.689575,-1.2733377,-1.7068155,-3.4833155,-0.2626884,-0.0829127,-0.31757715,22.875,22.5625,22.3125,22.6875,22.5,22.625
0.18605433,-2.6616967,-1.9755752,-0.17374551,-0.041098952,0.06904629,-0.08300217,-0.38947365,-0.3507854,0.06006548,-3.0778556,0.6223859,-3.9909362e-05,-0.08873861,-0.0152353365,0.0006279613,0.010471836,0.0020627244,0.009294473,0.4746983,-1.4080086,1.9358791,-2.0962703,-1.5717453,2.4481957,-0.04699354,0.17408437,-0.2120454,0.040889055,-0.010672443,-0.05614247,-0.59376204,0.4213795,-9.385271,0.8672237,47.684196,-1.2778604,-1.7089685,-3.5269456,-0.23254271,-0.09825509,-0.33387026,22.875,22.5625,22.3125,22.6875,22.5,22.625
0.18805403,-1.9968977,-1.1865575,-0.0033379642,-0.029080419,0.06765898,-0.08960502,-0.38969892,-0.35083374,0.060095586,-3.0778885,0.6223919,0.00011432507,-0.09037553,-0.015186125,0.00057101995,0.010586762,0.0035499192,0.008614857,0.4746019,-1.4076475,1.9353846,-2.0962346,-1.5717815,2.4480991,-0.048025593,0.17622398,-0.21415219,0.039585415,-0.011456994,-0.05649275,-0.51714754,0.38307226,-9.289502,0.89631605,47.668976,-1.2038007,-1.6577649,-3.435689,-0.20336156,-0.10623643,-0.35981813,22.875,22.5625,22.3125,22.6875,22.5,22.625
0.1900536,-1.4921485,-0.53483814,-0.17385958,-0.011586804,0.060875278,-0.08849417,-0.3898584,-0.3508883,0.060078796,-3.0779214,0.62232184,5.736193e-05,-0.09149851,-0.01551574,0.00084584084,0.010117384,0.0041591907,0.008610736,0.47452965,-1.4072747,1.9349808,-2.0961869,-1.5717453,2.4479792,-0.048523232,0.1777721,-0.21668568,0.039814625,-0.011324335,-0.056985136,-0.59376204,0.30645782,-9.251195,0.8560339,47.67345,-1.221001,-1.6416373,-3.4770927,-0.1785824,-0.108923286,-0.39372346,22.875,22.5625,22.3125,22.6875,22.5,22.625
0.19205336,-1.110472,-0.45695028,-0.26502073,0.008194891,0.054411452,-0.08574858,-0.39005673,-0.35090655,0.060064066,-3.077895,0.6222776,4.7865724e-05,-0.09242802,-0.015438529,0.0003018828,0.01010953,0.0041758344,0.007533325,0.47439745,-1.4068774,1.9345382,-2.0961154,-1.5717696,2.447823,-0.049456768,0.17988296,-0.21770167,0.038698774,-0.011331272,-0.056840114,-0.4213795,0.2873042,-9.232041,0.90527004,47.668976,-1.2161827,-1.6413804,-3.624251,-0.14272942,-0.11585675,-0.40790495,22.875,22.5625,22.3125,22.6875,22.5,22.625
0.19405408,-1.0221342,-0.3080496,-0.0918238,0.008910709,0.03882973,-0.09603535,-0.3902396,-0.35091978,0.06006167,-3.0778315,0.62226516,0.00010011067,-0.094491795,-0.01565019,-5.7543115e-05,0.009957428,0.0051694782,0.0063029462,0.47430098,-1.4065273,1.9341196,-2.0960324,-1.5718416,2.4477272,-0.050711438,0.18360789,-0.22092156,0.03723637,-0.011661083,-0.05686129,-0.3256114,0.22984336,-9.251195,0.8672237,47.684196,-1.2004691,-1.896662,-3.5861762,-0.10173337,-0.10189316,-0.43323308,22.875,22.5625,22.3125,22.6875,22.5,22.625
0.19605392,-1.2052293,-0.34682134,-0.09186728,0.003222231,0.029478004,-0.089536734,-0.3904189,-0.35095328,0.06003056,-3.0778031,0.6222009,4.798991e-05,-0.09542604,-0.015729778,-0.0006083391,0.010948631,0.0035436973,0.0061753644,0.47420487,-1.4061061,1.933689,-2.0959718,-1.5718535,2.447595,-0.051292114,0.18710008,-0.22415543,0.03887532,-0.011807105,-0.057311814,-0.36391866,0.17238252,-9.308656,0.83365434,47.71465,-1.1897506,-1.9149542,-3.4659345,-0.06857208,-0.122044355,-0.4714766,22.875,22.5625,22.3125,22.6875,22.5,22.625
0.19805327,-1.032821,0.007310024,-0.009357039,-0.0062875818,0.022636997,-0.09008503,-0.39063323,-0.35097522,0.06005288,-3.0777998,0.62225634,0.00015213912,-0.09600893,-0.015104036,-0.00047285296,0.012684967,0.0024281975,0.0069472906,0.47407255,-1.4057693,1.9332341,-2.0959103,-1.5718898,2.4474978,-0.05221252,0.18818888,-0.22646423,0.041878596,-0.012839255,-0.059001766,-0.21068975,0.15322891,-9.289503,0.8314132,47.677036,-1.1179314,-1.795933,-3.5371213,-0.072543144,-0.123728156,-0.4920324,22.875,22.5625,22.3125,22.6875,22.5,22.625
0.2000537,-0.44622362,-0.04871798,0.0038448065,0.008151847,0.029680317,-0.091012366,-0.39083755,-0.3510125,0.06006307,-3.077783,0.6222334,0.00019981079,-0.09779727,-0.015412625,-0.00034408062,0.012449495,0.0022397132,0.007269258,0.47397617,-1.4053843,1.932743,-2.095815,-1.571926,2.4473896,-0.05343607,0.19145139,-0.23088111,0.043086883,-0.0125515545,-0.060545884,-0.11492168,0.076614454,-9.404425,0.87393653,47.707485,-1.1549884,-1.8958032,-3.515719,-0.051925838,-0.13627346,-0.50371444,22.875,22.5625,22.3125,22.6875,22.5,22.625
0.2020541,-0.47431612,0.45812163,0.018964015,0.005609031,0.020218786,-0.094308235,-0.39102226,-0.3510639,0.06005516,-3.0778031,0.62210006,0.0001525855,-0.099131346,-0.014516637,-0.0011091115,0.013663983,0.0006855545,0.0103383,0.4738912,-1.4049747,1.9322642,-2.0957181,-1.5719136,2.4472191,-0.055930264,0.19448173,-0.23294048,0.04404713,-0.012932181,-0.06610677,-0.095768064,0.0,-9.289502,0.8940802,47.703903,-0.9771123,-2.0063272,-3.495606,-0.028215889,-0.11730516,-0.48322725,22.875,22.5625,22.3125,22.6875,22.5,22.625
0.20405371,-0.58698905,-0.0565943,0.06494667,0.017604645,0.018806878,-0.08865022,-0.39124766,-0.35106966,0.060046006,-3.0777385,0.62218106,0.00020836477,-0.09826283,-0.015384368,-0.0012205547,0.013851488,-0.0007080248,0.014307863,0.47373602,-1.4045657,1.9317974,-2.0956585,-1.5719737,2.447123,-0.05388122,0.19514859,-0.23389927,0.045654595,-0.012464344,-0.06802825,-0.076614454,0.038307227,-9.174581,0.88289046,47.737934,-1.0872852,-1.9404781,-3.4906187,-0.03245966,-0.12657835,-0.46129024,22.875,22.5625,22.3125,22.6875,22.5,22.625
0.20605356,-1.0068485,0.24694912,-0.3713952,0.014112795,-0.002190771,-0.087722346,-0.39142168,-0.3511065,0.060042933,-3.0777395,0.622084,0.00020167195,-0.100188226,-0.015251047,-0.00020562664,0.013320896,0.000611159,0.016249698,0.47365123,-1.404205,1.9313668,-2.0955741,-1.5719861,2.4469779,-0.05572783,0.19607683,-0.2376822,0.047086924,-0.012603814,-0.07181467,-0.038307227,0.11492168,-9.136273,0.92093146,47.729877,-1.1085336,-2.1174116,-3.5165038,-0.022949062,-0.13695122,-0.44991767,22.875,22.5625,22.3125,22.6875,22.5,22.625
0.20805322,-0.7324008,-0.05620033,-0.28793868,0.015281625,0.0037639742,-0.09379162,-0.39161125,-0.35114053,0.060045216,-3.077729,0.6219616,0.0001911891,-0.1009575,-0.014684885,-0.00067658233,0.014348076,-0.0013681548,0.022558315,0.47355482,-1.4038202,1.9308876,-2.095453,-1.5720099,2.4468067,-0.057360336,0.1983913,-0.23982827,0.049134888,-0.012625076,-0.07975455,0.019153614,0.095768064,-9.251195,0.9186956,47.696735,-1.0123117,-2.1111536,-3.5951214,6.4178836e-05,-0.15247181,-0.4139312,22.875,22.5625,22.3125,22.6875,22.5,22.625
0.21005377,-1.2433211,-0.8689161,-0.25557858,0.011730948,-0.0001148114,-0.07683031,-0.3918003,-0.35114405,0.059995722,-3.07766,0.6218702,5.0594404e-05,-0.102297716,-0.014181033,-0.0008523802,0.015063273,-0.002422607,0.022526382,0.47339803,-1.4033628,1.9304451,-2.0953448,-1.5720218,2.4466019,-0.059292268,0.20085108,-0.24276206,0.050868668,-0.012796305,-0.08165129,-0.019153614,0.2681506,-9.270349,0.88289046,47.70211,-0.8743713,-2.0450823,-3.4984636,0.004444167,-0.15176111,-0.35135448,22.875,22.5625,22.3125,22.6875,22.5,22.625
0.21205436,-0.8578371,-0.8053423,-0.29841474,-0.012405425,0.01711566,-0.09065296,-0.39199233,-0.35119104,0.060005106,-3.0776587,0.62175053,3.0175268e-05,-0.101824924,-0.014901612,-0.0011510685,0.016352875,-0.0036137018,0.02957767,0.4733149,-1.4029661,1.9299306,-2.0952013,-1.5720342,2.4464445,-0.057183385,0.20257287,-0.24453734,0.05256358,-0.0134093305,-0.086591154,-0.15322891,0.45968673,-9.251195,0.8672237,47.682407,-1.0266323,-1.985836,-3.5270176,-0.003758877,-0.13558702,-0.29138774,22.875,22.5625,22.3125,22.6875,22.5,22.625
0.21405391,-1.1677581,-1.4641114,-0.4616501,-0.016004123,0.030806633,-0.086278655,-0.39219904,-0.35121307,0.060006145,-3.07764,0.62166876,1.8587196e-05,-0.10275447,-0.014212143,-0.001651605,0.01687301,-0.005804417,0.030122615,0.47318208,-1.4025689,1.9294394,-2.0950801,-1.5720576,2.4462633,-0.05951473,0.2048888,-0.2465966,0.054484297,-0.012880953,-0.08946761,-0.21068975,0.40222588,-9.385271,0.8717007,47.687782,-0.98261786,-1.9552546,-3.5516129,-0.021559183,-0.13880998,-0.24657947,22.875,22.5625,22.3125,22.6875,22.5,22.625
0.21605368,-1.8201208,-1.8407166,-0.5289915,-0.029770046,0.03636313,-0.07527803,-0.39242437,-0.3512249,0.060014814,-3.0775907,0.6215623,0.00012295767,-0.102219,-0.013016275,-0.0016847708,0.019032119,-0.009090527,0.030292263,0.4730616,-1.4021727,1.9289373,-2.0949829,-1.5721544,2.446083,-0.060809013,0.2045806,-0.24736409,0.059458185,-0.013298276,-0.0909312,-0.1340753,0.36391866,-9.557653,0.85826975,47.741516,-0.9431662,-1.804628,-3.5741565,-0.062129416,-0.16601741,-0.19080913,22.875,22.5625,22.3125,22.6875,22.5,22.625
0.21805328,-1.532095,-1.6200657,-0.3050978,-0.032042243,0.044923022,-0.0851264,-0.39261067,-0.35126233,0.05998242,-3.0775957,0.62152433,-9.742192e-05,-0.10334088,-0.01332213,-0.0012995873,0.018355053,-0.008797973,0.029618192,0.47290552,-1.4017156,1.9284471,-2.0948389,-1.57207,2.4459028,-0.061522644,0.20600694,-0.25017577,0.060278732,-0.012845789,-0.09096931,-0.05746084,0.30645782,-9.461885,0.8940802,47.71465,-0.92210543,-1.8753606,-3.507062,-0.077301994,-0.16559091,-0.16235211,22.875,22.5625,22.3125,22.6875,22.5,22.625
0.2200537,-1.3772221,-1.317977,-0.3474257,-0.021046937,0.04419525,-0.081661,-0.39282826,-0.35126862,0.05998286,-3.0774963,0.6214655,-1.1868135e-05,-0.10457279,-0.013354236,-0.00132239,0.019381816,-0.00959368,0.027474353,0.47279733,-1.4013063,1.9279431,-2.0947187,-1.5721902,2.445771,-0.062176973,0.20892096,-0.2540776,0.06243469,-0.013403257,-0.089476235,-0.22984336,0.2681506,-9.519346,0.82022345,47.71823,-0.8877722,-1.9251935,-3.5943575,-0.08991371,-0.1664602,-0.14992976,22.875,22.5625,22.3125,22.6875,22.5,22.625
0.22205341,-1.5668914,-0.9046817,-0.46986854,0.0052333935,0.032710932,-0.07872767,-0.39303443,-0.3513104,0.059987534,-3.077533,0.6212837,-4.5911e-05,-0.104274586,-0.013081917,-0.0012571793,0.020194469,-0.012244619,0.023995295,0.47267702,-1.4008976,1.9274296,-2.094597,-1.5721778,2.4455328,-0.06264947,0.20942122,-0.25577942,0.06636892,-0.012914332,-0.086470686,-0.28730422,0.24899697,-9.423578,0.86498255,47.71823,-0.89445037,-1.9023194,-3.606089,-0.13195825,-0.16947211,-0.16715536,22.875,22.5625,22.3125,22.6875,22.5,22.625
0.22405389,-0.82351375,-0.11661638,-0.75154346,0.017393759,0.035763633,-0.08532143,-0.39323226,-0.3513348,0.059963502,-3.077477,0.6212352,-0.000115378556,-0.10375566,-0.012540184,-0.0023521043,0.022229297,-0.016095184,0.018943226,0.47255707,-1.4004525,1.9269394,-2.0944774,-1.5722016,2.44539,-0.06304965,0.21165097,-0.25664017,0.069358625,-0.0129711805,-0.08181755,-0.30645782,0.21068975,-9.442732,0.84708,47.703007,-0.8932049,-1.845899,-3.582106,-0.18058392,-0.18587288,-0.20579708,22.875,22.5625,22.3125,22.6875,22.5,22.625
0.22605377,-0.4694345,0.35774434,-0.5647053,0.0010508016,0.03489182,-0.08994255,-0.39342287,-0.3513439,0.059917394,-3.0773752,0.6211375,-0.00026140167,-0.10508984,-0.012913069,-0.0030292824,0.022386732,-0.01682946,0.016683077,0.47242478,-1.3999705,1.9264482,-2.0943215,-1.5722378,2.44521,-0.06366357,0.21566877,-0.25984776,0.069271326,-0.012797262,-0.08016805,-0.22984336,0.24899697,-9.3661175,0.8985519,47.686886,-0.85405934,-1.9748783,-3.749616,-0.18856241,-0.20423624,-0.21050838,22.875,22.5625,22.3125,22.6875,22.5,22.625
0.22805329,-0.91529506,-0.8203464,-0.4651129,0.010172787,0.024046179,-0.07718138,-0.39367774,-0.351379,0.059964083,-3.077419,0.62107384,-0.00011327734,-0.10597734,-0.012810664,-0.0022573294,0.022483008,-0.016915277,0.009850192,0.47228044,-1.3995979,1.925886,-2.0942247,-1.5722741,2.4450207,-0.064558566,0.21611235,-0.2627949,0.07190028,-0.012832266,-0.07423037,-0.28730422,0.24899697,-9.270349,0.88289046,47.693153,-0.88007617,-1.88399,-3.7912428,-0.21623617,-0.21747789,-0.26426253,22.875,22.5625,22.3125,22.6875,22.5,22.625
0.23005387,-0.89635247,-0.3353541,-0.2878602,-0.006781522,0.02490503,-0.08823719,-0.39384863,-0.35140738,0.05990884,-3.0773034,0.62103057,-0.00032608805,-0.10776312,-0.0127749,-0.0019387424,0.023018228,-0.016444638,0.008366786,0.47218418,-1.3990928,1.925383,-2.094045,-1.572286,2.4449124,-0.065730296,0.21865374,-0.26689616,0.07328553,-0.013544167,-0.07391239,-0.2681506,0.17238252,-9.270349,0.8806493,47.690468,-0.8049611,-1.9217124,-3.6040063,-0.26983863,-0.1919551,-0.3151284,22.875,22.5625,22.3125,22.6875,22.5,22.625
0.23205343,-0.86461633,-0.59114534,-0.49448398,9.5291056e-05,0.035139788,-0.09169696,-0.3940651,-0.35143828,0.059918325,-3.0772712,0.62102157,-0.00036314942,-0.10912382,-0.012704683,-0.001747468,0.023387488,-0.016342133,0.01033412,0.4720519,-1.3986719,1.9248327,-2.0938766,-1.5722984,2.444779,-0.06677197,0.22069414,-0.2700659,0.07448539,-0.013934811,-0.07691829,-0.095768064,0.1340753,-9.404425,0.83813137,47.690468,-0.7695302,-2.0148244,-3.55885,-0.29835218,-0.2083297,-0.29609555,22.875,22.5625,22.3125,22.6875,22.5,22.625
0.23405407,-1.5203446,-0.7104545,-0.42437398,-0.0040486637,0.029482493,-0.08283664,-0.394287,-0.35146075,0.05992038,-3.077248,0.62096035,-0.00037465137,-0.11110425,-0.013314194,-0.0013957926,0.023110915,-0.01483077,0.007952179,0.47190753,-1.3982497,1.9243063,-2.093745,-1.5723222,2.4445996,-0.067142054,0.22370258,-0.27443662,0.074377075,-0.01438774,-0.074902385,-0.17238252,0.21068975,-9.385271,0.8537928,47.70032,-0.70620835,-2.1114328,-3.6248178,-0.32898575,-0.21916968,-0.32198614,22.875,22.5625,22.3125,22.6875,22.5,22.625
0.23605393,-1.1740984,-0.46755907,-0.3721817,-0.019001769,0.046521768,-0.08752392,-0.3945231,-0.3514733,0.05991854,-3.0771644,0.6209426,-0.00036481753,-0.112797685,-0.014296505,-0.0012209552,0.021940297,-0.013030666,0.0086374115,0.4717638,-1.3977928,1.9237427,-2.09359,-1.5723943,2.4444559,-0.06702236,0.22649918,-0.2778445,0.072843805,-0.014182022,-0.07546592,-0.2681506,0.21068975,-9.32781,0.91198283,47.71017,-0.7008673,-2.1793506,-3.4959443,-0.32631034,-0.22597957,-0.33712947,22.875,22.5625,22.3125,22.6875,22.5,22.625
0.23805346,-1.5302787,-0.735534,-0.4284416,-0.01825917,0.047010977,-0.087608635,-0.39471704,-0.35151723,0.05989538,-3.0771425,0.62078536,-0.0004712944,-0.11533451,-0.014072798,-0.0004110668,0.020479193,-0.00988365,0.0058859913,0.47166672,-1.3973243,1.9232167,-2.093447,-1.5723943,2.4442637,-0.06953901,0.2273944,-0.2804344,0.071070895,-0.014328298,-0.07522814,-0.19153613,0.17238252,-9.346964,0.8717007,47.689575,-0.5301567,-2.0407052,-3.3933692,-0.33420247,-0.22882411,-0.3492,22.875,22.5625,22.3125,22.6875,22.5,22.625
0.24005401,-1.8489144,-1.0162169,-0.5967422,-0.012878113,0.044158544,-0.07797869,-0.39499187,-0.35155353,0.059931703,-3.077146,0.6208228,-0.00039147565,-0.116615884,-0.016583392,0.00058127067,0.017848643,-0.0063377474,0.008283641,0.4714997,-1.3968791,1.922582,-2.0933044,-1.5724186,2.44412,-0.06670711,0.22937974,-0.28462103,0.068912394,-0.013608293,-0.07479459,-0.4405331,0.21068975,-9.461885,0.8851263,47.692257,-0.7445889,-2.1062436,-3.4257188,-0.30675873,-0.23768461,-0.3860407,22.875,22.5625,22.3125,22.6875,22.5,22.625
0.24205382,-1.7260013,-0.97725874,-0.71274966,-0.031599585,0.051680565,-0.09159938,-0.3952055,-0.35155377,0.059887093,-3.0770156,0.620871,-0.0005377776,-0.11691871,-0.016601017,-0.00016156989,0.017976375,-0.00559821,0.00956948,0.47133198,-1.3963741,1.9220566,-2.0931375,-1.5724543,2.4439993,-0.06659114,0.23057325,-0.28384545,0.06633723,-0.014077699,-0.075960964,-0.4213795,0.28730422,-9.481039,0.900793,47.695843,-0.7900175,-1.9990628,-3.5222023,-0.2810317,-0.24812181,-0.40912026,22.875,22.5625,22.3125,22.6875,22.5,22.625
0.24405348,-1.673327,-1.5237609,-0.7684971,-0.037782215,0.061263703,-0.07429334,-0.39542675,-0.35158902,0.05989839,-3.0770044,0.62079215,-0.0005330336,-0.118809596,-0.015949782,-0.00048989535,0.017078863,-0.0041057705,0.008674551,0.47121093,-1.3959534,1.9215072,-2.092995,-1.5724782,2.4438307,-0.06942351,0.2321482,-0.28440073,0.063573025,-0.0139694745,-0.07789791,-0.2681506,0.40222588,-9.576807,0.90750587,47.688675,-0.71167785,-1.9163353,-3.6587887,-0.2706591,-0.26323125,-0.3934063,22.875,22.5625,22.3125,22.6875,22.5,22.625
0.24605398,-1.6880229,-1.9174588,-0.66403323,-0.041313518,0.06419344,-0.08542274,-0.3956595,-0.35161525,0.059894204,-3.0769763,0.62066674,-0.0005173121,-0.119073056,-0.017096845,-0.00020702713,0.016756749,-0.0014561673,0.014689598,0.47107974,-1.3954967,1.9209565,-2.0928762,-1.5725268,2.4436252,-0.06701966,0.23264827,-0.285234,0.061390243,-0.014902174,-0.081505105,-0.34476507,0.40222588,-9.481039,0.88289046,47.678825,-0.7586006,-1.8844889,-3.812811,-0.23020288,-0.27128,-0.39684594,22.875,22.5625,22.3125,22.6875,22.5,22.625
0.24805355,-2.0109923,-1.7290753,-0.8870619,-0.04467231,0.05070729,-0.07911835,-0.39589342,-0.35165948,0.05987955,-3.076951,0.620639,-0.00058012403,-0.11988732,-0.018021869,0.0005984276,0.014988513,0.0014040143,0.019688027,0.47094807,-1.3949925,1.9203709,-2.092745,-1.5725268,2.4434798,-0.066243656,0.23237014,-0.28643006,0.059502687,-0.014644697,-0.08572721,-0.36391866,0.4213795,-9.500193,0.9030289,47.689575,-0.95030123,-1.6964265,-3.782836,-0.21138851,-0.25954813,-0.35244423,22.875,22.5625,22.3125,22.6875,22.5,22.625
0.2500541,-1.9347507,-1.3662789,-0.99830437,-0.045954756,0.047516376,-0.075957164,-0.3961654,-0.35168958,0.059910852,-3.0769513,0.6205783,-0.00042483993,-0.12266821,-0.018599639,0.0020326157,0.013226423,0.0060067717,0.023153028,0.4708037,-1.3945597,1.919772,-2.0926492,-1.5725988,2.4432979,-0.06731251,0.23333816,-0.29051828,0.057706673,-0.015178511,-0.090258345,-0.17238252,0.38307226,-9.710882,0.88960326,47.683304,-0.8686937,-1.7624542,-3.808703,-0.14967503,-0.27714092,-0.29246956,22.875,22.5625,22.3125,22.6875,22.5,22.625
0.2520537,-1.5728966,-1.1455793,-0.9886892,-0.027401084,0.032609347,-0.08247967,-0.3964248,-0.35175973,0.059915844,-3.0770154,0.62051046,-0.00042091325,-0.12417979,-0.01969954,0.0024344113,0.012290185,0.008013781,0.028981859,0.470672,-1.3940536,1.9191498,-2.0925663,-1.572563,2.443116,-0.0666276,0.23571786,-0.29409787,0.0566852,-0.0152710425,-0.09540065,-0.095768064,0.40222588,-9.730036,0.9231726,47.709274,-0.9244055,-1.914875,-3.8006601,-0.13464399,-0.28720653,-0.26624233,22.875,22.5625,22.3125,22.6875,22.5,22.625
0.25405416,-0.98292804,-1.1914513,-1.1253315,-0.013837566,0.025550114,-0.0733239,-0.3966576,-0.3517723,0.059893023,-3.076932,0.6203771,-0.00042641273,-0.12491038,-0.019401373,0.0016167258,0.01334155,0.007242835,0.03127572,0.47053984,-1.3935611,1.9185961,-2.0924351,-1.572647,2.4429116,-0.067357555,0.23829088,-0.29530212,0.05646663,-0.015874049,-0.09842068,-0.05746084,0.4213795,-9.691729,0.9164598,47.74331,-0.8783699,-1.8835442,-3.6686587,-0.07980631,-0.28171444,-0.17863244,22.875,22.5625,22.3125,22.6875,22.5,22.625
0.25605366,-0.6450755,-1.0564395,-0.83870405,-0.037460923,0.023813529,-0.08121587,-0.3969458,-0.3518187,0.059932448,-3.0770037,0.620293,-0.00029339388,-0.12639308,-0.020654785,0.0020885079,0.0130586,0.0066246926,0.033852596,0.4703718,-1.3931154,1.9179653,-2.0923502,-1.5726589,2.4426823,-0.06676547,0.24218962,-0.30169737,0.059376404,-0.015342512,-0.10040602,-0.019153614,0.4405331,-9.653421,0.9254084,47.737934,-0.94652605,-1.8144482,-3.6067624,-0.09395059,-0.29960215,-0.14730653,22.875,22.5625,22.3125,22.6875,22.5,22.625
0.2580542,-0.32535142,-1.496318,-1.1167645,-0.0151572265,0.013330656,-0.077699825,-0.3971919,-0.35184413,0.059899654,-3.0769336,0.6202202,-0.0003399494,-0.12866855,-0.02109687,0.0013031313,0.013314495,0.006823753,0.03362241,0.47022772,-1.3925729,1.9173778,-2.0922306,-1.572707,2.442502,-0.06774341,0.24764554,-0.3061855,0.05833998,-0.015681965,-0.10114885,0.095768064,0.40222588,-9.672575,0.92093146,47.71286,-0.9524443,-2.06083,-3.4762163,-0.052738085,-0.29786316,-0.08981128,22.875,22.5625,22.3125,22.6875,22.5,22.625
0.2600543,0.1479886,-0.9424984,-1.1731911,-0.034484938,0.012347433,-0.083900064,-0.39742085,-0.35189703,0.05990035,-3.076921,0.6201038,-0.00035146697,-0.129059,-0.02071476,0.0008156529,0.014512907,0.0058544837,0.030646823,0.47013155,-1.392092,1.9167804,-2.0920866,-1.5727314,2.4423351,-0.06830442,0.24926071,-0.3072756,0.05922538,-0.016309792,-0.098731354,0.095768064,0.47884035,-9.730036,0.8627467,47.686886,-0.96594286,-2.1477692,-3.4716156,-0.021345815,-0.30835515,-0.113482706,22.875,22.5625,22.3125,22.6875,22.5,22.625
0.2620541,-1.000196,-2.1451774,-1.0337977,-0.027124573,-0.0057149325,-0.06517081,-0.39768767,-0.35193548,0.059893765,-3.0769107,0.6199482,-0.00028450895,-0.12880793,-0.020688524,-4.0695864e-05,0.016303599,0.0020318942,0.028702805,0.46999946,-1.3915741,1.9161695,-2.0920017,-1.5727915,2.4421077,-0.068156205,0.2522775,-0.3098262,0.06297433,-0.016167365,-0.09663892,0.05746084,0.5363012,-9.557653,0.900793,47.68599,-0.9282247,-2.0973945,-3.619927,-0.008751959,-0.3058027,-0.12503545,22.875,22.5625,22.3125,22.6875,22.5,22.625
0.26405358,-0.7483866,-2.020611,-1.0654082,-0.02430412,9.043982e-05,-0.07308743,-0.39796045,-0.35198948,0.059926197,-3.076958,0.6199018,-0.00024558167,-0.12834749,-0.020017568,-0.00063131045,0.017893052,6.483078e-05,0.025129154,0.46984345,-1.3911055,1.9155134,-2.0918572,-1.572779,2.441917,-0.06851702,0.25278124,-0.30956537,0.064690836,-0.016680237,-0.09342554,0.076614454,0.45968673,-9.5385,0.91421866,47.709274,-0.91891545,-2.140923,-3.710534,-0.031631555,-0.31390703,-0.14533588,22.875,22.5625,22.3125,22.6875,22.5,22.625
0.26605332,0.10971873,-1.2813247,-0.65617126,-0.051557206,0.023337355,-0.08952222,-0.3982349,-0.35203862,0.059945505,-3.0769591,0.61980766,-0.00013295806,-0.12950003,-0.020100098,-7.230793e-05,0.016523836,0.0013674885,0.02086062,0.46972314,-1.3906132,1.9148678,-2.0917494,-1.5728387,2.4417381,-0.06973085,0.25298172,-0.31108552,0.06422608,-0.016044527,-0.0903732,0.1340753,0.40222588,-9.595961,0.89631605,47.728977,-1.0464718,-2.0057857,-3.7136688,0.012698835,-0.31236595,-0.16935018,22.875,22.5625,22.3125,22.6875,22.5,22.625
0.26805377,-0.63539094,-1.5115948,-0.5184073,-0.042394914,0.0041870154,-0.06918314,-0.39850527,-0.35207558,0.059945777,-3.0769246,0.619783,-9.025589e-05,-0.13081624,-0.020114856,0.00033622576,0.016948458,0.0011477898,0.016755456,0.4695785,-1.3900962,1.9142336,-2.0916297,-1.5728873,2.441583,-0.07062685,0.2549655,-0.31498685,0.066533305,-0.016322222,-0.08716166,0.15322891,0.30645782,-9.385271,0.9030289,47.696735,-0.8645462,-1.9571238,-3.7760048,0.02050189,-0.32196295,-0.20978487,22.875,22.5625,22.3125,22.6875,22.5,22.625
0.27005365,0.033916395,-0.36326873,-0.40259424,-0.022825936,0.0058356114,-0.08519889,-0.39877802,-0.35212994,0.059963983,-3.0769556,0.61978763,-6.304275e-05,-0.13099787,-0.021473754,0.0018566024,0.015702173,0.0023783208,0.01616796,0.46942356,-1.3896036,1.9135865,-2.0915086,-1.5728749,2.4414272,-0.0687181,0.2543159,-0.31833544,0.06887249,-0.015762962,-0.084667,0.17238252,0.22984336,-9.289502,0.8873621,47.709274,-1.0866122,-1.9616327,-3.6301568,0.023601323,-0.35537124,-0.25419283,22.875,22.5625,22.3125,22.6875,22.5,22.625
0.27205423,-0.42637774,0.22355646,-0.27274844,0.008288485,-0.014669621,-0.0839025,-0.39903957,-0.35216066,0.059940305,-3.0769036,0.619682,-2.5592344e-05,-0.13267866,-0.021819117,0.003282007,0.0152274305,0.0038900762,0.013915032,0.46929124,-1.389063,1.9129866,-2.0914237,-1.5729474,2.441236,-0.06937425,0.2549892,-0.3230663,0.07136359,-0.016027713,-0.08306743,0.17238252,0.1340753,-9.232041,0.9545008,47.723602,-1.1026123,-1.8299286,-3.5709586,0.030366525,-0.35101187,-0.305005,22.875,22.5625,22.3125,22.6875,22.5,22.625
0.274054,-0.18039033,0.81130815,-0.42476633,0.03626864,-0.016489593,-0.080890454,-0.3993257,-0.35223547,0.059988618,-3.0769718,0.6195417,0.00010755727,-0.13410123,-0.021661252,0.0045261616,0.015094492,0.0038356043,0.013276283,0.4691826,-1.3885825,1.9122819,-2.0912907,-1.5729707,2.4410315,-0.07093002,0.25554746,-0.32755128,0.07527264,-0.015879598,-0.08398513,0.1340753,0.15322891,-9.155427,0.8851263,47.69763,-0.953553,-1.7485542,-3.470903,0.026669394,-0.36102977,-0.33708102,22.875,22.5625,22.3125,22.6875,22.5,22.625
0.2760537,0.022780363,1.3185035,-0.54744524,0.035808194,-0.007542709,-0.081856884,-0.39954802,-0.3522845,0.059974845,-3.0769327,0.6194759,-2.7753225e-05,-0.1316226,-0.02212771,0.0032780368,0.017175646,-0.0017398512,0.0133302435,0.46906364,-1.3880656,1.9116596,-2.0910861,-1.5729588,2.4408767,-0.068306915,0.25693062,-0.327459,0.079713956,-0.015209163,-0.08141726,0.095768064,0.21068975,-9.155427,0.93436235,47.704796,-1.2454394,-1.5839921,-3.4072218,-0.006273489,-0.37900084,-0.34594172,22.875,22.5625,22.3125,22.6875,22.5,22.625
0.27805364,-0.63026226,0.6194989,-0.59443164,0.030680897,0.002781532,-0.08318061,-0.39984506,-0.35230967,0.059995063,-3.076886,0.61948615,3.3971304e-05,-0.1306169,-0.020539634,0.00153218,0.022117907,-0.010691948,0.010208663,0.468883,-1.3875479,1.9109663,-2.0909145,-1.5730189,2.4407089,-0.06987026,0.2610548,-0.33051607,0.08886363,-0.015556569,-0.07985737,-0.17238252,0.15322891,-9.289502,0.91421866,47.704796,-1.1827757,-1.5783492,-3.506446,-0.10141621,-0.40406328,-0.41857606,22.875,22.5625,22.3125,22.6875,22.5,22.625
0.28005356,-1.3332245,-0.16032386,-0.29349962,0.012185448,0.01560236,-0.076663636,-0.40007636,-0.352363,0.05999755,-3.0768256,0.61941504,-5.307234e-05,-0.13081604,-0.019632122,-0.0003859757,0.02513289,-0.015113562,0.011397565,0.46878654,-1.3870295,1.9102968,-2.0906746,-1.5730432,2.440576,-0.07111928,0.2656193,-0.33217663,0.09126,-0.0162603,-0.08229069,-0.17238252,0.21068975,-9.289503,0.92093146,47.696735,-1.1868095,-1.8179793,-3.6717696,-0.13482916,-0.39796668,-0.43796858,22.875,22.5625,22.3125,22.6875,22.5,22.625
0.28205422,-1.2117227,-0.69025004,-0.253477,-0.010570661,0.04951269,-0.083602436,-0.4003659,-0.35238975,0.05999983,-3.0767558,0.6193428,-7.5742473e-06,-0.12975913,-0.019054754,-0.00059899146,0.0284056,-0.019039776,0.010793984,0.46863082,-1.3864766,1.909603,-2.0905054,-1.5731276,2.4403846,-0.07039973,0.26634374,-0.33406177,0.097399965,-0.017400324,-0.08096332,-0.15322891,0.19153613,-9.423578,0.8918391,47.684196,-1.2229586,-1.8723851,-3.4713771,-0.22768146,-0.39964062,-0.50190026,22.875,22.5625,22.3125,22.6875,22.5,22.625
0.28405368,-2.1773646,-1.3082328,-0.11226067,-0.024320366,0.046790786,-0.072179966,-0.40060905,-0.35246083,0.060014803,-3.0768163,0.61929476,-0.0001240937,-0.12993646,-0.01881506,-0.0012948697,0.029549776,-0.021406246,0.0136064915,0.46848688,-1.3859831,1.9089445,-2.0903137,-1.5730437,2.4402032,-0.07092653,0.26865667,-0.33577758,0.099427424,-0.017364768,-0.084301695,-0.2681506,0.17238252,-9.308657,0.92764956,47.686886,-1.2346029,-1.8842182,-3.643207,-0.3035519,-0.40989572,-0.5031195,22.875,22.5625,22.3125,22.6875,22.5,22.625
0.28605366,-1.7132717,-0.88466114,-0.092226885,-0.03406223,0.06960718,-0.0828526,-0.40086046,-0.35246092,0.059997443,-3.0766792,0.61926365,-0.00019429864,-0.1312492,-0.018964179,-0.0005468945,0.028999798,-0.018901577,0.01813974,0.46831864,-1.3854549,1.9083108,-2.0900862,-1.5731276,2.4400334,-0.07133156,0.26881638,-0.33760974,0.09859721,-0.018036583,-0.08923491,-0.2681506,0.19153613,-9.289502,0.93436235,47.689575,-1.2242892,-1.8181093,-3.7599897,-0.3304904,-0.42028806,-0.492122,22.875,22.5625,22.3125,22.6875,22.5,22.625
0.28805426,-1.2871448,-0.071589924,-0.22623767,-0.013301202,0.055741787,-0.09225077,-0.40112758,-0.3525158,0.059992097,-3.0766525,0.61919683,-0.00024512853,-0.13447778,-0.019704323,0.0003854407,0.026979506,-0.014022563,0.022629727,0.46818632,-1.3848894,1.9076165,-2.089908,-1.57314,2.4398632,-0.072548084,0.27116582,-0.34188488,0.095241524,-0.018473199,-0.09493675,-0.15322891,0.22984336,-9.232041,0.92093146,47.690468,-1.2569085,-1.7867403,-3.6800914,-0.32138866,-0.43556544,-0.44121855,22.875,22.5625,22.3125,22.6875,22.5,22.625
0.2900536,-1.3368025,-0.19187237,-0.10958721,0.0011333494,0.038205724,-0.08833052,-0.40143555,-0.35255995,0.060015976,-3.0766685,0.61906123,-0.00011776815,-0.13718218,-0.02065855,0.0010549234,0.025008513,-0.008378668,0.02855676,0.46803012,-1.3843606,1.9069122,-2.0897896,-1.5732006,2.4396207,-0.07268585,0.2729769,-0.3445193,0.09011805,-0.019289035,-0.100998074,-0.15322891,0.22984336,-9.193734,0.9455522,47.690468,-1.2156715,-1.6568775,-3.5855665,-0.27783197,-0.4288179,-0.40485752,22.875,22.5625,22.3125,22.6875,22.5,22.625
0.29205337,-1.5666488,-0.6769707,-0.112846576,0.003356059,0.0301188,-0.07346388,-0.40171036,-0.35261956,0.06003203,-3.0766628,0.6189414,-5.738598e-05,-0.14092492,-0.021563722,0.0021555587,0.022645684,-0.0012723006,0.033692397,0.4679219,-1.3838314,1.906217,-2.089636,-1.5732487,2.4394388,-0.07363226,0.2751116,-0.3483906,0.084428295,-0.020420473,-0.10707411,-0.38307226,0.3256114,-9.040505,0.95897776,47.71823,-1.2461377,-1.754807,-3.5306532,-0.21376285,-0.42481488,-0.33589846,22.875,22.5625,22.3125,22.6875,22.5,22.625
0.29405418,-1.8067267,-1.0113451,-0.41632968,-0.0025163447,0.034643587,-0.07246749,-0.40197802,-0.3526473,0.060027234,-3.076593,0.6188287,-0.0001182867,-0.14247143,-0.021444919,0.0015048697,0.02284908,0.0010820547,0.037733827,0.46776554,-1.3832778,1.9055241,-2.0894105,-1.5732974,2.4392214,-0.07431896,0.27738965,-0.34886986,0.08060392,-0.021694783,-0.111795254,-0.61291564,0.36391866,-9.174581,0.9545008,47.690468,-1.1519308,-1.631288,-3.5982351,-0.17648453,-0.41337657,-0.27460456,22.875,22.5625,22.3125,22.6875,22.5,22.625
0.29605386,-2.2568843,-1.4988936,-0.45240217,-0.035357777,0.05951512,-0.074204184,-0.4022555,-0.3526943,0.06001856,-3.07655,0.61866415,-0.00015017096,-0.14459991,-0.021719951,0.0024246227,0.021303866,0.0043254877,0.038765747,0.46763325,-1.382689,1.904806,-2.0892193,-1.5733451,2.4389923,-0.07556917,0.2781409,-0.35164586,0.079023264,-0.02180052,-0.1140746,-0.6895301,0.4405331,-9.385271,0.92764956,47.684196,-1.2113594,-1.6993545,-3.6792777,-0.15472166,-0.42835945,-0.22231233,22.875,22.5625,22.3125,22.6875,22.5,22.625
0.29805386,-2.3061943,-1.9918729,-0.40329203,-0.049431995,0.07869226,-0.07281876,-0.40253854,-0.35273612,0.060022462,-3.0765595,0.6185299,-0.00015781909,-0.14649096,-0.022418344,0.0034060767,0.019875526,0.0068683964,0.041347392,0.46746495,-1.3821484,1.9041237,-2.089064,-1.573357,2.4387393,-0.07600832,0.27940324,-0.35541695,0.07860506,-0.021689842,-0.11709406,-0.5554548,0.36391866,-9.461885,0.8918391,47.698532,-1.112476,-1.5132921,-3.6001353,-0.11343402,-0.41099873,-0.16584477,22.875,22.5625,22.3125,22.6875,22.5,22.625
0.3000557,-2.7897859,-2.2187145,-0.19315816,-0.051142994,0.08642332,-0.071869396,-0.40282345,-0.35280675,0.06002512,-3.0765626,0.6184181,-0.00016844468,-0.14696716,-0.022509303,0.002572556,0.020238856,0.0061867605,0.036579527,0.467345,-1.3815589,1.9033836,-2.0888965,-1.5733694,2.4385495,-0.076188564,0.28180903,-0.35635775,0.07792084,-0.021702873,-0.112505525,-0.6703765,0.34476504,-9.32781,0.9634547,47.67614,-1.1907519,-1.5760307,-3.6457586,-0.104899555,-0.40700468,-0.20601252,22.875,22.5625,22.3125,22.6875,22.5,22.625
0.30205518,-2.7759662,-1.5782446,-0.07944971,-0.03548043,0.08666101,-0.07401716,-0.40313622,-0.35285518,0.06003438,-3.0765545,0.61828345,-5.9773836e-05,-0.14969741,-0.021149848,0.0032202106,0.020072103,0.008630878,0.030528313,0.46719968,-1.380982,1.902654,-2.0887773,-1.5734409,2.4383216,-0.08022915,0.282448,-0.3585832,0.07724814,-0.022653585,-0.11049139,-0.7661445,0.34476504,-9.32781,0.9791215,47.68062,-1.1300251,-1.405805,-3.7212205,-0.07529218,-0.41928267,-0.17912948,22.875,22.5625,22.3125,22.6875,22.5,22.625
0.3040539,-2.1448836,-0.05702312,-0.42740777,-0.016412316,0.072455876,-0.081212305,-0.4034376,-0.35289037,0.060037203,-3.0765197,0.6182797,-4.0432893e-05,-0.15013027,-0.021675557,0.0018118216,0.021631666,0.0071134875,0.024919327,0.46702,-1.3804159,1.9019431,-2.088621,-1.5734776,2.4381444,-0.07917864,0.28701204,-0.36087137,0.07704261,-0.023355251,-0.10382768,-0.57460845,0.30645782,-9.404425,0.97464454,47.658226,-1.0084358,-1.5764669,-3.7180533,-0.04212124,-0.41357225,-0.25044778,22.875,22.5625,22.3125,22.6875,22.5,22.625
0.30605426,-1.5450077,0.016228667,-0.31084484,0.0057802694,0.06856609,-0.074639946,-0.4037489,-0.35293692,0.06002975,-3.0765376,0.61813164,2.5224614e-05,-0.15208042,-0.021269405,0.0010077517,0.022887006,0.006869314,0.020408574,0.46685138,-1.3798257,1.9012431,-2.0885375,-1.5735143,2.4378815,-0.08085623,0.29130983,-0.36424994,0.076910675,-0.024365745,-0.1009897,-0.59376204,0.17238252,-9.32781,0.9186956,47.70032,-1.0668476,-1.7493212,-3.693806,0.003483632,-0.4054715,-0.30334225,22.875,22.5625,22.3125,22.6875,22.5,22.625
0.30805406,-1.3480196,0.43522888,0.070398815,0.004972003,0.049260985,-0.075997666,-0.40406412,-0.3529541,0.06002147,-3.076432,0.618207,5.725631e-05,-0.15418378,-0.020574495,0.0013316431,0.02252265,0.008261767,0.017322004,0.46665856,-1.379225,1.9005135,-2.08837,-1.5735983,2.4377496,-0.08358895,0.29265493,-0.36666024,0.076557666,-0.024676865,-0.10063294,-0.49799395,0.095768064,-9.097966,0.98135734,47.660015,-0.8644825,-1.8322089,-3.6884818,0.05365356,-0.38829702,-0.32796478,22.875,22.5625,22.3125,22.6875,22.5,22.625
0.31005397,-1.0897582,0.80198115,-0.5057414,0.014682714,0.029375382,-0.078773096,-0.40439358,-0.35301268,0.060045604,-3.0764556,0.61811584,0.00018390476,-0.15424821,-0.019464253,-0.0003950455,0.026109677,0.002816359,0.015460395,0.46650204,-1.3786473,1.8997473,-2.0882485,-1.573646,2.4375336,-0.08499653,0.2971466,-0.3692237,0.08110205,-0.025419211,-0.10017693,-0.36391866,0.1340753,-9.097966,0.9567419,47.67614,-0.7790202,-1.7991369,-3.717801,0.046112467,-0.38126865,-0.34270513,22.875,22.5625,22.3125,22.6875,22.5,22.625
0.312054,-1.1060344,0.25041124,-0.22631933,0.008845468,0.023111291,-0.07543016,-0.40467834,-0.35304388,0.060025714,-3.0763867,0.617987,0.00014949324,-0.15576524,-0.019355657,0.0012197521,0.026616592,0.0052927043,0.014905774,0.46634585,-1.3780463,1.8990401,-2.0880682,-1.573707,2.4373062,-0.08543199,0.29665858,-0.37299606,0.08337476,-0.026997024,-0.10004922,-0.40222588,0.05746084,-9.212888,0.9567419,47.704796,-0.75198925,-1.8033994,-3.5742168,0.04293407,-0.36137748,-0.35950285,22.875,22.5625,22.3125,22.6875,22.5,22.625
0.31405398,-1.0621574,-0.15305543,0.160793,-0.003065046,0.0192026,-0.0735569,-0.4050332,-0.3530813,0.060057484,-3.0763488,0.6179792,0.000280742,-0.15467508,-0.018270897,0.00062667794,0.030418731,-0.00042844372,0.013186027,0.4661539,-1.3774457,1.8982152,-2.087886,-1.5737909,2.4371147,-0.08573911,0.2980696,-0.37518796,0.09096933,-0.027803265,-0.098634794,-0.3256114,0.076614454,-9.097966,0.91421866,47.71823,-0.7619879,-1.7581768,-3.4958835,0.02065456,-0.33495122,-0.37811416,22.875,22.5625,22.3125,22.6875,22.5,22.625
0.31605375,-0.6576053,0.4076973,0.036635295,-0.0024157483,0.01890717,-0.08218796,-0.40531266,-0.35309857,0.06001526,-3.0762117,0.6179473,0.00017975843,-0.15504277,-0.018332193,0.00076140044,0.032255083,-0.0032997483,0.018042516,0.4659859,-1.3768079,1.897509,-2.0876806,-1.5738634,2.4369447,-0.08563568,0.3006083,-0.3799359,0.09654359,-0.02817811,-0.10338133,-0.28730422,0.19153613,-9.059659,0.9365982,47.72719,-0.80077934,-1.7841742,-3.516786,-0.047016226,-0.32509983,-0.38291955,22.875,22.5625,22.3125,22.6875,22.5,22.625
0.31805354,-1.0337381,-0.05124671,0.14898829,0.011311543,0.0209375,-0.073531464,-0.40560466,-0.35314688,0.060006313,-3.0761774,0.6178247,0.00011925181,-0.15390812,-0.018018162,0.00060789956,0.033386834,-0.008038618,0.01836382,0.46582976,-1.376195,1.896756,-2.087475,-1.5738868,2.4367168,-0.08579919,0.30096322,-0.38152158,0.10250445,-0.027061004,-0.10386892,-0.22984336,0.038307227,-9.002198,0.98135734,47.71017,-0.8288917,-1.7738504,-3.5914845,-0.11596335,-0.31737792,-0.37408727,22.875,22.5625,22.3125,22.6875,22.5,22.625
0.32005417,-1.0769749,-0.01825146,0.19031382,0.020285126,0.018813724,-0.074265294,-0.40593764,-0.35319468,0.060014248,-3.0761764,0.61772215,0.00013424087,-0.15389101,-0.018200405,0.00071114954,0.034625884,-0.010239147,0.026699977,0.4656381,-1.3755698,1.8959554,-2.0872948,-1.5739111,2.4364617,-0.08528496,0.302538,-0.3847255,0.106624186,-0.027201096,-0.11168949,-0.095768064,0.0,-8.944737,0.98135734,47.705692,-0.9048623,-1.5993251,-3.5991611,-0.17677465,-0.30605844,-0.32779622,22.875,22.5625,22.3125,22.6875,22.5,22.625
0.32205376,-1.161487,0.2774921,0.14632215,0.025646688,0.018347079,-0.06326083,-0.40623143,-0.35322726,0.060002957,-3.0760949,0.6176657,7.107795e-05,-0.15480915,-0.01747976,8.0813916e-05,0.03652228,-0.011250589,0.029518079,0.4654696,-1.3749568,1.895202,-2.087067,-1.5739597,2.4362688,-0.086437166,0.30502898,-0.38668567,0.107830405,-0.028467113,-0.11565178,-0.17238252,0.05746084,-8.868123,0.900793,47.684196,-0.78328097,-1.5917649,-3.5529842,-0.20444086,-0.29910016,-0.26748443,22.875,22.5625,22.3125,22.6875,22.5,22.625
0.32405362,-0.5421006,0.5991292,0.017410805,0.018694533,0.027151508,-0.07984461,-0.40656313,-0.35326153,0.05999069,-3.0760336,0.617571,6.145018e-05,-0.15367343,-0.017964695,-0.0014310874,0.038974207,-0.015394984,0.037598785,0.46527845,-1.3742946,1.8944,-2.0868742,-1.5740198,2.4360268,-0.08430853,0.30851233,-0.38819677,0.110631615,-0.028822033,-0.121600516,-0.019153614,0.095768064,-8.791509,1.0104496,47.693153,-0.9356704,-1.746175,-3.754421,-0.24605468,-0.2720333,-0.21015888,22.875,22.5625,22.3125,22.6875,22.5,22.625
0.32605323,-0.57604444,0.31754008,0.07439763,0.008083232,0.016100116,-0.07896936,-0.40687674,-0.3532873,0.06000666,-3.075955,0.6173225,0.00014089208,-0.15738589,-0.017888645,6.719528e-05,0.036392245,-0.009544676,0.039332394,0.46513343,-1.373706,1.8936108,-2.0866363,-1.5741519,2.4357371,-0.08733768,0.3091414,-0.39172366,0.10710747,-0.029175801,-0.12635943,0.17238252,0.11492168,-8.944737,0.86498255,47.681515,-0.91348714,-1.844609,-3.553342,-0.24152693,-0.23264769,-0.12238589,22.875,22.5625,22.3125,22.6875,22.5,22.625
0.3280538,-0.122210175,-0.064121254,0.1206527,-0.013533018,0.025242025,-0.08415387,-0.4071774,-0.35332152,0.059976242,-3.075869,0.6172654,3.6152596e-05,-0.15831415,-0.019845486,7.644063e-05,0.035319217,-0.008460484,0.041816536,0.46495432,-1.3730445,1.892845,-2.0864213,-1.5741876,2.4355338,-0.08497847,0.31260365,-0.3958792,0.10633905,-0.028732559,-0.1264812,0.076614454,0.15322891,-8.983045,0.99031126,47.683304,-0.8575213,-1.8022108,-3.534832,-0.24070624,-0.21712947,-0.0644162,22.875,22.5625,22.3125,22.6875,22.5,22.625
0.3300536,-0.8694757,-1.0241296,-0.2499968,-0.021551922,0.005547006,-0.074877486,-0.40749106,-0.35337293,0.05999137,-3.0758724,0.61707544,2.3653174e-05,-0.16152544,-0.020850612,0.0010785186,0.03241397,-0.002043072,0.038545102,0.46478614,-1.3724428,1.892044,-2.0861952,-1.5742115,2.435247,-0.085749105,0.31421047,-0.3990002,0.10081669,-0.029032312,-0.12397681,-0.038307227,0.34476504,-9.11712,0.9365982,47.703007,-0.9507534,-1.8699214,-3.481647,-0.20040241,-0.21779492,-0.07932548,22.875,22.5625,22.3125,22.6875,22.5,22.625
0.33205327,-1.0573566,-1.7908732,-0.19345333,-0.03425889,0.02126811,-0.07005314,-0.40780398,-0.353386,0.059959576,-3.0757422,0.61697376,-1.4405483e-06,-0.16462336,-0.021676524,0.0017800372,0.030646821,0.0026790875,0.033622887,0.46460575,-1.3717813,1.8912839,-2.0859935,-1.5743197,2.4350202,-0.08656564,0.316943,-0.4032541,0.09732322,-0.029590026,-0.11986383,-0.038307227,0.40222588,-9.174581,0.84708,47.699425,-0.88813937,-1.9245791,-3.361018,-0.14198,-0.18577074,-0.106794015,22.875,22.5625,22.3125,22.6875,22.5,22.625
0.33405393,-0.8358524,-1.7625183,-0.47903836,-0.0379477,0.038668394,-0.06730524,-0.40811244,-0.3534174,0.059929833,-3.0756495,0.61682284,-6.499004e-05,-0.16463391,-0.02220036,0.00052528974,0.029937448,0.002351512,0.028069016,0.46443805,-1.3711083,1.8905019,-2.085779,-1.5743917,2.4347706,-0.08607005,0.31910706,-0.40251726,0.09440358,-0.028811246,-0.11381482,-0.22984336,0.45968673,-9.212888,1.0015011,47.689575,-0.9101528,-1.8901085,-3.5378237,-0.11554627,-0.16517243,-0.14792259,22.875,22.5625,22.3125,22.6875,22.5,22.625
0.33605343,-0.9187628,-1.5479282,-0.93754387,-0.043126196,0.047299318,-0.0743004,-0.40844616,-0.3534847,0.059939723,-3.0756533,0.61682516,-9.3022485e-05,-0.16430615,-0.021982448,-6.0261814e-06,0.029176718,0.0018918004,0.02457443,0.46425787,-1.370459,1.8896598,-2.0855753,-1.5743793,2.4345918,-0.086607516,0.31877664,-0.40081418,0.09310546,-0.027919212,-0.11086234,-0.05746084,0.59376204,-9.423578,0.9410752,47.687782,-0.8940538,-1.9721594,-3.829075,-0.08426064,-0.17197329,-0.17671084,22.875,22.5625,22.3125,22.6875,22.5,22.625
0.33805403,-1.207647,-1.9165617,-0.72683626,-0.06818235,0.047366425,-0.0691643,-0.40878597,-0.35350603,0.059934568,-3.0755656,0.61679006,-7.084614e-05,-0.16400573,-0.022017732,-0.00084926625,0.030089458,-0.0006366256,0.019257912,0.46405396,-1.3698107,1.888853,-2.0853713,-1.5744632,2.4343777,-0.08638431,0.3208505,-0.4019463,0.094838224,-0.02759311,-0.1053226,-0.13407528,0.6703765,-9.519346,0.9992599,47.686886,-0.9519603,-1.7976516,-3.9500432,-0.0607956,-0.16224372,-0.28170455,22.875,22.5625,22.3125,22.6875,22.5,22.625
0.34005374,-1.0726491,-2.3092813,-1.1404111,-0.067280576,0.045994963,-0.07129936,-0.40908515,-0.3535533,0.059897963,-3.0754843,0.61659896,-0.00012772957,-0.16499266,-0.022474764,-0.0010303697,0.030063787,-0.0009924839,0.020609837,0.46392187,-1.3691249,1.8880752,-2.085179,-1.5745353,2.434137,-0.0864688,0.3235096,-0.4050828,0.09560533,-0.027432898,-0.10675596,-0.2681506,0.7852981,-9.519346,0.9992599,47.688675,-0.9688102,-1.8089292,-4.032406,-0.051526666,-0.13019425,-0.28045854,22.875,22.5625,22.3125,22.6875,22.5,22.625
0.34205422,-1.1131297,-2.0283432,-1.2277919,-0.06403853,0.027854683,-0.066175535,-0.40943888,-0.35360143,0.0599202,-3.0754673,0.61659783,-4.36808e-05,-0.16672888,-0.023340326,9.359476e-05,0.028678631,0.0014487625,0.01696128,0.46372998,-1.3684994,1.8872379,-2.0849998,-1.5745834,2.433947,-0.0864669,0.3246622,-0.4092498,0.095820256,-0.0272828,-0.10310571,-0.17238252,0.7278373,-9.730036,0.98807013,47.66987,-1.0442922,-1.9412937,-3.965848,-0.054910474,-0.12758967,-0.3349362,22.875,22.5625,22.3125,22.6875,22.5,22.625
0.34405392,-1.0551026,-2.1112316,-1.5428782,-0.06476436,0.022070322,-0.06435527,-0.40975583,-0.353648,0.05991283,-3.0753932,0.6165045,-7.992173e-05,-0.16852917,-0.024762692,0.00086460024,0.02693511,0.003588695,0.015895637,0.4635742,-1.3678381,1.8864115,-2.084761,-1.574643,2.433743,-0.08585745,0.32712853,-0.4140708,0.09547555,-0.026695764,-0.10142954,-0.095768064,0.68953013,-9.787497,0.97464454,47.690468,-1.0769073,-1.8724071,-3.7584467,-0.026844785,-0.120611,-0.38918376,22.875,22.5625,22.3125,22.6875,22.5,22.625
0.34605393,-0.6927498,-2.1716032,-1.0999775,-0.07215918,0.031440735,-0.076391555,-0.41009718,-0.35371527,0.059910342,-3.0753672,0.61646086,-6.3209605e-05,-0.16912115,-0.02482647,-0.00048849,0.0271079,-7.1647795e-05,0.013961546,0.46341792,-1.367152,1.885557,-2.0845807,-1.5746783,2.4335632,-0.08707156,0.33152965,-0.416846,0.097191095,-0.0252166,-0.10071494,-0.095768064,0.6512228,-9.80665,0.9791215,47.704796,-1.1802118,-1.9701607,-3.7410202,-0.0070304936,-0.10844122,-0.4498093,22.875,22.5625,22.3125,22.6875,22.5,22.625
0.34805357,-0.95793694,-1.6691457,-1.2922288,-0.053427666,0.01595545,-0.07121449,-0.41044706,-0.35375422,0.059913147,-3.075321,0.61643076,-4.859251e-05,-0.1678608,-0.02538375,-0.0020381643,0.028825402,-0.005276412,0.017121147,0.46321434,-1.3664901,1.8847135,-2.0843756,-1.5747265,2.4333472,-0.08542028,0.33510175,-0.41859737,0.1007755,-0.024432609,-0.102225855,-0.05746084,0.5746084,-9.787497,0.98807013,47.704796,-1.0590574,-2.1285954,-3.818503,-0.015247608,-0.12126325,-0.48410034,22.875,22.5625,22.3125,22.6875,22.5,22.625
0.3500541,-0.7668596,-1.1012545,-1.3102707,-0.03284312,0.022356397,-0.067318484,-0.41078427,-0.3538107,0.059908953,-3.0752776,0.6163601,-1.6741024e-05,-0.16624582,-0.024746824,-0.003528558,0.03113184,-0.011592598,0.022178134,0.46305832,-1.3658167,1.8838772,-2.0841944,-1.5747856,2.4331532,-0.085488886,0.33698848,-0.41878182,0.10572138,-0.023684578,-0.10735504,-0.11492168,0.45968673,-9.825804,0.95897776,47.681515,-1.2003078,-2.2744203,-3.9260905,-0.069287926,-0.11422758,-0.46395504,22.875,22.5625,22.3125,22.6875,22.5,22.625
0.35205352,-0.37066635,-0.65005296,-1.1405345,-0.028652541,0.028729973,-0.076383606,-0.41113895,-0.35385633,0.059925206,-3.0752563,0.6162757,8.557074e-05,-0.16645631,-0.023194492,-0.0039034823,0.032602284,-0.018178435,0.026297877,0.4628769,-1.3651798,1.8830398,-2.0840232,-1.5748571,2.4329221,-0.08919261,0.3390256,-0.42237633,0.11377828,-0.022074463,-0.115186125,0.095768064,0.30645782,-9.730036,0.9186956,47.658226,-1.0248028,-2.1888604,-4.035077,-0.1234996,-0.10596492,-0.42824686,22.875,22.5625,22.3125,22.6875,22.5,22.625
0.35405338,-0.34219217,-0.19850662,-0.87623113,-0.016316695,0.0070063733,-0.06635953,-0.4114807,-0.35391727,0.05990422,-3.0752237,0.6162643,-4.9672744e-05,-0.16624627,-0.024482243,-0.004281166,0.032744452,-0.01929866,0.034772117,0.46267387,-1.3644459,1.8821553,-2.0837843,-1.5748333,2.4327166,-0.086921126,0.34152123,-0.424996,0.114940114,-0.021741278,-0.121387824,0.30645782,0.076614454,-9.595961,0.9567419,47.66808,-1.1905215,-2.253031,-3.8760786,-0.16252583,-0.13632719,-0.3564008,22.875,22.5625,22.3125,22.6875,22.5,22.625
0.356054,0.16225839,0.47190574,-0.62645996,-0.0024734754,-0.00071329786,-0.068041645,-0.41183773,-0.35396817,0.059922293,-3.0751944,0.6160028,8.885734e-05,-0.16830298,-0.024891557,-0.00060956716,0.030623732,-0.016597666,0.04337459,0.46252945,-1.3637866,1.8812813,-2.0835907,-1.574953,2.432413,-0.08828367,0.33898306,-0.43185595,0.12091287,-0.021083698,-0.1313553,0.019153614,-0.038307227,-9.423578,0.9298854,47.666286,-1.1374954,-1.9770532,-3.788911,-0.21798405,-0.13179478,-0.24095845,22.875,22.5625,22.3125,22.6875,22.5,22.625
0.35805395,0.5693045,1.5919386,-0.6662147,0.03025428,-0.009016141,-0.078796044,-0.4121439,-0.35402897,0.05990007,-3.0751803,0.61588424,-8.496957e-05,-0.17039034,-0.025579477,0.00055523484,0.02836677,-0.014051594,0.044747632,0.46234906,-1.3631014,1.880454,-2.0833395,-1.5749162,2.4321609,-0.08931209,0.3399932,-0.43586594,0.12061543,-0.020236451,-0.1337574,0.05746084,-0.05746084,-9.346964,0.93436235,47.65643,-1.1079962,-1.8967236,-3.5967028,-0.23688734,-0.1409682,-0.1863499,22.875,22.5625,22.3125,22.6875,22.5,22.625
0.36005354,0.6178468,2.1069026,-1.1952603,0.05997947,-0.018247733,-0.06722725,-0.41251534,-0.35410157,0.05995152,-3.0752127,0.61569774,5.3188953e-05,-0.17179267,-0.025957605,0.00079698605,0.027640997,-0.013295546,0.04569456,0.4621929,-1.3624643,1.8795222,-2.083112,-1.5749763,2.4318845,-0.08994491,0.34196547,-0.43900964,0.120767854,-0.019930618,-0.13533896,0.11492168,-0.11492168,-9.500193,1.0015011,47.661808,-1.0381875,-1.8960252,-3.5914571,-0.26212212,-0.15570669,-0.14630362,22.875,22.5625,22.3125,22.6875,22.5,22.625
0.36205423,-0.22832339,1.3284696,-0.8691449,0.032478537,0.0076483265,-0.07080943,-0.41283312,-0.35416028,0.059925836,-3.0751576,0.61551446,-7.276899e-05,-0.17236693,-0.025882484,-0.000266757,0.027391715,-0.013696174,0.04334013,0.46203667,-1.3617429,1.8786563,-2.0828497,-1.5750002,2.4316213,-0.09069742,0.34417847,-0.4390366,0.118828766,-0.01954793,-0.13373663,-0.038307227,-0.11492168,-9.461885,0.99031126,47.66539,-1.0997384,-2.0503721,-3.7404542,-0.22521812,-0.1640807,-0.12422292,22.875,22.5625,22.3125,22.6875,22.5,22.625
0.36405373,-1.4301058,-0.39154723,-0.85838234,0.010618178,0.04360254,-0.062040403,-0.41316405,-0.35418993,0.059926983,-3.0750873,0.6154445,-0.00018288502,-0.1736399,-0.026316844,-0.0013372428,0.026555127,-0.012346594,0.0376564,0.46182057,-1.3610811,1.8777899,-2.0825398,-1.5750245,2.431371,-0.09101026,0.34732682,-0.43967235,0.11475068,-0.019412078,-0.1283638,-0.17238252,-0.05746084,-9.461885,0.99031126,47.70838,-1.1641153,-2.0046146,-3.8025887,-0.22612002,-0.15739734,-0.14500175,22.875,22.5625,22.3125,22.6875,22.5,22.625
0.36605418,-2.0851316,-0.75757945,-0.99853504,-0.027898831,0.080930024,-0.06677116,-0.4135226,-0.35424885,0.059948195,-3.075059,0.61534625,-0.00013101527,-0.17538925,-0.02681463,-0.0018809189,0.026202345,-0.010922619,0.03146718,0.46165252,-1.3604085,1.8768805,-2.082301,-1.5750841,2.4311457,-0.09135023,0.35088226,-0.44241717,0.11252409,-0.01972559,-0.122511685,-0.2681506,-0.076614454,-9.787497,0.99031126,47.70211,-1.0587363,-2.1230981,-3.9450164,-0.16356131,-0.16090848,-0.24938086,22.875,22.5625,22.3125,22.6875,22.5,22.625
0.3680537,-2.4330766,-1.8540934,-0.74122113,-0.06240099,0.12007846,-0.07304132,-0.4138409,-0.3542937,0.059919413,-3.074963,0.61517566,-0.00024003466,-0.17934787,-0.026707526,-0.0013527841,0.023887558,-0.006474619,0.024339465,0.46149525,-1.3596879,1.8760189,-2.0820277,-1.5751442,2.4308946,-0.094825946,0.353818,-0.4465171,0.10868059,-0.019658087,-0.1188558,-0.3256114,0.076614454,-9.730036,0.95002913,47.66271,-0.92626184,-2.0991664,-3.892046,-0.17006615,-0.17913672,-0.28720015,22.875,22.5625,22.3125,22.6875,22.5,22.625
0.37005335,-2.3546064,-1.5101976,-0.7424929,-0.06323726,0.10525965,-0.068664365,-0.4142052,-0.35434914,0.059930313,-3.0749793,0.61513925,-0.00022830424,-0.18071449,-0.028694231,0.00076656055,0.02150018,-0.0008194322,0.024789572,0.4612803,-1.3590168,1.8751444,-2.0818365,-1.5751442,2.4306552,-0.092257336,0.35293254,-0.4501234,0.107052565,-0.020043613,-0.11673478,-0.36391866,0.22984336,-9.653421,0.97464454,47.698532,-1.0682982,-2.0168395,-3.7892923,-0.1097404,-0.18975312,-0.30468884,22.875,22.5625,22.3125,22.6875,22.5,22.625
0.37205395,-1.7828447,-1.0031506,-1.2027683,-0.034274492,0.08350019,-0.06567296,-0.41454858,-0.35440794,0.059933275,-3.0749576,0.6150594,-0.00021443042,-0.18243353,-0.027763823,0.00091947714,0.021451296,0.0008688749,0.022555988,0.46111146,-1.3583443,1.8742832,-2.0816329,-1.5751809,2.4304397,-0.094733015,0.35353178,-0.45115814,0.10594861,-0.020760348,-0.11697293,-0.8810662,0.4213795,-9.787497,1.0149267,47.693153,-1.061078,-1.8499097,-3.818692,-0.07421476,-0.17883,-0.34121847,22.875,22.5625,22.3125,22.6875,22.5,22.625
