Tylouw/Master_Thesis_Code/test_recorded_data/real_test11/sample_1_session_1.csv
timestamp[s],tcp_force_x[N],tcp_force_y[N],tcp_force_z[N],tcp_force_rx[Nm?],tcp_force_ry[Nm?],tcp_force_rz[Nm?],tcp_pose_x[m],tcp_pose_y[m],tcp_pose_z[m],tcp_pose_rx[rot_vec_x],tcp_pose_ry[rot_vec_y],tcp_pose_rz[rot_vec_z],tcp_velo_x[m/s],tcp_velo_y[m/s],tcp_velo_z[m/s],tcp_velo_rx[rot_vec_x/s],tcp_velo_ry[rot_vec_y/s],tcp_velo_rz[rot_vec_z/s],q1[rad],q2[rad],q3[rad],q4[rad],q5[rad],q6[rad],qd1[rad/s],qd2[rad/s],qd3[rad/s],qd4[rad/s],qd5[rad/s],qd6[rad/s],tool_acc_x,tool_acc_y,tool_acc_z,current_of_whole_robot[A],voltage_of_whole_robot[V],current_J1[A],current_J2[A],current_J3[A],current_J4[A],current_J5[A],current_J6[A],temp_J1[C],temp_J2[C],temp_J3[C],temp_J4[C],temp_J5[C],temp_J6[C]
9.149953e-07,0.5062681,0.94374174,1.1269016,-0.040988784,0.017629448,0.004631686,-0.38152716,-0.34955975,0.059951194,-3.0784924,0.6249092,-0.00019964579,-0.00070498104,-0.00037458036,-0.001622271,-0.00044741255,0.0005817222,9.479453e-05,0.47920188,-1.4235374,1.9549278,-2.100416,-1.5707697,2.4541807,-6.830926e-05,0.0033922547,0.0009956298,-0.005110844,0.00011911804,-0.00016227273,0.038307227,0.05746084,-8.734048,0.69937176,47.72002,-0.12589213,-3.0559263,-2.1655116,-0.49519584,0.14771639,-0.21991283,22.8125,22.4375,22.25,22.625,22.3125,22.4375
0.002054215,0.5339871,1.0579553,1.4145918,-0.031411983,0.013236645,-0.0041078613,-0.3815226,-0.34955516,0.059949752,-3.0785182,0.6248763,-0.00019436491,-0.0015621063,-0.00082217826,-0.002706107,-0.0025152622,0.004537776,9.172763e-05,0.47918996,-1.4235609,1.954964,-2.1004431,-1.5707573,2.454145,-6.745597e-05,0.004305089,0.0044357628,-0.013927697,0.000117179465,-0.00015819774,0.038307227,0.019153614,-8.676587,0.7486078,47.716442,-0.03451813,-2.9827447,-2.2672637,-0.44211006,0.16414802,-0.22805813,22.8125,22.4375,22.25,22.625,22.3125,22.4375
0.0040546,0.043292698,1.208029,1.5027812,-0.025844662,-0.0050599463,0.009154871,-0.38155025,-0.34955394,0.05995734,-3.078521,0.6249152,-0.00011338093,-0.0019442422,-0.0010187252,-0.0027246722,-0.0030281942,0.0055399183,8.903124e-05,0.47917792,-1.4235488,1.9549412,-2.100479,-1.5707816,2.4541569,-6.662377e-05,0.004614556,0.0044561136,-0.015383246,0.000107064014,-0.00015432265,0.038307227,-0.05746084,-8.599973,0.7732232,47.709274,-0.025576524,-3.4445367,-2.4991698,-0.3541482,0.1436213,-0.22068197,22.8125,22.4375,22.25,22.625,22.3125,22.4375
0.006053795,0.67079914,1.6635429,1.4115692,-0.004328859,-0.014572973,0.0021334966,-0.38154545,-0.34956452,0.05993246,-3.0785522,0.62482536,-0.0001781806,-0.0016444686,-0.0008609391,-0.0013658864,-0.00235623,0.0042705243,8.604613e-05,0.47917792,-1.4235015,1.9549516,-2.1005127,-1.5707458,2.4540968,-6.5811735e-05,0.0029620386,0.001970113,-0.009808464,0.00010352863,-0.00015063274,0.076614454,0.019153614,-8.485051,0.7486078,47.703007,-0.11711873,-3.3584354,-2.3914292,-0.37530673,0.15783858,-0.21041568,22.8125,22.4375,22.25,22.625,22.3125,22.4375
0.008054304,1.0009786,2.194177,0.9560943,0.017232869,-0.026596501,0.004253607,-0.38154715,-0.34953007,0.059923153,-3.0784733,0.62490493,-0.00014853949,-0.001999841,-0.0010457654,0.00052046514,-0.0027493075,0.005039459,8.364632e-05,0.47915396,-1.423514,1.9549869,-2.1005113,-1.5708054,2.4541326,-6.501942e-05,0.0009103874,-0.000926358,-0.005723896,0.000101131875,-0.0001471148,0.15322891,-0.038307227,-8.542512,0.7105615,47.675243,-0.07821911,-3.2404082,-2.2281075,-0.412481,0.15999186,-0.21217774,22.8125,22.4375,22.25,22.625,22.3125,22.4375
0.010054198,1.0042369,2.3778312,0.7715837,-0.0004724894,-0.019172115,-0.009014399,-0.3815221,-0.3495523,0.059906267,-3.0784926,0.62492865,-0.0002515219,-0.0014303181,-0.00074756483,0.00087089697,-0.0019759717,0.0035684726,8.0565995e-05,0.47917792,-1.4234905,1.9549984,-2.1005104,-1.5707458,2.4541688,-6.424584e-05,2.0003754e-05,-0.0013985864,-0.0026994005,9.8904515e-05,-0.00014375788,0.1340753,-0.019153614,-8.983045,0.8023209,47.728977,-0.3209911,-2.4556665,-2.9605174,-0.44010144,0.14541067,-0.26596946,22.8125,22.4375,22.25,22.625,22.3125,22.4375
0.012053331,0.1549672,0.76625115,0.4273308,-0.022213914,-0.01008675,0.0036214648,-0.3815265,-0.34953916,0.059905816,-3.078456,0.624902,-0.0002722236,-0.0027105391,-0.001402817,0.00012825808,-0.0010756002,0.0018616925,0.00010765428,0.479166,-1.423477,1.9549731,-2.1004622,-1.5707697,2.454145,-8.0621074e-05,0.0052392683,-0.0059488257,-0.0014387046,7.996263e-05,-0.00018433017,0.095768064,0.11492168,-9.097966,0.68146914,47.6636,-0.40057737,-2.1927977,-3.2392,-0.41815582,0.11672032,-0.27188498,22.8125,22.4375,22.25,22.625,22.3125,22.4375
0.014053904,-0.6888719,-0.54547703,0.14207909,-0.046094004,0.003956187,0.0018047947,-0.3814827,-0.34953654,0.0598684,-3.0784016,0.6248511,-0.0003948129,-0.0037178781,-0.0019306777,-0.0042902157,0.0033860172,-0.006737348,0.0023842591,0.47920188,-1.4234476,1.9550194,-2.1004374,-1.5707697,2.454156,-8.595204e-05,0.019044831,-0.0120748915,0.0005690189,7.595757e-05,-0.002461399,-0.019153614,0.2681506,-9.155427,0.7016076,47.691364,-0.45274237,-3.072318,-3.0761523,-0.4179299,0.10965629,-0.2804841,22.8125,22.4375,22.25,22.625,22.3125,22.4375
0.01605364,-0.8334418,-0.7895891,-0.018953614,-0.08232447,0.039669108,-0.003120971,-0.38151023,-0.34953418,0.059863403,-3.078401,0.6248317,-0.00043426122,-0.0063090296,-0.00016941545,-0.002971915,0.0030863855,-0.006142729,0.0015381186,0.47916412,-1.4233882,1.9549574,-2.1004126,-1.5707573,2.454106,-0.005600966,0.01859481,-0.015246644,0.0035243584,6.511158e-05,-0.0071293176,-0.15322891,0.40222588,-9.385271,0.7172743,47.677036,-0.29544693,-2.8496494,-3.070352,-0.42386478,0.10630712,-0.25101113,22.8125,22.4375,22.25,22.625,22.3125,22.4375
0.018053692,-1.6216066,-1.8328658,-0.3563838,-0.08144944,0.04670759,0.0042903516,-0.38151988,-0.34955013,0.059873227,-3.0784323,0.6247995,-0.00041622695,-0.006671004,-0.00035218295,-0.0019514043,0.0025186874,-0.005029289,0.0028279298,0.47917598,-1.4233767,1.9549216,-2.1004126,-1.5707458,2.454094,-0.005605311,0.017440505,-0.016531143,0.0047133234,5.5163226e-05,-0.008423227,-0.24899697,0.6512228,-9.576807,0.779936,47.74868,-0.20600018,-2.5260806,-3.1920967,-0.43837914,0.08732957,-0.24829108,22.8125,22.4375,22.25,22.625,22.3125,22.4375
0.020054292,-1.7005666,-1.9450321,-0.64422774,-0.09147998,0.059723496,-0.003001725,-0.381508,-0.34953517,0.05986093,-3.0783858,0.6248469,-0.000517155,-0.0068601547,-0.0011100704,-0.002695443,0.0030548123,-0.0060684267,0.0040227673,0.47915244,-1.4233636,1.9549211,-2.1003525,-1.5707334,2.4541059,-0.0044383886,0.020552583,-0.018358856,0.004598346,5.3524604e-05,-0.008449712,-0.38307226,0.8236054,-9.768343,0.8179876,47.77555,-0.4141405,-2.6416793,-3.2019467,-0.42637604,0.08233768,-0.249984,22.8125,22.4375,22.25,22.625,22.3125,22.4375
0.022053923,-1.6726,-2.1054718,-0.44838896,-0.10631461,0.069279276,-0.014831917,-0.3815388,-0.3495517,0.059858613,-3.0783916,0.6247518,-0.00045276625,-0.0074545764,-0.0017218682,-0.0028507877,0.0031777143,-0.0057364823,0.0048283627,0.47917664,-1.4232907,1.9548486,-2.1003764,-1.5707697,2.45407,-0.003733308,0.022591148,-0.02024511,0.004208783,-0.00021322662,-0.0085483575,-0.63206923,0.9002198,-9.864111,0.7530795,47.760323,-0.53018475,-2.6254528,-3.2871604,-0.3989295,0.0669707,-0.2657559,22.8125,22.4375,22.25,22.625,22.3125,22.4375
0.024053864,-1.8498873,-1.7636198,-0.65144646,-0.10649975,0.06611497,-0.013179401,-0.3815645,-0.349556,0.059853967,-3.0783827,0.62480724,-0.00047943532,-0.008466592,-0.0015688122,-0.0021267808,0.0028421655,-0.004863506,0.004575291,0.47915238,-1.4232309,1.9547881,-2.100364,-1.5707573,2.4540815,-0.004872147,0.022594502,-0.022118757,0.005150067,-0.00032051242,-0.009433158,-0.49799395,0.80445176,-9.902418,0.75084364,47.72629,-0.5540229,-2.540317,-3.340467,-0.40781462,0.07153134,-0.2747132,22.8125,22.4375,22.25,22.625,22.3125,22.4375
0.026053492,-1.3867973,-1.4842517,-0.55385834,-0.10251185,0.06413377,-0.0300209,-0.38155577,-0.34955558,0.059839055,-3.0783417,0.6247612,-0.0005135093,-0.009624313,-0.0012597275,-0.0018158775,0.0033774772,-0.004587253,0.0040013427,0.4791758,-1.4231943,1.9547747,-2.1003392,-1.5707821,2.4540815,-0.006101292,0.023769626,-0.02443145,0.0062911594,-0.0009259443,-0.010085989,-0.4405331,0.7086837,-9.998186,0.7642693,47.72629,-0.56592345,-2.5200782,-3.2653804,-0.38874245,0.05341942,-0.27612245,22.8125,22.4375,22.25,22.625,22.3125,22.4375
0.028053842,-0.93799394,-1.3472283,-0.5662198,-0.08029521,0.0586147,-0.03688489,-0.38157597,-0.34954777,0.059808675,-3.078327,0.62477744,-0.0005962228,-0.011217611,-0.0012371197,-0.00085403345,0.003081784,-0.0028116186,0.0033275073,0.47912738,-1.4231101,1.9547509,-2.1003516,-1.5707577,2.454045,-0.0072524995,0.024267787,-0.027365493,0.0070172027,-0.0014878202,-0.010560746,-0.51714754,0.47884035,-9.864111,0.8023209,47.719128,-0.49515682,-2.4421937,-3.2537923,-0.37730348,0.0728831,-0.2709468,22.8125,22.4375,22.25,22.625,22.3125,22.4375
0.030053657,-1.2825861,-0.7317322,-0.53340423,-0.05358033,0.038389366,-0.040552016,-0.3816495,-0.34957254,0.05985954,-3.0784013,0.62479264,-0.00044968515,-0.013073029,-0.0018349086,-0.0006185589,0.0022983737,-0.0013490985,0.0031754829,0.47910315,-1.423085,1.9546059,-2.100352,-1.5707577,2.454021,-0.007919986,0.02700838,-0.030820161,0.00607212,-0.0014755076,-0.011074066,-0.38307226,0.4213795,-9.768343,0.8224646,47.717335,-0.6019265,-2.4954097,-3.23771,-0.37367648,0.057307072,-0.29046738,22.8125,22.4375,22.25,22.625,22.3125,22.4375
0.0320543,-0.83634514,0.3130346,-0.38409126,-0.03416902,0.04812974,-0.06299471,-0.38165218,-0.3495739,0.05982185,-3.0783644,0.6247467,-0.0005380823,-0.014485439,-0.0022376054,-0.0007404305,0.0020393399,-0.0010329875,0.0032489887,0.47910303,-1.4229878,1.9545811,-2.100352,-1.5707577,2.453997,-0.0085657,0.029889256,-0.033757217,0.005727978,-0.0013996853,-0.0117913475,-0.24899697,0.2873042,-9.730036,0.7978386,47.746887,-0.6409147,-2.5801127,-3.1602273,-0.3350697,0.04119293,-0.30525208,22.8125,22.4375,22.25,22.625,22.3125,22.4375
0.034054164,-0.37119824,0.84618115,-0.30337644,-0.021748768,0.051365703,-0.08171556,-0.38170117,-0.34956318,0.059815753,-3.0783277,0.62479717,-0.000528189,-0.016255459,-0.0022970662,-7.0088616e-05,0.0013254115,0.0003864479,0.0027630518,0.4790544,-1.4229034,1.9544958,-2.1003397,-1.5707821,2.4539845,-0.010080561,0.031153122,-0.0367725,0.0058902283,-0.0014273342,-0.01281853,-0.15322891,0.019153614,-9.672575,0.73069996,47.74868,-0.5609817,-2.5354977,-3.1406388,-0.32382923,0.018987281,-0.29313898,22.8125,22.4375,22.25,22.625,22.3125,22.4375
0.036053658,-0.734237,0.47354287,-0.30907574,0.0021274523,0.024870554,-0.08930134,-0.38174152,-0.34958184,0.05982164,-3.0783474,0.6248206,-0.0005116121,-0.017323323,-0.0026220577,0.0003873555,0.00095971575,0.00097185763,0.0029184711,0.47904223,-1.4228309,1.9543995,-2.1003392,-1.5707701,2.4539845,-0.010526086,0.032433514,-0.039442535,0.0065916493,-0.0013768033,-0.013418215,-0.19153613,-0.019153614,-9.672575,0.7597976,47.754948,-0.62360686,-2.541531,-3.0920472,-0.29274866,0.016588757,-0.2923878,22.8125,22.4375,22.25,22.625,22.3125,22.4375
0.03805338,-0.34544465,0.8745942,-0.18011557,0.005004759,0.025928894,-0.09987999,-0.38178846,-0.34960622,0.059841484,-3.0784028,0.62477255,-0.0004254373,-0.018106231,-0.0025185768,-0.00012456311,0.0017962316,-0.0004760212,0.002878723,0.47904196,-1.4227821,1.9543036,-2.100363,-1.5707701,2.4539473,-0.011385515,0.035225917,-0.041729856,0.0077571883,-0.0014534731,-0.014236488,-0.1340753,-0.11492168,-9.595961,0.80679786,47.747787,-0.6212987,-2.514092,-3.1009812,-0.29444677,0.021699805,-0.30197096,22.8125,22.4375,22.25,22.625,22.3125,22.4375
0.04005425,-0.22285344,0.65776527,-0.21838313,0.01561404,0.02795875,-0.10408588,-0.38181892,-0.34959263,0.059837222,-3.0783641,0.62486106,-0.00049577514,-0.019193854,-0.0022687258,-0.00016593358,0.0022693751,-0.0011294035,0.0022988115,0.4789816,-1.4227211,1.9542302,-2.100303,-1.5707577,2.453947,-0.012754864,0.03720025,-0.04418401,0.0090353405,-0.0015757527,-0.015024327,-0.076614454,-0.15322891,-9.461885,0.7329411,47.711964,-0.5866786,-2.5477204,-3.061665,-0.26931176,-0.0015477845,-0.31543237,22.8125,22.4375,22.25,22.625,22.3125,22.4375
0.04205378,0.07925657,0.5763415,-0.18359058,0.017553126,0.033704955,-0.10293428,-0.3818425,-0.34961376,0.059842996,-3.0783994,0.62467533,-0.0004688059,-0.01963786,-0.0021360007,0.0009271509,0.0025082321,-0.00018819,0.0032512788,0.47900555,-1.4226614,1.9541458,-2.10029,-1.5707706,2.4538507,-0.012982502,0.036032896,-0.04582363,0.011119119,-0.0022206453,-0.016202945,-0.095768064,-0.19153613,-9.519346,0.7597976,47.733456,-0.59967077,-2.4708703,-3.1320457,-0.28193057,-0.016056752,-0.3065518,22.8125,22.4375,22.25,22.625,22.3125,22.4375
0.04405379,-0.2793556,0.4408361,-0.12022836,0.015243986,0.026665596,-0.09251269,-0.3818728,-0.34959596,0.059827756,-3.0783167,0.62475544,-0.00050625956,-0.021045893,-0.0019169536,0.0012795321,0.0027654036,0.00061679987,0.002706756,0.47896907,-1.422577,1.9540733,-2.1002424,-1.5708064,2.4538748,-0.014281159,0.03736305,-0.04827049,0.011641334,-0.002825387,-0.016954387,-0.19153613,-0.05746084,-9.557653,0.7777002,47.766594,-0.5981215,-2.3703299,-3.1226606,-0.2949695,-0.040654466,-0.28609556,22.8125,22.4375,22.25,22.625,22.3125,22.4375
0.046053268,-0.15154217,0.5320749,0.1416382,-0.0017673965,0.03781493,-0.10425366,-0.3819406,-0.34961084,0.05986365,-3.0783598,0.62476397,-0.00042025014,-0.021631915,-0.0016734329,0.00054677005,0.0043021124,-0.00060782686,0.0025667148,0.47893292,-1.422528,1.9539298,-2.100218,-1.5708069,2.4538386,-0.01473491,0.04010835,-0.04988677,0.012310067,-0.0036257885,-0.017265603,-0.15322891,0.076614454,-9.461885,0.7239871,47.73077,-0.6042855,-2.4559503,-3.200552,-0.30080217,-0.014809413,-0.27511263,22.8125,22.4375,22.25,22.625,22.3125,22.4375
0.04805392,-0.5967447,-0.33471432,-0.09789137,-0.00892311,0.03397673,-0.09100426,-0.38195407,-0.34961525,0.059842266,-3.0783243,0.62475795,-0.00052002934,-0.022845358,-0.0013581407,0.001096818,0.0044125332,0.0009665749,0.0010433611,0.47892046,-1.4224318,1.9538578,-2.1001704,-1.5707949,2.453827,-0.015879013,0.04031797,-0.05137128,0.012241814,-0.0044537224,-0.016883617,-0.05746084,0.15322891,-9.557653,0.75755644,47.70659,-0.60461897,-2.37029,-3.2635612,-0.28870264,-0.028379187,-0.26033014,22.8125,22.4375,22.25,22.625,22.3125,22.4375
0.05005394,-0.6086869,-0.73685175,-0.1931789,-0.026226064,0.03874441,-0.084343694,-0.38201678,-0.3496076,0.059861638,-3.078308,0.6247742,-0.00045342476,-0.024462344,-0.0020283505,0.0019498097,0.003905645,0.0032628141,0.00044404814,0.4788726,-1.4223714,1.9537362,-2.1001341,-1.5708317,2.4537914,-0.015786942,0.041741915,-0.054915864,0.012092507,-0.005069145,-0.016189083,-0.17238252,0.15322891,-9.576807,0.75084364,47.741516,-0.60735565,-2.3162646,-3.1848965,-0.28029826,-0.03909334,-0.28140745,22.8125,22.4375,22.25,22.625,22.3125,22.4375
0.052053448,-0.7797795,-1.1567304,-0.21138763,-0.03504135,0.035186674,-0.076767385,-0.38204357,-0.34960997,0.059824303,-3.0782847,0.62482774,-0.0005383308,-0.024225391,-0.001330474,0.0009844444,0.005735522,0.0013722195,-4.8980968e-05,0.47883624,-1.4222506,1.953689,-2.100158,-1.5708073,2.4537914,-0.016315652,0.0431281,-0.05445299,0.012767469,-0.0058203773,-0.016223107,-0.30645782,0.38307226,-9.634268,0.7172743,47.687782,-0.61807346,-2.358459,-3.2245164,-0.28568858,-0.022541359,-0.29195455,22.8125,22.4375,22.25,22.625,22.3125,22.4375
0.05405416,-0.7166694,-1.5480591,-0.35106725,-0.029850667,0.03621229,-0.08220371,-0.38209575,-0.34961006,0.05984493,-3.0782886,0.62480885,-0.00053736713,-0.025245834,-0.0015953004,0.0012503539,0.0060376646,0.0025151821,7.819643e-05,0.47878838,-1.4221902,1.9535564,-2.1000865,-1.5708078,2.4537313,-0.016269969,0.044538483,-0.056656912,0.012688377,-0.006620157,-0.016301615,-0.15322891,0.4405331,-9.557653,0.7709874,47.731667,-0.6636108,-2.2008166,-3.3798418,-0.28101125,-0.02865807,-0.25222734,22.8125,22.4375,22.25,22.625,22.3125,22.4375
0.056053847,-0.8464403,-1.2954488,-0.08675145,-0.03831254,0.033576235,-0.08590217,-0.38214624,-0.34962317,0.059854303,-3.0782914,0.6247314,-0.00047195266,-0.026296837,-0.001750243,0.0013946613,0.0064999615,0.0033666035,0.00072836975,0.4787883,-1.4221053,1.9534353,-2.1000745,-1.570844,2.4536827,-0.01644415,0.046180934,-0.05887556,0.012724028,-0.0074275048,-0.017123127,-0.095768064,0.40222588,-9.5385,0.7933669,47.704796,-0.64630675,-2.256937,-3.4077964,-0.2777331,-0.029620655,-0.25234345,22.8125,22.4375,22.25,22.625,22.3125,22.4375
0.05805372,-0.5834881,-1.3512688,-0.23690847,-0.039341345,0.033144113,-0.07768918,-0.38221675,-0.34963027,0.059866935,-3.078304,0.62479085,-0.00045438806,-0.028836874,-0.002685408,0.0031426535,0.004727973,0.007480724,0.0009944204,0.47872818,-1.422009,1.9532908,-2.1000502,-1.5708326,2.453658,-0.016916538,0.047069386,-0.063789055,0.012281984,-0.0077615003,-0.017858407,-0.1340753,0.5554548,-9.481039,0.78888994,47.71286,-0.64599276,-2.1474783,-3.236212,-0.26718467,-0.013268584,-0.2450675,22.8125,22.4375,22.25,22.625,22.3125,22.4375
0.060053397,-0.6613131,-1.3870077,-0.014784482,-0.040290035,0.034551322,-0.08966993,-0.38228074,-0.3496371,0.059878416,-3.078294,0.6247697,-0.00039276545,-0.027491195,-0.0021046172,0.0013916396,0.0066012605,0.003965377,0.0010889205,0.4787042,-1.4219124,1.9531487,-2.1000264,-1.5708684,2.4536223,-0.016674241,0.048509356,-0.061494816,0.012530226,-0.0077988594,-0.017711673,-0.21068975,0.5554548,-9.385271,0.7642693,47.694946,-0.71164507,-2.101418,-3.4240348,-0.26362908,-0.024783082,-0.24626473,22.8125,22.4375,22.25,22.625,22.3125,22.4375
0.06205422,-0.14865027,-1.0158039,0.004263639,-0.048130356,0.041808043,-0.08810912,-0.382355,-0.34965125,0.05989189,-3.0782971,0.6248287,-0.00033631187,-0.029373083,-0.00251247,0.0021987867,0.0055267336,0.0055786897,-0.0002726369,0.4786679,-1.4218037,1.9529909,-2.1000144,-1.5708798,2.4536226,-0.017820846,0.05007788,-0.065180495,0.012719296,-0.0075949077,-0.017495379,-0.05746084,0.57460845,-9.404425,0.7284641,47.705692,-0.6145642,-2.0208235,-3.4626896,-0.26201886,-0.03329952,-0.22975063,22.8125,22.4375,22.25,22.625,22.3125,22.4375
0.06405385,-0.63608164,-1.2968662,0.2001734,-0.041092977,0.01997879,-0.0890962,-0.38238248,-0.34966558,0.059910953,-3.078327,0.62471896,-0.00032226718,-0.03066384,-0.0032534825,0.00260411,0.0048096245,0.0065572322,-7.756756e-05,0.47866789,-1.4217671,1.9528946,-2.0999663,-1.5708798,2.4535503,-0.017818417,0.052112363,-0.068440475,0.012745222,-0.0074159605,-0.017686523,0.0,0.49799395,-9.423578,0.7911258,47.71823,-0.7313156,-2.0039096,-3.3373318,-0.23730704,-0.035580643,-0.24057809,22.8125,22.4375,22.25,22.625,22.3125,22.4375
0.0660541,-0.26005155,-0.90001523,0.111582406,-0.04128878,0.0191731,-0.0788648,-0.38247013,-0.3496774,0.059923843,-3.0783374,0.6248169,-0.0002654758,-0.031037657,-0.003338576,0.0024522715,0.0048341164,0.0061885305,0.00038134627,0.47860774,-1.4216466,1.9527272,-2.0999663,-1.5708798,2.45355,-0.01810315,0.053231277,-0.06942509,0.012948307,-0.0072688325,-0.018430185,-0.076614454,0.38307226,-9.308656,0.78888994,47.716442,-0.6600231,-1.9868741,-3.4412036,-0.23184744,-0.060421444,-0.23695444,22.8125,22.4375,22.25,22.625,22.3125,22.4375
0.06805358,0.0034014005,-0.36042905,0.24973413,-0.03294112,0.02514285,-0.09039659,-0.3825388,-0.3496835,0.059924394,-3.0783465,0.62481844,-0.00027683907,-0.03263881,-0.0034663565,0.002591393,0.0048657507,0.007139959,0.00016666217,0.47854754,-1.4215256,1.9525822,-2.0999424,-1.5708684,2.4534898,-0.019045968,0.055528082,-0.072324544,0.012722286,-0.0077419295,-0.019155584,-0.019153614,0.3256114,-9.251195,0.7732232,47.709274,-0.6865289,-1.9329195,-3.5197072,-0.21630977,-0.061708592,-0.22674492,22.8125,22.4375,22.25,22.625,22.3125,22.4375
0.07005418,-0.45201063,-0.5511584,0.15126008,-0.006894216,0.016758904,-0.08132709,-0.3825904,-0.3497107,0.059921,-3.0783443,0.6247217,-0.00022740835,-0.03331356,-0.0031511781,0.0025304744,0.0072346088,0.007956724,0.0012061938,0.4785717,-1.421393,1.9524382,-2.099942,-1.5709051,2.453454,-0.01862115,0.056932047,-0.07392755,0.013295554,-0.010223088,-0.019764787,-0.038307227,0.24899697,-9.251195,0.7777002,47.74868,-0.6882037,-1.9530187,-3.4479177,-0.21247567,-0.04861597,-0.20503382,22.8125,22.4375,22.25,22.625,22.3125,22.4375
0.072053805,-0.6135667,-0.04378211,0.12518404,-0.0049188803,0.0125902295,-0.078487545,-0.3826651,-0.34972477,0.05992262,-3.0783417,0.6247587,-0.00018753675,-0.03458823,-0.0032904318,0.0025216558,0.00793179,0.00871982,0.0023686052,0.47853556,-1.42126,1.9522823,-2.099942,-1.5709175,2.4534414,-0.01891715,0.059260793,-0.07656879,0.013254205,-0.011199142,-0.021219933,-0.076614454,0.21068975,-9.212888,0.7329411,47.737934,-0.6859638,-1.927121,-3.537362,-0.17653781,-0.024365023,-0.19903514,22.8125,22.4375,22.25,22.625,22.3125,22.4375
0.07405335,-0.7657249,-0.32308173,0.32298732,0.0026038517,0.01024067,-0.07807804,-0.38275853,-0.3497262,0.059953988,-3.0783367,0.6247961,-9.287025e-05,-0.03591782,-0.0033463314,0.0030094949,0.008295277,0.009283366,0.0021457467,0.47847518,-1.4211634,1.9520892,-2.0998938,-1.5709537,2.4534051,-0.019661862,0.06085984,-0.079816036,0.014570023,-0.011784157,-0.021739662,-0.095768064,0.2681506,-9.193734,0.8314132,47.728977,-0.69920826,-1.8973398,-3.3417833,-0.17407878,-0.024499636,-0.21092567,22.8125,22.4375,22.25,22.625,22.3125,22.4375
0.0760537,-0.38752845,-0.22344835,0.22840293,-0.004992897,0.015696187,-0.08510808,-0.3828291,-0.3497137,0.05994251,-3.0782921,0.62484366,-0.00010069284,-0.035242215,-0.0030625423,0.0017889475,0.009671633,0.0063399486,0.0022297641,0.47840327,-1.4210306,1.9519581,-2.09987,-1.5709776,2.4533687,-0.019622996,0.06272705,-0.07938815,0.015519654,-0.011648097,-0.02178488,-0.05746084,0.24899697,-9.155427,0.82022345,47.713753,-0.73304844,-1.9322236,-3.6002257,-0.14614637,-0.024572473,-0.189394,22.8125,22.4375,22.25,22.625,22.3125,22.4375
0.07805359,-0.5354892,-0.513019,0.16921367,-0.0017244525,0.0077371704,-0.083533876,-0.38289312,-0.34974262,0.05996465,-3.0783372,0.6248336,-8.1301536e-05,-0.03702033,-0.004306608,0.0027623414,0.007806954,0.007202564,0.0028326134,0.4783792,-1.4209337,1.9517883,-2.0998333,-1.5709528,2.4533327,-0.01987014,0.065162905,-0.08468549,0.016752386,-0.010397879,-0.0226348,-0.11492168,0.22984336,-9.193734,0.74413085,47.752266,-0.7599384,-1.8717799,-3.5287657,-0.15096468,-0.046316475,-0.19082206,22.8125,22.4375,22.25,22.625,22.3125,22.4375
0.08005421,-0.041910373,-0.20606741,0.2152869,-0.013569206,0.017820973,-0.08968095,-0.38297236,-0.34976378,0.05997912,-3.0783415,0.62477595,-4.343009e-06,-0.037312355,-0.0041005546,0.0017477593,0.009223671,0.0050524427,0.0034301882,0.47836715,-1.4208003,1.9515971,-2.099809,-1.5709895,2.4532843,-0.020328674,0.06817598,-0.08602577,0.017640144,-0.0106661795,-0.023689827,-0.076614454,0.28730422,-9.155427,0.8493211,47.765697,-0.73170453,-2.012726,-3.4436831,-0.13940015,-0.054492336,-0.17318526,22.8125,22.4375,22.25,22.625,22.3125,22.4375
0.08205354,-0.5585867,-0.31288272,-0.010612569,-0.008274239,0.013835692,-0.07734713,-0.38303912,-0.34977147,0.05996199,-3.0783052,0.6247683,-7.744608e-05,-0.038536236,-0.004791282,0.0035225088,0.007731473,0.008100455,0.00444554,0.47831902,-1.4206207,1.9514169,-2.0997488,-1.5709895,2.453236,-0.020175265,0.06703762,-0.08893782,0.01829726,-0.010750898,-0.024549872,-0.15322891,0.22984336,-9.232041,0.75084364,47.762115,-0.79336166,-1.8196537,-3.50205,-0.13673142,-0.037011545,-0.16595477,22.8125,22.4375,22.25,22.625,22.3125,22.4375
0.08405422,-0.9426941,-0.78439033,-0.073041245,0.0039182096,0.02152673,-0.0732211,-0.38310954,-0.3497681,0.059956606,-3.0782633,0.6247981,-5.681981e-05,-0.03939085,-0.005312094,0.0033008058,0.008190884,0.007327936,0.003911875,0.47827116,-1.4204876,1.9512714,-2.0997245,-1.5710253,2.4532123,-0.02000263,0.070074424,-0.09216268,0.019381715,-0.010807511,-0.02384149,-0.1340753,0.22984336,-9.289502,0.79560274,47.771965,-0.77647465,-1.8147312,-3.4230962,-0.1347879,-0.049980126,-0.1520698,22.8125,22.4375,22.25,22.625,22.3125,22.4375
0.08605429,-1.1865472,-0.499008,-0.02615032,-0.007894758,0.028119246,-0.081178896,-0.38316917,-0.3498058,0.059983734,-3.0782955,0.62470907,-2.9504381e-05,-0.040187545,-0.004957283,0.0023800768,0.010365821,0.006134147,0.0029604384,0.47828302,-1.4203782,1.9510678,-2.0996525,-1.5710257,2.4531646,-0.02047044,0.07350346,-0.094128296,0.019984514,-0.012191134,-0.023354186,-0.19153613,0.28730422,-9.423578,0.7597976,47.747787,-0.8752834,-1.9442511,-3.4724467,-0.12838857,-0.039088134,-0.14846829,22.8125,22.4375,22.25,22.625,22.3125,22.4375
0.08805388,-0.9063827,-1.0446291,-0.08631664,-0.018095693,0.048606586,-0.07453277,-0.383258,-0.3498021,0.059969,-3.0782719,0.62476176,-8.474867e-05,-0.041365765,-0.005019671,0.0036822886,0.009376383,0.008141633,0.0030376192,0.47818673,-1.4201986,1.9508876,-2.0996168,-1.5710138,2.4531043,-0.021404184,0.07260447,-0.09626804,0.020784529,-0.012240397,-0.024363857,-0.22984336,0.30645782,-9.442732,0.7866488,47.746887,-0.77793956,-1.7346029,-3.499605,-0.12063742,-0.038281314,-0.17814994,22.8125,22.4375,22.25,22.625,22.3125,22.4375
0.09005354,-1.3537567,-1.159838,-0.26649833,-0.02929646,0.034473717,-0.07760751,-0.3833555,-0.34981066,0.0599958,-3.0782552,0.6247179,1.5577134e-05,-0.041856714,-0.0050102845,0.0031667198,0.010593674,0.0065287934,0.0037836458,0.47815073,-1.4200654,1.9506601,-2.0995562,-1.5710739,2.4530432,-0.021649538,0.07529387,-0.09853437,0.022352422,-0.012579735,-0.0253538,-0.21068975,0.36391866,-9.500193,0.7933669,47.719128,-0.8495898,-1.7262876,-3.506061,-0.11886659,-0.041264556,-0.14539543,22.8125,22.4375,22.25,22.625,22.3125,22.4375
0.09205331,-1.0359259,-1.2943367,-0.16927077,-0.038833857,0.040529676,-0.08022783,-0.3834152,-0.34982562,0.059987932,-3.078245,0.6247355,-2.7404121e-05,-0.042544603,-0.0050380384,0.0029455593,0.011245773,0.005191348,0.0041110017,0.4781143,-1.4199204,1.9505037,-2.0995195,-1.571062,2.4530191,-0.022252902,0.07762408,-0.10110026,0.024074918,-0.012545873,-0.02628298,-0.28730422,0.3256114,-9.557653,0.8023209,47.73077,-0.7458432,-1.7485745,-3.5075445,-0.12824723,-0.024767969,-0.13048044,22.8125,22.4375,22.25,22.625,22.3125,22.4375
0.09405391,-0.6086984,-1.079207,-0.23916963,-0.04627069,0.043594252,-0.08536944,-0.38350695,-0.349838,0.059995223,-3.0782108,0.6246321,1.6619313e-05,-0.04341059,-0.005319788,0.0027386209,0.011860881,0.0050024204,0.0039702067,0.47809032,-1.4197394,1.9502634,-2.099448,-1.571122,2.4529352,-0.022249345,0.08011227,-0.10359348,0.024530595,-0.013009699,-0.026136098,-0.2681506,0.40222588,-9.5385,0.7978386,47.707485,-0.8121953,-1.716841,-3.539988,-0.115785725,-0.0372705,-0.13683398,22.8125,22.4375,22.25,22.625,22.3125,22.4375
0.09605367,-1.1415695,-1.4573717,-0.5040363,-0.02971434,0.033714417,-0.07541336,-0.3836002,-0.3498526,0.060014345,-3.0782137,0.62472886,5.9986593e-05,-0.044728413,-0.0054748836,0.0028369674,0.012575579,0.006260124,0.0034476076,0.47803044,-1.4196063,1.9500593,-2.0994122,-1.5711225,2.4529355,-0.022394868,0.08219688,-0.10614233,0.024210755,-0.01422811,-0.025755625,-0.28730422,0.4405331,-9.557653,0.779936,47.741516,-0.8878328,-1.7274778,-3.5040889,-0.10564536,-0.02217754,-0.15515094,22.8125,22.4375,22.25,22.625,22.3125,22.4375
0.09805429,-1.15201,-1.3069098,-0.32068324,-0.027039265,0.037340827,-0.077926055,-0.383702,-0.34986535,0.060026765,-3.0782044,0.6246305,9.383852e-05,-0.046130892,-0.0060648923,0.0030254324,0.012788533,0.0069324165,0.003833615,0.47798246,-1.4194254,1.949807,-2.0993397,-1.5711588,2.4528275,-0.022311484,0.085000545,-0.10990188,0.024667729,-0.014733657,-0.026055127,-0.21068975,0.38307226,-9.634268,0.84484416,47.716442,-0.90386844,-1.8257153,-3.4634247,-0.09228298,-0.013770444,-0.15327018,22.8125,22.4375,22.25,22.625,22.3125,22.4375
0.10005404,-0.8551325,-0.30218974,-0.08070218,-0.039289873,0.041401654,-0.08084068,-0.3837841,-0.34989464,0.060025916,-3.078219,0.6246339,0.0001207796,-0.04690607,-0.006033965,0.0023708853,0.013175028,0.005762047,0.0034359042,0.4779582,-1.419256,1.9496149,-2.0993397,-1.5711583,2.4528036,-0.023200091,0.08775375,-0.11161591,0.02484424,-0.014541371,-0.026545491,-0.17238252,0.34476504,-9.500193,0.7709874,47.704796,-0.88314414,-1.7743585,-3.4484262,-0.083782196,-0.007157331,-0.13892138,22.8125,22.4375,22.25,22.625,22.3125,22.4375
0.102054246,-0.24096228,-0.09777332,-0.21661837,-0.039120883,0.045797233,-0.08755519,-0.38388517,-0.34990245,0.060036216,-3.0781903,0.6246273,0.00018153738,-0.04907274,-0.0070868386,0.0021902274,0.011870817,0.005223236,0.002600581,0.47790962,-1.4190862,1.949386,-2.099292,-1.571206,2.4527547,-0.024231028,0.09287026,-0.117146276,0.02512954,-0.013146537,-0.02674034,-0.21068975,0.40222588,-9.5385,0.7777002,47.755844,-0.8562671,-1.6636996,-3.2185693,-0.06852686,-0.017940022,-0.14369234,22.8125,22.4375,22.25,22.625,22.3125,22.4375
0.104054,-0.3262776,-0.52596945,-0.22496352,-0.03157114,0.03394565,-0.08595226,-0.38398996,-0.34992784,0.06004589,-3.078182,0.6246448,0.00023234737,-0.049462005,-0.0070108897,0.0017298347,0.012591942,0.0042104213,0.0025628733,0.47787362,-1.4188933,1.9491347,-2.0992558,-1.5712303,2.452731,-0.024603253,0.0947401,-0.11839248,0.025736228,-0.013321926,-0.027074082,-0.2681506,0.36391866,-9.461885,0.7642693,47.763905,-0.86119616,-1.8022906,-3.4178138,-0.05513533,-0.018963354,-0.16967073,22.8125,22.4375,22.25,22.625,22.3125,22.4375
0.10605405,-0.6606057,-0.7662372,-0.23961347,-0.03524426,0.026210302,-0.07836615,-0.38407737,-0.34992403,0.060035247,-3.0781229,0.62465185,0.000180781,-0.050543938,-0.007467802,0.0010404185,0.013752704,0.0026946003,0.0021847475,0.47780168,-1.4186996,1.9489177,-2.0991714,-1.5712541,2.452671,-0.02456506,0.09927938,-0.12232954,0.027013741,-0.0136628775,-0.026653945,-0.24899697,0.34476504,-9.519346,0.78888994,47.690468,-0.89452267,-1.833584,-3.229579,-0.055137873,-0.021352775,-0.14516348,22.8125,22.4375,22.25,22.625,22.3125,22.4375
0.10805331,-0.86382276,-1.0105494,-0.14543854,-0.033212725,0.021574983,-0.079785146,-0.38418522,-0.3499348,0.06005237,-3.0781384,0.6246362,0.0002342783,-0.051621936,-0.007289975,0.0009096769,0.014634911,0.0022326703,0.0010416665,0.47772938,-1.4185425,1.9486903,-2.0991352,-1.5712665,2.4525871,-0.025490575,0.10155947,-0.12491415,0.02813502,-0.014236233,-0.026434422,-0.22984336,0.38307226,-9.442732,0.7933669,47.682407,-0.94526196,-2.0480416,-3.2613292,-0.045856714,-0.024057386,-0.17354015,22.8125,22.4375,22.25,22.625,22.3125,22.4375
0.1100541,-0.54404193,-1.3902606,-0.06691634,-0.030207025,0.037851684,-0.07873546,-0.38427702,-0.34996018,0.06005695,-3.078109,0.6246117,0.00022764051,-0.052460782,-0.0073690056,0.000985795,0.014351363,0.0015555645,0.00026160642,0.477705,-1.418338,1.9484261,-2.0990512,-1.5712904,2.4525514,-0.026478032,0.10314683,-0.12719078,0.0292921,-0.013676212,-0.026641387,-0.17238252,0.49799395,-9.423578,0.84708,47.70838,-0.8498342,-1.9300576,-3.2775583,-0.048610605,-0.028780222,-0.20442605,22.8125,22.4375,22.25,22.625,22.3125,22.4375
0.11205392,-1.4583747,-1.415051,0.052632734,-0.037294958,0.023484578,-0.07373212,-0.3844226,-0.34999576,0.060096677,-3.0781407,0.6245782,0.00036458418,-0.053019118,-0.007968749,0.0012862949,0.0142869,0.0014732574,0.0004905522,0.47765723,-1.4181331,1.9480895,-2.0990026,-1.5713266,2.452479,-0.025982805,0.10461398,-0.12986177,0.030537648,-0.013581977,-0.026375143,-0.19153613,0.53630114,-9.346964,0.7597976,47.688675,-0.9079375,-1.8763989,-3.3653345,-0.050590836,-0.023282275,-0.18207482,22.8125,22.4375,22.25,22.625,22.3125,22.4375
0.11405345,-1.0088996,-1.370441,0.25125533,-0.045296215,0.034100886,-0.073413655,-0.3845357,-0.3500075,0.06008967,-3.0781214,0.6246699,0.00036055426,-0.052422732,-0.008261484,0.00011820334,0.014831209,-0.001224832,0.0009902425,0.47757354,-1.417916,1.9478511,-2.0989788,-1.5713261,2.452455,-0.025394935,0.10694913,-0.12999624,0.030979568,-0.012825034,-0.026287945,-0.19153613,0.47884035,-9.251195,0.7709874,47.734352,-0.9608878,-1.8570867,-3.308751,-0.038240448,-0.016549576,-0.19351771,22.8125,22.4375,22.25,22.625,22.3125,22.4375
0.116054006,-1.3152196,-1.4474375,0.37992054,-0.043590393,0.022635693,-0.07295036,-0.38464087,-0.3500292,0.060107,-3.0780973,0.6245499,0.0004462224,-0.055276636,-0.009397342,0.0019878873,0.012365114,0.003317793,0.00060150767,0.4775612,-1.4177237,1.9475745,-2.0989072,-1.5713977,2.4523711,-0.026064487,0.10802846,-0.13530838,0.030041963,-0.0127361715,-0.026566185,-0.21068975,0.45968673,-9.270349,0.7933669,47.705692,-0.9696861,-1.7697089,-3.2374814,-0.022309985,-0.027940549,-0.21559018,22.8125,22.4375,22.25,22.625,22.3125,22.4375
0.118053965,-0.84596515,-1.2654047,0.31972802,-0.040382914,0.022340516,-0.074832685,-0.38475567,-0.3500504,0.06011876,-3.0780725,0.62466073,0.0004705504,-0.055219207,-0.008958701,0.000531199,0.012859872,0.0002468642,-0.0005829377,0.47750065,-1.4175187,1.9472989,-2.0988472,-1.5714096,2.452383,-0.027402429,0.11065925,-0.13503274,0.030085607,-0.011763542,-0.026721267,-0.17238252,0.45968673,-9.232041,0.7463667,47.703007,-0.9911771,-1.8717638,-3.4129548,0.0031045303,-0.015441069,-0.22899845,22.8125,22.4375,22.25,22.625,22.3125,22.4375
0.12005377,-0.18997863,-0.31294814,0.50044847,-0.039456494,0.019961424,-0.08685676,-0.38485807,-0.35008317,0.06012649,-3.0780978,0.6245694,0.0004835627,-0.055786915,-0.00898713,0.00047442457,0.013262937,-0.0004255611,-0.0005175995,0.47746462,-1.4173138,1.9470352,-2.098799,-1.5714101,2.452287,-0.027832791,0.112183034,-0.13693757,0.03124847,-0.011814007,-0.027216095,-0.11492168,0.34476504,-9.193734,0.8224646,47.72719,-0.9246831,-1.7567343,-3.36591,0.0008396462,-0.02959519,-0.23204541,22.8125,22.4375,22.25,22.625,22.3125,22.4375
0.12205343,-0.5971708,-0.42398006,0.5770813,-0.015172843,0.0035579423,-0.0828567,-0.3849839,-0.3501036,0.06011545,-3.0780697,0.6246211,0.00047810937,-0.056506537,-0.009341532,-3.0723528e-05,0.013392965,-0.0007333895,5.573498e-05,0.4773926,-1.4170485,1.9467477,-2.0987632,-1.571422,2.452251,-0.02786912,0.114753164,-0.13864146,0.030713676,-0.011793981,-0.027824359,-0.15322891,0.2681506,-9.021352,0.8224646,47.72002,-0.97322404,-1.7296889,-3.4663615,0.035596337,-0.035933226,-0.25867277,22.8125,22.4375,22.25,22.625,22.3125,22.4375
0.12405403,-0.27501768,0.23056811,0.69860345,-0.006185542,0.007004693,-0.08010797,-0.3851311,-0.35013124,0.06014154,-3.0780833,0.62458444,0.00063642114,-0.057437677,-0.00947269,-0.0010507783,0.014265969,-0.0030769324,1.4514557e-05,0.47734424,-1.4168308,1.9464353,-2.0987508,-1.5714811,2.4521782,-0.028675131,0.11919307,-0.14167874,0.03178976,-0.011494971,-0.028588677,-0.076614454,0.21068975,-8.90643,0.82694155,47.71286,-0.9714157,-1.8502476,-3.4370437,0.049756188,-0.030628435,-0.2920609,22.8125,22.4375,22.25,22.625,22.3125,22.4375
0.12605405,-0.1343383,0.5472921,0.8019222,0.010512224,0.006229534,-0.085701644,-0.38525513,-0.35016555,0.06015051,-3.078105,0.6246655,0.00058865134,-0.058337014,-0.009328868,0.001045918,0.013124629,-0.00053992344,0.00027087872,0.47726005,-1.4165918,1.946124,-2.0986784,-1.5714334,2.452142,-0.02963789,0.1162114,-0.14353594,0.033850845,-0.011646798,-0.02980755,-0.038307227,0.22984336,-8.848969,0.7777002,47.721813,-1.0074179,-1.7626954,-3.4343958,0.054821037,-0.038537487,-0.27666667,22.8125,22.4375,22.25,22.625,22.3125,22.4375
0.12805372,-0.016108291,0.99672186,0.9943164,0.009129101,0.0052419617,-0.08679804,-0.385342,-0.35017976,0.060144264,-3.078056,0.62459713,0.00058691244,-0.059039116,-0.0096158,-0.0006418156,0.014593969,-0.004260722,0.0006405196,0.47723597,-1.4163853,1.9458846,-2.0986059,-1.5714811,2.4520817,-0.030029343,0.12220504,-0.14689542,0.035192862,-0.0112485625,-0.030566566,0.0,0.21068975,-8.734048,0.8537928,47.745995,-1.0092303,-1.7707572,-3.3986745,0.058217917,-0.034511328,-0.280934,22.8125,22.4375,22.25,22.625,22.3125,22.4375
0.13005367,-0.50826067,0.07952416,0.6501274,0.028078549,-0.007847103,-0.06947971,-0.38546768,-0.35018837,0.06012378,-3.0780013,0.62458575,0.00053840724,-0.060031604,-0.009537325,0.00026456764,0.014390084,-0.0025419956,0.0004845419,0.47715172,-1.4160972,1.9455842,-2.0985343,-1.5715059,2.4519975,-0.030666137,0.121755205,-0.14860193,0.03572896,-0.0118620675,-0.031045057,-0.05746084,0.038307227,-8.7532015,0.7463667,47.73883,-0.9710333,-1.6160346,-3.4279563,0.07270557,-0.056998193,-0.29331955,22.8125,22.4375,22.25,22.625,22.3125,22.4375
0.13205455,-0.12177019,0.5888363,0.71910626,0.010365278,0.008560648,-0.08702569,-0.38558868,-0.35021967,0.060154554,-3.0780056,0.624625,0.00059057766,-0.06035628,-0.009239058,-0.00037339775,0.016093329,-0.0050384784,0.0007701615,0.4771035,-1.4159042,1.9452728,-2.0984495,-1.5715178,2.4519734,-0.03124339,0.12446846,-0.1508637,0.038276967,-0.012227307,-0.03190668,-0.05746084,0.038307227,-8.887277,0.8247004,47.745995,-1.0053816,-1.79928,-3.5127034,0.073205754,-0.054996807,-0.30468905,22.8125,22.4375,22.25,22.625,22.3125,22.4375
0.13405344,-0.3344577,0.342078,0.73537713,0.0039734347,0.010423205,-0.081763,-0.38569847,-0.35023215,0.060127567,-3.077935,0.6245513,0.0005451308,-0.059602395,-0.008782439,-0.00170923,0.018244198,-0.010239561,0.001463377,0.47705543,-1.4156148,1.9449853,-2.098376,-1.5715655,2.4518886,-0.03165719,0.12737842,-0.15208207,0.04218849,-0.011746797,-0.033013355,-0.114921674,0.038307227,-8.944737,0.78217715,47.71286,-1.0338305,-1.7336473,-3.3983283,0.053943068,-0.06535915,-0.30846548,22.8125,22.4375,22.25,22.625,22.3125,22.4375
0.1360539,-0.66323465,0.13624318,0.50165725,0.0039823856,0.004973653,-0.07981344,-0.38582942,-0.35024986,0.060125906,-3.077929,0.624588,0.0005179848,-0.061115436,-0.008792996,-0.00079926907,0.018918974,-0.00941429,0.0021317063,0.4769591,-1.4153621,1.9446849,-2.098316,-1.5715541,2.451816,-0.032373745,0.12869623,-0.15625711,0.04462391,-0.012731085,-0.034394592,-0.1340753,0.1340753,-8.983045,0.82022345,47.728977,-1.0067935,-1.7090659,-3.3213573,0.015660688,-0.051483393,-0.32413775,22.8125,22.4375,22.25,22.625,22.3125,22.4375
0.13805345,-0.78391516,-0.061791044,0.4425476,-0.0051832194,0.015528511,-0.08657408,-0.38590756,-0.3502793,0.060120456,-3.0778866,0.62444466,0.00041036107,-0.061842903,-0.0090625705,-0.00058024074,0.018841222,-0.01066937,0.0023523627,0.4769469,-1.4151213,1.9443849,-2.0981596,-1.571566,2.45172,-0.03297181,0.13053913,-0.15945715,0.047056712,-0.012091038,-0.035211947,-0.21068975,0.21068975,-9.097966,0.8247004,47.752266,-1.0016692,-1.786098,-3.3707447,-0.020089883,-0.07112082,-0.32070982,22.8125,22.4375,22.25,22.625,22.3125,22.4375
0.14005339,-0.67210984,-0.056977242,0.23989595,-0.011348548,0.025696833,-0.08987356,-0.38604188,-0.35028392,0.060118604,-3.0778112,0.62450504,0.0004089104,-0.062115405,-0.009045956,-0.0011166392,0.02076357,-0.013028185,0.0031318062,0.4768629,-1.4148557,1.9440616,-2.0980623,-1.5716141,2.4516835,-0.032831743,0.13349684,-0.16232018,0.049939044,-0.012718994,-0.035848357,-0.2873042,0.2681506,-9.174581,0.8784135,47.773754,-1.057815,-1.9375577,-3.4126546,-0.049010873,-0.08463702,-0.3236233,22.8125,22.4375,22.25,22.625,22.3125,22.4375
0.14205422,-1.0653147,-0.3975509,0.081186794,-0.012739031,0.02895563,-0.08409197,-0.38614294,-0.35030505,0.060118068,-3.0777586,0.62445575,0.00031674918,-0.061819613,-0.00863607,-0.001908496,0.022136986,-0.016101036,0.002945451,0.47681478,-1.4146031,1.9437369,-2.0979059,-1.5716256,2.4516115,-0.033394143,0.13530196,-0.16316357,0.05233569,-0.012529467,-0.03622351,-0.30645782,0.30645782,-9.308657,0.8157518,47.747787,-1.0605667,-1.6526763,-3.4532232,-0.09010549,-0.08185123,-0.3352226,22.8125,22.4375,22.25,22.625,22.3125,22.4375
0.14405464,-1.1647964,-1.2129985,-0.25457704,-0.022012558,0.037721403,-0.08260701,-0.38629097,-0.35031655,0.06012226,-3.077702,0.6245013,0.00034646518,-0.062251117,-0.008591515,-0.0018172346,0.023223627,-0.017126355,0.002569013,0.47673073,-1.4143264,1.9433898,-2.097821,-1.5716742,2.4515634,-0.033530567,0.13674715,-0.16561776,0.05475362,-0.013026622,-0.035981387,-0.40222588,0.34476504,-9.423578,0.77545905,47.746887,-1.1048791,-1.7058411,-3.3793435,-0.13402359,-0.08261819,-0.36165392,22.8125,22.4375,22.25,22.625,22.3125,22.4375
0.14605427,-1.2985898,-1.2605854,-0.21954057,-0.042336106,0.046707686,-0.08128431,-0.3864005,-0.35032836,0.060095116,-3.0776186,0.6245221,0.00022376694,-0.06279191,-0.008806745,-0.0018245033,0.02417337,-0.01833429,0.0035091059,0.4766588,-1.4140253,1.9430779,-2.0977008,-1.5716861,2.4515152,-0.03344237,0.13891001,-0.16867208,0.057152975,-0.013323726,-0.036829907,-0.4405331,0.49799395,-9.5385,0.7978386,47.770176,-1.1225891,-1.6824378,-3.4301662,-0.1801661,-0.07179298,-0.36700392,22.8125,22.4375,22.25,22.625,22.3125,22.4375
0.14805397,-1.2332997,-1.7781589,-0.31454876,-0.052990112,0.05915567,-0.08343589,-0.38653994,-0.3503462,0.06009492,-3.077585,0.6245339,0.00016230185,-0.06366842,-0.008662318,-0.0019408006,0.024972593,-0.01922348,0.0045650573,0.47656253,-1.4137363,1.9427184,-2.0975807,-1.5716861,2.4514308,-0.034280367,0.14102869,-0.17124769,0.05876453,-0.013633688,-0.038721297,-0.40222588,0.51714754,-9.5385,0.7777002,47.74868,-1.1575053,-1.7312429,-3.459669,-0.22835776,-0.09793222,-0.3564256,22.8125,22.4375,22.25,22.625,22.3125,22.4375
0.15005386,-1.3945937,-2.0487666,-0.50103056,-0.05347261,0.059337843,-0.08405843,-0.38666663,-0.35034662,0.060103036,-3.077519,0.62444264,0.00011997809,-0.064626105,-0.008584605,-0.0022462944,0.026021337,-0.019811476,0.0040421006,0.47647828,-1.4134831,1.9423703,-2.0974128,-1.5717343,2.4512982,-0.03484556,0.14360717,-0.1737627,0.059703987,-0.01430447,-0.038759634,-0.2873042,0.49799395,-9.787497,0.8493211,47.770176,-1.0868578,-1.781487,-3.430903,-0.2774703,-0.0987882,-0.38572055,22.8125,22.4375,22.25,22.625,22.3125,22.4375
0.1520542,-1.1461058,-1.6919888,-0.48175314,-0.0550988,0.05962104,-0.08309937,-0.38678777,-0.35037774,0.06008465,-3.077461,0.62441283,2.7197355e-05,-0.06585685,-0.008960896,-0.0017162533,0.025372326,-0.01829156,0.0026535906,0.47643012,-1.4131584,1.9420112,-2.0972931,-1.5717467,2.451239,-0.035211038,0.14461558,-0.17610516,0.05939023,-0.0144344205,-0.037733823,-0.30645782,0.45968673,-9.691729,0.7866488,47.752266,-1.1311816,-1.6361754,-3.5062206,-0.31277192,-0.09979163,-0.42107594,22.8125,22.4375,22.25,22.625,22.3125,22.4375
0.15405346,-0.797099,-1.2968618,-0.1682297,-0.046162423,0.058824185,-0.08255778,-0.3869324,-0.35040525,0.060099192,-3.0774617,0.62441146,2.6497208e-05,-0.066977605,-0.00942367,-0.0014559544,0.025284117,-0.016753031,0.0044175666,0.47634622,-1.4128938,1.9416517,-2.0971982,-1.5717467,2.4511545,-0.034992613,0.1461545,-0.17834684,0.05868472,-0.015071691,-0.039276507,-0.30645782,0.49799395,-9.749189,0.8023209,47.74331,-1.1704556,-1.5902171,-3.5065742,-0.32383463,-0.08837919,-0.41325444,22.8125,22.4375,22.25,22.625,22.3125,22.4375
0.15605406,-1.1812147,-0.6666926,-0.30367142,-0.041247703,0.032765508,-0.09014767,-0.3870809,-0.35043132,0.06010484,-3.0774238,0.62430656,0.000121791505,-0.06779762,-0.009536252,-0.002450104,0.025656888,-0.017189989,0.0054244627,0.47631025,-1.4126042,1.9412917,-2.0971386,-1.5718306,2.4510581,-0.03544168,0.14930126,-0.17939045,0.057135742,-0.015210261,-0.040731125,-0.19153613,0.4213795,-9.634268,0.8784135,47.771072,-1.2174444,-1.8044856,-3.571341,-0.34063974,-0.10859135,-0.42243737,22.8125,22.4375,22.25,22.625,22.3125,22.4375
0.1580537,-1.193179,-0.9119664,-0.39648002,-0.02188185,0.021402264,-0.07727812,-0.38723683,-0.35045075,0.060095366,-3.077364,0.62440723,4.4406755e-05,-0.06973574,-0.010163148,-0.003334679,0.024988694,-0.017118549,0.006794059,0.4762019,-1.412266,1.9408964,-2.097019,-1.5718306,2.4510205,-0.036435213,0.15428825,-0.18270004,0.05508213,-0.014668755,-0.043091975,-0.17238252,0.2873042,-9.691729,0.7777002,47.758533,-1.2160685,-1.8737037,-3.512588,-0.33561522,-0.119474754,-0.4253711,22.8125,22.4375,22.25,22.625,22.3125,22.4375
0.16005367,-1.1829175,-0.94845784,-0.16256414,-0.019929968,0.014442215,-0.08434175,-0.38737687,-0.3504717,0.06009945,-3.0773315,0.62434226,7.616009e-05,-0.07175857,-0.011067252,-0.0023804577,0.02329111,-0.013258208,0.008590852,0.47614172,-1.4119896,1.9405497,-2.0969365,-1.5718788,2.4509242,-0.036497086,0.1554199,-0.18568705,0.0527242,-0.0149452,-0.04494787,-0.1340753,0.2681506,-9.672575,0.8806493,47.759426,-1.2111124,-1.8258678,-3.6099281,-0.3303653,-0.13019635,-0.39242893,22.8125,22.4375,22.25,22.625,22.3125,22.4375
0.16205345,-0.43840262,-0.46920827,-0.21009341,-0.023534166,0.025668666,-0.0844326,-0.38754803,-0.35049525,0.060107537,-3.0773058,0.62431824,0.00013639002,-0.07213894,-0.011133019,-0.0040946067,0.024217997,-0.014689122,0.007441812,0.47605777,-1.4116759,1.9401535,-2.096865,-1.571927,2.4508288,-0.036596764,0.15934657,-0.18588604,0.050691742,-0.015118827,-0.043897282,-0.11492168,0.2681506,-9.519346,0.83813137,47.761223,-1.2145377,-1.9171019,-3.5795267,-0.3130853,-0.13112389,-0.40402615,22.8125,22.4375,22.25,22.625,22.3125,22.4375
0.16405396,-0.7132492,-0.23738147,-0.073228575,-0.029102493,0.011012062,-0.09275697,-0.38764712,-0.35051507,0.060050726,-3.0772088,0.6242578,-4.4595377e-05,-0.07465673,-0.011921634,-0.0030256044,0.022744702,-0.010504921,0.009540415,0.4760097,-1.4113148,1.9398426,-2.0967581,-1.5719389,2.4507556,-0.037087843,0.16093397,-0.18972299,0.048544813,-0.015750831,-0.046480652,-0.019153614,0.17238252,-9.481039,0.84708,47.74331,-1.2593732,-1.9812751,-3.7224426,-0.2916367,-0.11971132,-0.40704685,22.8125,22.4375,22.25,22.625,22.3125,22.4375
0.1660536,-0.026635664,-0.3005129,0.29299375,-0.026402134,0.020330098,-0.09130141,-0.38782513,-0.35054165,0.060093187,-3.0772226,0.6242584,1.0583992e-05,-0.07572797,-0.012474515,-0.0030476006,0.02217226,-0.009728616,0.012272099,0.47590166,-1.4110502,1.9394106,-2.096627,-1.5719508,2.4506464,-0.037158836,0.1630047,-0.19191006,0.047702443,-0.015607745,-0.049282838,0.038307227,0.22984336,-9.3661175,0.8403672,47.728977,-1.3056386,-1.9089267,-3.729086,-0.27194795,-0.13168038,-0.38592333,22.8125,22.4375,22.25,22.625,22.3125,22.5
0.16805421,-0.29692772,-0.07446831,0.21845186,-0.025392905,0.008373183,-0.089168325,-0.38799667,-0.3505536,0.06008741,-3.0771651,0.62422705,3.7876085e-05,-0.077944614,-0.012642213,-0.0032234045,0.022380836,-0.008588591,0.013163332,0.4758051,-1.4107121,1.9390148,-2.0965436,-1.5720114,2.450538,-0.038395923,0.16677715,-0.1957095,0.046806846,-0.01633103,-0.051406477,0.038307227,0.22984336,-9.232041,0.8493211,47.741516,-1.2383437,-2.1160083,-3.5486984,-0.26857257,-0.13924555,-0.35281676,22.8125,22.4375,22.25,22.625,22.3125,22.5
0.17005365,0.10286071,-0.11245667,0.22465922,-0.016856922,0.007076355,-0.08265812,-0.38815624,-0.35060236,0.06008838,-3.0771933,0.6241737,6.784425e-05,-0.08072791,-0.013980812,-0.0015213633,0.018542668,-0.0030182232,0.014492447,0.47574496,-1.4103882,1.9386309,-2.0965092,-1.5720109,2.4504411,-0.039098315,0.16721985,-0.19936329,0.043301478,-0.015488242,-0.053438254,0.019153614,0.24899697,-9.251195,0.88289046,47.74062,-1.2392877,-1.8458898,-3.4697943,-0.22466126,-0.16128646,-0.33219957,22.8125,22.4375,22.25,22.625,22.3125,22.5
0.17205414,-0.75665677,-0.7889761,0.16898301,-0.01633658,-0.0006272008,-0.077794366,-0.38830674,-0.35063285,0.06008389,-3.077177,0.6240339,7.2476956e-05,-0.081980675,-0.014520771,-0.00063979015,0.017952822,-0.0003580352,0.017246418,0.47568488,-1.4100637,1.9382476,-2.0964253,-1.5720476,2.4502962,-0.03881852,0.16759767,-0.20170963,0.04263126,-0.01619343,-0.055909082,-0.019153614,0.28730422,-9.193734,0.8403672,47.69763,-1.294136,-1.823237,-3.4481843,-0.17794284,-0.15122171,-0.30780804,22.8125,22.4375,22.25,22.625,22.3125,22.5
0.1740538,-0.8739948,-0.7866247,0.012622704,-0.034217782,0.003050119,-0.078991234,-0.3884818,-0.35064578,0.060084175,-3.0770946,0.62399524,0.00010697428,-0.08220951,-0.015704656,-0.00051592477,0.017473854,-0.00031932988,0.021126179,0.4756016,-1.4097145,1.9378165,-2.0963051,-1.572131,2.4501996,-0.03718205,0.16937548,-0.20420192,0.043081265,-0.015795054,-0.05815154,-0.1340753,0.5554548,-9.212888,0.82694155,47.719128,-1.4450903,-1.8440919,-3.4577467,-0.15869492,-0.16246852,-0.2519017,22.8125,22.4375,22.25,22.625,22.3125,22.5
0.17605385,-1.0014176,-1.2565252,0.087287955,-0.04696594,0.026101666,-0.086442284,-0.3886349,-0.3506791,0.0600845,-3.0770817,0.62385744,5.7575755e-05,-0.08350177,-0.0146174785,-0.0004963372,0.018354978,-0.0016115854,0.019935146,0.4755286,-1.4093779,1.9373969,-2.0961726,-1.5721434,2.4500425,-0.040115558,0.17079718,-0.206489,0.045495186,-0.015991716,-0.059891935,-0.17238252,0.57460845,-9.270349,0.8940802,47.717335,-1.3490031,-1.7869649,-3.4341106,-0.1598343,-0.18331064,-0.21969232,22.8125,22.4375,22.25,22.625,22.3125,22.5
0.17805381,-1.1455032,-1.6588742,-0.07820755,-0.06381605,0.032860074,-0.0818921,-0.38879785,-0.3507181,0.06009599,-3.077094,0.6237832,8.0564285e-05,-0.084395565,-0.014829049,-0.00013278986,0.01818601,-0.0015409366,0.02061761,0.4754564,-1.409065,1.9369901,-2.0960886,-1.5721554,2.4499226,-0.04060636,0.17203708,-0.20907359,0.046695728,-0.01587813,-0.06106456,-0.11492168,0.6512229,-9.32781,0.88289046,47.687782,-1.3713317,-1.7232077,-3.549844,-0.17856939,-0.17441022,-0.18600382,22.8125,22.4375,22.25,22.625,22.3125,22.5
0.18005389,-1.6717279,-2.0315912,0.04785271,-0.06662255,0.0312688,-0.07210617,-0.38896644,-0.35074678,0.060081776,-3.07705,0.6236969,7.99556e-05,-0.08625989,-0.014470853,-0.001213354,0.01864884,-0.0013247224,0.019164162,0.47538385,-1.4086913,1.936572,-2.0960062,-1.572203,2.4498022,-0.042569924,0.17607899,-0.21082307,0.04442001,-0.016401315,-0.06157098,-0.30645782,0.59376204,-9.346964,0.89631605,47.716442,-1.2907312,-1.7207599,-3.575436,-0.13220084,-0.18276936,-0.17004372,22.8125,22.4375,22.25,22.625,22.3125,22.5
0.18205431,-2.3634636,-2.1341941,-0.083356485,-0.056234803,0.02699415,-0.06993538,-0.38913274,-0.35078952,0.060104713,-3.0770662,0.62366277,6.588216e-05,-0.087208204,-0.014772835,0.00038272582,0.018014766,0.0015348741,0.017797004,0.47529995,-1.4083798,1.9361295,-2.095874,-1.5721911,2.449695,-0.042395733,0.17458631,-0.2129747,0.045236096,-0.017147938,-0.060027093,-0.36391866,0.59376204,-9.346964,0.7486078,47.70032,-1.2955401,-1.7323842,-3.5433621,-0.10683568,-0.17541263,-0.14046873,22.8125,22.4375,22.25,22.625,22.3125,22.5
0.18405382,-1.5056092,-1.2881174,-0.051618565,-0.045831442,0.047182303,-0.07811855,-0.38932407,-0.35080972,0.060086463,-3.0770142,0.6236507,7.9918726e-05,-0.08769559,-0.015930805,0.00034912166,0.017483106,0.0007906988,0.018555202,0.4751923,-1.4079823,1.9356979,-2.0958135,-1.5722393,2.4495869,-0.041295595,0.17726833,-0.21630703,0.046297856,-0.016341396,-0.059685215,-0.34476504,0.57460845,-9.270349,0.9030289,47.689575,-1.4269321,-1.706327,-3.4891605,-0.109416135,-0.1926866,-0.12233427,22.8125,22.4375,22.25,22.625,22.3125,22.5
0.18605359,-1.2151556,-0.5763125,0.2455794,-0.019363802,0.043893404,-0.08318227,-0.38952255,-0.35086676,0.06012379,-3.0770664,0.6236043,0.00018965236,-0.08908585,-0.015679216,4.2224234e-05,0.017291462,0.0009451795,0.01621928,0.47511965,-1.407657,1.9352201,-2.095742,-1.5722512,2.4494789,-0.04303307,0.17944787,-0.21802548,0.045610502,-0.016242001,-0.059087206,-0.30645782,0.38307226,-9.251195,0.86498255,47.701214,-1.4056059,-1.6707968,-3.5566037,-0.077312775,-0.22786748,-0.107135996,22.8125,22.4375,22.25,22.625,22.3125,22.5
0.18805452,-0.68331283,0.012777949,0.20685662,-0.009353073,0.04572781,-0.08182375,-0.38968205,-0.3508723,0.060076416,-3.0769615,0.6235478,0.00011494109,-0.09107769,-0.015573821,0.0007470514,0.01614517,0.0024192662,0.010223339,0.47502294,-1.4072481,1.9348363,-2.0956585,-1.5723113,2.4493606,-0.045210164,0.18058482,-0.22102652,0.045639586,-0.0159056,-0.055266097,-0.40222588,0.34476504,-9.251195,0.8627467,47.71286,-1.2636186,-1.7176,-3.547695,-0.041156206,-0.24293694,-0.13975249,22.8125,22.4375,22.25,22.625,22.3125,22.5
0.19005404,-0.8218244,-0.059818536,0.30475017,0.00085851934,0.033169217,-0.08471864,-0.38985014,-0.35093817,0.060060862,-3.0769987,0.6234203,4.493098e-05,-0.091667,-0.015518602,0.00038231732,0.017452093,0.0015355382,0.009071456,0.47496283,-1.4068393,1.9343818,-2.0955856,-1.5722755,2.4492164,-0.045330442,0.1828775,-0.22320682,0.04691634,-0.01666606,-0.054230943,-0.34476504,0.30645782,-9.136273,0.90527004,47.737934,-1.2916503,-1.6903021,-3.580124,-0.017827112,-0.23328198,-0.13056856,22.8125,22.4375,22.25,22.625,22.3125,22.5
0.1920538,-0.43998897,0.66262466,0.42335328,-0.014413923,0.034397468,-0.093859926,-0.39005935,-0.35095373,0.060072366,-3.0769613,0.6234508,0.00010200902,-0.0923725,-0.015913682,0.0001580498,0.018023498,0.00037876447,0.009163484,0.4748309,-1.4064775,1.933915,-2.0954897,-1.5723232,2.4491086,-0.04525206,0.18567635,-0.22637127,0.048567213,-0.016648829,-0.05424328,-0.36391866,0.21068975,-9.155427,0.8224646,47.734352,-1.3321056,-1.8500843,-3.5287318,-0.008878283,-0.24987182,-0.15677844,22.8125,22.4375,22.25,22.625,22.3125,22.5
0.19405349,-0.65844005,0.32911786,0.2681233,0.00045415212,0.032206833,-0.083304614,-0.39025852,-0.35099608,0.0600764,-3.0769453,0.62335247,0.00021162519,-0.09293663,-0.015425005,-0.0009056448,0.019701522,-0.0026142902,0.005809646,0.47477046,-1.4060918,1.9334482,-2.095441,-1.5723952,2.4489892,-0.046515286,0.18923165,-0.22860627,0.050675288,-0.016769147,-0.05215177,-0.3256114,0.038307227,-9.193734,0.87617236,47.73256,-1.2876588,-1.9133316,-3.4574347,-0.0046975547,-0.27309892,-0.16235925,22.8125,22.4375,22.25,22.625,22.3125,22.5
0.19605386,-0.4378296,0.3632444,0.3164381,0.0037739745,0.041377634,-0.09135386,-0.3904443,-0.35102135,0.060087662,-3.076896,0.6233831,0.00018878779,-0.0938181,-0.014965576,-0.0010271381,0.021083247,-0.0030811327,0.0007819652,0.47466224,-1.4057312,1.9329695,-2.0952852,-1.57242,2.4489067,-0.047434982,0.19096276,-0.23072222,0.052114863,-0.017784018,-0.048039474,-0.28730422,-0.095768064,-9.251195,0.8493211,47.73077,-1.3439854,-1.7984991,-3.4493015,0.014784775,-0.26951134,-0.20621789,22.8125,22.4375,22.25,22.625,22.3125,22.5
0.1980535,-0.876536,0.19075845,0.40249708,0.0089500705,0.029297097,-0.086248584,-0.3906236,-0.3510461,0.060081553,-3.0768418,0.6233913,0.00017553587,-0.09431323,-0.014794435,-0.0017867996,0.022390591,-0.00536936,0.0001563357,0.474566,-1.4053577,1.932526,-2.0951765,-1.5724558,2.4488227,-0.048074692,0.19403413,-0.23303974,0.053990837,-0.01790505,-0.048051417,-0.22984336,-0.076614454,-9.232041,0.8314132,47.695843,-1.2830789,-1.7703521,-3.4527245,0.022385512,-0.27028805,-0.23712437,22.8125,22.4375,22.25,22.625,22.3125,22.5
0.20005414,-0.6448937,0.54363567,0.38941652,0.008422098,0.028337566,-0.08581505,-0.3908161,-0.3510777,0.060063507,-3.0767946,0.6233625,0.00016130113,-0.095317915,-0.014744411,-0.0017724643,0.023564912,-0.0063606347,-0.00066430453,0.4744699,-1.4049364,1.9320596,-2.095092,-1.5724915,2.448715,-0.048657265,0.19653957,-0.2366171,0.056480322,-0.018501801,-0.04780947,-0.3256114,0.05746084,-9.097966,0.91421866,47.71465,-1.2409554,-1.9168534,-3.5349941,0.028983548,-0.28972247,-0.25016993,22.8125,22.4375,22.25,22.625,22.3125,22.5
0.20205386,-0.43267766,0.606421,0.37660542,0.0004944991,0.032562893,-0.09223204,-0.39100558,-0.35110557,0.06005985,-3.076722,0.6233665,0.00017146266,-0.09506744,-0.013970403,-0.0020098074,0.025184361,-0.009722602,-0.002254759,0.4743855,-1.4045397,1.9315804,-2.0949705,-1.5725516,2.4486427,-0.049816187,0.19739343,-0.23813134,0.06086728,-0.0184025,-0.04737751,-0.2681506,0.095768064,-9.174581,0.88289046,47.719128,-1.2779841,-1.9301121,-3.486652,-0.00941036,-0.31244284,-0.2631007,22.8125,22.4375,22.25,22.625,22.3125,22.5
0.20405355,-0.7384765,0.07870101,0.2582466,0.002616776,0.02122909,-0.08370645,-0.39120546,-0.35114,0.060076427,-3.0767138,0.62336487,0.0001541372,-0.09599158,-0.013944452,-0.0016933071,0.02553335,-0.009555312,-0.0027595481,0.47426528,-1.404167,1.9310778,-2.094827,-1.5725521,2.4485228,-0.050407074,0.19857323,-0.2405789,0.062144723,-0.018794931,-0.047461264,-0.2681506,0.13407528,-9.2703495,0.8224646,47.709274,-1.2780018,-1.9748435,-3.507296,-0.001476323,-0.29902238,-0.27444977,22.8125,22.4375,22.25,22.625,22.3125,22.5
0.20605437,-0.84170777,-0.085454345,0.20922288,-0.006747088,0.01130459,-0.09205673,-0.39139494,-0.35114962,0.060042296,-3.07659,0.62337786,0.00010112144,-0.09676152,-0.013511379,-0.0019737442,0.028178358,-0.01196308,-0.002967421,0.47415707,-1.4037213,1.930611,-2.0947053,-1.5726246,2.448439,-0.05102165,0.20172647,-0.24464278,0.06640361,-0.02005531,-0.047860805,-0.17238252,0.21068975,-9.232041,0.8112748,47.703903,-1.1745288,-1.9807919,-3.4801683,-0.051751643,-0.30912328,-0.3086003,22.8125,22.4375,22.25,22.625,22.3125,22.5
0.208054,-0.6585636,-0.31504133,0.2269222,-0.007681208,0.019805133,-0.083835125,-0.39155322,-0.3511947,0.060020253,-3.0765536,0.6233309,-2.061546e-05,-0.09583763,-0.012735276,-0.002688956,0.03110024,-0.018410183,-0.0032502455,0.4740849,-1.4033123,1.9301561,-2.0945709,-1.5726122,2.4483423,-0.05173978,0.20394076,-0.24737556,0.07398917,-0.019706676,-0.048295125,-0.3256114,0.28730422,-9.270349,0.8717007,47.707485,-1.2423525,-2.0243118,-3.5037649,-0.13139026,-0.3247404,-0.31587446,22.8125,22.4375,22.25,22.625,22.3125,22.5
0.21005358,-0.90648603,-0.81195235,-0.0861674,-0.002904335,0.023177525,-0.08686054,-0.39178956,-0.35119864,0.06003393,-3.0764496,0.6234259,5.5762528e-05,-0.09710455,-0.012042667,-0.0028980752,0.031125681,-0.019577872,-0.0058021084,0.4739399,-1.4029031,1.9296173,-2.0944273,-1.5727085,2.4482703,-0.05436589,0.20579778,-0.2494068,0.07520459,-0.019203214,-0.048369776,-0.22984336,0.28730422,-9.346964,0.86498255,47.71286,-1.1955177,-1.9759829,-3.4617913,-0.17359346,-0.35025877,-0.3439157,22.8125,22.4375,22.25,22.625,22.3125,22.5
0.21205421,-0.8806894,-0.5244662,0.054008074,-0.017199626,0.028817777,-0.089460954,-0.3919519,-0.35121202,0.059998464,-3.076334,0.6234017,-0.00011798952,-0.096939094,-0.011986411,-0.0036443856,0.03324808,-0.022659708,-0.0050194426,0.47383192,-1.4024699,1.9291514,-2.0942347,-1.5727323,2.4481623,-0.053970195,0.20860906,-0.2517923,0.078487426,-0.019694978,-0.048751228,-0.19153613,0.3256114,-9.346964,0.87617236,47.723602,-1.0798461,-1.9150854,-3.464867,-0.20845394,-0.3427887,-0.3645676,22.8125,22.4375,22.25,22.625,22.3125,22.5
0.21405402,-0.9548391,-0.8926648,0.32820913,-0.028389005,0.03882064,-0.08976903,-0.39215663,-0.35124964,0.05999948,-3.0762773,0.62338835,-0.00014282286,-0.0979277,-0.012734103,-0.0023633107,0.03284493,-0.02127253,-0.003900987,0.47373632,-1.4020377,1.9286116,-2.0940783,-1.572769,2.448066,-0.053338155,0.20898233,-0.25571242,0.080612354,-0.019979311,-0.0492344,-0.24899697,0.30645782,-9.289502,0.842603,47.719128,-1.205501,-1.8639549,-3.4637938,-0.25511903,-0.35026646,-0.3752237,22.8125,22.4375,22.25,22.625,22.3125,22.5
0.21605383,-0.89773977,-0.8453649,0.047263004,-0.023726847,0.04352883,-0.09140434,-0.39234787,-0.35127085,0.05998931,-3.0761847,0.62340754,-0.00025693834,-0.09918066,-0.012377347,-0.0015635106,0.032291852,-0.020048616,-0.00523691,0.47361585,-1.4016051,1.9280857,-2.0938742,-1.5727924,2.4479697,-0.05499771,0.20876174,-0.2575162,0.081291415,-0.020057887,-0.04955505,-0.22984336,0.22984336,-9.232041,0.84708,47.704796,-1.1457418,-1.8414307,-3.4736419,-0.30047098,-0.3628597,-0.39091775,22.8125,22.4375,22.25,22.625,22.3125,22.5
0.2180537,-1.0643423,-0.51209766,-0.025379168,-0.015856404,0.03270703,-0.080333844,-0.39255777,-0.3512808,0.059986435,-3.0761006,0.62342995,-0.00026076814,-0.101283416,-0.011558847,-0.0022640694,0.032469105,-0.020027192,-0.008536914,0.47348273,-1.4011954,1.9275836,-2.0937312,-1.572853,2.4478617,-0.058157783,0.21200037,-0.25948828,0.08008202,-0.020239089,-0.04941206,-0.095768064,0.2681506,-9.251195,0.86945957,47.703903,-0.9872173,-1.899481,-3.5061092,-0.3363419,-0.36908847,-0.4344958,22.8125,22.4375,22.25,22.625,22.3125,22.5
0.220054,-0.623668,-0.38673759,-0.08297531,-0.018335134,0.030726356,-0.08764701,-0.39275265,-0.351316,0.059977848,-3.0760436,0.62334025,-0.00028803927,-0.103331864,-0.01295321,-0.0007159537,0.030484077,-0.014855114,-0.007272519,0.47339898,-1.4007632,1.9270681,-2.0935886,-1.5729007,2.4477296,-0.057143606,0.21246406,-0.26311284,0.07773231,-0.020849913,-0.049657058,-0.11492168,0.22984336,-9.404425,0.92764956,47.68599,-0.9941957,-1.7834551,-3.4860368,-0.3238814,-0.39147377,-0.46502,22.8125,22.4375,22.25,22.625,22.3125,22.5
0.22205365,-1.0018148,-0.9057664,-0.14740793,-0.01825378,0.023717731,-0.08084453,-0.39294505,-0.35134825,0.059975803,-3.076009,0.623448,-0.0003747838,-0.1038456,-0.012934858,-0.0013039053,0.030492347,-0.014204633,-0.007083276,0.473267,-1.4003658,1.9265779,-2.093445,-1.5728768,2.4476695,-0.057392772,0.21375558,-0.2628759,0.07562737,-0.021165192,-0.050093047,-0.05746084,0.22984336,-9.423578,0.90750587,47.711063,-1.1098218,-1.8018607,-3.5575216,-0.31559253,-0.39896154,-0.47532386,22.8125,22.4375,22.25,22.625,22.3125,22.5
0.2240535,-0.7106204,-1.1328782,-0.27171257,-0.02445779,0.02731478,-0.08482108,-0.3931717,-0.35136354,0.059958734,-3.0758858,0.6233642,-0.00037703634,-0.10629823,-0.012813759,-0.0017361107,0.02981553,-0.01252289,-0.007929135,0.4731583,-1.3998725,1.9260052,-2.0932786,-1.5729846,2.4475248,-0.059645135,0.21719214,-0.26536143,0.07286072,-0.021351242,-0.051495194,-0.095768064,0.2681506,-9.5385,0.8985519,47.711063,-0.9909863,-2.056078,-3.666781,-0.30058807,-0.38148704,-0.49351263,22.8125,22.4375,22.25,22.625,22.3125,22.5
0.22605422,-0.29367745,-0.86212337,-0.115611374,-0.047561105,0.04758402,-0.09262436,-0.3933694,-0.35135382,0.05992537,-3.0757413,0.62342894,-0.0004800536,-0.1084767,-0.013337265,-0.0012953315,0.02910794,-0.008925055,-0.006873334,0.47300223,-1.3994273,1.9255255,-2.0931127,-1.5730451,2.447428,-0.059982006,0.21919928,-0.2681772,0.07013833,-0.022386678,-0.05287939,-0.095768064,0.2681506,-9.576807,0.8873621,47.684196,-0.9372171,-1.9788141,-3.64681,-0.27601162,-0.3919393,-0.5069255,22.8125,22.4375,22.25,22.625,22.3125,22.5
0.22805384,-0.4140052,-0.7825069,-0.19544724,-0.04538277,0.041240722,-0.090791866,-0.3935485,-0.3513863,0.059894737,-3.0756767,0.6233955,-0.0005888799,-0.111469604,-0.014003735,-0.00043084484,0.02761748,-0.0042726346,-0.0051500266,0.47290578,-1.3989822,1.9250473,-2.092982,-1.5730575,2.4473193,-0.060945176,0.22144608,-0.27216038,0.06704785,-0.023208372,-0.055558134,-0.11492168,0.36391866,-9.481039,0.9388393,47.698532,-0.96237946,-1.8806202,-3.6114419,-0.22459391,-0.4132664,-0.507234,22.8125,22.4375,22.25,22.625,22.3125,22.5
0.23005405,-1.0580039,-0.98387307,-0.3911295,-0.03439411,0.022254933,-0.07629303,-0.39381242,-0.3514133,0.05990863,-3.075629,0.62345874,-0.0004787269,-0.11262951,-0.014553958,-0.00089515856,0.026692783,-0.0032901324,-0.00086666923,0.47276175,-1.3985245,1.9244608,-2.0928867,-1.5731295,2.4472213,-0.061196744,0.22396348,-0.27358538,0.06463991,-0.022852413,-0.060094062,-0.19153613,0.36391866,-9.481039,0.85155696,47.694054,-0.8966843,-1.935535,-3.6231797,-0.19726765,-0.43752748,-0.49444336,22.8125,22.4375,22.25,22.625,22.3125,22.5
0.23205389,-0.68521386,-0.99966127,-0.11104675,-0.046422757,0.04833933,-0.094139256,-0.39404166,-0.3514373,0.059902675,-3.0755758,0.62352467,-0.0005281848,-0.115469314,-0.015633464,0.00024877777,0.024542207,0.00036212368,-0.0004942634,0.47260547,-1.3980677,1.9239095,-2.0927436,-1.5731415,2.4471133,-0.06195142,0.2263794,-0.27877963,0.06317958,-0.022622807,-0.061218247,-0.19153614,0.47884035,-9.519346,0.9634547,47.689575,-0.9081025,-2.0223022,-3.5936675,-0.16666113,-0.4320286,-0.49049735,22.8125,22.4375,22.25,22.625,22.3125,22.5
0.23405388,-1.1940008,-1.4682302,-0.518798,-0.03402797,0.041452434,-0.07986266,-0.39427772,-0.35147738,0.059906002,-3.0755541,0.6233829,-0.0004476456,-0.11751833,-0.01615131,0.00032530123,0.024500675,0.001999533,0.002653551,0.47250935,-1.3976098,1.9233464,-2.0926478,-1.5732135,2.4469318,-0.06237721,0.22974183,-0.28277817,0.062325865,-0.023350796,-0.06478705,-0.19153613,0.4405331,-9.653421,0.9030289,47.689575,-0.8907008,-2.050641,-3.5630422,-0.12834582,-0.42960185,-0.44807273,22.8125,22.4375,22.25,22.625,22.3125,22.5
0.23605376,-1.1253059,-1.0871902,-0.64924806,-0.047424503,0.051490366,-0.08535171,-0.39449254,-0.35149872,0.059892803,-3.0754824,0.6233636,-0.0005043116,-0.11850935,-0.016168732,0.00018236652,0.025168583,0.002524758,0.009450255,0.47237733,-1.3971527,1.922808,-2.0924923,-1.5732502,2.4467974,-0.06263633,0.2316482,-0.28474414,0.062201187,-0.024212671,-0.07183682,-0.24899697,0.5746084,-9.749189,0.84708,47.698532,-0.8432557,-2.0347254,-3.419464,-0.092349626,-0.43032378,-0.37511465,22.8125,22.4375,22.25,22.625,22.3125,22.5
0.2380542,-1.683035,-1.9691093,-0.48923382,-0.042728852,0.04679796,-0.074815206,-0.39473313,-0.3515408,0.059901886,-3.075444,0.6232591,-0.00043975498,-0.11867411,-0.015408291,-0.00015745554,0.027559504,0.00033778368,0.009668482,0.47228107,-1.3966837,1.9222101,-2.0923593,-1.5733227,2.4466412,-0.06333952,0.23317285,-0.28660512,0.06556708,-0.02534669,-0.072753295,-0.36391866,0.5554548,-9.710882,0.88960326,47.70659,-0.88776195,-2.0865219,-3.6177175,-0.10533845,-0.426666,-0.34394652,22.8125,22.4375,22.25,22.625,22.3125,22.5
0.24005386,-1.4231436,-1.6174201,-0.32501867,-0.0611305,0.05955263,-0.08524544,-0.3949637,-0.35159716,0.059901066,-3.075429,0.6232152,-0.0004894767,-0.11993569,-0.015017628,-0.00030549587,0.028313056,0.0013997157,0.0124497,0.4721727,-1.3961906,1.9216012,-2.0922043,-1.5733227,2.4465077,-0.06435189,0.23473378,-0.28802472,0.06481435,-0.026519412,-0.07654049,-0.49799395,0.4213795,-9.710882,0.8560339,47.737038,-0.8268253,-2.0424504,-3.6656065,-0.09135437,-0.42715895,-0.30600497,22.8125,22.4375,22.25,22.625,22.3125,22.5
0.24205333,-1.4344083,-1.7059804,-0.19423367,-0.061250083,0.06297593,-0.08733546,-0.39518735,-0.35160282,0.059880637,-3.0753438,0.6231577,-0.00049687235,-0.120477006,-0.0146615645,-0.001057859,0.029300038,0.00062166946,0.014309601,0.47202852,-1.3957332,1.9210867,-2.0920846,-1.5733951,2.446339,-0.06505736,0.23680225,-0.28878072,0.064629376,-0.027059894,-0.07910159,-0.47884035,0.4213795,-9.672575,0.89631605,47.73256,-0.8458718,-2.1390095,-3.830344,-0.05218239,-0.41777247,-0.25157985,22.8125,22.4375,22.25,22.625,22.3125,22.5
0.24405377,-1.6461058,-1.8384025,-0.44553736,-0.03659185,0.05202948,-0.068960644,-0.39546025,-0.35163826,0.059897095,-3.0753198,0.6231518,-0.00039800178,-0.12133981,-0.014865861,0.0006502069,0.028561022,0.0020685075,0.014818414,0.47188443,-1.3952538,1.9204644,-2.091976,-1.5734552,2.4461946,-0.065408036,0.23545709,-0.2918342,0.06739251,-0.027060905,-0.07996149,-0.36391866,0.3256114,-9.576807,0.90750587,47.701214,-0.8012161,-1.9603677,-3.807353,-0.03205899,-0.41724977,-0.2249965,22.8125,22.4375,22.25,22.625,22.3125,22.5
0.24605328,-1.3003371,-0.22553407,-0.123966336,-0.026588492,0.047973484,-0.086956196,-0.39569116,-0.35168114,0.059872247,-3.0752943,0.62308776,-0.0004759787,-0.122397274,-0.015112758,0.00114469,0.02873324,0.0041460735,0.015088581,0.4717527,-1.3947369,1.9198898,-2.0918562,-1.5734552,2.4460266,-0.06516412,0.236134,-0.29374468,0.06685433,-0.028170425,-0.079980776,-0.36391866,0.28730422,-9.595961,0.95002913,47.689575,-0.73851585,-1.8360016,-3.7796683,-0.033791915,-0.44059947,-0.18744576,22.8125,22.4375,22.25,22.625,22.3125,22.5
0.24805379,-0.6922861,0.16650796,-0.1556423,0.015280848,0.048911747,-0.08310014,-0.39597946,-0.3517238,0.059908018,-3.0753062,0.6230912,-0.00030276034,-0.12526017,-0.015186835,0.0019880196,0.02855138,0.007329997,0.0126882605,0.47160792,-1.39428,1.9192551,-2.0917728,-1.5735158,2.4458828,-0.06670603,0.23852146,-0.29841217,0.06621382,-0.029458249,-0.07911759,-0.34476504,0.17238252,-9.595961,0.9388393,47.72002,-0.63528764,-1.6616712,-3.7405438,0.031241206,-0.42760167,-0.16119234,22.8125,22.4375,22.25,22.625,22.3125,22.5
0.25005412,-0.41485843,1.2429289,-0.20964254,0.015027142,0.045474794,-0.090187036,-0.39620924,-0.35174945,0.05989231,-3.0752225,0.62297696,-0.0002997954,-0.1248379,-0.016234556,0.0009812914,0.030582502,0.0047570434,0.013276693,0.47150093,-1.3937858,1.9186805,-2.0916288,-1.5736002,2.4457157,-0.06405914,0.24260211,-0.3014972,0.06843172,-0.030101053,-0.07705321,-0.34476504,0.11492168,-9.481039,0.9030289,47.733456,-0.8193476,-1.8365439,-3.6863823,0.053441003,-0.40277272,-0.1734763,22.8125,22.4375,22.25,22.625,22.3125,22.5
0.25205374,-0.6944322,0.86565095,-0.20969947,0.028809547,0.03435832,-0.083077475,-0.3964992,-0.35177925,0.059923135,-3.0752108,0.6229765,-0.0001738148,-0.12608045,-0.01586189,0.0019091439,0.03204928,0.0048775948,0.009229566,0.4713327,-1.3933167,1.918034,-2.0915072,-1.5736607,2.445549,-0.06488715,0.24354313,-0.30567223,0.072229445,-0.031452112,-0.07382912,-0.24899697,0.076614454,-9.481039,0.8537928,47.716442,-0.79870474,-1.9235406,-3.6539755,0.064873114,-0.3984307,-0.1774444,22.8125,22.4375,22.25,22.625,22.3125,22.5
0.2540541,0.10690732,0.7221618,-0.17322485,0.013853732,0.046511024,-0.08649203,-0.39674443,-0.35181534,0.059919357,-3.0751472,0.62298465,-0.00020556334,-0.12780297,-0.014744276,0.0013082001,0.035122693,0.0019829562,0.0024914362,0.4711998,-1.3928108,1.9174122,-2.091338,-1.573697,2.4454298,-0.06740265,0.24807788,-0.31074086,0.07674906,-0.03287154,-0.06959697,-0.19153613,0.05746084,-9.3661175,0.9030289,47.72002,-0.73922634,-1.96925,-3.4227052,0.030597692,-0.37838686,-0.2075394,22.8125,22.4375,22.25,22.625,22.3125,22.5
0.2560537,-0.1841503,0.4639922,-0.4274566,0.0097107235,0.015111885,-0.08808142,-0.3970004,-0.35182905,0.059920054,-3.0750644,0.6229288,-0.00014801983,-0.1264185,-0.0149990935,0.0005629896,0.038464103,-0.002589728,0.0033539184,0.47105673,-1.3923295,1.9168142,-2.091193,-1.5737933,2.445263,-0.06510776,0.2504715,-0.31323308,0.0824353,-0.03376633,-0.068159506,-0.076614454,0.05746084,-9.423578,0.8560339,47.733456,-0.75953674,-2.1399531,-3.438528,-0.0046615796,-0.36854398,-0.24003705,22.8125,22.4375,22.25,22.625,22.3125,22.5
0.2580536,-0.079444095,0.053422596,-0.26081976,-0.0049360003,0.014499322,-0.07313688,-0.39727762,-0.35186726,0.059942853,-3.0749886,0.62295216,-4.7186804e-05,-0.12462872,-0.014689089,-0.00039522073,0.041211843,-0.008160783,0.000342053,0.47093704,-1.3918244,1.9161323,-2.0910232,-1.5738891,2.445168,-0.06406145,0.25179592,-0.31398514,0.088076584,-0.033667155,-0.0641024,-0.095768064,0.1340753,-9.500193,0.8672237,47.74062,-0.9186274,-2.1140726,-3.480195,-0.05605742,-0.3520549,-0.25698173,22.8125,22.4375,22.25,22.625,22.3125,22.5
0.26005363,-0.020312086,-0.67281806,-0.2717107,-0.011112568,0.017255425,-0.07851144,-0.39750934,-0.35188052,0.059925657,-3.0748858,0.622874,-0.00012606954,-0.12395859,-0.013144808,-0.0013591836,0.04536088,-0.012409779,-0.0017893963,0.47079265,-1.3913201,1.9155344,-2.0908182,-1.5739502,2.4449885,-0.06496969,0.25319162,-0.31464517,0.09301155,-0.035435088,-0.062868424,-0.15322891,0.21068975,-9.346964,0.91198283,47.72629,-0.8758717,-2.0504167,-3.6452093,-0.13497113,-0.3224444,-0.31810164,22.8125,22.4375,22.25,22.625,22.3125,22.5
0.2620541,0.4376479,-0.20503405,-0.104832865,-0.020506052,0.014367281,-0.085831136,-0.39775857,-0.35191914,0.059936255,-3.0748158,0.62287563,-0.00017328424,-0.123637095,-0.01295713,-0.001679405,0.048026565,-0.014209628,0.0008539832,0.47066107,-1.3908147,1.9148659,-2.0905893,-1.5739864,2.4448674,-0.063963816,0.25468108,-0.31648406,0.09616752,-0.0370043,-0.06449657,0.15322891,0.1340753,-9.519346,0.8851263,47.717335,-0.8875355,-1.9453995,-3.6858754,-0.17974862,-0.2732817,-0.30772266,22.8125,22.4375,22.25,22.625,22.3125,22.5
0.26405397,0.4654474,-0.51964104,0.17254713,-0.026392888,0.015371588,-0.08628012,-0.39801523,-0.35192615,0.059940573,-3.0746808,0.62290496,-9.285768e-05,-0.12390854,-0.012601376,-0.00071574934,0.048873447,-0.015600433,0.0008511604,0.47052884,-1.3903341,1.9142545,-2.09042,-1.5741185,2.4447713,-0.06468229,0.25436044,-0.31953695,0.10114942,-0.037132725,-0.06520989,0.076614454,0.19153613,-9.385271,0.9254084,47.719128,-0.9205661,-1.8657402,-3.6646442,-0.25867718,-0.2599367,-0.29555225,22.8125,22.4375,22.25,22.625,22.3125,22.5
0.26605362,0.8278379,-0.6916525,-0.08469834,-0.004294211,0.0014487492,-0.07907485,-0.39826658,-0.3519577,0.059934188,-3.074578,0.62284607,-7.698397e-05,-0.12546359,-0.013386045,-5.9416605e-05,0.047719404,-0.013177986,-0.0010435537,0.470421,-1.3898059,1.9136089,-2.0902407,-1.5742143,2.4446404,-0.06459879,0.25575462,-0.3225514,0.10008448,-0.037213363,-0.063227646,0.095768064,0.24899697,-9.11712,0.8851263,47.721813,-0.9467831,-1.7795453,-3.6302412,-0.26718244,-0.24118283,-0.33739024,22.8125,22.4375,22.25,22.625,22.3125,22.5
0.26805386,0.9686324,-0.37951976,-0.20158929,-0.0010770437,-0.00993194,-0.08304103,-0.39854038,-0.3519676,0.05993694,-3.0744722,0.62289923,-8.288532e-05,-0.12830502,-0.014490854,0.0020139911,0.045192804,-0.0075458824,-0.0010335693,0.47024092,-1.3892885,1.9129499,-2.0900385,-1.5742863,2.4445076,-0.064927176,0.2560408,-0.32736322,0.09843343,-0.03753809,-0.063560314,0.21068975,0.24899697,-9.174581,0.9388393,47.704796,-0.9100262,-1.7677214,-3.561678,-0.27167562,-0.2095749,-0.35903156,22.8125,22.4375,22.25,22.625,22.3125,22.5
0.27005425,0.6573632,-0.6451588,-0.02416094,-0.012290524,-0.015250346,-0.07962368,-0.39878142,-0.35201374,0.05995078,-3.074409,0.62282836,-8.618464e-05,-0.13113636,-0.016255552,0.0034748039,0.04141201,-0.002708769,-0.00051685766,0.47014478,-1.3887955,1.9122909,-2.089824,-1.574346,2.4443758,-0.065055914,0.25785327,-0.33228016,0.095498964,-0.03638399,-0.06420663,0.22984336,0.24899697,-9.155427,0.9097417,47.707485,-0.97647166,-1.713748,-3.4562263,-0.25525194,-0.18328294,-0.3762172,22.8125,22.4375,22.25,22.625,22.3125,22.5
0.27205434,0.3305411,-1.2277192,-0.172059,-0.026325293,-0.0091617,-0.08170232,-0.3990286,-0.35205582,0.059949912,-3.0743375,0.622793,-9.0108486e-05,-0.13258572,-0.016818842,0.0042174403,0.038749125,0.0009558845,-0.0014913625,0.47003657,-1.3882791,1.9116462,-2.089646,-1.574406,2.444255,-0.06574786,0.2574555,-0.3328342,0.09196832,-0.035683777,-0.06392512,0.15322891,0.45968673,-9.193734,0.92093146,47.72629,-0.92249596,-1.4774804,-3.4093468,-0.23550797,-0.18164167,-0.39195,22.8125,22.4375,22.25,22.625,22.3125,22.5
0.27405378,-0.2863698,-2.1285307,-0.35553557,-0.04655111,0.008627163,-0.0790222,-0.39928743,-0.3520882,0.059959598,-3.0742552,0.62275684,-5.5638506e-05,-0.13458876,-0.017663425,0.0042239004,0.0372438,0.0039290497,-0.0011126979,0.4699165,-1.3877736,1.9109873,-2.0894554,-1.57449,2.4441235,-0.0659846,0.26011333,-0.33529285,0.08842485,-0.03570782,-0.0645375,0.11492168,0.51714754,-9.32781,0.8851263,47.71465,-0.9999316,-1.5575428,-3.5150528,-0.20464903,-0.172646,-0.41507506,22.8125,22.4375,22.25,22.625,22.3125,22.5
0.27605382,-0.9072103,-2.7548509,-0.43681255,-0.07022202,0.02796573,-0.0748502,-0.39956045,-0.35212296,0.05997303,-3.0741987,0.622723,-3.1761112e-05,-0.13593796,-0.018872773,0.004253238,0.035761543,0.005870444,0.0013995816,0.46977282,-1.3872563,1.9103054,-2.0892646,-1.5745496,2.4439664,-0.065287456,0.26264328,-0.33794004,0.086122625,-0.035285372,-0.066352166,0.076614454,0.5554548,-9.423578,0.9455522,47.716442,-0.99261713,-1.7671304,-3.5313501,-0.16983595,-0.16315426,-0.42271134,22.8125,22.4375,22.25,22.625,22.3125,22.5
0.2780541,-1.1181313,-2.906365,-0.40424538,-0.09043818,0.046195865,-0.075161986,-0.3998257,-0.3521806,0.05998893,-3.0741537,0.6226559,2.4086887e-06,-0.13609761,-0.01785057,0.0004948429,0.0377216,0.00017133198,0.0014359528,0.46967587,-1.3867258,1.909602,-2.0890734,-1.5746096,2.4438338,-0.06765455,0.26937285,-0.33703697,0.08443936,-0.034465555,-0.068758205,0.0,0.61291564,-9.653421,0.9701675,47.703007,-0.9219563,-1.8334631,-3.6250331,-0.13861912,-0.14092562,-0.41264468,22.8125,22.4375,22.25,22.625,22.3125,22.5
0.2800542,-2.0097847,-3.1980665,-0.69817936,-0.077287056,0.027425442,-0.060241286,-0.40009844,-0.35221308,0.059989654,-3.0740848,0.62265617,-1.5704152e-05,-0.13566045,-0.019801144,0.00017729054,0.035787802,0.00019517931,0.0071957423,0.46952096,-1.3861847,1.9089206,-2.0888827,-1.5746568,2.4436884,-0.064899445,0.271069,-0.3380972,0.08288066,-0.0327734,-0.07176848,-0.095768064,0.82360536,-9.615114,0.9612189,47.71823,-0.9930918,-1.7403928,-3.838081,-0.10504545,-0.14221567,-0.39405668,22.8125,22.4375,22.25,22.625,22.3125,22.5
0.28205386,-1.4845804,-3.0524323,-0.6071993,-0.06936038,0.0418741,-0.07192834,-0.40038824,-0.35225832,0.06000319,-3.0740578,0.6226101,9.158854e-05,-0.13652515,-0.020391718,2.9681548e-06,0.034362786,0.00032654442,0.010321056,0.46938872,-1.3856553,1.9082397,-2.088763,-1.5747288,2.4435313,-0.06532671,0.27292615,-0.3398121,0.08194853,-0.031578828,-0.07532685,-0.15322891,0.82360536,-9.615114,1.0283576,47.690468,-1.1206585,-1.7683952,-3.9729736,-0.07906072,-0.1339425,-0.3576706,22.8125,22.4375,22.25,22.625,22.3125,22.5
0.2840538,-1.3810618,-2.4410477,-0.60772777,-0.058175243,0.02679279,-0.07146251,-0.4006601,-0.35231003,0.0599999,-3.074027,0.6224673,9.053368e-05,-0.13934833,-0.020885086,0.0016252437,0.031226225,0.003785209,0.011699058,0.46926796,-1.3850906,1.9075445,-2.088596,-1.574776,2.4433258,-0.067652695,0.27350953,-0.34417567,0.081198685,-0.030373072,-0.07903369,-0.11492168,0.6703765,-9.634268,1.0194036,47.678825,-1.1251743,-1.7207968,-3.821731,-0.047849283,-0.14155284,-0.3121143,22.8125,22.4375,22.25,22.625,22.3125,22.5
0.28605393,-0.5361789,-1.7470509,-0.7100548,-0.04792142,0.017228404,-0.072366565,-0.40096027,-0.352356,0.06001061,-3.073997,0.62249684,0.00016027632,-0.14021751,-0.022907555,0.0022652526,0.029716587,0.005207201,0.016426897,0.4691129,-1.3845372,1.9068383,-2.088464,-1.5748237,2.4431934,-0.06528993,0.27587703,-0.34858194,0.08126601,-0.029686352,-0.08140073,-0.19153613,0.57460845,-9.557653,0.96569055,47.72002,-1.1135621,-1.7289948,-3.6799743,-0.005463614,-0.1539931,-0.27251267,22.8125,22.4375,22.25,22.625,22.3125,22.5
0.28805387,-0.46426454,-1.2496719,-0.44600677,-0.035526913,0.012063676,-0.073803365,-0.40121648,-0.3524048,0.060010385,-3.0739572,0.6223307,0.00019545296,-0.14208192,-0.023928382,0.0032001745,0.028336022,0.006808904,0.022131203,0.46901676,-1.3840078,1.9061798,-2.088308,-1.5748957,2.4429991,-0.065414116,0.27803138,-0.35355338,0.08199548,-0.029209534,-0.087228745,-0.22984336,0.57460845,-9.385271,0.9858343,47.688675,-1.2922218,-1.7344067,-3.6688006,0.04027264,-0.14998378,-0.19392982,22.8125,22.4375,22.25,22.625,22.3125,22.5
0.29005414,-0.3310605,-0.4928925,-0.4668236,-0.026518313,0.006840076,-0.08073444,-0.40154025,-0.35244462,0.06002828,-3.0738935,0.62237453,0.0003257087,-0.14158191,-0.023525443,0.0026991123,0.029019838,0.0030495082,0.02080153,0.46886054,-1.3834311,1.9054264,-2.0881636,-1.5749911,2.442879,-0.0662798,0.2791371,-0.35469237,0.08567676,-0.028111534,-0.08677089,-0.21068975,0.34476504,-9.404425,0.947788,47.71465,-1.1703498,-1.6747072,-3.6411579,0.036135614,-0.16751516,-0.17977796,22.8125,22.4375,22.25,22.625,22.3125,22.5
0.2920535,-0.20573883,-0.56080544,-0.36085612,-0.011503319,0.015738232,-0.07162182,-0.40179986,-0.35252568,0.06002622,-3.0739167,0.622186,0.00026116008,-0.1414963,-0.023559071,0.0013540887,0.029757444,-0.0012248309,0.022867944,0.4687642,-1.3828535,1.9047087,-2.087983,-1.5749787,2.4426622,-0.06688073,0.28285453,-0.35671464,0.08811056,-0.026850315,-0.08944221,-0.17238252,0.24899697,-9.3661175,0.8560339,47.675243,-1.1597773,-1.7187767,-3.6864944,0.032553107,-0.17530861,-0.13056792,22.8125,22.4375,22.25,22.625,22.3125,22.5
0.29405403,-0.77256185,-0.35199693,0.03328291,-0.016452515,0.010549911,-0.06726786,-0.40211007,-0.3525785,0.060042426,-3.0738935,0.62212396,0.00033934004,-0.14106132,-0.02354445,0.0024216254,0.031210441,-0.0052037486,0.020786436,0.46862045,-1.3822764,1.9039549,-2.087824,-1.5750388,2.4424832,-0.06677502,0.28311405,-0.3615884,0.09692965,-0.026333233,-0.0872571,-0.30645782,0.038307227,-9.3661175,0.99031126,47.68599,-1.3222933,-1.6641781,-3.668295,-0.023713976,-0.19200571,-0.11080809,22.8125,22.4375,22.25,22.625,22.3125,22.5
0.29605383,-0.6412695,0.12676677,0.34510678,0.0014930809,0.019822134,-0.07315963,-0.4024002,-0.35263652,0.060059987,-3.073872,0.6220435,0.0003522082,-0.13975729,-0.022526084,0.0006803563,0.034064412,-0.011265727,0.018368376,0.46848822,-1.3817116,1.9032019,-2.08762,-1.5750746,2.442304,-0.067442976,0.28542587,-0.36145177,0.10117926,-0.026130643,-0.08550799,-0.30645782,0.05746084,-9.193734,0.9634547,47.704796,-1.2851496,-1.6824126,-3.586803,-0.05195173,-0.18760368,-0.11758572,22.8125,22.4375,22.25,22.625,22.3125,22.5
0.29805368,-0.43804246,1.2481886,0.3285265,0.02141864,0.031111734,-0.07796802,-0.4027128,-0.35269442,0.0600777,-3.0738592,0.6220222,0.00043595748,-0.14028259,-0.022569995,0.0021543847,0.03420288,-0.011899827,0.015445523,0.46834397,-1.3811351,1.9024476,-2.087474,-1.5751227,2.4421484,-0.0678602,0.284871,-0.36547855,0.10639204,-0.02595769,-0.08300329,-0.38307226,-0.13407528,-9.11712,0.9925471,47.7451,-1.2698276,-1.438071,-3.6564322,-0.11007279,-0.20929231,-0.11238173,22.8125,22.4375,22.25,22.625,22.3125,22.5
0.30005357,-0.38717383,1.6752539,0.1443641,0.046277024,0.025700716,-0.079844594,-0.4029515,-0.3527218,0.0600525,-3.073743,0.6219415,0.00029540443,-0.14076738,-0.022375286,0.0008661802,0.03597588,-0.016308235,0.011288518,0.46821177,-1.3805686,1.9017786,-2.0872214,-1.5751704,2.4419813,-0.06881109,0.28964955,-0.36915967,0.110034436,-0.025555337,-0.07979365,-0.22984336,-0.22984336,-9.155427,1.0082139,47.747787,-1.2480695,-1.6035895,-3.5843644,-0.17415796,-0.21634129,-0.14340112,22.8125,22.4375,22.25,22.625,22.3125,22.5
0.30205417,-0.54584324,1.7446588,0.40845534,0.045428436,0.019075466,-0.07701906,-0.40324,-0.3527773,0.060046744,-3.073671,0.6218311,0.00025806343,-0.1410893,-0.022573087,2.5636433e-05,0.03695091,-0.018855581,0.008409934,0.46809185,-1.3799428,1.9010004,-2.0869935,-1.57523,2.4418023,-0.0688617,0.29302543,-0.37186295,0.11207928,-0.025277534,-0.07696402,-0.21068975,-0.22984336,-9.078813,0.96569055,47.72629,-1.268808,-1.7605109,-3.5439389,-0.20502724,-0.24579298,-0.17137319,22.8125,22.4375,22.25,22.625,22.3125,22.5
0.30405512,-1.2416612,0.90870476,0.5565015,0.037041895,0.016259829,-0.072244465,-0.4035134,-0.352819,0.06004043,-3.0735862,0.62187254,0.00019803362,-0.14252107,-0.022179823,-0.00026582068,0.037945855,-0.018794434,0.004436751,0.46794727,-1.3793656,1.9002832,-2.0867774,-1.5752667,2.441695,-0.07014157,0.2955955,-0.374496,0.112545945,-0.02619924,-0.074263126,-0.40222588,-0.22984336,-8.983045,0.92093146,47.70211,-1.2176884,-1.8808045,-3.5362248,-0.23095009,-0.2541594,-0.21248922,22.8125,22.4375,22.25,22.625,22.3125,22.5
0.30605394,-0.5736847,1.1155721,0.341251,0.02424135,0.038992997,-0.07991939,-0.40379107,-0.35285538,0.060036656,-3.0734727,0.62179244,0.00018410065,-0.14421661,-0.022153359,-8.534237e-05,0.03741507,-0.016717443,0.0012798753,0.46782693,-1.3787762,1.8995408,-2.086539,-1.5753626,2.4415398,-0.071304575,0.29703736,-0.3764047,0.11092058,-0.026673492,-0.07226384,-0.36391866,-0.1340753,-9.078813,0.91421866,47.73077,-1.225003,-1.9403062,-3.6175532,-0.20159917,-0.24125731,-0.24193329,22.8125,22.4375,22.25,22.625,22.3125,22.5
0.3080539,-0.6773699,0.10022479,0.5852027,0.005011922,0.05543083,-0.08437683,-0.40409002,-0.35289633,0.060038067,-3.0733972,0.6218346,0.00014105822,-0.14714877,-0.023448719,0.0012328788,0.03501843,-0.011657618,-0.0004633069,0.4676588,-1.3781753,1.898775,-2.0863125,-1.5753988,2.4414082,-0.07145685,0.29900137,-0.38129917,0.10825532,-0.026836198,-0.070668265,-0.24899697,-0.11492168,-9.11712,0.89631605,47.709274,-1.2512063,-1.7601318,-3.5251174,-0.19922403,-0.26119572,-0.27676767,22.8125,22.4375,22.25,22.625,22.3125,22.5
0.31005368,-1.4076595,-1.0023811,0.6136679,-0.015085913,0.056674216,-0.07536315,-0.40437284,-0.35294348,0.06005784,-3.073342,0.62170905,0.00016354492,-0.1498382,-0.023389706,0.002381233,0.033182003,-0.006020883,-0.0031288904,0.46753815,-1.3776227,1.898022,-2.086075,-1.5754713,2.4412167,-0.073258564,0.29877156,-0.38287896,0.10420479,-0.027752886,-0.06979807,-0.51714754,0.15322891,-8.983045,1.0171678,47.741516,-1.1089529,-1.8157437,-3.523683,-0.16621193,-0.2549652,-0.3105256,22.8125,22.4375,22.25,22.625,22.3125,22.5
0.31205335,-2.014908,-1.6175436,0.36766046,-0.028554238,0.05618262,-0.0665698,-0.40465286,-0.35298014,0.060027044,-3.0732079,0.6217175,5.4273936e-05,-0.15111189,-0.024002494,0.0022029562,0.032855913,-0.0035802857,-0.0019811292,0.46739456,-1.3769735,1.8972691,-2.0858366,-1.5755318,2.4410963,-0.07272419,0.30080262,-0.38442278,0.10138392,-0.02858609,-0.07040259,-0.57460845,0.34476504,-9.155427,1.0708755,47.73077,-1.1881225,-1.614684,-3.4959412,-0.13740456,-0.25094923,-0.3328817,22.8125,22.4375,22.25,22.625,22.3125,22.5
0.3140542,-2.0204995,-1.8542999,0.31483087,-0.05399613,0.07163095,-0.08104839,-0.4049737,-0.3530048,0.060028464,-3.073109,0.6217747,6.047114e-05,-0.15353115,-0.024114536,0.0030852577,0.031363808,0.0005044139,-0.004051187,0.46720204,-1.3763605,1.8964909,-2.085622,-1.5756034,2.4409528,-0.0742168,0.30152392,-0.38687208,0.09878743,-0.029109813,-0.069820024,-0.5746084,0.51714754,-9.289502,0.9701675,47.71554,-1.2068107,-1.5522327,-3.699493,-0.08652049,-0.24102245,-0.35259032,22.8125,22.4375,22.25,22.625,22.3125,22.5
0.31605375,-2.3830295,-2.1629786,0.30458575,-0.061834812,0.056613773,-0.06487936,-0.4052647,-0.35303897,0.060007922,-3.0729942,0.62182945,7.5011462e-06,-0.15534708,-0.022951016,0.0033508565,0.031897746,0.0015754681,-0.009089952,0.46704495,-1.3757356,1.8957504,-2.0854175,-1.5756639,2.4408453,-0.07710525,0.30229008,-0.3886159,0.09905483,-0.030072043,-0.06766154,-0.63206923,0.5554548,-9.346964,1.0149267,47.70211,-0.9205444,-1.4795965,-3.6989183,-0.07758509,-0.23705994,-0.4236617,22.8125,22.4375,22.25,22.625,22.3125,22.5
0.31805366,-1.6667111,-2.1561103,0.29709867,-0.06604392,0.06664421,-0.07975924,-0.4055659,-0.3531047,0.060003415,-3.07295,0.6217411,3.3062122e-06,-0.1551692,-0.02338377,0.0027552214,0.032930605,0.0010374247,-0.007144257,0.46692556,-1.3750983,1.8949612,-2.0852263,-1.5757121,2.440677,-0.07570774,0.3040078,-0.38949415,0.0991539,-0.030760283,-0.06820464,-0.6895301,0.47884035,-9.193734,0.9388393,47.749577,-1.1160905,-1.5090435,-3.797254,-0.049749553,-0.22731435,-0.45297733,22.8125,22.4375,22.25,22.625,22.3125,22.5
0.32005435,-1.5464172,-1.9363116,0.2607727,-0.052601527,0.05243205,-0.07214539,-0.40589264,-0.35313696,0.060004845,-3.0728495,0.6217772,5.966312e-05,-0.15640092,-0.022375003,0.0010731003,0.03395372,-0.0019874836,-0.008179133,0.4667565,-1.3744727,1.8941721,-2.085035,-1.5758079,2.440544,-0.07868216,0.30841073,-0.3911561,0.09955166,-0.030327477,-0.070144854,-0.5554548,0.5554548,-9.193734,0.9567419,47.72808,-0.92464185,-1.5096465,-3.8803272,-0.04338692,-0.25047556,-0.46309206,22.8125,22.4375,22.25,22.625,22.3125,22.5
0.32205388,-1.5020614,-1.4656907,-0.12556669,-0.037603825,0.029144295,-0.06314874,-0.40624014,-0.35320014,0.060035896,-3.0728314,0.62181294,0.0001844605,-0.1599289,-0.023356859,0.002580908,0.030769056,0.0018500662,-0.010794299,0.4666,-1.3738588,1.8933343,-2.0848677,-1.5758675,2.4404125,-0.08065499,0.31088653,-0.39748245,0.098532796,-0.029222026,-0.06950762,-0.47884035,0.49799395,-9.251195,0.9925471,47.70838,-0.8594433,-1.642694,-3.7918332,0.01704116,-0.26176977,-0.50636435,22.8125,22.4375,22.25,22.625,22.3125,22.5
0.32405335,-0.6982053,-1.4404106,-0.1441075,-0.026834665,0.04102008,-0.07474164,-0.40651748,-0.35322222,0.059978295,-3.0726933,0.6218195,5.137772e-06,-0.16092981,-0.02342583,0.002121991,0.031021556,0.00064378954,-0.008393013,0.46641967,-1.3731853,1.8926162,-2.0846512,-1.5759038,2.4402547,-0.08149351,0.31383467,-0.40039256,0.09966032,-0.028936297,-0.07274306,-0.4405331,0.4405331,-9.289503,1.0641627,47.70838,-0.7732944,-1.6805599,-3.678184,0.038075887,-0.2689754,-0.50842303,22.8125,22.4375,22.25,22.625,22.3125,22.5
0.3260538,-0.4645841,-0.8322893,0.1617141,-0.017902251,0.036034834,-0.07956348,-0.4068597,-0.3532755,0.059984744,-3.0726454,0.62184584,6.907351e-05,-0.16150738,-0.023503952,0.0019796693,0.03236414,-0.0016752597,-0.004401701,0.46625155,-1.3725355,1.8917907,-2.0844824,-1.5759639,2.4401097,-0.08165511,0.31664822,-0.40448037,0.10357949,-0.02911158,-0.07689403,-0.3256114,0.34476504,-9.136273,0.9835985,47.71286,-0.80780417,-1.7862382,-3.650835,0.030941693,-0.28189468,-0.4836055,22.8125,22.4375,22.25,22.625,22.3125,22.5
0.3280534,-0.46575946,-0.16255137,0.1803254,-0.011386006,0.034163143,-0.07873556,-0.40717825,-0.3533212,0.059986055,-3.0725894,0.6217729,4.6612487e-05,-0.16168562,-0.023320915,0.0011821588,0.03418703,-0.0062750406,-0.00050432404,0.46608338,-1.3718976,1.8909773,-2.0842535,-1.5760115,2.4399037,-0.08228832,0.32041365,-0.4084817,0.10870986,-0.028695256,-0.08142425,-0.3256114,0.3256114,-9.136273,0.9030289,47.709274,-0.7024095,-1.8881168,-3.503584,-0.002694538,-0.29975128,-0.46786797,22.8125,22.4375,22.25,22.625,22.3125,22.5
0.33005384,-0.88879406,-0.21995246,0.06061229,0.012481502,0.023569647,-0.070470355,-0.40750268,-0.35337004,0.059977762,-3.0725045,0.62179047,3.6205608e-06,-0.15789899,-0.02239681,-0.0015379173,0.038938917,-0.01787043,0.005534552,0.46591568,-1.3712238,1.8901418,-2.0840218,-1.5760592,2.4397585,-0.081096746,0.3230896,-0.4076852,0.11769372,-0.027738433,-0.086276226,-0.28730422,0.40222588,-9.078813,0.93436235,47.71465,-0.7553549,-1.8842615,-3.6384854,-0.0731519,-0.31988156,-0.41629416,22.8125,22.4375,22.25,22.625,22.3125,22.5
0.33205363,-0.36429682,0.43441102,0.09561712,0.0077924742,0.022120532,-0.07596458,-0.40781966,-0.35341552,0.059967466,-3.0724068,0.6217464,4.163412e-06,-0.15794511,-0.021607438,-0.0022832602,0.04150148,-0.020422446,0.010128164,0.46577168,-1.3705621,1.8893288,-2.0838068,-1.5761436,2.4396002,-0.08167161,0.3250942,-0.40922147,0.1206217,-0.028910806,-0.091436125,-0.11492168,0.24899697,-9.078813,0.9567419,47.709274,-0.78206956,-1.9114333,-3.8603265,-0.117467046,-0.3253536,-0.36584288,22.8125,22.4375,22.25,22.625,22.3125,22.5
0.33405367,-0.16777073,0.17695247,0.15548873,0.0060939747,0.016944882,-0.08089493,-0.40816107,-0.35346255,0.059976447,-3.0723631,0.6216957,-1.4853446e-05,-0.15710804,-0.020727443,-0.0018076866,0.04355715,-0.024640238,0.01429635,0.46557954,-1.3699024,1.8884677,-2.083564,-1.5761799,2.4393826,-0.082370974,0.32451427,-0.4114877,0.1281243,-0.028873406,-0.096303105,-0.05746084,0.114921674,-9.11712,0.9925471,47.709274,-0.8741633,-1.8286674,-3.8506408,-0.22016722,-0.3472219,-0.30504856,22.8125,22.4375,22.25,22.625,22.3125,22.5
0.33605325,0.44895014,0.36241335,0.21059673,0.012179079,0.01930274,-0.08330158,-0.40845993,-0.35348484,0.05993891,-3.072212,0.62162364,-0.00013146862,-0.15830888,-0.021793129,-0.0011913404,0.042976517,-0.023889137,0.01814104,0.46541166,-1.3692168,1.8876766,-2.0833004,-1.5762638,2.43919,-0.08158885,0.3267257,-0.4160411,0.12950435,-0.028734293,-0.09936056,-0.019153614,0.095768064,-9.078813,0.99031126,47.72629,-0.7412599,-1.7771397,-3.7640471,-0.25993702,-0.3518241,-0.24434382,22.8125,22.4375,22.25,22.625,22.3125,22.5
0.3380536,0.6601033,0.85257417,-0.2494653,0.0113568995,0.014880799,-0.082590505,-0.40876508,-0.35353774,0.059914574,-3.0721169,0.6215243,-0.00024115392,-0.16000047,-0.02323444,-0.0008793434,0.042175878,-0.02156529,0.020087749,0.4652682,-1.3685187,1.8868402,-2.083038,-1.5763115,2.4389973,-0.08028388,0.32990092,-0.42048433,0.12832549,-0.029095033,-0.09999479,0.095768064,0.095768064,-9.2703495,0.9455522,47.704796,-0.87074816,-1.918771,-3.632063,-0.2825175,-0.3592825,-0.20292261,22.8125,22.4375,22.25,22.625,22.3125,22.5
0.34005406,0.21124272,0.4362226,-0.24198246,-0.002294589,0.0111338915,-0.07287905,-0.40911838,-0.3536003,0.059958134,-3.0720997,0.62138593,-0.00011975355,-0.16352743,-0.022697216,0.00024130626,0.04124605,-0.017130021,0.01915963,0.465123,-1.367894,1.8859419,-2.0827987,-1.5763963,2.4387684,-0.08340549,0.3313302,-0.4245223,0.12653254,-0.030278506,-0.10218073,0.24899697,0.019153614,-9.423578,0.9545008,47.67614,-0.8414258,-1.9771059,-3.576838,-0.23120031,-0.3737141,-0.16485064,22.8125,22.4375,22.25,22.625,22.3125,22.5
0.34205395,-0.3470204,-0.123406865,-0.20863149,-0.028239807,0.016177978,-0.07479224,-0.4094317,-0.35361597,0.05993144,-3.0719297,0.62140846,-0.00023446063,-0.16579805,-0.025216142,9.912681e-05,0.038809177,-0.010355635,0.017445572,0.46493223,-1.3672079,1.8851169,-2.082503,-1.5764807,2.4386144,-0.080426894,0.33498934,-0.42688832,0.1181078,-0.03116306,-0.09747617,0.1340753,0.095768064,-9.3661175,0.95897776,47.67166,-0.87044704,-2.0398724,-3.6265893,-0.20277879,-0.35900015,-0.18390606,22.8125,22.4375,22.25,22.625,22.3125,22.5
0.3440538,-0.20516273,-1.0868397,-0.580987,-0.032873444,0.039710194,-0.08103728,-0.40976337,-0.35367164,0.059941087,-3.0718935,0.6212864,-0.00026848508,-0.16650893,-0.02460072,-0.0016522924,0.039921127,-0.011457881,0.015183167,0.46476394,-1.3665462,1.8842453,-2.0822403,-1.5765165,2.438375,-0.08167322,0.33837655,-0.42667237,0.11598775,-0.031672403,-0.09645511,0.0,0.2681506,-9.519346,0.95226496,47.666286,-0.9662798,-2.0614321,-3.6842623,-0.14395764,-0.380263,-0.19109759,22.8125,22.4375,22.25,22.625,22.3125,22.5
0.34605357,-0.89458317,-1.7188693,-0.6194318,-0.053642265,0.04492952,-0.0764618,-0.410081,-0.35371667,0.059918556,-3.0717654,0.6212832,-0.00031277657,-0.16780809,-0.024464397,-0.0024175378,0.039037153,-0.009454597,0.0062688314,0.46461946,-1.3658485,1.8834094,-2.0820024,-1.5766004,2.4382458,-0.08287331,0.34004936,-0.4261791,0.111668035,-0.031765092,-0.08873707,-0.05746084,0.28730422,-9.710882,0.9925471,47.674347,-0.90764457,-2.1880016,-3.8852015,-0.087250635,-0.37730888,-0.2365002,22.8125,22.4375,22.25,22.625,22.3125,22.5
0.34805465,-1.3265017,-1.9392055,-0.7973779,-0.0632727,0.036775324,-0.07193556,-0.41039643,-0.35376498,0.05991394,-3.0716796,0.62118906,-0.0003392934,-0.1683115,-0.024744518,-0.0025801307,0.03949624,-0.009122334,0.003686022,0.4644756,-1.3651876,1.882573,-2.081751,-1.5766729,2.4380548,-0.08239614,0.34153762,-0.42780328,0.11172211,-0.032323252,-0.085670695,0.076614454,0.30645782,-9.787497,0.9835985,47.71465,-0.85848385,-2.2182758,-4.052196,-0.054579325,-0.38551858,-0.29592764,22.8125,22.4375,22.25,22.625,22.3125,22.5
0.35005346,-0.5191517,-2.172982,-0.72299486,-0.055649374,0.03522413,-0.06949825,-0.410773,-0.3538043,0.05993348,-3.0716145,0.62121433,-0.0002495911,-0.17065579,-0.025341896,-0.0018926202,0.03880376,-0.0070191403,0.0022148269,0.46427134,-1.3645141,1.8816742,-2.0815356,-1.5767568,2.4378753,-0.08306911,0.3442866,-0.4329022,0.111874044,-0.032657206,-0.084868796,0.038307227,0.4213795,-9.691729,0.9634547,47.757637,-0.8598129,-2.1401253,-3.981562,-0.050792713,-0.38470203,-0.32940763,22.8125,22.4375,22.25,22.625,22.3125,22.5
0.35205334,-0.6825593,-2.1579888,-0.7900548,-0.04819473,0.017707037,-0.06254555,-0.41108373,-0.35385624,0.059895195,-3.0715187,0.62117285,-0.00036761595,-0.17271699,-0.026417987,0.0012247735,0.036502656,-0.0002533954,0.003401787,0.46411565,-1.3637946,1.8808488,-2.0813081,-1.5767931,2.4377067,-0.082296066,0.34154782,-0.436857,0.11148089,-0.033653848,-0.08527176,-0.30645782,0.51714754,-9.653421,0.92764956,47.733456,-0.8936559,-1.9224498,-3.830968,-0.021576196,-0.38874564,-0.31646425,22.8125,22.4375,22.25,22.625,22.3125,22.5
0.35405403,-0.007180058,-1.1512746,-1.0889167,-0.032216057,0.018135615,-0.075374275,-0.41144666,-0.35392103,0.059934255,-3.071494,0.62111014,-0.00026218803,-0.17342302,-0.02638202,0.0012815011,0.037896328,-0.00024581357,0.003070331,0.4639597,-1.3631455,1.8799285,-2.0810683,-1.5768656,2.4375153,-0.08209058,0.3431895,-0.43950877,0.11310466,-0.034902867,-0.084727086,-0.15322891,0.6512229,-9.902418,1.0149267,47.72002,-0.9767593,-1.7826451,-3.8656359,0.006267583,-0.39427912,-0.3427875,22.8125,22.4375,22.25,22.625,22.3125,22.5
0.3560534,-0.118997335,-0.8247073,-1.256143,-0.037351146,0.018791629,-0.072077796,-0.4118102,-0.35396338,0.05994491,-3.0713918,0.6211843,-0.00019439842,-0.17235482,-0.02580754,0.00059777306,0.041278426,-0.004733482,0.002933527,0.46378005,-1.3624603,1.8790315,-2.0808384,-1.5769619,2.4373958,-0.081426926,0.34477222,-0.44134644,0.11888083,-0.03591137,-0.08391939,-0.095768064,0.5746084,-10.036493,0.99702406,47.729877,-0.9915676,-1.8325574,-3.876788,-0.027933372,-0.38929784,-0.36375874,22.8125,22.4375,22.25,22.625,22.3125,22.5
0.35805428,-0.3208269,-1.0409291,-0.91616446,-0.053528383,0.034997147,-0.08142827,-0.41209507,-0.35399735,0.059883405,-3.0712214,0.6211089,-0.00044032215,-0.17119616,-0.024795072,-0.000365456,0.045283627,-0.011216726,0.0025713062,0.46362406,-1.3617144,1.8782066,-2.0805247,-1.5770105,2.4372156,-0.081642926,0.34702212,-0.44382945,0.12669806,-0.036604203,-0.08375993,-0.17238252,0.4405331,-9.825804,1.0283576,47.733456,-1.0217464,-1.9366071,-4.020228,-0.08878626,-0.37635523,-0.3893853,22.8125,22.4375,22.25,22.625,22.3125,22.5
0.36005393,-0.7720355,-1.3673419,-0.86978203,-0.04248094,0.035315435,-0.0721199,-0.41246173,-0.35405695,0.059939694,-3.0712035,0.6210846,-0.00030794248,-0.1688255,-0.024006957,-0.0029084154,0.05054669,-0.020500798,0.0043087406,0.46345648,-1.3611003,1.8772849,-2.0802705,-1.5770825,2.4370356,-0.08052242,0.35126653,-0.44501254,0.13428055,-0.037150364,-0.084374994,-0.28730422,0.49799395,-9.883265,0.98807013,47.733456,-1.1322613,-2.0137892,-4.1354985,-0.18025269,-0.36279303,-0.41794762,22.8125,22.4375,22.25,22.625,22.3125,22.5
0.36205348,-1.0489025,-0.82717454,-1.0595329,-0.033373237,0.032738574,-0.0717117,-0.41280016,-0.35412425,0.05993688,-3.0711331,0.6210116,-0.0003595681,-0.17015524,-0.022363285,-0.0037813194,0.053230282,-0.024110612,0.0047766888,0.46331114,-1.3603797,1.8763641,-2.079994,-1.5771302,2.4368544,-0.08384366,0.35486442,-0.44853652,0.13860491,-0.037967872,-0.0881549,-0.019153614,0.30645782,-9.940725,0.98135734,47.70032,-1.010753,-2.1248448,-4.1411033,-0.2613335,-0.36268687,-0.36321872,22.8125,22.4375,22.25,22.625,22.3125,22.5
0.36405334,-0.7626458,-0.54153544,-0.38700172,-0.041496627,0.045861512,-0.076634005,-0.41315848,-0.35418525,0.059941713,-3.0710666,0.62091744,-0.00028746593,-0.17112686,-0.024846956,-0.0025440555,0.053080063,-0.022108484,0.009980251,0.4631686,-1.3596714,1.8754538,-2.0797775,-1.577227,2.4366622,-0.07989231,0.35760528,-0.45536518,0.14081557,-0.038752224,-0.08939903,-0.019153614,0.24899697,-9.787497,0.9791215,47.704796,-1.1960505,-2.0871325,-3.8669178,-0.29891467,-0.34217325,-0.39051294,22.8125,22.4375,22.25,22.625,22.3125,22.5
0.36605415,-0.48864585,-0.2930063,-0.34401196,-0.024972856,0.037907034,-0.07558694,-0.41348547,-0.3542122,0.059931528,-3.0709224,0.6208631,-0.00038332416,-0.17594545,-0.025334544,-0.00045614483,0.04931943,-0.013033784,0.014680966,0.46298766,-1.3589754,1.8745664,-2.0794451,-1.5773114,2.4364667,-0.08258707,0.3582903,-0.45979816,0.13470459,-0.03952533,-0.0967825,0.0,0.19153613,-9.576807,0.95226496,47.703903,-1.1697688,-2.0795493,-3.6870584,-0.2865167,-0.33536232,-0.33285403,22.8125,22.4375,22.25,22.625,22.3125,22.5
0.3680543,-0.22553898,0.18233298,-0.7299577,-0.0011918015,0.01863438,-0.07308425,-0.41385812,-0.35427502,0.05996224,-3.0708542,0.6208479,-0.00025249648,-0.17793225,-0.025549714,0.00043753642,0.048835803,-0.0069594574,0.017450385,0.46284372,-1.3582917,1.8736213,-2.0792072,-1.5774201,2.4363227,-0.082393534,0.35797203,-0.46065173,0.13020077,-0.041833773,-0.09934348,0.0,0.17238252,-9.461885,0.97464454,47.741516,-0.99655944,-1.97985,-3.7924132,-0.24296436,-0.32003322,-0.27528343,22.8125,22.4375,22.25,22.625,22.3125,22.5
0.3700539,-0.7290405,-0.17955148,-0.5416708,-0.0076812156,0.010551732,-0.06555464,-0.41423813,-0.3543449,0.0599755,-3.070831,0.6207434,-0.00019332241,-0.18178944,-0.02723002,0.0029346733,0.04446547,0.0030538118,0.021902122,0.46267587,-1.3575616,1.8726624,-2.0789826,-1.5774802,2.436093,-0.08234136,0.35760278,-0.46465883,0.123625934,-0.042444717,-0.103737995,0.019153614,0.05746084,-9.500193,1.0216395,47.73614,-1.2184366,-1.7755561,-3.828312,-0.1471483,-0.3071811,-0.22955737,22.8125,22.4375,22.25,22.625,22.3125,22.5
0.37205344,-0.81940466,-0.3092801,-0.29544827,-0.023899682,0.029014746,-0.07453775,-0.41459897,-0.35439065,0.05998185,-3.0707786,0.6206527,-0.00018645717,-0.18419,-0.027633715,0.0038990863,0.04238818,0.008716484,0.02591471,0.46248367,-1.3568655,1.871754,-2.0787323,-1.5775403,2.4358516,-0.08314132,0.3576815,-0.46613407,0.11898375,-0.04315988,-0.10854395,-0.05746084,-0.05746084,-9.442732,0.9545008,47.711964,-1.1470332,-1.7073183,-3.8452988,-0.067840815,-0.29030457,-0.161993,22.8125,22.4375,22.25,22.625,22.3125,22.5
