Tylouw/Master_Thesis_Code/test_recorded_data/real_test8/insertion_3_2026-02-24_19-00-03.csv
timestamp[s],tcp_force_x[N],tcp_force_y[N],tcp_force_z[N],tcp_force_rx[Nm?],tcp_force_ry[Nm?],tcp_force_rz[Nm?],tcp_pose_x[m],tcp_pose_y[m],tcp_pose_z[m],tcp_pose_rx[rot_vec_x],tcp_pose_ry[rot_vec_y],tcp_pose_rz[rot_vec_z],tcp_velo_x[m/s],tcp_velo_y[m/s],tcp_velo_z[m/s],tcp_velo_rx[rot_vec_x/s],tcp_velo_ry[rot_vec_y/s],tcp_velo_rz[rot_vec_z/s],q1[rad],q2[rad],q3[rad],q4[rad],q5[rad],q6[rad],qd1[rad/s],qd2[rad/s],qd3[rad/s],qd4[rad/s],qd5[rad/s],qd6[rad/s],tool_acc_x,tool_acc_y,tool_acc_z,current_of_whole_robot[A],voltage_of_whole_robot[V],current_J1[A],current_J2[A],current_J3[A],current_J4[A],current_J5[A],current_J6[A],temp_J1[C],temp_J2[C],temp_J3[C],temp_J4[C],temp_J5[C],temp_J6[C]
9.919895e-07,0.10938851,0.2540454,1.1165168,0.0027043684,0.004318985,-0.032584224,-0.38151708,-0.3495389,0.08491953,-3.078463,0.6248263,-0.0002873374,-0.00050707057,-0.00031052605,-0.00011797121,-0.00043676645,0.00054204784,0.000117728436,0.47916603,-1.423526,1.9549869,-2.1004145,-1.5707697,2.4540968,-1.0634862e-20,0.001089812,-0.00074002304,-0.0010326683,0.00013365663,-0.00011722853,0.095768064,0.15322891,-8.7532015,0.7597976,47.721813,-0.14783868,-3.064654,-2.1864915,-0.45136502,0.15604463,-0.24348003,28.25,29.4375,28.625,32.6875,35.1875,36.4375
0.002556663,0.45052832,0.050812278,1.0853535,0.021208247,0.00074755464,-0.038707122,-0.38149714,-0.34955004,0.08490341,-3.0784552,0.62488264,-0.00034015006,-0.0005494558,-0.00033744567,-0.0025449425,-0.0010254154,0.0016251837,0.0001156115,0.47919,-1.4235132,1.9550122,-2.1004288,-1.5707458,2.4541569,-1.4268024e-22,0.003671047,0.003746037,-0.009332567,0.00014712349,-0.00011535035,0.15322891,0.076614454,-8.676587,0.7396539,47.713753,-0.12838754,-3.1689296,-2.169193,-0.4236126,0.14219572,-0.24392836,28.25,29.4375,28.625,32.6875,35.1875,36.4375
0.005055209,0.25203332,0.74903685,1.334614,0.016528724,-0.012868567,-0.034937106,-0.38153374,-0.34954906,0.08491,-3.0784435,0.624861,-0.00022200387,-0.00057341385,-0.00034952458,-0.0026943423,-0.0014410987,0.0024231588,0.0001136015,0.47919,-1.4234772,1.9549645,-2.1004655,-1.5708054,2.454145,-1.9142376e-24,0.0034475916,0.004717321,-0.010980155,0.00014637275,-0.00011353154,0.24899697,0.019153614,-8.599973,0.7620334,47.731667,-0.13098538,-3.4012055,-2.5777164,-0.35759914,0.16288845,-0.2297741,28.25,29.4375,28.625,32.6875,35.1875,36.4375
0.007555448,0.7570105,1.5828383,0.71621317,0.065935045,-0.050345145,-0.033419874,-0.38152438,-0.3495536,0.084915705,-3.0784914,0.62489015,-0.00023998182,-0.0010176908,-0.0005793714,0.00036288207,-0.0019410885,0.0034107538,0.000110570145,0.47917795,-1.4235145,1.9549989,-2.100487,-1.5707573,2.454145,-3.44556e-28,2.6823007e-05,5.013318e-05,-0.00399905,0.00014080085,-0.00011006059,0.1340753,-0.076614454,-8.772355,0.7709874,47.716442,-0.102730796,-3.1709156,-2.3831425,-0.40088385,0.16459194,-0.24392866,28.25,29.4375,28.625,32.6875,35.1875,36.4375
0.010056329,0.63641024,1.2584392,0.3354203,0.059965406,-0.037991293,-0.03387457,-0.38151452,-0.34952673,0.08490344,-3.0784392,0.6248981,-0.00027502797,-0.00060043484,-0.00036854338,0.00023336799,-0.0012308765,0.0020054353,0.00010856442,0.479154,-1.4235265,1.9550351,-2.1004627,-1.5707816,2.4541326,-4.6226584e-30,3.5986486e-07,6.726006e-07,-0.0023487117,0.00016224808,-0.000108403474,0.038307227,-0.05746084,-9.040505,0.67475104,47.713753,-0.37861294,-2.4927444,-3.0701852,-0.4183101,0.14342356,-0.25846016,28.25,29.4375,28.625,32.6875,35.1875,36.4375
0.012555582,0.20991221,0.124390684,0.20745596,0.012883335,-0.007262934,-0.043303903,-0.38154647,-0.3495394,0.084917046,-3.0784526,0.6249007,-0.00021921826,-0.0028522557,-0.0015115938,-0.00055338384,-0.00048437805,0.0005377758,2.6161431e-05,0.47915396,-1.4234883,1.9549602,-2.1004622,-1.5707935,2.4541326,-6.6256915e-05,0.0073854276,-0.006899281,-0.0011873078,0.00016428018,-8.7855304e-05,0.11492168,-0.019153614,-9.212888,0.7866488,47.695843,-0.48495305,-2.504467,-3.0841577,-0.39950782,0.14681904,-0.29411262,28.25,29.4375,28.625,32.6875,35.1875,36.4375
0.015054197,-0.7206627,-1.4250699,-0.052778546,-0.02656382,0.0243242,-0.029155739,-0.38150433,-0.34953842,0.08486895,-3.078383,0.62486964,-0.0004230187,-0.005275462,-0.0007240766,-0.0034276142,0.0022201573,-0.004673516,-0.0035805877,0.47917697,-1.4234245,1.9549836,-2.1004016,-1.5707697,2.454145,-0.0037098285,0.017016502,-0.011528474,-0.00031789445,0.00015899513,-0.00012101516,-0.095768064,0.17238252,-9.3661175,0.842603,47.719128,-0.5659989,-3.0653124,-2.9857388,-0.40804997,0.14760128,-0.311702,28.25,29.4375,28.625,32.6875,35.1875,36.4375
0.01755546,-2.0747302,-2.5857174,-0.5294883,-0.07152143,0.05948544,-0.036874745,-0.38150477,-0.3495205,0.08485566,-3.078317,0.6248918,-0.0005100623,-0.007207174,-0.00044635107,-0.0015167344,0.0007798547,-0.0018960375,0.0016639706,0.4791519,-1.4233893,1.9549574,-2.1003296,-1.5707816,2.454142,-0.0059849825,0.01571063,-0.014713763,0.0010432582,0.00014853307,-0.007639602,-0.4405331,0.53630114,-9.653421,0.7597976,47.71286,-0.33082855,-2.548546,-3.2797384,-0.41064724,0.12260761,-0.265028,28.25,29.4375,28.625,32.6875,35.1875,36.4375
0.020054745,-1.4522644,-1.9068896,-0.44173136,-0.07504482,0.085198164,-0.050441846,-0.38151145,-0.3495351,0.08482939,-3.0783367,0.62479854,-0.0005387018,-0.00691236,-0.0010289677,-0.0015457086,0.0015583569,-0.0033826334,0.003563137,0.47916442,-1.423317,1.9549454,-2.1003764,-1.5707697,2.454094,-0.0046774903,0.017031282,-0.016686993,0.0033739412,0.00014378673,-0.008230529,-0.53630114,0.7086837,-9.844957,0.7642693,47.717335,-0.49208853,-2.5754955,-3.298318,-0.4433393,0.1278691,-0.26571172,28.25,29.4375,28.625,32.6875,35.1875,36.4375
0.022555089,-1.9896122,-2.093799,-0.80923605,-0.057939608,0.076210715,-0.04859798,-0.3815363,-0.34954134,0.08485329,-3.0783522,0.6248392,-0.0004939403,-0.00786028,-0.0015158198,-0.0017694619,0.0015600087,-0.0033893564,0.004841593,0.4791524,-1.423316,1.9548844,-2.100353,-1.5707697,2.4541054,-0.0046914,0.01964964,-0.019127293,0.0032024106,0.000139334,-0.009521211,-0.6703765,0.7278373,-9.940725,0.7530795,47.681515,-0.62038237,-2.6177282,-3.275119,-0.41627312,0.13330486,-0.26742882,28.25,29.4375,28.625,32.6875,35.1875,36.4375
0.025054986,-1.7342724,-1.9123943,-0.82625765,-0.07261533,0.07560359,-0.06170092,-0.3815473,-0.34953326,0.084826276,-3.0783145,0.62483186,-0.0005684403,-0.008931542,-0.001482404,-0.0020398041,0.0014150837,-0.003071781,0.005047997,0.47912788,-1.4232432,1.9548601,-2.1003406,-1.5707697,2.454081,-0.005729189,0.021554291,-0.020481769,0.0023034906,0.000115130744,-0.01076421,-0.53630114,0.7086837,-10.093954,0.7978386,47.681515,-0.6228359,-2.641239,-3.3665514,-0.41138703,0.13186383,-0.23930466,28.25,29.4375,28.625,32.6875,35.1875,36.4375
0.027555244,-1.3365602,-1.6769718,-0.6773328,-0.073650755,0.058091767,-0.07492434,-0.3815894,-0.34954384,0.08483748,-3.07834,0.6247422,-0.00052539766,-0.0126716755,-0.00153167,-0.00033380487,-0.0007738317,0.0011399696,0.0023139396,0.47911474,-1.4231826,1.9547628,-2.1003296,-1.5707816,2.4540088,-0.009098964,0.023178048,-0.026055343,0.0015065059,0.00010202235,-0.0113967005,-0.6512229,0.36391866,-9.959879,0.7642693,47.693153,-0.5935111,-2.5727954,-3.2604117,-0.39162588,0.11493416,-0.23219842,28.25,29.4375,28.625,32.6875,35.1875,36.4375
0.030054305,-1.4513619,-1.0424697,-0.5818941,-0.03530795,0.04140497,-0.09448556,-0.3816241,-0.34954017,0.084803954,-3.0783079,0.62485194,-0.00063363893,-0.014131559,-0.0018510227,0.00037318328,-0.0017196998,0.0029530674,0.000619099,0.47905463,-1.4230621,1.9547018,-2.1003296,-1.5707458,2.4540212,-0.009882228,0.024115993,-0.02865943,0.0011282098,9.918405e-05,-0.010483608,-0.49799395,0.34476507,-9.902418,0.76874626,47.692257,-0.6316513,-2.577536,-3.2229128,-0.36887467,0.11470834,-0.2713537,28.25,29.4375,28.625,32.6875,35.1875,36.4375
0.032554697,-1.1664909,-0.21806535,-0.6938436,-0.0028575372,0.043059688,-0.09646658,-0.38167688,-0.34956616,0.08483836,-3.0783708,0.62482715,-0.00046490686,-0.015526169,-0.0017822706,0.00016719068,-0.0016646493,0.002844958,-0.0015359935,0.47906604,-1.4230372,1.9546055,-2.1003773,-1.5707697,2.4540093,-0.011294613,0.02666817,-0.031108601,0.0011463957,9.652277e-05,-0.009739257,-0.4213795,0.19153613,-9.844957,0.71951014,47.64927,-0.62983155,-2.5497105,-3.2072196,-0.35475656,0.12050244,-0.26856035,28.25,29.4375,28.625,32.6875,35.1875,36.4375
0.03505592,-0.9494684,0.4451843,-0.34641823,0.030931164,0.035750564,-0.114537105,-0.38170883,-0.34957197,0.084827654,-3.078354,0.6248244,-0.00046883637,-0.016816061,-0.0020610157,0.00029037832,-0.0016717046,0.002852687,-0.002171544,0.47905385,-1.4229524,1.954533,-2.1003768,-1.5707816,2.4539976,-0.011994229,0.029083014,-0.034333073,0.0019457933,9.400209e-05,-0.0098014865,-0.30645782,0.15322891,-9.672575,0.7486078,47.67793,-0.62907517,-2.61651,-3.152647,-0.32466662,0.09630978,-0.2980499,28.25,29.4375,28.625,32.6875,35.1875,36.4375
0.037555434,-0.58929104,0.77751404,-0.11011009,0.034751724,0.0298542,-0.12093184,-0.38177252,-0.34957632,0.08482554,-3.078386,0.624811,-0.00050279,-0.019528583,-0.002304463,0.001610511,-0.0029170136,0.005238738,-0.0025507486,0.47898114,-1.4228437,1.9544109,-2.100365,-1.5707458,2.4539125,-0.014069168,0.03086785,-0.039563797,0.0027003468,8.9336536e-05,-0.011494472,-0.21068975,-0.15322891,-9.691729,0.7329411,47.63673,-0.6087819,-2.491989,-3.0722775,-0.3015623,0.10391388,-0.2952569,28.25,29.4375,28.625,32.6875,35.1875,36.4375
0.04005487,-0.14097454,0.3691643,-0.28359365,0.023323797,0.03711144,-0.13716227,-0.38184765,-0.3495871,0.08485787,-3.0784078,0.62487257,-0.0003785849,-0.020310258,-0.0022978564,0.0010762763,-0.002326086,0.0041004773,-0.0019875162,0.4789449,-1.4227827,1.9542674,-2.100365,-1.5707697,2.453912,-0.014801502,0.033526912,-0.04151262,0.0032721462,8.7173314e-05,-0.012788747,-0.15322891,-0.17238252,-9.672575,0.7418897,47.639416,-0.6946329,-2.481186,-3.085023,-0.2973689,0.08223128,-0.30442366,28.25,29.4375,28.625,32.6875,35.1875,36.4375
0.042555187,-0.5232973,-0.13800329,-0.18843196,0.024767313,0.023871724,-0.14774129,-0.38183963,-0.34959212,0.084833905,-3.078389,0.6248886,-0.0005284895,-0.021227526,-0.0020086959,0.00080248393,-0.0017205916,0.002975556,-0.0027375168,0.47893235,-1.422722,1.9542416,-2.1003163,-1.5707215,2.4539118,-0.016150756,0.035643525,-0.043589607,0.004510531,6.5256994e-05,-0.013386837,-0.17238252,-0.15322891,-9.672575,0.65684843,47.683304,-0.6337328,-2.5289254,-3.0890903,-0.2935555,0.08080593,-0.29389554,28.25,29.4375,28.625,32.6875,35.1875,36.4375
0.04505432,-0.33773017,0.017364817,-0.09155687,0.014624495,0.026223568,-0.15850301,-0.38188538,-0.3495984,0.08484144,-3.078413,0.6248349,-0.00047416988,-0.021631552,-0.002200031,0.0015555314,-0.0020906455,0.003693039,-0.0017515632,0.47890827,-1.422662,1.9541587,-2.1003282,-1.5707334,2.4538512,-0.016181763,0.03521771,-0.045077182,0.0056163594,6.245261e-05,-0.014403336,-0.114921674,-0.019153614,-9.481039,0.73741806,47.705692,-0.64982903,-2.5244248,-3.1427689,-0.27852404,0.08513309,-0.29493997,28.25,29.4375,28.625,32.6875,35.1875,36.4375
0.047555037,-0.40194944,-0.10246857,-0.21326062,0.010554583,0.03246312,-0.17350295,-0.38198444,-0.34960523,0.08486665,-3.0784135,0.62493116,-0.0004058285,-0.022698093,-0.002220445,0.0015020985,-0.0011409697,0.002240495,-0.0016940536,0.478836,-1.4225408,1.9539541,-2.100291,-1.5707458,2.453839,-0.017024152,0.03804008,-0.04877654,0.008220435,-0.00011255546,-0.015301118,-0.095768064,0.17238252,-9.519346,0.7351769,47.629562,-0.63007236,-2.4167325,-3.193757,-0.2996812,0.0803007,-0.2676376,28.25,29.4375,28.625,32.6875,35.1875,36.4375
0.05005531,-0.7830501,-1.0931976,-0.24065126,0.00638129,0.026419602,-0.16091345,-0.38205236,-0.34959742,0.08488978,-3.0784178,0.6249138,-0.00028581274,-0.02332045,-0.002212988,0.0014257598,-0.0010175012,0.0020393012,-0.0025509074,0.47878784,-1.4224924,1.9538459,-2.100291,-1.5707935,2.4537797,-0.017599385,0.039294932,-0.050108667,0.00853255,-0.00013045385,-0.015018672,-0.076614454,0.13407528,-9.576807,0.80679786,47.66539,-0.5863145,-2.369102,-3.2671776,-0.29983026,0.0757094,-0.27754295,28.25,29.4375,28.625,32.6875,35.1875,36.4375
0.05255491,-0.68793195,-1.3244375,-0.33910078,-0.018326849,0.025171824,-0.15139285,-0.38208392,-0.34962317,0.08486673,-3.0784216,0.62489516,-0.00040564153,-0.025132492,-0.0026936522,0.0025124184,-0.0021434312,0.0042592813,-0.0034540652,0.47877565,-1.4223478,1.9537252,-2.1002557,-1.5707458,2.4537554,-0.018404042,0.04034946,-0.053847104,0.008728225,-0.00016227756,-0.014918124,-0.019153614,0.3256114,-9.481039,0.6926589,47.72808,-0.6119461,-2.3058991,-3.168532,-0.28403586,0.072796404,-0.26916316,28.25,29.4375,28.625,32.6875,35.1875,36.4375
0.055045012,-1.021676,-1.9974458,-0.3042592,-0.018980103,0.009013448,-0.14370002,-0.38213962,-0.3496158,0.084889285,-3.0784104,0.6249119,-0.0003018368,-0.024607513,-0.0022842565,0.0014056521,-0.000381396,0.00095327984,-0.0030022962,0.47873956,-1.4223112,1.9536289,-2.1002424,-1.5707935,2.4537313,-0.018619945,0.04225176,-0.053932413,0.010656567,-0.00019840979,-0.015585767,-0.076614454,0.34476504,-9.557653,0.65908957,47.7254,-0.6903423,-2.3201292,-3.1976879,-0.27433017,0.055704854,-0.25823689,28.25,29.4375,28.625,32.6875,35.1875,36.4375
0.057555187,-0.58452195,-1.5409234,-0.060849123,-0.041251343,0.015185515,-0.1493475,-0.38224024,-0.34963953,0.0848933,-3.0784225,0.6249915,-0.0003381784,-0.026391208,-0.0020958192,0.0015846528,0.00035068294,0.0013888811,-0.0031354518,0.47866705,-1.4221182,1.9533881,-2.1001942,-1.5707577,2.453707,-0.020085638,0.044835884,-0.057521075,0.011615122,-0.0010548416,-0.01691471,-0.05746084,0.45968673,-9.557653,0.81351066,47.694946,-0.6049572,-2.2171178,-3.3499284,-0.29209924,0.065124765,-0.23995161,28.25,29.4375,28.625,32.6875,35.1875,36.4375
0.06005416,-0.64138705,-1.8596121,-0.105646625,-0.025781324,0.014137689,-0.14665368,-0.38231474,-0.34963095,0.08490856,-3.0784376,0.6250322,-0.00029437256,-0.028900592,-0.0032209354,0.0032573051,-0.0017885275,0.0053211474,-0.0036411802,0.47858292,-1.4220456,1.9532675,-2.1001823,-1.5707577,2.4536464,-0.020453213,0.046226274,-0.06280167,0.011029354,-0.0009788445,-0.01677378,-0.05746084,0.45968673,-9.346964,0.6725152,47.647476,-0.57377744,-2.2227397,-3.2318053,-0.2811579,0.08085085,-0.24130946,28.25,29.4375,28.625,32.6875,35.1875,36.4375
0.06255488,-0.5170425,-1.1499547,-0.09664653,-0.026813688,0.022772066,-0.14885989,-0.38237315,-0.34964377,0.08491654,-3.0784278,0.62510747,-0.0002534925,-0.02832452,-0.0029986692,0.0017506854,-0.0008362453,0.0032420077,-0.003405369,0.47855896,-1.421949,1.9531363,-2.1001713,-1.5707701,2.4536707,-0.02037941,0.04804399,-0.061178878,0.009872283,-0.00086540234,-0.016936323,-0.11492168,0.45968673,-9.346964,0.74413085,47.681515,-0.58543044,-2.1335857,-3.315679,-0.26578042,0.05270268,-0.24549869,28.25,29.4375,28.625,32.6875,35.1875,36.4375
0.065054774,-0.27249935,-1.3557806,0.19898188,-0.026347216,0.03427712,-0.15020317,-0.38243058,-0.34964648,0.08493251,-3.0784576,0.62507457,-0.00021019392,-0.029745487,-0.003414347,0.0023192612,-0.0016935552,0.0046816226,-0.0029998107,0.47851068,-1.4218882,1.9530276,-2.100159,-1.5707701,2.4535983,-0.021007882,0.04942522,-0.064008415,0.009647373,-0.0007734324,-0.017968886,-0.05746084,0.38307226,-9.385271,0.784413,47.703903,-0.61129636,-2.1347408,-3.3909116,-0.25115883,0.050392956,-0.23437288,28.25,29.4375,28.625,32.6875,35.1875,36.4375
0.06755465,-0.34888598,-0.98576117,0.20036383,-0.010283749,0.017740311,-0.14383353,-0.3825732,-0.34966528,0.084963664,-3.0784914,0.6250421,-0.00010003391,-0.03177626,-0.0039519607,0.002741824,-0.0021709914,0.0055573685,-0.002665803,0.47842634,-1.4216949,1.9527272,-2.1001232,-1.570794,2.4534895,-0.021931931,0.05256879,-0.0687027,0.0102001,-0.0007602169,-0.019224318,-0.05746084,0.34476504,-9.3661175,0.7396539,47.66808,-0.6086383,-2.0172417,-3.3460984,-0.23784977,0.034335732,-0.2041771,28.25,29.4375,28.625,32.6875,35.1875,36.4375
0.07005411,-0.42176008,-0.38717127,0.24614501,-0.01075202,0.010714901,-0.14740394,-0.38263637,-0.3496752,0.08495809,-3.0784738,0.6251352,-0.00012780407,-0.032493617,-0.004246114,0.0026292806,-0.0022014093,0.005611772,-0.002332731,0.47837836,-1.4215624,1.9525827,-2.1000984,-1.5707821,2.453502,-0.022068331,0.054327212,-0.07044588,0.010122687,-0.0007622743,-0.019692633,-0.076614454,0.2681506,-9.232041,0.779936,47.70032,-0.5788719,-2.034302,-3.3631957,-0.253121,0.039780248,-0.20177776,28.25,29.4375,28.625,32.6875,35.1875,36.4375
0.07255466,-0.2861505,-0.17093915,0.15401204,-0.006255194,0.01377155,-0.14251257,-0.38268965,-0.3496989,0.08495362,-3.078473,0.6250955,-0.000115791416,-0.033588063,-0.004529374,0.0029165316,-0.0026842412,0.0065080374,-0.0017624976,0.47837812,-1.4214298,1.9524387,-2.1000874,-1.570794,2.4534771,-0.022582177,0.055677902,-0.07260644,0.00991416,-0.00075162516,-0.020775422,-0.038307227,0.24899697,-9.270349,0.6725152,47.703903,-0.6468919,-2.0125647,-3.407838,-0.22927386,0.026391253,-0.19850506,28.25,29.4375,28.625,32.6875,35.1875,36.4375
0.075054176,-0.28142238,-0.4112634,0.25371373,0.0068755685,0.013131969,-0.14772905,-0.3827631,-0.34970722,0.08497246,-3.0785027,0.62514067,-7.203989e-05,-0.034007277,-0.0044070096,0.002123001,-0.0018630931,0.004858335,-0.0022503024,0.47831786,-1.4213448,1.9522957,-2.100075,-1.5707821,2.4534414,-0.023198646,0.058177114,-0.07377285,0.010423962,-0.00072127534,-0.020903304,-0.038307227,0.24899697,-9.289502,0.7732232,47.701214,-0.6298245,-1.9944909,-3.4713497,-0.19666973,0.02051374,-0.18300879,28.25,29.4375,28.625,32.6875,35.1875,36.4375
0.07755405,-0.76651305,-0.28054595,0.13123964,0.010915315,0.01047616,-0.1427817,-0.38290414,-0.34974846,0.08497154,-3.0785367,0.6251074,-8.261791e-05,-0.03498397,-0.004706834,0.0020759536,-0.0011742943,0.0036708775,-0.0012360776,0.47824594,-1.4210554,1.9519585,-2.1000388,-1.5707577,2.4533446,-0.023520224,0.061057974,-0.077477,0.012619011,-0.00078886555,-0.022237169,-0.05746084,0.11492168,-9.212888,0.7553206,47.64658,-0.6389704,-1.9316036,-3.488132,-0.19421628,0.0057754475,-0.18145378,28.25,29.4375,28.625,32.6875,35.1875,36.4375
0.0800547,0.005818277,0.019163858,0.08556246,-0.0040953187,0.029142438,-0.15455922,-0.38297722,-0.3497444,0.08497165,-3.0785062,0.6251584,-6.062232e-05,-0.03615992,-0.0051641106,0.002410233,-0.0014842341,0.004289274,-0.00041672934,0.47818583,-1.4209348,1.9518145,-2.100014,-1.5707821,2.4533203,-0.023781972,0.06292904,-0.08049106,0.013069633,-0.0008037242,-0.023316553,-0.076614454,0.076614454,-9.251195,0.8247004,47.709274,-0.7028127,-1.8961568,-3.519407,-0.2113466,-0.016054766,-0.14706331,28.25,29.4375,28.625,32.6875,35.1875,36.4375
0.082554154,-0.7031865,-0.59409046,0.09895524,0.009463632,0.018908413,-0.14409353,-0.38307256,-0.34975046,0.08499248,-3.078515,0.6251991,-5.8977203e-05,-0.037561417,-0.0052696643,0.0017026002,-0.0008228457,0.0030254312,-0.0010313782,0.47810137,-1.420801,1.9515976,-2.099942,-1.5707701,2.4532602,-0.024874212,0.067093685,-0.08377217,0.0136127155,-0.00081473094,-0.023791973,-0.19153613,0.11492168,-9.289502,0.7396539,47.672558,-0.64575535,-2.0012953,-3.3441787,-0.2031611,0.007970856,-0.16480723,28.25,29.4375,28.625,32.6875,35.1875,36.4375
0.08505441,-0.5847535,-0.5258366,-0.12240302,0.008781658,0.029050829,-0.1386843,-0.38313136,-0.34975824,0.084988,-3.07851,0.6252369,-8.5396365e-05,-0.03828048,-0.0056182113,0.0030451096,-0.001941402,0.0053584063,-0.001490411,0.47805345,-1.4206815,1.9514655,-2.0999181,-1.5707577,2.4532366,-0.024864892,0.065756634,-0.085402444,0.013994656,-0.00089753716,-0.02332297,-0.17238252,0.19153613,-9.32781,0.82694155,47.681515,-0.65135765,-2.017065,-3.4795988,-0.19259542,0.0010652266,-0.14034268,28.25,29.4375,28.625,32.6875,35.1875,36.4375
0.08755421,-0.5919148,-0.40944448,-0.3255217,-0.0060570496,0.04428852,-0.14494947,-0.38326064,-0.349766,0.0849651,-3.0784488,0.6251662,-0.00014025063,-0.039785363,-0.006365836,0.0021711658,-0.0008749748,0.0033103528,-0.0016389014,0.47796944,-1.4203793,1.9511527,-2.0998337,-1.570794,2.4531164,-0.024914015,0.0717453,-0.09063501,0.015546782,-0.00091131945,-0.023220317,-0.2681506,0.2681506,-9.423578,0.800085,47.65643,-0.75819266,-1.8905952,-3.4227195,-0.18421216,-0.025176998,-0.1595267,28.25,29.4375,28.625,32.6875,35.1875,36.4375
0.09005372,-0.56679255,-0.3884093,-0.31977275,-0.026266273,0.051847015,-0.14899012,-0.38333967,-0.34979478,0.08498598,-3.0784996,0.6251569,-0.000107513544,-0.04082358,-0.0064072446,0.0028618062,-0.001283285,0.0044663525,-0.0016884024,0.4779332,-1.4202588,1.9509615,-2.0998094,-1.5707701,2.453068,-0.025688896,0.07204786,-0.092688665,0.01608465,-0.0010826098,-0.02394451,-0.24899697,0.3256114,-9.576807,0.7665104,47.670765,-0.7771188,-1.9245845,-3.441878,-0.19803777,-0.022633687,-0.1398941,28.25,29.4375,28.625,32.6875,35.1875,36.4375
0.09255438,-0.68541616,-1.0232142,-0.56805,-0.030394945,0.0592542,-0.1509668,-0.38343802,-0.34979835,0.084996305,-3.0784771,0.6252679,-0.00010800256,-0.04235012,-0.006306307,0.0033861583,-0.00136922,0.0055376966,-0.002437551,0.4778488,-1.4201022,1.950745,-2.0997493,-1.5707701,2.4530559,-0.027012685,0.07332507,-0.095477715,0.016607003,-0.0015035383,-0.024516987,-0.3256114,0.38307226,-9.634268,0.75755644,47.711063,-0.75607705,-1.7758136,-3.476799,-0.17802212,-0.038706675,-0.13578811,28.25,29.4375,28.625,32.6875,35.1875,36.4375
0.09505425,-1.1078691,-1.2633224,-0.4265927,-0.033286758,0.05291808,-0.15219536,-0.38351908,-0.34980813,0.0849912,-3.078472,0.6251896,-5.886193e-05,-0.042531013,-0.0062729088,0.0024181288,0.0007062882,0.0045375284,-0.0016837991,0.47781292,-1.4199451,1.9505767,-2.0997493,-1.5708064,2.452972,-0.026407268,0.07602779,-0.09638429,0.016657492,-0.0028880904,-0.024662178,-0.2681506,0.38307226,-9.691729,0.7732232,47.7245,-0.7201388,-1.7877419,-3.4584215,-0.18042491,-0.026765415,-0.12995765,28.25,29.4375,28.625,32.6875,35.1875,36.4375
0.097554035,-1.4158907,-1.4348503,-0.42287186,-0.03202965,0.048058584,-0.14022702,-0.38370728,-0.34985137,0.085032456,-3.0785205,0.62518066,2.8611403e-05,-0.04543964,-0.006254575,0.00276932,4.1056755e-05,0.005421185,-0.004048342,0.4777159,-1.4196558,1.9501323,-2.0996664,-1.5708064,2.4528635,-0.029207248,0.079804696,-0.101614736,0.017019482,-0.0027119664,-0.02509505,-0.2681506,0.38307226,-9.749189,0.77545905,47.670765,-0.6787294,-1.7414992,-3.5332837,-0.17440033,-0.028306987,-0.1283752,28.25,29.4375,28.625,32.6875,35.1875,36.4375
0.10005383,-0.7777901,-1.1171705,-0.67383945,-0.035348903,0.04953921,-0.15269247,-0.38377604,-0.34985736,0.08502457,-3.0785031,0.6252349,-1.3874432e-05,-0.04673556,-0.0069716168,0.0030821553,-0.0008334301,0.0062705697,-0.004001958,0.47765598,-1.4195108,1.9499758,-2.09963,-1.5707945,2.4528396,-0.02935157,0.081984825,-0.104804344,0.016871376,-0.002333408,-0.025284387,-0.2681506,0.2681506,-9.615114,0.7530795,47.667187,-0.61812377,-1.5860071,-3.4150896,-0.15813869,-0.056779444,-0.111302726,28.25,29.4375,28.625,32.6875,35.1875,36.4375
0.10255439,-0.61297333,-1.1181833,-0.5369728,-0.030826198,0.04875248,-0.1495294,-0.38387728,-0.3498736,0.08501456,-3.0785115,0.6252352,-2.8681627e-05,-0.04727513,-0.007802481,0.0021121285,-0.00023130569,0.0048329355,-0.003003875,0.47758427,-1.4193051,1.9497603,-2.0996182,-1.5707825,2.4527671,-0.028443035,0.08618885,-0.10741321,0.016829444,-0.0022127456,-0.025372207,-0.28730422,0.34476504,-9.768343,0.79560274,47.658226,-0.6793207,-1.6496203,-3.423765,-0.1565509,-0.05694356,-0.13370278,28.25,29.4375,28.625,32.6875,35.1875,36.4375
0.10505381,-0.46860373,-0.65894985,-0.4218721,-0.033770718,0.044835992,-0.14749517,-0.3839715,-0.34989274,0.08504315,-3.0785043,0.625234,7.670545e-05,-0.04912717,-0.008324603,0.0022466742,-0.0007144465,0.0057338383,-0.0041462416,0.47756004,-1.4191719,1.9495314,-2.09957,-1.5708307,2.4527433,-0.029223215,0.08936568,-0.11129952,0.01651554,-0.0022054797,-0.025007691,-0.2681506,0.38307226,-9.730036,0.75755644,47.703007,-0.7208851,-1.8053672,-3.3950083,-0.12139806,-0.050307192,-0.1425229,28.25,29.4375,28.625,32.6875,35.1875,36.4375
0.10755501,-0.94272506,-1.1593721,-0.44258663,-0.018260086,0.02823169,-0.14130458,-0.3842091,-0.34991935,0.08508045,-3.0785217,0.62539226,0.0002310148,-0.05316175,-0.008029753,0.0034570452,0.00047742695,0.009810331,-0.0065074656,0.47740313,-1.4188343,1.9490513,-2.0995343,-1.5708555,2.4526832,-0.0316748,0.09300695,-0.11833911,0.016850563,-0.005148057,-0.025090044,-0.17238252,0.38307226,-9.595961,0.7777002,47.698532,-0.6986513,-1.7908101,-3.249379,-0.11486282,-0.04027111,-0.1488538,28.25,29.4375,28.625,32.6875,35.1875,36.4375
0.11005417,-0.6077378,-1.7019162,-0.43799636,-0.01742713,0.039395567,-0.14746235,-0.38428596,-0.34994018,0.08506152,-3.0785203,0.62533486,0.00014569303,-0.05323377,-0.007603816,0.00035858637,0.0037308282,0.004155813,-0.0066381306,0.47735497,-1.4186277,1.9488467,-2.099486,-1.5708317,2.4525995,-0.032312647,0.099922284,-0.11935255,0.017467137,-0.005441566,-0.025595084,-0.21068975,0.45968673,-9.481039,0.8247004,47.70032,-0.6816015,-1.9847503,-3.2022107,-0.114136145,-0.036428,-0.122394405,28.25,29.4375,28.625,32.6875,35.1875,36.4375
0.11255464,-0.83428985,-1.693489,-0.28893876,-0.021719035,0.031247908,-0.13928382,-0.38441405,-0.34997016,0.08510085,-3.0785503,0.62530273,0.00030962453,-0.054825667,-0.007904715,0.0025878777,0.0021659608,0.0086743245,-0.0073593003,0.47731876,-1.4184605,1.9485596,-2.0994618,-1.5708798,2.4525397,-0.03282097,0.097817145,-0.122060895,0.017549401,-0.006130558,-0.025380833,-0.21068975,0.36391866,-9.481039,0.7709874,47.687782,-0.67633563,-1.7928112,-3.2233887,-0.08638861,-0.020716656,-0.14983049,28.25,29.4375,28.625,32.6875,35.1875,36.4375
0.11505444,-1.0599823,-1.1681968,0.0322421,-0.03283907,0.03371178,-0.1409941,-0.38454965,-0.3499875,0.08512415,-3.0786085,0.625333,0.0003728612,-0.05565256,-0.00784543,0.0017505407,0.0042824186,0.00763175,-0.007689773,0.47721082,-1.4182788,1.9482955,-2.0994503,-1.5708565,2.4524434,-0.03283347,0.10142691,-0.124463074,0.018245166,-0.0075328136,-0.025059808,-0.17238252,0.36391866,-9.423578,0.8873621,47.733456,-0.7274641,-1.9351895,-3.2026997,-0.07782066,-0.022106696,-0.17595759,28.25,29.4375,28.625,32.6875,35.1875,36.4375
0.117554165,-0.5340682,-0.8345219,0.3992552,-0.032479633,0.044616126,-0.15347102,-0.3847655,-0.35003066,0.085132524,-3.0785778,0.6253845,0.00039059436,-0.05610139,-0.007582147,0.0010294069,0.0059961327,0.004457056,-0.008721068,0.47710246,-1.4178574,1.9477681,-2.0993407,-1.5708798,2.4523714,-0.033650354,0.10460406,-0.12722877,0.021439765,-0.007595523,-0.024844114,-0.21068975,0.45968673,-9.232041,0.7418897,47.7254,-0.6970389,-1.827026,-3.2646527,-0.076406986,0.0070582163,-0.1988044,28.25,29.4375,28.625,32.6875,35.1875,36.4375
0.12005445,-1.0157847,-1.2309166,0.49490476,-0.015181411,0.028630476,-0.13961817,-0.38490793,-0.35004616,0.085167445,-3.078605,0.6255055,0.0005189899,-0.05783388,-0.008455324,0.0020604378,0.0042712614,0.0063964026,-0.008752971,0.47700638,-1.4176886,1.947492,-2.0993288,-1.5708922,2.4523475,-0.03406042,0.10607775,-0.13130863,0.021527711,-0.0069596283,-0.025221637,-0.2681506,0.38307226,-9.11712,0.78888994,47.719128,-0.764923,-1.7960374,-3.1249652,-0.04933824,-0.00031110784,-0.21256821,28.25,29.4375,28.625,32.6875,35.1875,36.4375
0.12255416,-0.5733926,-0.9876139,0.50118244,-0.004138405,0.026889192,-0.13600507,-0.3850243,-0.35008913,0.08517399,-3.0786183,0.6254692,0.0005577609,-0.058252465,-0.008332374,0.0010225113,0.0047379388,0.0042913896,-0.009279322,0.47698212,-1.4174473,1.9471921,-2.099293,-1.5709037,2.452299,-0.03497963,0.10891281,-0.13226314,0.021728916,-0.0064086546,-0.02561452,-0.15322891,0.3256114,-9.11712,0.7933669,47.685097,-0.7361805,-1.7951183,-3.2177825,-0.04179535,-0.0073546646,-0.20201242,28.25,29.4375,28.625,32.6875,35.1875,36.4375
0.12505586,-0.13957536,0.11205709,0.6888901,-0.018255508,0.024443232,-0.15372138,-0.38514417,-0.35010388,0.08516953,-3.078617,0.6255466,0.0005830778,-0.058743108,-0.008779141,0.0007539308,0.003961379,0.0027401915,-0.0096970545,0.4768978,-1.4172304,1.9469532,-2.0992925,-1.5709032,2.4522634,-0.03545945,0.11104704,-0.1343413,0.02268889,-0.005008269,-0.025677336,-0.19153613,0.24899697,-9.078813,0.800085,47.685097,-0.7221648,-1.8422749,-3.2565968,-0.034071334,-0.006713439,-0.24105714,28.25,29.4375,28.625,32.6875,35.1875,36.4375
0.1275553,0.0105948625,0.10209103,1.0050719,0.012465061,0.015447724,-0.15129487,-0.38537273,-0.35013583,0.0851587,-3.0785673,0.62553364,0.00057017803,-0.059377704,-0.00923147,-0.0009682625,0.004841148,-0.0020098677,-0.007685416,0.4767657,-1.4167597,1.9464129,-2.0991843,-1.570939,2.4521298,-0.03604759,0.11717762,-0.13798507,0.024818715,-0.0036134187,-0.028276434,-0.076614454,0.11492168,-8.868123,0.7083204,47.686886,-0.75902104,-1.9735608,-3.2840068,-0.0044033118,-0.030517934,-0.2308616,28.3125,29.4375,28.625,32.6875,35.1875,36.4375
0.13005456,-0.12629327,0.49595875,1.0449018,0.025461813,0.008415467,-0.15241861,-0.38549173,-0.35017875,0.08517414,-3.0786045,0.6255984,0.00060430064,-0.060235962,-0.009639308,0.0014367669,0.0024722456,0.0016315308,-0.0070201284,0.4767177,-1.4165449,1.9461254,-2.0991595,-1.5709146,2.4521177,-0.03635676,0.113807335,-0.13982922,0.025709415,-0.0031800666,-0.029251445,-0.076614454,0.076614454,-8.791509,0.81351066,47.723602,-0.78328556,-1.7290899,-3.3028045,0.0051984107,-0.037298296,-0.25876042,28.3125,29.4375,28.625,32.6875,35.1875,36.4375
0.13255592,-0.31949368,0.13880132,0.8647664,0.04578301,0.0026932145,-0.13757125,-0.3856274,-0.35018796,0.08517299,-3.0786223,0.62558275,0.0006311384,-0.06094286,-0.009956148,-0.00015914983,0.004189286,-0.0015252396,-0.006350651,0.47660965,-1.4163146,1.9458607,-2.0991476,-1.5709146,2.4519978,-0.036380492,0.11941088,-0.142887,0.026756125,-0.0032608388,-0.029942503,-0.095768064,0.038307227,-8.810662,0.7732232,47.693153,-0.8413271,-1.9774919,-3.2887056,-0.000610807,-0.052725762,-0.24994,28.3125,29.4375,28.625,32.6875,35.1875,36.4375
0.13505456,0.0004946035,0.7094247,0.85747635,0.035138145,-0.002013243,-0.14678402,-0.38576373,-0.35019735,0.08517986,-3.0785916,0.6256919,0.0006147489,-0.061476346,-0.009843322,-7.738711e-05,0.004757365,-0.0016885495,-0.0063146637,0.4765015,-1.4160743,1.9455498,-2.0990636,-1.5709151,2.4519618,-0.036791064,0.120315626,-0.14436197,0.02773315,-0.0036923136,-0.030387877,-0.038307227,0.076614454,-8.868123,0.7911258,47.701214,-0.8712022,-1.7473186,-3.349485,-3.17424e-05,-0.040250033,-0.27174485,28.3125,29.4375,28.625,32.6875,35.1875,36.4375
0.13755469,-0.15861954,-0.71561,0.5522082,0.02387311,0.004015572,-0.13965887,-0.38596636,-0.3502292,0.0851419,-3.0784976,0.62563217,0.0004993477,-0.06243476,-0.00967711,-0.001220511,0.006633887,-0.0034837269,-0.0049251188,0.4763932,-1.4155685,1.9450225,-2.0989196,-1.5709509,2.4518285,-0.037430853,0.124551885,-0.14683837,0.028430112,-0.0045442698,-0.032414008,-0.15322891,0.15322891,-8.868123,0.7709874,47.675243,-0.911769,-1.7711768,-3.303476,0.036123246,-0.0564204,-0.2691529,28.3125,29.4375,28.625,32.6875,35.1875,36.4375
0.14005461,0.49563247,-0.45811126,0.28822255,-0.0064915097,0.03318845,-0.15334153,-0.38609007,-0.35027143,0.08516996,-3.0785425,0.62562114,0.0004910675,-0.064014815,-0.010462906,-0.00018639765,0.0064272336,-0.002058964,-0.0038306674,0.47633335,-1.4153512,1.9446868,-2.0988233,-1.5709156,2.4517562,-0.03719436,0.12642911,-0.15176573,0.030121718,-0.0050201654,-0.033269126,-0.038307227,0.2681506,-9.11712,0.8179876,47.651955,-0.9069965,-1.8154242,-3.2924476,0.0041425927,-0.05051186,-0.30586246,28.3125,29.4375,28.625,32.6875,35.1875,36.4375
0.14255519,-0.72454166,-1.1822835,-0.017624708,-0.011120389,0.01784284,-0.14440292,-0.38624436,-0.35029024,0.085194945,-3.0785174,0.6256544,0.00060644065,-0.06437002,-0.010096491,-0.0007731147,0.008391238,-0.003781098,-0.0034917914,0.47626126,-1.4151105,1.9443392,-2.0987623,-1.5709761,2.4517083,-0.037580352,0.12865873,-0.15344669,0.032004848,-0.005974036,-0.033992257,-0.15322891,0.2681506,-9.232041,0.8224646,47.701214,-0.95650625,-1.8774941,-3.4080446,-0.013091635,-0.04295872,-0.28379327,28.3125,29.4375,28.625,32.6875,35.1875,36.4375
0.14505437,-0.78045446,-1.1338109,-0.15890564,-0.017526759,0.02603405,-0.14218742,-0.38635546,-0.35029355,0.08515748,-3.078451,0.62567925,0.0004863453,-0.06509808,-0.010137329,-0.0014408893,0.009229915,-0.0047822394,-0.00373056,0.47616512,-1.4148209,1.9440755,-2.0986907,-1.5709757,2.4516363,-0.037982468,0.13150415,-0.15529361,0.032281045,-0.0062678787,-0.034153406,-0.15322891,0.36391866,-9.232041,0.8112748,47.686886,-0.9758228,-1.9739864,-3.2984376,-0.010531829,-0.048935,-0.29678836,28.3125,29.4375,28.625,32.6875,35.1875,36.4375
0.147555,-1.1067542,-1.888187,-0.48580843,-0.03917229,0.040800605,-0.13987814,-0.38659567,-0.35032836,0.085132964,-3.0783663,0.62562245,0.00036095234,-0.06690074,-0.010754416,-0.0008691896,0.010010774,-0.0043640938,-0.003716375,0.4760211,-1.4142678,1.9434513,-2.0984986,-1.571,2.451468,-0.03797807,0.13485986,-0.16107635,0.03469584,-0.007165852,-0.034158368,-0.24899697,0.61291564,-9.557653,0.8157518,47.675243,-1.0629408,-1.8272562,-3.3501446,-0.03869683,-0.040004745,-0.32843295,28.3125,29.4375,28.625,32.6875,35.1875,36.4375
0.15005505,-1.345114,-2.0668733,-0.55903566,-0.058320146,0.04609503,-0.1405627,-0.38671976,-0.35033917,0.08512702,-3.0783393,0.6256923,0.0002777849,-0.06764965,-0.010530017,-0.001240131,0.011738596,-0.0037884659,-0.0019988716,0.47591317,-1.4140146,1.9431518,-2.0984032,-1.5709771,2.4514072,-0.03796487,0.13670297,-0.1623083,0.034370665,-0.008971527,-0.035858687,-0.21068975,0.6703765,-9.653421,0.8224646,47.689575,-1.0850435,-1.8090444,-3.448304,-0.021419395,-0.00048884936,-0.34057957,28.3125,29.4375,28.625,32.6875,35.1875,36.4375
0.15255585,-1.062151,-2.1463602,-0.6507445,-0.07251286,0.06270983,-0.14818051,-0.3868763,-0.35035643,0.08514613,-3.0783103,0.62576306,0.00036797527,-0.06926757,-0.01061691,-0.00097616256,0.011290487,-0.0023114674,-0.0019078084,0.47582883,-1.4137617,1.9428037,-2.0983436,-1.5710248,2.451371,-0.03909858,0.13845162,-0.16477226,0.033565897,-0.009256451,-0.037081826,-0.28730422,0.7469909,-9.653421,0.82694155,47.703903,-1.1451737,-1.8395879,-3.4166634,-0.037419498,0.012745913,-0.33660853,28.3125,29.4375,28.625,32.6875,35.1875,36.4375
0.15505455,-1.5308942,-2.4723656,-0.6969468,-0.06794268,0.050294954,-0.13835102,-0.38700938,-0.35040337,0.08513038,-3.0783055,0.6256474,0.00037281332,-0.07021778,-0.0104006585,-0.0016189826,0.012311108,-0.0039559826,-0.004134475,0.47580427,-1.4134363,1.9424566,-2.098307,-1.5710491,2.451275,-0.04024017,0.1415611,-0.16721563,0.03482907,-0.009413512,-0.03599502,-0.30645782,0.68953013,-9.787497,0.80456203,47.721813,-1.0468118,-1.9103708,-3.4283302,-0.026521541,0.012558322,-0.3414785,28.3125,29.4375,28.625,32.6875,35.1875,36.4375
0.15755373,-0.4976735,-1.413804,-0.6133894,-0.03559833,0.03786938,-0.14311877,-0.3872735,-0.3504536,0.08511456,-3.078277,0.62569714,0.00027171758,-0.07147792,-0.01208291,-0.00080170337,0.009567745,-0.0035380367,-0.0018133989,0.4756365,-1.412871,1.941809,-2.0981634,-1.5710238,2.4511423,-0.039715942,0.14391725,-0.17206603,0.03568612,-0.007178478,-0.03779242,-0.34476504,0.4405331,-9.710882,0.82022345,47.675243,-1.2657633,-1.7590506,-3.4023314,-0.06625808,-0.0044538407,-0.40338606,28.3125,29.4375,28.625,32.6875,35.1875,36.4375
0.1600542,-0.37627533,-0.6906206,-0.5101717,-0.023642901,0.03040965,-0.1488099,-0.3874514,-0.3504596,0.08511964,-3.0782351,0.6256886,0.00036682913,-0.07262749,-0.010994845,-0.0020687932,0.01022381,-0.0059383158,-0.0036416983,0.47552747,-1.4125694,1.941439,-2.0981152,-1.5710958,2.4510336,-0.04295455,0.1469951,-0.17277567,0.03574625,-0.0066644554,-0.03920294,-0.26815057,0.34476504,-9.634268,0.83813137,47.674347,-1.1996584,-1.9544961,-3.4272995,-0.0432482,-0.012748559,-0.36191103,28.3125,29.4375,28.625,32.6875,35.1875,36.4375
0.1625551,-0.5788225,-0.36159253,-0.49985886,-0.0071923495,0.014526929,-0.1482455,-0.38760215,-0.35048836,0.08511999,-3.0782511,0.62574863,0.00032857223,-0.07329349,-0.011275781,-0.0033310787,0.011115831,-0.008800334,-0.0011884654,0.4754192,-1.4122798,1.941091,-2.0980551,-1.5710596,2.4509609,-0.043346867,0.15159938,-0.17548174,0.036798608,-0.006152369,-0.04204752,-0.095768064,0.24899697,-9.615114,0.8784135,47.67345,-1.1680728,-1.9451414,-3.5294123,-0.07068435,-0.016348766,-0.36454114,28.3125,29.4375,28.625,32.6875,35.1875,36.4375
0.16505401,-0.48599434,-0.0038349659,-0.4021736,-0.004753133,0.018096514,-0.14589338,-0.38772961,-0.35052666,0.08511199,-3.0782473,0.6256521,0.00028194615,-0.07433163,-0.010297472,-0.0036167027,0.011509736,-0.0101298615,-0.0030258172,0.47537026,-1.4119791,1.9407433,-2.0979707,-1.5710596,2.4508524,-0.046144947,0.15288219,-0.17663078,0.03802562,-0.0058961078,-0.043007974,-0.13407528,0.11492168,-9.500193,0.8873621,47.675243,-1.0923066,-1.9644971,-3.48728,-0.07487491,-0.01416607,-0.34037095,28.3125,29.4375,28.625,32.6875,35.1875,36.4375
0.16755347,-0.56632185,0.13384937,-0.23940843,0.021772007,0.03440404,-0.15128401,-0.38805264,-0.3505623,0.085108705,-3.0781875,0.62571436,0.00030814408,-0.074554585,-0.011390104,-0.0044887546,0.012871168,-0.013200301,4.4519227e-05,0.47516692,-1.4113648,1.9400123,-2.0978382,-1.5711073,2.450696,-0.044489432,0.1577356,-0.18097225,0.040862307,-0.005708663,-0.04442084,-0.11492168,0.05746084,-9.481039,0.8403672,47.707485,-1.2035766,-2.0660262,-3.5031023,-0.099132195,-0.02029625,-0.37914437,28.3125,29.4375,28.625,32.6875,35.1875,36.4375
0.17005432,-0.5251164,0.27090517,-0.09270061,0.024981596,0.03740965,-0.14651573,-0.38820258,-0.35059595,0.085108265,-3.0781887,0.6257521,0.0002932941,-0.07566396,-0.010910457,-0.004397858,0.0136763025,-0.014070473,0.00068154855,0.47508252,-1.4110638,1.9396523,-2.0977771,-1.5710953,2.4506352,-0.046126857,0.1593989,-0.18362865,0.04299771,-0.006029312,-0.046693698,-0.076614454,0.038307227,-9.423578,0.7866488,47.703007,-1.2159891,-2.0036204,-3.5331883,-0.12854408,-0.041204307,-0.3303057,28.3125,29.4375,28.625,32.6875,35.1875,36.4375
0.17255427,-0.60911477,0.41899765,0.23214717,0.014667098,0.034943495,-0.15602258,-0.38836682,-0.35063255,0.085116364,-3.0781991,0.62573516,0.00030661037,-0.07717598,-0.010327493,-0.005454738,0.015405741,-0.016534561,0.00032472686,0.47499764,-1.4107502,1.9392556,-2.0977051,-1.5710958,2.4505386,-0.048254143,0.16402236,-0.18699086,0.044718914,-0.0064449776,-0.048461627,-0.1340753,-0.019153614,-9.385271,0.8291774,47.675243,-1.0735277,-2.018134,-3.4318933,-0.1519464,-0.025060296,-0.31773177,28.3125,29.4375,28.625,32.6875,35.1875,36.4375
0.17505413,-0.045781218,0.5552467,0.45385677,0.012168988,0.041840196,-0.14940886,-0.3885388,-0.35065883,0.08512272,-3.0781925,0.6256734,0.0003288042,-0.07873495,-0.010919953,-0.0027412171,0.013719427,-0.012030572,0.0025416645,0.4749018,-1.4104265,1.9388484,-2.0976207,-1.5711201,2.4504054,-0.048265014,0.16165558,-0.19082192,0.046139367,-0.007012148,-0.050687432,-0.2681506,0.038307227,-9.270349,0.800085,47.682407,-1.1636165,-1.9712325,-3.4427164,-0.16631866,-0.02052215,-0.30166596,28.3125,29.4375,28.625,32.6875,35.1875,36.4375
0.17754537,-0.68521875,0.09178982,0.23177919,0.014392991,0.030148614,-0.15635931,-0.3888413,-0.35070062,0.08510965,-3.0781155,0.62563664,0.00025335673,-0.08041856,-0.011268805,-0.0028245056,0.014230978,-0.013880469,0.0055346866,0.47472134,-1.4097884,1.938095,-2.0974162,-1.5711559,2.4502122,-0.049353953,0.16601145,-0.19648017,0.04931443,-0.0066349413,-0.054766778,-0.3256114,0.22984336,-9.270349,0.8291774,47.682407,-1.1385587,-1.9550894,-3.345199,-0.23793575,-0.018199898,-0.24512115,28.3125,29.4375,28.625,32.6875,35.1875,36.4375
0.18005532,-1.0791253,-0.799388,0.30154866,-0.0025613294,0.04438123,-0.14281558,-0.38902122,-0.35073197,0.08511891,-3.0781193,0.6256173,0.000251209,-0.081706606,-0.011323042,-0.0024189507,0.013752565,-0.013232066,0.0058487095,0.47461298,-1.4094516,1.937663,-2.0973198,-1.5711559,2.4500916,-0.050467514,0.16728833,-0.19904391,0.04980409,-0.006512569,-0.05619334,-0.4213795,0.30645782,-9.212888,0.86945957,47.689575,-1.1315957,-1.9261796,-3.360064,-0.26275262,-0.018511895,-0.18763892,28.3125,29.4375,28.625,32.6875,35.1875,36.4375
0.18253155,-1.7656862,-1.5374335,0.32097054,-0.027073495,0.046274774,-0.14538172,-0.3891517,-0.3507432,0.085091956,-3.078039,0.62554324,0.0001277453,-0.08274813,-0.011180402,-0.0016262798,0.013843133,-0.012045328,0.0062445547,0.4745286,-1.4091153,1.9373034,-2.0971768,-1.5711802,2.4499714,-0.051263347,0.16737604,-0.20125787,0.050915908,-0.00714627,-0.057382338,-0.4213795,0.4213795,-9.155427,0.8224646,47.696735,-1.1696724,-1.8273795,-3.3579023,-0.30626124,-0.019900253,-0.16188861,28.3125,29.4375,28.625,32.6875,35.1875,36.4375
0.18505399,-1.3902376,-1.8282001,0.19749153,-0.050710984,0.075087406,-0.15547049,-0.38931802,-0.35076755,0.08509532,-3.0780084,0.6255354,6.4379965e-05,-0.08441541,-0.01172091,-0.0011017668,0.012892886,-0.010881412,0.006537999,0.4744204,-1.4087781,1.9368733,-2.0970328,-1.5711802,2.4498625,-0.051973395,0.16948436,-0.20497456,0.051052462,-0.006845585,-0.05838408,-0.51714754,0.4213795,-9.193734,0.80679786,47.686886,-1.1472458,-1.7776463,-3.3654618,-0.3342902,-0.025654625,-0.15329148,28.3125,29.4375,28.625,32.6875,35.1875,36.4375
0.18755373,-1.1022837,-1.5483019,0.33591336,-0.06335258,0.07699656,-0.14798822,-0.3896838,-0.35079652,0.08509794,-3.0779598,0.6255085,7.663713e-05,-0.086532876,-0.01175084,-0.0020387261,0.012199682,-0.0103092,0.0033210367,0.47416776,-1.4081041,1.9360474,-2.096854,-1.5712279,2.4495997,-0.053967282,0.17376363,-0.20724848,0.04821664,-0.0065066745,-0.05715948,-0.38307226,0.40222588,-9.251195,0.83589023,47.684196,-1.1058741,-1.9096437,-3.3478708,-0.36678913,-0.028975748,-0.10165824,28.3125,29.4375,28.625,32.6875,35.1875,36.4375
0.19005612,-0.76392335,-1.0215603,0.51178044,-0.049896408,0.06722439,-0.1570077,-0.38985097,-0.35084182,0.08508365,-3.07795,0.625447,3.1542644e-05,-0.08908363,-0.012788089,-0.000566343,0.009537973,-0.0049310667,0.0033126445,0.47409567,-1.4077194,1.9356164,-2.0967715,-1.5712279,2.4494908,-0.054366447,0.17457649,-0.21089043,0.045045353,-0.0066123987,-0.057547607,-0.40222588,0.3256114,-9.270349,0.800085,47.66808,-1.1020768,-1.7793274,-3.3862581,-0.35389733,-0.034201898,-0.09371596,28.3125,29.4375,28.625,32.6875,35.1875,36.4375
0.19255474,-1.0433419,-0.93690187,0.22127436,-0.024779743,0.040596567,-0.14844556,-0.39005208,-0.35087514,0.085079916,-3.077969,0.62557065,2.3228653e-05,-0.0916533,-0.012409063,-0.00021158114,0.007677526,-0.0015342128,-0.0030041586,0.47395062,-1.4073467,1.9351858,-2.0967367,-1.5711917,2.4494207,-0.057365492,0.1758023,-0.2123556,0.041415874,-0.006517521,-0.05422885,-0.3256114,0.3256114,-9.193734,0.87617236,47.653748,-1.0265533,-1.7422953,-3.4394574,-0.3214929,-0.046808407,-0.06868763,28.3125,29.4375,28.625,32.6875,35.1875,36.4375
0.1950544,-0.9156854,-0.54037523,0.19877759,-0.005112346,0.02721288,-0.14908798,-0.39023715,-0.35090095,0.0850834,-3.0779614,0.62551075,4.4273158e-05,-0.09254631,-0.013048927,-0.00056498253,0.0073595713,-0.00020231411,-0.004457738,0.47384274,-1.4069979,1.9347552,-2.0966532,-1.571216,2.4492767,-0.056820095,0.17806183,-0.21371566,0.039186593,-0.006850263,-0.05222801,-0.24899697,0.3256114,-9.174581,0.8090337,47.684196,-0.9089684,-1.6842527,-3.4707246,-0.28698504,-0.030209819,-0.12062414,28.3125,29.4375,28.625,32.6875,35.1875,36.4375
0.19755481,-0.4316823,-0.64772636,0.13509569,0.0032963313,0.032609563,-0.14864364,-0.39061606,-0.3509431,0.0850667,-3.07789,0.6255546,4.0936706e-05,-0.095053114,-0.01334969,-0.001617817,0.007815869,-0.00033896958,-0.006724592,0.47360235,-1.4062508,1.9338931,-2.0964983,-1.5712641,2.4490733,-0.058269233,0.18426548,-0.21834,0.037934832,-0.007209548,-0.051406283,-0.30645782,0.24899697,-9.289503,0.87393653,47.64837,-1.0008425,-1.7772528,-3.4662497,-0.25431475,-0.0123678,-0.09894343,28.3125,29.4375,28.625,32.6875,35.1875,36.4375
0.20005403,-0.58465666,-0.8179235,0.015988793,-0.000686002,0.034853198,-0.14855745,-0.39082006,-0.3509709,0.0850728,-3.0779004,0.625521,0.00010674342,-0.09784764,-0.012681743,-0.0013498055,0.0067818477,0.0023731447,-0.0132257035,0.4734811,-1.40589,1.9334506,-2.0964515,-1.5712885,2.44893,-0.061724927,0.18613552,-0.22061765,0.035458323,-0.007534043,-0.0483589,-0.21068975,0.21068975,-9.308656,0.87617236,47.689575,-0.8441261,-1.8889787,-3.4769623,-0.23429292,-0.014604822,-0.14789063,28.3125,29.4375,28.625,32.6875,35.1875,36.4375
0.2025541,-0.38622066,-0.42629895,0.03700382,-0.016342595,0.045426086,-0.1579368,-0.39101914,-0.35100445,0.08505636,-3.0778449,0.6256253,9.710394e-05,-0.09825702,-0.0140631795,-0.001579472,0.006233403,0.002587082,-0.01430191,0.47337383,-1.4054683,1.9329833,-2.09638,-1.5713118,2.4488952,-0.059864517,0.18887971,-0.22321509,0.034869824,-0.007150486,-0.04542127,-0.15322891,0.11492168,-9.32781,0.83813137,47.703903,-0.8972899,-1.9748591,-3.4631968,-0.19089776,-0.014785772,-0.19037512,28.3125,29.4375,28.625,32.6875,35.1875,36.4375
0.20505416,-0.29666215,-0.7166146,0.05889489,-0.015561637,0.0393958,-0.15205932,-0.39120987,-0.35102284,0.085052766,-3.0778074,0.6257144,8.9328205e-05,-0.09898367,-0.013647691,-0.0025833335,0.0069420836,0.0003660637,-0.015844226,0.4732412,-1.405107,1.9325536,-2.096296,-1.5713242,2.4488232,-0.061426796,0.1918822,-0.22463219,0.03558154,-0.0067712413,-0.045440987,-0.21068975,0.076614454,-9.289502,0.80456203,47.713753,-0.9629724,-2.0238128,-3.4157705,-0.17670296,-0.015465982,-0.20329899,28.3125,29.4375,28.625,32.6875,35.1875,36.4375
0.2075543,-0.41294292,-0.116766825,-0.09077969,0.006190444,0.017929023,-0.15258488,-0.3916074,-0.35107526,0.08502295,-3.0777426,0.6258164,5.98209e-05,-0.10085444,-0.013210171,-0.0040211515,0.008774929,-0.0033033127,-0.018260755,0.47298852,-1.4043001,1.9316558,-2.0961635,-1.5713481,2.448643,-0.063808806,0.19830795,-0.22953944,0.0381618,-0.0067386036,-0.045403708,-0.095768064,0.17238252,-9.442732,0.8157518,47.681515,-0.84967184,-2.1399255,-3.540251,-0.15917417,-0.020340037,-0.22423719,28.3125,29.4375,28.625,32.6875,35.1875,36.4375
0.21005389,-0.010664552,-0.397795,-0.29796883,0.010685874,0.020699764,-0.15784739,-0.3918268,-0.3511235,0.085035846,-3.077777,0.62584305,0.00010411007,-0.102292664,-0.013394606,-0.0031159867,0.007836618,-0.0010412586,-0.019147128,0.47286823,-1.4039036,1.9311527,-2.0961034,-1.5713362,2.4485352,-0.06461469,0.19859348,-0.23193364,0.037829895,-0.006938179,-0.045322116,-0.11492168,0.1340753,-9.404425,0.784413,47.682407,-0.8137436,-2.1410277,-3.3969097,-0.13569783,-0.028608646,-0.23161581,28.3125,29.4375,28.625,32.6875,35.1875,36.4375
0.21255486,-0.26085672,-0.93043464,-0.14113943,-0.001458974,0.034234107,-0.15276541,-0.3920167,-0.35113192,0.0850182,-3.0777175,0.62594604,2.7915703e-05,-0.10389925,-0.0139555065,-0.0017584056,0.005796378,0.0022538742,-0.019356528,0.472712,-1.4035189,1.9307221,-2.0959961,-1.5713362,2.448451,-0.06520853,0.19832323,-0.2345713,0.036872722,-0.006633623,-0.045705594,-0.22984336,0.24899697,-9.404425,0.8851263,47.688675,-0.81273425,-2.116761,-3.5169086,-0.087105855,-0.018994207,-0.27305546,28.3125,29.4375,28.625,32.6875,35.1875,36.4375
0.21505411,-0.80625343,-0.9153149,-0.22445555,-0.011839386,0.041706618,-0.1564948,-0.39220357,-0.3511515,0.08499448,-3.077658,0.62595254,-2.7471324e-05,-0.10445988,-0.013948189,-0.0021385148,0.006360891,0.0003972878,-0.019423164,0.47259185,-1.4031101,1.9302796,-2.0958993,-1.5713595,2.4483428,-0.0658814,0.20066677,-0.23694152,0.038806017,-0.0062951627,-0.046311125,-0.36391866,0.28730422,-9.500193,0.91198283,47.716442,-0.76781356,-2.2049463,-3.4749312,-0.069996655,-0.021202967,-0.28270483,28.3125,29.4375,28.625,32.6875,35.1875,36.4375
0.21755385,-1.1257004,-1.2708179,-0.29240012,-0.034696918,0.05818227,-0.15509573,-0.3926202,-0.35119942,0.08495251,-3.077564,0.6260867,-9.9716075e-05,-0.106136985,-0.01387701,-0.0010477462,0.006454057,0.00027696064,-0.020025084,0.4723153,-1.4022442,1.929334,-2.095743,-1.5713838,2.4481626,-0.06739038,0.20205821,-0.2420984,0.042717807,-0.0063304445,-0.047216028,-0.34476504,0.38307226,-9.653421,0.84708,47.690468,-0.7051788,-2.2050564,-3.5447884,-0.09886886,-0.02980889,-0.32577258,28.3125,29.4375,28.625,32.6875,35.1875,36.4375
0.22005388,-1.1307124,-0.91197664,-0.21461916,-0.05335789,0.06875801,-0.15444893,-0.39284617,-0.35125363,0.084969416,-3.0775807,0.6261089,-6.1115075e-05,-0.10679761,-0.013455448,-0.0014983452,0.0071873027,-0.00041922068,-0.020657249,0.47220698,-1.4018235,1.9287847,-2.0956466,-1.5713838,2.4480662,-0.06847161,0.20365481,-0.24308302,0.043059643,-0.0066672303,-0.047664117,-0.4213795,0.24899697,-9.653421,0.8851263,47.688675,-0.7242065,-2.1763186,-3.6396542,-0.09065121,-0.03858334,-0.32914943,28.3125,29.4375,28.625,32.6875,35.1875,36.4375
0.22255497,-1.0285356,-1.1663148,-0.20410262,-0.03724248,0.06546741,-0.15901583,-0.39305085,-0.35126936,0.08496453,-3.0775406,0.62615764,-0.00012133983,-0.10877826,-0.014018791,-0.001035462,0.006475503,0.00035016093,-0.021512428,0.4720508,-1.4014262,1.9283041,-2.095515,-1.5713838,2.4479458,-0.069371685,0.20664993,-0.24787587,0.043846503,-0.0063946294,-0.047706924,-0.3256114,0.24899697,-9.557653,0.8560339,47.675243,-0.6418376,-2.0183754,-3.6221118,-0.09071411,-0.01940617,-0.33636564,28.3125,29.4375,28.625,32.6875,35.1875,36.4375
0.22505431,-1.4543275,-0.73313195,-0.25359863,-0.013557286,0.050143078,-0.14746724,-0.39327613,-0.35129422,0.08495871,-3.077513,0.62622964,-8.765689e-05,-0.109664455,-0.014043221,-0.0011442454,0.0065355464,0.00025899042,-0.022452133,0.47190642,-1.4010055,1.9278144,-2.095455,-1.5714082,2.4478502,-0.070058994,0.20836364,-0.2497675,0.044131197,-0.006409939,-0.047453653,-0.30645782,0.17238252,-9.500193,0.8672237,47.666286,-0.5872126,-2.082553,-3.4640589,-0.06629604,-0.044880148,-0.40337163,28.3125,29.4375,28.625,32.6875,35.1875,36.4375
0.22755401,-1.0814885,-0.04665379,-0.45676702,0.022481848,0.032039013,-0.15223591,-0.3937029,-0.35134277,0.08493162,-3.0774143,0.62642056,-0.0001178617,-0.112035014,-0.013718093,-0.00059140124,0.0060340776,0.0016301143,-0.024145173,0.47162965,-1.4001518,1.926845,-2.0952876,-1.5714439,2.4477057,-0.07252954,0.21040975,-0.25366873,0.044533852,-0.006597562,-0.048228778,-0.34476504,0.11492168,-9.576807,0.8784135,47.694054,-0.482477,-1.9463359,-3.6455133,-0.03214126,-0.043133777,-0.43229032,28.3125,29.4375,28.625,32.6875,35.1875,36.4375
0.23005386,-0.54655856,-0.3125433,-0.3177341,0.008751272,0.044188835,-0.1529045,-0.39392918,-0.35137582,0.084922604,-3.0773916,0.62643236,-9.989583e-05,-0.111493,-0.0151426,-0.0011919372,0.0066477656,0.0001953216,-0.020157157,0.47149864,-1.3997068,1.9263309,-2.095215,-1.5714678,2.4475853,-0.06956991,0.21317975,-0.2558264,0.045475412,-0.006496206,-0.049256295,-0.2681506,0.19153613,-9.576807,0.84708,47.68062,-0.67459387,-2.1189547,-3.6370656,-0.0082574,-0.023284009,-0.47355086,28.3125,29.4375,28.625,32.6875,35.1875,36.4375
0.23255482,-0.86947286,-0.8369039,-0.16920008,0.0025808387,0.04478121,-0.14650723,-0.39414638,-0.35140845,0.08492462,-3.077385,0.62650687,-0.000115809285,-0.112568505,-0.0149634965,-0.0009515228,0.006627244,-0.00028278847,-0.020139532,0.47135425,-1.399298,1.9258283,-2.0951188,-1.5714558,2.4474885,-0.07092305,0.21458568,-0.2584683,0.047125846,-0.006264303,-0.050626576,-0.22984336,0.21068975,-9.595961,0.97464454,47.677036,-0.68472016,-2.0091827,-3.7860293,-0.009082651,-0.05427719,-0.4617361,28.3125,29.4375,28.625,32.6875,35.1875,36.4375
0.23505524,-0.7489043,-0.86490613,-0.14765519,-0.011978798,0.046956394,-0.1489987,-0.39439616,-0.35142472,0.08492121,-3.0773504,0.62661576,-8.2131286e-05,-0.11492678,-0.014570541,-0.00037879057,0.007074421,-0.000120104894,-0.021269947,0.47117335,-1.3988523,1.9253005,-2.0950458,-1.5714797,2.4473803,-0.07336621,0.21733694,-0.26362863,0.049591415,-0.0067431857,-0.05193614,-0.17238252,0.15322891,-9.500193,0.84484416,47.667187,-0.4978986,-2.085519,-3.6290631,-0.004025642,-0.045662206,-0.4873968,28.3125,29.4375,28.625,32.6875,35.1875,36.4375
0.23755468,-0.20792773,-0.8491785,-0.23995082,-0.011977225,0.02476489,-0.14376926,-0.3948425,-0.3514834,0.08490928,-3.077281,0.62661403,-0.00012935468,-0.11566475,-0.015878228,7.092155e-05,0.009407469,-0.0009285436,-0.0117922975,0.4708984,-1.3979625,1.9242357,-2.094805,-1.5715164,2.4471138,-0.07062813,0.22116847,-0.27036214,0.05426931,-0.008469036,-0.058668837,-0.11492168,0.19153613,-9.404425,0.8403672,47.678825,-0.78268516,-2.0905328,-3.5340345,-0.039514817,-0.024342027,-0.4349437,28.3125,29.4375,28.625,32.6875,35.1875,36.4375
0.24005502,-0.3066205,-1.073877,-0.42025,-0.002778878,0.013596685,-0.15190654,-0.3950906,-0.35151002,0.084919505,-3.077259,0.6267419,-9.408712e-05,-0.1158672,-0.016094849,-0.00029155138,0.010350432,-0.0035674288,-0.0087364055,0.47073036,-1.3975291,1.923685,-2.0947077,-1.5715283,2.4470286,-0.07057593,0.22368337,-0.27327845,0.05744437,-0.008113587,-0.061672453,-0.038307227,0.30645782,-9.500193,0.87617236,47.67166,-0.7405232,-2.1616657,-3.4919367,-0.056188777,-0.033900127,-0.42516452,28.3125,29.4375,28.625,32.6875,35.1875,36.4375
0.24255465,0.4824867,-0.42016852,-0.28094462,-0.030056626,0.007293881,-0.15896094,-0.39531633,-0.35155678,0.084922396,-3.077251,0.62677515,-9.958444e-05,-0.115874074,-0.016158277,-0.0005030679,0.011760865,-0.006805753,-0.0046165385,0.4706105,-1.3970835,1.9231337,-2.0945985,-1.5715283,2.446931,-0.07054208,0.22585882,-0.27645236,0.0619635,-0.007903096,-0.065758005,0.11492168,0.30645782,-9.461885,0.83589023,47.67166,-0.804711,-2.1382778,-3.36936,-0.10403868,-0.036532175,-0.407671,28.3125,29.4375,28.625,32.6875,35.1875,36.4375
0.24505469,0.061056327,-1.6221839,-0.37287384,-0.009404153,-0.010590903,-0.14059223,-0.39553753,-0.35157907,0.084895894,-3.0771992,0.6266274,-0.00019906364,-0.11650023,-0.016171556,2.628529e-05,0.012976268,-0.00806915,0.0007861163,0.47046638,-1.3965907,1.9225835,-2.0944417,-1.5715526,2.4467015,-0.07071477,0.22721593,-0.2802879,0.06611334,-0.008425526,-0.07133024,0.019153614,0.4213795,-9.385271,0.8560339,47.693153,-0.838131,-2.1638775,-3.3297853,-0.16779813,-0.026288787,-0.32778406,28.3125,29.4375,28.625,32.6875,35.1875,36.4375
0.24755473,-0.21456677,-1.6126846,-0.29017237,-0.031588834,-0.0092824865,-0.1485435,-0.39603513,-0.35163838,0.08491932,-3.0771532,0.6267293,-0.00013435258,-0.11595472,-0.01584006,-0.0013835221,0.014226307,-0.01280494,0.0047381567,0.47015423,-1.3957002,1.9214357,-2.0942013,-1.5715998,2.4464595,-0.07128149,0.22991514,-0.28106043,0.06896122,-0.007396384,-0.07585158,0.17238252,0.53630114,-9.481039,0.84708,47.674347,-0.8123696,-2.2039685,-3.4946833,-0.2161917,-0.041456,-0.27677533,28.3125,29.4375,28.625,32.6875,35.1875,36.4375
0.25005442,0.071903445,-1.6463168,-0.035803586,-0.04502788,0.00951664,-0.15340245,-0.39624816,-0.35167387,0.08490536,-3.0771255,0.626588,-0.00021346124,-0.116642386,-0.015505208,-0.00027689707,0.0139747,-0.011496306,0.0055956603,0.470034,-1.3952327,1.9208859,-2.0940454,-1.5716127,2.446255,-0.072199866,0.22856072,-0.2824254,0.070397906,-0.0077738278,-0.07762604,0.095768064,0.36391866,-9.442732,0.87617236,47.693153,-0.85358727,-2.0701632,-3.6069794,-0.27039582,-0.027084865,-0.19456865,28.3125,29.4375,28.625,32.6875,35.1875,36.4375
0.25255436,0.16295615,-1.3900342,-0.14605579,-0.033050623,0.010622644,-0.15399444,-0.39649668,-0.35170996,0.08491893,-3.0771146,0.6266234,-0.0001634756,-0.116821535,-0.015463049,-0.0005479963,0.014486915,-0.012271023,0.006010335,0.4698898,-1.394788,1.9203109,-2.0939376,-1.5716366,2.4461346,-0.07230793,0.22963904,-0.28333127,0.0711452,-0.007881128,-0.07814844,0.076614454,0.47884035,-9.404425,0.8806493,47.694054,-0.8431194,-1.8920859,-3.5694938,-0.31225327,-0.027156692,-0.16088149,28.3125,29.4375,28.625,32.6875,35.1875,36.4375
0.25505483,0.25620252,-0.9378904,-0.27979198,-0.022754682,0.016269486,-0.15727404,-0.39671668,-0.35173693,0.0849094,-3.077095,0.6265427,-0.0002680798,-0.11894481,-0.016362948,0.00067383883,0.012144409,-0.009259579,0.004811493,0.46973377,-1.3943313,1.9197606,-2.0937703,-1.5716237,2.445931,-0.07298078,0.23091054,-0.287511,0.07030564,-0.007174535,-0.07762167,0.17238252,0.36391866,-9.3661175,0.842603,47.694946,-0.86472297,-1.769412,-3.6827302,-0.32516173,-0.042254042,-0.14968091,28.3125,29.4375,28.625,32.6875,35.1875,36.4375
0.25755385,-0.48237404,-1.0134485,-0.5428346,0.0038092278,-0.0069882465,-0.14350338,-0.39718625,-0.35181397,0.08489318,-3.077033,0.6265686,-0.0003520855,-0.12132109,-0.01816848,0.0008543233,0.010288646,-0.0060940613,0.0015775089,0.4694582,-1.3933687,1.9186119,-2.093508,-1.5716361,2.4456801,-0.07195167,0.2353766,-0.29268792,0.06735465,-0.006975063,-0.073355645,0.11492168,0.28730422,-9.519346,0.83813137,47.693153,-0.9638327,-1.8507897,-3.541479,-0.32101083,-0.05223448,-0.12353926,28.3125,29.4375,28.625,32.6875,35.1875,36.4375
0.26005465,-0.3546418,-0.84288275,-0.2483943,-0.024548212,0.020473786,-0.15563843,-0.39743325,-0.35184497,0.084905215,-3.077001,0.6265455,-0.0003359677,-0.12425943,-0.019036258,0.0011216265,0.009098329,-0.0033897138,-0.0023340955,0.4693139,-1.3929108,1.9180135,-2.093353,-1.5716718,2.445526,-0.0728827,0.23973182,-0.2980567,0.06541804,-0.00715209,-0.070371464,-0.019153614,0.3256114,-9.500193,0.88289046,47.658226,-1.0358307,-1.8976893,-3.4419208,-0.31882897,-0.037238047,-0.1560567,28.3125,29.4375,28.625,32.6875,35.1875,36.4375
0.26255503,-0.51660687,-1.3113835,-0.5476959,-0.023382863,0.024454733,-0.15304783,-0.39769712,-0.35190332,0.084928244,-3.0770333,0.6264964,-0.00029575752,-0.12690718,-0.019900603,0.0014702255,0.007125718,-0.00049024797,-0.0076302635,0.46918145,-1.3924292,1.9173673,-2.0932224,-1.5716718,2.445359,-0.073916934,0.24311194,-0.30233216,0.062837176,-0.006713159,-0.06610839,0.019153614,0.3256114,-9.500193,0.8873621,47.695843,-0.8358252,-2.1382024,-3.3751976,-0.29669577,-0.0565235,-0.19257034,28.3125,29.4375,28.625,32.6875,35.1875,36.4375
0.26505437,-0.7689414,-1.6529465,-0.5723108,-0.031800907,0.037472285,-0.14616117,-0.39794084,-0.35195193,0.0849191,-3.0769992,0.6265845,-0.00032986308,-0.12701197,-0.021083899,0.00057368784,0.0069866246,-0.0007286063,-0.0070651947,0.46905005,-1.3919238,1.9167689,-2.0931027,-1.5716718,2.4452872,-0.07202902,0.24619415,-0.30364951,0.061221812,-0.006488872,-0.06478493,-0.095768064,0.38307226,-9.557653,0.9455522,47.72092,-1.1409471,-2.1276293,-3.3715568,-0.2882684,-0.06347902,-0.21121883,28.3125,29.4375,28.625,32.6875,35.1875,36.4375
0.2675553,-0.85267735,-1.6442654,-0.7731047,-0.042127028,0.05998243,-0.15176457,-0.39846304,-0.35203668,0.08493514,-3.0769942,0.6265859,-0.00028407524,-0.12882003,-0.020705279,0.00066674495,0.0061163134,0.0024117786,-0.013555048,0.46874952,-1.3909506,1.9155377,-2.0928648,-1.5716962,2.444989,-0.07376615,0.24697615,-0.30423206,0.057831552,-0.007135357,-0.06003042,-0.19153613,0.4213795,-9.768343,0.90527004,47.694054,-1.043793,-2.1360412,-3.632701,-0.23682034,-0.059722457,-0.27600005,28.3125,29.4375,28.625,32.6875,35.1875,36.4375
0.2700541,-1.5227901,-1.9478613,-0.5093801,-0.05896496,0.05594053,-0.14829344,-0.39868808,-0.35208115,0.08492885,-3.0769348,0.6266288,-0.00032467415,-0.129489,-0.021177093,0.000103217295,0.005864374,0.0025345578,-0.011880081,0.46864164,-1.3904694,1.9149526,-2.0927098,-1.57172,2.4449158,-0.073577166,0.24934319,-0.30554524,0.056550138,-0.006976689,-0.06151561,-0.3256114,0.30645782,-9.844957,0.86498255,47.679718,-1.1087843,-2.014464,-3.7104988,-0.19323413,-0.058725007,-0.29253405,28.3125,29.4375,28.625,32.6875,35.1875,36.4375
0.2725547,-1.5573852,-1.8931252,-0.27348477,-0.056622043,0.04781702,-0.14642379,-0.39897734,-0.3521333,0.084948674,-3.076977,0.62657934,-0.00017537837,-0.13104887,-0.021622827,0.001051524,0.0038610925,0.0058446755,-0.010933862,0.46849748,-1.3899761,1.914318,-2.0926626,-1.5717558,2.4447358,-0.074274585,0.24935615,-0.3073704,0.054498427,-0.0066886432,-0.063159846,-0.38307226,0.30645782,-9.634268,0.9097417,47.675243,-1.1683772,-1.98694,-3.6807694,-0.15057632,-0.074082576,-0.27229312,28.3125,29.4375,28.625,32.6875,35.1875,36.4375
0.2750546,-0.72341824,-0.76250744,-0.32827058,-0.03562748,0.05352686,-0.15502025,-0.39923754,-0.35219055,0.08496411,-3.076998,0.6266035,-0.0001881618,-0.1333858,-0.022419477,0.0026492025,0.0021244867,0.010220638,-0.013800789,0.46835324,-1.3894842,1.9136728,-2.092519,-1.5717319,2.4446042,-0.074632324,0.25006616,-0.31172028,0.05345457,-0.007122807,-0.060647823,-0.40222588,0.2681506,-9.519346,0.8851263,47.658226,-1.1300935,-1.9416296,-3.6725993,-0.12571427,-0.089834884,-0.31432542,28.3125,29.4375,28.625,32.6875,35.1875,36.4375
0.27755433,-0.7231604,0.4677828,-0.32867453,0.018574987,0.030908113,-0.15000787,-0.39979154,-0.3522797,0.084966354,-3.076972,0.626771,-8.71038e-05,-0.13718875,-0.023004757,0.0050204834,0.00048572113,0.01447634,-0.014744907,0.4680406,-1.3884506,1.9124159,-2.0923512,-1.5717682,2.4444,-0.07654377,0.25203225,-0.3200942,0.055321626,-0.007589182,-0.061611366,-0.34476504,0.1340753,-9.404425,0.90527004,47.70838,-1.1542537,-1.6637557,-3.5349052,-0.0699374,-0.07290049,-0.33073896,28.3125,29.4375,28.625,32.6875,35.1875,36.4375
0.28005528,-1.1549964,0.098993376,-0.43500158,0.041146766,0.021923056,-0.14915545,-0.4000527,-0.35232335,0.084979534,-3.077008,0.6268363,-5.6059984e-05,-0.13861482,-0.023367753,0.005055003,-0.00078642875,0.015449309,-0.01618508,0.4678723,-1.3879932,1.9118294,-2.0922678,-1.5717438,2.4442682,-0.07749487,0.2540465,-0.32238153,0.05415094,-0.0068949335,-0.061123103,-0.57460845,0.15322891,-9.442732,0.90750587,47.66271,-1.0874474,-1.7408934,-3.4983163,-0.0498952,-0.08714108,-0.36423314,28.3125,29.4375,28.625,32.6875,35.1875,36.4375
0.28255475,-0.86398447,0.23065181,-0.48646387,0.020692056,0.054400135,-0.1467245,-0.4003401,-0.35238633,0.084977984,-3.0770066,0.62683475,-6.302253e-05,-0.13861418,-0.023362631,0.0028486934,0.0013062727,0.010263597,-0.015815228,0.46772844,-1.3874147,1.9111227,-2.0921352,-1.5717438,2.444124,-0.077702194,0.25961795,-0.3245306,0.05629765,-0.006423347,-0.06170017,-0.63206923,0.15322891,-9.5385,0.9097417,47.68062,-1.0951976,-1.773038,-3.451129,-0.020432502,-0.10408747,-0.38336575,28.3125,29.4375,28.625,32.6875,35.1875,36.4375
0.28505424,-1.0388572,-0.34776166,-0.4361689,0.0038835194,0.08522645,-0.1564209,-0.40063035,-0.35239887,0.08497702,-3.0769255,0.6269527,-5.5035256e-05,-0.13882317,-0.021424202,0.001026512,0.004938406,0.004190105,-0.017151872,0.4675232,-1.3868848,1.9104661,-2.0919778,-1.571792,2.444003,-0.08085388,0.26316354,-0.32574856,0.061024405,-0.0069220383,-0.063513614,-0.45968673,0.11492168,-9.5385,0.9231726,47.66808,-0.9584852,-1.9711828,-3.5628104,-0.006061861,-0.10441658,-0.38827336,28.3125,29.4375,28.625,32.6875,35.1875,36.4375
0.28755414,-1.86896,-0.828058,-0.115726314,-0.019509152,0.089176305,-0.15396626,-0.40116426,-0.3524922,0.08500296,-3.0769289,0.626988,-9.288752e-06,-0.14027213,-0.021514473,0.0015627085,0.005530279,0.0050898725,-0.013026133,0.46722317,-1.3858987,1.9091867,-2.0917141,-1.5718044,2.4437253,-0.08127081,0.26492763,-0.32964468,0.06261551,-0.007862382,-0.068053104,-0.6512229,0.19153613,-9.481039,0.9186956,47.672558,-1.0746807,-2.0317106,-3.626114,-0.024000106,-0.1288219,-0.37213114,28.3125,29.4375,28.625,32.6875,35.1875,36.4375
0.29005435,-2.0835953,-1.0037191,-0.116913386,-0.015448372,0.07563693,-0.1464439,-0.40147588,-0.35255554,0.085035354,-3.0769775,0.62699693,0.00011540249,-0.14136776,-0.020463793,0.0008939055,0.0072420985,0.0034841388,-0.012211045,0.46706632,-1.3853705,1.9084691,-2.0916178,-1.5718163,2.4435682,-0.08349116,0.26733783,-0.33144885,0.06421166,-0.008663898,-0.07108681,-0.4596867,0.17238252,-9.461885,0.8806493,47.68062,-0.78140366,-1.926482,-3.6105027,-0.012992623,-0.0951425,-0.34352207,28.3125,29.4375,28.625,32.6875,35.1875,36.4375
0.2925546,-0.92693114,-0.7844985,-0.26964816,-0.0041196635,0.06699046,-0.1481894,-0.40173754,-0.3525899,0.08500463,-3.076899,0.6270152,2.964978e-05,-0.14200601,-0.020968746,0.0011493203,0.008049232,0.0032777977,-0.007984439,0.46691078,-1.384793,1.9078234,-2.0914614,-1.5718411,2.4434345,-0.08273284,0.26921058,-0.33485043,0.066283464,-0.009303786,-0.07455169,-0.24899697,-0.019153614,-9.500193,0.9186956,47.651955,-0.9525295,-1.923866,-3.7201872,0.0015466022,-0.11462255,-0.30541652,28.3125,29.4375,28.625,32.6875,35.1875,36.4375
0.29505414,-0.57265687,-0.7610696,0.10982577,0.009485894,0.041448556,-0.14627571,-0.40205553,-0.35263404,0.08502571,-3.0769036,0.6270745,0.00014930776,-0.14436826,-0.020168418,0.0018892923,0.0077399537,0.0038220272,-0.008125078,0.46672946,-1.3842523,1.9071163,-2.091365,-1.5718769,2.44329,-0.08609822,0.27074188,-0.33890077,0.068169236,-0.0092744995,-0.07777575,-0.30645782,0.05746084,-9.308657,1.0261165,47.65912,-0.8881074,-1.8881149,-3.5079093,-0.008529865,-0.11164154,-0.2625862,28.3125,29.4375,28.625,32.6875,35.1875,36.4375
0.29755428,0.7913443,0.28396556,-0.21117559,0.029875692,0.0017331666,-0.15784195,-0.4026315,-0.35272253,0.08505573,-3.076936,0.62705857,0.0002612769,-0.14574176,-0.019084979,0.0015641861,0.011016677,0.00014974177,-0.004250981,0.46639282,-1.3832291,1.9057893,-2.0911353,-1.5719012,2.44294,-0.08825351,0.27455735,-0.34436235,0.0745616,-0.010545832,-0.083801456,-0.28730422,0.24899697,-9.308657,0.8784135,47.66091,-0.6554862,-1.8203189,-3.4717379,-0.039899644,-0.09187234,-0.15571785,28.3125,29.4375,28.625,32.6875,35.1875,36.4375
0.3000542,0.13980807,-0.29131958,-0.08098657,0.018608551,0.002718925,-0.1534961,-0.40294257,-0.35273933,0.08503907,-3.076801,0.6270675,0.0002715389,-0.14524738,-0.018437743,0.001778724,0.012568883,-0.0037182672,-0.0040280824,0.46621257,-1.3826051,1.9050468,-2.0909412,-1.572009,2.442783,-0.089047916,0.27461863,-0.34648532,0.080762886,-0.010191953,-0.084818944,-0.28730422,0.19153613,-9.232041,0.96569055,47.70032,-0.6724191,-1.8508451,-3.5006742,-0.077909105,-0.08709042,-0.1408178,28.3125,29.4375,28.625,32.6875,35.1875,36.4375
0.3025545,-0.49394327,-0.8173535,0.14626019,-0.000161624,0.012249012,-0.14990306,-0.40321445,-0.35278457,0.08503561,-3.0768132,0.6270295,0.00018500832,-0.14522916,-0.018617487,0.0011033241,0.01380771,-0.0073835603,-0.0018964998,0.4660325,-1.3820636,1.9043773,-2.0907729,-1.5719727,2.442578,-0.08894497,0.2776029,-0.34947827,0.084599525,-0.0096561145,-0.08684745,-0.34476504,0.28730422,-9.193734,0.89631605,47.687782,-0.6960671,-1.6289005,-3.529378,-0.15913661,-0.10931189,-0.06754864,28.3125,29.4375,28.625,32.6875,35.1875,36.4375
0.3050547,-1.3686818,-0.95529664,0.35580772,-0.020717554,0.028717494,-0.14456041,-0.40351546,-0.35282528,0.08505601,-3.0767999,0.6270868,0.00017829794,-0.14519548,-0.018406501,0.00081064063,0.014804187,-0.009701473,-0.00573173,0.4658404,-1.3815225,1.9036483,-2.0905807,-1.5719727,2.4424238,-0.08927194,0.2789016,-0.35113472,0.08747809,-0.00950203,-0.08333924,-0.2681506,0.2681506,-9.040505,0.8806493,47.695843,-0.7506125,-1.7133994,-3.3911083,-0.17853957,-0.11930102,-0.09589578,28.3125,29.4375,28.625,32.6875,35.1875,36.4375
0.30755466,-0.58219206,-0.2745138,0.46906206,-0.008428462,0.048845235,-0.15817158,-0.40410304,-0.35288885,0.08505657,-3.0767004,0.62712604,0.00017587346,-0.14631356,-0.018865325,0.0001981408,0.01517195,-0.01374197,-0.011091705,0.46548003,-1.3804036,1.9022483,-2.090243,-1.5720447,2.4421015,-0.090125024,0.28394067,-0.35703444,0.09210609,-0.008025341,-0.078833275,-0.13407528,0.21068975,-9.136273,0.87393653,47.691364,-0.6174239,-1.6524363,-3.5272937,-0.29276788,-0.13754675,-0.10403816,28.3125,29.4375,28.625,32.6875,35.1875,36.4375
0.3100544,-0.18163042,0.09388158,0.4822657,0.0037406716,0.037267234,-0.14866854,-0.40442955,-0.35294268,0.08508168,-3.0767183,0.6271481,0.00021595025,-0.14743784,-0.020562999,0.00026071238,0.014376721,-0.011762516,-0.012050937,0.4652889,-1.3798263,1.9014705,-2.0900767,-1.5720447,2.4419222,-0.08797848,0.28716105,-0.3607732,0.0905022,-0.008212998,-0.075725466,-0.11492168,0.22984336,-8.925584,0.9612189,47.681515,-0.8184781,-1.7704151,-3.464707,-0.31026104,-0.13322459,-0.1271232,28.3125,29.4375,28.625,32.6875,35.1875,36.4375
0.3125544,-0.13403451,-0.41095555,0.6712043,0.008332406,0.02258673,-0.14831325,-0.40471095,-0.35296744,0.0850483,-3.076594,0.6272793,0.000113102324,-0.15032631,-0.019803701,0.00053237035,0.013002203,-0.008008488,-0.018061517,0.46510774,-1.3792132,1.9007782,-2.089887,-1.5720805,2.4418392,-0.09141997,0.28855386,-0.36234513,0.08671086,-0.008689488,-0.07315342,0.0,0.19153613,-8.868123,0.9097417,47.683304,-0.78165567,-1.8757081,-3.4817762,-0.27282393,-0.14002663,-0.16972157,28.3125,29.4375,28.625,32.6875,35.1875,36.4375
0.31505534,0.46090347,-0.56775653,0.26059905,0.0152421985,0.006821067,-0.14687704,-0.40501657,-0.35303286,0.08506007,-3.0766165,0.6273397,0.00011574845,-0.15057763,-0.021574702,-0.00060864096,0.012422028,-0.006725907,-0.017535757,0.46494097,-1.3786355,1.9000353,-2.0897443,-1.5720562,2.4417076,-0.08846905,0.29225317,-0.3633575,0.08262144,-0.008755969,-0.07072723,0.11492168,0.24899697,-8.887277,0.9634547,47.684196,-0.82195437,-1.815435,-3.4888396,-0.23298648,-0.12380245,-0.17638394,28.3125,29.4375,28.625,32.6875,35.1875,36.4375
0.31755412,-0.66283333,-1.9952546,0.4157273,-0.035513528,0.007692944,-0.14831239,-0.40560764,-0.35310087,0.08502063,-3.0764747,0.6274265,1.9521714e-05,-0.15600021,-0.02299659,0.0019009027,0.008248234,0.004005654,-0.021470625,0.46458048,-1.3774219,1.8986119,-2.0894115,-1.5721167,2.4414203,-0.08989017,0.29450193,-0.3705978,0.076149404,-0.00987403,-0.06820639,-0.019153614,0.45968673,-8.944737,0.8940802,47.703903,-0.7995713,-1.7226429,-3.3845115,-0.17151734,-0.12729295,-0.2534482,28.3125,29.4375,28.625,32.6875,35.1875,36.4375
0.32005394,-0.5911693,-2.5291824,0.05655598,-0.041130517,0.029271914,-0.14002337,-0.40592313,-0.35315695,0.08504356,-3.0764713,0.62736857,7.8519435e-05,-0.15726663,-0.023430837,0.0020926606,0.007589711,0.0058186306,-0.022673404,0.46442458,-1.376844,1.8978342,-2.0892322,-1.572153,2.441229,-0.090015024,0.2960612,-0.3727345,0.07480951,-0.010102633,-0.067127235,-0.05746084,0.57460845,-9.002198,1.005978,47.667187,-0.91610897,-1.7391697,-3.480128,-0.14186284,-0.12009811,-0.2798309,28.3125,29.4375,28.625,32.6875,35.1875,36.4375
0.3225542,-0.71548855,-2.3458123,0.106314234,-0.06891773,0.04067811,-0.14433885,-0.40624553,-0.35319242,0.085041754,-3.0764108,0.6275669,9.5814845e-05,-0.15785913,-0.024013923,0.0026864214,0.0061045773,0.007032005,-0.022050675,0.46422043,-1.3762435,1.8970937,-2.0890887,-1.5721768,2.4411569,-0.08986847,0.29613018,-0.37426522,0.07451435,-0.009322423,-0.067605115,-0.076614454,0.59376204,-9.193734,0.8224646,47.66808,-0.8961713,-1.7755072,-3.5851645,-0.11814143,-0.12617496,-0.30981815,28.3125,29.4375,28.625,32.6875,35.1875,36.4375
0.32505444,-1.0978051,-2.5436368,0.28941497,-0.07333066,0.045128178,-0.1525557,-0.40655708,-0.35323757,0.08502343,-3.0763845,0.62761784,6.130958e-05,-0.15854979,-0.02449066,0.0024177139,0.0060078152,0.007581038,-0.02194939,0.46402875,-1.3756186,1.8963641,-2.0889575,-1.5721768,2.4410007,-0.089450985,0.2980584,-0.37593526,0.0737214,-0.009487977,-0.06728761,0.038307227,0.61291564,-9.289502,0.92764956,47.68062,-0.92342806,-1.5680343,-3.6017456,-0.092146024,-0.13618642,-0.32553405,28.3125,29.4375,28.625,32.6875,35.1875,36.4375
0.32755432,-0.6546572,-1.1816558,-0.07671597,-0.03458557,0.024664111,-0.15234207,-0.40717798,-0.35334194,0.08499549,-3.0763206,0.6277006,5.2283653e-05,-0.15937261,-0.02483619,0.00041179714,0.0064581153,0.0046188226,-0.024064023,0.46369243,-1.3743676,1.8948826,-2.0886943,-1.5722126,2.440725,-0.089902125,0.3037381,-0.3783786,0.07332983,-0.008571237,-0.06562513,-0.19153613,0.59376204,-9.174581,0.9835985,47.695843,-0.9833653,-1.7516978,-3.705881,-0.037284274,-0.15056983,-0.42032015,28.3125,29.4375,28.625,32.6875,35.1875,36.4375
0.33005416,-0.43824342,-0.94586277,-0.22269483,-0.017974062,0.01612044,-0.14523153,-0.4075006,-0.3533986,0.08499339,-3.07628,0.6277663,5.5793018e-05,-0.159971,-0.025903394,0.0006796984,0.0061768615,0.005287172,-0.020235252,0.46352518,-1.3737298,1.8940915,-2.0885265,-1.5722364,2.4406044,-0.088462226,0.30558613,-0.38148206,0.073855445,-0.008627625,-0.0680127,-0.038307227,0.38307226,-9.3661175,0.9634547,47.667187,-1.1264421,-1.8736908,-3.6799133,-0.026707835,-0.15518993,-0.41475397,28.3125,29.4375,28.625,32.6875,35.1875,36.4375
0.3325368,0.09217751,-0.81380314,-0.06274193,-0.010790722,0.016249318,-0.14930256,-0.40781465,-0.35343745,0.084969476,-3.0762143,0.6276976,4.824802e-05,-0.16332728,-0.025385298,0.00046743086,0.0061066644,0.0057831723,-0.025210923,0.46335578,-1.3730799,1.8933381,-2.088371,-1.5722965,2.440401,-0.09203639,0.31049448,-0.38706607,0.07405353,-0.008799853,-0.06660778,-0.1340753,0.34476507,-9.212888,0.86498255,47.651955,-0.97006655,-1.886796,-3.6159005,0.01932702,-0.14746954,-0.47387728,28.3125,29.4375,28.625,32.6875,35.1875,36.4375
0.33505574,-0.004594724,-0.7136522,-0.21029317,0.0024273344,0.013895976,-0.14919014,-0.4081563,-0.35351092,0.084982544,-3.0762537,0.62791246,5.469838e-05,-0.16170606,-0.026844883,-0.00029529803,0.0076215803,0.0013924006,-0.018781891,0.46315324,-1.3724539,1.892536,-2.088249,-1.5722364,2.440328,-0.08838996,0.31313705,-0.3896904,0.078636296,-0.008187731,-0.06939185,-0.15322891,0.24899697,-9.232041,0.95002913,47.651955,-1.2280914,-2.0187244,-3.5286236,0.02626535,-0.17710122,-0.46451104,28.3125,29.4375,28.625,32.6875,35.1875,36.4375
0.3375553,-0.2234585,0.11391719,-0.2043674,0.000116672534,0.021901626,-0.15222038,-0.40878794,-0.35360125,0.08493064,-3.0761492,0.62796336,-1.627101e-05,-0.1640192,-0.02660113,-0.00020933428,0.009485913,-0.0011643808,-0.0130384555,0.46279252,-1.3711431,1.8910283,-2.08796,-1.5722841,2.4400132,-0.09027507,0.31824484,-0.39771035,0.084652856,-0.008734772,-0.07701566,-0.05746084,0.24899697,-9.289502,0.88289046,47.67614,-1.1207379,-2.1117423,-3.4099927,0.020401804,-0.19076209,-0.44090074,28.3125,29.4375,28.625,32.6875,35.1875,36.4375
0.34005517,-0.38785094,-0.017091272,-0.2769474,0.023606054,0.010785671,-0.14726382,-0.4091238,-0.35365197,0.08495796,-3.0761218,0.62793505,6.8566173e-06,-0.16174428,-0.024397783,-0.0024781674,0.014417156,-0.011010586,-0.009685938,0.46261188,-1.3705292,1.89018,-2.0877173,-1.5723203,2.4398189,-0.091977336,0.31976926,-0.39638445,0.09280235,-0.008739489,-0.08207174,-0.11492168,0.22984336,-9.385271,1.0082139,47.695843,-1.0839181,-2.1469574,-3.5021408,-0.06937711,-0.17642243,-0.39334157,28.3125,29.4375,28.625,32.6875,35.1875,36.4375
0.34255424,-0.25210816,0.31682903,-0.27994162,0.025135703,0.019402634,-0.16248567,-0.40944597,-0.35369393,0.08492386,-3.0760653,0.6279787,-9.052832e-05,-0.16103704,-0.023212526,-0.0028905212,0.016062927,-0.014567359,-0.0062462757,0.4624075,-1.3698454,1.8894042,-2.087548,-1.5723203,2.4396493,-0.09334414,0.31938186,-0.39609185,0.09680497,-0.008631885,-0.0868788,-0.17238252,0.114921674,-9.423578,0.9634547,47.67614,-1.1085165,-2.0998585,-3.78337,-0.12059702,-0.19003706,-0.3623157,28.3125,29.4375,28.625,32.6875,35.1875,36.4375
0.34505463,-0.10508723,0.3159656,-0.5704183,0.024022315,0.023871168,-0.15455948,-0.40975633,-0.35375914,0.08492507,-3.0760505,0.62799203,-0.00017894185,-0.16105118,-0.023015164,-0.0029452555,0.017747734,-0.017803634,-0.002200179,0.4622395,-1.3692085,1.8885902,-2.0873196,-1.5722965,2.439492,-0.09355153,0.32109222,-0.39936996,0.10201514,-0.008705448,-0.09113096,-0.1340753,0.05746084,-9.404425,1.0171678,47.664497,-1.0683787,-1.936053,-3.7776232,-0.18932475,-0.1975294,-0.2960381,28.3125,29.4375,28.625,32.6875,35.1875,36.4375
0.34755474,-0.75944966,-0.15866241,-0.76808876,0.012782303,0.017245904,-0.14585398,-0.4104166,-0.3538365,0.08491692,-3.0759158,0.6279398,-0.00025890267,-0.16368459,-0.023387967,-0.0017240159,0.017453581,-0.017399417,0.0021508152,0.46185496,-1.3678979,1.8869389,-2.0868514,-1.5723804,2.439093,-0.09497448,0.32427672,-0.40728602,0.10623354,-0.008659323,-0.09690164,-0.30645782,0.21068975,-9.576807,0.947788,47.64479,-1.0432703,-1.9960561,-3.6215944,-0.28227732,-0.21783367,-0.1859174,28.3125,29.4375,28.625,32.6875,35.1875,36.4375
0.350055,-0.94646263,-0.70690614,-0.777173,-0.0055664564,0.04786926,-0.14441438,-0.41076845,-0.35388556,0.08492853,-3.0758984,0.6280138,-0.0002664563,-0.16590305,-0.023550391,-0.0018832496,0.017799435,-0.016544724,0.0022785321,0.46163857,-1.3672479,1.8860902,-2.0866477,-1.5723809,2.4389255,-0.09606599,0.32823265,-0.4118381,0.10621749,-0.009367126,-0.09811679,-0.3256114,0.076614454,-9.653421,0.9254084,47.66091,-0.9829829,-2.2029786,-3.4789732,-0.3205558,-0.21245643,-0.17350033,28.3125,29.4375,28.625,32.6875,35.1875,36.4375
0.35255614,-1.3177333,-1.4227096,-1.0159312,-0.010459818,0.058452245,-0.14092718,-0.41104874,-0.35392863,0.08488574,-3.075805,0.6279199,-0.0003993161,-0.168115,-0.02264412,-0.0028357166,0.01761013,-0.015920002,-0.0033504097,0.46149346,-1.3665866,1.8853487,-2.0864332,-1.5724171,2.4387343,-0.09932639,0.33147138,-0.41316846,0.10366523,-0.009497386,-0.09574584,-0.22984336,0.038307227,-9.768343,0.9612189,47.677036,-0.90621537,-2.123116,-3.5657778,-0.3131078,-0.21206278,-0.12858538,28.3125,29.4375,28.625,32.6875,35.1875,36.4375
0.35505438,-1.6898865,-1.0947921,-0.90789354,-0.03204313,0.059548337,-0.14426261,-0.4113888,-0.35396945,0.08487044,-3.0757627,0.6279496,-0.00050641375,-0.16812554,-0.023754774,-0.0038082076,0.01733026,-0.01503453,-0.004640204,0.46126622,-1.3659005,1.8845123,-2.0862076,-1.5724047,2.4385314,-0.097234435,0.33383572,-0.41328007,0.100500606,-0.009655046,-0.092362694,-0.4022259,0.24899697,-9.749189,0.87393653,47.694946,-0.9602259,-2.389964,-3.6919427,-0.3277151,-0.2317749,-0.16976455,28.3125,29.4375,28.625,32.6875,35.1875,36.4375
0.35755473,-1.901647,-1.7278197,-0.98339695,-0.06357422,0.09705355,-0.15438226,-0.4120797,-0.3540879,0.084916994,-3.0757487,0.6280286,-0.00044734316,-0.17235614,-0.024538098,-0.0032039564,0.013856642,-0.00588653,-0.015506316,0.4608941,-1.3646388,1.8828028,-2.0857913,-1.5724295,2.4382112,-0.0987113,0.3364222,-0.41596112,0.09087106,-0.010630192,-0.08296942,-0.4405331,0.21068975,-9.883265,0.9791215,47.65643,-0.8568423,-2.1978614,-3.859295,-0.21822381,-0.21551901,-0.25157565,28.3125,29.4375,28.625,32.6875,35.1875,36.4375
0.3600541,-2.0360253,-2.570513,-0.7642999,-0.060876556,0.091842,-0.14078407,-0.41243213,-0.35413814,0.08490892,-3.075714,0.6280415,-0.0003640002,-0.17511876,-0.025686303,-0.00020083087,0.0089358175,0.0022443263,-0.01836011,0.46071374,-1.3639668,1.8819898,-2.085673,-1.5724887,2.4380438,-0.09943012,0.3339691,-0.4192075,0.08709406,-0.009849981,-0.08083655,-0.47884035,0.28730422,-9.883265,0.9925471,47.65912,-0.9520782,-2.071612,-3.993592,-0.16529864,-0.24648958,-0.27895084,28.3125,29.4375,28.625,32.6875,35.1875,36.4375
0.36255455,-1.4627117,-1.7705947,-0.54160446,-0.05306539,0.07858838,-0.14132439,-0.4127955,-0.35419244,0.08492235,-3.0757182,0.6280998,-0.00033744329,-0.17808497,-0.02700355,0.0023510593,0.0057842312,0.009317666,-0.018505733,0.46049768,-1.3633066,1.8811282,-2.0854948,-1.5724887,2.437864,-0.09938731,0.33375525,-0.42443419,0.084797226,-0.010185216,-0.080645725,-0.53630114,0.2681506,-9.672575,0.9410752,47.675243,-0.965865,-1.854706,-3.7205954,-0.1134654,-0.2326287,-0.28581655,28.3125,29.4375,28.625,32.6875,35.1875,36.4375
0.3650547,-0.9617814,-0.5637906,-1.1069912,-0.0063229995,0.039900165,-0.14471644,-0.4131444,-0.35422397,0.08488843,-3.0756538,0.6282012,-0.00036593317,-0.17976649,-0.027176222,0.0024384253,0.0051824953,0.010086828,-0.019814465,0.4602693,-1.3626088,1.880339,-2.0853631,-1.572513,2.4377077,-0.1004947,0.33618927,-0.42775062,0.08471893,-0.009996908,-0.08044348,-0.30645782,0.38307226,-9.844957,1.0126908,47.703903,-0.9127945,-1.9098756,-3.7048092,-0.08083637,-0.24202661,-0.3100844,28.3125,29.4375,28.625,32.6875,35.1875,36.4375
0.36755466,-0.81179166,-0.70873433,-1.1887922,-0.005743008,0.041069116,-0.14967623,-0.41387436,-0.35434648,0.084915146,-3.075634,0.62837106,-0.00028440706,-0.18057184,-0.026571227,3.2779848e-05,0.0077239955,0.005220616,-0.022374032,0.45987287,-1.3612612,1.8785805,-2.0850027,-1.5725368,2.4374206,-0.10188481,0.34250143,-0.43076494,0.086906984,-0.010107622,-0.07927323,-0.47884032,0.4213795,-9.825804,1.0104496,47.695843,-0.9547527,-1.9972112,-3.8357944,-0.013268734,-0.2584442,-0.35996985,28.3125,29.4375,28.625,32.6875,35.1875,36.4375
0.37005472,-1.3220828,-0.85889316,-1.1230674,-0.025553698,0.042490385,-0.14290448,-0.4142506,-0.35440442,0.08494211,-3.0756195,0.62842536,-0.00017161756,-0.18068145,-0.026096186,-0.0012513398,0.009396898,0.0025680044,-0.023103066,0.4596807,-1.3605993,1.877684,-2.084823,-1.5725855,2.4372647,-0.10247528,0.345256,-0.43163767,0.088140525,-0.0104243215,-0.07913407,-0.3256114,0.4213795,-9.902418,0.947788,47.66539,-0.86650217,-2.2810504,-3.9337397,-0.017294977,-0.2634005,-0.3624098,28.3125,29.4375,28.625,32.6875,35.1875,36.4375
0.37255442,-1.5430564,-1.752634,-0.80589867,-0.05243083,0.06895158,-0.1452165,-0.41461077,-0.3544591,0.084960334,-3.075619,0.6284824,-0.00012344227,-0.18166701,-0.025203668,-0.0017287822,0.011003385,-0.0003075093,-0.024661465,0.45947608,-1.3599521,1.8768243,-2.0846417,-1.5725974,2.437096,-0.10459643,0.34796143,-0.43486473,0.09194865,-0.010585979,-0.079695776,-0.38307226,0.34476504,-9.959879,1.0171678,47.675243,-0.78160536,-2.1202612,-4.0412717,-0.020658469,-0.24817467,-0.40103447,28.3125,29.4375,28.625,32.6875,35.1875,36.4375
0.37505457,-1.805458,-1.9170479,-0.20625001,-0.073490225,0.07700917,-0.14598766,-0.41499296,-0.3545037,0.084946774,-3.0755959,0.62851346,-0.00013139773,-0.18313952,-0.025727311,-0.00044189903,0.0112781,0.00025350528,-0.020226296,0.45923606,-1.3592201,1.8759373,-2.084473,-1.5726093,2.436879,-0.10451975,0.34950268,-0.44077042,0.09592253,-0.011093781,-0.084051,-0.21068975,0.21068975,-9.902418,1.0194036,47.67793,-0.86539936,-2.2091985,-3.8188996,-0.04076928,-0.26393914,-0.35123783,28.3125,29.4375,28.625,32.6875,35.1875,36.4375
0.3775546,-0.44284776,0.08830149,-0.6744407,0.02431367,-0.0050749066,-0.1390895,-0.4157343,-0.35460863,0.08496862,-3.0755584,0.628653,-3.589745e-05,-0.1834758,-0.026345134,0.0009808269,0.011750575,-0.0029139717,-0.01283704,0.45881644,-1.3578649,1.8741759,-2.08411,-1.572657,2.436552,-0.10404198,0.35066214,-0.44784343,0.104860365,-0.0101181185,-0.09096472,-0.21068975,0.28730422,-9.557653,0.9701675,47.70211,-0.89406294,-2.043586,-3.6247306,-0.08341984,-0.27945304,-0.33264494,28.3125,29.4375,28.625,32.6875,35.1875,36.4375
0.38005444,0.25647724,0.83953214,-0.569906,0.05063258,-0.025950395,-0.14408982,-0.41613021,-0.35467112,0.084989525,-3.0755868,0.6287934,1.2497138e-05,-0.1837357,-0.025777698,0.0017585484,0.013649563,-0.0031781243,-0.010219282,0.45857614,-1.3571696,1.8732537,-2.0839422,-1.5726336,2.4363961,-0.10417636,0.35017115,-0.45009884,0.10868496,-0.011700581,-0.093712814,-0.076614454,0.22984336,-9.3661175,0.95226496,47.681515,-0.75044453,-1.874473,-3.6493526,-0.13244903,-0.28378016,-0.26821584,28.3125,29.4375,28.625,32.6875,35.1875,36.4375
0.38255468,0.8830986,0.9203239,-0.6678394,0.060027003,-0.024799697,-0.1618448,-0.41650957,-0.3547332,0.08500478,-3.0755582,0.62868845,6.114286e-05,-0.18308698,-0.025636524,0.0011231414,0.014664386,-0.0076997997,-0.0067009707,0.45839617,-1.356449,1.8722967,-2.0837004,-1.5726932,2.4361548,-0.10435939,0.35182095,-0.45192236,0.113344006,-0.010610416,-0.0974172,0.19153613,0.05746084,-9.481039,0.9679317,47.66539,-0.86004305,-1.796361,-3.7109609,-0.13563173,-0.26574552,-0.243601,28.3125,29.4375,28.625,32.6875,35.1875,36.4375
0.385054,0.63473177,0.40290034,-0.1774841,0.028107323,-0.015511666,-0.15920967,-0.4168647,-0.35475853,0.08499157,-3.0754712,0.6287044,1.3878324e-05,-0.18285437,-0.025387758,-0.00038264168,0.017476793,-0.0131854145,-0.0015503603,0.45816824,-1.3557532,1.8714341,-2.0834596,-1.5727414,2.4359486,-0.10439079,0.356135,-0.4550414,0.11829609,-0.010719964,-0.10259712,0.076614454,0.05746084,-9.3661175,0.98135734,47.672558,-0.8997568,-1.8919604,-3.7255602,-0.2392712,-0.2846322,-0.16089088,28.3125,29.4375,28.625,32.6875,35.1875,36.4375
0.38755476,0.2571924,0.08753174,-0.31624264,0.003502161,0.021829907,-0.154909,-0.41762066,-0.35486183,0.0850256,-3.0754194,0.62873065,3.6320107e-05,-0.18508619,-0.026761295,-0.0013862144,0.01784855,-0.013878147,0.0003539492,0.4577366,-1.3543594,1.8695654,-2.082969,-1.5727895,2.435541,-0.10364081,0.363509,-0.4622435,0.118898846,-0.010773753,-0.1037485,0.22984336,-0.095768064,-9.442732,0.9410752,47.696735,-0.9071616,-2.096421,-3.5634723,-0.30256507,-0.2775458,-0.067681104,28.3125,29.4375,28.625,32.6875,35.1875,36.4375
0.39005455,-0.6181626,-1.0995103,-0.21676405,-0.0034756982,0.02710907,-0.14023066,-0.4179703,-0.35491908,0.085016385,-3.0753973,0.6288037,-7.5305594e-05,-0.18606108,-0.02716562,-0.00019937,0.01618674,-0.010744357,-0.0022310896,0.45752043,-1.3536527,1.8686794,-2.0827296,-1.5727533,2.4353735,-0.10369284,0.36242905,-0.46362525,0.11782149,-0.010679373,-0.1012153,0.15322891,0.05746084,-9.308657,0.95226496,47.668976,-0.9914742,-2.0130718,-3.6480246,-0.28122437,-0.30280274,-0.07084205,28.3125,29.4375,28.625,32.6875,35.1875,36.4375
0.39255485,-0.75735384,-1.1791689,-0.027708432,-0.020934422,0.02415597,-0.1492741,-0.41833833,-0.35498142,0.08502889,-3.0753396,0.6287562,-5.976449e-05,-0.19105378,-0.028249115,0.0019790514,0.011167421,0.00035452913,-0.007874243,0.45735183,-1.352933,1.867721,-2.0824583,-1.5728134,2.4351833,-0.10566799,0.3634636,-0.46808368,0.1090723,-0.011107428,-0.097544074,0.05746084,0.15322891,-9.232041,1.0373062,47.63852,-0.9193001,-1.9125972,-3.5727832,-0.22648692,-0.2823329,-0.096208505,28.3125,29.4375,28.625,32.6875,35.1875,36.4375
0.39505383,-0.8569719,-1.5931365,-0.11163593,-0.02343518,0.027006295,-0.14016801,-0.41870317,-0.35502958,0.08502215,-3.0753164,0.6287329,-2.6643384e-05,-0.19190876,-0.030387953,0.0025919226,0.009378992,0.0035258401,-0.00900155,0.45714885,-1.3522367,1.8668574,-2.0822914,-1.5728496,2.4349692,-0.10276001,0.3652926,-0.47144273,0.10696955,-0.010909123,-0.09350841,-0.076614454,0.3256114,-9.289503,1.0775883,47.653748,-1.05948,-1.8566756,-3.4981947,-0.17847934,-0.31247833,-0.1205353,28.3125,29.4375,28.625,32.6875,35.1875,36.4375
0.3975545,-0.4857846,-2.0444713,-0.38895738,-0.037325326,0.04004623,-0.13991861,-0.41949955,-0.35514882,0.08505788,-3.0752993,0.62888485,2.1584725e-05,-0.19516201,-0.031132644,0.0029315867,0.007279464,0.009121969,-0.015725648,0.4566928,-1.3507854,1.8649191,-2.081838,-1.5728616,2.434611,-0.10358518,0.36844674,-0.47533455,0.101768,-0.011501404,-0.08760712,0.0,0.49799395,-9.346964,0.9858343,47.64121,-1.1247118,-1.7092603,-3.7623377,-0.06881492,-0.30164832,-0.18187697,28.3125,29.4375,28.625,32.6875,35.1875,36.4375
0.40005434,-0.9225621,-2.059854,-0.15436536,-0.051093668,0.030319503,-0.13696574,-0.41986293,-0.355206,0.08504113,-3.0752292,0.62891215,-5.0139446e-05,-0.19602168,-0.030456763,0.0023892173,0.007923847,0.007842208,-0.022038136,0.45650008,-1.3500293,1.8639854,-2.0815856,-1.5728854,2.434445,-0.10529592,0.3703351,-0.47689357,0.10287727,-0.011514435,-0.0830043,-0.22984336,0.6512229,-9.32781,1.0171678,47.653748,-1.0661385,-1.6909738,-3.684538,-0.058328662,-0.31600574,-0.25363615,28.3125,29.4375,28.625,32.6875,35.1875,36.4375
0.40255487,-0.7120208,-2.432215,-0.002618279,-0.060546156,0.05536672,-0.14466397,-0.42027736,-0.3552621,0.08506625,-3.0752075,0.62900215,9.216698e-05,-0.19690086,-0.03038191,0.0023306615,0.0077777817,0.0078105167,-0.022178162,0.45628375,-1.3493092,1.863016,-2.0814064,-1.5729455,2.434288,-0.10608427,0.37175182,-0.4788205,0.10334248,-0.011367069,-0.08365363,-0.45968673,0.6895301,-9.155427,1.0977321,47.66808,-1.0047811,-1.6671005,-3.8267934,-0.033053,-0.31860474,-0.27909583,28.3125,29.4375,28.625,32.6875,35.1875,36.4375
0.4050546,-0.88858515,-2.0603726,-0.17934792,-0.033892326,0.048168626,-0.14702815,-0.42065787,-0.3553211,0.08506591,-3.0751927,0.62903994,7.328944e-05,-0.1993217,-0.030376513,0.0028983294,0.00712199,0.008795921,-0.02583055,0.4560671,-1.3485773,1.8620814,-2.0811903,-1.5729455,2.4340973,-0.108038396,0.37450823,-0.48397055,0.10456363,-0.011218432,-0.081954144,-0.22984336,0.6703765,-9.32781,1.0015011,47.705692,-0.91879547,-1.6669421,-3.752075,-0.015360855,-0.30741355,-0.30486268,28.3125,29.4375,28.625,32.6875,35.1875,36.4375
0.4075539,-1.0339851,-1.8540266,0.34602106,-0.023594035,0.03274964,-0.13452321,-0.4214341,-0.3554423,0.08505585,-3.07509,0.62925035,3.5618694e-05,-0.20030609,-0.030602265,0.0016080701,0.009860362,0.001065221,-0.02960085,0.45564696,-1.3470521,1.8601516,-2.0807316,-1.5729808,2.4338226,-0.10871653,0.38214558,-0.49296796,0.1140671,-0.010270458,-0.078861736,-0.36391866,0.49799395,-9.040505,1.0082139,47.657326,-0.89112794,-1.9072922,-3.527372,-0.07265808,-0.3333146,-0.40186226,28.3125,29.4375,28.625,32.6875,35.1875,36.4375
0.41005564,-0.26587006,-0.53315645,0.45752028,-0.00803001,0.032591417,-0.14970483,-0.42184475,-0.35553035,0.0850583,-3.075091,0.6293065,5.6571065e-05,-0.19855909,-0.030054044,0.0001804526,0.013212723,-0.0053176573,-0.028806912,0.4554552,-1.346248,1.8591241,-2.0805266,-1.5729812,2.4336662,-0.107940875,0.38392767,-0.49351448,0.12003734,-0.010459945,-0.07888,-0.3256114,0.45968673,-8.90643,0.9925471,47.652847,-0.96118796,-1.7591152,-3.5456386,-0.12760565,-0.35354796,-0.44078788,28.3125,29.4375,28.625,32.6875,35.1875,36.4375
0.41255504,-0.42013177,-0.07665246,0.25066695,0.015497233,0.019325301,-0.14658338,-0.4222669,-0.35557213,0.085082434,-3.0750601,0.6293755,0.0001418476,-0.1972868,-0.029043531,-0.0001560783,0.016188374,-0.009078523,-0.027159963,0.45520335,-1.3455166,1.8581294,-2.0802968,-1.5730294,2.433462,-0.10785596,0.38338122,-0.4935123,0.1252619,-0.011469532,-0.0804401,-0.45968673,0.38307226,-8.829816,1.044019,47.694946,-1.0808582,-1.8985475,-3.7173054,-0.1813453,-0.3445372,-0.45848644,28.3125,29.4375,28.625,32.6875,35.1875,36.4375
0.41505495,-0.043203015,0.089071535,0.52606016,0.016966274,0.02711866,-0.14658034,-0.42265698,-0.35563964,0.08505639,-3.0749822,0.62954855,2.1401698e-05,-0.19705896,-0.029338684,0.00022748412,0.016786976,-0.010454266,-0.023578474,0.45498776,-1.3446897,1.8571242,-2.0800326,-1.5730175,2.4333649,-0.10705817,0.3837178,-0.49586964,0.12877385,-0.011414697,-0.08322294,-0.21068975,0.22984336,-8.925584,1.0552088,47.70211,-1.2171937,-1.7368065,-3.7425442,-0.22244893,-0.355839,-0.4689448,28.3125,29.4375,28.625,32.6875,35.1875,36.4375
0.4175541,-0.61931247,-0.4094822,0.6249515,0.013284761,0.033617746,-0.14150538,-0.4234694,-0.35576922,0.08505533,-3.07491,0.6296228,-9.172464e-06,-0.2022455,-0.030945659,0.001748745,0.014292325,-0.0042312504,-0.014056378,0.45455542,-1.3431051,1.8550867,-2.079531,-1.5730537,2.4329891,-0.10803304,0.3895064,-0.50648624,0.12688625,-0.011963528,-0.0937145,-0.4213795,0.2681506,-8.7532015,0.9612189,47.694946,-1.2206582,-1.7883588,-3.5903926,-0.23904462,-0.36725155,-0.43178833,28.3125,29.4375,28.625,32.6875,35.1875,36.4375
0.42005444,-0.63847315,-0.42791563,0.32104638,0.001735805,0.053901307,-0.15339735,-0.42387822,-0.3558391,0.085072964,-3.074867,0.6296115,1.9082738e-05,-0.20498194,-0.031119477,0.0012218908,0.014011604,-0.0024833013,-0.009638553,0.45436278,-1.3423244,1.8540319,-2.0792444,-1.5731019,2.4327955,-0.10954359,0.3942008,-0.5108102,0.12480373,-0.012506636,-0.09963946,-0.17238252,0.0,-8.848969,0.98135734,47.67345,-0.99983954,-1.8558499,-3.3503227,-0.23798153,-0.36744797,-0.33028752,28.3125,29.4375,28.625,32.6875,35.1875,36.4375
0.42255446,-0.66227394,-0.41975662,0.20394078,-0.012684864,0.065815054,-0.13911168,-0.42426932,-0.3558827,0.085041046,-3.0747602,0.62962514,-0.00010034218,-0.20642494,-0.030894348,0.00019933586,0.012920914,4.4590724e-05,-0.006534054,0.4541344,-1.3414961,1.8530287,-2.0789473,-1.5731381,2.43259,-0.110859014,0.3961264,-0.509869,0.11917086,-0.012669268,-0.104057945,0.019153614,0.019153614,-9.097966,0.96569055,47.675243,-1.0532557,-2.0021784,-3.4886851,-0.16297367,-0.37057263,-0.30865192,28.3125,29.4375,28.625,32.6875,35.1875,36.4375
0.42505464,-1.681167,-1.1269798,0.3064524,-0.023799745,0.05862146,-0.13915808,-0.42469338,-0.35593918,0.08503643,-3.074747,0.6295997,-8.095573e-05,-0.20827922,-0.03099964,-0.0008206794,0.011637863,0.0017709205,-0.0020222093,0.453894,-1.340692,1.8520111,-2.0787332,-1.573162,2.4323359,-0.11224334,0.39946422,-0.51092213,0.11475154,-0.012298552,-0.10995514,-0.59376204,0.19153613,-9.097966,0.9567419,47.70838,-0.95648324,-2.0358686,-3.685538,-0.10309839,-0.36974072,-0.20858729,28.3125,29.4375,28.625,32.6875,35.1875,36.4375
0.4275544,-1.1116303,-0.82013696,-0.12297189,-0.0044248346,0.04645094,-0.13404274,-0.42552224,-0.356072,0.08501705,-3.0746942,0.62966406,-0.000110054716,-0.2119615,-0.03221536,0.00075571425,0.009307255,0.00800224,-0.0014157703,0.45344976,-1.3390609,1.8499631,-2.0782788,-1.5731858,2.4319396,-0.112538055,0.4021613,-0.5178347,0.11233754,-0.012961852,-0.11085236,-0.19153614,0.11492168,-9.136273,1.0216395,47.675243,-0.89820564,-2.0144465,-3.6080456,-0.023759112,-0.3871774,-0.14678079,28.3125,29.4375,28.625,32.6875,35.1875,36.4375
0.43005407,-0.724334,-0.06777637,-0.32793728,0.015950074,0.020080656,-0.13458523,-0.42594248,-0.3561174,0.084984146,-3.0746305,0.62967336,-0.00011394983,-0.21363951,-0.030409811,0.0013196771,0.010745478,0.0076269563,-0.0072647873,0.4532087,-1.3382213,1.8489693,-2.0780861,-1.5732344,2.431713,-0.11612183,0.4024568,-0.5205388,0.11571493,-0.014087726,-0.10858264,-0.51714754,0.17238252,-9.32781,0.9567419,47.682407,-0.79147536,-1.9414923,-3.5705822,-0.0020865004,-0.37416145,-0.15309735,28.3125,29.4375,28.625,32.6875,35.1875,36.4375
0.43255427,0.1462444,0.8958283,-0.5067004,0.015466546,0.029656025,-0.15307927,-0.42637247,-0.35619065,0.08497632,-3.0745976,0.62960774,-8.8293215e-05,-0.21262784,-0.03220331,0.00026702884,0.010944097,0.006804168,-0.007657465,0.4530062,-1.3373687,1.8478917,-2.0778468,-1.5732826,2.4314744,-0.112254135,0.4049437,-0.5213021,0.11482033,-0.01390277,-0.10432282,-0.45968673,0.21068975,-9.404425,0.99702406,47.65643,-1.0254816,-1.9599268,-3.606353,0.027357835,-0.38759005,-0.16115439,28.3125,29.4375,28.625,32.6875,35.1875,36.4375
0.43505478,-0.39322507,0.25758147,-0.8296509,0.018578844,0.020880667,-0.13821828,-0.4268172,-0.35622573,0.084975906,-3.0745027,0.6297667,-9.455463e-05,-0.21322502,-0.029772623,-0.0017076738,0.014671349,0.001971345,-0.017553879,0.45272848,-1.3365406,1.8468155,-2.0775588,-1.5733308,2.4313087,-0.115923174,0.4082244,-0.5218753,0.11810116,-0.015125376,-0.09809066,-0.36391866,0.19153613,-9.557653,1.0194036,47.664497,-0.808717,-2.1116412,-3.844998,0.040270843,-0.36327207,-0.22400607,28.3125,29.4375,28.625,32.6875,35.1875,36.4375
0.4375538,-1.4874471,-1.6880214,-0.97715175,-0.031815708,0.046878867,-0.13725796,-0.4276476,-0.3563436,0.084963664,-3.0744305,0.6298293,-0.00016303698,-0.21043278,-0.028889263,-0.004530949,0.022546772,-0.013132172,-0.021738624,0.45226142,-1.3349199,1.8447431,-2.077038,-1.5733546,2.430891,-0.11453972,0.41460824,-0.527557,0.13443305,-0.015580256,-0.09251857,-0.24899697,0.30645782,-9.672575,1.0373062,47.69763,-0.94799197,-2.3920186,-3.9881678,-0.087016836,-0.3709336,-0.29064226,28.3125,29.4375,28.625,32.6875,35.1875,36.4375
0.44005454,-0.57239705,-1.39765,-0.8678161,-0.051160764,0.063454255,-0.13715681,-0.42807376,-0.35642776,0.08495515,-3.074342,0.62988687,-0.0001982943,-0.21053699,-0.028805664,-0.004069562,0.024613235,-0.017743569,-0.022669844,0.45208138,-1.334032,1.8436044,-2.0767238,-1.5734028,2.430759,-0.1146991,0.41671714,-0.53351283,0.14332536,-0.0154250385,-0.09174498,-0.2681506,0.2681506,-9.768343,1.0373062,47.694946,-0.8708637,-2.244966,-3.783577,-0.19039658,-0.34744215,-0.33045158,28.3125,29.4375,28.625,32.6875,35.1875,36.4375
0.4425546,-0.056498207,-0.61695737,-1.1374251,-0.019992035,0.032938585,-0.14073466,-0.42849275,-0.35645348,0.0849255,-3.0742204,0.62993926,-0.0002696083,-0.20974101,-0.028085653,-0.0050231516,0.027828833,-0.022602225,-0.023244197,0.45181733,-1.3331913,1.8425764,-2.0764349,-1.5734633,2.430544,-0.11464692,0.4186417,-0.5352873,0.14894572,-0.0162024,-0.091113895,-0.17238252,0.28730422,-9.768343,0.92764956,47.667187,-0.94508064,-2.4242473,-3.7475507,-0.29151294,-0.3528724,-0.35340357,28.3125,29.4375,28.625,32.6875,35.1875,36.4375
0.4450539,0.44620654,-0.41673064,-1.1512731,0.0044536195,0.012613398,-0.13488877,-0.42893395,-0.35651413,0.08491709,-3.074181,0.63004625,-0.00034234257,-0.21052748,-0.028423538,-0.003748917,0.026285028,-0.020683233,-0.024672484,0.45155331,-1.3323294,1.8414739,-2.0761478,-1.5734509,2.4303522,-0.11483965,0.41760617,-0.53739566,0.14968783,-0.015663706,-0.08987989,-0.11492168,0.19153614,-9.80665,1.0171678,47.66808,-0.9637828,-2.236076,-3.6482222,-0.34400627,-0.35615772,-0.34359905,28.3125,29.4375,28.625,32.6875,35.1875,36.4375
0.44755483,0.22238685,0.1331703,-1.2586066,0.0028300718,0.009307594,-0.14374991,-0.42978263,-0.35665163,0.08493044,-3.0740728,0.6301739,-0.00039371496,-0.21526207,-0.02935837,-0.002714013,0.022220816,-0.011366632,-0.022020832,0.45112073,-1.3306742,1.8392729,-2.075528,-1.5734991,2.4300144,-0.11653537,0.42047787,-0.541987,0.14123064,-0.016128274,-0.094224,-0.038307227,0.17238252,-9.844957,1.0015011,47.64927,-0.8693504,-2.1822362,-3.824752,-0.29735023,-0.35564104,-0.3826291,28.3125,29.4375,28.625,32.6875,35.1875,36.4375
0.45005444,-0.18885985,-0.6070897,-0.99380934,-0.025330668,0.05139043,-0.13848642,-0.43021595,-0.3567207,0.08492345,-3.0740297,0.6301829,-0.0003891809,-0.2193848,-0.031178242,-0.0029418217,0.01856796,-0.0033559327,-0.02132668,0.4509049,-1.3298208,1.8381819,-2.0752685,-1.5735353,2.4298103,-0.11654913,0.4257144,-0.5459756,0.13117328,-0.016372183,-0.09492942,0.019153614,0.095768064,-9.864111,1.0373062,47.64837,-0.93038964,-2.2616696,-3.8466556,-0.20118286,-0.33772844,-0.39535385,28.3125,29.4375,28.625,32.6875,35.1875,36.4375
0.4525541,-1.3489307,-1.6305532,-1.0606191,-0.058792386,0.07283705,-0.13391928,-0.43066666,-0.35674837,0.08491295,-3.0739007,0.6302894,-0.00036276827,-0.22276413,-0.030716047,-0.0025844523,0.017129764,0.0005629217,-0.019853655,0.45063972,-1.3289676,1.8370928,-2.0749824,-1.5736312,2.4296288,-0.11960614,0.42826888,-0.5495424,0.12800744,-0.016818685,-0.099456295,0.095768064,0.095768064,-9.883265,1.0238806,47.667187,-0.79326475,-2.5891771,-3.884231,-0.15308832,-0.33248204,-0.3683024,28.3125,29.4375,28.625,32.6875,35.1875,36.4375
0.4550542,-0.8411024,-1.9441632,-1.2052592,-0.05128518,0.07839794,-0.13961017,-0.43110505,-0.3568516,0.08492718,-3.0739493,0.6302734,-0.00037040113,-0.22243461,-0.033120297,-0.0014538114,0.014548118,0.0042016488,-0.009802551,0.4504374,-1.3281178,1.835956,-2.0747192,-1.5735954,2.4294107,-0.11558921,0.42732888,-0.5507679,0.12575424,-0.016100598,-0.10549431,0.076614454,0.21068975,-9.940725,0.95226496,47.686886,-1.011445,-2.3351579,-3.7772505,-0.077320755,-0.33889532,-0.30444023,28.3125,29.4375,28.625,32.6875,35.1875,36.4375
0.45755428,-0.9695634,-1.3042989,-1.5028075,-0.009651607,0.021754408,-0.12745865,-0.4319989,-0.35696122,0.0849208,-3.073857,0.6303644,-0.0003136713,-0.22442093,-0.03361891,0.0003906032,0.014165851,0.007277899,-0.0018581824,0.4499454,-1.3264272,1.8337759,-2.0742157,-1.5736793,2.4289885,-0.11543648,0.42784953,-0.55679965,0.12829463,-0.017123647,-0.11328153,-0.05746084,0.34476504,-9.921572,1.0775883,47.68062,-1.0481017,-2.0931315,-3.9127626,-0.044276,-0.32281452,-0.18157513,28.3125,29.4375,28.625,32.6875,35.1875,36.4375
0.460054,0.04216798,-0.5003661,-1.3578962,-0.012016094,0.019667191,-0.13820177,-0.43243015,-0.35702008,0.0849014,-3.0737853,0.6303661,-0.00030685888,-0.22454664,-0.033340763,0.00063295296,0.0148024075,0.0069591403,0.0006733939,0.44972944,-1.3255641,1.8326997,-2.0739639,-1.5737399,2.4287834,-0.115584634,0.4277513,-0.55796385,0.13010456,-0.017567704,-0.11595937,-0.24899697,0.40222588,-9.9790325,1.0395473,47.66808,-1.0965173,-2.0295358,-3.924189,-0.04153122,-0.28779536,-0.08497797,28.3125,29.4375,28.625,32.6875,35.1875,36.4375
0.46252453,0.049080256,-1.0392727,-1.0490018,-0.031459905,0.026252704,-0.1364868,-0.43284976,-0.3570666,0.08488376,-3.073723,0.63029724,-0.00037387438,-0.22332865,-0.03237284,-0.0009209198,0.018471062,-0.0008691553,-0.003448023,0.44948915,-1.324723,1.8316344,-2.073661,-1.5737756,2.4285088,-0.11609527,0.43068597,-0.5601616,0.13801482,-0.017456688,-0.11234724,-0.24899697,0.34476504,-9.825804,1.1111577,47.707485,-1.1008906,-2.019859,-4.1113586,-0.09127979,-0.27943945,-0.11436446,28.3125,29.4375,28.625,32.6875,35.1875,36.4375
