Tylouw/Master_Thesis_Code/test_recorded_data/real_test3/insertion_4_2026-02-24_17-13-46.csv
timestamp[s],tcp_force_x[N],tcp_force_y[N],tcp_force_z[N],tcp_force_rx[Nm?],tcp_force_ry[Nm?],tcp_force_rz[Nm?],tcp_pose_x[m],tcp_pose_y[m],tcp_pose_z[m],tcp_pose_rx[rot_vec_x],tcp_pose_ry[rot_vec_y],tcp_pose_rz[rot_vec_z],tcp_velo_x[m/s],tcp_velo_y[m/s],tcp_velo_z[m/s],tcp_velo_rx[rot_vec_x/s],tcp_velo_ry[rot_vec_y/s],tcp_velo_rz[rot_vec_z/s],q1[rad],q2[rad],q3[rad],q4[rad],q5[rad],q6[rad],qd1[rad/s],qd2[rad/s],qd3[rad/s],qd4[rad/s],qd5[rad/s],qd6[rad/s],tool_acc_x,tool_acc_y,tool_acc_z,current_of_whole_robot[A],voltage_of_whole_robot[V],current_J1[A],current_J2[A],current_J3[A],current_J4[A],current_J5[A],current_J6[A],temp_J1[C],temp_J2[C],temp_J3[C],temp_J4[C],temp_J5[C],temp_J6[C]
0.00011208299838472158,-0.2402474179361574,0.03392741576748366,1.1824168872160703,0.02497551333724306,-0.019482229452444006,-0.037430117407990106,-0.3815372291310737,-0.3495373232522378,0.08494055272388026,-3.0784920446389106,0.6248894098797702,-0.00011869328132785241,-0.001287913180852557,-0.0007302404531574332,-0.002335290447744524,-0.0027010070653036263,0.004788129213398016,9.889696466407263e-05,0.47916603088378906,-1.4235732120326539,1.955012623463766,-2.100502153436178,-1.5708053747760218,2.454132556915283,-9.187089317050464e-28,0.0033448778558522463,0.004566706717014313,-0.013406400568783283,0.00016821057943161577,-9.831690113060176e-05,0.15322890877723694,0.0,-8.65743350982666,0.7083203792572021,47.7218132019043,-0.10515099763870239,-3.442418098449707,-2.5911316871643066,-0.3361330032348633,0.1300075501203537,-0.20637038350105286,28.3125,29.5625,28.6875,32.75,35.25,36.4375
0.0003662590024759993,-0.7060553123460012,-1.2018124995111272,-0.1877913103750848,-0.03068227386434385,0.01388241245588611,-0.038287075635444964,-0.3815067222261647,-0.34953688078379863,0.08489075666061957,-3.078432739709124,0.6248606130511164,-0.00036277652995541146,-0.004850277104071056,-0.00037158868854505567,-0.003788730795236726,0.0029864637248643326,-0.0061240482164153336,-0.0037803900415803965,0.47916463017463684,-1.4234843862107773,1.9550073782550257,-2.100424905816549,-1.5707572142230433,2.454120635986328,-0.003935935907065868,0.017098193988204002,-0.011039240285754204,0.0007516820915043354,0.00015119150339160115,-0.00014773552538827062,0.0,0.2298433631658554,-9.442731857299805,0.7306999564170837,47.693153381347656,-0.27875566482543945,-3.128908395767212,-2.948970079421997,-0.42871206998825073,0.13977009057998657,-0.26860520243644714,28.3125,29.5625,28.6875,32.75,35.25,36.4375
0.010203308003838174,-1.629068235912639,-1.5752914963770965,-0.7628702022663223,-0.07598767451641861,0.06094190608428124,-0.05685294611559751,-0.3815535893059597,-0.3495498385681105,0.08486594178028312,-3.0783772242574323,0.624866779988262,-0.00043569496542365506,-0.00954783779844699,-0.0008554312804891413,-0.001758544187313606,0.0008687897624915255,-0.002061451815540163,-0.001493738343254114,0.47915148735046387,-1.423315630560257,1.9548605124102991,-2.100377222100729,-1.5707696119891565,2.454118490219116,-0.007423970382660627,0.020654087886214256,-0.01990843005478382,0.0014826622791588306,0.0001370834361296147,-0.005917551461607218,-0.5746084451675415,0.7661445140838623,-9.921571731567383,0.7262282371520996,47.69673538208008,-0.5384437441825867,-2.6081995964050293,-3.280848741531372,-0.44141504168510437,0.1344975084066391,-0.2544434070587158,28.3125,29.5625,28.6875,32.75,35.25,36.4375
0.020233950999681838,-1.5789362765771362,0.38906644363918985,-0.4589894660175264,0.008748671306562882,0.029169691216440672,-0.09172003686725463,-0.3817063314140147,-0.3495839529512707,0.084838853340719,-3.078406768414639,0.6249518580110612,-0.00046880245842373245,-0.016866204138219116,-0.0016623346584107343,0.0006910139364545933,-0.002082324544598522,0.0034547062266167814,-0.003957977671093328,0.4790414571762085,-1.4229887437871476,1.954557243977682,-2.1004134617247523,-1.570721451436178,2.4540579319000244,-0.012799270451068878,0.027646057307720184,-0.03360183537006378,0.0019283725414425135,0.0001834348076954484,-0.00882085133343935,-0.325611412525177,-0.019153613597154617,-9.749189376831055,0.7486078143119812,47.725399017333984,-0.6266723871231079,-2.561509132385254,-3.139953374862671,-0.3976934552192688,0.1387876719236374,-0.24591529369354248,28.3125,29.5625,28.6875,32.75,35.25,36.4375
0.03024205399560742,-0.7210735818058412,-0.11948030456855471,-0.2596784239926631,0.019828385463692748,0.01988960137708165,-0.12921528348351866,-0.38190842556105675,-0.3495858589061147,0.0848614567831582,-3.0784020633510334,0.6250285114732647,-0.0003892854557542292,-0.02172784510954922,-0.0019385476420714478,0.0010256167301393086,-0.0027065274450885956,0.003623441221152076,-0.007989024420738424,0.4788721203804016,-1.4226976198009034,1.9541590849505823,-2.1003524265685023,-1.5707457701312464,2.453937292098999,-0.017079496756196022,0.035443954169750214,-0.04371025413274765,0.003799627535045147,0.0006431997753679752,-0.009064998477697372,-0.2106897532939911,-0.09576806426048279,-9.557653427124023,0.7463666796684265,47.69584274291992,-0.592887818813324,-2.583589553833008,-3.0658090114593506,-0.31687191128730774,0.14267848432064056,-0.27723854780197144,28.3125,29.5625,28.6875,32.75,35.25,36.4375
0.040240603004349396,-0.9570654889641983,-1.6307867835033547,-0.36397443837287485,-0.040546180512690225,-0.0030631724373985265,-0.1597596715435785,-0.3821572183415549,-0.3495949533622135,0.0848979482440683,-3.078404119320272,0.6252591490801045,-0.00020917250262091124,-0.025829240850056865,-0.0026599482298066504,0.0028405354614357585,-0.003516792626947249,0.005588156878251166,-0.0071894879796185526,0.47867926955223083,-1.4223719400218506,1.953700367604391,-2.1003385982909144,-1.5707815329181116,2.453888416290283,-0.019464481621980667,0.039984188973903656,-0.053848303854465485,0.007280318066477776,0.00044456272735260427,-0.012244018726050854,-0.038307227194309235,0.3447650372982025,-9.442731857299805,0.6926589012145996,47.70927429199219,-0.5652231574058533,-2.2609505653381348,-3.0884296894073486,-0.3260619044303894,0.1624545305967331,-0.27023541927337646,28.3125,29.5625,28.6875,32.75,35.25,36.4375
0.050245584003278054,-0.8368036159305807,-1.3074513148268094,-0.09265986710054519,-0.01907166144674822,-0.002853318346095788,-0.15707792203364654,-0.38243577567355136,-0.349628661983811,0.08493611690285893,-3.07843807158599,0.6253238425056059,-0.0001519112066960198,-0.029212174496196574,-0.0024593124606023917,0.0018145020207136224,-0.002572093257585668,0.0037910267232351153,-0.00801682723061816,0.47847408056259155,-1.421936796312668,1.9530885855304163,-2.1002193890013636,-1.5707696119891565,2.4537196159362793,-0.022917600348591805,0.047721825540065765,-0.06060605123639107,0.008330616168677807,0.0004226352903060615,-0.014865390956401825,0.019153613597154617,0.363918662071228,-9.308656692504883,0.7396538853645325,47.70390319824219,-0.6004369854927063,-2.0878756046295166,-3.3569774627685547,-0.2938181757926941,0.15828542411327362,-0.22626569867134094,28.3125,29.5625,28.6875,32.75,35.25,36.4375
0.0602489019947825,-0.42132653874372783,0.05811369844174025,0.2783764430909554,0.0020952790688187582,0.008213785746550023,-0.15765217936051212,-0.38275815315672257,-0.34967919170889994,0.0849750873283936,-3.0784579230073077,0.6256154413795241,-3.6546035401065263e-05,-0.033200434444402266,-0.004282689316443748,0.0022429666659462147,-0.0042599223613842,0.004143811323178224,-0.008411443766690598,0.47825780510902405,-1.4214294862798234,1.9524028936969202,-2.1001469097533167,-1.570756737385885,2.4536831378936768,-0.02414068579673767,0.055812884122133255,-0.07117737829685211,0.009716267697513103,0.0017415721667930484,-0.01568974368274212,0.0,0.2298433631658554,-9.232041358947754,0.7508436441421509,47.6680793762207,-0.6814453601837158,-1.9853827953338623,-3.3863673210144043,-0.24739539623260498,0.184208482503891,-0.23220258951187134,28.3125,29.5625,28.6875,32.75,35.25,36.4375
0.07023418600147124,-1.0711005550523005,-0.334404633237976,0.020741035274357236,-0.005355256730080597,0.020552917674670206,-0.15025430875104154,-0.3831070039238512,-0.349727984540241,0.08498678611555749,-3.078500388665083,0.6256998001921797,-4.5614802857622866e-05,-0.03714387266856877,-0.005654546442777132,0.0010369857541233421,-0.0030850483642856003,0.0022269858178329506,-0.007120007859086529,0.4779934585094452,-1.4208128911307831,1.9516461531268519,-2.100039144555563,-1.5707090536700647,2.4534664154052734,-0.025219131261110306,0.06725192815065384,-0.08189231902360916,0.01123625598847866,0.001562226563692093,-0.018052535131573677,-0.24899697303771973,0.09576806426048279,-9.251194953918457,0.7508436441421509,47.70748519897461,-0.7791967391967773,-2.077127456665039,-3.390488624572754,-0.2556058168411255,0.1705920398235321,-0.1772722601890564,28.3125,29.5625,28.6875,32.75,35.25,36.4375
0.08024125499650836,-1.6482319768901996,-1.7229633471916395,-0.5815278688943503,-0.030104681297993964,0.03443011031422371,-0.14527312768160264,-0.38351133542880905,-0.3497847718203153,0.08499565498546194,-3.0784871404157585,0.6258321769913565,4.96129924973256e-06,-0.042991847285657254,-0.006186498373249068,0.0029844467465871658,-0.006201697720942172,0.005355690240710331,-0.010377856114836562,0.4777276813983917,-1.420078159575798,1.9507573286639612,-2.0999185047545375,-1.5707204977618616,2.4532854557037354,-0.03041238524019718,0.0728866457939148,-0.09316159039735794,0.012654745019972324,0.002871789038181305,-0.019983850419521332,-0.3447650372982025,0.3447650372982025,-9.691728591918945,0.7575564384460449,47.67792892456055,-0.695753812789917,-1.788238525390625,-3.4944493770599365,-0.2574004530906677,0.17153817415237427,-0.15134751796722412,28.3125,29.5625,28.6875,32.75,35.25,36.4375
0.09024223600863479,-1.2227829221462148,-1.540548810822623,-0.6370569610079474,-0.023902152501069213,0.013860859633654424,-0.14529973194041898,-0.3839641644820361,-0.3498640601845405,0.08503997247355155,-3.078542060511869,0.6260937725917788,5.652578141305601e-05,-0.04883311519410021,-0.007450128667624924,0.0016717473575914605,-0.00612594097704762,0.0051497995901216695,-0.01283683046700904,0.4774147868156433,-1.4193168890527268,1.9497488180743616,-2.0997635326781214,-1.570660416279928,2.453129291534424,-0.03351150080561638,0.08636912703514099,-0.10543956607580185,0.011670034378767014,0.002874549711123109,-0.020615501329302788,-0.1149216815829277,0.363918662071228,-9.653421401977539,0.8179876208305359,47.725399017333984,-0.7034333944320679,-1.8097472190856934,-3.4178669452667236,-0.21005143225193024,0.15922200679779053,-0.14495526254177094,28.3125,29.5625,28.6875,32.75,35.25,36.4375
0.10024343199620489,-0.6368991822654161,-1.066152760660037,-0.2581304594517998,-0.019146194723023206,0.02699500994778945,-0.1478523700653494,-0.38451223106355525,-0.3499707760471753,0.08508368059982432,3.078423341961454,-0.6262430382031423,-0.00024780637168372584,-0.05493862178739436,-0.00906684806136036,0.001841215137459025,-0.0067354186474920495,0.0062539803055556035,-0.014829152271158143,0.47707778215408325,-1.4183997076800843,1.9485839048968714,-2.0997029743590296,-1.5706246534930628,2.4529011249542236,-0.03621390461921692,0.09814836829900742,-0.11968014389276505,0.012872355990111828,0.002887444104999304,-0.02131662704050541,-0.17238251864910126,0.3064578175544739,-9.423578262329102,0.7687462568283081,47.685096740722656,-0.6964830160140991,-1.8976449966430664,-3.157865047454834,-0.16593915224075317,0.15925845503807068,-0.10612954199314117,28.3125,29.5625,28.6875,32.75,35.25,36.4375
0.11023395700613037,-1.1231903451612697,-0.7035482056044323,0.336148217097873,-0.020398307675279597,0.02540942606926995,-0.1515059979818547,-0.38509267317259066,-0.3500779388430884,0.08513258405847243,3.0782401830266912,-0.6264354490627295,-0.0003966453613396414,-0.05854059517208977,-0.009664875620401987,0.0008219486738630255,-0.005273999785887148,0.00400346911045732,-0.01610967541534995,0.4767051637172699,-1.4174234879067917,1.9473250547992151,-2.0995828113951625,-1.5705764929400843,2.4526724815368652,-0.03822712227702141,0.10783461481332779,-0.12910792231559753,0.015287320129573345,0.002613726304844022,-0.022043081000447273,-0.09576806426048279,0.28730422258377075,-9.117119789123535,0.7441308498382568,47.66628646850586,-0.7809886336326599,-1.8559561967849731,-3.236198902130127,-0.12138032168149948,0.14711984992027283,-0.10080981999635696,28.3125,29.5625,28.6875,32.75,35.25,36.4375
0.12023681600112468,-0.15358485125594876,0.07140290001383334,0.5814863844267931,0.019348278845405152,-0.006768916456218209,-0.1577730881186431,-0.38571296557734375,-0.35017307149825777,0.08515379906446247,3.078153103049484,-0.6267245839021356,-0.0005651005881288354,-0.06166239026664915,-0.010582626416624616,-0.0008239910277194798,-0.0033497111912946624,0.0009354193076505609,-0.01772248531277261,0.4763328433036804,-1.4163144689849396,1.94597036043276,-2.0994378528990687,-1.5706246534930628,2.4524924755096436,-0.0392024964094162,0.11849565804004669,-0.13816730678081512,0.017295699566602707,0.0022995788604021072,-0.021399611607193947,0.038307227194309235,0.13407529890537262,-8.829815864562988,0.7396538853645325,47.65553665161133,-0.8739861249923706,-2.035719871520996,-3.386305809020996,-0.048470377922058105,0.13945916295051575,-0.16324007511138916,28.3125,29.5625,28.6875,32.75,35.25,36.4375
0.13024297199444845,-0.4406497734998643,-0.6835838289633798,0.14056954732961885,-0.018040460175517636,0.010907798057664746,-0.15785302658253342,-0.38633097569023594,-0.3502568726949301,0.08512008388599399,3.0781136396918476,-0.6270621219163718,-0.00044345140360945394,-0.06456391797903081,-0.011583938453182183,-0.0009103758927099709,-0.0016887084324029079,-0.0026402712763366355,-0.017954889219912833,0.47590067982673645,-1.415074647670128,1.9445675055133265,-2.099196573297018,-1.5706008116351526,2.4522767066955566,-0.040092818439006805,0.12700551748275757,-0.14941509068012238,0.023974068462848663,0.0024519653525203466,-0.02205260843038559,-0.13407529890537262,0.28730422258377075,-9.21288776397705,0.7732232213020325,47.702110290527344,-1.1195372343063354,-1.9491552114486694,-3.380403995513916,-0.053094107657670975,0.15016791224479675,-0.2102545201778412,28.3125,29.5625,28.6875,32.75,35.25,36.4375
0.14023700599500444,-1.2737959946456745,-1.9849164024430959,-0.7871348682582425,-0.05863556877253745,0.0415988137413345,-0.1565715985144684,-0.38699304062901085,-0.3503788019558518,0.08511433984160707,3.0780983933325534,-0.627249997688981,-0.0003617849102859956,-0.06978535959672429,-0.01205243938340194,-0.0012008104493133537,-0.00204877457616686,-0.004024804509340547,-0.018726798997626526,0.4755031168460846,-1.4137497258237381,1.9429853598224085,-2.098884721795553,-1.5705884138690394,2.4519991874694824,-0.04449080303311348,0.1371942162513733,-0.16125790774822235,0.026692409068346024,0.0033858693204820156,-0.02567342296242714,-0.28730422258377075,0.5937620401382446,-9.749189376831055,0.7754590511322021,47.67703628540039,-1.1303988695144653,-1.881515383720398,-3.3279733657836914,-0.09572993218898773,0.15122875571250916,-0.23090550303459167,28.3125,29.5625,28.6875,32.75,35.25,36.4375
0.15024146500218194,-1.208349150862933,-0.5586262119989316,-0.6285296974502117,-0.009080395774781567,0.04342628389297674,-0.15267089803651146,-0.38773660933211973,-0.35052827929279995,0.08510575313807639,3.077950429658749,-0.6275465721403,-0.00034003726013808865,-0.07595679662907846,-0.01212956568963281,-0.0019110464097745563,-0.00377461631656185,-0.0022324886867053596,-0.021580070588964297,0.47504517436027527,-1.4123051178506394,1.9412949720965784,-2.0986820660033167,-1.5705159346209925,2.4517459869384766,-0.050260256975889206,0.14714407920837402,-0.1706141084432602,0.02371693216264248,0.0040745981968939304,-0.028584089130163193,-0.28730419278144836,0.24899697303771973,-9.634267807006836,0.7754590511322021,47.69584274291992,-1.1354708671569824,-1.7948050498962402,-3.5232796669006348,-0.025921611115336418,0.13590218126773834,-0.25245335698127747,28.3125,29.5625,28.6875,32.75,35.25,36.4375
0.160236627998529,-1.039621608168397,-0.2662767841373928,0.06456343684953275,0.0251939584893171,0.03104574518513403,-0.15087928611210089,-0.38853143557829917,-0.35065334699870276,0.08510075409538201,3.0778280673079634,-0.6278863137518084,-0.00037531779118272487,-0.08012198719737629,-0.012047055171851192,-0.0037188227553226144,-0.0014343365387689858,-0.005095341634908545,-0.023757905023112418,0.47452816367149353,-1.4108116936734696,1.9395349661456507,-2.0984655819334925,-1.5704925696002405,2.4514575004577637,-0.05358051881194115,0.15830647945404053,-0.1799975335597992,0.025559846311807632,0.0032866024412214756,-0.029720056802034378,-0.2298433631658554,-0.019153613597154617,-9.385271072387695,0.8224645853042603,47.70390319824219,-1.134308934211731,-1.9671412706375122,-3.5538527965545654,0.013455365784466267,0.12999585270881653,-0.29752734303474426,28.3125,29.5625,28.6875,32.75,35.25,36.4375
0.17024329799460247,-0.9062943015513556,-0.8045629761033666,0.24714716880190207,-0.007946109279194079,0.021009693000973936,-0.15817456830882626,-0.3893918944270282,-0.3507769583044732,0.08510994502174671,3.077713810025982,-0.6282861436344404,-0.0003687862801608395,-0.0867887432226956,-0.011824761573840352,-0.0008663129121178731,-0.0016366922519557316,-0.003865789545037619,-0.027388020698725424,0.473950058221817,-1.4092115324786683,1.9375923315631312,-2.09813990215444,-1.5704682509051722,2.4511444568634033,-0.05960635468363762,0.1649315357208252,-0.19633816182613373,0.03409378230571747,0.002889042953029275,-0.03210853040218353,-0.3064578175544739,0.3064578175544739,-9.136273384094238,0.8515569567680359,47.71017074584961,-1.0251948833465576,-1.9450316429138184,-3.320828437805176,-0.02146415412425995,0.12758846580982208,-0.36449873447418213,28.3125,29.5625,28.6875,32.75,35.25,36.4375
0.18024166600662284,-0.8293328746789046,-1.2061839830007695,0.13486566154064675,-0.03406845155684708,0.04214581731347364,-0.15892327734315198,-0.39027680999206255,-0.3509043553394348,0.08510603346008436,3.0776004119544087,-0.6287036445076456,-0.0002647768419749833,-0.09039776141812322,-0.012524043651854073,-0.00048786615573551356,-0.0008199626395517738,-0.006660395414460116,-0.026306299608883435,0.47333744168281555,-1.4075273436358948,1.9355691115008753,-2.0977665386595667,-1.5704086462603968,2.450807809829712,-0.061770156025886536,0.17294397950172424,-0.20827646553516388,0.04088208079338074,0.0034243317786604166,-0.03534957766532898,-0.2298433631658554,0.38307225704193115,-9.346963882446289,0.8403671979904175,47.723602294921875,-0.9998993873596191,-1.790832757949829,-3.396087884902954,-0.14340397715568542,0.12956084311008453,-0.35474085807800293,28.3125,29.5625,28.6875,32.75,35.25,36.4375
0.19023891699907836,-0.4565493115071041,-0.13658141990931771,0.05125732337646242,0.005024034670165015,0.008973677928261651,-0.15582161153804483,-0.3912190088312821,-0.3510187580478979,0.08505304952805495,3.077600378405403,-0.6290649208455482,-0.00011266236007917561,-0.0954689778266026,-0.011394612860751116,-0.0026574571805057763,0.00044965103614253837,-0.010994165088489551,-0.024495053192162317,0.4726871848106384,-1.4056492906859894,1.9334281126605433,-2.0973826847472132,-1.5704081694232386,2.4503841400146484,-0.06859087198972702,0.18465621769428253,-0.2176947444677353,0.04302632436156273,0.004245942924171686,-0.04397773742675781,-0.17238251864910126,0.019153613597154617,-9.27034854888916,0.7911257743835449,47.700321197509766,-0.7541810274124146,-1.9301705360412598,-3.419776439666748,-0.2484317123889923,0.12082111835479736,-0.2556472420692444,28.3125,29.5625,28.6875,32.75,35.25,36.4375
0.20024200600164477,-1.006363335954873,-0.3819203910232182,-0.24019652948876677,-0.003771356600696692,0.017539947625717985,-0.1559733216380321,-0.39222362761588725,-0.3511147317764296,0.08503103322381195,3.0775297083694952,-0.6295092530019026,2.672726177470048e-05,-0.10116978742439942,-0.011634345547386325,-0.0028686016182927765,-0.00016864700495601136,-0.00952792443111048,-0.022793660117960364,0.4719298779964447,-1.4037603747895737,1.9311898390399378,-2.0969516239561976,-1.5703719297992151,2.4499142169952393,-0.07295628637075424,0.19402199983596802,-0.22834238409996033,0.04272856563329697,0.00409617880359292,-0.050039008259773254,-0.26815059781074524,0.2298433631658554,-9.308656692504883,0.7911257743835449,47.71017074584961,-0.6458008289337158,-2.1610381603240967,-3.4379208087921143,-0.31495562195777893,0.10045735538005829,-0.12545493245124817,28.3125,29.5625,28.6875,32.75,35.25,36.4375
0.21024470300471876,-1.8953576324497887,-1.6196509720357215,-0.5741732611338148,-0.037413983301357055,0.06559156642976165,-0.1629969216459116,-0.39322143450382296,-0.3512291955779506,0.08494556243371768,3.0775586997583924,-0.6299211825446004,0.00031504269759610113,-0.1073536983795209,-0.012723845229786085,-0.0022173980579001103,-0.003877701839076501,-0.003419249029999977,-0.030695182224830912,0.4712207317352295,-1.4017041337541123,1.9288933912860315,-2.0964986286559046,-1.570348087941305,2.4494595527648926,-0.0766192302107811,0.2013465017080307,-0.2375197857618332,0.037456199526786804,0.004578917287290096,-0.04579673334956169,-0.28730419278144836,0.38307225704193115,-9.672574996948242,0.8090336918830872,47.687782287597656,-0.5915210247039795,-2.011052370071411,-3.644987106323242,-0.3194594383239746,0.10844974964857101,-0.07355767488479614,28.3125,29.5625,28.6875,32.75,35.25,36.4375
0.22023534300387837,-0.6156104082089513,-1.3068939540527196,-0.6503041440029359,-0.02596989825804157,0.012942407750185625,-0.15211332246102852,-0.39436301452321204,-0.3513917651932137,0.08493712823414268,3.0773452753020534,-0.6303972076640716,0.000283205762864462,-0.11316050916502486,-0.016760161939190495,-0.0020807214332181395,-0.006463853009416975,0.004182576877853809,-0.03460876102007579,0.4704417586326599,-1.399597854619362,1.926391903554098,-2.096190115014547,-1.5702765623675745,2.4490060806274414,-0.07377585023641586,0.21295732259750366,-0.2501857578754425,0.030572161078453064,0.00339713366702199,-0.03903011605143547,-0.07661445438861847,0.4405331015586853,-9.653421401977539,0.7978386282920837,47.70390319824219,-0.8629986047744751,-2.11575984954834,-3.645127773284912,-0.19581957161426544,0.1154174655675888,-0.09733240306377411,28.3125,29.5625,28.6875,32.75,35.25,36.4375
0.23023297599866055,0.25240628119558045,-0.9141117803332098,-0.5125624557652467,-0.022097631771171935,-0.017144128837004877,-0.1595265389612314,-0.39555059384245955,-0.35155761208675207,0.08491879532625907,3.07715347084721,-0.6309741808604963,0.00015453081477826582,-0.12083978250989201,-0.018129652936016368,0.0004922845473845455,-0.009862256229252407,0.008826393193661691,-0.04207012465702601,0.4696722626686096,-1.3973968190005799,1.9238055388080042,-2.0959135494627894,-1.5702760855304163,2.448622465133667,-0.07843781262636185,0.22147735953330994,-0.26702895760536194,0.033215008676052094,0.004303956404328346,-0.03622410073876381,0.13407529890537262,0.4213795065879822,-9.423578262329102,0.8224645853042603,47.700321197509766,-0.8754180669784546,-2.259495735168457,-3.419821262359619,-0.07450373470783234,0.11945933103561401,-0.2221737504005432,28.3125,29.5625,28.6875,32.75,35.25,36.4375
0.24023555200255942,-0.9655037671907447,-1.4572060190441904,-0.4134832235343722,-0.041080907815904524,0.029360632292942723,-0.15830234899040185,-0.3967314372029314,-0.3517810773876371,0.08492192867717949,3.07694866144435,-0.6315045645713192,0.0001338754473158412,-0.1214737490024868,-0.019601634115481156,0.001617050914537119,-0.00914000097681714,0.006057115027163811,-0.038275616123198714,0.4689769148826599,-1.3951377284577866,1.9210675398456019,-2.0955034695067347,-1.5702155272113245,2.4482855796813965,-0.07648772746324539,0.22465740144252777,-0.2756466567516327,0.041453663259744644,0.004922977648675442,-0.03806695714592934,-0.09576806426048279,0.38307225704193115,-9.461885452270508,0.8918390870094299,47.71017074584961,-1.0994725227355957,-2.019472599029541,-3.6289782524108887,-0.06538011133670807,0.11841274797916412,-0.2760106325149536,28.3125,29.5625,28.6875,32.75,35.25,36.4375
0.25024179100000765,-1.0946178339214634,-0.3198500682438852,-0.45653043515208497,0.025297125756804137,0.01772309060580491,-0.15200039249971078,-0.39797398617166097,-0.35197771559503804,0.08491929747535834,3.0767233869624757,-0.6320924338948425,9.5629721413517e-05,-0.127516600647605,-0.020436448377567237,0.0011235580872106742,-0.009400532974865553,0.005310908409695564,-0.04078270416446642,0.4681839048862457,-1.392815263276436,1.918267075215475,-2.0951081715025843,-1.570155445729391,2.447889566421509,-0.08035638183355331,0.23682628571987152,-0.28984197974205017,0.044033851474523544,0.005478209815919399,-0.0394221730530262,-0.2106897532939911,0.2298433631658554,-9.404424667358398,0.8918390870094299,47.71196365356445,-1.1433814764022827,-2.036952495574951,-3.6127591133117676,0.004741224460303783,0.10169005393981934,-0.3811721205711365,28.3125,29.5625,28.6875,32.75,35.25,36.4375
0.260237655005767,-1.8686175064941037,-1.153330235265857,-0.32257951530255835,-0.019555228557407902,0.056792842435965496,-0.15867355630685465,-0.3992519257383408,-0.35218342073219344,0.08494495548916814,3.0765063712022744,-0.6326979433446842,8.055998282703071e-05,-0.1283348718844274,-0.0187724426958777,-0.0007623304468316915,-0.0027655251773906113,-0.006900893679393507,-0.040876039566689906,0.46737897396087646,-1.3904457104257126,1.9153135458575647,-2.0945879421629847,-1.5700953642474573,2.4474916458129883,-0.0833611711859703,0.24542947113513947,-0.2995756268501282,0.059066370129585266,0.005081166047602892,-0.042330462485551834,-0.49799394607543945,0.15322890877723694,-9.634267807006836,0.8448441624641418,47.711063385009766,-1.1538748741149902,-2.1145949363708496,-3.6004586219787598,-0.11852386593818665,0.0964527279138565,-0.4479788541793823,28.3125,29.5625,28.6875,32.75,35.25,36.4375
0.2702344380086288,-0.6748429329295194,0.6659705806419567,0.12611756931916496,0.04008756006170586,0.007150083647710085,-0.15872273565471076,-0.4006214759684853,-0.3523436058472454,0.0849705185784628,3.0763149164628683,-0.6333282541793243,3.379911639206899e-05,-0.13762581287996836,-0.018038457434766394,0.003732049315894286,-0.006594695009198259,0.0007847120952601394,-0.03938279050497737,0.4664399027824402,-1.387981892829277,1.9122369925128382,-2.0940357647337855,-1.5700715223895472,2.446971893310547,-0.09231140464544296,0.24985389411449432,-0.31644633412361145,0.06293908506631851,0.0050196838565170765,-0.05276748910546303,-0.363918662071228,0.1149216815829277,-9.21288776397705,0.8515569567680359,47.68240737915039,-0.721838116645813,-1.6508557796478271,-3.4358086585998535,-0.2651715874671936,0.08588867634534836,-0.39604541659355164,28.3125,29.5625,28.6875,32.75,35.25,36.4375
0.28023633900738787,-1.9082069407098203,-1.8015506663864491,-0.364776273556907,-0.05074736036836543,0.056519209682065384,-0.1536008338923743,-0.4020115197394036,-0.3525396853951436,0.08502048881731541,3.076152554271603,-0.6337487433036864,0.00011053897538376207,-0.14157822394537098,-0.017677245337043606,0.0004269263919182974,-0.004390541431238508,-0.0024152286016040974,-0.030867421297061354,0.46551480889320374,-1.385443077688553,1.908973519002096,-2.093318601647848,-1.5699880758868616,2.44633150100708,-0.09562049806118011,0.2622191309928894,-0.32381266355514526,0.06180906668305397,0.0044766818173229694,-0.06458760797977448,-0.26815059781074524,0.3064578175544739,-9.461885452270508,0.8112748265266418,47.68330383300781,-0.725791335105896,-1.9182872772216797,-3.6071386337280273,-0.34420764446258545,0.10236239433288574,-0.20596393942832947,28.3125,29.5625,28.6875,32.75,35.25,36.4375
0.29023493100248743,-0.16202637099779382,-1.6734675346765155,-0.5320002079592088,-0.026078399201591367,-0.0029361077099682043,-0.1500877574707962,-0.4034713119545628,-0.3527371730066513,0.08500228669287785,3.076016781600508,-0.6342399036184834,2.729435979730595e-05,-0.15089511129771885,-0.022129897648009628,0.002241978765791243,-0.011368748728397231,0.012712849238952634,-0.035287164652132254,0.46459105610847473,-1.382712723021843,1.9056828657733362,-2.0928203068175257,-1.5699999968158167,2.4457333087921143,-0.09522859752178192,0.27354684472084045,-0.3390921354293823,0.04911264032125473,0.003874986432492733,-0.05976720526814461,-0.17238251864910126,0.47884035110473633,-9.442731857299805,0.8560339212417603,47.68598937988281,-0.840860903263092,-1.8501596450805664,-3.553635597229004,-0.16189947724342346,0.12774331867694855,-0.1280898153781891,28.3125,29.5625,28.6875,32.75,35.25,36.4375
0.3002371629991103,-0.36061088258762186,-0.4167835131084943,-0.3359904257524198,-0.010422671589404282,0.01902676709504484,-0.16198049400959594,-0.4050408410700969,-0.3529584208485647,0.08505143737304421,3.075676458432785,-0.6349608204327609,-0.00020794639748726655,-0.15337991350248734,-0.02376034557525126,0.0008168042659916538,-0.011568561736776636,0.008375317054437802,-0.046182347412515146,0.46358320116996765,-1.37994638205085,1.9021909872638147,-2.09232821087026,-1.56995135942568,2.445220708847046,-0.09527332335710526,0.2835327088832855,-0.3492557406425476,0.05307261273264885,0.006002218462526798,-0.048913802951574326,-0.05746084079146385,0.40222588181495667,-9.442731857299805,0.8828904628753662,47.693153381347656,-0.969163179397583,-1.8509725332260132,-3.645684242248535,-0.08086776733398438,0.1080741360783577,-0.2057589739561081,28.3125,29.5625,28.6875,32.75,35.25,36.4375
0.3102349900000263,-0.5523908586589629,-0.877133879791633,0.17283447352334433,-0.010458477329715846,-0.008253407732800035,-0.16127487284396724,-0.4065774025211392,-0.3532374420045904,0.08504550231066965,3.075417135808013,-0.6355597572830644,-0.00027609039103079194,-0.15883666998025403,-0.02529639578135764,0.0019297902517066672,-0.011661031865540898,0.010765387337262624,-0.047815079867329476,0.4626949727535248,-1.3770249050906678,1.8986251989947718,-2.091799875298971,-1.5698798338519495,2.4447412490844727,-0.09626562148332596,0.29257795214653015,-0.3640984892845154,0.05670284107327461,0.00501009076833725,-0.04826696217060089,0.0,0.26815059781074524,-9.193734169006348,0.8918390870094299,47.705692291259766,-1.146125316619873,-1.907180666923523,-3.4086031913757324,0.037456437945365906,0.12829899787902832,-0.2725030481815338,28.3125,29.5625,28.6875,32.75,35.25,36.4375
0.32024671300314367,-0.6171214177427425,0.08475006228980089,0.28739938855718794,0.008648251787267094,0.03267938214344804,-0.1619743677116252,-0.4081689742632786,-0.35347677676129374,0.08502096277805513,3.0752149385308964,-0.6362471593839802,-0.00025501157310188396,-0.1597903059105729,-0.02318112804591275,7.888004688748253e-05,-0.006366030806636797,-0.002446782300487888,-0.05160156534985425,0.46170976758003235,-1.37399514139209,1.894942585621969,-2.0911723575987757,-1.5698311964618128,2.4442126750946045,-0.10082831978797913,0.3005911707878113,-0.3738512098789215,0.0726344957947731,0.006187255959957838,-0.04904208332300186,-0.40222588181495667,0.24899697303771973,-8.983044624328613,0.9276495575904846,47.67792892456055,-1.070868968963623,-1.7949467897415161,-3.574428081512451,-0.03423578664660454,0.1352803260087967,-0.34547170996665955,28.3125,29.5625,28.6875,32.75,35.25,36.4375
0.3302363209950272,-1.3226025260639955,0.20061527883496277,0.20622712885125025,0.03295364610895916,0.027253232551539597,-0.15628185296430305,-0.4097674563996057,-0.3536978900682258,0.0849529709513441,3.0750665768198697,-0.637019415779442,8.656361570146754e-05,-0.1634773936302364,-0.02253732651529063,-0.00019857977136964185,-0.002192673263679482,-0.011038637088685991,-0.04816021712359318,0.46065250039100647,-1.3708322060159226,1.8911507765399378,-2.090365072289938,-1.5697115103351038,2.443657875061035,-0.1045408546924591,0.3111637234687805,-0.39017102122306824,0.08795348554849625,0.006265019532293081,-0.056192509829998016,-0.49799394607543945,0.019153613597154617,-9.002198219299316,0.9097416996955872,47.702110290527344,-0.9690864682197571,-2.0102717876434326,-3.2936933040618896,-0.2867806553840637,0.11124515533447266,-0.3487584590911865,28.3125,29.5625,28.6875,32.75,35.25,36.4375
0.34023365400207695,-1.527238606558159,-1.8867262881175395,-0.9718413400536665,-0.02969397911730436,0.06461089904669827,-0.14779385388341,-0.4114123441021485,-0.35388825536117685,0.0849282964104644,3.0750048501708003,-0.6377297186338552,0.0002984486080762433,-0.17150840678376403,-0.022848897528344663,-0.000922390242466044,-0.005425486992873974,-0.0012945370725656836,-0.03988522402851381,0.4595710337162018,-1.367681847219803,1.8872411886798304,-2.089447160760397,-1.569700066243307,2.4430291652679443,-0.10937464982271194,0.3209933936595917,-0.39853358268737793,0.07634659856557846,0.0047830999828875065,-0.0692974254488945,-0.3447650671005249,0.325611412525177,-9.672574996948242,0.8940802216529846,47.679718017578125,-0.8339670896530151,-2.0036511421203613,-3.7674856185913086,-0.2897546589374542,0.12370002269744873,-0.16063150763511658,28.3125,29.5625,28.6875,32.75,35.25,36.4375
0.3502335280063562,-0.9817226579600371,-2.1823032546209853,-1.1659917862548257,-0.07639458708470212,0.07019462507611215,-0.16315216922988673,-0.4131923039869777,-0.35410891877707396,0.08487903984681519,3.0748132921185114,-0.6384212377319199,0.00031474654148472416,-0.17695812992553758,-0.02456113863034616,-0.002743891386954823,-0.008588958713207242,0.004285205157082459,-0.0458867157807102,0.4584187865257263,-1.3643272531083603,1.8831880728351038,-2.088768621484274,-1.5696633497821253,2.4423348903656006,-0.1105756014585495,0.33150577545166016,-0.4057874083518982,0.06668736785650253,0.0051116859540343285,-0.06449441611766815,-0.2106897532939911,0.5937620401382446,-10.113107681274414,0.9142186641693115,47.66449737548828,-0.8843307495117188,-2.357053518295288,-3.937694549560547,-0.10900422185659409,0.15153184533119202,-0.0969800353050232,28.3125,29.5625,28.6875,32.75,35.25,36.4375
0.3602375549962744,0.22501737751540934,-0.16215642640325129,-0.9601849210909374,0.01951935323350788,-0.023924438153521993,-0.1495874088948751,-0.41506925344713724,-0.3543900193235393,0.08493968253553438,3.074406932045571,-0.6392255252407218,-7.595756391514867e-05,-0.1836034929824895,-0.02632311589145545,-0.0003950217449212467,-0.012097285485751978,0.006428071260813339,-0.05926322512629496,0.45730164647102356,-1.3610208344510575,1.8789532820331019,-2.088179727593893,-1.569639031087057,2.4417741298675537,-0.11370611935853958,0.3402346670627594,-0.42394351959228516,0.07263202220201492,0.007307993248105049,-0.05424271896481514,-0.019153613597154617,0.17238251864910126,-9.672574996948242,0.8918390870094299,47.6895751953125,-0.9121339321136475,-2.235532760620117,-3.603818416595459,0.0007404598291032016,0.16453759372234344,-0.15664783120155334,28.3125,29.5625,28.6875,32.75,35.25,36.4375
0.37024303899670485,0.3042650183920635,-0.33142158202691646,-0.35536098731944815,-0.00037979955648554265,-0.009318623661788896,-0.1604360925491261,-0.4169177091631987,-0.35464797588304553,0.08498091402565797,3.07409118833209,-0.6401587943332903,-0.00011486013607298084,-0.18448802702672823,-0.02511254869147392,0.0010724996320687812,-0.005407067615046029,-0.005034990910021872,-0.0643430835616122,0.45614954829216003,-1.3576500427773972,1.8746088186847132,-2.0872980556883753,-1.5695670286761683,2.44124698638916,-0.115243099629879,0.3452984690666199,-0.43988052010536194,0.09675601869821548,0.006386522203683853,-0.05069618299603462,0.038307227194309235,0.19153612852096558,-9.59596061706543,0.9276495575904846,47.67882537841797,-0.7950308918952942,-2.056584119796753,-3.632556438446045,-0.21501685678958893,0.18656349182128906,-0.27859774231910706,28.3125,29.5625,28.6875,32.75,35.25,36.4375
0.3802386830066098,-1.6619121185118935,-1.4853260073729184,-0.31197401522194546,-0.034677525720343695,0.0489844536947598,-0.1526383070624684,-0.4187499369061286,-0.3549052517230022,0.08501453345012683,3.0738346941452654,-0.6411009321923056,-2.6401361541025676e-06,-0.18817474381515642,-0.028242703049553966,0.00031770838415613414,-0.007377826611042102,-0.0033225243096881955,-0.06192007695969394,0.45501038432121277,-1.354240671997406,1.8701913992511194,-2.086269041100973,-1.5694831053363245,2.440730571746826,-0.11285983771085739,0.3555625081062317,-0.45134809613227844,0.09556427597999573,0.00737218651920557,-0.05073341354727745,-0.19153612852096558,0.363918662071228,-9.385271072387695,0.9455521702766418,47.71733474731445,-1.036452054977417,-2.1252455711364746,-3.743476390838623,-0.2999633550643921,0.1903013288974762,-0.3913698196411133,28.3125,29.5625,28.6875,32.75,35.25,36.4375
0.39023504599754233,-0.8177569347641894,-1.266013585153303,-0.3699463046598841,-0.025213927109856392,0.02957381430010575,-0.14975102893042092,-0.4207167124602436,-0.35522690781071825,0.08508180018629097,3.0734130575422345,-0.641931230043921,-0.00023023192793371512,-0.19833117820815216,-0.02957397933406284,0.0022024115021105997,-0.014719586580444447,0.013218079924377107,-0.05947864745898355,0.4538688659667969,-1.3507021528533478,1.8655808607684534,-2.0854598484435023,-1.5693872610675257,2.4401638507843018,-0.11785773187875748,0.3630896806716919,-0.46261584758758545,0.08124710619449615,0.006682388950139284,-0.058167845010757446,-0.24899697303771973,0.363918662071228,-9.385271072387695,0.999259889125824,47.6895751953125,-0.9608399868011475,-1.736872673034668,-3.719822406768799,-0.07202456146478653,0.21683213114738464,-0.44629454612731934,28.3125,29.5625,28.6875,32.75,35.25,36.4375
0.40023485499841627,-1.6830470497442345,-0.930867323777902,0.4736967499115884,-0.004994308500057927,0.045504327869878125,-0.15248258285618804,-0.4227249784871439,-0.3555387206662399,0.08509440866498716,3.0730917710681163,-0.6426610849450212,-0.0003911568570220022,-0.2038450501931261,-0.03133126923756517,0.0015880576383273041,-0.014828405393096005,0.009978024830205762,-0.045291028050273366,0.4527042508125305,-1.3469927918962021,1.8608740011798304,-2.0846435032286585,-1.5693267027484339,2.4394984245300293,-0.11949698626995087,0.37694859504699707,-0.48091694712638855,0.08858518302440643,0.008228407241404057,-0.0739886462688446,-0.325611412525177,0.26815059781074524,-9.059659004211426,0.9679316878318787,47.687782287597656,-0.8397054672241211,-1.9048666954040527,-3.535052537918091,0.02519317716360092,0.1927708387374878,-0.263308048248291,28.3125,29.5625,28.6875,32.75,35.25,36.4375
0.41023699899960775,-0.7026070248460881,0.18662872221531537,0.7738882574015911,0.026243906850998595,-0.00915715306771511,-0.14298719945915672,-0.42477005704230936,-0.3558413947952272,0.08509346894927078,3.072876702788157,-0.6433246032865833,-0.00043281640228526536,-0.20172535044073206,-0.028699914150450673,-0.0005854673958192818,-0.003860830021101546,-0.009793221325446235,-0.04608695571491958,0.45151615142822266,-1.3431533438018342,1.855990235005514,-2.0836645565428675,-1.5692909399615687,2.4387543201446533,-0.12067445367574692,0.3842436671257019,-0.49220818281173706,0.11517562717199326,0.007047594059258699,-0.07436881959438324,-0.3447650372982025,0.2298433631658554,-8.619126319885254,0.9947882294654846,47.681514739990234,-1.0942461490631104,-1.6738808155059814,-3.669935703277588,-0.16275501251220703,0.23570452630519867,-0.11171595752239227,28.3125,29.5625,28.6875,32.75,35.25,36.4375
0.42028064900659956,-1.0084025309675284,-1.9678794227734149,-0.3061756347217645,-0.03068329871573391,0.040943955076190565,-0.14710324920211015,-0.4268206844198776,-0.35610981617446774,0.08500414583097601,3.07277647109659,-0.6442542465099262,-4.2099410111627185e-05,-0.21083933741096295,-0.02949987734067792,-0.0011418721480440435,-0.00845203979504772,-0.00030478045140561,-0.06651689695228474,0.4502545893192291,-1.339085803633072,1.8509610334979456,-2.0824481449522914,-1.56921893755068,2.4380874633789062,-0.12582643330097198,0.3960198163986206,-0.5044552087783813,0.10509765893220901,0.0069534918293356895,-0.05909007787704468,-0.15322890877723694,0.24899697303771973,-9.251194953918457,0.9567419290542603,47.681514739990234,-1.0324002504348755,-2.0305275917053223,-3.698366165161133,-0.20841118693351746,0.2585664689540863,-0.2787560224533081,28.3125,29.5625,28.6875,32.75,35.25,36.4375
0.4302342419978231,-1.084056487501742,-1.8558074116546028,-1.1802835066848332,-0.04535936401426777,0.009407105331834453,-0.15051373207588883,-0.42895527790250415,-0.35640748224545543,0.08496080183570048,3.072513807191809,-0.6452938445248371,7.51132441861565e-05,-0.2151085650448011,-0.03139860853787395,-0.004539666780080155,-0.00968569134625121,-9.025226067877718e-05,-0.06672991864126565,0.44898247718811035,-1.3350046289018174,1.8458250204669397,-2.0813595257201136,-1.569146458302633,2.4375,-0.12574823200702667,0.4095114469528198,-0.5135992169380188,0.1000317707657814,0.007940883748233318,-0.058797962963581085,-0.05746084079146385,0.6129156351089478,-9.84495735168457,0.999259889125824,47.69136428833008,-0.8936095237731934,-2.3431856632232666,-4.008460998535156,-0.05074232816696167,0.27889755368232727,-0.3204183280467987,28.3125,29.5625,28.6875,32.75,35.25,36.4375
0.44023515400476754,-0.7520873648514632,-0.9205731248306777,-1.4072411728820775,-0.008102838155239846,0.005056539070590187,-0.15649031901539506,-0.43113216126611276,-0.35674606118938895,0.08491490065716437,3.072226491194695,-0.646248609075665,0.0002011922206827192,-0.21701295336932652,-0.030196885494389484,-0.0028148878032833685,-0.006808220462665726,-0.009729953056252525,-0.06479848961059409,0.4477337598800659,-1.3308072102120896,1.8405326048480433,-2.0802513561644496,-1.569038216267721,2.4368863105773926,-0.1292240470647812,0.41396698355674744,-0.5293223857879639,0.12125612050294876,0.009545848704874516,-0.064204141497612,-0.07661445438861847,0.19153612852096558,-9.90241813659668,0.9365981817245483,47.657325744628906,-0.875038743019104,-2.048567295074463,-3.988435745239258,-0.2329304814338684,0.2814975380897522,-0.34114545583724976,28.3125,29.5625,28.6875,32.75,35.25,36.4375
0.45023802999639884,-1.1096477568911445,-0.18406354551044973,-0.8924719354649642,-0.01091780476505138,0.04251084294092118,-0.15404435679214662,-0.43334885326324946,-0.3570510117809095,0.08489527042206577,3.071942415231408,-0.647221425550498,0.0003724386700304447,-0.22719230730094625,-0.03226286907489131,-0.00010955415998912079,-0.0136275009717146,0.003743714796097799,-0.058375780199745375,0.44640055298805237,-1.3266075116446991,1.8351319471942347,-2.0790096722044886,-1.5689180533038538,2.4361989498138428,-0.1330942064523697,0.42312169075012207,-0.5467331409454346,0.11445529013872147,0.009826253168284893,-0.07449492067098618,-0.28730419278144836,-0.07661445438861847,-9.787496566772461,0.9612188935279846,47.681514739990234,-0.6947795152664185,-2.2571816444396973,-3.7541842460632324,-0.20556165277957916,0.28146061301231384,-0.1991662234067917,28.3125,29.5625,28.6875,32.75,35.25,36.4375
0.460237984007108,-1.7950734898659884,-1.0658895990092245,-0.8385989842681951,-0.02179526082557295,0.04087696904850646,-0.14782335739716573,-0.4356500663047857,-0.3573667683923886,0.08492989689540162,3.0715967197139684,-0.6480868946294278,0.0001266128968835156,-0.23329428009977124,-0.03458457433230378,0.001301817105508823,-0.01671757487780865,0.012632086312154255,-0.057074965350691245,0.4450812339782715,-1.3224325639060517,1.829660717641012,-2.077932973901266,-1.5688946882831019,2.435467004776001,-0.13250143826007843,0.43049857020378113,-0.5597807168960571,0.11079490184783936,0.008779837749898434,-0.07520000636577606,-0.6320692300796509,0.3064578175544739,-9.787496566772461,1.0194035768508911,47.67882537841797,-1.0286272764205933,-2.0701990127563477,-3.8703129291534424,-0.030780823901295662,0.29068320989608765,-0.072081558406353,28.3125,29.5625,28.6875,32.75,35.25,36.4375
0.47023850699770264,-0.7573606352939576,-1.7217735902553968,-0.6956919355252552,-0.022465328317521044,0.0006705418676562352,-0.1490199002437897,-0.43796247785543757,-0.35773233326497794,0.08496479081811861,3.071171234678168,-0.6490398251698308,3.8617995796650975e-05,-0.23331312491165784,-0.03515126518767714,0.002835438707443917,-0.010621415190866311,0.0003219264424203694,-0.06825262813928204,0.4437858462333679,-1.3181623977473755,1.8240316549884241,-2.076750417748922,-1.5687626043902796,2.434823989868164,-0.13045714795589447,0.43681496381759644,-0.5786333680152893,0.13706277310848236,0.00859629176557064,-0.061973877251148224,-0.3064578175544739,0.8236054182052612,-9.500192642211914,1.0910192728042603,47.66986846923828,-1.1728274822235107,-1.784994125366211,-3.816000461578369,-0.17696291208267212,0.3062524199485779,-0.1689472496509552,28.3125,29.5625,28.6875,32.75,35.25,36.4375
0.4802372900012415,-1.208298026137864,-2.0092512256018558,0.7536082344910743,-0.07855691780827288,0.04589368762464508,-0.14962856110714431,-0.44035959762430954,-0.3580706794173283,0.08502941473763836,3.0708312028311617,-0.650142214600321,1.21123263379743e-06,-0.24476138736736097,-0.03783730590105389,0.005546245204569442,-0.019527557910604964,0.01595735853559262,-0.07531203495706046,0.44242870807647705,-1.3137587171844025,1.8180916945086878,-2.075294633904928,-1.5687020460711878,2.434201240539551,-0.13463972508907318,0.4474744200706482,-0.597483217716217,0.12731628119945526,0.009892089292407036,-0.05909425765275955,0.4213795065879822,0.4596867263317108,-8.829815864562988,0.9835984706878662,47.658226013183594,-0.9905035495758057,-1.7875829935073853,-3.6375818252563477,-0.1782294511795044,0.3221660256385803,-0.2662911117076874,28.3125,29.5625,28.6875,32.75,35.25,36.4375
0.4902415530086728,-0.7184802409361875,-0.8640172548315093,0.5565457376574895,0.0026630046112212564,0.0036032444785145247,-0.14530136451345513,-0.4428598388826033,-0.35848226808614453,0.08506935084972977,3.0703217173211566,-0.65124605048958,-0.00024976781783535453,-0.24920901991634647,-0.038121174844126894,0.0028319784063348826,-0.019500076354652448,0.01371717084991227,-0.0800682078279123,0.44109591841697693,-1.3091633182815094,1.812009636555807,-2.074096818963522,-1.5685933271991175,2.433626413345337,-0.1370202600955963,0.4597136974334717,-0.6086567640304565,0.12830057740211487,0.010843236930668354,-0.056715380400419235,-0.28730419278144836,0.3447650372982025,-8.59997272491455,0.8873621225357056,47.68240737915039,-0.6921343803405762,-2.4081122875213623,-2.9464850425720215,0.020751159638166428,0.31365376710891724,-0.4190385043621063,28.3125,29.5625,28.6875,32.75,35.25,36.4375
0.5002412540052319,1.1905149537853588,3.854829649534777,1.1516393224422685,0.09655473921871216,-0.00245894001682459,-0.16745316519371947,-0.4453235156693192,-0.35884113599165574,0.08504781174824419,3.069951743666563,-0.6524058285291741,-0.0002604596439867295,-0.2361019454072884,-0.03471980853256695,-0.000626634041761156,-0.00993741022813729,-0.006490605182486206,-0.06437627948067937,0.439730167388916,-1.3045150500587006,1.8059504667865198,-2.0727626285948695,-1.5685094038592737,2.433034896850586,-0.13136202096939087,0.4486120343208313,-0.592860221862793,0.14600670337677002,0.010921585373580456,-0.06675773859024048,0.24899697303771973,-1.015141487121582,-8.676587104797363,0.8470799922943115,47.681514739990234,-0.7604151964187622,-2.747706890106201,-3.015900135040283,-0.24109677970409393,0.2929427921772003,-0.3693719506263733,28.3125,29.5625,28.6875,32.75,35.25,36.4375
0.5102652390050935,2.1694693512832277,1.546727759158914,-0.7880652191258795,0.07843729575962533,-0.10822669503214885,-0.1563821020705328,-0.4476554619195077,-0.3591405978329125,0.08495500505332457,3.0697661603761306,-0.6533773305974342,-1.7397642098971872e-05,-0.23465215936037562,-0.034337268794344136,-0.0006884920943562001,-0.011483934678002811,0.009234937840904659,-0.051360397758161924,0.43838781118392944,-1.2999738913825531,1.8001535574542444,-2.0713688335814417,-1.568439785634176,2.4323246479034424,-0.12699715793132782,0.4389834702014923,-0.5778934955596924,0.1258353441953659,0.005635756067931652,-0.07542330771684647,0.9576807022094727,-0.9385270476341248,-9.327810287475586,0.8940802216529846,47.68867492675781,-0.7688924074172974,-2.8347363471984863,-3.246755599975586,0.04902571439743042,0.3329022228717804,-0.14788687229156494,28.3125,29.5625,28.6875,32.75,35.25,36.4375
0.5202397670072969,1.267014064660755,-1.5898804713441437,-2.2503044672469734,-0.05975716304506035,-0.03423738985821094,-0.15417430987258257,-0.44985114769314044,-0.3594062637929747,0.08488139081116208,3.0697043890131885,-0.6542147738254118,0.00030204052875487474,-0.22129155147104618,-0.02939938079203848,-0.006913465418703599,-0.000481078391417732,-0.017444781064296262,-0.06140873392419388,0.4371287524700165,-1.295674906378128,1.794572655354635,-2.069853445092672,-1.5684149901019495,2.4315974712371826,-0.12461192905902863,0.43162277340888977,-0.5605188608169556,0.14462535083293915,0.007023556623607874,-0.06299860775470734,0.689530074596405,0.5171475410461426,-10.41956615447998,0.8806493282318115,47.69584274291992,-0.7076274156570435,-3.042952537536621,-3.7184886932373047,-0.1847357451915741,0.3746069669723511,-0.11663953959941864,28.3125,29.5625,28.6875,32.75,35.25,36.4375
0.530239554005675,-0.9055083312490908,-2.874778683683112,-2.186307729278063,-0.10330991382242954,0.013434364860802156,-0.14310321218449124,-0.4520364306385969,-0.35973054513090885,0.08487845965658769,3.0694559740056704,-0.6552036240688235,0.000560764238050529,-0.22039224801267696,-0.03105861114423889,-0.005194043871332152,-0.00798152778760371,-0.008723105950816407,-0.07008214704133148,0.4359298050403595,-1.2914714378169556,1.788929287587301,-2.0683022938170375,-1.568293873463766,2.4310495853424072,-0.12199603021144867,0.4243360459804535,-0.5545679330825806,0.13486486673355103,0.0100863603875041,-0.05171706900000572,0.4405331015586853,0.3447650372982025,-10.72602367401123,0.9231725931167603,47.681514739990234,-0.6577155590057373,-3.2614223957061768,-3.687434434890747,-0.3199436068534851,0.4017956852912903,-0.24403154850006104,28.3125,29.5625,28.6875,32.75,35.25,36.4375
0.5402404990018113,1.1199063611837528,2.262294961453309,-1.155635936861108,0.08710952384232154,-0.0563381761782432,-0.15504323019438862,-0.4543050321198582,-0.3600880644591753,0.0849114798938041,3.0688791007666807,-0.6562309612037887,0.00016804492107401044,-0.22237767360738045,-0.033506168332577566,-2.685054063482781e-05,-0.020189113513184448,0.014638926097294457,-0.06813103110868679,0.43473097681999207,-1.2873895031264802,1.7834761778460901,-2.0673395595946253,-1.5681737104998987,2.430570125579834,-0.11929401755332947,0.41148602962493896,-0.546582818031311,0.11341256648302078,0.011299374513328075,-0.05097112059593201,0.325611412525177,-0.3447650372982025,-9.806650161743164,0.9097416996955872,47.693153381347656,-0.5766060948371887,-2.899658203125,-3.453878164291382,0.050807178020477295,0.3268183469772339,-0.322171151638031,28.3125,29.5625,28.6875,32.75,35.25,36.4375
0.5502352689945837,0.23586516882206388,2.1327014271517974,0.6643822917471612,0.06985933789865671,-0.00424592479067204,-0.15267780004802756,-0.45651251517781993,-0.3604499249733208,0.0849797608684893,3.068402311498249,-0.6570820769545767,-0.00010059970520024053,-0.21047064164908313,-0.03201823505402876,0.001393408307229192,-0.008984370370381179,-0.004168924963100139,-0.05732648851001407,0.4335940182209015,-1.2833918196013947,1.7779868284808558,-2.066156049767965,-1.5680540243731897,2.4300293922424316,-0.1107981950044632,0.39939892292022705,-0.5425733923912048,0.14330020546913147,0.009158603847026825,-0.05328148603439331,0.38307225704193115,-0.5937620401382446,-8.96389102935791,0.8448441624641418,47.69673538208008,-0.9691389799118042,-2.786926746368408,-3.096418619155884,-0.18373189866542816,0.3033505976200104,-0.313184916973114,28.3125,29.5625,28.6875,32.75,35.25,36.4375
0.5602536590013187,0.47321700473965517,0.337689703827559,1.3259339605618023,0.017038749083437485,-0.018718687119318185,-0.14591108900736874,-0.45861516365591803,-0.36074366367858296,0.08499911939490873,3.068154540477979,-0.6579074951030357,-0.0001368342516828881,-0.21200292130503035,-0.033539366754412166,0.0052727701007480015,-0.01629682368319804,0.016455623143071234,-0.04854933068983004,0.4324791431427002,-1.2794642311385651,1.7726433912860315,-2.0647980175414027,-1.568019215260641,2.4294638633728027,-0.10766611248254776,0.3888886570930481,-0.5350114703178406,0.12449532747268677,0.00714096799492836,-0.05893648788332939,0.38307228684425354,-0.2298433631658554,-8.638279914855957,0.8694595694541931,47.67524337768555,-0.8551175594329834,-2.592210292816162,-2.889040470123291,9.531015530228615e-05,0.3417356014251709,-0.21346059441566467,28.3125,29.5625,28.6875,32.75,35.25,36.4375
0.5702374090033118,1.4594568723800811,0.22255189255485835,0.2559345925804161,0.029176689757777013,-0.09710510834510863,-0.1414413184301111,-0.46071477494131446,-0.36106230994199306,0.08499406826190303,3.0678203108396715,-0.6586584465596929,-0.00025213120702640557,-0.20557923172470008,-0.03058290547386288,0.004099989340596327,-0.013160898474047358,0.01061366976958612,-0.04572283778509248,0.4313878118991852,-1.275537834768631,1.7673843542682093,-2.0636235676207484,-1.567934815083639,2.428887128829956,-0.10670144855976105,0.37898844480514526,-0.5218027234077454,0.1278257668018341,0.006809543818235397,-0.06080466881394386,0.5937620401382446,0.19153612852096558,-8.810662269592285,0.9007930159568787,47.68061828613281,-0.7764111161231995,-2.5759143829345703,-3.0662996768951416,0.06057857722043991,0.3586124777793884,-0.06910181045532227,28.3125,29.5625,28.6875,32.75,35.25,36.4375
0.5802465180022409,1.833045094302532,0.568542594193545,-0.4149106357136769,0.03503422363114425,-0.06495108943648786,-0.1442531724117982,-0.46266876058090145,-0.3613119121284694,0.08490226669207576,3.0677650671709285,-0.6594985613963946,0.00014764301817647864,-0.1952344347862512,-0.025943600086531036,-0.002327754493655699,-0.003703511127310132,-0.016069661687789356,-0.05718297465187294,0.4303199052810669,-1.271620438700058,1.7622440497027796,-2.0621210537352503,-1.5678861776935022,2.428351402282715,-0.10713283717632294,0.37678366899490356,-0.5100368857383728,0.1464289128780365,0.00939118955284357,-0.04977923631668091,0.9385270476341248,-0.09576806426048279,-9.21288776397705,0.8224645853042603,47.6949462890625,-0.527721643447876,-3.0808143615722656,-3.135878562927246,-0.29012781381607056,0.31891006231307983,-0.06715318560600281,28.3125,29.5625,28.6875,32.75,35.25,36.4375
0.5902015640022,-0.372987477522431,-0.42300451955832696,-1.903780954559465,-0.02381599263729566,0.04132766014421273,-0.15403615082297936,-0.464600927325989,-0.3616022547593905,0.08487464676853748,3.0674785306300048,-0.6604205116826871,0.0003621876111125385,-0.1949536937824015,-0.028381452294051635,-0.002176756049093445,-0.01330696033253205,0.002305363715347141,-0.0626866022398414,0.4292892813682556,-1.26788483679805,1.7572134176837366,-2.0607663593687953,-1.5677416960345667,2.4279351234436035,-0.10292509943246841,0.3686729371547699,-0.4949469268321991,0.11872782558202744,0.010405181907117367,-0.04007832705974579,0.3256114423274994,-0.2106897532939911,-10.20887565612793,0.8560339212417603,47.70748519897461,-0.5018694996833801,-3.133690595626831,-3.533364772796631,-0.050032101571559906,0.28725603222846985,-0.16235826909542084,28.3125,29.5625,28.6875,32.75,35.25,36.4375
0.6001544830069179,0.6073565737723474,0.14710034284861592,-2.051880315992258,0.03326089326436028,-0.02636696925418195,-0.13531128366586492,-0.46652234195502046,-0.3618673583963197,0.0848608205261305,3.06712492922847,-0.6614385836753124,0.0003523761996319632,-0.18370720531333015,-0.02499683796416581,-0.0047848767823007905,-0.002779932250474524,-0.01527623809408774,-0.06046756791786658,0.4282589554786682,-1.2642809611609955,1.7523487249957483,-2.059587141076559,-1.5676468054400843,2.4275882244110107,-0.0983114168047905,0.3589310944080353,-0.48145487904548645,0.13535915315151215,0.008205697871744633,-0.037688612937927246,0.05746084079146385,-0.13407529890537262,-10.362105369567871,0.8090336918830872,47.68061828613281,-0.46899130940437317,-3.275144577026367,-3.6547622680664062,-0.19812536239624023,0.2838004529476166,-0.24521636962890625,28.3125,29.5625,28.6875,32.75,35.25,36.4375
0.6101449660054641,0.07629815730756964,0.44681616358257836,-1.3394708217748752,0.046428039356495934,-0.004841459815895999,-0.14362517419639453,-0.46842245644775865,-0.36214911041281,0.0849439550905397,3.0667620990566147,-0.6622424532658242,0.00016942783769055675,-0.18381940923634232,-0.02725322557437523,-0.0014395802517425116,-0.010751153507018975,-3.692949341086227e-05,-0.05937618748223791,0.42728838324546814,-1.2608571511558075,1.747472111378805,-2.058336397210592,-1.5675743261920374,2.42716908454895,-0.09470931440591812,0.3495398163795471,-0.4745759069919586,0.12069868296384811,0.009114179760217667,-0.03518281504511833,0.4596867263317108,-0.3064578175544739,-10.036493301391602,0.8560339212417603,47.70838165283203,-0.5945146083831787,-3.2219324111938477,-3.385709762573242,-0.20295751094818115,0.22874227166175842,-0.3176616132259369,28.3125,29.5625,28.6875,32.75,35.25,36.4375
0.6201369100017473,1.0994013023951297,-0.20356132143581857,-0.5652411130318287,0.007850701484195734,-0.042231384021483624,-0.14718665883611054,-0.47030211360653956,-0.36244359712861873,0.08503470380019013,3.066315770563268,-0.6631419813133494,-0.00024117260981605245,-0.18227043067169488,-0.027865783968091976,0.00427308235078068,-0.014517977142789783,0.0161635455613603,-0.05594400941217374,0.426378071308136,-1.257531539802887,1.7427404562579554,-2.0572854481139125,-1.5675395170794886,2.4268813133239746,-0.09037595987319946,0.33355236053466797,-0.46558183431625366,0.1114036813378334,0.005855162162333727,-0.03429053723812103,0.4596867263317108,0.24899697303771973,-9.327810287475586,0.8806493282318115,47.718231201171875,-0.6599627137184143,-2.7318594455718994,-3.2097272872924805,0.023873090744018555,0.25863146781921387,-0.40383434295654297,28.3125,29.5625,28.6875,32.75,35.25,36.4375
0.6301407840073807,1.5846977677584573,0.714613414852723,0.7096736647673073,0.05088999413167824,-0.09765955416331296,-0.13959565174739103,-0.4721120061722247,-0.3627188085235247,0.08510816725410786,3.065913604943218,-0.6638576768574584,-0.0005141461927689499,-0.17184702370989818,-0.02527026433168318,0.0029601042737084867,-0.007172013105037369,-0.0025327375715169793,-0.0488262040347837,0.42546746134757996,-1.2542986434749146,1.7381537596331995,-2.056213518182272,-1.5674551169024866,2.4264726638793945,-0.08703704178333282,0.3241729438304901,-0.4558238387107849,0.13110481202602386,0.0069896806962788105,-0.038068078458309174,0.9193734526634216,-0.019153613597154617,-8.734047889709473,0.8515569567680359,47.69136428833008,-0.7960209846496582,-2.833449125289917,-3.154890537261963,-0.1258208304643631,0.2435886710882187,-0.4107704162597656,28.3125,29.5625,28.6875,32.75,35.25,36.4375
0.6401419519970659,1.1793094026260604,0.4677746961958704,1.1581132244787977,0.05012561922732721,-0.048187025951661036,-0.14444555170620027,-0.47379244531094344,-0.36295361840960616,0.08510632375250943,3.06577395647272,-0.6644565614555591,-0.00036377455245798374,-0.17071515743510873,-0.02499151860429069,0.004390262461247979,-0.012328190159890583,0.0072868320266872046,-0.040756239505846455,0.4246036410331726,-1.2510676842978974,1.7336724440204065,-2.0548898182311,-1.567395035420553,2.426002025604248,-0.08653044700622559,0.3146360516548157,-0.4446764886379242,0.11845635622739792,0.007657121866941452,-0.04563850909471512,0.7852981090545654,-0.17238251864910126,-8.236053466796875,0.8090336918830872,47.70748519897461,-0.5303011536598206,-2.566432476043701,-2.8604135513305664,-0.11938609182834625,0.1959277093410492,-0.29188165068626404,28.3125,29.5625,28.6875,32.75,35.25,36.4375
0.650140059995465,-0.05040295944689259,-0.18244275784540304,0.07170133258398668,0.021007563784920177,-0.019904449342301365,-0.14228934616214434,-0.47541330957554584,-0.36320552665474076,0.08506726493384223,3.0656250051817455,-0.6649781615064894,-0.00014125457098360485,-0.1654698579624089,-0.0247963695336043,0.0010303524745002553,-0.010614668212796042,0.004822522378121065,-0.03481236981362865,0.42378896474838257,-1.247869388466217,1.729326073323385,-2.0536467037596644,-1.5672872702227991,2.4255335330963135,-0.08239381015300751,0.31085723638534546,-0.431719034910202,0.11224927753210068,0.00713271414861083,-0.04745279625058174,0.28730422258377075,0.24899697303771973,-9.155426979064941,0.7799360156059265,47.693153381347656,-0.6691911220550537,-3.0271568298339844,-3.0071754455566406,-0.02290532737970352,0.1822977364063263,-0.14419490098953247,28.3125,29.5625,28.6875,32.75,35.25,36.4375
0.6601400060026208,0.6426652417037072,0.9216480480748002,-0.16931030573224787,0.04343068631587871,-0.05889031635343059,-0.14239525169435144,-0.4769949590082433,-0.36344066290934524,0.08496212767628189,3.0655268046526953,-0.6655749063062827,0.0001278573565484185,-0.1562096994708641,-0.021746735504122035,-0.0017748318686023326,-0.0023458614697688092,-0.01214475733035435,-0.03980376693873465,0.4229981601238251,-1.244648591881134,1.7251089254962366,-2.0524922809996546,-1.5672147909747522,2.425128698348999,-0.07991012930870056,0.30402690172195435,-0.42069917917251587,0.126909539103508,0.006596595514565706,-0.03998122364282608,0.5554547905921936,-0.28730422258377075,-9.500192642211914,0.7687462568283081,47.711063385009766,-0.596522331237793,-3.1336183547973633,-2.98688006401062,-0.28205934166908264,0.16959667205810547,-0.09432627260684967,28.3125,29.5625,28.6875,32.75,35.25,36.4375
0.6701410179957747,-0.48794067927727525,-0.3163391605343173,-0.9052939263545925,0.005216388955776556,-0.005325115818763101,-0.1457779885696826,-0.47851740800429277,-0.3636183982168788,0.08488783722832677,3.0654545369518384,-0.6663325229906205,0.00042598351899078986,-0.15489922465460582,-0.021209828418932448,-0.005256278973601073,-0.005476993953918488,-0.004682643758970047,-0.04731762424957046,0.422182559967041,-1.2416062218001862,1.7210257689105433,-2.0512429676451625,-1.567179028187887,2.424795627593994,-0.07929681241512299,0.3008508086204529,-0.4049304127693176,0.1062043160200119,0.006343693006783724,-0.031863756477832794,0.49799394607543945,-0.363918662071228,-9.864110946655273,0.8067978620529175,47.700321197509766,-0.469122976064682,-3.6280288696289062,-3.2877116203308105,-0.120186448097229,0.14412358403205872,-0.13331222534179688,28.3125,29.5625,28.6875,32.75,35.25,36.4375
0.6801795219944324,0.05597010978590611,-0.3918130966763844,-1.7259633602912317,0.0094395983895685,-0.039567776303958434,-0.14028603476298082,-0.480044965324385,-0.3638313753271944,0.08484511893715227,3.0652198551412058,-0.6671466684362571,0.0004461240181532621,-0.15144425438000234,-0.021613266073574056,-0.000814394808537782,-0.009196177369065268,0.007384391631162055,-0.04876644721360705,0.4214159846305847,-1.2386635702899476,1.7170475164996546,-2.0502287350096644,-1.5671313444720667,2.4245691299438477,-0.07507024705410004,0.28438183665275574,-0.3920285105705261,0.09722959250211716,0.004793414380401373,-0.026197442784905434,0.325611412525177,0.038307227194309235,-10.189722061157227,0.8381313681602478,47.71017074584961,-0.5752338171005249,-3.433800458908081,-3.2381062507629395,-0.039580248296260834,0.16401119530200958,-0.2073555588722229,28.3125,29.5625,28.6875,32.75,35.25,36.4375
0.690135028999066,0.9514079139116633,0.2947308161195254,-1.1705328068981637,0.0416953554406155,-0.06054758729018284,-0.14314354601878793,-0.4815419967618111,-0.36402390264063533,0.08483667841806489,3.0650064665858845,-0.6678299717251848,0.00035644371511540354,-0.14224588779045522,-0.018807747232602826,-0.002271515758299422,-0.0021332950314350203,-0.010053557150929253,-0.04727991639044595,0.42066100239753723,-1.2358625692180176,1.7131770292865198,-2.0492407284178675,-1.5671194235431116,2.424269914627075,-0.07301550358533859,0.2762884497642517,-0.3827897906303406,0.11488577723503113,0.00553889200091362,-0.025628264993429184,0.7086837291717529,-0.2106897532939911,-9.883264541625977,0.7777001857757568,47.67882537841797,-0.4831271767616272,-3.534879446029663,-3.312617301940918,-0.2131630927324295,0.15210160613059998,-0.23332175612449646,28.3125,29.5625,28.6875,32.75,35.25,36.4375
0.7001465020002797,0.8877954963099471,0.4254674601607234,-0.41484894141578366,0.0456660589748247,-0.072652894583979,-0.14399580150216357,-0.48295004463232094,-0.3642475600904678,0.08488466704331793,3.064780419119447,-0.6684131029943693,0.00035193042200567956,-0.14188944935496917,-0.018996378530417444,0.002925126977200793,-0.008346181647931708,0.006213064661982097,-0.04486625612969332,0.4199894070625305,-1.233230785732605,1.7093671003924769,-2.0481206379332484,-1.5670478979693812,2.4239933490753174,-0.0716605931520462,0.2614889144897461,-0.37270012497901917,0.10222329199314117,0.0045698052272200584,-0.026695365086197853,0.8810662031173706,-0.24899697303771973,-9.366117477416992,0.8045620322227478,47.723602294921875,-0.3533208668231964,-3.282848358154297,-3.040022611618042,-0.21447333693504333,0.14613381028175354,-0.24857306480407715,28.3125,29.5625,28.6875,32.75,35.25,36.4375
0.7101259689952713,0.3120165085213141,-0.19272001759040736,-0.09654110010080832,0.00633329573413602,-0.03995314509248232,-0.15058521613029222,-0.48431942448517157,-0.3644532981799396,0.08493191911953096,3.0644941751989374,-0.6690394643401301,0.00024297202566965774,-0.13889698754625815,-0.02198626794129773,0.0054403676625137554,-0.014224703830238782,0.018792954768634896,-0.03917946638471398,0.4193197786808014,-1.2307301324656983,1.7057603041278284,-2.0471555195250453,-1.5669758955584925,2.4237539768218994,-0.06478475779294968,0.25035446882247925,-0.36094388365745544,0.08771783113479614,0.004815088119357824,-0.025512738153338432,0.49799394607543945,-0.019153613597154617,-9.366117477416992,0.8090336918830872,47.68867492675781,-0.618667483329773,-3.0534157752990723,-3.036905527114868,0.004459835588932037,0.12081992626190186,-0.2767499089241028,28.3125,29.5625,28.6875,32.75,35.25,36.4375
0.7201274830003968,0.33581607963767646,-0.7257402769804349,-0.16874364267164269,0.0018008510569934074,-0.033266396190658486,-0.1494587273088682,-0.4856604809968158,-0.36465199909500395,0.08499110060439147,3.064239086620491,-0.6695369579694417,1.2489178417614433e-05,-0.12813493817567276,-0.01994469459163373,0.0014909898476557595,-0.00633787271639167,0.001539882104011503,-0.03555168440829362,0.4186861515045166,-1.228323684339859,1.7022627035724085,-2.0462657413878382,-1.5669520537005823,2.423466205596924,-0.06016382947564125,0.2434360384941101,-0.34597641229629517,0.09863866865634918,0.0047003342770040035,-0.024519985541701317,0.4405331015586853,0.13407528400421143,-9.27034854888916,0.8023208975791931,47.699424743652344,-0.8234773278236389,-3.0720014572143555,-3.1977360248565674,-0.07727740705013275,0.09439295530319214,-0.31833726167678833,28.3125,29.5625,28.6875,32.75,35.25,36.4375
0.7302704390021972,0.8688005681242057,1.6615759327697157,0.10405588509746419,0.078487367494504,-0.08655015852466273,-0.14738610134308766,-0.4869484748359537,-0.36486401595314055,0.08504782508964534,3.063987553922345,-0.6701133647594593,-4.625196321630455e-05,-0.12360108495126315,-0.01856733918749829,0.0031539302722659425,-0.005710953723591214,-0.0013829006218793703,-0.033281662617192564,0.4180876910686493,-1.2259422105601807,1.6987727324115198,-2.0452586613097132,-1.5668795744525355,2.423262119293213,-0.05924191698431969,0.23358003795146942,-0.33828282356262207,0.10373485088348389,0.005352561827749014,-0.025868816301226616,0.4405331015586853,-0.28730422258377075,-9.155426979064941,0.7396538853645325,47.685096740722656,-0.7280232906341553,-2.9978713989257812,-2.8664331436157227,-0.24048182368278503,0.10205867886543274,-0.3099803626537323,28.3125,29.5625,28.6875,32.75,35.25,36.4375
0.7402494200068759,-0.2193958610200524,0.31483895098242626,0.03694569991424665,0.007745090828734295,-0.0068204209152979015,-0.15883097052552725,-0.4881181707842793,-0.36504829233428493,0.08506413696124404,3.0638560399078036,-0.6705244733298745,9.735177839739402e-05,-0.12275273841208346,-0.01779183375712724,0.0009530904598374684,-0.009464701731466562,0.008560989134662808,-0.0322397652490944,0.4175247251987457,-1.2236784261516114,1.695514980946676,-2.044213434258932,-1.56679612794985,2.422973871231079,-0.059318989515304565,0.22814476490020752,-0.3218033015727997,0.08209139853715897,0.004738956689834595,-0.02699720486998558,0.28730422258377075,-0.2298433631658554,-9.423578262329102,0.7665104269981384,47.679718017578125,-0.5020861625671387,-3.2586112022399902,-3.1219897270202637,-0.12167662382125854,0.08326166123151779,-0.2652515769004822,28.3125,29.5625,28.6875,32.75,35.25,36.4375
0.7502471970074112,0.06314788647310285,-0.6673585270123541,-0.528912976544181,-0.017952783991794258,-0.0189065485006406,-0.1550291220704085,-0.4893257393131599,-0.3652215513319269,0.08504699766913504,3.063752710541766,-0.6709775824136277,-2.8406593517479964e-05,-0.11715474141893464,-0.017519363996203373,-0.0004281685534538988,-0.007679333598449439,0.008039431911637591,-0.026526227180504295,0.41698718070983887,-1.2213685375503083,1.692315403615133,-2.043388982812399,-1.5668442885028284,2.4227335453033447,-0.0549905002117157,0.22050923109054565,-0.3079551160335541,0.07709140330553055,0.003349035745486617,-0.02838868461549282,0.17238251864910126,0.19153612852096558,-9.481039047241211,0.8403671979904175,47.725399017333984,-0.6635172367095947,-3.417396068572998,-3.085211992263794,-0.003598901443183422,0.07592906057834625,-0.19051533937454224,28.3125,29.5625,28.6875,32.75,35.25,36.4375
0.7602427130041178,1.3099717447904746,1.9511350302144226,0.09682907020431344,0.06925985383869343,-0.07683354109517912,-0.16314532012112345,-0.49048574773016584,-0.36538345531123684,0.08504812341483547,3.063538620136983,-0.6713326940059385,-0.00014321364193243055,-0.11131825158890632,-0.015205103231011093,-0.0005638030371851519,-0.005539162893688072,0.0002992980612175961,-0.027190887128940817,0.41641226410865784,-1.2192267638495942,1.6893170515643519,-2.042668481866354,-1.5667837301837366,2.422410011291504,-0.05495721846818924,0.2116246521472931,-0.2977510094642639,0.08371275663375854,0.004568877629935741,-0.027689538896083832,0.40222588181495667,-0.13407528400421143,-9.289502143859863,0.7642692923545837,47.711063385009766,-0.4839096665382385,-3.1832375526428223,-2.9955949783325195,-0.06634096056222916,0.06728391349315643,-0.11218971014022827,28.3125,29.5625,28.6875,32.75,35.25,36.4375
0.7702402650029399,0.7770489321941263,0.16065213116954435,0.15006446805345644,0.02151674450395427,-0.03862200126257088,-0.1545810171297514,-0.49154149119811064,-0.36550895398921096,0.08502270008909749,3.063477578104429,-0.6717625023038436,6.05097217906585e-05,-0.10381069470433224,-0.011048047056606473,-0.0017984571271870988,0.0008572302717657616,-0.011606275225840052,-0.030471968254172144,0.4158610999584198,-1.2171447438052674,1.686399284993307,-2.0417071781554164,-1.5667360464679163,2.422135353088379,-0.05552118644118309,0.20183484256267548,-0.2846628427505493,0.09388548135757446,0.0035705093760043383,-0.024975236505270004,0.8044517636299133,-0.3064578175544739,-9.289502143859863,0.7396538853645325,47.693153381347656,-0.281730592250824,-3.6106748580932617,-2.7638230323791504,-0.295340359210968,0.08055204153060913,-0.033509206026792526,28.3125,29.5625,28.6875,32.75,35.25,36.4375
0.7802438180078752,0.8287042384130617,-0.09253212161806956,-0.3468665465909011,0.014700973582775468,-0.056233247695526525,-0.15124332636438292,-0.4925899545521238,-0.3656314440916408,0.08503919722316178,3.0633717865395735,-0.6722367254198589,6.703062824233207e-07,-0.10175199256898206,-0.013683415472470603,-0.001160029240138289,-0.005364101030981348,0.004046106465139542,-0.029735052590530088,0.4153481423854828,-1.2151946288398285,1.683589283620016,-2.040877481500143,-1.5667603651629847,2.4219329357147217,-0.0495922677218914,0.19233928620815277,-0.2685525715351105,0.0704205259680748,0.002905283123254776,-0.01979314722120762,0.47884032130241394,-0.019153613597154617,-9.385271072387695,0.7687462568283081,47.71196365356445,-0.3251244127750397,-3.437074661254883,-3.008164405822754,-0.16677579283714294,0.08216014504432678,-0.05596301704645157,28.3125,29.5625,28.6875,32.75,35.25,36.4375
0.7902374389959732,-0.3431628613558955,-0.8463624907405356,-0.6375641981697142,-0.005330066942862129,-0.012802626847760026,-0.14916632134299881,-0.4935574111285599,-0.36578296609223016,0.08496974249936995,3.063189585361378,-0.6727730595011694,0.0001618686747579228,-0.09854566280001788,-0.013920704410345233,0.0012208564244112151,-0.0099490865684351,0.010592793087732998,-0.030812370111724007,0.4148696959018707,-1.213233397608139,1.6809833685504358,-2.0401860676207484,-1.5666521231280726,2.42181396484375,-0.0476834699511528,0.1802636682987213,-0.2562962472438812,0.062385208904743195,0.004463218618184328,-0.016809890046715736,0.24899697303771973,0.07661445438861847,-9.691728591918945,0.7777001857757568,47.6949462890625,-0.38805875182151794,-3.3887152671813965,-3.0530569553375244,-0.0483032763004303,0.05692628026008606,-0.051395438611507416,28.3125,29.5625,28.6875,32.75,35.25,36.4375
0.800235357004567,0.7362518874626612,0.679096052201409,-0.8652892846141133,0.06592665575468218,-0.08303201111135375,-0.13975744494739722,-0.4944924870833843,-0.36589974034320005,0.08494174233668339,3.063055740732629,-0.6731840806438023,7.737501044794639e-05,-0.09166816757559582,-0.01271117287333387,-0.0023154010053136375,-0.004616374446316292,0.0019052154293916544,-0.030067454460957398,0.4144158959388733,-1.2114614409259339,1.6785572210894983,-2.0395990810790003,-1.5666525999652308,2.421635150909424,-0.0440727137029171,0.176065593957901,-0.2434535026550293,0.06383468955755234,0.003110548248514533,-0.013947509229183197,0.4405331015586853,-0.3447650372982025,-9.576807022094727,0.7441308498382568,47.681514739990234,-0.4344559907913208,-3.726259708404541,-3.0618882179260254,0.024270934984087944,0.06695523113012314,-0.04940873384475708,28.3125,29.5625,28.6875,32.75,35.25,36.4375
0.8102386700047646,1.1080131727492641,1.498249458018353,0.015480081973486765,0.06685274127454402,-0.08179234440011737,-0.15515084284389558,-0.49535995382219833,-0.3660254576325523,0.08492808397167273,3.062962097676517,-0.6735836650468948,0.00013722456792587988,-0.08276221965889366,-0.01169617023608955,-0.0013116806827014628,0.0005345431871670309,-0.008521532320091818,-0.026576148395323233,0.4140101969242096,-1.2097634238055726,1.6761649290667933,-2.0388761959471644,-1.5666282812701624,2.4214916229248047,-0.039267648011446,0.16441340744495392,-0.23333455622196198,0.07698368281126022,0.0026406776160001755,-0.012633954174816608,0.8236054182052612,-0.3447650372982025,-9.327810287475586,0.7486078143119812,47.69584274291992,-0.5170437097549438,-3.7101476192474365,-2.867648124694824,-0.20429566502571106,0.09568500518798828,-0.07044726610183716,28.3125,29.5625,28.6875,32.75,35.25,36.4375
0.8202392300008796,0.05080110384308079,0.02746603016921805,-0.2553613261396566,-0.007564705836374556,-0.03361665349979301,-0.16100555045755707,-0.4961085625869344,-0.36614112951256295,0.0848776056899331,3.0629509824766084,-0.673925493651807,0.0005008631611778409,-0.07831385634800986,-0.012742512603921534,0.002756881726794563,-0.0023629650586838554,-0.0017852931780713312,-0.022742660871668277,0.4136405289173126,-1.2081507307342072,1.6739404837237757,-2.038039346734518,-1.5665443579303187,2.4213364124298096,-0.034565940499305725,0.14989864826202393,-0.22236809134483337,0.07319767028093338,0.0025933270808309317,-0.01177055761218071,0.6320692300796509,-0.019153613597154617,-9.423578262329102,0.7374180555343628,47.70748519897461,-0.6789623498916626,-3.471668243408203,-2.619798183441162,-0.31061965227127075,0.08300987631082535,-0.09520021080970764,28.3125,29.5625,28.6875,32.75,35.25,36.4375
0.8302411629993003,0.20172536991482626,-1.0084242124111378,-0.7085891453791102,-0.02351386441671016,-0.0625915979035126,-0.1519051195288182,-0.49684802702199665,-0.36624370008698826,0.08485841963367002,3.0628958598290406,-0.6742958225369846,0.0005311394446017235,-0.07605495769614463,-0.012707248109154126,0.0018666417448827586,-0.007697691183429797,0.009910530435160846,-0.02162760917644585,0.4133056402206421,-1.2066917580417176,1.671899143849508,-2.0374251804747523,-1.5665562788592737,2.4212400913238525,-0.03310743719339371,0.1401364803314209,-0.20239554345607758,0.05013231188058853,0.002768867649137974,-0.011435694992542267,0.5937620401382446,0.19153612852096558,-9.787496566772461,0.7665104269981384,47.71464920043945,-0.6656001806259155,-3.5626704692840576,-3.166337728500366,-0.17315497994422913,0.08260242640972137,-0.10864110291004181,28.3125,29.5625,28.6875,32.75,35.25,36.4375
0.8402442030055681,0.39340441185343145,0.009623540704956968,-0.6297180469054449,0.013379182270747522,-0.046956958269871084,-0.15439157633895542,-0.4976043050975674,-0.3663811500281843,0.08488427818665603,3.0627216848344725,-0.674524177145772,0.0003427487734118876,-0.07301841095489083,-0.013662538930657232,0.0019486082949446155,-0.009592311709582791,0.011855055413695272,-0.019141255843196925,0.41299524903297424,-1.2053156656077881,1.6699031035052698,-2.0369726620116175,-1.5665319601642054,2.4210965633392334,-0.030025726184248924,0.1345609724521637,-0.19410507380962372,0.04487084969878197,0.0037335047964006662,-0.010841300711035728,0.49799394607543945,0.019153613597154617,-9.672574996948242,0.7396538853645325,47.71554183959961,-0.7339837551116943,-3.6100711822509766,-3.091458320617676,-0.06605054438114166,0.07401476800441742,-0.12370552867650986,28.3125,29.5625,28.6875,32.75,35.25,36.4375
0.8501960700086784,0.19018479375987,0.41692279473009475,-0.26563690978151305,0.028992247149395738,-0.01697099060791383,-0.15751152139082303,-0.49829141224246754,-0.36652654579165567,0.08491295286616313,3.0625167607126995,-0.6748419032532861,0.00019189692484699854,-0.06824764743780826,-0.012692389358241197,0.003253478563436421,-0.00919041107536775,0.011730494666198977,-0.017314093835038277,0.4127325415611267,-1.204049066906311,1.6680505911456507,-2.036541601220602,-1.5664847532855433,2.421060562133789,-0.028098370879888535,0.12384407222270966,-0.18271274864673615,0.04447299614548683,0.0034451307728886604,-0.010743464343249798,0.2106897532939911,-0.1149216815829277,-9.557653427124023,0.7351769208908081,47.6949462890625,-0.7375937104225159,-3.6589598655700684,-2.811591148376465,0.019366271793842316,0.06713937222957611,-0.14211320877075195,28.3125,29.5625,28.6875,32.75,35.25,36.4375
0.8602378259965917,0.42207452152638636,1.2466058159986553,0.012439481620276704,0.053591682622249434,-0.06075711326508813,-0.15827657529484496,-0.49897211439830874,-0.36664113211682375,0.08496121431046202,3.062347906374343,-0.6750334346034854,-3.647741487641314e-05,-0.0616917137195715,-0.010284179751400951,0.0028193612057715927,-0.006022474344469052,0.007989183174703698,-0.01647788408587016,0.4124455451965332,-1.2028668087771912,1.6662715117083948,-2.0361343822874964,-1.5664728323565882,2.420916795730591,-0.026633184403181076,0.11248107254505157,-0.16666828095912933,0.04449247196316719,0.0020826547406613827,-0.010118857026100159,0.4596867263317108,-0.363918662071228,-9.251194953918457,0.7262282371520996,47.67703628540039,-0.7415691614151001,-3.422109842300415,-2.9827041625976562,0.048695944249629974,0.06345506012439728,-0.1596052348613739,28.3125,29.5625,28.6875,32.75,35.25,36.4375
0.8701639939972665,0.32740121072539613,0.8309658360211012,0.14076074868594132,0.03794835476086944,-0.05323113110045845,-0.1596274106530023,-0.4995440422606815,-0.366723342989995,0.08496507591394742,3.06226392913609,-0.6753020999302048,-5.064118765956439e-05,-0.054288764177041954,-0.007884296470788183,0.0027314687275350543,-0.002023821622021319,-0.0013943849544342647,-0.015232262386339417,0.41218239068984985,-1.2017798882773896,1.664706055318014,-2.0356766186156214,-1.566460434590475,2.420832872390747,-0.025354383513331413,0.10195392370223999,-0.15435005724430084,0.05290108919143677,0.0022286749444901943,-0.010085079818964005,0.5937620401382446,-0.3447650671005249,-9.346963882446289,0.7553206086158752,47.71017074584961,-0.7005699872970581,-3.3442907333374023,-2.939667224884033,-0.08235733956098557,0.07353736460208893,-0.16994330286979675,28.3125,29.5625,28.6875,32.75,35.25,36.4375
0.8801587619964266,0.3002861905527885,-0.28754265811712776,-0.29037445853183536,0.012008248083896798,-0.044315068288167066,-0.15929044822259636,-0.500022382211043,-0.36680736110906514,0.0850142199388963,3.062238320307345,-0.675430723492187,2.0892246543111477e-05,-0.04828068362138926,-0.005748243934965281,0.0010055552072549324,0.0019056879530142449,-0.007590577853368226,-0.016302085011431718,0.4119793176651001,-1.2008714836886902,1.6632497946368616,-2.0350896320738734,-1.566437069569723,2.4207136631011963,-0.024008601903915405,0.09454143792390823,-0.1409529149532318,0.05416131764650345,0.0011335392482578754,-0.00767277367413044,0.363918662071228,0.038307227194309235,-9.423578262329102,0.6568484306335449,47.702110290527344,-0.6774855852127075,-3.4459049701690674,-2.937932014465332,-0.25314468145370483,0.07463223487138748,-0.17882117629051208,28.3125,29.5625,28.6875,32.75,35.25,36.4375
0.8901401140028611,0.15271211088502107,-0.6227877492806373,-0.3204826871587459,-0.005199265513689677,-0.04045854782709018,-0.15249442305008856,-0.5005277379604106,-0.3668281438200396,0.08504530398072721,3.0621666552078306,-0.6758173514936838,2.1274921954474526e-05,-0.04599280494713392,-0.005749647440210267,0.0029775556358244246,-0.0014177948544139038,0.0005229177488799127,-0.015149401382069525,0.4116804897785187,-1.1999885600856324,1.661889378224508,-2.034603258172506,-1.566448990498678,2.420665740966797,-0.02234284020960331,0.08391737192869186,-0.12886162102222443,0.04392729699611664,0.0009310441673733294,-0.007164965849369764,0.5363011360168457,0.07661445438861847,-9.404424667358398,0.6948947906494141,47.70658874511719,-0.5676328539848328,-3.411245822906494,-2.74674654006958,-0.32742589712142944,0.10307469964027405,-0.1990586221218109,28.3125,29.5625,28.6875,32.75,35.25,36.4375
0.9001298350049183,0.5795897751954252,0.654910894433733,-0.09067607449762087,0.03828441851626662,-0.0612844296511566,-0.1500285128205238,-0.5009817649145344,-0.36692114537572035,0.08507748343969265,3.0620425539075384,-0.6760002795692961,-0.00011864762555800949,-0.04285072162058997,-0.006023429245726055,-0.00018484602756496172,-0.003716350206343243,0.0037724995385737476,-0.01424922168784674,0.41151347756385803,-1.1991747480681916,1.660661522542135,-2.034309049645895,-1.566437069569723,2.4206302165985107,-0.020211413502693176,0.07995830476284027,-0.11310375481843948,0.028222333639860153,0.0017320486949756742,-0.005937359761446714,0.5171475410461426,-0.17238251864910126,-9.327810287475586,0.7329410910606384,47.69136428833008,-0.6073747873306274,-3.601712465286255,-2.8686506748199463,-0.23848296701908112,0.09208418428897858,-0.1969764232635498,28.3125,29.5625,28.6875,32.75,35.25,36.4375
0.9102424440061441,0.37278272600090817,0.2818477970256497,0.07162211311580742,0.035157426970021874,-0.050171797038273375,-0.15494494190714306,-0.5013992817328463,-0.36698624810833547,0.08508845563110118,3.061954095354732,-0.6761327805990504,-0.0002395506456112876,-0.037431772290017304,-0.00512218715360797,-9.946018543406743e-05,-0.003633269030931907,0.00399221873278734,-0.012264900974248727,0.41133469343185425,-1.1984236401370545,1.659576718007223,-2.0340711079039515,-1.566437069569723,2.420546531677246,-0.017882386222481728,0.06919007003307343,-0.0978584736585617,0.02357642538845539,0.0015912717208266258,-0.0055960374884307384,0.40222588181495667,-0.19153614342212677,-9.346963882446289,0.6658024191856384,47.693153381347656,-0.5724801421165466,-3.54886794090271,-2.921825408935547,-0.16214440762996674,0.08934912085533142,-0.21449244022369385,28.3125,29.5625,28.6875,32.75,35.25,36.4375
0.9202473799959989,-0.8990780720324425,-0.42635433886238483,-0.23415157652056207,0.011071619762392558,-0.05400706508652587,-0.14292044596277412,-0.5017393891282781,-0.36704470333992445,0.08511986819794484,3.061833786188224,-0.6762200632520923,-0.0002894858712633307,-0.032650305371344016,-0.004565017270510435,8.140354169305741e-05,-0.003060404507555497,0.003264335210894675,-0.010516374543267381,0.41116780042648315,-1.1978394550136109,1.6586702505694788,-2.0338322124876917,-1.5663769880877894,2.4204509258270264,-0.015429380349814892,0.06044141948223114,-0.08607127517461777,0.02143220230937004,0.0013771024532616138,-0.004894027020782232,0.28730422258377075,0.0,-9.423578262329102,0.7486078143119812,47.69673538208008,-0.5395159721374512,-3.6058077812194824,-2.8424973487854004,-0.12477128207683563,0.07932668924331665,-0.20973695814609528,28.3125,29.5625,28.6875,32.75,35.25,36.4375
0.930217052999069,0.214070068364574,0.5158339157435541,-0.026419561794101543,0.027390250739246617,-0.04415007226401766,-0.15418098221272403,-0.5020265929768613,-0.36705196284183483,0.08509194017472899,3.061785142913492,-0.6765354145469338,-0.00024293782575672988,-0.02849102351801692,-0.0033523857728406533,0.0003608996037162293,-0.0029739865743101117,0.0035554791570836706,-0.010001147544033055,0.4109884798526764,-1.1972794395736237,1.6579325834857386,-2.0336181126036585,-1.5663769880877894,2.4204747676849365,-0.01440062839537859,0.051233984529972076,-0.07357028126716614,0.017904818058013916,0.0011998304398730397,-0.0043835146352648735,0.363918662071228,-0.1149216815829277,-9.481039047241211,0.7239871025085449,47.748680114746094,-0.4915323257446289,-3.601480484008789,-2.7461981773376465,-0.10273651033639908,0.08635572344064713,-0.23083847761154175,28.3125,29.5625,28.6875,32.75,35.25,36.4375
0.9401315730065107,0.6040289241325133,0.5897738732465581,-0.32078161283814677,0.049097808617477465,-0.0632365650914529,-0.15755440507229357,-0.50228266780946,-0.36709724681178263,0.0850866656865637,3.061707590572752,-0.6766521031724471,-0.0002542929287814985,-0.0221264438212211,-0.0019910460011698682,-0.0007245276265556408,-0.0011037490991344446,0.00020596386238533787,-0.008323411707160519,0.41086962819099426,-1.1967916947654267,1.657254997883932,-2.0334636173644007,-1.5663412253009241,2.4204394817352295,-0.01205962710082531,0.04156513139605522,-0.0576668307185173,0.015486468560993671,0.0008511960040777922,-0.003723268862813711,0.5746083855628967,-0.26815059781074524,-9.423578262329102,0.6008995771408081,47.69673538208008,-0.4583260118961334,-3.6526050567626953,-2.780027151107788,-0.07410305738449097,0.09164987504482269,-0.24822640419006348,28.3125,29.5625,28.6875,32.75,35.25,36.4375
0.9501285519945668,0.6539420203517663,0.49223940739840844,-0.3683136236112615,0.012504870889962072,-0.05282805577737881,-0.15872852270799398,-0.5024936291981,-0.36713469444438596,0.08512006943347541,3.06164523553608,-0.67667438036611,-0.0003747411334931003,-0.016470772362435847,-0.001470537901538047,-0.00045434879060394796,-0.00015435202700853957,-0.0013975648832092813,-0.005774460218071618,0.41078677773475647,-1.1964596968940278,1.6567085425006312,-2.0333439312376917,-1.5663417021380823,2.420379400253296,-0.008995654992759228,0.03172964230179787,-0.04480108246207237,0.014303896576166153,0.0006456362316384912,-0.0032105622813105583,0.5937620401382446,-0.1149216815829277,-9.481039047241211,0.7038487195968628,47.69136428833008,-0.2560053765773773,-3.564690589904785,-2.6720640659332275,-0.07358841598033905,0.08095778524875641,-0.2465464323759079,28.3125,29.5625,28.6875,32.75,35.25,36.4375
0.9602455190033652,0.672921143017313,-0.10903268863125798,-0.3718899281423709,0.006080996395431099,-0.05570417662554622,-0.15688273814515008,-0.5025893133054126,-0.3671342018102901,0.08509214458463299,3.061705537155832,-0.6767051745081332,-0.0002635734572471154,-0.010388061905300417,-0.0017447352064725364,-0.0005275931005422496,0.000171271955202135,-0.001782704188046169,-0.0021686067374385295,0.4107283651828766,-1.1962114137462159,1.6564024130450647,-2.033189912835592,-1.5663531462298792,2.4203317165374756,-0.004496260080486536,0.02178674191236496,-0.030402183532714844,0.010327289812266827,0.0005199542501941323,-0.002320089377462864,0.6129156351089478,0.0,-9.519346237182617,0.7172743082046509,47.6895751953125,-0.2759547829627991,-3.567949056625366,-2.7160534858703613,-0.07655943930149078,0.08905346691608429,-0.2498498558998108,28.3125,29.5625,28.6875,32.8125,35.1875,36.4375
0.9702029199979734,0.35228745870986,-0.4630596812369905,-0.3612175254433863,0.005911237097445052,-0.05593148628604107,-0.15211615683426835,-0.5027047671350051,-0.36714196565363,0.0851102837935721,3.0616645567751113,-0.6767907580776624,-0.0004054492732869985,-0.006783020580762566,-0.002205040550745271,-0.00023263920733310734,-0.0015019413673488607,0.002342207325058483,0.00038832471458789234,0.4106816053390503,-1.1960586470416565,1.6561549345599573,-2.0331808529295863,-1.5663893858539026,2.420344114303589,-0.0013644627761095762,0.013428537175059319,-0.017915138974785805,0.001746185589581728,0.00041250031790696084,-0.0017492593033239245,0.5746083855628967,0.038307227194309235,-9.481039047241211,0.7329410910606384,47.70748519897461,-0.17298510670661926,-3.578061103820801,-2.6568474769592285,-0.09341311454772949,0.0871846079826355,-0.2454954832792282,28.3125,29.5625,28.6875,32.8125,35.1875,36.4375
0.9801962560013635,0.8660458543993534,0.5949543983901106,-0.20767727905343544,0.023796327621731474,-0.04299053398744836,-0.15582742735765556,-0.5027065880838187,-0.36720216945139217,0.08509453331551597,3.061633879175091,-0.6766491937373303,-0.0003116542060122378,-0.0016041723004937606,-0.0005947762489893256,0.0007890038986079603,-0.001289328639194305,0.0020669752367546024,0.000648026934465184,0.4107297658920288,-1.1959670049003144,1.6560643354998987,-2.0331694088377894,-1.5663054625140589,2.4203083515167236,-0.00033681077184155583,0.0014233120018616319,-0.003606294048950076,-0.00022349155915435404,0.0003518302401062101,-0.0009839015547186136,0.5937620401382446,-0.26815059781074524,-9.423578262329102,0.7374180555343628,47.693153381347656,-0.03973168134689331,-3.819235324859619,-2.3285140991210938,-0.14404307305812836,0.08273328095674515,-0.25373291969299316,28.3125,29.5625,28.6875,32.8125,35.1875,36.4375
0.9901951850042678,1.1131878197994176,1.5572573201466022,-0.23327716530775983,0.0779738107838647,-0.06491306642084842,-0.15913334698776807,-0.5026971222784795,-0.3671906421792953,0.0851246229189846,3.061613595248208,-0.6767017053066497,-0.00039354964440196515,0.0007640600376375922,-0.0008159632860222306,-0.0006568097005129185,-0.00031208953935936613,-0.0001686524953300598,0.0023371124957511217,0.41073042154312134,-1.1960514348796387,1.6561139265643519,-2.0331818066039027,-1.566329304371969,2.420344591140747,0.0015589242102578282,0.0003624356468208134,0.001338487258180976,-0.0016685293521732092,0.00035538533120416105,-0.0007778077851980925,0.24899697303771973,-0.09576806426048279,-9.289502143859863,0.7127973437309265,47.705692291259766,-0.09441112726926804,-3.8801651000976562,-2.4867758750915527,-0.13987688720226288,0.06938611716032028,-0.25184959173202515,28.3125,29.5625,28.6875,32.8125,35.1875,36.4375
1.0002009680029005,-2.1330185215864903,-2.0027816665490725,-0.4617258007505336,-0.05936839986066532,0.0675059000889518,-0.1493389336012562,-0.5026330896403278,-0.367182174189686,0.08510538298105436,3.0617355336843657,-0.6765938438521873,-0.00022107788593125172,0.0025813160571577926,0.000679640901671687,-0.0011450360446441106,0.0020201926039509306,-0.005472083066824809,0.0025023673366336885,0.410766065120697,-1.1960758131793519,1.6561620871173304,-2.033060213128561,-1.5663417021380823,2.4202959537506104,0.0005055778310634196,-0.001160724670626223,0.0032612623181194067,0.00373122189193964,0.0003565323422662914,-0.0019951239228248596,-0.3064578175544739,0.38307225704193115,-9.730035781860352,0.7239871025085449,47.71017074584961,-0.1349446177482605,-3.783115863800049,-2.682494640350342,-0.21179020404815674,0.058605507016181946,-0.251808226108551,28.3125,29.5625,28.6875,32.8125,35.1875,36.4375
1.0102390170068247,0.43324723861832193,-0.1250689065069026,0.6787195771697235,-0.03476614645245774,0.01623684033912443,-0.0027048366106129955,-0.502661997934485,-0.36718683757812604,0.08510724642940881,3.0616868777215607,-0.6765836175531497,-0.00026325299779669337,-0.0001466664925513024,-0.00036877874301745073,0.00017486148030524163,-0.0007025584010097339,0.0007247282197332453,0.0015572304044884485,0.41074201464653015,-1.1960514348796387,1.6561363379107874,-2.033109804193014,-1.566317383443014,2.4202723503112793,0.0002829878940246999,6.915140682295373e-10,-0.0002265689108753577,-0.0007136508356779814,0.00035720833693630993,-0.0012736793141812086,0.0,-0.019153613597154617,-9.289502143859863,0.7217512726783752,47.718231201171875,-0.15747219324111938,-3.8124754428863525,-2.44155216217041,-0.14059026539325714,0.0571940615773201,-0.2640317380428314,28.3125,29.5625,28.6875,32.8125,35.1875,36.4375
1.0201974649971817,0.9250049958096106,0.2754841230481716,0.3259161811048689,0.020587531135432303,-0.05418922088425624,0.008217914304886258,-0.5026702956487193,-0.36717855334003335,0.08510118939785163,3.0616921515074753,-0.6766042203766247,-0.00027432521440218845,-8.101397275549445e-05,-0.00020860564072572673,0.00016734867874160843,-0.000400637110199128,0.00023569985088547207,0.001768214857516596,0.41072991490364075,-1.1960395139506836,1.6561363379107874,-2.033121725121969,-1.566329304371969,2.4202723503112793,0.00012377346865832806,3.0058055494739535e-19,-0.00036925519816577435,-2.803311138777076e-09,0.0002784377138596028,-0.0016438503516837955,0.3064578175544739,0.038307227194309235,-9.232041358947754,0.6971306204795837,47.70927429199219,-0.1670381724834442,-3.8087408542633057,-2.4857773780822754,-0.11379940807819366,0.03715945780277252,-0.24875199794769287,28.3125,29.5625,28.6875,32.8125,35.1875,36.4375
1.0302051699982258,0.18593885679268804,-0.8551106481804276,-0.09154152550205068,-0.040767589139852005,-0.01892895268180458,0.008760359469632032,-0.5026350170735133,-0.3671790798581517,0.08506329449212613,3.0617496726054263,-0.6765785843997085,-0.00016532259911777994,0.0006809518043502813,0.0001628270977487823,-0.0002276688323355291,0.0007015212112777033,-0.002156458988122308,0.0013858198738401551,0.41075399518013,-1.196015552883484,1.6561849753009241,-2.0331083736815394,-1.566329304371969,2.4202723503112793,9.210234566126019e-05,1.306534383497152e-28,-1.1328907811858357e-09,0.0022625273559242487,0.00022803597676102072,-0.0012925828341394663,0.17238251864910126,0.4213795065879822,-9.519346237182617,0.6590895652770996,47.71554183959961,-0.17118167877197266,-3.7757575511932373,-2.4702961444854736,-0.13989904522895813,0.0486573725938797,-0.26818692684173584,28.3125,29.5625,28.6875,32.8125,35.1875,36.4375
1.0402107400004752,0.2635053050346667,-0.7263569756687783,0.2745316647444664,-0.03736159926414911,-0.011544731182339398,0.00014551573732404582,-0.5026363798452961,-0.3671635599948441,0.08505493096217376,3.0617417791618013,-0.6765964933617027,-0.00011045775784193792,0.0022832471517222927,0.0009275153260789469,-0.004971047872404553,0.0035599142357517176,-0.008618955676728005,0.0016246443190953825,0.4107179641723633,-1.1960137647441407,1.656198803578512,-2.033097883264059,-1.5663054625140589,2.420248508453369,1.2607415555976331e-05,0.004921089392155409,0.0043754116632044315,3.403029768378474e-05,0.00019308659830130637,-0.0016108539421111345,0.24899697303771973,0.2298433631658554,-9.481039047241211,0.6769921779632568,47.6976318359375,-0.18703512847423553,-3.678072690963745,-2.398599147796631,-0.2133064866065979,0.02448849007487297,-0.2656277120113373,28.3125,29.5625,28.6875,32.8125,35.1875,36.4375
1.0501397180050844,1.001352037843912,0.021666273559748983,0.3816126870207561,-0.004319441255585829,-0.008807192021736979,-0.0006966114770012994,-0.5026489921927925,-0.36719298301987924,0.08505786696693274,3.0617265944435657,-0.676496072591651,-0.00018861787794812932,0.00052574664626026,0.0001741183101837622,-0.003995841863696541,0.0012557879195429463,-0.0033003606258279325,0.0013111473402886997,0.4107539653778076,-1.1959897440722962,1.6561735312091272,-2.0331584415831507,-1.5663054625140589,2.420224189758301,5.480069811158355e-15,0.004884849302470684,0.003314307425171137,-0.004666222725063562,0.00016742778825573623,-0.0013113997410982847,0.19153612852096558,-0.05746084079146385,-9.21288776397705,0.7016075849533081,47.71196365356445,-0.24455416202545166,-3.2921736240386963,-2.0989112854003906,-0.2947518229484558,0.042443688958883286,-0.27929502725601196,28.3125,29.5625,28.6875,32.8125,35.1875,36.4375
1.0601441920007346,0.5663607676007936,-0.3009220449306235,0.3922103219798143,-0.021714488166350673,0.0030078073359910756,-0.00229692171204827,-0.5026394402912684,-0.36718082851747125,0.08499279821237848,3.061752761385913,-0.6765022539138497,-0.00013058257897889677,-0.00044668239903100356,-0.0002460025632978223,-0.005077037608082378,-0.0008083248570623655,0.0014520934790952858,0.0014104109208788861,0.410741925239563,-1.1959296327880402,1.6562588850604456,-2.033258100549215,-1.5663054625140589,2.4202122688293457,2.3820240762370578e-24,0.00553099112585187,0.006945554632693529,-0.014124412089586258,0.00014778849435970187,-0.0014133990043774247,-0.038307227194309235,0.1149216815829277,-9.289502143859863,0.6590895652770996,47.702110290527344,-0.24365368485450745,-3.060880184173584,-2.036501407623291,-0.3596903085708618,0.02542472630739212,-0.28680306673049927,28.3125,29.5625,28.6875,32.8125,35.1875,36.4375
1.070128523002495,0.6069734273481652,0.01934310848187848,0.9905080163909934,-0.028386042247528335,0.005648540454580971,-0.0008099984740965887,-0.5026278242167588,-0.3671796482568463,0.08493512711124132,3.0617436318799487,-0.6765002928250394,-0.00011864838612410963,-0.0010779605827046066,-0.0005189639763331203,-0.008327395051693737,-0.0014880248237829758,0.003013046561436151,0.0011328623533076105,0.410741925239563,-1.1958922904780884,1.6563690344439905,-2.0334049663939417,-1.5662935415851038,2.4202122688293457,1.0353949851649525e-33,0.009499707259237766,0.010961974039673805,-0.023813333362340927,0.00013227331510279328,-0.0011381034273654222,0.05746084079146385,0.1149216815829277,-9.078812599182129,0.6971306204795837,47.74151611328125,-0.2611920237541199,-2.999833583831787,-1.923422932624817,-0.4285377860069275,0.019144639372825623,-0.28399327397346497,28.3125,29.5625,28.6875,32.8125,35.1875,36.4375
1.08012597700872,0.5371611850504366,-0.13423865574149846,1.1245795287451041,-0.014954838737830699,-0.01259560943841094,0.0003092996167891951,-0.5026518345105322,-0.3671824115921259,0.08485781945256107,3.061717765301752,-0.6764756262168093,-0.0002471417920840086,-0.001452837634061836,-0.0006558489468624138,-0.012120711270598411,-0.0013402367707652497,0.0028627553323753063,0.0007424978094601999,0.410741925239563,-1.195806698208191,1.656489674245016,-2.0336953602232875,-1.566317383443014,2.4202005863189697,4.498168070482663e-43,0.014429888688027859,0.014593270607292652,-0.0321795791387558,4.337189602665603e-05,-0.0007496034377254546,0.2106897532939911,0.05746084079146385,-8.887276649475098,0.6478998064994812,47.725399017333984,-0.25438207387924194,-2.938737630844116,-1.8329365253448486,-0.4961816072463989,-0.002157618058845401,-0.2675600051879883,28.3125,29.5625,28.6875,32.8125,35.1875,36.4375
1.0902347670053132,0.5281532390181312,-0.3607562896686133,0.8494039191974577,-0.030089715183510415,-0.020448432842889323,-0.0022680585293387012,-0.5026595312401559,-0.3671778557901137,0.08471107085903906,3.0617307480873968,-0.6765172019644221,-0.00019943139003949568,-0.0009437143600640017,-0.00043197535470120696,-0.01619612081118355,-0.0004173911507800856,0.0007433701517239506,0.000396075880295933,0.41072988510131836,-1.1956253510764618,1.6566351095782679,-2.0339848003783167,-1.566317383443014,2.420212507247925,0.0,0.018758542835712433,0.019289782270789146,-0.03889479115605354,3.6565863410942256e-05,-0.00040448797517456114,0.1149216815829277,0.28730422258377075,-9.040505409240723,0.7016075849533081,47.73793411254883,-0.283231258392334,-2.915541648864746,-1.8008363246917725,-0.604434609413147,0.00425143726170063,-0.27165284752845764,28.3125,29.5625,28.6875,32.8125,35.1875,36.4375
