Tylouw/Master_Thesis_Code/test_recorded_data/real_test3/insertion_5_2026-02-24_17-14-01.csv
timestamp[s],tcp_force_x[N],tcp_force_y[N],tcp_force_z[N],tcp_force_rx[Nm?],tcp_force_ry[Nm?],tcp_force_rz[Nm?],tcp_pose_x[m],tcp_pose_y[m],tcp_pose_z[m],tcp_pose_rx[rot_vec_x],tcp_pose_ry[rot_vec_y],tcp_pose_rz[rot_vec_z],tcp_velo_x[m/s],tcp_velo_y[m/s],tcp_velo_z[m/s],tcp_velo_rx[rot_vec_x/s],tcp_velo_ry[rot_vec_y/s],tcp_velo_rz[rot_vec_z/s],q1[rad],q2[rad],q3[rad],q4[rad],q5[rad],q6[rad],qd1[rad/s],qd2[rad/s],qd3[rad/s],qd4[rad/s],qd5[rad/s],qd6[rad/s],tool_acc_x,tool_acc_y,tool_acc_z,current_of_whole_robot[A],voltage_of_whole_robot[V],current_J1[A],current_J2[A],current_J3[A],current_J4[A],current_J5[A],current_J6[A],temp_J1[C],temp_J2[C],temp_J3[C],temp_J4[C],temp_J5[C],temp_J6[C]
7.381700561381876e-05,0.4409729275398401,0.47595201873642723,1.1518693748857267,0.012391647729103759,0.00691625078479339,-0.03235932975075746,-0.38153990026243895,-0.34956705271551475,0.08494424245350735,-3.0785593063569197,0.6249231618597046,-0.00018742248423208487,-0.0016832824751087895,-0.0008548369530385371,-0.0024465988168238736,-0.0024878343484810027,0.004738228954936898,7.005145549385507e-05,0.4791660010814667,-1.4235488784364243,1.9549763838397425,-2.100502153436178,-1.570721451436178,2.4541449546813965,-4.548379729385488e-05,0.004442967940121889,0.0035539334639906883,-0.013348539359867573,1.517988972846232e-28,-0.00011399429786251858,0.15322890877723694,0.05746084079146385,-8.619126319885254,0.7911257743835449,47.712860107421875,-0.09133902192115784,-3.5002167224884033,-2.5705652236938477,-0.32574599981307983,-0.04243960976600647,-0.22910064458847046,28.25,29.5625,28.6875,32.8125,35.1875,36.4375
0.0003376279928488657,-0.48538792182809504,-0.976613358009066,-0.13211943966317138,-0.020914685074565738,0.014914325864944577,-0.037845710297728576,-0.38152205230311703,-0.34955493827036627,0.08490106383441329,-3.0785123513262245,0.6248175712044453,-0.00025683514028322277,-0.005920882842157711,0.0009625525216900791,-0.003432731874180538,0.002353637194448226,-0.004582787780975867,-0.001448356156610933,0.4791755974292755,-1.4234970969012757,1.9550202528582972,-2.100521226922506,-1.5707457701312464,2.454094648361206,-0.007200588006526232,0.015538530424237251,-0.009757373481988907,-0.000630200665909797,1.8013448771499732e-34,-0.0057447548024356365,0.0,0.1149216815829277,-9.346963882446289,0.7486078143119812,47.723602294921875,-0.32677438855171204,-3.1927785873413086,-2.9573731422424316,-0.4534684717655182,-0.016463130712509155,-0.2995952069759369,28.25,29.5625,28.6875,32.8125,35.1875,36.4375
0.010212427005171776,-0.9520568232417559,-1.557323903754125,-0.6641741058619451,-0.05491050256461516,0.08608708601393682,-0.1073962867830744,-0.3815669345540601,-0.3495438965171538,0.08485847808464397,-3.0784227748113264,0.6247766957499185,-0.00044355915348027265,-0.01051610991846447,0.00040140636830640256,-0.0018217103435765097,0.0005715181909284755,-0.0011967847305647894,0.005530933151939253,0.4791143238544464,-1.4233038288405915,1.9548724333392542,-2.1004139385619105,-1.5707457701312464,2.45401930809021,-0.01046296488493681,0.019977513700723648,-0.01865430176258087,-1.442518549055194e-09,-3.2466414268128574e-06,-0.015981389209628105,-0.5937620401382446,0.6703764796257019,-9.825803756713867,0.7329410910606384,47.72002029418945,-0.566794216632843,-2.6872477531433105,-3.265667676925659,-0.49150896072387695,0.032663676887750626,-0.24011091887950897,28.25,29.5625,28.6875,32.8125,35.1875,36.4375
0.020133134996285662,-1.1316257470454085,-0.00567505310737243,-0.4497324065049198,0.026846151153294175,0.0612664654937526,-0.16369413369997163,-0.3816962167786025,-0.3495498556188191,0.08482768561092513,-3.078450928051109,0.6248036202300413,-0.0005335236331514821,-0.016757789406024213,-0.0008707930164963033,0.00033674751164166494,-0.005152841586323115,0.0027487339807339573,0.0013133371538384953,0.47896847128868103,-1.4230375003865738,1.9546411673175257,-2.1004253826537074,-1.5706847349749964,2.4538867473602295,-0.01592244952917099,0.025762001052498817,-0.030086487531661987,-0.0005029031890444458,0.003231659298762679,-0.017222939059138298,-0.4213795065879822,0.09576806426048279,-9.749189376831055,0.7978386282920837,47.67882537841797,-0.6402717232704163,-2.5745391845703125,-3.108149290084839,-0.5019010901451111,0.05633580684661865,-0.27577799558639526,28.25,29.5625,28.6875,32.8125,35.1875,36.4375
0.030126700992695987,0.16832697309595185,0.25857738585493195,-0.21306044571120786,0.01168915391321983,0.03798805750435719,-0.19583291387575996,-0.38191375646623804,-0.34956834802325437,0.08486561649516702,-3.078533128411589,0.6248585223199564,-0.00035917432823846844,-0.021619530171284228,-0.0020185774274174375,0.0009788095726965726,-0.007721009231131325,0.00500394455964777,0.0011905415666759109,0.478799432516098,-1.4227707845023652,1.9542554060565394,-2.100450178185934,-1.5706842581378382,2.4537417888641357,-0.019110897555947304,0.03291776403784752,-0.03953142091631889,-0.0014026584103703499,0.004451813641935587,-0.020284349098801613,-0.09576806426048279,-0.038307227194309235,-9.576807022094727,0.7575564384460449,47.681514739990234,-0.6323353052139282,-2.587047576904297,-3.0892999172210693,-0.4723896086215973,0.09116573631763458,-0.25684216618537903,28.25,29.5625,28.6875,32.8125,35.1875,36.4375
0.04024857499462087,-0.15499746959970806,-1.379926115308042,-0.22581019526646387,-0.03131084988892409,0.019932910403076022,-0.1704178284065166,-0.3821435495254334,-0.3495768541184602,0.08488647106403646,-3.0786370226773334,0.6248982211622462,-0.00033161223550489804,-0.025568594871835614,-0.002482223270557408,0.0021639624720611143,-0.01174749050234136,0.005937448089165011,0.0014826368658756792,0.47855785489082336,-1.422457368378975,1.9538467566119593,-2.1004377804198207,-1.570610825215475,2.453511953353882,-0.023799898102879524,0.036739837378263474,-0.04678534343838692,-0.0006624736124649644,0.007584421895444393,-0.025266490876674652,-0.1149216815829277,0.38307225704193115,-9.557653427124023,0.7754590511322021,47.68598937988281,-0.5778618454933167,-2.3438773155212402,-3.2474875450134277,-0.4860782027244568,0.10388903319835663,-0.22952619194984436,28.25,29.5625,28.6875,32.8125,35.1875,36.4375
0.05023573699872941,-0.4890996670234215,-1.40695989932356,0.07991270746190121,-0.009804746822288154,0.01206306641256346,-0.15382017052026548,-0.3824262765554039,-0.34961472597776894,0.0849153141348237,-3.078762544382881,0.6248815552814517,-0.00019469496948504935,-0.03012217864334831,-0.0048137451010375,0.0033073401541898963,-0.016716245826219406,0.007321618781472905,0.006540232105911099,0.47834116220474243,-1.4220464092544098,1.9533165136920374,-2.100461622277731,-1.570573631917135,2.4532692432403564,-0.026105621829628944,0.04393122345209122,-0.05767029896378517,-0.000495683983899653,0.011340252123773098,-0.03262825682759285,-0.05746084079146385,0.4596867263317108,-9.346963882446289,0.8023208975791931,47.67703628540039,-0.6074169278144836,-2.244816303253174,-3.1682395935058594,-0.4916648864746094,0.10888750851154327,-0.1430681049823761,28.25,29.5625,28.6875,32.8125,35.1875,36.4375
0.06023881099827122,0.03563702976293559,-0.0357142024206652,0.32751150222760195,0.0074015349589913355,0.03052204353598479,-0.1733363203406229,-0.3827536572753341,-0.3496753276963418,0.08494328970353776,3.078682254537571,-0.6247309135030272,0.00016294050316868408,-0.03377243984082291,-0.00603522543864585,0.0028751439495236053,-0.019751479294567293,0.007268818584306252,0.0060029137924905475,0.47805216908454895,-1.421551526790001,1.9526923338519495,-2.1004864178099574,-1.5704167524920862,2.4528965950012207,-0.028903191909193993,0.05127246677875519,-0.06472434848546982,-0.0021333375480026007,0.014049690216779709,-0.03488576412200928,-0.15322890877723694,0.13407529890537262,-9.136273384094238,0.7441308498382568,47.66449737548828,-0.646965503692627,-2.1076011657714844,-3.247138500213623,-0.45909959077835083,0.08020352572202682,-0.13153597712516785,28.3125,29.5625,28.6875,32.8125,35.1875,36.4375
0.07024405999982264,-0.6078491144692195,0.26512420830217887,0.34304630148065157,-0.01399009384581752,0.04103263444194679,-0.16815502215442724,-0.38310442829664343,-0.3497627780093922,0.08498836502745946,3.0784471692944275,-0.624586778535366,0.00011289423188999087,-0.036448177380128226,-0.006287600106478172,0.0016775360843684088,-0.018744303634584594,0.004442465616329978,0.004851568138837754,0.4777754843235016,-1.4210203450969239,1.9519842306720179,-2.100497385064596,-1.5702365080462855,2.4525599479675293,-0.031133651733398438,0.05916924029588699,-0.07146185636520386,-0.0003104656934738159,0.014455587603151798,-0.035958584398031235,-0.15322890877723694,0.09576806426048279,-9.289502143859863,0.8426030278205872,47.679718017578125,-0.773300290107727,-1.9838354587554932,-3.5316953659057617,-0.48585641384124756,0.05405768007040024,-0.15247932076454163,28.3125,29.5625,28.6875,32.8125,35.1875,36.4375
0.08024634899629746,-0.6780507622373788,-0.7674091983998512,-0.31968856822243275,-0.00701426036516329,0.05549693900577579,-0.16663100248801124,-0.3835177260912707,-0.3498180583380943,0.0850258454173736,3.078312149786909,-0.6245227700840197,1.180238708581523e-05,-0.0424916668124697,-0.006198635731560425,0.0018306351144194866,-0.018088271794719397,0.006569975510304115,-0.00010956569400692034,0.47744980454444885,-1.4203805041364213,1.9511554876910608,-2.1004497013487757,-1.5701654593097132,2.452211856842041,-0.03587514907121658,0.0683831125497818,-0.08243507146835327,-0.00012628429976757616,0.012881106697022915,-0.03572839871048927,-0.2106897532939911,0.28730419278144836,-9.519346237182617,0.7911257743835449,47.658226013183594,-0.7495063543319702,-1.9839396476745605,-3.4367244243621826,-0.48491770029067993,0.05019969493150711,-0.22552025318145752,28.3125,29.5625,28.6875,32.8125,35.1875,36.4375
0.09024393399886321,-0.2308236931059447,-0.9019580675381834,-0.37123786248148777,-0.02505598685470634,0.05902484121682039,-0.1699594263338271,-0.38395874170433286,-0.3498744576815707,0.08503207595156487,3.0781313364131053,-0.6244837314108577,-1.2963743200167052e-05,-0.04770927267593819,-0.0065615573281198655,0.0013341285816158783,-0.018408745635731756,0.00668016630721465,0.002052182965955489,0.4770644009113312,-1.4196564269116898,1.9503148237811487,-2.100461622277731,-1.5700328985797327,2.4518253803253174,-0.04011203721165657,0.07813598215579987,-0.09254656732082367,-2.7330082641441322e-09,0.013106740079820156,-0.042119234800338745,-0.24899697303771973,0.28730422258377075,-9.672574996948242,0.7687462568283081,47.674346923828125,-0.7248877286911011,-1.8627986907958984,-3.4057140350341797,-0.48693710565567017,0.05712568759918213,-0.27095821499824524,28.3125,29.5625,28.6875,32.8125,35.1875,36.4375
0.1002397770062089,-0.4494213488280592,-0.8746983603366698,-0.03183732383968544,-0.0019064406507899104,0.02794661448493304,-0.15914841085462716,-0.38449568269533896,-0.34996181930841563,0.08508062534302235,3.077926085553674,-0.6243241155647105,-0.00022019201967147153,-0.05385313860775429,-0.008673584011841685,0.001963972283108139,-0.02124960182627259,0.008678997128257048,0.0050447887240327935,0.47666749358177185,-1.4188361924937745,1.9492695967303675,-2.100485464135641,-1.5699361006366175,2.451355457305908,-0.04290466383099556,0.08892931789159775,-0.10641185194253922,-3.2431667587758378e-15,0.014704253524541855,-0.04789404943585396,-0.09576806426048279,0.3064578175544739,-9.461885452270508,0.7597975730895996,47.67524337768555,-0.7963451147079468,-1.8446868658065796,-3.1081323623657227,-0.4688931703567505,0.07816919684410095,-0.34286659955978394,28.3125,29.5625,28.6875,32.8125,35.1875,36.4375
0.11024779699801002,-0.36683203993394614,-0.9245589833282315,0.34097323431211185,-0.025428871012647597,0.03836976760957218,-0.16297147262337625,-0.38505057882404353,-0.3500455351222162,0.0850973151041862,3.07769942900128,-0.6242156673516978,-0.00024102859400210625,-0.0582605146626403,-0.00991979263877795,0.001594812389447729,-0.0215271596941181,0.009254507699503822,0.010889279220307184,0.47619906067848206,-1.4179198455861588,1.9481781164752405,-2.100473543206686,-1.569756333027975,2.4508485794067383,-0.044649723917245865,0.09835077077150345,-0.1164497509598732,-3.848553927337428e-21,0.014688106253743172,-0.05547501891851425,-0.07661445438861847,0.363918662071228,-9.289502143859863,0.7575564384460449,47.69136428833008,-1.0091296434402466,-2.0016822814941406,-3.1502156257629395,-0.4635392427444458,0.09752354025840759,-0.37134379148483276,28.3125,29.5625,28.6875,32.8125,35.1875,36.4375
0.12023950199363753,0.5872382481262962,-0.23982232302773335,0.514030444652423,-0.001954074420485813,0.034110942367383906,-0.17593326567527504,-0.385676910514644,-0.3501737312723819,0.08514638024660731,3.0774756505042116,-0.6238939976456771,-0.0004284119885691833,-0.06224943525329475,-0.010454933049241931,0.0005905589191402208,-0.02213487768955177,0.007994842235023772,0.02150250003236582,0.4757658839225769,-1.4169079971364518,1.9469078222857874,-2.100485464135641,-1.5696123282061976,2.4502437114715576,-0.04793618991971016,0.1073833703994751,-0.12461648881435394,-4.566945736359797e-27,0.015826502814888954,-0.0693659707903862,-0.038307227194309235,0.13407529890537262,-9.078812599182129,0.7978386282920837,47.718231201171875,-1.0821845531463623,-1.925856113433838,-3.286893844604492,-0.4402499794960022,0.13221967220306396,-0.2780708968639374,28.3125,29.5625,28.6875,32.8125,35.1875,36.4375
0.13024492700060364,0.10503656544825485,-0.024947329798804367,0.2676021031423449,0.02303143099693725,0.017836293816772073,-0.17798851508603225,-0.3863155816877813,-0.35026297441876914,0.08513189048768979,3.0773895981280353,-0.6233913224431257,-0.00045044354911481137,-0.06644357802108482,-0.010420762041611117,-0.0006208075109281696,-0.022968328195965435,0.006107271845708351,0.02684984821299323,0.47526028752326965,-1.4157755237868805,1.9456375280963343,-2.100473543206686,-1.5694792906390589,2.4494359493255615,-0.05267644301056862,0.11631184071302414,-0.13222481310367584,-5.4194359722097176e-33,0.017445147037506104,-0.07944711297750473,-0.038307227194309235,0.07661445438861847,-9.078812599182129,0.7754590511322021,47.68867492675781,-1.066615343093872,-1.8565800189971924,-3.353989362716675,-0.40128764510154724,0.1543375551700592,-0.0880638137459755,28.3125,29.5625,28.6875,32.8125,35.1875,36.4375
0.14023828800418414,-1.2204340040249975,-1.1298703321931618,-0.2699410450139021,-0.011790216279792032,0.07805394134865026,-0.17211204464803848,-0.3869495830723289,-0.3503583992385533,0.08510008205948322,3.0772606238765055,-0.623103968742334,-0.00035270184580992446,-0.07131404350405128,-0.010992858169080242,-9.922323347797045e-05,-0.024822450074204618,0.005985667152535317,0.009702107703053797,0.47474294900894165,-1.4145959627679368,1.9443429152118128,-2.100424428979391,-1.569299046193258,2.448756217956543,-0.05698409304022789,0.12398160994052887,-0.1428736448287964,0.002240097848698497,0.019127994775772095,-0.06660045683383942,-0.6320692300796509,0.26815059781074524,-9.461885452270508,0.8045620322227478,47.70927429199219,-1.1868419647216797,-1.6746962070465088,-3.4208693504333496,-0.4074031412601471,0.20668302476406097,-0.17821046710014343,28.3125,29.5625,28.6875,32.8125,35.1875,36.4375
0.1502476919995388,-1.3849507059388384,-1.5841572694206216,-0.6563044757028881,-0.03715395376965819,0.07325336313644397,-0.1685194987793326,-0.38770670061515844,-0.3504727280435476,0.08510270085757538,3.0769619896933955,-0.6230256534773851,-0.0003170094718941014,-0.07694482572600883,-0.011017922721867952,-0.0006112880935300888,-0.02567352384945007,0.005548759570852861,0.0028504564238709326,0.47410520911216736,-1.4132953000119706,1.9428322950946253,-2.100389143029684,-1.5690463224994105,2.448108196258545,-0.06246580928564072,0.13395100831985474,-0.15348288416862488,0.0029037734493613243,0.020083270967006683,-0.06522101163864136,-0.5937620401382446,0.38307225704193115,-9.749189376831055,0.8202234506607056,47.661808013916016,-1.1794102191925049,-1.8586266040802002,-3.393744945526123,-0.4192543029785156,0.25832751393318176,-0.3304547965526581,28.3125,29.5625,28.6875,32.8125,35.1875,36.4375
0.16024838300654665,-0.03116950503734784,-0.05538211089450344,-0.31510380282145084,0.018055017051536518,0.03516901853931524,-0.16963983036756342,-0.38854190977528585,-0.3505742836240857,0.08508932466156399,3.076696896583097,-0.622992544970668,-0.0003788642488218662,-0.08308750694101119,-0.010835011817453444,-0.0020319929937568414,-0.02958077346425199,0.003670023957675019,-0.0026866673989770218,0.473418265581131,-1.4118619722178956,1.941214386616842,-2.100401063958639,-1.5688651243792933,2.447435140609741,-0.07073590159416199,0.14498665928840637,-0.162702277302742,0.0009931178065016866,0.024421799927949905,-0.06794297695159912,-0.2106897532939911,0.09576806426048279,-9.500192642211914,0.7956027388572693,47.67613983154297,-0.8621060252189636,-1.9894840717315674,-3.332620620727539,-0.35305851697921753,0.27404069900512695,-0.4810979962348938,28.3125,29.5625,28.6875,32.8125,35.1875,36.4375
0.17024494800716639,-0.10932009714591515,-0.7146144538758066,0.23557407602983016,0.008978281861230987,0.024033666255351367,-0.16656301777359636,-0.389431768937433,-0.3506910048015648,0.08513377858872664,3.076377195194788,-0.6227609246340472,-0.0005655350018078338,-0.0868105305161554,-0.010345930424122646,-0.002435611722420782,-0.030090310085589243,0.0014734240341913243,0.016341907268910147,0.47269681096076965,-1.4104544532350083,1.9394896666156214,-2.1004001102843226,-1.5686605612384241,2.446610689163208,-0.07564409077167511,0.15170405805110931,-0.17033939063549042,0.0037102194037288427,0.02594740316271782,-0.09186758100986481,-0.1149216741323471,0.15322890877723694,-9.155426979064941,0.8112748265266418,47.7191276550293,-0.7785845398902893,-1.948322057723999,-3.541212558746338,-0.34794700145721436,0.328708291053772,-0.35217368602752686,28.3125,29.5625,28.6875,32.8125,35.1875,36.4375
0.18025114499323536,-0.6822525429435284,-1.4978665877835855,0.18556476103819367,-0.026855947632187915,0.05758606006635258,-0.16865887933340667,-0.3903247103090321,-0.35080104772457754,0.08511614149205815,3.0761557941645306,-0.6222888216231313,-0.000505488958378586,-0.09373088811327096,-0.011831393151474358,-0.000363880981681608,-0.034644031021998936,0.005287815541149041,0.020468743884441018,0.47192734479904175,-1.4089022886804123,1.9377267996417444,-2.100351949731344,-1.5683954397784632,2.445575475692749,-0.08041970431804657,0.15968026220798492,-0.18471503257751465,0.004698228556662798,0.02828630618751049,-0.10075693577528,-0.4405331015586853,0.5171475410461426,-9.251194953918457,0.8067978620529175,47.69584274291992,-0.6917724609375,-1.794588565826416,-3.3066930770874023,-0.3420308828353882,0.34306061267852783,-0.13955074548721313,28.3125,29.5625,28.6875,32.8125,35.1875,36.4375
0.19025093299569562,-1.0019919817403844,-0.6045378829989025,0.022003063177754318,0.01220721825144026,0.05094966739161547,-0.16741433819787063,-0.39130875395677844,-0.3509376341243122,0.08510570459085959,3.0758342480963026,-0.6220761322136104,-0.00047578645586783135,-0.09737512779232942,-0.014014264906507607,-0.0006227929741281686,-0.03866386552593132,0.004227214306298759,0.005840502454895868,0.47111058235168457,-1.4071937215379258,1.9357646147357386,-2.100304742852682,-1.5681059996234339,2.4446678161621094,-0.08198296278715134,0.16827207803726196,-0.19434775412082672,0.004864452872425318,0.03233497962355614,-0.08767718821763992,-0.2106897532939911,0.24899697303771973,-9.232041358947754,0.8940802216529846,47.7164421081543,-0.6975358724594116,-1.8435540199279785,-3.363222122192383,-0.31844815611839294,0.3436547517776489,-0.29094356298446655,28.3125,29.5625,28.6875,32.8125,35.1875,36.4375
0.20024330499290954,0.20766105570969262,-0.8437697542561944,-0.18649414680446094,0.005507137986992203,0.00322150172812863,-0.1692788646878893,-0.3923045595100789,-0.3510881593317561,0.08505626637753377,3.0755100491859624,-0.6218513359695752,-0.000337378119860598,-0.10057585436446566,-0.015735334633744734,-0.002619714951126123,-0.03896641970804664,0.0002855727584575966,0.00877813525389029,0.4702827036380768,-1.4053758692792435,1.9337671438800257,-2.1002799473204554,-1.5677693525897425,2.443741798400879,-0.08277720957994461,0.1802058219909668,-0.2042202353477478,0.006239721551537514,0.03441302478313446,-0.09139643609523773,0.07661445438861847,0.09576806426048279,-9.423578262329102,0.8739365339279175,47.658226013183594,-0.9938746690750122,-2.0418286323547363,-3.3682875633239746,-0.29687386751174927,0.3221617639064789,-0.39558738470077515,28.3125,29.5625,28.6875,32.8125,35.1875,36.4375
0.21024065600067843,-0.11639794328820141,-1.4778594646323056,-0.4403619352436058,-0.015042752156586705,-0.0028660258728103135,-0.16657659587034485,-0.3933156615787595,-0.3512131183370129,0.08498569982393744,3.075267909054454,-0.6215186407000046,-0.00011094559265900644,-0.10369950879048381,-0.017498999304703125,-0.003152997321187139,-0.0434263654883806,-0.0027287480051314808,0.030814517658000723,0.469405859708786,-1.4034993213466187,1.9317329565631312,-2.1001955471434535,-1.5674436728106897,2.4426889419555664,-0.08535943925380707,0.18826168775558472,-0.21300430595874786,0.007758382707834244,0.039825357496738434,-0.11600226163864136,0.038307227194309235,0.4213795065879822,-9.519346237182617,0.8537927865982056,47.686885833740234,-1.0226002931594849,-2.186943292617798,-3.4879870414733887,-0.2939472198486328,0.2679217755794525,-0.1468779593706131,28.3125,29.5625,28.6875,32.8125,35.1875,36.4375
0.2202438819949748,-0.4827034832579302,-1.543744091116672,-0.7749461272882711,-0.02729213703169176,0.050045596404486636,-0.1693617229620194,-0.3943401169883484,-0.3514297168602493,0.08494837721409187,3.0749058933622737,-0.620971304630978,0.00019136247618924934,-0.10883019710938999,-0.01933304087482131,-0.001206582221293621,-0.049251281269688585,0.0006086164452884445,0.015420098720434677,0.4685889780521393,-1.4015636009028931,1.9295433203326624,-2.1000758610167445,-1.5669625441180628,2.441577196121216,-0.08855557441711426,0.19360050559043884,-0.22397451102733612,0.0078118303790688515,0.043486982583999634,-0.10378901660442352,-0.15322890877723694,0.4596867263317108,-9.730035781860352,0.8582697510719299,47.702110290527344,-1.0831931829452515,-2.023879289627075,-3.4641623497009277,-0.3178290128707886,0.12827500700950623,-0.19696056842803955,28.3125,29.5625,28.6875,32.8125,35.1875,36.4375
0.23024299999815412,-0.36607859668778076,0.45406990203057307,-0.22542147801356854,0.026501940780744953,0.06202225518501246,-0.17086614155927693,-0.39549502131320974,-0.3516288961848376,0.08494086391772476,3.0743896787479024,-0.6208115438129057,0.00024946073577484027,-0.11555105578035164,-0.019262001817943356,-0.0011538034681558835,-0.04815972420228983,0.005016899763816478,0.004374321583405116,0.4676516056060791,-1.39955389619384,1.9272211233722132,-2.100064893762106,-1.566519562398092,2.4406070709228516,-0.09253660589456558,0.20345008373260498,-0.2355383336544037,0.006152013782411814,0.040527019649744034,-0.09671003371477127,-0.47884035110473633,0.2106897532939911,-9.442731857299805,0.8806493282318115,47.6976318359375,-1.1448974609375,-2.1091299057006836,-3.5025007724761963,-0.24738115072250366,0.07087580859661102,-0.42221832275390625,28.3125,29.5625,28.6875,32.8125,35.1875,36.4375
0.24026029100059532,-1.0720056405938327,-0.07298169895856421,-0.2996741213438073,0.023822261470761937,0.07615770087038462,-0.16574136907395204,-0.39665560164017505,-0.3517916317251042,0.08492105736398198,3.0740531688383563,-0.6205389811154141,0.0003351823629664109,-0.12295044123532518,-0.01623004622722285,-0.0010709086596289268,-0.04142637815311981,0.008530037757292405,0.020344330965771276,0.46671339869499207,-1.3974972528270264,1.924840275441305,-2.099931856194967,-1.56618577638735,2.439542770385742,-0.09958306699991226,0.21257251501083374,-0.24742130935192108,0.009006342850625515,0.03303128108382225,-0.11972746253013611,-0.5554547905921936,0.1149216815829277,-9.346963882446289,0.8873621225357056,47.6734504699707,-0.9665292501449585,-2.203989028930664,-3.465787887573242,-0.24369218945503235,0.10637965798377991,-0.3618960976600647,28.3125,29.5625,28.6875,32.8125,35.1875,36.4375
0.2502405620034551,-1.246565178785404,-0.454087349984008,-0.50179226830858,-0.013851137035420086,0.09398601601274273,-0.1706588978632092,-0.39792482531597134,-0.35193697678389035,0.0849207596203728,3.073733029407094,-0.6200281131653663,0.00023854558681540313,-0.12865835617404098,-0.01694818674822387,0.0018746394427129965,-0.0434803771137248,0.014946341394778422,0.02260764612387349,0.4656805694103241,-1.3953574907830735,1.9223278204547327,-2.0998593769469203,-1.5658987204181116,2.4382331371307373,-0.10233480483293533,0.21630331873893738,-0.25924861431121826,0.010544158518314362,0.03204372152686119,-0.12473056465387344,-0.5937620401382446,0.3064578175544739,-9.576807022094727,0.9142186641693115,47.68598937988281,-0.9956231117248535,-2.007150650024414,-3.263364315032959,-0.2511328458786011,0.19127272069454193,-0.17583733797073364,28.3125,29.5625,28.6875,32.8125,35.1875,36.4375
0.26024095200409647,0.024504742852853922,-1.2973615297978787,-0.7358624196344278,0.0011189033525063757,0.019738753178220374,-0.15768987591220995,-0.3992462206455097,-0.35207562806888537,0.08489504624060101,3.0733592066129374,-0.6198804820203996,0.00021371017074110012,-0.13415266928555822,-0.016706659457731223,0.0008334655754601447,-0.04301649222322089,0.016397915365187178,0.00827482320854632,0.4645872116088867,-1.3930845868638535,1.9197080771075647,-2.099764486352438,-1.5655983130084437,2.4370968341827393,-0.10646823048591614,0.2261609584093094,-0.26848262548446655,0.008855906315147877,0.030982730910182,-0.11452110856771469,-0.17238251864910126,0.3064578175544739,-9.519346237182617,0.8963160514831543,47.687782287597656,-0.948027491569519,-1.9710397720336914,-3.576648235321045,-0.20244547724723816,0.2952771782875061,-0.396037220954895,28.3125,29.5625,28.6875,32.8125,35.1875,36.4375
0.27024673600681126,0.1360228309405762,-1.3539347446190715,-0.8517992648074385,-0.04264009132583372,0.013015935869839674,-0.16220358824495082,-0.40064498863642084,-0.35227298189254486,0.08492702025963197,3.072933658947852,-0.6194118992212437,2.050582061263411e-05,-0.13934906931546068,-0.01965342422536301,0.0019914259085285135,-0.04789774696194838,0.017368328666486396,0.034362074871473275,0.4635189175605774,-1.3907510352185746,1.9168837706195276,-2.0996796093382777,-1.5652735869037073,2.4357919692993164,-0.10776600241661072,0.23568852245807648,-0.2833075523376465,0.011306899599730968,0.03508586063981056,-0.14187702536582947,0.17238251864910126,0.7086837291717529,-9.634267807006836,0.9075058698654175,47.68330383300781,-0.9367854595184326,-2.0851991176605225,-3.3481483459472656,-0.18326056003570557,0.3773952126502991,-0.16644330322742462,28.3125,29.5625,28.6875,32.8125,35.1875,36.4375
0.2802472490002401,-0.09652893664180195,-1.2377577160656288,-0.5500391805287365,-0.013286243088045449,0.005264876872812908,-0.15007883536826516,-0.402062045920168,-0.35248161586407945,0.08495972265040319,3.0724848437859835,-0.618868762548268,-0.00015458697375357345,-0.1432636086412295,-0.021265414478061097,0.003276224111350604,-0.056139468443763496,0.018468542462895577,0.015650761079828573,0.4624376893043518,-1.3883833599141617,1.9140132109271448,-2.099595685998434,-1.564911190663473,2.4344305992126465,-0.11183294653892517,0.23952272534370422,-0.29101836681365967,0.010501960292458534,0.04198351129889488,-0.1271936446428299,0.09576806426048279,0.3064578175544739,-9.461885452270508,0.9142186641693115,47.6680793762207,-1.0026872158050537,-1.744825005531311,-3.591913938522339,-0.151386559009552,0.40706729888916016,-0.22671395540237427,28.3125,29.5625,28.6875,32.8125,35.1875,36.4375
0.2902492569992319,-0.7989892371130083,-1.0045441359686325,-0.45979147963438216,0.011450017978705746,0.04575875736300344,-0.1577528539468788,-0.4035026691152701,-0.35272810852198455,0.08501036575194057,3.071893915267094,-0.6185766724144398,-0.0002366544758120689,-0.14759947986423141,-0.02284258465859815,0.0017649131406349916,-0.05960087177614715,0.013285193158136479,0.006438843712308212,0.46134456992149353,-1.385964186196663,1.911022965108053,-2.0994516811766566,-1.5644410292254847,2.433232545852661,-0.11544954031705856,0.25182342529296875,-0.30326220393180847,0.013596849516034126,0.047441788017749786,-0.12155593186616898,-0.2298433631658554,0.2106897532939911,-9.423578262329102,0.9231725931167603,47.681514739990234,-0.893108606338501,-2.0131423473358154,-3.3924384117126465,-0.116106316447258,0.3702893853187561,-0.49530789256095886,28.3125,29.5625,28.6875,32.8125,35.1875,36.4375
0.30022722999274265,-1.0839203918508835,-0.41899150168025634,-0.1278277521638488,0.001522896989132147,0.0630609415380003,-0.15966703293084894,-0.4050004640328248,-0.3529799184051716,0.08503048893856627,3.071309817625494,-0.6180531185994809,-0.0001832339788090246,-0.14955482880451113,-0.02528757997729277,0.0013029172098343073,-0.06868360330120345,0.008981626693422349,0.03763080442521288,0.46016788482666016,-1.383392335181572,1.9079144636737269,-2.099295755425924,-1.563885513936178,2.431805372238159,-0.1182485893368721,0.25771260261535645,-0.3098868429660797,0.014472192153334618,0.057753656059503555,-0.15548785030841827,-0.5171475410461426,0.15322890877723694,-9.346963882446289,0.9589777588844299,47.671661376953125,-1.0143678188323975,-1.716745138168335,-3.605083465576172,-0.11870963871479034,0.23824533820152283,-0.1566382646560669,28.3125,29.5625,28.6875,32.8125,35.1875,36.4375
0.31020917900605127,-0.842853278211596,-0.359634468130591,-0.023109921944118643,-0.017650302549499973,0.07693153396502343,-0.15321612786298378,-0.40656923597734956,-0.3532157408757023,0.08506607330512317,3.0706897305586294,-0.6175905531765898,-0.00022114921352251745,-0.1561411508863005,-0.025136866113587866,0.001998732983205249,-0.06765587084538398,0.011449162688505023,0.014735502682508686,0.45891860127449036,-1.3807706844857712,1.9047086874591272,-2.0991507969298304,-1.5633462111102503,2.4303486347198486,-0.1223180964589119,0.26722100377082825,-0.3239511549472809,0.017296496778726578,0.05572034791111946,-0.13664056360721588,-0.5363011360168457,0.24899697303771973,-9.251194953918457,0.9365981817245483,47.71017074584961,-0.9867775440216064,-1.6519383192062378,-3.4179093837738037,-0.05539250373840332,0.1359606832265854,-0.35629159212112427,28.3125,29.5,28.6875,32.8125,35.1875,36.4375
0.3201791850005975,-0.24241271259596453,0.23457754273832204,0.3643613272686167,0.00768661910746905,0.05823032002465212,-0.16125453777537296,-0.4082091157285998,-0.35344642843989116,0.08506085599732316,3.0700904920612038,-0.6172037102211756,-0.00025693565583076737,-0.1620570874447626,-0.02355094729821195,0.0009549540469541814,-0.06021813206902437,0.014901486331196666,0.035574870518722226,0.45762184262275696,-1.377968208198883,1.9013837019549769,-2.0990430317320765,-1.5628331343280237,2.428889274597168,-0.12480585277080536,0.27783122658729553,-0.3351040482521057,0.018384503200650215,0.04775533080101013,-0.15998096764087677,-0.13407529890537262,0.363918662071228,-9.097966194152832,0.9276495575904846,47.674346923828125,-0.9633791446685791,-1.9303004741668701,-3.3979358673095703,-0.04669487848877907,0.17288577556610107,-0.1903189867734909,28.3125,29.5,28.6875,32.8125,35.1875,36.4375
0.3301429069979349,0.865871699005591,-0.24839693914510597,0.2438286893146712,-0.030101496783116126,0.025888575048539218,-0.16673657029765115,-0.40985964433125993,-0.35366726977582896,0.08503480975275313,3.069632740664375,-0.616713891432306,-0.000298101797230291,-0.16877150744855554,-0.022340465375685258,0.0022635188850709457,-0.05646512368378359,0.020608212116308616,0.018374414816284407,0.45636072754859924,-1.3750830751708527,1.8979862372027796,-2.0988742313780726,-1.5624149481402796,2.4273829460144043,-0.12848058342933655,0.2850188910961151,-0.3478381335735321,0.02049921080470085,0.04186377301812172,-0.1464654952287674,-0.07661445438861847,0.40222588181495667,-9.136273384094238,0.9545007944107056,47.70121383666992,-1.0086872577667236,-1.722319483757019,-3.417867422103882,0.0026343066710978746,0.29562774300575256,-0.24352356791496277,28.3125,29.5,28.6875,32.8125,35.1875,36.4375
0.34014760100399144,0.22839156878148775,-0.5961890801081998,0.18603227996883806,-0.004514576953538938,0.03537105052641868,-0.16793331551646937,-0.41151725319675087,-0.3538480263926442,0.08495574989750537,3.0692170003972103,-0.6164708319809019,-8.744062502773995e-05,-0.17012676535830878,-0.023427953577705565,-0.0024166700029535303,-0.05681538277390704,0.009746844076242593,0.01917405519046131,0.4550165832042694,-1.3720874202302475,1.8945425192462366,-2.098586221734518,-1.5619691053973597,2.4259421825408936,-0.1299663782119751,0.2989431321620941,-0.35529887676239014,0.02376091293990612,0.04703936725854874,-0.14871476590633392,-0.019153613597154617,0.3064578175544739,-9.174580574035645,0.9903112649917603,47.69136428833008,-0.9704328179359436,-2.123763084411621,-3.6564362049102783,-0.000236617517657578,0.35557854175567627,-0.4573403298854828,28.3125,29.5,28.6875,32.8125,35.1875,36.4375
0.3501275010057725,-0.27054560552221424,-0.48137775538299643,-0.489349580539764,-0.0024398091070433284,0.02605842511485324,-0.16402286217352194,-0.4132509547393599,-0.3541118725483385,0.08492992278730019,3.0687451659249363,-0.6157522078625968,-5.854485689886264e-05,-0.17729727930233427,-0.024809657869601345,0.001035295795371193,-0.06440639671245078,0.014016981945798226,0.030778763591539526,0.4537305235862732,-1.3690095853856583,1.8908832708941858,-2.0983454189696253,-1.5614751021014612,2.424269676208496,-0.13576209545135498,0.3044419288635254,-0.37129899859428406,0.027373304590582848,0.05218092352151871,-0.1660677045583725,-0.325611412525177,0.3064578175544739,-9.500192642211914,0.9477880001068115,47.68598937988281,-0.8477884531021118,-2.0549583435058594,-3.421996593475342,-0.006624959409236908,0.3736199736595154,-0.18170291185379028,28.3125,29.5,28.6875,32.8125,35.1875,36.4375
0.3601260610012105,-1.1694677324849556,-1.437451843180424,-0.8284848751361318,-0.026092004552385185,0.07174556079600897,-0.1702058360546312,-0.41497784474852867,-0.3543658220030253,0.08487775785536403,3.068242231047547,-0.6152843989714071,0.00025550125727791305,-0.1778478870084581,-0.026048323060262373,-0.0032088261633368394,-0.06618231945335806,0.0012867064577121346,0.023716075612672582,0.45238643884658813,-1.3658587348512192,1.8871524969684046,-2.0979486904540003,-1.5608847776996058,2.4226996898651123,-0.13738641142845154,0.31685614585876465,-0.37866276502609253,0.033084332942962646,0.059384506195783615,-0.16057634353637695,-0.3064578175544739,0.40222588181495667,-9.672574996948242,0.9701675176620483,47.70748519897461,-1.0339736938476562,-2.354099750518799,-3.7355446815490723,-0.10572224855422974,0.3392380475997925,-0.370318204164505,28.3125,29.5,28.6875,32.8125,35.1875,36.4375
0.37012692900316324,-0.7415176690180938,-0.9191727132309315,-0.9564258665878446,-0.026963560205514825,0.03095548727151188,-0.16003701443138557,-0.41684439971061543,-0.35462721846373263,0.0848997624663056,3.0675844241573724,-0.6147001052190237,0.00027071720469927973,-0.1808233276588201,-0.028430829288463334,-0.0009607284240258589,-0.07622595665132449,0.0014318849987499799,0.03377535269031151,0.4509335160255432,-1.3626874101212998,1.8832429091082972,-2.0976482830443324,-1.5602696577655237,2.420968770980835,-0.14010177552700043,0.318996399641037,-0.38777193427085876,0.03583040460944176,0.0685589537024498,-0.17326869070529938,-0.17238251864910126,0.28730422258377075,-9.921571731567383,0.9030289053916931,47.681514739990234,-1.0002877712249756,-2.0114548206329346,-3.8796005249023438,-0.18381580710411072,0.16173845529556274,-0.12761139869689941,28.3125,29.5,28.6875,32.8125,35.1875,36.4375
0.38024924699857365,-0.638114516521122,-0.018808981500390093,-0.5706391763298766,0.038584173755187884,0.012612771337713944,-0.1762589959672304,-0.41868732397868275,-0.35493907247110784,0.08491286359571265,3.066828174744707,-0.614206364584167,0.0004218786967455149,-0.1874569347004504,-0.02963766877350979,-0.001564468047956872,-0.07415119315303988,0.003330640392355675,0.012772837499757717,0.44952940940856934,-1.3594782960465928,1.8792946974383753,-2.0973245106139125,-1.5595386664019983,2.419356107711792,-0.1410723775625229,0.3327908515930176,-0.40434637665748596,0.03781040012836456,0.06578967720270157,-0.15322133898735046,-0.13407529890537262,0.38307225704193115,-9.53849983215332,0.9903112649917603,47.66718673706055,-1.0867245197296143,-2.2547738552093506,-3.5888712406158447,-0.2542285621166229,0.07263413816690445,-0.48968833684921265,28.3125,29.5,28.6875,32.8125,35.1875,36.4375
0.3902385279943701,-1.3076430923940368,-1.1025979365137215,-0.5405237372996006,-0.03139673345981474,0.038266989667722275,-0.17081877846318005,-0.42063950702877206,-0.3552161840318999,0.08496215144949884,3.066200625899835,-0.6135431650815505,0.000347100999443241,-0.1969154899344348,-0.025868130493454874,0.001754374169839053,-0.0662867267570299,0.018521597776763724,0.035611464209824945,0.44807571172714233,-1.3561805200627823,1.8751314322101038,-2.0969296894469203,-1.5589669386493128,2.417571544647217,-0.14673905074596405,0.33658766746520996,-0.4173688292503357,0.037321899086236954,0.052458811551332474,-0.18179355561733246,-0.07661445438861847,0.4405331015586853,-9.481039047241211,0.9612188935279846,47.66001510620117,-0.9422334432601929,-1.8267395496368408,-3.6684274673461914,-0.3520602583885193,0.2152944803237915,-0.16602285206317902,28.3125,29.5,28.6875,32.8125,35.1875,36.4375
0.40024732500023674,-1.7821167026757783,-1.7745085548948882,-0.32397108318778806,-0.04006322064751648,0.047294211638386076,-0.1668683562898567,-0.4226237837277324,-0.35548069969358265,0.08502848419998182,3.0655611282577144,-0.6130682011713032,0.00014270515497757507,-0.2027646167776685,-0.02613381889199514,0.0013799731501889646,-0.06638102169451597,0.023756764667107643,0.022638877019640624,0.4466231167316437,-1.3528800916722794,1.8709166685687464,-2.0965358219542445,-1.5584643522845667,2.415907859802246,-0.1488613784313202,0.3454037308692932,-0.4273289144039154,0.03374560549855232,0.050312887877225876,-0.17093095183372498,-0.3064578175544739,0.4213795065879822,-9.366117477416992,1.0529729127883911,47.67703628540039,-0.9615132212638855,-1.882597804069519,-3.751070022583008,-0.31152430176734924,0.3470751643180847,-0.3801499009132385,28.3125,29.5,28.6875,32.8125,35.1875,36.4375
0.4102484619943425,-0.23446962133680233,0.07013777854006274,0.47110500767127456,0.01634433742519366,0.04660730112145269,-0.18053544473752578,-0.42471778078354605,-0.35579234666084686,0.08506674437097142,3.0648733185771104,-0.6121269780837982,-0.00019001371693249837,-0.20981555290465018,-0.030690886171987043,0.002852033624210711,-0.07730458452591953,0.030342838286859533,0.03794191090941362,0.4451349973678589,-1.3493758750012894,1.8665569464312952,-2.0963460407652796,-1.5578973929034632,2.413923501968384,-0.14993774890899658,0.35573986172676086,-0.4430060088634491,0.028793910518288612,0.05763736739754677,-0.1872158795595169,-0.5363011360168457,0.28730422258377075,-8.925583839416504,1.0194035768508911,47.66718673706055,-1.091628909111023,-1.735187292098999,-3.5589394569396973,-0.17106446623802185,0.394793838262558,-0.12414547801017761,28.3125,29.5,28.6875,32.8125,35.1875,36.4375
0.42024489199684467,-0.4119205721752808,-0.7685638276693659,0.7830385242449743,-0.006922744120790707,0.025730568856701334,-0.17911403993736452,-0.4268148337567926,-0.35612214377386514,0.08506434882433012,3.0641545904786307,-0.611561800874441,-0.00030810867662955834,-0.21352591737742027,-0.03366861373549254,0.001953916426094779,-0.08403806080307269,0.024878914873170482,0.01701401006197653,0.44365862011909485,-1.3457275044969101,1.8620780150042933,-2.0960451565184535,-1.5572822729693812,2.4121901988983154,-0.15152576565742493,0.3671548664569855,-0.4569222033023834,0.03324642777442932,0.06603161990642548,-0.1677674949169159,-0.07661445438861847,0.325611412525177,-8.944737434387207,1.046260118484497,47.69673538208008,-1.2882882356643677,-1.873714566230774,-3.545823097229004,-0.09492010623216629,0.3645894527435303,-0.4709566831588745,28.3125,29.5,28.6875,32.8125,35.1875,36.4375
0.43023366600391455,-0.5861629215624726,-1.700619283653307,0.1096599965020015,-0.014039748207242606,0.002428477860534602,-0.16208617983310467,-0.4289754473564173,-0.35643465873034474,0.0850505497943157,3.0634263384458746,-0.6109389983012726,-0.0002861168875215618,-0.21425530931668355,-0.034421525087446996,-0.0012315278433271011,-0.09090101565972117,0.011053232808978962,0.03254234347875845,0.44207292795181274,-1.3419596713832398,1.857446018849508,-2.095647474328512,-1.556594196950094,2.4103126525878906,-0.15664717555046082,0.37664806842803955,-0.4641983211040497,0.04105542600154877,0.07854390889406204,-0.18827474117279053,-0.038307227194309235,0.6320692300796509,-9.097966194152832,1.0037368535995483,47.681514739990234,-1.0102595090866089,-1.9464926719665527,-3.748067855834961,-0.04741811752319336,0.19365453720092773,-0.22585391998291016,28.3125,29.5,28.6875,32.8125,35.1875,36.4375
0.44023422300233506,-1.3232625850881705,-0.9590395412154241,-0.5281959243848141,-0.003219254964983053,0.04011164965518529,-0.16409761008888674,-0.431137643009855,-0.3567482644585563,0.0849810768095158,3.062711037403058,-0.6103869173101815,1.9794389846506697e-05,-0.2221840075107642,-0.02955798679731017,-0.0008450141583224015,-0.08314908137051712,0.014851728316932374,0.025619683911451918,0.44045037031173706,-1.3380485636046906,1.8527281920062464,-2.095142980615133,-1.5558174292193812,2.408440351486206,-0.16516713798046112,0.3843643367290497,-0.4771054685115814,0.046445082873106,0.07004953175783157,-0.1899319440126419,-0.325611412525177,0.4405331015586853,-9.385271072387695,0.9970240592956543,47.681514739990234,-0.7687363028526306,-1.9716682434082031,-3.7342402935028076,-0.04863445460796356,0.19036604464054108,-0.374050110578537,28.3125,29.5,28.6875,32.8125,35.1875,36.4375
0.450237229000777,-0.8104018501960812,1.02166200194515,-0.7805993568352256,0.06156460525174702,0.057372358597603645,-0.16715911409801384,-0.43338798498206926,-0.35708234401178585,0.08493669454992561,3.062035726171154,-0.6096284443726945,6.989442137774805e-05,-0.22457923886799885,-0.03106982289343188,-0.003082507233229923,-0.07265499521850088,0.01235902123991501,0.029524675244294418,0.438856840133667,-1.3340392273715516,1.8478301207171839,-2.094685216943258,-1.5551360289203089,2.406463146209717,-0.15874595940113068,0.3982533812522888,-0.49245625734329224,0.05485536530613899,0.061724890023469925,-0.18746906518936157,-0.19153612852096558,0.1149216815829277,-9.653421401977539,1.0149266719818115,47.693153381347656,-1.2085881233215332,-2.45483136177063,-3.6839206218719482,-0.07685589790344238,0.2755453884601593,-0.2853437066078186,28.3125,29.5,28.6875,32.8125,35.1875,36.4375
0.460236006998457,-0.15164700944901954,-1.0617902723273767,-1.438731365810377,-0.015122820173211132,0.0161140810261087,-0.17295448084304765,-0.4356772210848156,-0.35739892377179805,0.08492203301550003,3.0613892605656368,-0.6092720202274529,0.00013529115153194108,-0.22690031245904518,-0.03044678621423705,-0.003074994769351848,-0.07212585817560575,0.005621224927407624,0.03968198883916002,0.4372599422931671,-1.3299732071212311,1.8427303473102015,-2.0940104923644007,-1.5545347372638147,2.404730796813965,-0.16183893382549286,0.40453439950942993,-0.5044745206832886,0.06733700633049011,0.06439196318387985,-0.2006738930940628,0.1149216815829277,0.3064578175544739,-9.979032516479492,1.0373061895370483,47.69673538208008,-1.1732195615768433,-2.2898995876312256,-3.716385841369629,-0.2852437496185303,0.3803488612174988,-0.3490414619445801,28.3125,29.5,28.6875,32.8125,35.1875,36.4375
0.4702420819958206,-0.047443197866550046,-2.17165451698199,-1.5982924273279544,-0.08040337229983437,0.04643326624547445,-0.15737016779769575,-0.43797774047175836,-0.35767837914170353,0.08491752410546136,3.0607768305504144,-0.6084778039018472,0.00021261614701372977,-0.23319761952165538,-0.03206211156325175,-0.0011571552771341455,-0.08637565576760432,0.010162979400007455,0.026041175197406924,0.4355776906013489,-1.3259671044400712,1.8376663366900843,-2.093330522576803,-1.553882900868551,2.4026341438293457,-0.16880594193935394,0.4085843563079834,-0.5140005946159363,0.06276509165763855,0.0754149779677391,-0.19385845959186554,0.0,0.47884035110473633,-9.998186111450195,1.0619269609451294,47.687782287597656,-0.9366196393966675,-2.083531141281128,-3.854269504547119,-0.36142003536224365,0.35582980513572693,-0.3580554723739624,28.3125,29.5,28.6875,32.8125,35.1875,36.4375
0.4802391270059161,-1.2617947202884183,-0.7658392091843501,-0.3862068563926306,-0.030300930898010895,0.0866162490693376,-0.16351403350940058,-0.4403607913175331,-0.3580513982131712,0.0849452790003889,3.059807099846047,-0.6077780025909196,0.0002499479907918713,-0.24091467688373228,-0.0387896675124997,0.0004152822750661716,-0.10870562756430383,0.018991030683161783,0.049716820143175605,0.4338609576225281,-1.321875662808754,1.832447353993551,-2.0927959881224574,-1.5529773871051233,2.4006102085113525,-0.17156808078289032,0.4182737469673157,-0.5277975797653198,0.05018545687198639,0.09243450313806534,-0.2200668305158615,-0.17238251864910126,0.49799394607543945,-9.557653427124023,1.0775883197784424,47.681514739990234,-0.9633585214614868,-2.035919189453125,-3.863706350326538,-0.18052241206169128,0.10569656640291214,-0.08202547580003738,28.3125,29.5,28.6875,32.8125,35.1875,36.4375
0.49023274799401406,-0.6292483231721249,0.3137047351544108,0.22517928357490147,0.0308884611964599,0.06881058347084557,-0.16338350041810665,-0.4427983193384818,-0.35847531875460287,0.08501393015917866,3.0587459402827233,-0.607011083881494,3.342162820750967e-05,-0.24699328062505782,-0.03668886525539498,0.0027138850390250645,-0.09549728911396509,0.030191476390485875,0.017170523753052058,0.4322061538696289,-1.3177620333484192,1.8271186987506312,-2.092363496819967,-1.5520833174334925,2.3986194133758545,-0.16911901533603668,0.42334991693496704,-0.541835606098175,0.05426628887653351,0.07552723586559296,-0.18520180881023407,-0.49799394607543945,0.38307225704193115,-9.040505409240723,0.9119828343391418,47.681514739990234,-0.9420392513275146,-2.47548770904541,-2.9513416290283203,-0.04741359502077103,0.1386222243309021,-0.45813053846359253,28.3125,29.5,28.6875,32.8125,35.1875,36.4375
0.5002405499981251,1.1668092108453172,0.5308469788513187,0.7975041776944556,0.029042657173327387,-0.004911884322186772,-0.16346889484338803,-0.44528925058706065,-0.3588211908532326,0.08505150068069789,3.057987445082999,-0.6062004230807921,-0.00039637167792582877,-0.24243652850281763,-0.032714917693595476,0.003889821539500351,-0.08156943235280405,0.03645959553499077,0.03993684415272647,0.4305644929409027,-1.3135458093932648,1.8217032591449183,-2.091883798638815,-1.55150014558901,2.3965744972229004,-0.16282925009727478,0.4116540253162384,-0.5323396921157837,0.057192012667655945,0.060762472450733185,-0.20183253288269043,0.49799394607543945,-0.038307227194309235,-8.71489429473877,0.9119828343391418,47.67882537841797,-0.8331332206726074,-2.305731773376465,-2.926738977432251,0.054372552782297134,0.3354707956314087,-0.17063184082508087,28.3125,29.5,28.6875,32.8125,35.1875,36.4375
0.5102404259960167,3.1308681525548296,2.8197771215927254,0.8579251393046573,0.10644245166984226,-0.10203404550326829,-0.19025407503232214,-0.4476883288217291,-0.35910365456410465,0.08503046806305098,3.057231693170449,-0.6058853936016138,-0.0005331899962977083,-0.233598431169682,-0.030998976671650136,-0.0006905275622759998,-0.079161356331191,0.014762832716011403,0.0330115737382882,0.428885281085968,-1.3093984884074708,1.8164666334735315,-2.09130396465444,-1.5508859793292444,2.3948018550872803,-0.16142937541007996,0.40945422649383545,-0.5241749286651611,0.07199039310216904,0.06773850321769714,-0.19339004158973694,1.1109095811843872,-0.13407529890537262,-8.561665534973145,0.8828904628753662,47.69584274291992,-0.5583781599998474,-2.6691722869873047,-2.9432499408721924,0.05659056454896927,0.3856879770755768,-0.3318685293197632,28.3125,29.5,28.6875,32.8125,35.1875,36.4375
0.5202397760003805,1.57491810863289,-0.4699770393189984,-0.39795926095672673,-0.014653840855075383,-0.07128848185211899,-0.1629573362681874,-0.44992291667405276,-0.3593957234794151,0.08494848900266422,3.056707801718847,-0.6050510379957833,-1.6234526049151858e-05,-0.2202340766984689,-0.030934933831786186,-0.004437907171183374,-0.08088029420945525,-0.011354759722273507,0.027894973146047303,0.4272790551185608,-1.3052533727935334,1.8112667242633265,-2.0903402767577113,-1.5501254240619105,2.3927431106567383,-0.15700162947177887,0.40106889605522156,-0.5108411908149719,0.09010611474514008,0.08014552295207977,-0.18367937207221985,0.5937620401382446,0.15322890877723694,-9.404424667358398,0.864982545375824,47.6734504699707,-0.49239614605903625,-2.692399501800537,-3.0825939178466797,-0.3190767765045166,0.29598283767700195,-0.22933614253997803,28.3125,29.5,28.6875,32.8125,35.1875,36.4375
0.530234913007007,0.16740092436344411,-1.4468437918498445,-1.294913155800995,-0.033091968801261015,0.03379103609183192,-0.16793069241032177,-0.4520746722252392,-0.3597134316206269,0.0848667594482598,3.0560357250702257,-0.6046142062592195,0.000509086744084989,-0.2182175503952957,-0.03460835806372689,-0.0028007202377854923,-0.09040019328295759,0.004264994585814347,0.03617272442249492,0.4257577955722809,-1.301240400677063,1.8062346617328089,-2.089449544946188,-1.5493090788470667,2.391038656234741,-0.1496453434228897,0.39146333932876587,-0.4991772472858429,0.0701720267534256,0.08241419494152069,-0.18457277119159698,0.689530074596405,0.363918662071228,-9.883264541625977,0.8784134984016418,47.671661376953125,-0.7299555540084839,-2.9069364070892334,-3.39966082572937,-0.2829796075820923,0.10511630028486252,-0.3681485056877136,28.3125,29.5,28.6875,32.8125,35.1875,36.4375
0.5402429120003944,1.0554740153227242,1.0942571770671252,-1.3738324415949281,0.0231791427508305,0.01647503948545844,-0.19370211448727334,-0.4543233201574388,-0.36005704639491515,0.08487500236236253,3.055207989204085,-0.6038651935882425,0.00041897695816690736,-0.21986809979272642,-0.030173400797926856,-0.003865780123022699,-0.07629491236651081,0.021163789357886535,0.02718819825803165,0.4242471754550934,-1.2973460120013733,1.80121356645693,-2.0888921223082484,-1.5485475699054163,2.389172077178955,-0.1463761031627655,0.3878593444824219,-0.4904341399669647,0.05550748109817505,0.06256471574306488,-0.17256221175193787,0.651222825050354,0.09576806426048279,-10.132261276245117,0.8873621225357056,47.692256927490234,-0.6015657782554626,-3.179598808288574,-3.5128705501556396,-0.07019393891096115,0.2611826956272125,-0.3065054714679718,28.3125,29.5,28.6875,32.8125,35.1875,36.4375
0.5502423760044621,1.7873977243133312,1.1079083312839275,-1.0293020177801673,0.030730394471422753,-0.03879102511472933,-0.19567938356385486,-0.45646401912266565,-0.3603586515448618,0.08486274368861679,3.0545522116975095,-0.6031762293865709,0.0002868586756284853,-0.21630946441437762,-0.030221170075332687,0.0013472057837705012,-0.07697526295676657,0.028711798727027737,0.043188013635683864,0.4228448271751404,-1.2936003667167206,1.796406094227926,-2.088316579858297,-1.547948185597555,2.3874282836914062,-0.14154700934886932,0.3729097843170166,-0.4852241277694702,0.05853978544473648,0.06044073402881622,-0.1837487518787384,0.5937620401382446,-0.09576806426048279,-9.921571731567383,0.9007930159568787,47.66539001464844,-0.6663188338279724,-2.872190237045288,-3.279252529144287,0.025819901376962662,0.3334839344024658,-0.18128308653831482,28.3125,29.5,28.6875,32.8125,35.1875,36.4375
0.5601945490052458,-0.027536544541805985,-0.8974480512276194,-0.6753652723415652,0.016859617013454415,-0.0020500543335487276,-0.16814567926493756,-0.4585879515471083,-0.36067354515881417,0.08494264292981435,3.053811081167199,-0.6024338531561602,4.4360153046747126e-05,-0.2074484423464558,-0.028824799009530385,0.0013534283556786986,-0.07214396909458773,0.013404794178070294,0.02219355382662494,0.42146629095077515,-1.2900318068316956,1.7915871779071253,-2.087663312951559,-1.5473116079913538,2.3856868743896484,-0.1372607946395874,0.36377429962158203,-0.4791235625743866,0.07711300998926163,0.062118012458086014,-0.1584046632051468,0.17238251864910126,0.2298433631658554,-9.615114212036133,0.8672236800193787,47.711063385009766,-0.5447339415550232,-2.793710231781006,-3.132678985595703,-0.13240547478199005,0.35355180501937866,-0.304267942905426,28.3125,29.5,28.6875,32.8125,35.25,36.4375
0.5702325960010057,1.0828721224542226,0.4335022712965643,0.29388578300902446,0.03544935028339922,-0.05220778160621729,-0.17804888896055163,-0.4606617045283588,-0.36096553336951354,0.08500341156004082,3.0530496981045876,-0.601990028763385,-7.462432549370108e-05,-0.2011550662649669,-0.03268371642295977,0.00348039806733649,-0.08284685445864486,0.010542614221687906,0.03477521600536715,0.4200887680053711,-1.2865133446506043,1.78685170808901,-2.08695711712026,-1.5466597715960901,2.384136438369751,-0.1314947009086609,0.35360094904899597,-0.47232988476753235,0.07904766499996185,0.0733305886387825,-0.1650238037109375,0.6129156351089478,0.2298433631658554,-9.02135181427002,0.9119828343391418,47.69853210449219,-0.725578784942627,-2.641267776489258,-2.976167678833008,-0.2533504068851471,0.2330704927444458,-0.34508615732192993,28.3125,29.5,28.6875,32.8125,35.25,36.4375
0.5802395450009499,0.8182134543724009,-1.3146232092052177,0.5211112770046804,-0.026730847922332428,-0.003314872924864657,-0.1833795351146087,-0.46263121575759614,-0.36131398049495933,0.08500685734021274,3.0523327574735,-0.6012450451946032,0.00011634408479493728,-0.19858585487311825,-0.033328801205957444,0.0035819768609370306,-0.08701450947073655,0.01714736423778624,0.02951561684516482,0.4188183546066284,-1.282968894844391,1.782189671193258,-2.0861946545042933,-1.5458796660052698,2.3824968338012695,-0.12833558022975922,0.3460741639137268,-0.46143844723701477,0.06795890629291534,0.07441461086273193,-0.15656936168670654,0.49799394607543945,0.3064578175544739,-8.791508674621582,0.9567419290542603,47.690467834472656,-0.7918976545333862,-2.611691474914551,-3.0462169647216797,-0.20165139436721802,0.05577985942363739,-0.22839762270450592,28.3125,29.5,28.6875,32.8125,35.25,36.4375
0.590246637002565,1.0610132591716375,0.7044700906799876,0.44964809398979844,0.043173307984492884,-0.0014185968494997894,-0.19005874075921564,-0.4645684615978963,-0.36164385536490157,0.08496963726238618,3.051671305612737,-0.6005051707223406,0.00018573734563642101,-0.1981874369119519,-0.02704084120143082,0.0015113190710009565,-0.07176174084655434,0.025599584867536947,0.027497308673907928,0.4175967276096344,-1.2794584196856995,1.7776854673968714,-2.0855866871275843,-1.54518968263735,2.380902051925659,-0.12824271619319916,0.3414093852043152,-0.4504045248031616,0.06026452034711838,0.05713750794529915,-0.15472538769245148,0.7086837291717529,0.2298433631658554,-8.829815864562988,0.9477880001068115,47.711063385009766,-0.6284414529800415,-2.7975168228149414,-3.203331232070923,-0.027044080197811127,0.14696750044822693,-0.28235024213790894,28.3125,29.5,28.6875,32.8125,35.25,36.4375
0.6002353410003707,1.1021273368564033,0.8865281587834277,-0.06230491850642863,0.055814221525560204,-0.03383405698435738,-0.17965574249190147,-0.46652343429522064,-0.36185941694289614,0.08492784655337052,3.051148680648977,-0.599966426050605,9.479596754817187e-05,-0.19326094603164545,-0.024976010172862297,0.0024202716126843636,-0.06335201264158291,0.027610443530864177,0.026957701543280296,0.4162929356098175,-1.2760239404490967,1.773273770009176,-2.084975858727926,-1.5447004477130335,2.379333019256592,-0.12280241400003433,0.3314264416694641,-0.44145143032073975,0.0628826841711998,0.048675376921892166,-0.1488737016916275,0.6129156351089478,-0.13407529890537262,-9.251194953918457,0.9254084229469299,47.68240737915039,-0.5672338008880615,-2.890354633331299,-3.0377960205078125,0.0184696763753891,0.3006253242492676,-0.1409238576889038,28.3125,29.5,28.6875,32.8125,35.25,36.4375
0.6102349849970778,0.4394197864462218,0.27345631028450357,-0.5607649121446605,0.030331608543866226,-0.015790481146546437,-0.16864411571889668,-0.46835433335712073,-0.3620956443456458,0.08487388849800107,3.050628128111639,-0.5996694503818272,0.00022603400315719384,-0.18253952212300123,-0.023281454998267576,-0.003838752709289207,-0.05623715449982995,0.004641879947015013,0.006622587316038708,0.41509678959846497,-1.2726931434920807,1.7689831892596644,-2.084241052667135,-1.544171158467428,2.3780224323272705,-0.1184755489230156,0.3295959532260895,-0.4290921092033386,0.075705386698246,0.05112185701727867,-0.12415194511413574,0.325611412525177,-0.09576806426048279,-9.53849983215332,0.8761723637580872,47.690467834472656,-0.6386747360229492,-3.3765616416931152,-3.2304601669311523,-0.08711123466491699,0.35279881954193115,-0.48714679479599,28.3125,29.5,28.6875,32.8125,35.25,36.4375
0.6202395879954565,0.4249861570675291,0.3533006453339388,-1.0131013518833087,0.01640432944954979,-0.014161882818827284,-0.17634752458589706,-0.4700975751821645,-0.3623340303412688,0.0848267261229464,3.0501936865396955,-0.5990945022495381,0.00048660832087780645,-0.17408015608609195,-0.022899314120161142,-0.0018920219115136202,-0.05832040779576969,0.0002728401598523066,0.039647267482840476,0.4139602482318878,-1.2694749397090455,1.7647879759417933,-2.083400865594381,-1.5436180273639124,2.37658429145813,-0.11470833420753479,0.3139408230781555,-0.4156767725944519,0.08201608806848526,0.05542402341961861,-0.15335257351398468,0.28730422258377075,0.19153612852096558,-9.768342971801758,0.8493211269378662,47.671661376953125,-0.6748508810997009,-2.886931896209717,-3.5056421756744385,-0.3047914206981659,0.3514295816421509,-0.15047435462474823,28.3125,29.5,28.6875,32.8125,35.25,36.4375
0.630241841005045,0.9318181653471452,-1.3971084733959591,-1.9178107316429278,-0.04087839496580381,-0.007694351698568611,-0.17510929346203472,-0.4718361869986592,-0.3625945063083823,0.08485657391391965,3.0496331553931566,-0.5985213483238452,0.0005756634960477867,-0.17174415977912236,-0.02826526997098231,-0.002205015653024259,-0.0706181730977759,0.005980105748290473,0.02190803359711002,0.4128485918045044,-1.266408310537674,1.760615650807516,-2.082592626611227,-1.5430267492877405,2.375190258026123,-0.10838506370782852,0.3108980655670166,-0.4081674814224243,0.0668291226029396,0.06399271637201309,-0.12911853194236755,0.9768342971801758,0.4596867263317108,-10.132261276245117,0.8381313681602478,47.70121383666992,-0.8091487288475037,-3.3883914947509766,-3.3044981956481934,-0.30151331424713135,0.235297292470932,-0.3179401755332947,28.3125,29.5,28.6875,32.8125,35.25,36.4375
0.640239175001625,1.5642630632805756,-0.17652899037258252,-0.7289319449997614,-0.02093856876551268,-0.04538937507300597,-0.1810894583567705,-0.4736165777103417,-0.36289774346043857,0.08493321671516868,3.0488306683644195,-0.5979907332725852,0.00027214260305836514,-0.17355634366735168,-0.028759914566860972,0.004563640196294757,-0.07837255305537504,0.02822910300509056,0.03167029139038491,0.4117591083049774,-1.2634421747973938,1.7565401236163538,-2.082119127313131,-1.542391602193014,2.373880386352539,-0.10744862258434296,0.295710027217865,-0.40088698267936707,0.051652852445840836,0.06246595084667206,-0.13794876635074615,1.1109095811843872,0.4596867263317108,-9.730035781860352,0.9209314584732056,47.6734504699707,-0.6306567788124084,-2.978255271911621,-3.1790099143981934,-0.07641046494245529,0.1376003473997116,-0.223466157913208,28.3125,29.5,28.6875,32.8125,35.25,36.4375
0.6502390700043179,0.8349788489593598,0.45946123711939246,-0.3754509953325797,0.03184029180213256,0.0007658943245248215,-0.17528791963088153,-0.4753345598442106,-0.3631797873851529,0.08503902605274716,3.0480950648638925,-0.5972565317738618,-2.1017283773976186e-05,-0.16731700649872086,-0.02284652407543122,0.0008509070110016485,-0.0619878491106332,0.021040367593507418,0.024615947645701602,0.41069355607032776,-1.2606281501105805,1.7525728384601038,-2.081578393975729,-1.54177171388735,2.372457265853882,-0.10560721904039383,0.2899465262889862,-0.38737472891807556,0.0569785013794899,0.05032419413328171,-0.12924641370773315,0.47884035110473633,0.019153613597154617,-9.404424667358398,0.8940802216529846,47.70658874511719,-0.4971431493759155,-3.0827484130859375,-3.2501962184906006,0.015293960459530354,0.18823572993278503,-0.08998291194438934,28.3125,29.5,28.6875,32.8125,35.25,36.4375
0.6602439699927345,0.5425956824752571,1.4916512101089618,0.14965093379147765,0.06071938255598854,-0.014582020061535039,-0.16801909013641814,-0.47699247360422287,-0.36341629843356954,0.08508601286324355,3.0474725152230397,-0.5969737276811294,-0.0002518093349126487,-0.1624329052085593,-0.020118168278537397,0.004201127794253796,-0.054220184485585264,0.020436575151899634,0.00375224502797368,0.40967655181884766,-1.2578167480281373,1.7487242857562464,-2.0810119114317835,-1.5412939230548304,2.3713507652282715,-0.10226546972990036,0.27694374322891235,-0.3811342120170593,0.06681142002344131,0.04308345541357994,-0.10514780879020691,0.24899697303771973,-0.15322890877723694,-9.174580574035645,0.8739365339279175,47.671661376953125,-0.46627742052078247,-2.683436870574951,-2.991736888885498,-0.029497964307665825,0.27112656831741333,-0.38805925846099854,28.3125,29.5,28.6875,32.8125,35.25,36.4375
0.6702347490063403,0.3309850901068799,1.0305324182764688,0.4664930332608554,0.0509996827075294,0.00584181051899455,-0.16552723688104082,-0.47850147165211615,-0.3636203538014704,0.08508162593685512,3.0470719446172407,-0.5965996058971845,-0.00012518655572386214,-0.15209147988973531,-0.02024428193654572,0.001182101698907264,-0.04857763043021904,0.007377701101240591,0.032694300222023395,0.4087330102920532,-1.2550867360881348,1.7450345198260706,-2.08021940807485,-1.540849510823385,2.370227813720703,-0.094788558781147,0.2703275680541992,-0.36864691972732544,0.07589814811944962,0.04364810138940811,-0.1266140341758728,0.24899697303771973,-0.09576806426048279,-8.9064302444458,0.8448441624641418,47.70121383666992,-0.6864981651306152,-2.8153076171875,-3.0486207008361816,-0.22570297122001648,0.30437809228897095,-0.2299526482820511,28.3125,29.5,28.6875,32.8125,35.25,36.4375
0.6802391539968085,0.8065301475426926,-0.029273993870557957,0.4450899639992692,0.003520756302702238,-0.030653862687267712,-0.16504494810519993,-0.48006175512359595,-0.36380382685754437,0.08510341887291545,3.0466684674369544,-0.5960741921995992,-0.00021079414513317904,-0.15028728494066423,-0.020865813124813507,0.00032286647053730627,-0.05124237745740991,0.013389781121848715,0.02356875336977199,0.4077519178390503,-1.2523803275874634,1.7413314024554651,-2.0795170269408167,-1.5404542128192347,2.36897349357605,-0.0920456126332283,0.2657115161418915,-0.35846638679504395,0.06348688155412674,0.04351501539349556,-0.11473538726568222,0.49799394607543945,0.19153612852096558,-8.791508674621582,0.8784134984016418,47.6895751953125,-0.6876931190490723,-2.9730405807495117,-2.954648971557617,-0.22304221987724304,0.3553176522254944,-0.1482337862253189,28.3125,29.5,28.6875,32.8125,35.25,36.4375
0.690244169003563,1.692890586144712,-1.023007527378844,-0.03677857583626297,-0.015182691170345628,-0.05107077246887308,-0.16593803831981688,-0.481525671274495,-0.36400868966653277,0.08506537684939341,3.0461901281841097,-0.5958404646494798,-0.00015812902945324447,-0.1465322735135159,-0.02281635431122786,0.00063322124089275,-0.0584047041132078,0.017699392601122663,0.010343132257325263,0.4068428575992584,-1.2497226160815735,1.7378442923175257,-2.0789228878416957,-1.5399969259845179,2.3679845333099365,-0.08834163844585419,0.2572421431541443,-0.34603795409202576,0.052281226962804794,0.04808182269334793,-0.09770089387893677,0.9768342971801758,0.5171475410461426,-9.059659004211426,0.8247004151344299,47.70658874511719,-0.6456246376037598,-3.0450987815856934,-3.0494396686553955,-0.08287619054317474,0.3367987871170044,-0.33652108907699585,28.3125,29.5,28.6875,32.8125,35.25,36.4375
0.7002424160018563,2.110497309332283,-0.35343667696803127,-0.7890764751707834,-0.00601544922037309,-0.05513899691655379,-0.16943058917716897,-0.48291466921811876,-0.36423252092134506,0.08500249289479034,3.045699149533818,-0.5953761394991643,-3.800316017265562e-05,-0.13943942661964312,-0.023538140498490366,-0.002468762769561469,-0.061772649604197254,0.008174586488284967,0.0313185815946329,0.4059813916683197,-1.2471482914737244,1.734537426625387,-2.0784203014769496,-1.5394671599017542,2.3668994903564453,-0.08575605601072311,0.25254833698272705,-0.33354300260543823,0.05254179984331131,0.05541762709617615,-0.11595050990581512,1.015141487121582,0.4405331015586853,-9.346963882446289,0.8291773796081543,47.692256927490234,-0.6238408088684082,-3.3908817768096924,-3.0703887939453125,-0.014758177101612091,0.18986749649047852,-0.1300860047340393,28.3125,29.5,28.6875,32.8125,35.25,36.4375
0.7102386390033644,1.1249243388908692,1.0439179035190844,-0.6486579260700955,0.032463583318292896,-0.001536063923243569,-0.16944159928606747,-0.4842336983061392,-0.36450063805910116,0.08493440770632421,3.04523518145831,-0.5947066894322546,0.0002452260229315402,-0.13408031038747673,-0.0236175411902952,-5.210563455409546e-06,-0.06188040211233301,0.008691903024710474,0.02240520112055447,0.40520426630973816,-1.244599924688675,1.7312520186053675,-2.0778333149352015,-1.5388672987567347,2.36576509475708,-0.08149782568216324,0.24034780263900757,-0.32410329580307007,0.05447382852435112,0.05509395897388458,-0.10277404636144638,0.47884035110473633,0.19153612852096558,-9.615114212036133,0.8828904628753662,47.72629165649414,-0.7910969257354736,-3.2678933143615723,-3.0388402938842773,0.006155104376375675,0.038014162331819534,-0.08109971880912781,28.3125,29.5,28.6875,32.8125,35.25,36.4375
0.7202388489968143,-0.02533533558136772,0.791504464707239,-0.9230047660745361,0.038397093747140565,0.05397783436811489,-0.15972539142216702,-0.48553560324008765,-0.36468685630894654,0.08490217779266332,3.0447935786514737,-0.5944848624131421,0.0004319386907073317,-0.1261816810879396,-0.015499220062965374,-0.005340213384047891,-0.04023072327069544,-0.004864884624388914,0.004221187520535449,0.40437814593315125,-1.2422053080848237,1.7280648390399378,-2.0771829090514125,-1.5383928457843226,2.364860773086548,-0.08094964176416397,0.23464931547641754,-0.308080792427063,0.06467800587415695,0.040219154208898544,-0.0843290388584137,0.17238251864910126,-0.038307227194309235,-9.84495735168457,0.8851262927055359,47.70838165283203,-0.5737618207931519,-3.709312915802002,-3.3010854721069336,-0.1425580233335495,0.05831281095743179,-0.31230783462524414,28.3125,29.5,28.6875,32.8125,35.25,36.4375
0.7301954160066089,1.5250169463510332,1.997256651335829,-0.3169135343464826,0.0558528445309286,-0.00790514247516182,-0.1749042672658173,-0.48675348425272214,-0.36483154600602025,0.08484589464177297,3.0444831313330827,-0.5943339283846332,0.0005869475511044059,-0.1243626666559333,-0.01419777633771297,-0.00027853036165281515,-0.03423052971065954,0.005470784342448704,0.011290158988250601,0.4036129117012024,-1.2399328213981171,1.725088898335592,-2.076559682885641,-1.5380485693561,2.364043712615967,-0.07664705812931061,0.22208721935749054,-0.3038333058357239,0.06603647768497467,0.030732834711670876,-0.08729453384876251,0.325611412525177,-0.15322890877723694,-9.557653427124023,0.8470799922943115,47.71733474731445,-0.5845022201538086,-3.4984002113342285,-2.965580463409424,-0.2750747799873352,0.20035089552402496,-0.3943037986755371,28.3125,29.5,28.6875,32.8125,35.25,36.4375
0.7402402830048231,0.3467478174470172,-0.3251557216457094,-0.29512201010209826,-0.018171187463250423,0.028413998707098875,-0.1701629605420393,-0.4879941220794554,-0.3649344899362566,0.08484378076448218,3.04426082206399,-0.5939680559902706,0.0005504188819474515,-0.12062081006752323,-0.013991027956036555,0.0020360863144473105,-0.03649365947272384,0.014162899499341615,0.030703553962524013,0.40282344818115234,-1.237756298189499,1.722104851399557,-2.075904985467428,-1.5378087202655237,2.36305570602417,-0.07370651513338089,0.2088155895471573,-0.28993186354637146,0.05711987987160683,0.02980940416455269,-0.1038024052977562,0.5171475410461426,0.2106897532939911,-9.576807022094727,0.8224645853042603,47.70748519897461,-0.4911474585533142,-3.241245746612549,-3.111954689025879,-0.32433009147644043,0.2919246256351471,-0.12341676652431488,28.3125,29.5,28.6875,32.8125,35.25,36.4375
0.7502307660033694,1.9558063485565294,-0.9453928303754934,-0.5542454401866126,-0.031746782185041164,-0.03331089033544151,-0.16947372268606445,-0.48920637087457125,-0.36507361587615517,0.08488989126177884,3.043927691294315,-0.5935559423969131,0.00028076703179146846,-0.11962968922637719,-0.01551058385374405,0.002264445803974818,-0.041573841265522084,0.023709438928993146,0.014472154726570555,0.4021059274673462,-1.2357334059527894,1.7192514578448694,-2.0754195652403773,-1.5375569502459925,2.3621273040771484,-0.07069387286901474,0.20309095084667206,-0.2795034646987915,0.04104184731841087,0.03035595640540123,-0.08452881127595901,0.5746084451675415,0.6129156351089478,-9.557653427124023,0.8358902335166931,47.67882537841797,-0.48964399099349976,-3.3904576301574707,-3.1131982803344727,-0.14677733182907104,0.37555819749832153,-0.20381663739681244,28.3125,29.5,28.6875,32.8125,35.25,36.4375
0.760236147994874,1.4982635219069402,-0.4468625546155818,-0.49258242787896,-0.01731961636606112,-0.06209584975061412,-0.17080222077106907,-0.4903887310422207,-0.36522248397804097,0.08492455255253445,3.0434905078903043,-0.5933036540076733,-1.4043602835586504e-05,-0.11309584406825961,-0.01749409475405411,0.002515056095430139,-0.04485534522897056,0.02136875684501232,0.0109742593158791,0.40140125155448914,-1.233770952825882,1.7165301481830042,-2.0750614605345667,-1.5372560659991663,2.3613271713256836,-0.06495506316423416,0.19391940534114838,-0.26783013343811035,0.03912913426756859,0.034161146730184555,-0.07519584894180298,0.8427590131759644,0.5363011956214905,-9.481039047241211,0.7844129800796509,47.702110290527344,-0.6076863408088684,-3.317836284637451,-3.124671697616577,-0.0721343606710434,0.387998104095459,-0.28137505054473877,28.3125,29.5,28.6875,32.8125,35.25,36.4375
0.7702354060020298,1.7073036316100465,1.2235333996428186,0.047472156371112115,0.06536564488075505,-0.0643997265948597,-0.18086408612855875,-0.491474330769718,-0.3654441206661192,0.08496540973392053,3.042978106407606,-0.5929921038081505,-0.00016956587453412873,-0.10684095380710709,-0.01762229544868618,0.0037662947688609054,-0.045807056963563964,0.018033816987974044,0.017451687780963364,0.400815486907959,-1.2318930488875885,1.7139022986041468,-2.07468905071401,-1.5368359724627894,2.3606185913085938,-0.061582278460264206,0.18305057287216187,-0.25732335448265076,0.04233738034963608,0.03649139031767845,-0.07824376225471497,1.2066776752471924,0.19153612852096558,-9.289502143859863,0.8112748265266418,47.690467834472656,-0.7304879426956177,-3.334369659423828,-2.89009690284729,0.02402884140610695,0.3685539960861206,-0.28039103746414185,28.3125,29.5,28.6875,32.8125,35.25,36.4375
0.7802350819983985,0.5427356133490857,-0.32712085800360635,-0.17891143742103555,0.01302651769145221,-0.02792437812960433,-0.17118496218735457,-0.4924702991865079,-0.3656307225212017,0.08501532877405568,3.0426171975407375,-0.5924850512663754,-0.00017171375685398176,-0.09874812291007865,-0.01811913954995342,0.002349489395421121,-0.04480543935300639,0.006960430070816604,0.03098235698997108,0.40025413036346436,-1.2301460665515442,1.7113831678973597,-2.0741478405394496,-1.5364506880389612,2.3597891330718994,-0.057149287313222885,0.17630775272846222,-0.2473241239786148,0.05001811310648918,0.04017431288957596,-0.0872618705034256,0.4213795065879822,0.2106897532939911,-9.385271072387695,0.864982545375824,47.68061828613281,-0.7930917143821716,-3.2749111652374268,-3.0079054832458496,-0.08072438836097717,0.2945258617401123,-0.04277181252837181,28.3125,29.5,28.6875,32.8125,35.25,36.4375
0.7902319190034177,-0.12366809759911929,-0.15722597415755507,0.22620476261638214,0.006722798797550682,-0.01171319644354791,-0.17343463859580702,-0.4933843797831918,-0.36578048590288087,0.08501224536948304,3.0423584840541804,-0.5920162924014064,4.276230196629901e-06,-0.09086491020446638,-0.016127055259832164,0.0006634447408989642,-0.041695641422207476,-0.0022848487225193394,0.01589173707428023,0.39970389008522034,-1.228447602396347,1.7090333143817347,-2.07357182125234,-1.5360901991473597,2.3589794635772705,-0.05507603660225868,0.16654933989048004,-0.23183214664459229,0.05346149206161499,0.040565840899944305,-0.0700748860836029,0.15322890877723694,0.2298433631658554,-9.385271072387695,0.8560339212417603,47.67524337768555,-0.773807168006897,-3.1697635650634766,-3.1597142219543457,-0.21868568658828735,0.1768268346786499,-0.09832383692264557,28.3125,29.5,28.6875,32.8125,35.25,36.4375
0.8001944809948327,0.8933999107382293,1.9859133961489608,0.46641670678941916,0.07511963837967553,-0.009705817244892882,-0.18847167125190667,-0.4942924824136346,-0.36594927229395635,0.08504762596477691,3.0418619000675005,-0.5918910993216202,0.000125461863057548,-0.08816452734576205,-0.015268767672508714,0.0023662566863282735,-0.0399483424344281,0.0032077321848239743,0.006278500785736003,0.39912980794906616,-1.2268570226481934,1.7067645231830042,-2.0730954609312953,-1.5356124083148401,2.358396291732788,-0.0524643138051033,0.15709219872951508,-0.22230902314186096,0.04865402355790138,0.03656416013836861,-0.05792569741606712,0.325611412525177,0.038307227194309235,-9.174580574035645,0.8515569567680359,47.68867492675781,-0.7385962009429932,-3.0184192657470703,-2.8507325649261475,-0.2864792048931122,0.1188313439488411,-0.21402296423912048,28.3125,29.5,28.6875,32.8125,35.25,36.4375
0.8102404359960929,0.5324175072514785,0.041599637325349464,-0.14842598682892622,0.004490464579873449,0.008829107589401367,-0.18380955490501458,-0.49513706587054596,-0.36606577104759574,0.08504724864817723,3.0416260224412244,-0.5917276239303204,0.0002170750461813957,-0.08665609431023588,-0.011656659861713095,0.00033614135429481775,-0.031172402834066422,0.007142094357231043,-0.001731669199206927,0.39862701296806335,-1.2253121596625824,1.7046163717852991,-2.07257141689443,-1.5353520552264612,2.357823610305786,-0.05200197175145149,0.15322698652744293,-0.21142466366291046,0.041190072894096375,0.02677033469080925,-0.04966707527637482,0.3447650372982025,0.17238251864910126,-9.366117477416992,0.8067978620529175,47.69853210449219,-0.6657018661499023,-3.2926435470581055,-2.7609963417053223,-0.30227699875831604,0.13550764322280884,-0.3841911852359772,28.3125,29.5625,28.6875,32.8125,35.25,36.4375
0.8202431289973902,0.5026464300153554,-0.6334568920123554,-0.29275547292202253,-0.02430102865611809,-0.006280106071376076,-0.18339421160187588,-0.49599770303900664,-0.36615017711821696,0.08507678954228665,3.0412889994677967,-0.5917206581468772,8.647744866858329e-05,-0.08243021823452612,-0.009970087819406847,4.1182729065221775e-05,-0.026956753816859233,0.01333778180775959,0.006635549673412393,0.3980770409107208,-1.223889784221985,1.7026007811175745,-2.0722152195372523,-1.5351141134845179,2.3573179244995117,-0.04863942414522171,0.14297956228256226,-0.19531480967998505,0.031484995037317276,0.020639481022953987,-0.05481560528278351,0.4213795065879822,0.4596867263317108,-9.442731857299805,0.8135106563568115,47.70927429199219,-0.6654295921325684,-3.1943016052246094,-3.1555991172790527,-0.23114719986915588,0.17843087017536163,-0.4007801413536072,28.3125,29.5625,28.6875,32.8125,35.25,36.4375
0.8302394549973542,0.9118160764913468,0.13332135109143842,-0.18754917566378287,0.028222285569159705,-0.06054425153041398,-0.18066697576466284,-0.4968177561485275,-0.36624792528833555,0.08504877464932736,3.0410444116107085,-0.5914106380932204,-3.3966997543615026e-05,-0.07980465066724653,-0.009282820295233866,-0.00020991502872239206,-0.02712669817458955,0.014864643624581328,0.017177466442700795,0.397586464881897,-1.2224413317492981,1.700702969227926,-2.071977277795309,-1.53489858308901,2.3566675186157227,-0.04778100922703743,0.1373104751110077,-0.18645153939723969,0.027190454304218292,0.020472224801778793,-0.06451146304607391,0.7852981090545654,0.26815059781074524,-9.366117477416992,0.8269415497779846,47.70658874511719,-0.42882153391838074,-3.468667984008789,-2.964540719985962,-0.10751626640558243,0.21680638194084167,-0.23875805735588074,28.3125,29.5625,28.6875,32.8125,35.25,36.4375
0.8402471690060338,0.6049750650231298,-0.11029467816494229,-0.09490059213240984,-0.005325546565480536,-0.004623656075922896,-0.18532747952710033,-0.4975560808868298,-0.3663226674724124,0.08502977203845297,3.0408951461439373,-0.5910894016746064,-4.385411701048634e-05,-0.07316187324135418,-0.008669114459437778,-0.0013316516197144962,-0.022197849048398405,0.009558801209117684,0.019564573058685197,0.39713284373283386,-1.221113608484604,1.6989133993731897,-2.0716172657408656,-1.5347192923175257,2.3560328483581543,-0.04306517913937569,0.12998229265213013,-0.1751854568719864,0.029999010264873505,0.017972642555832863,-0.0622381828725338,0.49799394607543945,0.325611412525177,-9.557653427124023,0.7866488099098206,47.68061828613281,-0.46975433826446533,-3.66491436958313,-2.9388160705566406,-0.09061940014362335,0.27045583724975586,-0.09948320686817169,28.3125,29.5625,28.6875,32.8125,35.25,36.4375
0.850240087005659,1.2274351902007725,1.3211975767921649,0.15860962037279538,0.02701117799486437,-0.04251500207962953,-0.18686304692557493,-0.4982930666523952,-0.36642736680084825,0.08505155397260322,3.040607083093961,-0.5908778222567664,-0.00024637646328846936,-0.06690213984129212,-0.008483539914392725,-0.0003487809036741066,-0.023602050377467675,0.008512377758174787,0.005179547734296297,0.3967147171497345,-1.2198837262443085,1.6971967856036585,-2.071402689019674,-1.5345152060138147,2.3555235862731934,-0.03985882177948952,0.11751031130552292,-0.16037341952323914,0.027451271191239357,0.01928960159420967,-0.04459873214364052,0.6129156351089478,0.05746084079146385,-9.251194953918457,0.7888899445533752,47.67613983154297,-0.39484691619873047,-3.355936050415039,-3.033740997314453,-0.012417443096637726,0.26786550879478455,-0.1727866232395172,28.3125,29.5625,28.6875,32.8125,35.25,36.4375
0.8602332970040152,1.068314438708488,0.3669007055180615,0.18553610635595447,0.025884499532901794,-0.03377196936270262,-0.18854525990541648,-0.49894685228970936,-0.36652389873342384,0.08508062242729808,3.0403396024366254,-0.5907983792202942,-0.0003738395043295929,-0.060132489829823464,-0.00798128642281121,-0.001720528468086598,-0.019798778176043287,0.0018014235880591213,0.0027519775327665974,0.3963449001312256,-1.218783513908722,1.6956222693072718,-2.0711380443968714,-1.534323517476217,2.355142593383789,-0.03566776588559151,0.11050249636173248,-0.14893612265586853,0.03045731782913208,0.01825626567006111,-0.037995658814907074,0.727837324142456,0.05746084079146385,-9.346963882446289,0.8537927865982056,47.703006744384766,-0.5421321392059326,-3.52095365524292,-2.8469207286834717,-0.027786660939455032,0.2749401330947876,-0.263243705034256,28.3125,29.5625,28.6875,32.8125,35.25,36.4375
0.8702338849980151,0.5593869680330751,-0.3971884309013289,-0.054959257929106636,0.008999779944416978,-0.0332027160634559,-0.18352598270829004,-0.49949662986323284,-0.366595737193705,0.08504332762457778,3.040225345047759,-0.5906375159591845,-0.00022343577434710124,-0.05470017438637647,-0.008353254030639532,-0.0007435103680326903,-0.019111255617864656,0.0014151480769629661,0.00563286142467425,0.3960109353065491,-1.217708335523941,1.6942032019244593,-2.0707794628539027,-1.5341437498675745,2.354722738265991,-0.03128984570503235,0.10082046687602997,-0.13830214738845825,0.030086776241660118,0.017759444192051888,-0.03651174530386925,0.5554547905921936,0.4213795065879822,-9.289502143859863,0.8202234506607056,47.66986846923828,-0.5696700811386108,-3.507398843765259,-2.833988666534424,-0.03517697751522064,0.3220787048339844,-0.2769649028778076,28.3125,29.5625,28.6875,32.8125,35.25,36.4375
0.8802419080020627,0.7237683799779685,0.06644549210024042,-0.01155655704271637,0.004771674465617236,-0.03636774986701197,-0.18512809722203627,-0.5000160679704,-0.36664628979212016,0.08501338052076479,3.0401406792412073,-0.5905419348242297,-0.00017640690458165867,-0.048889125615913735,-0.00704113079163153,-0.0022163156113186515,-0.01624461729047085,-0.003037234167337784,0.005537422680378542,0.39570048451423645,-1.2167283457568665,1.6929052511798304,-2.0704804859557093,-1.5340364615069788,2.3543639183044434,-0.02903233841061592,0.09335701167583466,-0.12517790496349335,0.029565783217549324,0.016803910955786705,-0.034180909395217896,0.651222825050354,0.3447650372982025,-9.327810287475586,0.8045620322227478,47.73255920410156,-0.5508815050125122,-3.640256881713867,-2.8394088745117188,-0.08281707763671875,0.33651605248451233,-0.298462450504303,28.3125,29.5625,28.6875,32.8125,35.25,36.4375
0.8902450559980934,1.6692548224671435,0.7285701115349135,0.21994425529545103,0.03613856310036698,-0.04833606591916165,-0.19299006531046672,-0.5004750028866906,-0.3667225014005842,0.08498496739791567,3.039998339963517,-0.5904710464393493,-7.72482573601657e-05,-0.0429332473308592,-0.007497307044743509,-0.0018448689238686968,-0.015249148449114876,-0.0036945785239437525,0.008967715619250333,0.3954385817050934,-1.2158325773528595,1.6917246023761194,-2.0702177486815394,-1.5338686148272913,2.354077100753784,-0.02413209341466427,0.08372391015291214,-0.11293668299913406,0.027906229719519615,0.016127271577715874,-0.03272794932126999,0.8044517636299133,0.15322890877723694,-9.27034854888916,0.7553206086158752,47.66986846923828,-0.6850762367248535,-3.722912549972534,-2.834507942199707,-0.12305968999862671,0.3296290636062622,-0.3177393972873688,28.3125,29.5625,28.6875,32.8125,35.25,36.4375
0.9002386479987763,1.1617349810447783,0.7433826447652657,-0.15660645602262224,0.03508562665800735,-0.03726298675160494,-0.1854369619002605,-0.500859017441158,-0.36677791905225265,0.08493964973134571,3.039915267284627,-0.5903003902898253,0.00014080517714015793,-0.03589850831266791,-0.005525405309282931,-0.0031326984638596557,-0.011355660090688042,-0.007764863050422015,0.011439587064297364,0.39518794417381287,-1.215033308868744,1.6907027403460901,-2.069930692712301,-1.5336898008929651,2.353729486465454,-0.02160997875034809,0.07327203452587128,-0.09611441940069199,0.02680862508714199,0.014133842661976814,-0.032728470861911774,0.8236053586006165,0.09576806426048279,-9.442731857299805,0.7844129800796509,47.69673538208008,-0.6035683751106262,-3.766476631164551,-3.1183953285217285,-0.20046211779117584,0.3252255320549011,-0.2673875689506531,28.3125,29.5625,28.6875,32.8125,35.25,36.4375
0.9102415569941513,-0.22731274845772248,-0.8723768167141714,-0.7217729872178548,-0.020398683045549565,0.00010478188252648936,-0.1847703374111173,-0.501181806029016,-0.3668471074682495,0.08492901064368563,3.039872979388518,-0.5900436910984269,0.00035079905408046927,-0.03173138039987612,-0.005467677777954465,-0.0011379835531987283,-0.010752619706706126,-0.0049338133376944015,0.015448459885238856,0.39500945806503296,-1.2143539649299164,1.6897485891925257,-2.0695840320982875,-1.533534351979391,2.353394031524658,-0.018203312531113625,0.06279107183218002,-0.08628728240728378,0.025119276717305183,0.012518339790403843,-0.03337286412715912,0.363918662071228,0.3447650372982025,-9.787496566772461,0.7418897151947021,47.66718673706055,-0.7823870182037354,-3.6107990741729736,-3.0240397453308105,-0.34986019134521484,0.3451511263847351,-0.14941447973251343,28.3125,29.5625,28.6875,32.8125,35.25,36.4375
0.9202374979940942,-0.15046906560170778,-0.3526088588454014,-0.7831140004668429,0.022422138026476773,-0.02942460505322195,-0.17232269663853825,-0.5015045384614335,-0.36689263982538456,0.08491826612733727,3.0398357832250635,-0.5897115535957784,0.000337631416300308,-0.029833570615175737,-0.005863768342001898,0.0008116400110758454,-0.013823318543737797,0.0036381247558464353,0.01325869604659731,0.39483052492141724,-1.213758037691452,1.688948933278219,-2.069432397881979,-1.5334504286395472,2.353011131286621,-0.016080815345048904,0.05324828252196312,-0.07549474388360977,0.014621132984757423,0.011949515901505947,-0.02907378599047661,0.4213795065879822,0.325611412525177,-9.749189376831055,0.7150384783744812,47.67882537841797,-0.7012999653816223,-3.5675997734069824,-2.9164490699768066,-0.33528366684913635,0.34875255823135376,-0.0806151032447815,28.3125,29.5625,28.6875,32.8125,35.25,36.4375
0.9302333609957714,0.3351134039875333,0.609797196280286,-0.21817764630256398,0.03227282888685238,-0.036649792379462774,-0.1721489920215974,-0.5017976710143798,-0.36694887671989795,0.08494844736711032,3.039674178474276,-0.5896585657232897,0.00023586603897164717,-0.026285452472900244,-0.005174322730890638,0.001225361952512783,-0.012036285873988188,0.006603976290633201,0.007801311296842299,0.39467576146125793,-1.2132935684970398,1.6882475058185022,-2.0693379841246546,-1.5333436171161097,2.352846622467041,-0.01337393093854189,0.044940926134586334,-0.06423703581094742,0.00933016836643219,0.008974895812571049,-0.02097308076918125,0.5171475410461426,0.17238251864910126,-9.366117477416992,0.7866488099098206,47.69584274291992,-0.7139238715171814,-3.5890400409698486,-2.823086738586426,-0.3084319829940796,0.2978332042694092,-0.03057723492383957,28.3125,29.5625,28.6875,32.8125,35.25,36.4375
0.9402382230036892,1.0428710694936465,0.13314484857734232,-0.15012441154504477,0.02338742202634613,-0.019001836504864953,-0.17743827213849325,-0.5020444152732195,-0.3669934026925869,0.08498094797666217,3.0395652566959015,-0.5895019560819664,0.00014029382065687337,-0.022621067663162627,-0.003899795517952675,0.0022266278076125173,-0.009443329977982334,0.008433860398078663,0.002717579321803658,0.3945447504520416,-1.2129133206656952,1.6876519362079065,-2.0692435703673304,-1.5332606474505823,2.352632999420166,-0.011353188194334507,0.03579273447394371,-0.053891606628894806,0.007189191412180662,0.005722841247916222,-0.013939944095909595,0.4596867263317108,0.24899697303771973,-9.366117477416992,0.7777001857757568,47.703006744384766,-0.7152068018913269,-3.5689878463745117,-2.7018003463745117,-0.2923334836959839,0.29870593547821045,-0.014191282913088799,28.3125,29.5625,28.6875,32.75,35.25,36.4375
0.950237722005113,0.6534367990251624,-0.16218587144954447,-0.09038701159310977,0.014312054243498991,-0.027390099690932364,-0.18009017245615275,-0.5022252214292565,-0.3670340451822919,0.08499050979879194,3.0395254269267604,-0.5893797853634041,2.2767987852068084e-05,-0.017789095490394386,-0.002586218369806127,0.002273827075300601,-0.00782327808797746,0.008520347415535983,-0.00030832289850739845,0.3944854140281677,-1.2126050752452393,1.687214199696676,-2.0692082844176234,-1.5332492033587855,2.3525030612945557,-0.009454969316720963,0.02602551318705082,-0.040269482880830765,0.0036986193154007196,0.004094877280294895,-0.009052001871168613,0.5363011360168457,0.2298433631658554,-9.289502143859863,0.7709873914718628,47.702110290527344,-0.5761763453483582,-3.5750350952148438,-2.8248186111450195,-0.32487303018569946,0.3028203845024109,-0.026863139122724533,28.3125,29.5625,28.6875,32.75,35.25,36.4375
0.9602404939942062,0.21636326100898196,0.21407762107661363,0.05546065195744666,0.019182302668124415,-0.05172210782966813,-0.17010349281140882,-0.5023846589975326,-0.36706230203622175,0.08502207519879643,3.0394043385256015,-0.5894460371322086,-9.451220741268129e-05,-0.011916501052129496,-0.002908166775199692,0.0013205975514933705,-0.0058934375041125005,0.006291926717945438,-0.0007443755345390877,0.39440324902534485,-1.2123918694308777,1.6868580023394983,-2.0691853962340296,-1.5332019964801233,2.35248064994812,-0.004697142168879509,0.01866968721151352,-0.027881747111678123,0.0012741368263959885,0.0030625727958977222,-0.0038792535196989775,0.689530074596405,0.325611412525177,-9.327810287475586,0.7799360156059265,47.6627082824707,-0.49446970224380493,-3.629307508468628,-2.794069290161133,-0.32879847288131714,0.2934286594390869,0.008076154626905918,28.3125,29.5625,28.6875,32.75,35.25,36.4375
0.9702438770036679,1.4012365863624916,0.5004613404350604,0.1484912185729729,0.02507469921923178,-0.04452082903256597,-0.1853707682772614,-0.5024641541771601,-0.3670726867972344,0.0849782268260619,3.0394113816447215,-0.5894860643114791,-6.237932949331626e-05,-0.005822645098536711,-0.0020907335601622113,-0.0003322284659700317,-0.0023292101181381,0.00182726907628684,-0.0008518429485387796,0.3943684697151184,-1.2121787530234833,1.686671559010641,-2.069185873071188,-1.5332024733172815,2.3524699211120605,-0.0012400876730680466,0.011708762496709824,-0.01491769589483738,0.0006349600153043866,0.0014256900176405907,-0.0003520002937875688,0.7661445140838623,0.2106897532939911,-9.232041358947754,0.7553206086158752,47.674346923828125,-0.4607759118080139,-3.7141528129577637,-2.7601780891418457,-0.3444651663303375,0.28481775522232056,0.051548928022384644,28.3125,29.5625,28.6875,32.75,35.25,36.4375
0.9802329980011564,0.7794463098491359,0.7842271491238904,-0.055563290893757944,0.04520047215697529,-0.04867966338826152,-0.17693646424109324,-0.5024779821322785,-0.36710204239228883,0.08498861374980413,3.0393366434811426,-0.589527705493423,-7.891737240542799e-05,-0.0006097612514360528,-0.00019554032049170575,-8.231813845467196e-05,-0.0006564303758887296,-0.00022065971408660826,-0.003209405641840187,0.3943808078765869,-1.2121584576419373,1.6866286436664026,-2.069209714929098,-1.5331547896014612,2.3525192737579346,-0.00039631957770325243,0.0012404350563883781,-0.001465490204282105,6.677553028566763e-05,0.0006163774523884058,0.002831054152920842,0.727837324142456,0.19153612852096558,-9.385271072387695,0.7441308498382568,47.705692291259766,-0.11007851362228394,-4.1274213790893555,-2.4599039554595947,-0.40670984983444214,0.2509026527404785,0.10568065941333771,28.3125,29.5625,28.6875,32.75,35.25,36.4375
0.9902485030033858,0.09888496343458592,0.31074061447962353,-0.7527489082019078,0.06781932640824075,-0.03224408722959507,-0.16060549574601046,-0.5024383057440005,-0.3671247039930146,0.08499865894732833,3.039334829406156,-0.5894691209582038,-4.06442032067051e-05,-5.890956255541294e-05,-0.00030329327262201995,-0.0001373369111681533,-0.0008599305740903461,0.0008549060942922229,-0.001125004845471062,0.39442890882492065,-1.2122067970088501,1.6866658369647425,-2.069186349908346,-1.533130947743551,2.3525304794311523,0.00021280063083395362,-1.5991825421224348e-05,0.0007907378021627665,-0.0019473080756142735,0.00042852747719734907,0.001348926336504519,0.1149216815829277,0.47884035110473633,-9.615114212036133,0.8112748265266418,47.712860107421875,-0.23492097854614258,-4.125094890594482,-2.53444504737854,-0.40025049448013306,0.2546160817146301,0.11848440766334534,28.3125,29.5625,28.6875,32.75,35.25,36.4375
1.0002408000000287,-0.8360962986187482,-0.18399100487978293,-0.46362253796328823,0.031808328940562784,0.02166846820041277,-0.1643814366929643,-0.5024236354982845,-0.36711064588559816,0.08500907199730157,3.039357770924521,-0.5894556395444419,4.133605383147193e-06,0.0008464737898929733,7.768410233994226e-05,0.0004443398823474161,-0.00028793266103302353,-0.0007648960452726816,-0.0005753781964266693,0.394416868686676,-1.212243453865387,1.6866772810565394,-2.069125314752096,-1.533130947743551,2.352506399154663,0.0001526380656287074,-0.0018473350210115314,0.0012060164008289576,0.0012066258350387216,0.0005468284944072366,0.0007418353343382478,-0.24899697303771973,0.6703764796257019,-9.615114212036133,0.7508436441421509,47.681514739990234,-0.33145228028297424,-3.9591610431671143,-2.5669004917144775,-0.4534783363342285,0.28002363443374634,0.11670298874378204,28.3125,29.5625,28.6875,32.75,35.25,36.4375
1.0102512930025114,0.051936284824701875,0.329370300855356,0.18726860299316003,0.03328302814079692,-0.02588511048931261,0.0025679748882663053,-0.5024803799965561,-0.36710311027106923,0.08502395903350676,3.03929490253695,-0.5894974003674428,-0.00012124967109375442,0.00014455914005966585,-0.000493008871119585,0.00023620135648275473,-0.0016632764190841784,0.00014576093772059097,-0.0003350038180669287,0.3943689167499542,-1.2122188967517395,1.6866291205035608,-2.069197794000143,-1.5331304709063929,2.352494478225708,0.000118998323159758,-0.00048475086805410683,0.00030718333437107503,-0.0006201593787409365,0.0014668373623862863,0.0004894565790891647,0.26815059781074524,0.13407528400421143,-9.232041358947754,0.7575564384460449,47.6949462890625,-0.3056497573852539,-4.069003105163574,-2.5078296661376953,-0.3982413411140442,0.25337913632392883,0.12154390662908554,28.3125,29.5625,28.6875,32.75,35.25,36.4375
1.0202391519997036,0.4315664256795094,-0.44840991153985377,0.07319889728634069,0.019053556881840582,-0.031095651963840624,-0.012458321523948008,-0.502458184001232,-0.36710556510442954,0.08503882980246316,3.0392946293296137,-0.5894784669635391,-9.687383073328097e-05,-4.7706986682351003e-05,-0.00039285599406629554,0.00029557678844583936,-0.0012035491060349436,0.0003851973280084041,-0.0002446502319477252,0.39438095688819885,-1.2122668486884614,1.6866520086871546,-2.0691620312132777,-1.5331185499774378,2.352494478225708,9.750975004862994e-05,-0.000289637828245759,-0.00014637298590969294,-0.0003995095321442932,0.0009529014932923019,0.00036524818278849125,0.2106897532939911,0.3447650372982025,-9.097966194152832,0.7978386282920837,47.70927429199219,-0.32447564601898193,-4.066493034362793,-2.4598422050476074,-0.3915804624557495,0.2477949559688568,0.12154413759708405,28.3125,29.5625,28.6875,32.75,35.25,36.4375
1.030213296005968,0.017633722727452006,-1.4545599719806364,-0.6491712990722918,-0.036321271145766144,-0.007397953883079666,0.0004927216836191277,-0.5024461106040666,-0.36709665350850673,0.08500558703602265,3.0393230570517185,-0.5895608193991133,-2.7064944509702675e-05,0.0001794580778536544,-0.0002460675570559176,0.00010749029870523813,-0.0007446513720141074,-0.00037164793664646044,-0.00018869203977208923,0.39438095688819885,-1.2122308176806946,1.6866768042193812,-2.0691620312132777,-1.5331304709063929,2.352541923522949,8.259492460638285e-05,-0.0002065376756945625,-1.0595650579148241e-08,0.0002493965730536729,0.00082378089427948,0.0002913285861723125,0.13407528400421143,0.7852981090545654,-9.461885452270508,0.7553206086158752,47.72092056274414,-0.3710485100746155,-4.0215559005737305,-2.5520613193511963,-0.4048730134963989,0.22807997465133667,0.11636221408843994,28.3125,29.5625,28.6875,32.75,35.25,36.4375
1.040154314992833,-0.23127368103747625,-0.9661992791671605,-0.28579345308029797,0.015732938147531333,-0.025142353883608592,-0.0016559460233508327,-0.502449220916538,-0.3671173950029115,0.0850061846842784,3.0393208907928173,-0.5894267099612919,-6.0516018049327205e-05,0.0017503441445628288,0.0004958270157417108,-0.003266603898409507,0.0017376164562592264,-0.005818566370159959,-0.0001788844235760077,0.39440491795539856,-1.212217704658844,1.6866667906390589,-2.069197794000143,-1.533119026814596,2.3524818420410156,4.775832348968834e-05,0.0028191113378852606,0.003508530557155609,-0.00029966558213345706,0.0006328360177576542,0.00024230433336924762,0.28730422258377075,0.38307225704193115,-9.232041358947754,0.7732232213020325,47.6976318359375,-0.38473671674728394,-3.9024534225463867,-2.3389060497283936,-0.5118246078491211,0.2561182677745819,0.1146162748336792,28.3125,29.5625,28.6875,32.75,35.25,36.4375
1.0501424389949534,-0.34740730751551474,-0.3748469302690298,-0.3332177980046016,0.011677003979165382,0.00021456650189683336,0.00080000492156045,-0.5024629118640771,-0.36712309495676393,0.08500811845705272,3.0392627287043075,-0.5894708661830165,-0.00010521425188863904,-0.0002848665667066206,-0.0003320268836465285,-0.0023253626151321003,-0.0013220512651949345,0.0016553210778250031,-0.00015333449002390254,0.39439284801483154,-1.212218002682068,1.6866782347308558,-2.0692602596678675,-1.5330947081195276,2.352506160736084,4.216473098495044e-05,0.0023192293010652065,0.00400383397936821,-0.0083693265914917,0.0005682126502506435,0.00020740009495057166,0.2106897532939911,0.26815059781074524,-9.366117477416992,0.7687462568283081,47.694053649902344,-0.4594101309776306,-3.5256309509277344,-2.027400493621826,-0.570859432220459,0.2559871971607208,0.11825260519981384,28.3125,29.5625,28.6875,32.75,35.25,36.4375
1.0601570760045433,-0.9851593413054068,-1.17800973159357,-0.3213959855904085,0.0064131181424124575,0.011871842755009,0.009701119484281767,-0.502421558724276,-0.36714100886349543,0.08494026514488473,3.0392750767613737,-0.5894176141627803,7.766899431341253e-07,-0.0013189395600327614,-0.0007726168253576215,-0.0033760941591130895,-0.0035611678071260167,0.0069148620237843616,-0.00013368228045471093,0.3944288492202759,-1.2121697527221222,1.6867874304400843,-2.06936039547109,-1.5330589453326624,2.352506160736084,3.774397191591561e-05,0.00291692977771163,0.007921365089714527,-0.018599871546030045,0.0005989750497974455,0.00018128904048353434,0.019153613597154617,0.5363011360168457,-9.385271072387695,0.7374180555343628,47.6976318359375,-0.45365726947784424,-3.309141159057617,-1.9363281726837158,-0.6135888695716858,0.24942198395729065,0.12017916887998581,28.3125,29.5625,28.6875,32.75,35.25,36.4375
1.0701534889958566,-0.3125215239274789,-0.48855534404640577,0.32889577992410207,-0.00789625250495072,0.019600709140544667,-0.007168092570946178,-0.5024494235304433,-0.3671056246844429,0.08490295923384478,3.039271372409565,-0.5894340716488584,-0.00013754973221734678,-0.002865232492883909,-0.0013498667162352477,-0.005985410467247699,-0.005132157313757965,0.011193235367419037,-0.0001249146856740843,0.39438092708587646,-1.2121563714793702,1.6868961493121546,-2.0695554218687953,-1.533107105885641,2.3524699211120605,3.4162258089054376e-05,0.006898270454257727,0.011114598251879215,-0.030326446518301964,0.000385136780096218,0.00016128197603393346,0.1149216815829277,0.4405331015586853,-9.136273384094238,0.7732232213020325,47.703006744384766,-0.42797529697418213,-3.20454740524292,-1.7952989339828491,-0.6421190500259399,0.22124835848808289,0.1265948861837387,28.3125,29.5625,28.6875,32.75,35.25,36.4375
1.08012726099696,-1.0759882133122711,-0.9835715045694411,0.5649126034151644,-0.02604588955668647,0.02147031335475747,0.0003602013051790425,-0.5024904427459059,-0.3671383965499657,0.0848350270235074,3.0391760581544776,-0.589392090920652,-0.0003054589309102226,-0.005422033730032661,-0.0024027486679648316,-0.008155998755628164,-0.008289350697501441,0.01884470129892234,-8.17820138469287e-05,0.39439284801483154,-1.2120471757701416,1.6869810263263147,-2.0698963604369105,-1.5330832640277308,2.3524699211120605,3.120143082924187e-05,0.010868646204471588,0.014218355529010296,-0.045675694942474365,0.0003309421881567687,0.00011038387310691178,0.28730422258377075,0.4405331015586853,-9.02135181427002,0.7575564384460449,47.69136428833008,-0.5037002563476562,-3.123654842376709,-1.7004475593566895,-0.6157938241958618,0.2154354602098465,0.14714521169662476,28.3125,29.5625,28.6875,32.75,35.25,36.4375
1.0901265730062732,-0.6446569297080329,-1.2628243392153478,0.4535609173948686,-0.022506307180660844,0.031805200745913344,0.0002307580720605294,-0.5025537257565671,-0.36718469757004885,0.0847487586934357,3.0390197045311176,-0.5894115566751169,-0.0006142646509179997,-0.006095919386219233,-0.0026633106078290066,-0.01289550005555463,-0.008515231827612095,0.019487035978937403,-0.000560712072293564,0.39441680908203125,-1.211913065319397,1.6871145407306116,-2.0704146824278773,-1.5330708662616175,2.3525302410125732,2.871288415917661e-05,0.01717786118388176,0.019022388383746147,-0.057486534118652344,0.0002622274332679808,0.0005834642797708511,0.1149216815829277,0.5554547905921936,-8.9064302444458,0.7150384783744812,47.7218132019043,-0.4855155348777771,-3.223551034927368,-1.610044002532959,-0.5220915079116821,0.24547123908996582,0.1565929353237152,28.3125,29.5625,28.6875,32.75,35.25,36.4375
