Tylouw/Master_Thesis_Code/test_recorded_data/real_test3/insertion_1_2026-02-24_17-13-04.csv
timestamp[s],tcp_force_x[N],tcp_force_y[N],tcp_force_z[N],tcp_force_rx[Nm?],tcp_force_ry[Nm?],tcp_force_rz[Nm?],tcp_pose_x[m],tcp_pose_y[m],tcp_pose_z[m],tcp_pose_rx[rot_vec_x],tcp_pose_ry[rot_vec_y],tcp_pose_rz[rot_vec_z],tcp_velo_x[m/s],tcp_velo_y[m/s],tcp_velo_z[m/s],tcp_velo_rx[rot_vec_x/s],tcp_velo_ry[rot_vec_y/s],tcp_velo_rz[rot_vec_z/s],q1[rad],q2[rad],q3[rad],q4[rad],q5[rad],q6[rad],qd1[rad/s],qd2[rad/s],qd3[rad/s],qd4[rad/s],qd5[rad/s],qd6[rad/s],tool_acc_x,tool_acc_y,tool_acc_z,current_of_whole_robot[A],voltage_of_whole_robot[V],current_J1[A],current_J2[A],current_J3[A],current_J4[A],current_J5[A],current_J6[A],temp_J1[C],temp_J2[C],temp_J3[C],temp_J4[C],temp_J5[C],temp_J6[C]
7.38969974918291e-05,-0.14136685794966447,-0.19288613417896955,1.0369424354726047,0.024793209017405872,-0.006547836062707688,0.006878711479617626,-0.38151676808326074,-0.3495496044114321,0.08492771874121699,-3.078501828939165,0.6249114430041398,-0.00021174661545601847,-0.001323233378658638,-0.0007030830787075793,-0.000892764317161036,-0.0025580346937199676,0.004556880920527021,4.2979368439452175e-05,0.4791660010814667,-1.4235498023084183,1.9549759070025843,-2.10048832515859,-1.5707934538470667,2.454132556915283,-7.12716719135642e-05,0.0016528350533917546,0.0022229240275919437,-0.009099394083023071,0.0001528314605820924,-0.00011358402116457,0.13407529890537262,0.038307227194309235,-8.542511940002441,0.7575564384460449,47.73883056640625,-0.06172509491443634,-3.430396556854248,-2.5365331172943115,-0.34733957052230835,0.06835734844207764,-0.262441486120224,28.25,29.5625,28.75,32.8125,35.1875,36.4375
0.0005122549919178709,-0.9429361360770112,-1.1702241049075692,-0.14318129245488773,0.002099020940919916,-0.0017392823905655105,0.0035298355267603227,-0.3815185324005192,-0.34952201405708405,0.08488196428670103,-3.0784113946590637,0.6248735512990468,-0.00033776217660001865,-0.004369172604246667,-0.002245286713710756,-0.00328500548890553,0.002182721059296636,-0.00444386486789298,2.787035989989957e-05,0.47914189100265503,-1.423472286467888,1.9550192991839808,-2.1004497013487757,-1.5707815329181116,2.454108715057373,-0.0001295676629524678,0.017543386667966843,-0.012508276849985123,-8.575618267059326e-05,8.458195952698588e-05,-0.00014853227185085416,0.0,0.19153612852096558,-9.346963882446289,0.7060845494270325,47.68061828613281,-0.4355149269104004,-3.04901123046875,-3.0420360565185547,-0.37669143080711365,0.013695798814296722,-0.3147166073322296,28.25,29.5625,28.75,32.8125,35.1875,36.4375
0.01020682099624537,-1.9137461099888622,-2.8377766212128677,-1.0805594510951282,-0.0629922441352362,0.07166476478442871,-0.021035295108461687,-0.3815398661996858,-0.34952293809492474,0.08481964591686908,-3.0782588042458316,0.6249156479846808,-0.0006418961813204227,-0.008354954323924945,-0.002214357432042598,-0.0015705688581415934,0.0024496714806289065,-0.004805610327827229,0.005776763939229582,0.4791164696216583,-1.4232310962728043,1.9548476378070276,-2.1002799473204554,-1.5707696119891565,2.4541289806365967,-0.0038297614082694054,0.022190099582076073,-0.023216046392917633,0.006418121978640556,2.611525884432808e-09,-0.009592645801603794,-0.6129156351089478,0.7086837291717529,-10.017339706420898,0.7687462568283081,47.66718673706055,-0.5171467065811157,-2.484830856323242,-3.3196444511413574,-0.4097920060157776,-0.02371268719434738,-0.23723375797271729,28.25,29.5625,28.75,32.8125,35.1875,36.4375
0.020242960992618464,-1.3636408412094796,-0.6427465257171382,-0.8490950030792562,0.01638784949066606,0.03208675828645946,-0.06620811216557261,-0.3816720136389116,-0.3495706237415699,0.08482021711236676,-3.078321076708776,0.624760338518477,-0.0005827873287494954,-0.015868882707689266,-0.002656830118044133,7.323444012574479e-05,0.00223703211095358,0.0006789661732184367,-0.002107898753082822,0.4790789783000946,-1.4229636502316971,1.954543415700094,-2.1002913914122523,-1.570770565663473,2.453986883163452,-0.008592010475695133,0.03108922578394413,-0.037166714668273926,0.00651362631469965,-0.0023671495728194714,-0.0064569516107439995,-0.24899697303771973,0.038307227194309235,-9.634267807006836,0.7441308498382568,47.685096740722656,-0.618858814239502,-2.512571096420288,-3.1941721439361572,-0.33700960874557495,-0.0582166388630867,-0.23241958022117615,28.25,29.5625,28.75,32.8125,35.1875,36.4375
0.03023799299262464,-1.4081009023712354,-0.45036037390892514,-0.3512155684275854,0.041555875456879304,-0.0008487529688241523,-0.08804987917307612,-0.3818908253343547,-0.3495946861006268,0.08485754568163023,-3.0783090690317514,0.6249895316311527,-0.000457273322267331,-0.021864089329375027,-0.0025329458540698873,0.002386038419693256,0.003807938881351804,0.005194699264514099,-0.004967806598619274,0.4789336621761322,-1.422649310236313,1.9540851751910608,-2.1002308330931605,-1.5707953611956995,2.453986406326294,-0.012266737408936024,0.03681597113609314,-0.04983951896429062,0.010188019834458828,-0.005861110985279083,-0.007258489727973938,-0.07661445438861847,-0.05746084079146385,-9.59596061706543,0.7486078143119812,47.71733474731445,-0.6825921535491943,-2.498479127883911,-3.1326193809509277,-0.2960553765296936,-0.11800693720579147,-0.2753833532333374,28.25,29.5625,28.75,32.75,35.1875,36.4375
0.04024376699817367,-1.8202370256143428,-1.673327292489954,-0.4823415678277753,-0.010339022722272651,0.010901072748639797,-0.11307509729972616,-0.38212763222934815,-0.3496129170760804,0.08489252497571856,-3.078205520413617,0.6250637399307952,-0.0003527628619340046,-0.02626381000504361,-0.0005983504461757153,0.001836785828791721,0.011343482097223061,0.00600213514239349,-0.005877449124192349,0.47881245613098145,-1.4222504508546372,1.953508202229635,-2.1000496349730433,-1.5709055105792444,2.453925132751465,-0.015529063530266285,0.044602952897548676,-0.05827552452683449,0.01361577957868576,-0.012932481244206429,-0.009592262096703053,-0.26815059781074524,0.3447650372982025,-9.59596061706543,0.7777001857757568,47.71733474731445,-0.6170145273208618,-2.2817506790161133,-3.389416217803955,-0.2894645631313324,-0.027879804372787476,-0.25657719373703003,28.25,29.5625,28.75,32.75,35.1875,36.4375
0.05024575800052844,-1.344783148059636,-2.3274663498944146,-0.28552765418064213,-0.004823344810992329,0.004208803963859673,-0.14370578240094317,-0.38241372972191223,-0.3496582325622523,0.08493352438733731,-3.078188440313361,0.625155021771956,-0.00023493050612811888,-0.030599968678206284,-0.0035428017738619306,0.0029723904254677427,0.006215065970608174,0.006690381423708356,-0.004903478160413723,0.4786560833454132,-1.4217793506434937,1.952845875416891,-2.099917551080221,-1.5709527174579065,2.4538283348083496,-0.0168310459703207,0.05257516726851463,-0.07023308426141739,0.01460955385118723,-0.008721350692212582,-0.011870188638567924,-0.2106897532939911,0.47884035110473633,-9.385271072387695,0.7665104269981384,47.68598937988281,-0.6904226541519165,-2.008122444152832,-3.422794818878174,-0.2261093258857727,-0.11713369935750961,-0.27447113394737244,28.25,29.5625,28.75,32.75,35.1875,36.4375
0.060236065997742116,-0.5725601424002147,-0.6476981480169667,0.2935082581668738,0.020300249420822467,0.015337657513861031,-0.1754948200944831,-0.38276290023211507,-0.34973104473612393,0.08497868811683318,-3.0781839032746343,0.6252687866267289,-4.714709937971358e-05,-0.03546652759859427,-0.0025844526069549838,0.002573288480251317,0.01350490874114741,0.00826049130538873,-0.004461893935010879,0.47849932312965393,-1.4211874616197129,1.952040974293844,-2.0998088322081507,-1.5710151831256312,2.4537436962127686,-0.018700767308473587,0.06204499676823616,-0.08090562373399734,0.01779833249747753,-0.015930237248539925,-0.014163040556013584,-0.038307227194309235,0.26815059781074524,-9.117119789123535,0.7866488099098206,47.723602294921875,-0.6893537044525146,-1.9083251953125,-3.423597812652588,-0.16832730174064636,-0.08030964434146881,-0.25457754731178284,28.25,29.5625,28.75,32.75,35.1875,36.4375
0.0702348649938358,-1.0276170586855717,-1.1079018057127041,-0.29927009373695246,0.03874317787026369,0.02792105706013121,-0.1348658486649569,-0.3831157241100086,-0.34978032946712656,0.08501470366722536,-3.0780864462584363,0.6252867720244928,6.618963722250306e-05,-0.04001190350519993,-0.00536549703979935,0.004138231102912237,0.009926973161777465,0.008161563883100662,-0.00500652124299345,0.478331059217453,-1.4205480229905625,1.9511750380145472,-2.0995804272093714,-1.5711334387408655,2.453599691390991,-0.01986992545425892,0.07048531621694565,-0.09513707458972931,0.022014055401086807,-0.0127293411642313,-0.014785943552851677,-0.13407529890537262,0.28730422258377075,-9.404424667358398,0.8336543440818787,47.681514739990234,-0.690861701965332,-1.8072128295898438,-3.4131579399108887,-0.1272919774055481,-0.109571173787117,-0.20919664204120636,28.25,29.5625,28.75,32.75,35.1875,36.4375
0.08030695299385116,-1.3164832383922933,-2.610054088985274,-0.8989245803377179,-0.0027120039702467564,0.026023076513980357,-0.13550962178066425,-0.3835188491043869,-0.3498193450358644,0.08501656934277835,-3.0778919083111806,0.6253620528033086,8.287137621409888e-05,-0.04320130652756579,-0.005658077994166498,0.0023329338714933273,0.01429842332104667,0.0019301089859277676,-0.006247929915512601,0.4781143367290497,-1.4197389346412201,1.9501784483539026,-2.099290510217184,-1.5712783972369593,2.4534554481506348,-0.021658441051840782,0.08271728456020355,-0.10662118345499039,0.02880873717367649,-0.013753768987953663,-0.015323563478887081,-0.24899697303771973,0.363918662071228,-9.615114212036133,0.8179876208305359,47.71017074584961,-0.696364164352417,-1.6307294368743896,-3.5077433586120605,-0.11441722512245178,-0.10360419750213623,-0.18673580884933472,28.25,29.5625,28.75,32.75,35.1875,36.4375
0.09023797599365935,-1.3824540427964775,-1.74494819575808,-0.5367995243475246,0.00028657906298507323,0.01523679883513745,-0.12515172821079615,-0.38400571637921005,-0.34989924136402617,0.08508075696537759,-3.077809072326967,0.6254394436480519,0.0002814825420381244,-0.05068371963836459,-0.008141781159927223,0.0035392711907436926,0.013146625190939058,0.004988163799071479,-0.00649699886227682,0.4778856337070465,-1.4188936215690156,1.949000660573141,-2.0990148983397425,-1.5714109579669397,2.4532864093780518,-0.023878777399659157,0.09580869227647781,-0.1248803436756134,0.030726144090294838,-0.01417344156652689,-0.01728428527712822,-0.3064578175544739,0.3064578175544739,-9.557653427124023,0.8605108857154846,47.73524856567383,-0.7495392560958862,-1.7825149297714233,-3.2044577598571777,-0.06281179934740067,-0.12687158584594727,-0.17050591111183167,28.25,29.5625,28.75,32.75,35.1875,36.4375
0.10024033999070525,-1.5858661773344565,-1.927900656384435,-0.3074937674925632,-0.005581274379398982,0.030976886700259554,-0.12205927884606484,-0.3845216706218318,-0.3500054956549146,0.08510760592223332,-3.0776828765869366,0.6255090615654729,0.0003604014899803895,-0.054136555605683485,-0.008844943175872751,0.001537173076497252,0.015775829910917985,1.6426904446725476e-05,-0.007839523569952274,0.4776690602302551,-1.41786843658004,1.9476926962481897,-2.0987020931639613,-1.5715301672564905,2.4531302452087402,-0.025736643001437187,0.1081642359495163,-0.13544264435768127,0.03455153480172157,-0.01423789281398058,-0.017792869359254837,-0.15322890877723694,0.5363011360168457,-9.346963882446289,0.7911257743835449,47.72092056274414,-0.7473500967025757,-1.7998180389404297,-3.3608059883117676,-0.020635629072785378,-0.13431766629219055,-0.15867823362350464,28.25,29.5625,28.75,32.75,35.1875,36.4375
0.11023736499191727,-0.259601667631308,-0.967805711522244,0.24573049386135604,0.04008013672723343,-0.004819803442488158,-0.12548329891016607,-0.38511846226962154,-0.35012168431036556,0.08514977841278751,-3.077577453550069,0.6256410796441881,0.0005369427103287239,-0.05738480208847522,-0.008904966850850848,-0.0014443069913401118,0.020480978234835943,-0.005436132654588266,-0.009562127636272576,0.4774044156074524,-1.416746811275818,1.9462435881244105,-2.0984136066832484,-1.5716632048236292,2.4529623985290527,-0.027559513226151466,0.121454618871212,-0.14467769861221313,0.03750104084610939,-0.015926089137792587,-0.01788470521569252,-0.13407529890537262,0.19153612852096558,-8.983044624328613,0.8403671979904175,47.7164421081543,-0.7955236434936523,-1.9434244632720947,-3.4463977813720703,0.0580466091632843,-0.1779385507106781,-0.14890360832214355,28.25,29.5625,28.75,32.75,35.1875,36.4375
0.12023894299636595,-0.9295480201355978,-0.5698993139541084,0.24934486807035994,0.04023357713749111,-0.0009816907414119547,-0.12559167042351166,-0.3856997559590568,-0.350210797787486,0.08516261863053873,-3.0773277604234646,0.6257814033329547,0.0005299021387555322,-0.060167135861110735,-0.008655813946857013,-0.0007794796899416743,0.025786901550531937,-0.013062551972702443,-0.010958857632130104,0.4771277904510498,-1.4155546736768265,1.9447429815875452,-2.0979653797545375,-1.571831528340475,2.452806234359741,-0.02977379411458969,0.1299131065607071,-0.15961195528507233,0.05318428575992584,-0.017140105366706848,-0.018692107871174812,-0.09576806426048279,0.15322890877723694,-8.983044624328613,0.8403671979904175,47.68598937988281,-0.7903280258178711,-1.795137882232666,-3.3334569931030273,-0.021688949316740036,-0.20489075779914856,-0.13711874186992645,28.25,29.5625,28.75,32.75,35.1875,36.4375
0.13024798600235954,-1.338407106132432,-1.9629476783739204,-0.6371261716465598,-0.010655979327138862,0.04674304363719927,-0.12994755092608756,-0.3862892454731553,-0.3502831537838233,0.08514282514228871,-3.0769519661321456,0.6258566814687054,0.00025778332386838327,-0.06196737706624755,-0.007762666599001855,-0.0020041814309671663,0.03209609589762899,-0.02206091532604964,-0.012891133063011723,0.47681495547294617,-1.4142184865525742,1.9431012312518519,-2.0973030529417933,-1.5720003286944788,2.452589511871338,-0.0320512019097805,0.13909541070461273,-0.17036202549934387,0.0656389370560646,-0.01862458698451519,-0.019023489207029343,-0.3064578175544739,0.5363011956214905,-9.53849983215332,0.7956027388572693,47.700321197509766,-0.8213198781013489,-1.6745595932006836,-3.4026403427124023,-0.2940365672111511,-0.2600069046020508,-0.17867130041122437,28.25,29.5625,28.75,32.75,35.1875,36.4375
0.1402371430012863,-1.613403927813779,-1.8780259174182354,-0.6364450486001288,-0.029989132103896497,0.044079286067201406,-0.12834934882266796,-0.38695471819374394,-0.3503815662725308,0.08512596524161065,-3.076591092358083,0.6260309290876521,4.89859168522604e-05,-0.0689316207071595,-0.010411861116849969,-0.003353129842195167,0.029761814577468022,-0.0159842210064376,-0.013981639129496775,0.47647857666015625,-1.412747935657837,1.941303555165426,-2.0966721973814906,-1.5721681753741663,2.452409267425537,-0.03322261944413185,0.15315432846546173,-0.18153919279575348,0.05628008022904396,-0.019400695338845253,-0.01908782497048378,-0.24899697303771973,0.4405331015586853,-9.634267807006836,0.7911257743835449,47.704795837402344,-0.8837250471115112,-1.6845186948776245,-3.50736403465271,-0.34490966796875,-0.2685692012310028,-0.22993344068527222,28.25,29.5625,28.75,32.75,35.1875,36.4375
0.15023926299181767,-1.2459346605796158,-1.3998967613763134,-0.41985441199004114,0.008221395190644836,0.006722434788586736,-0.12081714431107023,-0.3876974875918724,-0.3505128169098711,0.08510962509069414,-3.076265743317387,0.626212484293317,6.114266270115027e-05,-0.07715900085832765,-0.013297805204527044,-0.002464118142858776,0.02519383092145336,-0.00428232751122208,-0.013102539882150065,0.4761660397052765,-1.4111588311246415,1.9393985907184046,-2.096184869805807,-1.5723965803729456,2.4522531032562256,-0.03475993126630783,0.1637435257434845,-0.19347861409187317,0.04512673616409302,-0.020771723240613937,-0.02148822322487831,-0.038307227194309235,0.26815059781074524,-9.53849983215332,0.8560339212417603,47.71017074584961,-1.0265271663665771,-2.006761074066162,-3.6845884323120117,-0.161279559135437,-0.32408761978149414,-0.2387537956237793,28.25,29.5625,28.75,32.8125,35.1875,36.4375
0.1602415499946801,-1.0572493516015682,-1.8670267502511848,-0.4303641293677333,-0.017904687910578344,0.01351189018929571,-0.1259986300114796,-0.3885381752450067,-0.35064759987963373,0.08512758395329253,-3.0760633401671873,0.6263217769309901,0.00021913238284443313,-0.08312854472097247,-0.015014916115705074,-0.0009142733594571215,0.025205320608758942,-0.002791722542570443,-0.012918831531383877,0.4757574200630188,-1.4095221173814316,1.9373729864703577,-2.0957638225951136,-1.5726011435138147,2.4519400596618652,-0.03664048761129379,0.1737278252840042,-0.20996996760368347,0.05029992014169693,-0.021498316898941994,-0.023541785776615143,-0.15322890877723694,0.49799394607543945,-9.327810287475586,0.8358902335166931,47.693153381347656,-1.0695914030075073,-1.9190109968185425,-3.3962812423706055,-0.06706148386001587,-0.36957406997680664,-0.26424962282180786,28.25,29.5625,28.75,32.8125,35.1875,36.4375
0.17024368299462367,-0.8672740205861231,-1.0305114146414591,0.11969410407581046,0.005410405296342175,0.02700089174512595,-0.12830358052420235,-0.3893707937076552,-0.3508143544435411,0.08511714233915027,-3.0757548103042587,0.6264101997316004,0.00019575553994811642,-0.08753825480128223,-0.014907501572340512,-0.00038911709173508694,0.02736872501929525,-0.003655359543321247,-0.013410149506838095,0.4754202961921692,-1.4077299249223252,1.9351947943316858,-2.0951878033080042,-1.572817627583639,2.4516992568969727,-0.03980683907866478,0.1814027726650238,-0.22163023054599762,0.05603105202317238,-0.023052074015140533,-0.026202883571386337,-0.24899697303771973,0.363918662071228,-9.251194953918457,0.9119828343391418,47.694053649902344,-1.1316195726394653,-1.8545773029327393,-3.5775961875915527,-0.00967916939407587,-0.4132227897644043,-0.2852029800415039,28.25,29.5625,28.75,32.8125,35.1875,36.4375
0.1802724360022694,-0.514953811694622,-0.29904214330560686,0.11105945646222143,0.048166843668150085,0.0206758642488995,-0.13134181864492533,-0.39027971062844313,-0.35097187341270075,0.08507401199758793,-3.0754057341620817,0.6266054450354965,0.00013631221440198922,-0.0894930051224596,-0.0130079987296483,-0.002610738721123726,0.03665845704139476,-0.015787950908959715,-0.015320698593934,0.47499921917915344,-1.4057678592256089,1.9328959623919886,-2.0946318111815394,-1.5730345884906214,2.451446533203125,-0.04316870868206024,0.19294142723083496,-0.23379749059677124,0.07168903946876526,-0.025769928470253944,-0.027635961771011353,-0.2106897532939911,0.0,-9.193734169006348,0.8605108857154846,47.65284729003906,-1.0848993062973022,-1.8795026540756226,-3.4838814735412598,-0.05036000534892082,-0.4555695652961731,-0.3290052115917206,28.25,29.5625,28.75,32.8125,35.1875,36.4375
0.19024444599926937,-0.8571279829210546,-0.7803867447784457,0.039808531415900586,0.02086968382284835,0.032756242985853695,-0.1315713570019642,-0.39118018085729045,-0.3510888585250687,0.08503915869472206,-3.0748825025318838,0.6266870534527345,-8.818096846374731e-05,-0.09348738884973161,-0.01154332460258087,-0.0026411697655729562,0.0452848480799055,-0.020930370082197784,-0.01682384054099364,0.4745662808418274,-1.4037705820849915,1.9304664770709437,-2.0937773189940394,-1.573336426411764,2.4511337280273438,-0.04604959115386009,0.20279940962791443,-0.24853315949440002,0.08507945388555527,-0.03112231381237507,-0.02897745743393898,-0.17238251864910126,0.15322890877723694,-9.21288776397705,0.8179876208305359,47.6734504699707,-1.0938332080841064,-2.040639638900757,-3.439100742340088,-0.3072702884674072,-0.45542478561401367,-0.3751603960990906,28.25,29.5625,28.75,32.8125,35.1875,36.4375
0.20023934300115798,-1.725748937138622,-2.386172376841201,-0.4410332836066281,-0.022370023174618836,0.06707339030575293,-0.12419017291340251,-0.39212332373341713,-0.3511750858130005,0.08496984093556575,-3.0742431050608103,0.626897183120078,-0.00030323177238377873,-0.10290982826922021,-0.012113870625093288,-0.000957192033609692,0.045615030103997145,-0.00411588850344917,-0.016676341653997208,0.4740854799747467,-1.4016660910895844,1.9279897848712366,-2.0929323635497035,-1.5737112204181116,2.450868606567383,-0.04864969477057457,0.2108076512813568,-0.2593393921852112,0.07306382805109024,-0.03918382525444031,-0.031669486314058304,-0.26815059781074524,0.3064578175544739,-9.461885452270508,0.8851262927055359,47.70121383666992,-1.0455255508422852,-1.8841087818145752,-3.557032585144043,-0.27271074056625366,-0.34594279527664185,-0.3564300239086151,28.25,29.5625,28.75,32.8125,35.1875,36.4375
0.21024987299460918,-0.9198511357236809,-1.1283062805136619,-0.5658562479374619,-0.026773593291929878,0.057216719318152864,-0.13321927241477585,-0.39319936762363594,-0.3512882336661451,0.08490421099011808,-3.0737034375740837,0.6269736657656448,-0.00023649939391809648,-0.11071258488675827,-0.012237741923210529,-0.001245506007449703,0.04566771692941148,0.001603892373040307,-0.015307746412917635,0.4735678434371948,-1.3993918013623734,1.925345245991842,-2.092274328271383,-1.57414418855776,2.4504706859588623,-0.0536549910902977,0.22212591767311096,-0.2712814211845398,0.06857554614543915,-0.041916657239198685,-0.03801313787698746,-0.325611412525177,0.325611412525177,-9.634267807006836,0.9164597988128662,47.70748519897461,-0.9459167122840881,-2.1399879455566406,-3.8503103256225586,-0.08320203423500061,-0.21748599410057068,-0.28819841146469116,28.25,29.5625,28.75,32.8125,35.1875,36.4375
0.22024717499152757,-1.3114209590867416,-1.7117789311034242,-0.9030366028227795,0.011399065393578933,-0.0069518552131798365,-0.11505598449575934,-0.3943691859094905,-0.3514205769303282,0.08491869909455549,-3.073245904713651,0.6270848357373837,5.621386323193652e-05,-0.11800854680946858,-0.014651914538584155,0.00042141380662544,0.04350705015518895,0.0025434050234334512,-0.013150552501985324,0.4730147123336792,-1.3971177202514191,1.9225075880633753,-2.09159054378652,-1.574599568043844,2.4500484466552734,-0.05661512911319733,0.23456546664237976,-0.29136279225349426,0.07433127611875534,-0.04048282280564308,-0.04312308505177498,-0.1149216815829277,0.24899697303771973,-9.730035781860352,0.8426030278205872,47.651058197021484,-0.7909864187240601,-2.2472128868103027,-3.470914363861084,0.0187950748950243,-0.14587447047233582,-0.1701831966638565,28.25,29.5625,28.75,32.8125,35.1875,36.4375
0.23023943199950736,-1.1760737012185076,-0.8283859154035731,-0.415265102727947,0.03163428811656894,-0.0018653126908823245,-0.12111478674538254,-0.3955261121398186,-0.3515747052420646,0.08487973600841789,-3.0727734384736514,0.6273130756441628,-6.175011451420345e-05,-0.11602187635744493,-0.014032727580017404,0.0007667900121802989,0.04454861382207012,-0.015144367873246647,-0.018194193227269874,0.47241368889808655,-1.3946904403022309,1.9195764700519007,-2.0907684765257777,-1.5748847166644495,2.449653387069702,-0.0598432719707489,0.2371530383825302,-0.3009331226348877,0.09748394042253494,-0.03334697708487511,-0.04132946953177452,-0.15322890877723694,0.19153612852096558,-9.519346237182617,0.8940802216529846,47.67703628540039,-0.7466610074043274,-1.8700993061065674,-3.6751441955566406,-0.1622837781906128,-0.16568948328495026,-0.1157836839556694,28.25,29.5625,28.75,32.8125,35.1875,36.4375
0.2402378580009099,-1.2290293809553265,-1.1888118985384968,-0.761319911252749,0.012296665602225589,0.014342093462532401,-0.13062131247850367,-0.3967371229396085,-0.3516984101518202,0.0849219544337152,-3.072228874333943,0.6275640937170716,-9.213008520565643e-05,-0.12229710651946514,-0.016548380963714658,0.00040881683664480796,0.042912201033340376,-0.01754054610713279,-0.02575827834853641,0.4717649221420288,-1.3923067611506958,1.9164536635028284,-2.0897137127318324,-1.575256649647848,2.4492344856262207,-0.062271598726511,0.25212323665618896,-0.31922248005867004,0.1021718680858612,-0.030845103785395622,-0.036187656223773956,-0.07661445438861847,0.1149216815829277,-9.481039047241211,0.8851262927055359,47.700321197509766,-0.5724741220474243,-2.1372230052948,-3.361225128173828,-0.31074416637420654,-0.19501620531082153,-0.10386984050273895,28.25,29.5625,28.75,32.8125,35.1875,36.4375
0.25023790200066287,-1.1962824905249123,-2.28381649065958,-0.6733931561816705,-0.016608686415933077,0.015546666184145703,-0.11973889190577898,-0.3980025039038885,-0.3518556316686539,0.08492541773128132,-3.071704551919276,0.6279353857003179,-3.7656245560899434e-05,-0.13062264402156037,-0.019939556917852985,0.002380766800467566,0.0339644467056283,0.0005325342214660916,-0.03228444073296235,0.4711286127567291,-1.389770747428276,1.9132722059832972,-2.0888225040831507,-1.5756285826312464,2.4489006996154785,-0.06333478540182114,0.25802671909332275,-0.32715266942977905,0.08402883261442184,-0.031144585460424423,-0.03071007877588272,-0.26815059781074524,0.4405331015586853,-9.53849983215332,0.8761723637580872,47.723602294921875,-0.5238217711448669,-1.8487002849578857,-3.732663154602051,-0.08203456550836563,-0.21279972791671753,-0.1744627207517624,28.25,29.5625,28.75,32.8125,35.1875,36.4375
0.26023952799732797,-1.0762941853364572,-2.4470200036922085,-0.5746453204747394,-0.03216301745622437,0.03333027866222012,-0.1280949897710832,-0.399339341848644,-0.3520795955874143,0.08496079906814505,-3.0712761956969357,0.6283774124907099,4.736261095464633e-05,-0.13292472141471878,-0.022140440088226184,0.002089774004716219,0.03724228366514501,-0.004859148946082206,-0.028752601303613845,0.47050538659095764,-1.3871123653701325,1.9098628203021448,-2.0879088840880335,-1.5759285132037562,2.4486117362976074,-0.060983166098594666,0.2688257396221161,-0.34216928482055664,0.0945059135556221,-0.03164976090192795,-0.03187708556652069,-0.05746084079146385,0.38307225704193115,-9.615114212036133,0.965690553188324,47.71196365356445,-0.8361285328865051,-1.8754498958587646,-3.6025683879852295,0.004772452171891928,-0.2548803389072418,-0.2353869527578354,28.25,29.5625,28.75,32.8125,35.1875,36.4375
0.27024874999187887,0.5365715506915366,-0.09124976802227472,0.014321931416756022,0.047872902078839874,-0.05250917734944591,-0.12406907269210525,-0.4007181058093796,-0.3523226504913172,0.08500412155558348,-3.070871302080831,0.6287310875114931,0.0001417128785334711,-0.13429668732574188,-0.021724274156422876,0.0016809401395595303,0.04480229017759026,-0.018359663460842134,-0.028396025411422193,0.4698811173439026,-1.3843703877976914,1.9063213507281702,-2.0869552097716273,-1.576228443776266,2.448263645172119,-0.06224089488387108,0.2791823446750641,-0.3590379059314728,0.11644310504198074,-0.03228864446282387,-0.03347821906208992,0.13407529890537262,0.24899697303771973,-9.174580574035645,0.9119828343391418,47.66449737548828,-0.847041130065918,-1.888246774673462,-3.4555935859680176,-0.21394798159599304,-0.31693634390830994,-0.30607500672340393,28.25,29.5625,28.75,32.8125,35.1875,36.4375
0.2802371079887962,-1.3406772744856892,-2.0810850936917618,0.15245829467631689,-0.022398226604490167,0.06100658620114272,-0.12630188023328082,-0.4020660415123862,-0.3525595154151282,0.0850429630256242,-3.070334041883667,0.6289790462988173,6.294239241629389e-05,-0.1418724173685755,-0.023662532665115532,0.0023993478386429012,0.04112449626714502,-0.006469043353837196,-0.029088669412183778,0.4693046808242798,-1.3815810990384598,1.9026740233050745,-2.0857626400389613,-1.5765774885760706,2.4479150772094727,-0.06400365382432938,0.28767532110214233,-0.36896440386772156,0.10558036714792252,-0.03447076678276062,-0.03451923280954361,-0.15322890877723694,0.28730422258377075,-9.308656692504883,0.9209314584732056,47.657325744628906,-0.9980828762054443,-1.6277477741241455,-3.536520004272461,-0.13436253368854523,-0.3674125671386719,-0.3728231191635132,28.25,29.5625,28.75,32.8125,35.1875,36.4375
0.2902388009970309,-1.192302278612975,-0.8285580417228691,0.0959506809503631,0.017434978234026746,0.03432212694929862,-0.1319836046953417,-0.40350695989860746,-0.35281191292928177,0.08505622650463815,-3.0698210731605657,0.6292682507665607,0.00017129968544177064,-0.1470486022739998,-0.024381914653639734,0.00021900985949560939,0.04809780696053506,-0.004144110558776156,-0.025405167821207164,0.4687052369117737,-1.3786337238601227,1.8989303747760218,-2.084745546380514,-1.5769766012774866,2.447566270828247,-0.06275416910648346,0.3017917573451996,-0.381279319524765,0.10483293235301971,-0.04180522635579109,-0.03689372166991234,-0.2106897532939911,0.3064578175544739,-9.289502143859863,0.9298853874206543,47.68867492675781,-1.1510303020477295,-1.8171160221099854,-3.6568679809570312,0.010616244748234749,-0.38286060094833374,-0.43363523483276367,28.25,29.5625,28.75,32.8125,35.1875,36.4375
0.30024382199917454,-1.4178448367076149,-0.1913374591655665,0.6875373431231685,0.03529348528413041,0.011686720147838179,-0.12263636576470231,-0.40501014164569865,-0.35305313982130865,0.0850312100419722,-3.069210531471106,0.6294585252548829,0.00013989670655329493,-0.1482666183917843,-0.01993221295907542,0.00040123529262274993,0.06444754031942702,-0.017642946403945935,-0.021210499422466063,0.4680560529232025,-1.375472055082657,1.894982639943258,-2.083597799340719,-1.5774114767657679,2.4471192359924316,-0.06618469208478928,0.3086066246032715,-0.39691346883773804,0.1330137401819229,-0.05034463852643967,-0.0444442443549633,-0.47884035110473633,0.17238251864910126,-9.002198219299316,0.9455521702766418,47.69136428833008,-1.1427310705184937,-1.5816304683685303,-3.5806150436401367,-0.21658971905708313,-0.28762733936309814,-0.4183058738708496,28.25,29.5625,28.75,32.8125,35.1875,36.4375
0.3102476310014026,-1.3016852932820429,-0.3865946686606024,0.46145916655268643,0.0377785967577694,0.03836008517359793,-0.1246827539997668,-0.4065326342866599,-0.35322200701202183,0.08498216484297852,-3.0683700709819823,0.6296180210861658,3.965007005776604e-05,-0.1606760952778635,-0.022104781723506602,0.0016778834377279214,0.06108547027281931,-0.0015512736120621823,-0.0159954280580172,0.4673585891723633,-1.3722359550050278,1.8909509817706507,-2.0822626552977503,-1.578000847493307,2.4466357231140137,-0.07034341245889664,0.3232680857181549,-0.4154285490512848,0.12087446451187134,-0.05477112904191017,-0.05375080928206444,-0.2298433631658554,-0.05746084079146385,-9.002198219299316,0.8851262927055359,47.68061828613281,-1.0771172046661377,-1.905928611755371,-3.306187152862549,-0.11755353957414627,-0.17100073397159576,-0.28663256764411926,28.25,29.5625,28.75,32.8125,35.1875,36.4375
0.3202439349988708,-1.8154312249399043,-2.7915632917705935,-1.0873608301721795,-0.02156531614886075,0.021696057005627694,-0.11442172251340968,-0.40810508218120845,-0.3534024367107657,0.08491022254466368,-3.067596015804174,0.6296624745282668,-0.00010998612660659066,-0.1644042158133977,-0.021109699593496935,-2.3859922584757573e-05,0.058883585335571254,-0.006343133591097884,-0.020924434165422952,0.46661219000816345,-1.368881569509842,1.88682729402651,-2.080956598321432,-1.5785391966449183,2.4460229873657227,-0.07716798037290573,0.33112668991088867,-0.42244434356689453,0.12322225421667099,-0.050721585750579834,-0.05564740300178528,-0.5363011956214905,0.5554547905921936,-9.691728591918945,0.9701675176620483,47.660911560058594,-0.7208621501922607,-1.9499006271362305,-3.804765224456787,-0.009902488440275192,-0.12076270580291748,-0.13770438730716705,28.25,29.5625,28.75,32.8125,35.1875,36.4375
0.33024030999513343,-1.0464085890304098,-2.053097973302572,-1.0766860642224354,-0.012275526728783966,0.03244998546434672,-0.12072221610503417,-0.40974892518725003,-0.3536248931725448,0.08489599836143907,-3.066880706201215,0.6299528330254066,-0.0002624113442616034,-0.16172176405526298,-0.021130112181172604,-0.005276576446287298,0.06370749588825604,-0.03267942699828743,-0.03212103390443187,0.46583178639411926,-1.3654659551433106,1.8824628035174769,-2.079536577264303,-1.5789931456195276,2.4455223083496094,-0.07869680225849152,0.3453187942504883,-0.43353933095932007,0.1458103209733963,-0.04316002130508423,-0.0460154227912426,0.05746084079146385,0.2298433631658554,-9.959878921508789,0.9477880001068115,47.63762283325195,-0.6316596865653992,-2.2650532722473145,-4.005218982696533,-0.34002166986465454,-0.2077483832836151,-0.14924365282058716,28.25,29.5625,28.75,32.8125,35.1875,36.4375
0.3402481410012115,-0.8674995533668194,-1.865360653632234,-1.0286315912259665,0.00743883243672733,-0.013864417855451724,-0.11967489459195181,-0.4114652793303777,-0.3538669396914184,0.08489258570873301,-3.066215584421388,0.6304631003283842,-0.00022883674264412507,-0.17484559466717456,-0.027784047110481512,0.001461039127847752,0.04620841776951693,-0.002846573167664033,-0.04057752996818324,0.4650275707244873,-1.3619933438352128,1.8780248800860804,-2.0782515011229457,-1.5794480482684534,2.4451286792755127,-0.0794144868850708,0.35019877552986145,-0.4509575664997101,0.12384124100208282,-0.040994226932525635,-0.038274794816970825,0.15322890877723694,0.19153612852096558,-9.864110946655273,0.9567419290542603,47.6734504699707,-0.6550207138061523,-1.9074435234069824,-3.7663025856018066,-0.007649315521121025,-0.29696035385131836,-0.2599255442619324,28.25,29.5625,28.75,32.8125,35.1875,36.4375
0.350245477995486,-0.5900137767023093,-1.4173363617986816,-1.2226453635742596,0.005504725629361558,0.008442608954089726,-0.11798441725711133,-0.4131978213773325,-0.3541517282950423,0.08493598563769661,-3.0656511006588376,0.6308154867336142,-0.00018216612956919981,-0.17379169072313153,-0.02751171231592212,-0.0011269081679298808,0.055941693897709276,-0.02156052149809076,-0.03661885607788401,0.46426019072532654,-1.3585223716548462,1.8734515349017542,-2.0768782101073207,-1.5798562208758753,2.444659948348999,-0.07830396294593811,0.3622589111328125,-0.46598926186561584,0.14783360064029694,-0.04134407639503479,-0.041105709969997406,-0.07661445438861847,0.4213795065879822,-9.691728591918945,0.9880701303482056,47.66718673706055,-0.833953857421875,-2.0176315307617188,-3.8149664402008057,-0.09558894485235214,-0.3999606966972351,-0.2868003249168396,28.25,29.5625,28.75,32.8125,35.1875,36.4375
0.3602511359931668,-0.8535170020964313,-1.4235846574459035,-0.706320350075795,-0.014518743832113374,0.019111348384696733,-0.12381105341140293,-0.41495657119895796,-0.3544343629468847,0.08497789234533723,-3.0649456974850517,0.6312312509389253,-0.00028795012320239184,-0.17948707019827959,-0.029216173030247507,-0.00015566862368177674,0.05950082144506571,-0.01404286871813839,-0.032655044641839805,0.46349313855171204,-1.354921818976738,1.8686612288104456,-2.075263639489645,-1.5803025404559534,2.4442505836486816,-0.07603362947702408,0.37140727043151855,-0.48036643862724304,0.14788918197155,-0.04798497259616852,-0.042716532945632935,0.2106897532939911,0.1149216815829277,-9.404424667358398,1.0082138776779175,47.69584274291992,-1.05206298828125,-1.927383542060852,-3.7752761840820312,-0.21916747093200684,-0.4326358437538147,-0.33794471621513367,28.25,29.5625,28.75,32.8125,35.1875,36.4375
0.37024246699002106,-0.7765557151783747,-0.7667996465344176,-0.31938217958160087,0.03185750333694557,0.02688105595213295,-0.1285571708788972,-0.4167901669103825,-0.3547597716694152,0.0850380859045789,-3.0643854165357505,0.6315257229273751,-6.595274514501235e-05,-0.18718697852835472,-0.0282610350960541,0.0020290302926335717,0.06712073916713765,-0.0015864039983569016,-0.027968718155243294,0.4627610743045807,-1.3512755197337647,1.8638127485858362,-2.073874612847799,-1.5807870070086878,2.4437808990478516,-0.07662767171859741,0.3781983256340027,-0.49459439516067505,0.14752107858657837,-0.06047515198588371,-0.04786723107099533,-0.28730422258377075,0.26815059781074524,-9.251194953918457,1.0484960079193115,47.668975830078125,-1.232029914855957,-1.5952861309051514,-3.908210515975952,-0.00604098429903388,-0.340259313583374,-0.322063684463501,28.25,29.5625,28.75,32.8125,35.1875,36.4375
0.38026205099595245,-2.2388677370425056,-0.9424555239569948,0.5316982114365896,0.032549676768529504,0.03630148437020225,-0.11754560082204384,-0.4187102836381437,-0.35500403342755893,0.08510622163489265,-3.0635703988015734,0.6318216551574969,0.0001394673861881926,-0.1913878011038629,-0.025250956595272465,0.00034910288218556956,0.08028263193457442,-0.011535932483019859,-0.023497513612518242,0.4619317650794983,-1.347494052057602,1.8587096373187464,-2.072204729119772,-1.5814617315875452,2.4432499408721924,-0.08049812912940979,0.39188507199287415,-0.5128157138824463,0.1666865348815918,-0.06793032586574554,-0.05611124262213707,-0.5746084451675415,0.17238251864910126,-8.9064302444458,1.012690782546997,47.6895751953125,-1.1240615844726562,-1.7537922859191895,-3.627603769302368,-0.24501293897628784,-0.20641818642616272,-0.20399898290634155,28.25,29.5625,28.75,32.8125,35.1875,36.4375
0.39024267499917187,-1.945423597653382,-2.676574773421012,0.11116840513504327,-0.04568474502868329,0.023312884018939127,-0.11859060677632265,-0.4206581370002079,-0.3552815923216736,0.08506543686277124,-3.0627242875224097,0.631862186578906,0.0002242055596266457,-0.20166344240239056,-0.03000534420014995,0.004147924135591403,0.06474441401256897,0.004041618963242041,-0.02261685927836824,0.4611504375934601,-1.3434270036271592,1.8535125891314905,-2.070616384545797,-1.5821545759784144,2.4426121711730957,-0.08441879600286484,0.3992000222206116,-0.5291717648506165,0.15469230711460114,-0.061115562915802,-0.06094883754849434,-0.6129156351089478,0.3064578175544739,-9.136273384094238,1.0440189838409424,47.70748519897461,-1.0401575565338135,-1.520742654800415,-3.5864322185516357,0.0152033232152462,-0.12395140528678894,-0.046275436878204346,28.25,29.5625,28.75,32.8125,35.1875,36.4375
0.40025799100112636,-0.3564647270281557,0.5910331727541623,0.09861628529167123,0.08004444452462518,-0.026717374388315056,-0.11946828734228943,-0.42269450071847675,-0.35557131646900264,0.08504331165578816,-3.0618959106447727,0.632258948754241,0.00021425853001137785,-0.19943971138654096,-0.029203938854879954,-0.0009347719506059808,0.07165664776302566,-0.025430895060447847,-0.035916635802944144,0.4602614939212799,-1.3392380338958283,1.8480871359454554,-2.068930288354391,-1.582740608845846,2.442087411880493,-0.087193563580513,0.4148027300834656,-0.5446770787239075,0.1840822547674179,-0.054135870188474655,-0.050467122346162796,-0.2106897532939911,0.09576806426048279,-8.887276649475098,1.0037368535995483,47.7244987487793,-0.8621952533721924,-2.0817790031433105,-3.5426621437072754,-0.23072832822799683,-0.2510378956794739,-0.07721220701932907,28.25,29.5625,28.75,32.8125,35.1875,36.4375
0.4102373719942989,-1.59277633723008,-2.4088963204505087,-0.5128671394571548,-0.027302202377747425,0.049656062642548224,-0.12041409738668285,-0.42474024778941144,-0.35586802854444755,0.08497916419691873,-3.061018819935703,0.6328149713666786,-3.824157429576132e-05,-0.20875945461025674,-0.03199075898880805,-0.002204180588459922,0.06381244674065416,-0.013596568833836566,-0.04570738373732799,0.459336519241333,-1.3349177253297348,1.8425572554217737,-2.0671402416624964,-1.5832436720477503,2.441633462905884,-0.09059245139360428,0.42823633551597595,-0.5563585162162781,0.1682443916797638,-0.05243263766169548,-0.044060491025447845,-0.05746084079146385,0.07661445438861847,-9.53849983215332,0.9612188935279846,47.68240737915039,-0.6616988182067871,-2.278531551361084,-3.6641063690185547,0.03526836633682251,-0.3070199489593506,-0.1814771592617035,28.25,29.5,28.75,32.8125,35.1875,36.4375
0.42024067099555396,-0.39547961939229404,-1.2693657551375939,-1.6874826523358275,0.021639454743533848,-0.02268751105415506,-0.11744461998742699,-0.4268205180002377,-0.3561543560899341,0.08492034641820789,-3.060083709394505,0.6334494793240508,-0.00024439682986541713,-0.20501099311120688,-0.02814254337932543,-0.004274405257772067,0.07961740942814427,-0.034369598525593376,-0.04717820989449431,0.458400696516037,-1.3305515956929703,1.8369315306292933,-2.065298696557516,-1.5837977568255823,2.4412262439727783,-0.09046915918588638,0.4332205653190613,-0.5660387277603149,0.19853131473064423,-0.05741071328520775,-0.042377084493637085,-0.038307227194309235,0.13407529890537262,-9.90241813659668,1.0932551622390747,47.66718673706055,-0.8138572573661804,-1.9982315301895142,-4.082468032836914,-0.28167176246643066,-0.3663581311702728,-0.2639995813369751,28.25,29.5,28.75,32.8125,35.1875,36.4375
0.43023876199731603,-0.7507327662749805,-0.9795186469939019,-1.2268376246288157,0.018444800550920085,0.055104252809530754,-0.11878351805668358,-0.4289315825725994,-0.3564730201499825,0.08487628991542415,-3.0592108227846215,0.6339590632459132,-0.00031705168579620915,-0.21617747252634084,-0.03177152976748853,-0.0011848626814015494,0.07768963565698152,-0.008889778026690831,-0.043737716378046056,0.457513689994812,-1.3261490178159256,1.831219498311178,-2.0634972057738246,-1.5843771139727991,2.440781593322754,-0.0876302644610405,0.4424830973148346,-0.5824257731437683,0.18190070986747742,-0.06709767132997513,-0.042828891426324844,-0.09576806426048279,0.13407529890537262,-9.864110946655273,1.0417832136154175,47.6627082824707,-0.9466577768325806,-2.1156387329101562,-4.025985240936279,-0.007002010475844145,-0.3177892565727234,-0.3766542077064514,28.25,29.5,28.75,32.8125,35.1875,36.4375
0.4402360249951016,-0.5864691773091846,-1.0852131511522727,-0.8268944534181059,0.010206131706026087,0.027600797549099387,-0.12290195643360591,-0.43112761770992536,-0.3567429065968528,0.0849213838755602,-3.0582342247940306,0.634425390961716,-0.000125213610741458,-0.21768975019893427,-0.028007994993470644,-0.0022807885982404088,0.09410010809029935,-0.021793978799424463,-0.039124718388498805,0.45658931136131287,-1.321781114940979,1.8252924124347132,-2.061512609521383,-1.5851486364947718,2.4402873516082764,-0.0893649309873581,0.4524049758911133,-0.5994329452514648,0.20765511691570282,-0.07624317705631256,-0.04902975261211395,-0.15322890877723694,0.15322890877723694,-9.59596061706543,1.0440189838409424,47.679718017578125,-1.0349178314208984,-2.124596357345581,-4.129908084869385,-0.2542623281478882,-0.0990220457315445,-0.42646944522857666,28.25,29.5,28.75,32.8125,35.1875,36.4375
0.4502336360019399,-0.8437579397042287,-2.900447662094828,-0.6175250860741861,-0.06907635586960299,0.023967590825106792,-0.11367963167733086,-0.433355086047467,-0.35706838516575484,0.08495794646814156,-3.057366240036485,0.6347789735624035,5.951364711366454e-05,-0.22371328264536608,-0.033097227458378585,0.000904326563355744,0.07921220642312332,-0.019104567611449564,-0.030250520763495402,0.45570048689842224,-1.3173078757575531,1.8192442099200647,-2.059561391870016,-1.5858524481402796,2.4397435188293457,-0.09175939112901688,0.4592752754688263,-0.6174858808517456,0.20955447852611542,-0.06429865956306458,-0.0604277029633522,-0.6895301342010498,0.5363011956214905,-9.653421401977539,1.106685996055603,47.64299774169922,-0.9485423564910889,-1.841408133506775,-4.0831756591796875,-0.13316527009010315,-0.17483928799629211,-0.32077720761299133,28.25,29.5,28.75,32.8125,35.1875,36.4375
0.46024459500040393,-2.4952949707364085,-2.928603930654167,0.7987905281997446,-0.07864057378670572,0.0844946073490484,-0.12340080665863493,-0.43568941646131676,-0.35746406307422796,0.0850464713663045,-3.0566454445783187,0.6350891339004019,0.00024044706755464428,-0.23248379775082056,-0.040248903452606434,0.004968929001815767,0.06464455753013584,-0.007274684592582625,-0.02342533795282256,0.4547889232635498,-1.312676565056183,1.8128369490252894,-2.0574923954405726,-1.58644944826235,2.439129590988159,-0.09060196578502655,0.4691149592399597,-0.6398677825927734,0.20485901832580566,-0.056602731347084045,-0.06617916375398636,-0.3064578175544739,0.363918662071228,-8.9064302444458,1.0686397552490234,47.65911865234375,-1.0064424276351929,-1.6033248901367188,-3.7589731216430664,0.012288529425859451,-0.31661513447761536,-0.14931657910346985,28.25,29.5,28.75,32.8125,35.1875,36.4375
0.47024382099334616,1.0645205460879452,1.9905785338733248,1.0927300326851155,0.13785423428210897,-0.09857799126157352,-0.10723632177169118,-0.4381386018714025,-0.3579094152815305,0.08512930631154159,-3.0560394508625803,0.6354177335406966,0.0006021204373567977,-0.23217115228503862,-0.035091978259082585,-0.00015443895315725325,0.07999894942177165,-0.03094913686164895,-0.03856687296805008,0.45386308431625366,-1.307864026432373,1.8062289396869105,-2.055567880670065,-1.5870268980609339,2.4384968280792236,-0.09620574116706848,0.48284149169921875,-0.6533934473991394,0.23274734616279602,-0.05991269275546074,-0.05658557638525963,-0.40222588181495667,0.2298433631658554,-8.14028549194336,1.0932551622390747,47.6367301940918,-0.9257169961929321,-1.8367695808410645,-3.7374541759490967,-0.13112099468708038,-0.4430837631225586,-0.1563558280467987,28.25,29.5,28.75,32.8125,35.1875,36.4375
0.48024411099322606,-2.3245605108629017,-1.0843112759621134,0.7419907446445879,-0.004317820044943736,0.09080721560971979,-0.12438052045459792,-0.4404658328375273,-0.35823028968512716,0.08503233646646746,-3.054899666336335,0.635965447734936,7.275470192981384e-05,-0.24281828583388135,-0.0337403822030736,-0.0002907957100213102,0.08991170631414741,-0.017290415836812213,-0.04777733379040175,0.45285478234291077,-1.3028237384608765,1.7996085325824183,-2.053115030328268,-1.5876320044146937,2.437995433807373,-0.09800328314304352,0.4973903000354767,-0.6725554466247559,0.2295079380273819,-0.07486903667449951,-0.048901643604040146,0.13407529890537262,-0.3447650671005249,-8.791508674621582,1.0843064785003662,47.67524337768555,-0.8698716163635254,-2.184980869293213,-3.5989198684692383,-0.015187702141702175,-0.36493411660194397,-0.2674369215965271,28.25,29.5,28.75,32.8125,35.1875,36.4375
0.4902515369903995,-1.0131409502782238,-0.3897972549393082,-1.2975695883690268,0.057234708871650074,-0.011336010120262394,-0.1119776583054267,-0.4428522778081033,-0.35849465175933193,0.08497095449984596,-3.053587692616279,0.6363901451715037,-5.5707904087171894e-05,-0.2448839707057381,-0.03195441761966096,-0.0027322764340835617,0.10268822310046807,-0.014856089068253656,-0.04460692201191159,0.4518839418888092,-1.2977979642203827,1.7929046789752405,-2.0506488285460414,-1.58854848543276,2.4374794960021973,-0.0949203297495842,0.5050860643386841,-0.6791642904281616,0.23174461722373962,-0.08752802014350891,-0.04874041676521301,-0.2106897532939911,0.1149216815829277,-9.787496566772461,0.932121217250824,47.651058197021484,-0.7568815350532532,-2.9683241844177246,-3.085970401763916,-0.08770045638084412,-0.08983023464679718,-0.3056386113166809,28.25,29.5,28.75,32.8125,35.1875,36.4375
0.5002450479951221,1.4541709071116222,0.12903494228302786,-1.7456638286757034,0.047861205551389154,-0.07799231745192134,-0.11188162057417922,-0.4452460125277175,-0.35880426864199005,0.08492368587973181,-3.052471570272381,0.6368964461904735,-6.723328103097853e-05,-0.2334092984524388,-0.03234379880106043,-0.003572619776725182,0.09283496639245091,-0.031625031638002433,-0.0411361669057723,0.4509246051311493,-1.2928295594504853,1.7862594763385218,-2.0483719311156214,-1.589346710835592,2.4369988441467285,-0.09314894676208496,0.4904848337173462,-0.6631194949150085,0.24088384211063385,-0.0714060366153717,-0.05065441504120827,0.5746084451675415,-0.5171475410461426,-10.15141487121582,0.9925470948219299,47.6949462890625,-0.7293301820755005,-2.897590160369873,-3.249784469604492,-0.3599165976047516,-0.1271098256111145,-0.3264613747596741,28.25,29.5,28.75,32.8125,35.1875,36.4375
0.5102450729900738,-0.29659482430495676,-2.7808947629053904,-1.5311653286234828,-0.06711875925760284,-0.0275145724091883,-0.11445066381963817,-0.4475563814002861,-0.3591272123225555,0.08489562274111084,-3.0514618468547483,0.6373467343265408,-0.00022459824036217171,-0.23168882528215326,-0.03667400577992641,-0.002839661738291784,0.07535128262514558,-0.021393803214906942,-0.03182670562175934,0.4499899446964264,-1.2880155009082337,1.7797325293170374,-2.0460430584349574,-1.5900147596942347,2.436493396759033,-0.09003790467977524,0.4821102023124695,-0.6520364880561829,0.22109673917293549,-0.0603254996240139,-0.05700431019067764,1.091755986213684,-0.5937620401382446,-10.15141487121582,0.9500291347503662,47.71554183959961,-0.6775313019752502,-2.9672904014587402,-3.222182273864746,0.011520993895828724,-0.23183909058570862,-0.2186669409275055,28.25,29.5,28.75,32.8125,35.1875,36.4375
0.5202373299980536,1.509736255948383,-0.21435506969527068,-1.2974524399897882,0.06263529628959233,-0.09390208272851322,-0.10994714613577573,-0.4497913818053374,-0.35948765560948476,0.08490395388672728,-3.0506120074260425,0.6376440596795402,-0.00033596524234154616,-0.22983631714965408,-0.03619223949855373,-4.794835038685877e-05,0.06772987205491299,-0.011652828870578698,-0.02863252970711371,0.4491380453109741,-1.2833830279162903,1.773346249257223,-2.0437737903990687,-1.5906017462359827,2.4359524250030518,-0.09002871811389923,0.46847355365753174,-0.6408321261405945,0.21128962934017181,-0.05781170353293419,-0.06021285429596901,0.7086837291717529,0.1149216815829277,-9.576807022094727,1.012690782546997,47.661808013916016,-0.6031920909881592,-2.9934792518615723,-3.406254768371582,-0.059361301362514496,-0.3461407423019409,-0.0721457451581955,28.25,29.5,28.75,32.8125,35.1875,36.4375
0.5302332239953103,0.13261915218936504,-0.19037283223503848,0.35290708902475,0.07092230437516343,-0.05449190232267129,-0.10816330105966497,-0.45204348195902067,-0.35983586413834917,0.08491438696028891,-3.0498024533684234,0.6378596178050389,-0.0002690545493484509,-0.22280436618106955,-0.03216325089490829,0.0036291679094217575,0.08058586848043588,-0.015843419393924932,-0.034264482759993636,0.4482879340648651,-1.2787866753390809,1.7670095602618616,-2.041623731652731,-1.5912416617022913,2.435356378555298,-0.08525335788726807,0.4536252021789551,-0.6361298561096191,0.2309505045413971,-0.067416712641716,-0.04961785674095154,0.4596867263317108,0.038307227194309235,-8.925583839416504,0.9343623518943787,47.67524337768555,-0.6684025526046753,-2.6253108978271484,-3.165989398956299,-0.22931665182113647,-0.27273285388946533,-0.059091806411743164,28.3125,29.5,28.75,32.8125,35.1875,36.4375
0.5402378619910451,-0.193881166445936,0.36886477782576865,0.7289042028511289,0.01670170554138988,0.00791700969759597,-0.11808195562338034,-0.45428679164913655,-0.3601900581720263,0.08493396676873555,-3.0489263892271796,0.6382892572951316,-0.0001234398448417787,-0.225430529106115,-0.03265772737157805,0.0058808107107791545,0.07644711921729895,0.008806932035215617,-0.04015296887974838,0.4474849998950958,-1.2742119592479249,1.7606609503375452,-2.0394655666747035,-1.5919278303729456,2.4349513053894043,-0.08221808820962906,0.44481465220451355,-0.626215398311615,0.20596261322498322,-0.07430283725261688,-0.04055402800440788,0.15322890877723694,-0.7086837291717529,-8.65743350982666,0.9186956286430359,47.699424743652344,-0.7243034839630127,-2.621692180633545,-2.7953453063964844,0.10952098667621613,-0.1097576692700386,-0.13251446187496185,28.3125,29.5,28.75,32.8125,35.1875,36.4375
0.550241659002495,0.8860808126449253,2.2926902631206847,-0.4221558364844999,0.1131910998698597,-0.0788055135205247,-0.1137613011377637,-0.4564542945641876,-0.36047147996952567,0.0849247045738859,-3.047920966279432,0.6387828397929967,-0.00019304301609633927,-0.21467294206306964,-0.03188679568105576,0.002856482409095573,0.07305083476951994,-0.008194329358673334,-0.04309833474997255,0.446633905172348,-1.2697344583323975,1.7544572989093226,-2.037177701989645,-1.5926201979266565,2.4345576763153076,-0.08013118803501129,0.43491435050964355,-0.6100959181785583,0.21358729898929596,-0.0638037770986557,-0.035679105669260025,0.1149216741323471,-0.9959878921508789,-9.232041358947754,0.898551881313324,47.700321197509766,-0.6170071363449097,-2.9176812171936035,-2.969736099243164,-0.12152881920337677,-0.15209275484085083,-0.2180945873260498,28.3125,29.5,28.75,32.8125,35.1875,36.4375
0.560245118002058,-0.16393547161852362,-0.9381351411777509,-2.016799944583938,-0.004738760168407541,-0.015092950117960944,-0.11178006252673114,-0.4585122806518387,-0.36075760854987277,0.08487135957002345,-3.0469429411974644,0.6392985404434234,-0.0003810718925882468,-0.2060413927279071,-0.030406037218695142,-0.002050513845016412,0.07066003814997844,-0.026182714864615427,-0.04423965260509431,0.44584187865257263,-1.2653741103461762,1.7485068480121058,-2.0349842510619105,-1.5932405630694788,2.4342336654663086,-0.08055874705314636,0.43047845363616943,-0.596217691898346,0.21924836933612823,-0.05388713255524635,-0.03512122854590416,0.325611412525177,-0.3256114423274994,-10.189722061157227,0.8135106563568115,47.699424743652344,-0.5581632256507874,-3.1099483966827393,-3.4099674224853516,-0.12768083810806274,-0.27087563276290894,-0.2767038345336914,28.3125,29.5,28.75,32.8125,35.1875,36.4375
0.5702403390023392,-0.27680501951780845,-1.8793310831086045,-1.8355249461522587,-0.03918680594134583,0.0032026879871677235,-0.10899007057361276,-0.4606194560655396,-0.36104565819818435,0.08491806175156749,-3.0461748252798984,0.6399414188936983,-0.00031032958205027644,-0.20560830338563926,-0.031704242936515206,-0.0011706254336255675,0.06032860860404419,-0.011923984966362709,-0.04493109131544605,0.44497841596603394,-1.2611941558173676,1.7425687948810022,-2.0328976116576136,-1.5937793890582483,2.433887004852295,-0.07925014942884445,0.4210672676563263,-0.5830975770950317,0.1981910914182663,-0.05074427276849747,-0.03317404165863991,0.7469909191131592,-0.4596867263317108,-10.400412559509277,0.9880701303482056,47.6895751953125,-0.42844244837760925,-3.2615833282470703,-3.3867812156677246,-0.04776564985513687,-0.37643295526504517,-0.3669321537017822,28.3125,29.5,28.75,32.8125,35.1875,36.4375
0.5802375310013304,2.8876907464496324,1.817105280614451,-1.0811803458458806,0.11279193546113361,-0.15559106876642664,-0.10592267418472998,-0.4626325530779859,-0.36139964150951626,0.08498342005087611,-3.045578835636254,0.6402725592508001,-7.602143539386917e-05,-0.1958227230761151,-0.02889536855996379,0.0009363665710045385,0.07175173788725897,-0.018618513961580097,-0.03541276415940924,0.444285124540329,-1.2571852666190644,1.736833397542135,-2.0309888325133265,-1.5942981878863733,2.433490037918091,-0.071900874376297,0.40541863441467285,-0.5722063779830933,0.2138325572013855,-0.05818875506520271,-0.035195354372262955,0.8619126081466675,-0.38307225704193115,-9.576807022094727,0.9791215062141418,47.68061828613281,-0.6674141883850098,-2.8727853298187256,-3.3255062103271484,-0.24223309755325317,-0.3888813853263855,-0.4192223846912384,28.3125,29.5,28.75,32.8125,35.1875,36.4375
0.5902416960016126,-0.07749453610372042,-1.0791063676974475,0.027942204421912104,-0.011748473340956234,0.009383433570526678,-0.11290601239667694,-0.4646029276029068,-0.36169296455038624,0.08506850303408314,-3.0448401110209407,0.6406470828211954,0.00017087702226933552,-0.19790690079852605,-0.02801845073217119,0.0030292686458565274,0.07055566437264904,0.001868408468953811,-0.026514547339263665,0.4435897469520569,-1.2532944840243836,1.7311700026141565,-2.0289608440794886,-1.5949252287494105,2.4331393241882324,-0.070261150598526,0.39668187499046326,-0.5624285340309143,0.193571999669075,-0.06610092520713806,-0.042296212166547775,0.6320692300796509,-0.13407528400421143,-9.174580574035645,0.9410752058029175,47.693153381347656,-0.6199094653129578,-2.7737553119659424,-3.2095654010772705,0.018678100779652596,-0.2474808394908905,-0.35415413975715637,28.3125,29.5,28.75,32.8125,35.1875,36.4375
0.6002404979954008,-0.28363155108544535,-0.8711308858508008,1.0139710987003965,-0.009475107456929914,-0.0260204460199711,-0.10957921931591372,-0.4665087744436265,-0.36197685631151627,0.08504857592178347,-3.044016256052862,0.640732487175703,0.00023958611309010197,-0.18969685737438532,-0.02638471192252621,0.0041793171781365395,0.07534886716995604,-0.0060531847059316045,-0.01765735153320752,0.44295549392700195,-1.2493082147887726,1.7256134192096155,-2.0269586048521937,-1.5955970923053187,2.4326820373535156,-0.06573486328125,0.3844234347343445,-0.5528225898742676,0.2052651196718216,-0.06710369139909744,-0.04658576846122742,0.1149216741323471,-0.24899697303771973,-8.65743350982666,0.9634547233581543,47.6949462890625,-0.8247642517089844,-2.677845001220703,-3.0966715812683105,-0.1840875893831253,-0.09192800521850586,-0.2529435455799103,28.3125,29.5,28.75,32.8125,35.1875,36.4375
0.610238623994519,1.6125415455942522,2.3851312649876433,0.5077122844068015,0.11673732319775507,-0.09591110872427937,-0.10550216063825497,-0.46840317044854674,-0.3622774515405296,0.08502368045795744,-3.043372255347382,0.6409260380852373,0.0003304629656339836,-0.18382887315962887,-0.027030933212955438,0.002100614726962313,0.06395556454921805,-0.013008695351830926,-0.021729745069385888,0.44228315353393555,-1.2454044979861756,1.7202017943011683,-2.025151868859762,-1.5961206595050257,2.432227849960327,-0.06682801246643066,0.3765336573123932,-0.5381262302398682,0.19981913268566132,-0.05379560589790344,-0.043864909559488297,0.19153614342212677,-0.727837324142456,-8.695740699768066,0.8761723637580872,47.703006744384766,-0.6916357278823853,-2.949106216430664,-3.0918116569519043,-0.0231697466224432,-0.16224202513694763,-0.12912720441818237,28.3125,29.5,28.75,32.8125,35.1875,36.4375
0.6202378769958159,-1.1486088084345343,-1.0397795923905648,-0.015167462583777732,-0.02513495403052563,0.06390404816149145,-0.11507061795046104,-0.47013803320976394,-0.36252631229751414,0.08494486407367527,-3.0424636863458225,0.6411123144001601,-0.00013165470685451859,-0.1792682119616224,-0.027304660505151783,-0.0019545524774663542,0.05946555569459719,-0.017715218861983132,-0.029006201752486693,0.4416476786136627,-1.2415470641902466,1.7148740927325647,-2.0229412517943324,-1.5966346899615687,2.431846857070923,-0.06583297252655029,0.3741278350353241,-0.5254638195037842,0.19202980399131775,-0.04761170223355293,-0.035687606781721115,0.28730422258377075,-0.9193734526634216,-9.327810287475586,0.9119828343391418,47.674346923828125,-0.6458936929702759,-3.425928831100464,-3.0587828159332275,-0.08399659395217896,-0.22632713615894318,-0.11781702190637589,28.3125,29.5,28.75,32.8125,35.1875,36.4375
0.6302371810015757,2.3722915556938577,1.0800412450770196,-1.714898304609309,0.07317748748980539,-0.0948790458341127,-0.10580463977455623,-0.471912987265899,-0.36274007528762975,0.0848838825082339,-3.0416794918661996,0.64158055015485,-0.0002537459930934103,-0.17030407306229073,-0.021286654480318468,-0.0029660426941560463,0.06499255158648078,-0.030157871403338338,-0.04002557606472522,0.4409266710281372,-1.237837867145874,1.7097628752337855,-2.0210825405516566,-1.5971387068377894,2.4315378665924072,-0.06842000782489777,0.35944241285324097,-0.5072099566459656,0.20224100351333618,-0.047111719846725464,-0.027245277538895607,0.17238251864910126,-0.363918662071228,-9.749189376831055,0.8806493282318115,47.71554183959961,-0.30161839723587036,-3.128549575805664,-3.4143738746643066,-0.20589953660964966,-0.2958850562572479,-0.18407300114631653,28.3125,29.5,28.75,32.8125,35.1875,36.4375
0.6402393519965699,-0.40795205465559287,-0.9269956143455387,-1.5250528550805658,-0.023962199142208186,0.027346659678885443,-0.1108764372716844,-0.4735816923252884,-0.36295741529312564,0.08485480186618957,-3.040891927862265,0.6420963158689017,-0.0005447968357860836,-0.17336571175943447,-0.024981856863097368,-0.000802682921807523,0.053204394404560894,-0.007453386433264174,-0.038433074224652954,0.4402562081813812,-1.234303967361786,1.7047675291644495,-2.01908077816152,-1.5975702444659632,2.4313104152679443,-0.06504790484905243,0.35362130403518677,-0.4997374415397644,0.1750277876853943,-0.04618794843554497,-0.025470072403550148,0.6320692300796509,-0.5746084451675415,-10.15141487121582,0.8717007040977478,47.705692291259766,-0.24978482723236084,-3.6032257080078125,-3.238231658935547,-0.06366901099681854,-0.3582650423049927,-0.2331477552652359,28.3125,29.5,28.75,32.8125,35.1875,36.4375
0.6502421389886877,1.4112883311888242,0.3730049434263508,-1.5573157910246842,0.06319562162483812,-0.08362552564528276,-0.09636272174308859,-0.4752466267643919,-0.36316910378129874,0.08482930510741338,-3.0401593374486553,0.6424329357788617,-0.0004851296364660674,-0.16288060053207054,-0.020916214288628915,-0.00013976672563702908,0.0674787305237223,-0.016156427768439282,-0.03155431980496003,0.43964657187461853,-1.2308699053576966,1.6999428907977503,-2.0173398456969203,-1.5981252829181116,2.431022882461548,-0.05861612781882286,0.3385668098926544,-0.4852534234523773,0.18953612446784973,-0.05536773428320885,-0.02569766715168953,0.5937620401382446,-0.363918662071228,-9.90241813659668,0.9119828343391418,47.70748519897461,-0.4784989356994629,-3.322946548461914,-3.333923101425171,-0.2742774486541748,-0.25266045331954956,-0.2759421765804291,28.3125,29.5,28.75,32.8125,35.1875,36.4375
0.6602365489961812,-0.5634847090649345,-1.835349583419712,-1.0824476934913216,-0.05308593672639295,0.00037193570938519674,-0.09703440787590288,-0.476907350735831,-0.3634159512756669,0.08493035467923843,-3.0395664545331305,0.642708601449264,-0.00023902146275260483,-0.1642169144793057,-0.02328339475922074,0.003917404509307734,0.057242425599441996,0.008708841512749546,-0.028174587547599456,0.43908393383026123,-1.2276256543448945,1.6950567404376429,-2.0155183277525843,-1.5986536184894007,2.430722951889038,-0.05493360385298729,0.3256230056285858,-0.47252389788627625,0.16286270320415497,-0.056731343269348145,-0.025365393608808517,0.4405331015586853,-0.15322890877723694,-9.921571731567383,0.8694595694541931,47.66986846923828,-0.5713418126106262,-3.271272659301758,-3.3768908977508545,-0.040127214044332504,-0.13925477862358093,-0.27314645051956177,28.3125,29.5,28.75,32.8125,35.1875,36.4375
0.670237446000101,2.1427991487334115,1.152922864333059,-0.3297602031639581,0.0656392172318308,-0.12725580374542275,-0.09937178497242496,-0.47854094752084597,-0.36366814965507643,0.0850374878999979,-3.0390447242689924,0.6430216441112971,0.0002543560097133298,-0.14988297401970885,-0.020927986915762066,-0.0002504886291254212,0.0634184815461994,-0.019567435309705172,-0.024453263523602567,0.4385692775249481,-1.2245129209807892,1.6903751532184046,-2.013942380944723,-1.599215332661764,2.430483102798462,-0.05117027834057808,0.3167659342288971,-0.4568008482456207,0.18414975702762604,-0.050238169729709625,-0.02547054924070835,0.6320692300796509,-0.40222588181495667,-9.251194953918457,0.8918390870094299,47.681514739990234,-0.6729834079742432,-3.127371311187744,-3.2435827255249023,-0.2329493910074234,-0.06742770969867706,-0.3111475706100464,28.3125,29.5,28.75,32.8125,35.1875,36.4375
0.6802360500005307,0.35437989586867014,-0.04679003450614813,0.3362033206240098,0.0257927086641756,-0.03684415974763036,-0.10679098943353146,-0.4800789403936678,-0.36394062109398745,0.08510903840943237,-3.0385261536558,0.6433347962980276,0.00035116381632585217,-0.15167982411342082,-0.02593361029228769,0.0034603567105613224,0.04194367137517238,0.0011489239616441537,-0.023134396450128374,0.43807774782180786,-1.2214118999293824,1.685744587575094,-2.0122043095030726,-1.5996196905719202,2.430267095565796,-0.04990749433636665,0.3061239421367645,-0.4461466670036316,0.15618528425693512,-0.03965381160378456,-0.02577023394405842,0.40222588181495667,-0.4405331015586853,-9.059659004211426,0.8537927865982056,47.6707649230957,-0.6543317437171936,-3.2266902923583984,-2.850614547729492,0.027158018201589584,-0.1645958423614502,-0.33841150999069214,28.3125,29.5,28.75,32.8125,35.1875,36.4375
0.6902387399895815,1.3029155596327353,1.461146265660552,0.5091142755448959,0.06964462413953178,-0.04677722602582908,-0.11538249918536073,-0.4814893809162661,-0.36419845098752723,0.08509694717459737,-3.0380051941572233,0.6435304216326538,0.00021447134355816967,-0.13838499563849788,-0.022852184097071175,-2.9922146279775188e-05,0.049838177151547904,-0.024296215873281526,-0.019866926969989523,0.437622994184494,-1.2183961135200043,1.6814258734332483,-2.010557313958639,-1.5999544302569788,2.4300153255462646,-0.04668279364705086,0.2967245280742645,-0.4309067726135254,0.1766945868730545,-0.03595566004514694,-0.02588508650660515,0.13407529890537262,-0.47884035110473633,-8.695740699768066,0.8940802216529846,47.694053649902344,-0.8180891871452332,-2.9687232971191406,-3.055281162261963,-0.25641223788261414,-0.2646395266056061,-0.32929548621177673,28.3125,29.5,28.75,32.8125,35.1875,36.4375
0.7002380689955316,0.33052860521735644,0.18418472066759342,0.08784522598111591,0.01991377176243552,-0.025676937437942405,-0.09663674762686444,-0.4828533232236895,-0.36442791079576936,0.08507205583438984,-3.037439484713216,0.6437141380393349,1.7120435015812278e-05,-0.13982589497410386,-0.024046533339508493,-0.0015360559431379696,0.04053020557869473,-0.007350064215730552,-0.01733379782041595,0.4371671676635742,-1.2154488128474732,1.6772163550006312,-2.0088921986021937,-1.600302521382467,2.429762125015259,-0.04626268520951271,0.29189807176589966,-0.4155377745628357,0.14676713943481445,-0.03481278941035271,-0.028023261576890945,0.17238251864910126,-0.5171475410461426,-9.040505409240723,0.8784134984016418,47.67524337768555,-0.8010660409927368,-3.3330330848693848,-3.120023250579834,0.021084001287817955,-0.3384001851081848,-0.2712448537349701,28.3125,29.5,28.75,32.8125,35.1875,36.4375
0.7102355480019469,0.4508440532852151,1.3721397378630364,-0.6818731984145504,0.07187711144122003,-0.056345622206218,-0.0918984074255352,-0.48419669240144786,-0.36464708030178145,0.08498745682883971,-3.0368855251145264,0.6438825136888707,-0.00016666353759498212,-0.12998143624322586,-0.02049940720370836,-0.0017667060127457336,0.04821391645083735,-0.024700354347775122,-0.014881202048889593,0.4367119073867798,-1.212492899303772,1.6731589476214808,-2.007400175134176,-1.600649658833639,2.4294981956481934,-0.044617339968681335,0.2808244228363037,-0.40502363443374634,0.1662483960390091,-0.03440627455711365,-0.02882668375968933,0.26815059781074524,-0.6129156351089478,-9.423578262329102,0.8470799922943115,47.681514739990234,-0.8421206474304199,-3.4133238792419434,-2.9543135166168213,-0.1812242567539215,-0.43987056612968445,-0.1958845555782318,28.3125,29.5,28.75,32.8125,35.1875,36.4375
0.7202369469887344,0.5335132009838386,-0.019164020297507356,-1.102935316403559,-0.00346045707440951,0.017683553112831804,-0.11552404353429373,-0.48545208607567797,-0.36478649477642594,0.08490058816357562,-3.0362192529672742,0.6440048909207247,-0.0005590233858162599,-0.13211626572416027,-0.01955743095974071,-0.0019263852322108665,0.04400928196426773,-0.0052226352301839,-0.01667998087533257,0.43620774149894714,-1.2096910041621705,1.669272247944967,-2.005747457543844,-1.6010120550738733,2.4291744232177734,-0.04513736814260483,0.2737443149089813,-0.39002951979637146,0.13893570005893707,-0.03886478766798973,-0.027428606525063515,0.4405331015586853,-0.5746084451675415,-9.634267807006836,0.9209314584732056,47.671661376953125,-0.6792112588882446,-3.7424473762512207,-3.1833343505859375,-0.08868125081062317,-0.4316762089729309,-0.11915458738803864,28.3125,29.5,28.75,32.8125,35.1875,36.4375
0.7302428969996981,-0.456792520669607,-1.169861135531359,-1.7148937141884442,-0.019681036498480492,-0.00703824069939377,-0.09663855991422168,-0.4867134005817069,-0.36493931232169474,0.08482148692835298,-3.035584310906702,0.6441584942472431,-0.0005950374805732727,-0.12390435445976924,-0.013075502211289754,-0.002052820246286177,0.054124164363198675,-0.011733684114596077,-0.021499848575577643,0.43577563762664795,-1.2069631081870575,1.6655176321612757,-2.0043560467162074,-1.6014817396747034,2.428936719894409,-0.045800574123859406,0.25784748792648315,-0.3702574670314789,0.14535918831825256,-0.04514727368950844,-0.02310100942850113,0.24899697303771973,-0.3447650372982025,-10.20887565612793,0.8448441624641418,47.679718017578125,-0.5095592737197876,-3.5903666019439697,-3.5479936599731445,-0.15621483325958252,-0.33606594800949097,-0.09794263541698456,28.3125,29.5,28.75,32.8125,35.1875,36.4375
0.7402425239997683,0.8941043332752864,0.8754409252981157,-1.2304644029735263,0.08221168592437864,-0.05609195501163379,-0.09489174310169747,-0.4879796473657646,-0.3650740357271069,0.08483601971253371,-3.035035671026178,0.644427556872985,-0.0004426328147779385,-0.12468309536332084,-0.012930210945909215,4.2680174508866225e-05,0.05076477809926819,-0.001048116047761102,-0.025132081246696154,0.43530768156051636,-1.2044366163066407,1.6618202368365687,-2.0029832325377406,-1.6019380728351038,2.4287219047546387,-0.04568679630756378,0.2512160539627075,-0.36442890763282776,0.13514773547649384,-0.0465504452586174,-0.019313380122184753,0.4405331015586853,-0.8044517636299133,-9.825803756713867,0.8403671979904175,47.71464920043945,-0.33255690336227417,-3.8446617126464844,-3.0020594596862793,-0.1884036362171173,-0.19658973813056946,-0.07209160923957825,28.3125,29.5,28.75,32.8125,35.1875,36.4375
0.750234252991504,0.5218307695511903,-0.8582102351652837,-0.7895947409295346,0.02535841007566781,-0.029204971686261717,-0.10134930553324502,-0.4892474143380205,-0.3652414153490037,0.08493938440088453,-3.0346418527339227,0.6447141729981001,2.567448552832307e-05,-0.12036040380454666,-0.014725428260332222,0.004333052964145711,0.0402762670569906,0.00809436128961869,-0.024930187145797433,0.4348888695240021,-1.2020945709994812,1.6581957975970667,-2.001753946343893,-1.6023920218097132,2.4285426139831543,-0.042590271681547165,0.2340831607580185,-0.3494336009025574,0.12461171299219131,-0.040823739022016525,-0.016570400446653366,0.5937620401382446,-0.5171475410461426,-9.672574996948242,0.8582697510719299,47.71375274658203,-0.27895060181617737,-3.3606204986572266,-2.992391586303711,0.008489327505230904,-0.13373659551143646,-0.0930042415857315,28.3125,29.5,28.75,32.8125,35.1875,36.4375
0.7602200729888864,1.2772589309676314,-0.5610755342623466,-0.6926067814693371,0.03252828802391396,-0.06825069190873251,-0.08685910413645895,-0.49040621212705215,-0.36538867371174616,0.08498589620366204,-3.0342005796386027,0.6450643185677855,0.00017961599304669313,-0.10690888853347467,-0.01349166836415905,0.0018495944953772748,0.042574828872729086,-0.01678872398078302,-0.023197493512165893,0.43447017669677734,-1.1998213094523926,1.6547759214984339,-2.0004784069456996,-1.6027496496783655,2.4284114837646484,-0.0390416756272316,0.2234770655632019,-0.33407941460609436,0.14339904487133026,-0.03232020512223244,-0.014960642904043198,0.28730422258377075,-0.40222588181495667,-9.346963882446289,0.8179876208305359,47.68867492675781,-0.3366594910621643,-3.362823247909546,-2.8884403705596924,-0.21186432242393494,-0.12454962730407715,-0.10814747214317322,28.3125,29.5,28.75,32.8125,35.1875,36.4375
0.7701374960015528,1.439095384710102,0.27150467609742185,-0.10974141756746132,0.04861292662552587,-0.06484845583897933,-0.09516507751487845,-0.49150971155720563,-0.3655406167118254,0.08505503336554637,-3.033838757231443,0.6453567440869932,0.00028436918561495854,-0.10730708660202438,-0.017420365202452704,0.0022137163261915027,0.029211819209089083,-1.1774960684106145e-05,-0.02126729584926773,0.4340634346008301,-1.197677956228592,1.65147573152651,-1.9992076359190882,-1.6030357519732874,2.428244113922119,-0.035764943808317184,0.21698817610740662,-0.3209090530872345,0.11587923020124435,-0.02727397345006466,-0.013747702352702618,0.8044517636299133,-0.5363011956214905,-9.232041358947754,0.8090336918830872,47.70121383666992,-0.38669323921203613,-3.490391492843628,-2.8769311904907227,-0.0324978269636631,-0.17848369479179382,-0.11387692391872406,28.3125,29.5,28.75,32.8125,35.1875,36.4375
0.7801316510012839,0.5265785923851521,-0.6981097045545761,-0.05679822468475273,-0.010869665116866465,-0.020347949281641395,-0.10167569191630837,-0.49253017885813294,-0.3657241558604771,0.08511833932928484,-3.033507864421328,0.6455805407953304,0.0004301401964165193,-0.0998815138056834,-0.016283125844334334,0.0033364226003464175,0.029339143342513523,-0.0020950153813882187,-0.01911509870158154,0.43376463651657104,-1.1956457954696198,1.6483553091632288,-1.9980336628355921,-1.6033228079425257,2.4281368255615234,-0.03255154937505722,0.20252954959869385,-0.30422720313072205,0.11561858654022217,-0.026456929743289948,-0.012707573361694813,0.3064578175544739,-0.3064578175544739,-9.174580574035645,0.7821771502494812,47.68419647216797,-0.5107357501983643,-3.0616207122802734,-2.9410765171051025,-0.00019040063489228487,-0.18894478678703308,-0.1302827149629593,28.3125,29.5,28.75,32.8125,35.1875,36.4375
0.7902429120003944,1.7166389211994417,1.1117205057392978,-0.1367968371469093,0.07274139528986015,-0.07348340671745487,-0.10467338051748118,-0.4934876868177794,-0.3658974545186744,0.08514263028233707,-3.033185870570489,0.6458231341741106,0.00038532335896756235,-0.0888035758304274,-0.014011411115887868,-0.002419028330877953,0.036535780874267586,-0.02333667662304854,-0.016247978869384037,0.43345385789871216,-1.1936575335315247,1.645378891621725,-1.9968697033324183,-1.6035259405719202,2.4280285835266113,-0.02932211011648178,0.19816191494464874,-0.28791648149490356,0.1259656399488449,-0.02400326542556286,-0.012401743791997433,0.5363011956214905,-0.7469909191131592,-9.117119789123535,0.8269415497779846,47.71017074584961,-0.5579860210418701,-3.420747756958008,-3.0695717334747314,-0.2172527313232422,-0.24575009942054749,-0.1657501757144928,28.3125,29.5,28.75,32.8125,35.1875,36.4375
0.8001402549998602,0.1956912854534539,-0.17373888793861667,-0.1444885100697364,0.015499723612168314,-0.013354089735404518,-0.10138858571247975,-0.49437069078040907,-0.3660394265415891,0.08513225676516553,-3.0327896930145646,0.6459141348387792,0.00027957481029695095,-0.09044141487425572,-0.016645512181913628,0.0002700414796927854,0.02558633648138325,-0.003319869689022219,-0.014238929463490686,0.4331786632537842,-1.1917432707599183,1.642580811177389,-1.995716234246725,-1.6037886778460901,2.427872657775879,-0.02716178633272648,0.18911434710025787,-0.27691650390625,0.10123743861913681,-0.022512950003147125,-0.012292234227061272,0.2106897532939911,-0.5363011360168457,-9.21288776397705,0.7956027388572693,47.72629165649414,-0.6099275350570679,-3.2917702198028564,-2.794222116470337,-0.048202477395534515,-0.3085724115371704,-0.1677960604429245,28.3125,29.5,28.75,32.8125,35.1875,36.4375
0.8102457609929843,-0.201648771868145,-0.7382274504215586,-0.35417765438268395,0.014711451271799302,-0.013259313575730966,-0.0914623745764286,-0.4951841155098408,-0.3661599498444453,0.08504985357545655,-3.0323640887779644,0.6461134878525853,7.231132982573976e-05,-0.08338922974661798,-0.014138649604711022,-0.0025929279361830656,0.028385490797955944,-0.008314345387677158,-0.013806208463972848,0.43290314078330994,-1.189876840715744,1.640036408101217,-1.994711538354391,-1.604016129170553,2.4277892112731934,-0.025727208703756332,0.17978909611701965,-0.257161021232605,0.09654150903224945,-0.022908750921487808,-0.011275327764451504,0.2106897532939911,-0.325611412525177,-9.461885452270508,0.8179876208305359,47.712860107421875,-0.6326040029525757,-3.544099807739258,-3.184727668762207,0.006412195973098278,-0.3487284183502197,-0.20323452353477478,28.3125,29.5,28.75,32.8125,35.1875,36.4375
0.8202379860013025,1.6431528482178417,0.7604807761089942,-0.502238638289267,0.05099657135047037,-0.06637561414209903,-0.09700127041166375,-0.49604302769822844,-0.3662851615675436,0.08504731141102667,-3.0320577298614206,0.6462084103966361,0.00012010506138473417,-0.07573274447549269,-0.011448003878784935,-0.001907426006239375,0.034200344838993056,-0.01992428995728644,-0.011723716369690208,0.432615727186203,-1.188106821184494,1.6374524275409144,-1.9937612018980921,-1.6042678991900843,2.4276092052459717,-0.024162542074918747,0.16947731375694275,-0.24785161018371582,0.11049767583608627,-0.02328551560640335,-0.011778419837355614,0.4213795065879822,-0.49799394607543945,-9.423578262329102,0.8045620322227478,47.685096740722656,-0.6877665519714355,-3.430422782897949,-2.8091554641723633,-0.223334401845932,-0.369759202003479,-0.2123178094625473,28.3125,29.5,28.75,32.8125,35.1875,36.4375
0.8302430960029596,0.3534288823753106,-0.4305434162608327,-0.23559580084273699,0.0023863490706233356,-0.00988816998793876,-0.10435614927675327,-0.4967814932651505,-0.36640166898520793,0.08502492674976192,-3.0316798822701583,0.6463605927869716,-7.064599848277762e-05,-0.07306543445985628,-0.010693954886666928,-0.003117443974112939,0.030735676332224893,-0.01148413824926741,-0.010491732862821531,0.43237611651420593,-1.1864561897567292,1.6350515524493616,-1.9927145443358363,-1.604471508656637,2.4275248050689697,-0.023172901943325996,0.16022995114326477,-0.22889548540115356,0.09165968000888824,-0.02369683049619198,-0.01201073918491602,0.6129156351089478,-0.5937620401382446,-9.423578262329102,0.8269415497779846,47.67882537841797,-0.6262449026107788,-3.710899829864502,-3.00523042678833,-0.2311961054801941,-0.3680357038974762,-0.248116135597229,28.3125,29.5,28.75,32.8125,35.1875,36.4375
0.8402367389935534,0.9234780254928271,0.025874606318110338,-0.611468711175509,0.028372205742281498,-0.05145277729877728,-0.09800557991742513,-0.497493082965233,-0.3665219615611004,0.08498500647430618,-3.0313640846448093,0.6464530863918106,-3.58419705900202e-05,-0.07206349977198448,-0.011887065773406418,-0.0010439317053046223,0.025532303338955266,0.00175673290129825,-0.009311213945422378,0.43218523263931274,-1.1849013727954407,1.6328757444964808,-1.991941591302389,-1.6047232786761683,2.427441358566284,-0.020244278013706207,0.15032479166984558,-0.21692045032978058,0.07544202357530594,-0.0244924146682024,-0.010243178345263004,0.4213795065879822,-0.28730419278144836,-9.481039047241211,0.8269415497779846,47.70927429199219,-0.7643765211105347,-3.825910806655884,-2.9838430881500244,-0.03744994476437569,-0.3354797661304474,-0.26668819785118103,28.3125,29.5,28.75,32.8125,35.1875,36.4375
0.8502388839988271,1.1642515447190354,0.4463353042961714,-0.536379810439129,0.03652676907419236,-0.024643568359752694,-0.11063101911071778,-0.4981356982272278,-0.36660908482465004,0.08491756639946005,-3.031028424566839,0.6465222328693293,-0.00017697972319700943,-0.06556384219481204,-0.009326124755375129,-0.0009895229694743927,0.027878226986693958,-0.005418643994351403,-0.009794572758329735,0.4319692850112915,-1.1834307473948975,1.630869213734762,-1.9911495647826136,-1.604926888142721,2.4273219108581543,-0.01997487060725689,0.1396581381559372,-0.20377479493618011,0.08047562837600708,-0.023562761023640633,-0.009508944116532803,0.2298433631658554,-0.6895301342010498,-9.557653427124023,0.7777001857757568,47.70838165283203,-0.6887550950050354,-3.9243788719177246,-2.754894256591797,-0.09930688142776489,-0.28796347975730896,-0.2701842784881592,28.3125,29.5,28.75,32.8125,35.1875,36.4375
0.8602423909906065,0.7871295560517404,1.2177755913430541,-0.47148469979979046,0.06019416524452392,-0.05586177422781985,-0.10446845498211989,-0.49876160085676446,-0.36671326242404023,0.08491415123265492,-3.030708941379508,0.6465569977923702,-0.00011248105849101066,-0.055958188542867375,-0.006258305539338289,-0.0010906517929215168,0.03105080583006573,-0.014703625458853328,-0.009613224874119974,0.4318259358406067,-1.182082162504532,1.6288874785052698,-1.9903694591917933,-1.605201546345846,2.427250385284424,-0.018401650711894035,0.12430304288864136,-0.18391074240207672,0.0857638344168663,-0.022469038143754005,-0.008142710663378239,0.4405331015586853,-0.8044517636299133,-9.519346237182617,0.7754590511322021,47.68598937988281,-0.7138692140579224,-3.643921136856079,-3.100546360015869,-0.28478071093559265,-0.25345638394355774,-0.2951723337173462,28.3125,29.5,28.75,32.8125,35.1875,36.4375
0.8702369099919451,1.189233094648965,0.44037993666895403,-0.4787092720028384,0.022236540395906258,-0.02439650048911951,-0.11248700524266464,-0.49929180441524984,-0.3667679839003941,0.08488393823113449,-3.0303545571369757,0.6466964219116891,-0.00035101247209579767,-0.055633693193641656,-0.007629040711995848,-3.6145669680604855e-05,0.023153345048019077,-0.002772083366036933,-0.009616621685625654,0.4316224455833435,-1.1808622640422364,1.6271217505084437,-1.989514013329977,-1.6053689161883753,2.4271907806396484,-0.01717115379869938,0.1164347231388092,-0.17197595536708832,0.06758241355419159,-0.020281413570046425,-0.006968162953853607,0.26815059781074524,-0.6512228846549988,-9.557653427124023,0.7866488099098206,47.704795837402344,-0.7224684953689575,-3.8919320106506348,-2.9132633209228516,-0.2818448543548584,-0.1834540069103241,-0.3261951208114624,28.3125,29.5,28.75,32.8125,35.1875,36.4375
0.8802400849963306,-0.11666328158997036,-1.095362823875297,-0.6721603013610304,-0.0310077943940912,0.007889569882057532,-0.10175237483873485,-0.49979735731317004,-0.3668237183971394,0.08486771811141236,-3.0300631077731737,0.6467579035209636,-0.00034308742951946606,-0.053163983150290715,-0.008218641785191418,-0.0012405485729136464,0.0169957571746691,0.0033978113101078224,-0.008905779226265556,0.4314667582511902,-1.1797741216472168,1.6255486647235315,-1.988873144189352,-1.6055949370013636,2.427119493484497,-0.01603744924068451,0.10923180729150772,-0.15616358816623688,0.05078898370265961,-0.01726672425866127,-0.006631708238273859,0.09576806426048279,-0.2106897532939911,-9.825803756713867,0.8045620322227478,47.71017074584961,-0.7332192659378052,-3.911818504333496,-3.0701231956481934,-0.15459036827087402,-0.15260979533195496,-0.33974045515060425,28.3125,29.5,28.75,32.8125,35.1875,36.4375
0.890234676990076,1.3920137732405045,1.1941524120765794,-0.13219396664153868,0.04157865998995046,-0.05580101322426932,-0.11027122896887481,-0.5003813405071998,-0.3669150688708785,0.0849079654192526,-3.030009671225994,0.6469750481997811,2.7447398143737048e-05,-0.04998416688281843,-0.008227963337078207,0.0019625114556168456,0.010877228033589528,0.009234521332162042,-0.008864955128030608,0.4312751293182373,-1.1787600976279755,1.6240108648883265,-1.9885403118529261,-1.6057494322406214,2.4270713329315186,-0.015338326804339886,0.09572748839855194,-0.14368365705013275,0.04395688325166702,-0.014120458625257015,-0.006066843867301941,0.363918662071228,-0.6129156351089478,-9.308655738830566,0.7687462568283081,47.70838165283203,-0.6248995065689087,-3.9700708389282227,-2.7559049129486084,-0.005936719477176666,-0.12669171392917633,-0.3478177785873413,28.3125,29.5,28.75,32.8125,35.1875,36.4375
0.9002421559998766,2.194446207828106,1.9528825077575578,-0.12746939382549588,0.06810776539581377,-0.0777827351506393,-0.10881902347514873,-0.5008318034442792,-0.3670005241857573,0.08491686205586757,-3.0299099679828743,0.6470254759158891,0.00011130417518290292,-0.04225680944449687,-0.006877520727009438,0.002432617618169467,0.01033501192269295,0.0023166359599583923,-0.007717373246767605,0.43114379048347473,-1.1778539580157776,1.6226657072650355,-1.9880958996214808,-1.6058562437640589,2.4269871711730957,-0.013683464378118515,0.08287595212459564,-0.12801778316497803,0.047199759632349014,-0.010681232437491417,-0.005654211156070232,0.7661445140838623,-0.9193734526634216,-9.28950309753418,0.7933669090270996,47.73883056640625,-0.671583890914917,-3.8289694786071777,-2.760698080062866,0.04016905277967453,-0.14404860138893127,-0.3737430274486542,28.3125,29.5,28.6875,32.8125,35.1875,36.4375
0.9102389999898151,0.9011763881592413,0.5622535618027589,-0.49317619723562595,0.040889506493112925,-0.05713454155716534,-0.09412586685622085,-0.5011863245917821,-0.3670249896268233,0.08492650690071313,-3.0297059029954854,0.64714541542014,1.7057484610558204e-05,-0.032311092454707424,-0.003929806335921023,0.0008859074721572059,0.013729590301888524,-0.010908984057288679,-0.006310456637674059,0.4309881925582886,-1.1771149796298523,1.6215241591082972,-1.9875432453551234,-1.6059635321246546,2.4269392490386963,-0.012422828003764153,0.07029902935028076,-0.10889992862939835,0.054074183106422424,-0.00818626582622528,-0.0058671110309660435,0.47884035110473633,-0.7852981090545654,-9.423578262329102,0.7911257743835449,47.69136428833008,-0.646131694316864,-3.7090373039245605,-2.883070945739746,-0.12042021006345749,-0.14884543418884277,-0.3646450638771057,28.3125,29.5,28.6875,32.8125,35.1875,36.4375
0.9202385879907524,0.3706840777412973,-0.05687000597740283,-0.35236818126263025,-0.006284040074817468,-0.019125964407424104,-0.11395939619653407,-0.5014568144667529,-0.3670427471824391,0.0849337374360789,-3.0294525098598295,0.6471945475005378,-0.00020474450225055192,-0.026779886927544384,-0.0027029197327347876,0.0008263309235625924,0.013344121685346084,-0.012797930401895037,-0.005568075055160018,0.43088069558143616,-1.176471547489502,1.6205013434039515,-1.9869090519347132,-1.6060708204852503,2.426903247833252,-0.011004813946783543,0.05982469022274017,-0.09391526132822037,0.05113576352596283,-0.007006349973380566,-0.0052238148637115955,0.2298433631658554,-0.3447650372982025,-9.653421401977539,0.7127973437309265,47.70748519897461,-0.615656316280365,-3.6865193843841553,-2.922943115234375,-0.3124806582927704,-0.14137637615203857,-0.38897964358329773,28.3125,29.5,28.6875,32.8125,35.1875,36.4375
0.9302369349898072,0.37523885595772366,-0.05918819891224769,-0.31234978076441944,0.02108799484270514,-0.0318348529405662,-0.10525237100352272,-0.5017269789908928,-0.36710858753173514,0.0849707466122161,-3.029410729971621,0.6472025475823482,-0.00020318637828839678,-0.025254209926706444,-0.004651130995230318,0.0022652886426707485,0.0050976275614214315,-0.0018006409830369162,-0.003427320926001352,0.4308095872402191,-1.1759355825236817,1.6196096579181116,-1.986532827416891,-1.6061056295977991,2.4268438816070557,-0.008463280275464058,0.05043356120586395,-0.08089213073253632,0.03406691178679466,-0.0041099595837295055,-0.004910188727080822,0.26815059781074524,-0.47884035110473633,-9.481039047241211,0.7956027388572693,47.660911560058594,-0.5271288156509399,-3.630715847015381,-2.8481554985046387,-0.3408074975013733,-0.14851617813110352,-0.3781849443912506,28.3125,29.5,28.6875,32.8125,35.1875,36.4375
0.9402379829989513,0.5716727772830664,0.22198318731582736,-0.13106878828207988,0.03475977372112034,-0.052811528753587834,-0.09887963787492719,-0.5019523877922434,-0.36715758909713786,0.08497104881526463,-3.029358153581376,0.6472072574782912,-0.00019177377020176666,-0.022316149460959566,-0.005184019181829108,0.002971520080435307,0.0006973085440977352,0.005268404715529005,-0.0020115280622157797,0.43075037002563477,-1.1754595202258606,1.618908707295553,-1.9862853489317835,-1.6061528364764612,2.4267959594726562,-0.006164115387946367,0.040595829486846924,-0.06643021106719971,0.021207332611083984,-0.003039533505216241,-0.004061109386384487,0.4213795065879822,-0.47884035110473633,-9.385271072387695,0.7978386282920837,47.705692291259766,-0.5259253978729248,-3.698153257369995,-2.728952646255493,-0.2691583037376404,-0.14921467006206512,-0.3754628300666809,28.3125,29.5,28.6875,32.8125,35.1875,36.4375
0.9502386199892499,0.9574520690930668,0.49995953926971126,-0.06684170953588565,0.026965947973283992,-0.05182061805383687,-0.09897715933168656,-0.5021731607859012,-0.36721196896309516,0.08501776802927169,-3.029408370029961,0.6473152140735964,-4.852147850807295e-05,-0.01710230180973699,-0.004590345593197002,0.0022814669337344697,0.00015941752136075477,0.005375352348721516,-0.00011997519993847553,0.4306792914867401,-1.1751154226115723,1.6183045546161097,-1.9861437282957972,-1.6061528364764612,2.4267842769622803,-0.0036881305277347565,0.031174857169389725,-0.05065813660621643,0.01455242931842804,-0.0025601941160857677,-0.003492838703095913,0.4213795065879822,-0.5171475410461426,-9.308655738830566,0.7709873914718628,47.69584274291992,-0.4877011775970459,-3.7050702571868896,-2.683586359024048,-0.2595309615135193,-0.14303994178771973,-0.3787287473678589,28.3125,29.5,28.6875,32.8125,35.1875,36.4375
0.9602390969957924,0.8060213822744057,0.12463121776230562,-0.20543354633489447,0.022981593679969194,-0.04772327217309889,-0.09673807037905384,-0.5023119853134275,-0.367264643244761,0.0850667455327952,-3.0294517888882773,0.6472680659743082,4.636889447317525e-05,-0.011697126463883305,-0.003614452195449521,0.0014222859020125449,-2.3978525121132213e-06,0.0038005367056027912,0.0007347282282596217,0.4306679666042328,-1.1748908025077363,1.6178563276873987,-1.9859897098936976,-1.6061647574054163,2.426736354827881,-0.0018370440229773521,0.021976390853524208,-0.03517696633934975,0.009663989767432213,-0.0017067238222807646,-0.0025217689108103514,0.4213795065879822,-0.49799394607543945,-9.366117477416992,0.7486078143119812,47.72002029418945,-0.3747274875640869,-3.8691792488098145,-2.684292793273926,-0.24198466539382935,-0.1428374946117401,-0.387170672416687,28.3125,29.5,28.6875,32.8125,35.1875,36.4375
0.9702372519968776,0.6509492465249087,-0.16101585559835266,-0.2756798463103457,0.029245960881502588,-0.04309671234200941,-0.09815123681375817,-0.5023725313702351,-0.3672889924242883,0.08502551786656767,-3.0294332951095826,0.6472059362711248,1.0627684318122554e-05,-0.006042085241534513,-0.0019564953285983906,-0.0001250794761504119,0.0003203783430757657,0.0012217632028957187,0.0014129825120890631,0.43066832423210144,-1.1746902626803895,1.6176703611956995,-1.9859677753844203,-1.6061766783343714,2.4267008304595947,-0.0008125061285682023,0.012761351652443409,-0.018008720129728317,0.004197028465569019,-0.0008894579950720072,-0.0022003157064318657,0.363918662071228,-0.5554547905921936,-9.404424667358398,0.7553206086158752,47.69584274291992,-0.32882851362228394,-3.8687891960144043,-2.711825132369995,-0.27555179595947266,-0.1438477635383606,-0.40497180819511414,28.3125,29.5,28.6875,32.8125,35.1875,36.4375
0.9802422029897571,1.0252074052331026,1.183810412065612,-0.30243903952603063,0.03747888783518534,-0.044133926900899643,-0.10409269258421558,-0.5024047196576843,-0.36731229273107296,0.08503581197357787,-3.029450820716478,0.6472297485833692,5.5996966002020885e-05,-0.00217631662853478,-0.0007852627566486998,0.0009443632554841707,-0.001688711668145014,0.004824767803053546,0.0009841461029356183,0.43068060278892517,-1.1746342939189454,1.6175687948810022,-1.9859582386412562,-1.6061762014972132,2.426725149154663,-7.281261787284166e-05,0.0011222962057217956,-0.002963351085782051,-0.0032828461844474077,-0.0005219363956712186,-0.001044555800035596,0.3447650372982025,-0.689530074596405,-9.308655738830566,0.7911257743835449,47.703006744384766,-0.16723328828811646,-4.262332916259766,-2.241396903991699,-0.30352041125297546,-0.1093423143029213,-0.3811451196670532,28.3125,29.5,28.6875,32.8125,35.1875,36.4375
0.9902407159970608,0.019313091638961777,0.9270723230185797,-0.6249185954292256,0.06273922762033424,-0.0525834206687021,-0.09908177541786468,-0.5023832724993481,-0.36730239705327655,0.08502483423617277,-3.029438048232874,0.6471500898773443,-5.713668834418544e-06,-0.0001706564661138318,4.2618192181648305e-05,-0.00031056437319340754,-0.0001399652079267498,0.0011221625169532644,0.0009491087345451523,0.43068063259124756,-1.1746468108943482,1.6176055113421839,-1.9859339199461878,-1.6061762014972132,2.4266774654388428,-2.1786994951200622e-12,-1.3041943702774006e-06,0.0011767963878810406,-0.002285229042172432,-0.00036898712278343737,-0.0009404671145603061,0.05746084079146385,-0.4405331015586853,-9.385271072387695,0.7553206086158752,47.71464920043945,-0.2891155481338501,-4.291748046875,-2.6142053604125977,-0.31799376010894775,-0.1296212524175644,-0.3851814866065979,28.3125,29.5,28.6875,32.8125,35.1875,36.4375
1.0002399579971097,-1.3201436059899032,-1.5482985050681044,-0.5282781443709932,-0.038157188842899536,0.06394780167472187,-0.11687092158261735,-0.50234335396415,-0.3672878722290818,0.08500065721205208,-3.0293869717569146,0.6471548502164334,-0.00013712457607940214,0.001737044126969782,0.000910271573212275,-0.001046695632212741,0.001941997791547954,-0.00354155702637639,0.0019281589810762995,0.43068063259124756,-1.1746590596488495,1.6176660696612757,-1.985884805718893,-1.606164280568258,2.4266889095306396,-9.47015778467555e-22,-0.0009309254237450659,0.0032988653983920813,0.0015948469517752528,-0.00032542235567234457,-0.0019203622359782457,-0.26815059781074524,0.019153613597154617,-9.825803756713867,0.7777001857757568,47.723602294921875,-0.29517942667007446,-4.18815279006958,-2.7188315391540527,-0.38456976413726807,-0.13563333451747894,-0.3899974822998047,28.3125,29.5,28.6875,32.8125,35.1875,36.4375
1.0102373749978142,0.48143318515168576,0.1942822149911208,0.5053562221752322,-0.01893067383850484,0.016208564373222795,0.004818950746744576,-0.5023919161082364,-0.3673143887069982,0.08506749672792241,-3.0294987776660296,0.6471263582540435,4.339923828321767e-05,0.0001336956558764101,0.00015570605783993925,8.011371546590603e-05,0.0004361556395967692,-0.0003409903785778478,0.0012445320957921138,0.43068063259124756,-1.1746948224357148,1.6175697485553187,-1.985908647576803,-1.6061518828021448,2.4266529083251953,-4.116395958669961e-31,-0.00022848369553685188,2.032213064495636e-09,0.0006781005067750812,-0.00028477818705141544,-0.00123761803843081,0.07661445438861847,-0.47884035110473633,-9.27034854888916,0.7978386282920837,47.734352111816406,-0.2828633785247803,-4.159427642822266,-2.5488572120666504,-0.3517001271247864,-0.15267717838287354,-0.3955375552177429,28.3125,29.5,28.6875,32.8125,35.1875,36.4375
1.020241687001544,1.234725076146455,0.8338145987132837,0.6564688009631516,0.0009893841433489111,-0.01887328906055924,0.007588949550684231,-0.5023940069031773,-0.3673113391988811,0.08504750433281327,-3.0294790768566564,0.6470834621423778,7.972960842366076e-05,-0.00031929668205077746,0.0003937623442864644,0.00020217913755000527,0.0012240865377804266,0.0009128129586919311,0.0014969026463214252,0.4306926429271698,-1.1746708315661927,1.6175926367389124,-1.9859572849669398,-1.6061885992633265,2.4266409873962402,-5.336824688129127e-05,-0.00013970305735711008,-0.00022590687149204314,2.2686005962668787e-08,-0.0015339485835283995,-0.0015091790119186044,0.09576806426048279,-0.40222588181495667,-9.21288776397705,0.7575564384460449,47.7244987487793,-0.4530640244483948,-4.157607078552246,-2.5493834018707275,-0.33909499645233154,-0.14545157551765442,-0.381335586309433,28.3125,29.5,28.6875,32.8125,35.1875,36.4375
1.0301941299985629,-0.012602980670891217,-0.7331263814348484,0.13792018658675825,-0.03256246776555067,0.018351763099776222,0.006413393282830691,-0.5023673657877036,-0.3672869875716987,0.08505739593381362,-3.029441881636239,0.6470740835983926,3.088137692043648e-05,-0.00023911609275775457,0.0004718946916730455,7.828494077736879e-05,0.001398820754675794,0.0007180599214355968,0.0010502327558813192,0.43068060278892517,-1.1747307640365143,1.6176403204547327,-1.9858972034850062,-1.6062005201922815,2.426629066467285,-8.212574903154746e-05,-0.00010066234972327948,-1.6374042963521185e-12,-3.617655508492135e-08,-0.0016000049654394388,-0.0010889385594055057,0.09576806426048279,-0.09576806426048279,-9.461885452270508,0.7374180555343628,47.69584274291992,-0.40356194972991943,-4.162051200866699,-2.547247886657715,-0.3435300588607788,-0.13269825279712677,-0.38896849751472473,28.3125,29.5,28.6875,32.8125,35.1875,36.4375
1.0402113439922687,0.4319776827119488,0.010179151604083392,0.38234605421928974,-0.03280116410406267,0.014085232407019877,-7.640482437009115e-05,-0.502353695663965,-0.36728461664420037,0.0850092778083911,-3.0294154345301783,0.6470288563861293,-7.401053223395364e-05,0.0014509902734644912,0.0012515563658064585,-0.003940945784164041,0.0037811203140313645,-0.004562512331399191,0.0013881867457490016,0.43068060278892517,-1.1746696692756196,1.617667023335592,-1.9859100780882777,-1.6061885992633265,2.426605224609375,-9.914475958794355e-05,0.0031665239948779345,0.005067641381174326,-0.0025545423850417137,-0.0015644035302102566,-0.0014452238101512194,0.05746084079146385,-0.26815059781074524,-9.346963882446289,0.7687462568283081,47.725399017333984,-0.4463094472885132,-3.946899890899658,-2.4629125595092773,-0.427947998046875,-0.16010552644729614,-0.38316410779953003,28.3125,29.5,28.6875,32.8125,35.1875,36.4375
1.0501371110003674,0.7946993652991492,0.16629191579531252,0.39597556666357064,-0.025032945013680655,0.01763796584290233,-0.003394316787762291,-0.5023878837357172,-0.3672805443620466,0.08501500236040954,-3.0294371139391756,0.6470737806317033,8.146412824557496e-05,1.5939082547147345e-05,0.00039941966294676495,-0.0027176941768484557,0.0009308715777796036,0.00036172958933239677,0.0005655413524521826,0.43066856265068054,-1.1746700269034882,1.6176779905902308,-1.9860192737975062,-1.6062243620501917,2.426617383956909,-8.473255729768425e-05,0.0023658587597310543,0.004230005666613579,-0.006554039195179939,-0.0010200083488598466,-0.0006241823430173099,0.07661445438861847,-0.5171475410461426,-9.385271072387695,0.7709873914718628,47.7244987487793,-0.4883022904396057,-3.5551722049713135,-2.11840558052063,-0.4933476150035858,-0.16276824474334717,-0.37630051374435425,28.3125,29.5,28.6875,32.8125,35.1875,36.4375
1.0601315019885078,0.8937411305856027,0.2609070621234472,0.3874100120403403,-0.03278547346213871,0.026062890553861327,-0.004812644985455163,-0.5023613415656523,-0.3672844800761877,0.08495827111522103,-3.029418202566675,0.6469922043927843,7.753873876166259e-06,-0.0005654591338562372,0.00022887992728991825,-0.0044541109685226725,-0.00021884916169725467,0.0034979270028625623,0.00044894954948292403,0.4306926429271698,-1.1746215981296082,1.6177519003497522,-1.986082216302389,-1.6062243620501917,2.426593542098999,-9.765378490556031e-05,0.003567496547475457,0.008243276737630367,-0.015093877911567688,-0.0012936388375237584,-0.0005152454250492156,0.0,-0.13407529890537262,-9.500192642211914,0.7687462568283081,47.71017074584961,-0.5526378750801086,-3.4733123779296875,-2.084841012954712,-0.5594563484191895,-0.142866313457489,-0.37032514810562134,28.3125,29.5,28.6875,32.8125,35.1875,36.4375
1.0702417549910024,0.5090565906291327,0.6875238437139854,0.8724197037695915,-0.026989206073108264,0.015600818773492148,-0.0032554844688764514,-0.5023570133045557,-0.3672824803518383,0.08489871995474771,-3.02941901592615,0.6469925163504329,9.175556717999633e-06,-0.0016916713161591469,-0.00026932988551925553,-0.007318733097822536,-0.0014443724627805031,0.005731219677345884,0.00030620457767187553,0.4306926131248474,-1.174572305088379,1.6178482214557093,-1.9862290821471156,-1.6062243620501917,2.426593542098999,-0.0002141011063940823,0.00765421474352479,0.011006254702806473,-0.024484537541866302,-0.0011284417705610394,-0.0004959392827004194,0.038307227194309235,-0.26815059781074524,-9.174580574035645,0.7396538853645325,47.70748519897461,-0.5287573933601379,-3.4489612579345703,-1.8484423160552979,-0.6417714357376099,-0.16466398537158966,-0.3871791362762451,28.3125,29.5,28.6875,32.8125,35.1875,36.4375
1.0802328739955556,0.3875872107670761,0.02770707251273849,1.1063393049959274,-0.014683966429544797,0.019341916125735714,0.0005767657628621105,-0.5023992677662452,-0.36728203313235763,0.08482012703400302,-3.029454762078988,0.6470030086092543,0.0001767342077226748,-0.0027107925657037157,-0.0003824614184286397,-0.01104372671498619,-0.0023353585138466636,0.007337427907877389,0.00023827472603227262,0.43068036437034607,-1.1744745534709473,1.6179564634906214,-1.9865442715086878,-1.606260124837057,2.426581621170044,-0.0008025094284676015,0.012319980189204216,0.015175187960267067,-0.03516973927617073,-0.0010195333743467927,-0.0010227580787613988,0.07661445438861847,-0.325611412525177,-9.117119789123535,0.7396538853645325,47.699424743652344,-0.5812772512435913,-3.3361756801605225,-1.8246748447418213,-0.6844423413276672,-0.164282888174057,-0.37464776635169983,28.3125,29.5,28.6875,32.8125,35.1875,36.4375
1.090239097000449,0.6663504429895377,-0.10031050482024012,1.1462104948680987,-0.046800007750703546,0.035423164112988306,-0.008541138928720776,-0.50241054445331,-0.36729141268077903,0.08471403508754452,-3.0294806027767005,0.6469908776806403,0.00031776846872707886,-0.004239251506738863,-0.0010562213525433261,-0.013941818422512768,-0.005097321502936128,0.012820141848325311,0.00014152229582558922,0.430704265832901,-1.1743777257255097,1.6181376616107386,-1.9869080982603968,-1.6062963644610804,2.42659330368042,-0.0009492855751886964,0.015400303527712822,0.020439833402633667,-0.04965273290872574,-0.000823788286652416,-0.0010825247736647725,-0.038307227194309235,-0.26815059781074524,-9.155426979064941,0.7665104269981384,47.70927429199219,-0.6692301034927368,-3.3026413917541504,-1.7512826919555664,-0.6594327092170715,-0.14223474264144897,-0.3981916904449463,28.3125,29.5,28.6875,32.8125,35.1875,36.4375
