Tylouw/Master_Thesis_Code/training_data/batch_1/rect_rod_t0.2/sample_13_session_1.csv
timestamp[s],tcp_force_x[N],tcp_force_y[N],tcp_force_z[N],tcp_force_rx[Nm?],tcp_force_ry[Nm?],tcp_force_rz[Nm?],tcp_pose_x[m],tcp_pose_y[m],tcp_pose_z[m],tcp_pose_rx[rot_vec_x],tcp_pose_ry[rot_vec_y],tcp_pose_rz[rot_vec_z],tcp_velo_x[m/s],tcp_velo_y[m/s],tcp_velo_z[m/s],tcp_velo_rx[rot_vec_x/s],tcp_velo_ry[rot_vec_y/s],tcp_velo_rz[rot_vec_z/s],q1[rad],q2[rad],q3[rad],q4[rad],q5[rad],q6[rad],qd1[rad/s],qd2[rad/s],qd3[rad/s],qd4[rad/s],qd5[rad/s],qd6[rad/s],tool_acc_x,tool_acc_y,tool_acc_z,current_of_whole_robot[A],voltage_of_whole_robot[V],current_J1[A],current_J2[A],current_J3[A],current_J4[A],current_J5[A],current_J6[A],temp_J1[C],temp_J2[C],temp_J3[C],temp_J4[C],temp_J5[C],temp_J6[C]
5.740003e-07,-0.9124604,-0.9390802,-0.17174526,-0.01960712,0.007397857,0.005367726,-0.38933635,-0.368693,0.059998825,-3.0786684,0.62497854,0.00017644756,0.0005464358,0.00029684388,-0.00017884589,0.0008198441,-0.0017468218,3.8431914e-05,0.5049969,-1.3816559,1.9042348,-2.091903,-1.5708655,2.4800253,-7.085264e-05,-3.0840492e-05,-3.3577174e-07,0.0019560987,0.00013217752,-0.000109691544,0.095768064,0.11492168,-8.580819,0.7284641,47.709274,-0.15504621,-3.0628,-2.308384,-0.17414562,0.18749662,-0.009696126,28.8125,30.125,29.25,32.8125,35.3125,36.5
0.002052383,-1.0137167,-0.41727704,-0.14731984,-0.027590014,0.011192181,0.011493568,-0.389346,-0.36872864,0.060009405,-3.0787327,0.6249149,0.00021149946,-0.0010254813,-0.00057679345,-0.0005877381,-0.002854477,0.004867308,3.7429232e-05,0.5050329,-1.3816319,1.9041885,-2.0919306,-1.5708417,2.4800134,-6.904084e-05,-4.1376458e-07,0.0033847902,-0.009025649,0.00012946123,-0.00010708111,0.05746084,0.17238252,-8.599973,0.75084364,47.70032,-0.1730457,-3.0168304,-2.366047,-0.13942757,0.18427472,-0.015265182,28.8125,30.125,29.25,32.8125,35.3125,36.5
0.004052077,-0.53303975,-0.49238905,0.017903848,-0.035967242,0.02959794,-0.0053263297,-0.38933638,-0.36870453,0.060003653,-3.07869,0.62496394,0.00018159997,-0.0014694141,-0.0008336548,-0.002000489,-0.0024357145,0.0041035092,5.2295152e-05,0.5050088,-1.3816547,1.9042233,-2.0919073,-1.5708536,2.4800253,-5.2564825e-05,0.0033680145,0.003128161,-0.011266385,0.00012685443,-0.00010459228,0.019153614,0.1340753,-8.561666,0.7642693,47.703903,-0.2210303,-3.3980517,-2.589233,-0.04413469,0.17740896,-0.014893413,28.8125,30.125,29.25,32.8125,35.3125,36.5
0.006052395,-0.86841315,-0.73589975,-0.10820624,-0.012610421,0.007270012,0.00834087,-0.38932428,-0.3687121,0.059992716,-3.0787005,0.6249466,0.00019404916,-0.000463196,-0.0002782317,-0.0015286081,-0.00074127305,0.0010657965,5.8280577e-05,0.5050329,-1.3816551,1.9042591,-2.091953,-1.5708536,2.4800372,-4.3890974e-05,0.0023081303,0.0020277807,-0.0056277895,0.0001243505,-0.000102216356,-0.019153614,0.21068975,-8.619126,0.7284641,47.70211,-0.16219816,-3.3544452,-2.5021868,-0.068174385,0.20216763,-0.024863362,28.8125,30.125,29.25,32.8125,35.3125,36.5
0.008052644,-0.72351086,-0.14686908,-0.6869227,0.022582393,-0.02153977,0.008805649,-0.38934705,-0.3687034,0.059988968,-3.0786927,0.62494457,0.00017911258,0.00045789304,0.0002347833,-0.0004975586,0.00037809997,-0.0009318847,7.396658e-05,0.5049969,-1.3816198,1.9042228,-2.0919397,-1.5708536,2.480001,-4.274939e-05,7.136929e-05,0.0010831942,-0.00015653766,0.000121943594,-0.000117309355,-0.019153614,0.17238252,-8.714894,0.800085,47.73077,-0.17639655,-3.1951556,-2.47128,-0.11264561,0.18647197,-0.029731024,28.8125,30.125,29.25,32.8125,35.3125,36.5
0.010051744,-0.5350695,0.315731,-1.1001954,0.02588526,-0.018731382,0.007653553,-0.3893304,-0.3687155,0.059986975,-3.078692,0.624983,0.00019180989,0.0014019908,0.0007680886,-0.0006753919,0.0021109998,-0.004043819,6.0816627e-05,0.5050329,-1.3816319,1.9042467,-2.091962,-1.5708536,2.480061,-5.548692e-05,9.575102e-07,0.0006485423,0.003910416,0.00011962781,-0.00011715777,0.11492168,0.15322891,-8.90643,0.72622824,47.68599,-0.6879082,-2.7667165,-2.9130392,-0.16956475,0.17673877,-0.12399368,28.8125,30.125,29.25,32.8125,35.3125,36.5
0.012051785,-0.70903754,-0.6151778,-1.1856112,-0.005564504,0.0074573117,0.0053417794,-0.38931778,-0.36869586,0.059975635,-3.0786676,0.62495935,8.1775404e-05,0.0006212163,0.00054392486,-0.001032005,0.0019825755,-0.0038173166,3.750734e-05,0.5049967,-1.3816311,1.9042581,-2.0919025,-1.5708297,2.4800131,-0.00040874447,0.0019003291,-0.00057004567,0.0029692354,0.00011739873,-0.0004462098,0.17238252,0.11492168,-9.078813,0.7530795,47.64837,-0.8853401,-2.6528006,-3.014426,-0.15259825,0.17399988,-0.16141956,28.8125,30.125,29.25,32.8125,35.3125,36.5
0.014051721,-1.62306,-1.522411,-1.4116924,-0.04445102,0.021419529,0.0013066323,-0.38932142,-0.3686993,0.059957854,-3.0786197,0.6248907,8.526934e-05,-0.0044878703,0.0042907447,-0.0045605334,0.0046184314,-0.008635177,0.0010941952,0.50502884,-1.3815676,1.9042209,-2.091891,-1.5708774,2.4800086,-0.011507812,0.011967615,-0.004224784,0.0020460985,0.00013062036,-0.012598794,0.038307227,0.15322891,-9.3661175,0.75755644,47.652847,-0.45612955,-3.2119498,-2.944404,-0.12424162,0.17461474,-0.106004074,28.8125,30.125,29.25,32.8125,35.3125,36.5
0.016051631,-1.6909698,-1.2568994,-1.4420978,-0.08093822,0.053005107,-0.02108244,-0.38933522,-0.36866844,0.05994837,-3.0785844,0.62495625,1.6830736e-05,-0.0057205595,0.0042118924,-0.0035215898,0.0033768911,-0.0063998257,0.007804981,0.50495654,-1.3815558,1.9042205,-2.0918553,-1.5708655,2.4799817,-0.012527153,0.011318435,-0.005730236,0.0016425804,0.00012927759,-0.020328369,-0.15322891,0.22984336,-9.385271,0.7486078,47.67345,-0.43574214,-3.1561298,-2.9694533,-0.12314446,0.17847389,-0.03316093,28.8125,30.125,29.25,32.8125,35.3125,36.5
0.018051911,-2.1108212,-1.4769658,-1.4770935,-0.070058316,0.07436253,-0.04140488,-0.38933957,-0.36866856,0.059935126,-3.0785863,0.6249152,-2.3800772e-05,-0.0052485126,0.003775508,-0.0026793838,0.0025922996,-0.004976464,0.013676456,0.5049452,-1.3815205,1.904209,-2.0918553,-1.5708536,2.4799445,-0.011348398,0.009240928,-0.0051673516,0.0015314298,0.00012706172,-0.025021639,-0.4213795,0.21068975,-9.500193,0.7866488,47.705692,-0.7037638,-2.8393412,-3.219479,-0.11700852,0.18322796,-0.0039679306,28.8125,30.125,29.25,32.8125,35.3125,36.5
0.020052042,-2.1975076,-0.7460711,-1.7909108,-0.03585812,0.08019853,-0.06174865,-0.38933223,-0.36866853,0.05992962,-3.0786011,0.62484354,-5.2134175e-05,-0.005117934,0.0047872746,-0.0035403136,0.0046178945,-0.008624488,0.010204653,0.5049446,-1.3815199,1.9042205,-2.0918539,-1.5708417,2.4798973,-0.012928822,0.0109545905,-0.005972913,0.004796574,0.00012486246,-0.023130002,-0.5554548,0.1340753,-9.461885,0.8247004,47.690468,-0.82312775,-2.871131,-3.3180876,-0.12361017,0.16904148,-0.012924227,28.8125,30.125,29.25,32.8125,35.3125,36.5
0.022051921,-2.3088531,-0.30695367,-1.9570378,-0.0067050955,0.07420667,-0.08182051,-0.3893349,-0.36866957,0.059916213,-3.0785928,0.6248064,-8.077115e-05,-0.006811358,0.005206649,-0.0029244863,0.0042252736,-0.007926973,0.0054634367,0.50494385,-1.3814836,1.9042081,-2.0918539,-1.5708417,2.4798744,-0.015221005,0.01182406,-0.008624277,0.0057784156,0.00012748098,-0.020679856,-0.47884035,0.076614454,-9.653421,0.7620334,47.682407,-0.8445321,-2.8001714,-3.377844,-0.16440487,0.19073331,-0.042981476,28.8125,30.125,29.25,32.8125,35.3125,36.5
0.02405182,-2.2866693,-0.20864446,-1.8373376,-0.017447025,0.07321804,-0.10283019,-0.38932803,-0.36865544,0.059897073,-3.078556,0.62476236,-0.00019211591,-0.009109108,0.005403129,-0.0027335854,0.0033949472,-0.006515471,0.0010974039,0.504919,-1.3814468,1.9041947,-2.0917943,-1.5708297,2.4798267,-0.017724141,0.014052894,-0.011458065,0.004746711,0.00016139135,-0.018815406,-0.59376204,0.019153614,-9.691729,0.8291774,47.71465,-0.7997791,-2.6973848,-3.3071713,-0.14058757,0.17610413,-0.060463436,28.8125,30.125,29.25,32.8125,35.3125,36.5
0.02605236,-2.464098,-1.0084138,-2.1890128,-0.01895214,0.0748818,-0.102378696,-0.3893759,-0.36863214,0.059886,-3.078545,0.6248565,-0.00017791441,-0.010089927,0.004960367,-0.0025746657,0.0025594514,-0.0050722254,-0.0006672071,0.504835,-1.3813983,1.9041709,-2.091831,-1.5708297,2.4798028,-0.017912483,0.015155884,-0.012799899,0.003318373,0.0001883862,-0.017238306,-0.7661445,0.095768064,-9.691729,0.7597976,47.71286,-0.84778863,-2.7899785,-3.3401628,-0.1256386,0.18834808,-0.09041861,28.8125,30.125,29.25,32.8125,35.3125,36.5
0.028052188,-3.1426241,-1.4723314,-2.3064487,-0.032881055,0.084449634,-0.109813206,-0.3893833,-0.3686596,0.059886478,-3.0785747,0.62480617,-0.00020294164,-0.010973347,0.004620242,-0.002828182,0.0020221577,-0.0051679057,-0.0021152059,0.50485873,-1.3813496,1.9041094,-2.0918186,-1.570805,2.4797914,-0.018486936,0.017225474,-0.014558437,0.002829821,0.0007003289,-0.016364548,-0.8619126,0.076614454,-9.80665,0.7777002,47.731667,-0.8401891,-2.7523885,-3.3350554,-0.106379814,0.19295147,-0.12184233,28.8125,30.125,29.25,32.8125,35.3125,36.5
0.030052474,-3.3695726,-1.2500538,-2.2993302,-0.047958016,0.095228255,-0.13379268,-0.38940126,-0.36864355,0.059879746,-3.0785427,0.62480015,-0.00023435902,-0.01119013,0.004982405,-0.002662838,0.0019836891,-0.006038213,-0.002995746,0.5048224,-1.3813136,1.9040741,-2.0917828,-1.5708169,2.4797554,-0.019583024,0.017162738,-0.01518552,0.004260915,0.0011560409,-0.016580835,-0.8236054,0.05746084,-9.921572,0.75084364,47.704796,-0.9210503,-2.8240213,-3.3774009,-0.11247545,0.17207275,-0.15182823,28.8125,30.125,29.25,32.8125,35.3125,36.5
0.032052405,-2.6991968,-0.6104373,-2.055966,-0.04894391,0.1129599,-0.14384912,-0.38943806,-0.3686166,0.059895124,-3.0785291,0.62489325,-0.00019474015,-0.011402829,0.005390586,-0.0029254584,0.0030634657,-0.007656193,-0.0028940744,0.5047504,-1.3813252,1.9040498,-2.0917695,-1.5708293,2.4797432,-0.020367807,0.018355668,-0.016453823,0.006275021,0.0009949695,-0.017466486,-0.7661445,-0.076614454,-9.9790325,0.78217715,47.704796,-0.9201838,-2.804006,-3.3397107,-0.11919671,0.1704766,-0.16568889,28.8125,30.125,29.25,32.8125,35.3125,36.5
0.034052607,-2.9643312,-1.5294794,-2.2892618,0.0039553707,0.09998618,-0.13872653,-0.38945818,-0.36860186,0.05985101,-3.078479,0.62486315,-0.00026784107,-0.012166507,0.005640237,-0.0024340502,0.0026744353,-0.006643933,-0.0030852987,0.50471413,-1.3812172,1.9040254,-2.0917819,-1.5708412,2.4796946,-0.021405915,0.018007392,-0.017156951,0.006252526,0.00084258616,-0.018312931,-0.7469909,0.0,-9.940725,0.7978386,47.693153,-0.99332887,-2.708909,-3.375883,-0.1205243,0.19207889,-0.16878784,28.8125,30.125,29.25,32.8125,35.3125,36.5
0.036052227,-2.4176621,-0.4231136,-1.9436594,0.0047547272,0.087694354,-0.16048585,-0.38946977,-0.3686097,0.059852865,-3.078504,0.6248308,-0.00029342345,-0.01389973,0.006008597,-0.001982526,0.0018589571,-0.005159559,-0.0039063822,0.50470126,-1.3811929,1.9039897,-2.09177,-1.5708169,2.4796584,-0.02363992,0.018711615,-0.018859796,0.0055578416,0.00083269895,-0.019724954,-0.57460845,0.019153614,-9.864111,0.7463667,47.69763,-0.8887118,-2.7658176,-3.332872,-0.12683505,0.18216807,-0.18741903,28.8125,30.125,29.25,32.8125,35.3125,36.5
0.038052503,-2.3398647,-0.61583453,-1.9305003,0.008400522,0.06424321,-0.16838105,-0.38951263,-0.36857855,0.059851587,-3.0784698,0.6249589,-0.00027858457,-0.016182682,0.0063521587,-0.0014253865,0.0007039357,-0.0029110385,-0.005021851,0.5046165,-1.3811685,1.9039639,-2.0917704,-1.5708293,2.479658,-0.026297845,0.019748015,-0.021039532,0.0041744187,0.0007477274,-0.021266054,-0.61291564,0.0,-9.825804,0.7709874,47.70211,-0.8095233,-2.7119756,-3.3341787,-0.11116747,0.19648305,-0.17485791,28.8125,30.125,29.25,32.8125,35.3125,36.5
0.040052444,-2.2271485,-0.74792683,-2.0928051,-0.0013233279,0.04966876,-0.17881621,-0.38956112,-0.3685556,0.05984781,-3.078466,0.6249764,-0.00027808375,-0.017138401,0.006088933,-0.0008436688,-0.0001030835,-0.0012971036,-0.0047764312,0.5045328,-1.3811204,1.9039158,-2.0917704,-1.5708297,2.4795856,-0.026696453,0.01995214,-0.022476485,0.00360455,0.0006690945,-0.021909261,-0.51714754,-0.076614454,-9.80665,0.7777002,47.70211,-0.95615983,-2.661284,-3.340798,-0.08383612,0.18575521,-0.21521282,28.8125,30.125,29.25,32.8125,35.3125,36.5
0.042052384,-1.6005694,-0.96314865,-1.9912715,-0.013496357,0.060520656,-0.19875927,-0.3896005,-0.36855572,0.059859253,-3.0784733,0.6250166,-0.0002502203,-0.017695311,0.0065413034,-0.0009166459,1.8369019e-05,-0.0015157604,-0.0044432967,0.5044962,-1.3810843,1.9038442,-2.0917585,-1.5708297,2.4795732,-0.027975382,0.02039714,-0.022885455,0.0038184589,0.0006680235,-0.023521094,-0.28730422,0.019153614,-9.615114,0.85826975,47.723602,-0.8745576,-2.7134774,-3.33417,-0.072932124,0.18890911,-0.22592306,28.8125,30.125,29.25,32.8125,35.3125,36.5
0.044052485,-1.3623229,-0.74698514,-2.0360525,-0.029217608,0.061674334,-0.18835162,-0.38963908,-0.3685343,0.059849937,-3.0784657,0.62501377,-0.00026559626,-0.018638477,0.006757083,-0.00085236214,0.00020699704,-0.0017829845,-0.0040727025,0.50442404,-1.3810358,1.903808,-2.091758,-1.5708297,2.4795003,-0.029194025,0.021709379,-0.02479195,0.004737803,0.0006290983,-0.02510938,-0.24899697,0.05746084,-9.634268,0.7172743,47.704796,-0.9848413,-2.66655,-3.3283381,-0.082068756,0.19450295,-0.23612043,28.8125,30.125,29.25,32.8125,35.3125,36.5
0.04605189,-1.205813,-1.495713,-1.9779383,-0.007905261,0.049816083,-0.15967968,-0.38966843,-0.36852002,0.059850153,-3.078437,0.6250264,-0.00025490217,-0.020335376,0.0070887664,-8.0364654e-05,-0.00034671417,-0.00068818044,-0.0035160813,0.50438744,-1.3809996,1.9037594,-2.0917342,-1.5708536,2.4794753,-0.031305593,0.022291511,-0.027424298,0.0055611394,0.0005796823,-0.027776407,-0.17238252,0.05746084,-9.730036,0.7732232,47.70659,-0.88256943,-2.609477,-3.2115862,-0.08919239,0.20236176,-0.23967156,28.8125,30.125,29.25,32.8125,35.3125,36.5
0.048051912,-1.4733251,-1.1622257,-1.9790534,-0.016617069,0.032017116,-0.15493368,-0.38972467,-0.36851445,0.059869476,-3.078495,0.625038,-0.00023426233,-0.021121847,0.0077291825,-2.2470975e-05,-0.0002750696,-0.00072833186,-0.0028347436,0.5043029,-1.3809755,1.9036869,-2.0917342,-1.5708174,2.4793906,-0.033086672,0.02256409,-0.027952585,0.0058875415,0.0005365337,-0.030238496,-0.05746084,0.19153613,-9.634268,0.7463667,47.713753,-0.78949404,-2.6309109,-3.2734447,-0.07777648,0.19030967,-0.22079064,28.8125,30.125,29.25,32.8125,35.3125,36.5
0.050052248,-1.1136615,-1.4767562,-1.9340582,-0.018958729,0.02564851,-0.15775743,-0.38977587,-0.36849537,0.059870552,-3.0784855,0.62507343,-0.00020875451,-0.021848505,0.008018516,0.00015628258,-0.00030988126,-0.00059137517,-0.001749379,0.5042307,-1.3809272,1.9036273,-2.0917337,-1.5708297,2.4793417,-0.0342256,0.0230063,-0.028985959,0.0063414844,0.00049930316,-0.032462277,-0.076614454,0.114921674,-9.5385,0.74413085,47.691364,-0.82353485,-2.683519,-3.2411332,-0.079381146,0.20888779,-0.23768646,28.8125,30.125,29.25,32.8125,35.3125,36.5
0.052052204,-0.5251871,-1.4141369,-1.8768772,-0.027870199,0.032719906,-0.16100535,-0.3897997,-0.36847258,0.059866678,-3.0784621,0.6250306,-0.0002665458,-0.022777347,0.008794506,-0.00013539077,-0.000111107656,-0.00089132827,-0.0024904718,0.50417006,-1.3808908,1.9035796,-2.091674,-1.5708297,2.4792573,-0.036377203,0.023899602,-0.029337231,0.006158071,0.00046690428,-0.033872448,0.038307227,0.15322891,-9.404425,0.7418897,47.666286,-0.74769163,-2.623795,-3.3329375,-0.0541293,0.20943129,-0.23938775,28.8125,30.125,29.25,32.8125,35.3125,36.5
0.05405203,-0.5908947,-1.2204894,-1.8772902,-0.037767325,0.02774403,-0.16259345,-0.3898547,-0.36846203,0.059867393,-3.0784848,0.6250542,-0.00027648546,-0.024177652,0.009090156,0.0002626641,-0.00048205114,-1.9864412e-05,-0.0030674066,0.5040857,-1.3808305,1.9035066,-2.091674,-1.5708054,2.4791849,-0.03811556,0.024698054,-0.031220932,0.0063021914,0.00036700204,-0.03503281,-0.076614454,0.24899697,-9.461885,0.7777002,47.661808,-0.74154794,-2.6318023,-3.3247657,-0.059399888,0.2156191,-0.25854182,28.8125,30.125,29.25,32.8125,35.3125,36.5
0.056052234,-0.8621378,-1.6372013,-2.0292919,-0.028898733,0.02267378,-0.15133242,-0.38991204,-0.36843514,0.059886124,-3.078478,0.6251087,-0.00020954662,-0.02469865,0.0083869845,0.00066279393,-0.0008371487,0.00071652594,-0.00091800897,0.50400215,-1.3808181,1.9034466,-2.0916617,-1.5708297,2.4791362,-0.0373851,0.025662713,-0.033350844,0.0066503,0.00031933593,-0.03645066,0.095768064,0.30645782,-9.404425,0.7284641,47.689575,-0.76453847,-2.587244,-3.2432122,-0.05822996,0.21367818,-0.2579801,28.8125,30.125,29.25,32.8125,35.3125,36.5
0.058052246,-0.8982513,-1.5587384,-1.8505001,-0.030275756,0.028024103,-0.14942326,-0.389976,-0.36842322,0.059886955,-3.0784853,0.6251099,-0.0001681557,-0.025612207,0.008791048,0.0007750246,-0.00086211355,0.00069228024,-0.0011026196,0.50392973,-1.380746,1.9033622,-2.091674,-1.5708417,2.4790637,-0.038933154,0.026387248,-0.03458096,0.00716434,0.00035203667,-0.037813596,0.038307227,0.34476504,-9.404425,0.7597976,47.675243,-0.8398609,-2.547372,-3.2729611,-0.06197617,0.22668846,-0.28862816,28.8125,30.125,29.25,32.8125,35.3125,36.5
0.06005218,-1.3728147,-1.8669533,-1.8981874,-0.024150906,0.024514325,-0.14852668,-0.39000493,-0.3684077,0.05986804,-3.078463,0.6251062,-0.00023862517,-0.026773741,0.00956512,0.00071413437,-0.00063734106,0.00015225055,-0.0019227443,0.5038692,-1.3806735,1.903314,-2.0916498,-1.5708297,2.4790037,-0.041355293,0.027485536,-0.03593176,0.00799833,0.00041265646,-0.039415102,-0.05746084,0.30645782,-9.442732,0.78217715,47.70211,-0.77225614,-2.5303283,-3.3095884,-0.05977907,0.23661593,-0.2955755,28.8125,30.125,29.25,32.8125,35.3125,36.5
0.062052052,-1.1116592,-1.5226334,-1.8228899,-0.03125184,0.03421755,-0.15374413,-0.39007276,-0.36839536,0.059890136,-3.07849,0.6251303,-0.00018273357,-0.027442025,0.009655376,0.0008321286,-0.0012980225,0.00024713768,-0.0023283132,0.5037848,-1.3806373,1.9032182,-2.0916374,-1.5708293,2.478931,-0.042456806,0.027960794,-0.03674891,0.007936201,0.00094524364,-0.040111538,-0.019153614,0.22984336,-9.385271,0.7978386,47.694054,-0.7635926,-2.5306373,-3.249123,-0.05953698,0.23291187,-0.31180492,28.8125,30.125,29.25,32.8125,35.3125,36.5
0.06405205,-1.2659228,-1.1596519,-1.5924543,-0.042238634,0.035450626,-0.15366179,-0.3901378,-0.3683834,0.059893228,-3.0785081,0.62517047,-0.00019458454,-0.028149186,0.009663433,0.0009207826,-0.0016514864,0.00011935215,-0.00034091104,0.5036888,-1.3805649,1.9031228,-2.0916255,-1.570805,2.4788578,-0.043354068,0.028888198,-0.038140886,0.008341499,0.0013141865,-0.04299616,-0.114921674,0.19153613,-9.404425,0.77545905,47.698532,-0.8056239,-2.5079992,-3.2468512,-0.07306575,0.22338206,-0.32242054,28.8125,30.125,29.25,32.8125,35.3125,36.5
0.06605188,-1.8070301,-1.2009174,-1.5913627,-0.029418968,0.032256372,-0.14706448,-0.39019367,-0.36833507,0.05988722,-3.078449,0.62515825,-0.00016177297,-0.029167073,0.009452711,0.0013992041,-0.003292893,0.0003848443,-0.00025380877,0.5035925,-1.3805168,1.9030741,-2.0916016,-1.5708646,2.4787614,-0.044758324,0.029443868,-0.039935187,0.008548025,0.0026189594,-0.044489037,-0.1340753,0.17238252,-9.32781,0.7463667,47.696735,-0.78521276,-2.4642096,-3.327591,-0.05396586,0.20726225,-0.31435347,28.8125,30.125,29.25,32.8125,35.3125,36.5
0.068051755,-1.534978,-0.9792329,-1.4853631,-0.021613661,0.051875845,-0.15439014,-0.39025113,-0.36832055,0.059892714,-3.0784886,0.6251864,-0.00019659729,-0.029745921,0.009760949,0.0010713422,-0.0033334985,-0.00029135827,-0.0016705942,0.5034844,-1.3804684,1.9030017,-2.0915897,-1.5708164,2.4786658,-0.04603594,0.030588644,-0.04055499,0.008596879,0.0029803226,-0.04435004,-0.21068975,0.13407528,-9.404425,0.80679786,47.694946,-0.8100282,-2.4620638,-3.2489083,-0.06476469,0.20168674,-0.3490525,28.8125,30.125,29.25,32.8125,35.3125,36.5
0.07005176,-1.837814,-1.1557649,-1.3825929,-0.008785579,0.055710103,-0.14446558,-0.39030004,-0.36830997,0.059884716,-3.0784934,0.6250307,-0.0001868173,-0.030617123,0.009675823,0.0014372708,-0.0038660667,0.00032761102,0.0009933248,0.50343615,-1.380384,1.9029173,-2.0915773,-1.5708407,2.47852,-0.046802446,0.031187728,-0.042140707,0.008782388,0.0031437431,-0.04778007,-0.19153613,0.15322891,-9.404425,0.7329411,47.689575,-0.7721934,-2.448991,-3.3071983,-0.061867237,0.20574912,-0.35276583,28.8125,30.125,29.25,32.8125,35.3125,36.5
0.07205173,-1.9252734,-0.4502296,-1.3464108,-0.01997007,0.06012232,-0.15709615,-0.3903404,-0.36828873,0.059878282,-3.078498,0.62506914,-0.0002538422,-0.031146986,0.010043258,0.0010892078,-0.0038504344,-0.0006115576,0.002565508,0.5033398,-1.3803355,1.9028691,-2.091553,-1.570804,2.478447,-0.048182543,0.032321453,-0.042763107,0.009101439,0.0035805833,-0.050732806,-0.24899697,0.19153613,-9.289502,0.80456203,47.687782,-0.8503182,-2.487427,-3.2397861,-0.06636,0.1840647,-0.34849232,28.8125,30.125,29.25,32.8125,35.3125,36.5
0.07405156,-1.6324971,-0.24014463,-1.313269,-0.017417854,0.072972596,-0.154291,-0.39044735,-0.36828947,0.059907578,-3.0785735,0.62510145,-0.00019245905,-0.03306523,0.010756138,0.0015440962,-0.004706338,0.000114054215,0.004839344,0.50321907,-1.3802512,1.9027027,-2.091553,-1.5707682,2.4783368,-0.051405977,0.033107825,-0.044769157,0.009273116,0.003979592,-0.05622954,-0.36391866,0.15322891,-9.289502,0.800085,47.72271,-0.6715437,-2.4834857,-3.2650015,-0.065331474,0.21025352,-0.31499767,28.8125,30.125,29.25,32.8125,35.3125,36.5
0.07605187,-1.7935259,-0.44650382,-1.2934921,-0.009690064,0.07349589,-0.15710282,-0.39050528,-0.36827213,0.059917267,-3.078578,0.6251203,-0.00017776375,-0.032773584,0.009625962,0.001900258,-0.00542823,0.0005774164,0.0074537937,0.50313586,-1.380203,1.9026183,-2.0915291,-1.5707682,2.4782648,-0.04948039,0.033418193,-0.0459812,0.009419569,0.004387055,-0.056918513,-0.28730422,-0.019153614,-9.251195,0.77545905,47.696735,-0.8567403,-2.4683807,-3.2414217,-0.054966502,0.17633218,-0.298352,28.8125,30.125,29.25,32.8125,35.3125,36.5
0.078051925,-1.4656211,-0.76373565,-1.5015434,-0.00240757,0.08108881,-0.14653346,-0.39057115,-0.368247,0.05991553,-3.0785923,0.62500715,-0.00016621407,-0.033738326,0.010370296,0.0017385866,-0.0054928567,-0.0004003307,0.008043673,0.50303936,-1.3801305,1.9025339,-2.0915172,-1.5707797,2.478096,-0.051953048,0.03443159,-0.047002662,0.010250705,0.004914424,-0.05998145,-0.3256114,-0.019153614,-9.270349,0.8560339,47.719128,-0.8921766,-2.4905055,-3.306521,-0.07210061,0.15950713,-0.29984808,28.8125,30.125,29.25,32.8125,35.3125,36.5
0.080051675,-1.2570978,-0.056637827,-1.4639565,-0.021187725,0.08645151,-0.15594806,-0.3906461,-0.3682143,0.05991444,-3.078583,0.62502164,-0.00020719429,-0.03441383,0.010721235,0.0012583977,-0.00553386,-0.0012079334,0.01136416,0.50290704,-1.3800461,1.9024256,-2.0914695,-1.5707678,2.477974,-0.053426422,0.035915475,-0.04762941,0.010080916,0.005335587,-0.064775646,-0.47884035,0.0,-9.346964,0.7284641,47.701214,-0.85342777,-2.37435,-3.2963557,-0.06560412,0.1676763,-0.25528067,28.8125,30.125,29.25,32.8125,35.3125,36.5
0.08205189,-1.3407105,-0.72874933,-1.3847854,-0.008085399,0.0781337,-0.14643282,-0.39069825,-0.36819723,0.05991542,-3.078614,0.62495095,-0.00020708109,-0.035865013,0.0119246235,0.0006699672,-0.0048128255,-0.0023062953,0.012062115,0.50282204,-1.3799973,1.9023656,-2.091469,-1.5707554,2.477841,-0.056731433,0.037938856,-0.048786134,0.010525564,0.005231559,-0.068777636,-0.40222588,0.0,-9.3661175,0.77545905,47.687782,-0.6927835,-2.4638543,-3.259246,-0.090650976,0.15473929,-0.23906755,28.8125,30.125,29.25,32.8125,35.3125,36.5
0.08405189,-1.0019813,-1.0862589,-1.3813254,-0.0025947762,0.08751626,-0.14401999,-0.39075777,-0.36818254,0.05990523,-3.0786324,0.6248736,-0.00026078243,-0.0363635,0.010290766,0.001628055,-0.006396261,-0.00056125806,0.01772963,0.502727,-1.3799009,1.9022692,-2.0914447,-1.5707315,2.4776952,-0.05477406,0.03864103,-0.0518061,0.010551352,0.0057692043,-0.0724875,-0.59376204,-0.05746084,-9.346964,0.79560274,47.72719,-0.7628951,-2.4945173,-3.1499114,-0.08564089,0.14353122,-0.17646006,28.8125,30.125,29.25,32.8125,35.3125,36.5
0.08605208,-1.9495689,-0.91333187,-1.4429413,-0.008081668,0.070931785,-0.14262506,-0.39086032,-0.36814463,0.05991677,-3.0786185,0.6249281,-0.00020840274,-0.036208622,0.011480227,0.0001224342,-0.004776397,-0.0031348683,0.018202832,0.5025826,-1.3798163,1.9021376,-2.0914214,-1.5707554,2.4775867,-0.056509916,0.040234994,-0.050240766,0.010427347,0.0055940556,-0.0746965,-0.5363012,0.038307227,-9.3661175,0.779936,47.68599,-0.9251227,-2.553643,-3.2788422,-0.09288813,0.14303182,-0.14110148,28.8125,30.125,29.25,32.8125,35.3125,36.5
0.08805216,-1.5171951,-0.4327358,-1.4886628,-0.011748031,0.08474867,-0.15304951,-0.39094707,-0.36813408,0.059923545,-3.0786788,0.62484306,-0.00021657498,-0.037959337,0.012020896,0.00078836846,-0.004927044,-0.0015624736,0.018468957,0.5024621,-1.3797201,1.9020056,-2.091409,-1.5707201,2.4774055,-0.058644265,0.04070837,-0.05236611,0.0106343115,0.0049658953,-0.07709489,-0.36391866,-0.019153614,-9.385271,0.7866488,47.703007,-0.8795982,-2.4977689,-3.353919,-0.08113676,0.14114413,-0.093931615,28.8125,30.125,29.25,32.8125,35.3125,36.5
0.09005206,-1.2288036,-0.7215607,-1.5546769,-0.005918553,0.08914406,-0.13938826,-0.39101136,-0.3680851,0.05992489,-3.0786552,0.6247418,-0.00021050958,-0.039047193,0.012172207,0.00059625925,-0.00392065,-0.0010905638,0.019016962,0.50234216,-1.3796715,1.901934,-2.0913608,-1.5707558,2.4772255,-0.059207983,0.042730007,-0.05432477,0.010644162,0.0038502947,-0.07820374,-0.30645782,0.05746084,-9.32781,0.7486078,47.674347,-0.88648593,-2.5191007,-3.281846,-0.091398835,0.14496109,-0.084407024,28.8125,30.125,29.25,32.8125,35.3125,36.5
0.09205217,-1.0233197,-1.0167819,-1.4858346,-0.008663951,0.08575536,-0.13780059,-0.39107773,-0.36811155,0.059924155,-3.0787814,0.6246521,-0.00027585114,-0.04058611,0.01205956,0.001546563,-0.0042890767,0.00090902025,0.017545372,0.50225806,-1.379563,1.9018129,-2.0913851,-1.5706486,2.4770694,-0.06003783,0.043228727,-0.05718005,0.011081797,0.0032084608,-0.077559605,-0.40222588,0.095768064,-9.3661175,0.77545905,47.689575,-0.8910465,-2.534254,-3.1140475,-0.08485776,0.16004388,-0.056197654,28.8125,30.125,29.25,32.8125,35.3125,36.5
0.09405224,-1.1906638,-1.2913724,-1.7885998,-0.014464726,0.07410341,-0.1388012,-0.39117315,-0.36804774,0.059926327,-3.0787063,0.6246182,-0.00022128575,-0.039949603,0.013058667,0.00021044559,-0.0022158069,-0.0014993118,0.016289897,0.5021143,-1.3794787,1.9016947,-2.0913255,-1.5707325,2.4769142,-0.060707487,0.044251297,-0.055428635,0.011413107,0.002553333,-0.07697336,-0.36391866,0.11492168,-9.308657,0.7911258,47.690468,-0.96770394,-2.5054412,-3.2675772,-0.09597884,0.1697466,-0.08232999,28.8125,30.125,29.25,32.8125,35.3125,36.5
0.0960526,-0.9033645,-1.1463343,-1.7791194,-0.029320423,0.06929214,-0.14582355,-0.39124608,-0.36800405,0.059909336,-3.078693,0.6246159,-0.00030443392,-0.04116844,0.013129173,0.00039240168,-0.0023204791,-0.00078277,0.014186992,0.50195813,-1.379382,1.9016107,-2.0912893,-1.5707086,2.4767582,-0.06178533,0.045562156,-0.05739299,0.011391309,0.0022924508,-0.07594697,-0.34476504,0.095768064,-9.442732,0.784413,47.690468,-1.0382844,-2.5096982,-3.3026228,-0.09507784,0.16503538,-0.07678781,28.8125,30.125,29.25,32.8125,35.3125,36.5
0.09805167,-0.9323495,-1.4048584,-1.7189887,-0.04272053,0.062189132,-0.15098448,-0.3913273,-0.36800152,0.059915263,-3.0787144,0.6245445,-0.00026269088,-0.042334713,0.013264369,0.00045924808,-0.0022888088,-0.00019683494,0.01163191,0.50188607,-1.3792735,1.9014663,-2.0912778,-1.570721,2.476639,-0.06289128,0.046939638,-0.05915379,0.011276615,0.0019809352,-0.07449632,-0.19153613,0.15322891,-9.461885,0.83365434,47.684196,-1.00299,-2.5144162,-3.2485213,-0.10269658,0.1549758,-0.09863273,28.8125,30.125,29.25,32.8125,35.3125,36.5
0.100052506,-1.4177377,-1.242154,-1.6872841,-0.050927095,0.04726576,-0.14324881,-0.39142835,-0.36794776,0.059921704,-3.0787156,0.624583,-0.00027565917,-0.042857196,0.013080638,0.0010538788,-0.002653982,0.00059954374,0.009982635,0.5016943,-1.3792014,1.901358,-2.0912411,-1.5707091,2.4764712,-0.06301159,0.0468548,-0.060546365,0.0118817175,0.0019169942,-0.07296676,-0.24899697,0.24899697,-9.404425,0.7665104,47.70211,-1.0765108,-2.5380082,-3.2576587,-0.11406474,0.17941979,-0.11981256,28.8125,30.125,29.25,32.8125,35.3125,36.5
0.10205235,-1.339185,-1.8989385,-1.8407418,-0.031008637,0.048936304,-0.14022216,-0.39151746,-0.36791107,0.059919495,-3.0787184,0.62460405,-0.00026316143,-0.0434293,0.013933527,-0.00022547686,-0.0011423745,-0.0020521728,0.0068580704,0.5015499,-1.3791162,1.9012622,-2.0912411,-1.5707091,2.4763396,-0.064935096,0.049848456,-0.061386503,0.012780588,0.0018680372,-0.07176489,-0.19153613,0.34476504,-9.423578,0.78217715,47.66808,-1.0890967,-2.5715017,-3.3118224,-0.14723781,0.1760217,-0.15260684,28.8125,30.125,29.25,32.8125,35.3125,36.5
0.10405228,-1.4038268,-1.3800699,-1.8814232,-0.040225655,0.037497684,-0.14239301,-0.39159587,-0.3678813,0.059912644,-3.0787008,0.62452394,-0.00026759342,-0.04460742,0.014043858,0.00024937853,-0.00195093,-0.0006788275,0.0046233987,0.50144184,-1.379008,1.9011415,-2.091205,-1.570733,2.476184,-0.06622909,0.050086476,-0.06261735,0.012178858,0.0019112097,-0.070823744,0.0,0.28730422,-9.481039,0.8224646,47.685097,-1.0647522,-2.6159925,-3.3084285,-0.14002466,0.18595994,-0.19167009,28.8125,30.125,29.25,32.8125,35.3125,36.5
0.106051885,-1.4382204,-1.6277174,-1.9803483,-0.03803489,0.02457366,-0.1471088,-0.39168367,-0.36786902,0.059904844,-3.0787365,0.62449324,-0.0003313024,-0.045658328,0.014163266,0.0012891357,-0.0031862645,0.0010175055,0.0022468795,0.50130963,-1.3788764,1.900998,-2.091181,-1.5706848,2.476028,-0.06755407,0.049085155,-0.06383565,0.012319912,0.0021764594,-0.069772385,0.019153614,0.34476504,-9.346964,0.7642693,47.67345,-1.0729342,-2.3942106,-3.2729325,-0.11702263,0.17180815,-0.21666014,28.8125,30.125,29.25,32.8125,35.3125,36.5
0.108051695,-0.63724387,-1.2718877,-1.9612522,-0.049828365,0.037465736,-0.15205853,-0.39180854,-0.36785305,0.059937302,-3.0787702,0.6244604,-0.00019640833,-0.04702994,0.014580338,0.0010642722,-0.0031091801,0.0009870298,0.0021122447,0.50118923,-1.3787795,1.9008068,-2.091169,-1.5707206,2.475883,-0.069477536,0.051013943,-0.06558475,0.012201944,0.0021251354,-0.071559936,-0.038307227,0.28730422,-9.3661175,0.8090337,47.67614,-1.0468669,-2.5669317,-3.2933502,-0.13693815,0.17530853,-0.25661433,28.8125,30.125,29.25,32.8125,35.3125,36.5
0.11005167,-0.7926176,-1.1027057,-2.0557463,-0.056208998,0.020628475,-0.14777476,-0.39189848,-0.36782426,0.059938513,-3.078761,0.6244593,-0.00021398375,-0.04729267,0.014900832,0.0001341737,-0.0022296114,-0.0009820709,0.001289923,0.5010573,-1.3786707,1.9006642,-2.091121,-1.5707206,2.4757516,-0.07035464,0.053324588,-0.06634577,0.01280155,0.0022985563,-0.07161444,-0.019153614,0.28730422,-9.346964,0.7486078,47.661808,-1.077804,-2.5287015,-3.28088,-0.14803913,0.18212691,-0.25730082,28.8125,30.125,29.25,32.8125,35.3125,36.5
0.11205249,-0.87125283,-1.0509629,-1.8921306,-0.04911583,0.025115672,-0.14592361,-0.39199507,-0.36779615,0.0599435,-3.0787969,0.62444735,-0.00018259723,-0.048065033,0.015178505,-0.00028111026,-0.0018467207,-0.0014078589,-0.0005656632,0.50091314,-1.378586,1.9005555,-2.0911334,-1.5707086,2.4755955,-0.0714401,0.055028904,-0.067403436,0.012713955,0.0021674298,-0.07084332,-0.019153614,0.22984336,-9.385271,0.784413,47.689575,-1.0913504,-2.7180033,-3.3447452,-0.17013718,0.17464429,-0.31879336,28.8125,30.125,29.25,32.8125,35.3125,36.5
0.1140516,-0.35756928,-0.8518812,-1.7249137,-0.04822475,0.047192007,-0.145247,-0.39209712,-0.36775708,0.059919056,-3.078776,0.62447953,-0.00023892788,-0.049073283,0.015091081,0.0014531239,-0.0038021063,0.0014259366,0.0007270675,0.50074536,-1.3784307,1.9004244,-2.091121,-1.5706967,2.4754505,-0.07242491,0.052628983,-0.06854015,0.012825944,0.0025169791,-0.07312147,0.019153614,0.19153613,-9.404425,0.8224646,47.66539,-1.1404413,-2.4616997,-3.2902942,-0.16547254,0.18804502,-0.34545642,28.8125,30.125,29.25,32.8125,35.3125,36.5
0.116052166,-1.2949032,-0.9419407,-1.5957011,-0.03735467,0.038454574,-0.13333434,-0.39217663,-0.3677196,0.05989188,-3.0787427,0.6244551,-0.0003376631,-0.049879424,0.015130962,0.000990342,-0.0038401887,0.00064443727,-0.0014551234,0.5006012,-1.3782858,1.9003037,-2.0910733,-1.5706848,2.4752953,-0.07347471,0.054774616,-0.07004141,0.0128486715,0.0029177289,-0.07198904,-0.038307227,0.19153613,-9.423578,0.7866488,47.703903,-1.1525617,-2.4763608,-3.3541129,-0.15721749,0.18708533,-0.36467594,28.8125,30.125,29.25,32.8125,35.3125,36.5
0.11805213,-1.0513119,-0.5880925,-1.6124228,-0.02812683,0.05258117,-0.14585358,-0.39226925,-0.36771294,0.059919056,-3.0788007,0.62446624,-0.00031818677,-0.050453708,0.014722801,0.0009916648,-0.004960591,0.00032067276,-0.0024504233,0.50048137,-1.3782132,1.9001478,-2.0910375,-1.5706481,2.4751751,-0.0740123,0.055989295,-0.07147922,0.012817056,0.0040566744,-0.07153235,-0.17238252,0.05746084,-9.442732,0.84708,47.703903,-1.2443153,-2.4972484,-3.2881103,-0.18414119,0.1711984,-0.44851875,28.8125,30.125,29.25,32.8125,35.3125,36.5
0.12005188,-1.3536752,-0.18371616,-1.4284067,-0.029607799,0.05263128,-0.14723395,-0.39235416,-0.36768755,0.059907865,-3.0788078,0.62439084,-0.00033344136,-0.052052427,0.016092932,0.0007293055,-0.0051604407,-0.0002719462,-0.0030702378,0.50036,-1.378093,1.9000281,-2.0910256,-1.5706481,2.4750059,-0.078065455,0.05699928,-0.07209092,0.012841888,0.004513684,-0.074966125,-0.038307227,0.13407528,-9.385271,0.7732232,47.68062,-1.1371274,-2.4389212,-3.3276677,-0.1703884,0.16636826,-0.4629117,28.8125,30.125,29.25,32.8125,35.3125,36.5
0.12205184,-1.016236,-0.70708114,-1.5996494,-0.0149498135,0.06618878,-0.13898315,-0.39247456,-0.36765835,0.05992821,-3.0788605,0.62443507,-0.00033939665,-0.053427067,0.013631244,0.0025467656,-0.0077197156,0.003722062,0.0032496753,0.5001695,-1.3779964,1.8998593,-2.0909894,-1.5705999,2.4748363,-0.07537265,0.057962574,-0.07725036,0.0123096295,0.004833937,-0.07859134,-0.19153613,0.11492168,-9.423578,0.784413,47.67614,-1.2591779,-2.474722,-3.1385727,-0.1895214,0.15503436,-0.46658608,28.8125,30.125,29.25,32.8125,35.3125,36.5
0.12405175,-1.6821439,-0.6437581,-1.7716761,-0.0104809245,0.061587248,-0.14213777,-0.39260375,-0.36762592,0.05994929,-3.0788743,0.6243771,-0.0002202272,-0.053230528,0.015425579,0.000733055,-0.005770896,6.193919e-05,0.0064922725,0.50002515,-1.3778878,1.89968,-2.090978,-1.5706476,2.4746542,-0.078221284,0.05955795,-0.07511348,0.012720889,0.004889,-0.08468303,-0.2681506,0.05746084,-9.423578,0.85826975,47.704796,-1.35539,-2.390418,-3.3523192,-0.19202608,0.16466373,-0.45833024,28.8125,30.125,29.25,32.8125,35.3125,36.5
0.12605199,-1.5545332,-0.70511776,-1.743333,-0.006766424,0.07871171,-0.13915122,-0.39270228,-0.3675875,0.059919193,-3.0788658,0.6244888,-0.00034045102,-0.055293523,0.015898058,0.0012493369,-0.0063389204,0.0009982463,0.008884102,0.4998323,-1.3777311,1.8995599,-2.090965,-1.570588,2.4745321,-0.08092665,0.060932,-0.078027576,0.013173399,0.004928866,-0.08977921,-0.34476504,-0.038307227,-9.423578,0.7396539,47.71286,-1.1437497,-2.6157527,-3.299729,-0.2034971,0.15766749,-0.42214468,28.8125,30.125,29.25,32.8125,35.3125,36.5
0.12805201,-1.8894036,-0.7268853,-1.9855307,-0.010007355,0.08218352,-0.14219795,-0.3928057,-0.3675687,0.05993105,-3.078899,0.62431884,-0.00031341097,-0.05639991,0.015023546,0.002883485,-0.0074295807,0.0038355088,0.015346289,0.49971282,-1.3776113,1.8993801,-2.0909173,-1.5706004,2.4743025,-0.08020486,0.06038747,-0.08128501,0.013964018,0.0045219264,-0.095517755,-0.32561144,-0.05746084,-9.481039,0.8717007,47.719128,-1.3952699,-2.3804097,-3.0646653,-0.21102503,0.15068068,-0.38454026,28.8125,30.125,29.25,32.8125,35.3125,36.5
0.13005207,-1.69991,-0.97378325,-1.8992641,-0.020293508,0.1033476,-0.1348286,-0.392889,-0.36752352,0.059908543,-3.0788946,0.6241969,-0.00042619221,-0.056097973,0.01625412,0.0016594591,-0.006131539,0.0016840787,0.022744417,0.4995447,-1.377479,1.8992609,-2.0908573,-1.5705761,2.4740589,-0.08190762,0.06102668,-0.07922427,0.013779093,0.0044090645,-0.10461951,-0.5363012,0.05746084,-9.442732,0.76874626,47.698532,-1.2854818,-2.4113154,-3.2832248,-0.2172359,0.15270841,-0.28245914,28.8125,30.125,29.25,32.8125,35.3125,36.5
0.132052,-1.739142,-0.94195604,-2.0322978,-0.03752151,0.113451704,-0.1426707,-0.3930003,-0.36750036,0.059919532,-3.0789268,0.62416357,-0.00043831562,-0.057456892,0.016834736,0.00033795604,-0.0047950526,-0.00068400847,0.024746545,0.4993881,-1.3773571,1.8990806,-2.090809,-1.5705522,2.4738774,-0.084092,0.065580964,-0.08178896,0.014512432,0.004366726,-0.10880423,-0.6512229,0.15322891,-9.576807,0.78888994,47.733456,-1.2919062,-2.6211057,-3.2372942,-0.25019103,0.13894536,-0.25954622,28.8125,30.125,29.25,32.8125,35.3125,36.5
0.13405195,-2.4403384,-1.3101188,-2.0585454,-0.03641008,0.10201267,-0.14727919,-0.39312422,-0.36746126,0.05993075,-3.0789657,0.62409234,-0.00039477338,-0.059561998,0.017236,0.0026012314,-0.0070206113,0.0039154766,0.02661674,0.49920797,-1.3772502,1.8989257,-2.0907977,-1.5705522,2.473648,-0.08652613,0.06271914,-0.08341105,0.013895153,0.004117195,-0.11310775,-0.5363012,0.076614454,-9.461885,0.8247004,47.709274,-1.2945845,-2.3763878,-3.2419996,-0.2616022,0.14307705,-0.19016518,28.8125,30.125,29.25,32.8125,35.3125,36.5
0.13605252,-2.3238666,-1.4621915,-2.1575973,-0.030790655,0.10359322,-0.13467702,-0.3932473,-0.36740154,0.05990485,-3.0789237,0.6240441,-0.00040301363,-0.059848253,0.017405594,0.0018782094,-0.006673645,0.0029018724,0.02782307,0.49901614,-1.3770813,1.8987817,-2.0907857,-1.570588,2.4734316,-0.087160476,0.06441967,-0.083715096,0.0135510815,0.0042928588,-0.114948474,-0.61291564,0.095768064,-9.576807,0.800085,47.703903,-1.2854667,-2.3799515,-3.2026837,-0.2507201,0.15395889,-0.15950711,28.8125,30.125,29.25,32.8125,35.3125,36.5
0.13805243,-1.7923568,-0.7713262,-1.915203,-0.044549465,0.11329096,-0.1434977,-0.39338735,-0.36738893,0.059932034,3.0789986,-0.62394387,0.0003811894,-0.06108478,0.017491583,0.0019705906,-0.007230746,0.0037000638,0.026076274,0.49883613,-1.3769488,1.8985547,-2.09075,-1.5705403,2.4731796,-0.08848313,0.06563322,-0.08521881,0.012879654,0.0044032033,-0.114523426,-0.7086837,0.038307227,-9.576807,0.83589023,47.704796,-1.4523418,-2.3833618,-3.2913203,-0.2545409,0.13445783,-0.14261287,28.8125,30.125,29.25,32.8125,35.3125,36.5
0.14005242,-1.8303412,-0.64169085,-1.7856699,-0.033546884,0.111966446,-0.14029913,-0.39348942,-0.36733213,0.059909865,-3.078982,0.6238886,-0.0004424824,-0.063879706,0.019814294,0.0022253343,-0.007079631,0.0041761114,0.016280053,0.4986539,-1.3768045,1.8984231,-2.0907018,-1.5705522,2.472965,-0.09471307,0.06622345,-0.08661096,0.013336059,0.0040359558,-0.1109562,-0.6703765,-0.05746084,-9.519346,0.70608455,47.699425,-1.0830715,-2.3466434,-3.348064,-0.2824424,0.13004959,-0.17495883,28.8125,30.125,29.25,32.8125,35.3125,36.5
0.14205258,-2.3007798,-0.35278115,-1.8866178,-0.024259359,0.091847844,-0.13319238,-0.39364132,-0.3673135,0.05993318,3.0790122,-0.6237602,0.00033952013,-0.06413719,0.019248951,0.0024138056,-0.0072249486,0.0047755055,0.012337258,0.49847516,-1.3766721,1.8982185,-2.0907257,-1.5705403,2.4727025,-0.09387313,0.06697719,-0.08793527,0.01331259,0.0038866797,-0.106172204,-0.59376204,-0.095768064,-9.557653,0.83589023,47.63852,-1.2847524,-2.3428848,-3.386856,-0.2851792,0.14229883,-0.22370476,28.8125,30.125,29.25,32.8125,35.3125,36.5
0.14405265,-1.6871387,-0.5991047,-1.737964,-0.01773068,0.10471256,-0.13182025,-0.39375344,-0.36726296,0.05992402,3.079031,-0.623786,0.00035550422,-0.065702535,0.020058166,0.0027739056,-0.0077417083,0.0057412405,0.0066494592,0.4982943,-1.3765398,1.8980745,-2.0906909,-1.5705522,2.4725354,-0.09664207,0.06724412,-0.089015156,0.013029356,0.0038754446,-0.10325294,-0.59376204,-0.076614454,-9.500193,0.75084364,47.70838,-1.200821,-2.3212235,-3.220767,-0.26971748,0.13177791,-0.27124578,28.8125,30.125,29.25,32.8125,35.3125,36.5
0.14605252,-1.1909946,-0.3904766,-1.7119997,-0.024088532,0.11676903,-0.13630268,-0.3939188,-0.36722106,0.05994474,3.0789506,-0.6238469,0.00034934148,-0.066956066,0.0214451,0.0019067819,-0.0072390395,0.004314322,0.0033405148,0.49804172,-1.3763951,1.8978475,-2.0906546,-1.5705041,2.472331,-0.10024067,0.069105566,-0.089224316,0.012875967,0.004121576,-0.10354244,-0.57460845,-0.095768064,-9.500193,0.7777002,47.66539,-1.0697628,-2.360292,-3.3299084,-0.275024,0.13839372,-0.3126961,28.8125,30.125,29.25,32.8125,35.3125,36.5
0.14805235,-1.570599,-0.07546355,-1.67985,-0.017093735,0.098820165,-0.14074296,-0.3940398,-0.36718708,0.059953697,3.0789464,-0.6237885,0.00032037921,-0.07011033,0.020926107,0.004015272,-0.0096745575,0.008598033,0.0019872373,0.49787322,-1.376275,1.8976792,-2.0906308,-1.5705041,2.4721267,-0.102292955,0.06958816,-0.09458919,0.01283204,0.00420756,-0.104239285,-0.40222588,-0.05746084,-9.500193,0.7732232,47.64389,-1.0444293,-2.2926643,-3.118547,-0.27296254,0.12666994,-0.32544383,28.8125,30.125,29.25,32.8125,35.3125,36.5
0.15005225,-1.5343173,-0.2243834,-1.9184552,-0.012040708,0.08415536,-0.13402258,-0.39418814,-0.36713508,0.059945017,3.0789514,-0.6237701,0.0002946179,-0.070784174,0.022430817,0.0032017643,-0.008688423,0.007141098,-0.00039697535,0.4976568,-1.3761064,1.897499,-2.0906308,-1.570516,2.4718983,-0.10530323,0.070479974,-0.0938312,0.012933677,0.004042219,-0.10486524,-0.4405331,0.0,-9.423578,0.79560274,47.683304,-0.92011404,-2.2179654,-3.2496128,-0.29403436,0.13321003,-0.3500627,28.8125,30.125,29.25,32.8125,35.3125,36.5
0.15205318,-1.345742,-0.16916746,-1.7287639,-0.013414963,0.0874513,-0.1416982,-0.39432406,-0.36710593,0.059964113,3.078905,-0.62374127,0.0003176349,-0.07199805,0.02259333,0.0033147829,-0.0089725405,0.007952596,-0.0011575443,0.4974529,-1.3759739,1.8972849,-2.0905707,-1.5704678,2.4716823,-0.1065705,0.07163784,-0.0953638,0.012466263,0.0039045648,-0.10537083,-0.5554548,-0.05746084,-9.3661175,0.7978386,47.67614,-0.84839517,-2.338296,-3.1727796,-0.29534617,0.13277882,-0.3823332,28.8125,30.125,29.25,32.8125,35.3125,36.5
0.15405437,-0.9640244,-0.5664515,-1.5407537,-0.002096575,0.0995008,-0.13409193,-0.39446086,-0.3670546,0.059970558,3.078918,-0.62368625,0.0002912713,-0.07265074,0.023345834,0.003156309,-0.008546808,0.0074140015,-0.0031905808,0.49724868,-1.3758416,1.8971051,-2.090535,-1.5704802,2.4714422,-0.108330116,0.07219834,-0.095802724,0.013021049,0.0037911877,-0.105097,-0.47884035,-0.05746084,-9.385271,0.8605109,47.695843,-0.8652154,-2.2342658,-3.2230577,-0.3018955,0.14685248,-0.3910394,28.8125,30.125,29.25,32.8125,35.3125,36.5
0.15605539,-1.9337641,-0.51283586,-1.8247817,-0.0016753695,0.08445921,-0.13929774,-0.39462605,-0.36699328,0.05998152,3.0788915,-0.623716,0.00019651589,-0.07367392,0.02360237,0.0029458595,-0.008463508,0.007315494,0.00066498085,0.49700874,-1.3757089,1.8969253,-2.0905468,-1.5705041,2.4712243,-0.10964652,0.073852055,-0.09728458,0.01297511,0.0037703689,-0.110267885,-0.4405331,-0.11492168,-9.308657,0.7933669,47.698532,-0.8346325,-2.3360274,-3.2742105,-0.3016616,0.13717523,-0.42794687,28.8125,30.125,29.25,32.8125,35.3125,36.5
0.15805441,-1.5961038,-0.6467461,-1.5349494,-0.010019699,0.0967037,-0.14017294,-0.39474747,-0.36695606,0.059956226,3.0788872,-0.6237121,0.00030473233,-0.07359408,0.02373902,0.0024168503,-0.007885628,0.005623189,0.0051836884,0.49680507,-1.3755163,1.896746,-2.0905106,-1.5704564,2.4710188,-0.109954104,0.075160064,-0.097889826,0.014041724,0.0040665423,-0.1150945,-0.36391866,-0.038307227,-9.308657,0.8090337,47.703903,-0.94299775,-2.2232673,-3.315322,-0.3035652,0.14187288,-0.35662782,28.8125,30.125,29.25,32.8125,35.3125,36.5
0.16005418,-1.4926081,-0.7801449,-1.7433817,-0.015822882,0.09068918,-0.1444822,-0.3949146,-0.36689064,0.059964556,3.0788703,-0.62376046,0.00029220834,-0.074023604,0.02341806,0.0024298416,-0.008040502,0.0054348093,0.012381378,0.49654183,-1.3753595,1.89653,-2.090462,-1.5704564,2.470788,-0.10990601,0.07638433,-0.09948959,0.014511201,0.0042933417,-0.122243635,-0.26815057,0.0,-9.346964,0.82022345,47.690468,-0.9337635,-2.3224678,-3.2223334,-0.31241468,0.12588052,-0.31931198,28.8125,30.125,29.25,32.8125,35.3125,36.5
0.16205424,-0.74644566,-0.8360878,-1.6783504,-0.02169482,0.09104844,-0.13875642,-0.3950814,-0.3668445,0.05998685,3.078859,-0.6237146,0.0001970466,-0.074419074,0.023327462,0.0022933348,-0.0077262903,0.005371567,0.019116404,0.49632618,-1.3752152,1.8963026,-2.0904381,-1.5704802,2.4705453,-0.109925985,0.077533044,-0.10058741,0.014666067,0.004054414,-0.12899746,-0.2681506,0.11492168,-9.442732,0.83365434,47.690468,-0.98252475,-2.234845,-3.3185291,-0.31607258,0.1310835,-0.25543174,28.8125,30.125,29.25,32.8125,35.3125,36.5
0.16405419,-0.7693933,-1.11385,-1.7972645,-0.033010248,0.067767344,-0.13732776,-0.39520764,-0.36678427,0.05996998,3.0789049,-0.623606,0.00024186558,-0.07652419,0.024591265,0.0023777788,-0.0078038396,0.0059580444,0.022802023,0.49610928,-1.3750585,1.8961467,-2.090402,-1.5704802,2.470255,-0.11380891,0.078701064,-0.10214095,0.014502374,0.0038366371,-0.13656504,-0.17238252,0.17238252,-9.3661175,0.85155696,47.698532,-0.8852452,-2.1961882,-3.2692604,-0.31650013,0.13540193,-0.13843122,28.8125,30.125,29.25,32.8125,35.3125,36.5
0.1660555,-1.0321672,-1.6734885,-1.873802,-0.031631168,0.045730222,-0.13473451,-0.39539343,-0.36672023,0.059979975,3.0788715,-0.6236344,0.00013215862,-0.07580959,0.023982707,0.0013627125,-0.0062987353,0.0041288733,0.027765743,0.4958466,-1.3749015,1.895943,-2.0904262,-1.5705045,2.4700143,-0.11181097,0.08117238,-0.10292276,0.015137878,0.0033950792,-0.13952932,-0.17238252,0.17238252,-9.212888,0.800085,47.690468,-1.0951018,-2.3586686,-3.3567142,-0.32119554,0.15726782,-0.11205063,28.8125,30.125,29.25,32.8125,35.3125,36.5
0.16805838,-0.8035956,-1.2145218,-1.8911382,-0.042697195,0.048047364,-0.13753548,-0.39554083,-0.366671,0.059986785,3.0788782,-0.6235232,0.00010394426,-0.0790367,0.02517208,0.0031454347,-0.008088577,0.007960738,0.020673389,0.49562898,-1.3747578,1.8957514,-2.090402,-1.5705045,2.4697266,-0.11656461,0.08008343,-0.10558683,0.014670155,0.0031447953,-0.13718928,-0.019153614,0.2681506,-9.270349,0.8090337,47.703903,-0.81901896,-2.3848684,-3.3095474,-0.32916328,0.14591886,-0.083310604,28.8125,30.125,29.25,32.8125,35.3125,36.5
0.17005779,-0.65659124,-1.3234845,-1.9146135,-0.03629776,0.04328255,-0.13478525,-0.3956941,-0.3666415,0.059975363,3.0788667,-0.62338763,0.00018073193,-0.07829998,0.025488624,0.0024561272,-0.007575483,0.0065210722,0.016478846,0.49540192,-1.3745416,1.8955125,-2.0903661,-1.5704445,2.4694164,-0.11652519,0.08011941,-0.10407077,0.014635688,0.0033813426,-0.13295633,-0.05746084,0.24899697,-9.2703495,0.7777002,47.70032,-0.9847605,-2.214303,-3.3527033,-0.33694518,0.13831311,-0.12202876,28.8125,30.125,29.25,32.8125,35.3125,36.5
0.1720536,-1.096518,-1.4375974,-1.9108237,-0.03585686,0.03154859,-0.13419113,-0.39584535,-0.36658922,0.05998843,3.0788915,-0.6233367,0.000120391815,-0.0796022,0.025423769,0.00080530223,-0.0066682408,0.00399708,0.010238693,0.495198,-1.3743955,1.8952984,-2.0903184,-1.5704802,2.4691777,-0.11781611,0.08586794,-0.107152484,0.014614202,0.0037798805,-0.12800547,-0.05746084,0.3256114,-9.251195,0.7642693,47.70032,-0.96987367,-2.347904,-3.3871827,-0.33067763,0.16020267,-0.19908798,28.8125,30.125,29.25,32.8125,35.3125,36.5
0.17405203,-0.3401745,-1.3897066,-1.8944708,-0.038860273,0.047915723,-0.13750118,-0.39602166,-0.36653513,0.059996426,3.0788448,-0.623406,6.0891252e-05,-0.08006793,0.026223516,0.0015134851,-0.0075311665,0.0045554177,0.0040267166,0.49494606,-1.3742282,1.8950814,-2.0903184,-1.5704802,2.468975,-0.11984695,0.08398081,-0.106640026,0.015085908,0.004283711,-0.12382539,-0.1340753,0.3256114,-9.251195,0.842603,47.690468,-1.0756912,-2.273552,-3.3646657,-0.34825087,0.16371985,-0.25238037,28.8125,30.125,29.25,32.8125,35.3125,36.5
0.17605193,-0.4789228,-1.0945557,-1.882207,-0.038627084,0.038306225,-0.13816774,-0.39617985,-0.36648571,0.0600032,3.0788493,-0.6233495,4.9089133e-05,-0.080341674,0.02508546,0.0012341377,-0.0078094136,0.0042419257,0.002815628,0.49471858,-1.374059,1.894854,-2.0902703,-1.5704802,2.4687119,-0.11838354,0.08654095,-0.10906081,0.015089352,0.0046747145,-0.12115005,-0.038307227,0.30645782,-9.289502,0.7642693,47.709274,-1.0227549,-2.2991025,-3.4454691,-0.3305977,0.162265,-0.32111728,28.8125,30.125,29.25,32.8125,35.3125,36.5
0.17805263,-0.46305224,-1.3679461,-1.8374127,-0.035686795,0.033087797,-0.13593388,-0.39633763,-0.3664364,0.060005747,3.078799,-0.6233599,0.00010965359,-0.08275672,0.026226591,0.0015609678,-0.008271395,0.004629952,-0.002801155,0.49445418,-1.3738903,1.894637,-2.0902226,-1.5704197,2.4684603,-0.12259189,0.08803771,-0.11173772,0.015716163,0.004894647,-0.1197407,0.0,0.30645782,-9.289502,0.8985519,47.709274,-1.09315,-2.314341,-3.2617307,-0.32037088,0.14328392,-0.38802242,28.8125,30.125,29.25,32.8125,35.3125,36.5
0.18005192,-0.5870867,-1.3632356,-1.8048404,-0.03986649,0.031306416,-0.13604604,-0.3964989,-0.36638892,0.059987888,3.0788224,-0.62332535,0.00014086337,-0.08265072,0.02486675,0.0020575048,-0.009468814,0.0056343,-0.0020432095,0.4942273,-1.3736621,1.8943981,-2.0901864,-1.5704197,2.468209,-0.12051824,0.08840193,-0.11324892,0.015409695,0.005466925,-0.11842526,-0.095768064,0.36391866,-9.232041,0.8672237,47.719128,-1.0984032,-2.3321815,-3.300304,-0.31516397,0.15002361,-0.42399228,28.8125,30.125,29.25,32.8125,35.3125,36.5
0.18205202,-0.641347,-1.1787047,-1.966572,-0.043228652,0.038079105,-0.14045924,-0.3966768,-0.36633533,0.059995342,3.078798,-0.62333876,0.000102054015,-0.0827284,0.025826313,-0.00017922295,-0.0074598137,0.0013548129,-0.0029913252,0.49397516,-1.3734804,1.8941597,-2.090162,-1.5704197,2.4679685,-0.12231829,0.0925549,-0.113244034,0.015973011,0.005734799,-0.1192768,-0.05746084,0.36391866,-9.308657,0.80456203,47.692257,-1.12103,-2.397284,-3.3181143,-0.33781558,0.14453179,-0.49039012,28.8125,30.125,29.25,32.8125,35.3125,36.5
0.18405256,-0.6196105,-1.2798716,-1.9049416,-0.053270712,0.051705014,-0.14610784,-0.39683113,-0.36628774,0.05998383,3.0787888,-0.62333363,0.00011297488,-0.08468702,0.025786096,0.0019968816,-0.009567261,0.0053510848,-0.0012786561,0.49374723,-1.3732889,1.8939556,-2.0901506,-1.5704077,2.4677386,-0.123959646,0.09057511,-0.11587489,0.016069898,0.005692811,-0.1226301,-0.30645782,0.28730422,-9.423578,0.79560274,47.68062,-1.1081792,-2.3323793,-3.141355,-0.32198036,0.1431971,-0.49602968,28.8125,30.125,29.25,32.8125,35.3125,36.5
0.18605217,-0.9293598,-1.3956909,-2.0184605,-0.053254683,0.056904383,-0.14333095,-0.39701447,-0.36625138,0.060020868,3.0787463,-0.62324154,7.7656586e-07,-0.08470569,0.026053712,0.0006956733,-0.00821699,0.0026692708,0.008160092,0.4935193,-1.3731437,1.8936933,-2.0901268,-1.5704077,2.4674587,-0.12443465,0.09356404,-0.11666529,0.016876902,0.0057903198,-0.13254276,0.019153614,0.2681506,-9.385271,0.7732232,47.668976,-1.1587427,-2.3773441,-3.3906865,-0.3544827,0.1474961,-0.43365535,28.8125,30.125,29.25,32.8125,35.3125,36.5
0.18805279,-1.0467954,-0.94992274,-1.8699605,-0.054724265,0.05665662,-0.14470246,-0.39717653,-0.36618644,0.060019765,3.07875,-0.62325585,4.293717e-05,-0.085658334,0.026455363,0.0009231451,-0.008506052,0.0029549655,0.016035454,0.4932554,-1.3729634,1.8934649,-2.0900538,-1.5703958,2.4672034,-0.12599896,0.09403763,-0.11783122,0.017186506,0.00590833,-0.14198226,-0.019153614,0.28730422,-9.3661175,0.8023209,47.64837,-1.1758348,-2.4641073,-3.2404823,-0.3607745,0.14495093,-0.4047445,28.8125,30.125,29.25,32.8125,35.3125,36.5
0.19005299,-0.91741884,-0.93877953,-1.8186932,-0.050414823,0.07130155,-0.14928617,-0.39732635,-0.36612484,0.059995167,3.0788107,-0.62314755,0.00011675518,-0.087356955,0.026329476,0.0012125476,-0.010012035,0.0036560607,0.023846945,0.49301538,-1.3727465,1.8932494,-2.0899947,-1.5703954,2.4668882,-0.12789387,0.09574473,-0.12044285,0.01676173,0.0068910737,-0.15168901,-0.05746084,0.3256114,-9.32781,0.8940802,47.690468,-1.0907614,-2.380846,-3.3114011,-0.3604599,0.13043007,-0.2786618,28.8125,30.125,29.25,32.8125,35.3125,36.5
0.19205247,-0.85248,-1.0072496,-1.9139134,-0.030568672,0.07705386,-0.14182377,-0.39747766,-0.36608338,0.059970234,3.078783,-0.6230812,0.00021995835,-0.08870776,0.026312055,0.0010198165,-0.010705271,0.003536672,0.028366989,0.49276334,-1.3725295,1.8930453,-2.0899827,-1.5703229,2.4665983,-0.12945065,0.09801302,-0.12266482,0.016505433,0.007551931,-0.15776569,-0.30645782,0.22984336,-9.404425,0.7642693,47.651955,-1.1824282,-2.5151706,-3.2298875,-0.34990197,0.13460433,-0.20230612,28.8125,30.125,29.25,32.8125,35.3125,36.5
0.19405253,-1.0385032,-1.0509874,-1.9616324,-0.02027285,0.08325091,-0.12620555,-0.3976851,-0.36603546,0.059991375,3.078748,-0.6230157,0.00016076313,-0.090489335,0.0268398,0.0011414591,-0.011172218,0.0044021388,0.027612144,0.4924871,-1.3723251,1.8927459,-2.089947,-1.570311,2.4662857,-0.13189416,0.099467784,-0.12457006,0.01597727,0.007560703,-0.15945294,-0.32561144,0.095768064,-9.5385,0.8179876,47.709274,-1.030099,-2.4319668,-3.1904678,-0.3446861,0.124994606,-0.1705704,28.8125,30.125,29.25,32.8125,35.3125,36.5
0.19605231,-1.0613909,-0.7593385,-1.8788556,-0.02349322,0.09851849,-0.1331619,-0.3978703,-0.36597866,0.059994753,3.078759,-0.6228465,0.00011859796,-0.09136175,0.026525922,0.001354763,-0.01101156,0.0051627983,0.02364797,0.49222368,-1.3721322,1.892506,-2.089935,-1.570311,2.4659154,-0.13179092,0.100899026,-0.12682891,0.016212752,0.0070622843,-0.15538362,-0.6512228,0.11492168,-9.519346,0.800085,47.666286,-1.1301637,-2.5846252,-3.1357646,-0.3330929,0.115141064,-0.16309188,28.8125,30.125,29.25,32.8125,35.3125,36.5
0.19805205,-2.127947,-0.9739497,-1.9654837,-0.023584355,0.099830866,-0.13228832,-0.39804947,-0.3658923,0.059971556,3.0787845,-0.6228919,0.00015465822,-0.09220141,0.027222898,0.0010975305,-0.010338105,0.004893072,0.017651523,0.49192354,-1.3719157,1.8922929,-2.0898988,-1.5703229,2.4656405,-0.13337292,0.101997375,-0.1276319,0.01647361,0.006590832,-0.15096843,-0.7469909,0.05746084,-9.461885,0.800085,47.691364,-0.9916245,-2.5226064,-3.1945179,-0.33026454,0.11497067,-0.20927215,28.8125,30.125,29.25,32.8125,35.3125,36.5
0.20005281,-2.4022632,-1.0518335,-2.0052073,-0.0132210115,0.11092945,-0.12565254,-0.39820427,-0.3658592,0.05997506,3.078751,-0.6228115,0.00024026066,-0.09396752,0.027905647,0.0017584831,-0.012117174,0.0053636776,0.010000915,0.49168313,-1.3717233,1.8920397,-2.0898273,-1.5702509,2.4653542,-0.13689534,0.10212806,-0.12939347,0.016855424,0.007933798,-0.14684142,-0.7278373,0.05746084,-9.557653,0.800085,47.682407,-1.1827658,-2.4875646,-3.1669326,-0.32869506,0.10452689,-0.28777224,28.8125,30.125,29.25,32.8125,35.3125,36.5
0.20205256,-2.2843902,-0.90973866,-1.9013379,-0.022321764,0.124668054,-0.1377742,-0.39840916,-0.36579728,0.059986785,3.0787544,-0.62273264,0.00015949685,-0.09338382,0.02720004,0.0013945624,-0.011649611,0.0048010605,0.011027333,0.49140838,-1.3715187,1.891764,-2.0898035,-1.5702747,2.46503,-0.13503137,0.10317425,-0.12986214,0.01699353,0.007795946,-0.14600304,-0.80445176,0.0,-9.519346,0.86945957,47.690468,-1.2572129,-2.452074,-3.1419408,-0.31730616,0.10055292,-0.32378954,28.8125,30.125,29.25,32.8125,35.3125,36.5
0.20405221,-2.3508255,-0.7154529,-1.9031122,-0.03370278,0.13251226,-0.13079001,-0.39858016,-0.36576414,0.06000348,3.0787034,-0.6226844,0.00016473971,-0.0956128,0.026977373,0.0023387917,-0.01260813,0.0072056605,0.009279898,0.4911685,-1.3713382,1.8915004,-2.0897558,-1.570227,2.4647665,-0.13643505,0.1046119,-0.1336987,0.016829843,0.0075056236,-0.14565697,-0.7852981,0.038307227,-9.500193,0.87393653,47.687782,-1.2081282,-2.4757364,-3.1580048,-0.33013368,0.09130577,-0.35033405,28.8125,30.125,29.25,32.8125,35.3125,36.5
0.20605247,-2.3601954,-0.6699926,-1.8325698,-0.016689213,0.12616156,-0.13593361,-0.398791,-0.3657116,0.060007025,3.078709,-0.62260634,8.6984415e-05,-0.09417559,0.02856182,0.00058831554,-0.010435675,0.003922975,0.009262854,0.49090466,-1.3710979,1.8912033,-2.0897434,-1.5702513,2.4644535,-0.13751312,0.10440972,-0.12948185,0.016734723,0.0071562794,-0.14671898,-0.80445176,0.0,-9.442732,0.7777002,47.67614,-1.2326245,-2.4120164,-3.2411308,-0.31570858,0.07813485,-0.3934278,28.8125,30.125,29.25,32.8125,35.3125,36.5
0.20805298,-1.741804,-0.4947422,-1.8780422,-0.0085793035,0.13086165,-0.13920987,-0.3989813,-0.3656385,0.059995852,3.0786884,-0.6226388,0.0001803843,-0.09713716,0.028714968,0.002160628,-0.012097967,0.007769765,0.011336674,0.49058014,-1.3708696,1.8909405,-2.0896719,-1.5702032,2.4641519,-0.1401555,0.10481518,-0.13341579,0.016100178,0.0067986134,-0.15143344,-0.6895301,-0.15322891,-9.5385,0.82022345,47.694054,-1.0435383,-2.3908615,-3.1044223,-0.30989623,0.07800196,-0.37554404,28.8125,30.125,29.25,32.8125,35.3125,36.5
0.21005198,-2.0241318,-0.31498328,-1.8531057,-0.009639412,0.107478105,-0.14148028,-0.39918137,-0.36558145,0.06000333,3.0786674,-0.6225905,0.00012313374,-0.09831909,0.030777812,7.398598e-06,-0.00965934,0.0046078744,0.015945181,0.49030402,-1.370664,1.8906759,-2.08966,-1.5702037,2.4638484,-0.14421879,0.10874794,-0.13317752,0.015875673,0.0061495784,-0.16010368,-0.6512228,-0.21068975,-9.500193,0.83589023,47.691364,-1.124898,-2.465201,-3.3893247,-0.31132394,0.09458962,-0.29600132,28.8125,30.125,29.25,32.8125,35.3125,36.5
0.21205206,-1.4985576,-0.23182069,-1.8783603,-0.0026598873,0.10889333,-0.14414777,-0.3994037,-0.36551818,0.06001932,3.0786283,-0.6225562,8.80786e-06,-0.09865924,0.030377343,0.0020747322,-0.011465661,0.008479901,0.02752849,0.49000463,-1.3704612,1.8904008,-2.0896723,-1.5702156,2.4635327,-0.14364539,0.10501374,-0.1333682,0.015540437,0.005940497,-0.1711134,-0.63206923,-0.11492168,-9.423578,0.83365434,47.686886,-1.1653683,-2.3246129,-3.377522,-0.2749644,0.09083206,-0.20071022,28.8125,30.125,29.25,32.8125,35.3125,36.5
0.21405254,-1.8341788,-0.17704579,-1.9778703,0.0043494413,0.101116374,-0.12794456,-0.39961097,-0.36544988,0.060015928,3.078615,-0.6224542,3.4703713e-05,-0.09840479,0.031019503,-0.0006799936,-0.008820236,0.0040019397,0.031932265,0.48968098,-1.3702312,1.8901261,-2.089636,-1.5701798,2.4631472,-0.14428748,0.1101193,-0.13320257,0.015476968,0.0057200124,-0.1761583,-0.45968673,-0.24899697,-9.423578,0.8918391,47.704796,-1.1421739,-2.433559,-3.4776306,-0.2695896,0.09096943,-0.11254898,28.75,30.125,29.25,32.8125,35.375,36.5
0.21605247,-1.5505726,-0.36673263,-1.9589314,0.015236322,0.097218744,-0.13342527,-0.39978698,-0.3653818,0.059981763,3.0786488,-0.622345,0.00011751613,-0.100046776,0.031193769,0.0007703261,-0.010228262,0.0065714275,0.031402815,0.4893931,-1.3699794,1.8898982,-2.0896118,-1.5701555,2.462787,-0.14600928,0.10912973,-0.13540564,0.015746478,0.0057448302,-0.17735034,-0.40222588,-0.2681506,-9.5385,0.78888994,47.68062,-1.117151,-2.3721366,-3.3898668,-0.26060408,0.08850489,-0.05294467,28.75,30.125,29.25,32.8125,35.375,36.5
0.218052,-0.9293018,-0.37064207,-1.5810637,0.008195841,0.100748114,-0.12859017,-0.39996433,-0.36531997,0.05997321,3.078676,-0.622256,0.00013540493,-0.10034832,0.031123381,0.00046200526,-0.010114318,0.0059594032,0.02611378,0.4891296,-1.3697627,1.8896483,-2.089564,-1.5701555,2.4624646,-0.14621413,0.11046915,-0.13637431,0.015967607,0.0059285965,-0.17226593,-0.36391866,-0.19153614,-9.442732,0.83365434,47.67345,-1.2187324,-2.3958807,-3.5610607,-0.24064648,0.08457127,-0.09294671,28.75,30.125,29.25,32.8125,35.375,36.5
0.22005245,-0.7576085,-0.63612497,-1.8064902,0.002531883,0.083258964,-0.12180873,-0.40021157,-0.36525786,0.060008608,3.0786297,-0.6221924,-3.3754233e-05,-0.10168003,0.03130075,0.0014648894,-0.010743011,0.0074511766,0.016013885,0.48881802,-1.3695585,1.8893245,-2.089564,-1.5701798,2.4621193,-0.14754379,0.11031778,-0.13868162,0.016807549,0.005799657,-0.16349413,-0.36391866,-0.17238252,-9.423578,0.8314132,47.684196,-1.2032496,-2.327027,-3.4571807,-0.22207034,0.10057771,-0.16317216,28.75,30.125,29.25,32.8125,35.375,36.5
0.22205235,-0.33690703,-0.75534034,-2.080685,0.0053256634,0.06791895,-0.13035624,-0.4003987,-0.36517245,0.059995085,3.0786476,-0.62221795,9.874084e-06,-0.10316224,0.03126599,0.0023979754,-0.010997948,0.009378697,0.00942605,0.4885064,-1.3693423,1.8890837,-2.0895035,-1.5701798,2.4618216,-0.14832298,0.11078891,-0.14150679,0.017341183,0.005110436,-0.15768392,-0.2873042,-0.095768064,-9.519346,0.80456203,47.66987,-1.2358687,-2.1995344,-3.4396436,-0.23285097,0.097913355,-0.24659792,28.75,30.125,29.25,32.8125,35.375,36.5
0.22405198,-0.55739856,-0.826941,-2.0276577,-0.012270651,0.04400646,-0.12704793,-0.40061876,-0.3651318,0.06002323,3.0785728,-0.6221452,-6.791106e-05,-0.10363251,0.03182596,0.0017673634,-0.009587073,0.007956151,0.0057764435,0.48821852,-1.3691372,1.8887724,-2.0894911,-1.570144,2.4614978,-0.14925924,0.112766586,-0.14271477,0.018497376,0.004548899,-0.15496895,-0.15322891,0.038307227,-9.461885,0.83365434,47.660015,-1.1891222,-2.3733718,-3.3942196,-0.2189183,0.11893037,-0.3463499,28.75,30.125,29.25,32.8125,35.375,36.5
0.22605184,-0.9037835,-1.0977786,-2.1527033,-0.037550434,0.036134876,-0.13373648,-0.4008589,-0.36502942,0.060023956,3.0785768,-0.6222647,-7.452057e-05,-0.10513352,0.032928046,0.0016671808,-0.009227375,0.007451499,-0.002339742,0.4878462,-1.3688848,1.8884505,-2.0894072,-1.5701684,2.4611998,-0.15231732,0.11415165,-0.14436415,0.019371644,0.0044655665,-0.1499101,-0.17238252,0.21068975,-9.557653,0.83813137,47.655537,-1.1629374,-2.1993778,-3.3796754,-0.21178868,0.11593773,-0.43159607,28.75,30.125,29.25,32.8125,35.375,36.5
0.22805175,-0.5194269,-1.462826,-2.0952985,-0.05437154,0.049915865,-0.12759161,-0.4010838,-0.36495513,0.060025875,3.0785668,-0.6222998,-0.00013797627,-0.10613292,0.033633854,0.0015793543,-0.009061671,0.0070925755,-0.0040616756,0.48753458,-1.3686439,1.8881534,-2.0893838,-1.5701922,2.4609115,-0.15433429,0.115136966,-0.14548537,0.019900294,0.0044945693,-0.15020455,-0.019153614,0.3256114,-9.423578,0.9321212,47.675243,-1.2022433,-2.4466538,-3.4802933,-0.22173703,0.11839426,-0.49681383,28.75,30.125,29.25,32.8125,35.375,36.5
0.2300517,-0.689602,-2.1019375,-2.2770345,-0.062686525,0.060175154,-0.13077033,-0.4012676,-0.36488816,0.06001546,3.078566,-0.62227434,-5.7637557e-05,-0.10673543,0.033725813,0.0013403303,-0.009157841,0.0060288133,0.003137231,0.4872349,-1.3684154,1.8878878,-2.089311,-1.5701555,2.460596,-0.15531774,0.11675877,-0.14710768,0.020805229,0.0050780904,-0.15838689,0.019153614,0.38307226,-9.519346,0.8560339,47.67614,-1.0587381,-2.0777082,-3.3989568,-0.20813206,0.11991744,-0.5055299,28.75,30.125,29.25,32.8125,35.375,36.5
0.23205164,-0.73758596,-2.2091832,-2.0698185,-0.08498612,0.06431867,-0.14349611,-0.40148103,-0.3648317,0.060029637,3.0785198,-0.6222581,-9.025401e-05,-0.10803739,0.034768686,7.3841766e-05,-0.008445565,0.0035428153,0.011870517,0.48693436,-1.3681978,1.8875879,-2.0892751,-1.5701317,2.4602914,-0.15849186,0.12032564,-0.14862218,0.021293705,0.0056266026,-0.17029352,0.13407528,0.4405331,-9.615114,0.83813137,47.67614,-1.0411183,-2.302189,-3.3284686,-0.20855725,0.12916967,-0.4014128,28.75,30.125,29.25,32.8125,35.375,36.5
0.2340518,-0.8964999,-2.2268686,-2.138812,-0.100396276,0.06228519,-0.13526686,-0.4017168,-0.3647691,0.06004331,3.0784938,-0.62214863,-0.00015013746,-0.10956008,0.033916082,0.001127161,-0.009366554,0.0059785633,0.024291111,0.4866111,-1.3679571,1.8872641,-2.0892513,-1.5701197,2.4599032,-0.15813933,0.12145386,-0.15240632,0.021378394,0.0053134034,-0.18235946,-0.038307227,0.5746084,-9.710882,0.8560339,47.687782,-0.96260023,-2.3107367,-3.4076304,-0.20746088,0.12195526,-0.2964362,28.75,30.125,29.25,32.8125,35.375,36.5
0.23605214,-0.82383907,-2.5270493,-2.0289636,-0.094346434,0.06921384,-0.13304998,-0.40193444,-0.36468923,0.060041364,3.0784986,-0.62208855,-0.00013358517,-0.1100204,0.034446485,0.00032349856,-0.008795421,0.004952329,0.02994138,0.48627526,-1.3677163,1.8869675,-2.0891917,-1.5701078,2.4595294,-0.15934451,0.123162806,-0.15256563,0.021011358,0.0052936124,-0.18921462,-0.076614454,0.59376204,-9.634268,0.75755644,47.698532,-1.0037973,-2.308864,-3.3082395,-0.18742377,0.14009413,-0.17790167,28.75,30.125,29.25,32.8125,35.375,36.5
0.23805183,-0.78878915,-2.1578288,-2.0408487,-0.07840682,0.07118768,-0.13859016,-0.40215915,-0.364639,0.060057618,3.0784652,-0.6219279,-0.00019632083,-0.11228251,0.034620304,0.0012002091,-0.010077228,0.006764211,0.027427087,0.48597535,-1.3674877,1.8866547,-2.0891793,-1.5700835,2.4591336,-0.16174947,0.1242982,-0.15594906,0.02106379,0.0055894675,-0.18910375,-0.038307227,0.4405331,-9.519346,0.8403672,47.689575,-1.107096,-2.339607,-3.1095715,-0.1838347,0.14276418,-0.15210265,28.75,30.125,29.25,32.8125,35.375,36.5
0.24005195,-0.89552695,-1.9370953,-1.9021806,-0.05877994,0.058839537,-0.13181798,-0.4023941,-0.3645485,0.060042083,3.0784795,-0.6220281,-0.00018939053,-0.112438545,0.033596125,0.0009650475,-0.011143927,0.0065123094,0.022881387,0.48562858,-1.3671988,1.8863314,-2.0891197,-1.5701073,2.4588478,-0.16072774,0.12609906,-0.15747221,0.020501224,0.0066410275,-0.18353648,-0.05746084,0.51714754,-9.519346,0.8090337,47.660015,-1.1598539,-2.348289,-3.1854777,-0.16412838,0.13193958,-0.17919981,28.75,30.125,29.25,32.8125,35.375,36.5
0.24205199,-0.7569551,-1.3899577,-1.4884734,-0.06691129,0.05595438,-0.142002,-0.40262923,-0.36450616,0.0600632,3.0784514,-0.6218132,-0.00029250566,-0.1139425,0.03408582,0.0008626225,-0.012126295,0.00657471,0.014999531,0.48534033,-1.3669583,1.8859962,-2.0891201,-1.570095,2.458429,-0.1633224,0.12759131,-0.15892231,0.019943492,0.007492953,-0.17824852,-0.076614454,0.40222588,-9.308657,0.79560274,47.68062,-1.1549187,-2.4710834,-3.160674,-0.15033433,0.120621935,-0.30104417,28.75,30.125,29.25,32.8125,35.375,36.5
0.2440519,-0.078959025,-1.0999931,-1.6947184,-0.051101424,0.06348934,-0.1464602,-0.40286037,-0.36442575,0.060062688,3.0784316,-0.62182885,-0.00029333762,-0.11509305,0.034793187,0.0004543816,-0.0119077265,0.005916163,0.011149106,0.48499224,-1.3667055,1.8856844,-2.0890715,-1.570083,2.4580934,-0.16551171,0.12938522,-0.16020986,0.020125026,0.007608776,-0.17658673,-0.076614454,0.36391866,-9.3661175,0.84708,47.660015,-1.0645066,-2.2937064,-3.1055906,-0.12758236,0.12266809,-0.340908,28.75,30.125,29.25,32.8125,35.375,36.5
0.24605198,-0.81839305,-0.95884603,-1.7586966,-0.035084885,0.03034298,-0.13803673,-0.4031062,-0.3643718,0.06008434,3.078377,-0.62177765,-0.0003555191,-0.116552375,0.035324197,0.0011456431,-0.012077329,0.0072676884,0.009985094,0.48466834,-1.3664529,1.8853253,-2.0890357,-1.5700592,2.4577446,-0.16731314,0.12957981,-0.16214915,0.020603813,0.0071425145,-0.17722268,-0.076614454,0.24899697,-9.308656,0.7911258,47.68062,-0.9683788,-2.5571673,-3.0621147,-0.100188434,0.10923159,-0.36518484,28.75,30.125,29.25,32.8125,35.375,36.5
0.24805185,-1.3026277,-1.0443549,-1.3738248,-0.037772562,0.03978195,-0.14461532,-0.40331742,-0.36430398,0.06007092,3.0783782,-0.62167937,-0.00030021457,-0.116139404,0.036313076,-0.0014034715,-0.009945493,0.0018825324,0.011612355,0.48434445,-1.3661873,1.8850273,-2.0889876,-1.570023,2.4573593,-0.16890588,0.13382952,-0.1617222,0.02169441,0.0077705644,-0.18044285,-0.24899697,0.21068975,-9.232041,0.8627467,47.68062,-0.9602531,-2.4248602,-3.235343,-0.09527975,0.11376907,-0.3895909,28.75,30.125,29.25,32.8125,35.375,36.5
0.25005177,-1.0834157,-0.61007124,-1.0960048,-0.03556974,0.063330956,-0.14806278,-0.40358126,-0.3642545,0.06009437,3.0782888,-0.6215981,-0.0003791204,-0.11578018,0.035970587,-0.00022576764,-0.0108489385,0.0027609812,0.018884473,0.4839975,-1.365924,1.8846592,-2.088987,-1.5699748,2.456973,-0.1681612,0.1316324,-0.16211964,0.023106001,0.00819093,-0.18697011,-0.2681506,0.076614454,-9.136273,0.83813137,47.675243,-1.0077472,-2.3100176,-3.3209314,-0.09690929,0.10918218,-0.30878893,28.75,30.125,29.25,32.8125,35.375,36.5
0.2520516,-1.3791777,-0.5670978,-1.1559056,-0.0050860792,0.07768868,-0.15001631,-0.4037905,-0.36416763,0.060073134,3.0783463,-0.6215458,-0.00031953884,-0.11646387,0.03615822,-0.00079214235,-0.010658934,0.0011765528,0.028922796,0.48367342,-1.3656468,1.8843569,-2.0889032,-1.5699867,2.4566092,-0.16934797,0.13400733,-0.16391768,0.024026962,0.008758927,-0.19819513,-0.3256114,-0.095768064,-9.212888,0.8873621,47.701214,-1.0145102,-2.4641216,-3.2943873,-0.07961197,0.10578832,-0.22655049,28.75,30.125,29.25,32.8125,35.375,36.5
0.25405255,-1.2890139,-0.042931642,-0.92905587,0.011367896,0.09779839,-0.1426639,-0.40404058,-0.36411306,0.06008916,3.078295,-0.62143344,-0.000367121,-0.1170959,0.036925454,-0.0012301117,-0.010420523,-0.00011751359,0.035041932,0.48333758,-1.3653821,1.8839983,-2.0888784,-1.56995,2.45621,-0.17134632,0.13518295,-0.16452,0.024725527,0.009172816,-0.20631197,-0.28730422,-0.21068975,-9.193734,0.86498255,47.71286,-0.981352,-2.3947954,-3.3631625,-0.08521625,0.07912563,-0.09795968,28.75,30.125,29.25,32.8125,35.375,36.5
0.2560524,-1.5321181,0.4540068,-0.8983689,0.028492903,0.09164907,-0.13920742,-0.40425074,-0.36403883,0.060063876,3.0783517,-0.6212706,-0.00032141534,-0.117839925,0.036351293,-0.0010254239,-0.010940699,0.00031165712,0.035400264,0.4830269,-1.3650937,1.8836998,-2.0888307,-1.56995,2.4557905,-0.17111032,0.13667889,-0.16686271,0.02495279,0.009423353,-0.20643377,-0.28730422,-0.30645782,-9.021352,0.78888994,47.683304,-1.1400379,-2.3875606,-3.3214583,-0.057369627,0.08689241,-0.07268904,28.75,30.125,29.25,32.8125,35.375,36.5
0.2580517,-0.82775694,1.6194488,-0.87689215,0.035528935,0.083463706,-0.1506582,-0.40450722,-0.36399296,0.060082715,3.0782347,-0.6212692,-0.0003660743,-0.11865435,0.03657207,-0.0001927796,-0.011094748,0.0021603908,0.028943636,0.48267928,-1.3648293,1.8833407,-2.0888307,-1.5698789,2.455457,-0.17165549,0.13590428,-0.16788004,0.0250514,0.008715167,-0.20052095,-0.4405331,-0.30645782,-9.040505,0.8851263,47.704796,-1.250124,-2.3616695,-3.327427,-0.046828497,0.08315822,-0.09449549,28.75,30.125,29.25,32.8125,35.375,36.5
0.26005158,-1.2738442,1.1177665,-0.8295752,0.05120456,0.06648233,-0.15368144,-0.40473124,-0.36390144,0.060059223,3.0782824,-0.6211468,-0.00029111738,-0.12020687,0.03674963,-0.00049692433,-0.010305414,0.0025813188,0.019279584,0.48232007,-1.3645397,1.8830312,-2.0887592,-1.5698665,2.4550154,-0.17266789,0.13880892,-0.17067887,0.02494042,0.0077982503,-0.19186783,-0.5363012,-0.34476504,-8.868123,0.8672237,47.67345,-1.3950486,-2.489459,-3.4053845,-0.032284774,0.084215865,-0.21349335,28.75,30.125,29.25,32.8125,35.375,36.5
0.26205248,-0.92088383,0.61357194,-1.0630498,0.05396022,0.06995496,-0.14335597,-0.40495488,-0.36380994,0.060043544,3.078304,-0.6211727,-0.00030115552,-0.119741604,0.037495196,-4.665878e-05,-0.009947235,0.0023397882,0.012127135,0.48198432,-1.3642764,1.8827432,-2.0887225,-1.5698913,2.4546933,-0.17328668,0.1367201,-0.16953313,0.02625681,0.0075924066,-0.18533507,-0.4405331,-0.28730422,-9.021352,0.82694155,47.690468,-1.2310102,-2.2271311,-3.4481373,-0.011514854,0.067441314,-0.31025878,28.75,30.125,29.25,32.8125,35.375,36.5
0.26405233,-1.1881943,0.032113615,-1.4409578,0.04449604,0.057651594,-0.14260358,-0.40522134,-0.36372575,0.060059194,3.078285,-0.62119013,-0.0003004645,-0.12134046,0.037846196,0.0009704436,-0.009976602,0.0037199487,0.0052337577,0.4816006,-1.3639884,1.8823384,-2.0886147,-1.5698794,2.454323,-0.17479365,0.13708515,-0.17266102,0.027785825,0.0069750324,-0.17994724,-0.36391866,-0.2681506,-9.193734,0.8717007,47.666286,-1.2308991,-2.1758838,-3.3245027,-0.002615661,0.09024461,-0.41712463,28.75,30.125,29.25,32.8125,35.375,36.5
0.2660522,-1.3433442,-0.16686946,-1.5094835,0.0061993757,0.0624293,-0.14401129,-0.40544382,-0.36365858,0.060075346,3.0782733,-0.62107134,-0.000308021,-0.1224868,0.03795415,0.0015180482,-0.009246559,0.0041984064,0.0041340184,0.48127717,-1.3637596,1.8820113,-2.0885417,-1.5698556,2.453927,-0.17535874,0.13833204,-0.17584802,0.029649178,0.00611041,-0.17941082,-0.47884035,-0.22984336,-9.251195,0.86945957,47.67345,-1.3310184,-2.19878,-3.2186282,-0.016188119,0.10201833,-0.49069685,28.75,30.125,29.25,32.8125,35.375,36.5
0.26805237,-2.182051,-1.2221377,-1.7708623,-0.0020620914,0.07258207,-0.13838784,-0.40569118,-0.36355627,0.060045432,3.0783174,-0.62116915,-0.00030604823,-0.122827835,0.038072225,0.0013890332,-0.008086545,0.0031647317,0.013793548,0.48091725,-1.3634347,1.8816789,-2.0884936,-1.5699037,2.4536228,-0.17542006,0.13989952,-0.17792144,0.031611975,0.005564752,-0.18913083,-0.59376204,-0.038307227,-9.232041,0.90750587,47.70211,-1.4178264,-2.168369,-3.1461594,-0.051499587,0.1158936,-0.4404284,28.75,30.125,29.25,32.8125,35.375,36.5
0.27005228,-1.9249963,-1.0244927,-2.072214,-0.024392975,0.09967232,-0.14636494,-0.40593162,-0.3634761,0.060054135,3.0783243,-0.6210477,-0.00027980676,-0.12378702,0.03879451,0.0013822834,-0.007880252,0.0022969805,0.025821654,0.48055652,-1.36317,1.8813204,-2.0883973,-1.5698799,2.4531856,-0.17751326,0.14097767,-0.17955817,0.033053305,0.005797659,-0.20325169,-0.34476507,0.11492168,-9.481039,0.9186956,47.675243,-1.4522381,-2.172235,-3.3395119,-0.061694853,0.12106934,-0.36758187,28.75,30.125,29.25,32.8125,35.375,36.5
0.27205235,-2.2779255,-1.3234918,-2.4661016,-0.04114426,0.09042449,-0.1493633,-0.40617716,-0.36340737,0.060055062,3.0783176,-0.6209278,-0.0002163249,-0.12396052,0.04022977,-0.00012817842,-0.006992556,-0.0014848614,0.032615423,0.4801955,-1.3628689,1.8809355,-2.088301,-1.5698313,2.4527507,-0.18056035,0.14307882,-0.17892456,0.03410024,0.0067695994,-0.21309325,-0.17238252,0.17238252,-9.768343,0.93436235,47.696735,-1.3742038,-2.228053,-3.3328772,-0.072672874,0.116686575,-0.21401927,28.75,30.125,29.25,32.8125,35.375,36.5
0.27405232,-1.6420829,-2.341816,-2.5541475,-0.06448987,0.090549596,-0.15505104,-0.40640366,-0.36330667,0.060028434,3.078376,-0.62084204,-0.00016737024,-0.12516645,0.041426003,-0.00032559107,-0.0064006965,-0.002230424,0.03296928,0.47983497,-1.3625805,1.8806366,-2.0882404,-1.5698432,2.4523294,-0.18341056,0.14420535,-0.18008703,0.03507438,0.006581276,-0.21629708,-0.30645782,0.30645782,-9.921572,0.90750587,47.690468,-1.292587,-2.2021873,-3.3430214,-0.08799313,0.11283536,-0.15872082,28.75,30.125,29.25,32.8125,35.375,36.5
0.27605218,-1.5736722,-3.1203425,-2.8495016,-0.089148834,0.08677543,-0.13993467,-0.40668255,-0.36322048,0.06004353,3.0783608,-0.6208048,-0.00018106964,-0.12542655,0.041714452,-0.00041552572,-0.0052037095,-0.0024046083,0.027916064,0.4794387,-1.3622795,1.8802198,-2.088145,-1.5698317,2.451912,-0.18339834,0.14500263,-0.1810854,0.03598645,0.00559985,-0.21123059,-0.5746084,0.40222588,-9.825804,0.8605109,47.683304,-1.3285251,-2.329821,-3.3923078,-0.112344086,0.13332401,-0.2077811,28.75,30.125,29.25,32.8125,35.375,36.5
0.27805224,-1.3139439,-2.4666789,-2.9748867,-0.10113677,0.08202725,-0.14681296,-0.40692198,-0.3631625,0.060061537,3.078314,-0.6207028,-0.00018840075,-0.12659429,0.042892583,-0.00215703,-0.0036823677,-0.004804316,0.017551033,0.479102,-1.362026,1.8798612,-2.088085,-1.5697836,2.4515176,-0.18614112,0.1490781,-0.18197577,0.035638038,0.0053557265,-0.20360705,-0.4405331,0.4405331,-10.093954,0.8493211,47.689575,-1.217789,-2.4979568,-3.4448438,-0.13089168,0.14820312,-0.25762618,28.75,30.125,29.25,32.8125,35.375,36.5
0.2800526,-2.1678834,-3.0202904,-2.7433467,-0.092463,0.07102829,-0.14147985,-0.40717375,-0.3630645,0.060049992,3.078349,-0.6206756,-0.00013137964,-0.12802108,0.043239754,-0.0020995026,-0.0041934173,-0.0037952075,0.011360521,0.47871718,-1.3617135,1.8794883,-2.0879776,-1.5697836,2.4511116,-0.18784128,0.15030718,-0.18341416,0.03471431,0.0053246887,-0.19911624,-0.30645782,0.36391866,-10.01734,0.8247004,47.67345,-1.1769298,-2.3335948,-3.3990812,-0.117434695,0.15186547,-0.35629332,28.75,30.125,29.25,32.8125,35.375,36.5
0.28205168,-1.7384542,-2.272507,-2.656277,-0.09860643,0.072188325,-0.14719655,-0.40745968,-0.3629614,0.060047805,3.0783422,-0.62065476,-0.00021036397,-0.12882416,0.04411417,-0.0030654531,-0.0039843023,-0.00603556,0.008595873,0.4783085,-1.3614125,1.8791293,-2.0879653,-1.5698069,2.450691,-0.19040695,0.15268317,-0.18423378,0.03523753,0.006177967,-0.19891694,-0.2681506,0.3256114,-9.883265,0.8560339,47.67345,-1.1038681,-2.4985938,-3.5250816,-0.12398549,0.14307132,-0.3926245,28.75,30.125,29.25,32.8125,35.375,36.5
0.2840519,-1.4449613,-1.886043,-2.332139,-0.06610243,0.069599405,-0.14797917,-0.40771464,-0.36286455,0.060045205,3.0783646,-0.62058073,-0.00019520849,-0.13082342,0.044447627,-0.002780605,-0.005123325,-0.0054361112,0.010715003,0.47792324,-1.3611233,1.8787693,-2.0878818,-1.5698069,2.4502568,-0.19304468,0.15452078,-0.18712635,0.035240624,0.006907777,-0.20367303,-0.24899697,0.30645782,-9.998186,0.91198283,47.68062,-0.99481976,-2.5238419,-3.4117825,-0.13883173,0.1501686,-0.39931196,28.75,30.125,29.25,32.8125,35.375,36.5
0.28605172,-1.2964622,-1.3595068,-2.3624196,-0.040199857,0.07493461,-0.1575927,-0.4079754,-0.3627931,0.060044557,3.0783231,-0.6205283,-0.00014229373,-0.13180482,0.045092132,-0.003736303,-0.004901919,-0.0074636624,0.019972645,0.47753865,-1.3608103,1.8783787,-2.0878098,-1.5697464,2.4498448,-0.19531506,0.15743455,-0.18861304,0.03573994,0.007651565,-0.21520059,-0.1340753,0.21068975,-9.864111,0.8784135,47.668976,-1.0373816,-2.5651584,-3.5472116,-0.1427384,0.13620868,-0.34696963,28.75,30.125,29.25,32.8125,35.375,36.5
0.28805184,-0.7667478,-0.93020415,-2.1217048,-0.021962103,0.07746983,-0.15459658,-0.408253,-0.3627159,0.060045302,3.0783193,-0.62042314,-0.00018937091,-0.13109082,0.045013685,-0.002919617,-0.005387272,-0.007500747,0.03298501,0.47716707,-1.3604877,1.8779815,-2.0877736,-1.5697464,2.4494083,-0.19472183,0.15529175,-0.18831886,0.0374123,0.008122757,-0.22762035,-0.095768064,0.21068975,-9.787497,0.8537928,47.67166,-1.0558125,-2.3632686,-3.5039577,-0.15044847,0.12928507,-0.19370583,28.75,30.125,29.25,32.8125,35.375,36.5
0.29005188,-0.13534813,-0.44517675,-1.7369183,-0.021764688,0.094518974,-0.14426602,-0.40852198,-0.3626253,0.060052656,3.0782886,-0.6203201,-0.00019671545,-0.13289826,0.04494858,-0.002535093,-0.006918047,-0.006830754,0.03460275,0.47675866,-1.3602113,1.877622,-2.0877254,-1.5697101,2.4489396,-0.19670747,0.15709445,-0.19139075,0.037395325,0.00917836,-0.23122266,-0.076614454,0.019153614,-9.500193,0.8403672,47.68599,-1.0237516,-2.4411767,-3.5704448,-0.16626212,0.13169616,-0.11832624,28.75,30.125,29.25,32.8125,35.375,36.5
0.29205173,-0.9315528,-0.97948426,-1.6467769,0.0040759286,0.05624298,-0.13339187,-0.4088079,-0.36254874,0.06006917,3.0782845,-0.6201499,-0.00024082063,-0.13346072,0.04502643,-0.0033279948,-0.006338904,-0.0071966522,0.027572185,0.47637445,-1.3598987,1.8771929,-2.0876539,-1.5696987,2.4484499,-0.1969825,0.1593858,-0.19218384,0.036488395,0.0088298945,-0.22446597,-0.17238252,-0.019153614,-9.423578,0.8717007,47.693153,-1.1212823,-2.485715,-3.6385145,-0.14370951,0.14477736,-0.15290168,28.75,30.125,29.25,32.8125,35.375,36.5
0.29405248,-1.3461131,-0.36198306,-1.1876806,0.00020329769,0.050256193,-0.1395007,-0.4090844,-0.36245665,0.060068868,3.0782127,-0.62019706,-0.0002089141,-0.13430329,0.043945756,-0.0018509154,-0.006840136,-0.0050237,0.019407988,0.47594294,-1.3595989,1.8768224,-2.0876052,-1.5696386,2.448057,-0.19542727,0.1595381,-0.1961343,0.038134255,0.00826814,-0.21474487,-0.38307226,-0.15322891,-9.193734,0.8672237,47.684196,-1.135559,-2.49802,-3.4123611,-0.16191676,0.12761047,-0.23956563,28.75,30.125,29.25,32.8125,35.375,36.5
0.2960524,-1.1560109,0.28788865,-1.1362863,0.011591589,0.0602094,-0.15398002,-0.40934926,-0.36236057,0.06004124,3.0782635,-0.6201347,-0.00016478835,-0.13473116,0.042885847,-0.00062661694,-0.00794513,-0.003951919,0.012280978,0.47555915,-1.3592393,1.8764366,-2.0875332,-1.5696505,2.447628,-0.19418785,0.15948538,-0.19929738,0.039881207,0.00873818,-0.2063781,-0.38307226,-0.22984336,-9.212888,0.82694155,47.67345,-1.3183873,-2.3241863,-3.2912743,-0.18869781,0.12609269,-0.36935294,28.75,30.125,29.25,32.8125,35.375,36.5
0.29805255,-0.7807119,0.99000597,-1.164998,0.030308098,0.064784884,-0.15904605,-0.40964767,-0.36229575,0.060092025,3.0781987,-0.6200858,-0.000337567,-0.13617398,0.04339861,-8.8128436e-05,-0.0082515245,-0.0030559965,0.0056266724,0.47519886,-1.3589753,1.8759931,-2.087485,-1.5696625,2.4472456,-0.19608836,0.16006024,-0.2013734,0.04044172,0.008619193,-0.20162243,-0.24899697,-0.17238252,-9.174581,0.9455522,47.675243,-1.5491536,-2.344738,-3.1758835,-0.19658029,0.1380113,-0.50495815,28.75,30.125,29.25,32.8125,35.375,36.5
0.3000519,-0.85996383,0.51366585,-1.3270648,0.035329197,0.062281527,-0.15962079,-0.4099045,-0.3621998,0.060084138,3.0781858,-0.6200613,-0.00022025393,-0.13684416,0.043277238,0.00088223704,-0.0086114835,-0.0015805864,0.00814254,0.47477877,-1.3586637,1.8756093,-2.087365,-1.5696024,2.446812,-0.19611615,0.1595001,-0.20314431,0.041316137,0.008256545,-0.20416598,-0.1340753,-0.11492168,-9.212888,0.8985519,47.67614,-1.4803202,-2.2029088,-3.19461,-0.21719334,0.14534052,-0.53512836,28.75,30.125,29.25,32.8125,35.375,36.5
0.30205175,-0.8400079,0.07944572,-1.2469304,0.010064518,0.061656613,-0.16422005,-0.410177,-0.36212525,0.060094375,3.0781868,-0.61995864,-0.00025786826,-0.13793412,0.04458973,0.00044162184,-0.0076442887,-0.002576771,0.018682627,0.47441787,-1.3583513,1.875194,-2.0872924,-1.5696024,2.446387,-0.19889502,0.16086578,-0.20402959,0.042183574,0.007873402,-0.2174842,-0.17238252,0.0,-9.212888,0.88960326,47.63404,-1.4243064,-2.3311381,-3.184672,-0.23537052,0.13176131,-0.45638385,28.75,30.125,29.25,32.8125,35.375,36.5
0.30405176,-0.65057826,-0.76309466,-1.6965122,-0.008223348,0.06546791,-0.15846877,-0.41047257,-0.36199242,0.06008225,3.0782437,-0.6199223,-0.0002525504,-0.13796791,0.044990305,-3.309252e-05,-0.006822083,-0.0044676834,0.032456364,0.4739619,-1.3580152,1.8747953,-2.087196,-1.5696386,2.4459014,-0.19954221,0.16220705,-0.20500231,0.043884136,0.008015647,-0.2319051,-0.19153613,0.076614454,-9.232041,0.8940802,47.67345,-1.3687828,-2.2202184,-3.247868,-0.2590266,0.1336043,-0.29865283,28.75,30.125,29.25,32.8125,35.375,36.5
0.30605167,-0.8246636,-1.3849055,-2.0847483,-0.038295582,0.064691864,-0.15587772,-0.4107064,-0.36191618,0.060087875,3.0782886,-0.619698,-0.0002242599,-0.13896796,0.045775443,0.00065618026,-0.0066182422,-0.0034543767,0.037867025,0.47362512,-1.3577397,1.8744267,-2.0870888,-1.5696272,2.445419,-0.20121594,0.16163021,-0.20611525,0.04478094,0.0073757134,-0.2389892,-0.15322891,0.15322891,-9.289503,0.8403672,47.678825,-1.2925975,-2.0411396,-3.3103504,-0.29418653,0.1745262,-0.1846695,28.75,30.125,29.25,32.8125,35.375,36.5
0.30805254,-1.8211968,-2.1094036,-2.0679944,-0.041446477,0.043119665,-0.1432073,-0.41101262,-0.36182147,0.060113758,3.078259,-0.61965835,-0.00020623274,-0.14076301,0.04681064,0.00085288705,-0.006277956,-0.0023463261,0.03140062,0.47318032,-1.3574157,1.8739456,-2.0869453,-1.5695914,2.4449534,-0.2038507,0.16265507,-0.20780621,0.044626415,0.006562771,-0.2351565,-0.24899697,0.2681506,-9.442732,0.95002913,47.681515,-1.2474937,-2.0780098,-3.2496507,-0.32764986,0.17833279,-0.17940724,28.75,30.125,29.25,32.8125,35.375,36.5
0.31005234,-1.2691307,-2.3627408,-2.0367465,-0.058283903,0.06740835,-0.14822425,-0.41129598,-0.36171332,0.060081422,3.0782957,-0.61961335,-0.000120704615,-0.1420979,0.04849771,0.00043737498,-0.0057216077,-0.003138905,0.020922767,0.47274727,-1.3570318,1.8735379,-2.0868614,-1.569579,2.4444878,-0.2075902,0.16360785,-0.20814817,0.044973202,0.006407636,-0.22841834,-0.22984336,0.3256114,-9.461885,0.8717007,47.684196,-1.2202469,-2.0516229,-3.2985306,-0.3458832,0.198606,-0.26806366,28.75,30.125,29.25,32.8125,35.375,36.5
0.3120524,-1.3787383,-1.6975629,-2.016695,-0.067844965,0.07175183,-0.15802847,-0.41155863,-0.36162478,0.06006909,3.078296,-0.6195203,-6.430124e-05,-0.14236195,0.04913954,-0.002221597,-0.004595332,-0.0077451784,0.014011496,0.4723506,-1.3567065,1.8731579,-2.0867894,-1.5695428,2.4440331,-0.20942277,0.16891345,-0.20847364,0.044608288,0.007489671,-0.22333938,-0.21068975,0.24899697,-9.481039,0.8493211,47.689575,-1.1109093,-2.0565252,-3.3305073,-0.3544684,0.18301255,-0.35106853,28.75,30.125,29.25,32.8125,35.375,36.5
0.3140522,-1.1513579,-1.3627884,-2.3024685,-0.05243688,0.08021479,-0.15482791,-0.41184255,-0.36153093,0.060070034,3.0782928,-0.6194434,-6.976467e-05,-0.1449149,0.048950765,-0.0009342889,-0.007856446,-0.0028459178,0.010483806,0.4719419,-1.3563831,1.8727502,-2.0867188,-1.5695308,2.443577,-0.2115646,0.16851631,-0.21009609,0.0407834,0.008154108,-0.22195312,-0.22984335,0.19153613,-9.519346,0.8806493,47.688675,-1.0835414,-2.1179845,-3.3466983,-0.35089302,0.17693773,-0.41032714,28.75,30.125,29.25,32.8125,35.375,36.5
0.31605217,-1.7189437,-1.7079995,-2.11342,-0.040946152,0.07555979,-0.14815675,-0.4121268,-0.36145005,0.060072638,3.078268,-0.6193389,-3.597618e-05,-0.14698361,0.050035186,-0.001371304,-0.008221297,-0.0021716892,0.01377388,0.47153276,-1.3560464,1.87232,-2.0866358,-1.5694827,2.443106,-0.21502377,0.17059088,-0.21128713,0.039156206,0.008176129,-0.2287016,-0.36391866,0.11492168,-9.615114,0.9410752,47.658226,-0.97296464,-2.135082,-3.5039816,-0.3338518,0.17683737,-0.39668417,28.75,30.125,29.25,32.8125,35.375,36.5
0.31805193,-1.5092617,-1.2797258,-2.0459445,-0.042105384,0.08670348,-0.15696631,-0.41241857,-0.36130974,0.060064062,3.0783336,-0.61934406,-2.8329037e-05,-0.14811783,0.05006049,-0.0020666716,-0.008628449,-0.002186318,0.025910428,0.47107673,-1.3557216,1.871921,-2.0865166,-1.5695308,2.442645,-0.2161168,0.17326991,-0.21265578,0.037681796,0.008542755,-0.24193086,-0.22984336,0.21068975,-9.519346,0.87617236,47.670765,-0.98175955,-2.303379,-3.4915144,-0.33291626,0.17984918,-0.28092483,28.75,30.125,29.25,32.8125,35.375,36.5
0.32005185,-1.9672354,-1.3413515,-1.9654095,-0.041899074,0.08867645,-0.14620648,-0.4127387,-0.36124104,0.060088325,3.0782816,-0.6191546,-7.948807e-05,-0.14780553,0.047970638,-0.0019920156,-0.00992613,-0.0014735841,0.037396632,0.47065756,-1.3553734,1.8714327,-2.0864565,-1.5694822,2.4421144,-0.21270892,0.17499132,-0.21477006,0.036873702,0.009398347,-0.25000796,-0.38307226,0.24899697,-9.500193,0.8605109,47.650166,-1.1233578,-2.324296,-3.4698915,-0.31784752,0.1746971,-0.14226705,28.75,30.125,29.25,32.8125,35.375,36.5
0.3220518,-2.4280958,-1.4804894,-2.0490634,-0.040597424,0.09003166,-0.13659543,-0.4130314,-0.36115634,0.06010489,3.0782716,-0.61895984,-0.000114254115,-0.1475893,0.047213502,-0.0026385465,-0.00939423,-0.0020493297,0.037541885,0.47025055,-1.355061,1.8710026,-2.0863855,-1.5694584,2.4415872,-0.21098255,0.17711383,-0.21584935,0.036593474,0.009193205,-0.24842574,-0.63206923,0.2681506,-9.557653,0.83813137,47.64658,-1.3349824,-2.3256254,-3.5167158,-0.31263867,0.18831989,-0.1275586,28.75,30.125,29.25,32.8125,35.375,36.5
0.32405257,-2.2284696,-1.9861224,-2.025961,-0.043033287,0.114847146,-0.14992726,-0.4133415,-0.3610635,0.060104642,3.0782516,-0.6189426,-0.00016020628,-0.14996885,0.046241567,-0.0009948628,-0.011465648,0.0028188399,0.028226772,0.46983013,-1.354701,1.8705581,-2.0863378,-1.5694588,2.4411588,-0.21100736,0.1776492,-0.21987136,0.034794934,0.008822515,-0.23913354,-0.5554548,0.30645782,-9.442732,0.9455522,47.67166,-1.414871,-2.439363,-3.4879913,-0.30580574,0.18368919,-0.19189584,28.75,30.125,29.25,32.8125,35.375,36.5
0.3260524,-2.4025884,-1.9053687,-1.7817847,-0.05880069,0.11025137,-0.14667629,-0.4136223,-0.36097053,0.06009208,3.0782232,-0.6189047,-7.6350894e-05,-0.15131278,0.045893952,-0.0011997365,-0.012838343,0.0041455673,0.017326059,0.4693976,-1.3543525,1.8701476,-2.0862553,-1.5693983,2.4407063,-0.21179008,0.17962089,-0.22131312,0.032463387,0.009424849,-0.22901514,-0.49799395,0.2681506,-9.404425,0.83813137,47.695843,-1.4085795,-2.4588594,-3.4771338,-0.27732635,0.18449974,-0.32881576,28.75,30.125,29.25,32.8125,35.375,36.5
0.3280524,-1.9822685,-1.6031249,-1.9438899,-0.04727576,0.085782275,-0.14116623,-0.4139266,-0.36088058,0.06009353,3.0782475,-0.6187774,-0.00013852364,-0.1525281,0.04634545,-0.0014103143,-0.012987903,0.004729099,0.008583828,0.46900186,-1.3539922,1.869696,-2.0861952,-1.5694221,2.4402282,-0.21334648,0.18104815,-0.22240569,0.03152998,0.009292447,-0.22182846,-0.4213795,0.22984336,-9.481039,0.8940802,47.674347,-1.3463831,-2.408547,-3.4117675,-0.24769159,0.17626849,-0.4428429,28.75,30.125,29.25,32.8125,35.375,36.5
0.33005226,-1.0806953,-0.98235554,-1.6495869,-0.048721537,0.07564623,-0.15104555,-0.41425398,-0.36078864,0.06010169,3.0782135,-0.61871165,-0.00023100052,-0.15458079,0.046911664,8.2973704e-05,-0.01335019,0.008393803,0.008623691,0.4685692,-1.3536332,1.8692387,-2.0861714,-1.5694226,2.439759,-0.21507074,0.1802343,-0.22482428,0.0313405,0.0079779085,-0.22359104,-0.4405331,0.17238252,-9.385271,0.93436235,47.693153,-1.4721868,-2.1972983,-3.4474418,-0.23733458,0.20106867,-0.5118147,28.75,30.125,29.25,32.8125,35.375,36.5
0.3320523,-0.96658957,-1.5070899,-1.8809873,-0.017005453,0.06222516,-0.13792278,-0.41455963,-0.36068603,0.06006226,3.0781844,-0.61873627,-0.00012489106,-0.1557242,0.047393892,-6.482637e-05,-0.013847746,0.008979048,0.020107795,0.4681006,-1.3532132,1.8688105,-2.0861242,-1.5693625,2.4393096,-0.2167971,0.18130693,-0.22563435,0.030366324,0.008167201,-0.23680158,-0.30645782,0.19153613,-9.346964,0.9097417,47.65912,-1.5003872,-2.2138708,-3.5236278,-0.20593211,0.19987181,-0.45209348,28.75,30.125,29.25,32.8125,35.375,36.5
0.33405223,-1.3347899,-0.8477908,-1.9658222,-0.004818926,0.04339575,-0.14880183,-0.41488916,-0.36060518,0.06011069,3.07815,-0.6186061,-0.00027265024,-0.15787913,0.047126886,0.0008029189,-0.015396778,0.011509789,0.033429734,0.46769235,-1.3529012,1.8683051,-2.0860407,-1.5693744,2.4388247,-0.21818237,0.18264084,-0.22906998,0.029530827,0.008450552,-0.2515067,-0.038307227,0.095768064,-9.32781,0.9455522,47.67614,-1.4422958,-2.190074,-3.414175,-0.1723081,0.20940977,-0.2934094,28.75,30.125,29.25,32.8125,35.375,36.5
0.33605206,-0.9369278,-0.3574359,-1.713971,-0.009559332,0.05199624,-0.14123526,-0.4152169,-0.36049587,0.06010126,3.078154,-0.6184692,-0.00028809096,-0.15929541,0.04729246,0.00015100244,-0.0154389655,0.010835527,0.038130485,0.4672238,-1.3525163,1.8678507,-2.0859926,-1.5693625,2.4382703,-0.2197014,0.1859771,-0.23165143,0.029373601,0.008807545,-0.2577251,-0.19153614,0.11492168,-9.3661175,0.8537928,47.687782,-1.3524362,-2.3380966,-3.3169417,-0.16104868,0.20875725,-0.20091034,28.75,30.125,29.25,32.8125,35.375,36.5
0.3380522,-1.4869721,-0.42969236,-1.666459,-0.013983138,0.05413966,-0.13749428,-0.41553462,-0.36041078,0.060088545,3.0781367,-0.61830044,-0.00029675628,-0.1611402,0.049038086,0.00021566432,-0.015440053,0.010472095,0.027485173,0.46679014,-1.3521204,1.8673958,-2.0859683,-1.5693268,2.4377337,-0.22411214,0.18673931,-0.23299162,0.030279392,0.008978837,-0.25148988,-0.4213795,0.076614454,-9.193734,0.8784135,47.678825,-1.200532,-2.1124225,-3.2390752,-0.12247862,0.22122516,-0.23383826,28.75,30.125,29.25,32.8125,35.375,36.5
0.340052,-1.09167,-0.25141376,-1.7466563,-0.008697023,0.083780035,-0.1391246,-0.41584948,-0.36029142,0.060093544,3.0781145,-0.61834115,-0.00026209684,-0.16234255,0.050782755,0.00071390776,-0.015638337,0.009327149,0.016132928,0.46630898,-1.3517729,1.866937,-2.0858476,-1.5693024,2.437281,-0.2282876,0.18618634,-0.23409766,0.0328696,0.009670042,-0.24431323,-0.49799395,0.11492168,-9.212888,0.842603,47.65912,-1.0250678,-2.1387053,-3.2963357,-0.11966486,0.21549681,-0.31874824,28.75,30.125,29.25,32.8125,35.375,36.5
0.3420518,-1.5727701,-0.4091204,-1.8250515,0.0019265175,0.08109796,-0.13505095,-0.41616586,-0.36019114,0.060104962,3.0781171,-0.6182862,-0.00033895904,-0.16356012,0.05171206,0.00043415633,-0.014716598,0.008087885,0.010620515,0.46588796,-1.3514243,1.8664736,-2.0857756,-1.5693263,2.4368255,-0.23054287,0.18827257,-0.23644851,0.034650233,0.009414663,-0.24105473,-0.34476504,0.019153614,-9.385271,0.87393653,47.645687,-0.932119,-2.2493682,-3.3912466,-0.113047436,0.20879573,-0.38733464,28.75,30.125,29.25,32.8125,35.375,36.5
0.34405178,-1.2463726,-0.4579893,-1.7437651,-0.020722862,0.08960799,-0.15565273,-0.41649225,-0.3600866,0.060096767,3.0780845,-0.6182573,-0.0002915368,-0.16360869,0.052141726,-6.117503e-05,-0.0140991295,0.006300214,0.013773692,0.46540797,-1.3510284,1.8659943,-2.0856912,-1.5692781,2.4363317,-0.23127493,0.1895241,-0.23723145,0.036077462,0.009678521,-0.24493979,-0.22984336,-0.038307227,-9.461885,0.8605109,47.66987,-1.0360336,-2.2345731,-3.3441384,-0.10844411,0.22016114,-0.39212483,28.75,30.125,29.25,32.8125,35.375,36.5
0.34605172,-1.8174886,-1.0262128,-1.4546407,-0.031897087,0.08383851,-0.13728845,-0.4168128,-0.3599731,0.060075752,3.078081,-0.6182297,-0.00027827147,-0.16350548,0.052002884,6.811212e-06,-0.014040945,0.0060303584,0.02626413,0.46494037,-1.3506327,1.8655523,-2.085643,-1.5692662,2.4358475,-0.2308294,0.18977131,-0.23792048,0.036811993,0.009769603,-0.25698468,-0.45968673,0.095768064,-9.270349,0.8985519,47.66271,-1.0923316,-2.180808,-3.4325895,-0.115148276,0.22422689,-0.30492064,28.75,30.125,29.25,32.8125,35.375,36.5
0.34805167,-1.6437273,-0.11279952,-1.8019918,-0.032387614,0.08668188,-0.14878608,-0.41712934,-0.35988778,0.060090806,3.0780692,-0.6180289,-0.0002879483,-0.16342129,0.051376026,-0.00014568416,-0.013376086,0.005788753,0.039525796,0.4645088,-1.350272,1.8650602,-2.0855472,-1.56923,2.4352922,-0.2292552,0.19125234,-0.23959702,0.037554774,0.009312342,-0.2686712,-0.40222588,0.15322891,-9.251195,0.8806493,47.698532,-1.293669,-2.2373877,-3.4632168,-0.09484234,0.23879063,-0.16190326,28.75,30.125,29.25,32.8125,35.375,36.5
0.35005164,-0.95716864,-0.5209946,-2.0596879,-0.009585719,0.08529989,-0.14589325,-0.41745982,-0.3597859,0.060072623,3.0780723,-0.61793333,-0.00028875525,-0.16363269,0.051652562,-0.0007802145,-0.012433673,0.004061764,0.03977912,0.46405295,-1.3498523,1.8645824,-2.0854986,-1.569218,2.4347765,-0.22967368,0.19326219,-0.24097031,0.038893353,0.009251222,-0.2693424,-0.22984336,0.05746084,-9.385271,0.83589023,47.71286,-1.2780831,-2.1915357,-3.5444136,-0.11432515,0.23786005,-0.10316192,28.75,30.125,29.25,32.8125,35.375,36.5
0.35205272,-1.1326306,-0.51728284,-1.7955757,-0.03448214,0.06318984,-0.14299104,-0.41778788,-0.3596824,0.060071968,3.0780802,-0.6177679,-0.00030784923,-0.16439652,0.05179288,-0.0009494926,-0.01259963,0.003633429,0.030526595,0.46359676,-1.3494682,1.8641027,-2.085427,-1.5692061,2.4342163,-0.2305697,0.19480637,-0.24261512,0.039296295,0.00958693,-0.26098505,-0.34476504,0.019153614,-9.346964,0.9298854,47.690468,-1.3369942,-2.2406573,-3.482884,-0.081936404,0.23109528,-0.17017797,28.75,30.125,29.25,32.8125,35.375,36.5
0.3540517,-1.2325658,-1.0181996,-1.6506102,-0.032410674,0.049211495,-0.12519747,-0.4181093,-0.35956085,0.060050182,3.078092,-0.6177768,-0.00025040828,-0.16428585,0.05158722,-0.0013212378,-0.012010655,0.0029499903,0.020085545,0.46311635,-1.34906,1.8636359,-2.0853307,-1.5691942,2.4337401,-0.22980265,0.19605643,-0.24346712,0.039764017,0.009342922,-0.24977697,-0.47884035,0.05746084,-9.232041,0.91421866,47.682407,-1.2711405,-2.2590108,-3.4848962,-0.078651056,0.24431917,-0.30518913,28.75,30.125,29.25,32.8125,35.375,36.5
0.35605177,-0.87181604,-0.6481014,-1.849628,-0.024296496,0.047944978,-0.13833155,-0.4184565,-0.35947073,0.060086634,3.0780308,-0.61775136,-0.0003212321,-0.16655846,0.051776823,-0.00031123185,-0.012546823,0.0056014135,0.009956866,0.46266034,-1.3487,1.8630928,-2.0852225,-1.5691708,2.4332762,-0.23140384,0.19714491,-0.24712585,0.039721593,0.008640664,-0.24124758,-0.28730422,0.15322891,-9.308656,0.9791215,47.681515,-1.3382179,-2.261933,-3.5396183,-0.053142957,0.25346506,-0.4436851,28.75,30.125,29.25,32.8125,35.375,36.5
0.35805178,-0.15050326,-0.46507636,-1.8230369,-0.032613315,0.06034338,-0.15775536,-0.41876602,-0.3593574,0.060049396,3.0780678,-0.6176413,-0.00025851713,-0.16715471,0.0526021,-0.0021387003,-0.011489923,0.0014362903,0.010205139,0.46220377,-1.3482788,1.8626531,-2.0851629,-1.569158,2.4327464,-0.23365615,0.20156033,-0.24873239,0.041120052,0.009550234,-0.24374752,-0.095768064,0.1340753,-9.32781,0.91198283,47.696735,-1.4458451,-2.4319339,-3.3860838,-0.04628885,0.25703537,-0.51297504,28.75,30.125,29.25,32.8125,35.375,36.5
0.36005184,-0.73856646,-1.1026425,-1.869011,-0.029980768,0.042275064,-0.13979015,-0.4191161,-0.35926795,0.060073268,3.0780156,-0.6175842,-0.00032322237,-0.16885129,0.05346324,-0.0018699268,-0.011119465,0.0018296506,0.02203383,0.46174693,-1.3478945,1.8621143,-2.0850785,-1.5691341,2.4322608,-0.23602937,0.20298922,-0.2513859,0.042192977,0.009081736,-0.25794795,-0.095768064,0.21068975,-9.308657,0.88960326,47.67614,-1.2755098,-2.4054701,-3.4535174,-0.04736436,0.2598525,-0.4007541,28.75,30.125,29.25,32.8125,35.375,36.5
0.36205167,-0.418441,-1.1578555,-1.8639218,-0.048487082,0.056481924,-0.15278874,-0.41947395,-0.3591529,0.060078334,3.077979,-0.6175153,-0.00036278527,-0.17102666,0.054534055,-0.0011341551,-0.011797171,0.0036025785,0.031926826,0.46124157,-1.347499,1.8616098,-2.0850189,-1.5691108,2.4317172,-0.23933354,0.20334142,-0.25353917,0.042138137,0.008931545,-0.27114415,-0.038307227,0.28730422,-9.32781,0.9567419,47.657326,-1.0786147,-2.4117014,-3.4592059,-0.04461377,0.26290402,-0.26797646,28.75,30.125,29.25,32.8125,35.375,36.5
0.36405256,-0.5872247,-1.3630967,-1.8470318,-0.06635741,0.07239966,-0.14078315,-0.41978896,-0.3590388,0.06006573,3.0779932,-0.61746025,-0.000294161,-0.17264794,0.054804847,-0.0006844687,-0.012119048,0.0040815333,0.03296766,0.46077332,-1.3471028,1.8611306,-2.0848987,-1.5690864,2.431213,-0.24099232,0.2049497,-0.25683916,0.043273002,0.009000297,-0.27384296,-0.22984336,0.28730422,-9.481039,0.9254084,47.65106,-1.0152079,-2.404799,-3.360973,-0.02718613,0.27582613,-0.17452249,28.75,30.125,29.25,32.8125,35.375,36.5
0.36605245,-1.1509176,-1.2476202,-1.7963514,-0.07260714,0.07064174,-0.14513133,-0.42015103,-0.35895056,0.060070846,3.0779932,-0.6172542,-0.0003451379,-0.17359707,0.05513538,0.00017539143,-0.012816715,0.004448195,0.02331472,0.4603169,-1.3466594,1.8605646,-2.0848258,-1.5690745,2.430628,-0.24240474,0.20473988,-0.259005,0.045002215,0.009466324,-0.26560152,-0.38307226,0.30645782,-9.385271,0.8537928,47.68599,-1.1643189,-2.3180158,-3.1919372,-0.03542568,0.27320874,-0.25518864,28.75,30.125,29.25,32.8125,35.375,36.5
0.36805233,-1.5921571,-1.4045786,-1.666411,-0.07795789,0.083431326,-0.14961112,-0.4204805,-0.3588218,0.060057454,3.0779831,-0.6172949,-0.00028621493,-0.17325859,0.055492885,-0.0014080382,-0.0111675365,0.0005876001,0.015868887,0.45981297,-1.3462628,1.8600892,-2.0847175,-1.5690502,2.430151,-0.24265727,0.20809981,-0.2599822,0.046809196,0.009689569,-0.25840783,-0.47884035,0.4213795,-9.346964,0.9254084,47.687782,-1.1453346,-2.2729332,-3.2689548,-0.048210368,0.2816349,-0.3712309,28.75,30.125,29.25,32.8125,35.375,36.5
0.37005228,-1.5745109,-1.298494,-1.706035,-0.06907719,0.09900685,-0.14013539,-0.4208404,-0.3587193,0.060084645,3.0779183,-0.6172832,-0.0003269128,-0.17354049,0.055865612,-0.000980464,-0.012226547,0.00013590015,0.013235693,0.4593207,-1.3458796,1.859538,-2.0846097,-1.569014,2.4296598,-0.24400315,0.20746575,-0.2604973,0.047901575,0.010856602,-0.25711992,-0.47884035,0.2681506,-9.308657,0.88289046,47.690468,-1.1116664,-2.1955593,-3.4447753,-0.07709606,0.27657574,-0.4286649,28.75,30.125,29.25,32.8125,35.375,36.5
0.3720522,-1.836001,-0.9424292,-1.7611313,-0.06494004,0.10208865,-0.15118559,-0.4211806,-0.35858494,0.06003949,3.0780075,-0.6171604,-0.00025906897,-0.17313068,0.056220092,-0.0006629606,-0.012603211,-0.00069209415,0.022329332,0.45882836,-1.3454002,1.8590363,-2.0845134,-1.5690378,2.4290798,-0.24448001,0.20627235,-0.26019475,0.049381454,0.011563681,-0.2666917,-0.28730422,0.19153614,-9.500193,0.8717007,47.690468,-1.086367,-2.1516862,-3.5316591,-0.07165845,0.2751726,-0.40758812,28.75,30.125,29.25,32.8125,35.375,36.5
0.37405205,-1.1438643,-0.5581751,-1.5638033,-0.05564142,0.110424265,-0.14958,-0.42151958,-0.35848483,0.06002035,3.0779788,-0.6170503,-0.00017371851,-0.17304206,0.05677318,-0.0009844173,-0.011917563,-0.0026888186,0.03442047,0.4583364,-1.3449563,1.8585213,-2.084429,-1.5689653,2.4285228,-0.24529803,0.20705514,-0.26098981,0.051535353,0.011854164,-0.27960095,-0.30645782,0.15322891,-9.423578,0.96569055,47.647476,-1.2274446,-2.170675,-3.5866272,-0.09047818,0.2753464,-0.25310177,28.75,30.125,29.25,32.8125,35.375,36.5
0.37605196,-1.7985401,-0.77012694,-1.5547465,-0.024695767,0.0844014,-0.12718539,-0.42188135,-0.35836652,0.06002095,3.0779607,-0.6170069,-0.00019619221,-0.17392075,0.056476947,-0.0011121167,-0.011726513,-0.0029825587,0.041369647,0.4578322,-1.344536,1.8579901,-2.0843446,-1.5689534,2.427994,-0.24530119,0.20949906,-0.26395088,0.0524228,0.011827849,-0.28655186,-0.51714754,-0.019153614,-9.289503,0.8940802,47.66808,-1.2357618,-2.257115,-3.6420074,-0.10850798,0.25989977,-0.13046163,28.75,30.125,29.25,32.8125,35.375,36.5
