Tylouw/Master_Thesis_Code/training_data/batch_1/rect_rod_t0.2/sample_7_session_1.csv
timestamp[s],tcp_force_x[N],tcp_force_y[N],tcp_force_z[N],tcp_force_rx[Nm?],tcp_force_ry[Nm?],tcp_force_rz[Nm?],tcp_pose_x[m],tcp_pose_y[m],tcp_pose_z[m],tcp_pose_rx[rot_vec_x],tcp_pose_ry[rot_vec_y],tcp_pose_rz[rot_vec_z],tcp_velo_x[m/s],tcp_velo_y[m/s],tcp_velo_z[m/s],tcp_velo_rx[rot_vec_x/s],tcp_velo_ry[rot_vec_y/s],tcp_velo_rz[rot_vec_z/s],q1[rad],q2[rad],q3[rad],q4[rad],q5[rad],q6[rad],qd1[rad/s],qd2[rad/s],qd3[rad/s],qd4[rad/s],qd5[rad/s],qd6[rad/s],tool_acc_x,tool_acc_y,tool_acc_z,current_of_whole_robot[A],voltage_of_whole_robot[V],current_J1[A],current_J2[A],current_J3[A],current_J4[A],current_J5[A],current_J6[A],temp_J1[C],temp_J2[C],temp_J3[C],temp_J4[C],temp_J5[C],temp_J6[C]
6.730006e-07,-0.36458102,-0.76401645,-0.2833716,-0.017072996,0.0154230185,0.00085545925,-0.38933858,-0.36872274,0.060015827,-3.0787067,0.6249478,0.00023451584,0.00047853743,0.00026179248,-0.0004396867,0.00036415466,-0.0009319704,7.22502e-05,0.5050448,-1.3816559,1.904199,-2.0919158,-1.5708655,2.4800491,-7.662406e-05,-8.147235e-05,0.001103472,-3.0704803e-05,0.00013458096,-0.00014952727,0.13407528,0.076614454,-8.580819,0.7284641,47.707485,-0.22583622,-3.0755913,-2.3968606,-0.19525608,0.10954686,-0.004158767,28.75,30.0625,29.3125,32.75,35.3125,36.4375
0.002053027,-0.73684967,-0.4503027,-0.20603628,-0.025022227,0.012325368,0.011118375,-0.38933137,-0.36872143,0.06000973,-3.078718,0.62489253,0.00026323393,-0.0010076379,-0.0005638649,-0.00054063677,-0.0027660993,0.0047043306,7.142829e-05,0.50505686,-1.3816679,1.9042357,-2.0919545,-1.5708774,2.4800253,-7.534123e-05,-1.0930557e-06,0.0031927351,-0.008647544,0.00013130844,-0.00014734273,0.0,0.1340753,-8.619126,0.7083204,47.698532,-0.26718223,-2.9955637,-2.3376598,-0.16230896,0.11621764,-0.015680438,28.75,30.0625,29.3125,32.75,35.3125,36.4375
0.004052581,-0.9073493,-0.8625243,-0.35263783,-0.01878036,0.009845048,0.008272448,-0.38932547,-0.3687216,0.059991635,-3.0787194,0.6249504,0.00017165032,-0.0015747955,-0.00088023854,-0.002131646,-0.0022929602,0.0038410928,7.0472284e-05,0.5050329,-1.3816425,1.9042472,-2.0919554,-1.5708297,2.4800372,-7.410058e-05,0.0039447146,0.0027147268,-0.011130937,0.00012819104,-0.00014405911,0.019153614,0.19153613,-8.676587,0.7620334,47.661808,-0.22344187,-3.4006858,-2.585169,-0.054408737,0.08873105,-0.010349382,28.75,30.0625,29.3125,32.75,35.3125,36.4375
0.006051979,-0.6309517,-0.62483644,-0.3813512,-0.007923481,0.0038263476,0.0061478545,-0.3893297,-0.36873567,0.059993096,-3.0787466,0.6249369,0.00018564555,-0.00056437583,-0.00031763155,-0.0014921934,-0.000800881,0.0011707532,6.800472e-05,0.5050448,-1.381631,1.9042352,-2.0919774,-1.5708174,2.4800372,-7.290017e-05,0.0024171397,0.0018214395,-0.0056511583,0.00012521853,-0.00014084377,-0.038307227,0.19153613,-8.599973,0.75755644,47.660015,-0.25088072,-3.3852205,-2.492639,-0.04689398,0.10990174,-0.02007657,28.75,30.0625,29.3125,32.75,35.3125,36.4375
0.008052228,0.22379349,0.355893,-0.658138,0.017565796,-0.0016271028,-0.0052753384,-0.38937077,-0.3687148,0.060004205,-3.078713,0.6249876,0.00028887868,0.000382902,0.00021013901,-0.0004582449,0.0003247812,-0.0008370021,6.5508015e-05,0.5050088,-1.3816198,1.904199,-2.0919874,-1.5708774,2.4800372,-7.173808e-05,0.0001186866,0.0009409501,-0.0001704557,0.00012238062,-0.00013776409,-0.05746084,0.21068975,-8.848969,0.78217715,47.723602,-0.2176362,-3.1863146,-2.476987,-0.1145574,0.10621148,-0.017308159,28.75,30.0625,29.3125,32.75,35.3125,36.4375
0.010052417,0.25365418,0.5825118,-1.2453922,0.021259928,-0.00359159,-0.0061365156,-0.38932145,-0.3687078,0.05998627,-3.078674,0.62496054,0.00012270121,0.0011097193,0.00062007754,-0.00056476233,0.0016374603,-0.0031921605,6.363412e-05,0.50502086,-1.3816319,1.9042348,-2.0919025,-1.5708417,2.4800372,-7.990928e-05,1.5923321e-06,0.0006082336,0.0029756338,0.00011966833,-0.0001442874,-0.038307227,0.24899697,-8.983045,0.6926589,47.694946,-0.80283844,-2.7924383,-2.897461,-0.13141018,0.08040105,-0.087959975,28.75,30.0625,29.3125,32.75,35.3125,36.4375
0.012052825,-0.56132346,-0.11342255,-1.3352877,-0.010452357,0.004324796,-0.0074394164,-0.38932726,-0.36870384,0.059974898,-3.078674,0.6249218,0.00010844472,0.0006508611,0.00042548552,-0.0007118219,0.0016785836,-0.0032666405,7.6671444e-05,0.50500876,-1.3816075,1.9042348,-2.091915,-1.5708417,2.480001,-0.00018109335,0.0012736727,-0.0005542633,0.0029511205,0.00011707385,-0.00025782496,0.11492168,0.19153613,-9.193734,0.7553206,47.696735,-0.9619596,-2.6152549,-3.038084,-0.1294356,0.10412085,-0.14343101,28.75,30.0625,29.3125,32.75,35.3125,36.4375
0.014051931,-0.8940863,-1.1422321,-1.4263985,-0.047417443,0.032382075,-0.010207897,-0.38933405,-0.36871964,0.05996802,-3.0786684,0.6249005,9.002808e-05,-0.004306862,0.004229238,-0.0052047977,0.0052326405,-0.009712461,0.0012161246,0.5050289,-1.381555,1.9041857,-2.091903,-1.5708417,2.4800086,-0.011225371,0.013286377,-0.004321423,0.00206448,0.000114589435,-0.012438006,0.076614454,0.076614454,-9.270349,0.7530795,47.66987,-0.5231388,-3.1878276,-2.9874368,-0.109277934,0.09716958,-0.080842175,28.75,30.0625,29.3125,32.75,35.3125,36.4375
0.01605197,-1.6149349,-1.2758209,-1.3638669,-0.07002995,0.044756785,-0.017307093,-0.38932866,-0.3687021,0.0599418,-3.0786436,0.6248735,3.524763e-05,-0.0055390084,0.0042520673,-0.004025543,0.0039205514,-0.007344551,0.0063441074,0.50500447,-1.3815316,1.9042205,-2.0919154,-1.5708417,2.4799705,-0.012414691,0.012219835,-0.0056803916,0.001781937,0.00011220819,-0.018754894,-0.11492168,0.13407528,-9.346964,0.7396539,47.67614,-0.48492634,-3.1926246,-3.063589,-0.11527425,0.109830454,-0.03317154,28.75,30.0625,29.3125,32.75,35.3125,36.4375
0.018052688,-1.8272874,-0.9537649,-1.4739931,-0.07194448,0.06661033,-0.041750435,-0.38933998,-0.3686873,0.05994466,-3.0786395,0.62485135,1.9995667e-05,-0.0048285644,0.0041250256,-0.0034350378,0.0038964548,-0.0072903004,0.010988192,0.50496894,-1.3815322,1.904209,-2.0918906,-1.5708417,2.4799216,-0.011533688,0.01049843,-0.0052753184,0.0030385961,0.000109924185,-0.022518545,-0.40222588,0.15322891,-9.576807,0.66132545,47.65912,-0.7269007,-2.9426162,-3.2301989,-0.10211409,0.08531146,-0.008309256,28.75,30.0625,29.3125,32.75,35.3125,36.4375
0.020051807,-1.8454286,-0.43165016,-1.644229,-0.031214012,0.07912856,-0.07769191,-0.38931945,-0.36867395,0.059928637,-3.0785944,0.6247467,-4.189462e-05,-0.004870152,0.004620368,-0.0033455465,0.004784688,-0.008887624,0.009656989,0.50498056,-1.38152,1.90422,-2.0918415,-1.5708655,2.4798737,-0.01240566,0.010749168,-0.006383413,0.0057231733,0.000107730986,-0.02205911,-0.38307226,0.19153613,-9.557653,0.7329411,47.691364,-0.86412024,-2.8191953,-3.3967009,-0.12291758,0.08428417,-0.016470063,28.75,30.0625,29.3125,32.75,35.3125,36.4375
0.022051712,-1.9471985,0.38398966,-2.0334594,-0.0063513294,0.072937384,-0.09125403,-0.38931993,-0.36867538,0.05988856,-3.0785437,0.6248172,-0.0001654923,-0.007658096,0.004734799,-0.0019631388,0.0034455773,-0.0065115774,0.004018373,0.5049676,-1.3814237,1.9041947,-2.0918295,-1.5708417,2.479911,-0.015215635,0.011790958,-0.010939118,0.0065106484,0.00012091992,-0.019228555,-0.4213795,0.15322891,-9.615114,0.68818194,47.694946,-0.9092866,-2.7427568,-3.3752847,-0.1465078,0.09009748,-0.051265046,28.75,30.0625,29.3125,32.75,35.3125,36.4375
0.024051983,-2.1855857,-0.012267346,-1.8100322,-0.0121613415,0.073118486,-0.10334091,-0.38931724,-0.3686684,0.05988772,-3.0785608,0.6247834,-0.00020596635,-0.008710429,0.005065928,-0.0030549385,0.0039375364,-0.007411079,0.00089049916,0.5049432,-1.3814344,1.9042066,-2.0918176,-1.5708174,2.4798634,-0.016759247,0.014933501,-0.011906619,0.0053615,0.00012071307,-0.017643277,-0.5746084,0.076614454,-9.615114,0.8112748,47.65912,-0.8974392,-2.816366,-3.3071256,-0.1266445,0.089779176,-0.09117347,28.75,30.0625,29.3125,32.75,35.3125,36.4375
0.026051985,-2.1940231,-0.6691369,-2.1544359,-0.02433183,0.08236291,-0.10754995,-0.38936132,-0.36865252,0.05987859,-3.0785444,0.62481844,-0.00019326968,-0.00972711,0.00510032,-0.0030855325,0.0034605903,-0.0065540345,-0.00054200564,0.50488293,-1.381374,1.904159,-2.0918305,-1.5708297,2.4798272,-0.017766105,0.015999448,-0.012846367,0.004254341,0.00011857855,-0.017216956,-0.80445176,0.05746084,-9.768343,0.7620334,47.675243,-0.8790618,-2.770427,-3.3484168,-0.11589293,0.09163247,-0.10039775,28.75,30.0625,29.3125,32.75,35.3125,36.4375
0.028051946,-2.1945922,-0.430067,-1.9164653,-0.05237435,0.10339564,-0.14060232,-0.3893821,-0.3686445,0.059873592,-3.0785325,0.62489367,-0.0002458842,-0.01082367,0.0048610666,-0.002823235,0.0031561044,-0.0060090427,-0.0016556958,0.5048348,-1.3813375,1.9041218,-2.0918067,-1.5708054,2.4798274,-0.018388012,0.017454587,-0.0152328415,0.0045618843,0.00011639674,-0.016723998,-0.9002198,-0.038307227,-9.883265,0.7083204,47.704796,-0.91136813,-2.8588412,-3.3354988,-0.082447216,0.0737035,-0.11268623,28.75,30.0625,29.3125,32.75,35.3125,36.4375
0.030052008,-3.2610712,-1.1433816,-2.0593297,-0.03887931,0.09062209,-0.12711827,-0.38938394,-0.3686436,0.059876062,-3.0785022,0.6248297,-0.00026545377,-0.010810076,0.0051223855,-0.0030179175,0.0039414885,-0.0074221822,-0.0026472704,0.5048467,-1.3813132,1.9040736,-2.0917456,-1.5708297,2.4798033,-0.018814402,0.01820595,-0.016061693,0.0062557682,0.00011428572,-0.016158534,-0.80445176,-0.095768064,-9.864111,0.7530795,47.683304,-0.92641246,-2.8482146,-3.3172717,-0.10692063,0.071730755,-0.12854038,28.75,30.0625,29.3125,32.75,35.3125,36.4375
0.032052703,-2.9504058,-1.0675428,-2.1371965,-0.022612745,0.09902937,-0.1382488,-0.38941512,-0.36860827,0.059855208,-3.0784655,0.6248999,-0.00033599927,-0.01135072,0.005671174,-0.0026418734,0.0041109226,-0.007724933,-0.0039785393,0.5047503,-1.3812654,1.9040617,-2.0917332,-1.5708174,2.4797554,-0.020241005,0.017975364,-0.01698594,0.0077577448,0.00011224954,-0.01625369,-0.842759,-0.076614454,-9.902418,0.8023209,47.696735,-0.9937821,-2.7938552,-3.3616414,-0.11159174,0.08676066,-0.15306084,28.75,30.0625,29.3125,32.75,35.3125,36.4375
0.03405235,-2.3682775,-0.4483255,-2.0513067,-0.0019762598,0.10174357,-0.15524308,-0.38940898,-0.36860463,0.059835315,-3.0784464,0.62483865,-0.0003927869,-0.012388213,0.005800302,-0.0026440823,0.0039166617,-0.0073788017,-0.0046880683,0.5047499,-1.3812288,1.9040612,-2.0917218,-1.5708174,2.4797192,-0.021428443,0.019229714,-0.018412605,0.007533095,0.00011028457,-0.016730795,-0.78529817,0.0,-9.940725,0.7978386,47.677036,-0.9869716,-2.773936,-3.4072926,-0.13049284,0.07590498,-0.17300972,28.75,30.0625,29.3125,32.75,35.3125,36.4375
0.03605192,-2.1686647,-0.31777936,-2.192361,0.009290397,0.081965305,-0.1618974,-0.38949552,-0.36860612,0.05984865,-3.0784724,0.6248819,-0.0002144254,-0.013798228,0.00594639,-0.0020411708,0.0027589786,-0.005316156,-0.0044871285,0.5047015,-1.3811569,1.9039649,-2.0918057,-1.5708655,2.4796946,-0.022996062,0.01917379,-0.019426975,0.0062369816,0.00012184489,-0.018498821,-0.63206923,-0.038307227,-9.768343,0.7777002,47.687782,-1.0403935,-2.7307267,-3.3781095,-0.09672296,0.07595127,-0.17666206,28.75,30.0625,29.3125,32.75,35.3125,36.4375
0.038052093,-2.2076685,-0.38423967,-2.0845537,0.01093055,0.060361974,-0.1748115,-0.38949504,-0.3685859,0.059838597,-3.0784297,0.62491196,-0.00033793948,-0.015719723,0.00601665,-0.001250325,0.0015151027,-0.003083228,-0.0047492515,0.50465304,-1.3811326,1.9039401,-2.0917222,-1.5708417,2.4796703,-0.024910865,0.019719576,-0.021679783,0.0053882045,0.00012164362,-0.020150416,-0.47884035,-0.095768064,-9.710882,0.78217715,47.711964,-0.95004535,-2.7426705,-3.322506,-0.0962549,0.06750379,-0.18494505,28.75,30.0625,29.3125,32.75,35.3125,36.4375
0.040052414,-1.5739906,-0.5746134,-1.9543427,0.005977475,0.062239744,-0.194553,-0.38956538,-0.36859536,0.059868343,-3.0784986,0.6249837,-0.0002752965,-0.01686065,0.0062668314,-0.0012551175,0.0014181691,-0.0028930723,-0.0055180215,0.50458056,-1.381096,1.9038318,-2.0917342,-1.5708054,2.4796338,-0.026389174,0.021069326,-0.023271527,0.0054175793,0.00011237106,-0.020859066,-0.4213795,-0.038307227,-9.691729,0.73741806,47.696735,-0.9176539,-2.7634363,-3.329929,-0.07725174,0.0789545,-0.19105619,28.75,30.0625,29.3125,32.75,35.3125,36.4375
0.04205253,-1.1449702,-0.41449225,-1.9193358,-0.014794432,0.057087347,-0.20158078,-0.3895852,-0.36856878,0.059854224,-3.078446,0.6249533,-0.00032295048,-0.017398989,0.006494106,-0.001215031,0.0017260619,-0.0034370515,-0.0050151083,0.50453246,-1.3810477,1.9037961,-2.091686,-1.5708297,2.4795735,-0.027268933,0.021905495,-0.024606308,0.0065405713,0.000103563,-0.022241171,-0.30645782,0.0,-9.710882,0.7665104,47.657326,-0.95083666,-2.7349648,-3.3417687,-0.06496408,0.081567906,-0.20229983,28.75,30.0625,29.3125,32.75,35.3125,36.4375
0.04405212,-1.5873123,-0.91851115,-2.032191,-0.011584674,0.04417793,-0.18477808,-0.38961658,-0.36855757,0.059842575,-3.0784314,0.6250268,-0.00032275368,-0.018476475,0.00642399,-0.00034969376,0.0009530336,-0.002040662,-0.004288723,0.50448424,-1.3809999,1.9037713,-2.0917094,-1.5708297,2.479573,-0.028154628,0.021762636,-0.026510043,0.0069908826,0.00010144083,-0.023852542,-0.24899697,0.05746084,-9.749189,0.76874626,47.683304,-0.9895219,-2.6936605,-3.3245473,-0.06516141,0.07912431,-0.21820483,28.75,30.0625,29.3125,32.75,35.3125,36.4375
0.046052106,-0.3936838,-0.9408474,-2.0009062,-0.010380104,0.062750906,-0.18340108,-0.3896637,-0.3685292,0.059854943,-3.0784268,0.6250441,-0.00029590432,-0.019695316,0.0066438387,4.3672903e-06,0.0005019045,-0.0012283629,-0.0040517515,0.5043999,-1.3809874,1.9037231,-2.091686,-1.5708417,2.4795,-0.029659843,0.022426426,-0.028099786,0.0069871503,9.980419e-05,-0.02559397,-0.095768064,0.038307227,-9.672575,0.7933669,47.666286,-0.9995209,-2.7303705,-3.2780282,-0.067561,0.086464584,-0.22337155,28.75,30.0625,29.3125,32.75,35.3125,36.4375
0.04805207,-0.9798374,-0.8124007,-2.0562956,-0.015616743,0.035419352,-0.17638971,-0.38972124,-0.36850908,0.059864372,-3.0784125,0.6250599,-0.0002584243,-0.020960351,0.007450108,-8.951442e-05,0.000633282,-0.0014683051,-0.0039769798,0.5043271,-1.3809389,1.9036387,-2.0916612,-1.5708655,2.479439,-0.032194316,0.023517173,-0.02925199,0.0073211263,9.824569e-05,-0.028202605,-0.095768064,0.15322891,-9.595961,0.779936,47.704796,-0.8703326,-2.651583,-3.3011599,-0.07169574,0.07879145,-0.23650545,28.75,30.0625,29.3125,32.75,35.3125,36.4375
0.050052553,-1.1215627,-1.5356131,-2.1106603,-0.0050273044,0.020780332,-0.1642255,-0.389752,-0.36849922,0.05984587,-3.0784225,0.6250615,-0.0002976403,-0.021184377,0.00814,-0.0007973353,0.0016307967,-0.0032720123,-0.0031100146,0.50426686,-1.3808784,1.9036149,-2.0916855,-1.5708417,2.4793785,-0.033561848,0.024893189,-0.02947476,0.0082294075,9.6737014e-05,-0.030436888,-0.019153614,0.22984336,-9.557653,0.72622824,47.670765,-0.9117589,-2.6852307,-3.350576,-0.06705681,0.077320546,-0.22460008,28.75,30.0625,29.3125,32.75,35.3125,36.4375
0.05205238,-0.3968544,-1.374171,-1.8014456,-0.0138356,0.028304959,-0.16878028,-0.38980928,-0.36849225,0.059860505,-3.0784276,0.62515914,-0.0002821292,-0.022506244,0.008708267,-0.00064919895,0.0014233242,-0.0028988223,-0.003819028,0.50419414,-1.3808302,1.903519,-2.0916612,-1.5708297,2.479366,-0.035747685,0.025736459,-0.030828854,0.008313433,9.5274125e-05,-0.03191303,-0.076614454,0.22984336,-9.557653,0.7038487,47.657326,-0.86337143,-2.6664395,-3.378503,-0.0761278,0.08600312,-0.24573384,28.75,30.0625,29.3125,32.75,35.3125,36.4375
0.054052163,-0.5099553,-1.1930244,-1.8438873,-0.0183956,0.019484693,-0.16486003,-0.3898359,-0.36845675,0.059854038,-3.0783973,0.6251536,-0.00033903317,-0.024411531,0.008854356,0.0004568484,0.00038554842,-0.001029911,-0.0047364244,0.50410956,-1.380806,1.9034942,-2.091613,-1.5708297,2.479282,-0.037769772,0.025994224,-0.03377641,0.008865383,9.3854724e-05,-0.03301654,0.0,0.2681506,-9.481039,0.7777002,47.683304,-0.7395333,-2.7011163,-3.3048813,-0.06625052,0.07932757,-0.2473424,28.75,30.0625,29.3125,32.75,35.3125,36.4375
0.056009103,0.20116632,-1.2926533,-1.8483202,-0.020061608,0.037679564,-0.1711826,-0.38991657,-0.36846167,0.05989342,-3.0784388,0.62521774,-0.00021207871,-0.02474957,0.008329077,0.0010308918,-0.0001345995,-8.331506e-05,-0.0027890387,0.50404996,-1.3807701,1.9033622,-2.091613,-1.5708417,2.479257,-0.03719408,0.02601422,-0.03517441,0.009162727,9.247715e-05,-0.03438768,-0.019153614,0.3256114,-9.481039,0.78217715,47.68062,-0.8127595,-2.5198746,-3.225379,-0.05734279,0.07815836,-0.25955963,28.75,30.0625,29.3125,32.75,35.3125,36.4375
0.05805315,-0.44932184,-1.1053724,-1.7109035,-0.026556497,0.035581794,-0.16222253,-0.38996413,-0.36843553,0.059870545,-3.078432,0.6251767,-0.00026832224,-0.02486865,0.008551729,0.0006300824,0.00036334182,-0.0009865969,-0.0018991682,0.50395405,-1.3806857,1.9033145,-2.091613,-1.5708297,2.4791365,-0.03767526,0.026962662,-0.03547205,0.009543613,9.113932e-05,-0.035758507,0.038307227,0.2681506,-9.3661175,0.8157518,47.71017,-0.93773556,-2.572589,-3.2874804,-0.06387817,0.08517151,-0.25111726,28.75,30.0625,29.3125,32.75,35.3125,36.4375
0.060052272,-0.4014111,-1.0221398,-1.6908929,-0.035676535,0.04909562,-0.16994874,-0.39001337,-0.3684222,0.059884083,-3.078453,0.6251433,-0.00021413382,-0.026307072,0.009364109,0.00072100654,0.0002463679,-0.0007750593,-0.003068386,0.50389314,-1.3806614,1.9032549,-2.091613,-1.5708417,2.479052,-0.040380035,0.027800322,-0.03670428,0.009695824,8.983962e-05,-0.037293438,0.038307227,0.24899697,-9.423578,0.800085,47.691364,-0.87118864,-2.5677052,-3.347236,-0.06272577,0.08162488,-0.29069522,28.75,30.0625,29.3125,32.75,35.3125,36.4375
0.062052228,-0.8190867,-1.5552325,-1.6582284,-0.021425398,0.044456303,-0.15584166,-0.39006126,-0.36840424,0.059862666,-3.0784013,0.6251518,-0.00024716076,-0.02737886,0.009422438,0.0012288195,-0.0001355639,-9.0135254e-05,-0.0030604638,0.503833,-1.380553,1.90317,-2.0915887,-1.5708655,2.479004,-0.041473765,0.028366158,-0.038671512,0.010311956,8.8576446e-05,-0.038394272,0.0,0.22984336,-9.500193,0.7284641,47.684196,-0.82566404,-2.55271,-3.2630358,-0.072547615,0.07809158,-0.29470718,28.75,30.0625,29.3125,32.75,35.3125,36.4375
0.064051785,-0.9070681,-0.90318936,-1.5985396,-0.036942918,0.048067834,-0.15828677,-0.3901073,-0.36837867,0.059863668,-3.078402,0.6251708,-0.00032610403,-0.028095713,0.009844673,0.0012989973,1.9678391e-05,-0.00037388402,-0.00354818,0.5037247,-1.3805047,1.903097,-2.0915287,-1.5708297,2.4789073,-0.042847496,0.028986322,-0.039741073,0.011086068,8.7348395e-05,-0.039279837,-0.076614454,0.17238252,-9.385271,0.7665104,47.666286,-0.8187089,-2.4752584,-3.2891161,-0.070112854,0.08205153,-0.31734163,28.75,30.0625,29.3125,32.75,35.3125,36.4375
0.06605263,-1.1099192,-1.132422,-1.5798994,-0.01956188,0.05189465,-0.15843393,-0.3901656,-0.3683594,0.059895955,-3.0784297,0.62517434,-0.00021699879,-0.028850334,0.009619332,0.0015319939,-0.00018904448,4.4042436e-06,-0.00052050594,0.50365275,-1.3805165,1.9030374,-2.0915282,-1.5708536,2.4788342,-0.043166768,0.03001983,-0.04157599,0.011453982,8.6153865e-05,-0.0426259,-0.15322891,0.22984336,-9.308656,0.76874626,47.666286,-0.817254,-2.4927163,-3.2833068,-0.08335492,0.077618495,-0.316823,28.75,30.0625,29.3125,32.75,35.3125,36.4375
0.06805258,-1.2107602,-0.85580766,-1.5987812,-0.007037195,0.054411825,-0.16263494,-0.39024618,-0.3683531,0.05988131,-3.0784495,0.62521684,-0.00025425418,-0.029857619,0.010135481,0.0014765484,-0.00015521779,-5.9357164e-05,-0.0010368902,0.50354433,-1.3803841,1.9029168,-2.09154,-1.5708174,2.4787498,-0.04496555,0.03097824,-0.042623915,0.01161709,8.4991596e-05,-0.043907743,-0.15322891,0.15322891,-9.3661175,0.7172743,47.682407,-0.82767737,-2.450232,-3.2632365,-0.061282888,0.08123139,-0.32295012,28.75,30.0625,29.3125,32.75,35.3125,36.4375
0.07005247,-1.3972396,-0.4736767,-1.4158881,-0.0047154417,0.057086878,-0.16433375,-0.39029145,-0.36834243,0.059906542,-3.0784829,0.6251271,-0.00022705035,-0.030716663,0.010461183,0.0012963597,-0.00013280437,-0.00010045035,-0.0027364006,0.50348413,-1.3803716,1.9028338,-2.0914924,-1.5708174,2.4786294,-0.04630963,0.03212722,-0.043527566,0.011418626,8.386033e-05,-0.04355174,-0.2681506,0.13407528,-9.385271,0.8157518,47.68062,-0.84614384,-2.4587998,-3.278853,-0.067469686,0.07547474,-0.34186238,28.75,30.0625,29.3125,32.75,35.3125,36.4375
0.07205236,-1.2983218,-0.77477187,-1.2775457,0.0007279291,0.06694114,-0.16449654,-0.39035314,-0.36830074,0.059899554,-3.078448,0.6251761,-0.00024242696,-0.03146288,0.010327344,0.0012958221,-0.00013840804,-9.855646e-05,6.239325e-05,0.5033642,-1.3803111,1.9027728,-2.0914686,-1.5708297,2.4785445,-0.046773605,0.03354539,-0.045279715,0.011747294,8.275865e-05,-0.046813607,-0.22984336,0.038307227,-9.251195,0.78217715,47.685097,-0.95553017,-2.4828327,-3.2869473,-0.08581528,0.09311411,-0.35174173,28.75,30.0625,29.3125,32.75,35.3125,36.4375
0.07405253,-1.5346022,-0.5162425,-1.5500532,0.00016809648,0.06806273,-0.1578925,-0.3904096,-0.36827978,0.059884913,-3.0784218,0.6251322,-0.0002486079,-0.03323006,0.011332904,0.0018266576,-0.00042601748,0.00041770446,-0.000447114,0.50329113,-1.3802148,1.9026893,-2.0914562,-1.5708536,2.4784474,-0.05010589,0.033875644,-0.047080334,0.012625161,8.168569e-05,-0.049635697,-0.30645782,0.019153614,-9.32781,0.800085,47.666286,-0.8730483,-2.475181,-3.2593572,-0.07465688,0.070960626,-0.3441692,28.75,30.0625,29.3125,32.75,35.3125,36.4375
0.0760528,-1.7021036,-0.13689657,-1.5000954,-0.004140469,0.06888851,-0.16547123,-0.3904657,-0.36826533,0.05987763,-3.0784087,0.6251267,-0.00030386524,-0.03392692,0.0113036465,0.0019490365,-0.0007039032,0.00091109454,0.004346482,0.503207,-1.3801184,1.9025811,-2.0914085,-1.5708417,2.4783616,-0.05069888,0.034575935,-0.04814418,0.012422314,8.0640115e-05,-0.05502173,-0.3256114,0.019153614,-9.461885,0.76874626,47.67345,-0.75280714,-2.4912107,-3.302136,-0.0839908,0.079041496,-0.29399303,28.75,30.0625,29.3125,32.75,35.3125,36.4375
0.07801057,-1.2778871,-0.73578095,-1.3971395,0.00762296,0.088949494,-0.14670725,-0.39054257,-0.36824605,0.059881978,-3.0784454,0.62511355,-0.00030174214,-0.03361025,0.01082917,0.0017590768,-0.00036221684,0.0002945444,0.0056003667,0.5030878,-1.3800462,1.9024857,-2.091408,-1.5708174,2.4782295,-0.04959605,0.035438456,-0.0488614,0.012983265,7.962093e-05,-0.055172414,-0.38307226,0.019153614,-9.404425,0.77545905,47.721813,-0.97724986,-2.4722946,-3.2545948,-0.083479695,0.073739134,-0.3115294,28.75,30.0625,29.3125,32.75,35.3125,36.4375
0.080052,-1.737595,0.12592492,-1.550607,-0.017364288,0.08375566,-0.16136716,-0.39063346,-0.3682175,0.05990987,-3.0784605,0.6251546,-0.00025989136,-0.034890745,0.011758197,0.0010513797,0.0002536826,-0.00082515535,0.0056992024,0.5029551,-1.3799974,1.9023536,-2.0913599,-1.5708174,2.4781206,-0.05234131,0.037719253,-0.049975008,0.013093682,7.862726e-05,-0.058015704,-0.4405331,-0.038307227,-9.3661175,0.7463667,47.68599,-0.87791836,-2.4333925,-3.3022294,-0.09484197,0.06503193,-0.2945426,28.75,30.0625,29.3125,32.75,35.3125,36.4375
0.08205215,-1.8503231,-0.40262806,-1.5941982,0.0047834683,0.07618234,-0.15636112,-0.39069027,-0.3682315,0.059924014,-3.0785081,0.62508523,-0.00022846175,-0.037321623,0.012019558,0.0020840082,-0.0008213211,0.0011183426,0.0076228133,0.5029183,-1.3799248,1.902233,-2.0913484,-1.5708054,2.4780345,-0.055037003,0.03870032,-0.0535785,0.01349533,7.765803e-05,-0.06263343,-0.4405331,-0.076614454,-9.308657,0.65684843,47.68062,-0.8195523,-2.4851527,-3.1362584,-0.09750672,0.06630004,-0.27037957,28.75,30.0625,29.3125,32.75,35.3125,36.4375
0.08400827,-1.625283,-0.2579813,-1.6531796,0.0019416384,0.07086305,-0.1556101,-0.39076144,-0.3681825,0.059905607,-3.0784786,0.625078,-0.0003139914,-0.036765546,0.013081323,0.00071581034,0.0007364089,-0.0017124274,0.009801161,0.50276214,-1.3798285,1.90215,-2.0913007,-1.5707935,2.4778776,-0.056295887,0.039748814,-0.051801153,0.013901013,7.6712444e-05,-0.06607127,-0.51714754,0.0,-9.308657,0.78888994,47.661808,-0.7784172,-2.4945495,-3.2632642,-0.097397454,0.060674958,-0.21553904,28.75,30.0625,29.3125,32.75,35.3125,36.4375
0.08605221,-1.534909,-0.19969775,-1.5204699,-0.007331085,0.06699774,-0.15564196,-0.3908469,-0.36815104,0.05990985,-3.0784526,0.6249732,-0.00025430295,-0.036507063,0.012165119,0.00053532195,0.0008838909,-0.001986648,0.015157739,0.502667,-1.3797319,1.902018,-2.091264,-1.5708536,2.4777205,-0.054504707,0.041139178,-0.053084,0.014100356,7.578956e-05,-0.06963596,-0.51714754,-0.05746084,-9.385271,0.800085,47.666286,-1.0029311,-2.439654,-3.34659,-0.10551419,0.0655407,-0.17913413,28.75,30.0625,29.3125,32.75,35.3125,36.4375
0.08805242,-1.4968125,-0.4458336,-1.4314045,-0.00039998846,0.06932609,-0.1590655,-0.3909193,-0.36811584,0.05990518,-3.0784853,0.6249985,-0.00030305493,-0.03827413,0.012796774,0.0007606081,0.0006442079,-0.0015594903,0.01524311,0.5025104,-1.3796713,1.9019569,-2.091264,-1.5708054,2.4775755,-0.05720063,0.042488556,-0.055276178,0.014456458,7.488873e-05,-0.07241619,-0.4213795,-0.05746084,-9.3661175,0.8023209,47.73256,-0.976266,-2.6032138,-3.2996128,-0.10915449,0.044479307,-0.13518175,28.75,30.0625,29.3125,32.75,35.3125,36.4375
0.09005238,-1.288438,-0.18948954,-1.7072812,-0.00043641689,0.07087278,-0.16853969,-0.3910059,-0.36810923,0.059932966,-3.0785143,0.6248871,-0.00026318314,-0.04007609,0.012655867,0.0016372527,-0.00021886377,2.2533275e-06,0.016087063,0.50242615,-1.3795869,1.9017776,-2.0911925,-1.5708174,2.4774182,-0.058628064,0.043516498,-0.058607295,0.014974176,7.400892e-05,-0.07468612,-0.3256114,-0.019153614,-9.3661175,0.7642693,47.667187,-0.87903994,-2.492631,-3.1014004,-0.12689199,0.069966644,-0.12789652,28.75,30.0625,29.3125,32.75,35.3125,36.4375
0.09205218,-1.2534134,-0.47064346,-1.4473354,-0.010993127,0.06681907,-0.16346064,-0.39108095,-0.3680491,0.059901573,-3.0784426,0.6249491,-0.0003118777,-0.039597232,0.013103817,0.0008474119,0.00047094456,-0.0012574756,0.016943334,0.5022703,-1.3794786,1.901718,-2.09118,-1.5708417,2.4773102,-0.05892572,0.043875355,-0.057153862,0.0145961745,7.3149655e-05,-0.075840555,-0.30645782,0.05746084,-9.385271,0.7530795,47.689575,-0.9626687,-2.5614262,-3.1959825,-0.13605289,0.059345238,-0.08254597,28.75,30.0625,29.3125,32.75,35.3125,36.4375
0.09405253,-1.3760158,-1.0608824,-1.7656499,-0.018643854,0.069247685,-0.161326,-0.39114383,-0.36804533,0.05989554,-3.0784738,0.6248019,-0.0003389875,-0.040722646,0.013252019,0.0007022153,0.0003942508,-0.0011262691,0.01518869,0.502198,-1.3793701,1.9015979,-2.0911562,-1.5708297,2.477142,-0.06021257,0.0455718,-0.05878701,0.014381949,7.231005e-05,-0.07537182,-0.38307226,0.11492168,-9.385271,0.7709874,47.66271,-0.97279406,-2.460672,-3.2804503,-0.15466219,0.07031834,-0.08321005,28.75,30.0625,29.3125,32.75,35.3125,36.4375
0.096028484,-1.3229185,-1.2719942,-1.7973362,-0.027543757,0.06327559,-0.15403378,-0.3912397,-0.3680013,0.059918176,-3.0784914,0.62474805,-0.00029843373,-0.041658383,0.013039436,0.00079047773,3.755432e-05,-0.00048042551,0.014101635,0.5020423,-1.3793215,1.9014782,-2.091109,-1.5708417,2.4769506,-0.06071096,0.04689287,-0.060466982,0.01400228,7.1489485e-05,-0.07478222,-0.2873042,0.15322891,-9.3661175,0.800085,47.68062,-1.0141361,-2.503321,-3.296308,-0.14052442,0.05585146,-0.059685044,28.75,30.0625,29.3125,32.75,35.3125,36.4375
0.09805232,-1.3506882,-1.4659684,-1.8862145,-0.02905248,0.056532905,-0.1468632,-0.39130166,-0.3679783,0.05989592,-3.078469,0.6247057,-0.00035507407,-0.042766146,0.013146253,0.0014305691,-0.00069788616,0.00084771647,0.012154273,0.5019459,-1.3792014,1.9013814,-2.0910852,-1.5708417,2.4768307,-0.061909836,0.04686451,-0.06187746,0.013923097,7.068744e-05,-0.07403318,-0.22984336,0.26815057,-9.404425,0.7620334,47.701214,-1.0560876,-2.5141358,-3.2390003,-0.14473417,0.07443787,-0.07613812,28.75,30.0625,29.3125,32.75,35.3125,36.4375
0.10005204,-1.1566504,-1.3844317,-1.6348217,-0.034431364,0.05118074,-0.15455584,-0.39142087,-0.36796126,0.05992245,-3.0785,0.6247314,-0.0002615299,-0.04300812,0.013547553,-1.3296073e-05,0.00071287673,-0.001711548,0.00980569,0.50181395,-1.3791043,1.901203,-2.0910723,-1.5708536,2.476711,-0.06279393,0.05013266,-0.062534854,0.014234079,6.9903086e-05,-0.07256794,-0.1340753,0.2681506,-9.404425,0.72622824,47.690468,-1.0612968,-2.4662519,-3.2973003,-0.17514579,0.06317396,-0.100474,28.75,30.0625,29.3125,32.75,35.3125,36.4375
0.102007374,-0.86891454,-1.1093377,-1.7778387,-0.041795526,0.04505983,-0.16047527,-0.3915035,-0.36793208,0.059920613,-3.0785213,0.62473685,-0.00033836215,-0.043888714,0.013584177,0.00024997178,0.0003124239,-0.0008826081,0.0074864537,0.5016581,-1.3790078,1.9010824,-2.091025,-1.5708054,2.4765558,-0.06362679,0.050671645,-0.06371391,0.013958656,1.7763416e-05,-0.071080886,-0.1340753,0.24899697,-9.404425,0.8224646,47.672558,-1.1116412,-2.6549144,-3.3106544,-0.17210862,0.058715157,-0.12377301,28.75,30.0625,29.3125,32.75,35.3125,36.4375
0.104052484,-0.7298266,-1.1397517,-1.8202348,-0.038178965,0.041872498,-0.15153368,-0.39158517,-0.3678922,0.059913002,-3.07848,0.6246907,-0.00034301708,-0.045296572,0.013755966,0.0017232354,-0.001180997,0.0018645388,0.004500672,0.50153774,-1.3789004,1.9009618,-2.0909774,-1.5708417,2.476412,-0.06519876,0.04907887,-0.065166555,0.013874969,1.1598241e-06,-0.06966671,-0.095768064,0.22984336,-9.461885,0.78888994,47.682407,-1.0951791,-2.3634658,-3.3017569,-0.17220727,0.05093757,-0.12354869,28.75,30.0625,29.3125,32.75,35.3125,36.4375
0.10605171,-0.26600492,-0.6027846,-1.6787095,-0.05206798,0.048126277,-0.16134572,-0.39170107,-0.36787042,0.059954565,-3.0785434,0.6246847,-0.00023065979,-0.046275504,0.014013597,0.0011105053,-0.0007150765,0.000969045,0.002149155,0.50139356,-1.3788514,1.9008063,-2.090965,-1.5708417,2.4762561,-0.06653951,0.051626906,-0.066815495,0.013985176,2.6847785e-05,-0.06865494,0.0,0.2681506,-9.385271,0.7463667,47.67614,-1.0882778,-2.529914,-3.2817533,-0.18466535,0.063021876,-0.17429331,28.75,30.0625,29.3125,32.75,35.3125,36.4375
0.10805254,-0.35452563,-1.4557409,-1.8496013,-0.036057986,0.035990246,-0.15511505,-0.3917618,-0.36784154,0.059899945,-3.078481,0.62473047,-0.0003868939,-0.046867445,0.014432243,0.000215246,6.511956e-05,-0.0004702267,0.0003798402,0.5012734,-1.3786705,1.9007109,-2.0909412,-1.5708174,2.4761724,-0.06778247,0.054009635,-0.067624025,0.014049858,2.5498852e-05,-0.06812791,-0.038307227,0.30645782,-9.32781,0.8090337,47.71465,-1.1300998,-2.4869537,-3.2836072,-0.18926746,0.049428772,-0.20488706,28.75,30.0625,29.3125,32.75,35.3125,36.4375
0.1100314,-0.52275896,-1.2451088,-1.8918215,-0.035445783,0.031935915,-0.15721607,-0.39186463,-0.36781248,0.05991035,-3.0785105,0.6246596,-0.0003600728,-0.048097156,0.01476715,0.0003280449,-3.7193335e-05,-0.00028568538,-0.0016399138,0.5011291,-1.3785739,1.9005674,-2.0909169,-1.5708174,2.4759803,-0.06946925,0.055247717,-0.069432974,0.014409801,2.5080308e-05,-0.067794055,-0.038307227,0.22984336,-9.3661175,0.71279734,47.67793,-1.0522693,-2.673005,-3.3543372,-0.19655904,0.061856855,-0.23040769,28.75,30.0625,29.3125,32.75,35.3125,36.4375
0.11205203,-0.30371466,-0.7407004,-1.8318729,-0.038802855,0.040178783,-0.16066252,-0.39195627,-0.36777115,0.059898913,-3.078466,0.62466806,-0.00035047033,-0.0489821,0.014923339,0.0017275163,-0.0012543413,0.0019297232,4.9303802e-05,0.5009972,-1.3784546,1.9004468,-2.090893,-1.5708536,2.4758594,-0.07053583,0.05326765,-0.07036483,0.014791144,2.4731584e-05,-0.070549846,0.0,0.17238252,-9.5385,0.7642693,47.698532,-1.0987053,-2.4812438,-3.2771692,-0.20003054,0.06279774,-0.23826438,28.75,30.0625,29.3125,32.75,35.3125,36.4375
0.11405233,-1.1087595,-1.0980034,-1.9095138,-0.024897352,0.02700721,-0.14571093,-0.39207855,-0.36774135,0.05991462,-3.0784867,0.62467307,-0.00028287317,-0.049598534,0.015001903,0.0011327771,-0.000791376,0.0010881807,-0.0025594684,0.50084114,-1.3783457,1.9002794,-2.090881,-1.5708655,2.475704,-0.071219645,0.055455938,-0.07161295,0.0148109775,2.4396119e-05,-0.06862405,0.076614454,0.2681506,-9.423578,0.7172743,47.67166,-1.0920615,-2.43863,-3.3123531,-0.21446314,0.051188152,-0.2904305,28.75,30.0625,29.3125,32.75,35.3125,36.4375
0.116052344,-0.2851485,-0.8558877,-1.7659588,-0.022062832,0.05501548,-0.14696348,-0.39220196,-0.36771828,0.05995245,-3.078539,0.62474185,-0.00022133486,-0.050738703,0.015054645,0.0011905368,-0.0009196226,0.0013255938,-0.003510731,0.5006732,-1.378273,1.9000992,-2.0908453,-1.5708417,2.4755723,-0.07234279,0.05701876,-0.07364361,0.015010644,2.4069876e-05,-0.06879489,-0.095768064,0.21068975,-9.3661175,0.84708,47.691364,-1.1560001,-2.5103106,-3.3231287,-0.23550963,0.06305223,-0.3367145,28.75,30.0625,29.3125,32.75,35.3125,36.4375
0.118052304,0.07617346,-0.6888907,-1.7116227,-0.013984854,0.07307671,-0.1505409,-0.39227855,-0.36770335,0.05992136,-3.0785272,0.62464046,-0.00028076,-0.051612563,0.015145724,0.0011692586,-0.0012362499,0.0018885367,-0.0012808488,0.50057703,-1.3781046,1.8999676,-2.090833,-1.5708417,2.4754145,-0.073291644,0.0579603,-0.07457023,0.014349477,2.3752267e-05,-0.07197306,-0.1340753,0.15322891,-9.346964,0.75084364,47.711063,-1.1830614,-2.4819834,-3.3504996,-0.21878603,0.05843631,-0.33956274,28.75,30.0625,29.3125,32.75,35.3125,36.4375
0.120052226,-0.98759025,-0.37176886,-2.0216305,-0.0105612865,0.051340457,-0.14940852,-0.3923799,-0.36766362,0.05991736,-3.0785134,0.62467843,-0.00032165356,-0.053571705,0.015163518,0.0020990528,-0.0021236772,0.0034992816,-0.0063700466,0.50040895,-1.377984,1.8998231,-2.0907853,-1.5708297,2.475272,-0.07511562,0.058919378,-0.07796337,0.014945833,2.3442915e-05,-0.0687064,-0.1340753,0.17238252,-9.32781,0.8023209,47.66091,-1.260266,-2.5402691,-3.1131458,-0.21769053,0.06700039,-0.39887857,28.75,30.0625,29.3125,32.75,35.3125,36.4375
0.12205213,-0.43938696,-0.3824766,-1.866138,-0.0073173475,0.06362998,-0.15553674,-0.3924913,-0.36764172,0.059911285,-3.0785186,0.62467897,-0.00028384916,-0.0535677,0.01604331,0.0009725816,-0.0008629863,0.0012019016,-0.006490638,0.5002764,-1.3778394,1.8996681,-2.0907967,-1.5708417,2.4751391,-0.07657216,0.060493927,-0.077378385,0.015405898,2.3141522e-05,-0.070042394,-0.21068975,0.21068975,-9.3661175,0.8090337,47.647476,-1.155218,-2.4367676,-3.3276882,-0.23208505,0.049141362,-0.4613335,28.75,30.0625,29.3125,32.75,35.3125,36.4375
0.12405239,-0.81930226,-0.12409604,-1.809638,-0.013776101,0.06427025,-0.15661262,-0.3925915,-0.36760998,0.05991909,-3.0785058,0.6246538,-0.00025921792,-0.05474126,0.014803255,0.0020007747,-0.001738765,0.0027884296,-0.002155398,0.50014514,-1.3777307,1.8995107,-2.0907485,-1.5708655,2.474994,-0.07555478,0.061981965,-0.08172258,0.016447697,2.2847791e-05,-0.073358394,-0.21068975,0.095768064,-9.481039,0.83365434,47.675243,-1.3990324,-2.605585,-3.252468,-0.2395072,0.0753943,-0.4616698,28.75,30.0625,29.3125,32.75,35.3125,36.4375
0.1260523,-1.4937346,-0.90926,-1.999033,0.0028948477,0.06336406,-0.13721219,-0.39269048,-0.36756554,0.05991651,-3.0784893,0.6246698,-0.00034202114,-0.05628407,0.016638575,0.0020827258,-0.0016009364,0.00252989,-0.0030246915,0.49996403,-1.3776107,1.8993553,-2.0906646,-1.5708417,2.474825,-0.08004626,0.061783582,-0.0818128,0.01703056,2.2561424e-05,-0.07698065,-0.2681506,0.076614454,-9.481039,0.800085,47.63852,-1.3417656,-2.4371955,-3.05226,-0.2557551,0.056034893,-0.46756548,28.75,30.0625,29.3125,32.75,35.3125,36.4375
0.12805226,-1.3733734,-0.10627841,-2.0222454,-0.020588253,0.078781515,-0.15242057,-0.392802,-0.3675436,0.05992485,-3.0785303,0.6246343,-0.0003402234,-0.055624418,0.016277343,0.0017872609,-0.0011551225,0.0017153338,0.005565235,0.4998089,-1.3774905,1.8991884,-2.0906403,-1.5708174,2.4746425,-0.07880712,0.062179923,-0.08171576,0.017466843,2.2282135e-05,-0.084331475,-0.4213795,0.1340753,-9.576807,0.79560274,47.690468,-1.267839,-2.4146512,-3.2524798,-0.27333146,0.06876844,-0.44930732,28.75,30.0625,29.3125,32.75,35.3125,36.4375
0.13005207,-1.4803162,-0.658234,-1.958801,-0.027586667,0.10034582,-0.1503987,-0.3928997,-0.3675087,0.059917863,-3.0785239,0.62459284,-0.000397383,-0.056818787,0.01676221,0.00042277956,9.011571e-05,-0.0005829238,0.0077938144,0.49965248,-1.377357,1.8990325,-2.0905807,-1.5708054,2.474461,-0.08070847,0.0665942,-0.08395001,0.017901357,2.2009664e-05,-0.088459864,-0.49799395,0.1340753,-9.615114,0.8112748,47.70032,-1.3634388,-2.5348563,-3.2269254,-0.30256385,0.05936916,-0.39223087,28.75,30.0625,29.3125,32.75,35.3125,36.4375
0.13205205,-1.9514481,-0.97915894,-2.046531,-0.02823594,0.09849527,-0.15160239,-0.39302045,-0.367468,0.059910506,-3.0785174,0.6246262,-0.00039750384,-0.05793068,0.016923837,0.002369412,-0.0016339489,0.002549091,0.012812742,0.49947244,-1.3772137,1.8988765,-2.0905683,-1.5708054,2.4743028,-0.08198624,0.063704304,-0.08505706,0.018322526,3.1198586e-05,-0.09475666,-0.59376204,0.1340753,-9.500193,0.7665104,47.687782,-1.3397641,-2.4573178,-3.2312348,-0.30502158,0.052685954,-0.36720648,28.75,30.0625,29.3125,32.75,35.3125,36.4375
0.13405228,-1.8544301,-0.34665313,-2.127131,-0.035318602,0.10300069,-0.14800847,-0.39315695,-0.36744374,0.059944503,-3.0785656,0.6244776,-0.00027722243,-0.058537737,0.017437933,0.0015708962,-0.0007830582,0.0009944434,0.01893216,0.49932817,-1.3771048,1.898662,-2.0905325,-1.5708417,2.4740598,-0.08338694,0.06593862,-0.08600367,0.01880268,3.2133892e-05,-0.10227611,-0.59376204,0.076614454,-9.576807,0.8023209,47.67614,-1.3434649,-2.381806,-3.321559,-0.31397802,0.056247383,-0.28070253,28.75,30.0625,29.3125,32.75,35.3125,36.4375
0.13605209,-1.4382148,-1.1232997,-2.154669,-0.017277226,0.10922924,-0.148595,-0.3932614,-0.36739358,0.059921715,-3.0785358,0.6244317,-0.0003497247,-0.060072336,0.018844076,0.0012452516,-0.00036811474,0.00021641458,0.01927173,0.49914742,-1.3769484,1.8985175,-2.0904844,-1.5708417,2.4738543,-0.08714516,0.06722739,-0.08691498,0.01930644,3.184027e-05,-0.1063734,-0.59376204,0.038307227,-9.5385,0.8179876,47.675243,-1.313687,-2.4332585,-3.2726145,-0.3139153,0.04864545,-0.24525476,28.75,30.0625,29.3125,32.75,35.3125,36.4375
0.1380521,-1.8153125,-0.7637383,-2.15006,-0.020136612,0.0950228,-0.139197,-0.39337695,-0.36735043,0.05991539,-3.0785325,0.62437004,-0.0003795451,-0.060014773,0.018060226,0.0015182046,-0.0009279932,0.0012293425,0.024971057,0.4989682,-1.3768041,1.8983501,-2.0904367,-1.5708417,2.473637,-0.08574951,0.06734058,-0.08753075,0.01865115,3.147467e-05,-0.11067677,-0.59376204,0.019153614,-9.500193,0.8247004,47.728977,-1.3352149,-2.3410873,-3.3062868,-0.32723576,0.053264335,-0.18834755,28.75,30.0625,29.3125,32.75,35.3125,36.4375
0.14005208,-1.8968575,-0.7370298,-2.1572099,-0.012689274,0.095974304,-0.15622023,-0.3935233,-0.3673261,0.05993423,-3.0785887,0.62424576,-0.0002948178,-0.06331693,0.017961953,0.0030173582,-0.0029934552,0.005009643,0.023769423,0.49879977,-1.3766595,1.8981332,-2.0904253,-1.5708536,2.4733841,-0.08859737,0.06854394,-0.092181236,0.017789034,3.1112355e-05,-0.11232089,-0.61291564,0.11492168,-9.481039,0.7709874,47.675243,-1.4449589,-2.3694353,-3.2067852,-0.33776438,0.053661827,-0.15998405,28.75,30.0625,29.3125,32.75,35.3125,36.4375
0.14205196,-1.4880108,-0.36073652,-2.264802,-0.016928595,0.10709873,-0.15650065,-0.393646,-0.36730164,0.059946183,-3.0786126,0.62421507,-0.00032142055,-0.06391132,0.019772666,0.0022087737,-0.0021445851,0.003460659,0.01933566,0.4986307,-1.3765153,1.8979186,-2.0903533,-1.5708297,2.473193,-0.09216099,0.06880438,-0.09065579,0.017772336,3.075798e-05,-0.111451335,-0.49799395,0.0,-9.634268,0.8224646,47.688675,-1.1113904,-2.391512,-3.3590455,-0.33279395,0.05352167,-0.12981254,28.75,30.0625,29.3125,32.75,35.3125,36.4375
0.14405233,-1.6684016,-0.8497795,-2.0890884,-0.006980068,0.10064377,-0.14127699,-0.39375958,-0.36724952,0.059929978,-3.0786052,0.6242151,-0.000336018,-0.06632639,0.019648131,0.0030993773,-0.0035927577,0.0061040134,0.0135639915,0.49843842,-1.3763828,1.8977984,-2.0903537,-1.5708297,2.4730017,-0.09414939,0.07010654,-0.09401943,0.016820306,3.041153e-05,-0.10766645,-0.5363012,-0.076614454,-9.5385,0.7978386,47.683304,-1.2114917,-2.3319848,-3.2918234,-0.33586252,0.05131302,-0.16613671,28.75,30.0625,29.3125,32.75,35.3125,36.4375
0.1460525,-1.5907508,-0.60011774,-2.2494714,-0.017112473,0.096160516,-0.15030706,-0.39389333,-0.36720583,0.05992464,-3.0786319,0.624128,-0.00035079435,-0.0672099,0.020868963,0.002497008,-0.0030840354,0.005176614,0.0057984823,0.4982341,-1.3762264,1.8976196,-2.09033,-1.5708174,2.4727397,-0.09698337,0.071074426,-0.09377258,0.01666531,3.0072797e-05,-0.10273488,-0.63206923,-0.038307227,-9.481039,0.7866488,47.647476,-1.19386,-2.3446555,-3.216746,-0.33568206,0.052449353,-0.2230128,28.75,30.0625,29.3125,32.75,35.3125,36.4375
0.14805245,-1.4358878,-0.28826663,-1.9326673,-0.010146219,0.10017125,-0.15137261,-0.39405492,-0.36715207,0.059964713,-3.0786426,0.62417054,-0.00022759997,-0.06925108,0.021263728,0.003195245,-0.004028972,0.006953292,0.0005362168,0.49801755,-1.3761299,1.8974031,-2.0902822,-1.5708536,2.4725485,-0.099478446,0.071811855,-0.0961571,0.016296968,1.5075514e-05,-0.09996657,-0.5554548,-0.05746084,-9.404425,0.84708,47.72092,-1.0726916,-2.2525804,-3.2352982,-0.33076593,0.03896784,-0.28715128,28.75,30.0625,29.3125,32.75,35.3125,36.4375
0.15005322,-1.4894875,-0.3887336,-1.9682236,-0.0023184563,0.08998138,-0.14398862,-0.3941985,-0.36711964,0.05995227,-3.0786624,0.62425256,-0.0002797319,-0.07074843,0.02202881,0.003237118,-0.004020144,0.0069642803,-0.0023945393,0.49780098,-1.3759372,1.8972,-2.0902693,-1.5708054,2.4723806,-0.10209611,0.07306565,-0.09785316,0.016738778,9.843234e-07,-0.099652655,-0.53630114,-0.076614454,-9.346964,0.7911258,47.682407,-0.9434025,-2.2943215,-3.2274072,-0.3455636,0.048506595,-0.2947746,28.75,30.0625,29.3125,32.75,35.3125,36.4375
0.1520522,-1.4257735,-0.16894238,-1.8615271,-0.0074892845,0.085563526,-0.14685445,-0.39432096,-0.3670545,0.0599323,-3.078615,0.6241075,-0.00030360708,-0.071392596,0.022968045,0.0028226406,-0.0034746856,0.005953503,-0.003436638,0.49760878,-1.3757689,1.8970321,-2.0902097,-1.5708536,2.472104,-0.10423776,0.07389149,-0.098010056,0.0172135,6.426929e-08,-0.100752085,-0.45968673,-0.15322891,-9.461885,0.7709874,47.689575,-0.8913038,-2.2305405,-3.3380456,-0.34148818,0.053231772,-0.32960993,28.75,30.0625,29.3125,32.75,35.3125,36.4375
0.15405175,-0.6936606,-0.6203909,-1.6732647,-0.0049410546,0.10107312,-0.13684693,-0.39449725,-0.36702958,0.059975613,-3.0786903,0.62416005,-0.00014746682,-0.072277136,0.023162166,0.0026569564,-0.0033592342,0.0057652607,-0.003938995,0.4974049,-1.3756484,1.8967932,-2.0902216,-1.5708536,2.4719236,-0.10533376,0.07540515,-0.09947526,0.017385568,4.196325e-09,-0.10134494,-0.61291564,-0.019153614,-9.346964,0.842603,47.693153,-0.89924055,-2.3115253,-3.2767649,-0.3646049,0.06203106,-0.33463058,28.75,30.0625,29.3125,32.75,35.3125,36.4375
0.15605171,-1.5876532,-0.3771125,-1.7565274,-0.014151477,0.09013555,-0.14459397,-0.39463264,-0.36697653,0.059983794,-3.0786893,0.62421805,-0.00018633313,-0.0735132,0.023720803,0.0026897527,-0.0034565518,0.005939649,-0.006099466,0.49717662,-1.3755157,1.8966011,-2.09015,-1.5708297,2.4717317,-0.10737192,0.0764507,-0.10082373,0.017491303,2.7399005e-10,-0.101221964,-0.57460845,0.0,-9.385271,0.7933669,47.655537,-0.8447183,-2.246304,-3.311348,-0.3408384,0.0481402,-0.3636623,28.75,30.0625,29.3125,32.75,35.3125,36.4375
0.15805176,-1.629134,-0.398664,-1.8264533,-0.009691616,0.100203566,-0.15215996,-0.39477798,-0.36692214,0.05997871,-3.0786815,0.6243503,-0.00021222542,-0.07451001,0.023784215,0.0026894256,-0.0036433688,0.006279054,-0.0063581425,0.49693665,-1.3753592,1.8964213,-2.0901263,-1.5708054,2.4715753,-0.10835469,0.07779083,-0.10238874,0.017331239,1.7889594e-11,-0.10194524,-0.51714754,0.019153614,-9.442732,0.8314132,47.694054,-0.81857824,-2.310724,-3.2791424,-0.33136123,0.06270327,-0.39325505,28.75,30.0625,29.3125,32.75,35.3125,36.4375
0.1600517,-1.651477,-0.8451066,-1.7273713,-0.014070068,0.096506625,-0.14694029,-0.3949239,-0.36686563,0.059970345,-3.0786476,0.6242447,-0.00016779848,-0.074958794,0.023804717,0.0024851277,-0.0033978324,0.0058648773,-0.004684089,0.49674508,-1.3751785,1.8962177,-2.09009,-1.5708655,2.4713223,-0.108753026,0.07905356,-0.10351263,0.01766723,-2.065334e-05,-0.10401701,-0.45968673,0.076614454,-9.3661175,0.8157518,47.661808,-0.9555376,-2.2370386,-3.2684116,-0.33001998,0.052719112,-0.42347836,28.75,30.0625,29.3125,32.75,35.3125,36.4375
0.162052,-1.1749871,-0.82987154,-1.8195431,-0.017573325,0.09404046,-0.15219566,-0.39509052,-0.3668532,0.059992928,-3.0787446,0.6242218,-0.00011731522,-0.075738214,0.023569496,0.0028631527,-0.003827451,0.0066902186,0.0014490188,0.49654153,-1.3750101,1.8959664,-2.09009,-1.5708174,2.4710922,-0.109021045,0.0797121,-0.105185516,0.017755684,-3.0772444e-05,-0.110417396,-0.3256114,0.095768064,-9.270349,0.83365434,47.682407,-0.9881357,-2.2495704,-3.332967,-0.3342564,0.045096572,-0.35663578,28.75,30.0625,29.3125,32.75,35.3125,36.4375
0.16405207,-0.8645429,-0.66272324,-1.849823,-0.022611696,0.07142005,-0.15002914,-0.39525533,-0.36680776,0.060010146,-3.0787706,0.62427956,-4.889528e-05,-0.075726524,0.02364275,0.0011869473,-0.0024405248,0.004140121,0.0074399356,0.49631414,-1.3748647,1.8957518,-2.090078,-1.5708174,2.4708977,-0.109092616,0.08336107,-0.105654754,0.017478233,-3.0438647e-05,-0.11647912,-0.19153613,0.076614454,-9.270349,0.8112748,47.65912,-1.0618136,-2.4289763,-3.331965,-0.33050662,0.043093488,-0.35143304,28.75,30.0625,29.3125,32.75,35.3125,36.4375
0.16605213,-0.5623384,-1.1900113,-1.8253865,-0.013968071,0.055545934,-0.14135076,-0.3953981,-0.3667315,0.059984736,-3.0787132,0.62418807,-7.182364e-05,-0.077619724,0.024536593,0.0029221016,-0.004049287,0.0070906477,0.011698046,0.49608505,-1.3746735,1.8955716,-2.09003,-1.5708655,2.470619,-0.112289615,0.081049964,-0.10691731,0.017684584,-2.9487437e-05,-0.12393416,-0.21068975,0.095768064,-9.232041,0.7933669,47.655537,-0.86627334,-2.2382052,-3.2678432,-0.32097855,0.019885948,-0.27016044,28.75,30.0625,29.3125,32.75,35.3125,36.4375
0.16805217,0.2039918,-0.92266726,-1.7154717,-0.018923748,0.06458038,-0.15377268,-0.39555955,-0.36667442,0.060008142,-3.078738,0.6241861,-5.6805005e-05,-0.07786544,0.024194004,0.002561746,-0.0038414632,0.0067060506,0.020701475,0.495834,-1.3745408,1.8953446,-2.0899584,-1.5708536,2.4703636,-0.1118957,0.082706615,-0.108056776,0.017604878,-2.855481e-05,-0.13254298,-0.05746084,0.17238252,-9.251195,0.8179876,47.71823,-1.0788761,-2.2218313,-3.4680147,-0.32200363,0.060916573,-0.16740564,28.75,30.0625,29.3125,32.75,35.3125,36.4375
0.17005199,-0.015469002,-0.8956612,-1.840524,-0.010991084,0.052958902,-0.14590342,-0.39572155,-0.36664963,0.06000594,-3.0787997,0.6240844,-4.093149e-05,-0.07928843,0.0249397,0.0015226573,-0.0030704152,0.0052821045,0.018922558,0.4956293,-1.374335,1.8951052,-2.0899584,-1.5708297,2.4700878,-0.11440755,0.086147636,-0.109775364,0.01750492,-2.76768e-05,-0.13327472,-0.11492168,0.22984336,-9.174581,0.7329411,47.689575,-0.80577517,-2.383067,-3.233408,-0.3198879,0.04397937,-0.13635391,28.75,30.0625,29.3125,32.75,35.3125,36.4375
0.17205186,-0.68124807,-1.1979141,-1.8481055,-0.008339229,0.039624467,-0.13904804,-0.39589992,-0.3665837,0.06000931,-3.0787916,0.62406206,2.253687e-05,-0.08015686,0.025053808,0.0019573052,-0.0034742635,0.0060322117,0.019139322,0.49537766,-1.374155,1.8948783,-2.0899346,-1.5708655,2.4698234,-0.11534525,0.0864061,-0.11114162,0.017755961,-2.6851007e-05,-0.13442867,-0.05746084,0.22984336,-9.193734,0.75755644,47.687782,-0.96555746,-2.304041,-3.3933043,-0.3047896,0.06144415,-0.07442709,28.75,30.0625,29.3125,32.75,35.3125,36.4375
0.1740519,-0.6388959,-0.9186576,-1.7925804,-0.023209501,0.042613596,-0.1420795,-0.396045,-0.3665369,0.060014397,-3.07879,0.62398666,1.928098e-05,-0.081771545,0.024933856,0.0022505785,-0.0040090014,0.007007534,0.014252055,0.49517378,-1.3739862,1.8946499,-2.0898626,-1.5708774,2.4695728,-0.1165793,0.088252,-0.11399018,0.017645422,-2.6073081e-05,-0.13077407,-0.05746084,0.2681506,-9.174581,0.8157518,47.681515,-0.9493934,-2.360898,-3.2940803,-0.28139833,0.045481853,-0.10447227,28.75,30.0625,29.3125,32.75,35.3125,36.4375
0.17605183,-0.27751958,-1.0927298,-1.8981497,-0.027270265,0.047755335,-0.136661,-0.39620695,-0.36647376,0.0599977,-3.0787857,0.624027,-6.1983716e-05,-0.08297588,0.02580421,0.002247211,-0.0038133233,0.0066374517,0.006646813,0.49489766,-1.3737819,1.8944339,-2.089814,-1.5708417,2.4693224,-0.11909292,0.08919223,-0.115296125,0.018435195,-2.5338952e-05,-0.12568189,-0.05746084,0.30645782,-9.270349,0.85826975,47.691364,-0.97550535,-2.3744829,-3.307569,-0.2820119,0.062297314,-0.18159592,28.75,30.0625,29.3125,32.75,35.3125,36.4375
0.17805189,-0.7259789,-1.3588437,-1.9289488,-0.025043793,0.028547943,-0.13393973,-0.39635912,-0.36643118,0.06001096,-3.0788062,0.6239556,-2.2910092e-05,-0.08227778,0.025014853,0.001913763,-0.0033346922,0.005759153,0.0041314024,0.4946946,-1.3736254,1.8942069,-2.0897663,-1.5708536,2.4690723,-0.117088236,0.09026793,-0.115962796,0.019025635,-2.4645009e-05,-0.12116145,-0.038307227,0.24899697,-9.232041,0.80679786,47.694946,-1.0871459,-2.2790258,-3.2847948,-0.27721077,0.04366566,-0.23393318,28.75,30.0625,29.3125,32.75,35.3125,36.4375
0.18005177,-0.8507937,-1.5460181,-2.0890424,-0.036279414,0.02561367,-0.13971923,-0.3965282,-0.36639288,0.06001084,-3.0788436,0.62394667,-4.6895508e-05,-0.085099205,0.026096903,0.0017336162,-0.0034034199,0.0059144357,-0.0032498315,0.49445355,-1.3734198,1.8939546,-2.0897305,-1.5708174,2.468821,-0.121418424,0.09340777,-0.119313814,0.01907238,-4.1763727e-05,-0.118108615,0.038307227,0.2681506,-9.3661175,0.80456203,47.687782,-1.031801,-2.535011,-3.096102,-0.28484356,0.0369627,-0.29436553,28.75,30.0625,29.3125,32.75,35.3125,36.4375
0.18205164,-0.15836845,-1.1420549,-1.899058,-0.052145492,0.05064174,-0.15209949,-0.39668468,-0.3663208,0.059998583,-3.078795,0.6239159,-2.0586644e-06,-0.08367823,0.025547093,0.0015491511,-0.003002169,0.00518738,-0.0028392742,0.49422702,-1.3732401,1.8937634,-2.0897062,-1.5708774,2.4685817,-0.11915351,0.09266333,-0.11810694,0.019433647,-4.6325044e-05,-0.11625491,-0.038307227,0.30645782,-9.346964,0.8157518,47.684196,-1.1543624,-2.2821,-3.4062865,-0.28973082,0.045493983,-0.35219708,28.75,30.0625,29.3125,32.75,35.3125,36.4375
0.18405254,-0.27521026,-1.4862568,-1.9765055,-0.036661554,0.057995204,-0.1533326,-0.39685526,-0.36627048,0.059987497,-3.0787861,0.62395227,-5.9869926e-06,-0.0848782,0.025834737,0.00021268566,-0.001961382,0.003245198,-0.005519804,0.49398705,-1.3730223,1.893524,-2.0896819,-1.5708774,2.4683657,-0.12068262,0.097144164,-0.12042612,0.019475747,-4.5521552e-05,-0.115101926,-0.095768064,0.28730422,-9.32781,0.8179876,47.688675,-1.1519439,-2.5123973,-3.1976995,-0.27854943,0.04853177,-0.4117928,28.75,30.0625,29.3125,32.75,35.3125,36.4375
0.18605165,-0.48012823,-1.2699432,-1.9485755,-0.03760845,0.061878603,-0.14919557,-0.3970265,-0.36621928,0.059986245,-3.078803,0.623975,-5.512481e-05,-0.086886056,0.025853438,0.0023517183,-0.004071219,0.007151363,-0.0082218405,0.49372295,-1.3728187,1.8932713,-2.0896223,-1.5708417,2.4681137,-0.12248715,0.09524593,-0.12307429,0.01958694,-4.4422188e-05,-0.11420374,-0.019153614,0.36391866,-9.385271,0.842603,47.655537,-1.1129506,-2.3644733,-3.2758117,-0.27728093,0.050817575,-0.44342792,28.75,30.0625,29.3125,32.75,35.3125,36.4375
0.18805254,-0.6511697,-1.1026151,-1.9246721,-0.03191712,0.059078705,-0.1507487,-0.3971633,-0.36616758,0.05998089,-3.0787892,0.62391335,-7.5119184e-05,-0.08767166,0.025839876,0.0013888401,-0.003273697,0.0056547346,-0.006940425,0.493519,-1.3726496,1.8930687,-2.0895627,-1.5708536,2.467873,-0.12314044,0.09874655,-0.12511879,0.019825093,-4.335375e-05,-0.116137154,-0.019153614,0.3256114,-9.404425,0.8560339,47.746887,-1.1575744,-2.4444284,-3.1823754,-0.24532397,0.05051595,-0.4915442,28.75,30.0625,29.3125,32.75,35.3125,36.4375
0.19005257,-0.6468051,-0.905987,-2.0588408,-0.026115397,0.051834714,-0.14431848,-0.39737192,-0.36611915,0.05999679,-3.0787995,0.6240084,7.202334e-06,-0.08873348,0.026153727,0.0018798169,-0.0036679625,0.0063980483,-0.0035881123,0.4932553,-1.3724332,1.8927697,-2.0895388,-1.5708655,2.4676676,-0.12457077,0.098968074,-0.12661512,0.020256521,-4.233421e-05,-0.12091927,-0.1340753,0.22984336,-9.481039,0.76874626,47.677036,-1.104875,-2.4329848,-3.2084274,-0.2414503,0.053967163,-0.5081237,28.75,30.0625,29.3125,32.75,35.3125,36.4375
0.1920527,-1.1668979,-1.2790123,-1.993613,-0.019548213,0.05070389,-0.1390166,-0.3975389,-0.36607528,0.05999528,-3.0788178,0.62400645,-1.9392159e-05,-0.09027437,0.02651654,0.0012585735,-0.003252461,0.005612524,0.0036059848,0.49301508,-1.3722278,1.8925179,-2.0894907,-1.5708417,2.467424,-0.12652922,0.10225747,-0.12917182,0.020414263,-4.1361345e-05,-0.13007036,-0.17238252,0.28730422,-9.404425,0.8605109,47.658226,-1.1307342,-2.5063117,-3.1752524,-0.2332414,0.066186756,-0.43276548,28.75,30.0625,29.3125,32.75,35.3125,36.4375
0.19405179,-0.67661977,-1.0059992,-2.0081942,-0.022434833,0.08227581,-0.15011553,-0.39773107,-0.36601603,0.060010735,-3.078829,0.6239245,5.7264755e-05,-0.09096696,0.026805017,0.0013981019,-0.0032991902,0.005705499,0.01437164,0.49276322,-1.3720354,1.8922428,-2.089442,-1.5708774,2.4671197,-0.12758486,0.102770835,-0.13021168,0.020830281,-4.0432198e-05,-0.14189126,-0.22984336,0.21068975,-9.442732,0.8179876,47.655537,-1.1753005,-2.5248601,-3.1190138,-0.2337012,0.029679693,-0.3748461,28.75,30.0625,29.3125,32.75,35.3125,36.4375
0.19605274,-1.5129158,-1.1264311,-2.1448367,-0.017587133,0.080736876,-0.14265521,-0.397893,-0.36597088,0.059997536,-3.0788882,0.62381816,8.800295e-06,-0.09251721,0.027535528,0.0015357138,-0.003398696,0.005854101,0.018314177,0.49251089,-1.3718309,1.8920268,-2.0894306,-1.5708297,2.4667935,-0.13017385,0.10397522,-0.13209207,0.021334372,-2.488031e-05,-0.14842197,-0.3256114,0.15322891,-9.5385,0.8090337,47.67614,-1.0844326,-2.5365868,-3.1280627,-0.22588682,0.051687457,-0.2548511,28.75,30.0625,29.3125,32.75,35.3125,36.4375
0.19805165,-1.364134,-0.50582623,-2.0926323,-0.03351064,0.106091164,-0.1493511,-0.398073,-0.36590433,0.05997522,-3.078839,0.6238227,-8.2136365e-05,-0.092123665,0.027245555,0.0013756804,-0.003005856,0.005090883,0.024603222,0.4922358,-1.3715663,1.8917407,-2.0893342,-1.5708297,2.4665277,-0.12927566,0.104505315,-0.1325675,0.022137454,-1.9680478e-05,-0.1538127,-0.45968673,0.1340753,-9.576807,0.84484416,47.698532,-1.1492542,-2.5015435,-3.2030256,-0.22116001,0.045221217,-0.18900636,28.75,30.0625,29.3125,32.75,35.3125,36.4375
0.20005248,-2.0474796,-0.9542882,-1.9149885,-0.021442372,0.11446044,-0.13315836,-0.39829618,-0.3658575,0.060015842,-3.0789275,0.62378246,3.514122e-05,-0.094653,0.027662076,0.0027283856,-0.0044679814,0.007841363,0.02325073,0.49194726,-1.3713862,1.8914284,-2.08931,-1.5708174,2.466203,-0.1321943,0.10461666,-0.13578957,0.022135157,-1.896154e-05,-0.15537763,-0.59376204,-0.05746084,-9.595961,0.8314132,47.682407,-0.98523974,-2.4413452,-3.0977612,-0.21824524,0.0345027,-0.15781146,28.75,30.0625,29.3125,32.75,35.3125,36.4375
0.2020525,-1.6522133,-0.85441387,-2.138898,-0.008827519,0.13332894,-0.13990542,-0.39845818,-0.36581096,0.05999718,-3.078944,0.62371194,-2.0846168e-05,-0.09362738,0.029180627,0.0004102432,-0.002195422,0.0036085462,0.0161611,0.49170762,-1.3711575,1.8911904,-2.0892746,-1.5707935,2.4659173,-0.13376305,0.10632209,-0.13254224,0.021990942,-1.8550823e-05,-0.14985777,-0.6703765,-0.076614454,-9.5385,0.78888994,47.689575,-1.2111436,-2.4869807,-3.2987335,-0.20186238,0.04058697,-0.17830643,28.75,30.0625,29.3125,32.75,35.3125,36.4375
0.20405246,-2.3891869,-0.66363627,-2.2351332,-0.0012268694,0.11523903,-0.13337995,-0.39866868,-0.365747,0.060019743,-3.078958,0.6236964,8.759024e-05,-0.09469404,0.02844672,0.0015408796,-0.0033540125,0.0057823304,0.01208849,0.49143213,-1.3709652,1.8909019,-2.0892384,-1.5708297,2.4656305,-0.13342923,0.106415585,-0.1352813,0.022168443,-1.8174922e-05,-0.14545034,-0.7086837,-0.076614454,-9.5385,0.7777002,47.667187,-1.1484454,-2.467969,-3.1875927,-0.18430576,0.038669787,-0.20378941,28.75,30.0625,29.3125,32.75,35.3125,36.4375
0.20605247,-1.5717974,-0.31156066,-1.9403191,-0.0068802186,0.13278154,-0.1413804,-0.39886546,-0.36570483,0.060020957,-3.079001,0.6236489,8.810279e-05,-0.095547095,0.02902892,0.0010493916,-0.0029796637,0.0050880117,0.006873313,0.49116832,-1.3707246,1.8906044,-2.0892026,-1.5708054,2.4653318,-0.13511331,0.10804767,-0.13613568,0.02218353,-1.7815062e-05,-0.14191872,-0.7661445,-0.11492168,-9.481039,0.8717007,47.71286,-1.2380664,-2.3183079,-3.28441,-0.16196267,0.04779847,-0.30252463,28.75,30.0625,29.3125,32.75,35.3125,36.4375
0.20805244,-1.7668048,-0.41745418,-2.0675108,0.020250285,0.11694678,-0.13644277,-0.39901647,-0.36564323,0.06000295,-3.0789864,0.6235687,2.9740599e-05,-0.09625264,0.029212138,0.001539141,-0.0036278605,0.0062841,0.005599199,0.49092835,-1.3705202,1.8903884,-2.089143,-1.5708054,2.4650438,-0.13600707,0.10758607,-0.1366274,0.021776572,-1.746925e-05,-0.14153826,-0.63206923,-0.21068975,-9.5385,0.76874626,47.734352,-1.1807346,-2.4690633,-3.3785973,-0.16193233,0.027504615,-0.32053447,28.75,30.0625,29.3125,32.75,35.3125,36.4375
0.21005255,-1.0641246,0.17838852,-2.0913963,0.023484016,0.10985953,-0.14310947,-0.39923877,-0.36558637,0.06003222,-3.079028,0.6235396,0.00012412644,-0.09734107,0.030790413,-0.00013659782,-0.002273732,0.0037719095,0.0013706404,0.4906395,-1.3703151,1.8900665,-2.0890949,-1.5708174,2.4647317,-0.1395677,0.11076648,-0.13653333,0.021354506,-1.7136621e-05,-0.14086989,-0.5554548,-0.34476507,-9.557653,0.85826975,47.689575,-0.96344787,-2.4044135,-3.5138903,-0.12801558,0.03887038,-0.3387488,28.75,30.0625,29.3125,32.75,35.3125,36.4375
0.21205263,-1.2823853,0.39748695,-2.0165544,0.019350769,0.08701182,-0.15530737,-0.39941925,-0.3654933,0.059985388,-3.078937,0.6236737,3.5053337e-05,-0.09830752,0.031229181,0.0009994954,-0.0031752102,0.005436182,0.0006316287,0.490328,-1.3700514,1.8898505,-2.089059,-1.5708297,2.4645154,-0.14111298,0.10926078,-0.13747366,0.021906108,-1.6816412e-05,-0.14167614,-0.5746084,-0.3256114,-9.500193,0.84708,47.68599,-1.1804235,-2.358151,-3.4554539,-0.11675531,0.0436553,-0.3792159,28.75,30.0625,29.3125,32.75,35.3125,36.4375
0.21405178,-1.0923477,0.220641,-1.8485402,0.022245916,0.088404514,-0.14093783,-0.39964655,-0.36544582,0.06002019,-3.079019,0.62370574,0.00013855727,-0.09934314,0.031219218,0.0011976159,-0.0030173045,0.0051698363,0.0044480697,0.49002832,-1.3698586,1.8895386,-2.0890462,-1.5708054,2.4642255,-0.14195243,0.11097117,-0.14030576,0.023340352,-1.6507976e-05,-0.14633083,-0.63206923,-0.21068975,-9.423578,0.84708,47.64837,-1.0493588,-2.33483,-3.581489,-0.10012187,0.034891404,-0.37240985,28.75,30.0625,29.3125,32.75,35.3125,36.4375
0.21605253,-1.3866835,0.10108452,-1.9187177,0.029057834,0.08699619,-0.15311047,-0.39984927,-0.36538592,0.06002291,-3.079033,0.6236643,0.0001766729,-0.09976162,0.031623032,0.0013282752,-0.0027282417,0.0046400903,0.011239068,0.48975247,-1.3696303,1.8892521,-2.08901,-1.5708174,2.4639223,-0.14293839,0.11129536,-0.14130035,0.024611853,-1.6210595e-05,-0.15410753,-0.38307226,-0.2681506,-9.442732,0.91198283,47.670765,-1.1077819,-2.270612,-3.523757,-0.09702442,0.037351094,-0.30833286,28.75,30.0625,29.3125,32.75,35.3125,36.4375
0.21805227,-1.1414403,0.22512005,-2.113298,0.027384585,0.08970658,-0.1486315,-0.40004784,-0.36530918,0.06001313,-3.0790133,0.62355906,0.00013028365,-0.101073004,0.03190565,0.0022657313,-0.00326165,0.005624114,0.019328853,0.48945245,-1.3693781,1.8889517,-2.0889137,-1.5708297,2.4635592,-0.1445239,0.1112838,-0.14374484,0.025945801,-1.592381e-05,-0.16378206,-0.3256114,-0.22984336,-9.423578,0.87393653,47.690468,-1.0630664,-2.2709537,-3.3556094,-0.09036897,0.034081258,-0.24023083,28.75,30.0625,29.3125,32.75,35.3125,36.4375
0.22005208,-0.8454144,-0.71500087,-1.974432,0.015986253,0.09480587,-0.14176694,-0.40027544,-0.36524147,0.06002243,-3.0790484,0.62352294,0.0002097331,-0.10108038,0.031933837,0.0006352549,-0.0015120193,0.0023596012,0.02593938,0.48914137,-1.3691481,1.8886536,-2.0889018,-1.5708417,2.4632213,-0.14450191,0.115453765,-0.14527881,0.02701104,-1.5646945e-05,-0.17036949,-0.22984336,0.0,-9.500193,0.82694155,47.67614,-1.0970039,-2.440814,-3.3566408,-0.08764984,0.025574345,-0.10771355,28.75,30.0625,29.3125,32.75,35.3125,36.4375
0.22205204,-0.2544924,-1.0584282,-2.065512,-0.013463278,0.09867159,-0.14079328,-0.40046653,-0.36517075,0.060030505,-3.0790427,0.62338465,0.00020471074,-0.1018441,0.03230693,0.0020015438,-0.002309956,0.0038781017,0.026849369,0.48886558,-1.368933,1.8883542,-2.088794,-1.5708655,2.46286,-0.14573993,0.11354256,-0.14642918,0.028353058,-2.6795356e-05,-0.17251751,-0.30645782,0.076614454,-9.461885,0.78217715,47.664497,-1.126027,-2.2052398,-3.4317036,-0.09905897,0.042318776,-0.040478475,28.75,30.0625,29.3125,32.75,35.3125,36.4375
0.22405201,-0.79520667,-1.207243,-2.2342308,-0.03699346,0.069090575,-0.14248438,-0.40067363,-0.36509317,0.06003506,-3.079053,0.6233694,0.00018745828,-0.10236868,0.032414936,0.00046580462,-0.00077082077,0.0009847364,0.021694109,0.488542,-1.3687149,1.8880671,-2.088721,-1.5708536,2.4625258,-0.14631847,0.1180812,-0.14858052,0.029245842,-2.9983563e-05,-0.16793936,-0.24899697,0.19153613,-9.615114,0.9097417,47.66987,-1.1882002,-2.4877152,-3.4459329,-0.094861455,0.032925725,-0.064487904,28.75,30.0625,29.3125,32.75,35.3125,36.4375
0.22605218,-0.42718962,-1.4381907,-2.2614253,-0.060001627,0.0723567,-0.14622034,-0.40089622,-0.36505237,0.060047828,-3.07911,0.6233261,0.0002467744,-0.103547595,0.03250644,0.0012832169,-0.0015134147,0.0023954462,0.013049143,0.48826635,-1.3684628,1.8877319,-2.0886972,-1.5708417,2.4622161,-0.14745077,0.118018046,-0.15047117,0.029608486,-2.9725745e-05,-0.1604261,-0.24899697,0.28730422,-9.576807,0.82022345,47.68062,-1.1723734,-2.1044073,-3.3916368,-0.080785096,0.03582288,-0.15481709,28.75,30.0625,29.3125,32.75,35.3125,36.4375
0.22805208,-0.6491265,-2.034409,-2.4069965,-0.07396955,0.06340846,-0.139743,-0.40108907,-0.3649534,0.060038596,-3.079061,0.62335783,0.00022544514,-0.10492623,0.033664204,0.00017027851,-0.0003206794,0.00013187018,0.0044507924,0.48794198,-1.3682575,1.8874916,-2.0886252,-1.5708655,2.4619179,-0.15056181,0.12145626,-0.15227902,0.030533785,-2.9258024e-05,-0.15493767,-0.17238252,0.36391866,-9.481039,0.80456203,47.705692,-1.2163218,-2.2346556,-3.370176,-0.07819539,0.035694823,-0.2348341,28.75,30.0625,29.3125,32.75,35.3125,36.4375
0.23005198,-0.9279971,-1.8729923,-2.180207,-0.08240564,0.06763323,-0.13812892,-0.40131086,-0.36489525,0.06004377,-3.07909,0.6233852,0.00022989638,-0.10624183,0.032706514,0.0010375845,-0.0013259618,0.0020455641,-0.0010081416,0.4876309,-1.3680048,1.8871673,-2.0885775,-1.5708417,2.4616203,-0.15004386,0.12280576,-0.15591846,0.030666672,-4.2231466e-05,-0.14895925,-0.15322891,0.4405331,-9.557653,0.75755644,47.694946,-1.2381476,-2.3303237,-3.1777062,-0.079729535,0.045371644,-0.3551004,28.75,30.0625,29.3125,32.75,35.3125,36.4375
0.23205163,-1.0496495,-2.0560668,-2.1467955,-0.06733298,0.06506696,-0.13829647,-0.401521,-0.36483535,0.060036827,-3.079089,0.62338775,0.0002273248,-0.108579874,0.033475414,0.0013554359,-0.0017722467,0.002875556,-0.007681773,0.48734218,-1.36774,1.886856,-2.0885293,-1.5708417,2.4613335,-0.15334947,0.12462557,-0.15889154,0.030878123,-4.2444473e-05,-0.1455899,-0.11492168,0.5363012,-9.519346,0.78217715,47.698532,-0.93173254,-2.3175836,-3.2986374,-0.07591701,0.0417087,-0.3979119,28.75,30.0625,29.3125,32.75,35.3125,36.4375
0.23405255,-0.5722831,-2.058649,-2.1166813,-0.059583757,0.057470232,-0.1514601,-0.4017498,-0.36473405,0.06003408,-3.0790431,0.62347406,0.00023223269,-0.10931286,0.034435116,0.0007644942,-0.0012148189,0.0018188654,-0.01153502,0.48698223,-1.3674992,1.8865584,-2.0884573,-1.5708655,2.4610333,-0.15553004,0.12589008,-0.15912294,0.031036632,-4.184393e-05,-0.14391701,0.019153614,0.49799395,-9.442732,0.84484416,47.703903,-0.9573176,-2.3727527,-3.204804,-0.07320569,0.04093416,-0.48822197,28.75,30.0625,29.3125,32.75,35.3125,36.4375
0.23605242,-0.4003911,-1.9443326,-2.1154635,-0.062197704,0.043533817,-0.13241488,-0.40199974,-0.36467698,0.06007564,-3.079076,0.6235347,0.00034488307,-0.11099068,0.034564063,0.0014605403,-0.0020458752,0.0034048893,-0.008612023,0.48667035,-1.3672708,1.886175,-2.0883858,-1.5708774,2.4607553,-0.15715282,0.12664618,-0.16162005,0.030984841,-4.1209023e-05,-0.14846179,0.0,0.40222588,-9.442732,0.84484416,47.694054,-0.9774402,-2.259037,-3.189531,-0.058514703,0.04182764,-0.5014347,28.75,30.0625,29.3125,32.75,35.3125,36.4375
0.23805237,-0.8333541,-1.8760893,-1.8890107,-0.056555375,0.03300657,-0.13777927,-0.40218613,-0.36461502,0.06004538,-3.0790794,0.6235099,0.00022244238,-0.11246193,0.034606893,0.00095640187,-0.0019000075,0.0030993782,0.0005639448,0.4863705,-1.3669933,1.8858985,-2.0883257,-1.5708297,2.4604397,-0.1584648,0.12987208,-0.16432217,0.030805435,-4.058975e-05,-0.15894827,-0.076614454,0.38307226,-9.32781,0.76874626,47.701214,-0.9961637,-2.3992581,-3.1465442,-0.06009084,0.050146155,-0.4616691,28.75,30.0625,29.3125,32.75,35.3125,36.4375
0.24005239,-0.5438358,-1.0250627,-1.6841005,-0.049744774,0.049471453,-0.14885002,-0.40242848,-0.36455286,0.06006326,-3.0790865,0.62348205,0.00031242904,-0.11122485,0.03462898,0.00062215305,-0.0010171956,0.0014602168,0.013989177,0.4860719,-1.3667295,1.8855289,-2.0882652,-1.5708655,2.460123,-0.15730824,0.12935877,-0.1632807,0.03213179,-3.9988605e-05,-0.17121759,0.038307227,0.40222588,-9.251195,0.7732232,47.704796,-1.2128884,-2.3358617,-3.2617059,-0.06644919,0.03724359,-0.34483725,28.75,30.0625,29.3125,32.75,35.3125,36.4375
0.24205248,-0.5553022,-0.73794985,-1.6496713,-0.034571562,0.054635197,-0.1510352,-0.40266454,-0.36452278,0.06007525,3.0790727,-0.6233581,-0.00038634712,-0.1113699,0.03490077,-0.00065773993,0.0005179469,-0.0014131231,0.02307762,0.4857962,-1.3664519,1.8851699,-2.0882647,-1.5708417,2.4597719,-0.15780582,0.13269871,-0.16470337,0.033475384,-3.940497e-05,-0.18080273,0.0,0.38307226,-9.251195,0.85826975,47.699425,-1.1358984,-2.6522875,-3.197064,-0.05457799,0.03214187,-0.24605924,28.75,30.0625,29.3125,32.75,35.3125,36.4375
0.2440525,-0.75415,-0.71877444,-1.4442009,-0.022021284,0.060654297,-0.14393869,-0.40291646,-0.36443317,0.060099985,3.0790706,-0.62331575,-0.00046449446,-0.11207289,0.035716522,-0.0012740389,0.0013093615,-0.0028953406,0.02622553,0.48543614,-1.3662233,1.8848242,-2.0881927,-1.5708655,2.4593859,-0.15970515,0.13444723,-0.16561022,0.034309145,-3.883818e-05,-0.18584949,-0.05746084,0.2873042,-9.155427,0.8247004,47.698532,-1.0989374,-2.3293216,-3.253882,-0.052130714,0.04512196,-0.17380878,28.75,30.0625,29.3125,32.75,35.3125,36.4375
0.24605244,-0.30732623,-0.53271025,-1.2862946,-0.013707654,0.06787909,-0.14862071,-0.4031401,-0.3643661,0.060099084,3.0790963,-0.6232263,-0.00044870484,-0.11313626,0.0363793,-0.0006363332,0.0006018527,-0.0015665874,0.02110735,0.48512456,-1.3659471,1.884477,-2.0881093,-1.5708655,2.4590154,-0.16167541,0.1336354,-0.16606842,0.0340744,-3.828745e-05,-0.18270159,-0.019153614,0.22984336,-9.097966,0.7709874,47.69763,-1.0830119,-2.4731698,-3.3174372,-0.04171461,0.033245377,-0.18557775,28.75,30.0625,29.3125,32.75,35.3125,36.4375
0.24805234,0.30161563,0.36602515,-1.3067439,-0.0150645375,0.06164334,-0.15093607,-0.40337783,-0.36428717,0.060107373,3.0790758,-0.6233038,-0.00048625778,-0.1137543,0.037351552,-0.0016745015,0.002009349,-0.0042347964,0.011908208,0.48478806,-1.3656939,1.8841418,-2.0880487,-1.5708774,2.45873,-0.1637645,0.13629298,-0.16727488,0.03563901,-3.7752092e-05,-0.17559086,-0.076614454,0.0,-9.11712,0.80456203,47.762115,-1.0351079,-2.4147027,-3.3106432,-0.039862126,0.034359865,-0.22865193,28.75,30.0625,29.3125,32.75,35.3125,36.4375
0.2500524,0.09338413,-0.37474033,-1.1681792,0.014649297,0.045555197,-0.13842952,-0.40359175,-0.36420912,0.060078416,3.0791066,-0.62317616,-0.0004167041,-0.1147081,0.03819133,-0.0014279066,0.0022504076,-0.0047120745,0.0062354757,0.4844523,-1.3654054,1.8838543,-2.0880125,-1.5708536,2.4583108,-0.16593352,0.13669431,-0.16870779,0.03720999,-3.7231533e-05,-0.17208673,-0.095768064,-0.11492168,-9.021352,0.7777002,47.70659,-0.9535059,-2.4259226,-3.3605754,-0.06864351,0.037991595,-0.32197785,28.75,30.0625,29.3125,32.75,35.3125,36.4375
0.2520522,-0.53940374,0.67943984,-0.9486914,0.024234403,0.028116275,-0.14701387,-0.40382436,-0.36415517,0.060099214,3.0790453,-0.62320256,-0.00046146222,-0.115136184,0.03843045,-0.0014365845,0.00267567,-0.0055053225,0.003709183,0.48414066,-1.3651652,1.8835086,-2.0879638,-1.5708297,2.4580235,-0.16662201,0.13764857,-0.17018235,0.038634773,-3.672509e-05,-0.1702484,-0.21068975,-0.24899697,-8.868123,0.86498255,47.693153,-0.9620036,-2.3260427,-3.2689738,-0.05625038,0.04667861,-0.36242765,28.75,30.0625,29.3125,32.75,35.3125,36.4375
0.25405222,-0.37758687,1.2760102,-0.93541396,0.06024905,0.040018834,-0.15356228,-0.40404376,-0.36408088,0.060075503,3.079119,-0.6231199,-0.0003825932,-0.11491856,0.03954385,-0.0017992604,0.0042126374,-0.0084475,0.0025277664,0.4838287,-1.3648407,1.8831495,-2.087855,-1.5708417,2.457651,-0.16820964,0.13806126,-0.17066035,0.042017598,-3.623228e-05,-0.1706547,-0.24899697,-0.30645782,-8.944737,0.8493211,47.691364,-0.9518901,-2.402648,-3.344882,-0.072335705,0.039582457,-0.3837939,28.75,30.0625,29.3125,32.75,35.3125,36.4375
0.25605223,-0.07804889,1.7779157,-0.8710883,0.06463994,0.06882626,-0.16614366,-0.40429634,-0.364018,0.06009336,3.079047,-0.6231382,-0.00039045475,-0.11529058,0.039348915,-0.0024916856,0.0050797774,-0.010089521,0.0076048654,0.48346975,-1.3645753,1.8827776,-2.087795,-1.5707935,2.4573126,-0.16811058,0.14096463,-0.1728602,0.043179102,-3.6955604e-05,-0.17563161,-0.19153613,-0.3256114,-8.90643,0.83589023,47.668976,-1.2030338,-2.4579062,-3.2621567,-0.10618915,0.046354145,-0.36484072,28.75,30.0625,29.3125,32.75,35.3125,36.4375
0.2580525,-1.1413028,1.1307194,-0.96434426,0.06431028,0.066928744,-0.14743601,-0.4045264,-0.3639337,0.060082406,3.0791128,-0.62303007,-0.00039648573,-0.11648169,0.03830183,4.613159e-05,0.0027906913,-0.0057522063,0.01617226,0.48314694,-1.3642877,1.8824419,-2.0877225,-1.5708297,2.4569142,-0.16731839,0.13862903,-0.1759879,0.04373113,-3.6400226e-05,-0.18340614,-0.21068975,-0.3256114,-8.868123,0.90527004,47.686886,-1.174069,-2.2173257,-3.1808991,-0.10551839,0.03665379,-0.33183527,28.75,30.0625,29.3125,32.75,35.3125,36.4375
0.26005235,-1.091606,0.59647006,-1.1508086,0.0489221,0.07362389,-0.15535083,-0.40474224,-0.36386433,0.06008282,3.0791614,-0.62295604,-0.00036128826,-0.1167067,0.038740467,0.0004163778,0.0037008405,-0.007495754,0.026627844,0.48284692,-1.3640116,1.8820828,-2.0876014,-1.5708417,2.456562,-0.16816744,0.13909832,-0.17828327,0.047520768,-3.5690973e-05,-0.1947102,-0.24899697,-0.30645782,-9.078813,0.8717007,47.67614,-1.2336648,-2.215992,-3.2378225,-0.14435017,0.03691028,-0.19757053,28.75,30.0625,29.3125,32.75,35.3125,36.4375
0.26205236,-1.1418794,0.40218103,-1.4096758,0.014075207,0.07525221,-0.15376548,-0.4049653,-0.36376944,0.06007755,3.0791972,-0.622881,-0.00026092463,-0.11769229,0.03837557,0.0012506661,0.0037249394,-0.007578755,0.032745726,0.48247567,-1.3637468,1.8817476,-2.0874689,-1.5708174,2.4561396,-0.16833484,0.14037731,-0.18240675,0.05045432,-3.4997847e-05,-0.20099401,-0.45968673,-0.22984336,-9.232041,0.87617236,47.675243,-1.2205694,-2.189144,-3.1436746,-0.22096638,0.026714802,-0.11966184,28.75,30.0625,29.3125,32.75,35.3125,36.4375
0.2640522,-1.182839,-0.848653,-1.6174638,-0.0028738272,0.08980405,-0.14148724,-0.4051562,-0.36366937,0.060034078,-3.079159,0.62276006,3.7342914e-05,-0.11728143,0.04024598,-0.00059735094,0.005891546,-0.01179053,0.02903874,0.48213917,-1.363422,1.8814138,-2.0872767,-1.5708174,2.4557326,-0.171029,0.14198922,-0.18044733,0.051619463,-3.4330373e-05,-0.19998182,-0.5363012,-0.05746084,-9.423578,0.83589023,47.65464,-1.1464348,-2.1802626,-3.352295,-0.2634397,0.045027304,-0.055837594,28.75,30.0625,29.3125,32.75,35.3125,36.4375
0.26605216,-0.771574,-0.5093407,-1.9267269,-0.036859054,0.11455222,-0.16518992,-0.4053924,-0.36358887,0.060045213,-3.0791633,0.6227253,6.182034e-05,-0.11867683,0.041232143,-0.0005748484,0.0060223485,-0.012023296,0.020549756,0.48180336,-1.3631693,1.8810667,-2.0871928,-1.5708297,2.4553747,-0.17381033,0.14304356,-0.18195747,0.05234044,-4.6187117e-05,-0.19427355,-0.59376204,-0.019153614,-9.500193,0.80679786,47.667187,-1.1908017,-2.170768,-3.2613537,-0.3050829,0.03640253,-0.1222226,28.75,30.0625,29.3125,32.75,35.3125,36.4375
0.26805192,-1.4605818,-1.2307874,-2.2905645,-0.04511841,0.11125158,-0.15388285,-0.4056326,-0.36350846,0.06004307,-3.0791366,0.62274134,1.564693e-05,-0.11877584,0.040271487,-0.0007261366,0.005965529,-0.011941212,0.012638826,0.48145673,-1.3628683,1.8806838,-2.0870736,-1.5708297,2.4550416,-0.17218801,0.14484097,-0.183794,0.052281607,-4.9319802e-05,-0.18473941,-0.51714754,0.11492168,-9.710882,0.8940802,47.71823,-1.3228481,-2.224347,-3.2908342,-0.34217584,0.040257208,-0.23378733,28.75,30.0625,29.3125,32.75,35.3125,36.4375
0.2700518,-1.4604406,-1.7046893,-2.165386,-0.0620814,0.12824188,-0.1647126,-0.40587994,-0.36341518,0.060043287,-3.0791028,0.6227371,7.943109e-06,-0.119266026,0.040104613,-0.001331386,0.0059647225,-0.011969479,0.005958864,0.481097,-1.3625798,1.8803133,-2.0869663,-1.5708536,2.4546838,-0.17224076,0.14673895,-0.18445896,0.051069826,-4.8690083e-05,-0.17811166,-0.5554548,0.24899697,-9.844957,0.8806493,47.717335,-1.3834634,-2.1204388,-3.3199658,-0.36547178,0.027785782,-0.33171183,28.75,30.0625,29.3125,32.75,35.3125,36.4375
0.27205184,-2.1331851,-1.896072,-2.4184537,-0.07201692,0.11826507,-0.15558033,-0.40611577,-0.36332694,0.060021006,-3.0790412,0.62272686,-8.463215e-05,-0.1201766,0.04015606,-0.001215072,0.0053081694,-0.010763249,0.0005443,0.48074877,-1.362243,1.8799304,-2.0868351,-1.5708655,2.4543371,-0.17303148,0.14731656,-0.18518305,0.049841832,-4.7844253e-05,-0.17348747,-0.47884035,0.34476504,-9.80665,0.8605109,47.689575,-1.4300396,-2.3406,-3.3733377,-0.3723537,0.03755148,-0.43083227,28.75,30.0625,29.3125,32.75,35.3125,36.4375
0.27405187,-1.5379646,-1.9538436,-2.3942308,-0.07547655,0.12661393,-0.15261367,-0.40632054,-0.36324656,0.05998896,-3.079015,0.62272274,-0.00022699434,-0.1214354,0.040922675,-0.0025611995,0.0063294163,-0.012774346,-0.0016345009,0.48041198,-1.361941,1.879619,-2.0867388,-1.5708297,2.4540012,-0.17533664,0.15127988,-0.1869325,0.049889736,-4.7012243e-05,-0.17361265,-0.26815057,0.2873042,-9.902418,0.8112748,47.653748,-1.3247682,-2.3882198,-3.391748,-0.41516748,0.027644115,-0.48271924,28.75,30.0625,29.3125,32.75,35.3125,36.4375
0.27605253,-1.5956787,-2.1039805,-2.7388713,-0.07934365,0.09046184,-0.16014425,-0.4065939,-0.36316696,0.060030147,-3.0790265,0.6226606,-8.074271e-05,-0.123424366,0.041369192,-0.003042583,0.0049607446,-0.010158416,0.005985475,0.48007527,-1.3616884,1.8792013,-2.0866454,-1.5708898,2.4536245,-0.17772207,0.1528874,-0.18672052,0.04510613,-4.620778e-05,-0.18361765,-0.15322891,0.38307226,-9.959879,0.8784135,47.667187,-1.3361232,-2.429809,-3.4605641,-0.40664756,0.038684696,-0.4921006,28.75,30.0625,29.3125,32.75,35.3125,36.4375
0.27805242,-0.7355051,-2.150517,-2.511189,-0.0966244,0.079919994,-0.17346743,-0.40688655,-0.36307514,0.06006514,-3.0790882,0.6226866,-4.54646e-05,-0.12671454,0.04140347,-0.0023584983,0.0028484308,-0.0061225104,0.01620788,0.4796423,-1.3614235,1.8787826,-2.0865505,-1.5708536,2.4532,-0.18053837,0.15493032,-0.19001539,0.041808214,-4.5430294e-05,-0.1966547,-0.1340753,0.2681506,-9.940725,0.9254084,47.695843,-1.231823,-2.4824853,-3.5376878,-0.384375,0.041458607,-0.35815465,28.75,30.0625,29.3125,32.75,35.3125,36.4375
0.28005213,-1.0607505,-2.2690506,-2.536315,-0.079768,0.05846508,-0.1558201,-0.40712175,-0.36302033,0.06003945,-3.0791113,0.62259096,-0.00010000261,-0.12841561,0.042349253,-0.0031805334,0.0024586513,-0.0054072184,0.02323697,0.47932947,-1.3610747,1.8784117,-2.0865037,-1.5708297,2.4528248,-0.18351102,0.15695842,-0.18998532,0.038939606,-4.4678534e-05,-0.20665607,-0.21068975,0.2873042,-9.921572,0.8806493,47.651955,-1.3001207,-2.473654,-3.6058881,-0.35825062,0.045800734,-0.23068169,28.75,30.0625,29.3125,32.75,35.3125,36.4375
0.28205207,-0.76120734,-1.598258,-2.4118872,-0.06270993,0.06421781,-0.16087411,-0.40738216,-0.36293137,0.060017474,-3.0790753,0.6225033,-8.498459e-05,-0.12866516,0.041938294,-0.0036264486,0.0022811182,-0.0050935424,0.027780682,0.47898147,-1.3607256,1.8780292,-2.0864446,-1.5708774,2.452427,-0.18293063,0.15840064,-0.19045115,0.037592854,-4.3951215e-05,-0.21061903,-0.11492168,0.22984336,-10.01734,0.8851263,47.698532,-1.2622819,-2.6819675,-3.5667305,-0.3381173,0.03637488,-0.16651608,28.75,30.0625,29.3125,32.75,35.3125,36.4375
0.28405192,-1.1482846,-1.747056,-2.276344,-0.059494957,0.06572614,-0.14693409,-0.40762594,-0.36283183,0.060006496,-3.0790508,0.6224261,-0.00013232326,-0.1302761,0.042475995,-0.0035160885,0.0016550942,-0.0039247316,0.021351585,0.47860888,-1.3604262,1.8776702,-2.0863369,-1.5708898,2.4520094,-0.1851325,0.1594707,-0.1917914,0.036535498,-4.3247273e-05,-0.20639119,-0.17238252,0.19153613,-9.825804,0.8672237,47.67614,-1.1641331,-2.4389334,-3.6411967,-0.3273492,0.035964757,-0.17834878,28.75,30.0625,29.3125,32.75,35.3125,36.4375
0.28605178,-0.6207602,-1.2190942,-1.8739926,-0.056280375,0.08130795,-0.15937877,-0.40791056,-0.36275697,0.06001287,-3.0791185,0.6224243,-9.635238e-05,-0.13213718,0.04225286,-0.0025577096,-0.00021259245,-0.00031783077,0.013688138,0.4782124,-1.3601142,1.8772758,-2.086314,-1.5708536,2.4516034,-0.18625501,0.15947956,-0.19348872,0.0341707,-4.2565436e-05,-0.19984959,-0.22984336,0.21068975,-9.557653,0.91198283,47.66091,-1.1905997,-2.4991736,-3.6954472,-0.3020658,0.043015674,-0.26276496,28.75,30.0625,29.3125,32.75,35.3125,36.4375
0.288052,-0.8523143,-1.0873567,-1.8176485,-0.025570547,0.07351546,-0.1646155,-0.40820435,-0.36268452,0.06006858,-3.079216,0.6223696,3.72696e-05,-0.13502628,0.042484976,-0.0023875963,-0.0014087441,0.002016042,0.00681574,0.4778271,-1.3598737,1.8768443,-2.0862424,-1.5708417,2.4511719,-0.18903352,0.16231485,-0.19683824,0.032065477,-4.1904794e-05,-0.195754,-0.2681506,0.17238252,-9.500193,0.8605109,47.716442,-1.0784471,-2.5533385,-3.555747,-0.26118404,0.032513358,-0.3293158,28.75,30.0625,29.3125,32.75,35.3125,36.4375
0.290052,-0.6590503,-0.55542827,-1.5201607,-0.016566083,0.081427425,-0.15781157,-0.40849152,-0.362609,0.060053002,-3.0792336,0.6224513,7.040176e-05,-0.13777307,0.042191893,-0.00027105177,-0.003852892,0.006733882,0.004054163,0.4774427,-1.3595144,1.876448,-2.086243,-1.5708297,2.4508364,-0.19080387,0.1617595,-0.20086369,0.031335607,-4.1264357e-05,-0.1947615,-0.2681506,0.05746084,-9.423578,0.9030289,47.687782,-0.9381651,-2.4527884,-3.3713658,-0.21777582,0.04329438,-0.37086052,28.75,30.0625,29.3125,32.75,35.3125,36.4375
0.29203174,-1.2450746,-0.55932236,-1.5173148,0.011873601,0.06190609,-0.15386006,-0.40876636,-0.36252555,0.060059976,-3.079251,0.6223958,0.000110201014,-0.13936417,0.042259194,0.00065680203,-0.004866563,0.008698155,0.0041869413,0.47707066,-1.3592023,1.8760408,-2.0861714,-1.5708417,2.4504278,-0.1921741,0.16199794,-0.20329806,0.03131891,-4.0643194e-05,-0.19626372,-0.19153614,0.019153614,-9.442732,0.8784135,47.690468,-1.1811934,-2.398599,-3.3280783,-0.19923285,0.038025137,-0.40948528,28.75,30.0625,29.3125,32.75,35.3125,36.4375
0.29400685,-1.030439,0.33829123,-1.4928741,0.013914663,0.061901726,-0.16210312,-0.40901875,-0.3624406,0.060040884,-3.0792727,0.62235636,4.390444e-05,-0.14052823,0.04225531,0.0010582427,-0.005421859,0.009759874,0.012484951,0.47668636,-1.3588784,1.8756813,-2.0861113,-1.5708054,2.4500163,-0.19305702,0.1628555,-0.20527224,0.031244172,-4.004048e-05,-0.2054439,-0.21068975,0.0,-9.32781,0.83365434,47.642998,-1.1411276,-2.3562548,-3.3005247,-0.17895922,0.04513397,-0.35033917,28.75,30.0625,29.3125,32.75,35.3125,36.4375
0.29605258,-1.1117555,0.43994632,-1.5117064,0.01392447,0.073556975,-0.16550231,-0.40932745,-0.3623717,0.060082242,-3.079333,0.6223224,0.00014457716,-0.14087494,0.041892294,0.0010088742,-0.005241738,0.00945255,0.025013926,0.4763025,-1.3585664,1.8751906,-2.0860155,-1.5708054,2.4496038,-0.19260614,0.16434279,-0.20716475,0.03200466,-3.9455346e-05,-0.21752125,-0.40222588,-0.095768064,-9.404425,0.87617236,47.682407,-1.2217939,-2.1958313,-3.238844,-0.1531944,0.036158368,-0.20043725,28.75,30.0625,29.3125,32.75,35.3125,36.4375
0.2980517,-0.9117829,0.16184536,-1.4682775,0.003375336,0.095900625,-0.17098947,-0.40961444,-0.36226428,0.060063366,-3.0793324,0.62218344,0.00017859196,-0.14021462,0.040969066,0.001817807,-0.0055026417,0.0099698575,0.03337236,0.47589538,-1.358219,1.8748072,-2.0859787,-1.5708417,2.4491103,-0.19035153,0.16339529,-0.2082379,0.03343779,-3.8887087e-05,-0.22362506,-0.4213795,-0.019153614,-9.346964,0.84708,47.713753,-1.339526,-2.2872643,-3.3254957,-0.13845912,0.042702306,-0.119201474,28.75,30.0625,29.3125,32.75,35.3125,36.4375
0.3000525,-1.3553095,-0.4269997,-1.4152563,-0.0016349858,0.1182694,-0.16147768,-0.40985346,-0.36218196,0.060057137,-3.0793505,0.62207323,0.00010826587,-0.13942893,0.040928625,0.0013874135,-0.004305936,0.0076444093,0.031890012,0.4755352,-1.3579189,1.8744358,-2.08587,-1.5708174,2.4486792,-0.18948649,0.16427714,-0.20891382,0.03585301,-3.8369875e-05,-0.22127753,-0.49799395,0.0,-9.308657,0.83589023,47.690468,-1.4434257,-2.3144093,-3.3569207,-0.14064087,0.04004775,-0.07750173,28.75,30.0625,29.3125,32.75,35.3125,36.4375
0.30205235,-1.5877422,-0.34551233,-1.5139352,-0.010914374,0.11464864,-0.15914929,-0.41015366,-0.36207885,0.06007735,-3.079341,0.6219986,0.00020980233,-0.14066269,0.041450266,0.0019602021,-0.00458125,0.008042728,0.021316813,0.47513896,-1.3576069,1.8739928,-2.0857742,-1.5708774,2.448238,-0.19133425,0.16468844,-0.21102773,0.037063353,3.3130564e-05,-0.21255156,-0.61291564,0.019153614,-9.423578,0.85826975,47.709274,-1.5508062,-2.148828,-3.2609146,-0.13728498,0.032834936,-0.15139776,28.75,30.0625,29.3125,32.75,35.3125,36.4375
0.3040518,-0.7970004,-0.48775545,-1.5606171,-0.024137111,0.11651726,-0.15630402,-0.4104467,-0.36200675,0.060082283,-3.079404,0.6219399,0.00021686913,-0.14135675,0.042150512,0.001883676,-0.0042446987,0.0074034026,0.010937889,0.4747426,-1.3572592,1.8735493,-2.0857136,-1.5708417,2.447797,-0.19296698,0.16543575,-0.21202818,0.038047705,3.6350648e-05,-0.20380509,-0.4405331,-0.038307227,-9.385271,0.8784135,47.682407,-1.5655551,-2.1189373,-3.2578435,-0.115102306,0.031622477,-0.28172562,28.75,30.0625,29.3125,32.75,35.3125,36.4375
0.30605248,-0.41399962,-0.85858864,-1.5431963,-0.028068783,0.096866526,-0.15329863,-0.4107211,-0.36193472,0.060084976,3.079406,-0.6219064,-0.00020419098,-0.14212285,0.043252107,0.0013372242,-0.0035091748,0.006041233,0.0010218098,0.4743697,-1.3569227,1.8731192,-2.0856297,-1.5708174,2.4474032,-0.1953233,0.16676071,-0.21261993,0.038868103,9.164739e-06,-0.19624504,-0.4213795,-0.038307227,-9.423578,0.8537928,47.699425,-1.4951855,-2.066844,-3.2402139,-0.12061609,0.03520503,-0.39741206,28.75,30.0625,29.3125,32.75,35.3125,36.4375
0.30805194,-0.41008282,-0.8295816,-1.7502294,-0.018892962,0.065263584,-0.15567015,-0.41099867,-0.36185127,0.06007794,3.079419,-0.621889,-0.00021564186,-0.14314246,0.04317647,0.0009153529,-0.0032124529,0.005476613,-0.0013222957,0.47399762,-1.3565737,1.8726987,-2.0855582,-1.5708297,2.4470189,-0.19594072,0.16954815,-0.21516183,0.039258387,5.98392e-07,-0.19451715,-0.30645782,0.0,-9.461885,0.8247004,47.709274,-1.4567562,-2.2581217,-3.3421657,-0.1149908,0.036706027,-0.47961926,28.75,30.0625,29.3125,32.75,35.3125,36.4375
0.3100518,-0.14624567,-0.2793104,-1.8086115,-0.017135348,0.05338152,-0.16684812,-0.41130337,-0.36175457,0.060099956,3.0793417,-0.6219656,-0.0003017062,-0.1433368,0.04427478,-0.0011397951,-0.0012388853,0.0016726863,0.0043786843,0.47356513,-1.3562847,1.8722924,-2.0855215,-1.5708174,2.446644,-0.19779785,0.17335397,-0.21525943,0.039837755,3.907072e-08,-0.20207477,-0.17238252,-0.019153614,-9.500193,0.86945957,47.672558,-1.3732464,-2.242481,-3.46308,-0.10386859,0.04495323,-0.4827348,28.75,30.0625,29.3125,32.75,35.3125,36.4375
0.3120517,-0.35232976,-0.60621744,-2.000973,-1.1125833e-05,0.04467232,-0.15806916,-0.41159946,-0.36166108,0.060099743,3.0793688,-0.62192565,-0.00032414787,-0.14538038,0.04501906,-0.0003937014,-0.0018747705,0.00291233,0.015715478,0.47316813,-1.3559251,1.871838,-2.085426,-1.5708417,2.446219,-0.20066135,0.17406788,-0.21801412,0.040479384,2.551039e-09,-0.21627414,-0.05746084,0.095768064,-9.557653,0.87617236,47.68062,-1.3205141,-2.273837,-3.419302,-0.07323401,0.042444535,-0.3688857,28.75,30.0625,29.3125,32.75,35.3125,36.4375
0.31405166,-0.22289093,-0.88436717,-1.7387946,-0.0062608905,0.053068694,-0.15869597,-0.41189674,-0.36158103,0.060104743,3.079353,-0.621841,-0.0003557378,-0.1468735,0.0467942,-0.0010906834,-0.000945252,0.0011215328,0.024057908,0.47277078,-1.3555771,1.8713936,-2.0853655,-1.5708297,2.445771,-0.20476905,0.17608133,-0.21918055,0.041651916,1.6656462e-10,-0.22872373,0.019153614,0.15322891,-9.404425,0.90750587,47.640312,-1.2316358,-2.3258343,-3.4486809,-0.069820285,0.046543997,-0.21929163,28.75,30.0625,29.3125,32.75,35.3125,36.4375
0.3160525,-1.33113,-1.0906332,-1.9380445,-0.013742796,0.034455836,-0.14721736,-0.41219884,-0.36146477,0.060104426,3.079426,-0.6217395,-0.00034302703,-0.1479561,0.047573287,-0.0016511468,-0.0002711123,-0.00021844872,0.024794668,0.47233808,-1.3552164,1.8709267,-2.085221,-1.5708655,2.445266,-0.20685428,0.17841408,-0.22100143,0.04263182,1.087548e-11,-0.23154491,-0.05746084,0.17238252,-9.442732,0.9321212,47.664497,-1.1746509,-2.2921546,-3.3958735,-0.05538878,0.035940193,-0.1530335,28.75,30.0625,29.3125,32.75,35.3125,36.4375
0.3180525,-0.40794381,-1.1610875,-1.7592639,-0.034061864,0.07106979,-0.16289483,-0.41249454,-0.36138815,0.060108714,3.0793846,-0.6216593,-0.00039261027,-0.14958744,0.048242565,-0.0010089102,-0.0005114973,0.00027361806,0.01602938,0.4719412,-1.3548806,1.8705066,-2.0851967,-1.5708417,2.4448245,-0.20922454,0.17917718,-0.22376259,0.044088732,7.100911e-13,-0.22514899,-0.17238252,0.19153613,-9.500193,0.87617236,47.679718,-1.064632,-2.3718133,-3.3276176,-0.06628033,0.033850428,-0.2001119,28.75,30.0625,29.3125,32.75,35.3125,36.4375
0.3200524,-0.8124533,-1.2333548,-1.4081328,-0.062010992,0.07482157,-0.16348511,-0.41277826,-0.36130077,0.060123853,3.0793896,-0.62158877,-0.0003790345,-0.15083897,0.04971071,-0.0018202966,0.0005563896,-0.0018246828,0.0051000947,0.47154412,-1.3545563,1.8700513,-2.0850646,-1.5708297,2.444383,-0.21260843,0.1815808,-0.22518574,0.045466222,4.6363876e-14,-0.21760291,-0.22984336,0.21068975,-9.308656,0.9030289,47.65912,-1.0086536,-2.2007878,-3.3827717,-0.058429234,0.03094567,-0.28104693,28.75,30.0625,29.3125,32.75,35.3125,36.4375
0.32205242,-0.6073103,-1.3950777,-1.5977663,-0.04153326,0.08871394,-0.1688968,-0.4130736,-0.36117792,0.06009182,3.079433,-0.6216187,-0.00034157257,-0.15173803,0.049904678,-0.00042342994,-0.00079689536,0.0008006495,0.000149105,0.47109985,-1.3541731,1.8696455,-2.0849931,-1.5708536,2.443952,-0.21354952,0.17953527,-0.22590709,0.045275047,3.0272297e-15,-0.21359323,-0.3256114,0.15322891,-9.308656,0.8717007,47.672558,-1.0410559,-2.3604314,-3.397134,-0.057521194,0.02621443,-0.3603218,28.75,30.0625,29.3125,32.75,35.3125,36.4375
0.32405245,-1.323794,-1.4519836,-1.5637263,-0.016535556,0.07799743,-0.15477933,-0.41337633,-0.36110306,0.060117777,3.079391,-0.621569,-0.00034934707,-0.15162812,0.047914345,-2.863237e-05,-0.0013356995,0.0018635162,0.0038876834,0.47069317,-1.3538369,1.8691539,-2.0848734,-1.5708174,2.4435198,-0.20997111,0.18121219,-0.22891256,0.045420006,1.9765646e-16,-0.21375223,-0.47884035,0.30645782,-9.289502,0.9410752,47.652847,-1.1647379,-2.1681585,-3.4104981,-0.053776532,0.048957445,-0.39328086,28.75,30.0625,29.3125,32.75,35.3125,36.4375
0.3260524,-1.2133688,-0.7396844,-1.3180956,-0.02039104,0.110372126,-0.16883549,-0.41366687,-0.36099207,0.060087167,3.0794404,-0.62153286,-0.0003272892,-0.15136304,0.047417574,-0.00021130563,-0.0009777625,0.0011470933,0.014478632,0.4702737,-1.3534526,1.8687457,-2.0848129,-1.5708417,2.4430718,-0.20876575,0.18229581,-0.23006772,0.046286676,1.2905555e-17,-0.22313742,-0.49799395,0.28730422,-9.232041,0.8985519,47.684196,-1.3195996,-2.2431483,-3.5071785,-0.035770617,0.029257106,-0.35398012,28.75,30.0625,29.3125,32.75,35.3125,36.4375
0.3280524,-1.9792681,-1.0808527,-1.3070911,-0.0049376762,0.10426608,-0.1521987,-0.41399267,-0.3609035,0.060097564,3.0793936,-0.6214587,-0.00032343544,-0.15212496,0.04690101,0.0004014964,-0.0012443904,0.0016898738,0.027018126,0.4698178,-1.3530807,1.8682541,-2.084729,-1.5707935,2.4425757,-0.20838271,0.18336374,-0.23312323,0.04768024,8.426405e-19,-0.23529287,-0.30645782,0.19153613,-9.251195,0.88960326,47.707485,-1.5054052,-2.1496782,-3.3538103,-0.033133086,0.030658588,-0.2286322,28.75,30.0625,29.3125,32.75,35.3125,36.4375
0.330052,-0.8999285,-0.3694928,-1.3079383,-0.008735554,0.10843532,-0.16502503,-0.414319,-0.36080843,0.06012432,3.0794215,-0.62132645,-0.00044125738,-0.15285581,0.046708133,0.0009538618,-0.0013433641,0.0019159028,0.03232286,0.46940953,-1.3527329,1.8677515,-2.0846322,-1.5708417,2.4420817,-0.20852129,0.1841806,-0.23577565,0.049257997,5.5018406e-20,-0.24073535,-0.28730422,0.11492168,-9.174581,0.7777002,47.688675,-1.4031113,-2.0945292,-3.308723,-0.035409275,0.05231175,-0.12175721,28.75,30.0625,29.3125,32.75,35.3125,36.4375
0.33205217,-1.3467529,-1.0597391,-1.5677711,0.003224607,0.061653167,-0.13768898,-0.4146186,-0.36071965,0.06012057,3.0794559,-0.62123895,-0.00043731093,-0.15381011,0.04783175,0.001455375,-0.001260382,0.001749932,0.027758786,0.46901286,-1.3523494,1.8672723,-2.0845244,-1.5708536,2.4416263,-0.2110578,0.18376236,-0.23685081,0.050934613,3.592309e-21,-0.2387077,-0.38307226,0.095768064,-9.174581,0.8851263,47.72092,-1.3542933,-2.197017,-3.2429652,-0.03951431,0.032033477,-0.09213204,28.75,30.0625,29.3125,32.75,35.3125,36.4375
0.3340525,0.2117597,-0.7816496,-1.3032948,-0.008606052,0.062873304,-0.15111424,-0.41493607,-0.3606114,0.06011292,3.079476,-0.6211914,-0.00044473473,-0.1536746,0.048662074,-9.698292e-05,0.00084984535,-0.0024167008,0.017187137,0.46856874,-1.3519646,1.8668054,-2.0844395,-1.5708655,2.4411502,-0.21216667,0.18703063,-0.23790063,0.0533852,2.345521e-22,-0.2292443,-0.49799395,0.038307227,-9.174581,0.9097417,47.683304,-1.4931092,-2.1641974,-3.331411,-0.064394765,0.03479407,-0.18290386,28.75,30.0625,29.3125,32.75,35.3125,36.4375
0.33605263,-0.600206,-0.38325486,-1.436193,-0.012778473,0.036710396,-0.15225138,-0.41524205,-0.3605341,0.060112823,3.079481,-0.62112176,-0.00043085142,-0.15428632,0.049740598,-0.0008426801,0.002021738,-0.0047396384,0.004925619,0.46817195,-1.3515681,1.8663019,-2.0843313,-1.5708536,2.4407096,-0.21433043,0.18900888,-0.23907731,0.055189446,1.5314575e-23,-0.21914607,-0.36391866,0.095768064,-9.136273,0.85155696,47.686886,-1.4531134,-2.1656296,-3.2906795,-0.07621059,0.028861541,-0.31106853,28.75,30.0625,29.3125,32.75,35.3125,36.4375
0.33805177,-0.8910921,-0.5140107,-1.5287151,0.004101594,0.034534506,-0.1438377,-0.41555312,-0.36041638,0.0601123,3.0794613,-0.62117916,-0.00041458916,-0.1547404,0.05034146,-0.0016951149,0.003216768,-0.0071158614,-0.003183377,0.4677036,-1.3512197,1.8658599,-2.0842345,-1.5708417,2.4402797,-0.21555533,0.19160028,-0.24072832,0.056912333,9.999324e-25,-0.2122612,-0.2681506,-0.2873042,-9.11712,0.9298854,47.71286,-1.4737592,-2.1946688,-3.2630935,-0.10094541,0.02270778,-0.4359538,28.75,30.0625,29.3125,32.75,35.3125,36.4375
0.34005183,-0.54836684,-0.08349258,-1.4420912,0.010397253,0.048953414,-0.15696923,-0.41584602,-0.36032036,0.060092967,3.0795057,-0.6211491,-0.0003382297,-0.15477395,0.05153146,-0.0017957753,0.004661909,-0.010000973,-0.004971182,0.4672945,-1.3508117,1.8653802,-2.0841014,-1.5708417,2.4398465,-0.2174175,0.19203435,-0.24202059,0.060997628,6.5288433e-26,-0.21233538,-0.13407528,-0.15322891,-9.136273,0.8851263,47.682407,-1.2952086,-2.1837502,-3.3719296,-0.13687229,0.028697383,-0.5354524,28.75,30.0625,29.3125,32.75,35.3125,36.4375
0.34205183,-0.89143384,0.017716428,-1.2989042,0.016990809,0.056455106,-0.15994608,-0.416172,-0.36021242,0.060118567,3.0794694,-0.62121356,-0.0003818556,-0.15689504,0.052732673,-0.0012842163,0.004689632,-0.010050087,0.002148135,0.46683776,-1.3504757,1.8648885,-2.0839818,-1.5708417,2.4394348,-0.22104868,0.19340077,-0.24534672,0.063013144,4.2628687e-27,-0.22308475,-0.11492168,-0.038307227,-9.097966,0.90750587,47.71554,-1.1586449,-2.1288934,-3.282159,-0.20271137,0.042326912,-0.4756691,28.75,30.0625,29.3125,32.75,35.3125,36.4375
0.344053,-0.945674,-0.19773808,-1.3452839,0.019989412,0.06641281,-0.16387315,-0.41648299,-0.36011073,0.06010518,3.0795002,-0.6210972,-0.00036598434,-0.15827133,0.0544975,-0.0010109104,0.00443177,-0.009546393,0.0123426085,0.46640453,-1.3500805,1.8644217,-2.0838978,-1.5708417,2.4389253,-0.2249929,0.19263291,-0.24509569,0.06296333,2.7833484e-28,-0.2372238,-0.11492168,-0.038307227,-9.078813,0.91198283,47.690468,-1.1605414,-2.0223503,-3.3681245,-0.20320897,0.033601865,-0.3530049,28.75,30.0625,29.3125,32.75,35.3125,36.4375
0.34605196,-0.9067753,0.16663338,-1.4682997,-0.0030534724,0.07065931,-0.15786117,-0.41677326,-0.36000028,0.060056794,3.079578,-0.6210334,-0.00017532517,-0.1588319,0.055705566,-0.0020243432,0.005992458,-0.012723899,0.018957827,0.4659597,-1.349624,1.8639435,-2.0837414,-1.5708174,2.438431,-0.22732508,0.19521657,-0.24655518,0.065384716,1.8173275e-29,-0.24617057,-0.13407528,-0.076614454,-9.251195,0.8560339,47.71286,-0.9751699,-2.106151,-3.4821608,-0.22140874,0.036022156,-0.22309247,28.75,30.0625,29.3125,32.75,35.3125,36.4375
0.34805214,-1.0814418,-0.47429723,-1.7072741,-0.0036989604,0.046371385,-0.1426218,-0.4171204,-0.35987395,0.060078543,3.079575,-0.6210546,-0.00017035939,-0.15840556,0.056796145,-0.003281812,0.008572749,-0.017863179,0.01442761,0.46545544,-1.349251,1.8634042,-2.0835717,-1.5708174,2.4379406,-0.22859906,0.19792253,-0.24807978,0.06995457,1.1865851e-30,-0.2429137,-0.17238252,-0.095768064,-9.270349,0.84484416,47.72719,-1.0684974,-2.1855607,-3.5218134,-0.309155,0.035017848,-0.23690489,28.75,30.0625,29.3125,32.75,35.3125,36.4375
0.35005215,-0.8633538,-0.64890385,-1.5448698,-0.018771429,0.05966563,-0.1475666,-0.4174116,-0.3597914,0.06005285,-3.0795972,0.6209468,9.722662e-05,-0.16048335,0.055222273,-0.002077348,0.006125961,-0.013070139,0.008203656,0.4650718,-1.3488193,1.8629125,-2.0834534,-1.5708174,2.4374871,-0.22756709,0.19923876,-0.251813,0.06699092,7.747553e-32,-0.23565637,-0.5746084,0.019153614,-9.308657,0.88960326,47.705692,-1.18841,-2.2509255,-3.3654768,-0.3148153,0.041313644,-0.32051164,28.75,30.0625,29.3125,32.75,35.3125,36.4375
0.35205227,-1.4535114,-0.40117997,-1.6826165,-0.018837295,0.06793442,-0.14345269,-0.41773638,-0.35967812,0.060074665,-3.0795991,0.62092996,0.00012386171,-0.16126285,0.05391882,-0.0018187967,0.005371675,-0.011592526,0.00473134,0.46461645,-1.3484712,1.862409,-2.0833104,-1.5708297,2.4370213,-0.22587217,0.20130791,-0.25480032,0.066247895,5.0585985e-33,-0.23048791,-0.49799395,-0.038307227,-9.2703495,0.86945957,47.681515,-1.3051231,-2.262063,-3.3265822,-0.3248826,0.04524481,-0.41646516,28.75,30.0625,29.3125,32.75,35.3125,36.4375
0.3540526,-0.725595,-0.45420676,-2.1109836,-0.0002877891,0.082611986,-0.16220145,-0.41804639,-0.3595481,0.060046516,-3.0795164,0.6209317,5.128352e-05,-0.16191886,0.05425168,-0.0025349103,0.0054955585,-0.011905184,0.005380636,0.46416003,-1.3480507,1.8619307,-2.0831664,-1.5708655,2.4365766,-0.22681157,0.20312706,-0.2552169,0.0651723,3.302903e-34,-0.23207632,-0.17238252,0.05746084,-9.519346,0.9925471,47.66808,-1.2922394,-2.3443346,-3.421165,-0.35259175,0.031294446,-0.43879122,28.75,30.0625,29.3125,32.75,35.3125,36.4375
0.35605258,-1.512073,-1.3025163,-1.7444404,-0.028002227,0.0744081,-0.15115707,-0.41837806,-0.35943347,0.060038716,-3.0795093,0.6209637,-4.3680386e-05,-0.16352358,0.05382781,-0.002783863,0.004642843,-0.010264042,0.013933528,0.4636681,-1.3476304,1.8614038,-2.0830119,-1.5708297,2.4361057,-0.22726658,0.2058174,-0.25748008,0.06290403,2.1565599e-35,-0.24108313,-0.17238252,0.019153614,-9.442732,0.9186956,47.67166,-1.3516973,-2.3992486,-3.3629909,-0.344221,0.033135872,-0.39487207,28.75,30.0625,29.3125,32.75,35.3125,36.4375
0.35805243,-1.4771571,-1.6659341,-1.7008376,-0.03911392,0.07772625,-0.14830759,-0.41869706,-0.3593521,0.060026627,-3.07954,0.62076974,-3.207872e-05,-0.16652945,0.053367138,-0.0019370078,0.0022938743,-0.005609693,0.026289873,0.46327156,-1.3471978,1.8608879,-2.0829294,-1.5708417,2.4355845,-0.2288463,0.20762253,-0.26084486,0.059246704,1.4080795e-36,-0.25501785,-0.40222588,0.15322891,-9.32781,0.8717007,47.703903,-1.3432391,-2.4161081,-3.3137426,-0.3215828,0.049369305,-0.2470446,28.75,30.0625,29.3125,32.75,35.3125,36.4375
0.36005235,-1.731365,-1.4590988,-2.3157163,-0.04761742,0.079255596,-0.14543803,-0.41901943,-0.3592177,0.0600136,-3.0794904,0.6206999,-9.923453e-05,-0.16796689,0.053089526,-0.00080574973,0.0008492503,-0.0027792922,0.032715686,0.4627913,-1.3467903,1.8603853,-2.082762,-1.5708655,2.4350672,-0.2294049,0.20739584,-0.26303816,0.058482718,9.1937533e-38,-0.26200172,-0.30645782,0.2681506,-9.442732,0.83589023,47.704796,-1.3584741,-2.3759742,-3.3157046,-0.31510577,0.043071143,-0.14356533,28.75,30.0625,29.3125,32.75,35.3125,36.4375
0.36205232,-1.2587316,-1.616276,-2.1683946,-0.0735381,0.10113546,-0.15763696,-0.41933343,-0.3591109,0.059993494,-3.0795026,0.62058914,-0.00018252156,-0.1679569,0.05301328,-0.0011961062,0.00039174658,-0.0018971817,0.029470492,0.46233556,-1.3463706,1.8598946,-2.0826433,-1.5708417,2.434541,-0.22908802,0.20753846,-0.261893,0.056208305,6.002864e-39,-0.25844014,-0.24899697,0.45968673,-9.576807,0.8537928,47.694054,-1.4342661,-2.2814748,-3.46228,-0.31816548,0.040509857,-0.12611854,28.75,30.0625,29.3125,32.75,35.3125,36.4375
0.36405233,-1.3604106,-2.0310056,-2.0914168,-0.09875037,0.09751274,-0.1526306,-0.41968572,-0.35899484,0.060001627,-3.0794973,0.6206148,-0.00015454205,-0.17086482,0.053484477,-0.00039619,-0.0019699498,0.002828593,0.015997538,0.4618544,-1.3459631,1.8593549,-2.082525,-1.5708536,2.4340768,-0.23210481,0.20790274,-0.26325706,0.05192327,3.91945e-40,-0.24798352,-0.40222588,0.51714754,-9.500193,0.95002913,47.661808,-1.3946148,-2.4089043,-3.5827863,-0.27215323,0.04606013,-0.23317802,28.75,30.0625,29.3125,32.75,35.3125,36.4375
0.3660524,-1.3561256,-2.1534472,-2.2657766,-0.102833204,0.09433614,-0.15020752,-0.42001495,-0.3588857,0.059998423,-3.0794816,0.6205806,-0.00020160366,-0.17297758,0.05526357,-0.0007571489,-0.002361464,0.0035937945,0.0010150603,0.46139717,-1.345543,1.858817,-2.08237,-1.5708536,2.4336004,-0.23664568,0.20899329,-0.2634455,0.050162964,2.559e-41,-0.23754182,-0.4213795,0.47884035,-9.576807,0.8873621,47.64658,-1.3223584,-2.3210742,-3.6434188,-0.2220123,0.03801097,-0.3735959,28.75,30.0625,29.3125,32.75,35.3125,36.4375
0.36805257,-1.1080413,-1.3250221,-2.229736,-0.10576956,0.09722836,-0.15578495,-0.42038015,-0.3587772,0.059986953,-3.0794873,0.6206054,-0.00021387986,-0.17454506,0.056139328,-0.00032714647,-0.0026030422,0.004082051,-0.0072355587,0.46090415,-1.345075,1.8582529,-2.0822742,-1.5708417,2.4331224,-0.2391994,0.20970698,-0.26557383,0.05103657,1.67e-42,-0.23184435,-0.49799395,0.34476504,-9.672575,0.9835985,47.701214,-1.1860836,-2.178829,-3.6153293,-0.21983519,0.02793432,-0.4958893,28.75,30.0625,29.3125,32.75,35.3125,36.4375
0.37005264,-1.2247555,-1.404559,-2.2055273,-0.071293965,0.09245899,-0.16211577,-0.42072734,-0.3586472,0.059969883,-3.0794687,0.62067395,-0.00016523746,-0.17508817,0.05557537,-0.0005358699,-0.0030733913,0.0050307633,-0.00053390826,0.46041244,-1.3446668,1.8577875,-2.0822384,-1.5708655,2.432676,-0.23850821,0.21123764,-0.26671097,0.049578525,1.1e-43,-0.23785435,-0.34476504,0.30645782,-9.710882,0.94331104,47.66271,-1.1116167,-2.2774048,-3.5545814,-0.19518957,0.045210846,-0.48795816,28.75,30.0625,29.3125,32.75,35.3125,36.4375
0.37205267,-1.3686948,-0.8841602,-2.3463774,-0.041445374,0.0881643,-0.15303864,-0.42108962,-0.35857323,0.059986316,-3.0795577,0.6204719,-0.00010290195,-0.1771451,0.054683115,-0.0015131551,-0.0038716334,0.006639694,0.015509027,0.45998037,-1.3442218,1.8571881,-2.0821445,-1.5708536,2.432107,-0.238523,0.21626246,-0.26986188,0.04591059,7e-45,-0.25391036,-0.40222588,0.30645782,-9.576807,0.9186956,47.694054,-1.1734374,-2.2783892,-3.6004004,-0.15346453,0.028183453,-0.3601148,28.75,30.0625,29.3125,32.75,35.3125,36.4375
0.37405246,-1.2779281,-0.3631707,-2.1771195,-0.017796757,0.105671786,-0.16098364,-0.4214383,-0.35847187,0.059982758,-3.0796013,0.620437,-0.00012571207,-0.17892955,0.05530288,-0.0006975381,-0.0044673136,0.007845335,0.02486862,0.45949963,-1.34379,1.8566493,-2.0820482,-1.5708174,2.4315991,-0.24082713,0.2167869,-0.27263996,0.046828665,0.0,-0.26557332,-0.4213795,0.2681506,-9.461885,0.91421866,47.688675,-1.1413429,-2.227235,-3.5856876,-0.10698129,0.03839142,-0.23894438,28.75,30.0625,29.3125,32.75,35.3125,36.4375
