Tylouw/Master_Thesis_Code/training_data/batch_1/rect_rod_t0.2/sample_77_session_3.csv
timestamp[s],tcp_force_x[N],tcp_force_y[N],tcp_force_z[N],tcp_force_rx[Nm?],tcp_force_ry[Nm?],tcp_force_rz[Nm?],tcp_pose_x[m],tcp_pose_y[m],tcp_pose_z[m],tcp_pose_rx[rot_vec_x],tcp_pose_ry[rot_vec_y],tcp_pose_rz[rot_vec_z],tcp_velo_x[m/s],tcp_velo_y[m/s],tcp_velo_z[m/s],tcp_velo_rx[rot_vec_x/s],tcp_velo_ry[rot_vec_y/s],tcp_velo_rz[rot_vec_z/s],q1[rad],q2[rad],q3[rad],q4[rad],q5[rad],q6[rad],qd1[rad/s],qd2[rad/s],qd3[rad/s],qd4[rad/s],qd5[rad/s],qd6[rad/s],tool_acc_x,tool_acc_y,tool_acc_z,current_of_whole_robot[A],voltage_of_whole_robot[V],current_J1[A],current_J2[A],current_J3[A],current_J4[A],current_J5[A],current_J6[A],temp_J1[C],temp_J2[C],temp_J3[C],temp_J4[C],temp_J5[C],temp_J6[C]
7.460003e-07,-0.046751592,-0.20673653,-0.12689455,-0.028864734,0.025753926,-0.01620985,-0.38932803,-0.36869818,0.06000152,-3.0786629,0.62491995,0.00017401902,0.0015483241,0.0008707234,-0.0016228498,0.0022264305,-0.004224985,5.7471312e-05,0.50502086,-1.3816556,1.9042228,-2.0918791,-1.5708774,2.4800134,-8.2101644e-05,0.0009106524,0.0022507543,0.0016129552,0.000104330094,-0.0001406765,0.076614454,0.17238252,-8.7532015,0.7463667,47.704796,-0.18039662,-3.1928601,-2.3661814,-0.20669664,0.074057475,-0.045580395,28.9375,30.3125,29.375,33.0,35.4375,36.5
0.00205209,-0.18117844,-0.29310963,-0.048855644,-0.02357463,0.03148541,-0.006477847,-0.38936156,-0.36871144,0.060009077,-3.0787015,0.62502354,0.00022393571,-0.0013185007,-0.00072459487,-0.0018290835,-0.0020768659,0.0035091168,5.7144298e-05,0.5049969,-1.3816305,1.904188,-2.0919316,-1.5708536,2.4800491,-7.967867e-05,0.0031480086,0.002691852,-0.009916171,0.00010263048,-0.00013651658,0.019153614,0.11492168,-8.676587,0.7329411,47.72719,-0.190139,-3.151343,-2.4200547,-0.14112741,0.108058944,-0.044911366,28.9375,30.3125,29.375,33.0,35.4375,36.5
0.004052171,0.15940192,-0.006781141,0.18807155,-0.036512643,0.046069868,-0.01874487,-0.3893533,-0.36871836,0.060022846,-3.0787373,0.62497354,0.00024139181,-0.00208891,-0.0011535435,-0.001303007,-0.0034256205,0.00594056,5.571348e-05,0.5050088,-1.3816668,1.9041995,-2.0919316,-1.5708417,2.4800253,-7.739479e-05,0.0027959216,0.0023943998,-0.012047106,0.00010098558,-0.00013250383,0.095768064,0.19153613,-8.63828,0.7172743,47.71286,-0.2283403,-3.3794723,-2.598215,-0.03929335,0.10370237,-0.052111402,28.9375,30.3125,29.375,33.0,35.4375,36.5
0.006052465,0.19091275,0.32692277,0.064395025,-0.028608335,0.027801968,-0.0077800066,-0.38933,-0.36871973,0.059984617,-3.078702,0.62494683,0.00016753034,-0.0007687023,-0.0004198147,-0.0007953855,-0.0014725195,0.002437929,5.3449236e-05,0.5050329,-1.3816193,1.9042352,-2.091953,-1.5708417,2.4800372,-7.523789e-05,0.0012170235,0.0016730538,-0.005736505,9.939225e-05,-0.00012871403,0.05746084,0.24899697,-8.580819,0.7284641,47.690468,-0.21223426,-3.2559693,-2.4905558,-0.07694187,0.0965806,-0.057669133,28.9375,30.3125,29.375,33.0,35.4375,36.5
0.008052231,0.6719004,1.2694918,-0.38951948,0.0033035155,0.008484058,-0.0119958,-0.3893339,-0.3687103,0.05999863,-3.0787117,0.6249299,0.00020808524,0.00034394304,0.00019898756,0.0001933094,-0.0002182421,0.00019701419,5.115485e-05,0.50502086,-1.3816564,1.9042467,-2.0919511,-1.5708536,2.4800134,-7.3198295e-05,-0.0012787817,0.0010913318,-9.093758e-05,9.784851e-05,-0.0001251342,0.0,0.22984336,-8.791509,0.7172743,47.66987,-0.17493552,-3.1739783,-2.474676,-0.122850984,0.08364447,-0.035364896,28.9375,30.3125,29.375,33.0,35.4375,36.5
0.010052212,0.62690467,0.9105897,-0.7771184,0.023114653,0.00719821,-0.0041957432,-0.38933533,-0.36869246,0.05997425,-3.0786636,0.6249585,0.00016047376,0.0012937972,0.0007356089,-0.00015363823,0.001538911,-0.0029617287,4.5766425e-05,0.5049969,-1.3816202,1.9042591,-2.0919497,-1.5708655,2.4800134,-8.688239e-05,-0.0011232088,0.00086005137,0.0035993592,9.635212e-05,-0.00013370517,0.0,0.114921674,-8.90643,0.73741806,47.677036,-0.78517085,-2.7281518,-2.9192355,-0.16944705,0.0683787,-0.13644525,28.9375,30.3125,29.375,33.0,35.4375,36.5
0.012052287,0.42668784,0.33391067,-0.8820734,-0.011411656,0.030867651,-0.022029491,-0.3893261,-0.36870423,0.059986852,-3.078651,0.62497437,0.0001725593,0.0011157691,0.00067593687,-0.0026326994,0.003505602,-0.006523853,0.0005338275,0.50503284,-1.3816305,1.9042348,-2.091915,-1.5708774,2.4800608,-0.0001558065,0.0046799257,-0.00020216704,0.002927318,9.490063e-05,-0.0006892587,0.1340753,0.076614454,-9.11712,0.77545905,47.696735,-0.9153018,-2.6224694,-3.083218,-0.17502299,0.08434415,-0.2006878,28.9375,30.3125,29.375,33.0,35.4375,36.5
0.014028661,-0.2750504,-0.2993843,-0.83027506,-0.053946562,0.052147236,-0.022552863,-0.38931134,-0.36868817,0.05994806,-3.0786183,0.62490904,3.1842726e-05,-0.00503043,0.0040525575,-0.00462613,0.0043134573,-0.008015483,0.0010319536,0.50500464,-1.3815789,1.9042567,-2.091891,-1.5708536,2.479996,-0.011592371,0.012901006,-0.0049813385,0.0011798035,9.349234e-05,-0.012620506,0.05746084,0.095768064,-9.3661175,0.7172743,47.691364,-0.41779876,-3.2877073,-2.9582272,-0.129392,0.086854175,-0.1298801,28.9375,30.3125,29.375,33.0,35.4375,36.5
0.016052496,-0.9143242,-0.7942014,-1.0228597,-0.07525238,0.07008954,-0.03951862,-0.38933867,-0.3686908,0.05994484,-3.0786266,0.62496394,9.238581e-06,-0.0063245553,0.0039427015,-0.002929273,0.0024441497,-0.004641841,0.009207607,0.5049686,-1.381532,1.9042085,-2.0918915,-1.5708297,2.479993,-0.01261542,0.0108315945,-0.006289369,0.00069940096,9.212524e-05,-0.021818949,-0.28730422,0.19153613,-9.385271,0.7351769,47.719128,-0.5261503,-3.1912236,-2.9365587,-0.122148514,0.10583705,-0.0789201,28.9375,30.3125,29.375,33.0,35.4375,36.5
0.01805193,-1.0963067,-0.5072046,-1.121804,-0.06902904,0.09339074,-0.065054886,-0.38930807,-0.36867854,0.059921805,-3.07861,0.6248619,-8.822401e-05,-0.005591739,0.0037013625,-0.0019524579,0.0018290728,-0.0035495346,0.015347159,0.5049689,-1.3815329,1.9042567,-2.0918677,-1.5708174,2.4799318,-0.011529467,0.008078302,-0.0053966814,0.0013060794,0.00010290921,-0.02687344,-0.45968673,0.17238252,-9.404425,0.7530795,47.672558,-0.71409476,-2.8129067,-3.2009463,-0.11316373,0.10101367,-0.012205226,28.9375,30.3125,29.375,33.0,35.4375,36.5
0.020052072,-1.139973,-0.049762618,-1.3817704,-0.033665814,0.10143848,-0.08961403,-0.3892985,-0.36866838,0.059893947,-3.0785716,0.62476087,-0.00016457133,-0.0047796573,0.005096817,-0.0032695672,0.004598637,-0.008554432,0.010941791,0.5049684,-1.3814842,1.9042567,-2.091842,-1.5708297,2.4798732,-0.013123019,0.009559597,-0.005026216,0.0051744487,0.00010882421,-0.024061969,-0.49799395,0.11492168,-9.691729,0.8090337,47.695843,-0.925031,-2.846371,-3.3995223,-0.14553046,0.09076603,-0.037988655,28.9375,30.3125,29.375,33.0,35.4375,36.5
0.022052266,-1.274186,0.8271082,-1.5237032,-0.010849504,0.08882128,-0.11443124,-0.38932022,-0.3686729,0.059910003,-3.0785944,0.6247686,-0.000120745884,-0.00700298,0.0050779185,-0.00297753,0.0042478326,-0.007974894,0.005375473,0.5049557,-1.3814832,1.904219,-2.091842,-1.5708297,2.4798625,-0.015185637,0.012426868,-0.009227776,0.005832213,0.00012938216,-0.020556193,-0.61291564,0.15322891,-9.730036,0.75084364,47.72719,-0.8743797,-2.8753414,-3.411521,-0.1762068,0.093509756,-0.0741361,28.9375,30.3125,29.375,33.0,35.4375,36.5
0.024052149,-1.4118229,0.9105213,-1.391608,-0.011227958,0.08887215,-0.121993475,-0.3893549,-0.36864197,0.059885293,-3.0785525,0.6248585,-0.00016357993,-0.00939453,0.0050250944,-0.0019726204,0.0022809657,-0.0045199785,0.0010796157,0.5048712,-1.3814231,1.9042071,-2.0918543,-1.5708297,2.4798393,-0.017357977,0.012830785,-0.011519212,0.003744644,0.00016890485,-0.018431526,-0.63206923,0.038307227,-9.595961,0.7396539,47.70838,-0.8553111,-2.7614734,-3.316997,-0.1426283,0.10496698,-0.11420197,28.9375,30.3125,29.375,33.0,35.4375,36.5
0.026052628,-1.7070256,0.074912384,-1.765235,-0.0171186,0.09629187,-0.13004284,-0.38937256,-0.36863595,0.05988981,-3.0785384,0.62479734,-0.00015505486,-0.009907677,0.004540545,-0.0028603838,0.0014116755,-0.005695235,-0.00051943667,0.5048591,-1.381398,1.904159,-2.0918186,-1.5708531,2.479791,-0.017850662,0.015617129,-0.012524698,0.002566839,0.0014932652,-0.01732648,-0.7661445,0.1340753,-9.691729,0.75084364,47.70211,-0.93510294,-2.8889456,-3.3244052,-0.11569691,0.09486931,-0.12772079,28.9375,30.3125,29.375,33.0,35.4375,36.5
0.028052567,-1.9630022,-0.13451011,-1.7264786,-0.035673335,0.10940825,-0.14570555,-0.3893951,-0.3686617,0.059907354,-3.0786152,0.62475663,-0.000119308934,-0.010932474,0.004387526,-0.0028771078,0.0009925895,-0.005268993,-0.0019862421,0.50485873,-1.3813856,1.9041098,-2.091843,-1.5708169,2.4797554,-0.018649712,0.01716909,-0.014223652,0.0021381928,0.0016503881,-0.01665791,-0.8236054,0.05746084,-9.864111,0.8023209,47.71554,-0.96256685,-2.7927573,-3.300498,-0.10421939,0.07619076,-0.14586434,28.9375,30.3125,29.375,33.0,35.4375,36.5
0.030053116,-1.7798727,-0.08425004,-1.5868381,-0.050005287,0.1306326,-0.16281508,-0.38938153,-0.36864147,0.05986408,-3.078538,0.6247992,-0.00030077336,-0.0110239955,0.004884066,-0.003097686,0.0016789547,-0.0063597728,-0.0027713052,0.50482243,-1.3813132,1.9041094,-2.0917833,-1.570793,2.4797554,-0.019525735,0.017586255,-0.014467601,0.0032523735,0.0015768589,-0.016748907,-0.80445176,-0.038307227,-9.902418,0.74413085,47.668976,-1.0339856,-2.8873482,-3.4150786,-0.09842504,0.08329903,-0.1758183,28.9375,30.3125,29.375,33.0,35.4375,36.5
0.03205239,-1.977196,-0.6075429,-1.5168196,-0.02379751,0.1288527,-0.157223,-0.3894175,-0.36861238,0.059861615,-3.0784912,0.6248849,-0.00026610578,-0.01128097,0.0053705634,-0.0031973808,0.0028947254,-0.007956131,-0.0029192646,0.5047625,-1.3812889,1.904086,-2.0917823,-1.5708293,2.479755,-0.020403191,0.018578464,-0.015981792,0.0057600383,0.0012865976,-0.01747737,-0.80445176,-0.019153614,-9.825804,0.7530795,47.703903,-0.99447435,-2.8590772,-3.3655741,-0.11873752,0.070442855,-0.18628952,28.9375,30.3125,29.375,33.0,35.4375,36.5
0.03405249,-1.5483593,0.03780314,-1.6853935,-0.0083869295,0.12990004,-0.16977596,-0.38944733,-0.36862522,0.059860114,-3.0785608,0.62480307,-0.00028761823,-0.011951078,0.005692257,-0.0025977697,0.002552053,-0.007141114,-0.0022063174,0.50472605,-1.3812411,1.9040383,-2.0918057,-1.5707811,2.4796586,-0.021509795,0.017935868,-0.016696697,0.0062395283,0.0011915149,-0.019296583,-0.7469909,0.05746084,-9.730036,0.75755644,47.711063,-1.0235627,-2.7796059,-3.390347,-0.1279276,0.09075859,-0.20218855,28.9375,30.3125,29.375,33.0,35.4375,36.5
0.03605206,-1.4231775,0.46158203,-1.7375219,0.003735541,0.1130749,-0.19458558,-0.3894762,-0.36859643,0.059864625,-3.078529,0.6248734,-0.00026148252,-0.014145478,0.0058264546,-0.0019248646,0.0012102271,-0.004594662,-0.0026474842,0.5046655,-1.3812407,1.904025,-2.0917943,-1.570805,2.479646,-0.023745542,0.018798897,-0.018899342,0.0047009997,0.001125444,-0.021089844,-0.7278373,0.0,-9.710882,0.74413085,47.711063,-0.9362047,-2.8264155,-3.3413258,-0.12344405,0.099422306,-0.20853518,28.9375,30.3125,29.375,33.0,35.4375,36.5
0.03805209,-1.268931,0.25615346,-1.6765653,0.0016162285,0.092603005,-0.20943701,-0.38949972,-0.368567,0.05983923,-3.0784411,0.6249335,-0.00031050877,-0.016197085,0.0063287467,-0.001617633,0.00025730554,-0.0028134936,-0.0046345056,0.50461656,-1.3811682,1.9039892,-2.091759,-1.5708412,2.4796457,-0.026486117,0.019810611,-0.02046238,0.0032317557,0.0010895843,-0.021842461,-0.5554548,-0.038307227,-9.825804,0.76874626,47.689575,-0.92840564,-2.7443438,-3.3993487,-0.10364949,0.096811175,-0.2200875,28.9375,30.3125,29.375,33.0,35.4375,36.5
0.04005203,-1.032256,0.0812431,-1.5111417,-0.009297507,0.08115446,-0.21947113,-0.38956007,-0.36858538,0.059853755,-3.0785215,0.6249108,-0.0002621884,-0.017134257,0.0063377214,-0.0011635394,-0.00026375175,-0.0014753165,-0.004236622,0.5045684,-1.3811083,1.9038934,-2.0917947,-1.570805,2.4795732,-0.027252844,0.019965054,-0.021574305,0.002767355,0.00089635915,-0.023006123,-0.51714754,-0.05746084,-9.768343,0.7150385,47.711063,-0.934608,-2.772527,-3.3767223,-0.07643516,0.10876287,-0.23507103,28.9375,30.3125,29.375,33.0,35.4375,36.5
0.04205173,-0.09653144,-0.011903447,-1.5878936,-0.023720149,0.09502229,-0.23081873,-0.38956505,-0.36854795,0.059835147,-3.0784478,0.6249533,-0.00035039152,-0.0178673,0.0066731465,-0.0011505424,-0.00030629308,-0.0013386423,-0.0036425416,0.5045082,-1.381084,1.9038934,-2.0917351,-1.5708169,2.479549,-0.028481904,0.020548131,-0.022292085,0.0027615253,0.00086323265,-0.024828892,-0.47884035,0.019153614,-9.653421,0.79560274,47.766594,-0.9526534,-2.7856917,-3.339922,-0.084877186,0.109928384,-0.24769914,28.9375,30.3125,29.375,33.0,35.4375,36.5
0.04405254,-0.3684306,-0.27636197,-1.532898,-0.023842445,0.08981198,-0.22078449,-0.3896248,-0.36855242,0.059855837,-3.0784903,0.6249794,-0.00026476494,-0.018872768,0.0068806335,-0.0010322,-0.00025537208,-0.0014393551,-0.0029547203,0.50445986,-1.3810475,1.9038085,-2.0917585,-1.5708169,2.4795115,-0.029769551,0.021776538,-0.024191566,0.0035451758,0.0008661137,-0.026803415,-0.2873042,0.038307227,-9.576807,0.6277561,47.691364,-0.93753254,-2.7680597,-3.3246164,-0.08141792,0.10525952,-0.2469602,28.9375,30.3125,29.375,33.0,35.4375,36.5
0.046052307,-0.47343832,-0.32548493,-1.6043833,-0.012724042,0.06623365,-0.19471858,-0.3896553,-0.36851925,0.059833482,-3.0784495,0.6249893,-0.0003350836,-0.020216132,0.0070654796,-0.0001580827,-0.0009223804,-0.0006582208,-0.00196927,0.5043755,-1.3809873,1.9037827,-2.0917342,-1.5708169,2.4794385,-0.03145963,0.021967154,-0.026706021,0.004861823,0.0010674708,-0.029478453,-0.17238253,0.095768064,-9.5385,0.7642693,47.68599,-0.919835,-2.7278402,-3.275879,-0.08920291,0.121935725,-0.2490499,28.9375,30.3125,29.375,33.0,35.4375,36.5
0.048052326,0.2888448,-0.31810704,-1.5433536,-0.011676133,0.06590578,-0.18483979,-0.38974443,-0.36850047,0.059860226,-3.0784628,0.6250498,-0.0001724496,-0.021327903,0.0077362005,-5.437779e-05,-0.0012071442,-0.0006004593,-0.0017069739,0.5042907,-1.3809513,1.9036874,-2.09177,-1.570865,2.47939,-0.033759777,0.022467077,-0.027573813,0.0050389604,0.0012894588,-0.03204077,-0.15322891,0.11492168,-9.576807,0.779936,47.688675,-0.8807238,-2.6732287,-3.245912,-0.108079925,0.11820093,-0.2502671,28.9375,30.3125,29.375,33.0,35.4375,36.5
0.05005174,-0.12789328,-0.223326,-1.5728884,-0.024670385,0.04281607,-0.19282945,-0.38976002,-0.36849377,0.05984461,-3.0784707,0.62503207,-0.00025160605,-0.022402091,0.007861402,6.343683e-05,-0.0015488897,1.0272821e-05,-0.0017918136,0.5042425,-1.3809028,1.903663,-2.0917585,-1.5708293,2.4793296,-0.03497207,0.02346556,-0.028950593,0.004718484,0.0012883444,-0.03316752,-0.038307227,0.19153613,-9.557653,0.74413085,47.64837,-0.8641027,-2.7631059,-3.228302,-0.08717103,0.123732775,-0.2580726,28.9375,30.3125,29.375,33.0,35.4375,36.5
0.052051798,-0.021789737,-0.5428724,-1.5258849,-0.026833273,0.043676827,-0.18980186,-0.38980785,-0.36847988,0.0598517,-3.0784876,0.62497747,-0.00021236697,-0.023166623,0.008585067,-0.0003127186,-0.0016764102,-0.00043249145,-0.0025201584,0.50418186,-1.3808664,1.9036039,-2.0917585,-1.5708412,2.4792328,-0.037103236,0.024195444,-0.028841486,0.0042038546,0.0016133116,-0.03457076,0.0,0.19153613,-9.519346,0.8537928,47.682407,-0.7822258,-2.7341433,-3.3621178,-0.059236325,0.121939555,-0.27670628,28.9375,30.3125,29.375,33.0,35.4375,36.5
0.05405173,0.12879781,-0.61570793,-1.6789463,-0.03489477,0.046894293,-0.18515395,-0.38984966,-0.36845484,0.059839502,-3.0784686,0.6250505,-0.0002794016,-0.024348453,0.009152851,-0.00015554333,-0.0017543761,-0.00046882994,-0.002797321,0.5040855,-1.380806,1.9035548,-2.0917346,-1.5708169,2.4791844,-0.039210245,0.025030037,-0.030335393,0.004857807,0.0016956091,-0.036400143,0.019153614,0.17238252,-9.404425,0.7016076,47.70659,-0.79466856,-2.6931262,-3.3652513,-0.070687965,0.12911013,-0.2640687,28.9375,30.3125,29.375,33.0,35.4375,36.5
0.05605218,0.447444,-0.609221,-1.3906661,-0.033684406,0.057902537,-0.17874247,-0.38990596,-0.36843473,0.05986072,-3.0784707,0.62503016,-0.00022570771,-0.024743306,0.008091956,0.0005913631,-0.0027803162,0.00058997207,-0.0003704273,0.50401396,-1.380782,1.9034699,-2.0916984,-1.5708407,2.4791,-0.038028896,0.025479076,-0.03267126,0.005319693,0.0020791658,-0.037645355,0.019153614,0.19153613,-9.3661175,0.7933669,47.68599,-0.83686227,-2.5832045,-3.276826,-0.057579793,0.14550565,-0.3024165,28.9375,30.3125,29.375,33.0,35.4375,36.5
0.058051903,-0.110765174,-0.87694275,-1.478725,-0.019837601,0.046423376,-0.17322488,-0.38996267,-0.36842948,0.059859782,-3.0785046,0.62503713,-0.00025017653,-0.025520977,0.008608613,0.0007412122,-0.0028804205,2.6791804e-05,-0.00048588935,0.5039295,-1.3807096,1.9033865,-2.091698,-1.5708045,2.4790156,-0.039843407,0.025957046,-0.0338354,0.0064507453,0.002438916,-0.03934459,-0.019153614,0.2681506,-9.442732,0.779936,47.66987,-0.9103985,-2.6031132,-3.2802448,-0.06676786,0.13410252,-0.3068858,28.9375,30.3125,29.375,33.0,35.4375,36.5
0.060051765,0.920948,-0.6401902,-1.442105,-0.021743432,0.0744296,-0.18472157,-0.3900494,-0.36842734,0.059883203,-3.078561,0.6250293,-0.00015150243,-0.026338907,0.009183179,0.0004250157,-0.0032649934,-0.0009538505,-0.0018318574,0.5038449,-1.3806493,1.9032673,-2.0917218,-1.5708045,2.478919,-0.04207308,0.027042115,-0.034443993,0.0066445256,0.0032514622,-0.040229067,-0.076614454,0.19153613,-9.423578,0.80456203,47.684196,-0.79994833,-2.603178,-3.2369401,-0.08083227,0.11883578,-0.31813368,28.9375,30.3125,29.375,33.0,35.4375,36.5
0.06205268,0.32851642,-0.27703243,-1.3384783,-0.034061126,0.06514404,-0.19284786,-0.39008498,-0.36841583,0.059910536,-3.0786011,0.62503624,-0.00010647327,-0.027322633,0.009100059,0.00090079143,-0.004467735,1.4706016e-05,-0.0008673489,0.50378466,-1.3806733,1.9032305,-2.0917094,-1.5707921,2.478858,-0.043211684,0.027246535,-0.035676252,0.0062418776,0.0038352192,-0.042332403,-0.095768064,0.19153613,-9.500193,0.7038487,47.687782,-0.8325951,-2.5569437,-3.3008428,-0.07387079,0.11809884,-0.33716345,28.9375,30.3125,29.375,33.0,35.4375,36.5
0.064051814,-0.31737173,-0.6414043,-1.2110857,-0.03620507,0.061942313,-0.18607797,-0.39012358,-0.3683802,0.059878048,-3.0785482,0.6250246,-0.00020664436,-0.028191863,0.008872709,0.0010878276,-0.0052820314,0.0001588743,0.00050235935,0.50368863,-1.3805767,1.9031824,-2.091674,-1.5707921,2.4787614,-0.044033654,0.028358854,-0.037452154,0.006383996,0.00447138,-0.04452462,-0.19153613,0.21068975,-9.423578,0.80679786,47.73077,-0.7735144,-2.510347,-3.2593005,-0.06194299,0.11257264,-0.3358487,28.9375,30.3125,29.375,33.0,35.4375,36.5
0.066051744,-0.1768187,-0.074700065,-1.0874206,-0.039800975,0.07371585,-0.18826771,-0.39018577,-0.36836642,0.05988881,-3.0785813,0.6250318,-0.00020328058,-0.028663721,0.009298038,0.00092823606,-0.00550973,-0.0009938339,-0.00051726773,0.50359225,-1.3805285,1.903098,-2.0916617,-1.5707678,2.4786654,-0.045655586,0.02905876,-0.03811236,0.0072427266,0.005228821,-0.04512782,-0.15322891,0.1340753,-9.3661175,0.7642693,47.67614,-0.8581482,-2.5589268,-3.2537796,-0.06690609,0.088937774,-0.35135317,28.9375,30.3125,29.375,33.0,35.4375,36.5
0.06805174,-0.035627272,-0.31220326,-1.07433,-0.022455035,0.087854974,-0.18077905,-0.39024788,-0.3683437,0.059907325,-3.078578,0.6250869,-0.00018964692,-0.029590182,0.009170751,0.0013444268,-0.0066638673,-0.0007475029,0.00011237398,0.5034961,-1.3804923,1.9030021,-2.0916135,-1.5707678,2.478604,-0.04685393,0.029637592,-0.03982622,0.00760225,0.00611828,-0.0469565,-0.19153613,0.15322891,-9.404425,0.8605109,47.668976,-0.85693896,-2.5527189,-3.2509322,-0.078899205,0.09523058,-0.3667109,28.9375,30.3125,29.375,33.0,35.4375,36.5
0.0700516,-0.7307827,0.13841186,-1.1583644,-0.024751624,0.07350043,-0.18362166,-0.39029202,-0.36833018,0.059889622,-3.078595,0.6249738,-0.00023227408,-0.030428583,0.008947952,0.0014208048,-0.0074702147,-0.0003027086,0.0029364515,0.5034241,-1.3804077,1.9029425,-2.091614,-1.5707549,2.4784594,-0.047559265,0.030708192,-0.04114902,0.0070748976,0.0066040703,-0.050486136,-0.26815057,0.05746084,-9.3661175,0.73741806,47.642998,-0.83609736,-2.4892821,-3.2790327,-0.06776394,0.08517273,-0.3702289,28.9375,30.3125,29.375,33.0,35.4375,36.5
0.072052725,0.05167821,-0.04263516,-0.9563963,-0.016682655,0.106813654,-0.18467762,-0.39035702,-0.36828288,0.059868086,-3.0785334,0.625036,-0.00029097186,-0.03152847,0.009622986,0.0014088269,-0.007409422,4.6059686e-06,0.0059319404,0.5032916,-1.3803115,1.9028696,-2.0915778,-1.5707673,2.4783735,-0.04958383,0.03137943,-0.041877337,0.006892759,0.006396502,-0.0555058,-0.45968673,0.076614454,-9.32781,0.78217715,47.703903,-0.85483277,-2.4553742,-3.2833385,-0.07114066,0.070789315,-0.33967215,28.9375,30.3125,29.375,33.0,35.4375,36.5
0.07405165,-0.9158051,-0.03755596,-1.0748575,-0.0077732494,0.08766729,-0.1787859,-0.39043653,-0.36828995,0.059895903,-3.0786285,0.62505525,-0.00019985,-0.033009812,0.010395262,0.0012487236,-0.0071885274,-0.00022298872,0.0058266153,0.5032068,-1.3802748,1.9027737,-2.091626,-1.570731,2.4782887,-0.05220431,0.032995723,-0.043495048,0.007202872,0.0063156975,-0.058019254,-0.4405331,0.11492168,-9.32781,0.78888994,47.695843,-0.74256206,-2.4758015,-3.3156497,-0.05580517,0.07054776,-0.3118153,28.9375,30.3125,29.375,33.0,35.4375,36.5
0.0760519,-0.7486237,0.06219695,-1.0469887,-0.0042842133,0.0993813,-0.18082224,-0.3905003,-0.3682704,0.05989384,-3.0786538,0.6250189,-0.00022473384,-0.03270001,0.009469503,0.0014886964,-0.007340026,0.00014811906,0.009226962,0.50309986,-1.3802025,1.9026903,-2.091614,-1.5707077,2.4781559,-0.050320543,0.033396967,-0.044583786,0.007494406,0.0062678084,-0.059535287,-0.45968673,0.019153614,-9.385271,0.8179876,47.691364,-0.9352014,-2.5164475,-3.2727914,-0.061882947,0.056658264,-0.32949078,28.9375,30.3125,29.375,33.0,35.4375,36.5
0.07805187,-0.9502845,0.083893135,-1.04969,-0.002719054,0.097372964,-0.17983828,-0.3905698,-0.3682584,0.059897445,-3.0786583,0.62496066,-0.00023864605,-0.03442475,0.0105689615,0.0017870477,-0.006991115,0.0008319669,0.010883793,0.50301486,-1.3801062,1.9025573,-2.0915658,-1.5707077,2.478034,-0.05337021,0.034014184,-0.046102807,0.007968113,0.005628895,-0.06424013,-0.36391866,0.1340753,-9.32781,0.7083204,47.693153,-0.86148715,-2.482352,-3.2831259,-0.07952534,0.051845834,-0.29185742,28.9375,30.3125,29.375,33.0,35.4375,36.5
0.08005201,-0.5709049,0.9089261,-1.0789716,-0.016199846,0.10758097,-0.18600023,-0.39062485,-0.36821887,0.05989981,-3.0786638,0.6249405,-0.00029277234,-0.035565566,0.01139548,0.0018183078,-0.0063889585,0.0012385049,0.013375288,0.5028825,-1.38007,1.9024981,-2.0915177,-1.5706843,2.4778883,-0.055362314,0.034664135,-0.046981618,0.008135963,0.004901696,-0.06872219,-0.40222588,0.038307227,-9.385271,0.7866488,47.690468,-0.83520067,-2.4950995,-3.314122,-0.079065256,0.063838296,-0.23718089,28.9375,30.3125,29.375,33.0,35.4375,36.5
0.08205205,-0.397498,0.95202863,-1.0363038,-0.017589753,0.1111076,-0.19318438,-0.39071882,-0.36819753,0.059909586,-3.07868,0.6249231,-0.00021252965,-0.03633941,0.012530048,0.00087381713,-0.004825845,-0.00016660245,0.014901241,0.50277394,-1.3799853,1.9023784,-2.0915296,-1.5707082,2.477767,-0.057551205,0.036634475,-0.047224082,0.008393928,0.0042121396,-0.07243528,-0.40222588,0.019153614,-9.32781,0.77545905,47.696735,-0.747171,-2.5270262,-3.35081,-0.08111878,0.07089129,-0.20531204,28.9375,30.3125,29.375,33.0,35.4375,36.5
0.08405199,-0.46003482,0.34774375,-1.0278857,-0.0123730255,0.106450275,-0.17889701,-0.390808,-0.36821356,0.05994367,-3.0787928,0.6248081,-0.000108902925,-0.037242483,0.010784673,0.0017892608,-0.005712988,0.002453082,0.020125963,0.5027031,-1.3799245,1.9022344,-2.0915534,-1.5706843,2.47761,-0.055141214,0.038153194,-0.050999813,0.007931805,0.0037257439,-0.07524699,-0.4405331,-0.019153614,-9.308656,0.7217513,47.681515,-0.963888,-2.511611,-3.2685192,-0.07447876,0.064326614,-0.19067678,28.9375,30.3125,29.375,33.0,35.4375,36.5
0.08605238,-0.5893409,0.13297442,-1.0305176,-0.011703819,0.10552865,-0.18207324,-0.39086127,-0.36816326,0.059916753,-3.0787747,0.6247654,-0.0002445158,-0.03825777,0.011721668,0.0018481854,-0.0055206437,0.0025396917,0.01996289,0.5025465,-1.3798404,1.9021853,-2.0915058,-1.5706486,2.4774292,-0.057518736,0.038354207,-0.051432304,0.008184221,0.003509283,-0.07746122,-0.47884035,0.0,-9.289502,0.73069996,47.677036,-0.9527602,-2.5516477,-3.1392455,-0.070900716,0.098455995,-0.13152185,28.9375,30.3125,29.375,33.0,35.4375,36.5
0.08805236,-0.6205831,0.39339206,-1.1616836,-0.010148878,0.101017535,-0.17096235,-0.39092198,-0.36814684,0.05990877,-3.078792,0.6246734,-0.00024839284,-0.037603706,0.013014833,-5.8922913e-05,-0.0035355233,-0.0013882695,0.019881828,0.502462,-1.3797557,1.9021033,-2.0915058,-1.5706481,2.4772851,-0.059177104,0.040199123,-0.049396235,0.008701567,0.0036667616,-0.07903939,-0.34476507,0.019153614,-9.346964,0.77545905,47.684196,-0.916204,-2.5771663,-3.425797,-0.08432722,0.09337984,-0.09456204,28.9375,30.3125,29.375,33.0,35.4375,36.5
0.09005218,-0.29889977,0.14206956,-1.2097923,-0.013779957,0.098825544,-0.18010084,-0.39101866,-0.36812198,0.05992388,-3.0788302,0.6246419,-0.00019154609,-0.038609724,0.012530233,0.00036887766,-0.004427927,-0.0004597545,0.019338537,0.5023303,-1.3796833,1.9019831,-2.0915058,-1.5706481,2.477129,-0.05949292,0.04127331,-0.051622,0.008608943,0.004000659,-0.07881119,-0.38307226,-0.095768064,-9.423578,0.7105615,47.63046,-0.95009726,-2.531477,-3.2857509,-0.08653024,0.075628296,-0.078095384,28.9375,30.3125,29.375,33.0,35.4375,36.5
0.09205245,-0.7094246,0.16372173,-0.84780633,-0.022135902,0.08460144,-0.1719682,-0.3910955,-0.36807874,0.05991555,-3.0788076,0.62459934,-0.00024891432,-0.040949795,0.012117618,0.0015042924,-0.0059961155,0.0026229525,0.017666075,0.50218606,-1.3795868,1.9018744,-2.0914457,-1.5706481,2.4769611,-0.060886845,0.042328928,-0.05526002,0.007735443,0.0038779469,-0.07853092,-0.36391866,-0.05746084,-9.404425,0.83589023,47.716442,-0.97670317,-2.5849075,-3.1973238,-0.08948375,0.07045244,-0.08797699,28.9375,30.3125,29.375,33.0,35.4375,36.5
0.09405257,-0.5803854,-0.16254152,-1.311332,-0.014677104,0.080445394,-0.16975453,-0.39119458,-0.3680523,0.059930548,-3.0788538,0.62456995,-0.00020405345,-0.04123366,0.012460868,0.001234542,-0.0052929306,0.0021462054,0.015833061,0.50204235,-1.3795146,1.9017547,-2.0914457,-1.5706366,2.4767933,-0.061475538,0.043118242,-0.05566839,0.008113619,0.0034955477,-0.077285565,-0.36391866,0.05746084,-9.32781,0.72622824,47.689575,-0.99080145,-2.5564446,-3.148458,-0.08200973,0.08983031,-0.09881709,28.9375,30.3125,29.375,33.0,35.4375,36.5
0.09605222,-0.15492728,0.13339898,-1.2269312,-0.02920949,0.08435524,-0.16770662,-0.39125028,-0.36804718,0.059916873,-3.0788565,0.624438,-0.0002481985,-0.041194092,0.013325508,0.0003746376,-0.0039886096,0.00051896175,0.013831957,0.5019819,-1.3793939,1.901635,-2.09141,-1.5706366,2.4766502,-0.06266132,0.04405469,-0.054906104,0.008470473,0.0031351598,-0.076469995,-0.28730422,0.15322891,-9.423578,0.78217715,47.745995,-1.0116795,-2.5234709,-3.3750243,-0.07172263,0.10817495,-0.11618659,28.9375,30.3125,29.375,33.0,35.4375,36.5
0.098052554,0.11269754,-0.3140127,-1.1929625,-0.034045886,0.08360242,-0.170812,-0.39135852,-0.3680027,0.059938997,-3.078889,0.6244254,-0.00016572714,-0.042506456,0.013094979,0.00082817284,-0.0045844717,0.0012140936,0.011075552,0.501814,-1.3793455,1.9015273,-2.0914094,-1.5706486,2.4764705,-0.06359454,0.04543727,-0.057690002,0.008974605,0.003323372,-0.07464563,-0.1340753,0.19153613,-9.442732,0.76874626,47.694946,-1.0561453,-2.6087964,-3.2991037,-0.09950143,0.09850173,-0.13382274,28.9375,30.3125,29.375,33.0,35.4375,36.5
0.10005297,0.59874266,-0.4127492,-1.327879,-0.04303854,0.07608604,-0.1747095,-0.39143422,-0.36795986,0.05992552,-3.0788355,0.6243961,-0.00018709645,-0.04333728,0.013208877,0.0012592826,-0.005302239,0.001752181,0.008437961,0.50169384,-1.3792373,1.901419,-2.0913613,-1.5706843,2.4763389,-0.06477442,0.045549512,-0.058863,0.009214784,0.0036889429,-0.07318821,-0.15322891,0.19153613,-9.442732,0.7486078,47.65912,-1.1117431,-2.44938,-3.2228668,-0.102768466,0.09944488,-0.1590302,28.9375,30.3125,29.375,33.0,35.4375,36.5
0.10205261,0.34319165,-0.6789071,-1.403766,-0.042490557,0.06679974,-0.16652057,-0.39152306,-0.36791873,0.059919354,-3.0788372,0.6243784,-0.00016185426,-0.043968428,0.013662861,0.0006452305,-0.004858427,0.0005387927,0.005855248,0.5015496,-1.3791527,1.9013356,-2.0913737,-1.5706962,2.4761834,-0.066232644,0.047356073,-0.05967092,0.009492441,0.0038836102,-0.072063416,-0.05746084,0.28730422,-9.461885,0.7239871,47.674347,-1.0399226,-2.5329385,-3.3078098,-0.09157771,0.10703172,-0.196989,28.9375,30.3125,29.375,33.0,35.4375,36.5
0.10405178,0.22681823,-1.1763157,-1.4632211,-0.035418957,0.0569783,-0.16714732,-0.3916255,-0.36789057,0.059922505,-3.0788631,0.6244795,-0.00022426221,-0.0447451,0.013850152,-0.00022782708,-0.004608674,-0.0009699763,0.0036608346,0.50136966,-1.3790436,1.9011911,-2.0913374,-1.5706362,2.4760633,-0.06756599,0.05016986,-0.061014634,0.009468641,0.0043873107,-0.07120218,0.076614454,0.30645782,-9.442732,0.75084364,47.707485,-1.0795809,-2.6458063,-3.3171086,-0.09985533,0.102518186,-0.2240313,28.9375,30.3125,29.375,33.0,35.4375,36.5
0.10605217,0.27063853,-0.78236544,-1.4334542,-0.047847535,0.05461648,-0.17537169,-0.39171878,-0.36789805,0.059947617,3.0788817,-0.62438565,0.00017406033,-0.046066534,0.013883097,0.0013981005,-0.006547225,0.0019670264,0.0038959084,0.5012734,-1.3789601,1.9010352,-2.0913374,-1.5706004,2.4759061,-0.06901085,0.04818634,-0.062319566,0.009251971,0.004677838,-0.07288201,0.095768064,0.2681506,-9.461885,0.8403672,47.69763,-1.1415777,-2.4889116,-3.3479252,-0.10391456,0.097649135,-0.26298076,28.9375,30.3125,29.375,33.0,35.4375,36.5
0.10805228,0.28674093,-0.30781436,-1.4541821,-0.055706,0.05588228,-0.1747811,-0.39180705,-0.36784518,0.059922427,-3.0788918,0.6244275,-0.00022267866,-0.046956494,0.014348454,0.0011255884,-0.006620717,0.0013532927,0.0025184173,0.5011171,-1.3788275,1.9009274,-2.0913022,-1.5706238,2.4757748,-0.07082556,0.049498413,-0.06329728,0.009418368,0.005031718,-0.07331951,0.019153614,0.30645782,-9.346964,0.82022345,47.64927,-1.033138,-2.5518944,-3.299477,-0.09178218,0.085224174,-0.2665358,28.9375,30.3125,29.375,33.0,35.4375,36.5
0.110052265,-0.15782622,-0.87986535,-1.4061892,-0.040936228,0.052501943,-0.16934417,-0.39189416,-0.36783522,0.059934992,3.0788915,-0.62436926,0.00021841441,-0.04783382,0.014600236,0.0012209616,-0.0066867634,0.0013219699,0.0004702179,0.500997,-1.3787432,1.9007963,-2.0912898,-1.5705875,2.4756184,-0.07209336,0.050417084,-0.0647191,0.009920204,0.005105873,-0.07253839,0.0,0.3256114,-9.481039,0.8291774,47.661808,-1.0809449,-2.3928313,-3.3053608,-0.10769255,0.0918106,-0.32735413,28.9375,30.3125,29.375,33.0,35.4375,36.5
0.11205216,0.2981368,-0.38159758,-1.4281775,-0.04485721,0.06352645,-0.17141928,-0.3919948,-0.3678068,0.059926745,3.0788815,-0.6243669,0.00025813156,-0.04825694,0.01460239,-5.851717e-05,-0.006144379,-0.0007957363,0.0021646067,0.500841,-1.3786099,1.9006518,-2.091266,-1.5705637,2.4754622,-0.07280806,0.053824376,-0.065803096,0.009715863,0.0056436267,-0.0749474,-0.019153614,0.30645782,-9.519346,0.779936,47.677036,-1.0898836,-2.6195507,-3.3115034,-0.11047666,0.09689708,-0.34454852,28.9375,30.3125,29.375,33.0,35.4375,36.5
0.11405239,0.19492353,-0.27237797,-1.4007835,-0.04688329,0.071152635,-0.16593024,-0.39209297,-0.3677664,0.0599221,3.0789027,-0.6243524,0.000234053,-0.049440242,0.014689729,0.0012180413,-0.00720034,0.0014950354,-0.000484156,0.50069696,-1.3785021,1.9005321,-2.091254,-1.5705875,2.4753065,-0.07392407,0.052626483,-0.06734434,0.009938051,0.005467951,-0.07341398,-0.076614454,0.21068975,-9.32781,0.7642693,47.681515,-1.188354,-2.6601136,-3.3326569,-0.11210922,0.100183286,-0.38822272,28.9375,30.3125,29.375,33.0,35.4375,36.5
0.11605196,0.36365694,-0.43850967,-1.4436197,-0.03004403,0.08463066,-0.16300437,-0.3921678,-0.36772645,0.05990444,3.0789204,-0.62437457,0.00030384556,-0.04992788,0.014717876,0.0015575663,-0.007958046,0.0018699948,-0.0012408126,0.500553,-1.3783941,1.9004363,-2.0912182,-1.5705756,2.4751742,-0.074708134,0.052482326,-0.06796885,0.010014061,0.00594873,-0.07344222,-0.15322891,0.21068975,-9.32781,0.80456203,47.683304,-1.2222809,-2.385509,-3.2820656,-0.116318434,0.10297085,-0.46129048,28.9375,30.3125,29.375,33.0,35.4375,36.5
0.11805193,-0.32375547,-0.163625,-1.464349,-0.02603837,0.07269443,-0.16500667,-0.39228082,-0.36772332,0.059922755,3.0788677,-0.62426627,0.00025672998,-0.05092432,0.015074624,0.0009877213,-0.008220383,0.00026011074,-0.00014020463,0.5004205,-1.378285,1.900268,-2.0912292,-1.5705394,2.4749808,-0.076837085,0.054838717,-0.06959418,0.0105699375,0.0069546946,-0.07667196,-0.15322891,0.21068975,-9.404425,0.7978386,47.70032,-1.2810956,-2.602997,-3.3040347,-0.12400694,0.09568021,-0.47325993,28.9375,30.3125,29.375,33.0,35.4375,36.5
0.12005195,-0.23486272,0.24577786,-1.2686168,-0.032755163,0.07985002,-0.1720752,-0.39239118,-0.3676756,0.059910808,3.0788932,-0.62426823,0.0002466978,-0.051664982,0.014679478,0.0013957423,-0.009051888,0.0011664237,0.0034215373,0.5002529,-1.3781528,1.9001359,-2.0912178,-1.5705632,2.4748113,-0.07701908,0.055414453,-0.07116627,0.010371033,0.0072451876,-0.0804155,-0.19153613,0.095768064,-9.423578,0.7777002,47.674347,-1.1715991,-2.463517,-3.325554,-0.12544492,0.07038502,-0.49622703,28.9375,30.3125,29.375,33.0,35.4375,36.5
0.12205184,0.07306669,0.14565006,-1.1817944,-0.021954184,0.09575463,-0.16991678,-0.39250365,-0.3676582,0.059922446,3.0788298,-0.62428963,0.00022801517,-0.052132044,0.014683524,0.0013021387,-0.008954371,0.0010087297,0.010071785,0.50009704,-1.3780444,1.8999809,-2.0912178,-1.570527,2.4746768,-0.07743204,0.056409266,-0.07218557,0.010586019,0.0072377715,-0.087477826,-0.17238252,0.019153614,-9.442732,0.7911258,47.711063,-1.3532723,-2.5181038,-3.3950477,-0.12805972,0.062668845,-0.44814882,28.9375,30.3125,29.375,33.0,35.4375,36.5
0.12405179,-0.59520584,0.5116931,-1.2786292,-0.017085813,0.088717684,-0.17118928,-0.39263654,-0.36763504,0.059954815,3.0787935,-0.624185,0.00015279515,-0.055351272,0.015648564,0.0025532318,-0.010512877,0.003455555,0.01036724,0.4999278,-1.377948,1.8997878,-2.091194,-1.570515,2.474447,-0.08212638,0.05694001,-0.07568026,0.010658038,0.007432583,-0.09246591,-0.17238252,-0.038307227,-9.404425,0.8112748,47.694054,-1.2172999,-2.4416554,-3.0955744,-0.14025266,0.07596621,-0.42234963,28.9375,30.3125,29.375,33.0,35.4375,36.5
0.12605223,-0.38637143,0.31001005,-1.3147907,-0.0015712748,0.10569749,-0.1745535,-0.39269328,-0.3675816,0.059916887,3.0788713,-0.62415695,0.00028580808,-0.05363473,0.015040625,0.00054468913,-0.008550727,-0.0006914824,0.019249137,0.49978513,-1.3778268,1.8997167,-2.0911338,-1.5705146,2.474277,-0.0796694,0.060168304,-0.07512512,0.011456122,0.0076913596,-0.098891854,-0.34476504,-0.095768064,-9.385271,0.8112748,47.694946,-1.3451812,-2.5230427,-3.3120465,-0.12753357,0.06580445,-0.3891466,28.9375,30.3125,29.375,33.0,35.4375,36.5
0.12805218,-0.5522166,0.3201025,-1.3780292,-0.007696837,0.11108489,-0.18098167,-0.39282432,-0.3675595,0.059927512,3.0788255,-0.62408626,0.00026419255,-0.055929977,0.015289507,0.0023486286,-0.010641655,0.0024098612,0.024162382,0.49960452,-1.3776951,1.8995365,-2.0911338,-1.5704788,2.4740582,-0.082397684,0.059099432,-0.07802524,0.011706535,0.008040368,-0.10653258,-0.34476504,0.0,-9.423578,0.73741806,47.650166,-1.3947892,-2.5022368,-3.260257,-0.14115995,0.039631084,-0.2891792,28.9375,30.3125,29.375,33.0,35.4375,36.5
0.13005249,-0.89600164,0.33895916,-1.3665383,-0.014115727,0.11362625,-0.17001668,-0.39291412,-0.36753872,0.059939772,3.0788279,-0.6239883,0.00028958532,-0.057324763,0.015900426,0.0025411204,-0.010564662,0.0029916149,0.027184073,0.49947208,-1.3775994,1.8993815,-2.0910733,-1.5704554,2.4738643,-0.0844776,0.060005646,-0.07958345,0.011890863,0.0076918164,-0.11163294,-0.38307226,-0.019153614,-9.404425,0.8112748,47.661808,-1.3569779,-2.3850594,-3.1167517,-0.15511869,0.05313001,-0.24777874,28.9375,30.3125,29.375,33.0,35.4375,36.5
0.13205245,-0.6894344,0.363138,-1.4598728,-0.018410273,0.12358355,-0.17513826,-0.3930411,-0.36749905,0.05991322,3.0788803,-0.6238422,0.00036256743,-0.057008177,0.016821895,0.0012364767,-0.00849469,0.0006069079,0.03091059,0.49928036,-1.377394,1.8991903,-2.0910375,-1.570443,2.4735749,-0.0852888,0.061626382,-0.07867682,0.012454781,0.0070151086,-0.11617018,-0.63206923,-0.038307227,-9.615114,0.8403672,47.713753,-1.3342199,-2.4073923,-3.3038049,-0.17967123,0.055069312,-0.1961065,28.9375,30.3125,29.375,33.0,35.4375,36.5
0.13405234,-0.8729551,0.41520366,-1.3927739,-0.036627386,0.13167982,-0.17697304,-0.39318922,-0.3674654,0.059960503,3.0787966,-0.623787,0.00018968867,-0.05932807,0.017946223,0.0011378906,-0.008693608,0.0004475151,0.028083304,0.49908715,-1.3773458,1.8990339,-2.0910733,-1.570443,2.473358,-0.08945433,0.06381696,-0.08111753,0.01275047,0.0072791283,-0.1175065,-0.63206923,-0.019153614,-9.576807,0.80456203,47.68599,-1.1988732,-2.6169238,-3.256731,-0.17999206,0.05241002,-0.16013564,28.9375,30.3125,29.375,33.0,35.4375,36.5
0.1360517,-1.2669768,-0.095788956,-1.4982656,-0.033602484,0.12993163,-0.17459975,-0.39327303,-0.36741558,0.05992302,3.0788512,-0.62372106,0.00038182634,-0.059332497,0.017070528,0.0027532622,-0.010108542,0.0028662211,0.028411923,0.49889633,-1.3771787,1.8989018,-2.0909889,-1.5703954,2.473119,-0.08800855,0.061548904,-0.082251094,0.01335763,0.0073501607,-0.11639031,-0.7086837,-0.095768064,-9.442732,0.79560274,47.71286,-1.411468,-2.4080138,-3.2599366,-0.18582208,0.056205302,-0.15329865,28.9375,30.3125,29.375,33.0,35.4375,36.5
0.13805257,-0.8176792,-0.24149567,-1.6585991,-0.022289125,0.14500916,-0.16955513,-0.39339727,-0.36737415,0.05994804,3.0788503,-0.62366784,0.00030305522,-0.06091459,0.019317452,0.0012193217,-0.00813115,0.00077869353,0.019930132,0.4987269,-1.3770926,1.8987349,-2.0909536,-1.5704192,2.4729166,-0.092766024,0.06436292,-0.08204902,0.0131207425,0.006618595,-0.11266419,-0.8619126,0.0,-9.615114,0.8493211,47.694054,-1.2928131,-2.446797,-3.2747474,-0.18773742,0.051887438,-0.16201232,28.9375,30.3125,29.375,33.0,35.4375,36.5
0.14005268,-1.3810037,0.093235105,-1.7062852,-0.023394627,0.12865247,-0.16178182,-0.393526,-0.36732814,0.05992924,3.0788522,-0.62364984,0.00032990437,-0.061530314,0.018890088,0.0017455145,-0.008434714,0.0020108523,0.015639907,0.49852347,-1.3769251,1.898579,-2.090953,-1.5704073,2.4727018,-0.09238324,0.06473753,-0.08371538,0.01318772,0.006292276,-0.107990086,-0.6703765,-0.076614454,-9.653421,0.69041777,47.691364,-1.24217,-2.4394417,-3.2830982,-0.21694303,0.065513596,-0.24813032,28.9375,30.3125,29.375,33.0,35.4375,36.5
0.14205165,-1.2550391,-0.1453601,-1.7090797,-0.013143286,0.11760554,-0.16390458,-0.3936321,-0.3672993,0.05993182,3.0788548,-0.6235755,0.00039613104,-0.06328972,0.019728027,0.002033527,-0.009464961,0.0024298006,0.009554535,0.49835464,-1.3767921,1.8983992,-2.090882,-1.570371,2.4724863,-0.095822684,0.06537098,-0.08510619,0.013086217,0.006992157,-0.10534473,-0.59376204,0.0,-9.672575,0.8090337,47.719128,-1.1835423,-2.3262649,-3.2967236,-0.2221576,0.04326483,-0.29118338,28.9375,30.3125,29.375,33.0,35.4375,36.5
0.14405282,-0.6291087,-0.24792165,-1.4172132,-0.006922014,0.13100196,-0.16667822,-0.39379457,-0.3672481,0.059936136,3.078833,-0.6235715,0.00032669073,-0.06501504,0.020099359,0.002467593,-0.010455305,0.0034583649,0.007743967,0.49812633,-1.3766364,1.8982075,-2.090894,-1.570383,2.4722583,-0.098234914,0.06624779,-0.08707832,0.012804011,0.007372338,-0.105945684,-0.7661445,0.038307227,-9.442732,0.7418897,47.67166,-1.1345958,-2.4109993,-3.3519819,-0.23544413,0.037618503,-0.3047009,28.9375,30.3125,29.375,33.0,35.4375,36.5
0.14605215,-0.8730545,0.13049412,-1.464106,-0.01181535,0.115967095,-0.15917861,-0.393914,-0.3672177,0.059926614,3.0788205,-0.6235106,0.00031066433,-0.06628442,0.021018475,0.0024112544,-0.01034942,0.004166556,0.0064808717,0.49795786,-1.3764921,1.8980635,-2.0909178,-1.570371,2.4720535,-0.10065262,0.066760205,-0.08739358,0.01203978,0.006942449,-0.10709924,-0.63206923,-0.095768064,-9.595961,0.779936,47.682407,-1.0055441,-2.3633296,-3.198758,-0.23681566,0.04419318,-0.34044063,28.9375,30.3125,29.375,33.0,35.4375,36.5
0.14805205,-0.7861109,0.5182353,-1.7018764,-0.02382314,0.109684624,-0.17230959,-0.39404267,-0.36716625,0.05995379,3.0788136,-0.62347156,0.0002830837,-0.06776949,0.022224465,0.0020598597,-0.009534038,0.0043334453,0.0028811316,0.49775332,-1.3764075,1.8978852,-2.0908468,-1.5703715,2.4718256,-0.10352188,0.068096586,-0.088096336,0.011652916,0.0061480277,-0.10636696,-0.4405331,-0.05746084,-9.576807,0.87617236,47.66987,-0.9455567,-2.3545363,-3.3324342,-0.23564216,0.037552897,-0.35104564,28.9375,30.3125,29.375,33.0,35.4375,36.5
0.15005185,-0.45332217,0.55525166,-1.6321127,-0.033313934,0.10673398,-0.17515205,-0.39419812,-0.36712712,0.05995054,3.0787804,-0.62350166,0.00026448257,-0.071172744,0.022037204,0.0041207345,-0.012096826,0.008462003,0.0024496014,0.4975369,-1.3762271,1.8976787,-2.0908468,-1.5703591,2.4716322,-0.106466465,0.068559,-0.09332326,0.011568872,0.006422862,-0.108878106,-0.4405331,0.0,-9.481039,0.83365434,47.668976,-0.88823813,-2.3032837,-3.1212916,-0.23578826,0.04239894,-0.3668598,28.9375,30.3125,29.375,33.0,35.4375,36.5
0.15205184,-0.07391538,0.28538814,-1.4192271,-0.02887744,0.112896785,-0.1685762,-0.39433518,-0.36708254,0.059951328,3.0787747,-0.6234041,0.0002768918,-0.071059115,0.02224444,0.0030677032,-0.012021275,0.0070268502,0.0015811473,0.49732116,-1.3760827,1.8974999,-2.0908225,-1.5703353,2.4713564,-0.10706178,0.07003096,-0.09244577,0.010518436,0.0070444928,-0.10860581,-0.51714754,0.0,-9.500193,0.7978386,47.704796,-0.8780991,-2.2228436,-3.3152194,-0.22157718,0.057812452,-0.42520785,28.9375,30.3125,29.375,33.0,35.4375,36.5
0.1540563,-0.3741804,0.23959628,-1.5909921,-0.022911245,0.111407794,-0.16621429,-0.39447463,-0.3670408,0.059958447,3.0787172,-0.62342757,0.00029864794,-0.0723208,0.022608422,0.0034136309,-0.012300149,0.007842901,0.0068768696,0.497093,-1.3759493,1.8973202,-2.0907986,-1.5702871,2.4711502,-0.10870668,0.07067851,-0.09403074,0.010615924,0.006903097,-0.115545385,-0.53630114,-0.019153614,-9.481039,0.8247004,47.679718,-0.88440895,-2.305748,-3.2549767,-0.23354964,0.035679523,-0.35218787,28.9375,30.3125,29.375,33.0,35.4375,36.5
0.15605205,-0.4559981,0.32155794,-1.4426856,-0.021547094,0.11236783,-0.17001334,-0.39463234,-0.3670013,0.05998566,3.0787082,-0.6233261,0.00021607043,-0.07266833,0.023114167,0.0029481284,-0.011437221,0.007074906,0.010935332,0.49688917,-1.3758178,1.8970941,-2.0907629,-1.570299,2.4708843,-0.10959919,0.0717847,-0.09436442,0.010933429,0.006520826,-0.12049519,-0.34476507,0.076614454,-9.404425,0.83813137,47.72629,-0.8792447,-2.275088,-3.2847354,-0.23453355,0.044821825,-0.3602656,28.9375,30.3125,29.375,33.0,35.4375,36.5
0.15805191,-0.20340171,-0.12327926,-1.434869,-0.011954502,0.11633637,-0.1665746,-0.39477044,-0.36694562,0.05996366,3.0787203,-0.62330335,0.00025991644,-0.073066175,0.02335674,0.0026417205,-0.011015508,0.005980663,0.018215984,0.49666145,-1.375637,1.8969268,-2.09075,-1.5702871,2.470641,-0.11042988,0.073121436,-0.095482185,0.011883291,0.0066718347,-0.12860638,-0.21068975,0.11492168,-9.3661175,0.784413,47.684196,-0.8872715,-2.2840712,-3.2507548,-0.2483373,0.042508632,-0.29026443,28.9375,30.3125,29.375,33.0,35.4375,36.5
0.1600521,-0.2923062,0.0013537228,-1.5549493,-0.027388621,0.09859312,-0.16957234,-0.3949278,-0.3668931,0.059979845,3.0786822,-0.62325245,0.00020073305,-0.07366521,0.023371926,0.002322051,-0.011352156,0.005202041,0.025856089,0.49642152,-1.3755167,1.896747,-2.09075,-1.5702752,2.470374,-0.111383654,0.07469166,-0.09665642,0.012016057,0.0073482594,-0.13720004,-0.22984336,0.2681506,-9.270349,0.800085,47.705692,-0.9280033,-2.289766,-3.310252,-0.26587307,0.045162626,-0.17949097,28.9375,30.3125,29.375,33.0,35.4375,36.5
0.16205224,-0.52794605,-0.52558535,-1.5115533,-0.020764772,0.07375319,-0.16477263,-0.39507118,-0.36684996,0.059993178,3.0786972,-0.62313855,0.00018638319,-0.07450591,0.024009157,0.0018467302,-0.0108014485,0.0048692203,0.026417674,0.49621758,-1.3753718,1.8965315,-2.0906913,-1.5702752,2.4700973,-0.112987034,0.076096445,-0.09717967,0.0116930995,0.00702466,-0.13936408,-0.11492168,0.15322891,-9.251195,0.7665104,47.716442,-0.9716799,-2.2649007,-3.2407873,-0.2582059,0.04899667,-0.1400149,28.9375,30.3125,29.375,33.0,35.4375,36.5
0.16405247,0.5882381,-0.017496802,-1.4418508,-0.040409695,0.081555784,-0.17434287,-0.39523724,-0.36679825,0.06000194,3.0786865,-0.62311494,0.00015888002,-0.074883156,0.023134248,0.0024505318,-0.010827213,0.006290113,0.029219797,0.49597856,-1.3752036,1.8963035,-2.0906546,-1.5702752,2.469845,-0.111413434,0.07671836,-0.0993735,0.012007763,0.0063728043,-0.14059073,-0.11492168,0.15322891,-9.232041,0.8537928,47.688675,-1.0254728,-2.359094,-3.2644463,-0.2686024,0.06179391,-0.074381866,28.9375,30.3125,29.375,33.0,35.4375,36.5
0.16605252,0.42341048,-0.31798497,-1.3692033,-0.042963434,0.07467723,-0.1704158,-0.3953814,-0.36673474,0.059984606,3.078687,-0.623023,0.0001832539,-0.077453494,0.025181036,0.0024070772,-0.010600708,0.006757615,0.020211851,0.49572533,-1.3750471,1.89616,-2.090667,-1.5702518,2.4695344,-0.116902985,0.07780566,-0.10052376,0.011772168,0.005949928,-0.13707119,-0.19153613,0.15322891,-9.212888,0.7642693,47.67345,-0.99968636,-2.1708944,-3.3108017,-0.28205603,0.07803282,-0.11779077,28.9375,30.3125,29.375,33.0,35.4375,36.5
0.16805217,0.28669822,-0.9402589,-1.3282235,-0.0262373,0.06942698,-0.16104208,-0.39553946,-0.36670288,0.060001183,3.0786734,-0.6229449,0.00010204676,-0.07732731,0.024274025,0.0013875082,-0.010331344,0.004999451,0.016427584,0.49553424,-1.3748896,1.8959326,-2.090655,-1.5702633,2.4692965,-0.11559759,0.081118576,-0.10214587,0.011751295,0.0065539693,-0.13198076,-0.1340753,0.3256114,-9.270349,0.80456203,47.684196,-1.0090659,-2.3332498,-3.2746768,-0.27467626,0.060272343,-0.18082806,28.9375,30.3125,29.375,33.0,35.4375,36.5
0.17005211,0.9986698,-0.5494495,-1.3065367,-0.02988898,0.08536923,-0.16674906,-0.39569896,-0.3666405,0.05999234,3.0786312,-0.6229966,0.00019138896,-0.078376606,0.024208067,0.0027638103,-0.012364544,0.0071336194,0.010312897,0.49524626,-1.37471,1.8957285,-2.090607,-1.5702032,2.469046,-0.11687491,0.07949902,-0.10336379,0.011749361,0.0073242094,-0.12714429,-0.076614454,0.28730422,-9.289502,0.8157518,47.71823,-1.005621,-2.3595002,-3.4002628,-0.25350684,0.03950212,-0.22260857,28.9375,30.3125,29.375,33.0,35.4375,36.5
0.17205228,0.305955,-0.40177312,-1.1183118,-0.031547528,0.06855013,-0.16049844,-0.39585036,-0.36659294,0.059994362,3.0786386,-0.6229404,0.00012640348,-0.07840068,0.02404987,0.0030353523,-0.012606876,0.0072619477,0.0075917686,0.49504277,-1.3745528,1.8955373,-2.090607,-1.570227,2.4688067,-0.116688095,0.079316646,-0.10388208,0.012218539,0.0074823946,-0.12423618,-0.076614454,0.28730422,-9.212888,0.85826975,47.719128,-1.0280786,-2.17406,-3.265356,-0.27362317,0.041315705,-0.3137613,28.9375,30.3125,29.375,33.0,35.4375,36.5
0.17405206,0.5783235,0.11733441,-1.0535883,-0.03806888,0.07217626,-0.16461615,-0.39600158,-0.36655793,0.060020115,3.0786257,-0.6228049,8.323255e-05,-0.07912839,0.024987355,0.00042635357,-0.010679289,0.0024650842,0.0036375707,0.49483812,-1.3744199,1.8953098,-2.0905588,-1.5702146,2.4685192,-0.11925376,0.08519638,-0.10503913,0.012632996,0.008070247,-0.12284664,-0.038307227,0.22984336,-9.232041,0.83365434,47.71286,-0.93158305,-2.2648249,-3.4100137,-0.28150573,0.04818115,-0.3574707,28.9375,30.3125,29.375,33.0,35.4375,36.5
0.17605208,0.09796992,-0.18350054,-1.1651512,-0.029822115,0.057007235,-0.16758448,-0.39618543,-0.3664917,0.060004767,3.0785844,-0.62289023,6.906135e-05,-0.078872375,0.02438434,0.00073193497,-0.011348665,0.0029453787,0.003349024,0.4945516,-1.3742157,1.8951076,-2.0905826,-1.5702027,2.4682913,-0.118180156,0.08486712,-0.10533237,0.012516891,0.008434798,-0.12148468,0.0,0.19153613,-9.32781,0.7418897,47.72002,-1.1569153,-2.16854,-3.313765,-0.2920233,0.048864223,-0.4183417,28.9375,30.3125,29.375,33.0,35.4375,36.5
0.17805189,0.5506057,-0.025554007,-0.9992153,-0.03773117,0.06299081,-0.17145596,-0.396322,-0.36645728,0.06002309,3.0785456,-0.62282574,6.133236e-05,-0.08042914,0.024873387,0.00031481154,-0.010815714,0.002284802,0.0007417174,0.494347,-1.3740948,1.894914,-2.0905464,-1.570167,2.4680514,-0.12028714,0.0877271,-0.1079203,0.013085625,0.008280574,-0.1209825,-0.05746084,0.22984336,-9.232041,0.8224646,47.709274,-1.017471,-2.3233523,-3.4069438,-0.30468804,0.039764576,-0.4722186,28.9375,30.3125,29.375,33.0,35.4375,36.5
0.18005179,0.41737932,-0.6233372,-1.1164099,-0.027075285,0.058230996,-0.15995598,-0.39649943,-0.36641982,0.06002387,3.0785284,-0.6228197,8.8071996e-05,-0.0816984,0.024850728,0.000849763,-0.011246306,0.0033408876,0.0026334135,0.49410722,-1.3738662,1.894627,-2.0904863,-1.5701426,2.4678102,-0.121277675,0.08858358,-0.11025111,0.01343309,0.00815719,-0.12386364,-0.05746084,0.21068975,-9.251195,0.8784135,47.731667,-1.1453468,-2.292317,-3.3338315,-0.2896102,0.041199517,-0.47061604,28.9375,30.3125,29.375,33.0,35.4375,36.5
0.18205173,0.7474684,-0.6105418,-1.111304,-0.028407631,0.07192799,-0.16794117,-0.3966625,-0.36633962,0.060012586,3.0785425,-0.62283516,9.101442e-05,-0.08296298,0.025549663,0.0013155091,-0.011339917,0.00423314,0.009631728,0.49383128,-1.3736979,1.8944472,-2.0904624,-1.5701545,2.4675422,-0.12334616,0.08865134,-0.11148142,0.013772789,0.007819065,-0.13292974,-0.019153614,0.21068975,-9.251195,0.86945957,47.737934,-1.1706051,-2.2843509,-3.259458,-0.30637693,0.059074678,-0.4852912,28.9375,30.3125,29.375,33.0,35.4375,36.5
0.18405259,-0.006742546,-0.2551866,-1.167257,-0.041128602,0.06483293,-0.1693376,-0.3968182,-0.36630353,0.059996024,3.0785182,-0.6227684,0.0001697926,-0.082749866,0.02574446,-0.0011030743,-0.009869635,-0.00016394207,0.016458958,0.4935916,-1.3734798,1.8942202,-2.0904386,-1.5700945,2.467264,-0.12392429,0.09352319,-0.11180034,0.01380033,0.008609875,-0.14033525,0.038307227,0.24899697,-9.251195,0.75755644,47.69763,-1.1173646,-2.4609845,-3.3443995,-0.30159882,0.05841387,-0.4179117,28.9375,30.3125,29.375,33.0,35.4375,36.5
0.18605177,-0.5009203,-1.0315425,-1.1356145,-0.02753149,0.064870894,-0.15592337,-0.39696902,-0.36626017,0.05998968,3.078601,-0.6225867,0.00013708876,-0.08508038,0.025649158,0.0013462943,-0.012136903,0.0039135604,0.025948357,0.49341127,-1.3732752,1.8939804,-2.0903904,-1.5701426,2.46696,-0.12587874,0.09178981,-0.11549827,0.014567809,0.008672326,-0.1517782,0.019153614,0.2681506,-9.270349,0.8314132,47.690468,-1.1892016,-2.2763789,-3.1055112,-0.31095263,0.0552807,-0.28972572,28.9375,30.3125,29.375,33.0,35.4375,36.5
0.1880526,-0.7640904,-0.68444055,-1.1995672,-0.04956609,0.07394738,-0.15857354,-0.39716563,-0.3662103,0.060009927,3.0785081,-0.62250614,8.38594e-05,-0.08456182,0.026773646,-0.0012635278,-0.009804653,-0.0004137475,0.031358764,0.49311146,-1.3731191,1.8937544,-2.0904148,-1.5700825,2.4666216,-0.12724777,0.0953532,-0.11372477,0.01416278,0.0086893765,-0.15855698,-0.114921674,0.21068975,-9.270349,0.8627467,47.64837,-1.1911597,-2.3259816,-3.443572,-0.33316284,0.046996575,-0.22112387,28.9375,30.3125,29.375,33.0,35.4375,36.5
0.19005159,-0.2390596,-0.2612975,-1.1843128,-0.049992226,0.09679133,-0.17143494,-0.39731365,-0.366155,0.05999912,3.0785594,-0.62236136,0.00012634398,-0.086667374,0.025936723,0.0013372627,-0.01318912,0.004144946,0.033052802,0.4928837,-1.3729275,1.8935374,-2.0903547,-1.5700821,2.4662971,-0.1282107,0.09350827,-0.11744647,0.014112725,0.0095023,-0.16121398,-0.22984336,0.24899697,-9.155427,0.7597976,47.667187,-1.1898648,-2.3373237,-3.1781466,-0.30848897,0.0378757,-0.1598567,28.9375,30.3125,29.375,33.0,35.4375,36.5
0.19205236,-0.27320492,-0.19365902,-1.3386427,-0.028548816,0.10537535,-0.16746676,-0.39748618,-0.3661032,0.05999831,3.0785172,-0.622296,0.00020142151,-0.087867945,0.027032558,0.00015906831,-0.012172452,0.0021134648,0.028433386,0.4925954,-1.3727342,1.8932985,-2.090307,-1.5700101,2.4659734,-0.13112642,0.096619986,-0.11854874,0.014387056,0.009567202,-0.15950952,-0.3256114,0.15322891,-9.289502,0.8291774,47.65643,-1.2285461,-2.3679295,-3.245975,-0.3352083,0.03624301,-0.14654931,28.9375,30.3125,29.375,33.0,35.4375,36.5
0.19405232,-0.018889077,0.13873446,-1.2542318,-0.027733121,0.11953894,-0.15254927,-0.39765665,-0.3660389,0.059985116,3.0785666,-0.6221935,0.0001659371,-0.089461006,0.02765502,5.6054883e-05,-0.011710136,0.0019815678,0.02235589,0.492355,-1.3725294,1.893082,-2.0902946,-1.5700463,2.465663,-0.1333507,0.09871006,-0.12097019,0.0150485225,0.0092185205,-0.15565477,-0.47884032,0.15322891,-9.346964,0.86498255,47.67614,-1.1543874,-2.4216084,-3.215252,-0.32099402,0.018595163,-0.21578804,28.9375,30.3125,29.375,33.0,35.4375,36.5
0.19605255,-1.0168892,0.3262289,-1.2416835,-0.016457532,0.10075444,-0.16117764,-0.39783823,-0.3659808,0.05999017,3.0785365,-0.6222114,0.00017656063,-0.09181076,0.028684434,0.0005008038,-0.0129942475,0.0030790442,0.012610229,0.49207795,-1.3723369,1.8928307,-2.090247,-1.5700225,2.465401,-0.1375279,0.09949114,-0.12281047,0.014534038,0.009827887,-0.150086,-0.57460845,0.095768064,-9.385271,0.8112748,47.703903,-1.1156523,-2.4489791,-3.1141772,-0.3666503,0.032515276,-0.27513942,28.9375,30.3125,29.375,33.0,35.4375,36.5
0.19805236,-0.44537333,0.4261139,-1.301537,-0.010970958,0.13401958,-0.16364363,-0.3980141,-0.36594886,0.059989706,3.0784967,-0.6221043,0.00021129622,-0.09143042,0.02722141,2.9914028e-05,-0.013219334,0.0021844567,0.014251994,0.49182764,-1.3721198,1.892568,-2.0902226,-1.5699624,2.4650888,-0.1350522,0.10197836,-0.12475263,0.014679918,0.010449856,-0.14925142,-0.7278373,0.05746084,-9.404425,0.78217715,47.693153,-1.1516324,-2.5060558,-3.17552,-0.34792987,0.010551037,-0.31555465,28.9375,30.3125,29.375,33.0,35.4375,36.5
0.20005241,-1.0722239,0.48251835,-1.4262894,-0.010156745,0.13785537,-0.16940737,-0.39818028,-0.36589453,0.05997281,3.0784762,-0.6220619,0.0002472882,-0.09303261,0.027852105,0.00074712146,-0.013697854,0.0038996644,0.011550792,0.4915634,-1.3719157,1.8923634,-2.0902226,-1.5699261,2.4648008,-0.13726445,0.101885065,-0.12626235,0.01455427,0.010060504,-0.14876153,-0.80445176,-0.05746084,-9.481039,0.8537928,47.68599,-1.0594245,-2.4914844,-3.1637778,-0.34778777,0.004506544,-0.36022633,28.9375,30.3125,29.375,33.0,35.4375,36.5
0.2020524,-1.3108486,0.46376383,-1.3424122,-0.021132482,0.15658687,-0.16865973,-0.39837927,-0.3658442,0.059984542,3.0784395,-0.622033,0.00025789542,-0.09301021,0.027496371,0.0005300111,-0.014020638,0.0030579292,0.012739868,0.4912763,-1.3716991,1.8920654,-2.0901625,-1.5698899,2.4645004,-0.1370052,0.10292474,-0.12712003,0.014968832,0.010747734,-0.14969142,-0.91937345,-0.038307227,-9.5385,0.80679786,47.690468,-1.2947085,-2.4285734,-3.1602154,-0.3515586,0.0064079436,-0.3675418,28.9375,30.3125,29.375,33.0,35.4375,36.5
0.20405245,-1.8830996,0.26199964,-1.4061658,-0.018054321,0.1566783,-0.17215027,-0.3985646,-0.36578825,0.05998179,3.0784104,-0.6220053,0.00025303764,-0.09457441,0.028221093,0.00078269246,-0.013907004,0.0040726825,0.014716001,0.4909999,-1.3714945,1.8918256,-2.090151,-1.5698661,2.4642105,-0.13921888,0.10375868,-0.12868407,0.014869978,0.010173598,-0.15387973,-0.8236054,0.038307227,-9.5385,0.8291774,47.68062,-1.2309194,-2.4630651,-3.1833215,-0.35867515,0.017373933,-0.37535495,28.9375,30.3125,29.375,33.0,35.4375,36.5
0.20605221,-1.3599436,0.50712377,-1.4942149,-0.016549228,0.16191913,-0.16791478,-0.39875674,-0.36569223,0.059976723,3.0784652,-0.6219928,0.00026183247,-0.09608968,0.030137451,0.00052785815,-0.012998396,0.0036233517,0.019108627,0.49068734,-1.3712902,1.8915747,-2.0900671,-1.5699023,2.4638834,-0.14337954,0.10432006,-0.12890534,0.0153611945,0.009585931,-0.16243272,-0.68953013,0.076614454,-9.653421,0.84484416,47.66987,-1.1558143,-2.4119587,-3.2838786,-0.34743965,-0.0028669925,-0.3137722,28.9375,30.3125,29.375,33.0,35.4375,36.5
0.2080524,-1.0837063,0.38707167,-1.6977179,-0.01210337,0.14657702,-0.17203784,-0.3989601,-0.36564836,0.059975415,3.0784352,-0.62184507,0.00026983122,-0.096004345,0.02948844,5.3913955e-05,-0.013105794,0.0029370456,0.0308865,0.49040017,-1.3710495,1.8912882,-2.0900548,-1.5698541,2.463508,-0.14240725,0.10604451,-0.12986048,0.0151651995,0.01001472,-0.17323782,-0.5554548,-0.17238252,-9.672575,0.87393653,47.683304,-1.2050381,-2.3643188,-3.184609,-0.34411514,-0.0032926113,-0.20391172,28.9375,30.3125,29.375,33.0,35.4375,36.5
0.21005222,-0.8216655,0.75356954,-1.4628766,-0.01906473,0.13689677,-0.16477224,-0.39916182,-0.36558673,0.05998251,3.078399,-0.62181395,0.0002489566,-0.09840572,0.030040005,0.001819562,-0.013891136,0.007053441,0.03505023,0.49010018,-1.3708458,1.891024,-2.090031,-1.5698308,2.4631932,-0.14466214,0.10496026,-0.13255323,0.014958134,0.008775919,-0.17965408,-0.6703765,-0.17238252,-9.557653,0.7978386,47.666286,-1.0886111,-2.3625264,-3.277895,-0.36165363,0.0068856585,-0.101811916,28.9375,30.3125,29.375,33.0,35.4375,36.5
0.21205206,-0.6620716,0.45153403,-1.6177042,-0.0026843785,0.12999731,-0.16436383,-0.39938176,-0.3655219,0.059992574,3.0783904,-0.6216388,0.0001387964,-0.098112956,0.031251848,-0.0008881528,-0.010826583,0.0034108923,0.03554424,0.48980033,-1.3706398,1.8907613,-2.0900552,-1.5698427,2.4627852,-0.14576134,0.10891373,-0.13092256,0.014035605,0.0078060613,-0.18124573,-0.7469909,-0.1340753,-9.423578,0.80679786,47.70032,-1.1508026,-2.5086114,-3.2855947,-0.35432106,0.029045418,-0.04558629,28.9375,30.3125,29.375,33.0,35.4375,36.5
0.2140522,-0.48523346,0.9141462,-1.7369902,-0.0023062963,0.13136776,-0.1592544,-0.39956695,-0.3654541,0.059976995,3.0784109,-0.6216062,0.00019343413,-0.09905077,0.03180727,0.0003285252,-0.01168275,0.0056447936,0.028576052,0.4895125,-1.3704005,1.890498,-2.0899956,-1.5698313,2.4624746,-0.14728479,0.106864154,-0.13127549,0.014064701,0.007503336,-0.17580125,-0.63206923,-0.21068975,-9.634268,0.8224646,47.704796,-1.108552,-2.3139863,-3.3727484,-0.3522603,0.041110862,-0.08901822,28.9375,30.3125,29.375,33.0,35.4375,36.5
0.21605228,0.13029769,0.8299753,-1.4986002,-0.0064601577,0.14543305,-0.16427003,-0.39976206,-0.36537528,0.059961475,3.078411,-0.6215146,0.00022147346,-0.099108115,0.031967487,-0.0015975557,-0.010518641,0.002540683,0.018994972,0.4891891,-1.3701828,1.8902711,-2.0899837,-1.5698065,2.462094,-0.14780156,0.110963106,-0.13172367,0.013698058,0.007930295,-0.16673654,-0.49799395,-0.2681506,-9.691729,0.842603,47.71465,-1.1721499,-2.5571148,-3.4158494,-0.33317292,0.0322525,-0.16143335,28.9375,30.3125,29.375,33.0,35.4375,36.5
0.21805225,-0.43087292,0.45037797,-1.4556185,-0.00878202,0.11918004,-0.15653697,-0.39994562,-0.3653062,0.059950404,3.078409,-0.621517,0.0002462988,-0.10127441,0.031995308,0.00053904176,-0.012247584,0.006630373,0.011398453,0.4889011,-1.3699672,1.8900312,-2.089948,-1.5697955,2.461808,-0.14947973,0.109426886,-0.1348154,0.013903641,0.007526503,-0.16081704,-0.47884032,-0.13407528,-9.461885,0.8784135,47.694946,-1.205956,-2.3863955,-3.5164094,-0.33659062,0.049312755,-0.25093964,28.9375,30.3125,29.375,33.0,35.4375,36.5
0.22005217,0.03387267,0.6949379,-1.6628035,-0.015910411,0.10530363,-0.1625263,-0.40018427,-0.3652353,0.059969325,3.0784116,-0.62142116,0.00012746805,-0.100112945,0.033238847,-0.0012662008,-0.010047598,0.003320686,0.0074391286,0.48858958,-1.3697386,1.8897103,-2.089924,-1.5698313,2.4614365,-0.15021451,0.11029278,-0.13178091,0.01395358,0.007156788,-0.15759276,-0.34476504,-0.076614454,-9.5385,0.8784135,47.71286,-1.2736843,-2.3337173,-3.6356955,-0.32442814,0.059113473,-0.33187604,28.9375,30.3125,29.375,33.0,35.4375,36.5
0.22205208,0.23881544,0.26237074,-1.5850213,-0.014811713,0.09242092,-0.16601709,-0.40036038,-0.36514822,0.059942473,3.078416,-0.6215014,0.00019636494,-0.102182664,0.03280717,0.000102326834,-0.011694652,0.0059200767,0.0010511191,0.48827773,-1.3695223,1.8895053,-2.0898883,-1.5698193,2.4611742,-0.15141878,0.110904105,-0.13569407,0.014185863,0.007375921,-0.15240802,-0.1340753,-0.095768064,-9.595961,0.85155696,47.703903,-1.2241979,-2.3174253,-3.4337637,-0.30848718,0.041769974,-0.42530686,28.9375,30.3125,29.375,33.0,35.4375,36.5
0.22405212,0.6396227,-0.10167058,-1.8259149,-0.021765685,0.07677736,-0.16587876,-0.40060756,-0.36510798,0.060000066,3.0783143,-0.62144077,7.465493e-05,-0.10394247,0.033439234,0.0002064851,-0.0120713385,0.006342002,-0.00046078977,0.48796567,-1.3693297,1.8891338,-2.0898402,-1.5697826,2.4608374,-0.15406442,0.112450525,-0.13779494,0.014199578,0.0075303,-0.15353993,-0.076614454,0.076614454,-9.576807,0.7642693,47.67345,-1.2776393,-2.232172,-3.5043201,-0.32161728,0.062983416,-0.5045498,28.9375,30.3125,29.375,33.0,35.4375,36.5
0.22605227,0.7905982,0.046232253,-1.6325864,-0.039295338,0.07409816,-0.16820583,-0.40082058,-0.36504257,0.059983596,3.0782607,-0.6214996,8.576875e-05,-0.104559146,0.033050682,0.00087671727,-0.012487378,0.00758829,0.008878339,0.48764268,-1.3690758,1.8888711,-2.0898516,-1.5697469,2.460558,-0.15375729,0.112584285,-0.13959031,0.014582872,0.007324194,-0.16257103,-0.11492168,0.2681506,-9.385271,0.8403672,47.68062,-1.2788717,-2.2640717,-3.4388008,-0.30730522,0.08420995,-0.4704718,28.9375,30.3125,29.375,33.0,35.4375,36.5
0.22805223,1.0246438,-0.57789373,-1.9794049,-0.040803652,0.08083875,-0.17068316,-0.4010274,-0.36495343,0.059963476,3.078316,-0.6214461,7.992065e-05,-0.10622999,0.03429406,-8.753405e-05,-0.011702762,0.005985463,0.018540263,0.48733,-1.3688241,1.8886083,-2.0898154,-1.5697831,2.460205,-0.15730724,0.115741245,-0.141264,0.0148919765,0.007387698,-0.17578208,0.038307227,0.30645782,-9.576807,0.83589023,47.67614,-1.0042691,-2.257037,-3.4489698,-0.33059672,0.08834134,-0.36545032,28.9375,30.3125,29.375,33.0,35.4375,36.5
0.23005225,1.4671315,-0.14131969,-1.8475217,-0.07672882,0.090978265,-0.18763982,-0.40125135,-0.3648699,0.059980586,3.0782738,-0.62145156,3.399341e-05,-0.10723047,0.035100427,0.0005724176,-0.012908083,0.0061008167,0.027323063,0.4869816,-1.3686322,1.8883322,-2.0897791,-1.5697707,2.4598656,-0.16010746,0.11488945,-0.14197075,0.01579668,0.008420375,-0.1873655,0.11492168,0.34476504,-9.691729,0.8247004,47.690468,-0.9850168,-2.255913,-3.4638982,-0.33084774,0.093755454,-0.25427145,28.9375,30.3125,29.375,33.0,35.4375,36.5
0.23205213,0.098836064,-1.1576176,-1.9873122,-0.080521815,0.059248038,-0.16739646,-0.4014643,-0.36480492,0.059984893,3.0782936,-0.6213163,2.0895088e-05,-0.108377814,0.035001505,0.00059073366,-0.013442488,0.0062219873,0.03267032,0.48668194,-1.3683912,1.8880213,-2.08972,-1.5697707,2.459479,-0.16114743,0.116690494,-0.14420602,0.015881063,0.008841662,-0.19375187,0.05746084,0.45968673,-9.576807,0.7933669,47.70032,-0.919868,-2.2884789,-3.4703884,-0.3224311,0.080122724,-0.18578517,28.9375,30.3125,29.375,33.0,35.4375,36.5
0.23405199,0.13213252,-1.9440807,-1.7997702,-0.086790055,0.07400642,-0.16498673,-0.40167618,-0.36473364,0.059985474,3.0782685,-0.6212355,4.047578e-06,-0.109423324,0.0356438,-3.267153e-05,-0.012707547,0.0050896695,0.029344479,0.48635787,-1.3681741,1.8877581,-2.0897076,-1.5697464,2.4591079,-0.16300823,0.11908232,-0.14579222,0.016426677,0.008728162,-0.19228558,-0.1340753,0.61291564,-9.576807,0.7866488,47.694946,-0.977689,-2.297967,-3.4058852,-0.31008568,0.07343291,-0.17539923,28.9375,30.3125,29.375,33.0,35.4375,36.5
0.23605189,0.21048406,-1.6111625,-1.8718566,-0.09474066,0.09611332,-0.16940717,-0.40188864,-0.36466032,0.059981633,3.078282,-0.62110585,6.956813e-05,-0.11011944,0.035420246,0.00030029344,-0.01331779,0.0057719434,0.022931485,0.48602295,-1.3679218,1.8874468,-2.0896237,-1.5697106,2.4586904,-0.16330035,0.119675,-0.14728731,0.016443703,0.008939776,-0.18616448,-0.11492168,0.51714754,-9.595961,0.80456203,47.68062,-1.1829592,-2.3642612,-3.417528,-0.30879095,0.104027495,-0.2217778,28.9375,30.3125,29.375,32.9375,35.4375,36.5
0.23805171,0.12137336,-0.7977583,-1.6221268,-0.107767396,0.09794955,-0.17302556,-0.402134,-0.36461604,0.060006604,3.078167,-0.6211018,-2.7158303e-05,-0.111718476,0.034135092,0.0013326261,-0.01514914,0.007879286,0.018840054,0.48569965,-1.3676928,1.887122,-2.0896475,-1.569662,2.4583793,-0.16287212,0.121349335,-0.15164718,0.016415615,0.009587799,-0.1816423,-0.019153614,0.51714754,-9.710882,0.85155696,47.677036,-1.1794424,-2.3382277,-3.225461,-0.31345415,0.10269448,-0.30144823,28.9375,30.3125,29.375,32.9375,35.4375,36.5
0.2400518,0.09640961,-1.2829634,-1.414241,-0.08818815,0.097323425,-0.16339315,-0.4023606,-0.36454153,0.060016505,3.0781927,-0.620993,-7.964514e-05,-0.114070155,0.03414466,0.0026375435,-0.016903782,0.010670582,0.014257019,0.4853875,-1.3674526,1.8867992,-2.089588,-1.5696863,2.4579961,-0.16504848,0.12173826,-0.1550337,0.016120974,0.00983576,-0.17923424,-0.038307227,0.4405331,-9.576807,0.83589023,47.703007,-1.1036584,-2.3403945,-3.254004,-0.30572692,0.09836507,-0.33303976,28.9375,30.3125,29.375,32.9375,35.4375,36.5
0.24205177,0.39284766,-0.2960863,-1.3807057,-0.07937234,0.08865451,-0.1781309,-0.40259096,-0.36447838,0.06003568,3.0781183,-0.6209391,-9.059118e-05,-0.11495997,0.03508099,0.0015324376,-0.01636025,0.009406183,0.012419156,0.48503926,-1.3672355,1.8864883,-2.0895522,-1.5696262,2.4576237,-0.1673931,0.124016926,-0.15507616,0.015271205,0.009959228,-0.17974013,-0.076614454,0.49799395,-9.519346,0.800085,47.709274,-1.0397431,-2.3207788,-3.1350603,-0.25582,0.10965204,-0.36106217,28.9375,30.3125,29.375,32.9375,35.4375,36.5
0.24405168,0.3203822,-0.6325108,-1.4070963,-0.05111152,0.07113106,-0.17049345,-0.40282965,-0.3644064,0.06003966,3.0781133,-0.62091315,-0.00019677314,-0.11660402,0.03499256,0.0014400395,-0.017350731,0.009575151,0.016279722,0.48472774,-1.3669826,1.886177,-2.0895522,-1.5696615,2.4572968,-0.16911457,0.1265504,-0.15783314,0.014883555,0.010771152,-0.18532056,0.05746084,0.38307226,-9.442732,0.842603,47.666286,-0.9993612,-2.3948424,-3.1516132,-0.26445,0.0992928,-0.34988606,28.9375,30.3125,29.375,32.9375,35.4375,36.5
0.24605255,0.2371533,-0.53589886,-1.1320034,-0.03894573,0.054620422,-0.16239847,-0.40306455,-0.36433932,0.060043447,3.0781002,-0.6208101,-0.00020200245,-0.11868792,0.03527868,0.002423432,-0.01786139,0.012251269,0.023409631,0.48439187,-1.3667182,1.8858417,-2.0895045,-1.5696381,2.4568985,-0.17086731,0.12707599,-0.16065942,0.01459886,0.009989212,-0.19420156,-0.019153614,0.24899697,-9.32781,0.8784135,47.67345,-0.91444063,-2.403661,-3.122485,-0.24059005,0.10627292,-0.29807657,28.9375,30.3125,29.375,32.9375,35.4375,36.5
0.24805258,0.5453737,0.025159977,-0.9592892,-0.03466565,0.07568205,-0.17719343,-0.40328538,-0.36427397,0.06002295,3.0780866,-0.6206641,-0.00016425339,-0.117656276,0.03555979,0.0013548223,-0.016708035,0.009680897,0.035560194,0.48405656,-1.3664398,1.8855556,-2.0895045,-1.5695904,2.4564738,-0.17045192,0.12793943,-0.15947852,0.015391734,0.010189322,-0.20593722,-0.17238252,0.17238252,-9.270349,0.8537928,47.689575,-0.9691874,-2.4027104,-3.1425064,-0.21904317,0.13064185,-0.18277603,28.9375,30.3125,29.375,32.9375,35.4375,36.5
0.25005236,0.75894195,0.23235258,-1.0229907,-0.009092382,0.09889714,-0.16192806,-0.403555,-0.36422563,0.06007963,3.0780096,-0.6204909,-0.0003136581,-0.117621325,0.035762846,-0.0003474987,-0.016045922,0.006186757,0.040220335,0.48372084,-1.366224,1.8851608,-2.0894682,-1.5695657,2.45604,-0.17131753,0.13152651,-0.16000362,0.015742127,0.011269402,-0.21146117,-0.24899697,0.038307227,-9.32781,0.81351066,47.701214,-0.99933946,-2.5317626,-3.1372201,-0.20486543,0.10011704,-0.06436397,28.9375,30.3125,29.375,32.9375,35.4375,36.5
0.25205222,-0.3914312,0.8003141,-0.76592225,-0.009122053,0.095116585,-0.1660358,-0.4037866,-0.36415836,0.060057733,3.0779948,-0.62037414,-0.0002657178,-0.11869264,0.03653108,0.00064767885,-0.016558476,0.007210004,0.03600498,0.4833729,-1.3659242,1.8848494,-2.0894563,-1.5695175,2.455621,-0.17344378,0.13035731,-0.16117534,0.016950618,0.011249785,-0.209372,-0.3256114,-0.076614454,-9.308656,0.79560274,47.703903,-1.0226737,-2.2905076,-3.2378552,-0.191385,0.09805474,-0.09014055,28.9375,30.3125,29.375,32.9375,35.4375,36.5
0.25405198,-0.0438525,0.91046184,-0.49832252,-0.007832178,0.12880987,-0.18256198,-0.40403613,-0.3640869,0.06007217,3.077934,-0.6203431,-0.0002726267,-0.11790053,0.0360021,-0.00020542035,-0.016595,0.004797317,0.029721184,0.48300228,-1.3656714,1.8845032,-2.0894077,-1.5694693,2.4552388,-0.1724624,0.13198519,-0.16137058,0.017638668,0.012409309,-0.20210639,-0.3256114,-0.11492168,-9.232041,0.8247004,47.71286,-1.1407461,-2.4854314,-3.293557,-0.17139593,0.10997966,-0.11986341,28.9375,30.3125,29.375,32.9375,35.4375,36.5
0.25605166,-0.8944516,1.4119698,-0.5012495,-0.0061197495,0.11488559,-0.16800413,-0.4042503,-0.36403856,0.060084436,3.0779426,-0.62019396,-0.00034246375,-0.11851251,0.03619674,-0.00030592718,-0.016393974,0.0045042625,0.021523053,0.48273888,-1.3654307,1.8841795,-2.089372,-1.5694813,2.4548814,-0.17321913,0.13309985,-0.16261137,0.01810951,0.012368748,-0.19466385,-0.38307226,-0.19153613,-9.193734,0.8493211,47.699425,-1.2262242,-2.469674,-3.2651997,-0.1839627,0.09435603,-0.22979234,28.9375,30.3125,29.375,32.9375,35.4375,36.5
0.2580517,-0.5741778,1.2585675,-0.36606568,0.010035985,0.12708195,-0.17896529,-0.4044981,-0.36395383,0.06007426,3.0779011,-0.6201894,-0.00033450473,-0.118931755,0.0366826,-0.0005243005,-0.015293874,0.0046494408,0.012578256,0.48235583,-1.3651545,1.8838695,-2.08936,-1.569446,2.454501,-0.17365624,0.13382977,-0.16304386,0.018198417,0.011323513,-0.18615556,-0.47884035,-0.22984336,-9.11712,0.85826975,47.678825,-1.4484998,-2.2816978,-3.357081,-0.16434942,0.09774609,-0.3374738,28.9375,30.3125,29.375,32.9375,35.4375,36.5
0.26005203,-0.002773616,2.1257052,-0.31241998,0.008435599,0.12573245,-0.19231908,-0.4047517,-0.3638746,0.060073033,3.0778651,-0.62016356,-0.0003516019,-0.120225675,0.036425367,0.00045458684,-0.016545203,0.0066918354,0.008434962,0.48198393,-1.3648762,1.8835338,-2.0893362,-1.5694216,2.4541175,-0.1743593,0.13383335,-0.1652647,0.018029692,0.011486018,-0.18271422,-0.45968673,-0.28730422,-9.002198,0.8112748,47.677036,-1.3389957,-2.459068,-3.2831397,-0.15329765,0.10637558,-0.45391667,28.9375,30.3125,29.375,32.9375,35.4375,36.5
0.2620517,-0.7152151,1.3067578,-0.57697225,0.050507028,0.08247152,-0.16533606,-0.40499374,-0.363776,0.06005687,3.0778608,-0.62023586,-0.00036279185,-0.12078327,0.037620623,-0.00087857986,-0.014286442,0.0046622395,0.0102154445,0.48161238,-1.3646008,1.8832353,-2.0893118,-1.569434,2.4537919,-0.1761089,0.13652806,-0.16561705,0.018542938,0.010434316,-0.18624376,-0.30645782,-0.2873042,-9.078813,0.8806493,47.690468,-1.2461237,-2.3492017,-3.3563113,-0.12910996,0.11711846,-0.48510045,28.9375,30.3125,29.375,32.9375,35.4375,36.5
0.26405275,0.1320075,1.7389979,-0.65003175,0.03725518,0.08541234,-0.19059728,-0.40522522,-0.3637293,0.060067635,3.0778368,-0.6200119,-0.00037479485,-0.122341834,0.037042413,0.0018490423,-0.016683701,0.009469015,0.022393784,0.48130056,-1.3643376,1.8828877,-2.0892756,-1.5693864,2.4533434,-0.17636405,0.133635,-0.16846514,0.018942947,0.010358386,-0.1986763,-0.34476507,-0.24899697,-9.097966,0.84708,47.672558,-1.3911942,-2.205927,-3.202692,-0.13002042,0.12755461,-0.40434176,28.9375,30.3125,29.375,32.9375,35.4375,36.5
0.26605257,0.41635206,1.7123529,-0.7942239,0.015540314,0.09909122,-0.18781756,-0.40547967,-0.36363888,0.060077988,3.0778294,-0.61996305,-0.00037673497,-0.1235415,0.036620896,0.0026375393,-0.017309058,0.011272814,0.036456812,0.48091707,-1.3640732,1.8825287,-2.0891922,-1.569374,2.4529305,-0.17644541,0.13434342,-0.17116313,0.019070812,0.0101010725,-0.21281958,-0.3256114,-0.19153613,-9.11712,0.8179876,47.689575,-1.5335772,-2.2012277,-3.3748806,-0.107948035,0.1297265,-0.2661271,28.9375,30.3125,29.375,32.9375,35.4375,36.5
0.26805246,-0.25502738,1.0649556,-1.1170337,0.0060312,0.094290204,-0.18428208,-0.40570444,-0.3635639,0.060048338,3.077819,-0.6198613,-0.00028521952,-0.12345146,0.037947796,0.0014442677,-0.014965991,0.008134967,0.042317476,0.4805565,-1.3637723,1.8822302,-2.0891678,-1.5693139,2.4525077,-0.17811535,0.13611376,-0.17107815,0.0211106,0.009490039,-0.22035041,-0.3256114,-0.05746084,-9.2703495,0.8247004,47.682407,-1.4738431,-2.1412652,-3.315472,-0.10312706,0.14422095,-0.16036946,28.9375,30.3125,29.375,32.9375,35.4375,36.5
0.2700523,-0.38126066,0.6035516,-1.263726,-0.014212956,0.09589618,-0.18224798,-0.40592882,-0.363453,0.06002543,3.0779145,-0.61972976,-0.00024475422,-0.12448402,0.038909975,0.0014067682,-0.0145875765,0.0062222127,0.037603997,0.48019534,-1.3634955,1.8819312,-2.0890825,-1.5693501,2.4520526,-0.18087126,0.13750596,-0.17331013,0.02381248,0.010028086,-0.21839271,-0.22984336,0.038307227,-9.481039,0.88960326,47.690468,-1.4172337,-2.1351395,-3.2642746,-0.11739069,0.14746013,-0.15713078,28.9375,30.3125,29.375,32.9375,35.4375,36.5
0.27205208,-0.13163643,-0.49690264,-1.3072361,-0.035299513,0.09620706,-0.17338648,-0.40621233,-0.36337218,0.06003731,3.0778847,-0.61968994,-0.00031615322,-0.12496385,0.040431045,0.00080830255,-0.013350175,0.0035686512,0.02823368,0.47981068,-1.363195,1.8815359,-2.0890458,-1.5693501,2.451647,-0.1838068,0.13853641,-0.17375393,0.026145563,0.0101683345,-0.2119573,-0.36391866,0.15322891,-9.461885,0.90750587,47.747787,-1.3950535,-2.1329708,-3.206014,-0.123289354,0.14516202,-0.21619573,28.9375,30.3125,29.375,32.9375,35.4375,36.5
0.27405196,-0.34263602,-0.5876318,-1.4060028,-0.064575695,0.094135165,-0.17849275,-0.4064274,-0.36328438,0.060038146,3.0779371,-0.61958647,-0.0002561189,-0.12580581,0.040633947,0.00073233136,-0.012537805,0.0036992517,0.023455646,0.47947457,-1.3629421,1.8812011,-2.0889142,-1.5693501,2.4512398,-0.18430248,0.14009343,-0.1756063,0.026700288,0.0093714595,-0.2076745,-0.45968673,0.21068975,-9.481039,0.84708,47.689575,-1.3702161,-2.1842198,-3.228803,-0.1503927,0.1670093,-0.30450028,28.9375,30.3125,29.375,32.9375,35.4375,36.5
0.2760517,-0.18475612,-0.4305973,-2.04212,-0.07873338,0.09807918,-0.18739626,-0.4066876,-0.36321557,0.060058594,3.077853,-0.6195142,-0.00032450169,-0.12759764,0.04156511,0.0010893482,-0.013156933,0.0044328747,0.017710738,0.47910172,-1.3627015,1.8808664,-2.0889142,-1.5693024,2.4508326,-0.18745573,0.14076655,-0.17726544,0.026758883,0.009598383,-0.20508137,-0.36391866,0.3256114,-9.691729,0.8560339,47.696735,-1.2431109,-2.2165232,-3.3424985,-0.15427855,0.18715423,-0.38062716,28.9375,30.3125,29.375,32.9375,35.4375,36.5
0.2780525,-0.79621446,-0.81223613,-1.9347278,-0.096564844,0.09474867,-0.18720074,-0.40692937,-0.3631283,0.06003862,3.0778842,-0.61946386,-0.00022338926,-0.1286721,0.042068407,0.00025756663,-0.013122358,0.0032727134,0.017104365,0.47872856,-1.3623742,1.880495,-2.0888064,-1.5692781,2.4504242,-0.18943347,0.1434268,-0.1785341,0.02642184,0.010091071,-0.2064526,-0.28730422,0.40222588,-9.864111,0.8806493,47.66271,-1.2093204,-2.3580823,-3.3599863,-0.13822281,0.19199648,-0.36877325,28.9375,30.3125,29.375,32.9375,35.4375,36.5
0.28005242,-0.83514404,-1.9163433,-2.061561,-0.09068235,0.099961445,-0.18332878,-0.40720588,-0.36301753,0.060020275,3.0778904,-0.6194395,-0.00024943327,-0.1295945,0.042903334,-0.0013041148,-0.012142674,0.0007466785,0.02496253,0.4783078,-1.3620629,1.8801607,-2.088795,-1.5692896,2.4499876,-0.19170776,0.14724062,-0.17959729,0.02638028,0.010401586,-0.21658409,-0.34476504,0.34476504,-9.940725,0.9254084,47.67345,-1.1953492,-2.279769,-3.3644018,-0.14215428,0.19631255,-0.3537671,28.9375,30.3125,29.375,32.9375,35.4375,36.5
0.2820522,-0.7902028,-1.1228551,-1.9322894,-0.10044363,0.10678575,-0.1880434,-0.40745282,-0.3629532,0.060039345,3.0778494,-0.61925274,-0.0002479239,-0.13117328,0.043266382,-0.0007121011,-0.014102032,0.0015625348,0.034742184,0.47794682,-1.3618106,1.8798012,-2.0887349,-1.569229,2.4495153,-0.19443181,0.14752746,-0.18126768,0.026168983,0.011792069,-0.22908685,-0.3256114,0.34476504,-9.959879,0.85826975,47.696735,-1.023132,-2.2958808,-3.4301612,-0.15941632,0.20394799,-0.18787587,28.9375,30.3125,29.375,32.9375,35.4375,36.5
0.28405216,-1.0131058,-1.0055557,-1.9059428,-0.089983776,0.108600445,-0.19365756,-0.40773413,-0.36286038,0.06003549,3.077849,-0.61917377,-0.00024918566,-0.13220368,0.04417046,-0.0017624767,-0.014202368,8.919313e-05,0.038433567,0.47753814,-1.3614854,1.8794063,-2.0886753,-1.5692171,2.4490576,-0.19719432,0.14989038,-0.18159012,0.025405599,0.012570521,-0.23554024,-0.17238252,0.38307226,-9.921572,0.8784135,47.688675,-0.9917342,-2.404684,-3.3996568,-0.14045678,0.2032507,-0.1260978,28.9375,30.3125,29.375,32.9375,35.4375,36.5
0.286052,-0.82521206,-0.98226684,-1.7550257,-0.06654765,0.10981005,-0.18205757,-0.4080169,-0.36277747,0.060062308,3.0777862,-0.6190472,-0.0003284916,-0.13194835,0.044033375,-0.003149601,-0.013431116,-0.0018156485,0.034868613,0.47713053,-1.3612322,1.8790363,-2.0886514,-1.5691813,2.448579,-0.19673665,0.15261818,-0.18159965,0.02474028,0.012777014,-0.23151608,-0.30645782,0.19153613,-9.902418,0.84484416,47.68062,-1.0876043,-2.478467,-3.504681,-0.12817916,0.20251581,-0.11176801,28.9375,30.3125,29.375,32.9375,35.4375,36.5
0.28805178,-0.45252264,-0.14912315,-1.4831808,-0.060783166,0.11349362,-0.18897715,-0.40829295,-0.362712,0.060077902,3.077754,-0.61887443,-0.00036543407,-0.13347164,0.04415883,-0.0036981478,-0.013373844,-0.002105775,0.023948427,0.47675788,-1.3609309,1.8786286,-2.0886037,-1.5691451,2.4481027,-0.19819248,0.15587217,-0.18422352,0.024392137,0.012853013,-0.22204958,-0.40222588,0.22984336,-9.749189,0.84484416,47.696735,-1.0427533,-2.4072967,-3.3813982,-0.10833943,0.19749886,-0.18939105,28.9375,30.3125,29.375,32.9375,35.4375,36.5
0.29005197,0.1663125,-0.13356616,-1.4594847,-0.03239254,0.11290427,-0.18391766,-0.40852112,-0.36262184,0.060041595,3.07777,-0.6188042,-0.0002724543,-0.13479514,0.04366685,-0.0010391275,-0.016153375,0.0029801226,0.015040048,0.47638616,-1.3606204,1.8783301,-2.088568,-1.5691093,2.4476852,-0.19847436,0.15228716,-0.18586585,0.023823578,0.012963613,-0.21342371,-0.36391866,0.17238252,-9.653421,0.85826975,47.682407,-1.1015482,-2.4617982,-3.440636,-0.08460881,0.22084473,-0.3166422,28.9375,30.3125,29.375,32.9375,35.4375,36.5
0.2920521,-0.5070197,0.20171648,-1.1480922,-0.028811984,0.099244215,-0.18290533,-0.40883192,-0.36253136,0.060077313,3.0777416,-0.61874306,-0.00041007547,-0.13430119,0.043060787,-0.0022118029,-0.015343454,0.0010912722,0.009726854,0.4759787,-1.3603315,1.8778886,-2.088508,-1.5691332,2.4472435,-0.19698349,0.15505575,-0.18656243,0.023790412,0.013120405,-0.20661783,-0.45968673,0.076614454,-9.576807,0.85155696,47.719128,-1.1950412,-2.469214,-3.5424824,-0.06916563,0.21003109,-0.4329033,28.9375,30.3125,29.375,32.9375,35.4375,36.5
0.29405227,0.10790083,0.7107903,-1.0110561,-0.028633287,0.11348193,-0.19070357,-0.40911403,-0.36246046,0.060070764,3.0776386,-0.61877835,-0.00041307064,-0.13517863,0.042404935,-0.0019392772,-0.0155584505,0.0019460378,0.0113141965,0.47557065,-1.3600074,1.8775171,-2.0885203,-1.5690612,2.4468706,-0.19639488,0.15679461,-0.18936692,0.024020467,0.012931796,-0.2076147,-0.3256114,0.0,-9.32781,0.9254084,47.694946,-1.3555838,-2.4604757,-3.5385628,-0.047638968,0.21518545,-0.513995,28.9375,30.3125,29.375,32.9375,35.4375,36.5
0.29605237,-0.1183381,0.65560097,-0.8768747,-0.00860231,0.09906522,-0.19135873,-0.4094113,-0.36234617,0.060071018,3.0776582,-0.61875576,-0.0005039127,-0.13688026,0.042357165,-0.0014965462,-0.016485428,0.002685562,0.021931112,0.47515023,-1.359695,1.8771328,-2.0884836,-1.5691088,2.4464338,-0.19796723,0.15856382,-0.19264002,0.02445644,0.013443584,-0.2198021,-0.17238252,-0.038307227,-9.32781,0.8672237,47.696735,-1.4192793,-2.5209303,-3.529033,-0.039890833,0.226047,-0.45887423,28.9375,30.3125,29.375,32.9375,35.4375,36.5
0.2980516,-0.16374864,0.86207813,-0.7503992,0.008763204,0.08419376,-0.18497331,-0.4096646,-0.3622973,0.060070932,3.077606,-0.61852455,-0.00045324187,-0.13788064,0.04244517,-0.0002819117,-0.01735918,0.0049855965,0.03666756,0.47479007,-1.3593836,1.8767508,-2.0884478,-1.569013,2.445936,-0.19870743,0.15736988,-0.1940523,0.024671366,0.013204865,-0.23527825,-0.05746084,-0.11492168,-9.251195,0.8717007,47.688675,-1.499727,-2.3770545,-3.368752,-0.032274965,0.22398502,-0.30458608,28.9375,30.3125,29.375,32.9375,35.4375,36.5
0.30005255,0.39843905,0.99319583,-0.7087879,0.019716276,0.06842203,-0.18290111,-0.40996543,-0.36220452,0.060085967,3.077593,-0.6184424,-0.0005396734,-0.13996467,0.042657476,0.00062056823,-0.018916901,0.006316179,0.042491738,0.47438127,-1.3590717,1.8763312,-2.0884001,-1.5690249,2.4454777,-0.20121652,0.15831381,-0.19739294,0.025187021,0.014010965,-0.24360928,-0.019153614,-0.13407528,-9.212888,0.8985519,47.687782,-1.3343165,-2.2793925,-3.2515903,-0.023933869,0.22254458,-0.16265209,28.9375,30.3125,29.375,32.9375,35.4375,36.5
0.30205256,0.5155084,1.1260252,-0.79250985,0.017159903,0.049329612,-0.16826984,-0.41025352,-0.3621095,0.06008982,3.0775783,-0.61832654,-0.00061349047,-0.14092135,0.043153636,0.001207097,-0.018507916,0.0068313517,0.037483253,0.47397283,-1.358772,1.8759593,-2.0883873,-1.5690249,2.444999,-0.20237537,0.15852341,-0.1993547,0.026668873,0.013424151,-0.23975852,-0.076614454,-0.05746084,-9.078813,0.89631605,47.698532,-1.3286555,-2.268489,-3.1649823,0.0027990793,0.24093631,-0.16252945,28.9375,30.3125,29.375,32.9375,35.4375,36.5
0.30405217,1.0206571,1.0212265,-0.745585,0.014719739,0.048570607,-0.19245876,-0.41052893,-0.36202586,0.06008478,3.077533,-0.6182065,-0.00047530842,-0.14119127,0.043976292,-0.00015923135,-0.016696002,0.0031764118,0.02950946,0.47352847,-1.358435,1.8755411,-2.088279,-1.5689167,2.4444854,-0.20387083,0.1618845,-0.2008565,0.028908659,0.013468242,-0.23327973,-0.1340753,-0.019153614,-9.155427,0.9186956,47.695843,-1.3109337,-2.3168848,-3.2213213,-0.013749616,0.24722174,-0.24326065,28.9375,30.3125,29.375,32.9375,35.4375,36.5
0.3060521,0.40458515,0.46963912,-1.0748923,0.00070427207,0.03840962,-0.16727,-0.41079167,-0.36192277,0.060089566,3.0775397,-0.6181546,-0.00054323056,-0.14226337,0.045312934,0.00076075096,-0.01652712,0.0034044597,0.020976864,0.47314355,-1.358172,1.8752054,-2.0882418,-1.5689405,2.4440675,-0.20675217,0.16066909,-0.20203148,0.031163456,0.013218372,-0.22762808,-0.095768064,0.019153614,-9.232041,0.88960326,47.716442,-1.2626941,-2.2099469,-3.2804737,-0.031087063,0.24732272,-0.331244,28.9375,30.3125,29.375,32.9375,35.4375,36.5
0.30805197,0.83475804,0.08970112,-1.1409161,-0.0298437,0.075177185,-0.19243653,-0.41110665,-0.3618308,0.06010899,3.077516,-0.6180735,-0.00059019536,-0.14376546,0.04606691,0.0017808176,-0.017532993,0.004395693,0.017168546,0.47271058,-1.3578365,1.8747386,-2.0881574,-1.5689286,2.443587,-0.20943014,0.16010313,-0.20397703,0.03233932,0.01367415,-0.22649652,-0.11492168,0.19153613,-9.289502,0.88960326,47.693153,-1.2320386,-2.1431503,-3.3503797,-0.043112397,0.2690974,-0.3843949,28.9375,30.3125,29.375,32.9375,35.4375,36.5
0.31005192,-0.32401907,-0.8552651,-1.2426876,-0.042823885,0.07484631,-0.17903459,-0.41134375,-0.36171496,0.0600644,3.0775886,-0.6179871,-0.00039417107,-0.14360926,0.047212362,0.001122766,-0.016249046,0.0019275611,0.02293066,0.47229037,-1.3574884,1.874391,-2.0880258,-1.5688928,2.4431038,-0.21107288,0.16069596,-0.20369105,0.034270342,0.01364705,-0.23390341,-0.076614454,0.11492168,-9.289502,0.8717007,47.704796,-1.0909657,-2.065826,-3.352803,-0.041733984,0.24165061,-0.3765635,28.9375,30.3125,29.375,32.9375,35.4375,36.5
0.31205168,-0.15806863,-1.105476,-1.3397331,-0.04750546,0.10224867,-0.18030417,-0.4116447,-0.36164722,0.06009597,3.077527,-0.61783385,-0.00042172277,-0.14418066,0.04888418,0.0005165966,-0.015135252,-0.0013908976,0.032991912,0.47188124,-1.3571763,1.8739246,-2.087941,-1.5688328,2.442607,-0.21455568,0.16197465,-0.20461515,0.03742154,0.014213916,-0.24744615,-0.15322891,0.17238252,-9.385271,0.8672237,47.719128,-1.0508499,-2.122611,-3.3699374,-0.10252784,0.2618398,-0.2511433,28.9375,30.3125,29.375,32.9375,35.4375,36.5
0.31405196,-0.1989896,-0.6540648,-1.2629,-0.051815554,0.117144614,-0.17908095,-0.41194245,-0.3615385,0.060102906,3.0775292,-0.6176981,-0.00043954552,-0.14450723,0.049577273,-7.182398e-05,-0.014784273,-0.0036465945,0.0384227,0.47143567,-1.3568643,1.8735169,-2.0878685,-1.5688204,2.4420764,-0.2162942,0.16348371,-0.20549865,0.038985707,0.014949177,-0.2546145,-0.2681506,0.076614454,-9.5385,0.8291774,47.704796,-0.86964357,-2.0054946,-3.3620758,-0.11424657,0.26197147,-0.1167869,28.9375,30.3125,29.375,32.9375,35.4375,36.5
0.31605187,0.08701726,-0.13401979,-1.3736261,-0.045152374,0.12257462,-0.17681645,-0.41222614,-0.36143503,0.06009736,3.0775406,-0.61754775,-0.0004136481,-0.14467393,0.049964853,-0.00053663854,-0.014829191,-0.006096211,0.034953732,0.4710037,-1.3565401,1.8731226,-2.087796,-1.5687956,2.4415493,-0.21764241,0.16492964,-0.20666167,0.0408698,0.016099507,-0.25249287,-0.53630114,0.17238252,-9.5385,0.8090337,47.70211,-0.88030046,-2.121983,-3.342451,-0.16799563,0.24939999,-0.11776942,28.9375,30.3125,29.375,32.9375,35.4375,36.5
0.31805182,-1.004045,0.08133856,-1.4526297,-0.03739087,0.10205547,-0.17987962,-0.41250324,-0.36134008,0.06007726,3.0775492,-0.6174754,-0.0003348148,-0.14397623,0.048608847,-0.0017977502,-0.013718266,-0.008043797,0.029213259,0.47058517,-1.3561788,1.8727139,-2.087712,-1.5687598,2.4410846,-0.21455103,0.16870175,-0.2084636,0.04113798,0.015963987,-0.24366054,-0.5554548,0.17238252,-9.461885,0.88289046,47.68599,-1.1423295,-2.3242655,-3.451617,-0.1874988,0.25412828,-0.18583784,28.9375,30.3125,29.375,32.9375,35.4375,36.5
0.32005173,-0.4269719,0.15029673,-1.1043221,-0.02547611,0.12588517,-0.17370187,-0.4127889,-0.3612558,0.06008848,3.077518,-0.6173779,-0.00034384392,-0.14408208,0.047967456,-0.0027258298,-0.014137472,-0.008442193,0.020298325,0.4701775,-1.3558664,1.8722962,-2.0876415,-1.568724,2.4406202,-0.21375157,0.17105676,-0.20882863,0.039306894,0.016502842,-0.23394488,-0.7469909,0.05746084,-9.423578,0.8537928,47.698532,-1.338923,-2.2870817,-3.5307255,-0.19792885,0.25709483,-0.32347736,28.9375,30.3125,29.375,32.9375,35.4375,36.5
0.3220517,-0.41223955,0.6325054,-1.4707389,-0.028211094,0.12947032,-0.18174689,-0.4131036,-0.36114615,0.06009696,3.0774806,-0.61739206,-0.00034952888,-0.14464821,0.047694735,-0.0030759047,-0.0139463665,-0.008967646,0.012515445,0.4697098,-1.3555301,1.8718528,-2.087557,-1.5686997,2.4401662,-0.21365209,0.1732642,-0.2108253,0.039648306,0.016556453,-0.2260612,-0.4405331,0.1340753,-9.404425,0.9231726,47.686886,-1.4574203,-2.3305035,-3.4965925,-0.19709623,0.24415532,-0.46180612,28.9375,30.3125,29.375,32.9375,35.4375,36.5
0.32405192,-0.45679423,0.4663167,-1.3552176,-0.028759116,0.11948893,-0.18576501,-0.41337058,-0.36107293,0.060088538,3.0774755,-0.61731243,-0.0002999785,-0.14553076,0.048080422,-0.0036088163,-0.013512144,-0.011056225,0.0136939185,0.46933722,-1.3551813,1.8714322,-2.0874727,-1.568664,2.4397447,-0.21525566,0.17601669,-0.21342848,0.041576296,0.017114358,-0.22884211,-0.2681506,0.076614454,-9.442732,0.8537928,47.688675,-1.4809766,-2.3201413,-3.4334404,-0.2381346,0.2488542,-0.50279456,28.9375,30.3125,29.375,32.9375,35.4375,36.5
0.3260519,-0.49914584,0.21258073,-1.332665,-0.038435403,0.09600041,-0.19175172,-0.4136931,-0.3609736,0.060095746,3.077452,-0.6172223,-0.0003210997,-0.1463756,0.04831102,-0.0033290046,-0.013409217,-0.009805418,0.027119411,0.46888107,-1.3548219,1.8709663,-2.0874012,-1.5686401,2.4392354,-0.21581466,0.1764044,-0.21451426,0.04125039,0.016487334,-0.24282606,-0.28730422,0.13407528,-9.3661175,0.9254084,47.690468,-1.4838676,-2.4237983,-3.4401412,-0.23878902,0.27633035,-0.42429194,28.9375,30.3125,29.375,32.9375,35.4375,36.5
0.32805184,0.1433013,-0.66269976,-1.2375494,-0.03816204,0.10268968,-0.17832194,-0.41400778,-0.36087865,0.060115304,3.0774064,-0.6170308,-0.00036379317,-0.1490678,0.0486936,-0.003158263,-0.013291768,-0.008094682,0.03932609,0.46842444,-1.354509,1.8705338,-2.087353,-1.568592,2.4386652,-0.21807247,0.17959046,-0.21869846,0.040828895,0.015644941,-0.25728807,-0.24899697,0.19153613,-9.270349,0.8627467,47.67345,-1.4084553,-2.2240682,-3.4028275,-0.27314165,0.27435425,-0.27576858,28.9375,30.3125,29.375,32.9375,35.4375,36.5
0.3300518,-0.45359778,-0.7406507,-1.1200001,-0.036295023,0.08148823,-0.1779721,-0.4142935,-0.36077824,0.060095843,3.0774677,-0.6168907,-0.0003606263,-0.15037915,0.048969842,-0.0015565136,-0.014719841,-0.0044648536,0.041267257,0.46802786,-1.3541381,1.8701142,-2.0872815,-1.5686163,2.4381735,-0.21927911,0.1773941,-0.2195521,0.040003356,0.015277959,-0.26043656,-0.26815057,0.13407528,-9.346964,0.9030289,47.694946,-1.4135871,-2.272967,-3.4764135,-0.27127418,0.2790802,-0.18442434,28.9375,30.3125,29.375,32.9375,35.4375,36.5
0.3320518,0.29491752,0.076219216,-1.2922766,-0.04397987,0.09308063,-0.18343247,-0.41460344,-0.3606792,0.060103618,3.077407,-0.61678755,-0.00030772825,-0.15141669,0.049913038,-0.0018069823,-0.0145132085,-0.0046614297,0.033050727,0.46754736,-1.3538021,1.8696722,-2.0871975,-1.5685323,2.4376364,-0.22150704,0.1783777,-0.22021733,0.039969973,0.01517551,-0.25444746,-0.2681506,0.15322891,-9.289503,0.90750587,47.719128,-1.4289868,-2.209053,-3.4201112,-0.27594626,0.29967895,-0.2474758,28.9375,30.3125,29.375,32.9375,35.4375,36.5
0.3340517,0.26977393,-0.1834525,-0.9702186,-0.031964976,0.08641921,-0.16351163,-0.41490397,-0.36053416,0.06007162,3.0774784,-0.6168075,-0.00028121556,-0.15336363,0.050857637,-0.0015209204,-0.016082484,-0.004538462,0.022120975,0.4670783,-1.3534299,1.8692764,-2.0871136,-1.56858,2.437171,-0.2253824,0.17934424,-0.22211252,0.04005709,0.016489508,-0.24739261,-0.34476507,0.19153613,-9.289502,0.9231726,47.687782,-1.4018196,-2.2799473,-3.4325466,-0.29182595,0.2825637,-0.3307004,28.9375,30.3125,29.375,32.9375,35.4375,36.5
0.33605167,0.6793518,0.06984267,-0.8295441,-0.027984787,0.10377454,-0.18105651,-0.41518497,-0.36046737,0.060073443,3.0774372,-0.6166678,-0.0001726994,-0.15436834,0.05155781,-0.0019888303,-0.01575482,-0.004295631,0.01759381,0.46666935,-1.3530697,1.8688105,-2.086995,-1.5684837,2.43668,-0.22699764,0.180735,-0.2225675,0.039077457,0.016076662,-0.24448085,-0.61291564,0.21068975,-9.193734,0.88960326,47.688675,-1.1896973,-2.319919,-3.492994,-0.29887545,0.29819718,-0.40154105,28.9375,30.3125,29.375,32.9375,35.4375,36.5
0.33805248,-0.40385458,0.2643313,-1.105713,-0.026463386,0.08878335,-0.17262663,-0.41552353,-0.3603657,0.06010065,3.077393,-0.6166181,-0.00027888754,-0.15760526,0.052145846,-0.00035230457,-0.018359639,-0.0010849141,0.021329718,0.46621227,-1.352734,1.8683299,-2.0869348,-1.5684837,2.4361978,-0.2310953,0.18099284,-0.22657813,0.03881331,0.016988762,-0.25231132,-0.2873042,0.1340753,-9.251195,0.88289046,47.68062,-1.0598207,-2.1400526,-3.4034576,-0.3027946,0.29199097,-0.38997403,28.9375,30.3125,29.375,32.9375,35.4375,36.5
0.34005237,0.3974983,0.63491714,-1.044457,-0.03980776,0.1206161,-0.20209843,-0.41583925,-0.36026445,0.060093194,3.0773642,-0.6165072,-0.00019656158,-0.15889217,0.05212571,0.0010452165,-0.01926358,0.0011802756,0.035128426,0.4657318,-1.3523506,1.8678621,-2.086839,-1.5684117,2.4356518,-0.23185816,0.18029371,-0.22917148,0.03973731,0.016805258,-0.2668727,-0.24899697,0.095768064,-9.308657,0.9231726,47.68062,-1.0089507,-2.2085805,-3.3078623,-0.3277301,0.29472217,-0.27700794,28.9375,30.3125,29.375,32.9375,35.4375,36.5
0.34205234,-0.74280083,0.43793342,-1.0999968,-0.031249253,0.09264558,-0.17559709,-0.41615793,-0.36016205,0.06007378,3.077354,-0.6164231,-0.00018799263,-0.15879215,0.051061,-2.1874319e-05,-0.019316329,7.825978e-05,0.046450604,0.4652762,-1.3519539,1.8674186,-2.0868032,-1.5683874,2.4351451,-0.23015954,0.18357375,-0.2305859,0.03886799,0.017368296,-0.27649495,-0.24899697,0.05746084,-9.193734,0.88960326,47.723602,-1.0341789,-2.2489135,-3.2460263,-0.34184662,0.29817083,-0.12787941,28.9375,30.3125,29.375,32.9375,35.4375,36.5
0.3440523,-0.5136947,0.5312272,-0.926775,-0.04184618,0.11561429,-0.17349334,-0.41644552,-0.36005932,0.060060743,3.0773828,-0.6162005,-9.735194e-05,-0.16004287,0.05079375,-0.0004785567,-0.020495906,0.0013759097,0.043734815,0.46483225,-1.3515936,1.8669885,-2.0866964,-1.5683392,2.4345586,-0.23088054,0.18569788,-0.23153041,0.036014266,0.017821867,-0.27449995,-0.4405331,0.076614454,-9.32781,0.8940802,47.694946,-1.1416703,-2.2081566,-3.3163123,-0.31553492,0.29365867,-0.10062589,28.9375,30.3125,29.375,32.9375,35.4375,36.5
0.34605217,-0.9684192,0.17783234,-1.3053619,-0.02568058,0.10739502,-0.17111932,-0.41676435,-0.35993746,0.06004717,3.0774083,-0.61609715,-5.772414e-05,-0.1611403,0.0507439,-0.0008795324,-0.020380018,0.001207848,0.03247852,0.46435222,-1.351209,1.8665327,-2.086601,-1.5683273,2.434011,-0.23150994,0.18835662,-0.23387402,0.03588758,0.017765721,-0.26387239,-0.4405331,0.11492168,-9.32781,0.93436235,47.690468,-1.3114569,-2.2798605,-3.4211416,-0.29469165,0.28488374,-0.18723367,28.9375,30.3125,29.375,32.9375,35.4375,36.5
0.34805202,-0.13400815,0.38520977,-1.3563089,-0.04222685,0.11784147,-0.17745043,-0.41707242,-0.3598257,0.060047075,3.0773726,-0.61613494,-2.2742977e-05,-0.16185707,0.05060803,-0.0005572313,-0.021396201,0.0019005397,0.020495243,0.46388406,-1.3508608,1.8660902,-2.0865052,-1.5682915,2.433571,-0.23206031,0.18878508,-0.23511903,0.035617467,0.018343307,-0.25243884,-0.2681506,0.076614454,-9.423578,0.9388393,47.687782,-1.3043647,-2.2837448,-3.434868,-0.32923615,0.28109646,-0.35971892,28.9375,30.3125,29.375,32.9375,35.4375,36.5
0.35005194,-0.28594524,-0.23620203,-1.0556084,-0.05295936,0.11805913,-0.16788796,-0.41743243,-0.35974148,0.060065992,3.07734,-0.61595786,-0.00015710521,-0.16215841,0.05069177,-0.0012226438,-0.020433338,0.002139327,0.015282767,0.4634402,-1.3504652,1.8655633,-2.0864813,-1.5682915,2.433021,-0.23167905,0.19041288,-0.23539048,0.03447599,0.017392557,-0.2468435,-0.63206923,0.11492168,-9.289502,0.89631605,47.70032,-1.4473777,-2.0984821,-3.4372106,-0.31029922,0.30057934,-0.47759026,28.9375,30.3125,29.375,32.9375,35.4375,36.5
0.3520517,-0.2545446,-0.030109888,-1.3895836,-0.041689906,0.10276336,-0.17976718,-0.41773129,-0.35963625,0.060028974,3.077355,-0.61587816,-3.7419224e-05,-0.16312349,0.051248584,-0.000435004,-0.02074099,0.0040768054,0.023302978,0.46298417,-1.3500458,1.8651208,-2.0863974,-1.5682439,2.4325135,-0.2328921,0.1894608,-0.23604809,0.034260076,0.016808894,-0.25607827,-0.32561144,0.21068975,-9.289503,0.9164598,47.683304,-1.5251952,-2.185727,-3.460439,-0.3008928,0.30465043,-0.46777827,28.9375,30.3125,29.375,32.9375,35.4375,36.5
0.3540517,0.34299082,0.5516292,-1.3517882,-0.0441103,0.1120133,-0.1829877,-0.4180806,-0.35953307,0.060048327,3.0772982,-0.61580074,-0.00011850373,-0.1643552,0.051013615,-0.0004037222,-0.021707898,0.005442473,0.038686406,0.46250373,-1.3496854,1.8646301,-2.0863502,-1.5682195,2.431992,-0.23352233,0.19101298,-0.23772189,0.03278226,0.017118346,-0.27208978,-0.15322891,0.15322891,-9.481039,0.96569055,47.67166,-1.4552684,-2.1838412,-3.5947967,-0.2880955,0.32168996,-0.3281953,28.9375,30.3125,29.375,32.9375,35.4375,36.5
0.356052,-0.25054458,-0.04408504,-1.4654064,-0.039765727,0.08883231,-0.17051114,-0.41840252,-0.35939974,0.060023807,3.0773377,-0.6157092,-7.571751e-05,-0.16640957,0.05178823,-0.0012175894,-0.02214205,0.0054133004,0.044460397,0.46201068,-1.3492888,1.8641866,-2.0862677,-1.5682191,2.431437,-0.23660149,0.19432922,-0.2396085,0.031214997,0.017527618,-0.2809423,-0.019153614,0.17238252,-9.481039,0.8940802,47.687782,-1.4084098,-2.2470825,-3.5066028,-0.26252013,0.31838703,-0.19612089,28.9375,30.3125,29.375,32.9375,35.4375,36.5
0.358052,0.34802663,0.16874883,-1.3664303,-0.06295921,0.08977101,-0.17070965,-0.4187317,-0.35933742,0.060031574,3.077298,-0.61545616,-0.00013332891,-0.16806744,0.052091062,-0.0012479015,-0.023072919,0.005976754,0.03861043,0.46160203,-1.3488925,1.8636836,-2.0862434,-1.5681714,2.4308755,-0.23866712,0.1962159,-0.24174194,0.030551434,0.018124897,-0.2771553,-0.19153613,0.2681506,-9.461885,0.9164598,47.647476,-1.3252676,-2.274738,-3.5812118,-0.23630773,0.30222774,-0.1823101,28.9375,30.3125,29.375,32.9375,35.4375,36.5
0.36005193,0.29045236,-0.263696,-1.4523741,-0.053316567,0.074235335,-0.16306403,-0.41908473,-0.35919937,0.060029652,3.0772705,-0.61545545,-0.00012626729,-0.17000338,0.05275444,-0.00060628663,-0.024096038,0.0068901647,0.028543636,0.46106142,-1.3485082,1.8632034,-2.086159,-1.5681471,2.4303381,-0.24148677,0.19709036,-0.24444705,0.031104697,0.018626314,-0.26990676,-0.24899697,0.2681506,-9.423578,0.8918391,47.67614,-1.2762473,-2.3772902,-3.5104804,-0.23170477,0.32436645,-0.30786663,28.9375,30.3125,29.375,32.9375,35.4375,36.5
0.36205196,0.75072074,0.3972852,-1.6948016,-0.056896742,0.07428474,-0.16944414,-0.41942772,-0.35910177,0.060023803,3.0772026,-0.61538965,-0.000103574734,-0.17219764,0.053566974,-0.00026946847,-0.023910096,0.008399273,0.01998411,0.46056834,-1.3481001,1.8627113,-2.0861113,-1.5680751,2.4298127,-0.24395955,0.19877686,-0.24730954,0.031026958,0.017787324,-0.26381892,-0.24899697,0.19153613,-9.519346,0.90527004,47.694054,-1.0841848,-2.4160578,-3.361539,-0.20600757,0.32650468,-0.37338609,28.9375,30.3125,29.375,32.9375,35.4375,36.5
0.36405224,0.5525855,0.42050904,-1.4583677,-0.05837437,0.08451908,-0.18064171,-0.4197735,-0.35899007,0.060006708,3.0771775,-0.6153242,-5.7168276e-05,-0.17177033,0.053493645,-0.0016113506,-0.023290833,0.0061942623,0.024640601,0.46006447,-1.3476675,1.8622097,-2.0860403,-1.5680274,2.4292712,-0.24354003,0.20118126,-0.24721588,0.030811334,0.018228903,-0.26805553,-0.22984336,0.2681506,-9.576807,0.86945957,47.687782,-1.1578217,-2.5489345,-3.3750648,-0.20840332,0.3305906,-0.40722957,28.9375,30.3125,29.375,32.9375,35.4375,36.5
0.3660522,0.055710495,-0.40891483,-1.215484,-0.054835208,0.101339,-0.1696008,-0.4200859,-0.358886,0.06002227,3.0771735,-0.6151232,-5.2398605e-05,-0.17321731,0.053323776,-0.0013126296,-0.02428448,0.0068854745,0.037724078,0.4596083,-1.3473314,1.8617424,-2.085932,-1.5679907,2.4286902,-0.24464856,0.20296195,-0.2501422,0.030952191,0.018851096,-0.2822457,-0.24899697,0.2681506,-9.481039,0.90750587,47.69763,-1.1901581,-2.4334645,-3.4772744,-0.1765925,0.3432015,-0.2788702,28.9375,30.3125,29.375,32.9375,35.4375,36.5
0.36805254,-0.26615554,-0.09585597,-1.306212,-0.070722364,0.12723927,-0.17563711,-0.4204547,-0.35878038,0.060013942,3.0771391,-0.61499774,-7.901906e-05,-0.17560308,0.05387464,-0.0003979926,-0.025812447,0.008448105,0.044218462,0.4591035,-1.3468877,1.861215,-2.0858958,-1.5679549,2.4281116,-0.2477602,0.20395301,-0.25359106,0.03137635,0.019565143,-0.29184932,-0.30645782,0.21068975,-9.461885,0.8806493,47.688675,-1.0939846,-2.4967318,-3.3579464,-0.1732354,0.3156454,-0.14665005,28.9375,30.3125,29.375,32.9375,35.4375,36.5
0.370052,-0.32673165,0.21814382,-1.3554996,-0.06691504,0.12835337,-0.16718279,-0.4207885,-0.3586835,0.06000737,3.0771217,-0.6148829,-3.5355682e-05,-0.17756842,0.05293903,0.0014108756,-0.028641528,0.010967762,0.040365726,0.458635,-1.3464676,1.8606986,-2.0858004,-1.5679063,2.4275737,-0.24847838,0.20431337,-0.25841522,0.032337695,0.020980075,-0.28871223,-0.4213795,0.21068975,-9.576807,0.9254084,47.688675,-1.1651039,-2.4289231,-3.2213721,-0.15899986,0.30329275,-0.14927882,28.9375,30.3125,29.375,32.9375,35.4375,36.5
0.37205204,-0.5708418,0.5086041,-1.2039151,-0.071628064,0.11805948,-0.1721384,-0.4211481,-0.35857123,0.06000099,3.0770576,-0.61483544,-5.883867e-05,-0.17615853,0.052062795,0.00042194087,-0.02844887,0.008530159,0.032524455,0.45812017,-1.3460567,1.8602089,-2.085776,-1.5678581,2.4270375,-0.24617532,0.20570628,-0.2580582,0.03285115,0.021891315,-0.27856612,-0.6703765,0.24899697,-9.500193,0.8851263,47.690468,-1.2621942,-2.4781206,-3.2213483,-0.14611252,0.29798734,-0.2363301,28.9375,30.3125,29.375,32.9375,35.4375,36.5
0.37405196,-0.42431295,0.023766022,-1.1314069,-0.06385127,0.12568064,-0.16647488,-0.42150968,-0.35846305,0.060002606,3.076972,-0.6148255,-7.9993006e-05,-0.17595567,0.052445635,0.0002437661,-0.028491586,0.007339257,0.02016976,0.45760375,-1.345652,1.8597058,-2.0857394,-1.567798,2.4265258,-0.24676445,0.20570555,-0.2579358,0.033770077,0.02245807,-0.26679897,-0.842759,0.2681506,-9.3661175,0.90750587,47.67614,-1.2569883,-2.4098358,-3.48534,-0.13276908,0.26721624,-0.39843965,28.9375,30.3125,29.375,32.9375,35.4375,36.5
0.37605184,-0.4118457,0.21448481,-1.0523304,-0.054965496,0.13350925,-0.1768123,-0.42184415,-0.35835874,0.059991863,3.0769744,-0.61469245,-5.59534e-06,-0.17527527,0.052266963,0.00036569496,-0.027922701,0.0069722566,0.01919951,0.45712385,-1.3452208,1.8591794,-2.0856197,-1.5677499,2.4259627,-0.24548641,0.20523083,-0.25796747,0.03487516,0.022109454,-0.26455185,-0.7852981,0.21068975,-9.404425,0.97240865,47.698532,-1.3923771,-2.2007165,-3.5351021,-0.12088138,0.26444185,-0.50615746,28.9375,30.3125,29.375,32.9375,35.4375,36.5
