Tylouw/Master_Thesis_Code/training_data/batch_1/rect_rod_t0.2/sample_57_session_2.csv
timestamp[s],tcp_force_x[N],tcp_force_y[N],tcp_force_z[N],tcp_force_rx[Nm?],tcp_force_ry[Nm?],tcp_force_rz[Nm?],tcp_pose_x[m],tcp_pose_y[m],tcp_pose_z[m],tcp_pose_rx[rot_vec_x],tcp_pose_ry[rot_vec_y],tcp_pose_rz[rot_vec_z],tcp_velo_x[m/s],tcp_velo_y[m/s],tcp_velo_z[m/s],tcp_velo_rx[rot_vec_x/s],tcp_velo_ry[rot_vec_y/s],tcp_velo_rz[rot_vec_z/s],q1[rad],q2[rad],q3[rad],q4[rad],q5[rad],q6[rad],qd1[rad/s],qd2[rad/s],qd3[rad/s],qd4[rad/s],qd5[rad/s],qd6[rad/s],tool_acc_x,tool_acc_y,tool_acc_z,current_of_whole_robot[A],voltage_of_whole_robot[V],current_J1[A],current_J2[A],current_J3[A],current_J4[A],current_J5[A],current_J6[A],temp_J1[C],temp_J2[C],temp_J3[C],temp_J4[C],temp_J5[C],temp_J6[C]
7.180006e-07,-0.5296948,-1.119894,-0.32401025,-0.011969546,0.014700061,0.003023989,-0.3893442,-0.36871874,0.060004734,-3.078695,0.6249646,0.00021962402,0.00044541623,0.0002727867,0.00012653186,0.00049038243,-0.0011621909,-1.07303595e-05,0.50503284,-1.381632,1.9041985,-2.0919268,-1.5708655,2.4800491,-0.00012777574,-0.0005975255,-2.5879815e-06,0.0018539601,0.0001374735,-0.000117533426,0.1340753,0.17238252,-8.6574335,0.75084364,47.776443,-0.18370956,-3.121901,-2.2935972,-0.21675172,0.119355395,-0.025572885,28.9375,30.3125,29.3125,32.9375,35.4375,36.5
0.002052505,-1.0566875,-1.1140909,-0.2140204,-0.012771566,0.0076028113,0.0064041046,-0.38935956,-0.3687174,0.06000451,-3.0787246,0.6249129,0.00022490215,-0.0013470124,-0.0007246952,-0.0007113871,-0.0029853587,0.005088399,-9.685385e-06,0.50500876,-1.3816195,1.904188,-2.0919435,-1.5708536,2.479989,-0.00012482221,0.0007507359,0.00289675,-0.009545595,0.00013489793,-0.00011538093,0.11492168,0.17238252,-8.63828,0.6725152,47.709274,-0.13074553,-3.0507376,-2.287054,-0.15288046,0.12914792,-0.027835667,28.9375,30.3125,29.3125,32.9375,35.4375,36.5
0.004052437,-0.9254563,-0.8851631,-0.22493692,-0.017949495,0.014401515,0.007938282,-0.38932854,-0.3687029,0.059981044,-3.0786514,0.6249941,0.00015141192,-0.0017869797,-0.00097114017,-0.001072273,-0.0034618431,0.0059417635,-8.631293e-06,0.5050208,-1.3816192,1.9042357,-2.0919197,-1.5708655,2.480061,-0.00012200215,0.0017249807,0.0030423952,-0.011642861,0.00013436493,-0.000113305745,0.076614454,0.15322891,-8.599973,0.7284641,47.716442,-0.09536888,-3.2744908,-2.655208,-0.040410183,0.11209065,-0.014569649,28.9375,30.3125,29.3125,32.9375,35.4375,36.5
0.006051675,-0.6584774,-0.51991445,-0.22996297,-0.0017108521,0.002466966,0.0061126067,-0.3893434,-0.3687316,0.059994284,-3.0787334,0.6249151,0.00018372132,-0.0006519605,-0.00034033452,-0.0007658006,-0.0013466974,0.0021476052,5.657692e-06,0.50503284,-1.3816074,1.904199,-2.0919526,-1.5708297,2.4800134,-0.000119306904,0.0010454745,0.0017054043,-0.005282462,0.00013088036,-0.0001251231,0.019153614,0.17238252,-8.561666,0.7597976,47.72002,-0.1966004,-3.3391788,-2.5441842,-0.08197285,0.11732711,-0.016534816,28.9375,30.3125,29.3125,32.9375,35.4375,36.5
0.00805188,0.1899356,0.5227643,-0.57846415,0.031229882,-0.0044398955,-0.001420216,-0.38934442,-0.3687134,0.05999061,-3.0787137,0.6249298,0.00018229312,-0.00073596236,-0.000386496,0.00094116305,-0.0016963175,0.0027960807,8.018394e-06,0.50500876,-1.3816203,1.9042224,-2.0919516,-1.5708417,2.480001,-0.00011672794,-0.0012925077,-0.0002152279,-0.0017605054,0.0001272083,-0.00012486026,0.038307227,0.11492168,-8.772355,0.7329411,47.723602,-0.16729042,-3.1340868,-2.4994597,-0.11063512,0.09360717,-0.05038609,28.9375,30.3125,29.3125,32.9375,35.4375,36.5
0.010052498,0.46125484,0.852512,-1.1769241,0.025475439,-0.0009258442,-0.0057545756,-0.38933104,-0.36869985,0.05997042,-3.0786445,0.6249354,0.00014627256,-4.149467e-05,6.72153e-06,0.00076276023,-0.00027286232,0.00024180867,-4.017521e-06,0.5050208,-1.3815962,1.9042343,-2.0919268,-1.5708774,2.4800253,-0.00012678474,-0.001111264,-0.0007718059,0.0015389556,0.00012371254,-0.00012297739,0.095768064,0.095768064,-8.944737,0.76874626,47.70659,-0.7184063,-2.8206491,-2.8355577,-0.14285645,0.09021385,-0.108244374,28.9375,30.3125,29.3125,32.9375,35.4375,36.5
0.01205175,-0.377359,-0.52573127,-1.1261511,-0.0019492579,0.01184527,-0.0065803127,-0.3893143,-0.3687021,0.059965923,-3.078641,0.6248745,8.8792556e-05,0.0008553945,0.00054371473,-0.0024478452,0.0033061206,-0.0062186355,0.0032010325,0.50503284,-1.3815945,1.9042343,-2.0918906,-1.5708655,2.4799998,-0.00019303715,0.0048597353,-0.0008609969,0.0030421596,0.00012040227,-0.0033934528,0.1340753,0.076614454,-9.155427,0.7620334,47.694054,-0.8885281,-2.7461817,-2.9099774,-0.17182134,0.11408864,-0.17242675,28.9375,30.3125,29.3125,32.9375,35.4375,36.5
0.014052024,-1.6481242,-1.8542734,-1.3303459,-0.041336946,0.021378372,0.0038512426,-0.38936162,-0.3686945,0.05997777,-3.0786712,0.6249585,0.00014539878,-0.0039378805,0.0053450405,-0.0053535453,0.0054197884,-0.010046884,0.00085357635,0.5049683,-1.3815796,1.904198,-2.0919268,-1.5708536,2.4799838,-0.012757519,0.011386925,-0.0016512059,0.0016766059,0.00011726463,-0.01360896,-0.019153614,0.1340753,-9.308657,0.73069996,47.704796,-0.42437917,-3.3577259,-3.030476,-0.16048232,0.110111475,-0.116651826,28.9375,30.3125,29.3125,32.9375,35.4375,36.5
0.016052147,-1.1856245,-1.4460663,-1.2005717,-0.07468947,0.06659562,-0.030809171,-0.3893146,-0.36869243,0.05994595,-3.0786154,0.62484664,3.2455857e-05,-0.005879543,0.0044178283,-0.0023655018,0.0020317936,-0.003933709,0.0092011085,0.5050162,-1.3815569,1.9042329,-2.0918796,-1.5708655,2.479969,-0.0130111985,0.008207283,-0.004467713,0.00068188575,0.000114286224,-0.022209426,-0.17238252,0.17238252,-9.461885,0.82022345,47.705692,-0.5070117,-3.0320272,-3.0576978,-0.116710216,0.1271664,-0.03331308,28.9375,30.3125,29.3125,32.9375,35.4375,36.5
0.018052239,-1.9084003,-1.1734074,-1.4029171,-0.06122435,0.07138022,-0.043098137,-0.38932568,-0.3686694,0.059933722,-3.0786164,0.62486404,-4.585485e-05,-0.006489341,0.0036882758,-0.0009059719,0.00060849276,-0.0014061778,0.013925915,0.50494474,-1.3815453,1.9042443,-2.0918677,-1.5708297,2.4799082,-0.0123643745,0.0068236142,-0.0062040417,0.0009014314,0.00013225402,-0.026286975,-0.4213795,0.15322891,-9.500193,0.69937176,47.701214,-0.7222557,-2.8670366,-3.068426,-0.12565437,0.11948114,-0.004238083,28.9375,30.3125,29.3125,32.9375,35.4375,36.5
0.020052742,-2.3247764,-0.7276883,-1.749372,-0.005416657,0.06788193,-0.0666405,-0.38936105,-0.36866295,0.059939288,-3.078606,0.62490237,-2.208377e-05,-0.0064506573,0.0044106934,-0.0024744244,0.0022337448,-0.0044144373,0.010422359,0.50490826,-1.3815084,1.9041852,-2.0918553,-1.5708417,2.479897,-0.013566446,0.009567773,-0.00597926,0.0013514621,0.00016705204,-0.023985248,-0.59376204,0.17238252,-9.615114,0.7866488,47.717335,-0.8748561,-2.7947822,-3.2344751,-0.13638693,0.12671116,-0.037403546,28.9375,30.3125,29.3125,32.9375,35.4375,36.5
0.022052055,-1.4420027,-0.38689858,-1.9921719,0.016421342,0.087412685,-0.0892015,-0.3893159,-0.36867407,0.059878778,-3.0785887,0.62478715,-0.00024212818,-0.006568498,0.0055555035,-0.0035251144,0.0037935607,-0.00831444,0.004880977,0.50493133,-1.3814238,1.90422,-2.0918424,-1.5707811,2.4798503,-0.01593291,0.011617679,-0.0066400077,0.0041299746,0.0006913643,-0.020810967,-0.40222588,0.13407528,-9.730036,0.7486078,47.696735,-0.8264007,-2.838208,-3.3160508,-0.14144003,0.12583786,-0.05766715,28.9375,30.3125,29.3125,32.9375,35.4375,36.5
0.024052273,-1.5109057,-0.26465598,-1.9050103,-0.004818831,0.083485246,-0.11153906,-0.38934547,-0.3686451,0.0598973,-3.0785384,0.6247585,-0.0001425659,-0.007835324,0.0047079534,-0.0026113626,-0.0005838552,-0.007940914,0.001055769,0.5049067,-1.3814356,1.9041837,-2.0918067,-1.5708641,2.4798143,-0.01796735,0.011762054,-0.008788063,0.0036744785,0.0043366756,-0.019025564,-0.57460845,0.019153614,-9.730036,0.7642693,47.694946,-0.8558484,-2.776299,-3.4085183,-0.14742154,0.102851495,-0.09614648,28.9375,30.3125,29.3125,32.9375,35.4375,36.5
0.02605216,-2.4519558,-1.2701207,-2.2025824,-0.0080257105,0.0748738,-0.113160156,-0.38937005,-0.3686437,0.059887234,-3.078569,0.6247847,-0.00016561522,-0.009428426,0.003748467,-0.0020722111,-0.0021895138,-0.0060632084,-0.00014629462,0.50485873,-1.3813988,1.9041713,-2.091843,-1.5708278,2.4797788,-0.018147802,0.013655873,-0.012004097,0.00257585,0.004824394,-0.018003007,-0.7469909,0.038307227,-9.768343,0.8537928,47.728977,-0.8973956,-2.7717519,-3.3725362,-0.14649068,0.0879036,-0.10805673,28.9375,30.3125,29.3125,32.9375,35.4375,36.5
0.028052196,-2.2221618,-1.1063944,-2.2213588,-0.027169673,0.1072751,-0.13125862,-0.3893751,-0.36862916,0.059876557,-3.0785398,0.6248183,-0.0002336984,-0.010194414,0.0042447248,-0.0023040085,-0.0011722903,-0.0055240025,-0.0018824108,0.5048224,-1.3813745,1.904159,-2.0918076,-1.5708164,2.479767,-0.018979304,0.014643635,-0.012548613,0.0021573652,0.0036703644,-0.017096154,-0.6703765,-0.076614454,-9.921572,0.70608455,47.698532,-0.86295956,-2.7975833,-3.3212354,-0.13546208,0.09341447,-0.1326108,28.9375,30.3125,29.3125,32.9375,35.4375,36.5
0.030052552,-2.889266,-1.2462921,-2.2990453,-0.026781633,0.11424045,-0.12957515,-0.38937387,-0.36860865,0.059850123,-3.078504,0.62485033,-0.00034405978,-0.011571409,0.0045078173,-0.00237876,-0.0008626772,-0.0048323967,-0.0030633074,0.5047741,-1.3813379,1.9041704,-2.0917838,-1.5707926,2.4797432,-0.020329095,0.016409434,-0.0143764205,0.0017665615,0.0030584987,-0.017263118,-0.59376204,-0.038307227,-10.0748005,0.8806493,47.686886,-0.92954934,-2.8178477,-3.318801,-0.14160615,0.0821795,-0.16849309,28.9375,30.3125,29.3125,32.9375,35.4375,36.5
0.03205182,-2.9830253,-1.4140757,-2.254767,-0.016426472,0.11574225,-0.15263724,-0.38941753,-0.36861318,0.05986321,-3.0785377,0.6248945,-0.0003251207,-0.011866509,0.0047636637,-0.0024259523,-0.0006077704,-0.004701627,-0.0026066818,0.504726,-1.3813018,1.9040979,-2.0917838,-1.5707687,2.4797184,-0.020854682,0.01661169,-0.014491072,0.0016893004,0.0027718223,-0.018244615,-0.7278373,0.019153614,-9.921572,0.72622824,47.66539,-0.96533954,-2.811491,-3.4108677,-0.12678666,0.096597396,-0.1742375,28.9375,30.3125,29.3125,32.9375,35.4375,36.5
0.034052152,-2.5732772,-1.2090921,-2.023172,0.0036768396,0.1057501,-0.1620372,-0.3894328,-0.36862877,0.059871867,-3.0785646,0.6248419,-0.0002973756,-0.012538541,0.0047817854,-0.0018540412,-0.0015718304,-0.0047248844,-0.0015000892,0.5047376,-1.3812778,1.9040498,-2.0917833,-1.5707682,2.479694,-0.022046193,0.016548421,-0.015965221,0.002777552,0.003626008,-0.020543698,-0.7852981,0.038307227,-9.883265,0.7530795,47.657326,-0.99775076,-2.7959108,-3.432375,-0.12648286,0.10349331,-0.18163665,28.9375,30.3125,29.3125,32.9375,35.4375,36.5
0.036051966,-1.8656882,-0.24135043,-2.139541,0.003372564,0.091336705,-0.18298939,-0.38948283,-0.36860648,0.059847523,-3.0785382,0.6249328,-0.0003133616,-0.01349793,0.005015472,-0.0016661431,-0.0030377232,-0.005196195,-0.0016413651,0.504653,-1.3811934,1.9040135,-2.0918186,-1.5707678,2.4796693,-0.024275824,0.017067978,-0.017073577,0.0030647789,0.005134088,-0.022634303,-0.61291564,0.019153614,-9.710882,0.7642693,47.691364,-0.9220031,-2.7071266,-3.398272,-0.13369238,0.08257665,-0.17638764,28.9375,30.3125,29.3125,32.9375,35.4375,36.5
0.0380521,-2.1785588,-0.6484928,-2.2407947,0.014531256,0.05850478,-0.18420768,-0.38950032,-0.36859435,0.059849214,-3.078554,0.6248987,-0.00029735197,-0.01517091,0.0053410647,-0.00083186507,-0.004286991,-0.0032520273,-0.0039992193,0.5046162,-1.3811935,1.9040126,-2.091831,-1.5707678,2.4796093,-0.026479809,0.0168845,-0.018626437,0.0024949335,0.0052832235,-0.022479964,-0.49799395,0.0,-9.825804,0.7933669,47.69763,-0.8492913,-2.7138233,-3.3429892,-0.11711188,0.08901984,-0.20517038,28.9375,30.3125,29.3125,32.9375,35.4375,36.5
0.040052634,-1.6481867,-1.1240412,-2.1445491,0.008440033,0.05647883,-0.20138259,-0.38954166,-0.36856297,0.059847906,-3.0785112,0.62498605,-0.00031394846,-0.016395144,0.005088399,-0.0006708847,-0.005254399,-0.0025497822,-0.0044430844,0.50453216,-1.381157,1.9039644,-2.0917952,-1.5707797,2.4795852,-0.027510388,0.018339993,-0.020581042,0.0019099426,0.005784209,-0.02306662,-0.38307226,0.05746084,-9.749189,0.7530795,47.72808,-0.8884444,-2.6888876,-3.3262916,-0.12428702,0.06649386,-0.21911213,28.9375,30.3125,29.3125,32.9375,35.4375,36.5
0.042051855,-1.9145789,-1.5892162,-2.172427,0.0010597255,0.05628927,-0.19935413,-0.38959906,-0.36857682,0.059865158,-3.0785966,0.62502074,-0.00026405737,-0.01751592,0.005202981,-8.6256994e-05,-0.0057239556,-0.0009264657,-0.0027494333,0.5044718,-1.3811209,1.9038934,-2.0918434,-1.5707315,2.4795356,-0.028511936,0.018372154,-0.021859355,0.0015107846,0.0054081837,-0.025760122,-0.34476504,0.038307227,-9.576807,0.7105615,47.690468,-0.89585114,-2.6328974,-3.3454626,-0.11195308,0.0771887,-0.23321924,28.9375,30.3125,29.3125,32.9375,35.4375,36.5
0.044052053,-1.3363476,-1.2799088,-2.0939536,-0.011641347,0.0732442,-0.19701631,-0.3896359,-0.36855507,0.059863426,-3.0785666,0.62495613,-0.00025444274,-0.018364461,0.0057763862,-7.166436e-05,-0.0056718215,-0.00043532747,-0.001505211,0.5044233,-1.3810729,1.9038323,-2.0918076,-1.5707678,2.4794507,-0.030089378,0.01866949,-0.022152174,0.001101671,0.0051223147,-0.028581204,-0.2681506,0.076614454,-9.576807,0.7239871,47.657326,-0.98144615,-2.6440222,-3.3352423,-0.10515619,0.069939956,-0.22183792,28.9375,30.3125,29.3125,32.9375,35.4375,36.5
0.046051823,-1.3228978,-1.3173368,-2.0890193,-0.0024401224,0.060422957,-0.17119434,-0.38967288,-0.3685439,0.05987907,-3.0785942,0.62498164,-0.00022400386,-0.020155093,0.0064598317,5.6359255e-05,-0.00560381,0.0001838735,-0.001905358,0.5043625,-1.3810723,1.9037961,-2.0918076,-1.5707558,2.4794023,-0.032684498,0.020136222,-0.024191502,0.0011668841,0.0047598877,-0.030774314,-0.24899697,0.11492168,-9.691729,0.7284641,47.699425,-0.86599475,-2.7060046,-3.2979698,-0.10057405,0.08713634,-0.23175418,28.9375,30.3125,29.3125,32.9375,35.4375,36.5
0.048052,-0.6697058,-1.3525691,-1.9578232,0.009967011,0.049787413,-0.16598137,-0.38971886,-0.36850518,0.059856102,-3.0785484,0.6250481,-0.00028286935,-0.021426227,0.006755201,0.000805948,-0.0057558515,0.001342066,-0.0011005016,0.5042544,-1.3810003,1.9037603,-2.0917947,-1.5707558,2.4793415,-0.034096733,0.020264726,-0.026239881,0.0020012285,0.0043290593,-0.032990117,-0.15322891,0.076614454,-9.576807,0.75084364,47.67345,-0.78658724,-2.6366482,-3.2906392,-0.095661305,0.077507526,-0.24511799,28.9375,30.3125,29.3125,32.9375,35.4375,36.5
0.05005191,-0.63268703,-0.88075733,-1.7969168,-0.0004763082,0.029784026,-0.17921849,-0.389778,-0.3685063,0.059875607,-3.0785954,0.6250583,-0.00022231221,-0.022296064,0.00760552,0.000870718,-0.004936464,0.0013844554,-0.0015326886,0.5041939,-1.380964,1.9036759,-2.0918071,-1.5707444,2.4792814,-0.035876244,0.020634023,-0.02699303,0.002747099,0.0035931778,-0.034335643,-0.038307227,0.076614454,-9.5385,0.7732232,47.70211,-0.8303202,-2.629817,-3.2292566,-0.1064495,0.0954635,-0.24099267,28.9375,30.3125,29.3125,32.9375,35.4375,36.5
0.052052174,-0.7635213,-1.5933353,-1.9696393,0.0021826155,0.020656012,-0.16718578,-0.3897969,-0.36850128,0.059870396,-3.0786111,0.62504196,-0.000287679,-0.023777043,0.008478734,0.00071669114,-0.004866059,0.0013196657,-0.0028815712,0.5041451,-1.3809276,1.9036392,-2.0917833,-1.5707082,2.4792204,-0.038706146,0.021946251,-0.02818869,0.0027227968,0.0035591538,-0.03581599,0.019153614,0.17238252,-9.500193,0.7709874,47.70211,-0.79673463,-2.6436305,-3.2343798,-0.1026443,0.11110157,-0.27541643,28.9375,30.3125,29.3125,32.9375,35.4375,36.5
0.05405243,-0.5140085,-1.7530715,-1.856838,-0.012538578,0.024145829,-0.16164155,-0.38985205,-0.36846843,0.059872515,-3.0785916,0.6250375,-0.00023712538,-0.02383694,0.008405862,0.0003505613,-0.0052809357,0.0006550229,-0.0019576573,0.5040609,-1.3808913,1.9035915,-2.0917833,-1.5707444,2.479136,-0.039062332,0.02271065,-0.02816759,0.0023153375,0.0042429464,-0.037097067,0.038307227,0.1340753,-9.519346,0.683705,47.642998,-0.74867463,-2.5762508,-3.2912273,-0.0892293,0.112026475,-0.27268016,28.9375,30.3125,29.3125,32.9375,35.4375,36.5
0.056052156,-1.1612805,-1.6465051,-1.5056615,-0.025488187,0.017385056,-0.16523081,-0.3899183,-0.368453,0.05987833,-3.078613,0.62505937,-0.0002210377,-0.024728386,0.007943267,0.00085304695,-0.0059260377,0.0019366014,-0.00013708894,0.5039653,-1.3808311,1.9035071,-2.0917833,-1.570732,2.4790514,-0.039074484,0.023426328,-0.030111901,0.002111223,0.0041850554,-0.03892866,0.0,0.19153613,-9.519346,0.8023209,47.70032,-0.8371284,-2.6095676,-3.343752,-0.08355612,0.12090966,-0.29507568,28.9375,30.3125,29.3125,32.9375,35.4375,36.5
0.0580524,-0.82542515,-1.5490195,-1.6458094,-0.019773223,0.036770314,-0.1711403,-0.38999808,-0.36844507,0.059908155,-3.0786483,0.6250671,-9.685107e-05,-0.026751038,0.008354059,0.0017771156,-0.007208167,0.0039056286,-0.0011583412,0.5038924,-1.380795,1.9033993,-2.0917952,-1.5707558,2.4789789,-0.041752588,0.023549026,-0.03229571,0.0018276413,0.0043550613,-0.040584497,-0.095768064,0.24899697,-9.423578,0.70608455,47.681515,-0.7906058,-2.4691815,-3.204853,-0.06847072,0.11308535,-0.2954448,28.9375,30.3125,29.3125,32.9375,35.4375,36.5
0.06005202,-0.49586692,-1.1258242,-1.5559797,-0.01099908,0.047409266,-0.17056218,-0.3900321,-0.3684316,0.059885897,-3.078673,0.6250914,-0.0001596105,-0.027467921,0.008728752,0.001891204,-0.007293145,0.0041776765,-0.0018234157,0.5038082,-1.3807348,1.903387,-2.0918314,-1.5707082,2.4789066,-0.043011725,0.023848249,-0.03292184,0.0018777939,0.0042969137,-0.041178223,0.05746084,0.28730422,-9.32781,0.800085,47.690468,-0.80976653,-2.5439987,-3.2214918,-0.06795448,0.119184084,-0.32382917,28.9375,30.3125,29.3125,32.9375,35.4375,36.5
0.0620523,-0.48200148,-1.2927976,-1.6018809,-0.0055965465,0.050409567,-0.16813217,-0.3900833,-0.36840296,0.059893843,-3.078662,0.62510693,-0.00017516095,-0.027887313,0.009063895,0.0015630996,-0.0074403686,0.00283024,0.00014265954,0.50371194,-1.3806983,1.903315,-2.0917833,-1.5707077,2.4788215,-0.044448536,0.024926327,-0.03361398,0.0025984196,0.0050760554,-0.044582054,-0.019153614,0.24899697,-9.3661175,0.7620334,47.67614,-0.7474048,-2.5059907,-3.2707386,-0.08544855,0.11911009,-0.30900806,28.9375,30.3125,29.3125,32.9375,35.4375,36.5
0.06405245,-1.2947125,-1.3347293,-1.4885589,-0.009117015,0.036171135,-0.15933552,-0.39014244,-0.36841068,0.05991681,-3.078739,0.6251032,-0.0001540335,-0.028473394,0.009144799,0.001549061,-0.0076273247,0.0023377973,0.00076084473,0.5036397,-1.380662,1.9032196,-2.0917833,-1.5706595,2.478737,-0.045376677,0.02589813,-0.0348741,0.0032289105,0.0054790927,-0.046128113,-0.05746084,0.19153613,-9.404425,0.75755644,47.689575,-0.82319677,-2.508156,-3.3098001,-0.096203744,0.10991226,-0.32320082,28.9375,30.3125,29.3125,32.9375,35.4375,36.5
0.06605227,-1.3168659,-1.2990019,-1.6078569,-0.013046805,0.042823344,-0.15866968,-0.39018387,-0.36838788,0.059907697,-3.078744,0.6250851,-0.00018097486,-0.02920014,0.009441841,0.0013389993,-0.007927274,0.0015978852,-0.00080504967,0.50355524,-1.3806134,1.9031829,-2.0917828,-1.5706476,2.4786408,-0.04693605,0.027064616,-0.035846327,0.003536733,0.00609737,-0.04612209,-0.11492168,0.19153613,-9.32781,0.7217513,47.717335,-0.79497504,-2.5017343,-3.3206801,-0.102969594,0.107365444,-0.35361046,28.9375,30.3125,29.3125,32.9375,35.4375,36.5
0.06805244,-1.1230494,-1.2665524,-1.5710361,-0.018494852,0.05947433,-0.17208222,-0.39025617,-0.36837813,0.059911102,-3.0787597,0.6250863,-0.00015358206,-0.030128777,0.009618716,0.0014081395,-0.008519399,0.0018118981,0.0015094574,0.5034711,-1.3805292,1.9030756,-2.0917833,-1.5706471,2.4785554,-0.04835028,0.027870804,-0.03690971,0.0033200071,0.0065111453,-0.049850747,-0.15322891,0.19153613,-9.385271,0.7239871,47.695843,-0.82399094,-2.5059395,-3.2798457,-0.08590262,0.10624258,-0.343544,28.9375,30.3125,29.3125,32.9375,35.4375,36.5
0.07005295,-1.2942437,-1.1772083,-1.4092199,-0.016753187,0.0694396,-0.16328904,-0.39031276,-0.36835244,0.059918094,-3.0787797,0.62503064,-0.00013821926,-0.030888025,0.009458917,0.0016453147,-0.009019403,0.0024956327,0.004503936,0.50337505,-1.3804929,1.9030141,-2.091771,-1.5706471,2.4784222,-0.048849195,0.028553708,-0.03820635,0.0030940452,0.0066168886,-0.053343564,-0.21068975,0.19153613,-9.404425,0.8157518,47.684196,-0.89243615,-2.4390717,-3.2605011,-0.092814885,0.10842717,-0.35966673,28.9375,30.3125,29.3125,32.9375,35.4375,36.5
0.072052054,-1.496155,-0.6116436,-1.3184216,-0.010091086,0.073891215,-0.16882206,-0.39037082,-0.36833295,0.059926067,3.0787678,-0.6250458,0.0001756407,-0.032588866,0.010614229,0.0016965008,-0.009128108,0.0024495139,0.0060383463,0.50326586,-1.3804445,1.9029306,-2.0917351,-1.5706114,2.478324,-0.052443456,0.029459193,-0.03947457,0.0034474093,0.0067327106,-0.0584718,-0.34476504,0.114921674,-9.32781,0.7866488,47.67614,-0.78176534,-2.487041,-3.287036,-0.07398249,0.08526921,-0.29524237,28.9375,30.3125,29.3125,32.9375,35.4375,36.5
0.07405258,-1.1563519,-0.6603742,-1.36614,0.0056302533,0.088210404,-0.15925086,-0.39044127,-0.36830664,0.059951283,3.0787585,-0.6249861,8.0534985e-05,-0.032558504,0.009922379,0.001626293,-0.00977686,0.0021586404,0.0070639043,0.5031705,-1.3804321,1.9028586,-2.0917351,-1.5706347,2.4781926,-0.051686957,0.030400932,-0.040413897,0.003383689,0.0074432357,-0.058740973,-0.40222588,0.038307227,-9.32781,0.7329411,47.668976,-0.7540301,-2.4385436,-3.2581568,-0.06470231,0.09619093,-0.33408797,28.9375,30.3125,29.3125,32.9375,35.4375,36.5
0.07605208,-1.5540558,-0.8275728,-1.4468449,0.017441861,0.08615011,-0.16279887,-0.39049542,-0.36828047,0.05990835,3.0787647,-0.6249644,0.000229987,-0.0331902,0.009909565,0.0014897946,-0.010376509,0.0017360129,0.010595385,0.50303847,-1.3802996,1.9027995,-2.0917351,-1.5705746,2.4780462,-0.052697588,0.03153695,-0.041446455,0.0033638466,0.008166198,-0.063284166,-0.47884035,0.019153614,-9.3661175,0.83813137,47.696735,-0.8779354,-2.4498963,-3.306044,-0.08091517,0.079169974,-0.2811801,28.9375,30.3125,29.3125,32.9375,35.4375,36.5
0.07805213,-2.0378497,-1.0989857,-1.5397636,0.025237635,0.07833583,-0.15907241,-0.39056832,-0.36828843,0.05992999,3.0786984,-0.6249111,0.00020763837,-0.034461454,0.01046082,0.001697141,-0.010651667,0.002186312,0.013534208,0.5029539,-1.3802392,1.9026788,-2.0917346,-1.5705265,2.4779367,-0.054815453,0.032196797,-0.042720143,0.003455054,0.008191852,-0.068339795,-0.45968673,0.076614454,-9.385271,0.7620334,47.68062,-0.8236017,-2.4883986,-3.2207263,-0.0764445,0.08854944,-0.25353914,28.9375,30.3125,29.3125,32.9375,35.4375,36.5
0.080052674,-1.5005614,-0.6391151,-1.5711275,0.011073126,0.08085495,-0.17181103,-0.3906519,-0.36825824,0.05995222,3.0786843,-0.6248692,0.00013724904,-0.036068473,0.011543395,0.001737296,-0.010765658,0.002408888,0.013935375,0.502833,-1.3802032,1.902583,-2.0917232,-1.5705389,2.4777915,-0.058119427,0.032964908,-0.043715537,0.0034331512,0.008186482,-0.07204401,-0.4405331,0.038307227,-9.3661175,0.83589023,47.703007,-0.7516754,-2.4595294,-3.2647543,-0.07833854,0.060842253,-0.20288569,28.9375,30.3125,29.3125,32.9375,35.4375,36.5
0.08205232,-1.671679,-0.8417532,-1.6437784,0.005137346,0.07613375,-0.15852608,-0.39071828,-0.36824092,0.059937984,3.0787132,-0.6248144,0.00014083504,-0.036126353,0.010992152,0.0017946074,-0.010704554,0.0027472812,0.018590618,0.50274944,-1.3800949,1.9024872,-2.0917227,-1.5705508,2.4776702,-0.057101324,0.033721384,-0.044746023,0.0034412672,0.007967362,-0.075680405,-0.4405331,-0.038307227,-9.251195,0.7620334,47.7245,-0.73881507,-2.4429526,-3.267755,-0.080222696,0.0644517,-0.16487837,28.9375,30.3125,29.3125,32.9375,35.4375,36.5
0.08405244,-1.1434404,-0.4315728,-1.4695721,-0.013534628,0.08899682,-0.16878809,-0.39079005,-0.36822283,0.0599408,3.0786874,-0.6247686,0.00016580035,-0.03639599,0.01118766,0.00095586095,-0.010074071,0.0013379314,0.020842966,0.5026296,-1.380022,1.9023918,-2.0917103,-1.5705146,2.477525,-0.057751376,0.035774264,-0.045271374,0.0034562887,0.008094389,-0.078582376,-0.40222588,-0.038307227,-9.270349,0.800085,47.70211,-0.9307437,-2.47381,-3.3118124,-0.07842006,0.062374037,-0.14899136,28.9375,30.3125,29.3125,32.9375,35.4375,36.5
0.08605223,-1.3045964,-0.7068633,-1.5478187,0.00064418575,0.08602287,-0.16656,-0.39087492,-0.36815807,0.059939817,3.0787113,-0.62473434,0.00016736313,-0.037668493,0.011868605,0.00089053076,-0.009766914,0.0011985493,0.020892564,0.5024491,-1.3799734,1.9023312,-2.091687,-1.5705265,2.4773202,-0.05994286,0.037084457,-0.04678104,0.003927515,0.007890332,-0.08082248,-0.38307226,0.019153614,-9.2703495,0.80456203,47.698532,-0.86713153,-2.5236402,-3.2562318,-0.07633671,0.07862632,-0.0817481,28.9375,30.3125,29.3125,32.9375,35.4375,36.5
0.08805258,-1.133718,-0.49283865,-1.5660722,0.0025252486,0.083975576,-0.16461447,-0.3909513,-0.36816788,0.059971202,3.0786412,-0.624585,0.000100599886,-0.03910249,0.011601765,0.0019386477,-0.010526369,0.0033740636,0.020548703,0.5023651,-1.3799374,1.9022225,-2.0917103,-1.5704793,2.4771519,-0.06057979,0.037284393,-0.049447287,0.0041273837,0.007511356,-0.08111319,-0.3256114,-0.076614454,-9.442732,0.8157518,47.70211,-0.9104446,-2.5003157,-3.1617322,-0.07966732,0.06730962,-0.07588857,28.9375,30.3125,29.3125,32.9375,35.4375,36.5
0.090052076,-1.3586185,-0.89234686,-1.4086392,0.010192298,0.0727405,-0.16105172,-0.39101076,-0.3681153,0.05993036,3.078687,-0.62459546,0.00018865436,-0.03833195,0.01241037,-4.4860473e-05,-0.009239408,-0.00050380366,0.01921038,0.50222105,-1.3798286,1.9021868,-2.0917103,-1.5704788,2.4770086,-0.061676525,0.039453793,-0.047478464,0.0040060626,0.008249256,-0.08087366,-0.34476504,-0.05746084,-9.346964,0.7642693,47.711964,-0.96517,-2.4629614,-3.3207827,-0.08302068,0.083640195,-0.07422112,28.9375,30.3125,29.3125,32.9375,35.4375,36.5
0.09205243,-1.48169,-0.8936696,-1.5761294,0.0057686744,0.06539032,-0.15567562,-0.39111704,-0.3680957,0.059949603,3.0786755,-0.6244577,0.000117930074,-0.039204784,0.012160707,0.0003912196,-0.009956476,0.00045352025,0.017898107,0.5020892,-1.3797443,1.9020432,-2.0917103,-1.5704788,2.4767923,-0.062158555,0.040008392,-0.04910358,0.0038926317,0.008418537,-0.080042414,-0.3256114,-0.019153614,-9.232041,0.7463667,47.688675,-0.99887633,-2.5236645,-3.334416,-0.06511338,0.06365306,-0.07042401,28.9375,30.3125,29.3125,32.9375,35.4375,36.5
0.094052605,-0.91363275,-0.95095676,-1.6158296,-0.0014379193,0.06982309,-0.16452593,-0.39118424,-0.368069,0.059949987,3.0786676,-0.6244562,0.00010325759,-0.040543135,0.012203279,0.00047459462,-0.010049045,0.0013369105,0.015258191,0.5019818,-1.3796836,1.9019707,-2.0917108,-1.5704788,2.476685,-0.06324797,0.04160971,-0.051092487,0.0034631293,0.008070677,-0.078490235,-0.17238252,0.076614454,-9.481039,0.7642693,47.66987,-1.0255802,-2.4924445,-3.3510356,-0.06377241,0.05306028,-0.096435405,28.9375,30.3125,29.3125,32.9375,35.4375,36.5
0.0960522,-0.6755017,-1.1530911,-1.7197876,-0.0062257405,0.063207135,-0.15590325,-0.39124516,-0.36803523,0.05992693,3.0787113,-0.6243902,0.000187705,-0.04230189,0.012115212,0.0013825404,-0.010595901,0.00305606,0.012473617,0.5018609,-1.3795753,1.9018868,-2.091675,-1.5704669,2.4765174,-0.06450164,0.04252249,-0.054380298,0.0040708096,0.007713267,-0.076957904,-0.28730422,0.17238252,-9.404425,0.80679786,47.699425,-0.9965433,-2.4382281,-3.179389,-0.07529974,0.078994215,-0.107016325,28.9375,30.3125,29.3125,32.9375,35.4375,36.5
0.098052695,-0.43941578,-1.336755,-1.8788967,-0.014827813,0.06148846,-0.15923819,-0.39137262,-0.36803144,0.059955936,3.0786457,-0.6243589,8.580243e-05,-0.04193468,0.012542626,0.00076832506,-0.009900793,0.0018714959,0.01061758,0.501729,-1.3794671,1.9016956,-2.091687,-1.5704554,2.4763744,-0.06484237,0.042847753,-0.053383246,0.004123057,0.0076839575,-0.075442195,-0.22984336,0.22984336,-9.346964,0.800085,47.70032,-1.1221366,-2.4873116,-3.2216716,-0.070965804,0.08815172,-0.15003122,28.9375,30.3125,29.3125,32.9375,35.4375,36.5
0.10005209,-1.2216643,-1.7805861,-1.9535859,-0.015456871,0.034846254,-0.1512599,-0.39144063,-0.36798233,0.05992954,3.0786572,-0.6243621,0.00019599765,-0.042698834,0.01348581,-0.00014380984,-0.0089526605,0.000410706,0.0068568224,0.5015606,-1.3793703,1.9016355,-2.0916626,-1.5704192,2.4762065,-0.06704495,0.044817537,-0.053652763,0.004163616,0.007550791,-0.07388389,-0.1340753,0.24899697,-9.500193,0.7642693,47.67345,-1.107251,-2.4964714,-3.359768,-0.07838696,0.08148694,-0.16637155,28.9375,30.3125,29.3125,32.9375,35.4375,36.5
0.102052525,-1.0549618,-2.0238001,-1.8961879,-0.022940198,0.034664605,-0.15078612,-0.3915225,-0.3679516,0.0599463,3.0786655,-0.62432605,0.00016921057,-0.044212155,0.013414162,0.0005971465,-0.009812973,0.0018744096,0.0046300655,0.50144035,-1.3793101,1.9015154,-2.091615,-1.5704311,2.4760628,-0.06834571,0.045488104,-0.056167338,0.0043101944,0.0075978567,-0.07295676,0.0,0.28730422,-9.5385,0.83589023,47.69763,-1.0685153,-2.499217,-3.2804499,-0.061351433,0.08256894,-0.21849582,28.9375,30.3125,29.3125,32.9375,35.4375,36.5
0.10405183,-0.6126381,-1.5999104,-1.9720417,-0.03379944,0.036821328,-0.15785867,-0.39162952,-0.36794293,0.059967205,3.0785758,-0.62434596,0.00013236271,-0.044897363,0.013632894,0.0009755484,-0.010460199,0.0020867197,0.004009317,0.50129616,-1.3792259,1.9013709,-2.091627,-1.5703825,2.4759424,-0.06962426,0.045441456,-0.057081345,0.004776793,0.0080687925,-0.07361433,-0.095768064,0.2681506,-9.519346,0.779936,47.690468,-1.0958884,-2.5111809,-3.2534251,-0.078975156,0.09638061,-0.23997858,28.9375,30.3125,29.3125,32.9375,35.4375,36.5
0.10605257,-0.25138444,-1.4485413,-1.8797122,-0.0404183,0.044320755,-0.16240433,-0.39171237,-0.36790353,0.059959438,3.0785806,-0.6243269,0.00013541816,-0.045702543,0.014253764,-0.000345554,-0.010464465,-0.0004522427,0.0020322192,0.5011527,-1.3791409,1.9012879,-2.091627,-1.570382,2.4757864,-0.07216496,0.048514035,-0.05765351,0.0044979826,0.009291374,-0.074178815,-0.076614454,0.30645782,-9.500193,0.87617236,47.716442,-1.0336335,-2.4961205,-3.2731714,-0.08966623,0.07535272,-0.2629181,28.9375,30.3125,29.3125,32.9375,35.4375,36.5
0.10805193,-0.7206127,-1.7746735,-2.1037788,-0.027915731,0.034537658,-0.15417565,-0.39180982,-0.36785558,0.059931777,3.0786252,-0.62431633,0.00015446512,-0.046469282,0.014227751,-0.00024949596,-0.010756275,0.00018392222,0.0004204835,0.50099677,-1.3789963,1.9011797,-2.091627,-1.5704063,2.4756184,-0.07278228,0.049300347,-0.058713496,0.0040731016,0.009236376,-0.07318408,-0.05746084,0.30645782,-9.442732,0.7709874,47.70211,-1.0643269,-2.6773763,-3.3238754,-0.09005618,0.08553886,-0.32216313,28.9375,30.3125,29.3125,32.9375,35.4375,36.5
0.11005233,-0.7666724,-1.8086382,-2.0364654,-0.028498843,0.043518398,-0.15439305,-0.39186895,-0.3678438,0.059919547,3.0786393,-0.6242239,0.00023435369,-0.047907874,0.01416439,0.0014713762,-0.012953951,0.0035134642,0.0015657226,0.50089955,-1.378889,1.9010724,-2.0915911,-1.5703701,2.4754617,-0.07419707,0.04725924,-0.06009072,0.0035187933,0.009558983,-0.075744614,-0.11492168,0.21068975,-9.461885,0.7620334,47.682407,-1.1050282,-2.4253466,-3.3343668,-0.08327944,0.090163134,-0.3453992,28.9375,30.3125,29.3125,32.9375,35.4375,36.5
0.11205235,-1.1906539,-1.7108306,-1.9939237,-0.034782387,0.033112038,-0.15679818,-0.39199826,-0.36783326,0.059954256,3.0785265,-0.62420136,0.0001397021,-0.048481222,0.01387364,0.00080555276,-0.01356282,0.0024435252,-6.524835e-05,0.5007317,-1.3788162,1.9009155,-2.0916274,-1.5703214,2.475294,-0.07487339,0.049660504,-0.0612963,0.0029704964,0.010613308,-0.07478923,-0.17238252,0.34476504,-9.404425,0.8224646,47.689575,-1.1120791,-2.4908104,-3.3772101,-0.06909157,0.07143411,-0.37407225,28.9375,30.3125,29.3125,32.9375,35.4375,36.5
0.11405192,-1.3272752,-1.8141963,-2.0288126,-0.02080476,0.044294324,-0.1433313,-0.39208764,-0.36780185,0.05995382,3.0785227,-0.62417924,0.00015393527,-0.04931353,0.014089331,0.0006406565,-0.013672746,0.002317896,-0.0016958218,0.5005886,-1.3787197,1.9007968,-2.0916035,-1.5703095,2.4751377,-0.07608791,0.050907202,-0.062377524,0.0028641846,0.010768459,-0.07437276,-0.095768064,0.21068975,-9.481039,0.77545905,47.687782,-1.1396766,-2.4913683,-3.295195,-0.08223887,0.07516792,-0.43513823,28.9375,30.3125,29.3125,32.9375,35.4375,36.5
0.11605232,-0.596579,-1.4780605,-1.9356928,-0.013757879,0.069126494,-0.1656676,-0.3921606,-0.3677603,0.059923127,3.0785556,-0.6242057,0.0002541974,-0.04988726,0.014280969,-0.00016359056,-0.013905179,0.00039698376,-3.3514854e-05,0.5004434,-1.3785866,1.9007009,-2.0915678,-1.5702971,2.475005,-0.07762643,0.05326155,-0.06339703,0.0031028602,0.011888642,-0.07757513,-0.11492168,0.095768064,-9.385271,0.76874626,47.739727,-1.2750214,-2.5848408,-3.3334484,-0.079540685,0.06788756,-0.47622257,28.9375,30.3125,29.3125,32.9375,35.4375,36.5
0.11805276,-0.6251454,-0.92582786,-1.8147631,-0.011823681,0.06886547,-0.14553736,-0.39230964,-0.36774644,0.059969727,3.0784638,-0.62410754,7.933345e-05,-0.05130797,0.01475224,0.0013510546,-0.014844835,0.0030415838,0.0020506207,0.500275,-1.3785152,1.9005212,-2.091615,-1.5702857,2.474787,-0.0794363,0.051479477,-0.06483732,0.0035601489,0.011456896,-0.08146654,-0.15322891,0.22984336,-9.308656,0.78217715,47.694946,-1.0787773,-2.5985327,-3.3513975,-0.07609122,0.04472961,-0.4625664,28.9375,30.3125,29.3125,32.9375,35.4375,36.5
0.12005207,-1.517712,-1.425826,-1.9305754,0.009928006,0.054194257,-0.13995492,-0.3924397,-0.36770663,0.059969537,3.0784092,-0.62420493,7.453313e-05,-0.051227476,0.014439551,0.0010448484,-0.014333584,0.0028786226,0.0100847315,0.50007284,-1.3783827,1.9003648,-2.0916154,-1.5702618,2.4746525,-0.078583956,0.052517854,-0.06534675,0.0034281581,0.011091136,-0.08864724,-0.26815057,0.1340753,-9.308657,0.800085,47.71823,-1.3362191,-2.3692455,-3.3701723,-0.09403549,0.0568443,-0.45264918,28.9375,30.3125,29.3125,32.9375,35.4375,36.5
0.122052506,-1.4273584,-1.172328,-1.9987599,0.008373932,0.06916645,-0.14681527,-0.39248896,-0.36767885,0.05992539,3.0784411,-0.62413585,0.00022621584,-0.053416926,0.015800497,0.0006112814,-0.014987968,0.002060694,0.010268565,0.49995026,-1.3782499,1.9003052,-2.0916035,-1.5702132,2.4744828,-0.08348295,0.05461165,-0.066793606,0.0031900022,0.012048546,-0.093731284,-0.30645782,0.05746084,-9.385271,0.7866488,47.696735,-1.2207375,-2.50713,-3.367765,-0.06441404,0.048134007,-0.41862792,28.9375,30.3125,29.3125,32.9375,35.4375,36.5
0.12405169,-1.5099291,-0.85417444,-1.8032169,0.009049327,0.071442775,-0.15025908,-0.39259368,-0.36765495,0.059942182,3.0783958,-0.62406296,0.00023279859,-0.05347578,0.014616306,0.0011749608,-0.015771655,0.003206261,0.019225929,0.49978352,-1.3781656,1.9001616,-2.0915792,-1.5701655,2.4742763,-0.08161206,0.055012204,-0.06854975,0.0031743792,0.0121901035,-0.10081675,-0.3256114,-0.038307227,-9.404425,0.8291774,47.70211,-1.25885,-2.4615726,-3.3709984,-0.07158367,0.03548567,-0.36897296,28.9375,30.3125,29.3125,32.9375,35.4375,36.5
0.12605228,-1.4109437,-1.0663382,-1.7610428,0.013485649,0.084669515,-0.15346013,-0.3927181,-0.36762112,0.05995655,3.0783794,-0.62390065,0.00017384949,-0.054270327,0.01574436,0.00068170484,-0.015131983,0.002141659,0.024202844,0.49960396,-1.3780693,1.9000176,-2.0915911,-1.5701531,2.4739976,-0.08419405,0.055945072,-0.068626344,0.0035668346,0.0121496655,-0.10837476,-0.36391866,-0.076614454,-9.32781,0.78217715,47.705692,-1.3618252,-2.4862385,-3.3770888,-0.07547427,0.025901351,-0.29794514,28.9375,30.3125,29.3125,32.9375,35.4375,36.5
0.12805241,-1.2849845,-0.5981905,-1.7700164,0.014471299,0.09638085,-0.15843163,-0.3928083,-0.3675859,0.059929825,3.0784106,-0.6238487,0.0002701388,-0.057039693,0.015340824,0.0026359868,-0.017051611,0.0059092115,0.027433125,0.49944648,-1.377913,1.899885,-2.0915549,-1.5701293,2.4738038,-0.08597066,0.056244306,-0.07351869,0.003941112,0.012016799,-0.11338027,-0.36391866,0.0,-9.289502,0.800085,47.69763,-1.320735,-2.4517584,-3.1552281,-0.08454059,0.010584773,-0.22971585,28.9375,30.3125,29.3125,32.9375,35.4375,36.5
0.13005218,-1.2017456,-0.21594533,-1.8308252,0.012858185,0.09811303,-0.15942383,-0.39295867,-0.36754075,0.05996901,3.078364,-0.62377656,0.00015745376,-0.05610974,0.016516805,-0.00021986212,-0.013814436,0.0010331194,0.03118431,0.49923202,-1.3778396,1.8997062,-2.091543,-1.5701298,2.4735503,-0.08675839,0.059959363,-0.0714382,0.003983324,0.011528839,-0.117917776,-0.38307226,0.019153614,-9.385271,0.800085,47.70032,-1.3506162,-2.5112176,-3.3764517,-0.0882747,0.029477341,-0.17201874,28.9375,30.3125,29.3125,32.9375,35.4375,36.5
0.1320525,-1.6972115,-0.6108726,-1.9306258,0.014711962,0.096224606,-0.15461826,-0.3930479,-0.3675116,0.059937164,3.0783966,-0.62363255,0.00022361914,-0.058517132,0.017610379,0.0014296509,-0.015542513,0.0036842073,0.028132536,0.49908543,-1.377684,1.899597,-2.0915549,-1.5701054,2.4733098,-0.090948746,0.058323227,-0.07334957,0.0043804166,0.011771401,-0.11905659,-0.38307226,-0.019153614,-9.404425,0.72622824,47.64837,-1.2113338,-2.5122557,-3.3944523,-0.08540048,0.02276179,-0.14442867,28.9375,30.3125,29.3125,32.9375,35.4375,36.5
0.13405168,-1.5953174,-0.6485079,-1.9356109,0.0039812443,0.10517991,-0.15766332,-0.39315382,-0.36749238,0.05994678,3.0783398,-0.6235797,0.00033433444,-0.05973526,0.01624385,0.0027627281,-0.0164698,0.006705995,0.028136974,0.49889576,-1.3775637,1.8994163,-2.0914834,-1.5700096,2.4730942,-0.08935031,0.059084646,-0.07731699,0.004504205,0.011131659,-0.11746031,-0.49799395,-0.076614454,-9.481039,0.7329411,47.655537,-1.3906102,-2.4056487,-3.1404064,-0.07842186,0.01945101,-0.13760991,28.9375,30.3125,29.3125,32.9375,35.4375,36.5
0.13605388,-2.05447,-1.163957,-2.1358786,0.006122516,0.10456755,-0.1455146,-0.39328787,-0.36744463,0.059954863,3.0783446,-0.62350893,0.0002291839,-0.060593273,0.018988946,0.0005525689,-0.014292354,0.0025789926,0.018445991,0.4987144,-1.3774548,1.8992742,-2.0915072,-1.5700458,2.4728682,-0.09477757,0.061742365,-0.0754857,0.0046757367,0.0112054115,-0.11319637,-0.6512229,0.095768064,-9.500193,0.83365434,47.689575,-1.2529136,-2.4448137,-3.3169866,-0.09506573,0.022745619,-0.18760094,28.9375,30.3125,29.3125,32.9375,35.4375,36.5
0.13805214,-2.2062716,-1.118141,-2.0513709,-0.007831868,0.107666604,-0.14454073,-0.3933966,-0.36742234,0.05995525,3.0783086,-0.62342644,0.00025064082,-0.061301354,0.018575396,0.0007940383,-0.014011679,0.0029852325,0.014287086,0.49854672,-1.377334,1.8991302,-2.0915067,-1.5699977,2.4726536,-0.09443504,0.063194275,-0.07794049,0.005461845,0.010763487,-0.10869309,-0.7086837,0.05746084,-9.634268,0.85826975,47.70838,-1.2849112,-2.5643563,-3.2803402,-0.09702529,0.029403765,-0.2656082,28.9375,30.3125,29.3125,32.9375,35.4375,36.5
0.14005315,-1.7619044,-1.0762329,-1.9248052,-0.022178156,0.120108224,-0.15751374,-0.39352158,-0.3673599,0.059923638,3.0783567,-0.6234372,0.0002830816,-0.06358688,0.020057866,0.0021998275,-0.014391628,0.0061257975,0.008856879,0.4983419,-1.3771546,1.8989867,-2.0914948,-1.5700225,2.4724495,-0.09827426,0.06146229,-0.07908114,0.005397066,0.009589657,-0.10710113,-0.53630114,0.095768064,-9.595961,0.8157518,47.71286,-1.2174581,-2.3868337,-3.2880945,-0.10680477,0.039119553,-0.2796908,28.9375,30.3125,29.3125,32.9375,35.4375,36.5
0.1420524,-2.4968095,-1.4140879,-2.0180717,-0.017157253,0.09917735,-0.1464282,-0.39365718,-0.36734003,0.059955742,3.078285,-0.6233856,0.00022160445,-0.064758554,0.021204496,0.0011618775,-0.013674758,0.0045011514,0.006383031,0.4981611,-1.3770576,1.898796,-2.0914829,-1.5699862,2.4722457,-0.101347215,0.06393197,-0.07961683,0.0052383263,0.009745854,-0.107699014,-0.68953013,0.095768064,-9.481039,0.75084364,47.68599,-1.1520597,-2.4855072,-3.3244758,-0.10140206,0.023677958,-0.33384395,28.9375,30.3125,29.3125,32.9375,35.4375,36.5
0.14409848,-2.3033986,-1.5662558,-2.0241554,-0.0055208644,0.09579491,-0.13798098,-0.39379963,-0.36725378,0.059943166,3.078308,-0.62342775,0.00027958682,-0.06643335,0.021637963,0.0018540303,-0.015045881,0.0058000567,0.0050887475,0.4978849,-1.3769134,1.89864,-2.0914228,-1.5699862,2.471993,-0.10394209,0.06404218,-0.08127387,0.0049906927,0.010324183,-0.10900003,-0.63206923,0.11492168,-9.500193,0.7642693,47.652847,-1.0150019,-2.396453,-3.2675028,-0.10367079,0.029507373,-0.32643342,28.9375,30.3125,29.3125,32.9375,35.4375,36.5
0.14610255,-2.3553789,-1.3052083,-2.177794,6.040236e-05,0.08654479,-0.14367466,-0.39394116,-0.36724153,0.059969436,3.0782182,-0.6233339,0.00019837031,-0.06825992,0.022840874,0.0019212114,-0.015207932,0.006634934,0.0014450322,0.49770415,-1.3768051,1.8984603,-2.0914595,-1.5699381,2.471765,-0.10745617,0.06471398,-0.08207504,0.004317096,0.010078598,-0.10886857,-0.53630114,0.076614454,-9.519346,0.83813137,47.65643,-0.9214194,-2.3536918,-3.318272,-0.108960405,0.012940776,-0.35525844,28.9375,30.3125,29.3125,32.9375,35.4375,36.5
0.14810422,-1.3068246,-0.97997266,-2.153407,-0.0008109303,0.099684276,-0.1484705,-0.39407635,-0.36720827,0.059963718,3.0782037,-0.6232914,0.0001569433,-0.068722375,0.023277313,0.0013316879,-0.014905108,0.005763361,0.0022293457,0.49752393,-1.3766484,1.8982929,-2.0914834,-1.5699381,2.4715602,-0.1086796,0.06605895,-0.082289614,0.004099985,0.010234613,-0.11087582,-0.61291564,0.038307227,-9.500193,0.7329411,47.68062,-0.8772156,-2.3599885,-3.3435807,-0.09874025,0.03983006,-0.4017781,28.9375,30.3125,29.3125,32.9375,35.4375,36.5
0.15010282,-1.5365865,-0.76840514,-1.9970686,-0.0034121233,0.093067855,-0.14577462,-0.39419493,-0.36713836,0.05994981,3.0781767,-0.6233421,0.0002731757,-0.07145247,0.022771405,0.0031701308,-0.017202664,0.009750249,0.0013669673,0.49726003,-1.3765284,1.8981713,-2.0914357,-1.569878,2.4713314,-0.11036889,0.0663652,-0.08673813,0.003651924,0.010339796,-0.11170147,-0.5363012,0.019153614,-9.481039,0.7732232,47.675243,-0.849721,-2.2925286,-3.2423553,-0.10259033,0.00865117,-0.39807838,28.9375,30.3125,29.3125,32.9375,35.4375,36.5
0.15209348,-1.6008805,-0.7235532,-2.0859127,0.0014879885,0.09959097,-0.1463289,-0.39435896,-0.36709225,0.05996954,3.0781224,-0.6233858,0.00018909706,-0.070943624,0.02389926,0.0017990187,-0.015626587,0.007293102,0.0061357836,0.49703214,-1.3763957,1.8979691,-2.0914357,-1.5698785,2.4711378,-0.11163626,0.067276746,-0.08470322,0.0036249084,0.010145233,-0.11773745,-0.5554548,0.0,-9.461885,0.8314132,47.64837,-0.87200737,-2.4049878,-3.3337345,-0.11017378,0.04106887,-0.38620633,28.9375,30.3125,29.3125,32.9375,35.4375,36.5
0.15409355,-1.1855016,-0.6744151,-1.8064007,0.009610837,0.1120409,-0.1549948,-0.39449483,-0.3670589,0.059970234,3.0781178,-0.62322634,0.00021192229,-0.07211663,0.023398904,0.0024570504,-0.016712949,0.008185374,0.012567514,0.4968285,-1.3762393,1.8977765,-2.0914114,-1.5698417,2.4708352,-0.112166256,0.06832087,-0.08756638,0.004152267,0.0106779635,-0.124698326,-0.4405331,-0.05746084,-9.481039,0.7642693,47.64121,-0.9060671,-2.320385,-3.3506413,-0.09038496,0.02438287,-0.3449142,28.9375,30.3125,29.3125,32.9375,35.4375,36.5
0.15605375,-1.482395,-0.15090553,-1.7499576,0.0014582486,0.09281749,-0.16467609,-0.39464504,-0.36699462,0.059976965,3.0781405,-0.6231484,0.00010612111,-0.072857775,0.023336416,0.0026388755,-0.016636785,0.008715968,0.020033693,0.49661282,-1.3761189,1.897621,-2.0914233,-1.5698904,2.4705682,-0.11251231,0.06924463,-0.089131966,0.004367704,0.010369079,-0.13250907,-0.24899697,-0.05746084,-9.423578,0.8940802,47.682407,-0.90652615,-2.283854,-3.1577258,-0.10632102,0.02375397,-0.2528645,28.9375,30.3125,29.3125,32.9375,35.4375,36.5
0.15805224,-1.068759,-0.54006886,-1.7376645,0.013637383,0.08519924,-0.15193793,-0.39478385,-0.36696315,0.059961822,3.0780737,-0.62310994,0.00020402095,-0.073653094,0.023208233,0.0029181768,-0.017112782,0.009510075,0.028062247,0.49637306,-1.3759383,1.8974413,-2.0914233,-1.5697945,2.4703128,-0.11301375,0.069889925,-0.090503715,0.004192086,0.010414689,-0.14103849,-0.11492168,0.095768064,-9.461885,0.7732232,47.66808,-0.9835496,-2.33602,-3.2650957,-0.09285932,0.03626591,-0.17802303,28.9375,30.3125,29.3125,32.9375,35.4375,36.5
0.16005239,-0.82208705,-0.51327837,-1.9672928,0.0012436543,0.068572424,-0.15053242,-0.39494026,-0.3668939,0.059971258,3.0780752,-0.6230335,0.000150529,-0.07565859,0.024494186,0.002870321,-0.017145477,0.00990623,0.02640838,0.4961204,-1.375818,1.8972744,-2.0914114,-1.569806,2.4700124,-0.11687691,0.07113086,-0.09180708,0.003894208,0.010261774,-0.14324658,-0.17238252,0.019153614,-9.442732,0.8023209,47.696735,-0.9522756,-2.2056632,-3.2107263,-0.11143579,0.042646155,-0.12016488,28.9375,30.3125,29.3125,32.9375,35.4375,36.5
0.16205214,-0.3647179,-1.4418983,-2.0378556,0.006904989,0.060914062,-0.13753836,-0.39512601,-0.36685938,0.05999722,3.0780222,-0.62294734,2.163556e-05,-0.074845746,0.023705712,0.0023897786,-0.01613113,0.009586828,0.028204843,0.4958922,-1.3756614,1.897035,-2.0914357,-1.569806,2.4697373,-0.11430994,0.07220471,-0.0919644,0.0037456474,0.009539499,-0.14247423,-0.19153613,0.11492168,-9.385271,0.77545905,47.690468,-1.1186092,-2.3673298,-3.3144085,-0.08793043,0.06802843,-0.094300844,28.9375,30.3125,29.3125,32.9375,35.4375,36.5
0.1640524,-0.7496721,-1.4929649,-2.0160773,-0.006249316,0.048530705,-0.13663836,-0.3952628,-0.36678404,0.059985507,3.0780563,-0.622897,6.578459e-05,-0.076928645,0.025762726,0.0018010054,-0.015577758,0.00866795,0.019193271,0.4956403,-1.3755168,1.8968791,-2.0913875,-1.569806,2.4694498,-0.119603045,0.073879376,-0.09264052,0.0038178805,0.009484626,-0.13875557,-0.095768064,0.05746084,-9.461885,0.800085,47.67614,-0.82802033,-2.273594,-3.3273494,-0.08811995,0.06624544,-0.14975394,28.9375,30.3125,29.3125,32.9375,35.4375,36.5
0.16605188,-0.5376384,-1.343263,-2.0430644,-0.020234628,0.048633814,-0.14705111,-0.39541447,-0.36674026,0.059981506,3.078031,-0.6228558,6.279569e-05,-0.07697857,0.025338817,0.0016504781,-0.015720513,0.007836873,0.014553548,0.49541315,-1.375348,1.8966879,-2.0913875,-1.5697821,2.4692001,-0.119218215,0.075111404,-0.09393678,0.0045443643,0.010007062,-0.13373059,-0.095768064,0.11492168,-9.32781,0.88960326,47.690468,-1.0106416,-2.3497016,-3.3740678,-0.083165705,0.08045775,-0.17823648,28.9375,30.3125,29.3125,32.9375,35.4375,36.5
0.16805248,-0.3481351,-1.4587322,-1.9472241,-0.023396092,0.05503575,-0.15432142,-0.39555946,-0.36667112,0.05996988,3.0780356,-0.6228192,0.00011751856,-0.07770908,0.025473744,0.0019072711,-0.016166247,0.007685079,0.009184423,0.49514922,-1.3751917,1.8965205,-2.0913513,-1.5697578,2.4689128,-0.120356955,0.07569371,-0.09540633,0.005353609,0.010467534,-0.12950024,-0.05746084,0.21068975,-9.385271,0.8717007,47.703903,-0.9971422,-2.2830215,-3.290494,-0.0900463,0.07187412,-0.2610153,28.9375,30.3125,29.3125,32.9375,35.4375,36.5
0.1700518,-0.7894851,-1.6306012,-1.9602786,-0.021525595,0.046415087,-0.14396113,-0.39570802,-0.3666324,0.05998077,3.0779989,-0.6227168,7.1613715e-05,-0.07812194,0.02601217,0.0013314285,-0.01686285,0.0056976024,0.0037900922,0.4949333,-1.3750592,1.8963412,-2.0913627,-1.5697335,2.4686377,-0.12256899,0.07683716,-0.09555898,0.005777545,0.012033468,-0.12631828,-0.076614454,0.28730422,-9.500193,0.80456203,47.70211,-1.056262,-2.3180456,-3.3400583,-0.10589333,0.08373028,-0.32494462,28.9375,30.3125,29.3125,32.9375,35.4375,36.5
0.17205225,-0.6624181,-1.6906561,-1.9920336,-0.024885988,0.050038617,-0.14455391,-0.39587885,-0.36660522,0.060004003,3.0779207,-0.62274134,-2.9299126e-06,-0.07820257,0.025125094,0.00085883535,-0.01663939,0.0051208236,0.0034617735,0.49471653,-1.3749021,1.8961018,-2.0913627,-1.5697092,2.4684463,-0.12115683,0.07926993,-0.09738618,0.0057894015,0.012118415,-0.124575794,-0.038307227,0.28730422,-9.423578,0.7463667,47.68062,-1.068223,-2.3751645,-3.328055,-0.0901552,0.07295713,-0.3811502,28.9375,30.3125,29.3125,32.9375,35.4375,36.5
0.17405243,-0.47260186,-1.8745295,-2.0482004,-0.030080762,0.051997114,-0.15293866,-0.3960538,-0.36652738,0.059997484,3.0779424,-0.62272614,-2.8223178e-05,-0.08031756,0.02674152,0.0017719945,-0.017249897,0.006701087,-0.0025287417,0.49444103,-1.3747224,1.8958977,-2.0913389,-1.5697335,2.4681587,-0.12562223,0.078269,-0.09835075,0.006073857,0.011906667,-0.12305038,0.0,0.30645782,-9.3661175,0.8605109,47.683304,-1.0842018,-2.4268706,-3.4061728,-0.10814692,0.09074386,-0.46740928,28.9375,30.3125,29.3125,32.9375,35.4375,36.5
0.17605184,-0.9178181,-1.7940875,-1.9533447,-0.03359411,0.03910386,-0.14109612,-0.39620653,-0.36649147,0.06001693,3.077909,-0.6226008,-7.634883e-05,-0.080375224,0.025444796,0.0024487616,-0.018602233,0.008213702,0.0006347625,0.49422628,-1.3745903,1.8956941,-2.0913274,-1.5697092,2.46787,-0.12374758,0.078305274,-0.09981754,0.0055364207,0.012386772,-0.124338195,0.0,0.3256114,-9.308656,0.8605109,47.67166,-1.1365314,-2.2155604,-3.4487534,-0.111729935,0.09127112,-0.49713922,28.9375,30.3125,29.3125,32.9375,35.4375,36.5
0.17805211,-0.37619656,-1.4846889,-1.8429347,-0.028986085,0.045435578,-0.15383849,-0.39637378,-0.36643285,0.06000598,3.077832,-0.6227181,-2.704932e-05,-0.08061591,0.026506105,-0.0003723504,-0.01582091,0.003293396,0.0032078067,0.493938,-1.3744084,1.8955029,-2.0913274,-1.5696491,2.4676647,-0.12563734,0.083900884,-0.10016156,0.0059519014,0.012280596,-0.12879989,0.0,0.30645782,-9.32781,0.8873621,47.684196,-1.120857,-2.3407857,-3.341388,-0.095520385,0.109692395,-0.508467,28.9375,30.3125,29.3125,32.9375,35.4375,36.5
0.18005225,-0.66097593,-1.7532988,-1.7063934,-0.01618401,0.033943754,-0.14613675,-0.3965445,-0.36638007,0.060011428,3.077801,-0.6226281,-8.717094e-05,-0.08180483,0.02661663,0.0011841767,-0.017912528,0.0056373407,0.011351203,0.49368614,-1.3742528,1.8953112,-2.0913513,-1.5696367,2.4673607,-0.12731788,0.08191411,-0.10138742,0.0061218985,0.013029278,-0.13862336,0.0,0.28730422,-9.289502,0.78888994,47.73077,-1.1178024,-2.318771,-3.48954,-0.10339162,0.11582995,-0.4359157,28.9375,30.3125,29.3125,32.9375,35.4375,36.5
0.18205237,-0.65001714,-0.94415367,-1.8173648,-0.02196258,0.025966976,-0.15366565,-0.39667335,-0.36632755,0.059993282,3.0778067,-0.62258244,-5.6909016e-06,-0.08272231,0.027111834,0.0005575953,-0.017294222,0.004731851,0.022409437,0.49345833,-1.3740839,1.8951434,-2.0913146,-1.5696009,2.4671037,-0.1288791,0.08413162,-0.10264691,0.006276632,0.012920763,-0.15124246,0.076614454,0.22984336,-9.289502,0.7642693,47.705692,-1.1279082,-2.3391206,-3.327413,-0.119200185,0.102981046,-0.3497848,28.9375,30.3125,29.3125,32.9375,35.4375,36.5
0.18405285,-0.25630507,-1.5356433,-1.8082185,-0.004990522,0.03896379,-0.15643992,-0.3968821,-0.36625794,0.060020607,3.0777793,-0.6224958,-0.00011786579,-0.08329648,0.026834352,0.0005056383,-0.018134575,0.004432757,0.029638497,0.4931588,-1.3739272,1.8948926,-2.091303,-1.5696129,2.4667537,-0.1294333,0.08537578,-0.10401774,0.006276342,0.0138236685,-0.15902439,0.038307227,0.24899697,-9.289502,0.82022345,47.716442,-1.2180406,-2.3800428,-3.4252183,-0.11313992,0.11576632,-0.2538453,28.9375,30.3125,29.3125,32.9375,35.4375,36.5
0.18605281,-0.33139583,-1.4030273,-1.6351045,-0.011968734,0.05585484,-0.1435629,-0.3970097,-0.36621317,0.05997316,3.0777981,-0.62232447,6.2174956e-07,-0.08539328,0.027160127,0.0010880281,-0.01947115,0.0059511857,0.03276827,0.49293026,-1.3737106,1.8947486,-2.0913274,-1.5695528,2.466416,-0.13212553,0.0864175,-0.10647464,0.005739245,0.014276715,-0.16484615,-0.11492168,0.19153613,-9.232041,0.83813137,47.692257,-1.065424,-2.231341,-3.3873205,-0.1208892,0.12659596,-0.20327246,28.9375,30.3125,29.3125,32.9375,35.4375,36.5
0.18805225,-0.79158556,-1.5047916,-1.8178213,0.004204108,0.06318053,-0.13629605,-0.39719495,-0.36617693,0.060006928,3.0777261,-0.6222322,-7.642191e-05,-0.08637513,0.027556824,-0.00020088741,-0.018566197,0.0034482235,0.03232606,0.49267825,-1.373565,1.8944958,-2.0913146,-1.5695161,2.4661155,-0.13387828,0.09050916,-0.108565226,0.0063813203,0.014680721,-0.16615416,-0.21068975,0.15322891,-9.32781,0.83589023,47.698532,-1.1419713,-2.363661,-3.3052862,-0.09622894,0.12264691,-0.14869907,28.9375,30.3125,29.3125,32.9375,35.4375,36.5
0.19005251,-0.53790927,-1.0936916,-1.7979976,-0.0052536717,0.088931546,-0.14787716,-0.39737332,-0.36612207,0.05999663,3.0777028,-0.6222117,-3.931131e-05,-0.086997695,0.028145306,0.00044813665,-0.01943982,0.003415476,0.02423311,0.4924019,-1.3733493,1.8942574,-2.0912907,-1.5694803,2.4658294,-0.1358595,0.08952583,-0.10915894,0.0075738914,0.015464129,-0.16004285,-0.38307226,0.21068975,-9.32781,0.8806493,47.70659,-1.0098987,-2.3299181,-3.2780132,-0.10560146,0.12436588,-0.20625022,28.9375,30.3125,29.3125,32.9375,35.4375,36.5
0.19205262,-1.9706972,-1.5062222,-1.8279489,-0.005201237,0.07699683,-0.13793023,-0.3975232,-0.3660967,0.06001185,3.0776641,-0.6220523,-2.2780549e-05,-0.08984934,0.028071007,0.0018035911,-0.0207754,0.006261775,0.016637111,0.492186,-1.3731928,1.8940285,-2.0912545,-1.5694202,2.465519,-0.1381627,0.09089103,-0.11393643,0.007853397,0.015288956,-0.15474741,-0.51714754,0.21068975,-9.270349,0.842603,47.67614,-1.1820143,-2.278052,-3.2441354,-0.12406539,0.13116513,-0.2640965,28.9375,30.3125,29.3125,32.9375,35.4375,36.5
0.19405171,-2.0647411,-1.5978122,-1.6394191,-0.0010776562,0.10232395,-0.14340541,-0.39770177,-0.36600524,0.06000947,3.0776572,-0.62205,-7.233762e-06,-0.08773585,0.028724797,-0.00078483904,-0.018095829,0.0015816995,0.015428928,0.49186298,-1.3730358,1.8938392,-2.0912187,-1.5694083,2.4651954,-0.13720089,0.09283155,-0.11034669,0.0077184374,0.015146865,-0.15257853,-0.4405331,0.095768064,-9.3661175,0.73741806,47.690468,-1.083137,-2.515002,-3.3287396,-0.120715454,0.10664642,-0.32268628,28.9375,30.3125,29.3125,32.9375,35.4375,36.5
0.19605216,-1.7777126,-1.082348,-1.7164885,-0.002169971,0.11698024,-0.14294326,-0.3978781,-0.3659475,0.059995845,3.0776584,-0.6219934,4.9789737e-06,-0.09080699,0.028524972,0.0016013632,-0.02093338,0.0053768023,0.012176242,0.49159843,-1.3728198,1.8936104,-2.0912058,-1.5693959,2.4648955,-0.14002411,0.09243985,-0.115519956,0.008601113,0.015849877,-0.1521475,-0.63206923,-0.019153614,-9.461885,0.8537928,47.711964,-1.0187262,-2.2587247,-3.2078052,-0.14305045,0.14203635,-0.33781117,28.9375,30.3125,29.3125,32.9375,35.4375,36.5
0.19805261,-1.5694968,-1.5755168,-1.6740998,0.0146105,0.13236424,-0.13962664,-0.398069,-0.3658982,0.060016707,3.0776167,-0.62192523,-6.9638656e-05,-0.0896476,0.028490568,-0.0005862323,-0.01820348,0.001957766,0.0142430235,0.49133563,-1.3726504,1.8933591,-2.0911949,-1.5693845,2.4645956,-0.13837615,0.09596139,-0.11476072,0.008632307,0.015072863,-0.15256475,-0.7469909,-0.05746084,-9.442732,0.7530795,47.709274,-1.2097787,-2.4622853,-3.3292725,-0.14820632,0.13027406,-0.37132525,28.9375,30.3125,29.3125,32.9375,35.4375,36.5
0.20005253,-1.7779493,-0.6964312,-1.5847005,0.008966799,0.12990734,-0.15271717,-0.39822373,-0.36583206,0.05998168,3.0776286,-0.621868,7.915041e-05,-0.09167056,0.028802268,0.00012322389,-0.01931375,0.0036012034,0.015455873,0.4910472,-1.372422,1.8931559,-2.0911467,-1.5693244,2.4642699,-0.14079572,0.09681229,-0.117357805,0.008423615,0.015266477,-0.15619725,-0.7278373,0.0,-9.3661175,0.75755644,47.695843,-1.2173991,-2.377276,-3.2388506,-0.16535765,0.124701485,-0.37292743,28.9375,30.3125,29.3125,32.9375,35.4375,36.5
0.20205168,-1.9812484,-0.7322124,-1.7032176,0.018712966,0.12205234,-0.14847542,-0.39842978,-0.36576906,0.059990957,3.077579,-0.621795,-9.642821e-06,-0.093940236,0.029546177,0.00032106566,-0.019700274,0.0049203117,0.020125113,0.4907473,-1.3722411,1.892928,-2.091183,-1.569312,2.4639308,-0.14386702,0.09850598,-0.119678825,0.0077238134,0.015004727,-0.16393527,-0.61291564,0.019153614,-9.3661175,0.84708,47.684196,-1.220623,-2.471087,-3.2076883,-0.13913406,0.14351232,-0.3292851,28.9375,30.3125,29.3125,32.9375,35.4375,36.5
0.20405187,-1.5152972,-0.61865395,-1.5991994,0.017551875,0.12287344,-0.15566562,-0.3986121,-0.36572522,0.05998991,3.0775466,-0.6216863,3.631872e-05,-0.09418802,0.028821116,0.00014832338,-0.02018947,0.0047674724,0.030335799,0.490472,-1.3720243,1.8926643,-2.0911472,-1.5692524,2.4635918,-0.1431284,0.10012997,-0.12119799,0.007549357,0.015521216,-0.17340654,-0.63206923,-0.076614454,-9.3661175,0.7709874,47.66808,-1.1572846,-2.5631874,-3.113514,-0.15172055,0.1618678,-0.22576737,28.9375,30.3125,29.3125,32.9375,35.4375,36.5
0.20605211,-1.5846952,-0.784067,-1.6159247,0.013791182,0.11725128,-0.1509436,-0.3987924,-0.3656537,0.059975635,3.0775373,-0.6215858,9.956547e-05,-0.09611685,0.029929277,0.0010184619,-0.020461084,0.0065355888,0.034788083,0.49015915,-1.3718203,1.8924483,-2.0911224,-1.5692042,2.4632175,-0.14630471,0.09975408,-0.12282367,0.007890113,0.014936643,-0.1810347,-0.80445176,-0.019153614,-9.423578,0.91198283,47.733456,-1.00312,-2.4443216,-3.0837111,-0.16411339,0.16888073,-0.11995627,28.9375,30.3125,29.3125,32.9375,35.4375,36.5
0.20805229,-1.8788835,-0.99357927,-1.6835383,0.0051132054,0.11764391,-0.13414325,-0.39901757,-0.36559665,0.060004886,3.0775013,-0.62145805,-1.5049172e-05,-0.097023,0.02965324,0.0010041571,-0.021105044,0.006514347,0.036935702,0.48986012,-1.3716276,1.8921498,-2.091111,-1.5692042,2.4628434,-0.14695226,0.101468734,-0.12485719,0.007931349,0.015535705,-0.1838276,-0.80445176,-0.076614454,-9.404425,0.7530795,47.705692,-1.1472535,-2.4590054,-3.1223526,-0.1551239,0.17005111,-0.05180014,28.9375,30.3125,29.3125,32.9375,35.4375,36.5
0.21005163,-1.7083073,-0.50148374,-1.6988035,-0.002321284,0.12510674,-0.14345469,-0.39918584,-0.36553773,0.05999363,3.077496,-0.6213253,7.31751e-05,-0.097364396,0.030244075,0.0012345769,-0.020761095,0.006689754,0.03169049,0.48957223,-1.3714236,1.8919219,-2.0910633,-1.5691441,2.4624734,-0.14794895,0.10098663,-0.1249634,0.008536943,0.015145717,-0.1795795,-0.7661445,-0.095768064,-9.404425,0.75755644,47.693153,-1.2595278,-2.3742306,-3.1029735,-0.16650431,0.18057585,-0.06709387,28.9375,30.3125,29.3125,32.9375,35.4375,36.5
0.21205172,-1.612069,-0.8521305,-1.7059271,0.00037253238,0.12741323,-0.138648,-0.39936534,-0.3654556,0.059950378,3.07753,-0.6213173,0.00013367996,-0.09750929,0.030791417,0.00029216794,-0.020053174,0.0046175956,0.022570973,0.48927242,-1.3711706,1.8917187,-2.0910628,-1.5691441,2.4621644,-0.14914474,0.1027969,-0.12511633,0.009032267,0.015481802,-0.17165636,-0.63206923,0.0,-9.423578,0.81351066,47.741516,-1.2218305,-2.43951,-3.121628,-0.16856478,0.17133951,-0.13939348,28.9375,30.3125,29.3125,32.9375,35.4375,36.5
0.21405207,-1.0435977,-0.937196,-1.7637755,-0.00659126,0.12794878,-0.13887015,-0.39957497,-0.36539117,0.059965122,3.0775077,-0.62121934,0.00011430066,-0.099357605,0.030421296,0.0018140203,-0.021683631,0.007379028,0.0152123775,0.48896065,-1.3709666,1.8914312,-2.0910146,-1.5691203,2.4617944,-0.15019602,0.10270148,-0.12855086,0.009356928,0.015619913,-0.1653473,-0.5554548,-0.038307227,-9.461885,0.82022345,47.70659,-1.2342079,-2.342187,-3.0770195,-0.18294385,0.20108765,-0.23323855,28.9375,30.3125,29.3125,32.9375,35.4375,36.5
0.21605256,-0.7584241,-1.2875309,-1.9243536,0.007067239,0.11508003,-0.1421991,-0.39980572,-0.36533365,0.0599856,3.077437,-0.62118554,-6.933048e-07,-0.098207854,0.03157829,-0.00048771576,-0.019738829,0.0034545558,0.011149201,0.48864907,-1.3707619,1.8911465,-2.091039,-1.5691084,2.4614708,-0.15111768,0.104477555,-0.12531309,0.008722578,0.015768858,-0.16220516,-0.38307226,-0.019153614,-9.500193,0.86498255,47.711063,-1.2477044,-2.2807431,-3.2956734,-0.193625,0.20551243,-0.34801936,28.9375,30.3125,29.3125,32.9375,35.4375,36.5
0.21805196,-1.0270423,-1.1044357,-2.1408844,0.0010437092,0.07988233,-0.1378463,-0.40001827,-0.3652724,0.059997056,3.0773473,-0.6212087,-4.0307732e-05,-0.099859774,0.031489786,0.00033393354,-0.020710658,0.0056202416,0.004483277,0.48832536,-1.3705692,1.8908938,-2.0910509,-1.5690602,2.461173,-0.15227856,0.10503948,-0.12775567,0.0082391845,0.015612533,-0.15669796,-0.24899697,0.0,-9.500193,0.84708,47.728977,-1.2291586,-2.5606682,-3.2011497,-0.17490406,0.21122551,-0.42840195,28.9375,30.3125,29.3125,32.9375,35.4375,36.5
0.22005223,-0.6260742,-0.8434817,-2.2522912,-0.0061219814,0.06395175,-0.14534163,-0.40021607,-0.36520112,0.059977002,3.0773482,-0.62118864,1.3122744e-05,-0.10117434,0.03270981,6.0105667e-05,-0.020352503,0.0053337887,0.0017893536,0.4880132,-1.370317,1.8906306,-2.091015,-1.5690364,2.4608483,-0.15532339,0.10604582,-0.1283662,0.008274273,0.01543038,-0.15704891,-0.19153613,0.05746084,-9.519346,0.78888994,47.717335,-1.3447521,-2.2647586,-3.3099756,-0.17912316,0.22801507,-0.51130414,28.9375,30.3125,29.3125,32.9375,35.4375,36.5
0.22205225,-0.53204834,-1.291321,-2.2162244,-0.002634729,0.052510493,-0.1446277,-0.40041655,-0.36512473,0.05996705,3.0773284,-0.62115926,2.5006293e-05,-0.100923926,0.032791357,-0.00066628715,-0.020113261,0.004113404,0.009718707,0.4876899,-1.3701001,1.8903922,-2.0910032,-1.569012,2.4605093,-0.15539555,0.10710168,-0.12793286,0.007996487,0.01580835,-0.16505037,-0.038307227,0.019153614,-9.557653,0.82694155,47.72002,-1.2475786,-2.4906862,-3.3906574,-0.18577471,0.23494078,-0.47639036,28.9375,30.3125,29.3125,32.9375,35.4375,36.5
0.22405234,-0.22563669,-0.9354985,-2.166801,-0.006037209,0.045749035,-0.15563162,-0.40062067,-0.36503908,0.059940685,3.077296,-0.62122315,7.675754e-05,-0.10206856,0.034763306,-0.001466874,-0.019193538,0.0022256016,0.018168923,0.4873409,-1.3698595,1.8901652,-2.0910032,-1.5689763,2.4602044,-0.15971553,0.10829201,-0.12772496,0.008730448,0.015901621,-0.17782085,0.076614454,0.1340753,-9.500193,0.8023209,47.70659,-0.96754926,-2.4060206,-3.4879246,-0.19789977,0.2514113,-0.38830978,28.9375,30.3125,29.3125,32.9375,35.4375,36.5
0.2260517,-0.33202684,-0.8863529,-2.048107,-0.010180261,0.028658507,-0.1480644,-0.40084198,-0.3649688,0.059951086,3.0772698,-0.62115306,3.2179112e-05,-0.10360021,0.034961417,-0.0006544511,-0.020650616,0.0031247411,0.028505921,0.48701692,-1.3696431,1.8898782,-2.0909789,-1.5689639,2.45984,-0.1618887,0.108589664,-0.13008317,0.009340701,0.016794255,-0.19032952,0.19153613,0.11492168,-9.519346,0.842603,47.672558,-1.026505,-2.4427807,-3.3594172,-0.20389158,0.26503617,-0.26637235,28.9375,30.3125,29.3125,32.9375,35.4375,36.5
0.2280519,0.34235662,-1.0676914,-2.1806495,-0.009844746,0.02972185,-0.15041563,-0.40107557,-0.36489457,0.05997683,3.0772598,-0.6210329,-0.000119584816,-0.104560085,0.03553257,-0.00044217022,-0.021415902,0.0034329058,0.033458155,0.4867049,-1.369451,1.8895906,-2.0909789,-1.5689992,2.4594545,-0.16396965,0.108672105,-0.13064997,0.009203438,0.017357657,-0.19736092,0.22984336,0.095768064,-9.576807,0.84484416,47.677036,-0.9824666,-2.2992442,-3.6268535,-0.18842568,0.2726338,-0.18653177,28.9375,30.3125,29.3125,32.9375,35.4375,36.5
0.23005208,0.41943076,-1.2554867,-1.9527069,-0.020523043,0.032574404,-0.153172,-0.40125856,-0.36482295,0.059953116,3.0772343,-0.6209509,9.179128e-06,-0.10549254,0.035804257,-0.0016647895,-0.02134331,0.0011658253,0.030398611,0.48636904,-1.3692216,1.8893627,-2.0909426,-1.5689152,2.4590707,-0.1657963,0.11236891,-0.13230869,0.009220061,0.018344617,-0.19612752,0.15322891,0.19153613,-9.5385,0.8560339,47.675243,-0.94261473,-2.416309,-3.4631252,-0.18691406,0.2542827,-0.14439443,28.9375,30.3125,29.3125,32.9375,35.4375,36.5
0.23205203,-0.50047874,-0.9876209,-2.1638734,-0.029958412,0.018598737,-0.15582994,-0.4014669,-0.3647568,0.059941962,3.0771954,-0.6208683,5.4739154e-05,-0.10629297,0.035025727,9.66341e-05,-0.02333589,0.0037250954,0.024436606,0.48603433,-1.3689818,1.8890995,-2.0909307,-1.5688547,2.4586895,-0.16546461,0.11081526,-0.1346349,0.009910531,0.018904041,-0.18983309,0.05746084,0.21068975,-9.500193,0.8717007,47.690468,-1.1632127,-2.2912226,-3.5298948,-0.20140454,0.28508994,-0.2173421,28.9375,30.3125,29.3125,32.9375,35.4375,36.5
0.23405194,-0.22520292,-1.3954772,-2.0869567,-0.028238,0.03896086,-0.14804,-0.40169004,-0.36466688,0.05994194,3.077215,-0.62075776,-9.324795e-06,-0.106541134,0.034992214,-0.0015309823,-0.021849994,0.00069631805,0.01946044,0.48569873,-1.368764,1.8888367,-2.0909183,-1.5688785,2.4582825,-0.16561097,0.11526603,-0.13643448,0.010624107,0.019005235,-0.18500137,0.15322891,0.2681506,-9.595961,0.82694155,47.667187,-1.1091897,-2.4115114,-3.4201016,-0.22490631,0.27482614,-0.28147477,28.9375,30.3125,29.3125,32.9375,35.4375,36.5
0.23605223,-0.7424599,-1.6425244,-1.9936132,-0.045495294,0.04392961,-0.15032035,-0.40191132,-0.36459768,0.059974145,3.077153,-0.6207259,-4.843114e-05,-0.10808781,0.03501948,0.00041203242,-0.024728758,0.0034349845,0.015078499,0.48536274,-1.3685849,1.8885363,-2.0908582,-1.5688423,2.4579346,-0.16773416,0.11306935,-0.13831055,0.010935691,0.020281848,-0.18274105,0.05746084,0.34476504,-9.5385,0.8605109,47.71554,-1.0999548,-2.341477,-3.472193,-0.24629027,0.27790797,-0.35047558,28.9375,30.3125,29.3125,32.9375,35.4375,36.5
0.23805243,-0.53679883,-1.7403842,-2.1697683,-0.05616103,0.056602105,-0.14882727,-0.40211895,-0.3645485,0.05996604,3.0770962,-0.6206564,-3.162815e-06,-0.108553246,0.035946008,-0.0002766729,-0.024112059,0.0011648475,0.013044925,0.4850506,-1.3683319,1.8882502,-2.0908463,-1.5687703,2.4575863,-0.16994375,0.114599094,-0.13891299,0.012322214,0.020805312,-0.1829163,0.05746084,0.36391866,-9.557653,0.8605109,47.65912,-1.0137584,-2.3043318,-3.4534626,-0.24163744,0.28249916,-0.37247738,28.9375,30.3125,29.3125,32.9375,35.4375,36.5
0.24005261,-0.5777738,-2.421336,-2.4539478,-0.047756724,0.054011244,-0.15521504,-0.4023084,-0.3644665,0.059948716,3.077091,-0.6205751,7.427139e-05,-0.110106565,0.036259186,-0.00018827921,-0.024912534,0.0016982926,0.017154543,0.48471466,-1.3681153,1.8880228,-2.09081,-1.5687226,2.4572003,-0.17206107,0.11609426,-0.14083044,0.011926067,0.021269113,-0.18914281,0.0,0.40222588,-9.710882,0.80679786,47.70032,-1.011492,-2.386428,-3.4297972,-0.2500191,0.28904152,-0.36962306,28.9375,30.3125,29.3125,32.9375,35.4375,36.5
0.24205208,-1.0724326,-2.8035789,-2.380662,-0.056657415,0.05761448,-0.1399808,-0.40256673,-0.3643908,0.059983443,3.0770214,-0.6205539,-4.949576e-06,-0.11147323,0.036433775,4.120297e-05,-0.025631087,0.002661942,0.026252203,0.48434263,-1.3678987,1.8876747,-2.0907629,-1.5686983,2.456824,-0.1736022,0.11718765,-0.14255953,0.011407777,0.021489734,-0.19977902,-0.17238252,0.40222588,-9.634268,0.82694155,47.67345,-0.90568984,-2.353742,-3.3907003,-0.2524278,0.28521627,-0.28740624,28.9375,30.3125,29.3125,32.9375,35.4375,36.5
0.24405247,-1.7913979,-2.2240758,-2.307712,-0.069954865,0.058601227,-0.16768374,-0.40280166,-0.364348,0.059991293,3.0769727,-0.62038136,-4.1419884e-05,-0.11149512,0.03578155,-0.0002718389,-0.025990225,0.002402561,0.038640484,0.48403186,-1.3676339,1.8873409,-2.0907629,-1.5686496,2.4564118,-0.17272277,0.11862388,-0.14350088,0.011014058,0.021963388,-0.21128581,-0.13407528,0.34476504,-9.595961,0.8291774,47.677036,-0.9704833,-2.3689759,-3.333075,-0.24894412,0.29606885,-0.16990553,28.9375,30.3125,29.3125,32.9375,35.4375,36.5
0.24605201,-1.6116031,-2.10685,-2.0357864,-0.0456706,0.08409087,-0.15208215,-0.40301543,-0.3642632,0.05998614,3.0769506,-0.6202626,-9.163876e-06,-0.11341279,0.035306893,0.0007646467,-0.027786547,0.004370852,0.041812666,0.4836699,-1.3674175,1.8870887,-2.090739,-1.5686015,2.4559786,-0.17395903,0.119703785,-0.14717385,0.011054325,0.022645667,-0.21569236,-0.34476504,0.34476504,-9.5385,0.9254084,47.723602,-1.0448132,-2.3781226,-3.2330804,-0.24896975,0.3043266,-0.06579091,28.9375,30.3125,29.3125,32.9375,35.4375,36.5
0.24805184,-0.8969521,-1.3368034,-1.6046529,-0.038045965,0.116108134,-0.15765053,-0.4032374,-0.36418408,0.05997529,3.076898,-0.62023157,8.8162415e-05,-0.115479805,0.034989428,0.0013043188,-0.029429689,0.005124652,0.035370328,0.4832883,-1.3671643,1.8868002,-2.0906913,-1.5685176,2.4555843,-0.17583624,0.12198586,-0.15123092,0.01141098,0.023738084,-0.21112543,-0.53630114,0.3256114,-9.442732,0.77545905,47.67614,-0.98363364,-2.3295074,-3.2325974,-0.27851754,0.2898494,-0.076700576,28.9375,30.3125,29.3125,32.9375,35.4375,36.5
0.25005215,-2.120841,-1.6737554,-1.6034755,-0.006963069,0.09563005,-0.1503046,-0.4034559,-0.36414462,0.05999206,3.0768647,-0.62003565,1.0578263e-05,-0.11550439,0.03462396,0.0007763567,-0.029825987,0.004766508,0.02685696,0.48301327,-1.3669357,1.8864893,-2.0906918,-1.5684932,2.4551914,-0.17547497,0.12326452,-0.151347,0.0103715155,0.024259118,-0.20224841,-0.5554548,0.19153614,-9.385271,0.80456203,47.681515,-1.1832387,-2.4824758,-3.1660607,-0.2911804,0.28428346,-0.16435915,28.9375,30.3125,29.3125,32.9375,35.4375,36.5
0.25205195,-1.5477617,-0.93163556,-1.558435,0.00018557388,0.10622109,-0.1495154,-0.4037219,-0.3640741,0.060007542,3.07677,-0.6200193,-5.6046112e-05,-0.11644198,0.03478295,0.0007489841,-0.029732035,0.0049188137,0.019384362,0.48262987,-1.3666832,1.886155,-2.0907028,-1.5684456,2.45481,-0.17637102,0.12467052,-0.15303613,0.010567906,0.0241151,-0.19566894,-0.59376204,0.11492168,-9.442732,0.8493211,47.66987,-1.1842428,-2.309478,-3.1621666,-0.2907166,0.27502638,-0.24530163,28.9375,30.3125,29.3125,32.9375,35.4375,36.5
0.2540522,-1.6978861,-1.0078175,-1.377168,0.01166505,0.10638548,-0.14547658,-0.40395197,-0.36401504,0.060015906,3.0767033,-0.6199115,-4.3463708e-05,-0.11851379,0.034839723,0.0018001797,-0.031270444,0.0074067563,0.010793302,0.4822824,-1.3664424,1.8858432,-2.0906794,-1.5683731,2.4544036,-0.17832358,0.1250786,-0.15580963,0.010021868,0.024319427,-0.18902813,-0.6512229,0.076614454,-9.308657,0.8940802,47.67166,-1.3264462,-2.576509,-3.192234,-0.28363252,0.27772176,-0.39150876,28.9375,30.3125,29.3125,32.9375,35.4375,36.5
0.25605246,-2.006879,-0.7100879,-1.3252273,0.008143007,0.09486409,-0.15041953,-0.40418607,-0.36393726,0.059999373,3.0766592,-0.6198834,-4.8920276e-05,-0.117967,0.03542548,-0.0005772665,-0.029100223,0.003913157,0.008726271,0.48192275,-1.3661771,1.885569,-2.0907032,-1.5683373,2.4540322,-0.17854396,0.12871912,-0.15463975,0.0093252985,0.024026578,-0.18718074,-0.61291564,0.0,-9.308656,0.8873621,47.755844,-1.3537111,-2.5080163,-3.2209363,-0.2756856,0.27902046,-0.4547803,28.9375,30.3125,29.3125,32.9375,35.4375,36.5
0.25805172,-1.7467786,-0.674721,-1.4998827,0.021215752,0.09122162,-0.15633078,-0.40443173,-0.3638727,0.060019027,3.0766227,-0.6197728,-7.190901e-05,-0.11812971,0.03568627,0.00031676947,-0.029451855,0.004676693,0.016690908,0.4815753,-1.3659256,1.8852099,-2.0906427,-1.5683016,2.4536204,-0.17901357,0.1271273,-0.15507016,0.010543639,0.024018202,-0.1956142,-0.59376204,-0.095768064,-9.212888,0.8224646,47.70659,-1.2909422,-2.4426737,-3.15582,-0.26305938,0.2809937,-0.47964627,28.9375,30.3125,29.3125,32.9375,35.4375,36.5
0.26005188,-1.7670338,-0.36298123,-1.3694874,0.016374696,0.08335159,-0.1662701,-0.4046506,-0.36380115,0.06000054,3.0766015,-0.6197018,-4.9254064e-05,-0.118691236,0.035816576,-0.00041096186,-0.028950637,0.003765856,0.029811922,0.48123968,-1.3656603,1.8849348,-2.0906427,-1.5682653,2.4532433,-0.17964014,0.12944943,-0.15620452,0.010444403,0.024028663,-0.20936093,-0.40222588,-0.1340753,-9.308656,0.76874626,47.698532,-1.4012078,-2.5166888,-3.2685854,-0.27133745,0.29057193,-0.36445966,28.9375,30.3125,29.3125,32.9375,35.4375,36.5
0.2620521,-1.3847113,-0.2875707,-1.2512257,0.006791384,0.09272754,-0.16577916,-0.40495044,-0.36373764,0.0600278,3.0764983,-0.6195974,-0.00013575163,-0.1188905,0.036164302,-0.0005826217,-0.028381806,0.004087841,0.040774588,0.48083168,-1.3653722,1.8845285,-2.0906432,-1.5682052,2.4527833,-0.17990163,0.12969464,-0.15605877,0.010084167,0.023430645,-0.22058287,-0.4405331,-0.19153614,-9.270349,0.7777002,47.704796,-1.4581227,-2.4050646,-3.4090638,-0.27419582,0.30093715,-0.22575486,28.9375,30.3125,29.3125,32.9375,35.4375,36.5
0.26405227,-1.2960154,-0.7626755,-1.1698308,0.027150963,0.093452364,-0.15134126,-0.4051494,-0.36366177,0.060036328,3.0765052,-0.61938554,-0.00011541126,-0.12021255,0.036827885,-0.00054569857,-0.028425401,0.004204425,0.043455955,0.48050705,-1.3651795,1.8842653,-2.0905836,-1.5681695,2.4523256,-0.18209219,0.13086775,-0.15763871,0.010395497,0.023431065,-0.2254539,-0.47884035,-0.28730422,-9.232041,0.8784135,47.690468,-1.5092663,-2.4279988,-3.3212218,-0.27632773,0.2914768,-0.16104847,28.9375,30.3125,29.3125,32.9375,35.4375,36.5
0.26605272,-0.8820518,-0.17364599,-1.4522378,0.025970627,0.08192712,-0.16178189,-0.4053973,-0.36357576,0.060010776,3.0764847,-0.6193102,-9.3519244e-05,-0.12126543,0.037515726,-0.0006236062,-0.029075656,0.004200739,0.036827214,0.4801222,-1.3648789,1.8839663,-2.0905955,-1.5681332,2.4518964,-0.18441693,0.13150118,-0.15816396,0.009994188,0.024006793,-0.22114903,-0.21068975,-0.22984336,-9.212888,0.8873621,47.675243,-1.4499501,-2.4844775,-3.3790092,-0.28458956,0.31388813,-0.16052532,28.9375,30.3125,29.3125,32.9375,35.4375,36.5
0.2680519,-0.7824356,-0.29744947,-1.2378798,0.02254346,0.05489784,-0.16075699,-0.40565237,-0.3635035,0.060016632,3.076405,-0.6192225,-6.881806e-05,-0.12378689,0.038842577,-0.0008241207,-0.02996997,0.004216112,0.024442565,0.47972474,-1.3646139,1.8836306,-2.0905716,-1.5680488,2.4514544,-0.18922271,0.13365792,-0.16019413,0.009446256,0.024787577,-0.2135674,-0.17238252,-0.2873042,-9.11712,0.8985519,47.711063,-1.3400555,-2.4338264,-3.3396268,-0.2799086,0.30609122,-0.27816415,28.9375,30.3125,29.3125,32.9375,35.4375,36.5
0.27005205,-0.17914556,-0.5035998,-1.0678486,0.023820976,0.044434667,-0.15158074,-0.40592295,-0.36341608,0.060039986,3.0763528,-0.6191387,-0.00020097781,-0.12500039,0.039348293,0.0007279295,-0.030950205,0.007066819,0.017596897,0.47934037,-1.3643866,1.8833083,-2.0905836,-1.5680488,2.4510245,-0.19075125,0.13148002,-0.16117287,0.009618281,0.024358049,-0.2082481,-0.2681506,-0.15322891,-9.11712,0.784413,47.734352,-1.3275877,-2.2828846,-3.3737721,-0.2891996,0.3022659,-0.33065432,28.9375,30.3125,29.3125,32.9375,35.4375,36.5
0.27205223,0.14193821,-0.09950468,-1.5723524,0.024082772,0.03689493,-0.16896155,-0.40614864,-0.36331525,0.060008675,3.07635,-0.61915725,-8.230854e-05,-0.1266387,0.03891894,0.0023456716,-0.032164294,0.010051635,0.016973777,0.47894406,-1.3640983,1.8830208,-2.090524,-1.5680016,2.4506402,-0.19117142,0.13115333,-0.16461994,0.010203671,0.02404889,-0.20804577,-0.11492168,-0.15322891,-9.174581,0.82694155,47.709274,-1.2879248,-2.1959186,-3.366044,-0.28610933,0.33060172,-0.37955582,28.9375,30.3125,29.3125,32.9375,35.4375,36.5
0.27405247,-0.7148311,-0.4301818,-1.3827748,0.012742142,0.025444077,-0.16699289,-0.40639195,-0.36325943,0.060019337,3.0763116,-0.61897314,-0.00010662364,-0.12676206,0.0402766,0.0009561591,-0.030835066,0.007331706,0.020286968,0.47860748,-1.3638335,1.8826741,-2.0904996,-1.5679535,2.4501936,-0.1935128,0.13287559,-0.1636433,0.01056481,0.024157709,-0.21369915,-0.05746084,-0.095768064,-9.232041,0.8851263,47.70838,-1.1854188,-2.2532005,-3.398983,-0.29469463,0.32699177,-0.4047592,28.9375,30.3125,29.3125,32.9375,35.4375,36.5
0.2760516,-0.6423956,-0.38813445,-1.5843289,0.0012828386,0.04120284,-0.16489306,-0.40664625,-0.36317363,0.06001986,3.0762727,-0.61886173,-0.0001026828,-0.12758318,0.04005052,0.0014558968,-0.031907562,0.0072729574,0.032282587,0.4782109,-1.3635691,1.8823508,-2.0904753,-1.5679048,2.4497325,-0.1943611,0.13365084,-0.16600724,0.011764779,0.025180425,-0.22654063,-0.11492168,-0.076614454,-9.3661175,0.9231726,47.70838,-1.1794579,-2.1178083,-3.3458047,-0.29827282,0.30823666,-0.28313604,28.9375,30.3125,29.3125,32.9375,35.4375,36.5
0.27805164,-0.74234384,-0.7044733,-1.8901366,-0.014404869,0.06187791,-0.17137381,-0.4069114,-0.36308372,0.06002835,3.0762248,-0.61874914,-8.642456e-05,-0.12900962,0.04017911,0.0020232105,-0.033723567,0.0072515993,0.040612265,0.47779053,-1.3633044,1.8820037,-2.0904272,-1.5678438,2.449248,-0.19671749,0.13449915,-0.1685478,0.012690256,0.026841668,-0.23722348,-0.21068975,0.17238252,-9.404425,0.86945957,47.694946,-1.0330422,-2.2258086,-3.2115014,-0.31445152,0.31417882,-0.15998615,28.9375,30.3125,29.3125,32.9375,35.4375,36.5
0.28005192,-1.7432905,-1.7327844,-1.9838724,-0.01562236,0.0669481,-0.15388674,-0.40714768,-0.3630196,0.060015824,3.0761673,-0.6186238,-5.329338e-06,-0.13022907,0.040591344,0.0018515924,-0.034056567,0.0061565964,0.039801918,0.47741756,-1.3630154,1.8816804,-2.0904024,-1.567748,2.4488041,-0.198856,0.13655043,-0.17091544,0.013859975,0.02765166,-0.23854968,-0.2681506,0.24899697,-9.500193,0.83365434,47.73077,-1.013458,-2.181548,-3.1899724,-0.3274102,0.28616318,-0.08338596,28.9375,30.3125,29.3125,32.9375,35.4375,36.5
0.28205195,-1.9597673,-2.0449631,-2.2400272,-0.02385175,0.08455589,-0.1593619,-0.4073927,-0.36290684,0.06001134,3.0761786,-0.61853546,0.00010124575,-0.13087454,0.04135117,0.0013367387,-0.0339461,0.004351105,0.03076172,0.4769849,-1.3627506,1.8813461,-2.0902827,-1.5676998,2.448315,-0.2010118,0.13805959,-0.17182943,0.014919392,0.028363813,-0.23166558,-0.45968673,0.3256114,-9.595961,0.7732232,47.695843,-1.086088,-2.2394605,-3.3756003,-0.36149532,0.28580153,-0.13505471,28.9375,30.3125,29.3125,32.9375,35.4375,36.5
0.28405216,-1.6390071,-1.890986,-2.402861,-0.047792688,0.104975484,-0.16821615,-0.40766147,-0.3628539,0.06001623,3.0760956,-0.6183716,3.033047e-05,-0.13050953,0.041575298,-0.0006214456,-0.034010608,8.6598875e-06,0.01981307,0.4766245,-1.3624611,1.880999,-2.0903304,-1.5676392,2.4478629,-0.2022041,0.14144342,-0.17149942,0.0150209395,0.030421669,-0.22190389,-0.47884035,0.34476504,-9.844957,0.85826975,47.71286,-1.0942689,-2.318501,-3.3890872,-0.38785404,0.2665285,-0.27621165,28.9375,30.3125,29.3125,32.9375,35.4375,36.5
0.28605255,-1.7905561,-2.2921486,-2.5031872,-0.06370217,0.10440676,-0.1604,-0.4079165,-0.36273527,0.06000482,3.0760965,-0.6183359,0.00010778871,-0.1314892,0.04099154,0.0010341428,-0.035735175,0.0032791218,0.011569378,0.47618094,-1.3621857,1.8806757,-2.0902464,-1.567603,2.447397,-0.20195708,0.13988715,-0.17335656,0.014732066,0.03042881,-0.21341385,-0.61291564,0.34476504,-9.883265,0.9455522,47.69763,-1.1651912,-2.161008,-3.3550324,-0.40008232,0.2343305,-0.38090402,28.9375,30.3125,29.3125,32.9375,35.4375,36.5
0.2880525,-1.8991477,-2.0771189,-2.2872386,-0.08325487,0.11561782,-0.17137653,-0.4081861,-0.36265874,0.060005307,3.0760138,-0.6183555,0.00013553473,-0.13097383,0.040172353,3.9663155e-05,-0.03438962,0.0021985406,0.011862475,0.475774,-1.3618844,1.8803052,-2.0902107,-1.5675315,2.447013,-0.19957918,0.14259513,-0.17436542,0.0146333985,0.029734947,-0.21132807,-0.6895301,0.38307226,-9.902418,0.81351066,47.691364,-1.4088097,-2.332115,-3.3737793,-0.40018392,0.23387645,-0.47885615,28.9375,30.3125,29.3125,32.9375,35.4375,36.5
0.29005173,-2.1057396,-2.337043,-2.3682253,-0.06439058,0.122054845,-0.16992262,-0.40843365,-0.3625806,0.060004886,3.0759625,-0.6182627,0.0001521275,-0.13095646,0.03941675,-0.0011579784,-0.034315415,0.00085436786,0.020394348,0.4753905,-1.3616189,1.8799824,-2.0901868,-1.5674709,2.446578,-0.1985315,0.14586723,-0.17538479,0.0136563815,0.030312067,-0.21880993,-0.40222588,0.3256114,-9.921572,0.8627467,47.705692,-1.5910096,-2.4100504,-3.3916903,-0.40512618,0.23982295,-0.45833784,28.9375,30.3125,29.3125,32.9375,35.4375,36.5
0.29205176,-1.5714123,-2.0392177,-2.5076356,-0.051920123,0.12437373,-0.1750277,-0.40874484,-0.36249414,0.06002136,3.0758767,-0.61823803,9.7688935e-05,-0.13251323,0.03960299,-0.0014290684,-0.035794426,0.0004429043,0.03286333,0.47494563,-1.3613058,1.8795642,-2.090163,-1.5674227,2.4461288,-0.20100304,0.1482087,-0.17751151,0.013199205,0.031873252,-0.23374541,-0.30645782,0.28730422,-10.055647,0.8806493,47.694946,-1.5190405,-2.4768674,-3.3300376,-0.39001918,0.21988136,-0.36397147,28.9375,30.3125,29.3125,32.9375,35.4375,36.5
0.29405195,-2.0798285,-2.1297877,-2.2719758,-0.03921483,0.08388067,-0.16228707,-0.40898567,-0.36241397,0.06000722,3.075874,-0.6179822,0.00011432361,-0.13385825,0.040413987,-0.0014102446,-0.037289977,0.0009121613,0.04233505,0.47457236,-1.3610294,1.8792647,-2.0901635,-1.5673741,2.4455962,-0.20411895,0.14851932,-0.17769553,0.012033276,0.03303028,-0.24633105,-0.19153613,0.30645782,-9.864111,0.86498255,47.716442,-1.4534037,-2.425217,-3.423687,-0.385127,0.16895613,-0.21481782,28.9375,30.3125,29.3125,32.9375,35.4375,36.5
0.2960521,-1.2853209,-1.6997463,-2.202915,-0.03157069,0.059821222,-0.15598619,-0.4092932,-0.36234117,0.060034115,3.0757678,-0.61784464,3.6299894e-05,-0.13624655,0.04053624,-0.0009035239,-0.03855188,0.00363018,0.042161625,0.47413966,-1.3607405,1.8788575,-2.0901644,-1.5673021,2.4450912,-0.20618768,0.15011655,-0.18036836,0.010153494,0.032943893,-0.24822144,-0.22984336,0.2873042,-9.691729,0.947788,47.71823,-1.3352308,-2.5851626,-3.5235023,-0.38267386,0.1703634,-0.14289474,28.9375,30.3125,29.3125,32.9375,35.4375,36.5
0.29805255,-0.79224354,-1.2455021,-1.950007,-0.020996226,0.04049339,-0.16215974,-0.40959108,-0.36224973,0.060048964,3.0756953,-0.61779886,-3.2467742e-05,-0.13754618,0.041919988,-0.0019039612,-0.03756835,0.0030422537,0.031588998,0.47370654,-1.3604528,1.878476,-2.0901535,-1.5672663,2.444639,-0.20911703,0.15224414,-0.18044914,0.009077358,0.032342304,-0.24057592,-0.19153613,0.21068975,-9.615114,0.8672237,47.70211,-1.2075452,-2.3623877,-3.4529183,-0.3593496,0.1542894,-0.22406721,28.9375,30.3125,29.3125,32.9375,35.4375,36.5
0.30005175,0.178611,-1.1180911,-1.9213496,-0.0092487605,0.039916057,-0.16134313,-0.40986863,-0.36219138,0.060070112,3.0755887,-0.61756986,-8.707912e-05,-0.13955356,0.042246774,-0.00082232466,-0.038940106,0.0058030994,0.02273509,0.47331,-1.3601888,1.878117,-2.0901773,-1.5671705,2.444113,-0.2112392,0.15212452,-0.1826083,0.008285468,0.03231495,-0.23383977,-0.076614454,0.15322891,-9.500193,0.8537928,47.72629,-1.1889945,-2.4830542,-3.3916166,-0.3434274,0.1397241,-0.31167644,28.9375,30.3125,29.3125,32.9375,35.4375,36.5
0.302052,0.2530777,-1.4571166,-1.7783182,-0.00045336343,0.038518127,-0.15727942,-0.4101429,-0.36209843,0.06003452,3.0755212,-0.61757624,-4.858734e-06,-0.1397254,0.042814083,-0.0022853878,-0.037729736,0.0034627912,0.01845289,0.47286582,-1.3598403,1.8777817,-2.0901887,-1.5670866,2.4436815,-0.21218866,0.1549975,-0.18278278,0.0082435785,0.032302693,-0.23050675,-0.15322891,0.15322891,-9.404425,0.8851263,47.70659,-1.2956517,-2.4659147,-3.4454775,-0.32071257,0.1340633,-0.38519788,28.9375,30.3125,29.3125,32.9375,35.4375,36.5
0.304052,-0.08702303,-1.3682965,-1.333956,-0.0025948507,0.04216834,-0.1502264,-0.4104624,-0.3620133,0.060067415,3.0754519,-0.6174839,-0.000115172,-0.14127158,0.0439341,-0.0014261913,-0.03839858,0.0043838155,0.01970217,0.47243258,-1.3595406,1.8773392,-2.090153,-1.5670623,2.4431996,-0.21537386,0.15434073,-0.18420516,0.009233414,0.032525167,-0.23493733,-0.076614454,0.076614454,-9.308657,0.8314132,47.709274,-1.0602574,-2.4814885,-3.3827095,-0.32446265,0.118210144,-0.38818684,28.9375,30.3125,29.3125,32.9375,35.4375,36.5
0.3060525,-0.03980717,-0.9617797,-1.46368,0.016195234,0.049071785,-0.16845857,-0.4106947,-0.36195853,0.060043816,3.075393,-0.6172539,1.1746791e-05,-0.14337544,0.044126686,0.00020745138,-0.039780088,0.0071986723,0.030540936,0.47206002,-1.3592291,1.877016,-2.0901406,-1.5669307,2.4426908,-0.21737501,0.15390271,-0.18760206,0.01002526,0.03251644,-0.24777655,0.05746084,-0.038307227,-9.212888,0.8717007,47.704796,-1.0417233,-2.2931905,-3.3226256,-0.31994087,0.09213785,-0.28860614,28.9375,30.3125,29.3125,32.9375,35.4375,36.5
0.30805168,-0.4283464,-0.53143656,-1.3312492,0.028453717,0.05081905,-0.16292481,-0.41100928,-0.36185652,0.060073245,3.0753126,-0.6171753,-0.00011382159,-0.1454225,0.04505663,0.0005454734,-0.04071053,0.007325212,0.037466165,0.471603,-1.3589648,1.8766316,-2.09014,-1.5669059,2.4421952,-0.22104596,0.15524884,-0.19019207,0.010792369,0.03335795,-0.25836667,0.019153614,-0.1340753,-9.136273,0.900793,47.696735,-1.032971,-2.3005426,-3.311356,-0.3174243,0.086168274,-0.15002686,28.9375,30.3125,29.3125,32.9375,35.4375,36.5
0.31005216,-1.2252147,-0.11034424,-1.3896527,0.04261868,0.0383254,-0.15422408,-0.41127226,-0.36177018,0.060042806,3.075268,-0.6170324,4.4231165e-05,-0.14690688,0.04488461,0.0020955098,-0.04231448,0.009860249,0.03701345,0.471159,-1.3586175,1.8762726,-2.0900924,-1.5667862,2.4416676,-0.22205439,0.15445323,-0.19292918,0.011385082,0.033635233,-0.25892255,-0.24899697,-0.13407528,-9.174581,0.87617236,47.705692,-1.0518966,-2.2210689,-3.2474122,-0.30855078,0.06559737,-0.11948818,28.9375,30.3125,29.3125,32.9375,35.4375,36.5
0.3120524,-0.9292348,-0.33066145,-1.3238729,0.043923646,0.06785955,-0.16068716,-0.41158986,-0.36168873,0.060083468,3.0751674,-0.6168999,-0.00011301949,-0.14646454,0.043974496,0.0019231946,-0.0414968,0.009738157,0.03066475,0.47072756,-1.3583531,1.8758653,-2.0901039,-1.5667499,2.4411664,-0.2195847,0.15577634,-0.19427657,0.01188007,0.03298332,-0.25009963,-0.4213795,-0.038307227,-9.11712,0.8851263,47.691364,-1.0658741,-2.272398,-3.273905,-0.31606856,0.029618146,-0.17764819,28.9375,30.3125,29.3125,32.9375,35.4375,36.5
0.31405255,-1.8910307,-0.81898683,-1.4810663,0.04348151,0.08791932,-0.14673871,-0.41183445,-0.3615872,0.060057614,3.0751765,-0.61679107,7.085284e-05,-0.14572605,0.043431245,0.0014781422,-0.039995153,0.008538856,0.022299217,0.47029653,-1.3580289,1.8755068,-2.0899837,-1.5666665,2.4406662,-0.21739492,0.15713668,-0.19526725,0.013254968,0.032146048,-0.23954809,-0.63206923,0.019153614,-9.193734,0.88960326,47.719128,-1.2588475,-2.249867,-3.25391,-0.3121788,0.040741656,-0.3128295,28.9375,30.3125,29.3125,32.9375,35.4375,36.5
0.31605172,-1.6010004,-0.98331,-1.6754102,0.017444992,0.13005625,-0.15035346,-0.4121626,-0.36150768,0.060073175,3.07508,-0.61677486,-2.9323653e-06,-0.14569327,0.04342675,0.0021633054,-0.03979428,0.0087422365,0.013964534,0.4698526,-1.3576819,1.8750514,-2.0899713,-1.5666183,2.4402246,-0.21702595,0.15637317,-0.19634496,0.01499663,0.031882502,-0.2308418,-0.51714754,0.0,-9.32781,0.947788,47.704796,-1.4398122,-2.0682545,-3.273859,-0.33333194,0.028017472,-0.43656012,28.9375,30.3125,29.3125,32.9375,35.4375,36.5
0.3180517,-2.528366,-1.317326,-1.8918383,-0.008356639,0.1220473,-0.15853636,-0.41246885,-0.36142287,0.060097914,3.0749803,-0.6166827,-5.4003947e-05,-0.14721337,0.043594282,0.0027919435,-0.03921898,0.009976615,0.014241826,0.46940473,-1.3573936,1.8746432,-2.089947,-1.5665468,2.439732,-0.21780984,0.15774165,-0.19973263,0.0162143,0.030843575,-0.23190083,-0.36391866,0.15322891,-9.32781,0.8314132,47.691364,-1.4185274,-2.019936,-3.2806306,-0.35875455,-0.00051172427,-0.5344305,28.9375,30.3125,29.3125,32.9375,35.4375,36.5
0.32005244,-2.1297257,-1.7269111,-1.9348527,-0.024573239,0.12116131,-0.16314568,-0.41272557,-0.36131504,0.06007386,3.0749876,-0.616574,3.3916727e-05,-0.14795487,0.0451684,0.0021093397,-0.03657584,0.009824959,0.025884226,0.46897596,-1.3570813,1.8743085,-2.0898874,-1.5665001,2.4392345,-0.21957447,0.15883021,-0.19959286,0.016405249,0.028602388,-0.2453134,-0.36391866,0.17238252,-9.442732,0.88960326,47.72002,-1.4290962,-2.0442805,-3.3855333,-0.35329276,0.020481657,-0.49088117,28.9375,30.3125,29.3125,32.9375,35.4375,36.5
0.3220526,-1.9663908,-2.0086539,-2.0679486,-0.027763857,0.101913966,-0.14826058,-0.41303003,-0.36122328,0.0600889,3.074971,-0.61638963,-4.4127562e-05,-0.14844365,0.04681734,-6.65543e-05,-0.03293436,0.0072302716,0.03974527,0.4685552,-1.3567686,1.8738898,-2.0898511,-1.5664886,2.438701,-0.22137974,0.16268551,-0.19934422,0.016349914,0.02660639,-0.2609815,-0.38307226,0.22984336,-9.519346,0.87617236,47.70211,-1.4598514,-2.030715,-3.41138,-0.3551896,0.05364345,-0.30469182,28.9375,30.3125,29.3125,32.9375,35.4375,36.5
0.32405174,-1.2577608,-1.72765,-2.0379765,-0.027166827,0.09957641,-0.15082254,-0.4133407,-0.36111337,0.060069434,3.0748937,-0.61637247,-2.2542941e-05,-0.15070835,0.04782872,0.0008245157,-0.03301324,0.010452986,0.041718036,0.46806246,-1.356421,1.8735183,-2.0898635,-1.5664171,2.4382074,-0.22400814,0.16263868,-0.2011258,0.015323364,0.025252132,-0.26558402,-0.4213795,0.17238252,-9.576807,0.83365434,47.64927,-1.3991923,-2.103676,-3.3919702,-0.35282785,0.057773776,-0.21550322,28.9375,30.3125,29.3125,32.9375,35.4375,36.5
0.3260519,-1.1135253,-1.8376143,-2.1464076,-0.004717021,0.078591645,-0.14206287,-0.4136563,-0.36103356,0.060093023,3.0748346,-0.6162116,-8.1146456e-05,-0.15123102,0.048044678,-0.0002663575,-0.03207062,0.009719218,0.034935895,0.46763048,-1.3560961,1.873063,-2.0898159,-1.5663689,2.4376826,-0.22433858,0.16536026,-0.20174763,0.014300753,0.024747433,-0.25913072,-0.34476504,0.076614454,-9.557653,0.9701675,47.675243,-1.446137,-2.2359507,-3.4514017,-0.3284161,0.07275218,-0.2712733,28.9375,30.3125,29.3125,32.9375,35.4375,36.5
0.32805225,-0.9600253,-1.1409805,-2.1790507,-0.004999894,0.06407778,-0.15074141,-0.41394803,-0.360929,0.0600854,3.0747998,-0.6161719,-7.6140626e-05,-0.15305863,0.049091123,-0.0010650128,-0.031959463,0.009257171,0.024971534,0.46718532,-1.3557714,1.872681,-2.08978,-1.5663332,2.4372172,-0.22754523,0.16823086,-0.20323358,0.013368686,0.024842754,-0.25237134,-0.40222588,0.076614454,-9.576807,0.8940802,47.66987,-1.4140441,-2.3196447,-3.4355712,-0.31871378,0.10781185,-0.3657209,28.9375,30.3125,29.3125,32.9375,35.4375,36.5
0.33005226,-1.3742223,-0.77249396,-1.9932325,-0.013090308,0.06410136,-0.15779619,-0.41425017,-0.36083296,0.060079064,3.074734,-0.61604637,-4.2573356e-05,-0.15450254,0.05048682,-0.0016876485,-0.03132163,0.008443584,0.018968424,0.4667162,-1.3554353,1.8722852,-2.0897567,-1.5662488,2.4366782,-0.23082003,0.17012873,-0.2041813,0.013453441,0.02464726,-0.24964213,-0.51714754,0.11492168,-9.500193,0.88960326,47.66091,-1.2265836,-2.264674,-3.4684367,-0.31635422,0.09813106,-0.4402044,28.9375,30.3125,29.3125,32.9375,35.4375,36.5
0.33205232,-1.2888033,-0.9986447,-2.0007868,-0.004981726,0.085639566,-0.1578536,-0.4145748,-0.36072132,0.060107104,3.0746715,-0.616012,-0.0001518593,-0.15694256,0.0522561,-0.002099963,-0.030674627,0.008229826,0.022710456,0.46624666,-1.3551465,1.8718656,-2.0897205,-1.5662373,2.4361954,-0.23541851,0.172665,-0.20639825,0.013669595,0.024225347,-0.25798044,-0.38307226,0.17238252,-9.442732,0.84708,47.66987,-1.0345098,-2.4444594,-3.4345818,-0.30935195,0.0979778,-0.41323254,28.9375,30.3125,29.3125,32.9375,35.4375,36.5
0.33405253,-1.3793713,-1.3386139,-2.0353408,-0.0007808211,0.10280787,-0.16110829,-0.4148812,-0.36062294,0.06010238,3.0746288,-0.61586094,-0.000114818824,-0.15820305,0.052495122,-0.0015116157,-0.031052025,0.009209343,0.035576716,0.4657783,-1.3547984,1.871446,-2.0896723,-1.5661653,2.4356382,-0.23668765,0.17330962,-0.20872883,0.014405869,0.024187168,-0.27211496,-0.19153613,0.038307227,-9.519346,0.90750587,47.677036,-0.9734774,-2.381431,-3.3882716,-0.2891911,0.11892151,-0.2937874,28.9375,30.3125,29.3125,32.9375,35.4375,36.5
0.3360519,-2.2363777,-1.1227523,-1.7797228,-0.01806171,0.08307779,-0.15894677,-0.4151989,-0.36050957,0.060087577,3.074598,-0.6157026,-8.7643966e-05,-0.15811877,0.052053846,-0.0025722983,-0.030240957,0.007546473,0.045435276,0.46528286,-1.3544378,1.8710393,-2.089648,-1.5661052,2.4350479,-0.23573849,0.17633352,-0.21009009,0.0146627305,0.024255853,-0.28102314,-0.4213795,0.21068975,-9.500193,0.91198283,47.68599,-1.0101995,-2.3210328,-3.4530067,-0.30342203,0.1058474,-0.16470286,28.9375,30.3125,29.3125,32.9375,35.4375,36.5
0.33805236,-1.9487692,-1.7290205,-1.7712897,-0.022105305,0.09930839,-0.14652468,-0.41553026,-0.3604285,0.060108855,3.0745053,-0.6155058,-0.00019843614,-0.15916425,0.051386535,-0.00074761105,-0.031410757,0.010891338,0.04387875,0.46483067,-1.3541148,1.8706073,-2.0896723,-1.5660456,2.4344847,-0.23506051,0.17504747,-0.2128416,0.015204647,0.023835324,-0.278786,-0.45968673,0.19153613,-9.32781,0.85155696,47.66808,-1.108666,-2.2807832,-3.4482632,-0.27696308,0.12466493,-0.14623384,28.9375,30.3125,29.3125,32.9375,35.4375,36.5
0.34005252,-1.0866685,-1.2935921,-1.678809,-0.0123629,0.10712659,-0.14727208,-0.4158492,-0.36033317,0.060125373,3.0744593,-0.6154466,-0.00025284436,-0.16081476,0.05125162,0.00064150186,-0.032877997,0.013616138,0.03147848,0.46438685,-1.3537792,1.8701514,-2.0896122,-1.5660213,2.43401,-0.23608916,0.17465611,-0.21555877,0.015182913,0.023903724,-0.26741192,-0.3256114,0.05746084,-9.308657,0.90750587,47.716442,-1.2609248,-2.192673,-3.3588681,-0.26536065,0.16771582,-0.23609298,28.9375,30.3125,29.3125,32.9375,35.4375,36.5
0.34205174,-0.69229805,-1.23505,-1.6468241,0.0035054237,0.08555648,-0.13893889,-0.41617686,-0.3602336,0.060102202,3.074405,-0.615403,-0.0002254265,-0.16055736,0.05166826,-4.206362e-05,-0.032665208,0.011737812,0.02009846,0.46390685,-1.3533711,1.8697089,-2.0895998,-1.5659608,2.4335098,-0.23676272,0.17549129,-0.21521255,0.015750404,0.0245327,-0.25670347,-0.38307226,0.22984336,-9.481039,0.90750587,47.66271,-1.2973192,-2.3168292,-3.367199,-0.26787886,0.15240218,-0.3853167,28.9375,30.3125,29.3125,32.9375,35.4375,36.5
0.34405184,-0.7571564,-0.83668435,-1.4828517,-0.010681733,0.067042395,-0.14964798,-0.41648254,-0.36010766,0.060076598,3.07442,-0.6153315,-0.00022824657,-0.16096042,0.051486354,-0.00040490026,-0.032300655,0.011801403,0.016548818,0.46343878,-1.3530108,1.8693265,-2.0895765,-1.5659612,2.4329953,-0.23640515,0.17713709,-0.2163441,0.015336084,0.024170768,-0.2527966,-0.4213795,0.11492168,-9.346964,0.91421866,47.66271,-1.3799027,-2.201361,-3.3762789,-0.25099826,0.15179068,-0.5120274,28.9375,30.3125,29.3125,32.9375,35.4375,36.5
0.3460525,-0.4895453,-0.48795757,-1.75478,0.003820678,0.06046616,-0.16494831,-0.41681767,-0.35999936,0.06009616,3.0743406,-0.61527014,-0.00028925834,-0.16165385,0.052310564,-0.00061582465,-0.03179383,0.011517965,0.026257085,0.4629463,-1.3526871,1.8688835,-2.0895407,-1.5659131,2.4324749,-0.23802356,0.17788576,-0.2169066,0.015709782,0.023922225,-0.2641221,-0.30645782,0.095768064,-9.270349,0.9410752,47.717335,-1.43384,-2.182753,-3.5270138,-0.22960897,0.17969328,-0.4913906,28.9375,30.3125,29.3125,32.9375,35.4375,36.5
0.34805253,-0.7788669,-0.5088165,-1.6858947,0.004763891,0.06982876,-0.15317489,-0.4171291,-0.35991523,0.060095143,3.0742521,-0.61508983,-0.00026322066,-0.1639376,0.051888995,0.0014194424,-0.033928994,0.015483317,0.041275967,0.46247828,-1.3523395,1.8684634,-2.0895278,-1.5658053,2.4319055,-0.23918666,0.17743921,-0.22107773,0.015945056,0.024148086,-0.2803014,-0.038307227,0.095768064,-9.289502,0.900793,47.66271,-1.417831,-2.225897,-3.3683624,-0.21321073,0.1959902,-0.3408138,28.9375,30.3125,29.3125,32.9375,35.4375,36.5
0.3500519,-0.1415732,-0.6628201,-1.6324685,-0.0014323463,0.08731159,-0.15862979,-0.41747943,-0.35979474,0.06010314,3.0742648,-0.61493593,-0.0003635882,-0.16534002,0.053079393,0.0005683917,-0.032796733,0.0139544755,0.045775395,0.46199712,-1.3519669,1.8679842,-2.0894802,-1.5658292,2.4313269,-0.2419914,0.18041094,-0.22300139,0.016812194,0.023874346,-0.28760412,0.0,0.095768064,-9.270349,0.92093146,47.677036,-1.3174589,-2.2549212,-3.3133287,-0.22862622,0.19987033,-0.21171293,28.9375,30.3125,29.3125,32.9375,35.4375,36.5
0.35205206,-0.5218897,-0.9662285,-1.68827,-0.0044855345,0.072908215,-0.1417387,-0.41779527,-0.3596962,0.060100272,3.074199,-0.6147757,-0.00034491753,-0.16712286,0.053609375,0.0007459402,-0.03388359,0.013884648,0.037701115,0.4615163,-1.3516185,1.8675646,-2.0894558,-1.5657448,2.4307544,-0.24479035,0.18215443,-0.2256802,0.017331457,0.024878355,-0.282324,-0.076614454,0.17238252,-9.270349,0.9097417,47.684196,-1.33074,-2.1776354,-3.2592833,-0.20145062,0.23577847,-0.24845809,28.9375,30.3125,29.3125,32.9375,35.4375,36.5
0.35405222,-0.042446207,-0.9951137,-1.9219748,-0.011666776,0.068303995,-0.15227123,-0.41815028,-0.3595806,0.06011012,3.0741684,-0.6146802,-0.00038452656,-0.16849059,0.05509056,5.9806145e-05,-0.034069445,0.01217843,0.024175037,0.4610109,-1.3512342,1.8670615,-2.0893843,-1.5657204,2.4301934,-0.24875584,0.1839668,-0.22646669,0.017718662,0.025789853,-0.27275923,-0.30645782,0.19153613,-9.308656,0.9186956,47.687782,-1.1894113,-2.2170267,-3.2918134,-0.2029059,0.23178709,-0.33580762,28.9375,30.3125,29.3125,32.9375,35.4375,36.5
0.3560523,-0.16241838,-1.0058969,-1.9235579,-0.02826606,0.06406473,-0.15504874,-0.41845912,-0.35946247,0.060085904,3.0741332,-0.6145792,-0.00034447387,-0.16821721,0.05568508,-0.00079880614,-0.033347394,0.010031485,0.02097078,0.46051866,-1.3508743,1.8666786,-2.089372,-1.5656604,2.4296427,-0.24952458,0.18508764,-0.22612062,0.018511279,0.026105119,-0.27032274,-0.11492168,0.17238252,-9.385271,0.94331104,47.72002,-1.0592071,-2.1837277,-3.4426863,-0.20165977,0.242789,-0.41660613,28.9375,30.3125,29.3125,32.9375,35.4375,36.5
0.3580521,-0.5679832,-1.4100062,-1.8164059,-0.03654782,0.0644785,-0.16308832,-0.41880417,-0.35935792,0.060107313,3.0740802,-0.6144666,-0.00037563252,-0.1687594,0.05557124,-0.00014707657,-0.033480324,0.0113300225,0.029537225,0.46002677,-1.3505145,1.866176,-2.0892875,-1.5656127,2.4290874,-0.24933922,0.18494898,-0.22759019,0.018967273,0.02570888,-0.27870345,-0.15322891,0.19153613,-9.346964,0.9321212,47.691364,-1.0726261,-2.1179426,-3.5239894,-0.20837514,0.25797358,-0.40843922,28.9375,30.3125,29.3125,32.9375,35.4375,36.5
0.36005226,-0.73199356,-1.492099,-1.6470633,-0.046252586,0.08588884,-0.14729337,-0.41915447,-0.35925004,0.060094636,3.0740077,-0.61438596,-0.0003693394,-0.16992548,0.05585096,0.00048194555,-0.03484692,0.012175134,0.0407189,0.45951036,-1.350107,1.8657092,-2.0892756,-1.5655402,2.42853,-0.2511277,0.18502411,-0.22923724,0.019273438,0.026638173,-0.2916698,-0.36391866,0.2681506,-9.32781,0.9634547,47.716442,-1.0980167,-2.1015172,-3.4788198,-0.19007346,0.28266618,-0.24894083,28.9375,30.3125,29.3125,32.9375,35.4375,36.5
0.36205244,-0.8534785,-1.4755124,-1.8415395,-0.032189123,0.09909784,-0.16186526,-0.41948548,-0.35913008,0.060079653,3.0739784,-0.6142271,-0.00037144223,-0.17106326,0.056466393,0.00021563108,-0.036123447,0.011080036,0.04527377,0.45900494,-1.3497347,1.86529,-2.0892637,-1.565492,2.4279292,-0.2539206,0.18652062,-0.23057441,0.019590203,0.028321063,-0.29901153,-0.26815057,0.21068975,-9.289502,0.9321212,47.691364,-1.0365304,-2.1776323,-3.4705055,-0.17975834,0.2762679,-0.1583631,28.9375,30.3125,29.3125,32.9375,35.4375,36.5
0.3640524,-1.0743375,-1.0315032,-1.9084318,-0.014270072,0.093913466,-0.15578179,-0.41983256,-0.35901618,0.06008638,3.073924,-0.61410475,-0.00037718806,-0.17078564,0.05593155,-0.0011277217,-0.03566438,0.008531379,0.03982702,0.4584892,-1.3493619,1.8648103,-2.089204,-1.5654315,2.427344,-0.25301644,0.18991901,-0.23177505,0.019877018,0.029034864,-0.2926564,-0.2681506,0.15322891,-9.3661175,0.90527004,47.70211,-1.0761617,-2.1547759,-3.3795185,-0.17502947,0.2862038,-0.19612491,28.9375,30.3125,29.3125,32.9375,35.4375,36.5
0.36605248,-1.2399434,-1.1592646,-1.7788205,-0.0064513683,0.07749269,-0.13830656,-0.42016453,-0.35889035,0.06004965,3.0738974,-0.61408496,-0.00031949405,-0.17126197,0.055924572,-0.0012192167,-0.035034254,0.00899218,0.029053956,0.45797426,-1.3489418,1.8643793,-2.0891798,-1.5653838,2.4268203,-0.25270438,0.1910509,-0.2329996,0.01980693,0.02822234,-0.28157344,-0.47884035,0.15322891,-9.481039,0.9768804,47.68599,-1.1757836,-2.182839,-3.4565396,-0.16158544,0.2970591,-0.31284934,28.9375,30.3125,29.3125,32.9375,35.4375,36.5
0.36805266,-1.2796658,-1.2302105,-1.3816171,-0.011416352,0.090061106,-0.14671458,-0.42052928,-0.35878277,0.06009337,3.0738194,-0.6139205,-0.00045178604,-0.17150699,0.055073515,-0.0012613527,-0.035539497,0.009108707,0.022179626,0.45747003,-1.3486177,1.8638772,-2.089132,-1.5653476,2.4262235,-0.25151289,0.19264553,-0.23486912,0.019733112,0.02863182,-0.27350196,-0.49799395,0.05746084,-9.289503,0.99702406,47.682407,-1.2335085,-2.214921,-3.5136163,-0.13972275,0.3052557,-0.47628376,28.9375,30.3125,29.3125,32.9375,35.4375,36.5
0.3700517,-1.0081743,-0.77643126,-1.7953852,0.0007448611,0.083193876,-0.15580538,-0.42086104,-0.3586806,0.060084805,3.0737288,-0.6138775,-0.00040576674,-0.1721724,0.054803453,-0.0019968383,-0.035949368,0.007634993,0.027028443,0.45696625,-1.3482323,1.8634218,-2.0890954,-1.5652512,2.4257045,-0.25204656,0.19570561,-0.237051,0.020063,0.029691424,-0.2788795,-0.36391866,0.095768064,-9.32781,0.9298854,47.682407,-1.442538,-2.433247,-3.5042422,-0.14786941,0.30877045,-0.47594738,28.9375,30.3125,29.3125,32.9375,35.4375,36.5
0.37205166,-0.35811245,-0.9935929,-1.7260388,0.015262924,0.09133969,-0.14888038,-0.4212158,-0.35857904,0.0600882,3.0736852,-0.61366904,-0.00045558024,-0.17375673,0.05440352,-0.0017057317,-0.03787351,0.008094842,0.041248612,0.4564737,-1.3478364,1.8629292,-2.089072,-1.5652026,2.4250875,-0.25345126,0.19781777,-0.24033548,0.020083584,0.031312644,-0.29449636,-0.21068975,-0.038307227,-9.461885,1.0261165,47.694946,-1.4300735,-2.4327028,-3.383501,-0.12681375,0.31377122,-0.36026287,28.9375,30.3125,29.3125,32.9375,35.4375,36.5
0.37405208,-0.9062842,-0.6455163,-1.4153126,-0.00932059,0.084089845,-0.15906827,-0.42157143,-0.3584569,0.06006414,3.0736277,-0.6135569,-0.00043458,-0.17584454,0.05560378,-0.0015228684,-0.038116097,0.008500189,0.0492669,0.45593238,-1.3474164,1.8624748,-2.0890715,-1.5651306,2.4244835,-0.2570237,0.19933468,-0.24279305,0.02065651,0.03142491,-0.3060853,-0.32561144,-0.019153614,-9.289502,0.8537928,47.66271,-1.3350874,-2.3838186,-3.5445895,-0.11174847,0.3098474,-0.18674606,28.9375,30.3125,29.3125,32.9375,35.4375,36.5
