Tylouw/Master_Thesis_Code/training_data/batch_1/rect_rod_t0.2/sample_79_session_3.csv
timestamp[s],tcp_force_x[N],tcp_force_y[N],tcp_force_z[N],tcp_force_rx[Nm?],tcp_force_ry[Nm?],tcp_force_rz[Nm?],tcp_pose_x[m],tcp_pose_y[m],tcp_pose_z[m],tcp_pose_rx[rot_vec_x],tcp_pose_ry[rot_vec_y],tcp_pose_rz[rot_vec_z],tcp_velo_x[m/s],tcp_velo_y[m/s],tcp_velo_z[m/s],tcp_velo_rx[rot_vec_x/s],tcp_velo_ry[rot_vec_y/s],tcp_velo_rz[rot_vec_z/s],q1[rad],q2[rad],q3[rad],q4[rad],q5[rad],q6[rad],qd1[rad/s],qd2[rad/s],qd3[rad/s],qd4[rad/s],qd5[rad/s],qd6[rad/s],tool_acc_x,tool_acc_y,tool_acc_z,current_of_whole_robot[A],voltage_of_whole_robot[V],current_J1[A],current_J2[A],current_J3[A],current_J4[A],current_J5[A],current_J6[A],temp_J1[C],temp_J2[C],temp_J3[C],temp_J4[C],temp_J5[C],temp_J6[C]
8.8699926e-07,0.57960665,0.43733752,0.95248336,-0.022874726,0.008443348,-0.020737745,-0.3893531,-0.36871383,0.06001692,-3.0787113,0.62500644,0.0002354143,0.0010850049,0.0006047176,-0.00072023657,0.0013957,-0.0027809907,2.175826e-05,0.5050088,-1.3816559,1.904199,-2.0919268,-1.5708536,2.4800491,-8.424712e-05,-1.8660356e-05,0.0012302859,0.0018969857,0.00013112469,-0.00010689906,0.17238252,0.038307227,-8.63828,0.7620334,47.72629,-0.12300918,-3.0781586,-2.4028068,-0.18098634,0.18509471,0.010079107,29.0,30.375,29.375,33.0,35.4375,36.5
0.002054612,-0.17689835,-0.23644994,0.9631351,-0.004620372,-0.005083088,-0.002579953,-0.3893668,-0.3687286,0.060029574,-3.078751,0.6249761,0.00029575243,-0.0015361978,-0.0008521577,-0.000111374145,-0.0034066404,0.0058631743,2.2226786e-05,0.50502086,-1.3816559,1.9041766,-2.091955,-1.5708536,2.4800372,-8.295287e-05,-2.5035249e-07,0.0023172859,-0.009097004,0.00012845104,-0.00010533613,0.05746084,0.1340753,-8.6574335,0.7150385,47.709274,-0.15417245,-2.9470034,-2.3820586,-0.1570505,0.18481566,-0.005441291,29.0,30.375,29.375,33.0,35.4375,36.5
0.004053755,0.17062597,-0.17323935,0.974796,-0.0056170635,0.007116951,-0.00391092,-0.38936225,-0.3687126,0.060019094,-3.0787241,0.62489337,0.00030458928,-0.0018390657,-0.0010216482,-0.0015813445,-0.0026701742,0.0045271427,2.2835195e-05,0.50502086,-1.3816546,1.904199,-2.091955,-1.5708898,2.479989,-8.1698054e-05,0.003454213,0.0019307337,-0.010639346,0.00012588446,-0.000103817365,0.019153614,0.15322891,-8.63828,0.72622824,47.705692,-0.16932334,-3.3908162,-2.6232195,-0.03892366,0.17658435,0.016925909,29.0,30.375,29.375,33.0,35.4375,36.5
0.006054405,0.51547337,0.48670948,0.9311942,-0.0063849324,0.006776817,-0.016394919,-0.38933265,-0.36871237,0.059978206,-3.0786762,0.6249416,0.00017713633,-0.00075394387,-0.00041780347,-0.0012539054,-0.0010876739,0.0016913341,2.2027756e-05,0.5050329,-1.3816069,1.9042352,-2.091953,-1.5708655,2.4800372,-8.048047e-05,0.0022390129,0.0015143967,-0.0057603335,0.0001234181,-0.000102341684,-0.038307227,0.17238252,-8.542512,0.80456203,47.73256,-0.120318696,-3.4194899,-2.574361,-0.06896855,0.17916988,0.0055289497,29.0,30.375,29.375,33.0,35.4375,36.5
0.00805369,0.30657622,0.98198736,0.4884225,0.016317928,-0.021339074,-0.012581084,-0.3893233,-0.36870882,0.05998371,-3.0786827,0.6249623,0.00013863617,-0.00020952064,-0.00011425352,-2.1302945e-05,-0.0005089014,0.00066605635,2.1451033e-05,0.50502086,-1.3816319,1.9042462,-2.0919273,-1.5708417,2.4800372,-7.9298625e-05,4.0807565e-05,0.0002555941,-0.0011259915,0.00012104677,-0.00010090736,0.0,0.24899697,-8.734048,0.7150385,47.731667,-0.14668547,-3.2466407,-2.4877284,-0.11497752,0.17766356,0.0088525005,29.0,30.375,29.375,33.0,35.4375,36.5
0.010053912,0.3207445,0.91432816,0.2127561,0.024099614,-0.022914767,-0.008861493,-0.3893,-0.3687003,0.05996925,-3.0786567,0.6249379,5.4156608e-05,5.0006252e-05,3.5293102e-05,-7.4206706e-05,-4.9400634e-05,-0.00015564662,1.2614396e-05,0.50502086,-1.3816319,1.904271,-2.0918915,-1.5708297,2.4800253,-8.672672e-05,5.474855e-07,0.00018483777,-7.351919e-05,0.00011876467,-9.959193e-05,-0.038307227,0.15322891,-8.925584,0.7396539,47.681515,-0.6305445,-2.7890568,-2.9433393,-0.12928951,0.15718901,-0.065438546,29.0,30.375,29.375,33.0,35.4375,36.5
0.012053987,0.14293268,0.23930846,0.13082935,-0.00247443,-0.003660049,-0.018207379,-0.38932717,-0.36868346,0.059979614,-3.0786245,0.62498885,0.00012989955,0.0012431451,0.0007457229,-0.0013967607,0.0027397554,-0.005178109,-2.839126e-05,0.50499684,-1.381631,1.9042462,-2.09189,-1.5708774,2.4800372,-0.00016595691,0.0019360272,2.4798346e-06,0.003918314,0.000116567404,-0.00013785223,0.038307227,0.1340753,-9.212888,0.683705,47.66808,-0.84895533,-2.6732502,-3.1345901,-0.1468151,0.15736982,-0.13055484,29.0,30.375,29.375,33.0,35.4375,36.5
0.014053786,-0.49286878,-0.17813542,-0.27974707,-0.025504474,0.0060982546,-0.014941688,-0.38933516,-0.36869454,0.05996524,-3.0786486,0.6249164,8.894168e-05,-0.004050617,0.0042378595,-0.004460227,0.0048856977,-0.0090803085,-0.0015643967,0.50499314,-1.3815796,1.9042209,-2.0919025,-1.5708536,2.4799852,-0.010999191,0.011519343,-0.0041190656,0.0029083951,0.00011444955,-0.009431759,0.038307227,0.05746084,-9.308656,0.7418897,47.685097,-0.4223165,-3.1671302,-3.23913,-0.15671952,0.16107176,-0.10810277,29.0,30.375,29.375,33.0,35.4375,36.5
0.016053474,-1.1033851,-0.6416072,-0.34482166,-0.046015993,0.021737922,-0.020796288,-0.38932112,-0.36868122,0.059940293,-3.0786183,0.62492615,-1.9581881e-05,-0.005845972,0.0035916604,-0.0034394457,0.003375144,-0.0063653546,0.005388278,0.50496894,-1.3815554,1.9042438,-2.0918791,-1.5708297,2.479971,-0.01159129,0.012354225,-0.0072418666,0.0020886448,0.00011240746,-0.01697504,-0.13407528,0.1340753,-9.32781,0.72622824,47.705692,-0.5131912,-3.2210584,-3.0581994,-0.10432884,0.16627419,-0.039866034,29.0,30.375,29.375,33.0,35.4375,36.5
0.018053336,-1.2657529,-0.7039137,-0.22695598,-0.047688387,0.05224177,-0.045264926,-0.38933384,-0.36868852,0.059955128,-3.0786347,0.62492657,9.95163e-06,-0.005613379,0.0031600948,-0.0022904293,0.002106575,-0.0040825196,0.010625191,0.5049693,-1.3815563,1.9042085,-2.0918677,-1.5708297,2.4799695,-0.010649053,0.00970543,-0.0065872963,0.0014706469,0.00011820326,-0.021270346,-0.45968673,0.11492168,-9.500193,0.78217715,47.717335,-0.70453274,-2.9295294,-3.2363904,-0.09598979,0.15581453,-0.010514213,29.0,30.375,29.375,33.0,35.4375,36.5
0.020053398,-1.25852,0.18062718,-0.33664206,-0.03855154,0.07097575,-0.07658662,-0.3893519,-0.3686938,0.059954002,-3.0786362,0.6248315,6.5345266e-06,-0.005892881,0.0040286365,-0.0028701636,0.0029967017,-0.0057002055,0.01034196,0.5049687,-1.381508,1.9041485,-2.091843,-1.5708417,2.4799094,-0.012375442,0.010610152,-0.006540102,0.0023646571,0.00012351619,-0.022713484,-0.36391866,0.114921674,-9.576807,0.7933669,47.733456,-0.8422637,-2.806868,-3.4363203,-0.09052612,0.15346853,-0.0117362235,29.0,30.375,29.375,33.0,35.4375,36.5
0.022053488,-1.2659017,0.23501204,-0.75688237,-0.0059930966,0.0672515,-0.094543055,-0.38934574,-0.36867565,0.059926614,-3.0786004,0.6248456,-5.2856205e-05,-0.0070541166,0.004929858,-0.0030216228,0.004492139,-0.008400253,0.005831011,0.5049439,-1.3814832,1.9041837,-2.0918534,-1.5708417,2.479898,-0.014979457,0.013074854,-0.010042226,0.006488886,0.00012190442,-0.020805165,-0.4213795,0.05746084,-9.730036,0.74413085,47.711964,-0.8575798,-2.859458,-3.423728,-0.12901707,0.1562738,-0.0441657,29.0,30.375,29.375,33.0,35.4375,36.5
0.02405324,-1.5405142,0.093893945,-0.6011425,0.0022026026,0.048662078,-0.105956376,-0.38934678,-0.36864474,0.05989343,-3.0785522,0.6248185,-0.0001783666,-0.008416235,0.0051067257,-0.0023139175,0.0038015079,-0.007157957,0.0021545498,0.50488347,-1.381435,1.9041942,-2.0918171,-1.5708297,2.4798267,-0.016550452,0.013310237,-0.011998878,0.0067893397,0.00011990562,-0.018698901,-0.5746084,0.076614454,-9.768343,0.7933669,47.73256,-0.83123416,-2.7246213,-3.427668,-0.13687569,0.15635055,-0.05026696,29.0,30.375,29.375,33.0,35.4375,36.5
0.026053747,-1.9080235,0.34663638,-0.801125,-0.014360842,0.04304349,-0.13094033,-0.38935712,-0.36864513,0.059889555,-3.0785472,0.62489563,-0.00021847687,-0.009360849,0.0049708383,-0.0031366362,0.0038941535,-0.0073342496,0.0002458942,0.50485927,-1.3814099,1.9041709,-2.0918062,-1.5708054,2.4798512,-0.017205527,0.0161837,-0.013184527,0.0053012324,0.00011794341,-0.01744422,-0.7086837,0.095768064,-9.749189,0.7866488,47.7245,-0.82216495,-2.8426166,-3.3493466,-0.1156323,0.15715608,-0.08016881,29.0,30.375,29.375,33.0,35.4375,36.5
0.028053889,-1.120571,-0.42174172,-0.8393687,-0.017132258,0.085374445,-0.13180926,-0.38939053,-0.3686448,0.0598851,-3.0785427,0.6248757,-0.00020540453,-0.010667541,0.0049803453,-0.0031399988,0.0035584935,-0.0067335363,-0.0022128383,0.50483483,-1.3813493,1.9041094,-2.0918062,-1.5708174,2.479815,-0.0184425,0.017890682,-0.015081932,0.0048034806,0.00011604279,-0.016221358,-0.7469909,-0.038307227,-9.902418,0.8247004,47.73256,-0.81035364,-2.812262,-3.3902726,-0.09981248,0.13333914,-0.1186127,29.0,30.375,29.375,33.0,35.4375,36.5
0.030053917,-1.5618255,-0.015250844,-0.71762824,-0.045582727,0.09707174,-0.14720021,-0.389385,-0.36862823,0.059875477,-3.0784998,0.6247907,-0.00022586643,-0.010864555,0.0051293885,-0.0028970337,0.0037550514,-0.007084812,-0.0028209279,0.5048347,-1.3813374,1.9041089,-2.0917695,-1.5708536,2.4797673,-0.01887701,0.017911503,-0.01594034,0.0060430383,0.00011420208,-0.016047558,-0.6703765,0.076614454,-9.864111,0.8157518,47.704796,-0.9354763,-2.7942054,-3.4468598,-0.0963036,0.14080054,-0.12359753,29.0,30.375,29.375,33.0,35.4375,36.5
0.032053743,-1.8975059,0.14753807,-0.5266321,-0.038386457,0.097396776,-0.15731145,-0.38940787,-0.36860958,0.05985913,-3.0784771,0.624825,-0.00028353225,-0.011241134,0.0056137773,-0.0031375848,0.0045540314,-0.008526929,-0.003446433,0.50477445,-1.3812889,1.904086,-2.091757,-1.5708417,2.4797313,-0.020043159,0.01902929,-0.0170966,0.0077302963,0.000112418944,-0.01658773,-0.7661445,0.0,-9.787497,0.71951014,47.72719,-0.93092036,-2.8189955,-3.3981693,-0.10772637,0.14430843,-0.15194629,29.0,30.375,29.375,33.0,35.4375,36.5
0.034054324,-1.5735489,-0.1014326,-0.63016766,0.000839634,0.09886079,-0.16391699,-0.38945073,-0.36860198,0.0598549,-3.0784683,0.6249195,-0.00029392884,-0.012826597,0.0055644237,-0.0020531113,0.0032089944,-0.0061017666,-0.003890874,0.50471413,-1.381229,1.904025,-2.0917575,-1.5708297,2.479731,-0.021439567,0.018725092,-0.01910129,0.007266087,0.0001106906,-0.017538875,-0.82360536,0.095768064,-9.768343,0.78217715,47.717335,-0.9611677,-2.752069,-3.4710083,-0.10362759,0.14626941,-0.15982708,29.0,30.375,29.375,33.0,35.4375,36.5
0.03605425,-1.5838034,0.34498793,-0.73804474,0.016963428,0.07632003,-0.17983079,-0.38951147,-0.36859822,0.05988114,-3.0784814,0.6249209,-0.00021245959,-0.013934913,0.0057587707,-0.0019088876,0.00277289,-0.005316629,-0.0036167155,0.5046659,-1.3811926,1.9039167,-2.0917337,-1.5708536,2.4796822,-0.02279958,0.019525245,-0.020251645,0.006717501,0.00010901479,-0.019172383,-0.61291564,0.05746084,-9.921572,0.8179876,47.7451,-0.97766495,-2.8371105,-3.4410355,-0.09913017,0.13421698,-0.17915568,29.0,30.375,29.375,33.0,35.4375,36.5
0.038053967,-1.5046957,0.08750121,-0.8368763,0.031603836,0.050965745,-0.18426509,-0.38948697,-0.36860213,0.059833266,-3.0784636,0.6248799,-0.0003762227,-0.015396484,0.0060960827,-0.001769047,0.0023524961,-0.0045664357,-0.0042413063,0.50466526,-1.3811201,1.9039401,-2.0917337,-1.5708054,2.4796581,-0.024734274,0.020702884,-0.02186719,0.0062962477,0.00010738871,-0.020481605,-0.45968673,-0.11492168,-9.749189,0.71951014,47.754948,-0.9022492,-2.7552,-3.3950262,-0.08904697,0.14538096,-0.16975294,29.0,30.375,29.375,33.0,35.4375,36.5
0.0400538,-0.98478615,-0.14984037,-0.6453311,0.022748917,0.04003818,-0.1966139,-0.38954267,-0.36856425,0.05983727,-3.0784175,0.62502396,-0.00037804138,-0.01663064,0.0062781116,-0.0011425975,0.0015553809,-0.0031300997,-0.0042667883,0.50455683,-1.3810842,1.9038805,-2.0916984,-1.5708174,2.4796455,-0.02619027,0.02069943,-0.023225993,0.0060154106,0.00010581049,-0.021911535,-0.40222588,0.0,-9.749189,0.8112748,47.734352,-0.88865614,-2.7186623,-3.3775635,-0.08262651,0.14529254,-0.1944136,29.0,30.375,29.375,33.0,35.4375,36.5
0.042053256,-1.0185251,-0.38085297,-0.63676065,0.010591769,0.031684574,-0.20414408,-0.38959235,-0.3685569,0.05986492,-3.0784473,0.6249721,-0.00025575125,-0.017428596,0.0063142013,-0.0007264882,0.0012255056,-0.0025317904,-0.0039372444,0.50452065,-1.3810841,1.9038199,-2.0917094,-1.5708536,2.4795732,-0.02699354,0.021026349,-0.024653982,0.006432299,0.00010427811,-0.023043746,-0.3256114,0.0,-9.557653,0.7239871,47.716442,-0.85755694,-2.6429281,-3.4275362,-0.05879899,0.14231282,-0.19566779,29.0,30.375,29.375,33.0,35.4375,36.5
0.04405328,-0.39588758,0.19458024,-0.57086945,-0.015921094,0.044202454,-0.21824022,-0.38962123,-0.3685443,0.05984949,-3.0784245,0.6250057,-0.00028510604,-0.018433206,0.006301289,-0.0006163369,0.0013157562,-0.0027006678,-0.0036662193,0.50447243,-1.3810234,1.9037832,-2.091709,-1.5708536,2.479549,-0.027909113,0.022645945,-0.027036255,0.007386262,0.00010278934,-0.024229217,-0.21068975,0.0,-9.634268,0.74413085,47.672558,-0.9162779,-2.772734,-3.4185243,-0.071246415,0.13456127,-0.24252248,29.0,30.375,29.375,33.0,35.4375,36.5
0.046053637,-0.96613973,-0.54186475,-0.5783634,0.00090534583,0.025296275,-0.19810666,-0.38964653,-0.36853218,0.059854742,-3.0784163,0.6249641,-0.00028604348,-0.019611502,0.0066313315,-0.00043580873,0.0011177488,-0.0023476917,-0.0029419106,0.50443584,-1.3809991,1.9037346,-2.0916736,-1.5708655,2.4794874,-0.029563734,0.023591036,-0.028616723,0.0076162415,0.00010134256,-0.026607376,-0.21068975,0.038307227,-9.672575,0.80679786,47.7254,-0.87727654,-2.7135596,-3.372527,-0.06685271,0.14331469,-0.21793263,29.0,30.375,29.375,33.0,35.4375,36.5
0.048053645,-0.14121528,-0.36232084,-0.75520194,-0.0046614017,0.03303002,-0.19247107,-0.38969943,-0.3685174,0.059838306,-3.0784163,0.6250595,-0.00033813927,-0.020939536,0.0074625798,-0.00033135602,0.001109216,-0.0023359614,-0.0029630656,0.50433916,-1.3809147,1.903675,-2.0916855,-1.5708297,2.4794502,-0.032198697,0.02433303,-0.029839162,0.008082917,9.9936005e-05,-0.029220618,-0.05746084,0.19153613,-9.634268,0.69937176,47.701214,-0.78908455,-2.6893845,-3.3488812,-0.059637822,0.12861304,-0.24600664,29.0,30.375,29.375,33.0,35.4375,36.5
0.050053425,0.24989767,-0.83828735,-0.7230383,0.0038477744,0.029916974,-0.18314588,-0.38975948,-0.3685054,0.059855822,-3.078433,0.6250627,-0.00033733912,-0.021469824,0.007969484,-0.00048362603,0.0013400507,-0.0027533483,-0.0019006227,0.50425506,-1.3808665,1.9035672,-2.0916374,-1.5708174,2.479366,-0.033541873,0.024883721,-0.030212427,0.008382548,9.85679e-05,-0.031626027,-0.019153614,0.19153613,-9.5385,0.7866488,47.719128,-0.8611518,-2.7208366,-3.3690233,-0.059533417,0.1446925,-0.22086611,29.0,30.375,29.375,33.0,35.4375,36.5
0.05205326,0.13160186,-0.9810452,-0.5865087,-0.001940785,0.0143779805,-0.18351468,-0.38979778,-0.3684744,0.059865247,-3.0784152,0.6250976,-0.00029789377,-0.022733228,0.0084907105,-0.0001957375,0.0009593545,-0.0020668781,-0.0025771994,0.50418234,-1.3808664,1.9035429,-2.0916255,-1.5708417,2.4793174,-0.035595607,0.025324594,-0.03137395,0.00831728,9.723674e-05,-0.03300263,0.0,0.22984336,-9.519346,0.73069996,47.678825,-0.7952951,-2.6035943,-3.4592037,-0.07222416,0.14624658,-0.23598564,29.0,30.375,29.375,33.0,35.4375,36.5
0.05405417,0.35988265,-0.8226617,-0.6587492,-0.015080059,0.016401812,-0.1832253,-0.38982853,-0.36845285,0.05983662,-3.0783792,0.6251292,-0.00038079236,-0.024486972,0.00865255,0.0005400136,7.631892e-05,-0.00046158544,-0.0032863023,0.50410986,-1.3807821,1.9035057,-2.0916135,-1.5708297,2.4792693,-0.037496913,0.025949372,-0.033777054,0.00826375,8.703324e-05,-0.03419374,0.019153614,0.24899697,-9.461885,0.7284641,47.698532,-0.68050736,-2.668806,-3.33634,-0.06070935,0.13157691,-0.24438569,29.0,30.375,29.375,33.0,35.4375,36.5
0.056053884,-0.38173628,-1.2462946,-0.8817086,-0.0070500746,-0.0029943683,-0.17343788,-0.3899231,-0.36844942,0.059870936,-3.07844,0.6251204,-0.00018818109,-0.024738993,0.008331379,0.000933428,-8.0336285e-05,-0.00016351728,-0.0011568944,0.5040381,-1.380746,1.9033984,-2.0916731,-1.5708655,2.4791844,-0.03718202,0.026171705,-0.035111226,0.009037437,8.3045874e-05,-0.036007736,0.0,0.22984336,-9.442732,0.77545905,47.70032,-0.74548185,-2.6062336,-3.3207657,-0.05846125,0.14464864,-0.25832874,29.0,30.375,29.375,33.0,35.4375,36.5
0.058053985,0.09454673,-0.7741,-0.7376741,-0.020083914,0.0233548,-0.18511309,-0.3899603,-0.3684318,0.05988423,-3.078421,0.6251346,-0.00024579777,-0.024780689,0.008552649,0.00056037284,0.0007010224,-0.0015788815,-0.00034068222,0.5039663,-1.3807094,1.903303,-2.0915763,-1.5708536,2.4791238,-0.037589833,0.027299631,-0.035881743,0.010296998,8.178233e-05,-0.037231404,-0.076614454,0.38307226,-9.557653,0.7351769,47.734352,-0.84335953,-2.6103039,-3.3709853,-0.06045738,0.1476789,-0.28964838,29.0,30.375,29.375,33.0,35.4375,36.5
0.060053993,-0.10611837,-0.8729237,-0.5347804,-0.020452615,0.028140966,-0.1854759,-0.39002198,-0.36840683,0.05987874,-3.0784001,0.6251499,-0.00022084836,-0.026269,0.0091953995,0.0008071666,0.00042758937,-0.0010877473,-0.0018740261,0.5038815,-1.3806372,1.9032301,-2.0915763,-1.5708774,2.4790514,-0.040054943,0.028099861,-0.037434172,0.010486045,8.072235e-05,-0.038162433,-0.038307227,0.30645782,-9.576807,0.7642693,47.711063,-0.8414883,-2.6294146,-3.380826,-0.067235276,0.13032915,-0.27419722,29.0,30.375,29.375,33.0,35.4375,36.5
0.06205418,-0.4353745,-0.8708967,-0.4554488,-0.017032387,0.027967606,-0.17496274,-0.39005512,-0.3683912,0.05986375,-3.078387,0.6251471,-0.00030387705,-0.026870137,0.009578684,0.00087175885,0.0007586435,-0.00169062,-0.002184339,0.50380933,-1.3805648,1.9031705,-2.09154,-1.5708536,2.478979,-0.04125718,0.028806165,-0.03870127,0.011735412,7.970035e-05,-0.039053865,-0.11492168,0.22984336,-9.500193,0.7418897,47.728977,-0.7686477,-2.5666466,-3.3891857,-0.06997757,0.14845067,-0.31008098,29.0,30.375,29.375,33.0,35.4375,36.5
0.06405333,-0.17009866,-0.51827496,-0.20465362,-0.017745929,0.037763212,-0.17946899,-0.39011803,-0.3683804,0.059867155,-3.0784073,0.62513083,-0.0003022846,-0.028043129,0.009718543,0.0012498097,0.00020842857,-0.0006989856,-0.0014491939,0.503725,-1.3804926,1.9030746,-2.0915282,-1.5708417,2.478882,-0.042580303,0.029373212,-0.040184733,0.011517966,7.870467e-05,-0.041111417,-0.1340753,0.21068975,-9.385271,0.75084364,47.71465,-0.7472011,-2.5493126,-3.3373852,-0.06889427,0.14190324,-0.31926697,29.0,30.375,29.375,33.0,35.4375,36.5
0.066053756,0.03881441,-0.42228252,-0.18637206,-0.017448708,0.045450285,-0.17456786,-0.3901959,-0.3683736,0.059919603,-3.07848,0.6251251,-0.00017324433,-0.028973764,0.009545258,0.0016069743,-0.00019327957,3.211692e-05,0.0005314402,0.50364095,-1.3805043,1.9029664,-2.0915163,-1.5708417,2.4787853,-0.043149054,0.030227916,-0.042046215,0.011690202,7.7733566e-05,-0.043659914,-0.17238252,0.17238252,-9.346964,0.800085,47.773754,-0.8303412,-2.5039816,-3.336495,-0.071403444,0.13999937,-0.31964624,29.0,30.375,29.375,33.0,35.4375,36.5
0.06805377,-0.41557574,-0.32509312,-0.27162224,-0.0025001527,0.041474957,-0.17039074,-0.3902436,-0.36835438,0.05989683,-3.0784435,0.6251569,-0.00025703848,-0.029923616,0.010031085,0.0016679309,-0.0003056022,0.0002281496,-8.960095e-05,0.5035566,-1.3803959,1.902882,-2.0914805,-1.5708297,2.4787254,-0.044846743,0.030821497,-0.042897318,0.01172222,7.678613e-05,-0.044736136,-0.24899697,0.15322891,-9.346964,0.81351066,47.733456,-0.81055415,-2.4898322,-3.297011,-0.07716314,0.12051125,-0.31500617,29.0,30.375,29.375,33.0,35.4375,36.5
0.07005365,-0.9230572,-0.08629333,-0.31771126,0.0011445757,0.03718541,-0.18691522,-0.39028963,-0.36832643,0.059904214,-3.0784156,0.6251509,-0.00019410449,-0.030887488,0.010180051,0.0017500632,-0.0005213632,0.0006161498,-0.0007755857,0.5034964,-1.3803717,1.9028338,-2.0914686,-1.5708774,2.478665,-0.045991935,0.031801175,-0.04421985,0.01161892,7.586156e-05,-0.045194637,-0.24899697,0.038307227,-9.404425,0.779936,47.73077,-0.7976356,-2.4409628,-3.3378367,-0.07511593,0.11738373,-0.35503966,29.0,30.375,29.375,33.0,35.4375,36.5
0.072053455,-1.0897164,-0.065893576,-0.19673772,0.0023303851,0.040186483,-0.17743646,-0.3903766,-0.368305,0.059922878,-3.0784712,0.6250826,-0.00017713656,-0.031519916,0.010280176,0.0013227749,-7.587433e-05,-0.00019430151,0.0024796615,0.5033644,-1.380311,1.9027141,-2.0914443,-1.5708536,2.4784834,-0.04674067,0.03374455,-0.04563778,0.012018773,7.4958894e-05,-0.049197774,-0.36391866,0.05746084,-9.232041,0.68818194,47.723602,-0.8342234,-2.521192,-3.3359249,-0.085341334,0.13311487,-0.32750583,29.0,30.375,29.375,33.0,35.4375,36.5
0.07405433,-1.1904873,-0.058901254,-0.3456817,0.006495096,0.04248608,-0.17529783,-0.39041844,-0.36829647,0.05989438,-3.0784616,0.62506044,-0.0002319706,-0.033250056,0.011124897,0.0015948508,-0.00046289107,0.0004974656,0.0032175414,0.5033035,-1.3802027,1.9026536,-2.0914567,-1.5708417,2.47841,-0.049769036,0.03446383,-0.04710005,0.011969172,7.407747e-05,-0.052963316,-0.34476504,0.038307227,-9.385271,0.78217715,47.723602,-0.79399216,-2.4713888,-3.3740778,-0.082776755,0.10102228,-0.33774364,29.0,30.375,29.375,33.0,35.4375,36.5
0.07605376,-0.97911364,0.5929767,-0.12703626,-0.0043616444,0.059016213,-0.18655065,-0.39048836,-0.3682754,0.05990961,-3.0784707,0.62505966,-0.00024524043,-0.03405047,0.011167496,0.0018758965,-0.0006038446,0.0007484226,0.0063256393,0.50319546,-1.3801422,1.9025339,-2.0913966,-1.5708297,2.4783003,-0.050577924,0.03518842,-0.04874054,0.012597389,7.321666e-05,-0.056879587,-0.38307226,-0.019153614,-9.289502,0.77545905,47.741516,-0.65447664,-2.4833555,-3.185001,-0.07094735,0.11157617,-0.28923124,29.0,30.375,29.375,33.0,35.4375,36.5
0.07805365,-1.3010641,0.33146644,-0.3486791,0.006250621,0.053692155,-0.17774585,-0.39058098,-0.3682648,0.059932295,-3.078542,0.6250349,-0.00018480651,-0.03333388,0.010789063,0.0016967488,-0.00022025616,6.4993765e-05,0.0077078464,0.50307614,-1.3800821,1.9024137,-2.091408,-1.5708054,2.4781566,-0.04926213,0.035289712,-0.048570823,0.01311149,7.237553e-05,-0.056946103,-0.5554548,-0.019153614,-9.3661175,0.7597976,47.72719,-0.93641293,-2.4400563,-3.2573261,-0.07988778,0.111750886,-0.30735198,29.0,30.375,29.375,33.0,35.4375,36.5
0.080053456,-0.66472006,0.18531467,-0.29131693,0.012375478,0.07453577,-0.18207645,-0.39061016,-0.36822855,0.05989212,-3.0784476,0.6250536,-0.00029031452,-0.034501314,0.012005427,0.00085227686,0.000721487,-0.001661842,0.008869639,0.5030031,-1.3799733,1.9023656,-2.0913599,-1.5708297,2.4781072,-0.05239328,0.037506968,-0.049408544,0.013696941,7.1553455e-05,-0.06123843,-0.49799395,-0.076614454,-9.404425,0.7620334,47.733456,-0.8066889,-2.4739208,-3.3743525,-0.10246005,0.12089835,-0.2898698,29.0,30.375,29.375,33.0,35.4375,36.5
0.08205362,-1.3013728,-0.076898,-0.33904368,0.017128043,0.051667407,-0.1761018,-0.39067128,-0.36821857,0.059909664,-3.0785053,0.6249473,-0.00031318003,-0.03678067,0.012093827,0.0015872185,-0.00016508975,-6.605404e-05,0.0112541905,0.50290674,-1.3799248,1.9022573,-2.0913122,-1.5707935,2.4779372,-0.05465634,0.03910797,-0.053018034,0.013881707,7.074992e-05,-0.065884344,-0.4405331,-0.019153614,-9.385271,0.7329411,47.684196,-0.8564564,-2.5268788,-3.1882524,-0.09273338,0.121877894,-0.23554087,29.0,30.375,29.375,33.0,35.4375,36.5
0.08405359,-0.91806716,0.52654743,-0.2130168,0.0024574941,0.050275106,-0.17457165,-0.39078632,-0.36819017,0.059936967,-3.0784998,0.62494445,-0.00023667127,-0.036593474,0.013249974,0.00053238036,0.0011199721,-0.0023902508,0.012876873,0.5027744,-1.3798283,1.9020675,-2.091252,-1.5708297,2.477804,-0.056413066,0.039890647,-0.05166373,0.014397737,6.9964255e-05,-0.06926423,-0.47884035,-0.1340753,-9.346964,0.80456203,47.70211,-0.753639,-2.4924908,-3.272767,-0.0964241,0.12333264,-0.22061034,29.0,30.375,29.375,33.0,35.4375,36.5
0.08605378,-0.93492955,-0.0061118393,-0.24538787,0.013505135,0.050346542,-0.17094849,-0.3908349,-0.36815533,0.05991177,-3.078508,0.62488496,-0.0003033687,-0.0363747,0.012084972,0.0006179459,0.0011050338,-0.002268812,0.018248709,0.50265545,-1.3797559,1.9020418,-2.091264,-1.5708054,2.4776468,-0.05421112,0.04115957,-0.053455666,0.014808693,1.777887e-05,-0.07243315,-0.45968673,-0.076614454,-9.289502,0.7642693,47.696735,-0.8990556,-2.523875,-3.428238,-0.099663086,0.112752825,-0.15171424,29.0,30.375,29.375,33.0,35.4375,36.5
0.08805368,-0.953223,0.27596793,-0.090981685,0.012818315,0.050656166,-0.17937984,-0.39090148,-0.3681169,0.059893776,-3.0784633,0.6247598,-0.00031373824,-0.038141217,0.012671437,0.0010505109,0.00076762104,-0.0016379702,0.017978003,0.50255877,-1.3796473,1.901946,-2.0912273,-1.5708536,2.4774778,-0.056823578,0.042186968,-0.055793833,0.015400327,1.1608331e-06,-0.07477383,-0.40222588,0.0,-9.289502,0.77545905,47.73256,-0.89374006,-2.51002,-3.3406959,-0.11147611,0.123615205,-0.12774095,29.0,30.375,29.375,33.0,35.4375,36.5
0.09005348,-0.5583065,0.05113692,-0.39734524,0.021150837,0.05790808,-0.1802414,-0.39097238,-0.36808464,0.059897546,-3.078472,0.62472254,-0.00031251955,-0.039845124,0.012595202,0.0016338939,0.000121010555,-0.0004730229,0.018466273,0.50243855,-1.3795869,1.9018606,-2.0912035,-1.5708536,2.4773333,-0.058270425,0.043582663,-0.058849093,0.015727255,7.57941e-08,-0.07670753,-0.30645782,0.0,-9.270349,0.7620334,47.728977,-0.8236668,-2.4957333,-3.1701484,-0.1420492,0.0949554,-0.07855883,29.0,30.375,29.375,33.0,35.4375,36.5
0.092054345,-0.67067724,0.064018704,-0.31751952,-0.000112492584,0.05479093,-0.17982967,-0.3910496,-0.36807027,0.059907623,-3.0785055,0.6245939,-0.00029951712,-0.03924375,0.0130903255,0.00074135436,0.0008902769,-0.0018662118,0.018648619,0.5023425,-1.3795027,1.90173,-2.0911682,-1.5708536,2.4771528,-0.058533687,0.043885667,-0.057068344,0.015234921,4.9488134e-09,-0.077153765,-0.34476507,0.0,-9.308657,0.7329411,47.716442,-0.9339138,-2.5262609,-3.3306284,-0.15770878,0.10058486,-0.07531537,29.0,30.375,29.375,33.0,35.4375,36.5
0.09405333,-0.46563262,-0.54739994,-0.35569364,-0.017427392,0.058939382,-0.17327705,-0.39113957,-0.36806372,0.059925247,-3.0785613,0.62458754,-0.00034701754,-0.040863145,0.013058903,0.000806246,0.0002844736,-0.00077578716,0.01654825,0.5022103,-1.3794061,1.9015621,-2.0911086,-1.5707935,2.4770095,-0.059973255,0.04577126,-0.059232626,0.014270942,3.2312217e-10,-0.0764917,-0.40222588,0.15322891,-9.346964,0.7284641,47.705692,-0.942485,-2.4753227,-3.309771,-0.15012395,0.10143559,-0.060774866,29.0,30.375,29.375,33.0,35.4375,36.5
0.09605388,-0.3541594,-0.52388793,-0.40482822,-0.031279337,0.05799141,-0.17337386,-0.39125317,-0.36800015,0.059922557,-3.0785117,0.6245956,-0.00026006953,-0.041564796,0.01296282,0.0008899788,0.0002015838,-0.0006283951,0.015443957,0.50204265,-1.3793094,1.9014539,-2.0911086,-1.5708655,2.4768534,-0.060449336,0.046867788,-0.060789853,0.014557182,2.1097568e-11,-0.07586272,-0.24899697,0.24899697,-9.404425,0.8090337,47.70211,-0.9526967,-2.5598502,-3.3068957,-0.16200618,0.09833352,-0.071406625,29.0,30.375,29.375,33.0,35.4375,36.5
0.098054156,-0.49155426,-0.8169974,-0.42989394,-0.02732508,0.054432373,-0.17295384,-0.3913318,-0.3679829,0.059916176,-3.0785468,0.62456536,-0.00032516354,-0.042514578,0.013149507,0.0013666968,-0.00031143875,0.0003000999,0.012956966,0.5019105,-1.3792014,1.9013351,-2.0910847,-1.5708174,2.476698,-0.061632797,0.046931792,-0.06196799,0.014614358,1.3775205e-12,-0.07455872,-0.21068975,0.22984336,-9.404425,0.7530795,47.728977,-0.9657906,-2.4235516,-3.3120227,-0.18604362,0.08929257,-0.07170604,29.0,30.375,29.375,33.0,35.4375,36.5
0.10005412,0.10199963,-0.5552904,-0.2548934,-0.04138682,0.05524358,-0.18113326,-0.39140388,-0.3679495,0.059897516,-3.0785055,0.6245195,-0.0003584543,-0.04281066,0.013294881,5.9952155e-05,0.000780668,-0.001766481,0.010924334,0.50180244,-1.3790802,1.9012259,-2.0910485,-1.5708417,2.4765666,-0.06216381,0.050159432,-0.062809065,0.014563216,3.1698593e-05,-0.07305632,-0.1340753,0.2681506,-9.461885,0.83365434,47.711964,-1.0697067,-2.5198383,-3.3962564,-0.16984515,0.098820984,-0.09158312,29.0,30.375,29.375,33.0,35.4375,36.5
0.10205406,0.13059813,-0.6997109,-0.3624628,-0.03705568,0.047054816,-0.18066116,-0.39148098,-0.36793676,0.059919212,-3.0785499,0.6244717,-0.00035511455,-0.04387431,0.013450627,9.917544e-05,0.0005907159,-0.0014014379,0.008319987,0.5016943,-1.3790195,1.9010938,-2.0910008,-1.5708174,2.476423,-0.06339518,0.051373728,-0.06431058,0.014441031,2.1185375e-05,-0.07168251,-0.114921674,0.34476504,-9.3661175,0.83589023,47.698532,-1.056188,-2.6547594,-3.3659694,-0.19058701,0.10242203,-0.12751183,29.0,30.375,29.375,33.0,35.4375,36.5
0.10405408,-0.13675383,-0.8684962,-0.41681954,-0.027006479,0.028255507,-0.1698753,-0.39158374,-0.36788726,0.059908953,-3.078496,0.6244805,-0.00036223276,-0.0450103,0.01366847,0.0014666953,-0.0007424162,0.001022517,0.005634411,0.50153816,-1.3788881,1.9009508,-2.0909526,-1.5708536,2.4762793,-0.06479877,0.049608797,-0.06534626,0.014472917,2.0284187e-05,-0.07040041,-0.11492168,0.3256114,-9.385271,0.79560274,47.74062,-1.0214101,-2.3764656,-3.3974056,-0.195065,0.107547075,-0.15178002,29.0,30.375,29.375,33.0,35.4375,36.5
0.10605358,0.26326746,-0.668149,-0.507655,-0.033499412,0.028245186,-0.17528936,-0.39168397,-0.36789334,0.059928015,-3.0785856,0.6244999,-0.00033935354,-0.04597809,0.013945798,0.00086337375,-0.0003140287,0.0002462416,0.0029094783,0.50141793,-1.3787912,1.9007953,-2.0909646,-1.5707935,2.4761598,-0.06614735,0.052027,-0.06683114,0.014430624,2.0015372e-05,-0.06902307,-0.095768064,0.2681506,-9.423578,0.842603,47.689575,-1.0598736,-2.4747357,-3.3493097,-0.19312036,0.10753233,-0.18320489,29.0,30.375,29.375,33.0,35.4375,36.5
0.10805361,0.28358066,-0.3729174,-0.48112774,-0.044115737,0.014899736,-0.17794329,-0.39178076,-0.3678416,0.059933193,-3.0785432,0.62443286,-0.00026668466,-0.046617948,0.014314335,0.00023026361,0.00037057162,-0.00097455265,0.0012372105,0.5012859,-1.3787065,1.9006752,-2.0909288,-1.5708655,2.4759915,-0.0673387,0.054110248,-0.06796138,0.014872391,5.0855683e-06,-0.06854139,0.0,0.28730422,-9.385271,0.71951014,47.684196,-1.0801635,-2.5008736,-3.37708,-0.2084642,0.094344616,-0.22553523,29.0,30.375,29.375,33.0,35.4375,36.5
0.1100533,0.05433388,-0.63172346,-0.44501323,-0.040365048,0.010083094,-0.17226703,-0.39186972,-0.36782345,0.059916314,-3.0785327,0.6244109,-0.00032375974,-0.047987293,0.014707458,9.664379e-05,0.0003676023,-0.00097522174,0.002037724,0.5011654,-1.3785496,1.9005197,-2.090893,-1.5708536,2.4758587,-0.06925259,0.05590882,-0.06980548,0.014917527,3.3205126e-07,-0.07125478,-0.019153614,0.24899697,-9.346964,0.73741806,47.694946,-0.99734205,-2.6480026,-3.4067976,-0.21740213,0.08796096,-0.2455886,29.0,30.375,29.375,33.0,35.4375,36.5
0.112053975,0.12555566,-0.5361955,-0.58112913,-0.026632661,0.020073716,-0.17493105,-0.39195102,-0.36778978,0.059922222,-3.0785365,0.6244708,-0.00029518557,-0.04854893,0.014946018,0.0013250762,-0.00054059946,0.0006888332,7.642196e-05,0.50103337,-1.3784902,1.9004358,-2.0908926,-1.5708536,2.4757636,-0.070158914,0.053856123,-0.07032599,0.015595174,2.1680576e-08,-0.070199996,-0.095768064,0.2681506,-9.423578,0.779936,47.707485,-1.0762823,-2.4981952,-3.3828263,-0.22337289,0.0858341,-0.26385593,29.0,30.375,29.375,33.0,35.4375,36.5
0.114053965,0.6469644,-0.0871658,-0.44910213,-0.032731358,0.043281272,-0.17746699,-0.39209342,-0.3677613,0.0599445,-3.078567,0.62447613,-0.00023868124,-0.049746733,0.014901531,0.0010748593,-0.00067590736,0.0009322676,-0.0013843441,0.50085354,-1.3783574,1.9002198,-2.0908568,-1.5708536,2.4755833,-0.071170844,0.056036826,-0.07221691,0.0150270015,1.4155868e-09,-0.06975001,-0.05746084,0.22984336,-9.3661175,0.81351066,47.692257,-1.0889745,-2.4937234,-3.3693743,-0.23198706,0.091615155,-0.3329245,29.0,30.375,29.375,33.0,35.4375,36.5
0.11605357,0.21689749,0.012722557,-0.4693069,-0.020808626,0.043493807,-0.16846548,-0.392148,-0.36770147,0.059892967,-3.0784748,0.62449384,-0.00037118496,-0.050483685,0.014837269,0.00087471603,-0.00055837404,0.0006906829,0.0014452635,0.50070965,-1.3782246,1.9001716,-2.090821,-1.5708655,2.4754622,-0.0717362,0.057743054,-0.07382963,0.015200469,9.24277e-11,-0.07314409,-0.05746084,0.28730422,-9.289502,0.80679786,47.72271,-1.1582506,-2.5571628,-3.371345,-0.22826906,0.097177975,-0.33498842,29.0,30.375,29.375,33.0,35.4375,36.5
0.11805342,-0.17768642,0.15804628,-0.41596782,-0.0032798436,0.040533986,-0.1737279,-0.39227825,-0.36770788,0.05993433,-3.0785658,0.62449473,-0.00029323614,-0.052047767,0.014787884,0.0014508376,-0.0014167384,0.0022642442,-0.0025823014,0.5005775,-1.3781163,1.8999437,-2.0907972,-1.5708297,2.4753191,-0.073078096,0.058627393,-0.07610197,0.0147990305,6.0348684e-12,-0.07045734,-0.1340753,0.19153613,-9.32781,0.7978386,47.7254,-1.1682693,-2.543139,-3.3970728,-0.23366538,0.088129684,-0.3901555,29.0,30.375,29.375,33.0,35.4375,36.5
0.12005405,-0.25168833,-0.11667028,-0.5721177,0.01670068,0.041840956,-0.16635093,-0.39236897,-0.36767498,0.059914958,-3.0785491,0.6244131,-0.00032536773,-0.05309979,0.014707127,0.002017548,-0.0016341495,0.0026511888,-0.0029851818,0.50044554,-1.3779719,1.8998111,-2.0907724,-1.5708417,2.4751384,-0.073900096,0.059512243,-0.07874538,0.016112912,3.940338e-13,-0.070875406,-0.15322891,0.114921674,-9.270349,0.7665104,47.71823,-1.2534764,-2.511117,-3.0913613,-0.242363,0.08778162,-0.42988,29.0,30.375,29.375,33.0,35.4375,36.5
0.12205379,-0.28118384,0.5808998,-0.42750326,0.0027040853,0.042108305,-0.17523305,-0.39248097,-0.3676489,0.059929468,-3.0785613,0.6243762,-0.0002599713,-0.053405162,0.015960462,0.00093052216,-0.00047409022,0.0005378473,-0.002161803,0.50031286,-1.3778634,1.8996443,-2.0907485,-1.5708655,2.4749813,-0.0762713,0.060852457,-0.07792123,0.016357174,2.5727589e-14,-0.07407015,-0.15322891,0.0,-9.3661175,0.78217715,47.703903,-1.0743183,-2.466822,-3.3124819,-0.2423583,0.07605763,-0.468679,29.0,30.375,29.375,33.0,35.4375,36.5
0.1240535,-0.4816873,0.24134916,-0.54442483,0.00029933476,0.039186053,-0.16785003,-0.39257342,-0.3676092,0.059897058,-3.0785117,0.6244009,-0.0003997364,-0.054859784,0.014577034,0.002223236,-0.001755295,0.0028461525,0.002636454,0.5001457,-1.3776826,1.8994874,-2.0906765,-1.5708417,2.4748359,-0.07527232,0.06220997,-0.08264687,0.017086595,1.6798277e-15,-0.07786741,-0.24899697,0.13407528,-9.3661175,0.7911258,47.694054,-1.3093472,-2.5945995,-3.2247572,-0.269736,0.07973697,-0.44486484,29.0,30.375,29.375,33.0,35.4375,36.5
0.126054,-0.5333401,0.06302185,-0.65793765,-0.0041196886,0.05924129,-0.17679416,-0.39268047,-0.36757493,0.059916694,-3.0785348,0.62436414,-0.00037206174,-0.05533439,0.015942317,0.0019366714,-0.0012018539,0.0018386135,0.006611205,0.49998906,-1.3775985,1.8993324,-2.0906289,-1.5708417,2.4746535,-0.07798609,0.06194071,-0.08181216,0.017669795,1.0968075e-16,-0.08455638,-0.3256114,0.17238252,-9.346964,0.7709874,47.73883,-1.2796615,-2.4581985,-3.2113628,-0.2639593,0.07354971,-0.43386528,29.0,30.375,29.375,33.0,35.4375,36.5
0.12805389,-0.68373764,0.2742961,-0.80135816,-0.011829811,0.07471806,-0.17363547,-0.39277667,-0.36754942,0.059906427,-3.0785348,0.6242851,-0.00040203895,-0.056149796,0.015853627,0.0020919507,-0.0014022874,0.002191231,0.010367419,0.49985713,-1.3774542,1.8991765,-2.0905926,-1.5708417,2.4744723,-0.078572445,0.062987246,-0.08345797,0.017862966,7.161369e-18,-0.08889816,-0.38307226,0.095768064,-9.461885,0.82694155,47.67793,-1.3008977,-2.4635615,-3.3292654,-0.29728112,0.07128342,-0.39023292,29.0,30.375,29.375,33.0,35.4375,36.5
0.13005318,-1.2921916,-0.42353413,-0.5957168,-0.009026291,0.08005125,-0.172123,-0.39290527,-0.3675292,0.05992302,-3.0785797,0.6242713,-0.00038584828,-0.05675009,0.016257973,0.00087407243,4.142332e-05,-0.00045372942,0.015126202,0.4996892,-1.3773208,1.8989724,-2.0905564,-1.5708174,2.4742901,-0.07978354,0.06661094,-0.085260175,0.019056343,4.6758623e-19,-0.09486687,-0.36391866,-0.038307227,-9.557653,0.83365434,47.681515,-1.373407,-2.5625348,-3.243572,-0.30335808,0.0514467,-0.3967088,29.0,30.375,29.375,33.0,35.4375,36.5
0.13205418,-1.042759,-0.26447943,-0.66981846,-0.020103637,0.100555666,-0.17576338,-0.39301917,-0.36749175,0.059938222,-3.0786114,0.62419564,-0.00035670647,-0.058040224,0.016551713,0.002722938,-0.0017783677,0.0028749267,0.021272903,0.499521,-1.3772256,1.898817,-2.0905206,-1.5708174,2.4740708,-0.08144372,0.06380723,-0.08611786,0.018923283,3.053004e-20,-0.10267386,-0.4405331,0.019153614,-9.634268,0.7978386,47.690468,-1.2970399,-2.4668226,-3.2378254,-0.32270238,0.06712403,-0.28322142,29.0,30.375,29.375,33.0,35.4375,36.5
0.13405399,-1.0046849,-0.52197343,-0.79690856,-0.011974545,0.10027916,-0.17201819,-0.39312038,-0.3674382,0.059902184,-3.078551,0.62412345,-0.00043480375,-0.059141792,0.017145097,0.002006967,-0.0012454398,0.0018704451,0.023667838,0.49935254,-1.3770446,1.8986734,-2.090473,-1.5708417,2.473865,-0.083439164,0.0662525,-0.08739107,0.018885186,1.9933934e-21,-0.10706337,-0.51714754,0.019153614,-9.691729,0.8403672,47.698532,-1.2798164,-2.43524,-3.3214028,-0.3433443,0.060179345,-0.26220435,29.0,30.375,29.375,33.0,35.4375,36.5
0.13605432,-1.4463857,-0.27817908,-0.9565174,-0.01515241,0.07810352,-0.16405588,-0.3932678,-0.36743218,0.05994202,-3.0786607,0.6240289,-0.00035900023,-0.060644213,0.01823938,0.0017829739,-0.0011746308,0.001754144,0.02488278,0.49918383,-1.3769242,1.8984345,-2.0904486,-1.5708054,2.4736235,-0.08663436,0.06741224,-0.08821951,0.0186934,1.3015435e-22,-0.11147299,-0.45968673,0.15322891,-9.691729,0.7732232,47.696735,-1.3567951,-2.4447901,-3.3027887,-0.34018946,0.07165884,-0.1888784,29.0,30.375,29.375,33.0,35.4375,36.5
0.13805427,-1.0477368,-0.2832331,-0.90154237,-0.010890846,0.08268631,-0.16660707,-0.39337447,-0.3673866,0.059924174,-3.0786407,0.6239269,-0.00040548982,-0.060808346,0.018365705,0.0016580591,-0.0012349994,0.0018508508,0.026748352,0.4990162,-1.3767679,1.8982791,-2.090401,-1.5708174,2.4733949,-0.086975634,0.06759523,-0.08805839,0.01823397,8.4981485e-24,-0.11367985,-0.5554548,0.038307227,-9.615114,0.7463667,47.690468,-1.2998983,-2.4117398,-3.3389535,-0.33680922,0.051325478,-0.14534828,28.9375,30.375,29.375,33.0,35.4375,36.5
0.14005338,-1.352167,-0.19621007,-0.8021048,-0.0019833304,0.074357696,-0.16706836,-0.3935145,-0.36733484,0.059947964,-3.0786679,0.6239911,-0.00033262058,-0.06325605,0.018095406,0.0027837337,-0.0027736966,0.00467125,0.024349652,0.4988,-1.3766835,1.8981222,-2.0903895,-1.5708174,2.4732153,-0.08874705,0.06877003,-0.09189115,0.017679242,5.548684e-25,-0.1130508,-0.7852981,-0.019153614,-9.615114,0.8179876,47.690468,-1.3586687,-2.3867812,-3.2316322,-0.3444807,0.049797356,-0.14177272,28.9375,30.375,29.375,33.0,35.4375,36.5
0.14205416,-0.8171637,0.4091854,-0.6946461,-0.00851327,0.09339461,-0.17654328,-0.39364552,-0.36728105,0.05993284,-3.0786302,0.6238716,-0.00032958767,-0.064509176,0.020262673,0.0019718567,-0.0021294772,0.0034876573,0.016159674,0.49861875,-1.3765031,1.8979319,-2.0903418,-1.5708655,2.4729645,-0.09351753,0.06932238,-0.09059733,0.017175812,3.622894e-26,-0.10963172,-0.7469909,0.038307227,-9.615114,0.7978386,47.71823,-1.0641315,-2.3557386,-3.415847,-0.3388814,0.04622876,-0.15430167,28.9375,30.375,29.375,33.0,35.4375,36.5
0.1440532,-0.7280573,0.3091217,-0.48598412,-0.006766128,0.10066108,-0.17351955,-0.39377964,-0.36727282,0.059956692,-3.0787194,0.62381434,-0.0003061875,-0.06647298,0.018854357,0.003519817,-0.0040875953,0.0070803026,0.011832931,0.4984514,-1.3763705,1.897715,-2.090318,-1.5708174,2.4727502,-0.09292697,0.07040544,-0.09530658,0.016716285,2.365491e-27,-0.104712345,-0.6895301,-0.05746084,-9.576807,0.8112748,47.666286,-1.2404416,-2.3503404,-3.3080115,-0.3393065,0.03928466,-0.21086013,28.9375,30.375,29.375,33.0,35.4375,36.5
0.14605427,-0.97727835,0.33813953,-0.47072768,-0.0031284231,0.08877379,-0.1730819,-0.39390796,-0.3672266,0.059955288,-3.078718,0.6237979,-0.0002565694,-0.06719076,0.020362588,0.0026944357,-0.0031630194,0.00539481,0.0056925984,0.49827063,-1.3762381,1.897561,-2.0903175,-1.5708417,2.4725595,-0.09609444,0.07143883,-0.09473517,0.01703183,1.5444965e-28,-0.10173959,-0.6512228,-0.05746084,-9.557653,0.8537928,47.698532,-1.1110903,-2.3603005,-3.3196774,-0.33310002,0.03154143,-0.26247257,28.9375,30.375,29.375,33.0,35.4375,36.5
0.14805329,-0.45209667,0.23379289,-0.5311777,0.0025512674,0.09719544,-0.17720903,-0.3940487,-0.3671517,0.059951983,-3.0786772,0.6237899,-0.00027640545,-0.06926667,0.021182112,0.0032395003,-0.0037408597,0.0064440314,0.0022249867,0.49803004,-1.3760935,1.8973807,-2.0902455,-1.5708655,2.4723191,-0.09934856,0.07224214,-0.09699586,0.017289083,1.0084458e-29,-0.10152513,-0.6703765,-0.019153614,-9.595961,0.7620334,47.709274,-1.039568,-2.3282251,-3.304853,-0.34258345,0.03907764,-0.28552896,28.9375,30.375,29.375,33.0,35.4375,36.5
0.150054,-0.8497915,0.3489598,-0.6321385,0.0029485736,0.07994831,-0.16873662,-0.3941901,-0.3671209,0.059949297,-3.0787008,0.6238131,-0.00031330058,-0.070418976,0.021721696,0.0032136447,-0.0037716671,0.00649781,0.0014105253,0.49782586,-1.3759131,1.8971647,-2.0902097,-1.5708297,2.4721265,-0.10127985,0.07332421,-0.09826135,0.017414112,6.5844305e-31,-0.10264132,-0.49799395,-0.076614454,-9.576807,0.7709874,47.703903,-0.91611254,-2.2764919,-3.2392473,-0.33839625,0.054354563,-0.33279938,28.9375,30.375,29.375,33.0,35.4375,36.5
0.1520539,-0.3760808,0.29434654,-0.64317435,-0.003905781,0.07836075,-0.1748395,-0.3943344,-0.36708793,0.059979778,-3.0787554,0.6237279,-0.00021653768,-0.071788296,0.022560216,0.0031917114,-0.0038797688,0.006709342,-0.0006364937,0.49764523,-1.3758047,1.8969611,-2.0901854,-1.5708417,2.471886,-0.103913,0.0742029,-0.099225655,0.01726102,4.2991625e-32,-0.10322694,-0.5746084,-0.038307227,-9.576807,0.76874626,47.652847,-0.9278289,-2.2668757,-3.3555126,-0.34507877,0.038086623,-0.32552242,28.9375,30.375,29.375,33.0,35.4375,36.5
0.15405414,-0.54330206,-0.040263068,-0.49286267,-0.0072872303,0.07383705,-0.16735491,-0.3945029,-0.36703295,0.059980087,-3.0787208,0.6238553,-0.00020478907,-0.072826274,0.022990976,0.0029377304,-0.003942912,0.0068225223,-0.0018691139,0.49740532,-1.3756121,1.8967212,-2.0901382,-1.5708536,2.47173,-0.10554886,0.07551551,-0.10008723,0.016679198,2.8070458e-33,-0.103629604,-0.51714754,0.019153614,-9.442732,0.8314132,47.681515,-0.80471927,-2.2779033,-3.3619637,-0.3385091,0.04084801,-0.36706787,28.9375,30.375,29.375,33.0,35.4375,36.5
0.15605327,-0.7769475,-0.13591376,-0.41348693,-0.008896797,0.07422076,-0.16995953,-0.39463103,-0.36697716,0.059977084,-3.0786958,0.6238495,-0.00022462562,-0.073578626,0.023323659,0.0024391753,-0.0032999697,0.0056316643,-0.0025017909,0.4972013,-1.3754672,1.8965424,-2.090078,-1.5708655,2.4715257,-0.10676731,0.0776621,-0.101696074,0.017493516,1.8328004e-34,-0.104214504,-0.47884035,0.11492168,-9.442732,0.8560339,47.71823,-0.8203143,-2.318252,-3.3067188,-0.32268468,0.05241313,-0.3788123,28.9375,30.375,29.375,33.0,35.4375,36.5
0.15805407,-0.9973293,-0.42598575,-0.6067091,0.003362388,0.07704567,-0.16617571,-0.39478418,-0.36694825,0.059986126,-3.0787625,0.6238028,-0.00017868308,-0.0746703,0.023669578,0.0029179896,-0.0036431092,0.006273811,-0.001020408,0.49699733,-1.3753109,1.8963388,-2.0900896,-1.5708417,2.4712842,-0.10831006,0.077937506,-0.103247106,0.018043252,1.1966877e-35,-0.107238054,-0.38307226,0.11492168,-9.519346,0.7620334,47.693153,-0.83894783,-2.2742887,-3.3398762,-0.33480233,0.022346433,-0.39821023,28.9375,30.375,29.375,33.0,35.4375,36.5
0.16005388,-0.5465493,0.18699765,-0.4557697,-0.012636343,0.08658101,-0.17084002,-0.3949153,-0.36688,0.059963237,-3.078713,0.6238471,-0.00022501341,-0.07552409,0.023539208,0.003057601,-0.003918125,0.006762532,0.0037938438,0.4967697,-1.3751425,1.8961829,-2.0900538,-1.5708536,2.4710906,-0.10883981,0.07906171,-0.10490588,0.018015122,7.813516e-37,-0.11258125,-0.3256114,0.15322891,-9.461885,0.83813137,47.677036,-0.8619158,-2.2859838,-3.2924461,-0.3468518,0.023111263,-0.35948002,28.9375,30.375,29.375,33.0,35.4375,36.5
0.16205373,-0.9047935,-0.19792287,-0.5775773,-0.007442614,0.06306208,-0.16468425,-0.39509088,-0.36685908,0.060005683,-3.0788136,0.62370867,-0.00012215534,-0.07598895,0.023177162,0.0031712528,-0.0041055633,0.0071252254,0.010589111,0.49656615,-1.3749981,1.8959068,-2.090018,-1.5708417,2.470788,-0.10861202,0.08002804,-0.10633246,0.01806775,5.1016675e-38,-0.119148046,-0.3256114,0.095768064,-9.32781,0.7463667,47.6636,-0.8467571,-2.2144964,-3.3499417,-0.32471448,0.026689075,-0.309871,28.9375,30.375,29.375,33.0,35.4375,36.5
0.1640536,-0.0453877,0.03560429,-0.41975236,-0.017797604,0.06509747,-0.18016462,-0.3952311,-0.36680287,0.059994154,-3.0787742,0.62373424,-0.00015655554,-0.07681059,0.022756511,0.002078488,-0.0034640334,0.0059181335,0.017798347,0.49635056,-1.3748163,1.8957037,-2.0899584,-1.5708536,2.4705935,-0.10862305,0.08417009,-0.108684175,0.017641967,3.331024e-39,-0.12636672,-0.2681506,0.15322891,-9.308657,0.7351769,47.695843,-0.96436185,-2.373652,-3.3262262,-0.32527003,0.010089586,-0.25987038,28.9375,30.375,29.375,33.0,35.4375,36.5
0.16605337,-0.5495652,-0.7367232,-0.55354613,-0.0064215627,0.024035694,-0.155791,-0.3954067,-0.36675054,0.06000449,-3.0788295,0.62364554,-5.8922833e-05,-0.078052275,0.024857566,0.002725196,-0.0033346384,0.007115247,0.022280829,0.4961095,-1.374661,1.895501,-2.0899823,-1.570866,2.4702902,-0.11282522,0.08180864,-0.10737483,0.017702535,-0.00067156117,-0.13505119,-0.17238252,0.15322891,-9.308657,0.7933669,47.67345,-0.8549823,-2.2849188,-3.3078122,-0.32650328,0.038287316,-0.15243718,28.9375,30.375,29.375,33.0,35.4375,36.5
0.16805394,0.24080352,-0.22536609,-0.43991995,-0.022794299,0.026203996,-0.17315128,-0.3955711,-0.36670807,0.060009725,-3.0788434,0.6235689,-3.3853295e-05,-0.07848608,0.023258155,0.0030492754,-0.0038275297,0.008280751,0.02554262,0.495895,-1.3744681,1.8952492,-2.0899346,-1.5708779,2.4700263,-0.11041423,0.08386438,-0.11053174,0.017542724,-0.0007968233,-0.13590024,-0.19153613,0.1340753,-9.308657,0.86498255,47.672558,-1.0693208,-2.1558058,-3.4183908,-0.29407004,0.03345953,-0.1070804,28.9375,30.375,29.375,33.0,35.4375,36.5
0.1700537,0.7037658,-0.109729834,-0.3929526,-0.01916795,0.03575884,-0.16936296,-0.39574483,-0.36664727,0.060015228,-3.078855,0.6234965,-1.0174458e-05,-0.07999205,0.025497358,0.0018082183,-0.0026476453,0.006175657,0.020183986,0.49564162,-1.374287,1.8950108,-2.089887,-1.5708903,2.4697263,-0.115487106,0.08590554,-0.110145114,0.017526265,-0.0008290812,-0.1356143,-0.11492168,0.21068975,-9.289503,0.7284641,47.67614,-0.7770088,-2.477024,-3.327617,-0.30875832,0.026960302,-0.09221779,28.9375,30.375,29.375,33.0,35.4375,36.5
0.17205358,0.541787,-0.5029748,-0.41153088,-0.004557372,0.033249386,-0.15803981,-0.39589164,-0.366608,0.060041387,-3.078923,0.62345356,3.8412756e-05,-0.08091146,0.024711281,0.0026389554,-0.0034322771,0.007925407,0.01706945,0.49542633,-1.3741788,1.8948172,-2.0898626,-1.570866,2.4694757,-0.114879675,0.08652874,-0.11281259,0.017662443,-0.00096607255,-0.13189106,0.019153614,0.15322891,-9.3661175,0.8179876,47.653748,-0.97431433,-2.24567,-3.3895023,-0.28715825,0.033349,-0.11412485,28.9375,30.375,29.375,33.0,35.4375,36.5
0.17405336,0.80160284,-0.16444856,-0.25951612,-0.0105933845,0.040313557,-0.16366743,-0.3960599,-0.36652952,0.06001489,-3.0788686,0.6234633,2.8362205e-05,-0.08198144,0.024603875,0.0024442025,-0.0034070564,0.00784512,0.010985521,0.49516287,-1.373962,1.8946146,-2.0898387,-1.5709018,2.4692254,-0.11563668,0.08876256,-0.11506462,0.017759396,-0.00095680606,-0.12656292,0.019153614,0.22984336,-9.251195,0.7642693,47.677036,-1.0223784,-2.2901204,-3.2780938,-0.2698164,0.036482356,-0.18593928,28.9375,30.375,29.375,33.0,35.4375,36.5
0.17605335,-0.0076589794,-0.51020694,-0.4773653,-0.0067592296,0.02297816,-0.16332746,-0.39622033,-0.3665112,0.06003277,-3.0789232,0.6234374,6.006372e-05,-0.08282316,0.024930242,0.0023308126,-0.0032567293,0.0072484054,0.0052801585,0.4949708,-1.3737813,1.8943509,-2.0898025,-1.5708779,2.4690104,-0.11700571,0.09013293,-0.11662952,0.018553508,-0.0007992941,-0.122226164,0.019153614,0.28730422,-9.174581,0.8717007,47.70032,-1.0873597,-2.3823433,-3.2710896,-0.28450808,0.044238586,-0.24625546,28.9375,30.375,29.375,33.0,35.4375,36.5
0.17805353,0.23180266,-0.65662813,-0.63571835,-0.013789468,0.027821917,-0.17085822,-0.39638326,-0.3664547,0.060027443,-3.0789208,0.6234571,3.1316333e-05,-0.082708396,0.024656462,0.0021119656,-0.002844998,0.0062333564,0.0032378423,0.49471948,-1.3735889,1.8941234,-2.0897543,-1.5708655,2.4687717,-0.116468735,0.091275334,-0.117747635,0.019619422,-0.0006790359,-0.119646564,0.019153614,0.28730422,-9.251195,0.7911258,47.711063,-0.98773515,-2.0853782,-3.3202302,-0.2789147,0.028782431,-0.29976732,28.9375,30.375,29.375,33.0,35.4375,36.5
0.18005335,0.43916354,-0.45504543,-0.6505301,-0.028753879,0.03197894,-0.16320848,-0.39654648,-0.36641896,0.060036395,-3.078944,0.6234239,3.1298776e-05,-0.08385601,0.025834925,0.0010720699,-0.0019685712,0.004423411,-0.0012987738,0.49450314,-1.3733957,1.8938597,-2.0896943,-1.5708536,2.4685318,-0.11950405,0.093831316,-0.11848097,0.019807111,-0.0005898003,-0.11814477,0.0,0.22984336,-9.270349,0.7911258,47.688675,-1.1897534,-2.3613615,-3.255724,-0.27257338,0.004994668,-0.36314356,28.9375,30.375,29.375,33.0,35.4375,36.5
0.182054,0.45595837,-1.1052424,-0.45494124,-0.03872573,0.03672604,-0.17411616,-0.39669552,-0.3663487,0.060021825,-3.0789037,0.62341475,1.1160545e-05,-0.08506121,0.024424993,0.00240796,-0.003376077,0.0070562046,-0.001361427,0.494264,-1.3732154,1.8936676,-2.089646,-1.5708774,2.4682922,-0.118177585,0.09459978,-0.122509114,0.020078821,-0.0006108177,-0.116753966,-0.11492168,0.30645782,-9.251195,0.800085,47.63852,-1.0821893,-2.3057942,-3.3067698,-0.2619756,0.006892752,-0.40469074,28.9375,30.375,29.375,33.0,35.4375,36.5
0.18405387,-0.03632924,-0.67382634,-0.3723569,-0.04355598,0.028545702,-0.16957906,-0.39687592,-0.36630198,0.060012285,-3.0788991,0.62333626,3.0293144e-05,-0.084634915,0.025600558,-0.00053521234,-0.0005213771,0.0016571138,-0.0027545427,0.4940359,-1.3729734,1.8933934,-2.0896103,-1.5709013,2.468016,-0.11974758,0.09930597,-0.12153256,0.020500202,-0.0005595574,-0.11693065,-0.1340753,0.3256114,-9.289502,0.8179876,47.664497,-1.1310945,-2.5354462,-3.2894258,-0.25040936,0.017715652,-0.46282977,28.9375,30.375,29.375,33.0,35.4375,36.5
0.18605389,-0.41694665,-1.2858502,-0.6094421,-0.018092077,0.025600234,-0.16419059,-0.39703915,-0.36624208,0.06000586,-3.0788996,0.6234304,6.8875274e-06,-0.086424,0.025591686,0.0014631955,-0.002515367,0.005395722,-0.001596578,0.49377188,-1.3727942,1.8931893,-2.0895865,-1.5708774,2.4678106,-0.121295966,0.09738523,-0.123795755,0.020449428,-0.0005805379,-0.119636424,0.019153614,0.28730422,-9.32781,0.83589023,47.70032,-1.1832674,-2.2561648,-3.261641,-0.24752921,0.01655003,-0.49839604,28.9375,30.375,29.375,33.0,35.4375,36.5
0.1880536,-0.2962553,-0.6307406,-0.5450074,-0.028027274,0.034285862,-0.1601361,-0.3971956,-0.3661912,0.060000144,-3.0788965,0.6234042,-9.527629e-06,-0.08784625,0.025393153,0.0011554173,-0.0025129202,0.005290001,0.0061045857,0.49354404,-1.3726007,1.8929614,-2.0895388,-1.5708774,2.467567,-0.122235015,0.100470364,-0.12678266,0.020443857,-0.0005406218,-0.12827508,-0.038307227,0.34476504,-9.346964,0.8179876,47.711964,-1.1587167,-2.477746,-3.1956677,-0.22379391,0.011153551,-0.48104256,28.9375,30.375,29.375,33.0,35.4375,36.5
0.1900533,0.69717133,-0.48594415,-0.47957885,-0.016826201,0.06252092,-0.17460884,-0.3973771,-0.3661609,0.060016073,-3.0789492,0.6232954,4.6108104e-05,-0.08902422,0.025648259,0.0017178108,-0.0029448776,0.006012614,0.01206287,0.49332806,-1.3723963,1.8926739,-2.089502,-1.5708774,2.4672766,-0.12370589,0.10086528,-0.12870413,0.021128044,-0.00049846334,-0.13570362,-0.076614454,0.30645782,-9.289502,0.83813137,47.704796,-1.1196172,-2.328497,-3.0522685,-0.22490457,0.009561446,-0.4140833,28.9375,30.375,29.375,33.0,35.4375,36.5
0.19205402,-0.13757908,-0.5849499,-0.4110029,-0.003997779,0.05364806,-0.16663587,-0.397552,-0.36609015,0.06002171,-3.0789497,0.6233465,-2.2806122e-05,-0.08972837,0.026276903,0.00061006454,-0.0019006546,0.0039826734,0.021378295,0.49302816,-1.372215,1.8924235,-2.0894063,-1.5708417,2.4670086,-0.1253686,0.103793845,-0.12978771,0.021568764,-0.00046192855,-0.146681,-0.17238252,0.28730422,-9.289502,0.80679786,47.657326,-1.1837504,-2.5156243,-3.1508791,-0.22443455,0.010402451,-0.2898582,28.9375,30.375,29.375,33.0,35.4375,36.5
0.1940539,-0.9138288,-0.46665204,-0.5895478,-0.014132326,0.047085803,-0.16913512,-0.3977444,-0.36604977,0.06002345,-3.0789962,0.6231793,5.775676e-05,-0.090949565,0.026139745,0.0013316501,-0.0026438502,0.005306526,0.027223945,0.49280035,-1.3719867,1.8921479,-2.0894063,-1.5708655,2.4666708,-0.12620844,0.10426846,-0.13208166,0.021865578,-0.00043035398,-0.15336567,-0.21068975,0.17238252,-9.270349,0.8314132,47.713753,-1.2302469,-2.4493432,-3.0457969,-0.20740846,0.009082474,-0.2379522,28.9375,30.375,29.375,33.0,35.4375,36.5
0.19605492,0.09706145,0.13383596,-0.47460553,-0.026850065,0.08844352,-0.18763602,-0.39792243,-0.36601713,0.060046185,-3.0790634,0.6230362,0.00012728076,-0.092054665,0.027091954,0.0012367526,-0.002523242,0.0050431406,0.02854032,0.49258402,-1.3718064,1.8918732,-2.08937,-1.5708655,2.4663568,-0.12877174,0.104963906,-0.13277514,0.022152085,-0.00040282094,-0.1572451,-0.2681506,0.038307227,-9.385271,0.8179876,47.70211,-1.0896423,-2.450511,-3.1387844,-0.20182793,0.008960465,-0.16882259,28.9375,30.375,29.375,33.0,35.4375,36.5
0.19805543,-0.42963913,0.37409693,-0.32395282,-0.035387956,0.09064239,-0.1834303,-0.39811063,-0.36595026,0.06003818,-3.079035,0.62301123,9.366305e-05,-0.09188701,0.027504021,0.0004807119,-0.0016853699,0.0034240051,0.027427051,0.49230832,-1.3715659,1.8915862,-2.089286,-1.5708774,2.4660692,-0.12926774,0.10609613,-0.1325286,0.022594362,-0.00037860053,-0.15662786,-0.53630114,0.05746084,-9.461885,0.8112748,47.701214,-1.0552232,-2.3421054,-3.1587393,-0.1905946,-0.0053558694,-0.12972018,28.9375,30.375,29.375,33.0,35.4375,36.5
0.20005484,-1.0581087,-0.09427922,-0.31537098,-0.020303365,0.09293013,-0.15829538,-0.39830008,-0.36590073,0.06002428,-3.0790617,0.62298363,4.3651038e-05,-0.09436372,0.028549409,0.0013029324,-0.002544088,0.004969533,0.018180462,0.4920313,-1.3713135,1.8913091,-2.0892503,-1.5708417,2.4657717,-0.13321674,0.10659155,-0.1350787,0.0228874,-0.00035712784,-0.15132932,-0.7469909,-0.076614454,-9.385271,0.8179876,47.717335,-1.0076324,-2.3855734,-2.9846618,-0.17962128,-0.01573885,-0.21371362,28.9375,30.375,29.375,33.0,35.4375,36.5
0.20205486,-0.9648549,-0.0686822,-0.58389115,-0.0012553809,0.111355714,-0.15909629,-0.3984566,-0.36583337,0.060005456,-3.0790658,0.62284946,-2.9446923e-05,-0.0940301,0.027481789,0.0011088608,-0.0023658895,0.0045793494,0.015069933,0.49176902,-1.3711089,1.8910946,-2.0891902,-1.5708297,2.4654253,-0.13108248,0.108177826,-0.13663937,0.023292232,-0.00033796372,-0.14608377,-0.51714754,-0.05746084,-9.404425,0.7978386,47.694946,-1.250295,-2.362317,-3.2967606,-0.16770242,0.001585239,-0.2514369,28.9375,30.375,29.375,33.0,35.4375,36.5
0.20405486,-1.169904,1.030996,-0.5388878,-0.003277941,0.1047052,-0.1753815,-0.39865202,-0.36580545,0.060010392,-3.0791008,0.6228186,5.1480063e-05,-0.09414171,0.028679704,0.0005635624,-0.0018748222,0.0036522232,0.010907337,0.49155265,-1.3708683,1.890797,-2.0891907,-1.5708417,2.4651854,-0.13314351,0.10787765,-0.13500027,0.023000985,-0.00032075052,-0.14398298,-0.6895301,-0.17238252,-9.481039,0.82022345,47.681515,-1.0930487,-2.37587,-3.2922232,-0.16412383,-0.013343037,-0.30084205,28.9375,30.375,29.375,33.0,35.4375,36.5
0.2060547,-1.0680227,0.83880705,-0.35112527,0.010628891,0.10725737,-0.17199662,-0.39885697,-0.36573756,0.060022894,-3.0791109,0.62283903,7.6708915e-05,-0.09473781,0.028638594,-0.000898624,-0.00090634206,0.0018086716,0.009872909,0.49125326,-1.3706627,1.89051,-2.0891306,-1.5708417,2.4648976,-0.1335582,0.11196739,-0.13644207,0.022435497,-0.00030520657,-0.14336206,-0.78529817,-0.19153613,-9.3661175,0.8314132,47.73077,-1.2588606,-2.4197876,-3.2868824,-0.14327571,-0.017193064,-0.33288527,28.9375,30.375,29.375,33.0,35.4375,36.5
0.20805356,-0.69454515,1.1746835,-0.41313392,0.022322126,0.10528369,-0.17477259,-0.39905047,-0.36568627,0.060036402,-3.0791638,0.6228304,0.00011075407,-0.095954604,0.02919548,0.001102352,-0.0027217113,0.0052534565,0.007946275,0.49097726,-1.3704721,1.8902467,-2.0891068,-1.5708174,2.4646096,-0.13551442,0.10847952,-0.13685437,0.022445485,-0.00032180778,-0.14339209,-0.7086837,-0.21068975,-9.404425,0.84708,47.723602,-1.1834882,-2.3373055,-3.3590076,-0.12118127,-0.02731346,-0.38501617,28.9375,30.375,29.375,33.0,35.4375,36.5
0.21005344,-0.16589922,1.3223908,-0.4200061,0.026449436,0.09466215,-0.1754151,-0.3992619,-0.36562338,0.06003165,-3.0791535,0.6228657,0.00013413998,-0.09796911,0.030786939,-0.0005482016,-0.0009939932,0.0020104256,0.0064848904,0.49068838,-1.3702179,1.8899463,-2.08907,-1.5708297,2.4643443,-0.13993986,0.11358958,-0.13949145,0.023644993,-0.00031727843,-0.14635448,-0.53630114,-0.2681506,-9.423578,0.8537928,47.716442,-1.1215683,-2.501867,-3.4460092,-0.10222785,-0.035958398,-0.3768696,28.9375,30.375,29.375,33.0,35.4375,36.5
0.21205598,-0.2748658,1.4580317,-0.50081164,0.022309648,0.074296296,-0.18240093,-0.3994185,-0.3655536,0.060002215,-3.0791035,0.6227922,4.1761356e-05,-0.0960144,0.031116966,-0.0009441192,-1.6845563e-06,-3.2326217e-05,0.014193524,0.49043718,-1.3699785,1.8897089,-2.0889862,-1.5708417,2.4640536,-0.13872851,0.1117191,-0.13669051,0.024981078,-0.00023365198,-0.15285341,-0.51714754,-0.28730422,-9.423578,0.77545905,47.704796,-1.1779935,-2.2935865,-3.518313,-0.082969874,-0.030806132,-0.34668925,28.9375,30.375,29.375,33.0,35.4375,36.5
0.21405429,0.034639563,1.1168619,-0.4161688,0.029384298,0.07339086,-0.17774834,-0.39964622,-0.36546254,0.05999878,-3.0790882,0.6227642,8.9702036e-05,-0.09818719,0.031702977,-0.00033335967,-0.00033394038,0.00066670607,0.020914083,0.49010107,-1.3697376,1.8894213,-2.08895,-1.5708774,2.4637022,-0.14157146,0.11327545,-0.14023189,0.026186222,-0.00027341014,-0.16241542,-0.5746084,-0.22984336,-9.423578,0.83813137,47.716442,-0.9857943,-2.323845,-3.4146466,-0.09892742,-0.041852795,-0.26473036,28.9375,30.375,29.375,33.0,35.4375,36.5
0.2160542,-0.15958866,0.94127053,-0.4348165,0.030835185,0.079181895,-0.17584361,-0.39982432,-0.36540803,0.05999968,-3.0791047,0.62264544,7.409782e-05,-0.09936755,0.031798124,0.00058434485,-0.00094272493,0.001891123,0.029759504,0.48984906,-1.3695216,1.8891453,-2.0888774,-1.5708774,2.4633741,-0.1427059,0.11320926,-0.14247349,0.027125811,-0.00031752317,-0.17239448,-0.47884035,-0.2681506,-9.404425,0.8672237,47.71286,-1.1108427,-2.3047638,-3.456725,-0.072040424,-0.035838813,-0.13073558,28.9375,30.375,29.375,33.0,35.4375,36.5
0.21805395,-0.094448835,0.9241873,-0.6886295,0.028871102,0.08770095,-0.17478487,-0.4000256,-0.3653506,0.06000152,-3.0791652,0.62251997,5.144873e-05,-0.10024049,0.03221913,0.00046598288,0.00013957804,0.0017931062,0.03391382,0.4895496,-1.3692927,1.8888572,-2.0888293,-1.5708421,2.4629889,-0.14356628,0.11472014,-0.1442204,0.02796616,-0.0012262639,-0.17740701,-0.4213795,-0.095768064,-9.442732,0.84484416,47.704796,-1.166311,-2.1442745,-3.4169376,-0.07671493,-0.03483376,-0.059552535,28.9375,30.375,29.375,33.0,35.4375,36.5
0.22005449,-0.4913772,0.24666569,-0.64440376,0.008629145,0.08223702,-0.17025033,-0.40024486,-0.3652738,0.060017247,-3.0791683,0.62248385,0.00010121726,-0.100936614,0.032243732,0.0009909563,-6.183996e-05,0.002062924,0.028972793,0.4892381,-1.3690761,1.8885468,-2.0887573,-1.570866,2.4626546,-0.14419208,0.11504418,-0.1460974,0.029182296,-0.0011720356,-0.17309128,-0.4405331,-0.076614454,-9.500193,0.8873621,47.705692,-1.1711518,-2.257232,-3.4266398,-0.0804133,-0.033036437,-0.053006016,28.9375,30.375,29.375,33.0,35.4375,36.5
0.2220544,0.22921257,-0.7259373,-0.8313886,-0.008109188,0.09270606,-0.16761926,-0.4004501,-0.3652123,0.06001967,-3.0791962,0.62241596,0.0001264592,-0.10104699,0.032842726,-0.0006978978,0.0016690001,-0.0012833842,0.02135195,0.4889503,-1.3688471,1.8882598,-2.0887206,-1.570866,2.462321,-0.1452571,0.11862328,-0.14674388,0.030017445,-0.0011234669,-0.16653486,-0.36391866,0.076614454,-9.557653,0.8403672,47.709274,-1.1484406,-2.2366056,-3.4448042,-0.09790717,-0.0443132,-0.101724386,28.9375,30.375,29.375,33.0,35.4375,36.5
0.22405471,-0.19998974,-0.68570405,-0.9729501,-0.038611386,0.07325716,-0.16107191,-0.4006481,-0.36512834,0.060019106,-3.0791717,0.6224131,0.00010781842,-0.10188623,0.032713585,0.00014522595,0.00116824,-0.00042874756,0.014207154,0.4886389,-1.3686311,1.8879842,-2.0886362,-1.5708779,2.462011,-0.14574552,0.11864543,-0.14898814,0.031248584,-0.0010889983,-0.15987779,-0.36391866,0.19153613,-9.595961,0.85826975,47.70211,-1.1988095,-2.2758338,-3.430355,-0.091853544,-0.043342665,-0.19964471,28.9375,30.375,29.375,33.0,35.4375,36.5
0.22605442,0.0718032,-0.6760289,-0.90115833,-0.061704416,0.06767439,-0.17589347,-0.40085864,-0.36506787,0.060024984,-3.0791554,0.6223947,0.00012836921,-0.10301584,0.032889735,0.0002771404,0.0011582262,-0.00039640183,0.005491628,0.48836303,-1.368378,1.8876499,-2.0885527,-1.5709018,2.461726,-0.1469766,0.12011441,-0.1512369,0.03199252,-0.0010988155,-0.15239237,-0.2681506,0.28730422,-9.710882,0.8560339,47.7451,-1.2166284,-2.332146,-3.4101222,-0.08822815,-0.04680658,-0.29352355,28.9375,30.375,29.375,33.0,35.4375,36.5
0.22805372,-0.14224541,-1.4401736,-0.8814804,-0.06874693,0.05678271,-0.16627292,-0.40107912,-0.36499465,0.06002574,-3.0791883,0.62236273,0.00011732679,-0.103667565,0.03322438,-0.00017434661,0.0016964065,-0.0011621446,0.0014113236,0.48802766,-1.3681374,1.88735,-2.0885046,-1.5708779,2.4613667,-0.14797097,0.12186358,-0.15240571,0.032345183,-0.0012153997,-0.14930564,-0.24899697,0.49799395,-9.730036,0.8224646,47.705692,-1.2736098,-2.3287263,-3.4652553,-0.09435051,-0.035588242,-0.36067718,28.9375,30.375,29.375,33.0,35.4375,36.5
0.23005387,-0.02676443,-1.4240811,-0.8898207,-0.073110014,0.06094242,-0.16515182,-0.40128195,-0.36490372,0.0600224,-3.0791194,0.6224455,0.000108169064,-0.10508541,0.033217363,0.00038835613,0.001636022,0.0005472557,-0.0019279378,0.4877156,-1.3679086,1.8870629,-2.0884092,-1.5709141,2.4611151,-0.14868957,0.1228254,-0.15484296,0.03227986,-0.0019745003,-0.14668274,-0.24899697,0.57460845,-9.634268,0.8537928,47.687782,-1.2053668,-2.2804635,-3.274445,-0.083405234,-0.03127247,-0.4601946,28.9375,30.375,29.375,33.0,35.4375,36.5
0.23205373,0.3263497,-1.2293438,-0.85632604,-0.06582461,0.07528913,-0.16659188,-0.40152693,-0.36486095,0.060043514,-3.0791876,0.6224785,0.00015822626,-0.10873423,0.03465253,0.00100583,0.000789226,0.002478858,-0.0044694575,0.48740238,-1.3676438,1.8866905,-2.088373,-1.5708784,2.460814,-0.1541775,0.12480266,-0.15855351,0.03191483,-0.002129559,-0.14962739,0.0,0.53630114,-9.634268,0.83813137,47.683304,-1.0015751,-2.3936615,-3.1822686,-0.0749412,-0.023344047,-0.48766276,28.9375,30.375,29.375,33.0,35.4375,36.5
0.23405367,-0.19227326,-1.2279884,-0.77754426,-0.05623152,0.047903415,-0.16587804,-0.4017492,-0.36479983,0.060058042,-3.0792003,0.62243414,0.0002218089,-0.10903754,0.034637377,0.00077437435,0.0007532615,0.002153405,0.005017747,0.48711532,-1.3674033,1.8863567,-2.0883133,-1.5709018,2.4604979,-0.15445863,0.12579529,-0.1592283,0.031861387,-0.0019411151,-0.15939571,0.038307227,0.47884035,-9.557653,0.8605109,47.678825,-1.0940619,-2.2856216,-3.2176218,-0.06417962,-0.029988274,-0.45177436,28.9375,30.375,29.375,33.0,35.4375,36.5
0.23605436,0.49577615,-1.0575038,-0.8363642,-0.053797863,0.03723196,-0.1741468,-0.4019966,-0.36473387,0.060071547,-3.07924,0.6224162,0.0003188774,-0.11029811,0.03522567,0.00067216036,0.00096183765,0.0014848792,0.015244401,0.48679113,-1.3671503,1.886021,-2.088301,-1.5709141,2.4601576,-0.15656658,0.12755863,-0.16137257,0.03292552,-0.0018018903,-0.1717297,0.095768064,0.40222588,-9.5385,0.84484416,47.694946,-0.9871577,-2.3883529,-3.225414,-0.055493027,-0.048509806,-0.35353172,28.9375,30.375,29.375,33.0,35.4375,36.5
0.23805381,0.21771221,-0.18432426,-0.40005097,-0.072836034,0.013025085,-0.18335712,-0.4021913,-0.36466193,0.06003996,-3.0792205,0.62227064,0.00025496678,-0.11080351,0.035283167,-5.7660305e-05,0.0014901918,-0.00015865269,0.025236854,0.4865038,-1.3668613,1.885734,-2.0882409,-1.5709261,2.4597821,-0.15722035,0.13018225,-0.16305564,0.03367924,-0.0015123475,-0.18237531,-0.05746084,0.5363012,-9.404425,0.8090337,47.690468,-1.1581936,-2.3472571,-3.0596876,-0.08862753,-0.0380636,-0.24284792,28.9375,30.375,29.375,33.0,35.4375,36.5
0.24005437,0.5053856,-0.63920265,-0.5671018,-0.03970185,0.025672529,-0.16009484,-0.4024511,-0.36458626,0.060066406,-3.0792654,0.6222749,0.0003396013,-0.111223936,0.03403134,-0.00018897095,0.0014298338,-0.00016949927,0.032829266,0.486145,-1.3666202,1.8853749,-2.0881932,-1.5709261,2.4594204,-0.15543896,0.13295873,-0.16617735,0.034004133,-0.001446813,-0.188185,0.019153614,0.4213795,-9.346964,0.84708,47.70659,-1.1227425,-2.4079735,-3.1943605,-0.052789625,-0.0426076,-0.18072401,28.9375,30.375,29.375,33.0,35.4375,36.5
0.2420536,0.5868853,-0.24210985,-0.34861687,-0.017115002,0.035985626,-0.16615874,-0.4026568,-0.3645257,0.060061492,-3.0792873,0.62218416,0.00028446928,-0.11142789,0.03514739,0.00024901496,0.0012001278,0.00018602016,0.028207088,0.48584494,-1.3663564,1.8850516,-2.0881088,-1.5709018,2.4590611,-0.15743245,0.13091512,-0.16482313,0.034276526,-0.0014113096,-0.18555726,0.095768064,0.34476504,-9.404425,0.7866488,47.689575,-1.0459546,-2.4247212,-3.232543,-0.04505331,-0.03314926,-0.16198206,28.9375,30.375,29.375,33.0,35.4375,36.5
0.24405387,0.36332974,0.09622065,0.04440456,-0.019860348,0.041997757,-0.17855291,-0.4028825,-0.3644322,0.06004212,-3.0792427,0.62217826,0.00028717425,-0.11145637,0.036052942,-0.0013811704,0.00338279,-0.0036326635,0.02053782,0.48550925,-1.366079,1.8847531,-2.0880606,-1.570938,2.4587276,-0.15880007,0.13424113,-0.16553344,0.03605164,-0.0015626629,-0.17925477,-0.019153614,0.2681506,-9.308657,0.842603,47.704796,-1.15483,-2.4724324,-3.3430967,-0.04800725,-0.046924897,-0.2177154,28.9375,30.375,29.375,33.0,35.4375,36.5
0.24605401,0.42256963,0.2595372,0.17082809,-0.012466572,0.04129913,-0.17325774,-0.4031271,-0.3643947,0.060092654,-3.0793216,0.6221374,0.00038910174,-0.11245835,0.03671993,-0.0007964384,0.0033100597,-0.0034518759,0.01474658,0.48522124,-1.3658508,1.8843464,-2.0879762,-1.5709261,2.4584043,-0.16071354,0.1341439,-0.16710687,0.037531126,-0.0015677648,-0.17537674,-0.076614454,0.15322891,-9.11712,0.85826975,47.703007,-1.0985937,-2.5284157,-3.3452415,-0.08289975,-0.046471953,-0.30131623,28.9375,30.375,29.375,33.0,35.4375,36.5
0.24805452,0.84323007,0.91935444,0.17686349,0.0037922615,0.032185223,-0.17224154,-0.40334624,-0.36433372,0.06006644,-3.0793498,0.6220101,0.00033179097,-0.11269903,0.038108476,-0.001705896,0.0050201504,-0.0068561025,0.010282011,0.48490903,-1.3655381,1.8840235,-2.0879395,-1.5709018,2.4580092,-0.16321495,0.13583563,-0.16772501,0.04027048,-0.0014952415,-0.17341343,-0.095768064,-0.05746084,-9.097966,0.8112748,47.690468,-1.065827,-2.4006538,-3.29641,-0.08070687,-0.039570242,-0.32909366,28.9375,30.375,29.375,33.0,35.4375,36.5
0.25005448,0.89095354,1.0492675,0.21005595,0.02446832,0.01554905,-0.17087704,-0.40356225,-0.3642481,0.060082708,-3.079338,0.62202454,0.00031434363,-0.11363371,0.038448684,-0.0010771421,0.0050152186,-0.0066104666,0.009403312,0.48457345,-1.3653219,1.8837007,-2.0878189,-1.5709018,2.4576843,-0.16445921,0.13607194,-0.16983645,0.041925978,-0.0016112549,-0.17377816,0.05746084,-0.17238252,-9.059659,0.8784135,47.691364,-1.0164404,-2.4141467,-3.3322034,-0.109519154,-0.03984589,-0.3588699,28.9375,30.375,29.375,33.0,35.4375,36.5
0.25205427,1.1266758,1.6986042,0.4828243,0.030028453,0.025034685,-0.18055475,-0.4037674,-0.36417618,0.06005117,-3.079324,0.62184507,0.0002784746,-0.11452049,0.038958974,-0.0020537823,0.0057332846,-0.0078046964,0.012682615,0.48428553,-1.3650203,1.8834008,-2.0877717,-1.5709261,2.4572864,-0.16596681,0.13884829,-0.17090705,0.041606326,-0.0017043597,-0.17856407,-0.095768064,-0.2681506,-8.887277,0.800085,47.686886,-0.99023086,-2.4714472,-3.3299813,-0.12561215,-0.046689883,-0.367262,28.9375,30.375,29.375,33.0,35.4375,36.5
0.25405532,0.5316519,1.6661073,0.3684674,0.0548909,0.028660633,-0.17780879,-0.40401602,-0.36411119,0.060069185,-3.0793543,0.6219231,0.00024412911,-0.11652526,0.038558673,0.00042434974,0.0035841304,-0.003071107,0.018794436,0.4839263,-1.364745,1.883006,-2.087664,-1.5708779,2.4569721,-0.1667812,0.13686521,-0.17422126,0.041721947,-0.0020121406,-0.18548904,-0.15322891,-0.36391866,-8.829816,0.82022345,47.704796,-1.1343226,-2.3261094,-3.3335953,-0.11885275,-0.034199305,-0.3129564,28.9375,30.375,29.375,33.0,35.4375,36.5
0.2560538,-0.16927443,1.7176559,0.30351537,0.073002,0.038167447,-0.17728296,-0.40425476,-0.36403283,0.060081277,-3.0793815,0.6218044,0.00028115217,-0.11487584,0.038977012,-8.501586e-05,0.0059481566,-0.006460109,0.031226948,0.48359117,-1.3644927,1.8826598,-2.0875905,-1.5708908,2.4565597,-0.16561697,0.13668056,-0.17373359,0.045515712,-0.0025159304,-0.19675723,-0.17238252,-0.2681506,-8.90643,0.88960326,47.70211,-1.1607754,-2.3578649,-3.4042182,-0.15221962,-0.04428439,-0.18642761,28.9375,30.375,29.375,33.0,35.4375,36.5
0.25805354,-0.6570734,1.7542548,0.43208206,0.06386243,0.04915391,-0.17562804,-0.4044526,-0.36397177,0.060080662,-3.0794058,0.6216327,0.00017030847,-0.11613875,0.039408658,0.00040762316,0.0062398203,-0.00657452,0.03618424,0.4832912,-1.364228,1.8823117,-2.087446,-1.5708545,2.4561496,-0.16724229,0.13776268,-0.17665078,0.04759416,-0.0027368574,-0.20333833,-0.2873042,-0.21068975,-8.944737,0.7777002,47.690468,-1.1156125,-2.143514,-3.2455554,-0.1882523,-0.064237505,-0.094709106,28.9375,30.375,29.375,33.0,35.4375,36.5
0.260054,-1.0368077,1.4510854,0.10230272,0.045481578,0.055885475,-0.17297962,-0.40468872,-0.36386997,0.060067605,-3.0793433,0.62154204,0.00019501033,-0.11716777,0.039594524,0.00079035223,0.0067287255,-0.0062341685,0.034856252,0.48295575,-1.3639396,1.881977,-2.0873616,-1.5709265,2.4557657,-0.16800268,0.13885637,-0.1791683,0.04893059,-0.0033409065,-0.2027688,-0.4405331,-0.30645782,-9.136273,0.8247004,47.698532,-1.2698363,-2.1147919,-3.2198224,-0.21476337,-0.030796021,-0.049687155,28.9375,30.375,29.375,32.9375,35.4375,36.5
0.26205388,-0.2455096,1.1226429,-0.175815,0.017668387,0.0891978,-0.17772178,-0.40491104,-0.36379832,0.060065724,-3.0793395,0.62144816,0.00012333297,-0.11795967,0.040194325,0.000941137,0.008079133,-0.006193394,0.028663399,0.48263225,-1.3636509,1.8816055,-2.0872295,-1.5709156,2.4553843,-0.16886325,0.13972373,-0.18092099,0.050413363,-0.0045689405,-0.19743389,-0.6703765,-0.17238253,-9.289503,0.8090337,47.675243,-1.2813591,-2.1303692,-3.0934281,-0.25253725,-0.009508497,-0.116303876,28.9375,30.375,29.375,32.9375,35.4375,36.5
0.26405355,-1.1694459,-0.17618221,-0.33545724,0.0007741361,0.094747834,-0.17566301,-0.4051044,-0.3637101,0.060029425,-3.0793,0.62140685,-8.868318e-05,-0.119510815,0.04169451,0.00039670573,0.009670406,-0.0072016846,0.016082274,0.48228386,-1.3633499,1.8812946,-2.0870855,-1.5708674,2.4550152,-0.1720684,0.14191361,-0.18260461,0.051551346,-0.0055401553,-0.18805489,-0.7278373,-0.019153614,-9.442732,0.8560339,47.687782,-1.3289131,-2.1133707,-3.2276592,-0.2900542,0.008867692,-0.21308921,28.9375,30.375,29.375,32.9375,35.4375,36.5
0.26605397,-1.2585659,-0.6224064,-0.7370369,-0.019689823,0.10091877,-0.17049743,-0.40535396,-0.36362156,0.06004398,-3.0792718,0.62136406,-7.081078e-05,-0.119279526,0.04169616,-0.0001870919,0.010393666,-0.007853521,0.00991925,0.48193702,-1.3630732,1.8809003,-2.0869539,-1.5709032,2.4546454,-0.17155626,0.14291887,-0.18246438,0.05131263,-0.0058842436,-0.18137904,-0.7661445,0.1340753,-9.615114,0.9030289,47.709274,-1.4443798,-2.1608293,-3.3220155,-0.33917192,0.01113392,-0.29996878,28.9375,30.375,29.375,32.9375,35.4375,36.5
0.26805416,-1.3253655,-0.7646585,-0.9741486,-0.046214223,0.11310505,-0.17740214,-0.40559644,-0.36350703,0.06002598,-3.0791843,0.6214247,-0.00012502055,-0.12009805,0.041840937,-0.0006719539,0.010225767,-0.008283975,0.0036307045,0.4815534,-1.3627723,1.8805536,-2.0868347,-1.5709394,2.454311,-0.17262429,0.14485598,-0.18361302,0.050819136,-0.0055561657,-0.17615798,-0.80445176,0.17238252,-9.825804,0.8112748,47.69763,-1.3351014,-2.172143,-3.2711458,-0.3478077,0.02006875,-0.42073786,28.9375,30.375,29.375,32.9375,35.4375,36.5
0.27005407,-1.5988368,-1.1322645,-0.9632727,-0.07130024,0.10437389,-0.17852138,-0.405821,-0.36343232,0.06001998,-3.0791721,0.621363,-0.0001742791,-0.12029142,0.041969445,-0.0021620155,0.010990608,-0.011278528,0.0030810183,0.48122996,-1.3624827,1.8801955,-2.086727,-1.570939,2.4539506,-0.17334664,0.14849086,-0.18473789,0.051313486,-0.0048602666,-0.17633079,-0.8236054,0.22984336,-9.825804,0.88960326,47.65912,-1.4051387,-2.2928562,-3.3468447,-0.40892425,0.016618362,-0.4659834,28.9375,30.375,29.375,32.9375,35.4375,36.5
0.272054,-1.6749312,-1.1895336,-0.9719351,-0.07937336,0.105671704,-0.19350067,-0.40609348,-0.36335182,0.060036905,-3.0791755,0.6213369,-0.000120562734,-0.12220672,0.040587757,-0.00038140453,0.0064009004,-0.0051242537,0.013057422,0.48086974,-1.3621832,1.8797768,-2.086633,-1.5709628,2.453574,-0.17334338,0.14703728,-0.18596873,0.04640617,-0.0036557044,-0.18630572,-0.7086837,0.2681506,-9.710882,0.8806493,47.66808,-1.4736638,-2.2193143,-3.3829505,-0.3955376,0.01743594,-0.45998013,28.9375,30.375,29.375,32.9375,35.4375,36.5
0.2740546,-1.7898403,-1.2261152,-1.1911492,-0.08086936,0.10229485,-0.19055425,-0.40632686,-0.36325762,0.060023885,-3.0791326,0.6212634,-0.00017260581,-0.12391845,0.040583953,-0.0009962306,0.0048390785,-0.0040065087,0.025180118,0.48052114,-1.3618821,1.8794183,-2.0865142,-1.5709866,2.453185,-0.17526038,0.14956807,-0.18689694,0.043078374,-0.0028161306,-0.20034586,-0.38307226,0.2681506,-9.844957,0.8493211,47.689575,-1.4525416,-2.212943,-3.3943193,-0.3663568,0.017549044,-0.3526841,28.9375,30.375,29.375,32.9375,35.4375,36.5
0.27605614,-0.9319538,-1.3202684,-1.070709,-0.07376362,0.10035287,-0.18628874,-0.40657458,-0.3631882,0.060023837,-3.0791879,0.6211554,-0.00017122217,-0.12503222,0.041459452,-0.002941308,0.005184437,-0.005894234,0.032247547,0.4801722,-1.3615923,1.8790601,-2.0864675,-1.5709623,2.452762,-0.17794392,0.15353227,-0.18676573,0.040816646,-0.0022563185,-0.21009725,-0.19153613,0.30645782,-9.9790325,0.94331104,47.67793,-1.3474404,-2.3839955,-3.49899,-0.3630233,-0.0012355408,-0.21215394,28.9375,30.375,29.375,32.9375,35.4375,36.5
0.27805385,-0.80384785,-1.3314483,-1.0107956,-0.065051906,0.05997435,-0.18740858,-0.40684167,-0.36308092,0.060019817,-3.0791745,0.6210751,-0.00011047941,-0.12749559,0.042198572,-0.002737435,0.0037647493,-0.004583067,0.032199986,0.47978714,-1.3613032,1.8787116,-2.0864198,-1.57101,2.4523287,-0.18162659,0.1551994,-0.18898009,0.03953146,-0.0016115771,-0.21373248,-0.34476507,0.34476504,-9.921572,0.8627467,47.661808,-1.3695335,-2.4784951,-3.4049602,-0.36102408,0.0012905161,-0.15127358,28.9375,30.375,29.375,32.9375,35.4375,36.5
0.28005403,-0.4220287,-0.6565324,-0.91516924,-0.07242662,0.04878017,-0.18404135,-0.40709135,-0.36301118,0.060022295,-3.0791996,0.62098706,-9.8600845e-05,-0.12851563,0.04162164,-0.0026942873,0.0023950364,-0.0027803776,0.027338715,0.4794512,-1.3610027,1.8783292,-2.0863483,-1.57101,2.4519348,-0.18167706,0.15642086,-0.19004801,0.037146285,-0.0012340986,-0.20892173,-0.45968673,0.3256114,-9.787497,0.90527004,47.68599,-1.3540175,-2.3958025,-3.507244,-0.33718425,0.006094506,-0.1724072,28.9375,30.375,29.375,32.9375,35.4375,36.5
0.28205398,0.17050326,-0.69272244,-1.1398567,-0.045820966,0.04260648,-0.18683569,-0.4073824,-0.36292392,0.06002265,-3.0792227,0.6209955,-8.300728e-05,-0.13031867,0.041713502,-0.0021835063,0.00074158894,0.00031691004,0.01844986,0.47904265,-1.3606664,1.8779114,-2.0862901,-1.5709981,2.4515288,-0.18330213,0.15672538,-0.19096811,0.034255143,-0.001197833,-0.2016576,-0.2681506,0.36391866,-9.730036,0.8851263,47.70838,-1.187849,-2.4807425,-3.5603132,-0.2878062,0.0022098853,-0.24575365,28.9375,30.375,29.375,32.9375,35.4375,36.5
0.2840537,0.09925154,-0.40105155,-0.66156083,-0.060086872,0.04995599,-0.18711005,-0.4076613,-0.36286578,0.060046997,-3.079309,0.6209199,2.060354e-05,-0.13257979,0.042019203,-0.002446175,-6.1157545e-05,0.0017821058,0.0120284045,0.47869378,-1.3603777,1.8775042,-2.0862668,-1.5709862,2.451122,-0.18569821,0.15946189,-0.19321044,0.032093793,-0.0011503292,-0.19763112,-0.17238252,0.24899697,-9.557653,0.8672237,47.70659,-1.1162777,-2.4547625,-3.543065,-0.26233238,0.018696943,-0.34303445,28.9375,30.375,29.375,32.9375,35.4375,36.5
0.28605333,-0.12076686,-0.31577104,-0.378424,-0.04907966,0.04530301,-0.18574242,-0.4079207,-0.36278918,0.060043868,-3.0793386,0.6209652,-2.805853e-05,-0.13471279,0.042233426,-0.001279308,-0.0014536311,0.004175905,0.009182613,0.47830912,-1.3600662,1.8771209,-2.0861948,-1.570938,2.450762,-0.18787736,0.15973938,-0.19623642,0.03208521,-0.0010219417,-0.19696365,-0.19153613,0.15322891,-9.461885,0.88960326,47.698532,-1.1128688,-2.4113882,-3.5932236,-0.23396933,3.962533e-05,-0.35954237,28.9375,30.375,29.375,32.9375,35.4375,36.5
0.2880532,-0.015021715,0.014102568,-0.4221167,-0.023510117,0.0491795,-0.18689735,-0.40819648,-0.36268815,0.0600389,-3.0793185,0.6208263,2.8889812e-05,-0.13641761,0.04295429,-0.0017945084,-0.0011923526,0.0033883485,0.009955109,0.4779357,-1.3597416,1.876726,-2.0861232,-1.5709981,2.4503047,-0.19052835,0.16267659,-0.19872479,0.032442573,-0.0008955473,-0.20038612,-0.19153613,0.15322891,-9.423578,0.83589023,47.68062,-1.0163122,-2.5201392,-3.4206698,-0.21629652,-0.010284827,-0.3969108,28.9375,30.375,29.375,32.9375,35.4375,36.5
0.2900541,0.33754703,0.75947565,-0.033521067,-0.005692239,0.061047576,-0.20164587,-0.40848503,-0.36261654,0.060065668,-3.0794106,0.6208384,5.7034104e-05,-0.1392477,0.043041587,0.0006441361,-0.0039169686,0.008353667,0.018134896,0.47752717,-1.3594543,1.8763064,-2.0860631,-1.570938,2.4498923,-0.19308959,0.16109523,-0.20228548,0.03193191,-0.000752034,-0.21112648,-0.038307227,0.0,-9.385271,0.86498255,47.711964,-1.0054526,-2.376695,-3.3751905,-0.19837183,0.00236387,-0.3159215,28.9375,30.375,29.375,32.9375,35.4375,36.5
0.2920536,-0.0059972946,0.8929375,-0.081189066,0.023534812,0.044961296,-0.19194739,-0.40876392,-0.36253247,0.060050927,-3.079389,0.6207486,0.0001286151,-0.13978952,0.042135075,0.0011996907,-0.004827369,0.009877906,0.031906743,0.4771797,-1.3590945,1.8758992,-2.086027,-1.5709976,2.4494917,-0.19198291,0.16170295,-0.20422813,0.031478584,-0.00064438314,-0.22379114,-0.1340753,-0.038307227,-9.270349,0.8560339,47.675243,-1.1270579,-2.3149898,-3.2934995,-0.1795921,-0.0018160681,-0.19164726,28.9375,30.375,29.375,32.9375,35.4375,36.5
0.29405317,-0.19460168,1.0249704,-0.16572252,0.02712006,0.041373994,-0.18575919,-0.40902305,-0.36245957,0.060054053,-3.0794766,0.6205926,8.380658e-05,-0.1409296,0.042505056,0.0010674108,-0.004903294,0.009855374,0.03463638,0.47679517,-1.3587942,1.8755149,-2.0859554,-1.5709375,2.448999,-0.19351606,0.16329314,-0.20590267,0.031560473,-0.00056348334,-0.22805332,-0.11492168,-0.095768064,-9.251195,0.84484416,47.666286,-1.048949,-2.2926767,-3.2077897,-0.13143095,0.0031433313,-0.12446193,28.9375,30.375,29.375,32.9375,35.4375,36.5
0.29605398,-0.1360674,0.7458607,-0.22148228,0.023158763,0.041374903,-0.18057401,-0.4093098,-0.36238208,0.06005961,-3.0795217,0.62043136,0.00013585402,-0.1409448,0.04277829,0.00011474964,-0.0033982417,0.0068317596,0.028441407,0.4764232,-1.3584573,1.8750833,-2.0858943,-1.5709494,2.448521,-0.19389117,0.16611396,-0.20771965,0.03393214,-0.0005006564,-0.22223273,-0.3256114,-0.038307227,-9.32781,0.86945957,47.698532,-1.076827,-2.3530293,-3.2258186,-0.107854605,-0.016048301,-0.10025305,28.9375,30.375,29.375,32.9375,35.4375,36.5
0.29805323,-0.40015164,0.62825197,-0.15251605,0.0038908923,0.047806088,-0.17968388,-0.4095944,-0.36228737,0.06007122,-3.0795121,0.62041515,0.00020023155,-0.14177856,0.04158022,0.0023393754,-0.00499822,0.009835201,0.020426478,0.47603944,-1.3581465,1.8746642,-2.08581,-1.5709857,2.4481285,-0.19250582,0.16469072,-0.21151039,0.03573753,-0.00045045494,-0.21283163,-0.49799395,-0.05746084,-9.289502,0.80679786,47.70032,-1.2250845,-2.2117698,-3.227634,-0.10119407,-0.03512258,-0.20113355,28.9375,30.375,29.375,32.9375,35.4375,36.5
0.3000541,-0.30579525,0.6024811,-0.13459204,-0.008816229,0.08168991,-0.191107,-0.40987682,-0.3621946,0.06007241,-3.0795171,0.62039965,0.00017189722,-0.14116323,0.041867137,0.0023461548,-0.004176851,0.008252534,0.012536641,0.4756316,-1.3578109,1.8742331,-2.0857017,-1.5709738,2.4477105,-0.19231533,0.16438343,-0.21172963,0.038051665,-0.00044893482,-0.20475152,-0.5746084,-0.038307227,-9.32781,0.8940802,47.686886,-1.39967,-2.1872537,-3.3464127,-0.105144195,-0.011733327,-0.33447373,28.9375,30.375,29.375,32.9375,35.4375,36.5
0.30205408,-0.8065871,0.092704974,-0.26659468,-0.0010716107,0.08343981,-0.18465053,-0.4101448,-0.36211583,0.060065847,-3.0795357,0.6203499,0.00015562012,-0.14061761,0.0427205,0.0016782018,-0.002946161,0.005876794,0.0046571917,0.47525975,-1.3574749,1.8738273,-2.0856292,-1.5709614,2.4473054,-0.19314215,0.1646848,-0.21100035,0.03970076,-0.0004475187,-0.19769932,-0.4213795,0.05746084,-9.346964,0.8403672,47.687782,-1.5248643,-2.0951796,-3.289856,-0.12618728,-0.008792154,-0.42381877,28.9375,30.375,29.375,32.9375,35.4375,36.5
0.30405366,-0.93273467,0.14688352,-0.19479598,-0.017434949,0.080333985,-0.18739496,-0.41044974,-0.36200225,0.06006349,-3.0794904,0.62043685,0.000191163,-0.14206631,0.042107534,0.002606669,-0.0035831982,0.0071695116,0.004324951,0.4748276,-1.357127,1.8733948,-2.0855453,-1.5709976,2.4469335,-0.19320998,0.16615234,-0.21522129,0.04100632,-0.00047518703,-0.19743334,-0.17238252,0.0,-9.500193,0.91198283,47.690468,-1.5270283,-2.0928612,-3.3218408,-0.11806304,-0.020009834,-0.5174612,28.9375,30.375,29.375,32.9375,35.4375,36.5
0.3060534,-0.4953339,0.090098426,-0.44141707,-0.023461685,0.07015771,-0.18794546,-0.4107385,-0.361936,0.060095638,-3.0795836,0.62027514,0.00030627384,-0.14297964,0.043498065,0.0018714062,-0.002676568,0.005501807,0.013032629,0.4744668,-1.3568386,1.8729638,-2.0854971,-1.5709976,2.4464602,-0.1961761,0.16773133,-0.21566884,0.04176988,-0.0004968237,-0.20910689,-0.13407528,0.0,-9.423578,0.8806493,47.683304,-1.4232919,-2.0582175,-3.406005,-0.10758217,-0.014702471,-0.4572469,28.9375,30.375,29.375,32.9375,35.4375,36.5
0.3080537,0.09751125,-0.17229804,-0.40707132,-0.006982154,0.05124169,-0.1862984,-0.4110218,-0.36182836,0.06007824,-3.0795572,0.62029946,0.00023279851,-0.14284834,0.044369146,0.00065892783,-0.0014194119,0.0030091163,0.026896907,0.47403443,-1.3564786,1.8725451,-2.085389,-1.5709857,2.4460466,-0.19738884,0.16943401,-0.21515477,0.042343777,-0.0004827874,-0.22418399,-0.1340753,0.05746084,-9.442732,0.91421866,47.688675,-1.3366208,-2.20831,-3.3636856,-0.10361076,-0.0387475,-0.32113737,28.9375,30.375,29.375,32.9375,35.4375,36.5
0.31005344,0.1650382,0.00932323,-0.63672996,-0.010386003,0.031047361,-0.18591744,-0.41132295,-0.36175925,0.06009915,-3.0796168,0.6201342,0.00034158348,-0.14355193,0.045337636,-0.0007444925,-0.0001532994,0.0005022881,0.035220142,0.47367325,-1.3561416,1.8720783,-2.0853293,-1.5710095,2.445575,-0.19949588,0.17260791,-0.21593913,0.04275459,-0.00044905904,-0.23461372,-0.076614454,0.076614454,-9.519346,0.8851263,47.695843,-1.217813,-2.277584,-3.425884,-0.07731366,-0.04008139,-0.20524412,28.9375,30.375,29.375,32.9375,35.4375,36.5
0.31205404,0.6876325,-0.34104162,-0.59616953,-0.0048078476,0.039511736,-0.17385605,-0.41159755,-0.3616625,0.06008376,-3.0796437,0.62002444,0.00025943562,-0.14524348,0.04587163,-0.0011657289,2.3906687e-05,0.00030011634,0.033345196,0.47325268,-1.355793,1.8716716,-2.0852334,-1.5709738,2.4450827,-0.201661,0.17542985,-0.21842489,0.042687856,-0.0005289119,-0.23490256,-0.13407528,0.1340753,-9.5385,0.83813137,47.667187,-1.1857594,-2.2675376,-3.4384425,-0.06011173,-0.020752955,-0.14181815,28.9375,30.375,29.375,32.9375,35.4375,36.5
0.3140537,0.33535093,-0.19650632,-0.5682881,-0.0141915465,0.030790064,-0.17145693,-0.41189915,-0.36157188,0.06010685,-3.079661,0.61995673,0.0003257177,-0.14607058,0.047278762,-0.0019496016,0.0016635753,-0.0014108281,0.022751141,0.472856,-1.3554686,1.8712038,-2.0851252,-1.5709981,2.4446418,-0.20417093,0.17724735,-0.21915576,0.043870073,-0.001200471,-0.22681715,-0.22984336,0.17238252,-9.423578,0.8403672,47.64121,-1.2127001,-2.386978,-3.5851145,-0.06701672,-0.03197503,-0.21579789,28.9375,30.375,29.375,32.9375,35.4375,36.5
0.31605345,0.30459607,-0.48427984,-0.5159305,-0.026993278,0.051185764,-0.18445513,-0.41220444,-0.3614775,0.060114563,-3.0796711,0.6199052,0.00032361492,-0.14734282,0.04842117,-0.0027016168,0.0025941725,-0.0027304625,0.013422622,0.4724353,-1.3551081,1.8707246,-2.0850055,-1.5709981,2.4441879,-0.20688346,0.17969419,-0.22059177,0.0444601,-0.0014319455,-0.2202001,-0.21068975,0.21068975,-9.442732,0.90750587,47.684196,-1.0988761,-2.3549848,-3.4275362,-0.06710704,-0.03495365,-0.3141207,28.9375,30.375,29.375,32.9375,35.4375,36.5
0.31805417,-0.5263793,-0.81154263,-0.5872019,-0.031810317,0.04559434,-0.18071015,-0.41248208,-0.36137867,0.06008901,-3.0796502,0.61984646,0.00028836567,-0.14865504,0.048734844,-0.0021972037,0.0020038171,-0.0019797832,0.008715889,0.4720385,-1.3547363,1.8703178,-2.084933,-1.57101,2.4437573,-0.20850046,0.18035187,-0.22270879,0.04497969,-0.0012607117,-0.21710989,-0.22984336,0.17238252,-9.500193,0.83589023,47.68062,-1.0935857,-2.3558695,-3.442702,-0.043118246,-0.021941861,-0.38657242,28.9375,30.375,29.375,32.9375,35.4375,36.5
0.3200541,-0.4721085,-0.8545331,-0.34810513,-0.043271165,0.061535098,-0.18438832,-0.41277105,-0.36126566,0.0600956,-3.07966,0.6198069,0.00025978402,-0.15034202,0.049647614,-0.0024741008,0.002187649,-0.002806607,0.009095293,0.47159407,-1.3544233,1.8698982,-2.0848134,-1.5709981,2.4432871,-0.21145062,0.18273242,-0.22521874,0.045929942,-0.0010561319,-0.22043864,-0.28730422,0.24899697,-9.289503,0.8940802,47.693153,-1.0765808,-2.3685231,-3.419816,-0.041865356,-0.022059344,-0.39916238,28.9375,30.375,29.375,32.9375,35.4375,36.5
0.32205322,-0.8527841,-0.95489806,-0.34604493,-0.021103343,0.059739605,-0.17818566,-0.41309375,-0.36119416,0.06010656,-3.0797348,0.6196993,0.0003610291,-0.15105931,0.050116386,-0.002363246,0.0022773563,-0.003278211,0.018430615,0.47119763,-1.3540521,1.8694199,-2.0847895,-1.5709981,2.4428144,-0.21277879,0.1834706,-0.22669305,0.047123786,-0.0009044348,-0.231102,-0.24899697,0.17238252,-9.251195,0.8784135,47.67345,-1.0496018,-2.2740974,-3.4442983,-0.032482803,-0.024143785,-0.30333823,28.9375,30.375,29.375,32.9375,35.4375,36.5
0.32405385,-0.7310673,0.039526418,-0.102464356,-0.019360928,0.07118227,-0.18503387,-0.41337132,-0.3610856,0.060088687,-3.0797226,0.6195751,0.00028697727,-0.1502461,0.0491199,-0.0015768972,0.0018571317,-0.0027338052,0.032616053,0.47077823,-1.3536925,1.8689994,-2.0846689,-1.5709981,2.4423192,-0.2103412,0.18232825,-0.2274295,0.04832344,-0.00079062185,-0.24285008,-0.38307226,0.19153613,-9.193734,0.90527004,47.698532,-1.1022366,-2.1878386,-3.3936794,-0.041665852,-0.021374993,-0.18092948,28.9375,30.375,29.375,32.9375,35.4375,36.5
0.32605356,-0.9523621,-0.26292115,-0.29681233,0.0053866217,0.07967143,-0.16030088,-0.41366404,-0.36098894,0.060092002,-3.0797396,0.6194992,0.00025843203,-0.1506353,0.048107207,-0.00061145565,0.0012054567,-0.0015030964,0.036531996,0.4703588,-1.3533448,1.8685449,-2.0845492,-1.5709862,2.4418504,-0.20883965,0.1826016,-0.23027329,0.049503766,-0.00077546027,-0.24526365,-0.5554548,0.17238252,-9.155427,0.86945957,47.687782,-1.2382593,-2.2417197,-3.4559512,-0.049505398,-0.033323757,-0.107662074,28.9375,30.375,29.375,32.9375,35.4375,36.5
0.32805324,-0.6181755,0.25115687,0.032675102,0.0018536842,0.09347698,-0.18166663,-0.4139974,-0.3609182,0.06011012,-3.0798032,0.61940026,0.0003715073,-0.15164143,0.047893878,-0.00019990251,0.0011476126,-0.0014766604,0.029960737,0.4699627,-1.3529606,1.868029,-2.0845006,-1.5709981,2.4413848,-0.20921056,0.18417487,-0.23354158,0.051147483,-0.00072022475,-0.23906228,-0.53630114,0.21068975,-9.174581,0.90750587,47.67614,-1.3843867,-2.1688097,-3.357656,-0.05404289,-0.037901513,-0.14544766,28.9375,30.375,29.375,32.9375,35.4375,36.5
0.3300539,-0.8551046,0.19336703,0.0049250172,0.007032847,0.07675304,-0.17422676,-0.41429052,-0.3608207,0.060104594,-3.0798075,0.6193107,0.00031175022,-0.15249313,0.048342817,-0.0009777584,0.0024981538,-0.004305069,0.019399527,0.46954188,-1.3525879,1.8675612,-2.0843675,-1.5709857,2.4409077,-0.21057618,0.18779866,-0.23685817,0.053978525,-0.0006560026,-0.2298653,-0.51714754,0.05746084,-9.251195,0.842603,47.683304,-1.2939243,-2.1576574,-3.240347,-0.0748561,-0.032730673,-0.24721815,28.9375,30.375,29.375,32.9375,35.4375,36.5
0.33205366,-0.65568787,0.018462708,-0.32242787,0.015836423,0.052796077,-0.172005,-0.41459948,-0.3607169,0.060101245,-3.0798194,0.619337,0.0003129827,-0.15325412,0.049137,-0.0002959838,0.0024519658,-0.0043324875,0.008582985,0.46909755,-1.3522285,1.8671182,-2.084295,-1.5709738,2.4404786,-0.21242277,0.18721911,-0.23820211,0.05591012,-0.0006012547,-0.22089529,-0.36391866,0.019153614,-9.193734,0.8851263,47.647476,-1.3786153,-2.1122057,-3.2929912,-0.08263734,-0.049553715,-0.39303434,28.9375,30.375,29.375,32.9375,35.4375,36.5
0.33405346,-0.19716147,0.26546958,-0.42093995,0.013373748,0.029602455,-0.17773211,-0.41488808,-0.36061305,0.060090166,-3.0798006,0.61927664,0.0002508524,-0.15274388,0.049248014,-0.0007269578,0.0031767678,-0.0060819625,0.004280179,0.46867803,-1.3518565,1.8666638,-2.084163,-1.5709738,2.440024,-0.21210416,0.18791893,-0.2384619,0.057358872,-0.00046807402,-0.21627404,-0.3256114,0.038307227,-9.212888,0.89631605,47.67345,-1.4461459,-2.1429071,-3.368294,-0.120573804,-0.054701567,-0.49741104,28.9375,30.375,29.375,32.9375,35.4375,36.5
0.336054,-0.41031516,-0.04274154,-0.20007786,0.0044343355,0.02498896,-0.18026957,-0.415219,-0.3605153,0.060091455,-3.0797763,0.61915225,0.00030343843,-0.15298857,0.05039141,-0.0016508355,0.0054931077,-0.010559507,0.00991099,0.46826923,-1.351436,1.866125,-2.0840409,-1.5710334,2.4395409,-0.21403214,0.19081834,-0.24099885,0.062022787,-0.00051212497,-0.2238318,-0.24899697,-0.076614454,-9.270349,0.9321212,47.689575,-1.4569821,-2.1923578,-3.3853235,-0.16135724,-0.060980327,-0.49204987,28.9375,30.375,29.375,32.9375,35.4375,36.5
0.3380536,0.39281264,0.8458034,-0.110057846,-0.0005008447,0.04826321,-0.19443336,-0.41554087,-0.36042342,0.0601177,-3.0798435,0.61915714,0.0003139052,-0.15374848,0.050810453,-0.0018775384,0.005697749,-0.010820853,0.023256743,0.46781313,-1.3510995,1.8656343,-2.0839336,-1.5709857,2.4390795,-0.21516997,0.19209549,-0.24212906,0.062209148,-0.0005728522,-0.23831487,-0.13407528,-0.11492168,-9.155427,0.8672237,47.675243,-1.3573987,-2.326226,-3.3410969,-0.21124953,-0.05719633,-0.37053937,28.9375,30.375,29.375,32.9375,35.4375,36.5
0.34005347,-0.4005806,0.5967652,-0.33491075,0.032612484,0.036229994,-0.1811452,-0.41584638,-0.36031473,0.06009601,-3.0798182,0.6190894,0.000267287,-0.15494452,0.05229636,-0.0016679887,0.0065164287,-0.010545798,0.031106925,0.4673797,-1.3506922,1.8651665,-2.0838263,-1.5709981,2.4386072,-0.21797761,0.19204223,-0.24280293,0.06305741,-0.0014433083,-0.24897139,-0.038307227,-0.038307227,-9.251195,0.9321212,47.71286,-1.2744052,-2.144047,-3.3765178,-0.20590822,-0.037099153,-0.2608936,28.9375,30.375,29.375,32.9375,35.4375,36.5
0.34205398,-0.6172971,0.08018942,-0.24158636,0.034332354,0.033580635,-0.1684711,-0.41615093,-0.3601814,0.060070217,-3.079765,0.61908126,0.0001580986,-0.15584229,0.05403842,-0.002503159,0.00802136,-0.013704783,0.028615609,0.46689865,-1.3502954,1.8647121,-2.0836809,-1.5709981,2.438128,-0.22151786,0.19417888,-0.24418451,0.06579982,-0.0013897073,-0.25001973,-0.19153613,-0.076614454,-9.193734,0.88960326,47.67614,-1.0498828,-2.2440238,-3.3839655,-0.24759719,-0.050863735,-0.18173078,28.9375,30.375,29.375,32.9375,35.4375,36.5
0.34405375,0.17501369,0.6148026,-0.045947492,0.003483134,0.058407426,-0.17701285,-0.41646323,-0.3600882,0.060068753,-3.079794,0.6188986,0.0001405384,-0.15702975,0.055008907,-0.0021461032,0.008401689,-0.014670711,0.019580277,0.46647844,-1.3498996,1.864209,-2.0835602,-1.5709981,2.4375904,-0.22403069,0.1950426,-0.24672107,0.06850745,-0.0013037672,-0.2434966,-0.34476504,-0.1340753,-9.193734,0.90750587,47.675243,-1.1320878,-2.1653686,-3.4281845,-0.30390936,-0.06040074,-0.28303155,28.9375,30.375,29.375,32.9375,35.4375,36.5
0.34605366,-0.12727581,0.12705195,-0.39412782,0.007994781,0.046443455,-0.16779415,-0.41675824,-0.359981,0.060050394,-3.0797708,0.61878496,7.83026e-05,-0.15931779,0.05603536,-0.0018066287,0.0069034216,-0.012127301,0.00921412,0.46605697,-1.349504,1.8637422,-2.08343,-1.57101,2.4371011,-0.22762188,0.19538668,-0.2473838,0.06587861,-0.0011364877,-0.2367216,-0.22984336,-0.05746084,-9.289503,0.9254084,47.690468,-0.9182862,-2.1353984,-3.4105716,-0.3174503,-0.06524805,-0.3668236,28.9375,30.375,29.375,32.9375,35.4375,36.5
0.34805366,-0.23884018,-0.018074194,-0.56422794,0.00048662224,0.035695463,-0.17935981,-0.41705438,-0.35986364,0.0600323,-3.0797327,0.61881673,-7.711423e-05,-0.16006765,0.055502966,-0.0020351436,0.006815141,-0.012266957,0.008284202,0.46558896,-1.3491076,1.8632625,-2.0832498,-1.5709742,2.436658,-0.22726664,0.19786106,-0.24998198,0.06609571,-0.0010293279,-0.23543541,-0.24899697,-0.11492168,-9.346964,0.8873621,47.67614,-0.9263358,-2.2211375,-3.4645777,-0.3366363,-0.06241315,-0.40935707,28.9375,30.375,29.375,32.9375,35.4375,36.5
0.35005328,-0.0509763,-0.015557171,-0.28890812,-0.030003967,0.057679426,-0.17564209,-0.41739213,-0.3597445,0.06002733,-3.079687,0.61878186,-6.143482e-05,-0.16106224,0.054547142,-0.0018221774,0.0060010706,-0.010666844,0.017495288,0.46513382,-1.3486874,1.8627352,-2.0831187,-1.5710219,2.436187,-0.22632304,0.19976214,-0.25259647,0.065000474,-0.0010418626,-0.2437018,-0.34476504,0.076614454,-9.32781,0.87617236,47.694946,-1.1100873,-2.2031178,-3.5159113,-0.33809832,-0.052649163,-0.38167328,28.9375,30.375,29.375,32.9375,35.4375,36.5
0.35205388,-0.4973471,-0.07525428,-0.27867994,-0.029346146,0.079245955,-0.18593329,-0.41771674,-0.35964543,0.060030624,-3.079699,0.6186789,-5.0778886e-05,-0.16220397,0.054051436,-0.003378904,0.006150101,-0.011009134,0.031210704,0.46470198,-1.3482898,1.8622192,-2.0830004,-1.5710338,2.4356897,-0.22628476,0.2046167,-0.25442222,0.062337816,-0.0010406611,-0.25737762,-0.30645782,0.13407528,-9.32781,0.8403672,47.661808,-1.1444426,-2.4175785,-3.375381,-0.33712414,-0.05813906,-0.27390674,28.9375,30.375,29.375,32.9375,35.4375,36.5
0.35405347,-0.61120796,0.13375059,-0.8361147,-0.017966412,0.07951215,-0.1843313,-0.41804525,-0.35955927,0.06004616,-3.0797646,0.618593,-0.00011011672,-0.16491751,0.053482227,-0.0022046342,0.0038472095,-0.0061510596,0.039353143,0.46424538,-1.3478938,1.861669,-2.082846,-1.5709742,2.4351714,-0.22734797,0.20564455,-0.25770077,0.059227392,-0.0011794601,-0.26658183,-0.1340753,0.19153613,-9.461885,0.8672237,47.682407,-1.1732795,-2.3558025,-3.4018502,-0.3174404,-0.072307736,-0.12717634,28.9375,30.375,29.375,32.9375,35.4375,36.5
0.35605413,-0.74558735,-0.6506026,-0.66841424,-0.03470948,0.08517053,-0.16679867,-0.41835868,-0.35944265,0.060043786,-3.0797663,0.61838186,-0.0001317692,-0.16583914,0.052878994,-0.0011046168,0.002868968,-0.0041481466,0.038687106,0.46380156,-1.3475103,1.8611768,-2.082702,-1.5709981,2.4345958,-0.2269184,0.20559946,-0.26030433,0.05964103,-0.0012176447,-0.26548544,-0.24899697,0.21068975,-9.442732,0.90527004,47.682407,-1.2336357,-2.455957,-3.2872672,-0.32129365,-0.0694651,-0.1092552,28.9375,30.375,29.375,32.9375,35.4375,36.5
0.3580537,-0.61055577,-0.8919618,-0.64058065,-0.06418667,0.08636519,-0.1738409,-0.4187145,-0.35933802,0.060052942,-3.0797698,0.61829257,-3.9822822e-05,-0.16909103,0.05245959,-0.00037399743,0.0007258342,0.0008951407,0.027922004,0.46335724,-1.3470901,1.8606251,-2.082608,-1.5710462,2.4340956,-0.22854571,0.20783296,-0.26379496,0.055419713,-0.0015622001,-0.25634563,-0.57460845,0.38307226,-9.3661175,0.900793,47.684196,-1.3466811,-2.4644783,-3.2351294,-0.30389675,-0.084501915,-0.17896748,28.9375,30.375,29.375,32.9375,35.4375,36.5
0.36005336,-0.8145462,-1.3731939,-0.9118566,-0.056892637,0.07529065,-0.1779383,-0.418994,-0.35920691,0.059984814,-3.079668,0.6182986,-0.0003030886,-0.16996312,0.052430373,-0.00063960056,-0.00015183643,0.0032310653,0.015957337,0.46288916,-1.3466222,1.8601717,-2.0824296,-1.5710219,2.4336443,-0.22887409,0.20842503,-0.26317093,0.051731564,-0.0018713877,-0.24470867,-0.61291564,0.47884035,-9.442732,0.9097417,47.67614,-1.432666,-2.4307106,-3.2706385,-0.24968322,-0.07054651,-0.30235183,28.9375,30.375,29.375,32.9375,35.4375,36.5
0.36205405,-1.1864339,-1.2655488,-0.96203333,-0.08267816,0.07770988,-0.17361031,-0.41933164,-0.359103,0.059990037,-3.0796924,0.6182499,-0.00027602003,-0.17020911,0.052497376,-0.002072225,0.0013193904,0.0022021767,0.008949685,0.46243316,-1.3462256,1.8596567,-2.0823338,-1.5710224,2.433155,-0.2284858,0.21167666,-0.26368457,0.050575275,-0.0027230359,-0.23731062,-0.34476504,0.38307226,-9.653421,0.9164598,47.689575,-1.4023771,-2.3657408,-3.4845026,-0.21404752,-0.07406907,-0.45653653,28.9375,30.375,29.375,32.9375,35.4375,36.5
0.3640538,-1.4099824,-1.5104593,-1.1752375,-0.095640704,0.065501615,-0.18647343,-0.41969478,-0.35899672,0.059993464,-3.0797107,0.61826974,-0.00023328366,-0.17052189,0.05450121,-0.0023709356,0.0029416408,0.0007061682,0.010872001,0.4619522,-1.3457943,1.8591064,-2.0822499,-1.5710229,2.4326844,-0.23141557,0.21117106,-0.26287267,0.052331924,-0.0034954683,-0.24216197,-0.26815057,0.34476504,-9.710882,0.8985519,47.667187,-1.3014779,-2.2935445,-3.5708709,-0.23467103,-0.041679583,-0.46226263,28.9375,30.375,29.375,32.9375,35.4375,36.5
0.3660533,-0.18985128,-1.0198299,-0.8020903,-0.10924105,0.08973685,-0.19490208,-0.4200435,-0.35888174,0.05997292,-3.079705,0.61816436,-0.00022725189,-0.17239022,0.05535271,-0.0014822145,0.0016864986,0.0041952473,0.023739476,0.46148366,-1.3453388,1.858581,-2.082167,-1.5710472,2.432151,-0.23392701,0.21012942,-0.26318172,0.049989995,-0.0039410344,-0.25754023,-0.15322891,0.38307226,-9.672575,0.9545008,47.690468,-1.3003101,-2.3396683,-3.658299,-0.21022096,-0.029799564,-0.3401901,28.9375,30.375,29.375,32.9375,35.4375,36.5
0.36805373,-0.31863636,-0.8613455,-0.9911521,-0.07317903,0.07815715,-0.18116838,-0.42038843,-0.35877737,0.059960738,-3.079696,0.61806214,-0.0001657185,-0.17616247,0.056154877,-0.00010829187,0.00044887452,0.010003601,0.032065768,0.46105078,-1.3448951,1.8580536,-2.0820963,-1.5710953,2.431656,-0.23731446,0.21075216,-0.26642862,0.04684978,-0.0054310677,-0.2692502,-0.095768064,0.30645782,-9.5385,0.86945957,47.66271,-1.2175605,-2.2450325,-3.6845932,-0.12804115,-0.025790056,-0.21253471,28.9375,30.375,29.375,32.9375,35.4375,36.5
0.37005377,-0.457834,0.08600717,-0.77473134,-0.040683806,0.055282824,-0.17061292,-0.42075807,-0.35869983,0.05999838,-3.079835,0.61795807,-0.000117419964,-0.17752028,0.056217898,0.0005487574,0.00091870606,0.011136644,0.031411465,0.46057016,-1.3444991,1.8574651,-2.0819995,-1.5710238,2.431093,-0.23778598,0.21201906,-0.2698363,0.04820499,-0.006329932,-0.26906526,-0.17238252,0.21068975,-9.653421,0.86498255,47.674347,-1.0023432,-2.315651,-3.6544104,-0.117156595,-0.008737307,-0.16185556,28.9375,30.375,29.375,32.9375,35.4375,36.5
0.37205392,0.22282602,0.47460905,-0.66597337,-0.0101870885,0.060691748,-0.16986667,-0.42111763,-0.35856938,0.059983544,-3.0798087,0.61784303,-6.3216045e-05,-0.17870739,0.056719486,3.8069156e-05,0.002713412,0.010910045,0.022196436,0.46008995,-1.3440533,1.8569378,-2.0819156,-1.5710844,2.4305446,-0.23849338,0.21491043,-0.27243876,0.048905388,-0.007835056,-0.2605539,-0.36391866,0.19153614,-9.519346,0.93436235,47.660015,-1.0983613,-2.492255,-3.529664,-0.1001285,0.026012955,-0.2561397,28.9375,30.375,29.375,32.9375,35.4375,36.5
0.37405345,-0.2210686,0.74751395,-0.6172925,0.0120622115,0.056354873,-0.17381354,-0.42149982,-0.3584806,0.059999075,-3.0798855,0.61782366,1.768019e-05,-0.17931908,0.057271656,0.00016051756,0.0030943556,0.011290574,0.0153808715,0.45960984,-1.3436105,1.8563508,-2.081856,-1.5710605,2.430043,-0.239403,0.21516362,-0.2731826,0.04923047,-0.008318805,-0.25464773,-0.38307226,0.1340753,-9.500193,0.9231726,47.677036,-1.0827574,-2.4732928,-3.4691591,-0.07381692,0.05313841,-0.34967119,28.9375,30.375,29.375,32.9375,35.4375,36.5
0.376054,-0.04300586,1.4678674,-0.9232307,0.014223376,0.06071411,-0.17857036,-0.4218312,-0.35835025,0.05995775,-3.07985,0.61774,-9.029556e-05,-0.181799,0.057606567,0.00038585937,0.0023222743,0.011363354,0.011801126,0.4591171,-1.343142,1.8558472,-2.0817354,-1.5710601,2.4295027,-0.24220097,0.2183963,-0.27798137,0.050383527,-0.00768407,-0.25386456,-0.19153613,-0.095768064,-9.557653,0.95897776,47.684196,-1.101209,-2.4348662,-3.413652,-0.053066775,0.053086698,-0.4078864,28.9375,30.375,29.375,32.9375,35.4375,36.5
