Tylouw/Master_Thesis_Code/training_data/batch_1/rect_rod_t0.2/sample_50_session_2.csv
timestamp[s],tcp_force_x[N],tcp_force_y[N],tcp_force_z[N],tcp_force_rx[Nm?],tcp_force_ry[Nm?],tcp_force_rz[Nm?],tcp_pose_x[m],tcp_pose_y[m],tcp_pose_z[m],tcp_pose_rx[rot_vec_x],tcp_pose_ry[rot_vec_y],tcp_pose_rz[rot_vec_z],tcp_velo_x[m/s],tcp_velo_y[m/s],tcp_velo_z[m/s],tcp_velo_rx[rot_vec_x/s],tcp_velo_ry[rot_vec_y/s],tcp_velo_rz[rot_vec_z/s],q1[rad],q2[rad],q3[rad],q4[rad],q5[rad],q6[rad],qd1[rad/s],qd2[rad/s],qd3[rad/s],qd4[rad/s],qd5[rad/s],qd6[rad/s],tool_acc_x,tool_acc_y,tool_acc_z,current_of_whole_robot[A],voltage_of_whole_robot[V],current_J1[A],current_J2[A],current_J3[A],current_J4[A],current_J5[A],current_J6[A],temp_J1[C],temp_J2[C],temp_J3[C],temp_J4[C],temp_J5[C],temp_J6[C]
8.24999e-07,-0.775172,-1.2166909,-0.3437109,-0.016926343,-0.009182971,0.01952684,-0.38934535,-0.36869794,0.060022835,-3.0786953,0.6250033,0.00023446792,-1.9642123e-06,1.3667824e-05,-0.00040757525,0.00018712567,-0.0006090018,1.4223933e-05,0.50499684,-1.3816916,1.9042224,-2.0919034,-1.5708655,2.4800372,-0.00010676196,0.00082413683,-8.214739e-07,-0.00020029905,0.0001304079,-0.00012101839,0.15322891,0.11492168,-8.7532015,0.7217513,47.703903,-0.1732254,-3.0865333,-2.2589774,-0.20839971,0.16312343,-0.018038044,28.875,30.3125,29.375,32.9375,35.375,36.5
0.002052667,-0.5234275,-1.0130887,-0.2788781,-0.021852348,0.008311216,0.0022033236,-0.38937244,-0.36872283,0.060041238,-3.0787475,0.6249754,0.00034690363,-0.0007651513,-0.00041010362,-0.0022109281,-0.0015091964,0.0024366886,1.0943436e-05,0.5050208,-1.3816787,1.9041771,-2.091955,-1.5708774,2.4800372,-0.00010669217,0.0029400936,0.0037163587,-0.009519651,0.00012776333,-0.00011784862,0.095768064,0.19153613,-8.523358,0.7172743,47.694054,-0.2588868,-3.1722136,-2.3430135,-0.13668406,0.16119094,-0.018196499,28.875,30.3125,29.375,32.9375,35.375,36.5
0.004052406,-0.59728384,-1.5598638,-0.31299782,-0.017550634,0.00864408,0.015197525,-0.3893379,-0.36870974,0.059995476,-3.0787027,0.6249857,0.00018318345,-0.0011976723,-0.0006513611,-0.0019581874,-0.002261205,0.0037955057,3.1063613e-05,0.50500876,-1.3816429,1.9042362,-2.0919435,-1.5708417,2.4800372,-0.00010366123,0.0028012812,0.0035995278,-0.010817028,0.00012522373,-0.00013478464,0.095768064,0.1340753,-8.542512,0.7396539,47.705692,-0.2307691,-3.324484,-2.6028676,-0.054528184,0.16002244,-0.021602506,28.875,30.3125,29.375,32.9375,35.375,36.5
0.006051872,-0.22214995,-0.8117943,-0.288037,-0.0032867275,-0.0033516162,0.007980791,-0.38933438,-0.36869192,0.059985824,-3.0786572,0.6249572,0.00014862203,-0.00032809662,-0.00018328018,-0.0014366158,-0.0007465213,0.0010807805,5.798665e-05,0.5049969,-1.3816313,1.9042357,-2.0919054,-1.5708655,2.4800134,-7.591787e-05,0.0018212203,0.0023626066,-0.005491353,0.00012278307,-0.00013418231,0.11492168,0.17238252,-8.542512,0.7553206,47.698532,-0.16404054,-3.311028,-2.5378919,-0.06306161,0.16424635,-0.012511362,28.875,30.3125,29.375,32.9375,35.375,36.5
0.008052007,-0.044094723,0.03551392,-0.7179852,0.0256785,-0.021978632,0.010088275,-0.38933432,-0.3687133,0.059991833,-3.0786724,0.62495995,0.00017708288,0.00010097964,5.5158533e-05,-0.00017023497,-2.5223694e-06,-0.0002437571,5.7295063e-05,0.5050329,-1.3816198,1.9042109,-2.0919158,-1.5708655,2.4800491,-7.351734e-05,6.417943e-05,0.000359571,-0.00021210873,0.000120435776,-0.0001311038,0.019153614,0.24899697,-8.829816,0.7866488,47.731667,-0.18663663,-3.1516623,-2.4116998,-0.11504515,0.16556638,-0.024842221,28.875,30.3125,29.375,32.9375,35.375,36.5
0.010052207,0.16660108,0.11163747,-1.1065433,0.028470686,-0.018194564,0.010988901,-0.38933325,-0.3687269,0.06000898,-3.0787175,0.6249307,0.0002476041,0.00075436087,0.00042741696,-0.00027181674,0.0012116857,-0.0024227384,4.0306244e-05,0.50505686,-1.3816559,1.9042224,-2.0919502,-1.5708655,2.4800491,-8.7245746e-05,8.6104893e-07,4.8241036e-06,0.0027004017,0.00011817648,-0.00012800761,0.076614454,0.19153614,-8.963891,0.784413,47.685097,-0.78765893,-2.7612588,-2.7875295,-0.1758801,0.1720443,-0.10884239,28.875,30.3125,29.375,32.9375,35.375,36.5
0.012052393,-0.31420824,-0.95015883,-1.299595,-0.011166285,0.007695713,-0.00013184019,-0.38930735,-0.36870193,0.05996897,-3.0786414,0.6249554,9.071344e-05,-0.0008827161,0.0024332006,-0.0016588479,0.002408951,-0.004585263,-0.004643362,0.5050316,-1.3816186,1.9042586,-2.0919025,-1.5708536,2.480049,-0.004994221,0.0027240831,6.4721505e-08,0.0024537474,0.000116000636,-0.00035086388,0.1340753,0.076614454,-9.136273,0.6859408,47.719128,-0.996971,-2.8196142,-2.9097564,-0.17132162,0.1666629,-0.15612252,28.875,30.3125,29.375,32.9375,35.375,36.5
0.014052239,-1.9364015,-2.1164377,-1.4172072,-0.041218642,0.010058925,0.013093407,-0.38931075,-0.36871806,0.059961177,-3.078662,0.62485945,3.450102e-05,-0.0030322557,0.005388754,-0.0058685485,0.005880701,-0.010893206,0.0019121503,0.50504065,-1.3815678,1.9042109,-2.0918791,-1.5708297,2.4799955,-0.011989538,0.011048618,8.6832164e-10,0.0013276243,0.0001259791,-0.013900268,-0.095768064,0.19153613,-9.308656,0.78217715,47.716442,-0.53968424,-3.1978254,-3.0542707,-0.15792418,0.17417344,-0.08404033,28.875,30.3125,29.375,32.9375,35.375,36.5
0.016052194,-1.3002955,-1.6887741,-1.3221622,-0.07561845,0.05004464,-0.023387415,-0.38932914,-0.36869782,0.059970777,-3.0786579,0.6248752,9.0749505e-05,-0.0062494823,0.0043209605,-0.0031422577,0.0027369224,-0.005238981,0.007604638,0.5050043,-1.381592,1.9042205,-2.091891,-1.5708536,2.4799695,-0.013204027,0.010771103,-0.005782202,0.00091647997,0.00012770467,-0.020804876,-0.28730422,0.17238252,-9.442732,0.7866488,47.734352,-0.5305161,-3.187642,-2.9507594,-0.1462316,0.17709747,-0.010370871,28.875,30.3125,29.375,32.9375,35.375,36.5
0.018051688,-1.7377175,-1.6704654,-1.4186438,-0.06162648,0.06589811,-0.032562446,-0.38931915,-0.36867988,0.05992835,-3.078623,0.62482846,-4.6734793e-05,-0.0063096327,0.0040213456,-0.0021081814,0.0016204192,-0.0032777628,0.011496969,0.5049685,-1.3815327,1.9042443,-2.0918796,-1.5708297,2.479909,-0.012770816,0.008738556,-0.005654306,0.0005644913,0.00015280201,-0.024264388,-0.38307226,0.21068975,-9.404425,0.79560274,47.690468,-0.7407352,-2.972953,-2.99821,-0.14017782,0.17435232,-0.003061315,28.875,30.3125,29.375,32.9375,35.375,36.5
0.020052005,-1.9412005,-1.0672522,-1.9102643,-0.017783912,0.07087528,-0.06186157,-0.38932565,-0.36868078,0.059918705,-3.078624,0.62479234,-8.983526e-05,-0.0056093936,0.005026188,-0.0027642692,0.0020931202,-0.0066176387,0.007382541,0.5049559,-1.3814968,1.9042209,-2.0918672,-1.5708169,2.4798737,-0.0145613225,0.008480551,-0.0043286146,0.0026446974,0.0013623376,-0.021943271,-0.51714754,0.17238252,-9.5385,0.8224646,47.713753,-0.914321,-2.7930365,-3.2472167,-0.15155824,0.19068493,-0.026420128,28.875,30.3125,29.375,32.9375,35.375,36.5
0.022051979,-2.3170416,-1.1418504,-2.1578116,0.009616896,0.06577183,-0.071816824,-0.3893641,-0.3686719,0.059921324,-3.078605,0.62486726,-4.0327377e-05,-0.0057832766,0.0051704766,-0.004139592,0.0016290563,-0.010389585,0.0033635865,0.5049195,-1.3814596,1.9041737,-2.0918787,-1.5708402,2.4798865,-0.016360955,0.011619752,-0.005058256,0.0033035844,0.0035936637,-0.019726826,-0.49799395,0.095768064,-9.672575,0.800085,47.73883,-0.90248656,-2.892909,-3.347182,-0.17444414,0.17382261,-0.057536133,28.875,30.3125,29.375,32.9375,35.375,36.5
0.024052087,-2.7132401,-1.0944407,-2.1516607,-0.004413602,0.059101317,-0.086649984,-0.389332,-0.3686529,0.05989008,-3.0785756,0.62480485,-0.0002036516,-0.008123934,0.0045076553,-0.002869799,-0.0011487452,-0.0076041613,8.396606e-05,0.504895,-1.3814473,1.9042195,-2.091831,-1.570804,2.4798267,-0.018106071,0.0124703925,-0.008735296,0.002345468,0.0046653477,-0.018192818,-0.6895301,0.038307227,-9.749189,0.71951014,47.694946,-0.87161934,-2.876796,-3.3167548,-0.16738334,0.14833021,-0.08787882,28.875,30.3125,29.375,32.9375,35.375,36.5
0.026052542,-1.5797497,-0.62956345,-2.061776,-0.024721323,0.10125458,-0.121503696,-0.3893772,-0.36866635,0.059908755,-3.0786164,0.62483317,-9.1101916e-05,-0.009746593,0.0041729105,-0.0020049158,-0.0018666752,-0.004994876,-0.0012266806,0.5048827,-1.3814232,1.9041594,-2.0918791,-1.5708159,2.479827,-0.018660238,0.013132069,-0.011327541,0.0016473178,0.004025888,-0.01743365,-0.8619126,0.019153614,-9.80665,0.8179876,47.693153,-0.8761681,-2.7945662,-3.284503,-0.16969967,0.15482296,-0.08611062,28.875,30.3125,29.375,32.9375,35.375,36.5
0.02805275,-1.9695032,-0.5435086,-2.1141136,-0.02597654,0.113754995,-0.12674168,-0.38935557,-0.36865768,0.05988197,-3.0785985,0.6248297,-0.00024028517,-0.0102404915,0.0044068503,-0.0027373405,-0.0011015303,-0.0055627567,-0.00245822,0.50485855,-1.3813983,1.9041828,-2.0918434,-1.5707682,2.4798028,-0.019268775,0.015054657,-0.011800643,0.0010673862,0.0036270996,-0.016809735,-0.842759,0.019153614,-9.921572,0.78888994,47.690468,-0.986314,-2.8165174,-3.3108158,-0.16481349,0.16684616,-0.120318756,28.875,30.3125,29.375,32.9375,35.375,36.5
0.03005178,-2.5608082,-1.3254306,-2.1365392,-0.01195596,0.10182516,-0.1302837,-0.3893963,-0.3686329,0.05989038,-3.0785897,0.6248677,-0.00021357441,-0.011474886,0.0044994242,-0.0028941827,-0.0013958339,-0.0057372176,-0.0044444753,0.50478625,-1.3813857,1.9041461,-2.0918314,-1.5707802,2.4797554,-0.020789692,0.017050676,-0.013806854,0.0010868096,0.0039647557,-0.016343798,-0.842759,-0.076614454,-9.921572,0.7620334,47.71823,-1.0056813,-2.8212056,-3.254917,-0.15989074,0.17728701,-0.1541178,28.875,30.3125,29.375,32.9375,35.375,36.5
0.032052223,-2.246682,-1.4819297,-2.130575,-0.005193391,0.10114886,-0.13684145,-0.38942432,-0.36862445,0.0598721,-3.0785875,0.62488574,-0.00024106105,-0.011580012,0.004582774,-0.0028012446,-0.002295309,-0.0060707266,-0.0042547863,0.50473803,-1.3813257,1.9041222,-2.0918553,-1.5707678,2.4797187,-0.021618737,0.01672514,-0.013636902,0.0010961911,0.0049130647,-0.01736435,-0.8810662,-0.019153614,-9.80665,0.7732232,47.705692,-1.0059248,-2.8675656,-3.311582,-0.155029,0.17459601,-0.14422572,28.875,30.3125,29.375,32.9375,35.375,36.5
0.03405254,-1.5777551,-1.1993876,-2.148349,0.004296549,0.10626385,-0.14689212,-0.38945892,-0.36860633,0.059860762,-3.0785437,0.6249346,-0.0002460532,-0.012456445,0.0043215747,-0.002628326,-0.0037061034,-0.0059390347,-0.004238488,0.50468975,-1.3812654,1.9040741,-2.0918434,-1.5707911,2.4797065,-0.022726124,0.017658627,-0.015065114,0.00078891445,0.0060795275,-0.01848944,-0.78529817,-0.114921674,-9.864111,0.7642693,47.681515,-1.0564761,-2.8205738,-3.3332958,-0.16316293,0.16758323,-0.1771517,28.875,30.3125,29.375,32.9375,35.375,36.5
0.036052115,-1.9505495,-1.293358,-2.1423268,0.007727966,0.08041392,-0.15476197,-0.38946217,-0.3686087,0.059827857,-3.0785503,0.6250131,-0.0003505829,-0.013519692,0.0046599624,-0.0018512403,-0.0051193433,-0.004737853,-0.0048959926,0.50465316,-1.3812056,1.9040865,-2.0918796,-1.570731,2.479718,-0.024696242,0.016777845,-0.015756534,0.00062525366,0.0067327176,-0.019803287,-0.68953013,-0.13407528,-9.844957,0.7978386,47.72002,-0.9841136,-2.7986026,-3.3733659,-0.15786888,0.13826331,-0.16128294,28.875,30.3125,29.375,32.9375,35.375,36.5
0.038052075,-1.7546921,-0.9855125,-2.1567895,-0.0024545311,0.06635885,-0.17169954,-0.38952073,-0.36859632,0.059877656,-3.0785823,0.62500143,-0.0002399867,-0.015142859,0.005129908,-0.0016996503,-0.005446304,-0.00417551,-0.0059232344,0.5045924,-1.3812292,1.9039901,-2.091832,-1.5707549,2.479646,-0.027009247,0.01812117,-0.017670758,0.0005456429,0.0067437137,-0.021087578,-0.6512228,0.076614454,-9.825804,0.76874626,47.711964,-0.91891754,-2.799402,-3.30903,-0.15290995,0.14186916,-0.19049704,28.875,30.3125,29.375,32.9375,35.375,36.5
0.040052403,-1.9904226,-1.4715415,-2.1731358,0.0075080404,0.054066516,-0.18322566,-0.3895717,-0.3685701,0.059864882,-3.078551,0.62510943,-0.00022709456,-0.015871815,0.0050813844,-0.0015501406,-0.006293414,-0.0040671467,-0.006148766,0.5045084,-1.3811688,1.9039534,-2.0918558,-1.5707673,2.4796333,-0.02803495,0.01877712,-0.01877399,0.00048631942,0.0074300873,-0.02188837,-0.49799395,0.076614454,-9.710882,0.7642693,47.707485,-0.9846468,-2.7105446,-3.305391,-0.15296537,0.14658163,-0.21440545,28.875,30.3125,29.375,32.9375,35.375,36.5
0.042052355,-1.851156,-1.2322257,-1.9598359,0.0062997476,0.053687643,-0.19936055,-0.38957947,-0.36858222,0.059857342,-3.0786002,0.6250623,-0.00030128376,-0.017087089,0.0053738337,-0.0007404357,-0.0065653576,-0.0021496834,-0.005832332,0.504484,-1.381133,1.9039282,-2.0918558,-1.5707072,2.4795732,-0.029229313,0.018371947,-0.02012732,0.00043880357,0.006737625,-0.023397554,-0.36391866,0.038307227,-9.595961,0.7329411,47.678825,-0.98543006,-2.7760987,-3.2893384,-0.14118482,0.14718285,-0.21035442,28.875,30.3125,29.375,32.9375,35.375,36.5
0.0440526,-1.5564793,-1.6537312,-2.018139,0.011483734,0.054201916,-0.19425352,-0.389617,-0.36856517,0.059855822,-3.0785816,0.6250187,-0.0002921932,-0.018178707,0.006044314,-0.0008047959,-0.006068925,-0.001818281,-0.0053087687,0.50443536,-1.3810846,1.903869,-2.091832,-1.5707315,2.4794998,-0.031002942,0.019272573,-0.021037236,0.00039977054,0.0061399015,-0.025693275,-0.05746084,0.019153614,-9.710882,0.83589023,47.709274,-0.9117027,-2.7010164,-3.254719,-0.13831188,0.16296864,-0.23508371,28.875,30.3125,29.375,32.9375,35.375,36.5
0.046052217,-0.59191227,-1.5799809,-1.9576193,-0.00481235,0.05828124,-0.18983322,-0.38968697,-0.36854658,0.059875406,-3.0786085,0.62515885,-0.0001923341,-0.019738603,0.0070121735,-0.0006279622,-0.0058423416,-0.0010738465,-0.0059892694,0.5043387,-1.3810724,1.9038209,-2.0918796,-1.5707315,2.4794872,-0.033735733,0.019888649,-0.022160342,0.00036712282,0.0055811545,-0.027743563,-0.05746084,0.095768064,-9.634268,0.779936,47.690468,-0.9276505,-2.698675,-3.2977893,-0.15756612,0.16998331,-0.23902303,28.875,30.3125,29.375,32.9375,35.375,36.5
0.04805236,-0.63754284,-1.7597864,-1.7270564,-0.007901471,0.03558891,-0.17056252,-0.38972658,-0.36852813,0.05985919,-3.0785956,0.6250977,-0.00020828568,-0.021118574,0.0072939023,0.00015849328,-0.006759433,0.0004470101,-0.005194999,0.50427836,-1.3810004,1.9037727,-2.0918796,-1.5707439,2.4793904,-0.035535604,0.01968166,-0.023700664,0.00033940765,0.005644724,-0.030337349,-0.05746084,0.11492168,-9.5385,0.78217715,47.719128,-0.9292284,-2.6290445,-3.2509232,-0.1414581,0.15735611,-0.23320916,28.875,30.3125,29.375,32.9375,35.375,36.5
0.05005213,-0.4063657,-1.6103609,-2.0541232,-0.01102607,0.019708762,-0.17393161,-0.3897543,-0.36852467,0.059872698,-3.078652,0.6251858,-0.00028021628,-0.022457412,0.0076144673,0.00019962782,-0.007583434,0.00038915852,-0.0049972497,0.50419366,-1.3809999,1.903736,-2.0918558,-1.570659,2.4793534,-0.037788615,0.020975342,-0.025317542,0.0003155878,0.006390744,-0.03278842,-0.05746084,0.11492168,-9.634268,0.7866488,47.72719,-0.8875327,-2.679503,-3.195007,-0.15655088,0.15513036,-0.235261,28.875,30.3125,29.375,32.9375,35.375,36.5
0.052052394,-0.8310629,-1.5976439,-2.1068025,-0.018429875,0.0034824745,-0.16522725,-0.38981992,-0.36848152,0.059861325,-3.0785804,0.62526757,-0.00023420349,-0.023491433,0.008131216,0.0002263022,-0.007730136,0.00054681895,-0.0056315428,0.5040972,-1.3809277,1.9036764,-2.0918558,-1.5707191,2.4793172,-0.039650623,0.021700524,-0.026232496,0.00029489302,0.006440714,-0.034015812,0.038307227,0.1340753,-9.481039,0.72622824,47.71823,-0.75948,-2.6244912,-3.233714,-0.15370136,0.17321645,-0.23419195,28.875,30.3125,29.375,32.9375,35.375,36.5
0.05405261,-0.8559303,-1.992251,-1.9611892,-0.014104789,0.0062225843,-0.1636494,-0.3898809,-0.36848143,0.059888892,-3.0786626,0.62522537,-0.00015902951,-0.023616327,0.0079883905,0.0003502132,-0.007916818,0.00080035673,-0.004277486,0.5040253,-1.3809156,1.9036049,-2.0918796,-1.5706953,2.4792085,-0.039548233,0.021784538,-0.026609406,0.0002767481,0.00648384,-0.035266843,0.0,0.17238252,-9.423578,0.78217715,47.731667,-0.8064917,-2.6008184,-3.2324512,-0.14344554,0.17830032,-0.25522345,28.875,30.3125,29.375,32.9375,35.375,36.5
0.05605237,-0.5724534,-1.7344681,-1.8003262,-0.017615713,0.021037126,-0.16381861,-0.38993523,-0.3684474,0.05989255,-3.0786633,0.6252637,-0.00014392697,-0.02411143,0.0082086185,0.00049562514,-0.008389895,0.00093692925,-0.0043895277,0.5039173,-1.3808916,1.9035681,-2.0918796,-1.5706953,2.4791243,-0.040593497,0.021811029,-0.026968451,0.0002607082,0.006832174,-0.036200386,0.038307227,0.22984336,-9.423578,0.7665104,47.689575,-0.8737345,-2.6265748,-3.3196142,-0.13809219,0.18963125,-0.2779509,28.875,30.3125,29.375,32.9375,35.375,36.5
0.058052287,-0.36446562,-1.6251806,-1.7401938,-0.022864424,0.031086788,-0.1617196,-0.38999274,-0.3684495,0.05990869,-3.0787024,0.6253298,-0.00013716686,-0.025743596,0.008606685,0.0006280994,-0.009128625,0.0011878456,-0.005362906,0.5038445,-1.380843,1.9034714,-2.0918682,-1.570659,2.4790878,-0.043107875,0.023257585,-0.028977163,0.00024642562,0.007355107,-0.037740897,0.05746084,0.19153613,-9.3661175,0.7866488,47.67614,-0.82216763,-2.6147168,-3.280627,-0.1545263,0.18176751,-0.2736631,28.875,30.3125,29.375,32.9375,35.375,36.5
0.060052358,-0.22624338,-1.5425323,-1.8733358,-0.017013498,0.033706628,-0.15790586,-0.39002872,-0.36842406,0.05989136,-3.078692,0.6253075,-0.00019587489,-0.026795587,0.008602306,0.0007671798,-0.010610479,0.0009480787,-0.0053168084,0.50376004,-1.3807826,1.9034365,-2.0918558,-1.5706462,2.4789908,-0.044958103,0.024253014,-0.0304691,0.00023362701,0.00876414,-0.03963898,0.076614454,0.17238252,-9.404425,0.842603,47.717335,-0.7675933,-2.615559,-3.2010212,-0.13531539,0.15888886,-0.3031176,28.875,30.3125,29.375,32.9375,35.375,36.5
0.06205232,-0.5518177,-1.7728876,-1.7411575,-0.007328342,0.029132353,-0.15154694,-0.3900611,-0.3684196,0.05988372,-3.0787191,0.6253131,-0.0002313531,-0.027510766,0.008754859,0.00091316784,-0.0110392375,0.0011982142,-0.0060978634,0.50369996,-1.3807344,1.9033998,-2.0918682,-1.5706104,2.4789307,-0.04603642,0.024708327,-0.03133785,0.00022209244,0.009017351,-0.03993621,-0.095768064,0.2681506,-9.404425,0.7530795,47.70211,-0.74470186,-2.5683181,-3.2261138,-0.14259912,0.15801406,-0.3066512,28.875,30.3125,29.375,32.9375,35.375,36.5
0.06405253,-1.165115,-1.959147,-1.7573588,-0.00482765,0.01966145,-0.1523486,-0.3901313,-0.36840755,0.059890334,3.0786939,-0.62530696,0.00022676586,-0.028274566,0.009106087,0.0006619828,-0.010946237,0.0008896773,-0.004269724,0.5035916,-1.380674,1.9033159,-2.0918796,-1.5705742,2.4788218,-0.04737471,0.025896534,-0.032161254,0.00017498208,0.009084692,-0.043101907,-0.21068975,0.19153613,-9.385271,0.7732232,47.711964,-0.7866783,-2.5160556,-3.2318435,-0.15318127,0.15906268,-0.3208828,28.875,30.3125,29.375,32.9375,35.375,36.5
0.06605245,-0.66661704,-1.4121172,-1.5314358,-0.02042128,0.050530348,-0.1642465,-0.39018553,-0.36839914,0.059903264,3.0786695,-0.62526333,0.00019599762,-0.02914394,0.009096109,0.0011008315,-0.012044017,0.0014695912,-0.0037247785,0.5035194,-1.380638,1.9032439,-2.0918796,-1.5705622,2.4787254,-0.048587546,0.026059171,-0.033349704,0.00016207823,0.009765697,-0.044859886,-0.1340753,0.24899697,-9.423578,0.76874626,47.67166,-0.84218025,-2.5375834,-3.244819,-0.15129375,0.14859545,-0.313862,28.875,30.3125,29.375,32.9375,35.375,36.5
0.0680527,-1.155547,-1.412651,-1.5568267,-0.014921593,0.053486712,-0.16214539,-0.39025843,-0.3683797,0.059912898,3.078649,-0.62523943,0.00017951851,-0.030009221,0.009000739,0.0013483247,-0.01278636,0.0018688015,-0.004966501,0.5034113,-1.3805776,1.903148,-2.0918682,-1.5705503,2.478605,-0.04951067,0.026816221,-0.034807377,0.00015477893,0.0102220215,-0.044541024,-0.22984336,0.15322891,-9.481039,0.7553206,47.696735,-0.9256565,-2.5120635,-3.275569,-0.14329442,0.15103193,-0.33450347,28.875,30.3125,29.375,32.9375,35.375,36.5
0.07005194,-1.7743797,-1.4212245,-1.5122169,-0.0055270293,0.04957945,-0.154052,-0.39033273,-0.36835492,0.059922956,3.0786211,-0.62538594,0.00012679382,-0.030998532,0.009485772,0.001419163,-0.013551788,0.0017795336,-0.004023236,0.50331485,-1.3805175,1.9030513,-2.0918558,-1.5705737,2.4786036,-0.05168623,0.027300276,-0.035529926,0.00010000531,0.01093572,-0.04766028,-0.22984336,0.076614454,-9.346964,0.7530795,47.691364,-0.86437047,-2.485762,-3.2457993,-0.13916984,0.14186937,-0.34722668,28.875,30.3125,29.375,32.9375,35.375,36.5
0.07205215,-1.278667,-1.0548221,-1.4792607,-0.0029806618,0.07543101,-0.16491975,-0.3903729,-0.36833674,0.059912853,3.0785918,-0.62528396,0.00024099728,-0.032333776,0.01006327,0.0016799395,-0.014573926,0.0020476393,-0.0037302198,0.50319415,-1.3804693,1.9030145,-2.0918438,-1.5704893,2.4784229,-0.05437211,0.027707294,-0.03658874,2.7194823e-05,0.011699174,-0.050640073,-0.3256114,0.15322891,-9.270349,0.73741806,47.67345,-0.7265306,-2.4618392,-3.1636786,-0.14828217,0.12315613,-0.3379088,28.875,30.3125,29.375,32.9375,35.375,36.5
0.07405247,-1.6186894,-1.0430726,-1.430542,0.006250348,0.072422914,-0.16668095,-0.3904175,-0.3683297,0.059907425,3.0785506,-0.62530917,0.00029135757,-0.031886134,0.0090667065,0.0016746478,-0.014666566,0.0021625878,0.0038759352,0.503111,-1.3804088,1.9029554,-2.0918438,-1.5704416,2.4783607,-0.05228772,0.02843004,-0.037426718,1.7756274e-06,0.011723537,-0.056161437,-0.36391866,0.05746084,-9.308656,0.8023209,47.71823,-0.9303413,-2.4079556,-3.2750216,-0.14927492,0.12716398,-0.31166497,28.875,30.3125,29.375,32.9375,35.375,36.5
0.07605194,-1.780257,-0.74690455,-1.3771262,0.0040776897,0.075709574,-0.15879832,-0.390511,-0.36831704,0.05992675,3.0785122,-0.62522596,0.00019312781,-0.033405244,0.009684452,0.0018989595,-0.015229914,0.0026080231,0.0019396897,0.5030023,-1.3803484,1.9028481,-2.0918796,-1.5704411,2.478205,-0.054906543,0.029246002,-0.038902383,1.1593578e-07,0.012004817,-0.05684272,-0.53630114,-0.05746084,-9.308656,0.78888994,47.65643,-0.8417758,-2.488347,-3.235444,-0.16560745,0.11316359,-0.30564862,28.875,30.3125,29.375,32.9375,35.375,36.5
0.07805254,-1.901429,-1.0790517,-1.708698,0.01787183,0.07287086,-0.14952554,-0.39056274,-0.36829084,0.059920527,3.0785367,-0.6251914,0.00019486867,-0.034368087,0.010805971,0.0010156427,-0.014436803,0.0011507437,0.0020754142,0.5029177,-1.3802878,1.902788,-2.0918682,-1.5704535,2.4780958,-0.057689402,0.031149793,-0.03914595,7.569778e-09,0.012012028,-0.05976106,-0.6512228,-0.15322891,-9.32781,0.7597976,47.67345,-0.8709024,-2.5318918,-3.2514558,-0.17029208,0.123186916,-0.29268184,28.875,30.3125,29.375,32.9375,35.375,36.5
0.08005172,-1.4406104,-0.81326926,-1.4566655,0.009648518,0.08332621,-0.16084605,-0.3906202,-0.36824304,0.059900884,3.0785332,-0.6252647,0.00030261648,-0.03568827,0.011278066,0.0012507126,-0.014376385,0.0019757175,0.004843948,0.5027614,-1.3802154,1.9027389,-2.091832,-1.5704178,2.4779856,-0.059420485,0.031969756,-0.040652722,4.9425236e-10,0.011555901,-0.064259976,-0.49799395,-0.11492168,-9.346964,0.83365434,47.703903,-0.7304318,-2.4878662,-3.2523637,-0.15908161,0.10539387,-0.2773817,28.875,30.3125,29.375,32.9375,35.375,36.5
0.082052134,-1.7369558,-0.94032365,-1.571159,0.009375155,0.07287017,-0.1585174,-0.39070502,-0.36823076,0.059932973,3.0784879,-0.6252138,0.00023102635,-0.035216082,0.010374463,0.0011461218,-0.0144479815,0.0018316882,0.010924212,0.5026544,-1.3801792,1.9026202,-2.0918195,-1.5704058,2.4778526,-0.057534806,0.032754105,-0.041342597,3.2271148e-11,0.011692178,-0.06845354,-0.49799395,-0.076614454,-9.385271,0.7486078,47.684196,-0.98064566,-2.4926703,-3.2290006,-0.17135057,0.10187383,-0.22459088,28.875,30.3125,29.375,32.9375,35.375,36.5
0.08405245,-1.738719,-0.8898755,-1.7564297,0.0069650146,0.06592007,-0.15710512,-0.39077118,-0.3682063,0.059914123,3.0784595,-0.6251679,0.0002796239,-0.036528677,0.011489115,0.0010089196,-0.013978992,0.0019072109,0.011891129,0.5025216,-1.3800948,1.9025716,-2.0918558,-1.5703577,2.4776947,-0.06034314,0.03353278,-0.041953776,2.1070751e-12,0.011244828,-0.07222779,-0.53630114,-0.076614454,-9.3661175,0.7642693,47.694054,-0.92430305,-2.4624486,-3.2252312,-0.17541836,0.10262744,-0.17696223,28.875,30.3125,29.375,32.9375,35.375,36.5
0.086051986,-1.3024578,-1.0057077,-1.6802567,-0.001421078,0.07477869,-0.15896572,-0.39082593,-0.36819735,0.05990558,3.0784504,-0.6250694,0.00034460746,-0.037012447,0.011726511,0.0006190849,-0.014011881,0.0011392846,0.013696336,0.50242555,-1.3800101,1.9024881,-2.0918438,-1.5703095,2.4775383,-0.061432544,0.034753382,-0.04251295,1.3757695e-13,0.011642196,-0.07512271,-0.45968673,-0.076614454,-9.3661175,0.8023209,47.698532,-0.9004561,-2.512889,-3.286519,-0.1684014,0.10809927,-0.15418762,28.875,30.3125,29.375,32.9375,35.375,36.5
0.0880521,-0.82867676,-1.1110091,-1.425653,-0.0021148303,0.0774114,-0.15661326,-0.39092395,-0.36817124,0.059924614,3.0784502,-0.6250096,0.00026330067,-0.037566986,0.012070584,0.00025899106,-0.013433481,0.00078383787,0.015352767,0.50230557,-1.3799378,1.9023565,-2.091832,-1.5703338,2.4773812,-0.06230761,0.035985377,-0.043153193,8.982791e-15,0.011309687,-0.077652745,-0.28730422,-0.05746084,-9.404425,0.6948948,47.693153,-1.0247333,-2.5977201,-3.3397465,-0.17240945,0.10886913,-0.10260801,28.875,30.3125,29.375,32.9375,35.375,36.5
0.0900527,-0.756188,-1.0773588,-1.52218,-4.9759444e-07,0.073476225,-0.15679072,-0.39100915,-0.36812818,0.059928786,3.0784242,-0.62506235,0.00020724277,-0.039449036,0.01191768,0.001308853,-0.014405208,0.0031042318,0.014732888,0.5021613,-1.3798896,1.9022955,-2.0918558,-1.5703458,2.4772732,-0.06362132,0.036586553,-0.046254057,5.8651214e-16,0.011041806,-0.07834445,-0.36391866,-0.05746084,-9.3661175,0.78217715,47.687782,-0.9918052,-2.553228,-3.1982553,-0.19806382,0.105126664,-0.07815087,28.875,30.3125,29.375,32.9375,35.375,36.5
0.09205175,-0.9964559,-0.91178274,-1.6681058,0.0011405431,0.05451433,-0.1554868,-0.39108697,-0.36810815,0.059921246,3.0784025,-0.62501913,0.00029935988,-0.039527085,0.011804633,0.00061790756,-0.0147624,0.0014750706,0.013678314,0.5020175,-1.3797809,1.9021758,-2.0918195,-1.5702852,2.4771051,-0.06417472,0.03828123,-0.046690337,3.829505e-17,0.012137264,-0.07784462,-0.34476504,0.1340753,-9.32781,0.7642693,47.688675,-1.126853,-2.4864874,-3.184402,-0.19985263,0.093115896,-0.062465012,28.875,30.3125,29.375,32.9375,35.375,36.5
0.0940519,-0.83612376,-1.2186266,-1.8965822,-0.0047215484,0.049935993,-0.1564023,-0.3911811,-0.3680742,0.059934687,3.0783572,-0.62497205,0.00019877957,-0.03960878,0.012937583,0.00015810833,-0.013607097,0.00086822425,0.011847679,0.5018732,-1.3797448,1.9021162,-2.0918796,-1.5702857,2.4769373,-0.065700136,0.038024757,-0.045341842,2.500393e-18,0.011426961,-0.077538066,-0.2681506,0.076614454,-9.346964,0.7329411,47.713753,-1.1008875,-2.5525813,-3.373937,-0.19481768,0.10125799,-0.08017743,28.875,30.3125,29.375,32.9375,35.375,36.5
0.09605185,-0.5021922,-1.2581346,-1.8453205,-0.018712906,0.05281631,-0.15892355,-0.39127114,-0.3680472,0.059949823,3.0783162,-0.6249631,0.0001792018,-0.040962707,0.01263695,0.000298527,-0.013881506,0.001526094,0.010453859,0.5017293,-1.3796842,1.9020075,-2.0918682,-1.5702618,2.476793,-0.066390276,0.04012378,-0.048146136,1.6325778e-19,0.011348769,-0.076832406,-0.1340753,0.038307227,-9.423578,0.7866488,47.66987,-1.1091871,-2.5269046,-3.2723522,-0.19849245,0.10928868,-0.059761472,28.875,30.3125,29.375,32.9375,35.375,36.5
0.098052174,-0.9941185,-1.8271074,-1.9825693,-0.011643149,0.0356643,-0.14649445,-0.391335,-0.36802885,0.059923958,3.078314,-0.62490755,0.00027249096,-0.042625748,0.012960177,0.0010166436,-0.01415181,0.0033464315,0.006992607,0.501609,-1.3795639,1.901924,-2.0918682,-1.5702137,2.4766383,-0.06806511,0.04056805,-0.050309885,1.0659567e-20,0.010703556,-0.07504464,-0.11492168,0.11492168,-9.442732,0.83589023,47.661808,-1.1058075,-2.626152,-3.2367852,-0.18419115,0.10598667,-0.08234042,28.875,30.3125,29.375,32.9375,35.375,36.5
0.10005231,-0.2577518,-1.4913155,-1.7739359,-0.023700291,0.05651156,-0.15467297,-0.39145002,-0.36799487,0.059939068,3.0782857,-0.6249025,0.00018967794,-0.04418767,0.01311956,0.0016977176,-0.014780167,0.0048861243,0.0038596003,0.5014528,-1.3794795,1.9017924,-2.0918796,-1.5702261,2.4764826,-0.06964777,0.04111158,-0.05250487,6.9599357e-22,0.010515185,-0.07349247,-0.076614454,0.17238252,-9.346964,0.82694155,47.690468,-1.1295679,-2.475364,-3.115478,-0.19314334,0.104774415,-0.13355057,28.875,30.3125,29.375,32.9375,35.375,36.5
0.10205247,-0.46001095,-1.8208562,-1.8343349,-0.023774689,0.045601998,-0.15147914,-0.39152667,-0.36795148,0.05992925,3.078309,-0.6248692,0.00021992579,-0.04378098,0.014333345,-4.9892813e-05,-0.012627921,0.0019253995,0.0009355667,0.5013086,-1.3793948,1.901709,-2.0918558,-1.5702261,2.4763148,-0.07101398,0.04295619,-0.050716247,4.5443405e-23,0.010053954,-0.071934775,-0.05746084,0.22984336,-9.404425,0.8090337,47.67345,-1.1222737,-2.5493834,-3.2317042,-0.19274548,0.12794062,-0.13247871,28.875,30.3125,29.375,32.9375,35.375,36.5
0.10405274,-1.0303656,-2.2587504,-1.9174811,-0.018626558,0.027879199,-0.14690366,-0.39157104,-0.3679318,0.05989842,3.078327,-0.6248366,0.00032775395,-0.045472223,0.01475134,0.0005957928,-0.013241329,0.0033663183,-0.0023833863,0.50121206,-1.3792866,1.9016484,-2.0918438,-1.5701903,2.4761956,-0.07317656,0.043400183,-0.052715104,2.9671297e-24,0.009891483,-0.07077792,-0.05746084,0.24899697,-9.481039,0.800085,47.707485,-1.0980184,-2.580628,-3.2889686,-0.2119065,0.13174567,-0.17972359,28.875,30.3125,29.375,32.9375,35.375,36.5
0.10605163,-0.51125157,-2.002634,-1.9432355,-0.0325004,0.039636806,-0.15030712,-0.3916701,-0.3678982,0.059906125,3.0783067,-0.62481254,0.00031153066,-0.04654686,0.014599571,0.0011788674,-0.014353776,0.004771788,-0.004142081,0.50105613,-1.3792026,1.9015287,-2.091832,-1.5701784,2.4760273,-0.074087024,0.04359638,-0.05415893,-0.0005185681,0.010190678,-0.06992918,0.019153614,0.28730422,-9.442732,0.7978386,47.672558,-1.1183325,-2.4769282,-3.2714977,-0.22202459,0.116533026,-0.20629394,28.875,30.3125,29.375,32.9375,35.375,36.5
0.10805192,-1.1120892,-1.9442697,-2.0468235,-0.036741655,0.02758966,-0.15026899,-0.39178818,-0.3678884,0.059937347,3.0781913,-0.6248075,0.00021847358,-0.047278848,0.014654776,0.00071201596,-0.015120601,0.0036256504,-0.0037766015,0.5008999,-1.3791418,1.9013966,-2.0918796,-1.5701298,2.4758825,-0.07560479,0.045443483,-0.05525933,-0.00062658795,0.0114216525,-0.071811914,-0.05746084,0.2681506,-9.404425,0.8157518,47.63404,-1.1353185,-2.5341198,-3.248941,-0.22817358,0.11580163,-0.24215049,28.875,30.3125,29.375,32.9375,35.375,36.5
0.11005207,-0.93063843,-2.282135,-1.9712613,-0.026612336,0.033424407,-0.1465773,-0.39186743,-0.36784822,0.059931517,3.0781817,-0.62484527,0.0002730972,-0.04754378,0.014742243,-3.1878553e-05,-0.0145912375,0.0024411515,-0.00444826,0.500744,-1.3790569,1.9013013,-2.0918438,-1.5701059,2.4757514,-0.07604796,0.047404043,-0.0558822,-0.00066806463,0.011524217,-0.07158328,-0.076614454,0.15322891,-9.500193,0.800085,47.694054,-1.1904649,-2.5957866,-3.2251143,-0.23347747,0.10819354,-0.2742623,28.875,30.3125,29.375,32.9375,35.375,36.5
0.11205219,-0.703757,-1.4348217,-1.9164226,-0.03869074,0.053296346,-0.15583974,-0.39199027,-0.3678161,0.05993868,3.0781422,-0.6249132,0.00022701322,-0.049119167,0.014832078,0.0016114636,-0.016387261,0.0058851726,-0.00698535,0.5005761,-1.3789376,1.9011439,-2.0918443,-1.5701059,2.475631,-0.0775866,0.045583155,-0.05732999,-0.0012811536,0.011446377,-0.070583954,-0.1340753,0.19153613,-9.385271,0.7642693,47.694946,-1.1607502,-2.4588244,-3.2579951,-0.23112263,0.11492732,-0.3167867,28.875,30.3125,29.375,32.9375,35.375,36.5
0.11405256,-0.4126822,-1.3394966,-1.8732007,-0.022278931,0.062379897,-0.15793659,-0.39209154,-0.36778113,0.05993654,3.0781248,-0.62483084,0.0002257633,-0.049844746,0.014792618,0.0014095734,-0.017405143,0.005189949,-0.0058017466,0.50040805,-1.3788409,1.9010371,-2.0918562,-1.5700811,2.4754138,-0.078938566,0.046939157,-0.058454793,-0.0013899667,0.012674903,-0.07312,-0.1340753,0.28730422,-9.423578,0.78217715,47.690468,-1.3026223,-2.4476457,-3.2408566,-0.23564553,0.108967215,-0.34910414,28.875,30.3125,29.375,32.9375,35.375,36.5
0.116052285,-0.33582494,-1.4322916,-1.8577092,-0.01521005,0.06446728,-0.14186193,-0.39217585,-0.3677595,0.05993833,3.078039,-0.6249506,0.00023235679,-0.050867505,0.015355652,0.0011272999,-0.017492704,0.004729412,-0.009251167,0.50026333,-1.3787686,1.9009527,-2.09188,-1.5700325,2.4753547,-0.08100251,0.048262365,-0.05937262,-0.0014298541,0.012974496,-0.071733825,-0.11492168,0.26815057,-9.461885,0.8291774,47.681515,-1.1275957,-2.4654636,-3.2594504,-0.23764832,0.10271461,-0.36605227,28.875,30.3125,29.375,32.9375,35.375,36.5
0.11805234,-0.40173587,-1.3107814,-1.7375206,-0.015853548,0.07036694,-0.1475099,-0.3922925,-0.36773756,0.0599497,3.0779831,-0.62493837,0.00021372872,-0.050655507,0.014696098,0.00021589773,-0.017021535,0.00328488,-0.008176893,0.5000962,-1.3786595,1.9007977,-2.09188,-1.5699967,2.475187,-0.07985151,0.050880507,-0.060377475,-0.0015458978,0.013256578,-0.07165598,-0.24899697,0.21068975,-9.404425,0.80456203,47.67614,-1.3603429,-2.6070666,-3.2308872,-0.24727684,0.097916126,-0.44826984,28.875,30.3125,29.375,32.9375,35.375,36.5
0.120052405,-0.8689686,-0.72117436,-1.9381789,-0.02050503,0.0650419,-0.15848571,-0.3923899,-0.3677036,0.059938934,3.0779788,-0.6248596,0.00026311047,-0.053000934,0.016566092,0.00089965155,-0.017544147,0.004620287,-0.009946131,0.49992692,-1.3785394,1.9006776,-2.0918686,-1.5699614,2.4749691,-0.08503323,0.050229017,-0.06117418,-0.0015122026,0.013075861,-0.07506823,-0.24899697,0.11492168,-9.404425,0.842603,47.71286,-1.282698,-2.5301142,-3.2672408,-0.24757706,0.11275454,-0.45734638,28.875,30.3125,29.375,32.9375,35.375,36.5
0.1220525,-1.0940678,-1.0186387,-1.8161371,-0.004193673,0.0709059,-0.15413223,-0.39248446,-0.36767536,0.059928555,3.0779512,-0.624869,0.00024808384,-0.053055912,0.015216318,0.0022662533,-0.01931983,0.007003503,-0.0041719624,0.499784,-1.3784319,1.9005817,-2.091904,-1.5699486,2.4748356,-0.08305391,0.048927177,-0.062725544,-0.0015974906,0.013493816,-0.078862794,-0.21068975,0.019153614,-9.461885,0.7597976,47.675243,-1.318606,-2.489221,-3.2828307,-0.24390459,0.10086514,-0.4659733,28.875,30.3125,29.375,32.9375,35.375,36.5
0.1240376,-0.58265436,-0.5360731,-1.6277813,-0.009777627,0.08890191,-0.15958196,-0.39260206,-0.3676671,0.059938394,3.077903,-0.6248184,0.00022784164,-0.054228965,0.016298464,0.0013099043,-0.0181952,0.0060302597,-0.0002545174,0.4996394,-1.378299,1.900402,-2.091904,-1.5699133,2.4746656,-0.08561573,0.05128734,-0.06325451,-0.0020238128,0.01297979,-0.08534031,-0.34476507,0.038307227,-9.385271,0.8717007,47.690468,-1.325681,-2.4513597,-3.2870226,-0.2475692,0.097558826,-0.45340964,28.875,30.3125,29.375,32.9375,35.375,36.5
0.12600483,-1.6603041,-0.8118955,-1.9088926,0.0044925315,0.068161905,-0.15092583,-0.39272377,-0.36760554,0.05994768,3.0778697,-0.6248666,0.00018642336,-0.055459306,0.016613053,0.0013104985,-0.019097012,0.0061978637,0.002629909,0.4994231,-1.3782265,1.9002951,-2.0919044,-1.5699128,2.4744837,-0.087702714,0.05237373,-0.064436436,-0.0025031227,0.013696029,-0.090311274,-0.36391866,-0.05746084,-9.481039,0.7978386,47.684196,-1.311914,-2.5267513,-3.3219938,-0.260926,0.10385159,-0.40738788,28.875,30.3125,29.375,32.9375,35.375,36.5
0.12805212,-1.311011,-0.2890964,-1.7090735,-0.0040824525,0.07808293,-0.15894586,-0.39281562,-0.36758107,0.059943296,3.077841,-0.6248192,0.00023437027,-0.056482103,0.016605917,0.001560283,-0.01962403,0.0072573624,0.0079871835,0.49926713,-1.378118,1.900174,-2.0918925,-1.5698646,2.4743018,-0.08858787,0.053085748,-0.0657156,-0.0031065575,0.013652763,-0.09655299,-0.40222588,-0.11492168,-9.481039,0.7777002,47.645687,-1.3208762,-2.4333115,-3.2843308,-0.25114933,0.10432941,-0.39643615,28.875,30.3125,29.375,32.9375,35.375,36.5
0.13005249,-1.1118647,-0.59548527,-1.7542908,0.008516096,0.088726275,-0.15538847,-0.39293012,-0.36754233,0.05993736,3.0778084,-0.6247319,0.0002296367,-0.05788719,0.01815154,0.0011564104,-0.019507797,0.006231042,0.012054249,0.499074,-1.3780097,1.9000672,-2.0919282,-1.5698289,2.4740584,-0.09270854,0.054027095,-0.06598408,-0.0028108296,0.014052811,-0.104740426,-0.51714754,-0.11492168,-9.404425,0.8224646,47.71017,-1.1647894,-2.4806347,-3.3256698,-0.25744408,0.10273786,-0.26788723,28.875,30.3125,29.375,32.9375,35.375,36.5
0.13205262,-1.2993191,-0.3727066,-1.782167,0.008062948,0.08701948,-0.15303378,-0.39306518,-0.36750266,0.059951816,3.0777898,-0.62470526,0.00018513647,-0.0594114,0.016828546,0.0027214761,-0.020430893,0.009671962,0.017498387,0.4988829,-1.3778894,1.8998865,-2.0919044,-1.5698293,2.473853,-0.091340564,0.054760683,-0.07048953,-0.0024928343,0.013217051,-0.10881346,-0.5554548,-0.05746084,-9.404425,0.8560339,47.694946,-1.3728136,-2.3812525,-3.2137523,-0.27293372,0.098832175,-0.26063374,28.875,30.3125,29.375,32.9375,35.375,36.5
0.13405183,-1.3301125,-0.62767345,-1.7569876,0.008511858,0.09669298,-0.15643089,-0.39317578,-0.36746332,0.059938997,3.077764,-0.6246425,0.0002630812,-0.06062517,0.019862818,0.00066123763,-0.018618023,0.005703588,0.015455469,0.49867707,-1.3777564,1.8997554,-2.0918925,-1.5697688,2.4736114,-0.09773424,0.05715261,-0.068683416,-0.0023264806,0.013531916,-0.11316507,-0.61291564,-0.076614454,-9.481039,0.8023209,47.68599,-1.2124491,-2.5278518,-3.1857,-0.26838338,0.121645436,-0.18094394,28.875,30.3125,29.375,32.9375,35.375,36.5
0.13605276,-1.8365889,-0.8297452,-1.8434447,0.0015919879,0.1010127,-0.15559316,-0.393255,-0.36742792,0.059922438,3.077771,-0.62450665,0.00031262965,-0.060541417,0.018744191,0.0018935836,-0.019947572,0.007633532,0.01903797,0.49852216,-1.3776609,1.8996824,-2.091904,-1.569733,2.4733708,-0.09590781,0.055824496,-0.06998637,-0.0020191702,0.0137766125,-0.11492125,-0.5746084,-0.038307227,-9.481039,0.8314132,47.64389,-1.2861495,-2.434782,-3.3124561,-0.27547336,0.12011577,-0.13812798,28.875,30.3125,29.375,32.9375,35.375,36.5
0.1380518,-1.7982844,-1.2409422,-1.9083507,-0.00864911,0.098795176,-0.15253319,-0.39342344,-0.36738423,0.05994418,3.0777102,-0.62453425,0.00021229566,-0.06346663,0.019152993,0.0031982507,-0.021561397,0.010172413,0.0147863515,0.4982935,-1.3775283,1.8994788,-2.0919163,-1.569733,2.4731672,-0.0993819,0.056612533,-0.07392634,-0.0018669954,0.0139853675,-0.114141084,-0.63206923,0.076614454,-9.461885,0.7866488,47.661808,-1.1884165,-2.402369,-3.077616,-0.2805393,0.12084668,-0.14711136,28.875,30.3125,29.375,32.9375,35.375,36.5
0.14005207,-2.0567105,-1.5667518,-1.9571996,-0.012047462,0.09380638,-0.13702068,-0.39355454,-0.3673462,0.05996204,3.077678,-0.6244539,0.00015433024,-0.06368872,0.020651642,0.0008192143,-0.019320516,0.006016261,0.008357438,0.49810106,-1.377431,1.8993229,-2.0919163,-1.5697206,2.4729288,-0.102095485,0.060384486,-0.07299664,-0.0018464979,0.014012268,-0.11042475,-0.7469909,0.11492168,-9.481039,0.81351066,47.681515,-1.1047734,-2.4729037,-3.1379316,-0.2890049,0.10585576,-0.15749392,28.875,30.3125,29.375,32.9375,35.375,36.5
0.14205228,-1.0869371,-1.7945065,-2.0135553,-0.016871005,0.11969022,-0.14436531,-0.3936734,-0.36730477,0.05994862,3.0776296,-0.6245047,0.00023131007,-0.06523787,0.021723337,0.0013351683,-0.019475028,0.0073631825,0.00088188867,0.49788463,-1.3772869,1.8991798,-2.091904,-1.5696605,2.4727502,-0.10497509,0.060034405,-0.07372327,-0.0020201877,0.013501261,-0.10582837,-0.7278373,0.095768064,-9.557653,0.8605109,47.696735,-1.0470771,-2.5030007,-3.2826715,-0.28404313,0.13792358,-0.23698151,28.875,30.3125,29.375,32.9375,35.375,36.5
0.14405239,-1.5650773,-2.144499,-2.183886,-0.013918886,0.099899404,-0.13998637,-0.3938043,-0.36724573,0.059957087,3.0776274,-0.6244869,0.00016160584,-0.0672265,0.02227557,0.0026579793,-0.02076594,0.010050134,-0.0046385503,0.49768,-1.3771913,1.8990473,-2.0919044,-1.5696849,2.472535,-0.107609324,0.059137136,-0.07563265,-0.0021929848,0.013353386,-0.102940924,-0.49799395,0.05746084,-9.5385,0.7553206,47.72271,-0.99003816,-2.326261,-3.1860871,-0.30613,0.14383444,-0.2858383,28.875,30.3125,29.375,32.9375,35.375,36.5
0.14605209,-0.92304343,-1.7820933,-2.020365,-0.018374052,0.101351894,-0.14267877,-0.3939585,-0.36718926,0.059958324,3.0775762,-0.6244954,0.00013096552,-0.06843595,0.022603653,0.0021910174,-0.02066294,0.009712542,-0.005798368,0.4974281,-1.3770583,1.8988923,-2.0919282,-1.5696605,2.4722948,-0.10928241,0.06140995,-0.07718905,-0.002557386,0.013429531,-0.103452645,-0.5554548,0.076614454,-9.576807,0.84708,47.67614,-0.8789373,-2.390478,-3.2305162,-0.2927637,0.15866873,-0.31092072,28.875,30.3125,29.375,32.9375,35.375,36.5
0.14805222,-0.8890937,-1.6687765,-1.9059976,-0.019429622,0.09722969,-0.14133373,-0.39409178,-0.3671583,0.05996943,3.077503,-0.6245185,0.00012202957,-0.0689875,0.023220828,0.0018606335,-0.021254882,0.009084215,-0.006882507,0.49722382,-1.376938,1.8987244,-2.0919282,-1.5696129,2.4721143,-0.11130737,0.061820872,-0.07681444,-0.0030673044,0.01425855,-0.10439343,-0.5554548,0.15322891,-9.557653,0.77545905,47.652847,-0.8937963,-2.4201765,-3.267089,-0.2995655,0.16267827,-0.33093214,28.875,30.3125,29.3125,32.9375,35.375,36.5
0.15005223,-1.039557,-1.8013164,-2.0303836,-0.007828692,0.10629519,-0.13787071,-0.39422888,-0.36710238,0.05995895,3.0775015,-0.62451667,0.00015036903,-0.07019055,0.023335148,0.002220619,-0.022175606,0.01005196,-0.007594748,0.49699587,-1.3767816,1.8985575,-2.0919049,-1.5696,2.4718854,-0.11278479,0.062391005,-0.07821401,-0.0035233102,0.0146057485,-0.10515836,-0.51714754,0.095768064,-9.442732,0.82694155,47.678825,-0.921185,-2.3528895,-3.201563,-0.30716765,0.16215569,-0.34192067,28.875,30.3125,29.3125,32.9375,35.375,36.5
0.15205231,-1.1771383,-1.1791021,-1.945741,-0.0048687365,0.1025607,-0.146561,-0.3943759,-0.36706775,0.059972182,3.0773983,-0.62457156,7.078264e-05,-0.07111203,0.022684366,0.002607642,-0.024285823,0.010549087,-0.0071116243,0.49678013,-1.3766732,1.8984126,-2.091965,-1.5695637,2.4717171,-0.113508746,0.06331366,-0.08007752,-0.004022795,0.016234146,-0.10636405,-0.45968673,0.1340753,-9.500193,0.7642693,47.70211,-0.91494197,-2.4187696,-3.2297235,-0.3034764,0.15927024,-0.3824504,28.875,30.3125,29.3125,32.9375,35.375,36.5
0.15405205,-0.9867594,-1.4365951,-2.1147656,0.008371419,0.09676817,-0.14095357,-0.3944991,-0.36702174,0.059958898,3.077365,-0.6245462,0.00014701931,-0.07166545,0.022526208,0.0027797995,-0.02447659,0.011116244,-0.007833533,0.49655235,-1.376529,1.898269,-2.0919526,-1.5695037,2.4714777,-0.11365233,0.06395454,-0.08121907,-0.0041018524,0.016131828,-0.10578535,-0.40222588,0.05746084,-9.481039,0.7866488,47.681515,-0.9743987,-2.3187456,-3.2657166,-0.2919822,0.17364793,-0.39239794,28.875,30.3125,29.3125,32.9375,35.375,36.5
0.15605253,-0.9791019,-1.0537652,-1.8810569,0.006310952,0.07733252,-0.13957377,-0.39465877,-0.36697778,0.05996902,3.0773122,-0.6245685,8.6918204e-05,-0.072677754,0.022222918,0.0030784197,-0.024609368,0.012294037,-0.0026927113,0.49632487,-1.3763844,1.8980774,-2.091965,-1.5694922,2.471271,-0.11375953,0.06518089,-0.083309434,-0.0043238336,0.015698753,-0.111031175,-0.36391866,0.019153614,-9.423578,0.7978386,47.65106,-1.022969,-2.4174876,-3.0874941,-0.28791296,0.1642007,-0.40657547,28.875,30.3125,29.3125,32.9375,35.375,36.5
0.15805252,-0.9606912,-0.90338135,-1.9823636,0.00727092,0.057916187,-0.14857209,-0.39480892,-0.36691812,0.059963018,3.0772839,-0.6245422,8.3742496e-05,-0.07357865,0.023934742,0.0024010453,-0.023840904,0.011231441,-0.0015958592,0.49607205,-1.37624,1.8979224,-2.091977,-1.5694684,2.4710054,-0.11732624,0.06571497,-0.082377,-0.0044770306,0.015543045,-0.11569461,-0.17238252,-0.019153614,-9.423578,0.76874626,47.667187,-0.8841312,-2.335331,-3.2816699,-0.31182867,0.17628199,-0.3698892,28.875,30.3125,29.3125,32.9375,35.375,36.5
0.16005278,-0.2862689,-1.0279487,-1.9041946,0.0070998766,0.058346387,-0.14969197,-0.394945,-0.36687317,0.059969243,3.0772626,-0.62443525,6.3098065e-05,-0.075271055,0.022875583,0.0036398221,-0.025112348,0.014179025,0.006004486,0.49585706,-1.3761195,1.8977655,-2.0919774,-1.5694445,2.4707265,-0.116884835,0.06679495,-0.086433336,-0.004681974,0.015265614,-0.12285109,-0.11492168,-0.038307227,-9.385271,0.8784135,47.709274,-1.1155345,-2.2961583,-3.1271896,-0.3127638,0.20739304,-0.30389035,28.875,30.3125,29.3125,32.9375,35.375,36.5
0.16205214,0.0410611,-1.2137642,-1.9019092,0.0102099385,0.05248003,-0.14831293,-0.39512175,-0.36681923,0.05998962,3.0771775,-0.6245122,-6.419645e-05,-0.07527344,0.024347447,0.0022541597,-0.023668142,0.01161072,0.009831345,0.49560452,-1.3759991,1.8975872,-2.092025,-1.5694445,2.470533,-0.119303055,0.06803484,-0.08477434,-0.0046228585,0.015246384,-0.12909506,-0.05746084,0.0,-9.423578,0.7530795,47.688675,-0.92774713,-2.2976158,-3.0982876,-0.31139055,0.23460564,-0.24816117,28.875,30.3125,29.3125,32.9375,35.375,36.5
0.16405232,-0.33450016,-1.160214,-1.9523987,0.0029198246,0.038298257,-0.1465863,-0.39526948,-0.36677474,0.059987433,3.0771618,-0.62440854,-1.396459e-05,-0.07677538,0.02420608,0.0032531272,-0.025047522,0.0133435195,0.01579141,0.4953646,-1.3758307,1.897384,-2.0919888,-1.5693964,2.4702303,-0.1206428,0.068181686,-0.087270916,-0.0044352715,0.01564426,-0.1363941,-0.038307227,0.038307227,-9.346964,0.83813137,47.694054,-1.0221597,-2.2473657,-3.188163,-0.30128884,0.22410677,-0.14644517,28.875,30.3125,29.3125,32.9375,35.375,36.5
0.1660528,0.07195551,-1.5028588,-1.8302443,-0.008149386,0.048745506,-0.14216745,-0.39543718,-0.36672527,0.060003895,3.077106,-0.6243563,-7.520541e-05,-0.07703667,0.024380822,0.0022869515,-0.024876542,0.011104331,0.018357534,0.49511272,-1.3756979,1.8971919,-2.0920007,-1.5693716,2.469953,-0.12170803,0.070599385,-0.088045195,-0.0040183295,0.01657696,-0.14002399,-0.11492168,0.11492168,-9.251195,0.842603,47.664497,-1.0511267,-2.3599863,-3.1736667,-0.31340888,0.23421362,-0.1228134,28.875,30.3125,29.3125,32.9375,35.375,36.5
0.16805209,0.05947826,-1.634788,-1.9535761,-0.014344803,0.051259138,-0.14176571,-0.39556816,-0.36667016,0.059995856,3.0770462,-0.6243661,2.3633305e-05,-0.07820824,0.025402594,0.0024831335,-0.025401969,0.0109897535,0.012067124,0.49484822,-1.3755656,1.8970479,-2.091977,-1.5692877,2.4697022,-0.12477586,0.07058632,-0.08857463,-0.0036148166,0.01709377,-0.13680163,-0.038307227,0.2681506,-9.270349,0.83589023,47.653748,-0.99213576,-2.2465732,-3.1774297,-0.3035928,0.2366568,-0.11607436,28.875,30.3125,29.3125,32.9375,35.375,36.5
0.1700522,-0.07472834,-1.7232054,-2.1189594,-0.023667818,0.04775413,-0.14225005,-0.39573985,-0.36661828,0.06002067,3.077046,-0.62428844,-0.00012222867,-0.07717025,0.02402509,0.001732577,-0.025462417,0.009198118,0.010823309,0.49463376,-1.3754328,1.8968338,-2.0919764,-1.5693353,2.4694395,-0.12203383,0.07266782,-0.089413576,-0.003320808,0.018007103,-0.13281399,-0.076614454,0.15322891,-9.385271,0.84708,47.707485,-1.1535109,-2.3260565,-3.243557,-0.315122,0.23567066,-0.12055218,28.875,30.3125,29.3125,32.9375,35.375,36.5
0.17205216,0.015695563,-2.0523963,-2.0975633,-0.027523983,0.052995425,-0.15010864,-0.39589068,-0.36654782,0.05999315,3.0769875,-0.624338,-3.4691187e-05,-0.079000786,0.025558252,0.0018842217,-0.025352437,0.009483169,0.0020050837,0.49433294,-1.3752648,1.8967022,-2.0920002,-1.5692633,2.469177,-0.12608968,0.07312337,-0.09038409,-0.002995593,0.017772146,-0.1280514,-0.038307227,0.21068975,-9.346964,0.8090337,47.687782,-0.9575654,-2.304294,-3.3071597,-0.32389134,0.25909236,-0.21643884,28.875,30.3125,29.3125,32.9375,35.375,36.5
0.17405227,-0.20022646,-1.922997,-2.1405125,-0.037370495,0.043538284,-0.14356129,-0.396046,-0.36651203,0.060006388,3.0769196,-0.62428623,-3.218583e-05,-0.07926798,0.025151223,0.0016854425,-0.025186658,0.009248282,-0.0014950274,0.4940938,-1.3751199,1.8964976,-2.0919883,-1.5692033,2.4689143,-0.12558292,0.07462999,-0.091767445,-0.0028273708,0.017740786,-0.12404294,0.019153614,0.36391866,-9.308656,0.83589023,47.675243,-1.1769596,-2.312639,-3.2738295,-0.33907068,0.2623945,-0.25718743,28.875,30.3125,29.3125,32.9375,35.375,36.5
0.17605275,-0.15276349,-2.298696,-2.274806,-0.027558023,0.039521836,-0.1471304,-0.3962182,-0.3664786,0.060027294,3.076826,-0.6242694,-0.00015094537,-0.080067925,0.025664669,0.001750386,-0.02629257,0.009171848,-0.0065642474,0.49386555,-1.3749877,1.8963069,-2.0920484,-1.5691789,2.4686875,-0.1277594,0.07467673,-0.09188921,-0.0032103392,0.018764852,-0.12114812,-0.05746084,0.38307226,-9.32781,0.8940802,47.687782,-1.1686808,-2.2679708,-3.307983,-0.33728173,0.26772252,-0.3161319,28.875,30.3125,29.3125,32.9375,35.375,36.5
0.17805183,0.20614855,-1.623355,-2.0840838,-0.050342172,0.055933118,-0.14981596,-0.39636856,-0.3664164,0.060018066,3.0767956,-0.6242825,-0.00011352264,-0.08114195,0.026002562,0.00077362085,-0.025807744,0.007812732,-0.009642816,0.49360147,-1.3748307,1.8961385,-2.092036,-1.5691427,2.4684355,-0.12939543,0.077952586,-0.093522996,-0.0034194877,0.018981034,-0.11970446,-0.076614454,0.36391866,-9.346964,0.8112748,47.66808,-1.1480577,-2.342533,-3.2211232,-0.33440983,0.2877797,-0.37763017,28.875,30.3125,29.3125,32.9375,35.375,36.5
0.18005204,-0.7712984,-2.0859933,-2.090653,-0.03807433,0.03476477,-0.14486673,-0.396514,-0.36636296,0.06000735,3.0767624,-0.62429565,-5.2692536e-05,-0.08222038,0.026031448,0.0021392058,-0.027616149,0.010098783,-0.012263544,0.49334964,-1.3746629,1.8959583,-2.0920126,-1.569095,2.4681962,-0.13069406,0.07628462,-0.09463689,-0.0035009673,0.019490179,-0.118382476,-0.019153614,0.22984336,-9.32781,0.8403672,47.694946,-1.1737094,-2.1059,-3.298262,-0.33988816,0.28756714,-0.43233606,28.875,30.3125,29.3125,32.9375,35.375,36.5
0.18205221,-1.0727515,-2.3345873,-2.0417914,-0.027002923,0.032011047,-0.14213799,-0.39669135,-0.3663226,0.0600305,3.076661,-0.6243126,-0.0001433249,-0.08282807,0.026148632,0.0011984194,-0.028111245,0.008044761,-0.0128398845,0.49309766,-1.37453,1.8957561,-2.092049,-1.5690583,2.4679677,-0.13227414,0.078963645,-0.095673114,-0.0035630483,0.020915678,-0.11938333,-0.095768064,0.2681506,-9.481039,0.80456203,47.688675,-1.1051893,-2.1184506,-3.4093502,-0.3482774,0.29144627,-0.4831791,28.875,30.3125,29.3125,32.9375,35.375,36.5
0.1840524,-0.97126174,-2.017751,-1.7500261,-0.02792331,0.053813882,-0.14573188,-0.3968484,-0.3662826,0.060034655,3.0766184,-0.62426263,-0.00012277329,-0.08321433,0.026708584,-0.00049844605,-0.027536131,0.0052148337,-0.011393986,0.49285772,-1.3743606,1.8955401,-2.092025,-1.5690101,2.4677022,-0.13404158,0.0823325,-0.09570377,-0.004122812,0.021759061,-0.12259561,-0.22984336,0.28730422,-9.270349,0.8627467,47.696735,-1.1417729,-2.4991305,-3.2642322,-0.33844566,0.29915527,-0.49348187,28.875,30.3125,29.3125,32.9375,35.375,36.5
0.18605219,-1.1593153,-1.6597061,-1.7522218,-0.018746343,0.060446423,-0.1461976,-0.39701587,-0.36621672,0.06002589,3.076552,-0.6243201,-7.6824785e-05,-0.08436245,0.027264964,-2.2697143e-06,-0.028345052,0.0060405503,-0.0038196903,0.49255753,-1.3741928,1.8953608,-2.092025,-1.56895,2.4674463,-0.1361769,0.08212235,-0.09659802,-0.00409867,0.022100968,-0.13230471,-0.21068975,0.2681506,-9.32781,0.86945957,47.703007,-1.1139876,-2.2048628,-3.4000583,-0.32994348,0.2879179,-0.44279605,28.875,30.3125,29.3125,32.9375,35.375,36.5
0.1880523,-0.6929686,-1.1128747,-1.7318715,-0.012358917,0.078115225,-0.1478552,-0.39719793,-0.36618748,0.060041405,3.0764592,-0.6242381,-0.00013055012,-0.08610026,0.026957514,0.00042677362,-0.029718217,0.006762381,0.0050811344,0.4923055,-1.3740237,1.8951329,-2.0920608,-1.5688895,2.467155,-0.13773413,0.08405801,-0.0999088,-0.0039792564,0.022997096,-0.14275904,-0.19153613,0.15322891,-9.289503,0.83365434,47.672558,-1.0541143,-2.3248036,-3.24361,-0.34128493,0.29196864,-0.39084548,28.875,30.3125,29.3125,32.9375,35.375,36.5
0.1900526,-1.2446525,-0.89417183,-1.631963,-0.0074177957,0.07266537,-0.14854689,-0.3973656,-0.3661054,0.060022514,3.0764263,-0.6242649,-9.24278e-05,-0.086901926,0.028136576,-0.00012440633,-0.03003493,0.0056658983,0.011455526,0.49199292,-1.3738552,1.8949784,-2.0920727,-1.5688533,2.4668634,-0.14089572,0.08466484,-0.09930716,-0.004343743,0.023816057,-0.15229513,-0.3256114,0.05746084,-9.193734,0.8605109,47.711063,-0.94493544,-2.2529938,-3.3868594,-0.33543146,0.2899859,-0.2633102,28.875,30.3125,29.3125,32.9375,35.375,36.5
0.1920518,-1.3193616,-1.1997316,-1.4983847,0.012537029,0.09174212,-0.13224162,-0.39752457,-0.36606854,0.060016174,3.0763836,-0.6241549,-3.5265803e-05,-0.08800146,0.027319025,0.0007328454,-0.031647738,0.0073391777,0.017403388,0.49174187,-1.3736632,1.8947619,-2.0920608,-1.5687808,2.4665492,-0.14086099,0.08529035,-0.1019712,-0.004515582,0.024457809,-0.15820678,-0.38307226,-0.05746084,-9.251195,0.8179876,47.689575,-1.1391001,-2.303606,-3.3111484,-0.32833552,0.26661766,-0.20853797,28.875,30.3125,29.3125,32.9375,35.375,36.5
0.19405185,-1.1965516,-0.4963064,-1.5289772,0.009023745,0.09924856,-0.1468319,-0.3977088,-0.36598969,0.06001503,3.0763552,-0.6241479,-9.067977e-05,-0.08868612,0.027017199,-0.00048325266,-0.031103984,0.0053762086,0.018525995,0.49144232,-1.3735052,1.8945822,-2.0920842,-1.5687808,2.466249,-0.14120008,0.08948581,-0.104218565,-0.0044679013,0.024915941,-0.15966578,-0.45968673,-0.05746084,-9.251195,0.8537928,47.690468,-1.138676,-2.4187052,-3.2121103,-0.34249082,0.27033946,-0.14340174,28.875,30.3125,29.3125,32.9375,35.375,36.5
0.19605249,-1.6049691,-0.90628153,-1.4648751,0.01878682,0.10583759,-0.14345306,-0.3978924,-0.36596262,0.060028836,3.076261,-0.62401605,-0.00010835303,-0.08971362,0.027190166,0.0009914099,-0.03263846,0.007927657,0.012659307,0.49117857,-1.373326,1.8943433,-2.0921085,-1.5686969,2.465915,-0.14245342,0.087400444,-0.105100796,-0.004463728,0.025073987,-0.15505035,-0.6703765,0.0,-9.2703495,0.81351066,47.691364,-1.2090116,-2.246087,-3.2601583,-0.33322692,0.28677177,-0.1665426,28.875,30.3125,29.3125,32.9375,35.375,36.5
0.1980516,-1.9428754,-0.82638365,-1.5542195,0.009892928,0.10372197,-0.136786,-0.3980379,-0.3659115,0.060001176,3.0762794,-0.62394446,-1.3372001e-05,-0.0905773,0.027491307,-0.00019787689,-0.031529278,0.006037437,0.006892262,0.49093875,-1.3731086,1.8941396,-2.0920727,-1.5686611,2.4656281,-0.14363097,0.09114249,-0.10693186,-0.0041822824,0.02497343,-0.15046087,-0.7852981,-0.038307227,-9.174581,0.82694155,47.667187,-1.3113111,-2.324455,-3.2658658,-0.338771,0.2848645,-0.22468485,28.875,30.3125,29.3125,32.9375,35.375,36.5
0.20005177,-1.6588864,-0.76632226,-1.80569,0.0069021583,0.10839347,-0.13761011,-0.39824924,-0.3658539,0.06001224,3.0761657,-0.6239641,-6.968628e-05,-0.092340775,0.029110733,0.0008968923,-0.03226896,0.0076871985,-0.00133988,0.49061364,-1.3729289,1.8939117,-2.0921204,-1.568601,2.46533,-0.1478035,0.0892907,-0.10733259,-0.003724385,0.024862345,-0.14639916,-0.7469909,-0.13407528,-9.251195,0.92093146,47.721813,-1.0605533,-2.3575363,-3.1797724,-0.3570609,0.27182183,-0.29525012,28.875,30.3125,29.3125,32.9375,35.375,36.5
0.20205176,-1.7183369,-1.0716702,-1.611185,0.0045120576,0.0967294,-0.14561759,-0.3984415,-0.3657865,0.06002675,3.0760658,-0.6240011,-9.387327e-05,-0.09386959,0.030384907,0.0001359129,-0.03135399,0.006415858,-0.005171748,0.49028945,-1.3727839,1.8937091,-2.0921319,-1.5685409,2.4650416,-0.15113865,0.09181193,-0.1087099,-0.003299348,0.024668068,-0.14589997,-0.7086837,-0.1340753,-9.346964,0.800085,47.69763,-1.1437132,-2.3617928,-3.3825293,-0.35114053,0.2968021,-0.32791293,28.875,30.3125,29.3125,32.9375,35.375,36.5
0.20405194,-1.8179134,-1.09044,-1.6618029,0.005601401,0.094867654,-0.13405661,-0.39860618,-0.3657192,0.05998772,3.076055,-0.62401634,3.9840346e-05,-0.093367934,0.029978463,-0.0010898344,-0.03026369,0.004205117,-0.0041560237,0.48999032,-1.3725427,1.8935055,-2.092108,-1.5684808,2.4647534,-0.14999074,0.0945722,-0.10930193,-0.0029882293,0.02474276,-0.14576869,-0.8619126,-0.095768064,-9.270349,0.8179876,47.687782,-1.1411293,-2.4926667,-3.2121196,-0.35853174,0.2845076,-0.37262425,28.875,30.3125,29.3125,32.9375,35.375,36.5
0.20605218,-1.8209598,-0.7414169,-1.5628767,0.0051589585,0.1052108,-0.14748083,-0.3988138,-0.36565694,0.06001036,3.0759943,-0.6240016,-4.985731e-05,-0.09459705,0.029565716,-0.0006365283,-0.031147841,0.0054750005,-0.0031442884,0.48969096,-1.3723742,1.8932537,-2.092108,-1.5684689,2.4644527,-0.15045618,0.09579571,-0.11172563,-0.0033127507,0.024939958,-0.14724262,-0.842759,-0.076614454,-9.289502,0.8627467,47.67614,-1.1990845,-2.4735491,-3.2200584,-0.3682443,0.2897966,-0.38140297,28.875,30.3125,29.3125,32.9375,35.375,36.5
0.20805229,-1.661108,-0.7615049,-1.7529626,0.0057679177,0.12124433,-0.14602767,-0.39897713,-0.36558554,0.059981257,3.0759668,-0.6239735,6.555001e-05,-0.096271425,0.029932287,-0.00016839136,-0.031920925,0.006508862,9.615549e-05,0.4893791,-1.3721697,1.8930739,-2.092096,-1.5683969,2.4641268,-0.15264538,0.09670945,-0.11389567,-0.0033020864,0.02514233,-0.1526722,-0.59376204,-0.05746084,-9.442732,0.8023209,47.687782,-1.2025261,-2.5212426,-3.163234,-0.3649788,0.30738577,-0.37006122,28.875,30.3125,29.3125,32.9375,35.375,36.5
0.21005236,-1.172928,-0.9874894,-1.6075604,0.0071511785,0.1344475,-0.14691137,-0.39917517,-0.36552417,0.05998917,3.0759008,-0.62399167,6.921308e-05,-0.09689243,0.02961606,-0.0003585243,-0.03257242,0.006255634,0.008609646,0.48906744,-1.3719769,1.8928212,-2.0920727,-1.5683483,2.463835,-0.15304624,0.09833965,-0.115372576,-0.0035040874,0.025861626,-0.16158459,-0.51714754,0.038307227,-9.404425,0.8940802,47.7245,-1.2465395,-2.5322165,-3.1544828,-0.36024907,0.30863523,-0.29187062,28.875,30.3125,29.3125,32.9375,35.375,36.5
0.21205248,-1.6527703,-1.0490913,-1.9018823,-0.00053352816,0.1081313,-0.1423378,-0.399386,-0.36546934,0.059991997,3.07583,-0.6238923,1.6711456e-05,-0.09777308,0.02951235,0.0003553993,-0.033826668,0.007559522,0.018341552,0.488756,-1.3717728,1.8925828,-2.0921204,-1.5683006,2.4634707,-0.15391606,0.09804782,-0.11662632,-0.003659115,0.026394382,-0.17218362,-0.49799395,0.038307227,-9.442732,0.8806493,47.695843,-1.246878,-2.497261,-3.142702,-0.3654855,0.3093845,-0.19052848,28.875,30.3125,29.3125,32.9375,35.375,36.5
0.21405242,-1.4427692,-1.6579492,-2.0601406,-0.003634774,0.09239564,-0.13173199,-0.39956757,-0.36538994,0.05996378,3.0758164,-0.6239071,5.6531648e-05,-0.09924513,0.029930038,0.0005506403,-0.03398304,0.008352052,0.020781664,0.4884441,-1.371556,1.8923916,-2.0921323,-1.5682763,2.4631698,-0.15573594,0.099259876,-0.11851653,-0.0037304885,0.026169302,-0.17644323,-0.40222588,0.15322891,-9.32781,0.8247004,47.67166,-1.2946568,-2.4640045,-3.1246486,-0.37237617,0.32882226,-0.088586524,28.875,30.3125,29.3125,32.9375,35.375,36.5
0.21605188,-0.6890417,-1.4067955,-1.9563123,-0.02075394,0.08756443,-0.13853393,-0.3997777,-0.36532462,0.0599591,3.0757864,-0.6237463,8.632351e-05,-0.09982379,0.029980471,0.0005453874,-0.032969795,0.009506352,0.021548983,0.48810858,-1.3713278,1.8921279,-2.0921204,-1.5682167,2.4627378,-0.1553797,0.100156136,-0.11949398,-0.0041679936,0.02474264,-0.17685398,-0.34476504,0.21068975,-9.385271,0.83365434,47.705692,-1.325336,-2.4509385,-3.0699663,-0.38129377,0.34223247,-0.06826778,28.875,30.3125,29.3125,32.9375,35.375,36.5
0.2180525,-0.50805396,-2.1160982,-2.1646972,-0.019056864,0.07670603,-0.14307587,-0.39999455,-0.3652548,0.059982195,3.0757344,-0.62370104,-2.8391501e-05,-0.10104412,0.031121343,0.0006842821,-0.032873765,0.009513147,0.013195467,0.48779646,-1.3711593,1.8918775,-2.0921323,-1.5682167,2.4624043,-0.158267,0.10037911,-0.120207965,-0.0036436066,0.024666918,-0.17138529,-0.38307226,0.24899697,-9.423578,0.8247004,47.675243,-1.2725967,-2.4363277,-3.1776798,-0.38828582,0.34448594,-0.10041094,28.875,30.3125,29.3125,32.9375,35.375,36.5
0.22005166,-0.9898375,-1.980616,-2.2237704,-0.026316686,0.049088757,-0.13299794,-0.40019962,-0.36516446,0.059957277,3.0756838,-0.62375504,4.665881e-05,-0.10274538,0.033017367,0.00025466311,-0.033653844,0.008136411,-0.00022370912,0.48742318,-1.3709307,1.891662,-2.0921323,-1.5681561,2.4620712,-0.16371778,0.101182185,-0.120220356,-0.003588926,0.025991168,-0.16341631,-0.2681506,0.21068975,-9.500193,0.8537928,47.723602,-1.1228979,-2.430661,-3.1693833,-0.3853044,0.35307166,-0.17225139,28.875,30.3125,29.3125,32.9375,35.375,36.5
0.22205178,-0.53226143,-1.2441131,-2.3587034,-0.041894753,0.04242843,-0.14540733,-0.40040094,-0.36509466,0.059945244,3.075605,-0.6238353,7.75555e-05,-0.10365247,0.032437783,0.00020595701,-0.03511927,0.0077641555,-0.006632301,0.48708823,-1.3707141,1.8914341,-2.0921443,-1.568096,2.4617965,-0.16438204,0.1031984,-0.12250808,-0.0036762557,0.027454607,-0.1576693,-0.05746084,0.24899697,-9.557653,0.82022345,47.694946,-1.1848834,-2.3577542,-3.034171,-0.38441148,0.32368273,-0.2529686,28.875,30.3125,29.3125,32.9375,35.375,36.5
0.22405209,0.06661559,-1.5492408,-2.570704,-0.03053313,0.040686622,-0.14691545,-0.40062207,-0.36504424,0.059976526,3.0755024,-0.6238158,-3.0970543e-06,-0.10408355,0.033873297,0.000100183686,-0.035143346,0.007426077,-0.01208736,0.4867756,-1.3705342,1.8911489,-2.0921443,-1.5680479,2.461485,-0.16721758,0.102093905,-0.12092392,-0.003859864,0.027655153,-0.15504761,0.019153614,0.2681506,-9.672575,0.8717007,47.71286,-1.0276484,-2.4988966,-3.3053017,-0.38619477,0.3506741,-0.33550653,28.875,30.3125,29.3125,32.9375,35.375,36.5
0.22605287,-0.55859226,-1.6192975,-2.1832397,-0.034037873,0.021289628,-0.13813089,-0.40083393,-0.36495817,0.05993742,3.075452,-0.62394243,9.912185e-05,-0.105521254,0.03431211,-0.00038458087,-0.034902528,0.007039217,-0.019199798,0.48640418,-1.3702571,1.8909076,-2.0921443,-1.5679878,2.461199,-0.16912985,0.10473673,-0.12296766,-0.0039988174,0.02761001,-0.1498473,-0.038307227,0.19153613,-9.634268,0.81351066,47.64837,-1.0819113,-2.414081,-3.1273246,-0.3784479,0.36335647,-0.42666537,28.875,30.3125,29.3125,32.9375,35.375,36.5
0.22805277,-0.12587991,-1.3268355,-2.3377044,-0.02958257,0.038527757,-0.14320053,-0.40103668,-0.3649015,0.05995293,3.0753732,-0.6238847,1.8513696e-05,-0.10493233,0.033069476,0.00023178717,-0.036750972,0.0075121713,-0.016650619,0.4861053,-1.3700892,1.8906807,-2.0921805,-1.5679516,2.4608743,-0.16732042,0.10395205,-0.12343905,-0.004013963,0.029044962,-0.15058331,0.038307227,0.19153614,-9.595961,0.87617236,47.667187,-1.1536286,-2.478531,-3.2935505,-0.39941797,0.34371567,-0.5037248,28.875,30.3125,29.3125,32.9375,35.375,36.5
0.2300523,0.2866412,-0.972635,-2.2029524,-0.031779002,0.05467287,-0.15235233,-0.40126106,-0.36484239,0.05996391,3.0752432,-0.62396663,4.497631e-05,-0.10518325,0.03334653,-0.00071175356,-0.037758976,0.0053122537,-0.010316696,0.48574564,-1.3698722,1.8903946,-2.092168,-1.5678548,2.4605825,-0.16912493,0.105709866,-0.12332618,-0.0043685483,0.030998725,-0.15871835,0.24899697,0.11492168,-9.691729,0.94331104,47.67614,-1.0901595,-2.3594093,-3.4174984,-0.38317448,0.33561057,-0.48238224,28.875,30.3125,29.3125,32.9375,35.375,36.5
0.23205267,0.5964898,-0.95970637,-1.928772,-0.036357928,0.051845275,-0.15598793,-0.4014715,-0.36479047,0.059973795,3.075158,-0.6239236,1.7285218e-05,-0.10558648,0.033979118,-0.0010590056,-0.038286876,0.0038904184,-0.00029240936,0.48543346,-1.3696678,1.8901314,-2.0921805,-1.5677947,2.4602544,-0.17119059,0.10632279,-0.123404056,-0.0038419554,0.032177147,-0.17080511,0.24899697,0.17238252,-9.653421,0.8985519,47.698532,-1.1158662,-2.468344,-3.4186747,-0.38821834,0.31707633,-0.39577705,28.875,30.3125,29.3125,32.9375,35.375,36.5
0.23405176,0.63996416,-1.2342545,-2.1154015,-0.028023232,0.03701867,-0.14374314,-0.40171885,-0.36471552,0.0599882,3.0750499,-0.62387455,-5.5806864e-05,-0.107451186,0.034095183,0.00022611546,-0.040476106,0.0057653515,0.009503706,0.48504952,-1.369464,1.8898667,-2.0922282,-1.5677341,2.459854,-0.17363496,0.10601295,-0.12603782,-0.0035224715,0.03329182,-0.18304025,0.22984336,0.076614454,-9.519346,0.8784135,47.71286,-1.0395355,-2.344674,-3.3639607,-0.40113163,0.30648774,-0.2830444,28.875,30.3125,29.3125,32.9375,35.375,36.5
0.23605248,0.35677835,-1.3472693,-2.360674,-0.0121478075,0.01754458,-0.14410351,-0.4018762,-0.36464274,0.059936084,3.0750694,-0.62381923,0.00011029052,-0.106942885,0.035074487,-0.00278464,-0.039888017,-0.0005156326,0.013199087,0.48474926,-1.3692101,1.8896769,-2.0922043,-1.5676731,2.4595165,-0.17625423,0.11041458,-0.124446906,-0.0036520266,0.03570775,-0.18935555,0.15322891,0.15322891,-9.500193,0.91421866,47.681515,-0.9822646,-2.388632,-3.635337,-0.4119954,0.28245527,-0.18301967,28.875,30.3125,29.3125,32.9375,35.375,36.5
0.2380527,0.38938797,-1.2412574,-2.1602376,-0.024761746,0.017021215,-0.14768857,-0.4021034,-0.3645583,0.059951473,3.0749648,-0.62381655,0.000119044154,-0.10963882,0.034768727,0.0001522133,-0.043298952,0.005085819,0.011178556,0.48435333,-1.3690308,1.8894256,-2.0921924,-1.5675892,2.4591324,-0.17830084,0.10795824,-0.12810263,-0.0040567997,0.03612771,-0.18937816,0.076614454,0.076614454,-9.615114,0.8023209,47.684196,-0.89306843,-2.3271933,-3.4396877,-0.39858258,0.27643198,-0.15844822,28.875,30.3125,29.3125,32.9375,35.375,36.5
0.2400519,-0.28819245,-1.6827925,-2.1995466,-0.017279593,0.020027913,-0.13783558,-0.40234408,-0.3645146,0.05997033,3.0748258,-0.62378955,8.551234e-05,-0.10985729,0.034570616,-0.0013750194,-0.04166354,0.0031435338,0.0064355754,0.48400635,-1.3688009,1.8891143,-2.0922163,-1.5674928,2.4587865,-0.17773387,0.112091005,-0.12954226,-0.0042541265,0.0355951,-0.1840639,-0.095768064,0.15322891,-9.5385,0.88289046,47.717335,-0.9586612,-2.422531,-3.4331295,-0.38676608,0.25245214,-0.1914428,28.875,30.3125,29.3125,32.9375,35.375,36.5
0.24205202,-0.61600614,-1.1780643,-2.202336,-0.026183803,0.046610527,-0.14521064,-0.4025634,-0.3644287,0.059971437,3.0747406,-0.6237732,9.636766e-05,-0.11080236,0.03387151,0.0005649109,-0.044872005,0.005568067,0.0005432629,0.4836227,-1.3686099,1.8888868,-2.0922282,-1.5674208,2.4584036,-0.17835928,0.109994955,-0.13156624,-0.0037692867,0.037308507,-0.17879297,-0.15322891,0.24899697,-9.519346,0.8090337,47.687782,-0.91984284,-2.2809453,-3.3609343,-0.39071798,0.24771883,-0.28260604,28.875,30.3125,29.3125,32.9375,35.375,36.5
0.2440522,-1.1572312,-1.5056394,-2.0476265,-0.029464608,0.077976674,-0.14726734,-0.40277037,-0.36439618,0.059976865,3.0746686,-0.62370217,8.481385e-05,-0.11116685,0.033855263,-1.4734514e-05,-0.04640643,0.0031348919,-0.0035196675,0.48334658,-1.3683689,1.8885869,-2.0922277,-1.5673598,2.4580925,-0.1801095,0.111781366,-0.13254441,-0.0031319286,0.03980863,-0.17647454,-0.05746084,0.2681506,-9.576807,0.83365434,47.67166,-0.91999894,-2.3882437,-3.3821888,-0.40210366,0.20998654,-0.33145133,28.875,30.3125,29.3125,32.9375,35.375,36.5
0.2460518,-1.7543846,-1.4448415,-2.0582054,-0.042513005,0.086380325,-0.15097424,-0.40296978,-0.3643162,0.059967007,3.074608,-0.62362903,0.00018006795,-0.11110106,0.03343405,-0.00038214162,-0.04655259,0.0017363256,-0.002755004,0.48297584,-1.368164,1.8883594,-2.0922039,-1.5672635,2.4576838,-0.17974132,0.113374226,-0.13383336,-0.002234887,0.04059664,-0.17686957,-0.3256114,0.30645782,-9.615114,0.8784135,47.653748,-1.1698037,-2.3309968,-3.3909898,-0.41463974,0.15646535,-0.34462422,28.875,30.3125,29.3125,32.9375,35.375,36.5
0.24805188,-1.7953025,-1.4958104,-2.1075637,-0.042287163,0.094407596,-0.14895017,-0.40320098,-0.3642638,0.059995983,3.0744574,-0.6235744,0.00014128078,-0.11189442,0.033365134,-5.979699e-05,-0.046956126,0.0022221694,0.0010865465,0.48261648,-1.3679837,1.8880843,-2.0922272,-1.5671557,2.4573097,-0.18033233,0.11410697,-0.13554552,-0.0018242088,0.040767357,-0.18129659,-0.45968673,0.36391866,-9.615114,0.87393653,47.67166,-1.2298511,-2.4014974,-3.4878857,-0.420583,0.14939898,-0.3933937,28.875,30.3125,29.3125,32.9375,35.375,36.5
0.2500521,-2.2637446,-2.2624774,-2.0332963,-0.033833906,0.093942255,-0.13674803,-0.40344587,-0.3641733,0.05998095,3.0744216,-0.62362045,0.00015095368,-0.11314996,0.0341458,-0.0003660026,-0.046896286,0.0017622665,0.0056875097,0.4822325,-1.367707,1.8877853,-2.0922153,-1.5671314,2.4569592,-0.18276887,0.115716614,-0.13683812,-0.0016613194,0.040955838,-0.18833286,-0.5363012,0.30645782,-9.5385,0.9545008,47.705692,-1.314879,-2.3474422,-3.372505,-0.44173366,0.12207144,-0.30017766,28.875,30.3125,29.3125,32.9375,35.375,36.5
0.25205228,-1.5096136,-1.413601,-1.8256224,-0.052467037,0.11432086,-0.1631313,-0.40366098,-0.36413234,0.059989814,3.0742736,-0.6235635,0.00020518768,-0.114357665,0.034234576,9.3570176e-05,-0.047358274,0.0029639958,0.015922775,0.481885,-1.3674904,1.8875097,-2.0922272,-1.5669879,2.4565952,-0.18382692,0.116409115,-0.13872483,-0.0016621714,0.040857915,-0.19962291,-0.36391866,0.24899697,-9.519346,0.8717007,47.694946,-1.3151438,-2.3736577,-3.331603,-0.42849797,0.09444323,-0.21488479,28.875,30.3125,29.3125,32.9375,35.375,36.5
0.25405243,-1.1754612,-1.4637756,-1.7337701,-0.044393588,0.11767923,-0.16025127,-0.4038937,-0.36405173,0.059994232,3.074223,-0.6235085,0.00020652215,-0.11649688,0.03304461,0.0012193667,-0.048569243,0.00663941,0.023791492,0.48151413,-1.3672615,1.8872212,-2.0922039,-1.5669397,2.4561965,-0.18324518,0.1183483,-0.14337814,-0.002711763,0.040253874,-0.20690735,-0.4405331,0.17238252,-9.615114,0.8717007,47.703903,-1.3609939,-2.3831272,-3.217627,-0.41523027,0.07778646,-0.10583335,28.875,30.3125,29.3125,32.9375,35.375,36.5
0.25605267,-1.8770558,-1.4941114,-1.529839,-0.036060877,0.091568895,-0.14492756,-0.40411586,-0.36400828,0.05999587,3.0741205,-0.6233726,0.00022723856,-0.116573684,0.033289205,8.327771e-05,-0.04722262,0.0060743047,0.023902973,0.48117855,-1.3670206,1.8869356,-2.0922282,-1.566832,2.4557893,-0.18306302,0.12040448,-0.14298989,-0.003993092,0.039343033,-0.2068352,-0.7661445,0.21068975,-9.404425,0.8806493,47.675243,-1.38082,-2.4882538,-3.2513013,-0.4025826,0.074408,-0.051410083,28.875,30.3125,29.3125,32.9375,35.375,36.5
0.2580526,-1.4989215,-1.4853089,-1.475363,-0.017723298,0.09995805,-0.14534117,-0.4043906,-0.3639359,0.060007297,3.0740097,-0.6233337,0.00017939815,-0.118297435,0.03302632,0.00148709,-0.048116863,0.009637935,0.017817043,0.48077053,-1.3667566,1.8865999,-2.092252,-1.5667604,2.4553714,-0.18349668,0.120112196,-0.14573047,-0.0045219087,0.03849404,-0.20117965,-0.68953013,0.17238252,-9.289502,0.8537928,47.684196,-1.546269,-2.4672215,-3.0186303,-0.40959048,0.05932039,-0.103744715,28.875,30.3125,29.3125,32.9375,35.375,36.5
0.260052,-0.51784074,-0.897724,-1.4076027,-0.0012279017,0.11605664,-0.15079121,-0.40460658,-0.36387798,0.06001445,3.073938,-0.6232667,0.0001657101,-0.119579166,0.03383412,0.0006753339,-0.04721954,0.008629258,0.0066224723,0.48044586,-1.3665394,1.8863243,-2.092252,-1.5667003,2.4550142,-0.18567821,0.12290145,-0.14725187,-0.004491067,0.038154695,-0.19216396,-0.47884032,0.19153613,-9.251195,0.98135734,47.698532,-1.5158582,-2.5433009,-3.074132,-0.40754598,0.052752156,-0.20831585,28.875,30.3125,29.3125,32.9375,35.375,36.5
0.2620522,-1.1929611,-0.62327284,-1.5397885,0.004563414,0.07864017,-0.14972185,-0.40485755,-0.36378372,0.059990574,3.0738819,-0.6233178,0.00019640187,-0.12105565,0.034775212,0.0008252412,-0.046781715,0.009248936,-0.0030484688,0.48003712,-1.366251,1.8860368,-2.0922644,-1.5666527,2.4546447,-0.18802314,0.1237679,-0.14871804,-0.004241412,0.037468746,-0.18483803,-0.34476504,0.05746084,-9.346964,0.85826975,47.686886,-1.3918124,-2.4229572,-3.0479002,-0.40425217,0.043644942,-0.31685793,28.875,30.3125,29.3125,32.9375,35.375,36.5
0.2640525,-0.897326,-0.7919914,-1.1061627,0.001909694,0.065562256,-0.15795556,-0.40510195,-0.36372593,0.06000664,3.073728,-0.6232717,0.00018372695,-0.122846514,0.03583783,0.0015938242,-0.046386715,0.011290691,-0.010399563,0.47965148,-1.3660346,1.8857502,-2.0922997,-1.566533,2.45425,-0.19047858,0.12359384,-0.15031113,-0.004082614,0.036187995,-0.17994031,-0.4405331,0.095768064,-9.232042,0.8493211,47.689575,-1.2801559,-2.5233796,-3.0517793,-0.39778155,0.025986286,-0.41563374,28.875,30.3125,29.3125,32.9375,35.375,36.5
0.2660527,-0.13805561,-0.9110883,-1.2955403,0.005697574,0.07204303,-0.15032698,-0.40537032,-0.3636503,0.06001646,3.0736344,-0.62332964,0.00011459766,-0.12597056,0.037117198,0.0023462172,-0.046012048,0.014167643,-0.013661796,0.47926685,-1.36577,1.8854145,-2.092312,-1.5664977,2.453914,-0.19424208,0.12496799,-0.15358913,-0.0045303665,0.034549385,-0.18044032,-0.47884035,0.076614454,-9.193734,0.83365434,47.668976,-1.270426,-2.424892,-3.1650333,-0.37823102,0.0521702,-0.48222646,28.875,30.3125,29.3125,32.9375,35.375,36.5
0.26805183,-0.7122028,-0.6856549,-1.6077498,0.0076281554,0.0657533,-0.16503733,-0.40560699,-0.3635878,0.060027022,3.0735242,-0.6232789,0.0001232775,-0.12473367,0.03852605,-9.5053045e-05,-0.042006567,0.01038655,-0.0034289819,0.4788952,-1.3655409,1.8851169,-2.092312,-1.5664018,2.4535248,-0.19433695,0.127257,-0.15088712,-0.004238559,0.032803334,-0.19077006,-0.2681506,-0.1340753,-9.289502,0.86498255,47.655537,-1.3468027,-2.48944,-3.1331186,-0.3847267,0.06992142,-0.42813343,28.875,30.3125,29.3125,32.9375,35.375,36.5
0.27005196,-0.9148625,-0.90989846,-1.423209,-0.001157242,0.07546428,-0.16114298,-0.40586224,-0.3635054,0.060012102,3.073428,-0.6233099,0.00018785159,-0.12574302,0.040089678,-4.1480675e-05,-0.040677916,0.010424472,0.008283602,0.47847426,-1.3652525,1.884806,-2.0923116,-1.5663065,2.4531357,-0.19703066,0.1272268,-0.15125282,-0.0031645605,0.031673543,-0.20517822,-0.21068975,-0.076614454,-9.270349,0.88960326,47.672558,-1.2755944,-2.4559827,-3.2581255,-0.3893422,0.08008222,-0.3281293,28.875,30.3125,29.3125,32.9375,35.375,36.5
0.27205205,-1.473429,-0.8155171,-1.3093897,7.572873e-05,0.071830116,-0.15074748,-0.40613043,-0.36344963,0.06005204,3.0733006,-0.6232036,8.274531e-05,-0.12650317,0.041507646,-0.0016433627,-0.038924903,0.0074307323,0.014352976,0.4781014,-1.365035,1.8844584,-2.0923235,-1.5662345,2.452713,-0.19988708,0.13049033,-0.15171392,-0.0024352008,0.031566493,-0.21409948,-0.34476507,-0.095768064,-9.270349,0.88960326,47.71017,-1.2782834,-2.5788436,-3.341795,-0.39590245,0.08186139,-0.19825569,28.875,30.3125,29.3125,32.9375,35.375,36.5
0.27405223,-1.1184541,-1.1075777,-1.3181946,0.029093198,0.08909203,-0.1475089,-0.40638903,-0.36332247,0.060030628,3.0733144,-0.623225,8.378492e-05,-0.12752895,0.04184863,-0.00020439185,-0.039489146,0.010166372,0.016049666,0.47766906,-1.3647598,1.8841718,-2.0922987,-1.5662469,2.4522924,-0.20078163,0.12863392,-0.15286987,-0.0020863614,0.030825136,-0.2166927,-0.45968673,-0.05746084,-9.232041,0.87393653,47.67614,-1.2545398,-2.4170742,-3.3024383,-0.39361233,0.076911986,-0.1486156,28.875,30.3125,29.3125,32.9375,35.375,36.5
0.2760528,-1.5113509,-0.2531386,-1.1688143,0.025074907,0.082435176,-0.14867622,-0.4066256,-0.36325905,0.06001791,3.0732338,-0.62313503,0.00013308255,-0.12809028,0.042554844,0.00015909788,-0.039013,0.011020782,0.009413627,0.47729686,-1.3644836,1.8838733,-2.0923111,-1.566151,2.4518745,-0.20183977,0.12799987,-0.15302739,-0.0018253436,0.03000753,-0.21111566,-0.40222588,-0.19153613,-9.212888,0.8873621,47.64479,-1.2493151,-2.4257364,-3.3427763,-0.39455998,0.09007469,-0.18372342,28.875,30.3125,29.3125,32.9375,35.375,36.5
0.2780518,-0.9615645,-0.065039106,-1.237523,0.03513413,0.08773571,-0.15920162,-0.40688202,-0.36315927,0.060000088,3.073185,-0.62311125,0.00014869624,-0.12995866,0.043196008,0.0004402606,-0.039537426,0.012135278,-0.00033479973,0.4768757,-1.3642071,1.8835858,-2.0923235,-1.5661029,2.4514449,-0.20438771,0.12920342,-0.15503769,-0.0022598854,0.029947067,-0.20391366,-0.36391866,-0.24899697,-9.155427,0.8560339,47.674347,-1.137083,-2.3401654,-3.3450112,-0.40465358,0.09756631,-0.2548486,28.875,30.3125,29.3125,32.9375,35.375,36.5
0.28005207,-0.9547331,-0.19280338,-1.2774571,0.04794907,0.07275518,-0.15543681,-0.4071492,-0.3630954,0.060007963,3.0730677,-0.62307024,8.584678e-05,-0.13103208,0.043429207,0.00077927345,-0.03974726,0.01388363,-0.00539989,0.47649142,-1.363943,1.883263,-2.0923717,-1.5660313,2.4510503,-0.20521568,0.12948635,-0.15594071,-0.0032812818,0.029344337,-0.19967441,-0.30645782,-0.2681506,-9.232041,0.9545008,47.716442,-1.1345052,-2.2371755,-3.3931327,-0.38621193,0.11744355,-0.3495825,28.875,30.3125,29.3125,32.9375,35.375,36.5
0.28205213,-0.72378075,-0.36224535,-1.365618,0.047971215,0.07161079,-0.15830366,-0.40742362,-0.3629937,0.060057707,3.0729566,-0.62310374,-2.6455184e-05,-0.13238043,0.042990778,0.001476337,-0.040153697,0.015675418,-0.005200163,0.4760595,-1.3637738,1.8829397,-2.0923355,-1.5659956,2.4506538,-0.20525932,0.13070218,-0.15901601,-0.0031781506,0.02891559,-0.1999142,-0.4213795,-0.22984336,-9.251195,0.8247004,47.694054,-1.1992894,-2.1559932,-3.2885516,-0.39075238,0.12716272,-0.39116848,28.875,30.3125,29.3125,32.9375,35.375,36.5
0.2840525,-0.80509585,0.05880293,-1.5657569,0.019069314,0.08123715,-0.1631024,-0.40769556,-0.36288807,0.060013324,3.0729287,-0.6230936,3.4476117e-05,-0.13200293,0.042908657,0.0011247476,-0.03951315,0.014573411,0.000896992,0.4756158,-1.3634257,1.8826288,-2.0923588,-1.5659474,2.4502075,-0.20464092,0.13150132,-0.15943454,-0.0022369472,0.02888442,-0.20539348,-0.34476504,-0.22984336,-9.346964,0.8985519,47.71823,-1.4924568,-2.2383366,-3.48721,-0.39250892,0.15264009,-0.38976383,28.875,30.3125,29.3125,32.9375,35.375,36.5
0.28605184,-1.4353464,-0.8010108,-1.9128407,0.017804401,0.083172336,-0.15998082,-0.40790856,-0.36280745,0.059993844,3.0729117,-0.6229672,0.00016058338,-0.132649,0.04298875,0.0011568328,-0.03969512,0.014301966,0.012304372,0.47524366,-1.3631608,1.8823422,-2.0922987,-1.5658635,2.4497585,-0.20543425,0.13258214,-0.1609988,-0.0015091752,0.029218376,-0.21759419,-0.26815057,-0.095768064,-9.404425,0.94331104,47.688675,-1.6037526,-2.1802933,-3.3647857,-0.4044084,0.16137512,-0.2833041,28.875,30.3125,29.3125,32.9375,35.375,36.5
0.288052,-1.1626712,-1.2678813,-1.985729,0.004265866,0.09438962,-0.1637634,-0.4081787,-0.36270028,0.059972443,3.0728617,-0.6229881,0.00019102995,-0.13357009,0.04310343,0.0009276779,-0.039055526,0.014062766,0.023406927,0.47479942,-1.36286,1.8820304,-2.0922987,-1.5658153,2.449334,-0.20604804,0.13473906,-0.16325979,-0.0008173439,0.028815964,-0.22931042,-0.21068975,0.095768064,-9.481039,0.8672237,47.67793,-1.4795641,-2.2875628,-3.2496264,-0.40398303,0.18388247,-0.13431314,28.875,30.3125,29.3125,32.9375,35.375,36.5
0.29005235,-1.6643233,-2.204972,-2.3443408,-0.0076565263,0.07811081,-0.15976208,-0.40843695,-0.36260572,0.059966497,3.0728438,-0.62283266,0.00015103431,-0.1360937,0.044374347,0.0021001091,-0.038342707,0.017246448,0.022309285,0.47440243,-1.3625957,1.88173,-2.0923107,-1.5657924,2.4488423,-0.20897973,0.13466693,-0.16592932,-0.0005488384,0.02675238,-0.23114724,-0.24899697,0.17238252,-9.595961,0.91198283,47.72271,-1.3972154,-2.1692002,-3.1623728,-0.4181375,0.20699799,-0.089356035,28.875,30.3125,29.3125,32.9375,35.375,36.5
0.29205245,-1.3826666,-2.277663,-2.7347152,-0.037063293,0.073737584,-0.14872704,-0.4087331,-0.36250722,0.06000193,3.0727472,-0.6227985,4.0722523e-05,-0.1366478,0.04476956,0.0013506041,-0.03806128,0.015866801,0.013642369,0.47395808,-1.3623661,1.8813719,-2.0922983,-1.5657562,2.4483893,-0.21021615,0.13674968,-0.16677335,-0.00044987278,0.027142067,-0.22371212,-0.30645782,0.34476504,-9.710882,0.90750587,47.711964,-1.408293,-2.4424736,-3.3598866,-0.4087984,0.24338937,-0.10708198,28.875,30.3125,29.3125,32.9375,35.375,36.5
0.294052,-0.81352,-2.3732846,-2.8096552,-0.07435187,0.07212944,-0.15639196,-0.40896773,-0.36239713,0.059960052,3.0727286,-0.6228004,0.00018461159,-0.13672286,0.04573693,-0.0011125186,-0.036718324,0.011219255,0.0017511643,0.47352558,-1.3620647,1.8810977,-2.092263,-1.5656837,2.4479604,-0.21232831,0.14112142,-0.16648631,-0.000384994,0.028028602,-0.21393196,-0.3256114,0.49799395,-9.844957,0.91198283,47.716442,-1.3905089,-2.3175855,-3.4340963,-0.42541847,0.25146288,-0.24838778,28.875,30.3125,29.3125,32.9375,35.375,36.5
0.29605263,-1.0946043,-3.485675,-2.792818,-0.08108821,0.050990712,-0.14576273,-0.4092886,-0.36233938,0.060027923,3.0725572,-0.6227892,-5.9984934e-05,-0.13830064,0.046459593,-0.00046359387,-0.037645303,0.012353459,-0.008620857,0.47312886,-1.3618366,1.8806785,-2.0922983,-1.5656475,2.4475791,-0.21495037,0.14111927,-0.16798626,-0.0003367951,0.028360793,-0.20617437,-0.2873042,0.51714754,-9.959879,0.93436235,47.711964,-1.2959712,-2.3735576,-3.3333182,-0.42808557,0.266874,-0.3561465,28.875,30.3125,29.3125,32.9375,35.375,36.5
0.298052,-0.76287067,-3.2231243,-2.8358207,-0.09965869,0.056288093,-0.16066614,-0.40956104,-0.36221027,0.06000407,3.0725017,-0.62283874,-2.9798299e-05,-0.13995032,0.047741078,-0.0013289863,-0.037865855,0.010648405,-0.01593566,0.4726472,-1.3615596,1.8804034,-2.0923107,-1.5655993,2.4471357,-0.21898113,0.14380682,-0.16929053,-0.00029937175,0.029332729,-0.20288663,-0.30645782,0.59376204,-9.9790325,0.87393653,47.667187,-1.1432309,-2.4731421,-3.3905501,-0.43504608,0.30720505,-0.447986,28.875,30.3125,29.3125,32.9375,35.375,36.5
0.30005231,-0.77724713,-3.4166698,-2.9563181,-0.08420798,0.05511729,-0.16052026,-0.40984708,-0.36212906,0.060017318,3.072402,-0.6228732,-5.8501515e-05,-0.14074653,0.047830474,-0.0014892777,-0.03890177,0.010071912,-0.012590663,0.47222686,-1.3612705,1.8800215,-2.0922868,-1.5655388,2.44675,-0.22042163,0.14514889,-0.17057538,-0.00026944428,0.030559989,-0.20766638,-0.15322891,0.63206923,-9.998186,0.93436235,47.691364,-1.1494102,-2.526507,-3.379318,-0.43177295,0.30897665,-0.5021207,28.875,30.3125,29.3125,32.9375,35.375,36.5
0.3020526,-1.2701061,-2.6840186,-2.5612214,-0.08446097,0.05603558,-0.16490403,-0.41013366,-0.36203343,0.060015637,3.072336,-0.6228128,-6.0132013e-05,-0.14202443,0.048089013,-0.0014032854,-0.039958373,0.010164722,-0.0020648665,0.47178218,-1.3609703,1.8796624,-2.0922744,-1.5654782,2.4462762,-0.22240032,0.14647016,-0.17239559,-0.00024496627,0.031529494,-0.22016639,-0.076614454,0.51714754,-9.844957,0.83813137,47.70211,-1.0186728,-2.4351606,-3.3188019,-0.44467086,0.31281984,-0.39611286,28.875,30.3125,29.3125,32.9375,35.375,36.5
0.30405164,-0.9293702,-2.4672575,-2.4452825,-0.04786085,0.07127888,-0.15518296,-0.41044173,-0.36193147,0.060008902,3.0722346,-0.6228428,-6.5945045e-05,-0.14255644,0.048416004,-0.0010948248,-0.04148754,0.010255932,0.009608155,0.4713017,-1.3606462,1.8792919,-2.0922868,-1.5654062,2.4458277,-0.22410183,0.1460003,-0.17255485,-0.00029422963,0.03293351,-0.23353565,-0.076614454,0.38307226,-9.80665,0.90750587,47.687782,-0.9180759,-2.560832,-3.4200354,-0.4365761,0.32911396,-0.25816536,28.875,30.3125,29.3125,32.9375,35.375,36.5
0.30605194,-1.2609816,-1.766409,-2.3115938,-0.021781316,0.06184147,-0.14931408,-0.41069868,-0.3618596,0.060010977,3.0721123,-0.6227582,-6.463184e-05,-0.1426337,0.048221722,-0.002129883,-0.042420566,0.0076871393,0.014235563,0.4708935,-1.3603935,1.8789924,-2.0923226,-1.5652975,2.4453826,-0.22495688,0.14853321,-0.17330785,-0.0001471824,0.034983672,-0.23900917,-0.21068975,0.3256114,-9.710882,0.85155696,47.65464,-0.92688817,-2.5495253,-3.5076344,-0.42891,0.34875685,-0.14864962,28.875,30.3125,29.3125,32.9375,35.375,36.5
0.30805206,-0.732395,-1.1607132,-1.8522332,-0.0069779945,0.07850194,-0.14968526,-0.41099572,-0.36174196,0.060008608,3.0720782,-0.622715,-8.936725e-05,-0.14283717,0.046936557,-0.0014586499,-0.044355296,0.008607273,0.0105470205,0.470426,-1.3600941,1.8786329,-2.0922983,-1.5652732,2.4448926,-0.22361584,0.14886487,-0.17523476,-0.00025941126,0.036285177,-0.23397377,-0.3256114,0.019153614,-9.461885,0.87617236,47.63852,-1.1899364,-2.454548,-3.3342538,-0.42305523,0.32543883,-0.18639453,28.875,30.3125,29.3125,32.9375,35.375,36.5
0.31005284,-0.45529178,-0.58540326,-1.5894392,0.0075631426,0.086591594,-0.16522539,-0.41128567,-0.36168414,0.060029935,3.0719388,-0.6225927,-0.000106469946,-0.14369254,0.04570709,-0.002015292,-0.045591805,0.008799563,0.004601657,0.4700064,-1.3598049,1.8782381,-2.0922992,-1.5651525,2.4444149,-0.22274938,0.15228532,-0.17773452,-0.0019101069,0.03729681,-0.22715363,-0.24899697,0.15322891,-9.346964,0.94331104,47.693153,-1.3534095,-2.4924662,-3.292798,-0.39159524,0.32574397,-0.259714,28.875,30.3125,29.3125,32.9375,35.375,36.5
0.31205234,-0.8692316,-0.7967996,-1.4948049,0.011160849,0.07913869,-0.15440987,-0.41161394,-0.36159867,0.060056385,3.0717885,-0.62256396,-0.00023030628,-0.14499226,0.046229,-0.0012223207,-0.046983533,0.010524115,-0.002309846,0.4695376,-1.3595173,1.8778442,-2.0923474,-1.5650805,2.4439478,-0.2248579,0.15153384,-0.1785149,-0.0025412003,0.037780304,-0.22234336,-0.15322891,-0.05746084,-9.3661175,0.89631605,47.688675,-1.3824418,-2.5481317,-3.436483,-0.37905204,0.33063042,-0.3528079,28.875,30.3125,29.3125,32.9375,35.375,36.5
0.31405243,-0.020129338,-0.29122397,-1.2397863,0.012246939,0.07766627,-0.16808759,-0.4118773,-0.36150864,0.060031943,3.0717432,-0.62249887,-0.00016426774,-0.14708413,0.04624376,0.0002832715,-0.049171995,0.01302022,-0.00537585,0.46911672,-1.3591939,1.8775085,-2.0923355,-1.565008,2.4434922,-0.22703226,0.1512969,-0.18173985,-0.0022714445,0.03860612,-0.22144812,0.076614454,-0.19153613,-9.289502,0.88960326,47.703903,-1.3486177,-2.3724964,-3.3329701,-0.38941526,0.31711504,-0.4002925,28.875,30.3125,29.3125,32.9375,35.375,36.5
0.3160526,0.03281295,-0.2342304,-1.2052424,0.02019472,0.039482407,-0.16114418,-0.41219473,-0.36141646,0.0600459,3.0716307,-0.62248755,-0.0002684063,-0.14777501,0.045861144,0.0008999176,-0.049271,0.0144672785,0.0041711647,0.46866122,-1.3588942,1.8771251,-2.0923712,-1.5649599,2.4430444,-0.22651473,0.15175726,-0.18380906,-0.0019160928,0.038122207,-0.23047438,-0.019153614,-0.19153613,-9.193734,0.8985519,47.672558,-1.4593711,-2.3226342,-3.3956125,-0.38951635,0.3381775,-0.35943174,28.875,30.3125,29.3125,32.9375,35.375,36.5
0.3180518,0.035010595,-0.15501925,-1.1543789,0.03196596,0.031308103,-0.15904994,-0.41248554,-0.36132458,0.060047884,3.0715134,-0.6224174,-0.0002555492,-0.14884265,0.04605647,0.0012560049,-0.049948387,0.015027941,0.015507785,0.4681929,-1.3586061,1.8767775,-2.0923827,-1.5648521,2.4425476,-0.22786044,0.15247265,-0.18559547,-0.0015353324,0.03856509,-0.24315247,-0.05746084,-0.15322891,-9.078813,0.86945957,47.681515,-1.405046,-2.2079957,-3.3120313,-0.38256422,0.36038584,-0.2388418,28.875,30.3125,29.3125,32.9375,35.375,36.5
0.32005185,-0.08138949,0.18345243,-1.2618191,0.049328707,0.030291878,-0.16413711,-0.41277587,-0.3612237,0.060048927,3.071435,-0.62235993,-0.00022151705,-0.14998005,0.045969374,0.0020549807,-0.051534824,0.01615766,0.0210031,0.4677245,-1.358306,1.8764066,-2.092347,-1.5647677,2.4420536,-0.22910734,0.15254167,-0.18758254,-0.0012657223,0.03952638,-0.24988979,0.038307227,-0.13407528,-9.040505,0.9164598,47.690468,-1.4082489,-2.345079,-3.2218423,-0.37631762,0.36637813,-0.1145399,28.875,30.3125,29.3125,32.9375,35.375,36.5
0.32205203,-0.45402396,-0.598742,-1.7132045,0.057892803,0.03237907,-0.15430492,-0.41306955,-0.3611226,0.060050685,3.0713594,-0.6222699,-0.00025526635,-0.15082029,0.04609667,0.0018016605,-0.052377325,0.015302366,0.016760023,0.46726772,-1.3580177,1.8760589,-2.0923588,-1.5647072,2.4415505,-0.2305783,0.1542248,-0.18912338,-0.001011974,0.04068217,-0.2471102,-0.11492168,-0.15322891,-9.174581,0.8537928,47.703903,-1.3322755,-2.2856448,-3.181452,-0.36168718,0.3574096,-0.102788806,28.875,30.3125,29.3125,32.9375,35.375,36.5
0.32405216,-0.96248794,-1.1405704,-1.5765582,0.016703838,0.055406697,-0.15023103,-0.41337323,-0.36104345,0.06005751,3.071243,-0.6221947,-0.00024257929,-0.15230979,0.047257513,0.002627142,-0.05394227,0.016009105,0.0039058337,0.46681076,-1.3576947,1.8756527,-2.0923464,-1.5645994,2.4410617,-0.23426785,0.15318404,-0.18987623,-0.0005691383,0.04174918,-0.23793885,-0.4213795,0.0,-9.270349,0.95897776,47.689575,-1.2185018,-2.0237997,-3.206909,-0.3563643,0.35776448,-0.20960909,28.875,30.3125,29.3125,32.9375,35.375,36.5
0.32605225,-1.5322379,-1.4000508,-1.6749575,-0.032623187,0.095417,-0.15616634,-0.41365612,-0.36092457,0.060043883,3.071182,-0.62226623,-0.00021421937,-0.15434448,0.049064845,0.0026115351,-0.054202646,0.015631175,-0.010332662,0.46634126,-1.3573948,1.8753175,-2.0923226,-1.5645508,2.440645,-0.23909374,0.15414806,-0.19115616,-6.157915e-05,0.042123236,-0.22852375,-0.6703765,0.19153613,-9.212888,0.7978386,47.64837,-1.1396325,-2.136713,-3.290669,-0.35955298,0.35437578,-0.32824975,28.875,30.3125,29.3125,32.9375,35.375,36.5
0.3280525,-2.4691048,-2.5041509,-2.2404788,-0.034580197,0.109814174,-0.14379683,-0.41395187,-0.36084133,0.060068205,3.0710473,-0.62224245,-0.0002162389,-0.15483211,0.04989296,0.0020783946,-0.05437954,0.014364139,-0.02017853,0.46588457,-1.3571187,1.8749226,-2.0922868,-1.5644425,2.440191,-0.24116404,0.15501629,-0.19103743,-4.0206783e-06,0.04284725,-0.22074203,-0.57460845,0.19153613,-9.500193,0.8985519,47.672558,-1.0045803,-2.0481472,-3.285615,-0.35285497,0.36073542,-0.45211184,28.875,30.3125,29.3125,32.9375,35.375,36.5
0.330052,-2.210633,-2.604232,-2.2917228,-0.0581667,0.11440868,-0.15987927,-0.41425955,-0.36073694,0.06006087,3.070953,-0.6222409,-0.00022074278,-0.15342769,0.04995083,-0.00026658908,-0.05324517,0.0072910427,-0.017735502,0.46540412,-1.3567938,1.8745507,-2.0922968,-1.5643696,2.439722,-0.24124251,0.15913412,-0.1914492,0.0031642395,0.045057803,-0.22325256,-0.49799395,0.24899697,-9.672575,0.9768804,47.685097,-1.0192521,-2.0087364,-3.2256298,-0.39773345,0.34902588,-0.5057957,28.875,30.3125,29.3125,32.9375,35.375,36.5
0.3320518,-1.0738338,-1.8324459,-1.9783845,-0.09311192,0.12776735,-0.17799267,-0.41453037,-0.36065048,0.06004397,3.070856,-0.6221911,-9.7629505e-05,-0.1537186,0.048578385,0.0010534469,-0.056346368,0.009120405,-0.0025359371,0.46494898,-1.3564702,1.8741921,-2.092262,-1.564237,2.4392483,-0.24026477,0.15812288,-0.19322835,0.003064107,0.04709302,-0.2374671,-0.7086837,0.34476504,-9.481039,0.9254084,47.699425,-1.178535,-2.0503976,-3.3441272,-0.4028517,0.3239923,-0.42868954,28.875,30.3125,29.3125,32.9375,35.375,36.5
0.33405244,-1.5510926,-2.1796367,-2.5367315,-0.055304434,0.10121533,-0.15683283,-0.4148973,-0.3605498,0.060078878,3.070718,-0.6221523,-0.00023522742,-0.15409598,0.048005484,-0.00023087054,-0.057103645,0.0076896353,0.011948652,0.46443325,-1.3561451,1.8737248,-2.092274,-1.5641769,2.4387267,-0.24029659,0.16167547,-0.19431533,0.0016670817,0.04853664,-0.25197053,-0.63206923,0.36391866,-9.519346,0.8918391,47.719128,-1.3236228,-2.2700815,-3.4722466,-0.39130408,0.31015936,-0.28468245,28.875,30.3125,29.3125,32.9375,35.375,36.5
0.33605227,-1.5560563,-2.3184836,-2.9069133,-0.029720485,0.07553893,-0.1484867,-0.41517472,-0.36044988,0.0600484,3.0706377,-0.6221156,-0.00013453147,-0.15631378,0.04680063,0.00024098971,-0.060096383,0.009503424,0.015330724,0.46396485,-1.3558087,1.8733891,-2.0922744,-1.5640677,2.4382458,-0.24113514,0.16469933,-0.19871555,0.0001533719,0.05042566,-0.25618216,-0.3256114,0.24899697,-9.80665,0.9164598,47.695843,-1.3383756,-2.2807732,-3.345541,-0.36935115,0.270034,-0.17664668,28.875,30.3125,29.3125,32.9375,35.375,36.5
0.3380526,-1.1855673,-2.3241673,-2.2716534,-0.040019177,0.065246165,-0.14566101,-0.41552007,-0.36035374,0.060071416,3.0704918,-0.6220515,-0.00023621586,-0.15633473,0.046280567,-0.00042912978,-0.061006114,0.008535865,0.008883078,0.46346095,-1.3554962,1.8729695,-2.0923111,-1.5639833,2.437721,-0.24084789,0.16650264,-0.19921146,-0.00069881754,0.051686447,-0.24943464,-0.51714754,0.24899697,-9.5385,0.9097417,47.65912,-1.3721019,-2.3236156,-3.3955498,-0.34437138,0.25915134,-0.24145558,28.875,30.3125,29.3125,32.9375,35.375,36.5
0.3400517,-0.8294206,-1.5482688,-2.1457145,-0.023848178,0.052348997,-0.14833696,-0.41581517,-0.3602648,0.060063448,3.0704007,-0.6219412,-0.00021892633,-0.15577915,0.0467208,-0.0024583782,-0.06139855,0.0036981634,0.0009682483,0.4630046,-1.3551716,1.8725995,-2.0923226,-1.563887,2.4372077,-0.24247077,0.16947204,-0.19829497,-0.00043684937,0.05419595,-0.24312946,-0.59376204,0.24899697,-9.481039,0.9701675,47.709274,-1.4499617,-2.4200141,-3.4115937,-0.32824355,0.2107193,-0.33138716,28.875,30.3125,29.3125,32.9375,35.375,36.5
0.34205186,-0.020593856,-1.3239099,-2.2960274,-0.0011953426,0.06822384,-0.14496772,-0.41614583,-0.3601636,0.060060345,3.070236,-0.6220809,-0.000155339,-0.15675859,0.04710775,-0.0022116322,-0.061197825,0.004378417,-0.0022423333,0.46247634,-1.3548118,1.872168,-2.0922983,-1.5637549,2.4367883,-0.24345842,0.17020819,-0.19987836,-6.222557e-05,0.053725373,-0.24090561,-0.3256114,0.21068975,-9.481039,0.9567419,47.691364,-1.437646,-2.4808033,-3.4848135,-0.31185418,0.19275993,-0.37950486,28.875,30.3125,29.3125,32.9375,35.375,36.5
0.34405208,-0.24985364,-1.2491605,-1.837529,-0.018871613,0.072502546,-0.15917215,-0.41648066,-0.36008793,0.060076408,3.0700786,-0.6220465,-0.00017751686,-0.15902828,0.048150238,-0.0026672902,-0.061479997,0.0039004849,-0.0010829816,0.4619951,-1.3544632,1.8717121,-2.0922983,-1.5636348,2.4363062,-0.24723446,0.17332244,-0.20266095,-4.0628847e-06,0.05425388,-0.24583223,0.019153614,0.21068975,-9.308656,0.93436235,47.690468,-1.3514822,-2.2935958,-3.309247,-0.3122722,0.17234549,-0.3893543,28.875,30.3125,29.3125,32.9375,35.375,36.5
0.34605274,-1.3060192,-1.5225812,-1.8846073,-0.017331824,0.032823753,-0.14675796,-0.41680765,-0.359968,0.06008136,3.0700135,-0.6219115,-0.00024227184,-0.16066538,0.048492856,-0.00031010236,-0.06422963,0.007916969,0.0096107265,0.46149045,-1.3541524,1.8713292,-2.0923107,-1.5635866,2.435726,-0.24946035,0.17004643,-0.20408064,-2.6527735e-07,0.055035297,-0.25874478,-0.019153614,0.1340753,-9.308656,0.8873621,47.692257,-1.3452533,-2.325081,-3.4022748,-0.2879188,0.1651043,-0.30904552,28.875,30.3125,29.3125,32.9375,35.375,36.5
0.3480518,-0.24622177,-1.2605635,-1.7765841,-0.012407521,0.046325278,-0.14872815,-0.41713968,-0.3598921,0.060086753,3.0698416,-0.62189144,-0.00022604263,-0.1628908,0.049638923,-5.971628e-05,-0.065481,0.00841573,0.016076503,0.46099716,-1.3537923,1.8708862,-2.0923226,-1.5634421,2.4352427,-0.25364587,0.17128956,-0.20618883,-1.7320716e-08,0.0560341,-0.26938653,-0.038307227,0.19153613,-9.289502,0.84484416,47.657326,-1.1806512,-2.3129013,-3.3328395,-0.27440336,0.12458269,-0.15678045,28.875,30.3125,29.3125,32.9375,35.375,36.5
0.35005203,-0.19417019,-1.2380275,-1.6507744,-0.013442517,0.051386304,-0.14563668,-0.41745448,-0.35979846,0.060095675,3.069706,-0.621827,-0.00022187429,-0.16457747,0.050257813,0.00025094897,-0.063648425,0.0106016705,0.015516973,0.46050468,-1.3534801,1.87049,-2.0923226,-1.5633234,2.4347277,-0.2543328,0.17282335,-0.20879672,-1.1309189e-09,0.05345657,-0.26952025,-0.1340753,0.05746084,-9.289503,0.91198283,47.7254,-1.0505993,-2.3284364,-3.3028312,-0.28250492,0.11730045,-0.0975457,28.875,30.3125,29.3125,32.9375,35.375,36.5
0.35205242,-0.33263105,-0.6210792,-1.6719868,-0.0076589594,0.046896223,-0.15337545,-0.4177981,-0.35969132,0.060109783,3.069563,-0.6218013,-0.00021408909,-0.16503668,0.050661854,9.2863396e-05,-0.06249926,0.010323163,0.0070278975,0.459965,-1.3531439,1.8700475,-2.0922978,-1.5632032,2.4341908,-0.254624,0.1739612,-0.21006943,0.0008967361,0.05254246,-0.26132178,-0.05746084,0.038307227,-9.32781,0.91198283,47.73614,-1.1021827,-2.290266,-3.2432013,-0.2537215,0.1330454,-0.18008462,28.875,30.3125,29.3125,32.9375,35.375,36.5
0.3540516,-0.32261047,-0.6676247,-1.6374426,0.016738536,0.05172545,-0.14611383,-0.41810456,-0.35958448,0.060083054,3.0694764,-0.621696,-0.00018832355,-0.16566116,0.051891208,-1.2240976e-05,-0.062167812,0.009393767,-0.0072006467,0.45947203,-1.3527963,1.8696998,-2.092346,-1.5631074,2.4336433,-0.25705802,0.17403498,-0.21020167,0.0018951113,0.052618433,-0.24952422,-0.21068975,0.05746084,-9.270349,0.93436235,47.69763,-1.1678178,-2.2100492,-3.30973,-0.25434142,0.10547028,-0.31451556,28.875,30.3125,29.3125,32.9375,35.375,36.5
0.35605195,-0.9892657,-0.108394936,-1.4747431,0.0076853195,0.062294725,-0.13879903,-0.41843042,-0.35946527,0.060057208,3.0693684,-0.6218911,-8.529379e-05,-0.16732791,0.052721962,0.00016855198,-0.061075844,0.010284141,-0.016723122,0.45894277,-1.3523993,1.8692683,-2.0922973,-1.563012,2.4332502,-0.25877905,0.17563225,-0.21275349,0.002531153,0.051208913,-0.2417289,-0.49799395,0.0,-9.232041,0.9410752,47.661808,-0.9781699,-2.3970666,-3.4100614,-0.24817373,0.09989004,-0.44365537,28.875,30.3125,29.3125,32.9375,35.375,36.5
0.3580521,-0.37007308,0.011746222,-1.6723968,0.010711298,0.09842815,-0.17125748,-0.41876987,-0.35937414,0.060076173,3.0691957,-0.6218502,-0.00011296279,-0.16697429,0.05351938,-0.0013336693,-0.05745741,0.00887073,-0.011770795,0.45842773,-1.3520753,1.8688377,-2.0923097,-1.5628804,2.4327323,-0.2580638,0.17801201,-0.21233024,0.0026976878,0.048664443,-0.24597254,-0.22984336,-0.076614454,-9.251195,0.8627467,47.672558,-1.067094,-2.246873,-3.5124884,-0.25091207,0.12516458,-0.4974383,28.875,30.3125,29.3125,32.9375,35.375,36.5
0.3600522,-1.6470282,-0.7514327,-1.5664026,0.0014950221,0.096922144,-0.15871343,-0.41910422,-0.35924482,0.06006798,3.0691624,-0.6218346,-0.000101102065,-0.16882657,0.053654935,8.322202e-05,-0.05712861,0.012324047,0.002124095,0.4579118,-1.3517038,1.8683938,-2.0922492,-1.5628451,2.4322112,-0.2585833,0.17807312,-0.2158181,0.0033263694,0.046946272,-0.26039436,-0.095768064,-0.11492168,-9.289502,1.0104496,47.709274,-1.2265981,-2.2689662,-3.3977056,-0.23352987,0.12373266,-0.3735472,28.875,30.3125,29.3125,32.9375,35.375,36.5
0.36205235,-1.5393761,-1.1880664,-1.4232578,-0.0068000862,0.119570024,-0.14761394,-0.41942093,-0.35915732,0.060068123,3.0689938,-0.6217537,-7.6553675e-05,-0.16906886,0.053942084,-0.00048629538,-0.05518537,0.011820783,0.015996989,0.45740807,-1.3513795,1.8680109,-2.0922854,-1.5626897,2.431679,-0.25821632,0.17999887,-0.21710786,0.0041782265,0.04555215,-0.27390322,-0.47884035,0.038307227,-9.174581,0.8537928,47.694054,-1.3870115,-2.2457495,-3.3589015,-0.23842694,0.15908384,-0.23158911,28.875,30.3125,29.3125,32.9375,35.375,36.5
0.36405244,-1.5157781,-0.6857064,-2.1965327,0.0026584438,0.11856319,-0.14368422,-0.41979077,-0.3590367,0.060066994,3.0689182,-0.6216228,-0.000103264414,-0.17020565,0.05411542,-0.00022466075,-0.053969137,0.013131392,0.016889827,0.4568561,-1.3509834,1.8675321,-2.092273,-1.5626181,2.4310553,-0.25823212,0.181471,-0.21966447,0.0046807863,0.043922264,-0.27481613,-0.47884035,0.038307227,-9.404425,0.90527004,47.695843,-1.46967,-2.2460184,-3.243906,-0.25012678,0.15971899,-0.16885355,28.875,30.3125,29.3125,32.9375,35.375,36.5
0.36605275,-1.9410543,-0.90996414,-2.2809398,0.011703847,0.09632421,-0.14159968,-0.42012495,-0.35893983,0.060069535,3.0687866,-0.62162113,-9.507413e-05,-0.17047758,0.05451047,9.0440546e-05,-0.053258605,0.013861975,0.0078437785,0.45635197,-1.3506237,1.8670896,-2.092261,-1.5625104,2.4305675,-0.2583128,0.18110313,-0.22009093,0.005113303,0.042942133,-0.2658525,-0.59376204,0.095768064,-9.5385,0.9388393,47.63404,-1.4642873,-2.20644,-3.3925257,-0.24081245,0.18976271,-0.24083298,28.875,30.3125,29.3125,32.9375,35.375,36.5
0.36805168,-1.8741144,-1.3948373,-1.7488439,-0.010103867,0.10008162,-0.14520556,-0.4204732,-0.3588142,0.060072366,3.0686848,-0.62162435,-0.00012102507,-0.17187192,0.05680203,-0.0008673263,-0.051072206,0.012652965,-0.002533198,0.45581073,-1.3502746,1.8666586,-2.0922487,-1.5624393,2.4300418,-0.26221386,0.18291222,-0.22027369,0.0055280086,0.041507363,-0.25938064,-0.5746084,0.17238252,-9.346964,0.91421866,47.65912,-1.3668234,-2.2784495,-3.4895363,-0.24114108,0.21198726,-0.3841592,28.875,30.3125,29.3125,32.9375,35.375,36.5
0.3700519,-0.9463212,-0.93425107,-1.9967369,-0.029635442,0.11706111,-0.1527986,-0.42081368,-0.35869253,0.06005591,3.0685825,-0.62165993,-0.00013193967,-0.17270967,0.05778068,-0.0016196888,-0.04922058,0.011545688,-0.0046818927,0.45528233,-1.3499027,1.8662518,-2.092272,-1.5623673,2.4295492,-0.2636336,0.18525454,-0.22168547,0.006444474,0.040358406,-0.25865474,-0.59376204,0.21068975,-9.3661175,0.947788,47.72808,-1.3197029,-2.292415,-3.4782655,-0.23574303,0.22554591,-0.41020513,28.875,30.3125,29.3125,32.9375,35.375,36.5
0.37205228,-1.0946349,-1.265363,-1.900968,-0.029053861,0.10422381,-0.14981355,-0.42116368,-0.35859793,0.060064983,3.0684838,-0.6215381,-0.00013861767,-0.17374155,0.058083046,-0.00085284456,-0.048928954,0.013028545,0.005575145,0.45477745,-1.3495194,1.8657597,-2.0922363,-1.5622715,2.4289813,-0.26427832,0.18532895,-0.2237956,0.0074167075,0.03954999,-0.26955822,-0.4213795,0.1340753,-9.481039,0.93436235,47.709274,-1.3367229,-2.2005856,-3.5614378,-0.24181612,0.2805506,-0.36018184,28.875,30.3125,29.3125,32.9375,35.375,36.5
0.3740525,-0.73170984,-1.3252028,-1.6464024,-0.043329474,0.10622448,-0.14807051,-0.42151475,-0.35844964,0.060041163,3.0684562,-0.6215441,-0.00013749626,-0.17445368,0.057864174,-0.0011415232,-0.04917292,0.012650162,0.018738573,0.45422578,-1.3491228,1.8653282,-2.092212,-1.5622476,2.4284372,-0.26457626,0.18750739,-0.22591797,0.00773438,0.040041998,-0.2830166,-0.3256114,0.13407528,-9.385271,0.94331104,47.72719,-1.3112708,-2.3239794,-3.4562118,-0.23835856,0.27788985,-0.19318677,28.875,30.3125,29.3125,32.9375,35.375,36.5
0.376052,-0.27733824,-1.0914307,-1.8541653,-0.024512792,0.09879757,-0.1502297,-0.42185336,-0.35833037,0.060037106,3.0683537,-0.6214846,-0.00015537975,-0.1771082,0.058655437,-0.00017868227,-0.051344696,0.014584298,0.01854654,0.45369652,-1.3487753,1.86492,-2.0922244,-1.5621628,2.4278843,-0.26856336,0.18816349,-0.22885802,0.007401071,0.04120258,-0.28680223,-0.34476504,0.17238252,-9.404425,0.9164598,47.685097,-1.1930838,-2.2078295,-3.4106617,-0.23060516,0.31995198,-0.10883563,28.875,30.3125,29.3125,32.9375,35.375,36.5
