Tylouw/Master_Thesis_Code/training_data/batch_1/rect_rod_t0.2/sample_73_session_3.csv
timestamp[s],tcp_force_x[N],tcp_force_y[N],tcp_force_z[N],tcp_force_rx[Nm?],tcp_force_ry[Nm?],tcp_force_rz[Nm?],tcp_pose_x[m],tcp_pose_y[m],tcp_pose_z[m],tcp_pose_rx[rot_vec_x],tcp_pose_ry[rot_vec_y],tcp_pose_rz[rot_vec_z],tcp_velo_x[m/s],tcp_velo_y[m/s],tcp_velo_z[m/s],tcp_velo_rx[rot_vec_x/s],tcp_velo_ry[rot_vec_y/s],tcp_velo_rz[rot_vec_z/s],q1[rad],q2[rad],q3[rad],q4[rad],q5[rad],q6[rad],qd1[rad/s],qd2[rad/s],qd3[rad/s],qd4[rad/s],qd5[rad/s],qd6[rad/s],tool_acc_x,tool_acc_y,tool_acc_z,current_of_whole_robot[A],voltage_of_whole_robot[V],current_J1[A],current_J2[A],current_J3[A],current_J4[A],current_J5[A],current_J6[A],temp_J1[C],temp_J2[C],temp_J3[C],temp_J4[C],temp_J5[C],temp_J6[C]
1.1390002e-06,-0.3750234,0.51532316,0.84859353,-0.019991362,-0.017833699,0.0040745516,-0.38933107,-0.3687114,0.06000743,-3.0787063,0.6249096,0.00021971826,0.00031077804,0.00018426946,-0.00026205738,0.00053005136,-0.0012684623,-1.0052972e-05,0.50503284,-1.3816679,1.9042348,-2.0919273,-1.5708655,2.4800134,-0.00011462897,0.0003004336,-5.1702517e-07,0.0010660731,0.00015234042,-0.00010485969,0.15322891,0.19153613,-8.599973,0.7351769,47.675243,-0.13226691,-3.1817799,-2.3101313,-0.17882663,0.18170407,0.017160807,29.0,30.3125,29.375,33.0,35.4375,36.5
0.00205433,-0.5482431,-0.41480103,0.7535127,0.0022125298,-0.015246724,0.017671287,-0.38932824,-0.36869368,0.0599821,-3.078656,0.6248796,0.0001766171,-0.001042102,-0.00056824536,-0.00189969,-0.0018403495,0.0029897334,-9.39632e-06,0.5050208,-1.381631,1.9042472,-2.0919197,-1.5708898,2.479989,-0.00011283264,0.0028689338,0.0030771834,-0.009453618,0.00014874367,-0.000103457394,0.19153613,0.21068975,-8.63828,0.7978386,47.690468,-0.12119049,-3.0414386,-2.3525538,-0.1550512,0.18152396,0.009658586,29.0,30.3125,29.375,33.0,35.4375,36.5
0.004053596,-0.24406533,0.48546612,0.89766425,-0.020774467,-0.0068246806,-0.002270455,-0.3893366,-0.36869308,0.060000718,-3.078682,0.62496233,0.00019511108,-0.0019032323,-0.0010467968,-0.0015811066,-0.0031179274,0.0052944785,-8.637089e-06,0.50499684,-1.3816668,1.9042472,-2.0919201,-1.5708655,2.4800134,-0.00011109161,0.0030811569,0.0026508798,-0.011874681,0.00014531259,-0.00010199865,0.05746084,0.17238252,-8.695741,0.7620334,47.695843,-0.17796966,-3.4167356,-2.579258,-0.038115703,0.18112414,0.0056924666,29.0,30.3125,29.375,33.0,35.4375,36.5
0.006053643,-0.36328557,0.23865835,0.8641429,-0.0008315307,-0.022048645,0.0036737844,-0.389341,-0.3687098,0.059988156,-3.0787036,0.6249283,0.0002214247,-0.000905396,-0.00049160986,-0.0010663536,-0.0014304131,0.0022709172,-8.675888e-06,0.5050208,-1.3816311,1.9042467,-2.0919774,-1.5708655,2.4800134,-0.00010940366,0.0019729217,0.001488551,-0.0061415206,0.00014203649,-0.00010057428,0.0,0.24899697,-8.599973,0.7709874,47.716442,-0.13369904,-3.3859189,-2.5276303,-0.058313105,0.18526587,0.025059257,29.0,30.3125,29.375,33.0,35.4375,36.5
0.008053414,-0.01902533,1.0519972,0.42452312,0.032057237,-0.044041544,0.008625061,-0.38933444,-0.36869457,0.059980482,-3.0786595,0.6249769,0.0001888634,-0.00019183251,-9.4075185e-05,-0.00016693419,-0.0006287021,0.00084470835,-8.889616e-06,0.50500876,-1.3816319,1.9042591,-2.0919516,-1.5708774,2.4800372,-0.00010776621,3.563451e-05,0.00075339695,-0.0018330016,0.00013890449,-9.9188765e-05,-0.05746084,0.24899697,-8.7532015,0.7150385,47.719128,-0.09863472,-3.1897974,-2.4350126,-0.0913499,0.19052207,0.00044190747,29.0,30.3125,29.375,33.0,35.4375,36.5
0.010053578,0.1875875,1.0234835,-0.052795652,0.037463304,-0.033072114,0.012914146,-0.3893167,-0.36869904,0.059965767,-3.0786405,0.62491524,0.00013160615,0.00021951122,0.00012853928,-0.00024788018,9.550407e-05,-0.00048642754,-8.844644e-06,0.50503284,-1.3816078,1.9042586,-2.0919273,-1.5708774,2.4800253,-0.00010622466,4.780825e-07,0.00059053604,-0.000119681914,0.00015277417,-9.784085e-05,0.0,0.22984336,-8.983045,0.67475104,47.7245,-0.7938765,-2.85612,-2.8490205,-0.1574482,0.1774207,-0.045114245,29.0,30.3125,29.375,33.0,35.4375,36.5
0.012053969,-0.0046259854,0.15438637,-0.27893448,0.0016112103,-0.009111313,-0.0029045797,-0.38930935,-0.36870313,0.05996495,-3.0786338,0.6249158,6.2413616e-05,-0.0008619105,0.0021928733,-0.0010850528,0.0021400275,-0.004171888,-0.0044269133,0.5050317,-1.381595,1.9042343,-2.0918782,-1.5708536,2.4800253,-0.004592434,0.002055741,-0.0007190465,0.0033492157,0.0001518769,-0.00016549112,0.1340753,0.11492168,-9.232041,0.7351769,47.6636,-0.9113642,-2.7890673,-2.9357252,-0.16553447,0.17579055,-0.114864245,29.0,30.3125,29.375,33.0,35.4375,36.5
0.01405385,-0.2164767,-0.24854809,-0.35368562,-0.03925668,0.021126783,-0.008569394,-0.38930202,-0.36868298,0.05993312,-3.0785909,0.6248874,-2.5361014e-05,-0.0037084348,0.004976338,-0.005060726,0.0052329265,-0.009775263,-0.0040658587,0.50500464,-1.3815559,1.9042581,-2.0918677,-1.5708536,2.479986,-0.011943362,0.011023234,-0.001966251,0.0020280096,0.00014888804,-0.007875402,-0.05746084,0.1340753,-9.404425,0.84484416,47.71823,-0.47420406,-3.3093965,-3.0335824,-0.16220918,0.18434012,-0.100672334,29.0,30.3125,29.375,33.0,35.4375,36.5
0.016053854,-0.9279473,-0.12918454,-0.17292829,-0.07951392,0.03490871,-0.012360282,-0.3893574,-0.36867628,0.05995349,-3.078589,0.62500054,7.002491e-05,-0.0050653187,0.004893842,-0.004213097,0.003963501,-0.007509678,0.00032356384,0.5049564,-1.381532,1.9041861,-2.0918791,-1.5708774,2.4800086,-0.013078454,0.010792415,-0.0034149042,0.0011093152,0.00015796274,-0.0133992685,-0.17238252,0.19153613,-9.423578,0.7777002,47.690468,-0.5692845,-3.2567077,-3.074729,-0.16706029,0.2113033,-0.049458317,29.0,30.3125,29.375,33.0,35.4375,36.5
0.018054118,-1.6022,-0.3436127,-0.3097169,-0.06683323,0.048921913,-0.027709614,-0.38931328,-0.36865368,0.059914857,-3.0785472,0.62495,-8.147597e-05,-0.0055817105,0.004257402,-0.0026797904,0.0023041505,-0.00461383,0.0052854633,0.5049448,-1.3815328,1.9042696,-2.0918553,-1.5708536,2.4799707,-0.012519325,0.008766257,-0.0044460124,0.0008288508,0.00020401241,-0.017802004,-0.4405331,0.13407528,-9.442732,0.7239871,47.704796,-0.7435979,-2.9209492,-3.089355,-0.14124815,0.21058346,-0.050222684,29.0,30.3125,29.375,33.0,35.4375,36.5
0.020053955,-1.1069936,0.5411459,-0.6434366,-0.02852807,0.06183728,-0.04984629,-0.38932317,-0.36866346,0.059926007,-3.0785844,0.6248997,-6.3908396e-05,-0.0063773836,0.004549449,-0.0025427006,0.0003355116,-0.005047651,0.006231443,0.50494397,-1.3815328,1.9042443,-2.0918558,-1.5708407,2.4799337,-0.014960566,0.00875627,-0.004667964,0.00048077144,0.0021354035,-0.021192277,-0.45968673,0.19153613,-9.519346,0.7553206,47.690468,-0.7973225,-2.8745723,-3.2555647,-0.15534344,0.2204062,-0.012823547,29.0,30.3125,29.375,33.0,35.4375,36.5
0.022053532,-1.3411634,0.69662994,-0.81380457,0.009421387,0.04879722,-0.069272555,-0.38932106,-0.36866322,0.059903197,-3.0785866,0.6249218,-0.00019977699,-0.0064658276,0.0045361104,-0.0037575415,-0.0007614818,-0.008393183,0.0038456146,0.50490737,-1.3814838,1.9042329,-2.091832,-1.5707797,2.4799106,-0.016631227,0.011346035,-0.0049915444,0.00060399255,0.0047121346,-0.020481117,-0.45968673,0.15322891,-9.787497,0.7463667,47.7245,-0.8136823,-2.8765512,-3.3706279,-0.14725856,0.17065898,-0.05098696,29.0,30.3125,29.375,33.0,35.4375,36.5
0.024053877,-1.4374354,0.6593878,-0.8093896,0.009023388,0.048242528,-0.0859369,-0.38935074,-0.36866954,0.059897833,-3.0786145,0.62490916,-0.0001831807,-0.007533643,0.004828786,-0.0033802104,-0.0009304376,-0.008380541,0.0010359086,0.5048828,-1.3814355,1.9041961,-2.0918677,-1.5707678,2.4798746,-0.018210052,0.012077203,-0.006978291,0.0017667165,0.0048528686,-0.019249553,-0.6703764,-0.038307227,-9.672575,0.74413085,47.70211,-0.7437286,-2.862127,-3.3357234,-0.15672919,0.18491447,-0.056279134,29.0,30.3125,29.375,33.0,35.4375,36.5
0.026053702,-1.800705,0.56845707,-0.7581807,0.0004810729,0.053650223,-0.09956778,-0.3893572,-0.3686363,0.059872553,-3.078527,0.624912,-0.00019355775,-0.009199093,0.004720757,-0.0029342605,-0.0008317859,-0.0066343294,-0.0016736479,0.5048586,-1.3813988,1.9042076,-2.0918553,-1.5708283,2.4798634,-0.019001605,0.013698657,-0.009859523,0.0015484955,0.0039143185,-0.017328745,-0.7469909,-0.05746084,-9.710882,0.80456203,47.71823,-0.87378407,-2.8495605,-3.3436027,-0.15664795,0.19391763,-0.0805693,29.0,30.3125,29.375,33.0,35.4375,36.5
0.028053375,-1.6320387,0.19981152,-0.9071177,-0.0083295,0.08238911,-0.11533931,-0.38936543,-0.3686356,0.05987452,-3.0785375,0.624915,-0.00023247344,-0.010266776,0.0045161475,-0.0025415623,-0.0011425389,-0.0051699392,-0.003163848,0.50483453,-1.3813866,1.9041833,-2.0918314,-1.570804,2.4798398,-0.01938063,0.01450558,-0.011592444,0.0010447311,0.003473065,-0.01621595,-0.7661445,-0.095768064,-9.844957,0.7530795,47.698532,-0.9275689,-2.8531141,-3.3589025,-0.16777351,0.19353981,-0.09521367,29.0,30.3125,29.375,33.0,35.4375,36.5
0.03005381,-2.5839963,0.06074926,-0.8509792,-0.026403608,0.08098966,-0.12715816,-0.38936988,-0.36863247,0.059850637,-3.0785396,0.624877,-0.0003002934,-0.011103388,0.0047425674,-0.002977515,-0.0012766683,-0.0059365076,-0.0050526457,0.50481015,-1.3813379,1.9041828,-2.0918434,-1.5707802,2.4797914,-0.020847818,0.016315607,-0.012722471,0.00096953753,0.003958024,-0.015794579,-0.7086837,-0.05746084,-9.825804,0.7911258,47.690468,-0.96677357,-2.8650608,-3.3735719,-0.16090374,0.19689733,-0.12924072,29.0,30.3125,29.375,33.0,35.4375,36.5
0.032053504,-1.8816335,0.40054792,-0.8169565,-0.035684705,0.09162794,-0.14136396,-0.3893998,-0.36862516,0.05986336,-3.0785494,0.62491816,-0.00029878097,-0.011751272,0.003997437,-0.0022760115,-0.004365,-0.005816493,-0.006275232,0.5047619,-1.381326,1.9041342,-2.091819,-1.5707673,2.4797676,-0.02184778,0.016235322,-0.014217718,0.0009372223,0.0065998994,-0.015576013,-0.7852981,-0.038307227,-9.844957,0.8224646,47.694946,-0.9921571,-2.8515987,-3.3203297,-0.17555222,0.17743948,-0.140986,29.0,30.3125,29.375,33.0,35.4375,36.5
0.034053385,-1.710622,0.21401405,-0.74826247,-0.012826465,0.07866382,-0.14418206,-0.3894518,-0.36861128,0.059859633,-3.07855,0.6249566,-0.0002849997,-0.012241933,0.0042288257,-0.0027071605,-0.0049974183,-0.0069618323,-0.0073290397,0.5046895,-1.3812655,1.9040741,-2.0918314,-1.5707668,2.4797192,-0.02338482,0.017414046,-0.014609205,0.000843126,0.007706046,-0.016060768,-0.80445176,-0.095768064,-9.921572,0.6926589,47.66271,-0.9507381,-2.8421078,-3.3542402,-0.16676813,0.16685523,-0.14650014,29.0,30.3125,29.375,33.0,35.4375,36.5
0.036053993,-1.5919,0.4808035,-0.8196171,-0.00023219259,0.058967777,-0.15371387,-0.38946006,-0.36861297,0.05984746,-3.078548,0.6249764,-0.00031206207,-0.013699749,0.004538345,-0.0017072088,-0.0064411713,-0.0052219043,-0.00879094,0.5046769,-1.3812298,1.9040622,-2.0918434,-1.5707544,2.4797192,-0.025529154,0.016700247,-0.016019924,0.00074525794,0.0081247585,-0.016743567,-0.61291564,-0.038307227,-9.844957,0.7777002,47.677036,-0.9628148,-2.838224,-3.349482,-0.1714184,0.17001188,-0.16346431,29.0,30.3125,29.375,33.0,35.4375,36.5
0.038054336,-1.2848382,-0.035201088,-0.6391094,0.014365881,0.047130637,-0.15251663,-0.3894845,-0.36858603,0.059838973,-3.0785124,0.6250267,-0.0003277483,-0.014356865,0.0049467096,-0.0022369274,-0.0061600376,-0.005883577,-0.008235341,0.50461644,-1.3812051,1.9040498,-2.091832,-1.5707668,2.4796946,-0.026874773,0.018197276,-0.016519899,0.00046321354,0.008195697,-0.018644635,-0.5363012,0.019153614,-9.768343,0.74413085,47.709274,-0.8921188,-2.8365583,-3.3898714,-0.15220053,0.15129106,-0.18431592,29.0,30.3125,29.375,33.0,35.4375,36.5
0.040053945,-1.6808962,-0.071311764,-0.76454324,0.012550032,0.031849388,-0.17747289,-0.3895378,-0.36858374,0.059851274,-3.0785723,0.6251152,-0.00030543059,-0.015441638,0.0048061498,-0.001640737,-0.00740846,-0.004766169,-0.0076901326,0.50453234,-1.3811811,1.9040016,-2.0918682,-1.5707182,2.4796581,-0.027991762,0.018418543,-0.018084444,0.00022437189,0.008744935,-0.020306597,-0.51714754,0.05746084,-9.691729,0.83365434,47.658226,-0.9500842,-2.8092122,-3.3394046,-0.16908431,0.15266646,-0.19445081,29.0,30.3125,29.375,33.0,35.4375,36.5
0.04205382,-1.1613263,0.0848852,-0.6546449,0.005679534,0.04714855,-0.19704267,-0.38958254,-0.3685556,0.059837177,-3.0785358,0.62518466,-0.00037348116,-0.016782975,0.00498623,-0.0006533736,-0.007961725,-0.0025693527,-0.008179175,0.504436,-1.3811092,1.9039406,-2.091832,-1.5707067,2.4796097,-0.029181773,0.017931951,-0.019749556,0.00018868271,0.008162582,-0.021006329,-0.38307226,0.1340753,-9.672575,0.79560274,47.657326,-0.99459726,-2.750959,-3.3527079,-0.17075297,0.15352082,-0.2067989,29.0,30.3125,29.375,33.0,35.4375,36.5
0.044053636,-1.3130074,0.19882433,-0.5907857,0.0014069129,0.032986574,-0.20583232,-0.38959426,-0.36857674,0.059843514,-3.0786138,0.62514395,-0.00039246373,-0.017949749,0.0056829723,-0.0007074235,-0.0073830504,-0.002167447,-0.009035167,0.50442344,-1.3810967,1.9039167,-2.0918558,-1.5706471,2.4795618,-0.031005245,0.01890587,-0.02077302,0.00017003251,0.0074599343,-0.021971712,-0.2681506,0.076614454,-9.710882,0.77545905,47.65106,-0.934344,-2.7352352,-3.3167613,-0.17340073,0.15332776,-0.21128646,29.0,30.3125,29.375,33.0,35.4375,36.5
0.04605397,-1.067752,-0.24126239,-0.7153746,0.0029947718,0.019651229,-0.21189423,-0.38964853,-0.36853614,0.05984984,-3.078565,0.62524843,-0.00035560466,-0.01930116,0.006547496,-0.0004748,-0.008022398,-0.001867305,-0.010700832,0.5043267,-1.3810726,1.9038686,-2.091832,-1.5706829,2.4795365,-0.03397715,0.019080615,-0.0215063,0.00015529149,0.007872817,-0.023278348,-0.095768064,0.095768064,-9.615114,0.7396539,47.72002,-0.83631146,-2.740141,-3.316886,-0.16437349,0.16805656,-0.22596705,29.0,30.3125,29.375,33.0,35.4375,36.5
0.0480537,-1.0252944,-0.0062714787,-0.57584435,-0.016669929,0.004632618,-0.21259262,-0.38968635,-0.36851048,0.059840966,-3.078522,0.6252397,-0.00032017715,-0.02086294,0.006943465,0.00016139152,-0.008291128,-0.00023252222,-0.010359354,0.50427824,-1.3810245,1.9038318,-2.091832,-1.570731,2.4794881,-0.03575127,0.019414864,-0.023335645,9.049052e-05,0.007313283,-0.02539224,-0.11492168,0.17238252,-9.500193,0.7239871,47.68062,-0.83377135,-2.7034106,-3.315881,-0.1789341,0.16879505,-0.23765826,29.0,30.3125,29.375,33.0,35.4375,36.5
0.050053544,0.027713986,0.024195392,-0.53080606,-0.015347546,0.015123755,-0.20576791,-0.38974386,-0.36849388,0.05982811,-3.0785327,0.625318,-0.00033045697,-0.022316035,0.0073608113,0.0002747159,-0.008373957,0.0003131815,-0.009812491,0.5041816,-1.3809521,1.9037837,-2.0918682,-1.5707072,2.479439,-0.03768501,0.02072776,-0.025141312,6.745169e-05,0.00711815,-0.02787147,-0.095768064,0.095768064,-9.519346,0.7642693,47.71017,-0.79837143,-2.734519,-3.2929924,-0.19680056,0.18355729,-0.23766293,29.0,30.3125,29.375,33.0,35.4375,36.5
0.052053384,-0.23828883,-0.46178606,-0.5368262,0.0032154424,-0.003499735,-0.18522102,-0.38979632,-0.36846754,0.059834503,-3.0785654,0.625362,-0.00031322584,-0.02357881,0.007712537,0.00060611323,-0.008431649,0.0013363803,-0.0089671975,0.50407344,-1.3809397,1.9037598,-2.0918915,-1.5706834,2.4793541,-0.039173268,0.02137524,-0.026646439,4.4041135e-06,0.006671884,-0.030203281,-0.038307227,0.11492168,-9.500193,0.7172743,47.695843,-0.81170815,-2.701251,-3.2078156,-0.17238769,0.19570576,-0.22865838,29.0,30.3125,29.375,33.0,35.4375,36.5
0.054054137,-0.05481325,0.15321761,-0.3954844,-0.023014937,0.003748851,-0.18125904,-0.38982865,-0.3685008,0.0598488,-3.0786228,0.6253927,-0.0003448995,-0.023662731,0.0072806985,0.00081809453,-0.010009079,0.0010136738,-0.008123088,0.5040614,-1.3808798,1.9036511,-2.0918682,-1.5706228,2.479354,-0.039480258,0.021355737,-0.027105765,2.8755713e-07,0.008208553,-0.031356636,0.0,0.1340753,-9.519346,0.76874626,47.71017,-0.80333096,-2.6738286,-3.2590466,-0.17236218,0.18059504,-0.23461026,29.0,30.3125,29.375,33.0,35.4375,36.5
0.056053955,-0.8678992,-0.34422398,-0.47530705,-0.01678281,-0.013190616,-0.17784786,-0.38990057,-0.36844197,0.059860546,-3.0785806,0.62549955,-0.00029676713,-0.023750536,0.007559346,0.00047110827,-0.010377748,-6.5396007e-06,-0.007883029,0.5039173,-1.3808675,1.9036044,-2.0918438,-1.5706581,2.479282,-0.04053525,0.021775728,-0.026812965,1.8775426e-08,0.009025526,-0.032653034,0.05746084,0.19153613,-9.461885,0.73069996,47.689575,-0.8997055,-2.6955228,-3.3130238,-0.17971799,0.14890182,-0.23896155,29.0,30.3125,29.375,33.0,35.4375,36.5
0.058053732,-0.3405235,-0.22795814,-0.3413757,-0.015857974,0.008537371,-0.18486862,-0.3899463,-0.3684445,0.05986653,-3.0786452,0.62547415,-0.00027614375,-0.025200816,0.008392622,0.00024278912,-0.010413919,-0.0003120242,-0.009417496,0.5038565,-1.380831,1.9035558,-2.0918796,-1.5706223,2.479197,-0.043398377,0.023247782,-0.028033776,1.225901e-09,0.009203673,-0.033980824,0.05746084,0.17238252,-9.385271,0.71951014,47.691364,-0.80550194,-2.6407614,-3.328535,-0.18465242,0.1693534,-0.24559462,29.0,30.3125,29.375,33.0,35.4375,36.5
0.06005336,-0.7046469,-0.31588122,-0.591894,-0.010247302,-1.8127716e-05,-0.17653923,-0.39000133,-0.36844087,0.05988391,-3.0786793,0.62551945,-0.00025603393,-0.026701413,0.008463534,0.0009260247,-0.011055853,0.0012276634,-0.0099107595,0.5037841,-1.3807949,1.9034709,-2.0918682,-1.5705985,2.4791486,-0.044797562,0.02380229,-0.030244326,8.004257e-11,0.009019252,-0.03488512,0.0,0.21068975,-9.423578,0.78217715,47.71465,-0.7365583,-2.6411514,-3.25211,-0.19288766,0.18208852,-0.26744783,29.0,30.3125,29.375,33.0,35.4375,36.5
0.062053952,-0.2945146,0.13262793,-0.32493615,-0.015480407,0.010972481,-0.18012914,-0.3900344,-0.36842713,0.059852745,3.0786908,-0.62550217,0.00035023212,-0.027437847,0.008229327,0.0013600518,-0.012365134,0.0016877542,-0.009464309,0.5037001,-1.3807106,1.9034475,-2.0918915,-1.5705503,2.4790523,-0.045661066,0.02405459,-0.03153227,5.226208e-12,0.009940055,-0.036196362,-0.076614454,0.22984336,-9.423578,0.7396539,47.677036,-0.81451,-2.5615995,-3.194016,-0.17755708,0.15930194,-0.29745215,29.0,30.3125,29.375,33.0,35.4375,36.5
0.06405367,-0.8971858,-0.606814,-0.44388658,0.003556144,0.008272108,-0.16844866,-0.39012906,-0.3684019,0.0599178,3.0786145,-0.6255831,0.00015556335,-0.028269343,0.008852131,0.0013117288,-0.012159705,0.0017811481,-0.0095311655,0.50359166,-1.3807466,1.9033393,-2.0918796,-1.5705861,2.4790041,-0.0473381,0.024568658,-0.032028217,3.4123399e-13,0.009719517,-0.037804604,-0.1340753,0.21068975,-9.385271,0.7665104,47.68062,-0.8345535,-2.5527048,-3.272787,-0.19749042,0.16566986,-0.29385585,29.0,30.3125,29.375,33.0,35.4375,36.5
0.06605399,-1.524824,-0.4330897,-0.451669,-7.5792654e-05,0.0034381463,-0.1615895,-0.3901617,-0.368393,0.059885684,3.078624,-0.6255652,0.00022446286,-0.029153049,0.009071441,0.0015758236,-0.012634177,0.002283375,-0.010424141,0.50353134,-1.3806504,1.903304,-2.0919034,-1.5705622,2.4789314,-0.048633594,0.024922673,-0.033050142,2.2280143e-14,0.00988955,-0.03820728,-0.17238252,0.24899697,-9.404425,0.7642693,47.71017,-0.8300754,-2.6027966,-3.2588105,-0.20160007,0.17569804,-0.31167558,29.0,30.3125,29.375,33.0,35.4375,36.5
0.06805395,-1.4709193,-0.10263856,-0.25599974,-0.009265108,0.019735772,-0.17426652,-0.3902354,-0.36838776,0.059898686,3.0785651,-0.62558985,0.00024516365,-0.029618332,0.008986697,0.0014665492,-0.013291208,0.001832739,-0.008068973,0.5034234,-1.3805779,1.9031833,-2.0918796,-1.5705136,2.4788463,-0.04941098,0.025850942,-0.03390005,1.454734e-15,0.010682262,-0.04134031,-0.24899697,0.17238252,-9.385271,0.784413,47.698532,-0.783659,-2.573649,-3.252976,-0.19339897,0.15377808,-0.3124116,29.0,30.3125,29.375,33.0,35.4375,36.5
0.07005365,-1.7043532,-0.24412161,-0.08919468,-0.008027408,0.019917944,-0.17462076,-0.39030153,-0.36835882,0.059908178,3.0785007,-0.6256542,0.00023956342,-0.030620942,0.009716502,0.0013348185,-0.0136529775,0.0014363343,-0.009088106,0.5032907,-1.3805536,1.9031357,-2.0918915,-1.5704778,2.478762,-0.05188354,0.026539749,-0.03441473,9.4983734e-17,0.011191739,-0.0427938,-0.36391866,0.1340753,-9.346964,0.80679786,47.705692,-0.83027554,-2.5637636,-3.267109,-0.21631049,0.14737041,-0.3140655,29.0,30.3125,29.375,33.0,35.4375,36.5
0.072053395,-1.5963125,-0.5561502,-0.3863612,0.006146621,0.032526422,-0.16103657,-0.3903481,-0.36833033,0.05991205,3.07852,-0.6256403,0.00024308203,-0.031755682,0.009834647,0.0015883758,-0.01536512,0.0014533676,-0.011609615,0.5032062,-1.3805175,1.903076,-2.0918558,-1.5704888,2.4786663,-0.05406335,0.027135188,-0.035649974,-0.00020582962,0.012680419,-0.042453848,-0.40222588,0.05746084,-9.32781,0.8717007,47.733456,-0.7060079,-2.5178378,-3.255312,-0.22017944,0.13562141,-0.3549282,29.0,30.3125,29.375,33.0,35.4375,36.5
0.07405399,-0.6702936,-0.20431216,-0.32496044,0.011571464,0.06578482,-0.16977786,-0.39041433,-0.3683299,0.059916265,3.0784402,-0.62560123,0.00025802338,-0.031939298,0.008832541,0.0017497166,-0.015806792,0.0023456255,-0.0069757346,0.50309914,-1.3804569,1.9030031,-2.091892,-1.5704173,2.478545,-0.052511748,0.028207043,-0.037159897,-0.00075697707,0.012635642,-0.045534607,-0.40222588,0.0,-9.385271,0.76874626,47.698532,-0.9016336,-2.5499449,-3.2487397,-0.20354043,0.14777592,-0.35192633,29.0,30.3125,29.375,33.0,35.4375,36.5
0.07605406,-1.6339669,0.6724831,-0.14739011,0.003016031,0.044953182,-0.17736349,-0.39048335,-0.3683053,0.059906017,3.078426,-0.62565607,0.00031148063,-0.033171967,0.009651909,0.0016365667,-0.016300932,0.0020002034,-0.0072258334,0.5029782,-1.3803606,1.9029073,-2.0918686,-1.570393,2.47846,-0.05540291,0.029030148,-0.0378668,-0.00080746884,0.01323351,-0.048176434,-0.38307226,-0.038307227,-9.3661175,0.7620334,47.689575,-0.87328357,-2.4587746,-3.2425737,-0.18845725,0.13639183,-0.33534765,29.0,30.3125,29.375,33.0,35.4375,36.5
0.07805361,-1.3364476,0.51753694,-0.18970005,0.016777571,0.054383975,-0.17424972,-0.39056662,-0.36830735,0.059934597,3.0783353,-0.6256936,0.00024964908,-0.034546155,0.010537097,0.0014912402,-0.016375447,0.0018096223,-0.005396751,0.5028815,-1.3803122,1.9027876,-2.09188,-1.5703567,2.4783983,-0.0582612,0.030141087,-0.03885213,-0.0007979517,0.01339381,-0.052862365,-0.4213795,-0.038307227,-9.3661175,0.7620334,47.689575,-0.8344378,-2.5136304,-3.2367806,-0.21649066,0.12358964,-0.30361038,29.0,30.3125,29.375,33.0,35.4375,36.5
0.08005329,-1.3398097,0.30198374,-0.38017583,0.021054756,0.05430384,-0.17007345,-0.3906154,-0.36826298,0.05990762,3.0783846,-0.6256072,0.00030731034,-0.03547771,0.010636707,0.001737436,-0.016633801,0.0024622255,-0.0054682535,0.5027614,-1.3802397,1.9027632,-2.09188,-1.5703567,2.478218,-0.059232276,0.030816024,-0.04021062,-0.00080846914,0.013301376,-0.053761795,-0.40222588,0.0,-9.423578,0.7978386,47.709274,-0.74664104,-2.5490234,-3.1978874,-0.23100092,0.11956672,-0.31546968,29.0,30.3125,29.375,33.0,35.4375,36.5
0.082053825,-1.1860814,0.3232258,-0.32384738,0.013949999,0.0560886,-0.17387143,-0.3906827,-0.36823112,0.059891135,3.0783567,-0.6256949,0.00034725704,-0.035404947,0.010038791,0.0019158431,-0.016770914,0.0030399312,-0.002402365,0.50263023,-1.3801557,1.9027041,-2.091892,-1.5703329,2.4781451,-0.05804984,0.031099018,-0.040921967,-0.0009481032,0.013142021,-0.055644847,-0.51714754,-0.038307227,-9.442732,0.8940802,47.719128,-0.9582777,-2.5085163,-3.2421522,-0.23875755,0.11600153,-0.29705346,29.0,30.3125,29.375,33.0,35.4375,36.5
0.08405343,-1.7407687,0.023291834,-0.30631623,0.011627664,0.046407256,-0.17017682,-0.39076054,-0.3682388,0.059925172,3.0782666,-0.62563664,0.0003074823,-0.037120994,0.011084183,0.0018772002,-0.015937943,0.0038181085,-0.0005333316,0.50253356,-1.3801192,1.9025835,-2.091892,-1.5702733,2.4780235,-0.06070737,0.03237933,-0.042311296,-0.0011092817,0.012039987,-0.060168024,-0.40222588,-0.038307227,-9.346964,0.784413,47.71465,-0.9247536,-2.5247064,-3.2769668,-0.24704301,0.11083004,-0.28066725,29.0,30.3125,29.375,33.0,35.4375,36.5
0.08605357,-1.1085091,0.40644783,-0.33339977,0.0030699596,0.05257953,-0.17710958,-0.39081082,-0.36818537,0.059893847,3.0783105,-0.6256439,0.00041913753,-0.037939154,0.01141262,0.0014653291,-0.01571869,0.0039055801,0.0017158265,0.50238943,-1.3800347,1.9025468,-2.0918567,-1.5702614,2.4778783,-0.061864246,0.03378547,-0.042852238,-0.0019407346,0.011799239,-0.06357419,-0.34476504,-0.114921674,-9.404425,0.78217715,47.73256,-0.9460496,-2.493466,-3.214807,-0.24699676,0.08991942,-0.22595137,29.0,30.3125,29.375,33.0,35.4375,36.5
0.08805323,-1.5591271,-0.29313016,-0.325642,0.016684832,0.038473774,-0.16392358,-0.39092124,-0.36819378,0.059937812,3.0782125,-0.6256604,0.0002768696,-0.038153257,0.011907164,0.0005927521,-0.014611753,0.0026544444,0.0041512907,0.5022934,-1.379974,1.9023803,-2.09188,-1.5702494,2.4778051,-0.06265756,0.03547622,-0.04285549,-0.0019940247,0.011440982,-0.0668007,-0.3256114,0.076614454,-9.385271,0.7709874,47.72002,-1.0121899,-2.5489972,-3.2520375,-0.23663685,0.103519745,-0.21000534,29.0,30.3125,29.375,33.0,35.4375,36.5
0.09005392,-0.8284383,0.41786668,-0.31738994,-0.004347906,0.052337803,-0.17545873,-0.3909845,-0.36814567,0.059902072,3.0782557,-0.6256103,0.0003070446,-0.03878143,0.012198516,0.0006301965,-0.014414622,0.002867991,0.0060851113,0.5021613,-1.3798778,1.902356,-2.0919163,-1.5702618,2.4776363,-0.06355008,0.036010437,-0.04360505,-0.001868028,0.011163238,-0.069626704,-0.3256114,0.095768064,-9.3661175,0.7866488,47.73077,-0.99545544,-2.5711536,-3.2960472,-0.24997413,0.11698166,-0.1608008,29.0,30.3125,29.375,33.0,35.4375,36.5
0.09205346,-0.9672497,0.29119447,-0.3951657,0.00025705417,0.03802249,-0.17389086,-0.39106986,-0.36812523,0.05993443,3.0781896,-0.6255567,0.0002856879,-0.040525734,0.011674769,0.0019738881,-0.016375015,0.005348049,0.0072914334,0.5020173,-1.3798536,1.9022483,-2.091892,-1.5702132,2.4774673,-0.06460279,0.036094908,-0.046748884,-0.0019218618,0.011687241,-0.07188447,-0.24899697,0.1340753,-9.3661175,0.79560274,47.72719,-1.0628889,-2.589071,-3.1378124,-0.24232009,0.09973813,-0.129187,29.0,30.3125,29.375,33.0,35.4375,36.5
0.09405401,-0.46786794,0.10348534,-0.6647447,0.001811531,0.039853413,-0.16527867,-0.3911555,-0.36808228,0.059919026,3.0782027,-0.6256169,0.00030197806,-0.040598296,0.012877675,0.0005673578,-0.01415267,0.0038292008,0.0077075176,0.50187314,-1.3797451,1.9021524,-2.0918806,-1.5702256,2.477359,-0.06592485,0.03773709,-0.045353256,-0.0025529165,0.010471522,-0.07362154,-0.17238252,0.05746084,-9.404425,0.86498255,47.754948,-1.0700353,-2.552971,-3.25052,-0.25534344,0.10686604,-0.09552646,29.0,30.3125,29.375,33.0,35.4375,36.5
0.09605477,-0.988763,-0.4025667,-0.42664307,-0.0015635856,0.016273856,-0.16715947,-0.39127398,-0.3680568,0.059933428,3.0781431,-0.6256237,0.000254942,-0.041165665,0.012916991,0.00022360384,-0.013940601,0.003767357,0.0069987006,0.50170535,-1.3796484,1.9020079,-2.0918925,-1.5702018,2.4772031,-0.066405095,0.039157752,-0.046149507,-0.0030171198,0.010318549,-0.073391564,-0.17238252,0.095768064,-9.423578,0.7418897,47.721813,-1.0948985,-2.595617,-3.3770022,-0.25558293,0.11215603,-0.073097244,29.0,30.3125,29.375,33.0,35.4375,36.5
0.098054044,-0.46581855,0.3086264,-0.36060706,-0.019728724,0.017706133,-0.17465644,-0.39131114,-0.3680332,0.059918374,3.078131,-0.6255448,0.00029085978,-0.042754088,0.0132411625,0.00055168575,-0.01472319,0.004808754,0.0044348156,0.50160885,-1.3796121,1.9020075,-2.0919287,-1.570166,2.477059,-0.06853196,0.040064637,-0.04786036,-0.003499825,0.010500029,-0.07295389,-0.15322891,0.19153613,-9.385271,0.73741806,47.684196,-1.0830464,-2.6183991,-3.2696824,-0.2701899,0.1134841,-0.06951295,29.0,30.3125,29.375,33.0,35.4375,36.5
0.100053996,-0.3759055,-0.2924871,-0.48399132,-0.007937452,0.013380439,-0.16974603,-0.3914014,-0.3680186,0.059920184,3.0781348,-0.62544936,0.00026184888,-0.044771202,0.013073244,0.0017376457,-0.0157876,0.0075448337,0.0023489413,0.5015007,-1.379504,1.9018754,-2.0919287,-1.5701665,2.4768908,-0.06986656,0.04052441,-0.05106974,-0.0036589485,0.010113438,-0.07220051,-0.17238252,0.21068975,-9.346964,0.779936,47.71286,-1.0676527,-2.5346427,-3.1710653,-0.27659097,0.116581425,-0.071424946,29.0,30.3125,29.375,33.0,35.4375,36.5
0.102053724,0.45343262,-4.251583e-05,-0.57853377,-0.020271381,0.02449353,-0.17495981,-0.39148614,-0.36796466,0.059920244,3.0780842,-0.62555623,0.0002990081,-0.044891093,0.0134456195,0.0011662306,-0.016030094,0.0059539266,6.413943e-05,0.50130844,-1.3794554,1.9018153,-2.0919173,-1.5701298,2.4767716,-0.07120065,0.041437753,-0.050895516,-0.0034674176,0.011093987,-0.07125095,-0.05746084,0.2681506,-9.32781,0.83589023,47.72719,-1.1171837,-2.6247609,-3.1757007,-0.26525643,0.11350125,-0.07197087,29.0,30.3125,29.375,33.0,35.4375,36.5
0.10405318,0.3825358,-0.4419671,-0.5241574,-0.025123712,0.02417322,-0.16787751,-0.391574,-0.36793002,0.059913564,3.0781019,-0.62556165,0.00030432866,-0.045258205,0.014729632,0.00019872242,-0.015003835,0.0038701165,-0.0040571596,0.50117606,-1.3793471,1.9016966,-2.0918925,-1.5701417,2.4766405,-0.07375289,0.042606223,-0.050181232,-0.003030168,0.011198036,-0.069682345,-0.05746084,0.17238252,-9.385271,0.779936,47.66987,-1.1482933,-2.5644052,-3.3652992,-0.27007505,0.11399471,-0.099458635,29.0,30.3125,29.375,33.0,35.4375,36.5
0.10605377,-0.1246212,-0.358816,-0.32390425,-0.03630233,0.016308574,-0.17579108,-0.3916819,-0.3679056,0.059933513,3.078038,-0.6255106,0.00022789225,-0.04663613,0.014538508,0.00095912477,-0.015657231,0.0054515493,-0.006473034,0.50102,-1.3792866,1.9015878,-2.0919282,-1.5701178,2.4764607,-0.074575454,0.043260667,-0.05273162,-0.0028319405,0.011013454,-0.06808677,-0.11492168,0.21068975,-9.461885,0.7777002,47.7245,-1.1622669,-2.6017175,-3.301731,-0.2858994,0.115117334,-0.116820045,29.0,30.3125,29.375,33.0,35.4375,36.5
0.10805346,-0.6140985,-0.24079156,-0.6437407,-0.04132492,0.009777392,-0.17380509,-0.3917546,-0.3678808,0.059902955,3.0780215,-0.6255661,0.00030819746,-0.047381368,0.014589633,0.0013086465,-0.016688846,0.0058620726,-0.009021009,0.50088793,-1.3791547,1.9015039,-2.0919406,-1.5700811,2.4763653,-0.075777404,0.04335008,-0.0536267,-0.0028811889,0.011717969,-0.06674162,-0.17238252,0.22984336,-9.404425,0.7709874,47.703903,-1.1396525,-2.5257924,-3.2662716,-0.2849477,0.14152265,-0.145234,29.0,30.3125,29.375,33.0,35.4375,36.5
0.110053904,-0.86450636,-0.49555087,-0.6731241,-0.029780107,0.013965144,-0.16222678,-0.39187816,-0.36786938,0.059942726,3.0779312,-0.6255665,0.00023167323,-0.0479436,0.014769944,0.00028454475,-0.01628743,0.0042725387,-0.010841541,0.50073195,-1.3790816,1.9013242,-2.0919282,-1.5700454,2.476221,-0.07684033,0.04611565,-0.054504413,-0.0031797283,0.012134367,-0.065982565,-0.11492168,0.24899697,-9.423578,0.7866488,47.717335,-1.2157807,-2.6282282,-3.2341957,-0.3012668,0.12698919,-0.18964241,29.0,30.3125,29.375,33.0,35.4375,36.5
0.1120534,-0.40181324,-0.15049118,-0.4851686,-0.036119394,0.03292962,-0.17321849,-0.39197567,-0.36781898,0.059927367,3.0779176,-0.6256409,0.00020676754,-0.04851057,0.014666665,0.00043863014,-0.017715136,0.0044346377,-0.0120096505,0.500564,-1.3789854,1.9012536,-2.091965,-1.5700568,2.4761014,-0.077906325,0.04633165,-0.05498635,-0.0037442546,0.013309395,-0.06588133,-0.076614454,0.22984336,-9.442732,0.8314132,47.704796,-1.2212971,-2.6542017,-3.2893343,-0.30572486,0.10082123,-0.2058504,29.0,30.3125,29.375,33.0,35.4375,36.5
0.11405375,-0.6950578,-0.2927697,-0.48630017,-0.0228384,0.02767551,-0.17299144,-0.39206088,-0.3678138,0.059945606,3.0778246,-0.6256216,0.00020619239,-0.05003678,0.01510652,0.0017194451,-0.019407492,0.0067220167,-0.013714905,0.5004315,-1.3789259,1.9011444,-2.091977,-1.5699848,2.4759686,-0.08028374,0.044873714,-0.056125037,-0.0039609377,0.013699718,-0.06655283,-0.076614454,0.19153613,-9.423578,0.7642693,47.666286,-1.2555265,-2.4861906,-3.2792501,-0.30017245,0.1122224,-0.245888,29.0,30.3125,29.375,33.0,35.4375,36.5
0.11605384,-0.75967336,-0.16759901,-0.46037155,-0.014523152,0.02591798,-0.16543928,-0.3921676,-0.36777458,0.059942152,3.0778074,-0.6256558,0.00024685677,-0.050682474,0.014761757,0.0012225443,-0.01996706,0.0060038324,-0.012772642,0.50025153,-1.3788048,1.9010009,-2.091941,-1.5699605,2.4758122,-0.08080115,0.047141,-0.057582628,-0.0044067157,0.014533437,-0.06801259,-0.22984336,0.22984336,-9.500193,0.7642693,47.699425,-1.1574572,-2.4872692,-3.3073049,-0.30219066,0.113201246,-0.23459622,29.0,30.3125,29.375,33.0,35.4375,36.5
0.118053555,-0.540495,-0.40645418,-0.3548645,-0.004127012,0.039916072,-0.15869796,-0.39227894,-0.3677407,0.05993141,3.0777721,-0.6256683,0.00021809824,-0.0511205,0.014972743,0.000911309,-0.019413449,0.0055279285,-0.014963167,0.50008374,-1.3786844,1.9008936,-2.0919888,-1.5699481,2.4756567,-0.0813823,0.048374068,-0.058401547,-0.0041347397,0.014278764,-0.066401966,-0.3256114,0.17238252,-9.423578,0.7329411,47.689575,-1.3532557,-2.5610323,-3.3595233,-0.3099407,0.109297365,-0.30520973,29.0,30.3125,29.375,33.0,35.4375,36.5
0.120054185,-0.6710108,0.038057465,-0.22631656,-0.005618688,0.048849802,-0.16393584,-0.39234608,-0.36766878,0.05990239,3.0777762,-0.6258245,0.00037046062,-0.053314433,0.016676283,0.00033888087,-0.01937996,0.004701711,-0.019443393,0.49987835,-1.3785995,1.9008454,-2.0919287,-1.5699123,2.4755483,-0.08648797,0.050435245,-0.05949425,-0.004357545,0.014639187,-0.06702842,-0.38307226,0.019153614,-9.404425,0.800085,47.696735,-1.1204925,-2.5596027,-3.2963653,-0.32274795,0.10755055,-0.31074798,29.0,30.3125,29.375,33.0,35.4375,36.5
0.12205397,-0.8873139,0.9308077,-0.4336294,-0.012749698,0.05603322,-0.17525837,-0.39247745,-0.36767212,0.059928186,3.0776937,-0.6257847,0.00026411624,-0.053293455,0.015306508,0.0018763118,-0.021058852,0.00835829,-0.014446672,0.49974763,-1.3784802,1.9006537,-2.0919654,-1.5698885,2.4754033,-0.08396671,0.048338544,-0.060249396,-0.005513052,0.014366363,-0.069501944,-0.4213795,-0.038307227,-9.461885,0.8784135,47.66987,-1.3181872,-2.5833993,-3.2973785,-0.3154269,0.11679186,-0.3462688,29.0,30.3125,29.375,33.0,35.4375,36.5
0.124053635,-0.7356559,0.9599823,-0.3160987,-0.009625398,0.07330101,-0.17738721,-0.39259273,-0.36765027,0.059947807,3.0775948,-0.6258452,0.00025305804,-0.054650113,0.015941896,0.001852402,-0.021553753,0.008146708,-0.020797115,0.4995669,-1.3783958,1.9005092,-2.0919654,-1.5698284,2.475273,-0.08660013,0.0494995,-0.061604533,-0.005368645,0.014904877,-0.065783866,-0.4405331,-0.038307227,-9.404425,0.8112748,47.70032,-1.3392644,-2.4457126,-3.3500013,-0.3278891,0.11887467,-0.39705694,29.0,30.3125,29.375,33.0,35.4375,36.5
0.12605396,-1.2352924,0.4558234,-0.35656965,0.010907964,0.06613812,-0.1682842,-0.3926938,-0.36761898,0.059934445,3.077554,-0.6258742,0.000277071,-0.055702087,0.016864987,0.0012324149,-0.020646922,0.0074815205,-0.02111034,0.49939865,-1.3782749,1.900402,-2.0919893,-1.5697926,2.475128,-0.08880858,0.05126468,-0.062275447,-0.0054363213,0.014430351,-0.06767796,-0.36391866,-0.038307227,-9.346964,0.83365434,47.711063,-1.2660459,-2.4765162,-3.3521843,-0.3376615,0.11741856,-0.45661595,29.0,30.3125,29.375,33.0,35.4375,36.5
0.12805332,-1.138997,0.7205149,-0.29042107,0.009868837,0.06631542,-0.1744093,-0.39279422,-0.3675788,0.059940178,3.0775225,-0.62586576,0.00024692045,-0.056649476,0.01722784,0.0013757526,-0.021124024,0.007518669,-0.019207047,0.4992306,-1.3782028,1.9003061,-2.0920012,-1.5697802,2.4749587,-0.0905256,0.05187453,-0.06338067,-0.0051968237,0.0148368245,-0.071297616,-0.45968673,-0.1340753,-9.461885,0.7642693,47.713753,-1.3576579,-2.542304,-3.3443055,-0.32613537,0.122056566,-0.46339518,29.0,30.3125,29.375,33.0,35.4375,36.5
0.13005382,-0.92687273,1.5164236,-0.35396078,-0.0036525226,0.068215586,-0.17744935,-0.3929317,-0.3675542,0.059946164,3.0774739,-0.6259122,0.00017615932,-0.057586897,0.017703125,0.0014591253,-0.020905014,0.007694089,-0.017401714,0.49906227,-1.3780582,1.9001268,-2.0920255,-1.5697802,2.4748256,-0.09199471,0.0526169,-0.064541206,-0.004821314,0.014567998,-0.07457044,-0.4405331,-0.22984336,-9.461885,0.779936,47.651955,-1.1819998,-2.4560094,-3.3052998,-0.34099108,0.106823936,-0.46211386,29.0,30.3125,29.375,33.0,35.4375,36.5
0.13205355,-1.0002674,0.6661708,-0.51071656,0.014899839,0.070944354,-0.16361706,-0.39303532,-0.3674892,0.059934355,3.0774322,-0.62601423,0.00022636793,-0.057877555,0.017572412,0.0011303781,-0.02119429,0.00739917,-0.010633743,0.49883476,-1.3779739,1.9000539,-2.0920255,-1.569744,2.474667,-0.09226895,0.053724002,-0.06498935,-0.005348338,0.014968228,-0.081612766,-0.57460845,-0.076614454,-9.500193,0.8717007,47.7254,-1.4567654,-2.4896297,-3.413147,-0.33040217,0.124253854,-0.4490074,29.0,30.3125,29.375,33.0,35.4375,36.5
0.13405415,-1.1685021,0.7294046,-0.3754003,0.007632543,0.07409589,-0.17151855,-0.3931457,-0.36747056,0.05992981,3.0773878,-0.6259291,0.00025920707,-0.062615834,0.019399544,0.0021352556,-0.022432877,0.01005927,-0.013757581,0.49866453,-1.377841,1.8999094,-2.092037,-1.5696844,2.4744494,-0.09956827,0.055776726,-0.069639415,-0.005667123,0.014780261,-0.08578555,-0.7086837,-0.076614454,-9.500193,0.74413085,47.688675,-1.1162868,-2.4330802,-3.23461,-0.3144882,0.118406564,-0.40313086,29.0,30.3125,29.375,33.0,35.4375,36.5
0.13605398,-1.4003394,0.5542214,-0.65548074,0.010115897,0.07398924,-0.1684368,-0.39326203,-0.36743584,0.059937347,3.0772989,-0.626022,0.0002782304,-0.061203305,0.01943063,0.0009900945,-0.021557463,0.0076095387,-0.007200826,0.4984615,-1.3777448,1.8997782,-2.092037,-1.5696243,2.4743156,-0.098550536,0.056288313,-0.06766822,-0.0055670845,0.015197749,-0.091325134,-0.61291564,-0.1340753,-9.461885,0.82694155,47.71286,-1.3254324,-2.5187206,-3.2459245,-0.33211818,0.116845235,-0.3629701,29.0,30.3125,29.375,33.0,35.4375,36.5
0.13805364,-1.9126563,0.113032766,-0.66109365,0.0037202528,0.068191715,-0.1564366,-0.3933868,-0.3673867,0.059935734,3.0772762,-0.62597483,0.00024756393,-0.06301084,0.020724246,0.0016694483,-0.02132926,0.009048605,-0.002431249,0.49825674,-1.3776368,1.8996595,-2.0920613,-1.5696129,2.4740844,-0.101816505,0.055948116,-0.068917654,-0.005116297,0.014320284,-0.09935911,-0.6703765,-0.019153614,-9.500193,0.7239871,47.72092,-1.198801,-2.4222965,-3.354907,-0.34499335,0.14665912,-0.2771497,29.0,30.3125,29.375,33.0,35.4375,36.5
0.14005421,-1.6311096,0.2671543,-0.53954345,-0.0093312375,0.08455178,-0.16958861,-0.39351854,-0.36733112,0.05993451,3.0772195,-0.6260198,0.0003084323,-0.06576564,0.020634705,0.0032357853,-0.023718849,0.011610776,-0.0015517533,0.4980043,-1.3775165,1.8995141,-2.0920365,-1.5695523,2.4738672,-0.10471195,0.056551952,-0.073286116,-0.004733265,0.01519439,-0.103132926,-0.63206923,0.019153614,-9.404425,0.80679786,47.704796,-1.0971037,-2.4551566,-3.145961,-0.35580325,0.13650906,-0.25528258,29.0,30.3125,29.375,33.0,35.4375,36.5
0.14205383,-1.6796556,0.15408634,-0.8589528,-0.006767667,0.07640631,-0.1558865,-0.39362362,-0.36729556,0.059913933,3.0772662,-0.62587404,0.0003401112,-0.06592894,0.022363557,0.00063994626,-0.020796767,0.0070958883,-0.0005065392,0.49784765,-1.3773589,1.8993715,-2.092025,-1.5695523,2.4736137,-0.107495986,0.06059104,-0.07224737,-0.00444053,0.014789239,-0.10696209,-0.6512229,0.038307227,-9.557653,0.8179876,47.691364,-1.0622668,-2.6088955,-3.1447997,-0.37202233,0.14972183,-0.17795001,29.0,30.3125,29.375,33.0,35.4375,36.5
0.14405344,-1.5967451,-0.3372953,-0.80699086,-0.007410443,0.078310505,-0.16567567,-0.3937742,-0.3672441,0.059950955,3.0771494,-0.6259649,0.00021973364,-0.067197904,0.022796717,0.0020548415,-0.022926608,0.00922242,-0.0012236832,0.49760747,-1.3773116,1.8992394,-2.0920608,-1.569528,2.4734452,-0.10989518,0.058470827,-0.07293411,-0.004513855,0.015662199,-0.10864301,-0.6703765,0.076614454,-9.634268,0.80456203,47.67166,-0.9333118,-2.4424353,-3.2803688,-0.38014197,0.15464358,-0.16455312,29.0,30.3125,29.375,33.0,35.4375,36.5
0.14605336,-1.0348614,-0.1190249,-0.65002775,-0.031000137,0.08481517,-0.16185845,-0.39391968,-0.3671925,0.059931766,3.0771368,-0.62598205,0.00023247216,-0.06877947,0.022996133,0.0024451783,-0.023255263,0.010730952,-0.0033578104,0.4973795,-1.3771312,1.899072,-2.0920732,-1.5695161,2.4732296,-0.11137907,0.059516717,-0.07495814,-0.005012549,0.015229428,-0.10799151,-0.7278373,0.076614454,-9.557653,0.7933669,47.694054,-0.8880783,-2.3567486,-3.3103492,-0.37766308,0.17147076,-0.11989656,29.0,30.3125,29.375,33.0,35.4375,36.5
0.14805412,-0.91463697,-0.39205337,-0.6610082,-0.020319207,0.090797104,-0.16461846,-0.39408922,-0.36715987,0.05997006,3.0770216,-0.62601805,0.00015181696,-0.07004275,0.023466557,0.0020385613,-0.023347205,0.010498178,-0.008379555,0.4971392,-1.3770224,1.898856,-2.0920732,-1.5694684,2.4730265,-0.11341247,0.061459295,-0.07622352,-0.0055245627,0.015431052,-0.10500081,-0.68953013,0.22984336,-9.500193,0.7933669,47.693153,-0.9066343,-2.497862,-3.276907,-0.36727357,0.18541697,-0.15778862,29.0,30.3125,29.375,33.0,35.4375,36.5
0.15005393,-0.85018057,0.24428853,-0.56547165,-0.028033586,0.09950854,-0.16680615,-0.3942125,-0.36711693,0.059942666,3.076985,-0.6260518,0.00021620061,-0.07031101,0.023778984,0.0020021726,-0.023800112,0.010338816,-0.013956551,0.49692342,-1.3768542,1.8987244,-2.092097,-1.5694197,2.4728365,-0.11444446,0.061367508,-0.075992666,-0.0057385545,0.015904108,-0.10045638,-0.842759,0.17238252,-9.557653,0.7911258,47.72629,-0.8882803,-2.4501998,-3.2266436,-0.3659163,0.19905654,-0.210909,29.0,30.3125,29.375,33.0,35.4375,36.5
0.15205343,-1.757847,0.3057769,-0.45546848,-0.015629373,0.067919575,-0.1656691,-0.39435968,-0.36704305,0.05993915,3.076967,-0.62610716,0.00017548603,-0.071455725,0.023449179,0.0025561478,-0.025185939,0.011299105,-0.01863565,0.49667144,-1.3767338,1.8985924,-2.092109,-1.5694317,2.4726214,-0.11537471,0.062080972,-0.078071095,-0.005882917,0.016664099,-0.09670663,-0.59376204,0.095768064,-9.519346,0.842603,47.69763,-0.9389598,-2.3781555,-3.239418,-0.3753819,0.19623992,-0.24852172,29.0,30.3125,29.375,33.0,35.4375,36.5
0.15405357,-1.1007355,0.8597082,-0.55532676,-0.008310483,0.062842906,-0.16795485,-0.3945018,-0.3670101,0.059949353,3.0768967,-0.6261118,0.0001661749,-0.07259023,0.0233768,0.0026081733,-0.02588932,0.011938022,-0.020577122,0.49645567,-1.3766012,1.8984121,-2.0921094,-1.5693835,2.4724176,-0.116452046,0.063436314,-0.07965096,-0.0065492154,0.016981764,-0.095840976,-0.40222588,0.11492168,-9.481039,0.7911258,47.705692,-0.9540703,-2.424193,-3.288364,-0.38483733,0.21489853,-0.29877695,29.0,30.3125,29.375,33.0,35.4375,36.5
0.15605356,-0.72745335,0.74801683,-0.4431402,-0.0051788054,0.043387197,-0.16265069,-0.3946488,-0.36696953,0.059954457,3.0767846,-0.6262038,0.00014082326,-0.07368091,0.023936773,0.0027540424,-0.026246909,0.012939609,-0.021357331,0.49621564,-1.376481,1.898269,-2.0921576,-1.5693239,2.4722493,-0.118257344,0.0636483,-0.08004405,-0.007407317,0.016829835,-0.09686456,-0.34476504,0.05746084,-9.442732,0.82694155,47.721813,-1.0368972,-2.3453531,-3.2993813,-0.37652358,0.22991046,-0.299348,29.0,30.3125,29.375,33.0,35.4375,36.5
0.15805326,-0.061303217,0.45079398,-0.42954743,0.0010115358,0.03683417,-0.17369409,-0.39482164,-0.36691016,0.05997079,3.076726,-0.6263048,4.3617394e-05,-0.074291155,0.0226499,0.0033111384,-0.027653486,0.014445155,-0.019146722,0.4959645,-1.3763485,1.8980774,-2.0921695,-1.5693353,2.4720688,-0.11693394,0.06470592,-0.08241677,-0.008083275,0.017357577,-0.09774961,-0.24899697,0.05746084,-9.308656,0.79560274,47.693153,-1.054401,-2.3406372,-3.0552263,-0.36647582,0.23273426,-0.3202573,29.0,30.3125,29.375,33.0,35.4375,36.5
0.16005398,-0.03649506,0.19849609,-0.7401362,-0.00044908474,0.023165965,-0.16879971,-0.3949716,-0.36686867,0.0599778,3.0766726,-0.62623787,8.0996515e-06,-0.07594302,0.025192294,0.0024567633,-0.026818158,0.012836987,-0.025504468,0.49573523,-1.3762162,1.89791,-2.0921938,-1.5692996,2.4718046,-0.12270681,0.06568022,-0.08165629,-0.007999576,0.017400654,-0.09716391,-0.038307227,-0.019153614,-9.404425,0.8179876,47.687782,-0.9736029,-2.3953974,-3.237255,-0.37025094,0.23056126,-0.36701262,29.0,30.3125,29.375,33.0,35.4375,36.5
0.16205366,0.07501692,0.08514148,-0.76627964,-0.0048769657,0.015994724,-0.16159864,-0.39512557,-0.36681384,0.059973437,3.076577,-0.6264072,1.40297525e-05,-0.07691717,0.023856178,0.003494184,-0.028566943,0.01453231,-0.021755196,0.49547213,-1.3760717,1.8977541,-2.0922177,-1.5692514,2.4716594,-0.12176461,0.066584304,-0.08515796,-0.007714209,0.018139258,-0.09996909,-0.05746084,0.0,-9.404425,0.90750587,47.728977,-1.0066491,-2.3438478,-3.1693144,-0.37815544,0.2624009,-0.35058057,29.0,30.3125,29.375,33.0,35.4375,36.5
0.16405354,-0.2054621,0.011249986,-0.68271554,-0.0053138365,0.006630317,-0.16383667,-0.395254,-0.366758,0.059979323,3.0765936,-0.6263737,4.171554e-06,-0.07683824,0.024742192,0.0026825874,-0.027961094,0.012479754,-0.024474936,0.49526784,-1.3759513,1.8975867,-2.092169,-1.5692629,2.4714322,-0.1234265,0.06727802,-0.08425734,-0.007215255,0.018588789,-0.0989117,-0.019153614,0.05746084,-9.32781,0.779936,47.668976,-0.98756814,-2.3898544,-3.1849232,-0.37590185,0.26429254,-0.40514195,29.0,30.3125,29.375,33.0,35.4375,36.5
0.16605337,0.0080698235,-0.05351596,-0.63172895,-0.0014581408,0.009483252,-0.16489613,-0.3953991,-0.36671838,0.059981063,3.0764868,-0.6264234,3.1665935e-05,-0.07780952,0.024254357,0.0031785083,-0.02878782,0.013487103,-0.018382523,0.49501646,-1.3758188,1.8974313,-2.0921934,-1.5691789,2.4712255,-0.12361237,0.06825158,-0.08656204,-0.0071416064,0.018851493,-0.10518815,0.038307227,0.17238252,-9.32781,0.8403672,47.70032,-1.0732285,-2.3621027,-3.155189,-0.3864297,0.25830632,-0.38858443,29.0,30.3125,29.375,33.0,35.4375,36.5
0.16805367,0.5911096,-0.19637182,-0.7255741,-1.4903543e-05,0.025534175,-0.15728988,-0.39557445,-0.36666596,0.059990324,3.076416,-0.626483,-1.5177568e-05,-0.078081734,0.024203468,0.0028750005,-0.029162835,0.012420505,-0.015213325,0.4947527,-1.3756623,1.8972272,-2.0922053,-1.5691541,2.471008,-0.12425485,0.06948343,-0.08743561,-0.006728803,0.019705009,-0.108998396,0.15322891,0.11492168,-9.423578,0.7866488,47.68062,-1.0216762,-2.4029975,-3.1804407,-0.38576698,0.26784447,-0.34541726,29.0,30.3125,29.375,33.0,35.4375,36.5
0.17005354,0.19156368,-0.4831655,-0.6246084,-0.0022840274,0.020440683,-0.15992714,-0.3957774,-0.36661348,0.060026847,3.0762866,-0.62656844,-0.00016279522,-0.0793188,0.025493355,0.0025637057,-0.029087057,0.011735992,-0.011651778,0.49446434,-1.3755418,1.8970121,-2.092253,-1.5691303,2.4707897,-0.1276745,0.07031544,-0.08775192,-0.0065876977,0.019995576,-0.11597662,0.1340753,0.24899697,-9.423578,0.7709874,47.682407,-1.1287019,-2.3085685,-3.224582,-0.38414973,0.28931552,-0.3250254,29.0,30.3125,29.375,33.0,35.4375,36.5
0.1720542,-0.45964748,-0.7140565,-0.7250729,-0.015471517,0.0063337935,-0.16615723,-0.39589173,-0.3665768,0.060012404,3.0762439,-0.62651634,-0.00011501224,-0.07887949,0.025242068,0.0018185006,-0.028140422,0.01032956,-0.004260001,0.49426132,-1.3754092,1.8968929,-2.0922763,-1.5690707,2.4705596,-0.12672313,0.071937114,-0.088088326,-0.0061636493,0.019845126,-0.12241652,0.05746084,0.38307226,-9.3661175,0.83365434,47.690468,-1.1459212,-2.360792,-3.2672582,-0.40270764,0.30421305,-0.21258193,29.0,30.3125,29.375,33.0,35.4375,36.5
0.17405389,-0.24012785,-0.73663074,-0.7044015,-0.03244072,0.011000762,-0.1635659,-0.39605504,-0.36652166,0.060017936,3.0761914,-0.6265589,-0.00010704045,-0.07954705,0.025377236,0.0017829115,-0.028935168,0.009963518,0.0013985119,0.4939972,-1.3752527,1.8966893,-2.0922525,-1.5690345,2.4703288,-0.12806275,0.07272976,-0.08896846,-0.0061125085,0.020735787,-0.12941377,0.019153614,0.30645782,-9.346964,0.8291774,47.696735,-1.1631864,-2.355959,-3.2121964,-0.40603524,0.29176635,-0.13816941,29.0,30.3125,29.375,33.0,35.4375,36.5
0.17605352,-0.69567245,-1.0709925,-0.8486253,-0.028464064,0.003928584,-0.15064906,-0.39621437,-0.36645812,0.060009032,3.0761986,-0.6264837,-0.00012075707,-0.08085647,0.025844326,0.0019992348,-0.030108966,0.009783828,0.00045667953,0.4937448,-1.3750843,1.8965095,-2.0922525,-1.569034,2.4700286,-0.13069277,0.07351035,-0.09047137,-0.005784214,0.021861704,-0.13110103,0.019153614,0.24899697,-9.423578,0.8314132,47.728977,-1.1262407,-2.3110847,-3.2808046,-0.43635738,0.3130262,-0.12802914,29.0,30.3125,29.375,33.0,35.4375,36.5
0.17805345,0.0017082478,-0.40320137,-0.78568417,-0.041888304,0.0139253065,-0.16135886,-0.39636454,-0.36641645,0.060029462,3.0760882,-0.6264809,-0.00014797604,-0.08144584,0.025683966,0.0018715023,-0.030813955,0.009352989,-0.002174472,0.49349302,-1.3749878,1.8963541,-2.0922763,-1.5689615,2.4697893,-0.13143058,0.07479579,-0.091712385,-0.0057744994,0.022697566,-0.12920514,-0.095768064,0.2681506,-9.404425,0.85826975,47.693153,-1.1293436,-2.326086,-3.220974,-0.43749475,0.3079619,-0.06548965,29.0,30.3125,29.375,33.0,35.4375,36.5
0.18005401,-0.30354944,-0.43497878,-0.755746,-0.03733852,0.010692061,-0.16636406,-0.39653957,-0.36635792,0.060015425,3.076037,-0.62647194,-0.00012774416,-0.082556844,0.025683437,0.0016252546,-0.031447623,0.009387002,-0.0073652933,0.4932054,-1.3747948,1.8961624,-2.0923007,-1.5689133,2.4695027,-0.13272145,0.076676585,-0.093244724,-0.0064491257,0.023237938,-0.12530367,-0.15322891,0.21068975,-9.500193,0.83589023,47.694054,-1.1114867,-2.4911928,-3.3088083,-0.4312638,0.3172497,-0.1387986,29.0,30.3125,29.375,33.0,35.4375,36.5
0.18205385,-0.52785075,-0.21242629,-0.38424733,-0.034794733,0.025634231,-0.16459763,-0.39669836,-0.3663258,0.060015645,3.0759587,-0.6264774,-0.000151743,-0.08343586,0.026413769,0.0019623109,-0.032438364,0.010224001,-0.014676216,0.49297708,-1.3746272,1.8959712,-2.092337,-1.5688652,2.4692879,-0.13499519,0.07585444,-0.092871055,-0.007206531,0.023718022,-0.12026525,-0.22984336,0.24899697,-9.385271,0.8873621,47.703903,-1.1236703,-2.1443744,-3.297623,-0.43146843,0.32366586,-0.17796066,29.0,30.3125,29.375,33.0,35.4375,36.5
0.18405382,-1.5452394,-0.40890825,-0.5839465,-0.014037619,0.021624038,-0.15153761,-0.39683902,-0.36626464,0.059997126,3.0759196,-0.6265106,-3.268223e-05,-0.08413002,0.026726332,0.0004742309,-0.03229046,0.0075290143,-0.020753749,0.49270108,-1.3744577,1.8958038,-2.0923007,-1.5687922,2.4690375,-0.13681117,0.07959998,-0.093885705,-0.0074900263,0.02485473,-0.11600343,-0.19153613,0.19153613,-9.308657,0.8179876,47.696735,-1.1596819,-2.2556827,-3.383419,-0.4252026,0.31511545,-0.24244733,29.0,30.3125,29.375,33.0,35.4375,36.5
0.18605433,-1.0852482,0.12847103,-0.36613747,-0.015962254,0.047241278,-0.16110732,-0.39702204,-0.36620975,0.06000927,3.0758126,-0.62658614,-8.506724e-05,-0.08536681,0.026788361,0.00042234253,-0.033129584,0.006720529,-0.02506532,0.49241295,-1.3743126,1.8956121,-2.092337,-1.5687445,2.4688103,-0.13868044,0.08162415,-0.09635289,-0.006727495,0.02598449,-0.11355763,-0.15322891,0.19153613,-9.3661175,0.8560339,47.72002,-1.0672868,-2.5079098,-3.226265,-0.41790098,0.2941304,-0.29973978,29.0,30.3125,29.375,33.0,35.4375,36.5
0.1880535,-0.6058296,0.20848589,-0.3657983,-0.014554966,0.07045506,-0.16108347,-0.39721158,-0.36614713,0.060028724,3.0757062,-0.62673783,-0.00013453882,-0.0854839,0.028007852,-0.00025106964,-0.033350486,0.004945844,-0.02934459,0.49211285,-1.3741688,1.8953971,-2.092337,-1.5687078,2.4686186,-0.14142524,0.081520714,-0.09468576,-0.0068263677,0.027032917,-0.112021685,-0.36391866,0.095768064,-9.32781,0.80679786,47.693153,-1.1140628,-2.318857,-3.4534855,-0.4280105,0.3030041,-0.3349105,29.0,30.3125,29.375,33.0,35.4375,36.5
0.19005433,-1.3874365,0.05597739,-0.29641423,0.0033209038,0.05818033,-0.15119243,-0.39737862,-0.36610717,0.060041193,3.0756218,-0.6267195,-0.0001221593,-0.087362565,0.026300065,0.0011064409,-0.035683922,0.00846649,-0.029587073,0.49184978,-1.374012,1.8951801,-2.0923254,-1.5686363,2.468355,-0.14044255,0.08305137,-0.09935572,-0.007881183,0.02742292,-0.110792935,-0.47884035,0.095768064,-9.289502,0.8717007,47.699425,-1.0964859,-2.3136153,-3.2878485,-0.43042332,0.30863506,-0.41174933,29.0,30.3125,29.375,33.0,35.4375,36.5
0.19205372,-0.98489255,0.584669,-0.20623893,0.008271943,0.077326365,-0.1575668,-0.3975362,-0.36606315,0.060012218,3.0755203,-0.6268151,-3.752009e-05,-0.08806876,0.027625147,0.00043914007,-0.035008352,0.0076103318,-0.033079084,0.49157324,-1.3738077,1.8950142,-2.0923736,-1.56854,2.468151,-0.14314078,0.083734505,-0.09858382,-0.008245297,0.027238587,-0.10999919,-0.4213795,-0.019153614,-9.289502,0.88289046,47.699425,-1.0165511,-2.316752,-3.3715813,-0.42754358,0.29972667,-0.46979576,29.0,30.3125,29.375,33.0,35.4375,36.5
0.19405364,-1.0729089,1.3212885,-0.012462737,0.0009818916,0.08345443,-0.16735794,-0.39771825,-0.36601296,0.06003046,3.0754337,-0.62689006,-2.0586062e-05,-0.0883795,0.026945814,0.00088357995,-0.035801604,0.008115237,-0.030371368,0.49128643,-1.3736395,1.8947619,-2.0923254,-1.5684794,2.4679222,-0.14251085,0.08422173,-0.10027342,-0.007844897,0.027711533,-0.112075165,-0.5554548,-0.05746084,-9.308656,0.8560339,47.70838,-1.2106696,-2.2878537,-3.317203,-0.4264689,0.30780846,-0.47324014,29.0,30.3125,29.375,33.0,35.4375,36.5
0.19605352,-1.2659146,0.8162678,-0.08659263,0.022839943,0.08548126,-0.16146475,-0.39790916,-0.3659504,0.060021967,3.075344,-0.62696576,-7.049995e-05,-0.09007313,0.027262248,8.082002e-05,-0.03557118,0.007173599,-0.028368074,0.49098626,-1.3734577,1.8945817,-2.0923975,-1.5684437,2.467681,-0.14467254,0.088065125,-0.10299424,-0.008007529,0.027969167,-0.11623647,-0.6512229,-0.076614454,-9.193734,0.8403672,47.719128,-1.1779886,-2.4483771,-3.1885476,-0.45648435,0.31263137,-0.49981296,29.0,30.3125,29.375,33.0,35.4375,36.5
0.19805336,-1.0962306,0.7967217,-0.2124692,0.034553155,0.090380095,-0.15898517,-0.3980478,-0.36588943,0.06000425,3.0753112,-0.62701225,3.3402055e-05,-0.09191599,0.028685592,0.0011778023,-0.036711812,0.009019485,-0.022739936,0.49072108,-1.3732903,1.8944148,-2.0923612,-1.5683836,2.467449,-0.14877708,0.08637666,-0.103507325,-0.007934995,0.02812472,-0.12597027,-0.57460845,-0.21068975,-9.174581,0.8224646,47.71465,-1.0757676,-2.3079934,-3.2508383,-0.43514928,0.30582696,-0.41360372,29.0,30.3125,29.375,33.0,35.4375,36.5
0.20005411,-1.5676513,0.6343578,-0.264881,0.030098684,0.07498171,-0.17017217,-0.39825815,-0.3658196,0.06000069,3.0752385,-0.6270851,-1.3894224e-05,-0.09126979,0.028237987,-0.00061123335,-0.035321787,0.005976054,-0.0115595935,0.4903984,-1.3730849,1.8941869,-2.0923975,-1.5683593,2.4671812,-0.14752021,0.090156406,-0.103966355,-0.007881571,0.028366033,-0.13589132,-0.61291564,-0.095768064,-9.32781,0.7933669,47.694054,-1.1503485,-2.308818,-3.3046792,-0.43905684,0.30357793,-0.38560545,29.0,30.3125,29.375,33.0,35.4375,36.5
0.20205395,-1.2864223,0.7583416,-0.16423075,0.0002039049,0.08164578,-0.1701694,-0.39844805,-0.36576965,0.06001657,3.0751293,-0.6270776,-4.3713793e-05,-0.09361559,0.028272491,0.0018475078,-0.03771029,0.010113739,-0.0059290715,0.49009863,-1.3729293,1.8939713,-2.0924208,-1.5682877,2.4668908,-0.14974253,0.08820913,-0.107385516,-0.007253387,0.028553642,-0.14374083,-0.6895301,-0.038307227,-9.308657,0.85155696,47.71823,-1.0778141,-2.4280567,-3.031057,-0.45620072,0.31308812,-0.27074713,29.0,30.3125,29.375,33.0,35.4375,36.5
0.2040535,-1.4631017,0.5608989,-0.20786028,-0.00277496,0.08321198,-0.16762945,-0.3986101,-0.36569875,0.059990097,3.075119,-0.627034,8.987317e-06,-0.09270432,0.029649105,-0.00051106827,-0.03503362,0.005454967,-0.00224519,0.4898107,-1.3727361,1.8938044,-2.0924327,-1.5682515,2.466577,-0.15108721,0.09073512,-0.10520946,-0.0065587345,0.02840563,-0.14877048,-0.7278373,-0.05746084,-9.308657,0.8224646,47.711063,-1.1490798,-2.3389063,-3.4207711,-0.4561352,0.31217277,-0.18502113,29.0,30.3125,29.375,33.0,35.4375,36.5
0.20605339,-1.5812802,0.7308732,-0.34860942,-0.0005816772,0.08753457,-0.17015132,-0.3988201,-0.36563534,0.06000523,3.0750034,-0.62708634,2.0428824e-05,-0.095027834,0.029596765,-9.507878e-05,-0.035560075,0.0071933814,-0.0029481575,0.48946273,-1.3725551,1.8935522,-2.0924208,-1.5681676,2.4662766,-0.15280557,0.09321954,-0.10902519,-0.0069829803,0.028061913,-0.14978258,-0.61291564,-0.038307227,-9.308656,0.8717007,47.716442,-1.2364445,-2.5133908,-3.0898786,-0.46207798,0.32794207,-0.14250156,29.0,30.3125,29.375,33.0,35.4375,36.5
0.2080541,-1.2706691,0.38075233,-0.53006065,0.0016895758,0.092046544,-0.15654889,-0.39897895,-0.36558327,0.059982534,3.074964,-0.6270415,0.00010720543,-0.09516329,0.029358601,-0.0004507084,-0.03593091,0.006411611,-0.0068182596,0.48918742,-1.3723506,1.8933605,-2.0924208,-1.5680956,2.4659784,-0.15289488,0.09446076,-0.10969998,-0.007027493,0.02875155,-0.14600132,-0.49799395,-0.05746084,-9.346964,0.82022345,47.707485,-1.1801715,-2.4187732,-3.2916422,-0.46367997,0.33107388,-0.15070692,29.0,30.3125,29.375,33.0,35.4375,36.5
0.21005389,-1.30556,0.09017111,-0.5011075,-0.0008610076,0.07709308,-0.15017672,-0.39920044,-0.3655015,0.059995778,3.0748436,-0.6271519,1.5016019e-05,-0.09625811,0.02911129,-0.00027090087,-0.03724571,0.006440452,-0.011569229,0.48882776,-1.3721939,1.8931578,-2.0924804,-1.5680588,2.4657032,-0.15410167,0.09590204,-0.11184675,-0.00696282,0.029910054,-0.14245227,-0.5554548,0.038307227,-9.270349,0.82694155,47.688675,-1.247356,-2.453984,-3.2291028,-0.48039967,0.32527387,-0.21223143,29.0,30.3125,29.375,33.0,35.4375,36.5
0.21205366,-0.5913762,-0.22143118,-0.62114996,0.00291221,0.073371075,-0.15351826,-0.39939213,-0.3654516,0.05998193,3.0748267,-0.6271124,-2.3232692e-06,-0.09749841,0.02928839,7.688456e-06,-0.0375541,0.0075455373,-0.01800902,0.488564,-1.3719532,1.8929056,-2.0924923,-1.5680469,2.4654171,-0.15529047,0.09677594,-0.113450825,-0.007356661,0.029657096,-0.13720001,-0.49799395,0.076614454,-9.270349,0.8560339,47.688675,-1.2633173,-2.5913634,-3.1357203,-0.4746112,0.31812066,-0.27774477,29.0,30.3125,29.375,33.0,35.4375,36.5
0.21405372,-0.8531675,-0.5227384,-0.8644132,0.0025671169,0.050832193,-0.14619943,-0.39960504,-0.36538938,0.059997935,3.0746968,-0.6272006,-5.5773457e-06,-0.09880344,0.029590419,0.0003196989,-0.037511498,0.009244149,-0.019912416,0.48821634,-1.3717728,1.8926548,-2.0924928,-1.5679635,2.4651413,-0.15638125,0.09745123,-0.114798024,-0.008142342,0.028834201,-0.13638537,-0.2681506,0.17238252,-9.423578,0.7866488,47.666286,-1.2730263,-2.4972372,-3.1682067,-0.47592872,0.34416112,-0.31436676,29.0,30.3125,29.375,33.0,35.4375,36.5
0.21605353,-0.67041075,-0.119653955,-0.6771592,-0.024687767,0.04347639,-0.1600219,-0.3997976,-0.3652957,0.05996925,3.074634,-0.6273988,7.10456e-05,-0.100394405,0.030352443,0.0008152245,-0.038041636,0.009898276,-0.023017615,0.4878561,-1.3715566,1.8924626,-2.0924923,-1.5679153,2.464913,-0.1591187,0.09787705,-0.116571024,-0.0076061087,0.028998341,-0.13601755,-0.19153613,0.28730422,-9.3661175,0.85155696,47.675243,-1.2327948,-2.5388017,-3.1333628,-0.4834243,0.36272764,-0.3295061,29.0,30.3125,29.375,33.0,35.4375,36.5
0.21805446,-0.3413939,-0.6215439,-0.6384801,-0.029310642,0.038983237,-0.16197611,-0.40000248,-0.3652606,0.059992768,3.074509,-0.627392,1.4753993e-05,-0.101229556,0.030882472,0.0004975262,-0.03906782,0.008171962,-0.025454199,0.48756805,-1.3713762,1.8921999,-2.0925162,-1.5678424,2.4646368,-0.16175416,0.099202946,-0.117614016,-0.006832085,0.03073572,-0.13621135,-0.21068975,0.28730422,-9.423578,0.88960326,47.687782,-1.2834578,-2.4480057,-3.06733,-0.49658686,0.34582478,-0.37318432,29.0,30.3125,29.375,33.0,35.4375,36.5
0.22005327,-0.0809311,-0.36430478,-0.75361353,-0.048274014,0.037242062,-0.1667426,-0.40019467,-0.36518827,0.059986904,3.0744543,-0.62739784,3.342884e-05,-0.10191272,0.030823752,0.0010113118,-0.040797155,0.008453276,-0.023867289,0.48724428,-1.3711839,1.8919843,-2.0925162,-1.5677942,2.4643238,-0.16306576,0.09899627,-0.118577465,-0.006700352,0.032148603,-0.13910761,-0.1340753,0.2681506,-9.481039,0.8247004,47.695843,-1.1207888,-2.4581122,-3.0763886,-0.49975708,0.3321631,-0.36034632,29.0,30.3125,29.375,33.0,35.4375,36.5
0.22205393,0.25885102,-0.36523324,-1.1282325,-0.043726277,0.02620348,-0.16964966,-0.4004034,-0.36512166,0.059959527,3.0743833,-0.6274371,6.475387e-05,-0.103660084,0.03186592,0.0010408508,-0.041593097,0.008786667,-0.020916076,0.48690775,-1.3709314,1.8917569,-2.0925643,-1.5677336,2.464021,-0.16665408,0.09986832,-0.119592816,-0.00718737,0.03272053,-0.14564544,-0.019153614,0.28730422,-9.576807,0.90527004,47.68599,-1.0113266,-2.4219446,-3.0996664,-0.48951972,0.31933308,-0.34335136,29.0,30.3125,29.375,33.0,35.4375,36.5
0.2240532,-0.14967324,-0.40515056,-0.8998954,-0.049783025,0.0063108234,-0.1723744,-0.40064627,-0.3650439,0.059988346,3.0742784,-0.6275426,-8.5102e-07,-0.10439705,0.030390734,0.0018794509,-0.044546384,0.00945918,-0.011344474,0.4865369,-1.370739,1.891457,-2.09254,-1.5676969,2.4637296,-0.16618113,0.100807816,-0.12266996,-0.0069885836,0.035055242,-0.15473782,0.05746084,0.2681506,-9.576807,0.8090337,47.690468,-1.1165652,-2.3674166,-3.107748,-0.49326834,0.2888412,-0.25169143,29.0,30.3125,29.375,33.0,35.4375,36.5
0.22605424,-0.22086757,-0.28871456,-0.76564616,-0.05202923,0.009039156,-0.17223242,-0.4008534,-0.36496204,0.05998882,3.0741832,-0.62763244,3.1341324e-06,-0.10301502,0.03121655,0.00012763405,-0.043764807,0.005778438,-0.0027562785,0.4861769,-1.3705585,1.8912438,-2.0925524,-1.5676368,2.463438,-0.16691516,0.10144973,-0.11942051,-0.0072137257,0.036131676,-0.16405861,0.0,0.26815057,-9.5385,0.83365434,47.721813,-1.0714178,-2.5180974,-3.1696284,-0.5019172,0.29161364,-0.14711644,29.0,30.3125,29.375,33.0,35.4375,36.5
0.22805364,-0.4618154,-0.3585318,-0.96550405,-0.030759329,0.01306013,-0.16438775,-0.40106538,-0.36492893,0.05999068,3.0740561,-0.6275663,7.074382e-06,-0.105888546,0.031094234,0.001619562,-0.04599615,0.008992676,-0.0017821775,0.48586488,-1.3703301,1.8909787,-2.0926006,-1.5675286,2.4631011,-0.16949387,0.10227845,-0.1237244,-0.007584179,0.036624663,-0.16760615,-0.038307227,0.21068975,-9.5385,0.779936,47.709274,-1.0080457,-2.3455734,-3.1386592,-0.5040334,0.28065616,-0.08176976,29.0,30.3125,29.375,33.0,35.4375,36.5
0.2300539,-0.18525253,0.22756027,-0.9329446,-0.033307955,0.028829075,-0.1668057,-0.40126452,-0.36485192,0.059983943,3.0739634,-0.62762517,6.362581e-05,-0.10512461,0.03193797,-0.00017779681,-0.045481652,0.005420845,-0.005515361,0.48550546,-1.370137,1.8907641,-2.0926006,-1.5674442,2.4627905,-0.17090301,0.103790306,-0.12135453,-0.008051544,0.037848506,-0.1652806,0.095768064,0.1340753,-9.615114,0.8179876,47.691364,-1.152434,-2.5856857,-3.270144,-0.5133233,0.25438356,-0.0589305,29.0,30.3125,29.375,33.0,35.4375,36.5
0.23205322,0.16874588,0.04995735,-0.6504331,-0.024729695,0.026158089,-0.16290855,-0.40145877,-0.36479086,0.05995679,3.0739162,-0.62752205,0.00017528539,-0.10607755,0.03171928,0.0004678763,-0.048557404,0.0056586917,-0.013004125,0.4851694,-1.3698851,1.8905257,-2.0926006,-1.5673469,2.4623961,-0.17290655,0.10354699,-0.1224839,-0.0083229365,0.040447325,-0.1597925,0.0,0.1340753,-9.576807,0.84484416,47.70032,-1.0585663,-2.3672304,-3.3240035,-0.5094493,0.21458182,-0.106220305,29.0,30.3125,29.375,33.0,35.4375,36.5
0.23405382,0.08517052,0.08621112,-0.8552184,-0.012355696,-0.00035240434,-0.15778749,-0.40167138,-0.3647532,0.059966516,3.0737836,-0.62753844,0.00017069359,-0.10700204,0.032617558,-0.00035056254,-0.04884559,0.0037895392,-0.024385126,0.48485708,-1.369668,1.8902506,-2.0926244,-1.5672506,2.4621112,-0.17584531,0.10546655,-0.122940615,-0.0082718,0.04157139,-0.15134513,0.038307227,0.17238252,-9.557653,0.8672237,47.703903,-0.9872261,-2.4485638,-3.367326,-0.5044565,0.19410305,-0.16981983,29.0,30.3125,29.375,33.0,35.4375,36.5
0.23605359,0.6483793,0.4481721,-0.88685095,-0.009586106,0.00051357865,-0.15696138,-0.40189442,-0.36467642,0.059975713,3.073658,-0.62761074,0.00013878307,-0.10869507,0.03321345,0.00042121697,-0.049440425,0.005850957,-0.031431366,0.4844852,-1.369488,1.8900236,-2.0926611,-1.5671791,2.4618008,-0.17799528,0.10536511,-0.124483354,-0.008718335,0.041141886,-0.14644542,0.05746084,0.11492168,-9.500193,0.86498255,47.71286,-0.90261126,-2.3708801,-3.4506245,-0.507834,0.17723969,-0.24578328,29.0,30.3125,29.375,33.0,35.4375,36.5
0.23805319,-0.031344052,0.28342274,-0.5397283,-0.006128711,-0.0049893204,-0.14908995,-0.40211388,-0.36460343,0.05998012,3.0735474,-0.62777966,0.00011485823,-0.10827514,0.03405491,-0.0011729054,-0.04865525,0.0030357072,-0.034689672,0.48413748,-1.3692833,1.8897723,-2.0926726,-1.5671309,2.461573,-0.17933442,0.10699323,-0.12270106,-0.009259411,0.04177272,-0.14452346,-0.1340753,0.076614454,-9.385271,0.842603,47.682407,-0.879843,-2.3005042,-3.4906278,-0.5084332,0.17742601,-0.34795249,29.0,30.3125,29.375,33.0,35.4375,36.5
0.24005389,0.23354998,0.7272402,-0.5848017,-0.003944715,0.025221147,-0.15831843,-0.4023319,-0.36454004,0.059983034,3.0734365,-0.62779826,0.0001511781,-0.110585265,0.03358638,0.0009607215,-0.050786335,0.006481396,-0.04111158,0.48377767,-1.3690672,1.8895081,-2.092672,-1.5670346,2.461239,-0.18067634,0.10657554,-0.12727919,-0.008295913,0.04205003,-0.13943955,-0.15322891,0.019153614,-9.423578,0.85155696,47.71286,-0.8830462,-2.3576393,-3.440843,-0.4860378,0.13669546,-0.41780788,29.0,30.3125,29.375,33.0,35.4375,36.5
0.24205425,-0.3590286,0.89077634,-0.53233725,0.0035146673,0.043761663,-0.15311438,-0.4025381,-0.36447325,0.059977718,3.0733218,-0.627888,0.00017809073,-0.11036903,0.034335516,-0.0008329622,-0.049541563,0.0024241142,-0.04293808,0.48343018,-1.368862,1.8892812,-2.092696,-1.5669502,2.4609625,-0.18214948,0.10964525,-0.12710352,-0.0073482306,0.042851873,-0.13908286,-0.21068975,-0.095768064,-9.442732,0.9925471,47.72002,-1.044302,-2.3152986,-3.467835,-0.50585616,0.10081668,-0.4758191,29.0,30.3125,29.375,33.0,35.4375,36.5
0.24405403,-0.78308135,0.83942837,-0.5944727,0.0073474185,0.06777894,-0.16728953,-0.4027601,-0.36440957,0.059984434,3.0731812,-0.6280068,0.0002265038,-0.11062029,0.033057973,0.0006611049,-0.051538795,0.0044913786,-0.03541291,0.48305932,-1.3686461,1.889006,-2.092684,-1.566842,2.460684,-0.18064374,0.108498245,-0.12927958,-0.0067323092,0.04369087,-0.14509858,-0.17238252,0.019153614,-9.3661175,0.85826975,47.668976,-1.0650069,-2.4138043,-3.3898396,-0.51073194,0.07028535,-0.50500864,29.0,30.3125,29.375,33.0,35.4375,36.5
0.24605377,-0.852471,0.70827144,-0.6467593,0.0036635739,0.09200747,-0.16577525,-0.4029741,-0.36435354,0.05997922,3.0730674,-0.6281297,0.00026614455,-0.11119089,0.033293214,0.00030449178,-0.050755743,0.0042495243,-0.025051108,0.48272392,-1.3684055,1.8887309,-2.092684,-1.5667585,2.4604402,-0.18112224,0.110060714,-0.13040638,-0.006518454,0.043154642,-0.15593784,-0.26815057,0.095768064,-9.442732,0.90750587,47.741516,-1.1802533,-2.278965,-3.4148803,-0.53464544,0.056971878,-0.41777104,29.0,30.3125,29.375,33.0,35.4375,36.5
0.2480536,-1.6313884,0.13283092,-0.6080775,-0.005977705,0.0948645,-0.1639797,-0.40319577,-0.3642936,0.05999109,3.0729384,-0.6280367,0.00028280442,-0.11185766,0.03343397,-4.58319e-05,-0.04913911,0.0045734937,-0.012968127,0.48235306,-1.3682126,1.8884796,-2.0927079,-1.5666388,2.460028,-0.18091147,0.11203926,-0.13203827,-0.0063133393,0.041628797,-0.16780841,-0.3256114,0.15322891,-9.481039,0.8224646,47.68599,-1.3034956,-2.3922322,-3.3895159,-0.5482644,0.029461034,-0.3174526,29.0,30.3125,29.375,33.0,35.4375,36.5
0.2500533,-1.0434558,-0.0013464999,-0.53234994,-0.018406142,0.11625902,-0.16213039,-0.40339822,-0.3642081,0.059978787,3.0728757,-0.6280757,0.00032630924,-0.11250395,0.034038443,-7.956212e-06,-0.048385438,0.004991072,-0.0054928977,0.4819934,-1.3680081,1.8882636,-2.0927074,-1.5665792,2.4597008,-0.18190335,0.11240202,-0.13264418,-0.006027669,0.040804595,-0.17627639,-0.5363012,0.21068975,-9.500193,0.87393653,47.67614,-1.3102386,-2.272555,-3.4179592,-0.55423766,0.025377123,-0.20124541,29.0,30.3125,29.375,33.0,35.4375,36.5
0.2520541,-1.4182335,-0.40695003,-0.85306585,-0.015240112,0.10401251,-0.15669279,-0.4036188,-0.36414337,0.059973627,3.0727925,-0.6280945,0.00035305173,-0.11427182,0.034944866,-2.5529904e-05,-0.046813298,0.0058533153,-0.0033684415,0.4816454,-1.3677673,1.887988,-2.0927074,-1.5665077,2.4593754,-0.18380481,0.11438019,-0.13510741,-0.005528137,0.039035738,-0.18030287,-0.45968673,0.19153613,-9.653421,0.90527004,47.705692,-1.2079297,-2.3876743,-3.3745751,-0.5723703,0.04679606,-0.1514113,29.0,30.3125,29.375,33.0,35.4375,36.5
0.25405398,-1.4384754,-0.09056067,-0.6963757,-0.03158643,0.09600721,-0.16005804,-0.40387,-0.36407194,0.059987452,3.0726905,-0.62811255,0.00028349308,-0.115468435,0.035448402,0.00027330007,-0.04525502,0.00791478,-0.0073323986,0.4812743,-1.3675388,1.8876895,-2.0927312,-1.5664605,2.459029,-0.18416871,0.11510695,-0.13660827,-0.0058438005,0.036711343,-0.17670271,-0.7278373,0.28730422,-9.595961,0.8537928,47.694946,-1.3465976,-2.3410745,-3.3720744,-0.5732337,0.037848808,-0.15353324,29.0,30.3125,29.375,33.0,35.4375,36.5
0.25605357,-1.1547323,-0.35485876,-0.4920811,-0.034024604,0.10370939,-0.16486694,-0.4041207,-0.36400986,0.060023136,3.0725253,-0.6281788,0.00023147551,-0.11621714,0.035879035,-3.8835264e-05,-0.043287,0.009363516,-0.014401892,0.48089024,-1.3673463,1.887379,-2.0927317,-1.5663656,2.4587078,-0.1839574,0.1163874,-0.137214,-0.006884652,0.03429972,-0.16942173,-0.842759,0.30645782,-9.5385,0.91421866,47.684196,-1.4760494,-2.303418,-3.3516157,-0.5632237,0.06743933,-0.2390008,29.0,30.3125,29.375,33.0,35.4375,36.5
0.25805327,-1.6560943,-0.4093918,-0.62340146,-0.025953477,0.09401874,-0.1639763,-0.40436113,-0.3639293,0.060007695,3.072446,-0.6282225,0.0002463775,-0.11853846,0.036240377,0.00023311612,-0.043085225,0.011012858,-0.019959992,0.48050588,-1.367081,1.887103,-2.0927556,-1.5663055,2.4583611,-0.1859238,0.11881582,-0.14068942,-0.0071960357,0.0333546,-0.16582905,-0.6512228,0.2681506,-9.461885,0.87617236,47.72092,-1.5091605,-2.513831,-3.112008,-0.5622419,0.08682193,-0.29907358,29.0,30.3125,29.375,33.0,35.4375,36.5
0.26005375,-1.2158602,0.070612,-0.5531399,-0.018461576,0.094154574,-0.16014163,-0.4045893,-0.36387014,0.060009748,3.0723586,-0.62822527,0.00022927219,-0.12125301,0.036716346,0.0014073945,-0.0437858,0.013678552,-0.024450073,0.4801687,-1.3668406,1.886814,-2.092768,-1.5662459,2.4580371,-0.18864019,0.11979593,-0.14460854,-0.006929494,0.03275054,-0.16405305,-0.4405331,0.17238252,-9.500193,0.8247004,47.666286,-1.4444252,-2.3982189,-3.1519346,-0.56478965,0.10598108,-0.32716754,29.0,30.3125,29.375,33.0,35.4375,36.5
0.26205358,-1.543979,-0.49444798,-0.5138467,-0.0059031816,0.059960194,-0.15078916,-0.40485743,-0.36379775,0.06002072,3.0722227,-0.6282737,0.00019687331,-0.12233324,0.038854927,-0.0007796964,-0.040826827,0.010843144,-0.02768484,0.4797597,-1.3665868,1.8864917,-2.0927918,-1.5661625,2.4576762,-0.19227065,0.12365883,-0.14421691,-0.0072693024,0.03146412,-0.16444813,-0.36391866,0.21068975,-9.404425,0.85826975,47.69763,-1.3254521,-2.5687063,-3.1590924,-0.57067275,0.10156329,-0.35795814,29.0,30.3125,29.375,33.0,35.4375,36.5
0.26405406,-0.6262599,0.22580789,-0.08263153,-0.025471423,0.06207363,-0.17127925,-0.4051077,-0.3637201,0.060034182,3.0721245,-0.62834793,0.00012740755,-0.12459706,0.038989887,0.0021395814,-0.04355503,0.017063664,-0.025273282,0.47938713,-1.3663601,1.8861932,-2.0928042,-1.5661267,2.457363,-0.19411506,0.119918354,-0.14614248,-0.008342179,0.031048793,-0.16870236,-0.49799395,0.24899697,-9.174581,0.81351066,47.70211,-1.4456224,-2.3789191,-3.1174352,-0.5664407,0.122804984,-0.3840714,29.0,30.3125,29.375,33.0,35.4375,36.5
0.26605392,-0.5540053,0.22647467,-0.22200231,-0.010040751,0.04336508,-0.17057174,-0.40537325,-0.3636421,0.06004019,3.0719855,-0.62841177,6.6293505e-05,-0.12571871,0.03942337,0.0009000887,-0.041880894,0.016135056,-0.019900922,0.47897857,-1.3661184,1.8859047,-2.0928638,-1.5660547,2.4570124,-0.19508667,0.1238744,-0.14798175,-0.008805049,0.030041913,-0.1750443,-0.38307226,0.19153613,-9.346964,0.83365434,47.70211,-1.3548176,-2.5539153,-3.1167178,-0.5523277,0.14331633,-0.32752278,29.0,30.3125,29.375,33.0,35.4375,36.5
0.26805392,-0.44277692,0.49292824,-0.2991575,-0.0068469825,0.037946295,-0.16450045,-0.40561107,-0.36355466,0.06005012,3.0719063,-0.628467,5.4454817e-05,-0.1266351,0.040929463,0.0006826872,-0.04122512,0.01589018,-0.012245176,0.47859368,-1.3659023,1.8856186,-2.09284,-1.566007,2.4566724,-0.19805795,0.123932414,-0.14762168,-0.008632105,0.029634964,-0.18567136,-0.19153613,0.05746084,-9.346964,0.8627467,47.687782,-1.3021853,-2.4276958,-3.08323,-0.53968394,0.16190907,-0.21304044,29.0,30.3125,29.375,33.0,35.4375,36.5
0.27005398,0.18183823,0.5808223,-0.06317743,-0.001977816,0.05042435,-0.16367435,-0.4058735,-0.36346796,0.060036667,3.0718186,-0.62850314,8.050137e-05,-0.12778126,0.040817115,0.0009647345,-0.04245356,0.016155958,-0.006117616,0.47817338,-1.3656135,1.8853067,-2.0928519,-1.5659345,2.4562862,-0.19937061,0.12514412,-0.14978482,-0.008424036,0.0306478,-0.19310749,-0.30645782,0.019153614,-9.289502,0.8605109,47.679718,-1.2485702,-2.3926075,-3.056619,-0.5563202,0.17038248,-0.11187608,29.0,30.3125,29.375,33.0,35.4375,36.5
0.27205378,-0.41302097,0.44099724,0.026083773,0.005277109,0.04470237,-0.1618052,-0.40615585,-0.36337978,0.060060766,3.0716887,-0.6285335,-6.9814914e-06,-0.127989,0.041664008,0.0004586473,-0.042005647,0.014852197,-0.0069810953,0.47774106,-1.3653852,1.8849849,-2.0928762,-1.5658745,2.45589,-0.20099023,0.12572517,-0.14946645,-0.007932123,0.030891633,-0.19385971,-0.51714754,0.038307227,-9.232041,0.87617236,47.701214,-1.1568307,-2.4513705,-3.1571646,-0.56072205,0.1835077,-0.050691985,29.0,30.3125,29.375,33.0,35.4375,36.5
0.2740539,-0.6153828,0.87795484,0.1438825,0.0055866963,0.06563942,-0.17529741,-0.4063872,-0.3633002,0.06005218,3.0716255,-0.62854475,2.5031164e-05,-0.12845041,0.04273922,-0.0011865258,-0.04090079,0.011557364,-0.015249782,0.4773681,-1.365132,1.8846987,-2.0928633,-1.5658144,2.4555323,-0.2034125,0.12887856,-0.14963889,-0.007486587,0.031417552,-0.18801087,-0.47884035,-0.019153614,-9.174581,0.8873621,47.684196,-1.0998807,-2.394037,-3.2518868,-0.56386775,0.1801453,-0.07970916,29.0,30.3125,29.375,33.0,35.4375,36.5
0.27605355,-0.76203644,0.8744224,0.2439026,0.017627135,0.07398309,-0.16659325,-0.40664613,-0.36322498,0.060046177,3.0715065,-0.62858284,-9.9210765e-06,-0.12996824,0.043867458,0.00036381066,-0.041060098,0.014279813,-0.025626196,0.47697154,-1.3648685,1.8844112,-2.0929234,-1.5657429,2.4551752,-0.20582215,0.12668361,-0.1507389,-0.006693182,0.030303767,-0.1800444,-0.4213795,-0.15322891,-9.193734,0.8918391,47.694946,-1.1198694,-2.3777142,-3.244625,-0.56957704,0.213418,-0.15453295,29.0,30.3125,29.375,33.0,35.4375,36.5
0.27805397,-1.1582973,1.0046613,0.33578116,0.029320443,0.057264365,-0.16591413,-0.40691358,-0.3631527,0.060042787,3.0714002,-0.628621,-7.878162e-05,-0.12999208,0.04416388,-0.0014535823,-0.040165827,0.010893677,-0.03187569,0.47658703,-1.3645906,1.8841003,-2.0929835,-1.5656947,2.4548285,-0.2066837,0.13043468,-0.15115435,-0.006619454,0.03106835,-0.17465092,-0.36391866,-0.19153613,-9.232041,0.90750587,47.682407,-1.1509968,-2.4534001,-3.3423135,-0.5699416,0.21842459,-0.2595496,29.0,30.3125,29.375,33.0,35.4375,36.5
0.2800533,-0.95779383,1.2059293,0.3582416,0.030280553,0.04833752,-0.16042125,-0.40715992,-0.3630517,0.060048953,3.0712843,-0.62877375,-1.1832582e-06,-0.13092439,0.04314986,0.00090461597,-0.043807253,0.0148349395,-0.038353633,0.47614315,-1.3643637,1.8838013,-2.0929234,-1.5655979,2.4544952,-0.20653377,0.1274797,-0.15286024,-0.0071392325,0.032480292,-0.16801871,-0.5363012,-0.21068975,-9.136273,0.90527004,47.69763,-1.1893439,-2.1972322,-3.311459,-0.5611624,0.2271583,-0.3503502,29.0,30.3125,29.375,33.0,35.4375,36.5
0.28205404,-0.52255136,1.7465152,0.4121539,0.02918627,0.050031647,-0.17743625,-0.4074202,-0.36298472,0.06004509,3.0711484,-0.62889874,-3.321877e-05,-0.13073218,0.04304305,0.00029182766,-0.042904586,0.014225392,-0.039604593,0.47575969,-1.3640869,1.88349,-2.092971,-1.5655259,2.4542077,-0.20574965,0.12881403,-0.15306403,-0.0072986917,0.031974133,-0.16598223,-0.49799395,-0.19153613,-9.078813,0.947788,47.698532,-1.4120572,-2.2141762,-3.3439698,-0.54187846,0.2595601,-0.45235997,29.0,30.3125,29.375,33.0,35.4375,36.5
0.28405365,-0.37061957,1.5328074,0.015709553,0.040895957,0.0519171,-0.17463657,-0.4076952,-0.36287472,0.060057428,3.0710733,-0.6289566,-0.00012534967,-0.1303357,0.042419728,9.8508965e-05,-0.043868933,0.013220163,-0.035967544,0.47532803,-1.3638585,1.8831915,-2.0929835,-1.5655135,2.4538221,-0.20505978,0.12947083,-0.15348881,-0.0070520225,0.03333154,-0.16892287,-0.24899697,-0.19153613,-9.11712,0.8560339,47.689575,-1.6146526,-2.1912146,-3.3727136,-0.56446844,0.27339733,-0.4706216,29.0,30.3125,29.375,33.0,35.4375,36.5
0.28605416,-0.24101792,1.2515236,-0.17045785,0.044568837,0.050865464,-0.18468422,-0.40796208,-0.36277997,0.060050655,3.071004,-0.62903196,-0.00010907996,-0.13188271,0.042723894,0.00026697136,-0.04469499,0.013233848,-0.026718775,0.474907,-1.3635696,1.8828558,-2.0929596,-1.5654649,2.4534574,-0.20727035,0.13117035,-0.15606526,-0.006485232,0.034122486,-0.1803784,-0.1340753,-0.13407528,-9.232041,0.94331104,47.716442,-1.5025153,-2.197937,-3.2837892,-0.5616681,0.25849655,-0.39804393,29.0,30.3125,29.375,33.0,35.4375,36.5
0.28805372,-0.94391334,0.94382954,-0.25187063,0.016160764,0.035939552,-0.17098288,-0.4082118,-0.36271468,0.060038492,3.0708995,-0.62902325,-7.600987e-05,-0.13438389,0.043575328,0.0014682877,-0.045223247,0.015410369,-0.016136585,0.474522,-1.3632811,1.8825434,-2.092983,-1.5653695,2.4530807,-0.21046941,0.1315748,-0.15953007,-0.005496246,0.033673774,-0.19415864,-0.076614454,0.05746084,-9.251195,0.87617236,47.684196,-1.4449706,-2.2394662,-3.3340294,-0.5768828,0.2810909,-0.27117676,29.0,30.3125,29.375,32.9375,35.4375,36.5
0.2900536,-0.34368685,0.19069974,-0.49811515,-0.0017013708,0.04583933,-0.17162833,-0.40849286,-0.36256826,0.060010757,3.0708535,-0.6292018,-3.7626956e-05,-0.1343523,0.044413127,0.00032220996,-0.043497425,0.013039363,-0.009850752,0.47401768,-1.3629922,1.8822573,-2.0929701,-1.5653456,2.452694,-0.21146151,0.13359061,-0.15962453,-0.004457961,0.033268746,-0.2014383,-0.21068975,0.11492168,-9.442732,0.8784135,47.660015,-1.3643434,-2.19176,-3.3030286,-0.6005451,0.31809714,-0.17384768,29.0,30.3125,29.375,32.9375,35.4375,36.5
0.29205415,-0.42015684,-0.52400404,-0.8955562,-0.018158184,0.038949113,-0.18006968,-0.40876007,-0.36248454,0.060032524,3.070768,-0.6290891,-9.788939e-05,-0.13543372,0.04510203,0.00031898663,-0.04370381,0.012686453,-0.010941454,0.4736087,-1.3627636,1.8819345,-2.0929701,-1.5652856,2.452226,-0.21365345,0.13456428,-0.16094266,-0.0038633505,0.033648584,-0.2025349,-0.11492168,0.11492168,-9.5385,0.8537928,47.687782,-1.2258155,-2.2096815,-3.2694917,-0.6108267,0.3416947,-0.15332368,29.0,30.3125,29.375,32.9375,35.4375,36.5
0.29405376,-0.25386485,-1.0167323,-1.0318843,-0.048672598,0.03754137,-0.1668267,-0.40904197,-0.36238015,0.06004179,3.0706701,-0.62918764,-9.794075e-05,-0.13612118,0.04549182,-0.0011621913,-0.043775685,0.009113392,-0.019161593,0.4731523,-1.3624978,1.8815869,-2.092934,-1.565225,2.451844,-0.21579453,0.13856755,-0.1625886,-0.0030852368,0.035335027,-0.19644803,-0.1340753,0.17238252,-9.595961,0.8851263,47.677036,-1.1770349,-2.3036861,-3.2126236,-0.6295237,0.34266138,-0.16858852,29.0,30.3125,29.375,32.9375,35.4375,36.5
0.29605326,-0.6314763,-1.9832839,-1.2101876,-0.06159765,0.02000567,-0.16235809,-0.40929872,-0.36229932,0.060028765,3.070567,-0.6292484,-6.3081156e-05,-0.13880968,0.046510454,0.0009991478,-0.046268865,0.0126090245,-0.030229935,0.47274292,-1.3622105,1.881275,-2.0929458,-1.5651406,2.451486,-0.22006656,0.1364496,-0.16504864,-0.0027641156,0.035946168,-0.18964805,-0.24899697,0.4405331,-9.730036,0.87617236,47.694054,-1.1029563,-2.2427106,-3.2974982,-0.6442853,0.372328,-0.27967128,29.0,30.3125,29.375,32.9375,35.4375,36.5
0.29805398,-1.0076503,-2.3426273,-1.3054882,-0.076621994,0.022020075,-0.16636045,-0.40955943,-0.36219352,0.060015995,3.0704827,-0.629367,-6.0127673e-05,-0.13876885,0.04721387,-0.0006672763,-0.04533602,0.009540598,-0.034862787,0.47231057,-1.3619452,1.880989,-2.0929582,-1.5650924,2.451139,-0.22142814,0.13921647,-0.1646132,-0.0028055706,0.036517512,-0.1863736,-0.30645782,0.5554548,-9.80665,0.8493211,47.67166,-1.0640247,-2.3612952,-3.3291597,-0.6582869,0.37409502,-0.33664465,29.0,30.3125,29.375,32.9375,35.4375,36.5
0.30005366,-0.8031856,-1.6868207,-1.2002257,-0.087107845,0.040561978,-0.1830693,-0.40987906,-0.36208615,0.060040478,3.0703225,-0.62954605,-0.00014811278,-0.14041731,0.047839593,-0.001490838,-0.0460385,0.008326023,-0.03816199,0.47181752,-1.3616799,1.8806185,-2.0929701,-1.5650319,2.450779,-0.22447431,0.14242473,-0.16649756,-0.0033436292,0.037724808,-0.1861114,-0.24899697,0.5554548,-9.883265,0.91421866,47.661808,-0.9958887,-2.3889773,-3.3029447,-0.66579086,0.3676015,-0.35978276,29.0,30.3125,29.375,32.9375,35.4375,36.5
0.30205336,-1.0857127,-1.5625707,-1.2721193,-0.07730781,0.04774389,-0.17797633,-0.410155,-0.3620005,0.060027275,3.0702147,-0.62956196,-0.00013996963,-0.14126283,0.04785044,-0.001865694,-0.047915343,0.007357782,-0.037205797,0.47138426,-1.361379,1.8802961,-2.0930064,-1.5649475,2.4503698,-0.22638626,0.14404427,-0.16748667,-0.003923056,0.03986966,-0.18896998,-0.17238252,0.47884035,-9.959879,0.95226496,47.704796,-0.8519394,-2.444483,-3.314334,-0.6516117,0.39986002,-0.39795625,29.0,30.3125,29.375,32.9375,35.4375,36.5
0.3040537,-1.2547331,-1.4429353,-1.1784005,-0.059270017,0.049502686,-0.1739585,-0.4104407,-0.36191517,0.06003827,3.0700707,-0.62962055,-0.00012384755,-0.14209318,0.047271755,-0.0017591792,-0.04994459,0.007905434,-0.028199842,0.4709286,-1.3611023,1.879937,-2.0929945,-1.5648388,2.4499698,-0.2269692,0.14522755,-0.16892976,-0.004982739,0.04149617,-0.19855037,-0.2873042,0.45968673,-9.959879,0.8560339,47.687782,-0.79413545,-2.4071348,-3.3599854,-0.65173566,0.38002765,-0.32919657,29.0,30.3125,29.375,32.9375,35.4375,36.5
0.30605358,-1.3405366,-0.9629634,-0.89951575,-0.046729617,0.06256231,-0.1754231,-0.41071752,-0.3618267,0.060034137,3.069985,-0.6295746,-0.00012752945,-0.14202861,0.04593804,-0.0027256072,-0.051388238,0.0060261083,-0.015540859,0.47049746,-1.3608129,1.8796023,-2.0930068,-1.5647658,2.4495213,-0.22588262,0.14862494,-0.17073615,-0.005459743,0.043710392,-0.21011217,-0.28730422,0.3256114,-9.768343,0.92764956,47.698532,-1.1090903,-2.6456766,-3.279768,-0.65703684,0.36567408,-0.20649719,29.0,30.3125,29.375,32.9375,35.4375,36.5
0.30805355,-1.367828,-0.3471774,-0.6406023,-0.024250153,0.066811614,-0.17878805,-0.41099524,-0.36175263,0.06003961,3.0698206,-0.62959504,-0.00010720535,-0.14191572,0.044752676,-0.0012112478,-0.054005384,0.008948263,-0.008208255,0.4700539,-1.3605385,1.8792666,-2.0930312,-1.5646337,2.4491122,-0.22429268,0.14612995,-0.17097063,-0.0064427084,0.04477634,-0.21584815,-0.24899697,0.30645782,-9.557653,0.83589023,47.686886,-1.330496,-2.3092191,-3.3599496,-0.6508094,0.36084482,-0.101832256,29.0,30.3125,29.375,32.9375,35.4375,36.5
0.31005344,-0.66665506,0.12654915,-0.5125296,-0.009489597,0.078555286,-0.18418801,-0.41129905,-0.36165503,0.060059365,3.0696914,-0.62960994,-0.00017165852,-0.14328796,0.045110483,-0.001526158,-0.055001676,0.0083379,-0.013475285,0.4695852,-1.360274,1.8789076,-2.093043,-1.5645612,2.44867,-0.22663061,0.14826205,-0.17279737,-0.0066406988,0.045959786,-0.2129092,-0.24899697,0.22984336,-9.519346,0.87617236,47.74241,-1.3456737,-2.4764597,-3.3974104,-0.64483035,0.36393106,-0.08004334,29.0,30.3125,29.375,32.9375,35.4375,36.5
0.3120541,-0.7261038,0.21212675,-0.51224726,0.0097572785,0.05656146,-0.1627504,-0.41159427,-0.36157146,0.060047697,3.0695856,-0.6296888,-0.00013545646,-0.14410657,0.04552499,-0.0022925723,-0.05561915,0.0075198486,-0.024061088,0.46914047,-1.3599254,1.8785132,-2.0930316,-1.5644768,2.4482884,-0.22841349,0.15016541,-0.17312692,-0.007784311,0.046853688,-0.20410095,-0.15322891,0.1340753,-9.404425,0.8851263,47.72271,-1.3548293,-2.4950914,-3.33324,-0.64742875,0.33914495,-0.17128661,29.0,30.3125,29.375,32.9375,35.4375,36.5
0.31405377,-0.31055185,0.6306851,-0.28684622,0.005374653,0.028089324,-0.17659132,-0.4118734,-0.3615021,0.060034554,3.0694015,-0.62972975,-0.00011446073,-0.14449641,0.044229425,-0.0016899277,-0.057702515,0.008321623,-0.031048914,0.46869698,-1.3596256,1.8782028,-2.0931156,-1.5643324,2.4478948,-0.22732112,0.15087461,-0.17533205,-0.007952069,0.04833627,-0.19600998,-0.24899697,0.076614454,-9.423578,0.9298854,47.695843,-1.4231064,-2.5251563,-3.2774024,-0.64297485,0.3334146,-0.26895806,29.0,30.3125,29.375,32.9375,35.4375,36.5
0.31605357,0.009429168,-0.044439413,-0.11235854,0.009995179,0.02112079,-0.1673095,-0.4121898,-0.3614061,0.060065083,3.069259,-0.6297811,-0.0002204472,-0.14534618,0.04451228,-0.0014475507,-0.059057508,0.008370203,-0.040210243,0.46822846,-1.3593619,1.8778199,-2.093127,-1.5642718,2.4474773,-0.22907485,0.15112868,-0.17619665,-0.008014488,0.049523234,-0.18859117,-0.34476504,-0.076614454,-9.289503,0.9030289,47.71286,-1.3966026,-2.3781328,-3.404078,-0.6248422,0.32841393,-0.39296144,29.0,30.3125,29.375,32.9375,35.4375,36.5
0.3180533,0.8291176,0.58090156,-0.11566052,0.0064695785,0.027984455,-0.17659701,-0.41249558,-0.3613059,0.06006094,3.0691085,-0.6299617,-0.00023071011,-0.14663856,0.044086736,-0.0004822726,-0.0616831,0.009297439,-0.043249264,0.4677478,-1.3590498,1.8774604,-2.0931513,-1.5641874,2.4471295,-0.23047897,0.1513812,-0.17879519,-0.0076583102,0.05146488,-0.18694434,-0.2873042,-0.076614454,-9.270349,0.9634547,47.690468,-1.35711,-2.3842664,-3.3427289,-0.6145623,0.30161923,-0.48142982,29.0,30.3125,29.375,32.9375,35.4375,36.5
0.32005367,0.4278244,1.1659663,0.086686954,0.0058319927,0.013588781,-0.18478703,-0.41275996,-0.36121473,0.060040787,3.0689926,-0.6300302,-0.00015774282,-0.14806636,0.043845788,0.0006775641,-0.06395138,0.010839957,-0.03891383,0.46730304,-1.3587501,1.877149,-2.0931628,-1.5640787,2.4467428,-0.23197998,0.15124376,-0.1813756,-0.0072625,0.052842252,-0.19277373,-0.095768064,-0.17238252,-9.251195,0.8672237,47.690468,-1.2968798,-2.3092544,-3.379447,-0.6070833,0.2808777,-0.4974215,29.0,30.3125,29.375,32.9375,35.4375,36.5
0.32205328,-0.3664256,0.94337654,-0.053282417,0.018780038,0.008541865,-0.17836547,-0.41309962,-0.36112887,0.060062308,3.0687563,-0.6301674,-0.00016901667,-0.14930536,0.044886824,-0.00066494633,-0.06460287,0.007798855,-0.030643191,0.46677408,-1.3584372,1.8767303,-2.0931866,-1.5639218,2.4463308,-0.23584305,0.15467748,-0.18256082,-0.0069551007,0.05490312,-0.20489213,-0.17238252,-0.1340753,-9.193734,0.90750587,47.704796,-1.0955405,-2.354535,-3.26712,-0.59756625,0.24691093,-0.3957396,29.0,30.3125,29.375,32.9375,35.4375,36.5
0.32405403,0.08252727,0.92346245,-0.050151475,0.030573584,0.044340845,-0.18851529,-0.41335464,-0.36104518,0.060052004,3.068681,-0.63012576,-0.000121612524,-0.15156755,0.045576904,0.0013248109,-0.06846162,0.009730043,-0.02197114,0.466365,-1.3581505,1.8764066,-2.0931742,-1.5638369,2.4459057,-0.2404017,0.15275696,-0.18501318,-0.0059208893,0.057571884,-0.21811074,-0.22984336,-0.076614454,-9.097966,0.8627467,47.675243,-1.0519408,-2.1448271,-3.1915693,-0.5989703,0.20200044,-0.26295552,29.0,30.3125,29.375,32.9375,35.4375,36.5
0.32605386,0.1360418,1.6013494,-0.2531393,0.02093757,0.06837292,-0.19153441,-0.41367862,-0.3609692,0.060068965,3.0684693,-0.63013613,-0.000110486246,-0.15257913,0.046475116,0.0020865034,-0.06850295,0.010716777,-0.01825698,0.4658603,-1.3578389,1.8759998,-2.093198,-1.5636696,2.4454355,-0.2423728,0.15195158,-0.18604016,-0.004881828,0.057243794,-0.22379112,-0.22984336,0.05746084,-9.097966,0.9030289,47.707485,-0.96065605,-2.1659236,-3.206318,-0.6180657,0.17071117,-0.14685795,29.0,30.3125,29.375,32.9375,35.4375,36.5
0.32805377,-0.83936316,0.37832257,-0.57491684,0.029467281,0.054809447,-0.17315802,-0.41395807,-0.36087802,0.06006847,3.0683522,-0.6301345,-6.819357e-05,-0.15314333,0.046580423,0.0022489366,-0.06894565,0.010147357,-0.024062315,0.465404,-1.3575507,1.8756522,-2.0931857,-1.5635608,2.4449937,-0.24325913,0.15274085,-0.18765028,-0.0037384394,0.057894725,-0.21886614,-0.21068975,0.019153614,-9.270349,0.86498255,47.682407,-0.9251745,-2.0593994,-3.2324338,-0.6321429,0.16090956,-0.14536943,29.0,30.3125,29.375,32.9375,35.4375,36.5
0.33005378,-1.4618444,-0.19789499,-0.5263656,-0.01322763,0.06266954,-0.17347252,-0.41425827,-0.3607744,0.06007506,3.0682428,-0.63019073,-5.017909e-05,-0.15258099,0.045734376,0.0018479209,-0.06950585,0.008455372,-0.029494593,0.46492445,-1.3572507,1.8752683,-2.0931494,-1.5634764,2.4445639,-0.24195084,0.15416089,-0.18868078,-0.0028745232,0.059144314,-0.21211688,-0.51714754,0.11492168,-9.270349,0.83589023,47.703007,-1.115815,-2.0552042,-3.2896476,-0.6463932,0.10211478,-0.23026416,29.0,30.3125,29.375,32.9375,35.4375,36.5
0.33205348,-1.1522201,-0.40463918,-0.7511129,-0.037122402,0.08482029,-0.17813507,-0.4145365,-0.3606867,0.06005376,3.06814,-0.6301913,4.8230773e-05,-0.15234825,0.045849007,0.0014186148,-0.06813702,0.0076992144,-0.033850122,0.46446893,-1.3569144,1.8749098,-2.093137,-1.5633568,2.4441223,-0.24123673,0.15515216,-0.1891251,-0.0021143653,0.058250304,-0.20705038,-0.5746084,0.17238252,-9.3661175,0.8985519,47.684196,-1.3058052,-2.0817022,-3.2729058,-0.6507498,0.094128184,-0.3119378,29.0,30.3125,29.375,32.9375,35.4375,36.5
0.33405378,-1.2469,-1.1296513,-1.2534366,-0.022494443,0.07525714,-0.16941312,-0.41486454,-0.36059263,0.060075093,3.067965,-0.63030887,-1.1001347e-05,-0.15308496,0.04776135,-0.00032869694,-0.06312986,0.0060993577,-0.037442427,0.46397638,-1.3566135,1.8745025,-2.093149,-1.5632623,2.4437265,-0.24260572,0.15865122,-0.18960088,-0.0014209957,0.05451869,-0.20483647,-0.36391866,0.17238252,-9.730036,0.83813137,47.674347,-1.292924,-2.2717056,-3.2339911,-0.6702488,0.1133776,-0.3614233,29.0,30.3125,29.375,32.9375,35.4375,36.5
0.33605355,-1.6285774,-1.2538093,-1.1288534,-0.032539614,0.061999127,-0.16954729,-0.4151584,-0.36049116,0.060057092,3.0678372,-0.63035434,5.7626305e-05,-0.15315506,0.047147702,-0.0016189314,-0.062018964,0.0043912223,-0.032195874,0.46348497,-1.3562886,1.8741554,-2.0931609,-1.5631422,2.4432805,-0.24134994,0.16259922,-0.1914925,-0.00137056,0.05433175,-0.20882548,-0.36391866,0.22984336,-9.634268,0.90527004,47.694946,-1.3387773,-2.1589131,-3.3115797,-0.68455946,0.12625238,-0.3758477,29.0,30.3125,29.375,32.9375,35.4375,36.5
0.33805338,-1.0394126,-0.6590802,-0.92170024,-0.03184824,0.07215567,-0.17890114,-0.41545644,-0.36039364,0.060069278,3.0677018,-0.63033754,5.299807e-05,-0.154243,0.048219223,-0.0013704799,-0.06097848,0.0057217837,-0.023521315,0.4630049,-1.3560131,1.8737968,-2.0931609,-1.5630349,2.442808,-0.24301593,0.16261004,-0.192114,-0.0013521572,0.052899983,-0.21916875,-0.4213795,0.28730422,-9.557653,0.92093146,47.674347,-1.4645323,-2.2923026,-3.4198365,-0.6938498,0.097000174,-0.2799058,29.0,30.3125,29.375,32.9375,35.4375,36.5
0.34005404,-0.54216367,-0.5368597,-1.2702949,-0.010569012,0.09347975,-0.17532507,-0.41577736,-0.36029,0.060056627,3.0675514,-0.63049346,0.00011914776,-0.15645494,0.048693646,-0.0010618152,-0.059460882,0.008284589,-0.014153992,0.46248835,-1.3556526,1.8733891,-2.093149,-1.5629157,2.4424088,-0.24400909,0.16496621,-0.19564317,-0.0016521242,0.050477017,-0.22953784,-0.2681506,0.30645782,-9.710882,0.90750587,47.682407,-1.4991674,-2.3481994,-3.378705,-0.6948619,0.10612772,-0.16403787,29.0,30.3125,29.375,32.9375,35.4375,36.5
0.3420539,-0.7410552,-0.116661854,-0.91770774,-0.013621658,0.092489325,-0.17390883,-0.41610825,-0.3602063,0.060066827,3.0674064,-0.6305026,4.6431538e-05,-0.15920305,0.0503671,-0.0013602428,-0.05895733,0.010795417,-0.015317282,0.46201903,-1.3553159,1.8729695,-2.0931857,-1.5628322,2.4419646,-0.24800737,0.16679677,-0.19657183,-0.0045064474,0.048959136,-0.23237383,-0.13407528,0.34476504,-9.749189,0.8985519,47.687782,-1.4125873,-2.3579128,-3.4777656,-0.6742809,0.13899793,-0.10517315,29.0,30.3125,29.375,32.9375,35.4375,36.5
0.34405407,-1.2100976,-0.24289767,-0.8375163,-0.0118341325,0.06448351,-0.16892223,-0.41642964,-0.36009812,0.06008301,3.0672615,-0.6304939,2.5711075e-05,-0.16021274,0.051914144,-0.0021271724,-0.056870498,0.01088091,-0.022262778,0.46150252,-1.3550279,1.8725866,-2.0931861,-1.562725,2.441462,-0.2501002,0.16816488,-0.1963766,-0.005199167,0.047061503,-0.2275257,-0.28730422,0.30645782,-9.519346,0.8784135,47.677036,-1.3504559,-2.4764473,-3.3931577,-0.6477158,0.1615537,-0.11184915,29.0,30.3125,29.375,32.9375,35.4375,36.5
0.34605375,-0.7052192,-0.490004,-0.72361493,-0.005193624,0.056529325,-0.17090996,-0.41673037,-0.35998914,0.06005169,3.0671523,-0.6306117,9.770049e-05,-0.16229527,0.053925,-0.002072167,-0.055563584,0.011345143,-0.035211515,0.4610093,-1.3546678,1.8722266,-2.093198,-1.5626291,2.441057,-0.2541732,0.16914532,-0.19790235,-0.0045105102,0.045646846,-0.21865548,-0.2681506,0.2681506,-9.385271,0.93436235,47.71554,-1.2133484,-2.3916624,-3.4362638,-0.6536902,0.17563346,-0.2295411,29.0,30.3125,29.375,32.9375,35.4375,36.5
0.34805351,-0.7634998,-0.6950084,-0.8355246,-0.006499295,0.04700343,-0.15983269,-0.41707024,-0.35989073,0.06007035,3.0670028,-0.6307004,1.5899142e-05,-0.16317894,0.054680005,-0.0023148055,-0.053543452,0.011334111,-0.044823058,0.46051654,-1.3543432,1.871796,-2.093209,-1.562558,2.4406397,-0.25486913,0.17080693,-0.19963036,-0.0035651515,0.04382607,-0.20974271,-0.34476504,0.1340753,-9.32781,0.86498255,47.703903,-1.1030933,-2.5603237,-3.379518,-0.66266465,0.19657263,-0.35314506,29.0,30.3125,29.375,32.9375,35.4375,36.5
0.35005328,-0.7747397,-0.23202643,-0.5530404,-0.0073169605,0.036225498,-0.1660637,-0.41741475,-0.35977665,0.06008493,3.0668747,-0.6308292,-3.59951e-05,-0.16400996,0.054807812,-0.002333315,-0.053240404,0.011761269,-0.051795013,0.46000063,-1.3540072,1.871353,-2.0931857,-1.562498,2.4402215,-0.25528473,0.17213745,-0.20124967,-0.0035421601,0.04335384,-0.20318429,-0.2873042,0.1340753,-9.385271,0.8784135,47.701214,-1.1881406,-2.4275584,-3.388916,-0.652524,0.23422575,-0.46393275,29.0,30.3125,29.375,32.9375,35.4375,36.5
0.35205385,-1.3409885,-0.9270661,-0.50214213,0.003918249,0.03452295,-0.15788326,-0.41777456,-0.35966384,0.06008836,3.066714,-0.6309466,-9.6210344e-05,-0.16598652,0.05546612,-0.0006443051,-0.05411117,0.015264281,-0.050799876,0.4594601,-1.3536483,1.870921,-2.0932214,-1.562414,2.439776,-0.25738204,0.17077382,-0.2035156,-0.0033697782,0.04263714,-0.20627578,-0.2681506,0.17238252,-9.270349,0.92764956,47.689575,-1.1655688,-2.2753687,-3.3388793,-0.654907,0.23112142,-0.49616063,29.0,30.3125,29.375,32.9375,35.4375,36.5
0.35405368,-1.0674026,0.40582725,-0.2099406,-0.015988892,0.059697922,-0.17429218,-0.41808328,-0.35954913,0.060073033,3.0666084,-0.63099545,-0.00010694384,-0.16848657,0.05518859,0.0008768635,-0.056428596,0.01892814,-0.039923225,0.45896664,-1.3533243,1.8705734,-2.0932572,-1.562342,2.4393272,-0.2591486,0.17119744,-0.20732668,-0.0041536163,0.043196224,-0.2189132,-0.26815057,0.095768064,-9.289502,0.91421866,47.694054,-1.118007,-2.3038597,-3.3778536,-0.64903057,0.27536362,-0.4314844,29.0,30.3125,29.375,32.9375,35.4375,36.5
0.35605422,-0.91283417,0.3221939,-0.29645,0.01723654,0.06792768,-0.18345062,-0.4184275,-0.3594436,0.060072143,3.0664136,-0.63115644,-6.302028e-05,-0.1688705,0.054612063,0.0008225828,-0.057246163,0.018936025,-0.026037306,0.45841542,-1.3529643,1.8701419,-2.0932572,-1.5621976,2.4389026,-0.25880137,0.17264703,-0.20900458,-0.0041262005,0.044051945,-0.23244481,-0.095768064,0.0,-9.2703495,0.9388393,47.709274,-1.1327001,-2.1929939,-3.3125978,-0.64665216,0.2744663,-0.30029908,29.0,30.3125,29.375,32.9375,35.4375,36.5
0.35805413,-0.9332937,0.8351948,-0.17735115,0.025123456,0.052557234,-0.17156725,-0.41877475,-0.35931835,0.060074933,3.0663085,-0.631188,-0.00014090209,-0.16821736,0.054858647,-0.0009515664,-0.057127647,0.014902666,-0.019957818,0.45788747,-1.352628,1.8697356,-2.0932815,-1.5621494,2.4384086,-0.2595322,0.17536983,-0.20842822,-0.0036689076,0.045821536,-0.23924206,-0.22984336,0.019153614,-9.251195,0.9298854,47.67614,-1.269562,-2.2059484,-3.3644123,-0.64843297,0.28508192,-0.20252672,29.0,30.3125,29.375,32.9375,35.4375,36.5
0.3600539,-0.90854293,0.85480744,0.05244878,0.026018802,0.05109498,-0.1747684,-0.41908377,-0.35924897,0.060090497,3.0661259,-0.63113326,-0.0001301253,-0.16842216,0.05449019,0.00028815147,-0.058412507,0.01681766,-0.024467498,0.4574197,-1.3523169,1.8693284,-2.093293,-1.561993,2.437931,-0.25907582,0.17353383,-0.20910597,-0.0034270217,0.046136856,-0.23426974,-0.5746084,0.0,-9.040505,0.94331104,47.689575,-1.3999268,-2.1413517,-3.315177,-0.64114535,0.27518317,-0.19496924,29.0,30.3125,29.375,32.9375,35.4375,36.5
0.36205357,-1.0987266,0.97957814,-0.38349533,0.043954864,0.039150707,-0.16375771,-0.41941836,-0.3591073,0.06007445,3.0660415,-0.63127214,-9.256172e-05,-0.16853942,0.05467874,-0.000758513,-0.057709098,0.014856714,-0.031793516,0.45686808,-1.3519562,1.8689212,-2.0932567,-1.5619324,2.4374776,-0.25940794,0.1760396,-0.20990045,-0.00309164,0.046346042,-0.22727342,-0.45968673,-0.038307227,-9.212888,0.92093146,47.698532,-1.5240746,-2.224025,-3.4229531,-0.6522329,0.30858886,-0.2881626,29.0,30.3125,29.375,32.9375,35.4375,36.5
0.36405343,-0.6505185,0.8932109,-0.67625505,0.028311307,0.053474855,-0.17267904,-0.41976923,-0.35901004,0.06006676,3.0658991,-0.6313794,-0.00012179217,-0.16935873,0.05429712,-0.0010042839,-0.058312073,0.01418292,-0.037450053,0.45636362,-1.3515598,1.8684658,-2.093281,-1.5618485,2.4370594,-0.25973582,0.17847016,-0.21243641,-0.0026557422,0.04718064,-0.22193515,-0.40222588,-0.11492168,-9.461885,0.90750587,47.67345,-1.5074418,-2.2042303,-3.4165487,-0.63702416,0.29940215,-0.38389283,29.0,30.3125,29.375,32.9375,35.4375,36.5
0.36605403,-1.3450803,0.6968167,-0.20855118,-0.0087918565,0.055719435,-0.17565155,-0.42010233,-0.35887477,0.06004784,3.0657928,-0.63149303,-7.594078e-05,-0.17137858,0.055155333,-0.0009185453,-0.06008171,0.013504744,-0.040620085,0.4558101,-1.3511992,1.8680705,-2.0932686,-1.5617636,2.4365911,-0.2637913,0.1803011,-0.21503441,-0.00201338,0.049096238,-0.22280808,-0.5363012,-0.038307227,-9.346964,0.9254084,47.68599,-1.3549268,-2.2573934,-3.3087683,-0.6441109,0.30775845,-0.42178082,29.0,30.3125,29.375,32.9375,35.4375,36.5
0.36805338,-1.0363106,0.14252749,-0.4178369,-0.0073051644,0.06608004,-0.1709048,-0.42046872,-0.35877463,0.060074475,3.0656252,-0.6315297,-0.00015565079,-0.17291844,0.055771932,-0.00014109263,-0.059875064,0.015412512,-0.03328387,0.45528197,-1.3508515,1.8675908,-2.0932686,-1.5616683,2.4361086,-0.2653081,0.18054913,-0.21725571,-0.0015318405,0.048181202,-0.23166026,-0.4405331,0.038307227,-9.289502,1.0261165,47.67614,-1.2492174,-2.2583013,-3.3239715,-0.64828205,0.31989762,-0.37200958,29.0,30.3125,29.375,32.9375,35.4375,36.5
0.37005335,-1.4807943,-0.20571283,-0.6778369,0.002680317,0.05745646,-0.17207536,-0.42081392,-0.35863766,0.060055915,3.0654984,-0.6317068,-0.00012674936,-0.1732798,0.055783365,9.77448e-06,-0.060131002,0.015757209,-0.019974582,0.45471704,-1.35048,1.867184,-2.0932686,-1.5615844,2.4356713,-0.26552647,0.18096301,-0.21822295,-0.0012307657,0.04838655,-0.24518599,-0.24899697,0.038307227,-9.423578,0.95226496,47.661808,-1.3133242,-2.1175048,-3.305069,-0.63521504,0.34770936,-0.21967292,29.0,30.3125,29.375,32.9375,35.4375,36.5
0.37205407,-1.214586,-0.39169258,-0.35012627,-0.029330641,0.069390826,-0.15942416,-0.42113546,-0.3585246,0.060039017,3.0653877,-0.6317361,-3.2979606e-05,-0.17289673,0.056092225,-0.00032691675,-0.06057278,0.014674148,-0.013249954,0.45418987,-1.350108,1.8667649,-2.0932324,-1.5614637,2.4351773,-0.26609212,0.18079963,-0.21736322,-0.0010287033,0.04933762,-0.25247154,-0.34476504,0.2681506,-9.346964,0.97464454,47.690468,-1.3381243,-2.1776733,-3.4223764,-0.64242,0.33818388,-0.12788007,29.0,30.3125,29.375,32.9375,35.4375,36.5
0.37405384,-1.4497715,-0.6310782,-0.35251394,-0.04106142,0.05713434,-0.16171773,-0.42152104,-0.35840827,0.060064945,3.0652585,-0.63173264,-0.00017211081,-0.17476475,0.057169974,-0.00074874394,-0.06234229,0.013202557,-0.019919347,0.4536482,-1.3497478,1.8662738,-2.0932448,-1.5614146,2.4346511,-0.2705648,0.18303442,-0.21918613,-0.0008838151,0.051610786,-0.2502537,-0.45968673,0.40222588,-9.308656,0.91421866,47.691364,-1.2911974,-2.222588,-3.3523421,-0.65177983,0.33005345,-0.09008023,29.0,30.3125,29.375,32.9375,35.4375,36.5
0.3760533,-0.7767464,-0.70452785,-0.8234644,-0.041162435,0.057635516,-0.15993619,-0.42181805,-0.35828108,0.06001506,3.065176,-0.6317414,-3.355194e-05,-0.17634986,0.058485974,-0.0013714569,-0.062439,0.012031292,-0.032804456,0.45311892,-1.3493752,1.865939,-2.0932562,-1.5612949,2.4341383,-0.27419767,0.18519898,-0.22048204,-0.0007748033,0.052153997,-0.2409986,-0.26815057,0.40222588,-9.3661175,0.88960326,47.70211,-1.126966,-2.2912686,-3.443593,-0.6559796,0.33532298,-0.18843286,29.0,30.3125,29.375,32.9375,35.4375,36.5
0.3780541,-0.60694385,-0.2705644,-0.7687561,-0.04772275,0.032879204,-0.16813149,-0.4222188,-0.3581649,0.06003496,3.064956,-0.6319499,-0.00011633233,-0.17738901,0.058783837,-0.0016926815,-0.061462287,0.0121662365,-0.04458437,0.45253068,-1.3489912,1.8654355,-2.09328,-1.5611871,2.43371,-0.27470055,0.18743107,-0.22254193,-0.00068979914,0.051184766,-0.22971876,-0.17238252,0.30645782,-9.423578,0.9835985,47.68599,-1.0558124,-2.2768333,-3.5485423,-0.6488632,0.36275378,-0.29556227,29.0,30.3125,29.375,32.9375,35.4375,36.5
