Tylouw/Master_Thesis_Code/training_data/batch_1/rect_rod_t0.2/sample_49_session_2.csv
timestamp[s],tcp_force_x[N],tcp_force_y[N],tcp_force_z[N],tcp_force_rx[Nm?],tcp_force_ry[Nm?],tcp_force_rz[Nm?],tcp_pose_x[m],tcp_pose_y[m],tcp_pose_z[m],tcp_pose_rx[rot_vec_x],tcp_pose_ry[rot_vec_y],tcp_pose_rz[rot_vec_z],tcp_velo_x[m/s],tcp_velo_y[m/s],tcp_velo_z[m/s],tcp_velo_rx[rot_vec_x/s],tcp_velo_ry[rot_vec_y/s],tcp_velo_rz[rot_vec_z/s],q1[rad],q2[rad],q3[rad],q4[rad],q5[rad],q6[rad],qd1[rad/s],qd2[rad/s],qd3[rad/s],qd4[rad/s],qd5[rad/s],qd6[rad/s],tool_acc_x,tool_acc_y,tool_acc_z,current_of_whole_robot[A],voltage_of_whole_robot[V],current_J1[A],current_J2[A],current_J3[A],current_J4[A],current_J5[A],current_J6[A],temp_J1[C],temp_J2[C],temp_J3[C],temp_J4[C],temp_J5[C],temp_J6[C]
9.4400093e-07,-0.35262674,-0.32609785,-0.130839,-0.03218066,0.017280685,0.0045669996,-0.38936585,-0.3687175,0.06005431,-3.0787442,0.6249363,0.00038431928,0.0016557636,0.0009334113,-0.0014205609,0.0021408882,-0.0040979586,1.8571356e-05,0.50503284,-1.3817158,1.9041876,-2.0919392,-1.5709013,2.4800253,-9.567618e-05,0.0002984492,0.0024551554,0.0018681493,0.000118849355,-0.00011556295,0.22984336,0.15322891,-8.714894,0.78888994,47.72002,-0.24378955,-3.0688257,-2.246161,-0.20698076,0.16478208,-0.03338357,28.875,30.25,29.3125,32.9375,35.375,36.5
0.00205585,-0.2376843,-0.4549642,0.08915187,-0.030485688,0.028709112,0.00014051824,-0.38934052,-0.36871395,0.06000995,-3.0787053,0.6249669,0.0002100461,-1.2501111e-05,-6.7080447e-07,-0.0025512595,-0.0007140643,0.0010012962,1.9671474e-05,0.5050208,-1.3816551,1.9042124,-2.0919197,-1.5708536,2.4800372,-9.319935e-05,0.0024636346,0.0048244423,-0.008510369,0.00013112978,-0.00011373826,0.21068975,0.13407528,-8.6574335,0.7418897,47.704796,-0.22770259,-2.9688718,-2.3770525,-0.16237494,0.16777065,-0.018576285,28.875,30.25,29.3125,32.9375,35.375,36.5
0.004054028,-0.55317974,-1.0024084,-0.09938931,-0.023307988,0.0297972,0.0070427707,-0.38934764,-0.3687233,0.060035106,-3.078737,0.6249158,0.00030610707,-0.0015822805,-0.0008749907,-0.002010129,-0.0029029236,0.0049367826,2.121629e-05,0.50504476,-1.3816909,1.9042,-2.0919316,-1.5708774,2.4800253,-9.0847425e-05,0.0030747983,0.0037990492,-0.012599382,0.00013074667,-0.00011196968,0.095768064,0.17238252,-8.695741,0.7620334,47.690468,-0.18952645,-3.3990054,-2.665544,-0.032157328,0.17313308,-0.012685263,28.875,30.25,29.3125,32.9375,35.375,36.5
0.0060525,-0.22381012,-0.50618654,-0.21863294,-0.00961443,0.017088993,0.0065602097,-0.38931984,-0.36872825,0.06000497,-3.0787098,0.6249484,0.00018256198,-0.00069441146,-0.0003816541,-0.0013288526,-0.0012381525,0.0019522989,2.1595652e-05,0.5050568,-1.3816552,1.9042233,-2.0919178,-1.5708417,2.480061,-8.861111e-05,0.0020059708,0.0021110035,-0.006425112,0.00012854289,-0.00011025487,0.019153614,0.21068975,-8.676587,0.75755644,47.664497,-0.20358592,-3.2406597,-2.5034342,-0.0646479,0.173444,-0.030575857,28.875,30.25,29.3125,32.9375,35.375,36.5
0.008052139,0.36823717,0.56690615,-0.6454132,0.0196577,0.0021016255,-0.0044362694,-0.3893427,-0.36874726,0.06001125,-3.0787814,0.62496316,0.0002292521,6.9375696e-05,4.3191172e-05,-0.0003178994,-0.00024372456,0.00017802461,2.1680315e-05,0.50504476,-1.3816439,1.9042114,-2.0919874,-1.5708054,2.4800491,-8.648248e-05,3.622098e-05,0.0009711158,-0.0012815373,0.00012629674,-0.0001085921,0.0,0.21068975,-8.599973,0.7038487,47.677036,-0.20939738,-3.18006,-2.4239426,-0.10304773,0.18543863,-0.024792578,28.875,30.25,29.3125,32.9375,35.375,36.5
0.010051876,0.37707284,0.57498634,-1.0925231,0.027674692,0.0030942105,0.004523545,-0.3893494,-0.36872524,0.06000335,-3.0787227,0.6250088,0.00016881656,0.0009275622,0.00051985256,-0.00051300105,0.0013097124,-0.0026117978,2.2015107e-05,0.5050088,-1.3816198,1.9041871,-2.0919263,-1.5708174,2.4800491,-8.445375e-05,4.8595064e-07,0.0006525911,0.0022658885,0.00012411985,-0.00010715496,0.038307227,0.19153614,-8.868123,0.800085,47.70211,-0.7481959,-2.703121,-2.9398165,-0.10767838,0.15599623,-0.08592503,28.875,30.25,29.3125,32.9375,35.375,36.5
0.012056467,0.115423016,0.10461507,-1.01142,-0.015267095,0.027073441,-0.0038094246,-0.3893509,-0.3687031,0.05999697,-3.0786817,0.62490433,0.00020205311,-0.00058587285,0.0022095249,-0.0010172373,0.0024887112,-0.004736962,-0.0017235576,0.5050077,-1.3816191,1.904198,-2.0919144,-1.5708774,2.479988,-0.0043432554,0.0018866938,-0.0009047706,0.004366885,0.00012201648,-0.002619669,0.076614454,0.095768064,-9.078813,0.6926589,47.691364,-0.923756,-2.6545587,-3.0085258,-0.14142439,0.14673834,-0.15037268,28.875,30.25,29.3125,32.9375,35.375,36.5
0.014052974,-0.8469562,-1.2569238,-1.3759273,-0.046072204,0.052022234,-0.0048223445,-0.38932505,-0.36870787,0.05998039,-3.0786648,0.62492,9.083175e-05,-0.0042415657,0.0034102611,-0.0044118767,0.004728833,-0.00881465,-0.00027813506,0.5050175,-1.3816032,1.904209,-2.0918787,-1.5708417,2.4800098,-0.009789863,0.01285603,-0.005820945,0.0029652715,0.0001199831,-0.009507796,0.0,0.21068975,-9.193734,0.72622824,47.672558,-0.54762524,-3.208047,-3.0009613,-0.11552091,0.15043432,-0.09519106,28.875,30.25,29.3125,32.9375,35.375,36.5
0.016053138,-1.47411,-1.6679167,-1.6349367,-0.078618065,0.07447695,-0.008424139,-0.38931966,-0.36868152,0.059936017,-3.0785723,0.62493724,-1.1993754e-05,-0.0052927374,0.0035841893,-0.0034805187,0.003619472,-0.006813901,0.0038746602,0.5049931,-1.3815316,1.90422,-2.0918548,-1.5708655,2.480008,-0.011064379,0.011815195,-0.0066054016,0.0025016943,0.00011801651,-0.014934912,-0.2681506,0.2681506,-9.308656,0.69937176,47.698532,-0.5747251,-3.0607705,-3.0326807,-0.09032223,0.14690904,-0.05770021,28.875,30.25,29.3125,32.9375,35.375,36.5
0.018052118,-1.5112008,-1.5237261,-1.4302204,-0.08433281,0.10414994,-0.03474951,-0.38934177,-0.36868557,0.059948064,-3.0786269,0.62492615,-4.531999e-06,-0.005501064,0.0037442225,-0.0027505814,0.0029407567,-0.005582,0.009254069,0.5049569,-1.3815323,1.9041961,-2.0918672,-1.5708297,2.4799578,-0.011525725,0.010190138,-0.006334984,0.0024495972,0.00011611327,-0.020776024,-0.40222588,0.22984336,-9.442732,0.7105615,47.683304,-0.7296647,-2.8486419,-3.2087429,-0.09897629,0.14401692,-0.022279575,28.875,30.25,29.3125,32.9375,35.375,36.5
0.020052245,-2.1782687,-0.93333423,-1.7305762,-0.04826865,0.0956542,-0.04887944,-0.38931555,-0.36866918,0.059909012,-3.078547,0.62487113,-0.00011068239,-0.005506817,0.004228871,-0.002472507,0.0039687837,-0.0074334294,0.010510971,0.5049687,-1.381484,1.9042195,-2.0918295,-1.5708536,2.4799454,-0.012346589,0.01033176,-0.0079484405,0.0060383044,0.00011427038,-0.022853497,-0.49799395,0.22984336,-9.615114,0.8023209,47.71286,-0.8931744,-2.737259,-3.3360572,-0.108408585,0.14283153,-0.007394799,28.875,30.25,29.3125,32.9375,35.375,36.5
0.02205248,-2.1662934,-0.5112215,-1.9954517,-0.01511043,0.09003366,-0.07142758,-0.38933435,-0.36867565,0.059923086,-3.0786042,0.6248477,-0.00013288851,-0.006822118,0.0049498016,-0.0033709698,0.0051138606,-0.009504322,0.0047381166,0.5049319,-1.381483,1.9041833,-2.0918171,-1.5708054,2.4798868,-0.014790911,0.01383531,-0.0103244325,0.0072786147,0.00011248514,-0.019523561,-0.5746084,0.19153613,-9.691729,0.7150385,47.68062,-0.86525,-2.7434447,-3.3928204,-0.1377827,0.14771053,-0.022611653,28.875,30.25,29.3125,32.9375,35.375,36.5
0.024052398,-1.5919795,-0.26792783,-1.6810557,-0.018497346,0.097082525,-0.08329012,-0.38933793,-0.36867037,0.05990848,-3.0785778,0.62486273,-0.00017495189,-0.0082811,0.004726029,-0.0026498719,0.003923413,-0.0073606055,0.0015234716,0.5049197,-1.3814468,1.9041713,-2.0918062,-1.5708054,2.4798872,-0.015778352,0.014229153,-0.012214271,0.006322785,0.00011075485,-0.01729542,-0.63206923,0.15322891,-9.730036,0.78217715,47.695843,-0.9372869,-2.787778,-3.3399596,-0.115894586,0.12323508,-0.06926915,28.875,30.25,29.3125,32.9375,35.375,36.5
0.026052058,-2.164313,-0.62554,-1.994764,-0.021693137,0.09617491,-0.100693375,-0.38937873,-0.36866698,0.059914052,-3.078588,0.62480736,-0.00014857025,-0.009722441,0.0046752593,-0.0030088215,0.00369289,-0.0069539966,-0.0004055581,0.5048832,-1.3813977,1.9040979,-2.0917938,-1.5708174,2.479815,-0.017040506,0.016815215,-0.014215019,0.005269969,0.00010907696,-0.0166272,-0.6512228,0.17238252,-9.825804,0.8179876,47.690468,-0.8995355,-2.7119427,-3.3209777,-0.085128605,0.13684887,-0.08604728,28.875,30.25,29.3125,32.9375,35.375,36.5
0.028052159,-2.4410973,-0.7828653,-1.9292787,-0.039331593,0.105078526,-0.10734952,-0.38936758,-0.36865526,0.059889667,-3.0785673,0.6248042,-0.00024448906,-0.009830088,0.0050588534,-0.003783432,0.0046984027,-0.008770455,-0.0018088543,0.50485903,-1.3813732,1.9041218,-2.0917823,-1.5707935,2.4797914,-0.017787177,0.01856147,-0.014700289,0.0060856477,0.00010744912,-0.01597019,-0.7661445,0.095768064,-9.940725,0.7418897,47.62419,-0.9735024,-2.7721772,-3.362001,-0.084381714,0.11329682,-0.11346761,28.875,30.25,29.3125,32.9375,35.375,36.5
0.030052092,-2.0473146,-0.8481463,-1.9177574,-0.04988701,0.12593989,-0.12769178,-0.38939375,-0.36862165,0.059868526,-3.0784562,0.62483966,-0.00025822545,-0.010236743,0.0051328,-0.0031727364,0.0048232228,-0.008993595,-0.002990727,0.5048229,-1.381301,1.9040736,-2.0917332,-1.5708655,2.4797916,-0.01829066,0.018495604,-0.016491659,0.008197536,0.000105869156,-0.015291306,-0.91937345,0.038307227,-9.844957,0.842603,47.694946,-0.9530376,-2.7966957,-3.36426,-0.11382306,0.106083915,-0.0958157,28.875,30.25,29.3125,32.9375,35.375,36.5
0.03205259,-2.2046645,-0.35955003,-1.6879535,-0.041130453,0.12501991,-0.13502824,-0.38941345,-0.36860383,0.059864085,-3.0784364,0.62485635,-0.00028797387,-0.011072708,0.0056976327,-0.0033387481,0.0052202265,-0.009688261,-0.0052279076,0.50477445,-1.3812767,1.9040493,-2.0917084,-1.5708655,2.479756,-0.02001507,0.019653525,-0.017667752,0.009015873,9.2996175e-05,-0.014777937,-0.82360536,0.095768064,-9.749189,0.7732232,47.70032,-0.9897302,-2.7863822,-3.370371,-0.13379645,0.11588837,-0.139407,28.875,30.25,29.3125,32.9375,35.375,36.5
0.034051944,-1.8883876,-0.23232684,-1.8050367,-0.012075773,0.11989061,-0.14841709,-0.38943198,-0.36861494,0.05984183,-3.0784438,0.6249347,-0.00039136072,-0.012379796,0.005449296,-0.0024045652,0.004003359,-0.007493041,-0.005463166,0.5047383,-1.3811926,1.9040006,-2.091709,-1.5708054,2.4797678,-0.020816496,0.01954134,-0.019544989,0.008496202,9.0100446e-05,-0.015343299,-0.6895301,-0.095768064,-9.902418,0.7642693,47.691364,-1.0061475,-2.7827575,-3.3229668,-0.10488166,0.099307746,-0.15153244,28.875,30.25,29.3125,32.9375,35.375,36.5
0.036052432,-1.7254975,-0.4550144,-1.8163424,0.017017288,0.10381466,-0.14201754,-0.38947174,-0.36861104,0.059858054,-3.0784624,0.624958,-0.00032065253,-0.0139335515,0.005263697,-0.0015122424,0.0026887706,-0.0051232264,-0.0058779987,0.504702,-1.3811806,1.9039525,-2.0917218,-1.5708174,2.4797437,-0.02195451,0.01966924,-0.021535514,0.007648552,8.872911e-05,-0.016065551,-0.51714754,-0.11492168,-9.787497,0.7866488,47.67345,-1.0921745,-2.7336373,-3.3100495,-0.08445472,0.11098732,-0.1654549,28.875,30.25,29.3125,32.9375,35.375,36.5
0.03805252,-1.1714942,0.33261526,-1.6451133,0.0009577943,0.0939593,-0.16805074,-0.38951045,-0.36859205,0.05986149,-3.0784612,0.6249571,-0.00029342299,-0.015173218,0.005727866,-0.0016405912,0.0026110895,-0.004988328,-0.006411453,0.50464153,-1.3811562,1.9039158,-2.0917218,-1.5708297,2.479683,-0.023892803,0.021035492,-0.022800107,0.007390872,8.749028e-05,-0.017469626,-0.4405331,-0.15322891,-9.768343,0.7866488,47.67614,-0.97833186,-2.7705765,-3.32758,-0.06945153,0.09207417,-0.16690853,28.875,30.25,29.3125,32.9375,35.375,36.5
0.04005201,-1.1854421,-0.29917255,-1.8631192,-0.00075795007,0.07746115,-0.17060667,-0.3895381,-0.36859724,0.059850946,-3.078447,0.62495553,-0.00034963223,-0.016165933,0.006544158,-0.0019067498,0.002825638,-0.0053794803,-0.0073605645,0.5046166,-1.3810717,1.9038318,-2.091686,-1.5708174,2.4796588,-0.026192656,0.021980112,-0.023316288,0.0074086203,8.639968e-05,-0.018820012,-0.38307226,-0.11492168,-9.672575,0.8291774,47.717335,-0.8789854,-2.7202694,-3.3864613,-0.067597575,0.07998398,-0.18246669,28.875,30.25,29.3125,32.9375,35.375,36.5
0.042052492,-0.922461,-0.40376934,-1.8076106,-0.008326777,0.07132042,-0.18884107,-0.38957685,-0.3685804,0.059844956,-3.0784442,0.62505084,-0.00034921968,-0.017096596,0.006470693,-0.0013714142,0.0024199723,-0.004524934,-0.0072655776,0.5045446,-1.3810356,1.903808,-2.091709,-1.5708054,2.4796467,-0.026898582,0.022401923,-0.025137223,0.007863946,2.4969131e-05,-0.019620048,-0.22984336,-0.019153614,-9.653421,0.75084364,47.681515,-0.8925427,-2.6471267,-3.319993,-0.05934268,0.08187428,-0.20315918,28.875,30.25,29.3125,32.9375,35.375,36.5
0.044052236,-0.56249076,-0.9349556,-1.6646054,-0.0051723286,0.069844395,-0.20071574,-0.3896334,-0.368551,0.059849758,-3.0784094,0.62504333,-0.00029862742,-0.018269176,0.006467897,-0.00049491663,0.0019610703,-0.0036647124,-0.0073798215,0.5044723,-1.3809873,1.9037346,-2.091685,-1.5708536,2.4795742,-0.027976267,0.02265812,-0.027748426,0.009243051,7.736494e-06,-0.020582497,-0.24899697,0.076614454,-9.672575,0.7642693,47.691364,-0.9234382,-2.6690664,-3.2309422,-0.070221394,0.07185627,-0.21131948,28.875,30.25,29.3125,32.9375,35.375,36.5
0.046052676,-0.6666428,-0.5997886,-1.837229,-0.021829264,0.058772728,-0.20946737,-0.38964617,-0.36852932,0.059833508,-3.0783665,0.6250924,-0.00035792278,-0.018948166,0.006999051,-0.0006119225,0.0023414483,-0.0043425565,-0.0077108364,0.50442386,-1.380951,1.9037231,-2.0916603,-1.5708536,2.4795618,-0.029499752,0.023539552,-0.028721437,0.010111728,5.051378e-07,-0.02177451,-0.21068975,0.17238252,-9.595961,0.7351769,47.625084,-0.8683193,-2.7063258,-3.3018231,-0.082126215,0.06568198,-0.22606736,28.875,30.25,29.3125,32.9375,35.375,36.5
0.048051827,-0.4725215,-0.99030465,-1.8322825,-0.024503974,0.060347646,-0.20684126,-0.38970366,-0.368528,0.059862398,-3.0783808,0.62509423,-0.00030297734,-0.019908957,0.0077903206,-0.0010474478,0.0027008276,-0.004995508,-0.008214095,0.50437534,-1.3809144,1.9036034,-2.091613,-1.5708655,2.4795127,-0.03172563,0.024856383,-0.029285686,0.010103918,3.2981887e-08,-0.02349669,-0.13407528,0.13407528,-9.557653,0.7396539,47.694054,-0.8529783,-2.702064,-3.277752,-0.082304314,0.067023754,-0.22185045,28.875,30.25,29.3125,32.9375,35.375,36.5
0.050052326,-0.33027068,-1.0110122,-1.8056425,-0.035300672,0.052140016,-0.19634561,-0.38974544,-0.36850992,0.059848208,-3.0783799,0.62515163,-0.00034196628,-0.020438181,0.008156816,-0.0013076657,0.0029874404,-0.0055197347,-0.007216026,0.504291,-1.3808542,1.9035672,-2.091625,-1.5708417,2.4794643,-0.032834057,0.025822302,-0.02989016,0.010340187,2.1534814e-09,-0.025602812,0.076614454,0.22984336,-9.576807,0.72622824,47.69763,-0.89694035,-2.7171917,-3.3530812,-0.071664676,0.06497434,-0.20507127,28.875,30.25,29.3125,32.9375,35.375,36.5
0.05205274,-0.33757603,-1.7787693,-1.851207,-0.021561895,0.044085998,-0.17662318,-0.38979244,-0.3684895,0.059871186,-3.078341,0.62516165,-0.0002916141,-0.022167414,0.008097482,-0.00046333694,0.001988078,-0.0037233531,-0.006575647,0.5042428,-1.3808299,1.9034699,-2.091553,-1.5708898,2.4794273,-0.0343469,0.02648034,-0.032585606,0.010320301,1.4060694e-10,-0.02775483,-0.019153614,0.24899697,-9.576807,0.7351769,47.691364,-0.8535168,-2.563385,-3.3442144,-0.06128871,0.04442452,-0.23680955,28.875,30.25,29.3125,32.9375,35.375,36.5
0.05405413,-0.71338564,-1.6481652,-1.8695158,-0.029014263,0.029085282,-0.15930499,-0.3898273,-0.36847448,0.059852406,-3.0783577,0.62512696,-0.000332486,-0.023987755,0.008945898,-7.786705e-05,0.002392296,-0.0026662697,-0.007338235,0.50417,-1.3807696,1.9034466,-2.0915763,-1.570866,2.4793308,-0.0369293,0.02738784,-0.034629952,0.010730406,-0.0008695431,-0.02957206,0.0,0.28730422,-9.519346,0.8023209,47.723602,-0.7642013,-2.5859118,-3.2463322,-0.041576907,0.06864371,-0.20865962,28.875,30.25,29.3125,32.9375,35.375,36.5
0.056051716,-0.43444836,-1.6830006,-1.7811723,-0.030185046,0.03519292,-0.1743821,-0.38988847,-0.3684469,0.05987862,-3.0783384,0.62525743,-0.00029095757,-0.024737746,0.009085617,0.0003864,0.0023553323,-0.0023330522,-0.0071943174,0.5040739,-1.3807575,1.9033617,-2.0915282,-1.5708779,2.4793186,-0.037778944,0.027661817,-0.036243968,0.011760686,-0.0009992347,-0.03056481,0.076614454,0.3256114,-9.557653,0.7105615,47.709274,-0.7336384,-2.622748,-3.3221185,-0.063884795,0.05939106,-0.23623045,28.875,30.25,29.3125,32.9375,35.375,36.5
0.0580518,-0.9783814,-1.498883,-1.6604098,-0.036579955,0.030317694,-0.17257766,-0.38993657,-0.36841518,0.059864663,-3.07829,0.6252842,-0.00031105417,-0.024365878,0.008800682,8.995878e-05,0.0029967672,-0.003519941,-0.005010703,0.5039905,-1.3806851,1.9033026,-2.0915043,-1.5709018,2.479258,-0.03695578,0.028643081,-0.036981326,0.012864736,-0.0009887565,-0.031924907,-0.019153614,0.3256114,-9.500193,0.78217715,47.690468,-0.85449314,-2.5793302,-3.3111782,-0.05973348,0.0676204,-0.2441726,28.875,30.25,29.3125,32.9375,35.375,36.5
0.060052615,-0.33583254,-1.3839959,-1.6264241,-0.03965722,0.055781092,-0.17206047,-0.38998827,-0.3683936,0.05985428,-3.078271,0.6252607,-0.00035462537,-0.025349356,0.009476455,0.00013610856,0.0030690772,-0.003954021,-0.0061346046,0.50390583,-1.3806007,1.9032182,-2.091468,-1.5709018,2.4791613,-0.039096467,0.029361283,-0.038128797,0.013708233,-0.00084503554,-0.032941446,0.038307227,0.30645782,-9.442732,0.83365434,47.741516,-0.89039755,-2.5406888,-3.3423822,-0.07757358,0.044429827,-0.2575187,28.875,30.25,29.3125,32.9375,35.375,36.5
0.06205206,-0.304001,-1.143683,-1.5275363,-0.04246486,0.06798086,-0.17620827,-0.390065,-0.36839482,0.05987483,-3.0783265,0.6253497,-0.0002796737,-0.02668509,0.009675107,0.00047944367,0.0025510753,-0.0032546134,-0.0066610062,0.5038214,-1.3805524,1.9031223,-2.0915039,-1.5708779,2.4791253,-0.040741622,0.030280575,-0.04002438,0.013822048,-0.0007310321,-0.034059577,-0.038307227,0.24899697,-9.481039,0.7620334,47.71465,-0.8196367,-2.5286884,-3.3183475,-0.08948596,0.05050891,-0.27140474,28.875,30.25,29.3125,32.9375,35.375,36.5
0.06405229,-0.66383237,-1.1489419,-1.4007026,-0.034031253,0.06324901,-0.16991118,-0.390115,-0.36839557,0.059902057,-3.0783715,0.62526244,-0.0002882836,-0.027819864,0.00976603,0.0006325446,0.0022180136,-0.0026781645,-0.0065382854,0.5037611,-1.380516,1.9030012,-2.0914323,-1.5708541,2.4790049,-0.04195467,0.031407226,-0.04167327,0.013679197,-0.00072183495,-0.03539451,-0.076614454,0.24899697,-9.423578,0.7866488,47.674347,-0.75489116,-2.500161,-3.2430954,-0.07825054,0.03178933,-0.27795985,28.875,30.25,29.3125,32.9375,35.375,36.5
0.06605212,-0.09314399,-1.1868863,-1.2963042,-0.026608394,0.08439635,-0.16925605,-0.39017856,-0.36836684,0.059891753,-3.0783412,0.6254095,-0.0002906232,-0.02859126,0.009723066,0.0008376192,0.0019721738,-0.0023484372,-0.0065497984,0.5036531,-1.3804436,1.9029416,-2.0914438,-1.5708536,2.4789925,-0.0426291,0.032228466,-0.043175057,0.013951963,-0.00066896225,-0.036056813,-0.05746084,0.2681506,-9.3661175,0.73069996,47.67166,-0.83221817,-2.435915,-3.2747312,-0.08705069,0.04107637,-0.29039377,28.875,30.25,29.3125,32.9375,35.375,36.5
0.06805175,-0.7234558,-1.1089228,-1.2867979,-0.013204004,0.073698066,-0.16673167,-0.39022106,-0.36836177,0.059889615,-3.0783226,0.6253862,-0.0003333685,-0.029578034,0.009933021,0.0011919148,0.0016517018,-0.0017356348,-0.0071433433,0.5036049,-1.3803594,1.9028333,-2.0913842,-1.5708536,2.4789321,-0.043886647,0.032673024,-0.044567525,0.014208435,-0.00068814674,-0.03672015,-0.17238252,0.1340753,-9.232041,0.7463667,47.652847,-0.8981757,-2.4807127,-3.2826817,-0.08259214,0.031200513,-0.30111682,28.875,30.25,29.3125,32.9375,35.375,36.5
0.07005185,-0.60723484,-0.34766573,-1.2090247,-0.017480701,0.08302211,-0.17976868,-0.3902805,-0.36833677,0.05987848,-3.0783384,0.62540764,-0.00038548553,-0.030474523,0.010101525,0.0012332574,0.0015690295,-0.0018529398,-0.005562005,0.5034848,-1.3802868,1.9027728,-2.0913837,-1.5708174,2.4788234,-0.045077663,0.033835527,-0.046147678,0.014689413,-0.0005633746,-0.03949196,-0.17238252,0.095768064,-9.32781,0.800085,47.71017,-0.845667,-2.478127,-3.341362,-0.0939987,0.018664446,-0.31828207,28.875,30.25,29.3125,32.9375,35.375,36.5
0.07205212,-0.78932774,-0.23991632,-1.2326262,-0.009084447,0.08094222,-0.17324437,-0.3903528,-0.36832044,0.05990238,-3.0783305,0.6254243,-0.00030613836,-0.03128639,0.010135267,0.0014225004,0.0013445967,-0.0014073557,-0.004641811,0.5034125,-1.3802384,1.9026531,-2.091348,-1.5708536,2.4787626,-0.04587186,0.03458597,-0.047487147,0.014778206,-0.00058388396,-0.04120568,-0.28730422,0.1340753,-9.270349,0.7016076,47.65643,-0.802867,-2.4781253,-3.2714963,-0.09761995,-0.009085186,-0.31126305,28.875,30.25,29.3125,32.9375,35.375,36.5
0.074052304,-1.0468944,-0.17588548,-1.1259203,-0.014195557,0.07905413,-0.17171624,-0.39039665,-0.36829737,0.05989538,-3.0783255,0.62532705,-0.00032211994,-0.032415852,0.010458789,0.0015652976,0.0011010675,-0.00091039826,-0.006526817,0.5033402,-1.3801783,1.9025925,-2.091324,-1.5708655,2.4786303,-0.04744559,0.035434745,-0.04879701,0.014686143,-0.00061430864,-0.040893663,-0.38307226,0.05746084,-9.308656,0.73741806,47.6421,-0.8790288,-2.4206712,-3.2722228,-0.1014274,0.011297248,-0.33882186,28.875,30.25,29.3125,32.9375,35.375,36.5
0.07605204,-1.28632,-0.79900825,-1.3538249,0.0022853997,0.08707139,-0.16149892,-0.39043808,-0.36828774,0.059898876,-3.0783346,0.6253477,-0.00041528064,-0.033865076,0.011296444,0.0015855402,0.0011473991,-0.00095143303,-0.0064907544,0.5032553,-1.3801179,1.9024967,-2.091252,-1.5708174,2.478557,-0.050184097,0.036520176,-0.050218336,0.015082015,-0.0006401455,-0.043667454,-0.40222588,-0.019153614,-9.385271,0.7620334,47.64837,-0.79133385,-2.4235947,-3.2439456,-0.103359595,0.0008012013,-0.3470627,28.875,30.25,29.3125,32.9375,35.375,36.5
0.07805198,-0.9874484,-0.38996926,-1.2890028,-0.008721384,0.099487506,-0.17783667,-0.3905261,-0.36826196,0.059910208,-3.078313,0.6253414,-0.00033902362,-0.033160444,0.010818561,0.0008704922,0.0021421257,-0.0023572482,-0.002403949,0.50316024,-1.380033,1.9023651,-2.0912278,-1.570866,2.478461,-0.048594918,0.038024694,-0.05047869,0.015547209,-0.00083340163,-0.046164438,-0.40222588,-0.05746084,-9.461885,0.77545905,47.66271,-0.94444567,-2.4302402,-3.2471685,-0.106924936,0.010735568,-0.32251394,28.875,30.25,29.3125,32.9375,35.375,36.5
0.08005217,-1.2674981,-0.29667962,-1.2978574,-0.013016469,0.10043948,-0.16966699,-0.3905987,-0.36821795,0.059895996,-3.07829,0.62543076,-0.0004063161,-0.035475176,0.01094608,0.001735196,0.0012353004,-0.00085884146,-0.0007677318,0.5030036,-1.3799486,1.9022921,-2.0912035,-1.5708421,2.478363,-0.050994944,0.039495803,-0.05433328,0.016180908,-0.000772144,-0.050199043,-0.40222588,-0.019153614,-9.289502,0.8717007,47.716442,-0.91279966,-2.4576833,-3.1705422,-0.1345786,-0.029930258,-0.3117527,28.875,30.25,29.3125,32.9375,35.375,36.5
0.0820563,-1.2461168,-0.29437155,-1.3291906,-0.008128178,0.09637569,-0.16913863,-0.39067376,-0.36821216,0.05989589,-3.0782962,0.6253925,-0.0003811384,-0.035539653,0.011804205,0.00062617456,0.0022654783,-0.0025699008,-0.00021738611,0.50293136,-1.3798401,1.9021615,-2.0911925,-1.5708541,2.4782662,-0.052442607,0.040835436,-0.053316317,0.015819376,-0.0008491023,-0.052197084,-0.45968673,-0.05746084,-9.442732,0.8224646,47.711964,-0.85820484,-2.5135922,-3.2139082,-0.13867915,-0.027907647,-0.30004597,28.875,30.25,29.3125,32.9375,35.375,36.5
0.0840523,-1.3589755,-0.61590934,-1.5111736,-0.0005299909,0.09554912,-0.1585574,-0.39075187,-0.36817482,0.059906933,-3.0782776,0.6253902,-0.0003582494,-0.0370317,0.012721266,0.00042533272,0.002278071,-0.00251866,-0.0025502904,0.50281066,-1.3797795,1.9020537,-2.0911443,-1.5708779,2.4781466,-0.055340905,0.04209612,-0.054275393,0.01547765,-0.00088842656,-0.052761782,-0.51714754,-0.11492168,-9.500193,0.7709874,47.693153,-0.80353683,-2.5041375,-3.3343813,-0.14891644,-0.016816957,-0.30141267,28.875,30.25,29.3125,32.9375,35.375,36.5
0.08605207,-1.1476941,-0.48458567,-1.339318,-0.007785697,0.092967644,-0.171472,-0.39082196,-0.36814997,0.059901066,-3.07826,0.62540114,-0.0003864834,-0.0374797,0.011694093,0.0007628825,0.0019772446,-0.0012490661,0.0030405957,0.50270355,-1.3796831,1.901945,-2.0911086,-1.5708779,2.4780486,-0.053798858,0.043318048,-0.05641634,0.015139707,-0.0012454748,-0.056808818,-0.47884035,0.0,-9.385271,0.7083204,47.670765,-0.8685272,-2.507737,-3.3171659,-0.14472115,-0.063367665,-0.28736025,28.875,30.25,29.3125,32.9375,35.375,36.5
0.08805227,-0.92319614,-0.979818,-1.351432,0.000977803,0.09885257,-0.16282201,-0.39090312,-0.36814186,0.05991024,-3.0782995,0.6253697,-0.00035488477,-0.039354496,0.01169094,0.0015811299,0.0019251155,0.0005682471,0.005631563,0.5026072,-1.3795984,1.9018239,-2.0911086,-1.5708665,2.4779277,-0.05500681,0.044571307,-0.05990483,0.01576024,-0.002081176,-0.060604643,-0.47884035,0.0,-9.289502,0.7597976,47.64479,-0.95949554,-2.4966767,-3.1431189,-0.16646856,-0.04709937,-0.22867838,28.875,30.25,29.3125,32.9375,35.375,36.5
0.090052396,-0.96501845,-0.377959,-1.3962759,-0.012762725,0.10114353,-0.17405249,-0.39097401,-0.3681299,0.059930142,-3.07834,0.6253381,-0.00038022216,-0.039273694,0.012985689,0.00056209543,0.0034906443,-0.0013673024,0.0070144455,0.50249887,-1.3795383,1.9016937,-2.091048,-1.5708307,2.4777944,-0.056827433,0.045228746,-0.058441274,0.016092658,-0.0025178776,-0.06380787,-0.49799395,0.038307227,-9.423578,0.8537928,47.719128,-0.9139384,-2.4980345,-3.2437706,-0.17540295,-0.04561875,-0.20783722,28.875,30.25,29.3125,32.9375,35.375,36.5
0.09205262,-0.80219305,-0.48387915,-1.5735708,-0.026836256,0.09734705,-0.16929376,-0.39102694,-0.36808443,0.05991579,-3.0782628,0.6253011,-0.00041858415,-0.039951548,0.01310299,0.000560776,0.003806865,-0.0017084894,0.008917983,0.5024028,-1.3794539,1.9016103,-2.0909765,-1.5708784,2.4776852,-0.05757425,0.04643815,-0.060068972,0.01695894,-0.0026384816,-0.06645705,-0.28730422,0.11492168,-9.442732,0.7083204,47.63315,-0.9811127,-2.4971645,-3.374274,-0.18767315,-0.051103465,-0.15572767,28.875,30.25,29.3125,32.9375,35.375,36.5
0.09405261,-1.0818092,-0.92401713,-1.3485388,-0.035074625,0.08792992,-0.15885676,-0.3911175,-0.36805147,0.059889853,-3.0782464,0.6252582,-0.0004350881,-0.041020174,0.013153019,0.0007431453,0.0036699201,-0.001403217,0.010275368,0.50227076,-1.3793092,1.9015006,-2.0909874,-1.5708908,2.4775286,-0.058619216,0.04769037,-0.062065095,0.017367868,-0.0026721095,-0.06885832,-0.22984336,0.21068975,-9.461885,0.7239871,47.687782,-0.98642623,-2.498699,-3.3252244,-0.184502,-0.06755314,-0.12820536,28.875,30.25,29.3125,32.9375,35.375,36.5
0.09605225,-0.8907248,-1.4125332,-1.5286725,-0.031719156,0.0834933,-0.16278815,-0.39123094,-0.3680386,0.059922747,-3.0782914,0.6252276,-0.00033776122,-0.041831635,0.013460867,0.0010957066,0.0039069396,-0.00070422963,0.011377825,0.5021508,-1.3792251,1.9013208,-2.0909636,-1.5709022,2.4773839,-0.059537888,0.04792134,-0.06324624,0.017819935,-0.0032141518,-0.07087813,-0.28730422,0.22984336,-9.481039,0.85155696,47.694946,-0.92443305,-2.497838,-3.2530975,-0.20303883,-0.05913894,-0.0992933,28.875,30.25,29.3125,32.9375,35.375,36.5
0.09805233,-0.94171506,-1.4100413,-1.6157904,-0.030276395,0.08321183,-0.15424907,-0.39134318,-0.36799347,0.059949096,-3.0783088,0.62525034,-0.00029696125,-0.04214573,0.013904074,0.00013883036,0.005565183,-0.0025021865,0.0114204865,0.5019709,-1.3791641,1.9011778,-2.0909154,-1.5709027,2.477216,-0.060194593,0.050431293,-0.06423557,0.018674772,-0.0038012397,-0.07157579,-0.2681506,0.2681506,-9.481039,0.800085,47.689575,-0.9781989,-2.4321485,-3.300813,-0.20793745,-0.05287631,-0.07175992,28.875,30.25,29.3125,32.9375,35.375,36.5
0.10005233,-0.9010635,-1.30379,-1.4923955,-0.035985287,0.07719121,-0.15870541,-0.3913745,-0.36796245,0.05988091,-3.0782275,0.6251958,-0.00052325043,-0.043300636,0.014215149,5.7662237e-05,0.0060898783,-0.0022159426,0.009393892,0.5018746,-1.3789833,1.9011053,-2.0908554,-1.5708789,2.477096,-0.0614037,0.052045237,-0.06600688,0.018837355,-0.004414475,-0.07075547,-0.15322891,0.22984336,-9.519346,0.82022345,47.707485,-1.0252526,-2.6738298,-3.2971506,-0.22034031,-0.048218235,-0.058207847,28.875,30.3125,29.3125,32.9375,35.4375,36.5
0.10205281,-0.79192376,-1.2964922,-1.564202,-0.037481397,0.07308658,-0.15601934,-0.39150164,-0.36794955,0.05992916,-3.0782874,0.62524587,-0.00036550334,-0.044571094,0.01423181,0.0016958433,0.0053081852,0.0016489549,0.008067504,0.5017429,-1.3789241,1.9009255,-2.0908558,-1.5708917,2.476988,-0.061863057,0.050105702,-0.06732673,0.018335264,-0.005583696,-0.06988643,-0.19153613,0.30645782,-9.461885,0.8247004,47.686886,-1.1262729,-2.4248805,-3.3070216,-0.2388941,-0.03757386,-0.0512013,28.875,30.3125,29.3125,32.9375,35.4375,36.5
0.10405249,-0.57757145,-1.2823367,-1.6400956,-0.030363243,0.06873302,-0.16016473,-0.39158127,-0.36789224,0.05991605,-3.0782146,0.62521285,-0.00036215232,-0.04629462,0.015513128,0.0010715132,0.008209955,0.002809898,0.005309316,0.5016106,-1.3788271,1.9008297,-2.0908082,-1.5709528,2.4768445,-0.063670546,0.052510932,-0.06858397,0.017571308,-0.008693829,-0.06892832,-0.1340753,0.28730422,-9.442732,0.75755644,47.68599,-1.0658348,-2.4759853,-3.2853947,-0.23818931,-0.026282353,-0.08111042,28.875,30.3125,29.3125,32.9375,35.4375,36.5
0.106052645,0.026014417,-1.4325052,-1.7150326,-0.027936615,0.07419512,-0.16335021,-0.39168853,-0.36790025,0.059927873,-3.0782712,0.6251866,-0.0003560368,-0.047707517,0.016212124,0.0007452809,0.010353593,0.003919892,0.0030665959,0.50150245,-1.3786823,1.9006261,-2.0907848,-1.5709175,2.476713,-0.06463691,0.054620307,-0.070263654,0.017209519,-0.011108764,-0.067646526,-0.019153614,0.19153613,-9.500193,0.77545905,47.660015,-1.0543878,-2.4858804,-3.388188,-0.24136443,0.016504718,-0.069143444,28.875,30.3125,29.3125,32.9375,35.4375,36.5
0.108051695,-0.21348351,-1.0915934,-1.7059143,-0.03563171,0.056320112,-0.15251657,-0.3917491,-0.36784467,0.059906244,-3.078215,0.6250793,-0.00038246677,-0.048077725,0.016672645,0.00012666637,0.011548517,0.0021218632,0.0006129086,0.5013824,-1.3785975,1.9005665,-2.0907476,-1.5709652,2.4765332,-0.06563087,0.056568943,-0.07149037,0.018635185,-0.011295366,-0.06618508,0.05746084,0.2681506,-9.481039,0.7732232,47.691364,-1.0789316,-2.6317768,-3.3044367,-0.24022695,0.051855765,-0.10888955,28.875,30.3125,29.3125,32.9375,35.4375,36.5
0.110051885,-0.51720285,-1.2529812,-1.6248244,-0.0324213,0.03591783,-0.1528657,-0.39187786,-0.36780953,0.059918813,-3.078178,0.62520814,-0.00031591242,-0.049159862,0.016717825,0.0016899526,0.0092634205,0.00415981,-0.0023887786,0.5012261,-1.3784661,1.9003743,-2.0907123,-1.5710009,2.4764621,-0.067327134,0.054488063,-0.072674125,0.019007104,-0.010270499,-0.06488189,0.0,0.24899697,-9.32781,0.88960326,47.733456,-1.1169446,-2.4691274,-3.3351884,-0.26276055,0.04393182,-0.13597304,28.875,30.3125,29.3125,32.9375,35.4375,36.5
0.11205248,0.045659535,-1.0546951,-1.7114694,-0.03725668,0.037173726,-0.15491939,-0.39196187,-0.36779636,0.059937157,-3.0782058,0.6251558,-0.00031623014,-0.049332887,0.01620685,0.0009331638,0.007922069,0.0017822167,-0.0042062285,0.50111806,-1.3783811,1.9002184,-2.0906522,-1.570988,2.476318,-0.06805878,0.056908973,-0.07387158,0.01921607,-0.007952799,-0.06379995,0.05746084,0.21068975,-9.385271,0.7463667,47.674347,-1.074902,-2.3758454,-3.341096,-0.26603246,0.044393506,-0.14289024,28.875,30.3125,29.3125,32.9375,35.4375,36.5
0.114051946,0.08367555,-1.1502084,-1.6710541,-0.042090084,0.034527496,-0.15977646,-0.39204895,-0.3677689,0.05993196,-3.078212,0.62508076,-0.0003070888,-0.05003075,0.015599967,0.0008818919,0.005383514,0.00047421094,-0.0065092132,0.50099796,-1.3782725,1.9000987,-2.0906398,-1.570999,2.4761503,-0.06944666,0.05848539,-0.07565742,0.019341653,-0.0051014586,-0.06288953,0.019153614,0.22984336,-9.385271,0.85155696,47.709274,-1.1249111,-2.562877,-3.341388,-0.27476257,0.012801833,-0.18921462,28.875,30.3125,29.3125,32.9375,35.4375,36.5
0.11605256,0.01166238,-1.0334926,-1.5984167,-0.042614747,0.03994369,-0.15845327,-0.39218944,-0.36773962,0.05993387,-3.0782018,0.6251363,-0.00030719666,-0.0514455,0.014602837,0.0018966638,0.0029381767,0.0017690636,-0.007522574,0.50081813,-1.378092,1.8998698,-2.0905921,-1.5709985,2.4760065,-0.07000043,0.059455823,-0.079179384,0.019576965,-0.0035853817,-0.06243142,-0.11492168,0.17238252,-9.3661175,0.8717007,47.66271,-1.1487561,-2.437494,-3.2994196,-0.27943027,-0.008326048,-0.2108993,28.875,30.3125,29.3125,32.9375,35.4375,36.5
0.11805258,0.19807848,-0.8607381,-1.5613842,-0.022840254,0.06858693,-0.15996,-0.39225,-0.36769706,0.05990918,-3.078132,0.6251982,-0.00038289547,-0.05146021,0.014984528,0.0015021809,0.002896585,0.00037778492,-0.006694232,0.50069785,-1.3779837,1.8997868,-2.0905445,-1.5710105,2.4759338,-0.07108119,0.059963048,-0.07900606,0.020092636,-0.0028850944,-0.06434175,-0.095768064,0.15322891,-9.3661175,0.7553206,47.63046,-1.1744443,-2.5293417,-3.1603737,-0.28833783,-0.028804995,-0.2387557,28.875,30.3125,29.3125,32.9375,35.4375,36.5
0.120051645,-0.6831736,-0.7883133,-1.7764076,-0.012018369,0.07046096,-0.15940553,-0.39237127,-0.36767733,0.05991151,-3.0781767,0.62518793,-0.0003932715,-0.05156771,0.015421415,0.00064788153,0.004207242,-0.0018526007,-0.0071302964,0.5005301,-1.377839,1.8996071,-2.0905316,-1.5709747,2.475754,-0.07184641,0.062051285,-0.07984837,0.021434525,-0.0029622843,-0.064670295,-0.1340753,0.15322891,-9.346964,0.78217715,47.64927,-1.1720273,-2.4383602,-3.2968142,-0.30455685,-0.057215147,-0.23965779,28.875,30.3125,29.3125,32.9375,35.4375,36.5
0.12205508,-0.9393544,-1.0490968,-1.7257069,-0.0055037723,0.07747885,-0.15380658,-0.39245802,-0.36765435,0.059915885,-3.078139,0.625162,-0.00038541123,-0.054769505,0.01531594,0.0025272283,0.002406255,0.0018967866,-0.010585155,0.5004334,-1.3777187,1.8994383,-2.0904596,-1.5710105,2.475646,-0.07447355,0.06274065,-0.08502234,0.02176391,-0.0031930243,-0.0638399,-0.076614454,0.095768064,-9.423578,0.779936,47.67614,-1.2599142,-2.5342586,-3.1226804,-0.32186317,-0.052392162,-0.30048,28.875,30.3125,29.3125,32.9375,35.4375,36.5
0.12405219,-1.3251736,-0.83763343,-1.7478348,-0.019567631,0.0800145,-0.15162252,-0.39258197,-0.3676157,0.0599331,-3.0781345,0.6252555,-0.00035855532,-0.05392457,0.015594024,0.0016353406,0.0035904262,0.00037692126,-0.009515648,0.500254,-1.3776103,1.8992599,-2.090412,-1.571011,2.4755256,-0.07394649,0.06322187,-0.08355954,0.021721901,-0.0034987873,-0.064382315,-0.21068975,0.24899697,-9.461885,0.7396539,47.651955,-1.1940267,-2.3996735,-3.24267,-0.33972442,-0.05785923,-0.3424868,28.875,30.3125,29.3125,32.9375,35.4375,36.5
0.12605186,-1.0309999,-0.7963529,-1.8047918,-0.03773697,0.09574508,-0.1489835,-0.39268366,-0.3675718,0.059940204,-3.0781085,0.62534463,-0.0003733711,-0.05534075,0.01533747,0.0022258328,0.0030827497,0.0022521499,-0.007958215,0.50008607,-1.3775138,1.8991159,-2.0903523,-1.571011,2.4754167,-0.07451776,0.064193,-0.08595375,0.021256441,-0.0039609973,-0.06650888,-0.4213795,0.2681506,-9.519346,0.7978386,47.61613,-1.381273,-2.3501558,-3.2746937,-0.34483522,-0.04008898,-0.3404605,28.875,30.3125,29.3125,32.9375,35.4375,36.5
0.1280538,-1.1606169,-1.6244268,-1.967056,-0.037147027,0.10387498,-0.1464478,-0.39276496,-0.36753285,0.059908573,-3.0780573,0.6252424,-0.00047674577,-0.05749054,0.016903872,0.0012150065,0.0041114287,0.0009775924,-0.015401279,0.49995273,-1.3773445,1.898971,-2.0902808,-1.5710229,2.4752262,-0.07893803,0.067549326,-0.08762653,0.02118537,-0.004260887,-0.06348389,-0.36391866,0.1340753,-9.461885,0.7463667,47.66987,-1.2726865,-2.629397,-3.1893005,-0.33859664,-0.04975941,-0.41765845,28.875,30.3125,29.3125,32.9375,35.4375,36.5
0.13005228,-1.7025589,-1.546766,-1.8870567,-0.036230903,0.09634826,-0.14194787,-0.3928978,-0.36751387,0.05992203,-3.0780694,0.62533677,-0.00042064593,-0.05687849,0.016232297,0.0024986728,0.0034323859,0.002754903,-0.011402594,0.49979803,-1.3772013,1.8987678,-2.090268,-1.5710229,2.475129,-0.07705918,0.064964764,-0.08765681,0.02191452,-0.0045135384,-0.06560388,-0.53630114,0.11492168,-9.519346,0.842603,47.690468,-1.3174734,-2.354469,-3.3116202,-0.34735322,-0.03270479,-0.43479228,28.875,30.3125,29.3125,32.9375,35.4375,36.5
0.13205256,-1.4173056,-1.0439379,-1.793485,-0.031339306,0.12092625,-0.15051602,-0.39302224,-0.3674657,0.05991442,-3.0780168,0.6254215,-0.0004259661,-0.05814389,0.017315065,0.0015145268,0.0048700743,0.0013264505,-0.010814076,0.49961743,-1.3770442,1.8985881,-2.0902202,-1.5710477,2.475008,-0.07966325,0.0678367,-0.08890332,0.022230372,-0.005096683,-0.06879422,-0.63206923,0.15322891,-9.615114,0.7978386,47.65643,-1.3772199,-2.402596,-3.301241,-0.37087253,-0.036695234,-0.44878328,28.875,30.3125,29.3125,32.9375,35.4375,36.5
0.13405176,-2.117828,-0.72291476,-1.8374364,-0.016243191,0.113991655,-0.15669414,-0.39312991,-0.36744097,0.05989764,-3.0780196,0.62541974,-0.00048160192,-0.059323028,0.01767891,0.0018894776,0.004831171,0.0027468575,-0.0088158585,0.49946126,-1.3768759,1.8984212,-2.0901964,-1.5710233,2.4748504,-0.08093439,0.06813964,-0.090025924,0.021786788,-0.00575046,-0.07206154,-0.61291564,-0.019153614,-9.672575,0.83813137,47.698532,-1.352462,-2.3942182,-3.3258634,-0.37160045,-0.036744453,-0.44766724,28.875,30.3125,29.3125,32.9375,35.4375,36.5
0.13605213,-1.6081343,-0.87469006,-1.9238193,-0.00016057932,0.12683006,-0.15732382,-0.39325887,-0.3674303,0.059941262,-3.0780816,0.6253903,-0.0004084223,-0.060897786,0.01781979,0.0023649521,0.00500024,0.0050170603,-0.002981411,0.49931717,-1.3767796,1.8981942,-2.0901368,-1.5710119,2.4746802,-0.08182702,0.0690372,-0.091984436,0.020938193,-0.006991088,-0.078785464,-0.53630114,-0.05746084,-9.500193,0.85826975,47.664497,-1.328237,-2.383858,-3.3436627,-0.36352175,-0.023596626,-0.43721575,28.875,30.3125,29.3125,32.9375,35.4375,36.5
0.13805237,-1.0869117,-0.5788889,-1.7529951,-0.0038535125,0.13821934,-0.16432859,-0.39338115,-0.36736736,0.059935678,-3.078026,0.625435,-0.00034638698,-0.063067764,0.019802462,0.0022104545,0.0061836476,0.005827332,-0.0031078653,0.49913618,-1.3766592,1.8980616,-2.0901253,-1.5710725,2.4745343,-0.086247444,0.06994036,-0.0926161,0.02051944,-0.008422463,-0.08307606,-0.51714754,0.076614454,-9.404425,0.83589023,47.688675,-1.2110374,-2.3219929,-3.2468786,-0.35081172,-0.026652988,-0.3917035,28.875,30.3125,29.3125,32.9375,35.4375,36.5
0.14005257,-1.6501191,-0.68935627,-1.9340539,-0.0003168488,0.10947395,-0.14884394,-0.3934896,-0.36735517,0.05993649,-3.0780866,0.62530935,-0.0003717776,-0.063065045,0.018886007,0.0024141201,0.0060388558,0.0067089503,0.0033607297,0.4989931,-1.3765147,1.8978828,-2.090101,-1.5710362,2.4743052,-0.08449427,0.07065926,-0.09387253,0.020214958,-0.0087223295,-0.087790325,-0.57460845,-0.095768064,-9.500193,0.83365434,47.65912,-1.3443408,-2.3186705,-3.38018,-0.34417513,-0.010965643,-0.37830406,28.875,30.3125,29.3125,32.9375,35.4375,36.5
0.14205281,-1.4153129,-0.60653275,-1.7776076,-0.0028918062,0.10945653,-0.15579477,-0.39365354,-0.36728847,0.059939954,-3.0780275,0.62538826,-0.0003623412,-0.06592962,0.019402627,0.003219209,0.004970061,0.008846494,0.009202772,0.4987526,-1.3763341,1.897642,-2.090018,-1.5710729,2.4741216,-0.08790607,0.07220669,-0.097473264,0.01987158,-0.008821768,-0.097042084,-0.47884035,-0.095768064,-9.500193,0.7978386,47.667187,-1.5015268,-2.288591,-3.179155,-0.3436547,-0.002537196,-0.27510408,28.875,30.3125,29.3125,32.9375,35.4375,36.5
0.14405227,-0.9896254,-0.815239,-1.9464939,0.002039137,0.112529196,-0.15027861,-0.39376733,-0.36725864,0.05993039,-3.078031,0.62531245,-0.0002987459,-0.06716361,0.020702437,0.0032010323,0.0047410014,0.008722529,0.008007632,0.49861953,-1.3761898,1.897498,-2.0900419,-1.5711082,2.4739408,-0.09136606,0.07223344,-0.09746347,0.019827968,-0.008559714,-0.0993077,-0.3256114,-0.24899697,-9.576807,0.7463667,47.681515,-1.0729631,-2.3391137,-3.257256,-0.33125308,-0.0073327413,-0.24050152,28.875,30.3125,29.3125,32.9375,35.4375,36.5
0.14605284,-0.9787165,-0.1910994,-1.7706527,-0.013452046,0.0987057,-0.16455512,-0.3939105,-0.3672113,0.05993685,-3.078029,0.6252712,-0.00029033012,-0.06844755,0.020537034,0.0032866492,0.0035047622,0.00882463,0.010605936,0.49841547,-1.3760332,1.8972839,-2.0899818,-1.5711201,2.4737115,-0.09287844,0.07391597,-0.09961549,0.01960846,-0.007529466,-0.10341937,-0.61291564,-0.038307227,-9.423578,0.8247004,47.67166,-1.2459861,-2.3022418,-3.3018837,-0.33167773,0.010876529,-0.19932732,28.875,30.3125,29.3125,32.9375,35.4375,36.5
0.14805254,-1.300119,-1.0279249,-1.7390577,-0.0049857004,0.08810472,-0.13818285,-0.39405733,-0.36720482,0.05998019,-3.0781207,0.6252321,-0.0002265249,-0.06928145,0.021392167,0.002859461,0.0029333308,0.0075021246,0.009728802,0.4982469,-1.3759128,1.8970317,-2.089934,-1.5710839,2.473507,-0.095758446,0.07483845,-0.09977327,0.01973001,-0.0063868538,-0.105424955,-0.5554548,-0.076614454,-9.385271,0.8157518,47.687782,-1.1671748,-2.2581096,-3.3458622,-0.31527722,-0.016155617,-0.13696481,28.875,30.3125,29.3125,32.9375,35.4375,36.5
0.1500526,-0.5700748,-1.4212481,-1.7980412,-0.00028722867,0.11203861,-0.14680265,-0.39418986,-0.3671328,0.059957705,-3.0780492,0.625256,-0.00029114765,-0.0704066,0.021993399,0.002580588,0.003123177,0.00680982,0.0073627955,0.4980187,-1.3757321,1.8968519,-2.0898616,-1.5711077,2.4733028,-0.09786945,0.07650602,-0.10124369,0.020227391,-0.006231394,-0.105169035,-0.5746084,0.038307227,-9.423578,0.8157518,47.664497,-1.0746918,-2.3090224,-3.3345633,-0.3168744,-0.015027136,-0.12572184,28.875,30.3125,29.3125,32.9375,35.4375,36.5
0.15205194,-1.3138417,-0.4682081,-1.8091238,-0.017353747,0.100302316,-0.1566146,-0.3943321,-0.36708543,0.059970267,-3.0780501,0.6251808,-0.00020095051,-0.071848094,0.022980712,0.0024891922,0.0036087616,0.0069839545,0.0021891897,0.49783814,-1.3755995,1.8966607,-2.0898378,-1.5711559,2.4730754,-0.10050721,0.077633426,-0.102407806,0.02033987,-0.0067376005,-0.10263178,-0.4213795,0.076614454,-9.5385,0.784413,47.66091,-1.0058577,-2.2276573,-3.339226,-0.31277817,-0.02551089,-0.15855278,28.875,30.3125,29.3125,32.9375,35.4375,36.5
0.1540517,-1.0452387,-1.3722245,-1.7736254,-0.007828508,0.10774276,-0.14709575,-0.3944941,-0.3670614,0.059986413,-3.0781052,0.6251958,-0.0001552427,-0.073294215,0.023564884,0.002314324,0.0038344483,0.0069665047,-0.004535862,0.49763376,-1.3754307,1.8964208,-2.0898259,-1.5711316,2.4728734,-0.10266323,0.07945484,-0.10420757,0.020445116,-0.0069221007,-0.098061815,-0.40222588,0.1340753,-9.442732,0.8090337,47.716442,-0.9248819,-2.3140538,-3.4100852,-0.30717212,-0.012655726,-0.1646463,28.875,30.3125,29.3125,32.9375,35.4375,36.5
0.1560523,-1.1761957,-1.1224688,-1.6568565,-0.015800904,0.10144246,-0.15881318,-0.39462957,-0.36699784,0.059965797,-3.078067,0.62520903,-0.0001606701,-0.074280426,0.024281433,0.0022718543,0.004753903,0.0073173433,-0.010274804,0.49741787,-1.3752621,1.8962649,-2.0898135,-1.5711564,2.4726708,-0.10413325,0.08030924,-0.105198435,0.02071364,-0.007898424,-0.093790315,-0.49799395,0.19153613,-9.32781,0.7172743,47.694946,-0.86103904,-2.3104863,-3.3660164,-0.28643754,-0.013833821,-0.23205361,28.875,30.3125,29.3125,32.9375,35.4375,36.5
0.15805261,-1.3152014,-1.0924046,-1.690141,-0.015486879,0.11163982,-0.15124574,-0.39477283,-0.36694568,0.059969444,-3.0780222,0.6252582,-0.0001663152,-0.07505529,0.02486745,0.0022677842,0.0054153567,0.007373197,-0.013343342,0.49721372,-1.3750939,1.8960379,-2.08973,-1.5711807,2.4725032,-0.105415404,0.08098353,-0.10611704,0.021223634,-0.008507759,-0.09200212,-0.49799395,0.19153613,-9.32781,0.8806493,47.655537,-0.85636234,-2.2726178,-3.4179697,-0.29888678,-0.015143018,-0.28748566,28.875,30.3125,29.3125,32.9375,35.4375,36.5
0.16005245,-1.5181004,-0.74696875,-1.8755419,-0.025283156,0.10891027,-0.1547138,-0.39493632,-0.36688614,0.05998544,-3.0779872,0.62532717,-0.00011856124,-0.07565919,0.025438674,0.0012803253,0.006478749,0.0060630487,-0.01411633,0.49698582,-1.374937,1.895799,-2.089658,-1.5712165,2.472323,-0.10669729,0.08337021,-0.106677316,0.02105162,-0.008817932,-0.0925099,-0.38307226,0.1340753,-9.385271,0.86945957,47.72629,-0.8383342,-2.2270486,-3.4068508,-0.29296267,0.0027929344,-0.29799002,28.875,30.3125,29.3125,32.9375,35.4375,36.5
0.16205266,-0.98511076,-1.2694268,-1.5260433,-0.018796952,0.11891298,-0.13911569,-0.39507785,-0.36684224,0.059977517,-3.077973,0.6253612,-0.00013335496,-0.07738567,0.024591826,0.0024249505,0.0040331273,0.008265458,-0.013747598,0.49678218,-1.3747565,1.8955945,-2.0896223,-1.5712165,2.4721425,-0.10749711,0.084096834,-0.11005475,0.020594342,-0.0077273035,-0.093679085,-0.40222588,0.13407528,-9.308657,0.70608455,47.68062,-0.91612905,-2.3295345,-3.3222637,-0.2661231,-0.005601692,-0.31230223,28.875,30.3125,29.3125,32.9375,35.4375,36.5
0.16405183,-1.0021454,-1.7244668,-1.5436581,-0.008722356,0.10108798,-0.1392718,-0.3952472,-0.36679667,0.059991024,-3.0779896,0.6254399,-0.000104916675,-0.07683585,0.024641998,0.0022063209,0.003898708,0.0074819787,-0.0129188225,0.4965427,-1.3745885,1.895356,-2.0895865,-1.5712041,2.47195,-0.107341215,0.08370495,-0.10912357,0.020677123,-0.0072294734,-0.09435368,-0.34476504,0.15322891,-9.3661175,0.8112748,47.639416,-0.9173542,-2.2904224,-3.5225625,-0.26636446,-0.005642539,-0.34280753,28.875,30.3125,29.3125,32.9375,35.4375,36.5
0.16605219,0.29441607,-1.0831484,-1.4709325,-0.020700153,0.11417185,-0.15053089,-0.39542493,-0.36673066,0.059987757,-3.077951,0.6255281,-5.6681685e-05,-0.0777735,0.024062192,0.0009519207,0.004899907,0.005623397,-0.012864183,0.49629113,-1.3743944,1.8951277,-2.0895627,-1.5712398,2.4717586,-0.10718323,0.088911645,-0.11254381,0.020996708,-0.007229366,-0.09424831,-0.30645782,0.095768064,-9.251195,0.8403672,47.67614,-1.0091764,-2.3504953,-3.307612,-0.22796197,-0.005157323,-0.34380028,28.875,30.3125,29.3125,32.9375,35.4375,36.5
0.16805229,-0.44092742,-0.82148135,-1.4808937,-0.017210739,0.0696209,-0.15343587,-0.39558962,-0.36668944,0.060014408,-3.077967,0.62555003,3.891808e-05,-0.07964455,0.02536068,0.00228005,0.0035623496,0.0076616867,-0.0149630895,0.4960862,-1.3742512,1.8948888,-2.0895264,-1.5712641,2.4715655,-0.11116314,0.08695874,-0.11332142,0.021292489,-0.0070189196,-0.0961302,-0.21068975,0.19153613,-9.32781,0.8247004,47.668976,-0.9041662,-2.2284634,-3.4436467,-0.21871263,-0.0048956336,-0.37054777,28.875,30.3125,29.3125,32.9375,35.4375,36.5
0.17005226,-0.28901502,-0.8498047,-1.5001925,-0.020077612,0.06384528,-0.15862834,-0.39570457,-0.36664325,0.059979767,-3.0779424,0.6255225,-4.786197e-05,-0.07983104,0.023652751,0.002301637,0.0030810519,0.0079075275,-0.012462279,0.49589562,-1.374058,1.8947324,-2.089502,-1.5712517,2.471361,-0.10861647,0.08953136,-0.116475,0.021427073,-0.0067240545,-0.096082896,-0.13407528,0.13407528,-9.32781,0.88289046,47.71465,-1.1209514,-2.2760675,-3.3472142,-0.2091485,-0.001937859,-0.40852654,28.875,30.3125,29.3125,32.9375,35.4375,36.5
0.17205258,-0.06074805,-1.3540133,-1.6536223,-0.010018984,0.06091268,-0.14207695,-0.3958835,-0.3665969,0.059988223,-3.077935,0.6255961,-3.493229e-05,-0.08216162,0.025438536,0.002419176,0.0030160646,0.0075312387,-0.010252898,0.4956541,-1.3738533,1.8944563,-2.089442,-1.5712517,2.4711664,-0.113842785,0.0906574,-0.1183283,0.022448033,-0.0064907554,-0.10351835,0.0,0.13407528,-9.232041,0.7642693,47.690468,-0.824004,-2.3790188,-3.3016653,-0.17912811,0.009059784,-0.34721676,28.875,30.3125,29.3125,32.9375,35.4375,36.5
0.17405257,0.56003886,-1.1609143,-1.7348996,-0.014351368,0.07263921,-0.1449119,-0.39604092,-0.36653692,0.05999392,-3.0779028,0.62556636,1.141762e-05,-0.08165107,0.025201434,0.002152953,0.0039018954,0.006521879,-0.005528949,0.49543926,-1.373685,1.8942298,-2.0893824,-1.5712999,2.4709373,-0.11275125,0.09135438,-0.11881088,0.023535434,-0.006789497,-0.10715001,-0.019153614,0.22984336,-9.289502,0.784413,47.70211,-1.01312,-2.3069491,-3.3182113,-0.19450831,-0.0018980174,-0.35412294,28.875,30.3125,29.3125,32.9375,35.4375,36.5
0.17605199,-0.18457173,-1.8069714,-1.7230575,-0.026266657,0.05847961,-0.15744255,-0.39620382,-0.36649257,0.05999464,-3.0778975,0.62557983,3.4700293e-05,-0.08285293,0.025263289,0.00077712245,0.00525643,0.004113667,6.141878e-05,0.49522334,-1.3734908,1.893989,-2.0893457,-1.5713118,2.4707305,-0.1138774,0.09655078,-0.12205935,0.024343638,-0.0068433355,-0.113864504,0.0,0.19153613,-9.308657,0.8247004,47.675243,-1.0656891,-2.4780428,-3.196364,-0.17699854,0.002597095,-0.2847829,28.875,30.3125,29.3125,32.9375,35.4375,36.5
0.17805205,-0.19334923,-2.173384,-1.8702416,-0.03801478,0.06348926,-0.15066962,-0.39638743,-0.36644712,0.06001071,-3.0779064,0.62561643,3.396268e-05,-0.08299966,0.02524397,0.0019786786,0.0041855252,0.005906318,0.0061026006,0.4949719,-1.3732877,1.8936919,-2.0892618,-1.5712999,2.470501,-0.113980755,0.09416148,-0.12202873,0.024611935,-0.0067532235,-0.12000974,0.05746084,0.2681506,-9.32781,0.83365434,47.695843,-1.0703837,-2.3326678,-3.3976138,-0.18610278,-0.0012557559,-0.2011969,28.875,30.3125,29.3125,32.9375,35.4375,36.5
0.18005213,0.18447143,-1.6167076,-2.0592625,-0.049861144,0.070076406,-0.14851198,-0.39654014,-0.36639273,0.05999468,-3.077896,0.6254924,2.7009333e-05,-0.083751276,0.025137614,0.0005544554,0.0051101963,0.0037508153,0.010248502,0.49475625,-1.3730818,1.8934754,-2.0892255,-1.5713242,2.4702094,-0.11457186,0.09864478,-0.124127775,0.024555845,-0.0065529454,-0.12474548,0.05746084,0.34476504,-9.289502,0.8291774,47.704796,-0.982998,-2.3911138,-3.2083478,-0.16880472,0.0055285157,-0.12584656,28.875,30.3125,29.3125,32.9375,35.4375,36.5
0.18205228,-0.09328595,-1.2519165,-2.0259385,-0.05088706,0.0644048,-0.15370475,-0.39671314,-0.3663278,0.059982035,-3.07786,0.62558275,5.1504114e-05,-0.08567669,0.025489416,0.0021074705,0.0037697346,0.0068236925,0.01022801,0.49450418,-1.3728782,1.8932594,-2.089214,-1.5713481,2.4700184,-0.116691194,0.09750858,-0.12632287,0.024541402,-0.0068369526,-0.12684314,-0.019153614,0.3256114,-9.404425,0.78217715,47.67345,-1.1509769,-2.4382923,-3.311771,-0.15821974,-0.0060388306,-0.091940254,28.875,30.3125,29.3125,32.9375,35.4375,36.5
0.18405236,-0.19963583,-1.4584486,-1.8412701,-0.04939237,0.059284773,-0.15178639,-0.39687124,-0.36631382,0.060001474,-3.0779269,0.6253668,9.211293e-05,-0.08644579,0.0246994,0.0022151782,0.003712685,0.006968039,0.0079116635,0.4943366,-1.3726851,1.8929719,-2.089154,-1.5713481,2.4697077,-0.116011046,0.09976695,-0.12942779,0.025234751,-0.006853969,-0.123845376,-0.038307227,0.3256114,-9.308656,0.8112748,47.67166,-1.1315904,-2.4296987,-3.2251174,-0.11714422,0.0036531447,-0.09193522,28.875,30.3125,29.3125,32.9375,35.4375,36.5
0.18605606,-0.07882302,-1.4436007,-1.9781476,-0.031620633,0.05527923,-0.14555135,-0.3970695,-0.36625263,0.06002405,-3.0779057,0.6254981,0.00013022918,-0.087195486,0.025220858,0.001834857,0.004336162,0.0054385345,0.0026982592,0.4940606,-1.3724922,1.892672,-2.0890691,-1.57136,2.4695165,-0.117624715,0.10163774,-0.13114157,0.026718419,-0.006672353,-0.120245345,-0.076614454,0.24899697,-9.251195,0.81351066,47.66987,-1.1847368,-2.541038,-3.181058,-0.12463873,-0.0070696436,-0.13658974,28.875,30.3125,29.3125,32.9375,35.4375,36.5
0.18805209,0.27169758,-1.1102914,-1.8455317,-0.031854004,0.06756048,-0.1490175,-0.39724442,-0.36617514,0.059991643,-3.0778408,0.62546796,0.0001451999,-0.08831757,0.02574988,0.0017159936,0.0044835876,0.004541536,-0.00412646,0.49380848,-1.3722514,1.8924564,-2.0890572,-1.5714201,2.469254,-0.11966561,0.10330395,-0.13314767,0.02791155,-0.0063801277,-0.115460955,-0.019153614,0.30645782,-9.3661175,0.82694155,47.675243,-1.1307173,-2.4531708,-3.1616418,-0.12451143,-0.010518663,-0.18046463,28.875,30.3125,29.3125,32.9375,35.4375,36.5
0.19005232,0.009837837,-1.414298,-1.9660983,-0.026866715,0.072643146,-0.14558195,-0.3974264,-0.3661373,0.06000469,-3.0778673,0.6255524,0.00013409543,-0.088659115,0.026047487,0.0012060133,0.0049582906,0.0032533824,-0.008850699,0.49355662,-1.3720466,1.8921694,-2.0889971,-1.5713834,2.4690516,-0.1205422,0.104835615,-0.13398115,0.028577287,-0.006183444,-0.111613356,-0.095768064,0.2681506,-9.423578,0.8314132,47.709274,-1.1397618,-2.590518,-3.1499395,-0.11403091,-0.00087465066,-0.2360887,28.875,30.3125,29.3125,32.9375,35.4375,36.5
0.19205251,-0.49581376,-1.6923956,-2.0851212,-0.025308108,0.077171996,-0.14061053,-0.39757767,-0.36610654,0.060008686,-3.077896,0.6255014,0.000108350614,-0.08948088,0.026421696,0.0014700971,0.0048989113,0.0032348183,-0.012571145,0.49335268,-1.3718545,1.8919181,-2.088937,-1.5713595,2.4688122,-0.12190851,0.10530817,-0.13536717,0.029481774,-0.0061222212,-0.10925884,-0.19153613,0.30645782,-9.3661175,0.7866488,47.690468,-1.2053839,-2.4665723,-3.1478658,-0.11084019,-0.01020015,-0.30827647,28.875,30.3125,29.3125,32.9375,35.4375,36.5
0.19405207,-0.5520048,-1.7225317,-2.0192049,-0.02924656,0.0986623,-0.14473245,-0.39771938,-0.36603692,0.05997892,-3.0777948,0.6254998,3.764917e-05,-0.08985209,0.026842983,0.001475367,0.0049200202,0.0027060139,-0.015030142,0.49313676,-1.371626,1.891692,-2.0888412,-1.5714077,2.4686084,-0.12304876,0.105544135,-0.13584349,0.030191517,-0.005899768,-0.10793984,-0.3256114,0.2681506,-9.423578,0.84708,47.66987,-1.2566981,-2.5276122,-3.2250328,-0.100002185,-0.025681812,-0.33767152,28.875,30.3125,29.3125,32.9375,35.4375,36.5
0.19605218,-0.6154054,-1.218998,-1.9094682,-0.041292332,0.11565727,-0.14577998,-0.39791986,-0.36599535,0.06000029,-3.077821,0.6255627,0.000108217944,-0.09080425,0.027178487,0.001521695,0.0051966878,0.0025156906,-0.017101586,0.4928849,-1.3714215,1.8913916,-2.0888045,-1.5714077,2.4683926,-0.12432368,0.10678506,-0.13763839,0.031043822,-0.0060485993,-0.1071426,-0.34476504,0.24899697,-9.423578,0.8918391,47.667187,-1.1302727,-2.4769137,-3.111581,-0.090098545,-0.015169817,-0.39710695,28.875,30.3125,29.3125,32.9375,35.4375,36.5
0.19805227,-1.8733873,-1.712743,-2.0282223,-0.018214596,0.09351722,-0.13602881,-0.39810112,-0.3659271,0.05999302,-3.0777683,0.62561005,8.581176e-05,-0.09173482,0.027996352,0.0014073921,0.005095973,0.0016730155,-0.021039912,0.4926206,-1.3711929,1.891117,-2.0887206,-1.5714315,2.4681647,-0.12678447,0.107579015,-0.13852365,0.03182522,-0.0055647776,-0.10566545,-0.3256114,0.095768064,-9.519346,0.8314132,47.66091,-1.1144487,-2.4293475,-3.3905761,-0.09601733,-0.023613794,-0.44032395,28.875,30.3125,29.3125,32.9375,35.4375,36.5
0.20005223,-1.359671,-0.53448004,-1.6654989,-0.02650851,0.11284499,-0.15667206,-0.39829746,-0.36588216,0.06000198,-3.0777986,0.6257121,8.955346e-05,-0.09222881,0.028567865,0.0012971377,0.00497343,0.0012062175,-0.021220839,0.49234465,-1.3709767,1.8908309,-2.0886848,-1.5713953,2.4679487,-0.12833323,0.107858725,-0.13867974,0.03205531,-0.005233293,-0.10703408,-0.40222588,-0.076614454,-9.5385,0.90527004,47.683304,-1.0851077,-2.4362833,-3.2944822,-0.09340265,-0.053513862,-0.48621696,28.875,30.3125,29.3125,32.9375,35.4375,36.5
0.20205243,-0.8496687,-0.123755194,-1.7219527,-0.015465164,0.11626908,-0.15429094,-0.3984714,-0.36582208,0.05999227,-3.0777366,0.62575465,0.00010774455,-0.09405276,0.03009334,0.00089006766,0.005448809,0.0008457249,-0.02161955,0.49211594,-1.370748,1.8905672,-2.0886252,-1.5714434,2.4677546,-0.13233523,0.10945053,-0.13965474,0.031972915,-0.005489018,-0.11063616,-0.45968673,-0.1340753,-9.557653,0.8314132,47.661808,-1.0712128,-2.3413723,-3.328517,-0.06406411,-0.041599024,-0.50923413,28.875,30.3125,29.3125,32.9375,35.4375,36.5
0.20405242,-1.2795906,-0.056031555,-1.7572839,0.008415956,0.11366218,-0.15551394,-0.39866272,-0.36577487,0.06001242,-3.0777643,0.6257906,8.451692e-05,-0.09323956,0.028929299,0.0008223985,0.0060538966,0.0011725187,-0.0086003905,0.49184158,-1.3705434,1.8902558,-2.0885293,-1.5714082,2.4674993,-0.12915404,0.11012264,-0.14031848,0.031960517,-0.0061824676,-0.120472506,-0.49799395,-0.22984336,-9.557653,0.8605109,47.67614,-1.1456255,-2.5032296,-3.4312353,-0.05217559,-0.0604216,-0.4421983,28.875,30.3125,29.3125,32.9375,35.4375,36.5
0.20605247,-1.0445876,0.5331318,-1.8032014,0.013929996,0.115749985,-0.16671053,-0.39886907,-0.36573103,0.06001702,-3.0777931,0.6257557,0.00015242468,-0.09548263,0.029989712,0.0007459853,0.0063929735,0.0010792426,-0.0057144244,0.49158862,-1.3703024,1.8899554,-2.088517,-1.5714201,2.467221,-0.13273962,0.11252565,-0.14319295,0.03266781,-0.0064397412,-0.12694247,-0.38307226,-0.24899697,-9.404425,0.8784135,47.684196,-1.068457,-2.2813706,-3.4674175,-0.039748617,-0.06506678,-0.40059477,28.875,30.3125,29.3125,32.9375,35.4375,36.5
0.20805255,-0.43079475,0.7819961,-1.4362136,0.012297445,0.12950577,-0.16726975,-0.39906004,-0.36566448,0.060024645,-3.0777674,0.62578046,0.00019912707,-0.09352939,0.029821442,6.4384716e-05,0.0068057016,-0.0012424812,0.0058075106,0.49132606,-1.3700987,1.8896817,-2.0884569,-1.5714554,2.4669774,-0.13108556,0.11162828,-0.14074883,0.033346865,-0.005705012,-0.13681301,-0.51714754,-0.24899697,-9.404425,0.83365434,47.62688,-1.2580636,-2.4120436,-3.5675256,-0.020494428,-0.0883142,-0.30291805,28.875,30.3125,29.3125,32.9375,35.4375,36.5
0.21005183,-0.8542135,0.8123135,-1.3891473,0.014714394,0.12278156,-0.16224097,-0.39925435,-0.36560434,0.06002578,-3.0777445,0.62581265,0.00016771162,-0.09608097,0.030285304,0.0008411722,0.00605122,0.00025991214,0.008403761,0.4910495,-1.3698579,1.8893703,-2.088361,-1.5714554,2.466724,-0.13407041,0.11324544,-0.14458813,0.033883017,-0.0057625677,-0.14239223,-0.57460845,-0.30645782,-9.442732,0.88289046,47.698532,-1.1824666,-2.3707235,-3.4774604,-0.03414298,-0.062570944,-0.21147437,28.875,30.3125,29.3125,32.9375,35.4375,36.5
0.21205239,-0.9071402,0.29525548,-1.7552924,0.022289203,0.11921099,-0.15643995,-0.39944094,-0.3655483,0.06001791,-3.0777166,0.6257276,0.00017253179,-0.0975334,0.031186009,0.0015074797,0.0069489046,0.0010406082,0.0092062745,0.4908096,-1.3696055,1.8890709,-2.088288,-1.5714921,2.4664347,-0.13611259,0.113553755,-0.14688413,0.035600908,-0.006928978,-0.14523375,-0.4405331,-0.28730422,-9.3661175,0.8627467,47.704796,-1.2024755,-2.303115,-3.4476547,-0.026197014,-0.064497985,-0.19172506,28.875,30.3125,29.3125,32.9375,35.4375,36.5
0.21405286,-0.9531054,0.006596159,-1.7614032,0.018343085,0.11046738,-0.14950156,-0.39962158,-0.3654945,0.06002768,-3.0777512,0.6256555,0.00012004052,-0.09779894,0.031500097,0.0022186956,0.00811765,0.0010972414,0.008907555,0.4905342,-1.3694013,1.8887833,-2.0881917,-1.5714563,2.46611,-0.13616316,0.11317544,-0.14867507,0.03827831,-0.007986678,-0.14498305,-0.49799395,-0.2681506,-9.442732,0.8672237,47.68599,-1.1254184,-2.2312174,-3.386894,-0.04541987,-0.069766596,-0.15599802,28.875,30.3125,29.3125,32.9375,35.4375,36.5
0.21605219,-0.68756413,-0.29015547,-1.7005489,0.003403118,0.11589208,-0.14370193,-0.39983866,-0.3653953,0.06002023,-3.077666,0.62576103,0.00014795893,-0.09935177,0.03324301,0.0007051983,0.009819914,-0.0021125313,-0.0027421934,0.49020904,-1.3691597,1.8884958,-2.0881197,-1.5715164,2.4658618,-0.14042355,0.11712563,-0.15025702,0.039538,-0.007978524,-0.13759243,-0.7661445,-0.076614454,-9.500193,0.8537928,47.655537,-1.0313835,-2.4580154,-3.4062514,-0.043742247,-0.04430729,-0.223627,28.875,30.3125,29.3125,32.9375,35.4375,36.5
0.21805252,-1.3705486,-0.7961312,-1.8323723,-0.0061054453,0.104047984,-0.14450815,-0.40002152,-0.36531997,0.06000798,-3.0776374,0.6257942,7.556259e-05,-0.099499986,0.032806076,0.0014871135,0.008939409,-0.0011014717,-0.0064725224,0.48991022,-1.3689321,1.8882331,-2.0880358,-1.571504,2.4655874,-0.13994104,0.116317175,-0.15119408,0.039978746,-0.0076845684,-0.13337967,-0.7086837,-0.076614454,-9.576807,0.8806493,47.701214,-1.1069889,-2.193532,-3.4066906,-0.035129845,-0.060515657,-0.2546952,28.875,30.3125,29.3125,32.9375,35.4375,36.5
0.22005248,-1.062401,-0.75857216,-2.078707,-0.020486902,0.12081578,-0.14969398,-0.40022755,-0.36524126,0.060006157,-3.0775766,0.62578034,7.541099e-05,-0.09978588,0.033384472,0.0008112714,0.011216792,-0.0038201893,-0.008971473,0.48962262,-1.3686787,1.8879102,-2.0879266,-1.5715526,2.4652991,-0.14064929,0.118937895,-0.15353069,0.043160617,-0.008419113,-0.13158613,-0.5554548,0.0,-9.595961,0.88960326,47.71465,-1.1128111,-2.4448628,-3.485466,-0.08908307,-0.050320983,-0.31568667,28.875,30.3125,29.3125,32.9375,35.4375,36.5
0.22205263,-1.3744025,-1.0736972,-1.989462,-0.026502803,0.12196034,-0.1456642,-0.4004431,-0.36520556,0.060041703,-3.0776286,0.625849,0.00010805488,-0.100617126,0.034173697,0.0006944156,0.012531113,-0.0051147286,-0.011163183,0.48934665,-1.368462,1.8875517,-2.0878422,-1.5715169,2.4650595,-0.14231059,0.12043426,-0.15560287,0.04550182,-0.0089642955,-0.1310543,-0.45968673,0.1340753,-9.710882,0.84708,47.704796,-1.0637962,-2.3014257,-3.3972845,-0.11709468,-0.05873865,-0.3478318,28.875,30.3125,29.3125,32.9375,35.4375,36.5
0.22405203,-1.388863,-1.4764065,-2.0407786,-0.043747645,0.11706198,-0.14444114,-0.4006396,-0.36512032,0.06002745,-3.0775256,0.62592226,0.00011908421,-0.10128583,0.03397088,0.00073075143,0.012955161,-0.007089439,-0.011861267,0.4890711,-1.3682089,1.8872627,-2.0877569,-1.5715884,2.464843,-0.14284405,0.122865245,-0.1593488,0.048745643,-0.008420721,-0.13088888,-0.40222588,0.21068975,-9.595961,0.8806493,47.72002,-1.1718807,-2.1693866,-3.443548,-0.16996616,-0.050130785,-0.3691523,28.875,30.3125,29.3125,32.9375,35.4375,36.5
0.22605228,-0.5888362,-1.1898481,-2.017609,-0.05919244,0.12227366,-0.1566183,-0.4008482,-0.3650419,0.06001962,-3.077494,0.6258761,7.012392e-05,-0.10165799,0.034511574,-0.0003987879,0.013979252,-0.008675774,-0.0120711615,0.4887595,-1.3679439,1.8869399,-2.0876496,-1.5716003,2.4645069,-0.14390865,0.12523024,-0.15957592,0.04848507,-0.00859208,-0.13174239,-0.38307226,0.2681506,-9.5385,0.8784135,47.645687,-1.152613,-2.3345516,-3.2885168,-0.19272292,-0.050302684,-0.40583885,28.875,30.3125,29.3125,32.9375,35.4375,36.5
0.22805244,0.1703043,-0.9571509,-1.7620875,-0.06913536,0.118633665,-0.16727746,-0.40106335,-0.3649765,0.060035106,-3.077461,0.6259427,9.222927e-05,-0.10350257,0.034517,-0.00025090823,0.014043113,-0.0069310735,-0.008543766,0.48847157,-1.367703,1.8865927,-2.0875423,-1.5716246,2.4642649,-0.14495066,0.1274139,-0.16233245,0.047540873,-0.009482751,-0.13630848,-0.26815057,0.3256114,-9.461885,0.84484416,47.691364,-1.1972725,-2.321302,-3.1851587,-0.18311784,-0.034583982,-0.3912803,28.875,30.3125,29.3125,32.9375,35.4375,36.5
0.23005265,-0.119607426,-1.4734803,-1.7056438,-0.06917748,0.093572594,-0.16617866,-0.4012768,-0.36489615,0.06003681,-3.07742,0.62600535,9.781028e-05,-0.103759035,0.034643684,-0.00018275295,0.014681226,-0.008139047,-0.002036345,0.48816028,-1.3674623,1.8862823,-2.087458,-1.571649,2.463998,-0.14531524,0.12841092,-0.16421115,0.049776286,-0.009489302,-0.1431797,-0.1340753,0.34476504,-9.423578,0.8784135,47.750473,-1.2480142,-2.4182673,-3.274622,-0.22300576,-0.04213605,-0.34491745,28.875,30.3125,29.3125,32.9375,35.4375,36.5
0.23205195,0.0065839244,-1.706107,-1.8373024,-0.063571565,0.06765036,-0.15386361,-0.401487,-0.36484358,0.060038425,-3.0774395,0.62590903,9.603948e-05,-0.10504933,0.035251554,-0.00021950922,0.014500448,-0.008337866,0.0040887427,0.4878837,-1.3671975,1.8859462,-2.087386,-1.571649,2.463659,-0.14756534,0.12972954,-0.16581726,0.050143573,-0.009248762,-0.15155467,-0.15322891,0.38307226,-9.270349,0.8023209,47.71554,-1.1506966,-2.3077555,-3.1780252,-0.24531496,-0.031755447,-0.24777138,28.875,30.3125,29.3125,32.9375,35.4375,36.5
0.23405194,-0.393794,-1.4913012,-1.6641859,-0.05974973,0.047916867,-0.15282553,-0.40172625,-0.3647634,0.06007284,-3.0774052,0.62591594,0.00018095506,-0.10612528,0.03628647,-0.001346332,0.015443005,-0.009443697,0.009842377,0.48757195,-1.3669685,1.8855647,-2.0872548,-1.571709,2.4633563,-0.14998324,0.13227592,-0.16613817,0.04931799,-0.009572625,-0.1597252,-0.05746084,0.36391866,-9.232041,0.8627467,47.72002,-1.256333,-2.3830519,-3.2287312,-0.2630341,-0.028568294,-0.13702461,28.875,30.3125,29.3125,32.9375,35.4375,36.5
0.23605222,-0.5675451,-1.4516041,-1.7820036,-0.05025123,0.03637049,-0.1574997,-0.40195644,-0.36469626,0.06006196,-3.077397,0.6258727,0.00017545023,-0.10694649,0.03608404,-0.001378008,0.014486525,-0.009581667,0.012516093,0.48726037,-1.366668,1.8852166,-2.0871942,-1.5717205,2.463019,-0.15084878,0.13368079,-0.16775429,0.0491919,-0.008676006,-0.1632655,0.05746084,0.45968673,-9.212888,0.86945957,47.696735,-1.0501021,-2.3138542,-3.155328,-0.2728337,-0.027278647,-0.08215588,28.875,30.3125,29.3125,32.9375,35.4375,36.5
0.23805222,0.328606,-0.9700841,-1.6650825,-0.05788673,0.04748517,-0.15326102,-0.4021508,-0.36461368,0.060036853,-3.077343,0.6258656,6.997463e-05,-0.108350314,0.036939498,-0.0007950514,0.01337219,-0.008754621,0.0049746786,0.48694804,-1.3663915,1.884919,-2.087087,-1.5717205,2.4627092,-0.15382244,0.13324031,-0.16859254,0.049218155,-0.008095336,-0.15869813,0.11492168,0.36391866,-9.251195,0.8023209,47.677036,-1.029871,-2.4257784,-3.2858524,-0.28310558,-0.040389843,-0.087571025,28.875,30.3125,29.3125,32.9375,35.4375,36.5
0.24005225,0.12986013,-0.87314844,-1.4053292,-0.06921231,0.04683579,-0.15981883,-0.40238976,-0.3645695,0.06006892,-3.0773826,0.6258575,0.00013905011,-0.10852573,0.037161466,-0.002949262,0.015297177,-0.011451322,-0.0011992153,0.48666042,-1.3661376,1.8845237,-2.0870035,-1.5717205,2.4624116,-0.15399952,0.13787529,-0.16907482,0.048354782,-0.008529366,-0.15269992,0.0,0.30645782,-9.174581,0.86945957,47.71286,-0.9581191,-2.5450795,-3.3208585,-0.28703293,-0.023943614,-0.134731,28.875,30.3125,29.3125,32.9375,35.4375,36.5
0.24205267,0.11412949,-0.9271805,-1.1527272,-0.0623695,0.061104175,-0.15878494,-0.4026177,-0.36448458,0.060071543,-3.0773513,0.625873,0.00017297642,-0.110100515,0.037211448,-0.0011344015,0.013566872,-0.00787791,-0.010311105,0.48633656,-1.3658863,1.8842009,-2.0869315,-1.5717562,2.4621017,-0.15531404,0.13598457,-0.1709152,0.04811861,-0.008674652,-0.14490189,-0.038307227,0.34476504,-9.11712,0.8627467,47.695843,-0.9564063,-2.2774029,-3.34804,-0.29367355,-0.040106386,-0.21726874,28.875,30.3125,29.3125,32.9375,35.4375,36.5
0.24405171,0.1278044,-0.7698274,-1.2928386,-0.03092036,0.068287134,-0.15779895,-0.4028555,-0.36440924,0.060073044,-3.077314,0.6259214,0.00017937279,-0.110631295,0.03762137,-0.001702873,0.013411275,-0.009522795,-0.016459592,0.4860131,-1.3655974,1.8838304,-2.086836,-1.5717806,2.4618134,-0.15694287,0.13765399,-0.17178828,0.048699304,-0.0077723535,-0.14038362,0.076614454,0.19153614,-9.11712,0.84708,47.682407,-1.2144357,-2.4224052,-3.3194308,-0.313594,-0.061609637,-0.28290564,28.875,30.3125,29.3125,32.9375,35.4375,36.5
0.24605165,0.7556755,-0.22257692,-0.9440783,-0.016442155,0.08223652,-0.156923,-0.40305403,-0.3643472,0.060049668,-3.0772982,0.6259969,5.6149154e-05,-0.11162134,0.035949513,-0.0014550432,0.011124295,-0.007029705,-0.016624596,0.48570216,-1.3653084,1.883519,-2.0867531,-1.5717319,2.4615517,-0.15545815,0.13949609,-0.17391992,0.045719624,-0.0069371867,-0.13873407,0.076614454,0.1340753,-9.11712,0.8314132,47.686886,-1.1844424,-2.4589083,-3.3351188,-0.29347438,-0.06432098,-0.36681217,28.875,30.3125,29.3125,32.9375,35.4375,36.5
0.24805175,0.17202276,-0.115064904,-1.0306122,0.0016546516,0.066348344,-0.14778852,-0.40330452,-0.364265,0.06006188,-3.0772512,0.62610435,0.0001560055,-0.112920806,0.03652625,-0.002818895,0.011268054,-0.00813477,-0.023597803,0.48537827,-1.3650427,1.88316,-2.0866935,-1.571792,2.461301,-0.15772955,0.14305626,-0.17472868,0.04400591,-0.006550069,-0.13403244,-0.076614454,0.076614454,-8.887277,0.87393653,47.670765,-1.1598536,-2.485607,-3.2996612,-0.2730969,-0.071246214,-0.44473246,28.875,30.3125,29.3125,32.9375,35.4375,36.5
0.2500517,0.334883,0.2530661,-1.1691195,0.021834597,0.053608686,-0.14939314,-0.40351525,-0.36421207,0.06007092,-3.077245,0.6261027,0.00014185645,-0.11528321,0.036488768,-0.00038481923,0.008561871,-0.0026214088,-0.025568549,0.48510203,-1.3647797,1.8828005,-2.0865862,-1.571792,2.4610248,-0.1595672,0.14058334,-0.17702222,0.042632416,-0.006740013,-0.13389838,-0.038307227,0.0,-8.983045,0.89631605,47.704796,-1.1197094,-2.395685,-3.2275548,-0.25843796,-0.07485899,-0.5225105,28.875,30.3125,29.3125,32.9375,35.4375,36.5
0.25205192,0.8626745,0.47650388,-1.2375543,0.022251826,0.060661543,-0.15375073,-0.4037451,-0.3641352,0.060042445,-3.0771892,0.6262413,2.8656452e-05,-0.11729303,0.036929317,0.0010871916,0.007509979,-7.031417e-05,-0.022652315,0.4847541,-1.3644434,1.8824409,-2.0864904,-1.5717682,2.4607706,-0.16182584,0.13997445,-0.17983234,0.04330078,-0.0070189033,-0.13907132,0.038307227,-0.038307227,-9.155427,0.83365434,47.687782,-1.0349345,-2.3017304,-3.2201743,-0.24529892,-0.049226858,-0.5090011,28.875,30.3125,29.3125,32.9375,35.4375,36.5
0.2540522,0.24019042,0.011832833,-1.2917254,0.0068422356,0.06047501,-0.15157191,-0.4039784,-0.3640437,0.06005769,-3.077134,0.626281,8.575157e-05,-0.11860875,0.037162982,0.0013243571,0.0071307407,0.0006237775,-0.013469886,0.4844302,-1.3642031,1.8820943,-2.086383,-1.5718278,2.4604788,-0.16329429,0.14112157,-0.18176925,0.043277685,-0.0070209187,-0.14972137,-0.15322891,-0.05746084,-9.212888,0.87617236,47.69763,-0.996541,-2.1751406,-3.2306972,-0.24606963,-0.09919693,-0.46247047,28.875,30.3125,29.3125,32.9375,35.4375,36.5
0.2560521,0.32310563,-0.042239346,-1.350088,-0.020217888,0.10111213,-0.15602584,-0.40420035,-0.36395937,0.060043037,-3.0771058,0.626248,7.860714e-05,-0.12109503,0.036466982,0.0027993894,0.0056767347,0.0051662177,-0.0023709992,0.48410678,-1.3639265,1.8817829,-2.0863235,-1.5718521,2.4601386,-0.16371866,0.14195663,-0.18581702,0.041777715,-0.0078749275,-0.16124083,-0.36391866,-0.076614454,-9.212888,0.8627467,47.651955,-1.0363275,-2.1279821,-3.246686,-0.2393738,-0.081116766,-0.34527758,28.875,30.3125,29.3125,32.9375,35.4375,36.5
0.2580524,-1.2959889,-0.9601897,-1.7342983,-0.01139818,0.10729127,-0.15342169,-0.40439382,-0.3638958,0.060031645,-3.0770726,0.62623686,-7.853167e-05,-0.1207097,0.03769755,0.0014562977,0.007175708,0.0023193099,0.0050794454,0.4838066,-1.3636377,1.8814248,-2.0861552,-1.5718163,2.4598358,-0.1653438,0.14305948,-0.1842459,0.042315006,-0.007896974,-0.17031614,-0.38307226,0.05746084,-9.404425,0.90527004,47.651955,-1.0273392,-2.1608562,-3.2736444,-0.23337978,-0.07530118,-0.24338117,28.875,30.3125,29.3125,32.9375,35.4375,36.5
0.26005247,-1.4669387,-1.1369565,-1.7835581,-0.031994194,0.14773872,-0.15976046,-0.40466383,-0.3638371,0.060057987,-3.0771186,0.6261461,2.9886665e-05,-0.12107382,0.03777693,0.0010504116,0.0075209285,0.0006642698,0.008463438,0.4834836,-1.3633491,1.8810056,-2.0860956,-1.5718402,2.4594505,-0.1659827,0.14497024,-0.18597348,0.043745127,-0.007425563,-0.17433994,-0.51714754,0.11492168,-9.5385,0.90750587,47.728977,-1.2118324,-2.2478478,-3.3596487,-0.23691534,-0.08145902,-0.18419132,28.875,30.3125,29.3125,32.9375,35.4375,36.5
0.2620519,-1.2427157,-1.1168212,-1.9593518,-0.05903065,0.17859122,-0.1633086,-0.40489516,-0.36375076,0.060037665,-3.0770473,0.62616956,-3.8524e-05,-0.12097887,0.037157226,0.0006487009,0.007574878,-7.305873e-05,0.0066526304,0.48314872,-1.363024,1.8806351,-2.0859754,-1.571864,2.4591396,-0.16493995,0.1466409,-0.18714695,0.043921724,-0.007144235,-0.17148595,-0.7852981,0.19153613,-9.768343,0.8112748,47.71286,-1.1916187,-2.218196,-3.3651676,-0.2382663,-0.09101476,-0.1732252,28.875,30.3125,29.3125,32.9375,35.4375,36.5
0.26405215,-2.2046595,-1.6412257,-2.3698862,-0.05602052,0.16026771,-0.1553072,-0.4051154,-0.36367828,0.060031436,-3.0770338,0.6261307,-0.00011088525,-0.12216902,0.03737548,0.00057485764,0.00794719,0.0010468843,-0.00045068172,0.48282513,-1.362735,1.8802761,-2.0858567,-1.5718521,2.4587936,-0.16573912,0.14812915,-0.18861394,0.043091584,-0.00800233,-0.16517858,-0.8236054,0.24899697,-9.883265,0.8560339,47.70211,-1.2518032,-2.236187,-3.3486392,-0.23271883,-0.11406334,-0.23257005,28.875,30.3125,29.3125,32.9375,35.4375,36.5
0.2660523,-1.8423623,-1.357943,-2.4786503,-0.076138325,0.16633289,-0.17063645,-0.40537104,-0.36360687,0.06002985,-3.0769932,0.6261806,-8.0362195e-05,-0.12229413,0.037449528,-0.0012619399,0.009474522,-0.00089420786,-0.0052405456,0.48250178,-1.3624092,1.8798703,-2.0857732,-1.5718883,2.4585068,-0.16559574,0.15202765,-0.18889003,0.041896395,-0.008454543,-0.1602435,-0.7852981,0.24899697,-9.9790325,0.82694155,47.67345,-1.2929567,-2.4253027,-3.4337637,-0.21966445,-0.11132017,-0.29908967,28.875,30.3125,29.3125,32.9375,35.4375,36.5
0.2680524,-2.4484618,-1.2598598,-2.5843148,-0.08406828,0.13973717,-0.15678367,-0.4056053,-0.3635223,0.06001868,-3.076979,0.6261797,-0.000110199966,-0.12462055,0.03804498,-0.00035471236,0.0081303,0.002119869,-0.009558345,0.4821532,-1.3621212,1.8795341,-2.0857017,-1.5718883,2.4581597,-0.16841283,0.1521008,-0.19073562,0.040374916,-0.008672792,-0.15874135,-0.7852981,0.24899697,-9.9790325,0.86945957,47.693153,-1.1825659,-2.314871,-3.4287953,-0.19122908,-0.118186966,-0.34996232,28.875,30.3125,29.3125,32.9375,35.4375,36.5
0.27005255,-1.8961221,-1.3269928,-2.431486,-0.07124121,0.13935478,-0.16910979,-0.40586758,-0.36345705,0.060007453,-3.0769725,0.626254,-0.00012607692,-0.12564813,0.03946856,-0.0013816258,0.00883308,0.0006749297,-0.012254509,0.48180518,-1.3617725,1.8791279,-2.085642,-1.5718764,2.457859,-0.17162043,0.15394557,-0.19057491,0.03997396,-0.008628144,-0.15925273,-0.6703765,0.17238252,-10.01734,0.9298854,47.704796,-1.2349749,-2.4140043,-3.5732903,-0.16242895,-0.12152548,-0.39132074,28.875,30.3125,29.3125,32.9375,35.4375,36.5
0.27205178,-1.7889718,-1.4952067,-2.5150816,-0.050348658,0.113545485,-0.1616474,-0.4061364,-0.36337212,0.060042232,-3.0769646,0.62626946,4.2861247e-05,-0.12602323,0.03851154,-0.0017409127,0.009709722,0.00036310247,-0.010674849,0.4814705,-1.3615309,1.8787454,-2.085582,-1.5719489,2.4575353,-0.16985722,0.15700878,-0.19361213,0.04061866,-0.0092539815,-0.15906689,-0.61291564,0.15322891,-9.9790325,0.8247004,47.694946,-1.3228729,-2.498484,-3.4469888,-0.15527976,-0.11703356,-0.40560976,28.875,30.3125,29.3125,32.9375,35.4375,36.5
0.27405187,-0.9049817,-1.0497884,-2.1403828,-0.041138146,0.11788294,-0.15485491,-0.40638474,-0.3633095,0.060038086,-3.0769653,0.6261879,1.0335338e-05,-0.1269508,0.038444754,-0.0017296632,0.009777718,0.000793217,-0.004127187,0.48114693,-1.3611941,1.8783263,-2.0854743,-1.5719489,2.457161,-0.17028822,0.15854453,-0.19553554,0.040646337,-0.009529698,-0.16604382,-0.5554548,0.19153613,-9.883265,0.95226496,47.68599,-1.3542895,-2.571928,-3.5495186,-0.13880521,-0.12120713,-0.36168605,28.875,30.3125,29.3125,32.9375,35.4375,36.5
0.27605203,-0.19200489,-0.34481928,-2.051547,-0.039809313,0.13043797,-0.17015508,-0.40663958,-0.36323553,0.06004643,-3.0769799,0.6261849,3.416445e-05,-0.12666684,0.03901599,-0.0038457774,0.0117555875,-0.0029688287,0.004607363,0.48079884,-1.3609049,1.8779439,-2.0854018,-1.5719489,2.4568093,-0.17087662,0.16234347,-0.1954002,0.040948052,-0.0095492285,-0.17536649,-0.40222588,0.11492168,-9.749189,0.8918391,47.66987,-1.3971779,-2.4716363,-3.5506659,-0.12421126,-0.110975474,-0.27865338,28.875,30.3125,29.3125,32.9375,35.4375,36.5
0.27805206,0.022805925,-0.43591738,-1.9400797,-0.025213165,0.11843682,-0.15511632,-0.4069219,-0.3631246,0.06003829,-3.0769134,0.6262813,9.2356386e-05,-0.12913385,0.039482415,-0.000831273,0.009173398,0.0021530176,0.011255503,0.4804018,-1.3605822,1.8775615,-2.0853422,-1.572009,2.4564812,-0.17364532,0.15886143,-0.19823973,0.041508574,-0.009643378,-0.18478279,-0.17238253,0.05746084,-9.615114,0.8873621,47.66271,-1.4493961,-2.4603813,-3.5585713,-0.10582015,-0.11357168,-0.16441414,28.875,30.3125,29.3125,32.9375,35.4375,36.5
0.2800524,-0.16839285,-0.56209344,-1.7997195,-0.015914673,0.08338379,-0.15799363,-0.40720204,-0.3630588,0.06005001,-3.076945,0.6263059,0.0001890582,-0.13099499,0.040097475,-0.0008122913,0.0087691825,0.0022074613,0.012317044,0.480053,-1.3602698,1.8771542,-2.0853183,-1.5720209,2.4561439,-0.1763954,0.16089898,-0.20084938,0.04183434,-0.009306029,-0.18859474,-0.019153614,-0.019153614,-9.595961,0.9858343,47.691364,-1.286869,-2.5241404,-3.6069736,-0.0903558,-0.122273445,-0.07666349,28.875,30.3125,29.3125,32.9375,35.4375,36.5
0.28205186,0.09885245,-0.4325377,-1.3538023,-0.015682103,0.059199415,-0.14832257,-0.40744203,-0.3629789,0.060018964,-3.076906,0.62622446,0.00011042567,-0.1327731,0.041552767,-0.0014497159,0.00982454,0.001026853,0.0060785515,0.4797159,-1.3599093,1.8767699,-2.0852215,-1.5720328,2.4557612,-0.18003671,0.16350733,-0.20278342,0.042694215,-0.009711595,-0.18599497,-0.076614454,0.076614454,-9.404425,0.9321212,47.67614,-1.1575749,-2.49713,-3.466129,-0.045960158,-0.12016091,-0.07655373,28.875,30.3125,29.3125,32.9375,35.4375,36.5
0.28405198,0.8683629,-0.13025783,-1.3032233,-0.01486582,0.057434462,-0.15970899,-0.40773857,-0.36290532,0.060047336,-3.0769107,0.62628776,0.00023292561,-0.1350019,0.04181792,-0.00012127358,0.009496283,0.0037131526,-0.0016455741,0.4793554,-1.3595973,1.8763145,-2.08515,-1.5720695,2.4554398,-0.18172927,0.16399308,-0.20661065,0.04350225,-0.010648366,-0.17996058,-0.22984336,0.05746084,-9.289502,0.8493211,47.67614,-1.2369468,-2.528212,-3.3330147,-0.019844318,-0.11237928,-0.13167723,28.875,30.3125,29.3125,32.9375,35.4375,36.5
0.28605208,0.47252685,-0.51721317,-1.6848844,0.013447047,0.033808395,-0.14709458,-0.4080114,-0.36282006,0.06008123,-3.0769198,0.6262551,0.00032289652,-0.13563336,0.04106888,0.0011907372,0.007991103,0.0054503973,-0.010571255,0.47899547,-1.3593338,1.8758963,-2.0850418,-1.5721048,2.4550586,-0.1812417,0.16326775,-0.20894158,0.044323996,-0.010100589,-0.1705485,-0.1340753,0.095768064,-9.251195,0.8717007,47.687782,-1.1945455,-2.3656344,-3.2516317,0.002347887,-0.099266976,-0.23495296,28.875,30.3125,29.3125,32.9375,35.4375,36.5
0.28805217,0.0041252826,-0.26085997,-1.6062616,-0.0012284848,0.03678564,-0.15826355,-0.40827653,-0.36273158,0.060057636,-3.0768728,0.62632585,0.00028847295,-0.13650803,0.042082872,0.0011262479,0.008798879,0.0045446563,-0.017396642,0.47862276,-1.3589739,1.875501,-2.0849698,-1.5721167,2.4547362,-0.1833983,0.16413037,-0.21025404,0.045951862,-0.010401253,-0.16587825,-0.13407528,0.076614454,-9.289502,0.83589023,47.672558,-1.1529673,-2.317907,-3.2561007,-0.0025338968,-0.13985905,-0.29496947,28.875,30.3125,29.3125,32.9375,35.4375,36.5
0.2900523,-0.5599502,-0.6524245,-1.4097104,-0.020803438,0.049988903,-0.15415157,-0.40854296,-0.36265525,0.060061667,-3.0768578,0.6264016,0.00028658877,-0.13686328,0.04243381,0.0017144006,0.008634057,0.0037762667,-0.02321185,0.47826222,-1.3586503,1.875081,-2.084873,-1.5721167,2.454425,-0.18448319,0.1638477,-0.21186201,0.048450008,-0.009894879,-0.16114883,-0.24899697,0.1340753,-9.193734,0.95002913,47.7254,-1.1016937,-2.218597,-3.2281208,-0.003352302,-0.110198885,-0.40502262,28.875,30.3125,29.3125,32.9375,35.4375,36.5
0.29205257,-0.3460618,-0.72396827,-1.3517458,-0.033641674,0.07993185,-0.16499922,-0.4088326,-0.3625693,0.060093977,-3.0768528,0.6264992,0.0003114985,-0.13812947,0.042653397,0.002180625,0.008001857,0.0023902862,-0.026061004,0.4778653,-1.3583496,1.8746132,-2.084728,-1.5721163,2.4540899,-0.18655714,0.16549549,-0.21563777,0.051511057,-0.008693233,-0.16037531,-0.2681506,0.095768064,-9.2703495,0.86498255,47.687782,-0.9487314,-2.385829,-3.204794,-0.023442276,-0.14609608,-0.473269,28.875,30.3125,29.3125,32.9375,35.4375,36.5
0.2940522,-0.8344492,-1.1632175,-1.3982847,-0.037557516,0.09701676,-0.16039275,-0.4090879,-0.36246058,0.060073566,-3.0767536,0.6265139,0.0003054323,-0.137857,0.04406188,0.0011941752,0.009694443,-0.0012439785,-0.023049138,0.47750482,-1.3580137,1.8742312,-2.0846198,-1.5721883,2.4537516,-0.18865873,0.16654807,-0.2153011,0.05410502,-0.008534663,-0.16548885,-0.2681506,0.15322891,-9.289502,0.9164598,47.703903,-0.98072916,-2.2356553,-3.3382726,-0.03528981,-0.15756565,-0.4702521,28.875,30.3125,29.3125,32.9375,35.4375,36.5
0.29605213,-0.5162965,-0.9582424,-1.2890735,-0.047794186,0.1298498,-0.16762343,-0.40933824,-0.36238867,0.06008236,-3.0767667,0.6265484,0.00025361526,-0.1379764,0.044753723,0.0017781492,0.010373794,-0.0017241291,-0.012874287,0.47714484,-1.3577147,1.873824,-2.0844991,-1.572153,2.4534116,-0.18955949,0.16560632,-0.21609312,0.05656621,-0.008927989,-0.17656353,-0.21068975,0.15322891,-9.251195,0.88289046,47.661808,-1.1206392,-2.0836778,-3.2612574,-0.052204493,-0.14622487,-0.39382643,28.875,30.3125,29.3125,32.9375,35.4375,36.5
0.29805207,-0.44274896,-1.0843004,-1.4199963,-0.031300034,0.124636605,-0.16010422,-0.40962988,-0.36230186,0.060092106,-3.0767353,0.62661135,0.00027495428,-0.13915503,0.045209594,0.0023400122,0.010922153,-0.0019491742,-0.0016030387,0.47676036,-1.3573666,1.8733557,-2.0843785,-1.5721768,2.4530706,-0.19096947,0.16663575,-0.21923107,0.05910231,-0.009327124,-0.1892428,-0.24899697,0.17238253,-9.346964,0.86945957,47.691364,-1.029934,-2.0640445,-3.3626914,-0.07754525,-0.14721793,-0.2670339,28.875,30.3125,29.3125,32.9375,35.4375,36.5
0.30005193,-0.3061753,-0.6771656,-1.126524,-0.018027863,0.1102929,-0.1642121,-0.4099475,-0.36220858,0.06011659,-3.0767426,0.6265309,0.0004037113,-0.13911986,0.045066163,0.0022657134,0.010922414,-0.0035762996,0.0049639246,0.47636464,-1.3570305,1.8728765,-2.084294,-1.5722364,2.452624,-0.19101427,0.1676898,-0.22082359,0.06105965,-0.008577412,-0.19585638,-0.30645782,0.05746084,-9.308656,0.98135734,47.690468,-1.0541878,-1.981632,-3.327689,-0.103064805,-0.15912011,-0.17972033,28.875,30.3125,29.3125,32.9375,35.4375,36.5
0.30205196,-0.5767765,0.050321795,-1.2087619,-0.0021020572,0.08701328,-0.16730082,-0.41019082,-0.36210683,0.06008216,-3.0766842,0.6265966,0.00025692835,-0.13759084,0.045475166,-0.00073244056,0.0145819625,-0.009004686,0.0059808176,0.47596887,-1.3566812,1.872507,-2.084174,-1.572213,2.452277,-0.18977773,0.17217976,-0.21967466,0.061927296,-0.00936099,-0.19563383,-0.47884035,0.038307227,-9.232041,0.85826975,47.741516,-1.1909196,-2.0814986,-3.377625,-0.1379293,-0.15548462,-0.14373732,28.875,30.3125,29.3125,32.9375,35.4375,36.5
0.30405244,-0.38265494,0.3655005,-1.3724078,0.00852362,0.08626989,-0.16019979,-0.4104886,-0.3620274,0.060115628,-3.0767033,0.62660325,0.0003232069,-0.1363942,0.04565981,-0.0015981273,0.016857017,-0.013349736,0.00082507904,0.475585,-1.3563691,1.8720278,-2.0840528,-1.572225,2.451895,-0.18890452,0.17391847,-0.22082675,0.06624859,-0.009377613,-0.18960491,-0.47884035,-0.038307227,-9.308656,0.8179876,47.68599,-1.2835758,-2.0861948,-3.482858,-0.17080611,-0.17207998,-0.18525651,28.875,30.3125,29.3125,32.9375,35.4375,36.5
0.30605236,-0.46209753,0.56404877,-1.3162953,0.016066577,0.07999454,-0.16233405,-0.4107319,-0.36195445,0.060098294,-3.076685,0.62660253,0.0002229062,-0.138278,0.045487784,-0.0009968515,0.015613985,-0.011833881,-0.0071914196,0.47523695,-1.3560209,1.8716205,-2.083933,-1.5722002,2.451549,-0.19037369,0.17548785,-0.22409046,0.06603609,-0.008985481,-0.18305667,-0.34476507,0.038307227,-9.308656,0.94331104,47.687782,-1.5259185,-2.1065607,-3.352142,-0.19272576,-0.17596006,-0.27269563,28.875,30.3125,29.3125,32.9375,35.4375,36.5
0.30805236,-0.6031302,-0.03268752,-1.4062335,0.0107815685,0.07864132,-0.17025073,-0.41105926,-0.3618349,0.060102805,-3.076599,0.62665856,0.00028759334,-0.13784994,0.045679927,-0.0022573653,0.01717628,-0.014810791,-0.010127042,0.4748049,-1.3556362,1.871117,-2.083801,-1.5722841,2.4511633,-0.19015919,0.17809169,-0.22474357,0.06743329,-0.009019054,-0.17990592,-0.2681506,0.0,-9.346964,0.9164598,47.689575,-1.4942858,-2.301186,-3.459744,-0.2135487,-0.20668724,-0.33041972,28.875,30.3125,29.3125,32.9375,35.4375,36.5
0.3100534,-0.3846478,-0.51148766,-1.3337731,-0.0173435,0.08084832,-0.15853052,-0.4113098,-0.3617424,0.06009722,-3.076517,0.6266852,0.00023080745,-0.13863151,0.047661707,-0.002878325,0.020073997,-0.018193305,-0.013681494,0.47445592,-1.3552998,1.8706859,-2.0836318,-1.5723208,2.4508417,-0.19339526,0.18002112,-0.22669236,0.071780264,-0.010065874,-0.17958356,-0.3256114,0.0,-9.32781,0.947788,47.70838,-1.3680034,-2.278408,-3.4658027,-0.2596808,-0.19833311,-0.36532632,28.875,30.3125,29.3125,32.9375,35.4375,36.5
0.31205216,0.14691144,-0.89234287,-1.3340734,-0.034608826,0.09543807,-0.16466334,-0.41156736,-0.36165273,0.060093105,-3.0764918,0.62662166,0.00015487269,-0.13994321,0.047717586,-0.002512672,0.019535368,-0.017634481,-0.013104133,0.47408345,-1.3549637,1.8702549,-2.0834763,-1.5723208,2.450433,-0.19462042,0.1813118,-0.22924958,0.0722967,-0.009868539,-0.18138504,-0.17238252,0.05746084,-9.232041,0.83365434,47.66808,-1.2847269,-2.4157782,-3.49412,-0.32624602,-0.18667242,-0.4095859,28.875,30.3125,29.3125,32.9375,35.4375,36.5
0.31405252,-0.50458497,-1.2337818,-1.2218921,-0.04491556,0.074065894,-0.16932207,-0.41187304,-0.3615612,0.06009727,-3.0764549,0.6266858,0.00013835005,-0.14200696,0.048298676,-0.0019715505,0.0191757,-0.014778098,-0.005946307,0.47367442,-1.3545799,1.8697504,-2.0833333,-1.5723337,2.450069,-0.1966085,0.18196438,-0.23094833,0.07062016,-0.010883781,-0.19052744,-0.076614454,0.095768064,-9.232041,0.8784135,47.67614,-1.2003402,-2.2391138,-3.3982797,-0.3179785,-0.1921305,-0.32374918,28.875,30.3125,29.3125,32.9375,35.4375,36.5
0.31605193,0.3774501,-0.6059802,-1.1609565,-0.062858544,0.091694824,-0.17279668,-0.41215456,-0.3614476,0.060104724,-3.0764003,0.6266107,0.00015062238,-0.14342497,0.048743945,-0.0012304917,0.018719813,-0.01220244,0.0035516685,0.47327814,-1.3542562,1.8693079,-2.0831783,-1.5723933,2.4496331,-0.19795312,0.18158093,-0.23196325,0.069488004,-0.01168538,-0.20136732,-0.095768064,0.17238252,-9.097966,0.90750587,47.64658,-1.1750603,-2.3876622,-3.3654594,-0.3382865,-0.1620511,-0.20720795,28.875,30.3125,29.3125,32.9375,35.4375,36.5
0.31805202,-0.45730373,-1.1818066,-1.2270402,-0.047738764,0.07258889,-0.17471771,-0.41242802,-0.36136013,0.060092844,-3.0763905,0.62656295,5.0190767e-05,-0.1448863,0.048817635,-0.0014114507,0.016944427,-0.0113941375,0.0076859714,0.47288185,-1.3538841,1.8688534,-2.0830348,-1.5723695,2.4492085,-0.19991732,0.18314044,-0.233042,0.06746536,-0.010507757,-0.20746775,-0.095768064,0.28730422,-9.232041,0.9254084,47.668976,-1.2272687,-2.275051,-3.4982722,-0.351826,-0.19747403,-0.10862407,28.875,30.3125,29.3125,32.9375,35.4375,36.5
0.32005212,-0.23859893,-1.1162817,-1.0905304,-0.05646526,0.085361265,-0.17707506,-0.41272616,-0.36126584,0.06010341,-3.0763607,0.6264872,8.1352315e-05,-0.14809492,0.048878577,-0.00071304984,0.014714629,-0.0069971546,0.0035325985,0.47249708,-1.353524,1.8683628,-2.0828927,-1.5724176,2.4487805,-0.20261228,0.18482457,-0.2358618,0.0636599,-0.010545934,-0.20600784,-0.15322891,0.22984336,-9.11712,0.9612189,47.71017,-1.1252164,-2.2093747,-3.3826108,-0.30677956,-0.19364388,-0.05131755,28.875,30.3125,29.3125,32.9375,35.4375,36.5
0.3220525,-0.19055536,-1.5395197,-1.5239421,-0.045483224,0.08550889,-0.16906789,-0.41302606,-0.36116573,0.060077872,-3.0763266,0.6265626,9.23912e-06,-0.15041752,0.04876149,-0.00011181436,0.01244662,-0.0043002376,-0.0062174583,0.4720642,-1.3531158,1.8679065,-2.0827978,-1.5724047,2.4483993,-0.20473301,0.1861457,-0.23839395,0.06144589,-0.009768363,-0.19837914,-0.34476504,0.22984336,-9.212888,0.83365434,47.668976,-1.0377486,-2.166743,-3.366795,-0.29768458,-0.19029552,-0.12904438,28.875,30.3125,29.3125,32.9375,35.4375,36.5
0.3240526,-0.7296446,-1.514178,-1.4229425,-0.057853036,0.09796128,-0.16159597,-0.4133081,-0.36107156,0.060089372,-3.076289,0.62657875,1.5988493e-06,-0.15256172,0.048970636,0.0008736995,0.010631169,-0.0014552133,-0.017073765,0.4716795,-1.3527797,1.8674396,-2.0826428,-1.5724291,2.4480298,-0.2069743,0.18635248,-0.24064028,0.06013121,-0.009448859,-0.18976404,-0.45968673,0.22984336,-9.289502,0.88960326,47.69763,-1.014955,-2.129308,-3.2505116,-0.30187026,-0.21814904,-0.26343518,28.875,30.3125,29.3125,32.9375,35.4375,36.5
0.3260517,-0.90172064,-0.9576431,-1.4005225,-0.0642875,0.11142426,-0.17178679,-0.41363195,-0.36096904,0.060098644,-3.0762606,0.6266143,7.7258635e-05,-0.15434128,0.048647147,0.0012656428,0.0084976405,0.0026154045,-0.024905512,0.47125956,-1.3524078,1.866948,-2.0825484,-1.5724767,2.447636,-0.20782812,0.18679471,-0.24109367,0.055546034,-0.009396412,-0.18278621,-0.6895301,0.22984336,-9.385271,0.92093146,47.703903,-1.0436234,-2.2750783,-3.3435867,-0.23411089,-0.21590823,-0.32834095,28.875,30.3125,29.3125,32.9375,35.4375,36.5
0.3280521,-1.4092853,-1.5780895,-1.4473015,-0.046469565,0.12627722,-0.1676982,-0.41393822,-0.36088505,0.060104728,-3.0762706,0.6267526,2.733165e-05,-0.15513578,0.04783165,0.00082524505,0.0083748745,0.0036037243,-0.02832577,0.4708279,-1.3520355,1.8664573,-2.0824292,-1.5724291,2.4472895,-0.20677668,0.18948866,-0.24303606,0.05387183,-0.009738555,-0.17831251,-0.68953013,0.21068975,-9.595961,0.91421866,47.68599,-1.1040323,-2.1939764,-3.4447174,-0.20390081,-0.22602992,-0.44004118,28.875,30.3125,29.3125,32.9375,35.4375,36.5
0.3300524,-1.4705387,-1.1431795,-1.3511891,-0.05863236,0.15464313,-0.17348444,-0.41423202,-0.3607986,0.060090736,-3.0762305,0.6267998,-3.4620687e-05,-0.15448722,0.047232978,-3.4212517e-05,0.008892223,0.00084383454,-0.025474511,0.47043213,-1.3516272,1.8659657,-2.082297,-1.5724291,2.4469285,-0.20554642,0.1918453,-0.24438514,0.05554981,-0.008958902,-0.17993467,-0.59376204,0.19153613,-9.5385,0.9679317,47.711964,-1.2167499,-2.1658432,-3.3976817,-0.2085334,-0.24504595,-0.49403498,28.875,30.3125,29.3125,32.9375,35.4375,36.5
0.33205166,-1.2989497,-0.8520891,-1.2297364,-0.043029718,0.165064,-0.17220576,-0.41454753,-0.36069855,0.060113125,-3.076206,0.62680584,3.7107475e-05,-0.15467054,0.04724686,-0.0010018579,0.00986101,0.00050341943,-0.014131999,0.4700244,-1.3512788,1.8654641,-2.082166,-1.5724767,2.446528,-0.20512785,0.19397286,-0.24453673,0.054288175,-0.009683713,-0.1908565,-0.5554548,0.038307227,-9.461885,0.842603,47.655537,-1.3434336,-2.2442806,-3.5266979,-0.19494468,-0.24037074,-0.42246398,28.875,30.3125,29.3125,32.9375,35.4375,36.5
0.33405173,-1.15109,-0.45444587,-1.5339923,-0.026678503,0.15690199,-0.17699498,-0.41483176,-0.3605991,0.060062576,-3.0761578,0.62675107,-8.106925e-05,-0.15832315,0.046923652,0.00026151058,0.006798998,0.005712216,-0.0030310885,0.46961564,-1.3508345,1.8650202,-2.082072,-1.5724767,2.4460914,-0.20774707,0.1955707,-0.24861167,0.050706357,-0.009367065,-0.20457509,-0.34476504,0.17238252,-9.481039,0.9298854,47.694946,-1.3787116,-2.3092887,-3.5046036,-0.122015655,-0.26222527,-0.31646132,28.875,30.3125,29.3125,32.9375,35.4375,36.5
0.3360517,-0.79025674,-0.18593545,-1.4700365,-0.027145883,0.13820937,-0.17281444,-0.41516224,-0.36051434,0.060080525,-3.0761652,0.62676644,-3.094986e-06,-0.1587032,0.047840625,-0.00045816027,0.007966627,0.0036777463,0.0049070264,0.4692071,-1.3504508,1.8644933,-2.0819747,-1.5725011,2.4456918,-0.2093576,0.19723628,-0.24938168,0.05212886,-0.009489917,-0.21412353,-0.3256114,0.15322891,-9.423578,0.9455522,47.670765,-1.449115,-2.0863602,-3.4849632,-0.10109915,-0.27081025,-0.17813163,28.875,30.3125,29.3125,32.9375,35.4375,36.5
0.33805224,0.04313489,-0.71866417,-1.5182419,-0.020332294,0.11713867,-0.16512947,-0.41547322,-0.36041284,0.060073428,-3.0761511,0.62674356,1.838056e-05,-0.15831079,0.048055604,-0.0005356249,0.009379788,0.003556443,0.0065840483,0.46878755,-1.3500669,1.864026,-2.0818913,-1.5725254,2.44526,-0.20848763,0.19713296,-0.24932578,0.0529173,-0.010695122,-0.21492738,-0.34476504,0.11492168,-9.442732,0.9567419,47.65912,-1.4499493,-2.1386104,-3.5503173,-0.10468557,-0.25283688,-0.14409837,28.875,30.3125,29.3125,32.9375,35.4375,36.5
0.34005246,-0.5590562,-0.8026111,-1.5281641,-0.018668052,0.06869932,-0.15899344,-0.415821,-0.3603308,0.060083214,-3.0761862,0.62679404,0.00010366683,-0.16004214,0.04856864,-0.0003415643,0.01013539,0.004787313,-0.0019014515,0.46835503,-1.3496586,1.8634986,-2.0818431,-1.5725259,2.4448547,-0.20989925,0.1989622,-0.25209683,0.053114656,-0.011906586,-0.20784979,-0.4213795,0.15322891,-9.308656,1.0104496,47.690468,-1.3464489,-2.2057545,-3.5377157,-0.066285744,-0.26579776,-0.19703251,28.875,30.3125,29.3125,32.9375,35.4375,36.5
0.34205246,0.17701545,-0.39992958,-1.5247574,-0.015707524,0.06584009,-0.1694018,-0.41612077,-0.36021966,0.060059976,-3.0761077,0.6267431,0.00010981594,-0.16180325,0.048952557,-0.00033798927,0.010673513,0.0049880305,-0.010407808,0.4679585,-1.3492501,1.8630322,-2.081735,-1.5725979,2.4444368,-0.21153119,0.20160338,-0.25558102,0.05401676,-0.0124841435,-0.20097177,-0.36391866,0.095768064,-9.346964,0.90750587,47.672558,-1.3349626,-2.2733812,-3.508248,-0.033471357,-0.24758068,-0.27816248,28.875,30.3125,29.3125,32.9375,35.4375,36.5
0.34405252,0.058642454,-0.20265147,-1.734476,-0.0056377323,0.056611437,-0.1682896,-0.41646025,-0.36012432,0.060069233,-3.0761113,0.6267071,0.00015897938,-0.16366893,0.05023179,-1.7928343e-05,0.010930834,0.004742392,-0.017353505,0.46752578,-1.348842,1.8624924,-2.0816262,-1.5726217,2.4439814,-0.21500076,0.20283803,-0.25828195,0.055815462,-0.012595737,-0.19749475,-0.21068975,0.0,-9.404425,0.94331104,47.68062,-1.3774581,-2.3211503,-3.4534178,-0.035905555,-0.2503447,-0.3420338,28.875,30.3125,29.3125,32.9375,35.4375,36.5
0.346052,-0.052302226,-0.4074792,-1.5153017,-0.008683072,0.06152445,-0.16749184,-0.4167908,-0.36000803,0.060063023,-3.076019,0.62686294,0.00015857717,-0.16485241,0.05129628,-0.0008067452,0.011010578,0.001993,-0.021820044,0.46708044,-1.3484218,1.8619651,-2.0814826,-1.5726694,2.4436455,-0.2183077,0.20560229,-0.26031423,0.057557665,-0.01143519,-0.19633715,-0.28730422,0.0,-9.3661175,0.9231726,47.682407,-1.2967362,-2.2460325,-3.5668519,-0.025351105,-0.26557377,-0.36943644,28.875,30.3125,29.3125,32.9375,35.4375,36.5
0.34805217,0.27743486,-0.51621264,-1.546707,-0.023492469,0.09541997,-0.17877196,-0.41711873,-0.359882,0.06006129,-3.0759847,0.62691116,0.00013716104,-0.16585165,0.051672734,-0.00032232015,0.010917881,0.0013961007,-0.018153174,0.46659982,-1.348038,1.8614739,-2.0813506,-1.5726813,2.4431996,-0.21980399,0.20651597,-0.26312676,0.059929423,-0.011098138,-0.20150018,-0.19153613,0.019153614,-9.385271,0.92764956,47.685097,-1.083658,-2.3470905,-3.4344344,-0.012609053,-0.272785,-0.3706416,28.875,30.3125,29.3125,32.9375,35.4375,36.5
0.35005224,-0.8010502,-0.7063107,-1.5855172,-0.0073080477,0.08827026,-0.16961557,-0.4174703,-0.35980496,0.060083605,-3.076031,0.62687653,0.00017938716,-0.16755714,0.052738007,-0.00021525378,0.011119119,-3.4309276e-06,-0.010240066,0.46616676,-1.3476174,1.860886,-2.081229,-1.5726694,2.4427392,-0.22309701,0.20852865,-0.26648897,0.062594734,-0.010657554,-0.21270691,-0.095768064,0.038307227,-9.461885,0.9410752,47.693153,-0.93372136,-2.3990576,-3.3036666,-0.015007641,-0.28671306,-0.2594009,28.875,30.3125,29.3125,32.9375,35.4375,36.5
0.35205188,-1.1860747,-0.6856591,-1.997738,-0.01453765,0.081602134,-0.16416603,-0.41778612,-0.35970291,0.060079344,-3.0759842,0.6268425,0.00019214177,-0.16775325,0.05267376,5.1528114e-05,0.011509657,-0.0017406369,-0.00042128004,0.46575874,-1.347209,1.8603705,-2.0810964,-1.5727171,2.4423163,-0.22323406,0.20967227,-0.2693197,0.065974444,-0.010245772,-0.22266287,-0.24899697,0.019153614,-9.442732,0.8179876,47.695843,-0.88190556,-2.4421215,-3.2766647,-0.052822437,-0.29301786,-0.15363921,28.875,30.3125,29.3125,32.9375,35.4375,36.5
0.35405192,-0.37842765,-0.50730985,-1.4299554,-0.036931273,0.1039459,-0.17693238,-0.41811532,-0.3595714,0.060063407,-3.0758872,0.6268973,0.00014420981,-0.16579798,0.053321056,-0.0010346571,0.014750213,-0.006358374,0.0018154611,0.4652912,-1.3467774,1.859845,-2.0809271,-1.5727657,2.4418957,-0.22197987,0.21028681,-0.26864502,0.07025205,-0.011079727,-0.2236427,-0.38307226,0.19153613,-9.385271,0.84708,47.666286,-0.9538605,-2.3394918,-3.3840966,-0.073149964,-0.3013003,-0.08069898,28.875,30.3125,29.3125,32.9375,35.4375,36.5
0.35605204,-0.96159637,-1.0210841,-1.1474609,-0.051839553,0.10016115,-0.16302954,-0.4184249,-0.35948053,0.060052343,-3.0758736,0.6268972,8.2300736e-05,-0.16477846,0.053931866,-0.0018326368,0.016769951,-0.010018437,-0.0037552523,0.46487132,-1.3463576,1.8593305,-2.080794,-1.5727533,2.4414778,-0.2218712,0.21123682,-0.26884106,0.07368571,-0.01124196,-0.21796247,-0.63206923,0.28730422,-9.270349,0.8940802,47.653748,-1.042901,-2.2997608,-3.4425201,-0.115849786,-0.30284023,-0.12730688,28.875,30.3125,29.3125,32.9375,35.4375,36.5
0.3580521,-0.4962214,-1.2340297,-1.5118852,-0.03865873,0.10893634,-0.16262399,-0.41877645,-0.35937425,0.060058244,-3.0758173,0.6269469,0.000110691995,-0.164052,0.054824047,-0.001970439,0.018254532,-0.0127970595,-0.012739024,0.46442747,-1.3459141,1.8587435,-2.0806377,-1.5728015,2.4410725,-0.22251661,0.21088877,-0.26901639,0.07736063,-0.011314012,-0.20962405,-0.34476504,0.22984336,-9.346964,0.95226496,47.684196,-1.2303083,-2.3035684,-3.576055,-0.17689994,-0.30777496,-0.21635547,28.875,30.3125,29.3125,32.9375,35.4375,36.5
0.3600523,-0.25144038,-0.78663844,-1.4925755,-0.047085427,0.103429586,-0.1719014,-0.41908973,-0.3592772,0.06005669,-3.0757883,0.6269464,1.9300402e-05,-0.16443616,0.05528947,-0.0022203631,0.019570157,-0.014668481,-0.0227027,0.4639951,-1.3454938,1.8581933,-2.080445,-1.5727895,2.4406438,-0.2232348,0.2126757,-0.2713304,0.080168076,-0.011658655,-0.200376,-0.24899697,0.17238252,-9.404425,0.9768804,47.68062,-1.2202758,-2.3346636,-3.5563505,-0.22859234,-0.31764832,-0.34550887,28.875,30.3125,29.3125,32.9375,35.4375,36.5
0.36205238,-0.7536249,-1.102655,-1.0965426,-0.040117364,0.08239878,-0.15615426,-0.41942158,-0.35914645,0.06002894,-3.0756927,0.6270449,-1.1444128e-05,-0.16438413,0.055064537,-0.0016759612,0.019573323,-0.014597597,-0.028308453,0.4635274,-1.3450501,1.8576902,-2.0803254,-1.5728372,2.4402502,-0.2226087,0.21238522,-0.27264437,0.08170911,-0.011704618,-0.19414316,-0.4213795,0.095768064,-9.232041,0.9321212,47.685097,-1.23946,-2.2615776,-3.4497323,-0.25171268,-0.3158003,-0.44150954,28.875,30.3125,29.3125,32.9375,35.4375,36.5
0.36405253,-0.4688579,-0.26587355,-1.1816367,-0.014750859,0.07288081,-0.16451098,-0.41975918,-0.35905942,0.060043685,-3.0756612,0.6271124,-1.7344273e-05,-0.16582783,0.054432802,-0.0011664284,0.019083576,-0.012892119,-0.025750048,0.46310714,-1.3446181,1.8570913,-2.0801456,-1.5728501,2.4398763,-0.22237411,0.21428958,-0.2761644,0.08156968,-0.012051919,-0.19646448,-0.19153613,0.095768064,-9.174581,0.95226496,47.70211,-1.2417846,-2.226026,-3.552092,-0.2716729,-0.32535934,-0.496102,28.875,30.3125,29.3125,32.9375,35.4375,36.5
0.36605257,-0.005417468,0.26599237,-1.3728869,0.0011378311,0.078926764,-0.17562729,-0.42011043,-0.35893208,0.06001803,-3.075589,0.62722445,-5.8961916e-05,-0.1676962,0.05495039,-0.0020237425,0.01906408,-0.013771236,-0.016548602,0.46261492,-1.3441491,1.8565525,-2.080026,-1.5728735,2.4394636,-0.22482742,0.21823356,-0.2790337,0.08123716,-0.011688622,-0.20811848,-0.019153614,0.11492168,-9.2703495,0.9545008,47.689575,-1.2990122,-2.2478888,-3.4625454,-0.2917756,-0.3218388,-0.43764374,28.875,30.3125,29.3125,32.9375,35.4375,36.5
0.36805186,-0.17642055,-0.0069081895,-1.4512008,-0.0061957454,0.0788861,-0.17638609,-0.42044243,-0.35883027,0.06001584,-3.075551,0.6271713,-9.685666e-05,-0.16959798,0.055245034,-0.0014337633,0.018284542,-0.011790312,-0.005421469,0.4621823,-1.3437048,1.8559769,-2.079847,-1.5728978,2.439003,-0.22658315,0.2192385,-0.28153107,0.08057277,-0.011922565,-0.22099932,0.0,0.22984336,-9.270349,0.90750587,47.691364,-1.2993009,-2.4320197,-3.4106233,-0.29031307,-0.33111978,-0.3211494,28.875,30.3125,29.3125,32.9375,35.4375,36.5
0.37005198,0.3089455,-0.7572088,-1.4541824,-0.01807517,0.090171225,-0.16067928,-0.42080095,-0.3587127,0.060029533,-3.0755348,0.62716544,-7.502571e-05,-0.17219892,0.055655416,-0.00014130722,0.016787883,-0.008453272,-6.9035574e-05,0.46170148,-1.3432856,1.8554009,-2.0796916,-1.5729216,2.438521,-0.22912824,0.2195437,-0.28474015,0.07979558,-0.012100503,-0.2288954,0.0,0.15322891,-9.32781,1.0126908,47.690468,-1.1806047,-2.3070776,-3.3528047,-0.32858205,-0.33453602,-0.18782319,28.875,30.3125,29.3125,32.9375,35.4375,36.5
0.3720521,-0.55888206,-1.4776654,-1.6548388,-0.04431796,0.06998376,-0.16113293,-0.4211274,-0.3586041,0.060001742,-3.0754743,0.6271959,-0.00015463063,-0.17534685,0.05633159,-6.4861786e-05,0.015328653,-0.004961056,-0.0057502594,0.46125573,-1.3428171,1.8548616,-2.079549,-1.572934,2.4381022,-0.23252198,0.22178856,-0.28686288,0.07589503,-0.012380975,-0.22660522,-0.11492168,0.17238252,-9.423578,0.8403672,47.661808,-0.97894967,-2.4591317,-3.2173784,-0.27819794,-0.3370905,-0.18709941,28.875,30.3125,29.3125,32.9375,35.4375,36.5
0.37405232,-0.9046526,-1.3652091,-1.5066949,-0.09146515,0.074347265,-0.16204055,-0.4214796,-0.35850024,0.060008913,-3.075424,0.627152,-0.0001832229,-0.17681257,0.057166565,0.00022635983,0.016104467,-0.0038893097,-0.014815577,0.46081117,-1.3423492,1.8542274,-2.0793335,-1.5729703,2.437637,-0.23422164,0.22272228,-0.28885043,0.07634128,-0.013558239,-0.21923447,-0.34476504,0.17238252,-9.3661175,0.86498255,47.66987,-0.91225183,-2.379478,-3.2910638,-0.28041518,-0.34278035,-0.26358044,28.875,30.3125,29.3125,32.9375,35.4375,36.5
