Tylouw/Master_Thesis_Code/training_data/batch_1/rect_rod_t0.2/sample_69_session_3.csv
timestamp[s],tcp_force_x[N],tcp_force_y[N],tcp_force_z[N],tcp_force_rx[Nm?],tcp_force_ry[Nm?],tcp_force_rz[Nm?],tcp_pose_x[m],tcp_pose_y[m],tcp_pose_z[m],tcp_pose_rx[rot_vec_x],tcp_pose_ry[rot_vec_y],tcp_pose_rz[rot_vec_z],tcp_velo_x[m/s],tcp_velo_y[m/s],tcp_velo_z[m/s],tcp_velo_rx[rot_vec_x/s],tcp_velo_ry[rot_vec_y/s],tcp_velo_rz[rot_vec_z/s],q1[rad],q2[rad],q3[rad],q4[rad],q5[rad],q6[rad],qd1[rad/s],qd2[rad/s],qd3[rad/s],qd4[rad/s],qd5[rad/s],qd6[rad/s],tool_acc_x,tool_acc_y,tool_acc_z,current_of_whole_robot[A],voltage_of_whole_robot[V],current_J1[A],current_J2[A],current_J3[A],current_J4[A],current_J5[A],current_J6[A],temp_J1[C],temp_J2[C],temp_J3[C],temp_J4[C],temp_J5[C],temp_J6[C]
8.9900095e-07,-0.039900195,-0.11115828,0.9613489,-0.016420659,-0.00046395988,-0.009651288,-0.38935345,-0.36873373,0.06002956,-3.0787282,0.6248755,0.0002755692,-0.00015569532,-8.650747e-05,5.9944523e-05,-0.00037612653,0.00039194597,5.817391e-06,0.50505686,-1.3816439,1.9041508,-2.091904,-1.5708774,2.4800134,-8.6442386e-05,-1.760617e-05,-5.2802847e-07,-0.00050739356,0.00013834305,-9.240155e-05,0.05746084,0.095768064,-8.63828,0.7665104,47.72002,-0.19982065,-3.0686636,-2.2879186,-0.19552594,0.18203528,0.0062464764,28.9375,30.375,29.375,32.9375,35.4375,36.5
0.002054713,-0.27267098,0.059901457,0.99678326,-0.014578566,-0.0031836405,-0.005837583,-0.38935214,-0.36871603,0.060014296,-3.078708,0.6249482,0.00023656507,-0.0008583329,-0.000477599,-0.0018030243,-0.0021030484,0.0034908676,5.1144543e-06,0.50502086,-1.3816433,1.9041885,-2.0919197,-1.5708655,2.4800253,-8.5272375e-05,0.0019890487,0.004044862,-0.010107038,0.00013677674,-9.084705e-05,-0.019153614,0.095768064,-8.619126,0.81351066,47.71286,-0.13669947,-2.9963565,-2.3807063,-0.13286634,0.17639452,0.009966202,28.9375,30.375,29.375,32.9375,35.4375,36.5
0.004054267,-0.30408213,-0.015722247,1.1150911,-0.01057069,-0.0007629941,-0.007332129,-0.38934064,-0.36870778,0.059985872,-3.078666,0.62490124,0.00020266218,-0.00083364814,-0.00046417804,-0.0025042288,-0.0015852767,0.0025576183,1.6068256e-05,0.5050329,-1.3816066,1.9042124,-2.091931,-1.5708898,2.4800134,-8.4133724e-05,0.0034151278,0.00403464,-0.010455634,0.00013429491,-0.00010039781,0.13407528,0.11492168,-8.63828,0.7351769,47.694946,-0.1556606,-3.4122634,-2.6261733,-0.05343809,0.20434383,0.0117715085,28.9375,30.375,29.375,32.9375,35.4375,36.5
0.00605359,0.097036086,0.77405274,1.1666437,-0.0018166185,-0.009624924,-0.014767466,-0.38932553,-0.36870396,0.059979975,-3.0786743,0.62490296,0.00018852361,-0.0003571667,-0.00019876406,-0.0015918695,-0.0006207935,0.0008339032,1.9100728e-05,0.5050329,-1.381631,1.9042596,-2.0919526,-1.5708774,2.4800134,-8.302492e-05,0.00224278,0.0022179422,-0.005491394,0.00013184024,-0.00010228758,0.038307227,0.13407528,-8.523358,0.75755644,47.711964,-0.17540044,-3.3290033,-2.4990294,-0.07545101,0.16458744,0.009837629,28.9375,30.375,29.375,32.9375,35.4375,36.5
0.008054367,-0.03201148,1.1133237,0.6035203,0.03978842,-0.04332408,-0.0044792523,-0.38933533,-0.36871383,0.05999792,-3.0786877,0.6249248,0.00019148072,-8.959308e-05,-4.9063285e-05,-0.00027261314,-0.0005310715,0.00068834965,1.8543351e-05,0.5050329,-1.3816319,1.9042114,-2.0919163,-1.5708655,2.4800253,-8.194497e-05,4.038887e-05,0.0010044822,-0.0019047328,0.00012946993,-0.00010087951,-0.019153614,0.1340753,-8.676587,0.77545905,47.71017,-0.10711741,-3.2122931,-2.4491324,-0.109896705,0.16765966,0.008077494,28.9375,30.375,29.375,32.9375,35.4375,36.5
0.010053295,0.3469566,1.4971248,0.21047394,0.037793145,-0.030811362,-0.015279015,-0.3893194,-0.3687094,0.059969135,-3.0786548,0.6249373,0.00010782643,0.00043207558,0.0002464315,0.00063325156,-0.00020722723,0.00012041761,9.895065e-06,0.50503284,-1.3815963,1.9042348,-2.0919154,-1.5708536,2.4800372,-8.850307e-05,-0.002004207,0.00067113404,0.0011269468,0.00012718288,-9.9304365e-05,0.0,0.15322891,-8.925584,0.7105615,47.6421,-0.640041,-2.6849003,-2.9905684,-0.12362745,0.1523148,-0.060072534,28.9375,30.375,29.375,32.9375,35.4375,36.5
0.012053405,-0.33394247,0.5852589,0.24954152,-0.0014795726,-0.018582346,-0.012103024,-0.38932508,-0.36871696,0.059968606,-3.0786734,0.62492204,0.00010686244,0.0009616457,0.0005806131,-0.002287842,0.003405733,-0.0064052357,8.747655e-05,0.50503284,-1.3815824,1.9042219,-2.0919259,-1.5708417,2.4800253,-0.00015841222,0.0045537474,-0.0010165814,0.0037157612,0.00012497517,-0.00024533097,0.1340753,0.1340753,-9.040505,0.85826975,47.711964,-0.77559143,-2.6043816,-3.114252,-0.11090802,0.14252833,-0.117996976,28.9375,30.375,29.375,32.9375,35.4375,36.5
0.014054099,-0.61662996,-0.4037426,0.10314948,-0.034876555,0.01485899,-0.017635686,-0.38930964,-0.36869654,0.059934873,-3.0786169,0.6249289,-2.1486005e-05,-0.0042914613,0.0033023308,-0.004681519,0.0052192453,-0.009710153,0.00047979178,0.5050054,-1.3815429,1.9042438,-2.09189,-1.5708297,2.4800093,-0.0096579315,0.014025427,-0.0067702755,0.0037662098,0.00012284289,-0.010133317,0.038307223,0.13407528,-9.251196,0.800085,47.696735,-0.41943088,-3.2395954,-2.9904819,-0.105121195,0.13218969,-0.08476412,28.9375,30.375,29.375,32.9375,35.4375,36.5
0.016053226,-1.0560902,-0.63207334,-0.0387658,-0.0629045,0.040659145,-0.029950093,-0.38930804,-0.36867955,0.059940036,-3.0786004,0.6248835,-9.917212e-06,-0.0051886425,0.0033251606,-0.003403871,0.004014998,-0.0075340145,0.006774638,0.50499326,-1.3815674,1.9042557,-2.0918667,-1.5708536,2.479971,-0.010533651,0.012420757,-0.0078189215,0.0039310274,0.00012078225,-0.017303724,-0.21068975,0.19153613,-9.423578,0.7732232,47.71286,-0.41807038,-3.1571598,-3.0381694,-0.084850445,0.11737017,-0.014329545,28.9375,30.375,29.375,32.9375,35.4375,36.5
0.018053437,-1.3905997,-0.659904,-0.15326802,-0.06711076,0.057754543,-0.040314537,-0.38929674,-0.36869198,0.05992344,-3.078597,0.6247859,-8.037872e-05,-0.0045415433,0.003684221,-0.0028090407,0.004416829,-0.008231196,0.009386733,0.5050173,-1.38152,1.9042319,-2.0918415,-1.5708417,2.4799345,-0.010525623,0.010550287,-0.0074961847,0.0062831864,0.00011147729,-0.019908462,-0.3256114,0.21068975,-9.404425,0.7463667,47.686886,-0.6304163,-2.8181396,-3.3378844,-0.08903073,0.120448545,-0.02445539,28.9375,30.375,29.375,32.9375,35.4375,36.5
0.020053323,-1.9029028,-0.31646723,-0.38538203,-0.04308316,0.059881378,-0.067365356,-0.3893191,-0.3686458,0.059889458,-3.0785065,0.6248631,-0.00015813675,-0.0046411445,0.0034217574,-0.0034125922,0.005728163,-0.01059136,0.010761175,0.5049335,-1.381459,1.9042314,-2.0918167,-1.5708655,2.4799104,-0.010173781,0.013421248,-0.010055759,0.008671179,0.00010274578,-0.020929804,-0.38307226,0.24899697,-9.576807,0.74413085,47.677036,-0.7482492,-2.7875953,-3.4643083,-0.10432087,0.101143494,-0.02483057,28.9375,30.375,29.375,32.9375,35.4375,36.5
0.022053907,-1.9629848,-0.1977694,-0.63967425,-0.015760712,0.058118585,-0.084006034,-0.3893194,-0.3686819,0.059900906,-3.0785768,0.62478346,-0.00020572875,-0.0068688854,0.003783019,-0.0024208503,0.004695617,-0.008729409,0.0067920843,0.5049564,-1.3814348,1.9041713,-2.0917923,-1.5708054,2.4798746,-0.012864727,0.014011273,-0.013079735,0.008977445,0.00010065262,-0.019650355,-0.4405331,0.2681506,-9.749189,0.85155696,47.728977,-0.8037719,-2.7928634,-3.363011,-0.09902815,0.08001706,-0.061919294,28.9375,30.375,29.375,32.9375,35.4375,36.5
0.024053391,-2.0664659,-0.34638628,-0.7558925,-0.011481369,0.046147242,-0.1049517,-0.38932884,-0.3686708,0.059891094,-3.078517,0.62479144,-0.00025203114,-0.0076566203,0.0043691206,-0.0033616945,0.0057743075,-0.010682044,0.0040373714,0.504944,-1.3813858,1.9041222,-2.0917327,-1.5708297,2.4798748,-0.014588687,0.016842382,-0.014460611,0.009757653,9.9040735e-05,-0.018618673,-0.68953013,0.19153613,-9.80665,0.7105615,47.723602,-0.8140672,-2.7276454,-3.3505824,-0.08264479,0.063944206,-0.063062966,28.9375,30.375,29.375,32.9375,35.4375,36.5
0.026054008,-1.4927329,-0.035102054,-0.5477056,-0.025001014,0.060086913,-0.120599024,-0.38932425,-0.36865193,0.059867986,-3.0784795,0.6247275,-0.00028560834,-0.008400291,0.004924671,-0.003785522,0.006516518,-0.011891654,0.0010868235,0.50493145,-1.3813611,1.9041456,-2.0917323,-1.5708536,2.4798272,-0.016179904,0.018549975,-0.015737094,0.010744258,3.3572967e-05,-0.017258538,-0.7852981,0.19153613,-9.864111,0.8157518,47.705692,-0.8201575,-2.7507153,-3.3609338,-0.08857627,0.05665907,-0.07266761,28.9375,30.375,29.375,32.9375,35.4375,36.5
0.028053667,-2.1383,-0.36877415,-0.6276275,-0.030924384,0.058734987,-0.12508212,-0.3893601,-0.36862466,0.059860554,-3.078444,0.62474006,-0.00031632566,-0.009032559,0.0048870053,-0.0034409228,0.006380065,-0.011592243,-0.00033306552,0.50485945,-1.381313,1.9040974,-2.0916965,-1.5708655,2.4797676,-0.016689777,0.019019425,-0.017235436,0.011445148,5.332224e-06,-0.016347857,-0.82360536,0.17238252,-9.787497,0.80456203,47.660015,-0.8014754,-2.8103402,-3.4025686,-0.08688931,0.051333647,-0.10785432,28.9375,30.375,29.375,32.9375,35.4375,36.5
0.030053506,-2.1072555,-0.5390145,-0.7135363,-0.026944146,0.08432135,-0.13597105,-0.38936612,-0.36862072,0.059847478,-3.0784051,0.62477094,-0.00037536278,-0.00961388,0.0051847366,-0.0036754413,0.0067715817,-0.012293662,-0.0019287927,0.50484717,-1.3812646,1.9040617,-2.0916598,-1.5708655,2.4797795,-0.017732132,0.02025913,-0.01831201,0.012085412,3.481561e-07,-0.015793907,-0.80445176,0.076614454,-9.825804,0.77545905,47.703903,-0.8396865,-2.8722978,-3.4159307,-0.09924689,0.04131048,-0.11870769,28.9375,30.375,29.375,32.9375,35.4375,36.5
0.032054108,-2.5692966,0.1211395,-0.7117523,-0.022646314,0.08275264,-0.15009007,-0.3893971,-0.36861116,0.059847187,-3.0784237,0.6248136,-0.0003839731,-0.010870918,0.004786575,-0.0024834601,0.0056655556,-0.01030187,-0.0025551065,0.50478715,-1.3812406,1.9040369,-2.0916722,-1.5708417,2.4797437,-0.018236432,0.020108497,-0.02096738,0.01261354,2.273211e-08,-0.015670886,-0.7278373,0.0,-9.768343,0.83813137,47.704796,-0.8768412,-2.7091975,-3.3739371,-0.09852877,0.003471774,-0.16388555,28.9375,30.375,29.375,32.9375,35.4375,36.5
0.03405471,-2.7908247,-0.15414421,-0.58292234,0.012279295,0.07154175,-0.14922631,-0.38941252,-0.36862198,0.059844457,-3.0784073,0.62477225,-0.0003991972,-0.01245441,0.0050705904,-0.0019821355,0.006162258,-0.008319147,-0.0026109067,0.50479865,-1.3811802,1.9039634,-2.091636,-1.5708541,2.4797316,-0.01932163,0.021002108,-0.02311047,0.012372591,-0.0013995881,-0.016696526,-0.6703765,-0.05746084,-9.730036,0.83365434,47.704796,-0.83411497,-2.7388437,-3.3290153,-0.08397666,0.01227799,-0.1550492,28.9375,30.375,29.375,32.9375,35.4375,36.5
0.03605516,-1.887986,0.27125072,-0.54334044,0.029452741,0.07020463,-0.16862217,-0.38945225,-0.3686011,0.05983296,-3.0783806,0.62482387,-0.0004284535,-0.013710099,0.005349136,-0.0019737156,0.0063953535,-0.0077116177,-0.0026143056,0.50472635,-1.3811196,1.9039153,-2.091624,-1.5708541,2.4796948,-0.020649333,0.022446943,-0.024798606,0.01219837,-0.0019032917,-0.01801887,-0.61291564,-0.038307227,-9.691729,0.7463667,47.71286,-0.8629831,-2.801024,-3.3623466,-0.06773826,0.008436663,-0.17541306,28.9375,30.375,29.375,32.9375,35.4375,36.5
0.038058646,-1.720794,0.53552,-0.44656557,0.027468486,0.04153068,-0.17762655,-0.3894853,-0.36856765,0.059825998,-3.0783246,0.62488896,-0.00044824166,-0.0142888855,0.0059083817,-0.0023618073,0.00680971,-0.008718523,-0.0024151043,0.504654,-1.3810831,1.90388,-2.0915883,-1.5708779,2.4796703,-0.022206923,0.023612542,-0.025413215,0.0127277775,-0.0017815622,-0.019775456,-0.5363012,-0.05746084,-9.749189,0.7709874,47.66091,-0.8983897,-2.7762399,-3.3859951,-0.053496365,-0.0009979736,-0.17473683,28.9375,30.375,29.375,32.9375,35.4375,36.5
0.04005615,-1.2571344,0.24561726,-0.58024997,0.022675727,0.029709294,-0.18880962,-0.38953257,-0.36859548,0.059845995,-3.0784,0.624846,-0.00038633257,-0.015174064,0.0061762333,-0.0021084892,0.0068632616,-0.00918919,-0.002252696,0.5046417,-1.3810349,1.9037827,-2.0916116,-1.5708541,2.4796216,-0.023596024,0.02453894,-0.02743329,0.014258889,-0.0016011165,-0.021326631,-0.4405331,-0.11492168,-9.576807,0.74413085,47.688675,-0.92119,-2.7263935,-3.3907907,-0.053114884,-0.019090056,-0.19418935,28.9375,30.375,29.375,32.9375,35.4375,36.5
0.042054813,-1.0589286,-0.016309585,-0.57104576,0.023985578,0.011418083,-0.20737009,-0.38952354,-0.36857322,0.059830453,-3.0783396,0.62487274,-0.00051395275,-0.016585689,0.0061002197,-0.0010567518,0.0062742373,-0.007956945,-0.0026846174,0.50460523,-1.3810108,1.9037703,-2.0915267,-1.5708421,2.4796095,-0.024734544,0.024862414,-0.030528495,0.015667588,-0.0016875752,-0.022031734,-0.4405331,-0.1340753,-9.615114,0.84484416,47.731667,-0.7910626,-2.7208476,-3.355274,-0.053906024,-0.04589793,-0.20212665,28.9375,30.375,29.375,32.9375,35.4375,36.5
0.044057414,-0.8558651,0.28580305,-0.5053635,0.0102510685,0.023625342,-0.21788158,-0.389609,-0.3685848,0.059863403,-3.078385,0.6249584,-0.00039997092,-0.017358437,0.0065164175,-0.0009478198,0.007358186,-0.0076077203,-0.0021346316,0.5045451,-1.3809505,1.9036268,-2.0915387,-1.5708426,2.479597,-0.025455125,0.025669847,-0.03191356,0.016467314,-0.0028055245,-0.023299694,-0.34476507,-0.019153614,-9.691729,0.78217715,47.696735,-0.86814725,-2.731286,-3.334981,-0.07623967,-0.04543023,-0.22042817,28.9375,30.375,29.375,32.9375,35.4375,36.5
0.046055578,-1.1430533,-0.4971978,-0.45324045,0.0146217095,0.029225204,-0.21998958,-0.38964948,-0.3685462,0.05984943,-3.0783257,0.62490594,-0.0004078614,-0.018301064,0.007661244,-0.0012150949,0.010137287,-0.0065307138,-0.0005118345,0.5044729,-1.38089,1.9035791,-2.091503,-1.5708917,2.4794998,-0.02641485,0.026541995,-0.03232447,0.016415505,-0.0057632127,-0.025875919,-0.1340753,0.076614454,-9.5385,0.7620334,47.683304,-0.8124006,-2.689222,-3.3914247,-0.07858223,-0.034504503,-0.23149902,28.9375,30.375,29.375,32.9375,35.4375,36.5
0.048054036,-0.5553683,-0.1958622,-0.38939354,-0.010119996,0.048225027,-0.2205732,-0.3897014,-0.3685204,0.059853107,-3.0782952,0.6249766,-0.00040838923,-0.02003604,0.008163052,-0.0005476815,0.010027398,-0.0044309106,-0.00019154958,0.50438845,-1.3808419,1.9035057,-2.0914671,-1.5709037,2.4794633,-0.028299525,0.02683211,-0.034094527,0.01600617,-0.0066889157,-0.028078167,0.05746084,0.11492168,-9.5385,0.77545905,47.67345,-0.8249952,-2.699305,-3.4361513,-0.077038825,-0.034688503,-0.22469185,28.9375,30.375,29.375,32.9375,35.4375,36.5
0.050053827,-1.053837,-0.5857468,-0.5016395,-0.015791295,0.017881013,-0.18884602,-0.38972598,-0.36851752,0.059851915,-3.0782917,0.62486005,-0.00039886072,-0.02165909,0.008477809,-0.00011951038,0.009599481,-0.0038035235,0.00048234596,0.50437576,-1.3807933,1.9034456,-2.0914428,-1.570928,2.4793785,-0.030385768,0.027997,-0.036573112,0.016562155,-0.0066235103,-0.030837215,0.05746084,0.15322891,-9.519346,0.7933669,47.677036,-0.7595155,-2.716029,-3.3278608,-0.09676745,-0.068433,-0.23620175,28.9375,30.375,29.375,32.9375,35.4375,36.5
0.052054323,0.08929236,-0.41873345,-0.4879545,-0.027622335,0.019005455,-0.19916657,-0.38977656,-0.36849102,0.059849113,-3.0782568,0.6249098,-0.000413924,-0.022902358,0.008899571,0.0002694704,0.010562625,-0.002082339,0.001336995,0.5042916,-1.3807331,1.9033726,-2.091407,-1.5709404,2.4793298,-0.031204648,0.028586686,-0.038143743,0.016506376,-0.008304288,-0.03250645,0.038307227,0.2681506,-9.634268,0.8403672,47.723602,-0.68809545,-2.66151,-3.286209,-0.09786108,-0.044705875,-0.2237172,28.9375,30.375,29.375,32.9375,35.4375,36.5
0.054054026,-0.07467669,-0.65093094,-0.50893724,-0.027550519,0.005321134,-0.19753724,-0.38982183,-0.36845875,0.059842788,-3.0782099,0.6249769,-0.000472239,-0.023879135,0.009654551,0.00014118204,0.0123259425,-0.0015206323,0.0015680206,0.5041956,-1.3806727,1.9033021,-2.0913475,-1.5709413,2.4792817,-0.032248694,0.029711628,-0.039264146,0.016867435,-0.010124204,-0.03377674,0.076614454,0.30645782,-9.519346,0.8314132,47.70659,-0.7385992,-2.6674223,-3.3557415,-0.094438255,-0.018513441,-0.24429956,28.9375,30.375,29.375,32.9375,35.4375,36.5
0.056053426,0.32021865,-0.3250258,-0.48032624,-0.03510544,0.022666529,-0.20004709,-0.38983995,-0.36845225,0.059830222,-3.0781913,0.6248573,-0.0004910835,-0.025258377,0.010901873,0.00019446303,0.014229822,-0.00060454756,0.0006177953,0.5041829,-1.3806124,1.9032539,-2.0913231,-1.5709656,2.4791968,-0.034316417,0.03041879,-0.040331855,0.01735214,-0.0122369835,-0.034888916,0.05746084,0.36391866,-9.5385,0.800085,47.66987,-0.742182,-2.5749688,-3.3544245,-0.10883452,0.0032361243,-0.25213048,28.9375,30.375,29.375,32.9375,35.4375,36.5
0.05805348,-0.9530639,-0.6980173,-0.3455266,-0.027555738,0.015586611,-0.18571973,-0.389902,-0.36841515,0.059833743,-3.0781453,0.6249629,-0.00053458475,-0.026585158,0.011388152,0.00031198456,0.0150459325,0.00025775374,0.0002514679,0.5040627,-1.3805519,1.9031581,-2.0912511,-1.5709661,2.4791484,-0.035659224,0.03167938,-0.04213178,0.017533023,-0.013374412,-0.035861593,0.0,0.4213795,-9.442732,0.77545905,47.67345,-0.7131218,-2.5815372,-3.387597,-0.10244745,0.016884422,-0.27287135,28.9375,30.375,29.375,32.9375,35.4375,36.5
0.06005423,-0.45877576,-0.39955944,-0.08708595,-0.033748448,0.041414265,-0.20204543,-0.38998064,-0.3684148,0.05985682,-3.0781822,0.62492996,-0.0004240324,-0.026607601,0.010153412,0.00065380323,0.013472735,-5.89456e-05,0.0029523526,0.5040032,-1.3804916,1.903037,-2.091263,-1.5709895,2.4790637,-0.034551088,0.0326287,-0.044170238,0.018132027,-0.0118456865,-0.03745757,-0.1340753,0.34476504,-9.442732,0.8179876,47.71017,-0.7367164,-2.5665402,-3.38061,-0.12267624,0.022282135,-0.28555682,28.9375,30.375,29.375,32.9375,35.4375,36.5
0.06205405,-0.25075072,-0.2629954,-0.051233485,-0.04519333,0.043322843,-0.19878253,-0.3900303,-0.36840248,0.059851468,-3.0781622,0.6249062,-0.00044273282,-0.027185768,0.009429895,0.0010014888,0.01072435,-0.0007992903,0.0036819184,0.50394297,-1.3804072,1.9029411,-2.0912268,-1.5710005,2.4789913,-0.03559098,0.033352178,-0.045889765,0.018437456,-0.009086917,-0.03923175,-0.114921674,0.3256114,-9.385271,0.83813137,47.733456,-0.80859506,-2.4943628,-3.3027117,-0.13174593,-0.02759787,-0.29063287,28.9375,30.375,29.375,32.9375,35.4375,36.5
0.06405382,-0.40567568,-0.49230853,0.08318628,-0.036111947,0.030297454,-0.19265103,-0.39007732,-0.36837226,0.05986253,-3.078124,0.6248799,-0.00043491318,-0.02812247,0.009796635,0.0011633676,0.010089301,-0.0012324267,0.0019120692,0.50387055,-1.3803709,1.9028567,-2.0911548,-1.5710362,2.4789073,-0.037554454,0.034015354,-0.04720669,0.019158976,-0.008324331,-0.039426215,-0.22984336,0.34476504,-9.3661175,0.78217715,47.723602,-0.7959779,-2.470237,-3.3359303,-0.12288449,-0.052171037,-0.30826813,28.9375,30.375,29.3125,32.9375,35.4375,36.5
0.06605342,-0.61886394,-0.09744838,-0.07707285,-0.03718829,0.01634551,-0.19232053,-0.3901327,-0.3683786,0.05987132,-3.0781484,0.62488335,-0.0004190099,-0.029240642,0.01011803,0.0012637855,0.010441101,-0.0012657562,0.00343377,0.5038221,-1.3802983,1.902748,-2.0911424,-1.5710243,2.478858,-0.03894982,0.035379536,-0.049249485,0.020036824,-0.008619923,-0.042341907,-0.11492168,0.28730422,-9.423578,0.72622824,47.716442,-0.79727894,-2.5044637,-3.3813472,-0.14052373,-0.0600695,-0.316529,28.9375,30.3125,29.3125,32.9375,35.4375,36.5
0.068054035,-0.37160796,-0.22305278,-0.068989635,-0.018541316,0.020900713,-0.18123928,-0.3901774,-0.36835334,0.059857544,-3.0781322,0.6248411,-0.0004629494,-0.030192662,0.009956638,0.0015874676,0.010235461,-0.00047415853,0.004595717,0.5037381,-1.380226,1.9026884,-2.091118,-1.5710248,2.4787498,-0.039432097,0.036349952,-0.051172245,0.020196127,-0.0088289315,-0.04398445,-0.21068975,0.22984336,-9.3661175,0.7597976,47.666286,-0.7836921,-2.5230904,-3.3524444,-0.14223315,-0.07410197,-0.32738382,28.9375,30.3125,29.3125,32.9375,35.4375,36.5
0.070053615,-0.48772204,0.23185799,0.10543815,-0.0060160304,0.03546276,-0.1855417,-0.39024726,-0.36832333,0.059856534,-3.078108,0.6248356,-0.00047900464,-0.031265583,0.010536245,0.0016486485,0.011890917,0.0004888055,0.0038496908,0.50363016,-1.3801416,1.9025801,-2.0910704,-1.5710372,2.4786415,-0.04020478,0.037451882,-0.05270539,0.020588428,-0.010747656,-0.044005997,-0.17238252,0.15322891,-9.289502,0.7597976,47.693153,-0.8288355,-2.4747539,-3.3130808,-0.14298137,-0.040040225,-0.33596623,28.9375,30.3125,29.3125,32.9375,35.4375,36.5
0.07205329,-0.6347267,0.42748353,0.113317475,0.010715468,0.05356458,-0.18729526,-0.3903202,-0.3683238,0.05989715,-3.078132,0.6247626,-0.0003441473,-0.032476693,0.011691201,0.0017856084,0.013915075,0.0014048287,0.0053114453,0.5035935,-1.3801054,1.9024366,-2.0910342,-1.5710863,2.4785564,-0.041889913,0.037982028,-0.053815346,0.02134711,-0.012962244,-0.047148567,-0.19153613,0.17238252,-9.289503,0.900793,47.71465,-0.8245475,-2.4543781,-3.3102455,-0.14108264,-0.021530118,-0.35418648,28.9375,30.3125,29.3125,32.9375,35.4375,36.5
0.07405385,-0.6990529,0.9387433,0.103169024,0.005792033,0.06518826,-0.19228499,-0.39038968,-0.36830974,0.059896275,-3.0781338,0.62476146,-0.00037091106,-0.03349639,0.011838811,0.0017561422,0.014577911,0.0013928635,0.0072253444,0.5034976,-1.3800086,1.902316,-2.0909984,-1.5710744,2.4784596,-0.042720333,0.039744094,-0.05600808,0.022108499,-0.013542878,-0.049890425,-0.1340753,0.15322891,-9.3661175,0.800085,47.705692,-0.83295965,-2.4670796,-3.3434963,-0.17878935,-0.028724395,-0.32119673,28.9375,30.3125,29.3125,32.9375,35.4375,36.5
0.07605334,-0.92892015,0.49049637,0.27858058,0.008793351,0.06595533,-0.18495947,-0.39043626,-0.36829254,0.05989571,-3.0781147,0.6246576,-0.00044280075,-0.03467723,0.011837208,0.0019287786,0.015443293,0.0015238675,0.011627536,0.5034255,-1.3799239,1.9021953,-2.090902,-1.5710748,2.4783251,-0.043295864,0.04177191,-0.05911493,0.023490446,-0.014374517,-0.0548641,-0.22984336,0.095768064,-9.3661175,0.7732232,47.709274,-0.8396878,-2.5269399,-3.1902518,-0.18201926,-0.029264431,-0.3166705,28.9375,30.3125,29.3125,32.9375,35.4375,36.5
0.07805397,-1.1147906,0.45156938,0.19892815,0.0062371828,0.055099763,-0.19314468,-0.39052728,-0.368252,0.05991014,-3.0780756,0.6246886,-0.00032905812,-0.034336414,0.01304238,0.00066502806,0.016654175,-0.0014832843,0.010837213,0.50331706,-1.3798633,1.902088,-2.0908897,-1.5711464,2.4782412,-0.045243703,0.04273882,-0.057534426,0.024153885,-0.013979312,-0.056023512,-0.30645782,0.0,-9.270349,0.7486078,47.66271,-0.8386544,-2.430691,-3.376434,-0.18985856,-0.02660438,-0.28001952,28.9375,30.3125,29.3125,32.9375,35.4375,36.5
0.08005358,-0.7028783,0.34232336,0.07684669,0.0020940073,0.058195725,-0.18062317,-0.3905843,-0.3682308,0.05988369,-3.0780501,0.6246258,-0.00042919608,-0.03609508,0.013571532,0.0008973139,0.016544873,-0.0010293337,0.010603212,0.50322044,-1.3797308,1.9019808,-2.090842,-1.571134,2.4781086,-0.047682744,0.0442596,-0.05997308,0.02462026,-0.014113301,-0.058226068,-0.28730422,-0.05746084,-9.385271,0.784413,47.698532,-0.68999195,-2.517487,-3.2838368,-0.2138438,-0.0139517225,-0.30841094,28.9375,30.3125,29.3125,32.9375,35.4375,36.5
0.08205398,-1.0666058,0.22584376,0.10706468,0.003495239,0.046568055,-0.18622759,-0.39066967,-0.36822677,0.059894256,-3.0780566,0.62458366,-0.0003746629,-0.03721695,0.011829092,0.0019339197,0.014974674,0.0012930633,0.017248206,0.5031492,-1.379622,1.9018224,-2.0908177,-1.5711583,2.4780104,-0.04594051,0.045801762,-0.06411716,0.024424914,-0.013869629,-0.06312778,-0.3256114,-0.05746084,-9.404425,0.83589023,47.690468,-0.91368383,-2.4979181,-3.1781645,-0.22373757,-0.036426947,-0.25150985,28.9375,30.3125,29.3125,32.9375,35.4375,36.5
0.08405442,-1.1978621,0.47786286,-0.027052324,0.0038416265,0.05248903,-0.18273537,-0.39073297,-0.36817917,0.0599001,-3.078,0.6245135,-0.00038534965,-0.037558757,0.013558423,0.000876999,0.017293246,-0.00076688046,0.018448155,0.5030405,-1.3795618,1.9017161,-2.0907214,-1.5712069,2.4778652,-0.048512205,0.04690569,-0.06322873,0.025352417,-0.014910467,-0.0668967,-0.45968673,0.0,-9.289502,0.7911258,47.704796,-0.85264194,-2.4813395,-3.2071917,-0.21871977,-0.019584954,-0.2251934,28.9375,30.3125,29.3125,32.9375,35.4375,36.5
0.08605345,-1.1021806,0.25939253,-0.08841844,0.015090661,0.06599698,-0.17721051,-0.3908227,-0.36816475,0.059901547,-3.078023,0.6244778,-0.0003590006,-0.03783306,0.0138182705,0.00073966745,0.017293865,-0.002301917,0.020616898,0.5029323,-1.3794534,1.9015845,-2.090721,-1.5712065,2.477732,-0.049654957,0.047772475,-0.06429554,0.026891755,-0.014171723,-0.07020976,-0.49799395,0.038307227,-9.346964,0.7642693,47.711964,-0.802688,-2.461463,-3.3224971,-0.24584475,-0.041816995,-0.17855105,28.9375,30.3125,29.3125,32.9375,35.4375,36.5
0.08805405,-1.2006689,0.8957954,-0.019105421,-0.0025666906,0.0711767,-0.19047332,-0.39087626,-0.36811724,0.059876595,-3.0779302,0.62430555,-0.00041615707,-0.039417863,0.014728178,0.00078173337,0.017433524,-0.0029143186,0.020171208,0.5028474,-1.3793327,1.9014767,-2.090625,-1.5712785,2.4775515,-0.052755695,0.049222376,-0.06639254,0.02813438,-0.01401137,-0.0728627,-0.45968673,0.0,-9.385271,0.7597976,47.690468,-0.7296578,-2.4905918,-3.3398595,-0.26563722,-0.028479513,-0.1544832,28.9375,30.3125,29.3125,32.9375,35.4375,36.5
0.090053685,-0.91076535,0.5305626,0.015193718,-0.008292652,0.07182159,-0.1886868,-0.39095125,-0.36810148,0.05989954,-3.0779812,0.6242739,-0.00042531185,-0.03911762,0.013613319,0.000631955,0.016517423,-0.0039032763,0.023905931,0.50272816,-1.3792841,1.9013561,-2.090577,-1.5712417,2.477406,-0.051386785,0.050647095,-0.067841485,0.028578866,-0.012735733,-0.075231,-0.47884035,0.095768064,-9.346964,0.7866488,47.679718,-0.81075895,-2.516227,-3.2889354,-0.28502166,-0.031650953,-0.10806212,28.9375,30.3125,29.3125,32.9375,35.4375,36.5
0.09205346,-1.2193178,-0.17899472,-0.10764241,-0.011068207,0.059456024,-0.17897935,-0.39103535,-0.36808914,0.05990145,-3.077981,0.62417704,-0.00040287623,-0.039637752,0.013723692,0.0007941828,0.016996047,-0.0041985647,0.02449059,0.50264424,-1.3791637,1.9012011,-2.0905406,-1.571266,2.4772618,-0.05187253,0.051458504,-0.069471724,0.029884588,-0.013015357,-0.0763001,-0.45968673,0.17238252,-9.32781,0.842603,47.71286,-0.9398813,-2.4493248,-3.3246422,-0.29183948,-0.040555112,-0.07329908,28.9375,30.3125,29.3125,32.9375,35.4375,36.5
0.09405334,-0.79338455,-0.5990585,-0.11706924,-0.014871411,0.060525652,-0.17833142,-0.39111838,-0.36801803,0.059899434,-3.0778725,0.6241559,-0.0004042832,-0.04059056,0.014602171,-0.000616505,0.018397303,-0.006927132,0.02183722,0.5024997,-1.3790785,1.9010805,-2.090433,-1.57135,2.477118,-0.054277226,0.05517573,-0.070819356,0.030572744,-0.0129375905,-0.07604962,-0.36391866,0.11492168,-9.404425,0.77545905,47.690468,-0.8211127,-2.6080704,-3.3505998,-0.31326157,-0.049543608,-0.059283752,28.9375,30.3125,29.3125,32.9375,35.4375,36.5
0.09605367,-0.88651955,-0.4085551,-0.38968933,-0.021845132,0.050012052,-0.17517072,-0.39121112,-0.36801127,0.059910495,-3.077911,0.62410647,-0.00044041098,-0.04211637,0.014660776,0.0013014275,0.017318174,-0.0029321916,0.020043591,0.5023797,-1.3789591,1.9009002,-2.0903728,-1.5713142,2.4769623,-0.055167127,0.053051665,-0.07266526,0.030527143,-0.013920501,-0.07514317,-0.28730422,0.19153613,-9.461885,0.7978386,47.70211,-0.82953364,-2.5326705,-3.3741386,-0.34242612,-0.03753054,-0.0580018,28.9375,30.3125,29.3125,32.9375,35.4375,36.5
0.09805383,-1.3113374,-0.8352292,-0.3066373,-0.02309069,0.041483644,-0.16126893,-0.39127845,-0.36798358,0.05990106,-3.0778773,0.62400305,-0.00039467303,-0.0430675,0.014339414,0.0012016846,0.01699788,-0.0016755984,0.01905547,0.50230795,-1.3788625,1.9008049,-2.0903614,-1.5713743,2.4768305,-0.055296965,0.05454819,-0.07386113,0.028967215,-0.014251952,-0.07428306,-0.30645782,0.21068975,-9.442732,0.7978386,47.67793,-0.8849025,-2.4019654,-3.3480108,-0.32860357,-0.021815699,-0.07231592,28.9375,30.3125,29.3125,32.9375,35.4375,36.5
0.10005351,-0.40644288,-0.29804638,-0.0060705803,-0.03985718,0.05846118,-0.18655775,-0.39137962,-0.3679538,0.059888948,-3.0778387,0.6239961,-0.00046834358,-0.044077266,0.014616436,0.00087527797,0.017295891,-0.0018324261,0.016664483,0.50216377,-1.3786937,1.9006137,-2.090278,-1.5713743,2.476687,-0.056566827,0.05637538,-0.075255275,0.028814528,-0.01444594,-0.07315975,-0.3256114,0.21068975,-9.308656,0.8157518,47.694946,-0.8875802,-2.5023866,-3.4018302,-0.32317552,-0.0403996,-0.075596705,28.9375,30.3125,29.3125,32.9375,35.4375,36.5
0.10205424,-0.7439685,-0.7267443,-0.3344817,-0.016947774,0.041273575,-0.17853811,-0.39151105,-0.36792403,0.05992477,-3.077836,0.62391883,-0.00029838717,-0.044264723,0.01469894,-0.00032965277,0.018491348,-0.004513762,0.014561545,0.50204384,-1.3785963,1.9004086,-2.0902412,-1.5714582,2.4765193,-0.057019375,0.05970118,-0.07668725,0.029838959,-0.014198803,-0.07150997,-0.17238252,0.2681506,-9.385271,0.86945957,47.691364,-0.9176488,-2.6233582,-3.3512855,-0.35676035,-0.03573879,-0.103088856,28.9375,30.3125,29.3125,32.9375,35.4375,36.5
0.10405368,-0.2825759,-0.65076673,-0.36517558,-0.023233399,0.03626374,-0.17653953,-0.39156345,-0.36788866,0.05989767,-3.077783,0.6238713,-0.00041259287,-0.045615602,0.014555594,0.0014010479,0.016547479,-0.0013314228,0.011808688,0.5019356,-1.378477,1.9003128,-2.0901697,-1.5714582,2.4763882,-0.058124248,0.057797138,-0.07833919,0.02966903,-0.014036368,-0.069860674,-0.05746084,0.38307226,-9.481039,0.8291774,47.69763,-0.9404164,-2.4464707,-3.4075124,-0.35529462,-0.030317541,-0.1328658,28.9375,30.3125,29.3125,32.9375,35.4375,36.5
0.10605337,-0.23372565,-0.5336527,-0.19937581,-0.03064486,0.027047578,-0.18001539,-0.3916609,-0.3678623,0.059900437,-3.0777502,0.6238641,-0.00041823703,-0.04694091,0.014111904,0.0014697695,0.015658012,-0.0005528796,0.009807863,0.5018156,-1.3783442,1.900133,-2.0900981,-1.5714821,2.476268,-0.058842696,0.05983619,-0.080749534,0.028926142,-0.013639556,-0.06857759,0.0,0.24899697,-9.308657,0.7777002,47.658226,-0.98240614,-2.4712758,-3.3963494,-0.33044332,-0.04397704,-0.17531806,28.9375,30.3125,29.3125,32.9375,35.4375,36.5
0.10805411,0.845068,-0.2419821,-0.41987598,-0.038688198,0.03760673,-0.18430331,-0.3917866,-0.36783525,0.059901673,-3.0777285,0.62385994,-0.00034241236,-0.047967084,0.014319539,0.001191479,0.016331473,-3.7500522e-05,0.008702221,0.50168365,-1.3781874,1.8999418,-2.0900862,-1.5715307,2.4761364,-0.059603095,0.06161835,-0.08211022,0.028374955,-0.014481303,-0.06822971,0.0,0.24899697,-9.270349,0.78888994,47.64927,-1.0004576,-2.4508138,-3.4179401,-0.33968988,-0.042003337,-0.20294815,28.9375,30.3125,29.3125,32.9375,35.4375,36.5
0.11005369,0.08417154,-0.40284574,-0.2103851,-0.02813149,0.0164678,-0.1889172,-0.3918668,-0.36779308,0.05990342,-3.0776577,0.6237876,-0.00035335508,-0.05009361,0.013943193,0.0021983648,0.014894353,0.002209301,0.0070932023,0.5015754,-1.3780788,1.8997849,-2.0899785,-1.5715903,2.4759922,-0.06103583,0.06283925,-0.08581112,0.02818786,-0.014314695,-0.06805131,0.05746084,0.24899697,-9.385271,0.7777002,47.666286,-0.9795262,-2.5619528,-3.1755748,-0.33525187,-0.04404534,-0.23951298,28.9375,30.3125,29.3125,32.9375,35.4375,36.5
0.11205345,0.18829638,-0.06876,-0.40158302,-0.04035651,0.014398799,-0.1837584,-0.391954,-0.36778566,0.059894282,-3.0776904,0.6236773,-0.00039236658,-0.05022888,0.014503434,0.001742764,0.01566424,0.0017752318,0.008999088,0.5014674,-1.3779346,1.8996295,-2.089955,-1.5715669,2.4758112,-0.061796226,0.063294925,-0.08526563,0.027936911,-0.01478476,-0.070716366,0.17238252,0.2681506,-9.481039,0.8537928,47.72719,-1.0008779,-2.4896288,-3.3467784,-0.32521027,-0.014102541,-0.23818219,28.9375,30.3125,29.3125,32.9375,35.4375,36.5
0.1140539,-0.62639195,-0.9164207,-0.5600463,-0.021555355,-0.0009205273,-0.163637,-0.39207044,-0.36775115,0.0599143,-3.077672,0.6237509,-0.00031403426,-0.05265745,0.013467917,0.0023181576,0.013841883,0.0030705323,0.0059509156,0.50132334,-1.3778373,1.8994607,-2.0899193,-1.5716022,2.4757156,-0.062892586,0.06677978,-0.09069316,0.027861498,-0.013817478,-0.06876477,0.095768064,0.3256114,-9.442732,0.82022345,47.71017,-1.0172141,-2.4889746,-3.1948786,-0.31738374,-0.048581123,-0.28482172,28.9375,30.3125,29.3125,32.9375,35.4375,36.5
0.11605417,0.106186554,-0.3433472,-0.38393965,-0.037087154,0.019910004,-0.18567017,-0.39217493,-0.36772126,0.059918873,-3.077642,0.6236877,-0.00033488433,-0.052696638,0.014280542,0.0020577342,0.013844722,0.0022259196,0.0046194377,0.501191,-1.3776934,1.899258,-2.0898235,-1.5716261,2.4755478,-0.064528055,0.06629774,-0.08955627,0.02794356,-0.013414883,-0.06906983,0.076614454,0.36391866,-9.461885,0.7978386,47.707485,-1.0224326,-2.5150304,-3.245954,-0.30740458,-0.048236415,-0.3223621,28.9375,30.3125,29.3125,32.9375,35.4375,36.5
0.11805383,-0.2502556,-0.7486272,-0.73406804,-0.02813742,0.02484736,-0.17477353,-0.39224344,-0.36768788,0.059882015,-3.0775814,0.6236349,-0.00046537493,-0.05386827,0.013896615,0.0029324028,0.013079674,0.0038233448,0.006828711,0.5010713,-1.3775249,1.8991259,-2.0897515,-1.5716261,2.4754028,-0.06488589,0.06670707,-0.09213193,0.028337799,-0.013526987,-0.071634166,-0.076614454,0.3256114,-9.404425,0.7620334,47.67793,-1.0573646,-2.4488313,-3.2523203,-0.29522893,-0.059301253,-0.32687083,28.9375,30.3125,29.3125,32.9375,35.4375,36.5
0.12005317,-0.4559754,-0.6949796,-0.6685851,-0.037490275,0.030842908,-0.18255617,-0.3923581,-0.36767247,0.059899446,-3.0776067,0.6236228,-0.0004251015,-0.054634392,0.014277791,0.0015007192,0.014663433,0.0015166169,0.002832043,0.50093913,-1.3774035,1.8989342,-2.0897152,-1.5716261,2.47526,-0.0660455,0.0708131,-0.093833335,0.028718993,-0.013805897,-0.068795554,-0.05746084,0.24899697,-9.519346,0.75755644,47.655537,-1.0923496,-2.4748626,-3.2584577,-0.3030186,-0.06446994,-0.41695032,28.9375,30.3125,29.3125,32.9375,35.4375,36.5
0.12205384,-0.3374044,-0.36551648,-0.6166083,-0.04641632,0.05156987,-0.18511571,-0.39246967,-0.36763775,0.059913617,-3.077582,0.62355775,-0.0003782417,-0.055217143,0.01424684,0.0022358985,0.014200306,0.0033443684,0.004414373,0.50080734,-1.3772836,1.8987435,-2.0896432,-1.5716742,2.475091,-0.066217445,0.069942996,-0.0943903,0.02831536,-0.014282194,-0.07054847,-0.17238252,0.21068975,-9.557653,0.8560339,47.705692,-1.1361458,-2.5754886,-3.2889109,-0.27284226,-0.062804505,-0.4461226,28.9375,30.3125,29.3125,32.9375,35.4375,36.5
0.12405329,-1.0088056,-0.66609347,-0.6051568,-0.03820883,0.054128196,-0.1779646,-0.39255983,-0.3676071,0.05989059,-3.0775115,0.6235414,-0.0004538074,-0.05651344,0.01409291,0.0027334306,0.013383487,0.004659283,0.0069958875,0.50068736,-1.3771031,1.8985633,-2.0895603,-1.5716985,2.4749699,-0.067186184,0.0707694,-0.09643955,0.027985407,-0.014212736,-0.07409678,-0.21068975,0.24899697,-9.5385,0.8224646,47.704796,-1.1801994,-2.37401,-3.298946,-0.26135552,-0.07171363,-0.45818967,28.9375,30.3125,29.3125,32.9375,35.4375,36.5
0.12605341,-1.3262776,-0.4898388,-0.8022806,-0.024966134,0.057221778,-0.17403746,-0.39270857,-0.3675767,0.059901245,-3.0774913,0.6235155,-0.00032681646,-0.056585252,0.0143448915,0.0021143719,0.014180203,0.003376936,0.009570526,0.50054336,-1.3769345,1.8983363,-2.0895474,-1.5717705,2.4748125,-0.06760072,0.07216707,-0.096802324,0.028447693,-0.014296478,-0.07708608,-0.21068975,0.22984336,-9.634268,0.7933669,47.72002,-1.2305298,-2.5200486,-3.2679083,-0.25253525,-0.07938327,-0.46047336,28.9375,30.3125,29.3125,32.9375,35.4375,36.5
0.12805429,-0.6618849,-0.2197652,-0.6921489,-0.021861687,0.07329541,-0.17560245,-0.39279652,-0.36754465,0.05990117,-3.0774632,0.62337166,-0.00037395494,-0.05932182,0.013940974,0.0036612817,0.011930109,0.0061417334,0.014881776,0.50042295,-1.3768021,1.8981551,-2.0894396,-1.5717944,2.474606,-0.06982482,0.073184125,-0.10159614,0.02870504,-0.013672973,-0.08462027,-0.21068975,0.13407528,-9.595961,0.7597976,47.688675,-1.2678486,-2.4471388,-3.2380435,-0.23325875,-0.09878956,-0.43870446,28.9375,30.3125,29.3125,32.9375,35.4375,36.5
0.13005385,-0.8649846,0.0004072642,-0.6431076,-0.022179717,0.06612031,-0.18506448,-0.39290467,-0.36751863,0.059890673,-3.0774558,0.62336785,-0.00039011272,-0.058806412,0.014738168,0.0025415777,0.0135617545,0.0046892534,0.018463716,0.5002791,-1.3766457,1.8979882,-2.0894163,-1.5717944,2.4744608,-0.07020861,0.07385151,-0.09974396,0.02823909,-0.014411082,-0.08858443,-0.2681506,0.038307227,-9.5385,0.78888994,47.650166,-1.2190783,-2.399297,-3.4186268,-0.22730047,-0.10388971,-0.39694566,28.9375,30.3125,29.3125,32.9375,35.4375,36.5
0.13205338,-0.9208578,0.050912526,-0.64354694,-0.003744743,0.06375137,-0.18282251,-0.39305338,-0.36752906,0.05993633,-3.0775657,0.6232116,-0.00024781056,-0.060734212,0.013683136,0.004153726,0.01208837,0.008131028,0.025631534,0.50015944,-1.3765134,1.8977245,-2.0894039,-1.5717949,2.4742298,-0.06996406,0.074520275,-0.10423291,0.028324595,-0.014775873,-0.09550659,-0.28730422,0.019153614,-9.500193,0.88289046,47.698532,-1.3668244,-2.3995624,-3.2887793,-0.21357419,-0.08747038,-0.36354202,28.9375,30.3125,29.3125,32.9375,35.4375,36.5
0.13405332,-1.0636582,0.33779365,-0.6179593,-0.0068519246,0.06622282,-0.1795227,-0.39317986,-0.3674867,0.05993691,-3.0775456,0.62318635,-0.00026588177,-0.061838508,0.015449776,0.0032020349,0.01313141,0.0069346945,0.028633045,0.49997875,-1.3763567,1.8975214,-2.0893328,-1.5718068,2.474036,-0.073709615,0.07577991,-0.10346025,0.027832357,-0.015127038,-0.102252476,-0.30645782,-0.076614454,-9.595961,0.8717007,47.675243,-1.2707299,-2.3168075,-3.329358,-0.18135336,-0.10347459,-0.26885,28.9375,30.3125,29.3125,32.9375,35.4375,36.5
0.13605362,-1.342145,0.15164761,-0.6082462,0.01404191,0.06709367,-0.16688521,-0.39331117,-0.36746448,0.059938077,-3.0775554,0.62312746,-0.00021320087,-0.063027,0.014879639,0.004215709,0.012620358,0.008759113,0.033392243,0.4998349,-1.3761885,1.8973163,-2.0893204,-1.5718306,2.4738543,-0.07355452,0.076349035,-0.10661947,0.02856816,-0.015560807,-0.10685458,-0.34476504,-0.095768064,-9.595961,0.82022345,47.719128,-1.1873534,-2.354919,-3.2919426,-0.15770355,-0.11260961,-0.24564204,28.9375,30.3125,29.3125,32.9375,35.4375,36.5
0.13805416,-0.93325853,0.79497683,-0.41918775,-0.0008311363,0.08320334,-0.18336745,-0.39343613,-0.36741823,0.0599358,-3.077513,0.6229808,-0.00019993236,-0.063206024,0.015441203,0.003393219,0.014127806,0.006668012,0.03619948,0.4996791,-1.3760197,1.8971022,-2.089236,-1.5718907,2.4736125,-0.07443697,0.078351445,-0.10744357,0.029935632,-0.015888818,-0.11054232,-0.4213795,0.0,-9.481039,0.7709874,47.642998,-1.4704407,-2.2654397,-3.3009672,-0.12933251,-0.13137074,-0.17645657,28.9375,30.3125,29.3125,32.9375,35.4375,36.5
0.14005384,-1.190999,0.4798729,-0.52482116,0.006553228,0.08221715,-0.18714942,-0.39355934,-0.36738902,0.059943017,-3.0775023,0.6228439,-0.00015294924,-0.06412628,0.016768966,0.003477717,0.015483305,0.006177448,0.035082623,0.4995465,-1.3758634,1.8968867,-2.0891755,-1.5719393,2.473396,-0.076900296,0.07853623,-0.10824697,0.031628627,-0.016843308,-0.11188609,-0.45968673,-0.05746084,-9.5385,0.900793,47.65912,-1.3113561,-2.3167973,-3.3801491,-0.13144967,-0.13869311,-0.14472723,28.9375,30.3125,29.3125,32.9375,35.4375,36.5
0.14205347,-1.0403105,0.73047554,-0.41163614,0.0036394426,0.08003692,-0.18268664,-0.3936723,-0.36736226,0.059937444,-3.0775065,0.6227503,-0.00021008567,-0.06525927,0.017820459,0.0030749987,0.01661837,0.004687648,0.0318124,0.49938986,-1.3756945,1.8966826,-2.0891035,-1.5719274,2.4731805,-0.07951049,0.080416456,-0.10995335,0.03330685,-0.017129757,-0.111223884,-0.45968673,-0.095768064,-9.576807,0.8627467,47.71017,-1.2816298,-2.2964153,-3.3799398,-0.11063583,-0.12336838,-0.15752906,28.9375,30.3125,29.3125,32.9375,35.4375,36.5
0.14405417,-1.075914,0.40194845,-0.33566427,0.005939887,0.07324972,-0.17422634,-0.39383444,-0.36732182,0.059962735,-3.0774872,0.62269,-0.00012124121,-0.066555195,0.01825174,0.0036008055,0.01680529,0.0054996833,0.026572224,0.49921,-1.3755264,1.8964065,-2.089019,-1.571988,2.4729657,-0.081056535,0.08098499,-0.112035185,0.03419374,-0.017678779,-0.1075279,-0.61291564,-0.05746084,-9.500193,0.82022345,47.647476,-1.2587297,-2.2737932,-3.3843832,-0.11150868,-0.13972747,-0.1682303,28.9375,30.3125,29.3125,32.9375,35.4375,36.5
0.14605412,-0.86800486,0.3681074,-0.45278665,-0.0046998593,0.07364584,-0.17901902,-0.39397135,-0.3672655,0.059961487,-3.0774257,0.62258494,-6.9444766e-05,-0.06749482,0.018915476,0.002957153,0.01750003,0.003926898,0.020079253,0.4990413,-1.3753573,1.8961924,-2.088947,-1.5720719,2.4727395,-0.08310052,0.08328698,-0.11351492,0.035078578,-0.017535297,-0.103077985,-0.7278373,-0.05746084,-9.423578,0.7777002,47.66539,-1.1029087,-2.2382224,-3.3783965,-0.08127162,-0.14339954,-0.23036051,28.9375,30.3125,29.3125,32.9375,35.4375,36.5
0.1480537,-1.2512308,0.09705733,-0.44375247,-0.0032679085,0.0685456,-0.17915206,-0.3941015,-0.367248,0.059984747,-3.0774994,0.62256163,-6.211008e-05,-0.06726847,0.018681219,0.0029074883,0.01791993,0.003038024,0.017877456,0.49886206,-1.3752369,1.8959883,-2.0889108,-1.5720237,2.4725363,-0.08250918,0.08391565,-0.11444976,0.036371537,-0.017470555,-0.10028551,-0.5746084,0.0,-9.3661175,0.82694155,47.661808,-1.319233,-2.2158167,-3.4303265,-0.099762365,-0.15035945,-0.2666755,28.9375,30.3125,29.3125,32.9375,35.4375,36.5
0.15005328,-1.280463,-0.1312205,-0.39895657,-0.0026061696,0.07397345,-0.17648178,-0.3942474,-0.36717725,0.05999019,-3.0774155,0.6224507,-2.449845e-05,-0.0698217,0.02085932,0.0030468097,0.018392064,0.0027821043,0.012324878,0.49866834,-1.3750684,1.895749,-2.0887911,-1.5721196,2.4722843,-0.088302016,0.08493472,-0.1162669,0.03760801,-0.017770175,-0.10052339,-0.47884035,-0.038307227,-9.404425,0.7911258,47.696735,-1.1092174,-2.231678,-3.5121315,-0.07105258,-0.15857656,-0.30754733,28.9375,30.3125,29.3125,32.9375,35.4375,36.5
0.15205401,-0.6562843,0.30470133,-0.21817847,-0.007720272,0.08460088,-0.18568695,-0.3943753,-0.36716488,0.059989844,-3.0774093,0.622427,-1.5830748e-05,-0.06910619,0.020185487,0.0016250357,0.019676197,-0.000131701,0.0146859065,0.49853748,-1.3748751,1.8955091,-2.088742,-1.572132,2.4721396,-0.08665004,0.08834441,-0.11726827,0.038367365,-0.017507153,-0.10123227,-0.4213795,-0.076614454,-9.423578,0.8560339,47.709274,-1.1836753,-2.187802,-3.3268235,-0.08198233,-0.19453394,-0.31704724,28.9375,30.3125,29.3125,32.9375,35.4375,36.5
0.15405382,-1.0067517,0.11309935,-0.21657561,-0.0016528575,0.07045207,-0.1681349,-0.3945118,-0.36712742,0.05998689,-3.0773888,0.6223659,-4.7143847e-05,-0.071593024,0.021172147,0.0034685633,0.018976834,0.0032315664,0.012049214,0.49835664,-1.3746835,1.8952693,-2.088658,-1.5721444,2.4719234,-0.08993876,0.0869271,-0.11998324,0.039209586,-0.018510554,-0.101880215,-0.4405331,0.1340753,-9.308656,0.96569055,47.701214,-1.165368,-2.2859585,-3.4659154,-0.06272055,-0.1741765,-0.32547176,28.9375,30.3125,29.3125,32.9375,35.4375,36.5
0.15605381,-1.0942899,0.09149595,-0.1327754,0.008378872,0.063868664,-0.17009278,-0.39465842,-0.36707366,0.059997026,-3.0773454,0.6223769,5.19086e-05,-0.07267382,0.022676803,0.0031505802,0.02062795,0.0029474169,0.009559543,0.4981762,-1.374539,1.8950666,-2.0886223,-1.5722164,2.4717555,-0.09261226,0.08766077,-0.12027278,0.03979798,-0.019823518,-0.10206077,-0.47884035,0.11492168,-9.308656,0.7978386,47.713753,-1.0165592,-2.0765834,-3.468803,-0.04888439,-0.17872457,-0.3827904,28.9375,30.3125,29.3125,32.9375,35.4375,36.5
0.15805356,-0.43839544,0.21499279,-0.16182671,0.022317035,0.059788216,-0.17701168,-0.3948326,-0.36703864,0.06001847,-3.0773606,0.62235963,0.00012985322,-0.073907875,0.022882592,0.0021380805,0.021474257,0.0010401282,0.008599229,0.49797204,-1.3743572,1.894791,-2.0885742,-1.5722402,2.4715388,-0.09415658,0.09180545,-0.12307184,0.040524375,-0.019657955,-0.10264446,-0.36391866,0.095768064,-9.289502,0.7866488,47.674347,-0.9536736,-2.3671522,-3.3697731,-0.010771966,-0.17777346,-0.37007684,28.9375,30.3125,29.3125,32.9375,35.4375,36.5
0.160054,-0.09887044,0.57177424,-0.121743195,0.0050178184,0.055151194,-0.18031625,-0.39499065,-0.3669839,0.060013887,-3.0772836,0.6222662,0.00012833193,-0.075479954,0.023423454,0.0031853558,0.020407991,0.0019385002,0.008824906,0.49777955,-1.3741293,1.8945035,-2.0884535,-1.5723122,2.471298,-0.09677876,0.09144171,-0.12533696,0.041837297,-0.019163474,-0.10549181,-0.30645782,0.095768064,-9.3661175,0.85155696,47.6636,-0.88138205,-2.1394687,-3.4129572,-0.01768696,-0.1922932,-0.41793174,28.9375,30.3125,29.3125,32.9375,35.4375,36.5
0.16205393,-0.891947,0.21892203,-0.059231408,-0.0076895943,0.0290355,-0.17702855,-0.39513198,-0.36695108,0.060043853,-3.0773273,0.6222132,0.00015808981,-0.076863386,0.024150131,0.0030707829,0.021189187,0.0014584739,0.012551028,0.4975873,-1.3740085,1.8942755,-2.088382,-1.5723003,2.4710672,-0.098945506,0.09330281,-0.12755457,0.042978488,-0.019627875,-0.11138308,-0.28730422,0.114921674,-9.251195,0.89631605,47.703903,-0.7930026,-2.1985843,-3.3421228,0.0048034075,-0.19365507,-0.37376076,28.9375,30.3125,29.3125,32.9375,35.4375,36.5
0.16405344,-0.37364325,-0.20167905,-0.16239968,-0.008926069,0.048847634,-0.18018748,-0.39528278,-0.3668696,0.060022242,-3.0771875,0.62218094,0.0001227746,-0.07791396,0.024143623,0.0035617712,0.022016669,0.0005061419,0.018422505,0.4973715,-1.3737797,1.8940228,-2.088249,-1.5723962,2.4708493,-0.099680156,0.09520364,-0.131736,0.046465974,-0.019924391,-0.1179847,-0.38307226,0.17238252,-9.212888,0.82022345,47.651955,-0.7870137,-2.2797413,-3.2377143,-0.01569485,-0.21225956,-0.32733923,28.9375,30.3125,29.3125,32.9375,35.4375,36.5
0.16605355,-1.0017216,-0.3943945,-0.19694255,-0.017730791,0.055082574,-0.18101603,-0.39542606,-0.3668351,0.060032148,-3.0772004,0.62212163,6.446814e-05,-0.076395154,0.025950577,0.0012378364,0.025307532,-0.0056554326,0.023916787,0.49716732,-1.373599,1.893761,-2.0881402,-1.5723723,2.4706066,-0.10131204,0.09690854,-0.12908095,0.049078055,-0.019881116,-0.12511149,-0.34476504,0.21068975,-9.289502,0.8291774,47.687782,-0.7528471,-1.962399,-3.440951,-0.06097931,-0.19689104,-0.25279552,28.9375,30.3125,29.3125,32.9375,35.4375,36.5
0.16805333,-0.98921806,-0.28585276,-0.017487869,-0.026709406,0.067097865,-0.17735352,-0.39558747,-0.3667839,0.060021196,-3.077168,0.62197524,6.734036e-05,-0.0776804,0.025695404,0.0013568633,0.025262536,-0.005298247,0.031080846,0.4969635,-1.3733699,1.8934973,-2.0880682,-1.572421,2.4703157,-0.1019274,0.09909573,-0.13207239,0.049524106,-0.020036185,-0.13288832,-0.38307226,0.24899697,-9.289502,0.82022345,47.64121,-0.7057022,-2.2629695,-3.246337,-0.045795515,-0.22412637,-0.14811096,28.9375,30.3125,29.3125,32.9375,35.4375,36.5
0.17005369,-0.24692121,-0.5629237,0.06579768,-0.019579563,0.09438714,-0.18052635,-0.39574417,-0.36671013,0.060016446,-3.0770895,0.62188166,9.10994e-05,-0.07832763,0.02558798,0.0010974096,0.025725292,-0.007388896,0.03131256,0.49674776,-1.373177,1.893257,-2.0879714,-1.5725044,2.4700518,-0.102661885,0.10174533,-0.13522318,0.052064653,-0.019459115,-0.13385384,-0.30645782,0.24899697,-9.270349,0.8537928,47.64837,-0.7937374,-2.165856,-3.2554123,-0.05281809,-0.25171116,-0.11271763,28.9375,30.3125,29.3125,32.9375,35.4375,36.5
0.17205362,-0.28633833,-0.516684,0.04555161,-0.004236836,0.07906886,-0.16492827,-0.3959044,-0.36668348,0.060040265,-3.077111,0.6217689,8.664928e-05,-0.07839163,0.025537955,0.001224117,0.027155846,-0.0093802735,0.03210343,0.4965563,-1.3729842,1.8929461,-2.0878508,-1.5725044,2.4697874,-0.10240406,0.10325716,-0.1382064,0.05596504,-0.019770315,-0.1343849,-0.2681506,0.22984336,-9.232041,0.87617236,47.666286,-0.77929026,-2.420106,-3.2171268,-0.087903745,-0.2544015,-0.07846412,28.9375,30.3125,29.3125,32.9375,35.4375,36.5
0.17405319,-0.111457735,-0.035740238,-0.24400079,0.00435135,0.04480852,-0.16490683,-0.39603734,-0.36661953,0.06002489,-3.0770524,0.6215857,5.7228513e-05,-0.07837711,0.025754996,0.0012591663,0.028778672,-0.01112069,0.027904194,0.49636474,-1.3727916,1.8927301,-2.087753,-1.572565,2.469489,-0.10234995,0.10432956,-0.14033525,0.05932299,-0.020372886,-0.13012764,-0.22984336,0.21068975,-9.232041,0.84708,47.658226,-0.8831126,-2.208521,-3.170425,-0.14465736,-0.2677601,-0.10881706,28.9375,30.3125,29.3125,32.9375,35.4375,36.5
0.1760537,0.05349464,0.3287893,0.037107777,-0.008735697,0.022196546,-0.17851351,-0.39619085,-0.3665591,0.06001128,-3.0769584,0.6215127,1.4381685e-06,-0.08108087,0.027192838,0.0005658968,0.029494481,-0.010635956,0.018803786,0.49615973,-1.3725504,1.8924421,-2.087611,-1.5726246,2.4692507,-0.10665522,0.107563935,-0.14232594,0.057994377,-0.021250147,-0.12532651,-0.2681506,0.2681506,-9.11712,0.8247004,47.678825,-0.8193817,-2.3725948,-3.1604261,-0.13694534,-0.26632032,-0.18512991,28.9375,30.3125,29.3125,32.9375,35.4375,36.5
0.17805333,-0.048039112,-0.39559504,-0.017631117,-0.00608951,0.012698169,-0.1627555,-0.3963968,-0.36651582,0.06004385,-3.076955,0.621569,0.000104208964,-0.0796903,0.025934907,0.0003707017,0.031070495,-0.01275203,0.017861659,0.49592155,-1.3723457,1.8921078,-2.087537,-1.5726613,2.4690483,-0.102994695,0.10905,-0.14438844,0.06118273,-0.02161792,-0.120723195,-0.21068975,0.28730422,-9.040505,0.8314132,47.64658,-1.0820441,-2.3818946,-3.0786653,-0.15752739,-0.26389378,-0.22778112,28.9375,30.3125,29.3125,32.9375,35.4375,36.5
0.18005383,0.83938634,-0.09959127,0.0951127,-0.016987173,0.037303336,-0.18259948,-0.39655456,-0.36645707,0.060037706,-3.0768752,0.6214982,7.585291e-05,-0.08178931,0.028160455,2.942074e-06,0.03203752,-0.014581668,0.0090331985,0.49571595,-1.3721169,1.8918198,-2.087405,-1.5727214,2.468809,-0.10861513,0.110796966,-0.14611194,0.06322347,-0.021606192,-0.11751292,-0.19153613,0.22984336,-9.002198,0.7866488,47.666286,-0.8650557,-2.373645,-3.126368,-0.19279763,-0.25805175,-0.31372765,28.9375,30.3125,29.3125,32.9375,35.4375,36.5
0.1820535,-0.46269736,-0.4308521,-0.15476209,-0.010891381,0.020188516,-0.16659415,-0.39668593,-0.36639458,0.05999925,-3.076761,0.62141556,-7.953742e-05,-0.08169911,0.02735755,0.00019484866,0.032683004,-0.014713987,0.009452936,0.49551317,-1.3718522,1.8915571,-2.087249,-1.5727571,2.4685693,-0.10682437,0.111991376,-0.14831601,0.064652726,-0.022134418,-0.116135925,-0.15322891,0.28730422,-9.174581,0.87393653,47.698532,-1.0359766,-2.449,-3.1054208,-0.2486948,-0.29122218,-0.36725962,28.9375,30.3125,29.3125,32.9375,35.4375,36.5
0.18405414,-0.35516047,-0.27364117,-0.014414214,-0.023185372,0.037044074,-0.17286521,-0.39687827,-0.3663618,0.060031284,-3.0767605,0.6213962,-3.1465555e-05,-0.080765024,0.028070917,-0.0011479834,0.0339646,-0.018201357,0.007839189,0.49529734,-1.3716354,1.891199,-2.0871289,-1.572781,2.4683416,-0.1074512,0.11310963,-0.14686173,0.065750286,-0.021600695,-0.11515172,-0.17238252,0.19153613,-9.155427,0.7911258,47.653748,-1.0036869,-2.3581047,-3.1713967,-0.2763311,-0.31007814,-0.40947723,28.9375,30.3125,29.3125,32.9375,35.4375,36.5
0.18605457,-0.07927269,0.25880122,0.093918525,-0.045105193,0.054659177,-0.1790134,-0.39702904,-0.3663063,0.060021237,-3.0766797,0.62135935,-0.00013635309,-0.08230323,0.02735478,-0.00021005819,0.032632582,-0.015779767,0.0070345905,0.49508166,-1.3713951,1.8908981,-2.086962,-1.5728053,2.4681134,-0.10760965,0.11398414,-0.14992918,0.065173574,-0.021605145,-0.11450195,-0.17238252,0.19153613,-9.155427,0.86498255,47.661808,-1.0099669,-2.40051,-3.0910335,-0.30077893,-0.31742263,-0.4701926,28.9375,30.3125,29.3125,32.9375,35.4375,36.5
0.18805426,-0.12842481,-0.20518021,-0.09932528,-0.02182675,0.054790065,-0.1776277,-0.3971905,-0.36624703,0.060009148,-3.0766044,0.6213054,-0.00017922152,-0.08320761,0.028819656,-0.00088272325,0.03341082,-0.017524935,0.0059912796,0.49486473,-1.3711544,1.890612,-2.0868418,-1.5728534,2.4678726,-0.11092813,0.115189806,-0.15003644,0.06596516,-0.021478912,-0.116775855,-0.095768064,0.1340753,-9.155427,0.8179876,47.681515,-0.930421,-2.3388584,-3.2410007,-0.32255393,-0.3125979,-0.4898374,28.9375,30.3125,29.3125,32.9375,35.4375,36.5
0.19005336,0.47775254,-0.28655338,-0.16038993,-0.012346654,0.06240192,-0.17007767,-0.39734772,-0.3661898,0.059990846,-3.076519,0.6212242,-0.00022309508,-0.08315945,0.027755266,-0.0009457562,0.033105444,-0.015128064,0.014393405,0.4946623,-1.3709021,1.8903264,-2.0867236,-1.572913,2.4676306,-0.10849836,0.115674995,-0.14982367,0.06299167,-0.022382805,-0.122743085,-0.05746084,0.15322891,-9.32781,0.8537928,47.690468,-1.113682,-2.3447645,-3.333401,-0.3309015,-0.3444094,-0.50239456,28.9375,30.3125,29.3125,32.9375,35.4375,36.5
0.19205399,0.055689298,-0.2656491,-0.18570733,-0.018551959,0.043207902,-0.17643808,-0.3975266,-0.3661529,0.060017943,-3.0765254,0.6211446,-0.00021284599,-0.08583131,0.029016865,-0.0022454804,0.033603337,-0.01470562,0.019170206,0.49444515,-1.3706964,1.8899902,-2.0865924,-1.5729254,2.467363,-0.1125839,0.11980463,-0.15113614,0.060015574,-0.02305561,-0.13160174,0.05746084,0.17238252,-9.232041,0.8090337,47.67614,-0.9031763,-2.4124985,-3.4794307,-0.30578744,-0.33398873,-0.41388834,28.9375,30.3125,29.3125,32.9375,35.4375,36.5
0.19405368,-0.18135639,-0.22187525,-0.42002597,-0.0077374154,0.032237742,-0.1733471,-0.397702,-0.36608464,0.060009036,-3.0764365,0.6210588,-0.00017532309,-0.08577712,0.027904522,-0.0006208334,0.03145948,-0.010901006,0.03278021,0.4942305,-1.3704572,1.8897041,-2.0864975,-1.5730218,2.4671066,-0.110647686,0.116885066,-0.15101327,0.05840141,-0.023013124,-0.1432751,0.076614454,0.076614454,-9.2703495,0.91198283,47.72002,-1.1769857,-2.2879949,-3.4571872,-0.28173158,-0.37999195,-0.3544463,28.9375,30.3125,29.3125,32.9375,35.4375,36.5
0.1960536,-0.4072642,-0.38933292,-0.54095155,0.010167201,0.02354215,-0.16169241,-0.39786103,-0.36603495,0.05998866,-3.0764098,0.62087774,-0.00029442707,-0.08758223,0.028307516,-0.0018465478,0.03270152,-0.01155202,0.037394848,0.49400243,-1.3701911,1.8894037,-2.086366,-1.5730218,2.466769,-0.112410806,0.12157584,-0.15363367,0.057476375,-0.0238392,-0.1496459,0.076614454,-0.019153614,-9.289502,0.87617236,47.750473,-1.1685476,-2.507735,-3.4254887,-0.28171292,-0.37345207,-0.25417423,28.9375,30.3125,29.3125,32.9375,35.4375,36.5
0.19805335,-0.10488081,0.15965168,-0.57397276,-0.0060767764,0.036805507,-0.17792268,-0.39805645,-0.36596677,0.059996873,-3.0763557,0.62078685,-0.00022392241,-0.090464115,0.02799416,0.00015190119,0.029651498,-0.0049135224,0.04063986,0.49376255,-1.3699636,1.8890928,-2.086272,-1.5731062,2.4664795,-0.11414437,0.12021394,-0.155704,0.053589255,-0.02433188,-0.15462163,0.038307227,0.05746084,-9.385271,0.7329411,47.695843,-1.0816317,-2.2649167,-3.504984,-0.24065293,-0.37050357,-0.18382132,28.9375,30.3125,29.3125,32.9375,35.4375,36.5
0.20005383,-0.14148419,0.20746712,-0.7267528,-0.012994047,0.037437543,-0.17324834,-0.39822775,-0.36591226,0.059988078,-3.0763278,0.6206444,-0.00030224005,-0.09172876,0.027825758,0.0002619605,0.029393319,-0.0034878168,0.041846488,0.4935228,-1.3697106,1.8887814,-2.0861404,-1.5731181,2.4661546,-0.11466686,0.12172324,-0.15754172,0.052529894,-0.024806038,-0.15634626,-0.038307227,0.11492168,-9.500193,0.83589023,47.658226,-1.115805,-2.32965,-3.4342952,-0.2025725,-0.37663838,-0.15013897,28.9375,30.3125,29.3125,32.9375,35.4375,36.5
0.20205362,-0.12896365,-0.21437219,-0.74984175,-0.018365825,0.056162022,-0.1679703,-0.3983993,-0.36585164,0.059964076,-3.0762677,0.62048215,-0.00035823922,-0.09283491,0.028024891,0.00067979627,0.029282123,-0.002476981,0.033801895,0.49329507,-1.3694344,1.8884825,-2.0860326,-1.5731663,2.4658334,-0.11571721,0.122287676,-0.15923855,0.05272489,-0.025190871,-0.1493478,-0.3256114,0.17238252,-9.615114,0.8784135,47.670765,-1.1250995,-2.2110386,-3.4322648,-0.1953627,-0.4026239,-0.194365,28.9375,30.3125,29.3125,32.9375,35.4375,36.5
0.20405348,-0.11433736,-0.37444082,-0.96002537,-0.036695555,0.07812121,-0.1732309,-0.39856076,-0.3657763,0.05994272,-3.0761547,0.62040323,-0.0004214257,-0.09381727,0.029048007,-0.0011531429,0.03203273,-0.0046264464,0.027530603,0.4930669,-1.3691804,1.8881959,-2.0858886,-1.5732387,2.4655707,-0.1174037,0.126747,-0.1603849,0.052607697,-0.0266083,-0.14475358,-0.40222588,0.17238252,-9.787497,0.8537928,47.6636,-1.2031574,-2.4133208,-3.4900084,-0.18655013,-0.3853132,-0.23736583,28.9375,30.3125,29.3125,32.9375,35.4375,36.5
0.2060533,-1.3727461,-0.69065,-1.2720131,-0.03807104,0.06956102,-0.16768828,-0.39876446,-0.36571392,0.059952315,-3.076099,0.6203733,-0.00038872237,-0.0956877,0.029378872,0.0012582804,0.031210603,0.00045067054,0.023604907,0.49281526,-1.3689294,1.8878478,-2.0857694,-1.5732998,2.4653077,-0.11855178,0.12389233,-0.16251719,0.052730814,-0.028291598,-0.14196846,-0.3256114,0.19153613,-9.883265,0.88960326,47.689575,-1.1621666,-2.2525187,-3.5044413,-0.17193598,-0.39594853,-0.30263042,28.9375,30.3125,29.3125,32.9375,35.4375,36.5
0.2080539,-1.216176,-0.7402756,-1.2626287,-0.051595185,0.0960893,-0.1761204,-0.39895225,-0.36566606,0.059955116,-3.0760808,0.62023515,-0.00038904903,-0.09676916,0.030206105,-0.0009067928,0.033785526,-0.002728175,0.021274237,0.4925869,-1.368675,1.8875135,-2.0856612,-1.5733355,2.4649956,-0.12038669,0.12957422,-0.16445918,0.053002357,-0.029066775,-0.14146727,-0.3256114,0.21068975,-9.998186,0.83589023,47.703903,-1.0355601,-2.4808571,-3.458002,-0.16548383,-0.38944602,-0.329678,28.9375,30.3125,29.3125,32.9375,35.4375,36.5
0.2100536,-1.8917699,-1.3287529,-1.3560352,-0.052928418,0.09297028,-0.16975015,-0.39915973,-0.36562008,0.05998074,-3.0760634,0.62021136,-0.0002855232,-0.099244915,0.02981077,0.001172528,0.031596694,0.0012341541,0.01922989,0.49235895,-1.3684472,1.8871645,-2.0855772,-1.5733956,2.4647553,-0.12193326,0.12908828,-0.16867137,0.053160362,-0.029017458,-0.14096932,-0.5363012,0.22984336,-9.9790325,0.7933669,47.687782,-1.1220171,-2.3827462,-3.305174,-0.14087468,-0.39787686,-0.3615508,28.9375,30.3125,29.3125,32.9375,35.4375,36.5
0.21205398,-1.9268179,-1.3265232,-1.3617996,-0.049247738,0.1008999,-0.16602275,-0.3993163,-0.3655363,0.059938468,-3.0759325,0.6201267,-0.00044530406,-0.101465344,0.030985333,0.0011324995,0.031977925,0.0011595365,0.017100183,0.4921061,-1.3681581,1.8868779,-2.0854094,-1.5734433,2.4644666,-0.12565354,0.13124874,-0.17136298,0.053920448,-0.029353982,-0.14255242,-0.7278373,0.22984336,-9.959879,0.9298854,47.7254,-1.102222,-2.3223276,-3.3710728,-0.13995893,-0.40007395,-0.37790418,28.9375,30.3125,29.3125,32.9375,35.4375,36.5
0.21405376,-1.3404481,-0.5400886,-1.0747459,-0.048115052,0.11918608,-0.18114604,-0.39953274,-0.36548838,0.059957046,-3.0759015,0.6200762,-0.00037445012,-0.10072995,0.030556878,0.00085659145,0.034053314,0.0011225445,0.025190445,0.49186766,-1.3678936,1.8864955,-2.0853012,-1.5735043,2.4642007,-0.123076215,0.13197346,-0.1717792,0.054600626,-0.031181568,-0.14805807,-0.7086837,0.17238252,-9.959879,0.8537928,47.687782,-1.1210272,-2.4061368,-3.3320622,-0.13447274,-0.39716345,-0.37298766,28.9375,30.3125,29.3125,32.9375,35.4375,36.5
0.2160534,-0.93331915,-0.18592578,-1.0306085,-0.026653554,0.12604049,-0.1792399,-0.39974213,-0.36543262,0.05997369,-3.075903,0.6199179,-0.0003150134,-0.102907114,0.031843502,0.0005064716,0.035590023,0.0015756577,0.030499043,0.49161497,-1.3676525,1.8861483,-2.0852058,-1.573553,2.4638493,-0.12614909,0.13454719,-0.17408673,0.054627683,-0.032779187,-0.15643221,-0.6703765,0.17238252,-9.998186,0.83813137,47.691364,-0.9831037,-2.4006686,-3.3619673,-0.108230114,-0.36917746,-0.30350018,28.9375,30.3125,29.3125,32.9375,35.4375,36.5
0.21805416,-1.4870524,0.1044312,-0.7069968,-0.024296794,0.12259842,-0.18737504,-0.39998198,-0.36537698,0.06000955,-3.0759077,0.619758,-0.00013341574,-0.10352211,0.031078717,0.0014770178,0.035233926,0.0038067386,0.042255238,0.4913642,-1.3674123,1.885764,-2.0851343,-1.5736488,2.4634984,-0.12487923,0.13444646,-0.17620732,0.054663006,-0.033541434,-0.16691725,-0.6512229,0.13407528,-9.864111,0.8537928,47.67345,-1.1438951,-2.373559,-3.2594981,-0.080424756,-0.37877285,-0.20204797,28.9375,30.3125,29.3125,32.9375,35.4375,36.5
0.22005369,-1.1147534,-0.18262993,-0.6305858,-0.00023475973,0.12561053,-0.16792952,-0.40019053,-0.3653209,0.060007676,-3.0758777,0.619671,-0.000105519,-0.105372205,0.03208131,0.0011659465,0.03690917,0.0038322231,0.045001797,0.49111193,-1.3671352,1.8854183,-2.0850503,-1.5736974,2.4631958,-0.12722993,0.13710643,-0.17887625,0.05541364,-0.035053656,-0.17200667,-0.6512229,0.15322891,-9.710882,0.8717007,47.668976,-1.1479652,-2.4699843,-3.396905,-0.06742795,-0.34230375,-0.10537414,28.9375,30.3125,29.3125,32.9375,35.4375,36.5
0.22205377,-1.4095662,0.44257274,-0.7951884,-0.003861762,0.10747062,-0.17786975,-0.40040043,-0.36528617,0.060026314,-3.0759196,0.61944824,-8.232375e-05,-0.10506807,0.033235885,-0.0004774318,0.040162917,0.0017343864,0.04550523,0.49087235,-1.3668702,1.8850349,-2.0849426,-1.5737103,2.462812,-0.12766239,0.13922906,-0.17772573,0.055518236,-0.036935464,-0.17293556,-0.7086837,0.19153613,-9.634268,0.9097417,47.71286,-1.1585815,-2.4401531,-3.4107828,-0.04863887,-0.3233199,-0.04291679,28.9375,30.3125,29.3125,32.9375,35.4375,36.5
0.22405343,-1.2756715,0.36348808,-0.46548423,-0.010003631,0.09363321,-0.1683773,-0.40063176,-0.36521006,0.06003368,-3.075847,0.6193406,-2.4023504e-05,-0.105720155,0.034606367,-0.0024632395,0.042257585,-0.0022959174,0.037488144,0.4905957,-1.3665802,1.884642,-2.08481,-1.5738066,2.4624777,-0.13051032,0.14335379,-0.17842065,0.056619436,-0.036879763,-0.1677648,-0.57460845,0.095768064,-9.576807,0.80456203,47.698532,-0.9590504,-2.6208093,-3.4647565,-0.018596787,-0.3406334,-0.077338375,28.9375,30.3125,29.3125,32.9375,35.4375,36.5
0.22605419,-1.8802459,-0.64990467,-0.28475848,-0.0039877547,0.06488723,-0.15068194,-0.4008643,-0.3651422,0.060044874,-3.0757937,0.6192755,8.6548636e-05,-0.10727324,0.035423175,-7.083983e-05,0.04165026,0.0008950839,0.027017077,0.49033195,-1.3663054,1.8842691,-2.0847256,-1.573903,2.4621804,-0.13261628,0.14019796,-0.1806306,0.058888704,-0.03782836,-0.15939626,-0.63206923,-0.11492168,-9.423578,0.9388393,47.690468,-1.1689191,-2.3932152,-3.4206157,-0.0108421445,-0.3161294,-0.15159899,28.9375,30.3125,29.3125,32.9375,35.4375,36.5
0.22805353,-0.667963,0.583251,0.24093452,-0.019673781,0.08410634,-0.17731917,-0.40107322,-0.3650445,0.060004655,-3.0756752,0.6191763,3.299488e-05,-0.107456066,0.03652037,-0.000989021,0.04534725,-0.0005486428,0.021308405,0.49003226,-1.3659803,1.8839477,-2.0846174,-1.5739874,2.4618342,-0.13295473,0.14224626,-0.18141936,0.0606456,-0.04041757,-0.15401071,-0.6512228,-0.1340753,-9.289502,0.83589023,47.667187,-0.98896563,-2.5608606,-3.495136,-0.0046316986,-0.27508545,-0.22727212,28.9375,30.3125,29.3125,32.9375,35.4375,36.5
0.23005408,-0.12494206,1.2782105,0.42378357,0.014678781,0.07730796,-0.18258151,-0.40131453,-0.3649856,0.06004222,-3.0756598,0.619193,0.00021539147,-0.10867596,0.037023406,-0.00067347626,0.046663575,-0.00075441616,0.01679669,0.48976856,-1.3657516,1.8835753,-2.0845563,-1.5740718,2.4615831,-0.13417003,0.14382195,-0.18458126,0.06302416,-0.041468162,-0.15071215,-0.40222588,-0.24899697,-9.097966,0.8403672,47.675243,-1.0507065,-2.3841891,-3.412891,-0.012037162,-0.23914427,-0.3377569,28.9375,30.3125,29.3125,32.9375,35.4375,36.5
0.2320534,0.1895083,1.7166574,0.4098478,0.051780555,0.0580505,-0.17421375,-0.40153238,-0.36490673,0.06005175,-3.075587,0.61910367,0.00025111635,-0.10849069,0.03761679,-0.0010516265,0.047929067,-0.003564318,0.010581097,0.48949268,-1.365487,1.8832048,-2.0844123,-1.5741562,2.461261,-0.13505727,0.14490056,-0.18575428,0.06618714,-0.041257076,-0.14538278,-0.19153613,-0.2681506,-9.097966,0.9388393,47.71286,-1.0679566,-2.3554034,-3.4128106,-0.015889853,-0.23580638,-0.40890634,28.9375,30.3125,29.3125,32.9375,35.4375,36.5
0.23405395,0.3836544,1.7809827,0.7760643,0.07128289,0.035532042,-0.18031025,-0.4017661,-0.36483663,0.06006861,-3.0755038,0.61910474,0.00029980723,-0.10928112,0.03757463,-5.2861396e-05,0.04793805,-0.0031625733,0.009609755,0.48921713,-1.3651985,1.8827862,-2.084255,-1.5742401,2.460997,-0.13549261,0.14493278,-0.18866096,0.06869055,-0.041463863,-0.14484401,-0.21068975,-0.2873042,-8.887277,0.9321212,47.71823,-1.0783706,-2.309834,-3.2834733,-0.03825537,-0.21069843,-0.47807217,28.9375,30.3125,29.3125,32.9375,35.4375,36.5
0.23605381,0.32360998,1.6564442,0.50935686,0.09132031,0.006641909,-0.16802543,-0.40199,-0.3647771,0.060047675,-3.0754473,0.6190305,0.00031115854,-0.10982165,0.037844688,0.00060791016,0.048637226,-0.004768991,0.014959031,0.48895347,-1.364862,1.8824147,-2.084182,-1.5743002,2.4606946,-0.13642447,0.1456342,-0.19202948,0.073062,-0.041352708,-0.15112317,-0.11492168,-0.17238252,-8.6574335,0.83365434,47.711964,-1.1382208,-2.3344553,-3.2274323,-0.04747401,-0.20074478,-0.49132216,28.9375,30.3125,29.3125,32.9375,35.4375,36.5
0.23805365,1.3325613,2.2634752,0.26809743,0.07213402,0.009270831,-0.18708909,-0.40220055,-0.36467144,0.06002908,-3.0753129,0.61887884,0.000266639,-0.109651044,0.038182177,0.00044820175,0.051183674,-0.007895573,0.02649037,0.4886544,-1.3645608,1.8820561,-2.0840008,-1.5744084,2.4603183,-0.13625497,0.14751258,-0.19508608,0.078129075,-0.042186804,-0.16247554,-0.019153614,-0.095768064,-8.734048,0.8806493,47.690468,-1.1868091,-2.3627205,-3.2094367,-0.12747142,-0.14318979,-0.41469613,28.9375,30.3125,29.3125,32.9375,35.4375,36.5
0.24005339,0.93267494,1.2124035,0.4160333,0.04389069,0.003697936,-0.16907243,-0.40242073,-0.36461246,0.06005707,-3.075265,0.6188431,0.00033697177,-0.111225426,0.037861675,0.0029947732,0.048831772,-0.0049222303,0.03732228,0.48840237,-1.3643097,1.8816594,-2.0838563,-1.5744799,2.4600503,-0.13744631,0.1452278,-0.19862999,0.08015902,-0.041549306,-0.174501,0.019153614,-0.15322891,-8.810662,0.9231726,47.690468,-1.197303,-2.1047218,-3.0476599,-0.14720282,-0.12902614,-0.29752117,28.9375,30.3125,29.3125,32.9375,35.4375,36.5
0.24205391,0.33642605,0.255316,0.28621048,0.004065279,-0.0060987403,-0.18279904,-0.40266934,-0.3644832,0.060054947,-3.0750883,0.6187033,0.00036556245,-0.10974209,0.038824786,0.0023032324,0.05246645,-0.010944098,0.045326337,0.488067,-1.363997,1.8812412,-2.0836384,-1.5746483,2.4596508,-0.13739146,0.14638554,-0.20010887,0.087430745,-0.04197386,-0.18244378,-0.038307227,0.11492168,-8.868123,0.8627467,47.709274,-1.155458,-2.0605116,-3.2449565,-0.21429011,-0.11354887,-0.20557258,28.9375,30.3125,29.3125,32.9375,35.4375,36.5
0.24405344,0.21635717,0.032646883,-0.027721327,-0.036545355,0.011039129,-0.17909883,-0.40285352,-0.36440644,0.06004693,-3.0749958,0.6185871,0.00026318387,-0.110069506,0.03972916,0.0017526357,0.052382536,-0.0133038405,0.045567825,0.48780298,-1.3637205,1.8808826,-2.0834348,-1.574696,2.4593263,-0.13983895,0.14727768,-0.20024177,0.08868229,-0.04083047,-0.18513292,-0.076614454,0.15322891,-9.021352,0.8940802,47.698532,-1.083741,-2.0165174,-3.1764083,-0.2944749,-0.08570618,-0.13885856,28.9375,30.3125,29.3125,32.9375,35.4375,36.5
0.24605326,0.14459527,-1.1306586,-0.16209893,-0.045115,0.026516201,-0.18052638,-0.40308082,-0.3643102,0.060047172,-3.0748863,0.6184912,0.00022459806,-0.1118146,0.041286513,0.0011820314,0.052325808,-0.015358897,0.03775085,0.48749,-1.3634194,1.8804759,-2.0832312,-1.5747794,2.4589677,-0.14453907,0.14945856,-0.2018679,0.08989771,-0.03983813,-0.18201594,-0.05746084,0.24899697,-9.251195,0.8784135,47.723602,-1.1007528,-2.0080292,-3.1511211,-0.32277066,-0.088426225,-0.17164364,28.9375,30.3125,29.3125,32.9375,35.4375,36.5
0.24805367,-0.37952226,-1.3792576,-0.41375095,-0.06494834,0.027835818,-0.17437254,-0.40331393,-0.36425558,0.060064375,-3.0748472,0.6183323,0.00023495582,-0.11183324,0.040151697,0.00070422667,0.0509942,-0.015835062,0.03105328,0.487227,-1.3631064,1.8800215,-2.083052,-1.574839,2.4586108,-0.14344062,0.15146938,-0.2029909,0.08881309,-0.038435716,-0.17422417,-0.05746084,0.38307226,-9.346964,0.83813137,47.67614,-1.0789524,-2.0257375,-3.2233338,-0.35946533,-0.08649996,-0.25992706,28.9375,30.3125,29.3125,32.9375,35.4375,36.5
0.250054,-0.5821418,-1.4295611,-0.49903223,-0.0809277,0.027199186,-0.16878384,-0.40351704,-0.36416113,0.060046423,-3.07471,0.6182283,0.00013940794,-0.11432208,0.039965004,0.00036054966,0.047771182,-0.013526634,0.025465809,0.48693854,-1.3627931,1.879639,-2.0828383,-1.574922,2.4582753,-0.1463401,0.15396896,-0.20414719,0.0839012,-0.036708675,-0.17153795,-0.05746084,0.38307226,-9.461885,0.83365434,47.651955,-0.97149515,-2.0550375,-3.3011765,-0.345093,-0.08626232,-0.30757087,28.9375,30.3125,29.3125,32.9375,35.4375,36.5
0.25205338,-0.40771323,-1.4739553,-0.505937,-0.091621414,0.04802691,-0.18207026,-0.40372905,-0.3640833,0.060045503,-3.0746474,0.6180212,0.00011698983,-0.113698594,0.03954342,-0.0015039033,0.047401316,-0.016548602,0.024534617,0.48666313,-1.3625036,1.8792566,-2.082671,-1.5749935,2.4578788,-0.14606413,0.15704386,-0.20331426,0.08246822,-0.03498808,-0.17033632,-0.05746084,0.40222588,-9.672575,0.9164598,47.717335,-0.9443716,-2.1738105,-3.3482203,-0.31789213,-0.09879768,-0.35381663,28.9375,30.3125,29.3125,32.9375,35.4375,36.5
0.254054,-0.45968154,-1.471186,-0.5363819,-0.09394001,0.054022856,-0.18381476,-0.4039732,-0.36399162,0.06004894,-3.074528,0.61805385,0.0001385911,-0.1173115,0.038384918,0.0005820547,0.04192206,-0.007962609,0.023276217,0.486351,-1.362192,1.8788384,-2.082506,-1.5750893,2.4576027,-0.14773872,0.15622734,-0.2055167,0.07530413,-0.03420173,-0.1707534,-0.15322891,0.4405331,-9.691729,0.89631605,47.686886,-0.920176,-2.024627,-3.553506,-0.28390396,-0.103884615,-0.35773814,28.9375,30.3125,29.3125,32.9375,35.4375,36.5
0.25605366,-0.64481753,-1.3635654,-0.60814685,-0.09499672,0.055731185,-0.18920818,-0.40419808,-0.3639109,0.06003584,-3.0744507,0.61793524,9.191513e-05,-0.11811144,0.037303198,-0.00035205664,0.03985594,-0.00678419,0.029682681,0.48605227,-1.3618668,1.8784436,-2.082352,-1.5751489,2.45724,-0.14730977,0.15895718,-0.20567784,0.070677325,-0.032980062,-0.17673364,-0.076614454,0.49799395,-9.768343,0.90527004,47.69763,-1.199261,-2.220362,-3.5392294,-0.2348281,-0.09926069,-0.346057,28.9375,30.3125,29.3125,32.9375,35.4375,36.5
0.2580534,-1.2901671,-1.55787,-0.8071908,-0.077668674,0.04783897,-0.1802182,-0.40443212,-0.3638303,0.060022254,-3.0743852,0.61774194,6.797792e-05,-0.11800764,0.03701505,-0.0020404279,0.04058081,-0.01004291,0.039175406,0.48575303,-1.3615288,1.8780369,-2.082208,-1.5752205,2.4568288,-0.14715892,0.16302146,-0.20681489,0.07090315,-0.032155953,-0.18607655,-0.05746084,0.5363012,-9.653421,0.9410752,47.674347,-1.1329073,-2.3200502,-3.5221806,-0.22292325,-0.11149824,-0.29866636,28.9375,30.3125,29.3125,32.9375,35.4375,36.5
0.26005402,-0.87253237,-1.2050898,-0.7619418,-0.06993889,0.05125937,-0.18587035,-0.4046809,-0.36377546,0.06005163,-3.0743897,0.61756337,0.0001531472,-0.120865904,0.036230065,-0.0017527071,0.03725986,-0.0058383807,0.04789701,0.485477,-1.3612399,1.8775944,-2.0820782,-1.5752805,2.456441,-0.14885858,0.16536832,-0.20912652,0.06552906,-0.031238895,-0.19650197,-0.1340753,0.4405331,-9.710882,0.900793,47.67166,-1.1065598,-2.453048,-3.6434891,-0.15603718,-0.12779419,-0.15248765,28.9375,30.3125,29.3125,32.9375,35.4375,36.5
0.26205367,-0.8160718,-0.48561826,-0.46423396,-0.06884116,0.048667178,-0.18624906,-0.4049212,-0.3636919,0.060019832,-3.0743234,0.61747074,0.00010689246,-0.121993996,0.036453333,-0.0031085147,0.037155982,-0.008316086,0.05033927,0.48515296,-1.3608785,1.8772115,-2.0819829,-1.5753282,2.4560678,-0.15088323,0.16962244,-0.21118821,0.06543595,-0.030034428,-0.20097162,-0.114921674,0.34476504,-9.749189,0.90750587,47.67614,-1.0819381,-2.3825657,-3.6920204,-0.11503622,-0.14011568,-0.07655591,28.9375,30.3125,29.3125,32.9375,35.4375,36.5
0.26405418,-0.52600425,-0.4551587,-0.4087114,-0.04901411,0.030431032,-0.18378437,-0.40520456,-0.36361048,0.060039125,-3.0742903,0.6173886,0.00021650731,-0.12392862,0.03677469,-0.0003847046,0.034674995,-0.0037451903,0.045708682,0.48481682,-1.3605556,1.8767561,-2.081875,-1.5754122,2.455685,-0.15306847,0.16608681,-0.21327733,0.06584503,-0.029967591,-0.1985273,-0.19153614,0.30645782,-9.672575,0.85155696,47.688675,-0.97442067,-2.3794909,-3.533909,-0.08409819,-0.14966865,-0.0632357,28.9375,30.3125,29.3125,32.9375,35.4375,36.5
0.2660537,-0.31816626,-0.06481285,-0.44529903,-0.032092534,0.02285238,-0.17547253,-0.40542945,-0.36356598,0.06003159,-3.0742767,0.6171578,0.00018857972,-0.12583688,0.036523417,-0.0001315221,0.034450587,-0.0028263368,0.038351346,0.48456514,-1.3602071,1.876325,-2.081743,-1.5754484,2.455291,-0.15411371,0.16887376,-0.21733558,0.06621501,-0.030196572,-0.19221072,-0.4213795,0.22984336,-9.500193,0.8873621,47.681515,-1.0201842,-2.407163,-3.483276,-0.05446034,-0.15131241,-0.12961209,28.9375,30.3125,29.3125,32.9375,35.4375,36.5
0.26805416,0.16735888,0.58201814,-0.38779718,-0.007428159,0.028662173,-0.18471684,-0.4056767,-0.36350733,0.060050305,-3.0742574,0.61709905,0.00024386615,-0.1265839,0.03710893,-0.000872239,0.0354957,-0.004398545,0.029769108,0.48427725,-1.3599066,1.8758944,-2.0816224,-1.5754961,2.4549692,-0.15555434,0.17134312,-0.21887928,0.06718457,-0.030367946,-0.18506762,-0.28730422,0.21068975,-9.481039,0.87393653,47.70032,-0.99495643,-2.4343596,-3.4020958,-0.04344992,-0.15781444,-0.22795074,28.9375,30.3125,29.3125,32.9375,35.4375,36.5
0.27005383,-0.38847935,0.95365214,-0.21798617,-0.0020281773,0.03905057,-0.18330608,-0.4059253,-0.3634237,0.060031984,-3.074175,0.61704624,0.00021255901,-0.12695025,0.036639526,-0.00054208876,0.034996547,-0.004658871,0.022078428,0.48395413,-1.3595464,1.8754739,-2.0814903,-1.5755562,2.454624,-0.1553458,0.17222819,-0.22103995,0.06847385,-0.029796982,-0.17716844,-0.47884035,0.095768064,-9.481039,0.8560339,47.711063,-1.0937493,-2.4194999,-3.4194152,-0.024176244,-0.1818174,-0.33099395,28.9375,30.3125,29.3125,32.9375,35.4375,36.5
0.2720533,-1.0145886,0.20972581,-0.23481314,0.011401914,0.055644702,-0.17690757,-0.4061795,-0.3633692,0.060061216,-3.0741572,0.61694676,0.00025420208,-0.12698667,0.03595069,0.0003641623,0.034311038,-0.004886878,0.018822026,0.48366708,-1.3592348,1.8749951,-2.081322,-1.5756034,2.4542773,-0.15457034,0.17208941,-0.2235506,0.0710068,-0.029074604,-0.17313966,-0.4405331,0.11492168,-9.442732,0.8940802,47.72271,-1.0826211,-2.3609562,-3.3561802,-0.009886618,-0.20979924,-0.41450006,28.9375,30.3125,29.3125,32.9375,35.4375,36.5
0.27405402,-1.405386,0.20656972,-0.11321313,0.0015088082,0.07538225,-0.19345428,-0.40642223,-0.36330605,0.060029775,-3.0741143,0.6168409,0.0001596492,-0.12760709,0.03730775,6.4064065e-05,0.036200795,-0.0070918975,0.01775092,0.48335478,-1.3588386,1.8745631,-2.0812013,-1.5756162,2.4539046,-0.15687792,0.17329049,-0.22507541,0.07414679,-0.029744843,-0.17436977,-0.5746084,0.0,-9.423578,0.8806493,47.70211,-1.011802,-2.3009763,-3.2420473,-0.017421149,-0.22057693,-0.47807118,28.9375,30.3125,29.3125,32.9375,35.4375,36.5
0.2760536,-0.86063886,0.18080717,-0.0397945,-0.0024006679,0.10963811,-0.19300221,-0.40667003,-0.36321715,0.060047295,-3.0740337,0.6167184,0.00013611522,-0.12678075,0.038184386,-0.0010034434,0.04044996,-0.011583746,0.029013729,0.48303178,-1.3585265,1.8740968,-2.080972,-1.5756887,2.4535158,-0.15645704,0.17572229,-0.22676085,0.07928287,-0.031476025,-0.18519986,-0.5554548,-0.1340753,-9.442732,0.8873621,47.71286,-1.1838825,-2.2146006,-3.3391466,-0.05083666,-0.19793995,-0.4115672,28.9375,30.3125,29.3125,32.9375,35.4375,36.5
0.2780533,-1.1030182,0.40817368,-0.009440463,0.00091774156,0.10543484,-0.19937661,-0.40695867,-0.3631551,0.06007923,-3.0740178,0.6165715,0.00028349008,-0.12661515,0.03888948,-0.00011592301,0.04138104,-0.013416902,0.04245551,0.48273215,-1.358191,1.8735937,-2.0808508,-1.5757846,2.4531267,-0.15736708,0.17455746,-0.22852129,0.08416493,-0.031497538,-0.19955331,-0.3256114,-0.17238252,-9.595961,0.8985519,47.668976,-1.2085574,-2.2683225,-3.329812,-0.10104371,-0.22155157,-0.311963,28.9375,30.3125,29.3125,32.9375,35.4375,36.5
0.28005373,-1.1263297,0.8881247,0.0062475605,0.0048639677,0.083629966,-0.19804296,-0.4071958,-0.36307845,0.060071405,-3.0739567,0.6164761,0.00018447217,-0.12557036,0.0386642,5.445832e-05,0.042496912,-0.016060807,0.05196911,0.4824093,-1.3578432,1.8731498,-2.0806577,-1.5758079,2.4527524,-0.15608676,0.17462675,-0.2299847,0.08836212,-0.031314813,-0.20778461,-0.36391866,-0.24899697,-9.442732,0.900793,47.68062,-1.3018501,-2.1944642,-3.258974,-0.14592484,-0.24383524,-0.18196753,28.9375,30.3125,29.3125,32.9375,35.4375,36.5
0.2820533,-0.9101577,1.349202,-0.050459143,0.02951799,0.06123797,-0.1821117,-0.40744403,-0.36298847,0.060048155,-3.073898,0.6162516,0.00016268558,-0.12688419,0.040144604,0.0001324361,0.043599553,-0.017428933,0.051292256,0.4820847,-1.3574831,1.8727425,-2.0805376,-1.5758804,2.4522953,-0.15938851,0.17564717,-0.23205684,0.09110045,-0.031692322,-0.2104047,-0.45968673,-0.24899697,-9.32781,0.9321212,47.67345,-1.2283158,-2.1639354,-3.313422,-0.19514674,-0.2548585,-0.14488061,28.9375,30.3125,29.3125,32.9375,35.4375,36.5
0.2840542,-0.57675064,1.7666416,-0.21727905,0.05296352,0.03547083,-0.18030371,-0.40771154,-0.36291122,0.060069453,-3.0738206,0.61606634,0.00015140933,-0.12789415,0.0420763,-0.00024743026,0.046333008,-0.01893934,0.042898048,0.48177218,-1.3571234,1.8722047,-2.0802848,-1.5759653,2.4518774,-0.16234569,0.17683865,-0.23325928,0.093724,-0.03341577,-0.20495534,-0.36391866,-0.3256114,-9.32781,0.9254084,47.667187,-1.1085844,-2.0487897,-3.4799411,-0.21030554,-0.2684833,-0.1761716,28.9375,30.3125,29.3125,32.9375,35.4375,36.5
0.28605396,0.27160096,1.837681,-0.109279536,0.060893923,0.033614576,-0.1940149,-0.40797076,-0.3628411,0.06007702,-3.0738032,0.61593,0.00015130003,-0.12807111,0.041808553,-0.0010066719,0.047721032,-0.020604704,0.036318913,0.4814493,-1.3567866,1.8717498,-2.0801408,-1.5760015,2.4514718,-0.16167703,0.17984702,-0.23551783,0.095115095,-0.03386426,-0.19770296,-0.36391866,-0.2873042,-9.385271,0.87617236,47.704796,-1.2503077,-2.125594,-3.405905,-0.25303608,-0.28644222,-0.25831836,28.9375,30.3125,29.3125,32.9375,35.4375,36.5
0.28805432,-0.6105319,0.9659103,-0.15263006,0.055833336,0.0129869385,-0.18136808,-0.4082444,-0.36271137,0.060069785,-3.0736423,0.61587787,0.00011944548,-0.12850304,0.041880384,-0.0010603503,0.04819439,-0.020596161,0.03215071,0.48106572,-1.3564266,1.871282,-2.0799134,-1.5761217,2.4510767,-0.16179481,0.18082541,-0.23671941,0.095537014,-0.034311388,-0.1936456,-0.34476504,-0.24899697,-9.3661175,0.8784135,47.65464,-1.3941525,-2.1604803,-3.4322877,-0.26906666,-0.26437587,-0.33287537,28.9375,30.3125,29.3125,32.9375,35.4375,36.5
0.29005337,-0.96837515,0.41305342,-0.1524792,0.025512792,0.026547879,-0.18342273,-0.40849182,-0.36265853,0.060085904,-3.0735862,0.6158084,0.00010179445,-0.12832078,0.042231925,-0.0023451399,0.05033191,-0.024140423,0.03170579,0.48078978,-1.3560777,1.8707794,-2.0797093,-1.5761698,2.450765,-0.16195971,0.18406901,-0.23830938,0.09799859,-0.034584858,-0.1933615,-0.34476504,-0.15322891,-9.308656,0.91421866,47.694946,-1.3937328,-2.2644234,-3.4692316,-0.30590948,-0.2798725,-0.3513083,28.9375,30.3125,29.3125,32.9375,35.4375,36.5
0.29205358,-0.46372086,-0.1012478,-0.19586518,-0.006069728,0.055626057,-0.19686708,-0.4087399,-0.3625582,0.06006164,-3.073469,0.6157056,-1.7500015e-05,-0.1311674,0.042116117,-0.0022259504,0.047946565,-0.020591473,0.032679282,0.48044112,-1.3556932,1.8703235,-2.0794957,-1.5762295,2.4503675,-0.16440476,0.18634267,-0.24037771,0.0935003,-0.03418312,-0.19677658,-0.095768064,-0.1340753,-9.423578,0.98807013,47.704796,-1.3886185,-2.3327036,-3.4432666,-0.2999029,-0.30601853,-0.41160947,28.9375,30.3125,29.3125,32.9375,35.4375,36.5
0.29405418,-0.57680744,-0.8076909,-0.30459636,-0.043373644,0.05903269,-0.19693656,-0.40900972,-0.36246297,0.06007573,-3.0733857,0.61551,-1.766138e-05,-0.13301165,0.042565525,-0.0020606432,0.047652505,-0.019743526,0.041255154,0.4801043,-1.3553449,1.869821,-2.0792677,-1.5763253,2.4499195,-0.16653116,0.1881079,-0.24288192,0.09326257,-0.034396317,-0.20747444,0.019153614,0.038307227,-9.442732,0.947788,47.70211,-1.2458932,-2.309361,-3.499954,-0.28451806,-0.32387254,-0.31321663,28.9375,30.3125,29.3125,32.9375,35.4375,36.5
0.29605392,-0.9224265,-1.2030284,-0.10297585,-0.07853904,0.049287766,-0.19993362,-0.40928313,-0.36235875,0.060065527,-3.0732565,0.61532295,1.9509851e-05,-0.13674372,0.04357136,-0.0016864052,0.04651171,-0.014002419,0.050096266,0.4797793,-1.3549607,1.8693417,-2.0790904,-1.5764698,2.4494946,-0.17030042,0.1894507,-0.24409871,0.08741069,-0.036138486,-0.22007117,-0.17238252,0.21068975,-9.500193,0.9321212,47.687782,-1.2415893,-2.401252,-3.459851,-0.26484847,-0.30703062,-0.19790265,28.9375,30.3125,29.3125,32.9375,35.4375,36.5
0.29805356,-1.0017626,-1.4077113,-0.16805226,-0.095962256,0.052784026,-0.19913559,-0.40954822,-0.362283,0.06008044,-3.0732524,0.6150889,7.678241e-06,-0.13758907,0.042823203,-0.0015818239,0.045688596,-0.010732521,0.05579592,0.47944343,-1.3546249,1.868863,-2.0789125,-1.5765065,2.4490132,-0.16917026,0.19013941,-0.2443874,0.083686866,-0.03696613,-0.22463426,-0.21068975,0.34476507,-9.481039,0.9164598,47.689575,-1.275309,-2.2478669,-3.5871472,-0.19632477,-0.3097402,-0.114984855,28.9375,30.3125,29.3125,32.9375,35.4375,36.5
0.30005395,-0.41933814,-1.6523044,-0.44954732,-0.08421021,0.06264886,-0.19193508,-0.40982196,-0.3621912,0.06004779,-3.0731475,0.61499316,-5.542986e-05,-0.14092371,0.04224774,0.0009185525,0.042245273,-0.0038769967,0.049242083,0.479095,-1.3541934,1.8683823,-2.0787575,-1.5765785,2.448619,-0.17092137,0.1891613,-0.24835806,0.08096478,-0.037097465,-0.21982567,-0.19153613,0.40222588,-9.595961,0.9030289,47.660015,-1.1836537,-2.3174272,-3.5022216,-0.16235575,-0.30600783,-0.08336192,28.9375,30.3125,29.3125,32.9375,35.4375,36.5
0.3020539,-1.5309446,-2.0063913,-0.52612454,-0.082851335,0.027720831,-0.19411121,-0.41008738,-0.362102,0.060072657,-3.0731137,0.61476284,-3.440111e-05,-0.14337698,0.042303223,0.0014158112,0.040837437,-0.00062158244,0.03744191,0.47875842,-1.3538815,1.8679041,-2.0785549,-1.5766505,2.448143,-0.1728971,0.19066013,-0.25076735,0.07836847,-0.03732784,-0.20999719,-0.34476507,0.53630114,-9.557653,0.98807013,47.70032,-1.1252435,-2.2454233,-3.470313,-0.10612135,-0.3332061,-0.21269426,28.9375,30.3125,29.3125,32.9375,35.4375,36.5
0.30405384,-0.5866386,-2.014625,-0.2786154,-0.084755905,0.057788648,-0.20035622,-0.4103724,-0.36201563,0.06006434,-3.0730507,0.61463785,-2.8902932e-05,-0.14348179,0.043233566,0.00055360474,0.042526055,-0.0040210257,0.02802173,0.4784097,-1.3534851,1.8674124,-2.0784104,-1.5767225,2.4477246,-0.1744729,0.1928093,-0.25214863,0.08141483,-0.03723701,-0.20215093,-0.47884035,0.5554548,-9.519346,0.8985519,47.683304,-1.0512846,-2.1200192,-3.4137099,-0.10853732,-0.33666426,-0.30767938,28.9375,30.3125,29.3125,32.9375,35.4375,36.5
0.30605364,-0.6870581,-1.1539146,-0.55804396,-0.06874697,0.052218232,-0.2012935,-0.4106625,-0.3619014,0.06004592,-3.072918,0.61461633,-5.807985e-05,-0.14599977,0.044240568,0.0010477313,0.041466575,-0.0010622119,0.017118169,0.47802487,-1.353077,1.8669218,-2.078231,-1.5768183,2.4473438,-0.17795843,0.19331054,-0.2534255,0.07908952,-0.037657663,-0.19472611,-0.49799395,0.59376204,-9.519346,0.93436235,47.694946,-1.0812856,-2.15106,-3.480754,-0.073243774,-0.33520204,-0.4134519,28.9375,30.3125,29.3125,32.9375,35.4375,36.5
0.3080541,-1.213926,-0.97756255,-0.56333447,-0.057315163,0.05636828,-0.19411516,-0.41096494,-0.36185744,0.06006131,-3.0729206,0.6144805,3.9971164e-05,-0.14627838,0.043946225,0.0010345133,0.042636953,-0.0010637707,0.017716544,0.47772527,-1.3526692,1.8663701,-2.0781229,-1.5768789,2.4469593,-0.1769463,0.19479576,-0.2555044,0.080206595,-0.038695246,-0.19430636,-0.36391866,0.4405331,-9.500193,0.9097417,47.66539,-1.1099465,-2.058453,-3.4669757,-0.025277954,-0.33474076,-0.50044966,28.9375,30.3125,29.3125,32.9375,35.4375,36.5
0.3100537,-1.1561447,-0.7962835,-0.20156214,-0.06195917,0.085601784,-0.20002678,-0.41127786,-0.36177942,0.060098413,-3.0729067,0.61447155,0.00012552283,-0.14663456,0.04446367,0.0013432306,0.043898955,-0.0018561361,0.027059892,0.47735283,-1.3523215,1.8658308,-2.0779665,-1.5769275,2.4465833,-0.17748827,0.19521308,-0.2573527,0.082839854,-0.039498653,-0.20418783,-0.4405331,0.30645782,-9.385271,0.8537928,47.66987,-1.1303309,-2.0523267,-3.4450245,-0.06391166,-0.36178452,-0.45074922,28.9375,30.3125,29.3125,32.9375,35.4375,36.5
0.3120534,-1.2646059,-0.19851975,0.0067551667,-0.038698886,0.09138012,-0.1999325,-0.411569,-0.36168838,0.060084824,-3.0728388,0.6142966,0.000101213,-0.14874618,0.045346577,0.00081447227,0.044948634,-0.0015427311,0.03942385,0.47699195,-1.3519009,1.8653163,-2.0777996,-1.5769995,2.4461222,-0.17994435,0.19842875,-0.25999716,0.08235557,-0.04067758,-0.21899678,-0.28730422,0.21068975,-9.251195,1.0037369,47.704796,-1.0039275,-2.1259675,-3.5002198,-0.006387872,-0.34694487,-0.34692565,28.9375,30.3125,29.3125,32.9375,35.4375,36.5
0.3140541,-1.1577754,0.59964573,-0.18994713,-0.0004408558,0.08786434,-0.20238717,-0.41184664,-0.3616138,0.06007253,-3.072828,0.61403674,9.474645e-05,-0.14918572,0.045746103,8.387416e-05,0.047040112,-0.0039382237,0.050608218,0.4766561,-1.3515038,1.864837,-2.0776784,-1.5770477,2.4456255,-0.1803593,0.20143169,-0.2626169,0.084966935,-0.041509856,-0.23058851,-0.3256114,-0.019153614,-9.32781,0.91198283,47.677036,-1.0426767,-2.1404264,-3.345662,0.001778105,-0.3603739,-0.19594952,28.9375,30.3125,29.375,32.9375,35.4375,36.5
0.3160538,-0.58608913,1.3846807,0.115096375,0.029297112,0.07261394,-0.19018927,-0.41218218,-0.36152282,0.0600807,-3.072764,0.6139653,0.00017972759,-0.14843129,0.046182178,-0.0011740836,0.050145518,-0.007583641,0.05324482,0.47627255,-1.3510714,1.8642634,-2.077534,-1.5771445,2.445206,-0.1796134,0.20404808,-0.2636747,0.0880264,-0.042613182,-0.23247167,-0.2873042,-0.21068975,-9.193734,0.9791215,47.716442,-1.1079144,-2.326949,-3.4277945,0.0072684768,-0.34261358,-0.13752666,28.9375,30.3125,29.375,32.9375,35.4375,36.5
0.31805354,-0.3836538,1.923672,0.35580477,0.045445725,0.05989098,-0.19696166,-0.41246122,-0.3614315,0.06008301,-3.072702,0.61374205,0.00020937974,-0.14751798,0.04566985,-0.0005989955,0.052457206,-0.008354355,0.048678394,0.4759374,-1.3506998,1.8637713,-2.0773652,-1.5772408,2.4447396,-0.17682216,0.2040034,-0.26587886,0.09203751,-0.044294532,-0.22510053,-0.5363012,-0.2681506,-9.174581,0.947788,47.683304,-1.287709,-2.2202346,-3.4808192,-0.019522503,-0.32977113,-0.20720953,28.9375,30.3125,29.375,32.9375,35.4375,36.5
0.32005328,0.022271313,2.0999227,0.5212568,0.06608042,0.052148152,-0.19333303,-0.4127698,-0.36133277,0.06008216,-3.072622,0.6136355,0.00025060837,-0.14757687,0.04652963,-0.00044227904,0.056764375,-0.010219875,0.04157502,0.4755649,-1.3502913,1.8632439,-2.0772073,-1.5773376,2.4443111,-0.17637403,0.2054025,-0.26923734,0.09765064,-0.04724615,-0.21752694,-0.4405331,-0.36391866,-8.887277,0.8717007,47.65912,-1.3687818,-2.3071978,-3.4627275,-0.035212893,-0.31229323,-0.3117287,28.9375,30.3125,29.375,32.9375,35.4375,36.5
0.3220539,-0.17704372,2.3656914,0.32486445,0.09751732,0.023990322,-0.18492381,-0.4130766,-0.3612171,0.060058683,-3.072474,0.6134714,0.00019935028,-0.14817227,0.048553303,-0.00037429566,0.06057795,-0.012878191,0.034916576,0.47518066,-1.3498238,1.8626808,-2.076978,-1.5774587,2.4438438,-0.17879498,0.20624112,-0.27176812,0.10344418,-0.0494335,-0.21326812,-0.34476504,-0.4405331,-8.887277,0.9835985,47.668976,-1.5074418,-2.2571204,-3.3462195,-0.08509168,-0.28437203,-0.36367324,28.9375,30.3125,29.375,32.9375,35.4375,36.5
0.32405367,0.67493784,2.5325325,0.2410059,0.09624191,0.023195388,-0.2020744,-0.41337302,-0.36114815,0.060087472,-3.072429,0.6131912,0.00023975155,-0.14713685,0.04934317,-0.0010019573,0.063495845,-0.018178971,0.036939956,0.4748685,-1.3494276,1.8620819,-2.0767362,-1.5775551,2.4433627,-0.17897491,0.20774274,-0.2736466,0.10981983,-0.04962603,-0.21546797,-0.21068975,-0.4213795,-8.963891,0.9298854,47.66987,-1.4952185,-2.2202954,-3.3724546,-0.16583121,-0.26329458,-0.41529745,28.9375,30.3125,29.375,32.9375,35.4375,36.5
0.32605347,0.3867493,2.1733675,0.36940047,0.07785509,0.009930031,-0.20482595,-0.4136558,-0.36102548,0.06006262,-3.0722847,0.61311585,0.00013837626,-0.1483942,0.051262096,-0.0015473877,0.06706619,-0.020622317,0.044378534,0.47447193,-1.3490075,1.8615788,-2.0765078,-1.5776399,2.442938,-0.18181387,0.21034284,-0.2765001,0.11377794,-0.05178695,-0.22572307,-0.15322891,-0.4405331,-9.002198,0.97464454,47.67614,-1.39942,-2.2614868,-3.3377209,-0.2326011,-0.24458005,-0.31267512,28.9375,30.3125,29.375,32.9375,35.4375,36.5
0.32805336,0.7449447,1.7782362,0.4352715,0.051064108,0.024886569,-0.20830193,-0.4139415,-0.3609156,0.060043834,-3.072137,0.61286813,8.4124375e-05,-0.14997965,0.05221262,-0.0010380753,0.069269314,-0.019373957,0.05472165,0.4741233,-1.3485632,1.8610276,-2.076256,-1.5777725,2.442454,-0.18302849,0.21143454,-0.27939463,0.11535748,-0.054432936,-0.2372547,-0.11492168,-0.36391866,-9.040505,0.90750587,47.690468,-1.3331189,-2.2333224,-3.2254376,-0.28387663,-0.2038427,-0.20624596,28.9375,30.3125,29.375,32.9375,35.4375,36.5
0.3300539,0.18476304,0.91513014,-0.03167466,0.035050765,0.03284251,-0.1905245,-0.41422504,-0.36077976,0.060021594,-3.071947,0.612732,-3.9537164e-05,-0.15301268,0.053219784,-0.00021836485,0.070275076,-0.0155924335,0.05648143,0.4737263,-1.3481307,1.8604878,-2.075957,-1.5778931,2.441997,-0.18553177,0.21291502,-0.2829,0.11440649,-0.05715209,-0.2414871,-0.11492168,-0.28730422,-9.078813,0.9321212,47.713753,-1.2020552,-2.4401855,-3.160716,-0.31028864,-0.14060906,-0.105362415,28.9375,30.3125,29.375,32.9375,35.4375,36.5
0.33205417,-0.47495428,0.11953284,-0.2813504,0.00014875813,0.039468747,-0.19291426,-0.41455686,-0.3606724,0.06005162,-3.0718653,0.6125456,5.2470743e-05,-0.15426786,0.053235948,-0.0014992335,0.06798471,-0.016191492,0.05014797,0.47334194,-1.3477346,1.8598894,-2.075731,-1.5780243,2.441507,-0.18788818,0.21595477,-0.28297415,0.11089752,-0.05484945,-0.23752493,-0.095768064,-0.1340753,-9.251195,0.92764956,47.704796,-1.2953191,-2.4411402,-3.28494,-0.30661297,-0.12380633,-0.12877843,28.9375,30.3125,29.375,32.9375,35.4375,36.5
0.33405384,-0.65437627,-1.174106,-0.26897597,-0.043365337,0.06725351,-0.19238712,-0.41486144,-0.36055043,0.060043752,-3.0717118,0.6124034,2.6245569e-05,-0.15501547,0.05328161,-0.0020740577,0.06772679,-0.015061561,0.040775806,0.4729578,-1.3473023,1.8593277,-2.0754802,-1.5781568,2.4410543,-0.18829365,0.21737121,-0.28287622,0.10827552,-0.055134337,-0.22854938,-0.24899697,0.038307227,-9.346964,0.9567419,47.707485,-1.2659094,-2.3352334,-3.3473454,-0.29430848,-0.121934935,-0.21082778,28.9375,30.3125,29.375,32.9375,35.4375,36.5
0.3360533,-1.6752067,-2.0488155,-0.2997964,-0.09149851,0.077255294,-0.19261155,-0.41513696,-0.36043924,0.06002714,-3.0715556,0.61226064,-3.6012574e-05,-0.15776543,0.053089377,-0.002029222,0.0643659,-0.008969834,0.029207416,0.47260916,-1.3468827,1.8588017,-2.0752327,-1.578277,2.440637,-0.19033013,0.21825366,-0.2822485,0.099836454,-0.054923993,-0.21901117,-0.40222588,0.24899697,-9.481039,0.9321212,47.705692,-1.1535244,-2.3736863,-3.5769444,-0.22584055,-0.09206958,-0.3484063,28.9375,30.3125,29.375,32.9375,35.4375,36.5
0.33805376,-1.5857042,-2.2837143,-0.60454446,-0.11914003,0.08545736,-0.18817483,-0.41545725,-0.3603268,0.060013752,-3.071422,0.6121596,-7.1651186e-05,-0.15863018,0.05339589,-0.0016706719,0.06278308,-0.008530028,0.020083707,0.47221258,-1.346415,1.8582143,-2.0750043,-1.5783843,2.440195,-0.19216567,0.21811154,-0.28291932,0.09954441,-0.053710736,-0.2117262,-0.38307226,0.34476504,-9.576807,0.92093146,47.6636,-1.1268923,-2.2470284,-3.5962834,-0.193589,-0.08076312,-0.46906495,28.9375,30.3125,29.375,32.9375,35.4375,36.5
0.3400536,-1.5343125,-2.442862,-0.53060627,-0.12874305,0.08728953,-0.19468266,-0.41579133,-0.36023274,0.060018696,-3.0713515,0.61206686,-1.3763648e-05,-0.16112973,0.052968614,-0.00068480434,0.058472935,-0.004039607,0.021172492,0.47182766,-1.3459717,1.8576282,-2.0748394,-1.5784792,2.4397616,-0.1944914,0.2180567,-0.28412887,0.09477717,-0.051965874,-0.21515279,-0.4405331,0.38307226,-9.5385,0.94331104,47.640312,-1.0207486,-2.2931886,-3.5792184,-0.1412527,-0.08320168,-0.4992684,28.9375,30.3125,29.375,32.9375,35.4375,36.5
0.3420533,-1.7126881,-2.1758425,-0.8272177,-0.10485171,0.062020615,-0.18860687,-0.41610733,-0.36011598,0.060004693,-3.0712416,0.6119016,3.1331503e-05,-0.16280547,0.0521071,-0.0002195461,0.054703,-0.0037437503,0.032566,0.47144264,-1.3455395,1.8571008,-2.074683,-1.5786103,2.439288,-0.19622484,0.21990049,-0.28735957,0.09402617,-0.048856206,-0.22830015,-0.59376204,0.51714754,-9.595961,1.044019,47.681515,-0.85508204,-2.1767287,-3.8013015,-0.12760742,-0.09361385,-0.4390725,28.9375,30.3125,29.375,32.9375,35.4375,36.5
0.34405398,-0.7000116,-1.400253,-1.1090131,-0.06981614,0.068880945,-0.20340331,-0.41643277,-0.36003095,0.060005844,-3.0711987,0.6117316,2.2047605e-05,-0.16444147,0.050881755,0.0010846293,0.05111954,-0.0018462939,0.046230167,0.47105902,-1.3450835,1.8565019,-2.0744917,-1.5786694,2.438804,-0.1967622,0.2205731,-0.29117075,0.093695685,-0.04664346,-0.24251613,-0.61291564,0.6703764,-9.691729,0.9567419,47.698532,-0.8607551,-2.1574726,-3.6381128,-0.09512489,-0.103797205,-0.30355904,28.9375,30.3125,29.375,32.9375,35.4375,36.5
0.3460533,-1.2540668,-1.188835,-1.1118399,-0.05777507,0.06878548,-0.19590975,-0.41677463,-0.35992265,0.06000461,-3.0711074,0.61157113,4.3932887e-05,-0.16373509,0.048965972,0.0010175062,0.04942259,-0.0031200692,0.05503228,0.4706522,-1.3446151,1.8558906,-2.0742881,-1.5787767,2.438309,-0.194033,0.22218703,-0.29324216,0.094418675,-0.044619165,-0.24860185,-0.78529817,0.61291564,-9.80665,0.9634547,47.698532,-1.2150459,-2.0818624,-3.6169953,-0.08017759,-0.12911218,-0.20085046,28.9375,30.3125,29.375,32.9375,35.4375,36.5
0.34805387,-2.349935,-1.8638419,-1.0779891,-0.053799197,0.06731114,-0.17421441,-0.41707298,-0.3598402,0.060005967,-3.0710368,0.6113315,-1.2986787e-05,-0.16369022,0.048065286,-0.0003585544,0.050120328,-0.008318122,0.04910146,0.47030443,-1.3441699,1.8552903,-2.074036,-1.5788487,2.437821,-0.19340901,0.22774829,-0.29786795,0.09844709,-0.042877406,-0.24205428,-0.7852981,0.5363012,-9.749189,0.96569055,47.675243,-1.310247,-2.2574522,-3.461109,-0.09394759,-0.16811168,-0.22529161,28.9375,30.3125,29.375,32.9375,35.4375,36.5
0.35005355,-1.8737476,-1.6826922,-0.83205503,-0.065253966,0.10558304,-0.18526475,-0.41741762,-0.35973513,0.05999261,-3.0709577,0.61126137,-5.4538286e-05,-0.16419247,0.0479656,0.00010436959,0.049450926,-0.008908521,0.041801203,0.46987203,-1.3436778,1.8546795,-2.0738432,-1.5789078,2.4373553,-0.19402766,0.22830597,-0.3001374,0.10040159,-0.042001426,-0.23537578,-0.6512229,0.47884032,-9.691729,0.9164598,47.66808,-1.3013092,-2.3469608,-3.4792047,-0.08877008,-0.17135389,-0.32287437,28.9375,30.3125,29.375,32.9375,35.4375,36.5
0.3520533,-1.7548138,-1.3423558,-0.9170702,-0.043027665,0.08684999,-0.17510477,-0.41772553,-0.3596378,0.05995096,-3.0708373,0.6111042,-0.00014569402,-0.16326183,0.049086805,-0.00039391124,0.051788244,-0.015210052,0.03773552,0.46949938,-1.3431622,1.8541039,-2.0736487,-1.5789922,2.4369004,-0.19540794,0.22958305,-0.30235374,0.108002745,-0.04124701,-0.23269053,-0.40222588,0.34476504,-9.672575,0.9925471,47.70211,-1.2636701,-2.3211694,-3.374085,-0.1714006,-0.19868535,-0.41374326,28.9375,30.3125,29.375,32.9375,35.4375,36.5
0.3540541,-0.69429255,-0.13359696,-1.0386568,-0.0177316,0.04838382,-0.1899631,-0.4180842,-0.3595389,0.059955742,-3.0707624,0.6109521,-5.7658457e-05,-0.16286281,0.050908424,-0.0020635698,0.054507513,-0.020349745,0.038364924,0.4691028,-1.342682,1.8534716,-2.0734804,-1.5791119,2.4364188,-0.19784743,0.23179175,-0.30206013,0.111245945,-0.041379295,-0.23575813,-0.095768064,0.21068975,-9.653421,0.9298854,47.678825,-1.2566104,-2.4481149,-3.4900162,-0.18983322,-0.20939833,-0.4214099,28.9375,30.3125,29.375,32.9375,35.4375,36.5
0.35605347,-0.01584864,0.3925492,-0.5960217,-0.0017547446,0.01774856,-0.18920574,-0.41843158,-0.35944474,0.059972875,-3.0707078,0.6108963,-1.3385979e-05,-0.16238682,0.051371776,-0.0030197666,0.056590315,-0.024231808,0.048126016,0.46869513,-1.3422375,1.8528489,-2.0732877,-1.5791839,2.4359837,-0.19793221,0.23413327,-0.30359986,0.114733405,-0.04156496,-0.24560203,-0.1340753,0.076614454,-9.519346,0.9925471,47.690468,-1.360714,-2.444425,-3.607539,-0.25084493,-0.22100228,-0.35935104,28.9375,30.3125,29.375,32.9375,35.4375,36.5
0.35805324,0.63535464,1.0467017,-0.2810852,0.010381133,-0.0046752966,-0.19368461,-0.41877583,-0.3593511,0.059984263,-3.0706556,0.6106677,-1.431019e-06,-0.16370507,0.051695623,-0.0035160563,0.05759478,-0.02531751,0.059973735,0.46829858,-1.341768,1.8522009,-2.0730598,-1.5792679,2.4354513,-0.19909999,0.23743339,-0.3068583,0.11596919,-0.042092994,-0.2586108,0.076614454,-0.15322891,-9.3661175,0.9030289,47.661808,-1.3454942,-2.6313372,-3.5418878,-0.27793533,-0.23903945,-0.1945591,28.9375,30.3125,29.375,32.9375,35.4375,36.5
0.3600538,0.6148302,1.0819668,-0.45206484,0.05818472,-0.038485613,-0.17702395,-0.41909873,-0.3592539,0.059962176,-3.0705743,0.61040086,-6.214724e-05,-0.16481319,0.05187635,-0.0029890342,0.056352507,-0.024416983,0.062310383,0.4679145,-1.341265,1.8515905,-2.0728443,-1.5793518,2.4349113,-0.20055585,0.23758908,-0.30832648,0.11584593,-0.04146625,-0.26240426,0.11492168,-0.30645782,-9.251195,0.9612189,47.653748,-1.2449816,-2.6835744,-3.4694562,-0.26459563,-0.23365696,-0.11992051,28.9375,30.3125,29.375,32.9375,35.4375,36.5
0.36205333,1.2476729,1.82706,-0.27910545,0.070278294,-0.040572003,-0.17967439,-0.4194526,-0.35917193,0.059978645,-3.070543,0.6102264,1.0821895e-05,-0.16804428,0.05191458,-0.0017640825,0.053952225,-0.020976704,0.051891245,0.46752954,-1.3407972,1.8509434,-2.0726655,-1.5794352,2.4344215,-0.20354287,0.2391166,-0.31281826,0.11468272,-0.040854335,-0.25497547,0.095768064,-0.4405331,-9.193734,0.99702406,47.70211,-1.251439,-2.6231265,-3.4223962,-0.27764058,-0.26993972,-0.12268923,28.9375,30.3125,29.375,32.9375,35.4375,36.5
0.36405417,0.5941841,1.4930911,-0.19146948,0.0695534,-0.04411665,-0.17709345,-0.41979674,-0.35906,0.05997287,-3.070473,0.6101049,-3.2895196e-07,-0.17122723,0.052028045,-0.00067525206,0.051302075,-0.016436147,0.03903599,0.4670968,-1.3403293,1.8503441,-2.0724752,-1.5795077,2.4339223,-0.20644356,0.24006104,-0.31585917,0.11158239,-0.04051226,-0.24502003,0.038307227,-0.45968673,-9.270349,0.87617236,47.687782,-1.1738439,-2.588374,-3.2368467,-0.22439927,-0.30255982,-0.24696496,28.9375,30.3125,29.375,32.9375,35.4375,36.5
0.3660539,0.9877372,1.3457955,-0.37817827,0.047589652,-0.009671386,-0.18840282,-0.42012772,-0.35894573,0.059972245,-3.0703197,0.61002034,-3.979937e-05,-0.17329283,0.051126245,0.0012141388,0.048377223,-0.011083533,0.029539758,0.46670017,-1.3398494,1.849697,-2.0721886,-1.5796274,2.4334931,-0.20664309,0.23915818,-0.31862107,0.10918818,-0.04029988,-0.23571959,0.038307227,-0.2681506,-9.136273,0.98135734,47.716442,-1.0769616,-2.657556,-3.3246837,-0.18720143,-0.31568918,-0.38298923,28.9375,30.3125,29.375,32.9375,35.4375,36.5
0.36805415,0.089082606,0.2932083,-0.4783022,0.030695677,0.019984854,-0.17596887,-0.42045355,-0.35883555,0.059966054,-3.070231,0.6098889,-0.00012160842,-0.17595017,0.052167643,0.0024366009,0.04695181,-0.0068852236,0.023396807,0.46627927,-1.3393826,1.8490862,-2.0719378,-1.579688,2.433002,-0.21004458,0.23837504,-0.3200541,0.10701015,-0.04094145,-0.23296832,-0.076614454,-0.21068975,-9.289503,0.92764956,47.692257,-0.84059066,-2.4376025,-3.2739158,-0.13024105,-0.33942366,-0.4823057,28.9375,30.3125,29.375,32.9375,35.4375,36.5
0.37005392,-0.53100544,-0.052981976,-0.7371877,-0.025954783,0.0638642,-0.20157441,-0.42078373,-0.35872927,0.059957057,-3.0701084,0.60970336,-0.00020139091,-0.17695375,0.052700624,0.0018815129,0.04719415,-0.0066551724,0.03252187,0.4658828,-1.3388786,1.8484281,-2.0716512,-1.5797838,2.4325058,-0.21133277,0.24004993,-0.3206476,0.10570236,-0.041382205,-0.24337319,-0.076614454,-0.095768064,-9.500193,0.9097417,47.67614,-0.83746755,-2.3605895,-3.3426068,-0.10006228,-0.37688994,-0.4631183,28.9375,30.3125,29.375,32.9375,35.4375,36.5
0.37205365,-1.3335608,-0.9084274,-0.57484996,-0.078646645,0.09910845,-0.19292985,-0.4211333,-0.3586069,0.059953455,-3.0700326,0.6095828,-0.0002867445,-0.17586055,0.053375453,0.00096180197,0.049323745,-0.010504385,0.04829044,0.46541488,-1.3383987,1.8477944,-2.0713985,-1.579832,2.4319727,-0.21115097,0.24102284,-0.3205381,0.10884564,-0.04170045,-0.25895455,-0.24899697,-0.095768064,-9.615114,1.0126908,47.69763,-0.93850034,-2.3160439,-3.484675,-0.106211215,-0.37908965,-0.30747056,28.9375,30.3125,29.375,32.9375,35.4375,36.5
0.37405354,-1.6238401,-1.010674,-0.518966,-0.10143612,0.12602094,-0.19703487,-0.42148665,-0.35851493,0.059966248,-3.069969,0.6093151,-0.00025095925,-0.17651184,0.053345967,0.0015389883,0.049378205,-0.007864569,0.056401055,0.46503124,-1.3379073,1.8471125,-2.0711596,-1.5799407,2.4314303,-0.21067013,0.24043234,-0.32088768,0.10734268,-0.043017782,-0.26657173,-0.4405331,0.11492168,-9.615114,0.9612189,47.688675,-1.1294501,-2.2608395,-3.6060548,-0.12043689,-0.37926275,-0.16779234,28.9375,30.3125,29.375,32.9375,35.4375,36.5
