Tylouw/Master_Thesis_Code/training_data/batch_1/rect_rod_t0.2/sample_78_session_3.csv
timestamp[s],tcp_force_x[N],tcp_force_y[N],tcp_force_z[N],tcp_force_rx[Nm?],tcp_force_ry[Nm?],tcp_force_rz[Nm?],tcp_pose_x[m],tcp_pose_y[m],tcp_pose_z[m],tcp_pose_rx[rot_vec_x],tcp_pose_ry[rot_vec_y],tcp_pose_rz[rot_vec_z],tcp_velo_x[m/s],tcp_velo_y[m/s],tcp_velo_z[m/s],tcp_velo_rx[rot_vec_x/s],tcp_velo_ry[rot_vec_y/s],tcp_velo_rz[rot_vec_z/s],q1[rad],q2[rad],q3[rad],q4[rad],q5[rad],q6[rad],qd1[rad/s],qd2[rad/s],qd3[rad/s],qd4[rad/s],qd5[rad/s],qd6[rad/s],tool_acc_x,tool_acc_y,tool_acc_z,current_of_whole_robot[A],voltage_of_whole_robot[V],current_J1[A],current_J2[A],current_J3[A],current_J4[A],current_J5[A],current_J6[A],temp_J1[C],temp_J2[C],temp_J3[C],temp_J4[C],temp_J5[C],temp_J6[C]
1.0690001e-06,1.1672136,0.7340772,1.2206464,-0.025186025,0.023423832,-0.024320224,-0.38932347,-0.3687161,0.059988283,-3.0787003,0.6249083,0.00015060724,0.0018165963,0.0009986187,-0.0014741179,0.0022752415,-0.0043509835,7.827947e-05,0.5050329,-1.3816319,1.9042357,-2.0919268,-1.5708417,2.4800134,-5.842921e-05,0.00016979108,0.0026883767,0.0020500117,0.00012460793,-0.00013818426,0.095768064,0.17238252,-8.6574335,0.800085,47.70659,-0.24516052,-3.0821216,-2.4580204,-0.20092747,0.098507576,0.0068477634,28.9375,30.375,29.375,33.0,35.4375,36.5
0.002053272,0.7429081,0.22527035,1.1568334,-0.008892653,0.019431477,-0.015321787,-0.38930938,-0.36871535,0.059987355,-3.078684,0.6249242,0.00012754949,-0.0011194133,-0.00063383975,-0.0009087393,-0.0024783488,0.004200539,7.741837e-05,0.5050448,-1.3816435,1.9042472,-2.0919073,-1.5708417,2.4800372,-5.71916e-05,0.001079751,0.0027711687,-0.008726659,0.00012219095,-0.00013482777,0.019153614,0.19153613,-8.6574335,0.7597976,47.71286,-0.20165628,-3.0920043,-2.2714782,-0.16258287,0.095177814,-0.0009117342,28.9375,30.375,29.375,33.0,35.4375,36.5
0.004042629,0.57757497,0.012455793,1.1164192,-0.006769575,0.022891732,-0.018049587,-0.38933754,-0.3687212,0.060001306,-3.0787165,0.62500733,0.0001872198,-0.001988768,-0.0011172682,-0.00096182944,-0.0036513004,0.0063117244,7.585705e-05,0.50502086,-1.3816432,1.9042233,-2.091944,-1.5708297,2.480061,-5.600537e-05,0.0019012508,0.0026220367,-0.01181416,0.00011986625,-0.00013154944,0.019153614,0.19153613,-8.63828,0.7172743,47.71465,-0.20941277,-3.3589687,-2.6276355,-0.02625194,0.07566121,0.017458925,28.9375,30.375,29.375,33.0,35.4375,36.5
0.006052005,1.0495844,0.7845972,1.3358299,-0.010181872,0.018918548,-0.02123552,-0.389327,-0.36870372,0.05996793,-3.0786717,0.6249793,0.00012477243,-0.0008347104,-0.00047524748,-0.0007094909,-0.0017629749,0.0029241515,9.2014605e-05,0.5050088,-1.3816074,1.9042591,-2.091953,-1.5708417,2.4800372,-5.486725e-05,0.00097265124,0.0018879506,-0.006273152,0.00011762812,-0.00014700954,0.05746084,0.19153613,-8.676587,0.75084364,47.73077,-0.21302585,-3.2858777,-2.5610464,-0.06548552,0.090284295,0.010418032,28.9375,30.375,29.375,33.0,35.4375,36.5
0.008051982,1.1592228,1.4450369,0.7157721,0.022790844,-0.008294268,-0.020655578,-0.38932377,-0.36870638,0.05996218,-3.0786724,0.6249795,9.7579534e-05,-0.0001051191,-6.883109e-05,0.000485677,-0.00081316504,0.001230772,9.19061e-05,0.5050088,-1.3815962,1.9042586,-2.0919511,-1.5708297,2.4800372,-5.3774485e-05,-0.0011959353,0.0004785738,-0.0007536394,0.00011547214,-0.0001461605,0.038307227,0.21068975,-8.868123,0.7396539,47.73614,-0.20972979,-3.2375002,-2.492567,-0.103827074,0.07905658,0.018339962,28.9375,30.375,29.375,33.0,35.4375,36.5
0.010052233,1.4557792,1.5309136,0.2231154,0.037719376,-0.0050971056,-0.015317067,-0.38932422,-0.36870766,0.059970103,-3.0786524,0.62493676,0.00013236003,0.0010024443,0.0005538653,0.00010178015,0.0012047497,-0.002395496,7.79089e-05,0.5050329,-1.3815962,1.9042348,-2.0919259,-1.5708655,2.4800372,-6.428855e-05,-0.0010727397,0.00023902855,0.0035126212,0.00011339378,-0.00014300986,-0.019153614,0.15322891,-8.925584,0.7083204,47.668976,-0.7197082,-2.7029161,-2.9921803,-0.14734921,0.04789249,-0.058533415,28.9375,30.375,29.375,33.0,35.4375,36.5
0.012052205,0.4695286,0.5872922,0.11636588,0.013118603,-0.0034076157,-0.017248705,-0.3893479,-0.368695,0.0599848,-3.0786505,0.6249746,0.0001716794,0.0014107599,0.0008430005,-0.0027846787,0.003969906,-0.0072986376,0.00023694854,0.50499684,-1.3816065,1.9042109,-2.0919144,-1.5708774,2.480025,-0.0001425201,0.004661208,3.2068733e-06,0.003643538,6.5252745e-05,-0.0003792125,0.05746084,0.038307227,-9.155427,0.6948948,47.63852,-0.8395556,-2.6455722,-3.1777885,-0.14027008,0.043486424,-0.1258848,28.9375,30.375,29.375,33.0,35.4375,36.5
0.014026274,-0.020205894,-0.22864045,0.10277929,-0.022916693,0.024730522,-0.020477157,-0.38934523,-0.36870033,0.05997789,-3.078668,0.6249382,0.00013228349,-0.0043871677,0.0035119145,-0.0045242216,0.004829787,-0.008805432,0.0002694185,0.50499344,-1.3815911,1.9042085,-2.091915,-1.5708536,2.4799967,-0.010038691,0.013115904,-0.0058235046,0.0027488375,2.6633223e-05,-0.0103039695,0.038307227,0.17238252,-9.346964,0.7396539,47.71017,-0.46120042,-3.2152343,-3.0847225,-0.10203119,0.03777268,-0.11237267,28.9375,30.375,29.375,33.0,35.4375,36.5
0.016041933,-0.20611593,-0.21854523,-0.104646854,-0.06253414,0.053369023,-0.036584686,-0.3893207,-0.36868656,0.059930805,-3.078609,0.6248841,5.546322e-06,-0.0064383894,0.0027990078,-0.0014799703,0.0016264808,-0.0029825468,0.0076546185,0.5049932,-1.3815322,1.9042434,-2.0919025,-1.5708536,2.4799702,-0.010742254,0.009917444,-0.008883784,0.0023605444,3.250122e-06,-0.018391913,-0.30645782,0.24899697,-9.385271,0.73741806,47.698532,-0.49021167,-3.0572639,-3.0404997,-0.08082002,0.049805574,-0.037857205,28.9375,30.375,29.375,33.0,35.4375,36.5
0.018052453,-0.6129144,-0.1861806,-0.1732147,-0.05942776,0.0727314,-0.05489699,-0.3893134,-0.36866572,0.059909977,-3.07856,0.6248539,-0.00012244258,-0.00476524,0.0032794098,-0.0020766307,0.0034992443,-0.006349304,0.011733203,0.5049575,-1.3814963,1.9042319,-2.09183,-1.5708417,2.4799218,-0.0099833775,0.009438061,-0.007665397,0.0054738484,2.1220973e-07,-0.021712523,-0.4405331,0.24899697,-9.385271,0.75084364,47.723602,-0.7035541,-2.7904768,-3.2658823,-0.072810024,0.042184457,-0.010323038,28.9375,30.375,29.375,33.0,35.4375,36.5
0.020056639,-0.91944396,-0.43501523,-0.41796863,-0.019583955,0.07614001,-0.07546932,-0.38934043,-0.36867532,0.059921727,-3.0786037,0.6248827,-9.196959e-05,-0.0048534675,0.004003534,-0.0026549757,0.0052191084,-0.009449938,0.010682362,0.5049332,-1.3814836,1.9041952,-2.0918524,-1.5708174,2.47991,-0.011285081,0.011233228,-0.009219938,0.0087794075,1.385578e-08,-0.021962812,-0.47884035,0.21068975,-9.5385,0.77545905,47.723602,-0.83802116,-2.8165572,-3.408809,-0.10096594,0.025780238,-0.029379176,28.9375,30.375,29.375,33.0,35.4375,36.5
0.022052718,-0.6356351,0.30387813,-0.5797197,-0.0069473763,0.07511284,-0.102806546,-0.38931945,-0.3686684,0.059889276,-3.0785472,0.62479585,-0.00016693301,-0.006905029,0.0041707437,-0.0017628272,0.0044439756,-0.00806155,0.0068368637,0.5049563,-1.3814354,1.9042066,-2.0918286,-1.5708417,2.479886,-0.013487167,0.012269506,-0.012658478,0.009591271,9.0468333e-10,-0.020317914,-0.4213795,0.24899697,-9.653421,0.73069996,47.687782,-0.83758044,-2.6579037,-3.3599482,-0.10047835,0.019160507,-0.04104194,28.9375,30.375,29.375,33.0,35.4375,36.5
0.024052292,-0.11614428,0.62785786,-0.5459282,-0.018046282,0.08719552,-0.12080217,-0.38934833,-0.3686469,0.05989059,-3.0784948,0.62484473,-0.00018603021,-0.008234278,0.00434199,-0.0026096671,0.0047282293,-0.0085895285,0.003418472,0.5049079,-1.3813981,1.9041461,-2.091769,-1.5708655,2.4798748,-0.015020326,0.0155554265,-0.014399541,0.008645844,5.906936e-11,-0.018431347,-0.6512228,0.24899697,-9.672575,0.80456203,47.73256,-0.8832773,-2.767602,-3.3670301,-0.09998171,0.0023905076,-0.06973089,28.9375,30.375,29.375,33.0,35.4375,36.5
0.026051791,-0.554198,0.4540305,-0.55642414,-0.019154416,0.083684996,-0.12387467,-0.38937074,-0.36865088,0.059894186,-3.0785441,0.6247789,-0.00020803716,-0.009469055,0.0048882575,-0.0028196229,0.004833595,-0.00878572,0.00015536453,0.5048713,-1.3813736,1.9041089,-2.0917685,-1.5708297,2.479791,-0.0170947,0.017105572,-0.015761837,0.008681493,3.8568072e-12,-0.017241813,-0.7469909,0.22984336,-9.80665,0.7105615,47.73883,-0.8428141,-2.7397435,-3.3436007,-0.081942715,0.004273395,-0.07563115,28.9375,30.375,29.375,33.0,35.4375,36.5
0.028051669,-0.6424884,0.30007243,-0.58653754,-0.026041064,0.10266403,-0.15232307,-0.38938645,-0.36864093,0.059872802,-3.0785,0.6248279,-0.00024095952,-0.009596643,0.004993281,-0.0031075503,0.0054347524,-0.009874165,-0.00067197793,0.5048473,-1.3813131,1.904086,-2.0917685,-1.5708417,2.479803,-0.017391134,0.018225715,-0.016662925,0.009705736,2.5182195e-13,-0.016710468,-0.82360536,0.21068975,-9.902418,0.7642693,47.73883,-0.8915403,-2.8007863,-3.4336143,-0.087697074,0.0067707794,-0.111628845,28.9375,30.375,29.375,33.0,35.4375,36.5
0.03005249,-0.8186656,0.6328793,-0.3297554,-0.040170085,0.116680995,-0.1636653,-0.38937992,-0.3686487,0.05987348,-3.078512,0.6247351,-0.00028212197,-0.009854516,0.0050293943,-0.0031046655,0.0058923247,-0.010701688,-0.0014975609,0.50485903,-1.3813007,1.9040617,-2.0917323,-1.5708297,2.4797554,-0.017693996,0.019128261,-0.018063106,0.011149243,1.6442173e-14,-0.016187184,-0.7469909,0.038307227,-9.921572,0.7463667,47.72002,-0.9081746,-2.7712688,-3.4221356,-0.0857129,-0.026225863,-0.12410555,28.9375,30.375,29.375,33.0,35.4375,36.5
0.032052472,-1.3613595,0.074574634,-0.40499252,-0.013204456,0.107799426,-0.16584621,-0.38941652,-0.36862153,0.059857566,-3.0784657,0.6248028,-0.0003113398,-0.011390279,0.005606988,-0.0019569555,0.0063023665,-0.008489388,-0.0026285322,0.5047868,-1.381241,1.9040245,-2.0917199,-1.5708421,2.4797313,-0.019206328,0.01856026,-0.020231912,0.012152979,-0.0014328039,-0.016565194,-0.7469909,0.038307227,-9.883265,0.7866488,47.71465,-0.9210057,-2.7121367,-3.3710995,-0.09006551,-0.044543244,-0.16332908,28.9375,30.375,29.375,33.0,35.4375,36.5
0.03400515,-0.87795746,0.67487884,-0.30426392,0.005237715,0.10987624,-0.18005915,-0.38944975,-0.36858818,0.059850648,-3.078398,0.6249232,-0.00033042676,-0.012429339,0.0056758225,-0.0020619729,0.0068204016,-0.0077737947,-0.0024219423,0.5047147,-1.3812042,1.9039887,-2.091684,-1.5708665,2.479743,-0.019790819,0.020196483,-0.021834249,0.011745538,-0.0022384217,-0.01735374,-0.7086837,-0.038307227,-9.883265,0.80456203,47.733456,-0.9608733,-2.7878962,-3.3912005,-0.10077394,-0.04829127,-0.15542161,28.9375,30.375,29.375,33.0,35.4375,36.5
0.036018584,-0.90120214,0.9469203,-0.5635967,0.019000802,0.089097835,-0.183095,-0.3894595,-0.36860675,0.059852947,-3.078429,0.62483287,-0.00039442998,-0.013766709,0.0056941863,-0.0016111186,0.0069505805,-0.0060333,-0.0014421196,0.5047145,-1.3811561,1.9039158,-2.0916364,-1.5708307,2.4796824,-0.02047172,0.021102726,-0.023854285,0.011402722,-0.0032003487,-0.019011565,-0.5554548,-0.15322891,-9.921572,0.65684843,47.745995,-0.9590167,-2.7576745,-3.399281,-0.09014165,-0.030753989,-0.1768086,28.9375,30.375,29.375,33.0,35.4375,36.5
0.03805245,-0.41927394,1.1435468,-0.3235037,0.015734723,0.07844548,-0.2055188,-0.38951385,-0.3686127,0.059880625,-3.078484,0.62488246,-0.0003072738,-0.015002528,0.0061896387,-0.0013041493,0.0062174504,-0.0050011445,-0.0018137944,0.504666,-1.3811439,1.9038438,-2.0916603,-1.5708183,2.479658,-0.022545628,0.021212984,-0.024526024,0.0107056005,-0.0030602105,-0.020713957,-0.4405331,-0.05746084,-9.940725,0.7418897,47.692257,-0.94531196,-2.629621,-3.3460088,-0.08005467,-0.045916237,-0.18368666,28.9375,30.375,29.375,33.0,35.4375,36.5
0.040052608,-0.4813748,0.37489274,-0.48329496,0.020642119,0.057106335,-0.2114656,-0.3895415,-0.36858836,0.059849434,-3.0784063,0.62484795,-0.00034418065,-0.016651787,0.0066880584,-0.0007975575,0.0056919623,-0.004128316,-0.003270292,0.50462914,-1.3810476,1.9037956,-2.0916364,-1.5708665,2.4796095,-0.024945593,0.021896495,-0.026564404,0.01104098,-0.0030280475,-0.021656362,-0.4405331,-0.05746084,-9.768343,0.7709874,47.72002,-0.8910085,-2.7070613,-3.3769321,-0.048137885,-0.036478817,-0.20044678,28.9375,30.375,29.375,33.0,35.4375,36.5
0.042052615,-0.11352934,0.42545012,-0.48037446,0.009088275,0.046997264,-0.21922898,-0.38956937,-0.36857966,0.05984949,-3.078411,0.62482977,-0.00037124517,-0.017381752,0.006675316,-0.0005985954,0.006181497,-0.0050135143,-0.002715669,0.504581,-1.3810109,1.9037465,-2.0916116,-1.5708545,2.4795494,-0.025604459,0.023433845,-0.029346043,0.013296742,-0.003030548,-0.022868667,-0.45968673,0.019153614,-9.615114,0.7463667,47.69763,-0.8662988,-2.7137365,-3.3284678,-0.05495029,-0.07163893,-0.20745674,28.9375,30.375,29.375,33.0,35.4375,36.5
0.044051733,0.2494136,0.30304092,-0.5534349,0.0036527452,0.055776794,-0.21813126,-0.38961837,-0.36856386,0.059851386,-3.078388,0.6248993,-0.0003865758,-0.017949,0.0073444806,-0.00072968344,0.007510896,-0.005751861,-0.0013617753,0.50450885,-1.3809506,1.9036626,-2.091575,-1.570855,2.4795237,-0.02675413,0.02438107,-0.030509844,0.01480462,-0.003838424,-0.025370168,-0.19153613,0.038307227,-9.691729,0.7553206,47.682407,-0.8980303,-2.6858444,-3.3135533,-0.06007368,-0.054666817,-0.22921696,28.9375,30.375,29.375,33.0,35.4375,36.5
0.04605203,0.57465976,0.2005176,-0.5930231,-0.0011429752,0.05957942,-0.21195836,-0.38962987,-0.36853257,0.059847813,-3.0783505,0.6248723,-0.00040486944,-0.018446805,0.008159155,-0.0010817843,0.009502503,-0.0064157695,-0.00029983802,0.50446063,-1.3809503,1.9036621,-2.0915387,-1.5708793,2.4794633,-0.02770176,0.025525458,-0.031339705,0.01603797,-0.005262324,-0.027376406,-0.17238253,0.05746084,-9.691729,0.784413,47.719128,-0.8836148,-2.6291149,-3.346167,-0.078189105,-0.06464032,-0.24157444,28.9375,30.375,29.375,33.0,35.4375,36.5
0.048052035,0.41428787,-0.36432096,-0.48043755,0.009139514,0.053386375,-0.1870317,-0.38966453,-0.3684972,0.059826467,-3.0782845,0.6249155,-0.00047875967,-0.019188013,0.008653838,-0.0010724334,0.009962563,-0.006150826,0.0010890372,0.5043764,-1.380878,1.9036144,-2.091491,-1.5708917,2.4794145,-0.028890317,0.02605001,-0.032013983,0.016178755,-0.0057985797,-0.029952025,-0.11492168,0.19153613,-9.710882,0.7463667,47.72002,-0.9383353,-2.6119094,-3.3785515,-0.07107794,-0.06387005,-0.22930276,28.9375,30.375,29.375,33.0,35.4375,36.5
0.05005257,0.40891945,-0.11383136,-0.34685895,-0.008494532,0.036442943,-0.19951622,-0.38973582,-0.3684928,0.059851225,-3.0782714,0.62491274,-0.00035964785,-0.021233458,0.0086918445,-5.6863537e-05,0.008671889,-0.004429066,0.0011808667,0.5043396,-1.3808177,1.9034814,-2.0914671,-1.5709513,2.4793777,-0.031043788,0.026760513,-0.035257094,0.01657664,-0.0055068117,-0.032196797,-0.019153614,0.21068975,-9.634268,0.78888994,47.687782,-0.8035065,-2.6182027,-3.3642921,-0.09061277,-0.047042966,-0.24458215,28.9375,30.375,29.375,33.0,35.4375,36.5
0.052052524,0.599175,-0.10848583,-0.38628006,-0.01675243,0.02871907,-0.19600554,-0.38977325,-0.36848155,0.05985437,-3.078311,0.6249397,-0.00039514422,-0.022681566,0.00852322,0.0005434803,0.007743581,-0.00283871,0.0011429259,0.5042556,-1.3807935,1.9034456,-2.0914671,-1.5709032,2.4793055,-0.032133423,0.02755124,-0.037462812,0.016151436,-0.0054690777,-0.03324756,0.05746084,0.22984336,-9.576807,0.8291774,47.694946,-0.823799,-2.6340528,-3.3133435,-0.08917527,-0.059215225,-0.23265234,28.9375,30.375,29.375,33.0,35.4375,36.5
0.054052293,0.60390025,-0.35957497,-0.47544706,-0.019971594,0.02085424,-0.19117495,-0.3898298,-0.36847237,0.059878275,-3.078321,0.6249213,-0.0003542151,-0.023702353,0.008912051,0.00062504236,0.0074033607,-0.002301867,0.001166477,0.50419503,-1.3807571,1.9033374,-2.091419,-1.5709156,2.4792323,-0.03375926,0.028138453,-0.038243078,0.015708854,-0.005433658,-0.03489669,0.0,0.19153613,-9.5385,0.7732232,47.737934,-0.83577514,-2.5533113,-3.2831903,-0.08725832,-0.077142425,-0.2501582,28.9375,30.375,29.375,33.0,35.4375,36.5
0.056052517,0.43767363,-0.7818675,-0.27134192,-0.021361193,0.019479433,-0.1890711,-0.3898963,-0.36845005,0.05987846,-3.0782955,0.6249162,-0.0003438043,-0.024963412,0.009620198,0.0007753275,0.008239015,-0.0016423934,0.00096652744,0.5041105,-1.3806728,1.9032291,-2.0913832,-1.5709399,2.479148,-0.035466008,0.029003544,-0.039706048,0.016135143,-0.0064877374,-0.03640067,0.019153614,0.2681506,-9.500193,0.74413085,47.72002,-0.80982924,-2.513135,-3.3394403,-0.08434777,-0.06476256,-0.2604751,28.9375,30.375,29.375,33.0,35.4375,36.5
0.05802283,0.5885007,-0.025138337,-0.26718235,-0.04457932,0.033959504,-0.19189571,-0.3899476,-0.36842686,0.059891462,-3.0782807,0.62489283,-0.00032034607,-0.025605211,0.009583368,0.00089647365,0.00903488,-0.00069657393,0.0022233725,0.50403875,-1.3806365,1.9031457,-2.091335,-1.5709642,2.4790635,-0.0352775,0.02990524,-0.041047767,0.016133962,-0.0076453155,-0.037466034,-0.019153614,0.3256114,-9.500193,0.77545905,47.723602,-0.82159424,-2.5470421,-3.358521,-0.09995271,-0.042850234,-0.265234,28.9375,30.375,29.375,33.0,35.4375,36.5
0.06005218,0.26010463,-0.19865404,-0.18360053,-0.036624238,0.041251596,-0.19181353,-0.38997874,-0.3684389,0.059894722,-3.078295,0.6249143,-0.0003448255,-0.026163828,0.009555015,0.00082963944,0.0096612945,-0.00068734563,0.0034160628,0.504015,-1.3805759,1.9030613,-2.0913112,-1.5709404,2.4790514,-0.03540248,0.031206433,-0.042547934,0.016629813,-0.008201183,-0.038781848,-0.076614454,0.24899697,-9.385271,0.784413,47.71286,-0.8928441,-2.5209708,-3.375134,-0.0914285,-0.057356954,-0.283652,28.9375,30.375,29.375,33.0,35.4375,36.5
0.062052194,-0.014204972,-0.07338085,-0.1433588,-0.029398927,0.045696143,-0.18709752,-0.39004382,-0.36840326,0.05989271,-3.0782948,0.6248765,-0.0003594452,-0.027882839,0.00996837,0.0013761572,0.008584292,0.0002639782,0.0017304767,0.50389427,-1.3805157,1.9029893,-2.0912874,-1.5709404,2.478907,-0.037994795,0.031818073,-0.044517152,0.016631331,-0.0077232276,-0.039688528,-0.05746084,0.3256114,-9.308657,0.800085,47.72808,-0.8125162,-2.466917,-3.2679944,-0.106411755,-0.058913544,-0.29504886,28.9375,30.375,29.375,33.0,35.4375,36.5
0.06405223,-0.08852997,-0.2033742,-0.09387561,-0.01969537,0.04153113,-0.18529731,-0.39009663,-0.36839682,0.059877347,-3.078276,0.62489,-0.00038881914,-0.028715782,0.010095122,0.0013300986,0.008970549,0.0003849324,0.0038317146,0.50383407,-1.380407,1.902893,-2.0912755,-1.5709404,2.4788578,-0.038730443,0.03315073,-0.04605643,0.016918838,-0.008125283,-0.04252362,-0.05746084,0.28730422,-9.346964,0.78888994,47.72092,-0.78041685,-2.4691157,-3.349615,-0.10793382,-0.06716087,-0.31621858,28.9375,30.375,29.375,33.0,35.4375,36.5
0.066052414,0.41794348,-0.3714559,0.05105248,-0.009424237,0.055914823,-0.18190266,-0.3901385,-0.3683754,0.059877124,-3.0782468,0.6248258,-0.0004076612,-0.029481508,0.010166998,0.001593837,0.008513408,0.00053434307,0.004680235,0.5037738,-1.3803467,1.9028085,-2.0912154,-1.5709642,2.4787612,-0.03976419,0.033695094,-0.047403533,0.017366858,-0.007801784,-0.04440567,-0.15322891,0.19153613,-9.385271,0.70608455,47.71465,-0.8600322,-2.4495592,-3.2947326,-0.11845029,-0.05767283,-0.31275332,28.9375,30.375,29.375,33.0,35.4375,36.5
0.0680524,0.2834791,0.14597951,0.041453682,-0.01237302,0.049529325,-0.18492362,-0.3902014,-0.36836055,0.059883002,-3.078239,0.62486243,-0.00041005926,-0.030245893,0.010062689,0.0016665322,0.008163879,0.00045438917,0.00421328,0.5036898,-1.3802742,1.9027013,-2.0911791,-1.5709637,2.478701,-0.04050924,0.03488811,-0.049065508,0.017735187,-0.007460362,-0.044683628,-0.17238252,0.19153613,-9.308656,0.7665104,47.713753,-0.85102427,-2.462182,-3.342819,-0.1133489,-0.069926105,-0.33459568,28.9375,30.375,29.375,33.0,35.4375,36.5
0.070052244,0.2382747,0.018847072,0.049145784,0.00036001013,0.054339964,-0.19705315,-0.3902652,-0.36834133,0.059902456,-3.0782647,0.62484694,-0.00033980893,-0.031006271,0.010173296,0.00179005,0.00774011,3.611919e-05,0.0050103865,0.50360566,-1.38025,1.9026283,-2.0911787,-1.5709761,2.478604,-0.041755717,0.035792314,-0.050593857,0.018517328,-0.0068880557,-0.04672803,-0.15322891,0.15322891,-9.212888,0.7486078,47.72002,-0.8832805,-2.4285305,-3.3290358,-0.12896374,-0.09812541,-0.35967284,28.9375,30.375,29.375,33.0,35.4375,36.5
0.07205217,0.34576032,0.9637788,0.05155757,-0.014442929,0.06663179,-0.19339009,-0.39034936,-0.368306,0.059899427,-3.078218,0.6248169,-0.00032014042,-0.032031026,0.010493634,0.0019811352,0.008089296,0.00035043358,0.0072405958,0.5034975,-1.3801416,1.9024962,-2.091131,-1.5710238,2.4784832,-0.042953745,0.036752805,-0.052315388,0.019169161,-0.007351179,-0.05015439,-0.28730422,0.19153613,-9.232041,0.78217715,47.7254,-0.8655498,-2.3929472,-3.3090847,-0.13890694,-0.11521506,-0.35546976,28.9375,30.375,29.375,33.0,35.4375,36.5
0.07405224,-0.062056474,0.06302466,0.037994526,0.012319832,0.068471335,-0.17943858,-0.39040798,-0.36830255,0.059931375,-3.0782444,0.624762,-0.00029151636,-0.032292616,0.010882974,0.0017472649,0.008962133,-0.00037379333,0.011761806,0.5034373,-1.3801053,1.9023641,-2.091059,-1.5710243,2.4783854,-0.04358746,0.037559647,-0.05293427,0.020036051,-0.0077673728,-0.055308376,-0.2681506,0.13407528,-9.232041,0.800085,47.746887,-0.8764044,-2.3765504,-3.339578,-0.15683857,-0.0964233,-0.30809888,28.9375,30.375,29.375,33.0,35.4375,36.5
0.07605253,-0.2422207,0.7416702,0.06535674,0.006821464,0.07367078,-0.18373649,-0.3904563,-0.36828637,0.059935495,-3.0782633,0.6246683,-0.00029235633,-0.034316197,0.01088015,0.0023351894,0.008869807,0.0010273941,0.012075371,0.50336504,-1.3800565,1.9022917,-2.0910347,-1.5710243,2.4782524,-0.04508829,0.03949121,-0.056681577,0.020580934,-0.008370611,-0.057119794,-0.40222588,0.11492168,-9.32781,0.683705,47.70032,-0.89580715,-2.441594,-3.2456577,-0.15362723,-0.10341531,-0.2877179,28.9375,30.375,29.375,33.0,35.4375,36.5
0.07805265,-0.5566712,0.5508766,0.038903084,0.019493371,0.07386915,-0.17216057,-0.39054,-0.36826533,0.05993012,-3.0782673,0.62468946,-0.00030671761,-0.03502632,0.012334786,0.00093139085,0.010262464,-0.0014258592,0.0104361735,0.5032441,-1.3799477,1.9021724,-2.0910227,-1.5710124,2.4781442,-0.04816531,0.04180096,-0.05623845,0.020648178,-0.008407611,-0.058557358,-0.30645782,0.019153614,-9.346964,0.7486078,47.71823,-0.77901113,-2.3942058,-3.2256956,-0.1682634,-0.11214881,-0.29421866,28.9375,30.375,29.375,33.0,35.4375,36.5
0.0800526,-0.41688216,0.4526399,-0.16617867,0.020834176,0.07916786,-0.18281773,-0.39060515,-0.36824298,0.059903655,-3.0782108,0.6246728,-0.0003570808,-0.034473453,0.012316248,0.0006835228,0.012333189,-0.0019360197,0.016904645,0.5031609,-1.3798031,1.9020532,-2.0909855,-1.5710367,2.4780579,-0.04663172,0.042361345,-0.05663208,0.021928852,-0.009980648,-0.06348837,-0.34476504,-0.095768064,-9.3661175,0.7709874,47.68062,-0.8656312,-2.4955814,-3.457014,-0.17836392,-0.09970282,-0.2648158,28.9375,30.375,29.375,33.0,35.4375,36.5
0.082052216,-0.23045598,0.66274565,0.2319994,0.014173338,0.08743265,-0.18960476,-0.390673,-0.3682185,0.059932843,-3.07824,0.6245613,-0.00031451543,-0.036325563,0.012758107,0.0011901291,0.013177529,-0.00046032268,0.019861067,0.5030646,-1.3797787,1.9019445,-2.090926,-1.5710496,2.4778883,-0.04818406,0.043817427,-0.05966419,0.022621075,-0.011438528,-0.06799303,-0.4213795,-0.1340753,-9.251195,0.8247004,47.704796,-0.9053371,-2.425951,-3.3793883,-0.2034466,-0.10123211,-0.21841511,28.9375,30.375,29.375,33.0,35.4375,36.5
0.08405218,-0.27082452,0.47324365,-0.041554473,0.026090434,0.08441569,-0.18102044,-0.39076507,-0.36819443,0.059954908,-3.0782459,0.62446475,-0.00022278927,-0.0383614,0.012881135,0.0018513235,0.013087902,0.000952947,0.02164528,0.5029683,-1.3797059,1.9018,-2.0908902,-1.5710977,2.4777312,-0.04989766,0.04548565,-0.063298814,0.023302512,-0.012047609,-0.07148837,-0.47884035,0.038307227,-9.32781,0.79560274,47.731667,-0.8710926,-2.4660406,-3.164236,-0.200358,-0.07634165,-0.18223841,28.9375,30.375,29.375,33.0,35.4375,36.5
0.08605172,-0.13819692,0.6906285,-0.22515012,0.020807767,0.07626081,-0.18800697,-0.39081803,-0.3681617,0.05991984,-3.0781832,0.624375,-0.00034148394,-0.03863636,0.014553996,0.00049456186,0.015002216,-0.0010025561,0.02204687,0.50287133,-1.3795615,1.9016927,-2.0908182,-1.5711097,2.4775863,-0.0524987,0.04671803,-0.0616104,0.023017213,-0.012789719,-0.0744886,-0.47884035,0.0,-9.3661175,0.7866488,47.728977,-0.83762276,-2.4958892,-3.3047266,-0.21351656,-0.09635246,-0.14620133,28.9375,30.375,29.375,33.0,35.4375,36.5
0.088051654,-0.32177317,0.35883954,-0.16513053,0.005675802,0.07292889,-0.1791244,-0.39088523,-0.3681375,0.05992282,-3.0781705,0.6243132,-0.0003586306,-0.0396133,0.014134141,0.0011849465,0.013589294,-0.00036860575,0.023642123,0.50277543,-1.3794773,1.9015726,-2.090758,-1.5711216,2.4774535,-0.053269915,0.04721279,-0.06389446,0.023563689,-0.011864958,-0.07685579,-0.45968673,-0.019153614,-9.404425,0.7665104,47.719128,-0.7612683,-2.390043,-3.2982254,-0.20205306,-0.06920915,-0.11022633,28.9375,30.375,29.375,33.0,35.4375,36.5
0.0900527,0.45218715,0.77225107,0.15802044,-0.020708622,0.09816876,-0.18666415,-0.39096704,-0.36810312,0.059924494,-3.078156,0.62421215,-0.00036496914,-0.039164733,0.013288609,0.00075581926,0.013654054,-0.0021309627,0.026345696,0.5026563,-1.3793805,1.9014405,-2.0906975,-1.5711454,2.4772732,-0.051912695,0.049082644,-0.06540972,0.024777945,-0.011076825,-0.07820277,-0.4405331,0.076614454,-9.346964,0.73741806,47.70211,-0.98866487,-2.5013313,-3.28638,-0.24513716,-0.108926974,-0.08186583,28.9375,30.375,29.375,33.0,35.4375,36.5
0.0920525,-0.15016417,0.031670522,-0.13588446,-0.003434942,0.08571777,-0.1858001,-0.39103383,-0.3680843,0.059910055,-3.0781624,0.6241178,-0.00044664994,-0.040269747,0.014292024,0.0005194185,0.014589952,-0.0030381884,0.023793932,0.5025476,-1.3792598,1.9013199,-2.0906498,-1.5711216,2.477105,-0.054378,0.05043092,-0.06675445,0.026022391,-0.01146465,-0.07811431,-0.40222588,0.05746084,-9.481039,0.8717007,47.698532,-0.938699,-2.431485,-3.2396615,-0.2726457,-0.089572445,-0.058524646,28.9375,30.375,29.375,33.0,35.4375,36.5
0.09405252,0.006181259,0.47806698,-0.02819291,-0.017727632,0.09177612,-0.18984553,-0.39114136,-0.36804035,0.059934624,-3.0781446,0.6240956,-0.0003707928,-0.041447602,0.014728642,0.0007646735,0.015039442,-0.0018495203,0.021670183,0.5024036,-1.3791876,1.9011649,-2.0905898,-1.5711697,2.4769495,-0.055590685,0.05108161,-0.068041876,0.025832394,-0.012433202,-0.077200755,-0.3256114,0.076614454,-9.500193,0.7620334,47.71286,-0.90290356,-2.46391,-3.3165607,-0.27575147,-0.106101796,-0.06509542,28.9375,30.375,29.375,33.0,35.4375,36.5
0.09605191,0.90026146,0.13616082,-0.07703812,-0.011539022,0.112885095,-0.1770538,-0.39118743,-0.36801204,0.059881214,-3.0780616,0.6239641,-0.0004524764,-0.042045597,0.0151306065,-0.0003489268,0.017347557,-0.0032957462,0.020110045,0.5023434,-1.3790183,1.9010805,-2.0905654,-1.5712184,2.4768178,-0.055986527,0.0544319,-0.06961725,0.026437372,-0.013769878,-0.076030955,-0.28730422,0.19153613,-9.500193,0.800085,47.699425,-0.9291508,-2.5699506,-3.2720332,-0.28772464,-0.054807678,-0.0663501,28.9375,30.375,29.375,33.0,35.4375,36.5
0.09805205,0.44751024,-0.2480258,-0.016979767,-0.010929037,0.10069411,-0.17702308,-0.39131832,-0.3679785,0.05993053,-3.0780735,0.62396693,-0.00034502774,-0.04293701,0.015178204,0.0010040969,0.015861247,-0.0017750137,0.017633222,0.5021873,-1.3789467,1.9008645,-2.090481,-1.5712537,2.4766622,-0.05723404,0.05285924,-0.07105386,0.027392037,-0.01319622,-0.07480352,-0.3256114,0.2681506,-9.385271,0.779936,47.705692,-0.9559488,-2.4204383,-3.3637292,-0.31328493,-0.08786025,-0.08431783,28.9375,30.375,29.375,33.0,35.4375,36.5
0.10005229,-0.2654628,-0.43982428,-0.13537382,-0.013378036,0.06529116,-0.17062749,-0.3913987,-0.36794257,0.059918884,-3.0780509,0.62390417,-0.00034968223,-0.0434762,0.0151929315,0.00076238305,0.016161162,-0.0019148091,0.015759137,0.50206757,-1.3788382,1.9007572,-2.0904577,-1.5712785,2.4765062,-0.057624996,0.054209854,-0.07209853,0.027351152,-0.013396001,-0.07331899,-0.2681506,0.24899697,-9.346964,0.78217715,47.687782,-0.9690639,-2.4476173,-3.3419614,-0.3341965,-0.07722345,-0.11399754,28.9375,30.375,29.375,33.0,35.4375,36.5
0.10205231,0.4503775,-0.30254376,-0.47946617,-0.02612967,0.058715977,-0.17606688,-0.39148557,-0.36793187,0.059925344,-3.0780482,0.6238287,-0.00032630595,-0.044475093,0.015097389,0.0005977245,0.015609283,-0.001797662,0.012985507,0.50198334,-1.3787175,1.9005889,-2.09041,-1.5713018,2.4763753,-0.058645096,0.055898488,-0.07360352,0.026795955,-0.012972572,-0.071565494,-0.17238252,0.2681506,-9.442732,0.7911258,47.698532,-1.0087355,-2.4265141,-3.430895,-0.32946903,-0.09517597,-0.14229423,28.9375,30.375,29.375,33.0,35.4375,36.5
0.10405227,1.1052289,-0.3977021,-0.31789872,-0.041883204,0.05024583,-0.19090427,-0.3915921,-0.36789864,0.059954364,-3.0780535,0.623772,-0.00024931168,-0.04553286,0.015178154,-0.00036205363,0.016413417,-0.0023049978,0.011012491,0.5018514,-1.3786441,1.9004225,-2.0903504,-1.5713385,2.4762075,-0.059460793,0.059256114,-0.07518356,0.025848117,-0.013437091,-0.07040632,-0.095768064,0.2873042,-9.404425,0.8247004,47.754948,-1.0596005,-2.5709581,-3.401561,-0.3300331,-0.08074867,-0.16236137,28.9375,30.375,29.375,33.0,35.4375,36.5
0.10605255,0.54464567,-0.8164824,-0.311958,-0.030693395,0.028702429,-0.17335145,-0.39167398,-0.3678755,0.05994473,-3.078027,0.6237468,-0.00027955452,-0.046494175,0.01489737,0.0010432634,0.01482613,0.00015661061,0.010086395,0.5017435,-1.3785127,1.900278,-2.0903027,-1.57135,2.4760873,-0.05999313,0.057790473,-0.0766561,0.025861971,-0.013235744,-0.070012204,-0.076614454,0.30645782,-9.3661175,0.7486078,47.70659,-1.0535524,-2.4850075,-3.4193406,-0.31694603,-0.07663061,-0.21772559,28.9375,30.375,29.375,33.0,35.4375,36.5
0.108052514,1.2435149,-0.04212261,-0.37756833,-0.035306655,0.036547624,-0.18372464,-0.3917888,-0.36782286,0.05992421,-3.0779788,0.62377554,-0.00029974445,-0.047703702,0.015101173,0.0011278028,0.014481524,-4.852875e-05,0.00877493,0.5015632,-1.3783559,1.9001335,-2.0902784,-1.5713738,2.4759312,-0.061686356,0.05928848,-0.07877333,0.026489664,-0.012842237,-0.070393376,-0.05746084,0.21068975,-9.346964,0.75084364,47.699425,-1.0933576,-2.3863337,-3.4145489,-0.3228951,-0.0596696,-0.23801994,28.9375,30.375,29.375,33.0,35.4375,36.5
0.1100523,0.9718738,-0.27963173,-0.4880189,-0.017991493,0.028031474,-0.17002545,-0.39187506,-0.3678045,0.059922617,-3.0779638,0.6236753,-0.00030664122,-0.048457704,0.015091011,0.0006238264,0.014514985,-0.000821669,0.009679192,0.5014671,-1.3782231,1.8999661,-2.0902183,-1.5713977,2.4757745,-0.06256577,0.06149864,-0.080238834,0.02643369,-0.0125072235,-0.07217657,0.019153614,0.22984336,-9.385271,0.80679786,47.703007,-1.090337,-2.5479841,-3.4577248,-0.33459324,-0.07243984,-0.24529454,28.9375,30.375,29.375,33.0,35.4375,36.5
0.112052254,0.9653302,-0.3629997,-0.33447796,-0.011978141,0.024992304,-0.17257546,-0.39197716,-0.36777794,0.05993176,-3.0779486,0.6237493,-0.00027918973,-0.050624102,0.014353941,0.0019169853,0.011985371,0.0019061972,0.0069021066,0.50133514,-1.3781146,1.8998088,-2.0901825,-1.5714096,2.4756908,-0.0638787,0.06230531,-0.083993405,0.025768945,-0.011608485,-0.07071296,0.05746084,0.17238252,-9.346964,0.8157518,47.699425,-1.0558777,-2.5097167,-3.1757565,-0.3286193,-0.087412044,-0.30892494,28.9375,30.375,29.375,33.0,35.4375,36.5
0.11405258,0.9678038,-0.12359065,-0.31351662,-0.017496021,0.03078147,-0.1772071,-0.39208135,-0.36773172,0.059928898,-3.0778964,0.62370056,-0.0002755831,-0.051029865,0.015146913,0.001391887,0.0124517605,0.0012825407,0.006166799,0.5011907,-1.3779823,1.8996423,-2.090111,-1.5714577,2.4755228,-0.065501474,0.06288528,-0.08340033,0.025361646,-0.011721526,-0.071599856,0.095768064,0.28730422,-9.385271,0.8224646,47.703903,-1.055401,-2.4613037,-3.3103623,-0.30521017,-0.07745919,-0.33439142,28.9375,30.375,29.375,33.0,35.4375,36.5
0.11605191,1.6457818,0.04497613,-0.33860943,-0.022639247,0.050873548,-0.18008149,-0.39217925,-0.3677191,0.059936594,-3.077929,0.623628,-0.0002741148,-0.052887503,0.013824495,0.0022673118,0.010608896,0.0027405135,0.007578758,0.50107104,-1.3778614,1.8994735,-2.0900753,-1.5714453,2.4753537,-0.06554722,0.06542829,-0.08850122,0.025750646,-0.010816738,-0.07305741,0.076614454,0.28730422,-9.481039,0.7620334,47.690468,-1.1426982,-2.4051437,-3.1324086,-0.32438737,-0.098159626,-0.34805307,28.9375,30.375,29.375,33.0,35.4375,36.5
0.11805188,1.3185561,-0.13632852,-0.564423,-0.023605524,0.057536986,-0.17418803,-0.39227724,-0.36769286,0.059937045,-3.077902,0.6235482,-0.0002954594,-0.052758962,0.014816945,0.0013339343,0.012069597,0.00079804333,0.0041245986,0.5009509,-1.377717,1.8992823,-2.0899909,-1.5714692,2.4751873,-0.06686557,0.06632682,-0.087583035,0.02633915,-0.011162852,-0.07092068,-0.019153614,0.22984336,-9.557653,0.78888994,47.705692,-1.097736,-2.5385666,-3.1941164,-0.32925743,-0.09416498,-0.42465764,28.9375,30.375,29.375,33.0,35.4375,36.5
0.12005178,0.46758035,-0.29536352,-0.3960049,-0.026791528,0.046494108,-0.17148882,-0.3923753,-0.36765948,0.059932172,-3.0778587,0.62359387,-0.0002994113,-0.05401351,0.014541719,0.0024314306,0.011303355,0.0030772905,0.0064664665,0.500819,-1.3775847,1.8991259,-2.0899432,-1.5714935,2.4750896,-0.067278765,0.066147454,-0.08990496,0.026469443,-0.011594709,-0.07367358,-0.076614454,0.24899697,-9.481039,0.7665104,47.66091,-1.1888092,-2.431305,-3.2980754,-0.3236144,-0.09878171,-0.44915587,28.9375,30.375,29.375,33.0,35.4375,36.5
0.12205271,0.1936975,-0.3732285,-0.4844876,-0.030873654,0.06520437,-0.17562975,-0.39246646,-0.36763677,0.059931006,-3.0778527,0.62345624,-0.00030519912,-0.054964256,0.01411883,0.0021170338,0.010434094,0.0022385158,0.00902322,0.5007109,-1.3774518,1.8989576,-2.0898836,-1.5715169,2.4748964,-0.068152726,0.06870741,-0.092254564,0.026567638,-0.010439696,-0.07710549,-0.05746084,0.17238252,-9.519346,0.77545905,47.674347,-1.2250986,-2.3829365,-3.1779847,-0.32863134,-0.10655862,-0.44862846,28.9375,30.375,29.375,33.0,35.4375,36.5
0.12405169,0.58452696,-0.17056471,-0.35407355,-0.03134032,0.09050477,-0.17714198,-0.392582,-0.36760306,0.059924725,-3.0778158,0.62346506,-0.00034010143,-0.055123586,0.014619282,0.0012357928,0.011419164,0.0008532135,0.012689477,0.5005549,-1.377283,1.8987554,-2.089811,-1.5715293,2.4747508,-0.06899276,0.07031892,-0.09216578,0.02654994,-0.010646853,-0.08161067,-0.17238252,0.19153613,-9.519346,0.87617236,47.745995,-1.238197,-2.60954,-3.295834,-0.31453937,-0.1227905,-0.4686221,28.9375,30.375,29.375,33.0,35.4375,36.5
0.12605208,0.002858521,-0.016957816,-0.3289406,-0.031007633,0.08706035,-0.17091118,-0.39269695,-0.36757603,0.05991391,-3.077808,0.62342113,-0.0003429697,-0.05659338,0.015230476,0.002151437,0.010523784,0.0026739629,0.018059624,0.5004105,-1.3771151,1.8985757,-2.0897872,-1.5715412,2.47458,-0.07129604,0.06950281,-0.09326582,0.026430475,-0.0107467845,-0.089283444,-0.21068975,0.24899697,-9.557653,0.71279734,47.71823,-1.2509196,-2.3760796,-3.3663397,-0.31440175,-0.11429362,-0.40135592,28.9375,30.375,29.375,33.0,35.4375,36.5
0.12805195,0.4700916,-0.4145548,-0.30823657,-0.012357618,0.10195273,-0.1765341,-0.3928112,-0.3675536,0.05993325,-3.0778425,0.6232901,-0.00033076238,-0.057149764,0.014897136,0.0014747697,0.010641466,0.0017583469,0.022170708,0.50026673,-1.3769941,1.898372,-2.0897157,-1.5715407,2.4743502,-0.07143472,0.07220083,-0.094880484,0.026200766,-0.010418489,-0.093533054,-0.24899697,0.21068975,-9.595961,0.85826975,47.711964,-1.1982062,-2.4654105,-3.3126392,-0.31088802,-0.1308026,-0.3845514,28.9375,30.375,29.375,33.0,35.4375,36.5
0.13005222,-0.069906496,-0.20495597,-0.5597576,-0.01014241,0.09310109,-0.17737803,-0.3929282,-0.36753592,0.05993582,-3.0778341,0.6231471,-0.00028137615,-0.05912245,0.014006877,0.0032932614,0.009116196,0.0060789674,0.03214099,0.500159,-1.3768259,1.898156,-2.0896685,-1.5715894,2.4741545,-0.071272895,0.072041795,-0.09871857,0.025663497,-0.011171648,-0.103338145,-0.3256114,0.24899697,-9.557653,0.7665104,47.661808,-1.3514341,-2.437564,-3.2775826,-0.30879718,-0.12960675,-0.31583577,28.9375,30.375,29.375,33.0,35.4375,36.5
0.1320523,-0.6563296,0.05691109,-0.44722077,-0.006811923,0.08513741,-0.17700054,-0.39304072,-0.3674902,0.059936367,-3.0778408,0.6230717,-0.00029840253,-0.059823193,0.016058337,0.0018655774,0.010345531,0.0037765994,0.03137551,0.49997818,-1.3767055,1.8980011,-2.0896204,-1.5715894,2.4739258,-0.075360335,0.07334809,-0.096912056,0.025155606,-0.011148524,-0.1066605,-0.40222588,0.076614454,-9.557653,0.7530795,47.64479,-1.3775091,-2.3995776,-3.326804,-0.26247633,-0.14802046,-0.25251937,28.9375,30.375,29.375,33.0,35.4375,36.5
0.13405225,-0.46446937,0.33264512,-0.6297069,-0.0022343905,0.08919964,-0.1709509,-0.39317772,-0.36745262,0.059948385,-3.077827,0.6230074,-0.00026155802,-0.061479755,0.01486347,0.0035959715,0.008534329,0.0076190266,0.036439523,0.49981064,-1.3765491,1.8977722,-2.0895488,-1.5716251,2.47372,-0.07469044,0.07333377,-0.100753136,0.02476189,-0.011414221,-0.11105244,-0.40222588,0.0,-9.576807,0.7642693,47.66539,-1.257148,-2.375246,-3.379074,-0.25625473,-0.13861416,-0.22157778,28.9375,30.375,29.375,33.0,35.4375,36.5
0.13605258,0.010527505,0.54133147,-0.37216398,-0.0030200689,0.102105066,-0.18153667,-0.39328963,-0.36743084,0.059940677,-3.0778387,0.6228544,-0.00026624862,-0.061713893,0.015815664,0.0023161417,0.010477421,0.0055268696,0.037878074,0.4996786,-1.3763804,1.8975815,-2.0895126,-1.571638,2.4734912,-0.07604739,0.07558522,-0.10060503,0.025126845,-0.01212018,-0.113845795,-0.40222588,-0.076614454,-9.500193,0.7620334,47.67166,-1.4279373,-2.367989,-3.2709413,-0.23876798,-0.15812479,-0.15652327,28.9375,30.375,29.375,33.0,35.4375,36.5
0.13805257,-0.9309505,0.66605985,-0.47638834,0.0045163506,0.08037772,-0.16759495,-0.39342502,-0.36740065,0.059955437,-3.0778596,0.62278205,-0.00022698939,-0.06377394,0.015681181,0.003459914,0.009237736,0.007948418,0.036931746,0.49951032,-1.3762358,1.8973655,-2.0894644,-1.5716499,2.4732752,-0.07764725,0.076188646,-0.10393322,0.025128473,-0.012197157,-0.11449802,-0.34476504,0.0,-9.461885,0.7866488,47.71017,-1.3340979,-2.3528092,-3.2788432,-0.20604914,-0.14385873,-0.14979632,28.9375,30.375,29.375,33.0,35.4375,36.5
0.14005247,-0.1532574,0.7904061,-0.56507945,0.010746167,0.09385847,-0.18283504,-0.39353818,-0.36736268,0.059928592,-3.0778594,0.6226676,-0.00027138583,-0.064584404,0.01656795,0.003287813,0.010231314,0.007647726,0.032993577,0.499342,-1.3760556,1.89721,-2.089453,-1.5716499,2.4730356,-0.079407275,0.07694813,-0.10460321,0.0257815,-0.012926886,-0.11231732,-0.40222588,-0.11492168,-9.461885,0.75084364,47.670765,-1.3478414,-2.277151,-3.2942448,-0.20549077,-0.15688306,-0.16111735,28.9375,30.375,29.375,33.0,35.4375,36.5
0.14205268,0.23195262,0.990937,-0.35304922,-0.000113779126,0.100311205,-0.18573631,-0.39366868,-0.36733758,0.059944797,-3.0778556,0.62253517,-0.00021084765,-0.065867886,0.017593011,0.0031007084,0.010569056,0.0068839593,0.025442963,0.4992094,-1.375899,1.8969711,-2.089381,-1.5716981,2.472821,-0.08233437,0.078196645,-0.10585811,0.026617404,-0.01285247,-0.10769353,-0.51714754,-0.076614454,-9.5385,0.842603,47.67345,-1.4309555,-2.2931788,-3.4270577,-0.18650346,-0.16210201,-0.18788184,28.9375,30.375,29.375,33.0,35.4375,36.5
0.14405255,0.15041333,1.1426237,-0.25731677,-0.01035831,0.10401247,-0.18662916,-0.3938163,-0.36730516,0.059974976,-3.077873,0.62246436,-0.00011846994,-0.06655558,0.01812059,0.0025882642,0.012139687,0.0062715765,0.020645706,0.49904132,-1.3757662,1.8967313,-2.089321,-1.5717343,2.4726067,-0.083155304,0.08011033,-0.1071138,0.027250871,-0.013930681,-0.10371446,-0.59376204,-0.05746084,-9.5385,0.779936,47.691364,-1.2184042,-2.267623,-3.3304632,-0.18747813,-0.16115926,-0.27059576,28.9375,30.375,29.375,33.0,35.4375,36.5
0.14605205,-0.5813098,0.61795926,-0.13237773,-0.0014108105,0.09028186,-0.17618443,-0.39393133,-0.367248,0.05993955,-3.0778077,0.62241197,-0.00016984464,-0.0673103,0.01778049,0.0030298936,0.01116611,0.007141319,0.018844254,0.49886173,-1.3755738,1.8965753,-2.0892847,-1.5717705,2.4724028,-0.08352072,0.08054047,-0.10860481,0.027075972,-0.013501627,-0.10227785,-0.57460845,-0.019153614,-9.461885,0.7911258,47.72719,-1.4055825,-2.3209662,-3.3770902,-0.16995022,-0.16612846,-0.30762947,28.9375,30.375,29.375,33.0,35.4375,36.5
0.14805186,-0.10785104,0.46947035,-0.19929051,-0.008082509,0.1098829,-0.17942424,-0.39409772,-0.3672178,0.05997274,-3.0778286,0.6223604,-6.4859516e-05,-0.06993849,0.020185225,0.0027979726,0.012004477,0.0067683887,0.013574775,0.4986799,-1.3754171,1.8963002,-2.089224,-1.5718063,2.4721863,-0.089601256,0.08200187,-0.109961554,0.02769492,-0.014055743,-0.10308765,-0.51714754,0.019153614,-9.404425,0.8157518,47.694946,-1.1676506,-2.2901454,-3.3948016,-0.13461302,-0.16975357,-0.31625235,28.9375,30.375,29.375,33.0,35.4375,36.5
0.15005188,0.16586462,0.65658617,-0.14674233,-0.012367164,0.117931105,-0.18304627,-0.3942138,-0.3671758,0.05996582,-3.0777898,0.6222545,-8.799266e-05,-0.06961229,0.01923426,0.002952143,0.012035843,0.005848734,0.016362492,0.49852493,-1.3752487,1.8960971,-2.0891402,-1.5718426,2.4719703,-0.08793067,0.08314147,-0.11208436,0.029492244,-0.013650186,-0.10420429,-0.45968673,0.05746084,-9.442732,0.8291774,47.72002,-1.2387367,-2.2545416,-3.3686361,-0.122847065,-0.18661925,-0.33516914,28.9375,30.375,29.375,33.0,35.4375,36.5
0.15205176,-0.20387848,0.83470094,-0.07115353,-0.01561096,0.09843614,-0.18223295,-0.39436454,-0.36714286,0.059985664,-3.0778387,0.62226564,-8.4404084e-05,-0.070384406,0.020891013,0.002491864,0.0137399975,0.0038293584,0.012736092,0.49830833,-1.3751042,1.8958691,-2.089091,-1.5718063,2.4717546,-0.09106273,0.08407265,-0.11265819,0.031726576,-0.014174087,-0.103708975,-0.57460845,0.038307227,-9.423578,0.78217715,47.682407,-1.1908387,-2.3110132,-3.4170802,-0.13717197,-0.1787583,-0.34624892,28.9375,30.375,29.375,33.0,35.4375,36.5
0.15405183,-0.26021808,0.8091765,-0.10862168,-0.012214499,0.092211805,-0.18750343,-0.39450657,-0.36709544,0.05997284,-3.0777876,0.6222153,-8.135746e-05,-0.07266859,0.021195184,0.0029919816,0.012734721,0.0043547377,0.011885203,0.4981276,-1.3748994,1.8956417,-2.0890315,-1.571854,2.471549,-0.09402714,0.08607804,-0.11636205,0.032471087,-0.013554904,-0.105821855,-0.59376204,0.019153614,-9.3661175,0.80456203,47.704796,-1.0443065,-2.1630204,-3.26516,-0.10640132,-0.19583946,-0.37886164,28.9375,30.375,29.375,33.0,35.4375,36.5
0.1560527,0.42672914,0.6615252,-0.28365874,0.007357315,0.095201395,-0.1786792,-0.39468393,-0.3670574,0.060018912,-3.0778096,0.6222382,5.5375884e-05,-0.07266913,0.022990612,0.0018691281,0.014819302,0.0026629544,0.00960944,0.4979235,-1.3747668,1.8953661,-2.0889719,-1.5718907,2.4713566,-0.09637523,0.08639354,-0.11418773,0.032460317,-0.014565336,-0.105893694,-0.36391866,-0.019153614,-9.385271,0.8179876,47.692257,-0.9875549,-2.378841,-3.4808707,-0.09971016,-0.19079155,-0.41669548,28.9375,30.375,29.375,33.0,35.4375,36.5
0.1580517,-0.08287555,0.2854084,-0.23813,0.010898676,0.0751952,-0.16905156,-0.39481133,-0.36700898,0.060011443,-3.0777586,0.62214845,4.489642e-05,-0.07543103,0.023015995,0.0041309046,0.013199798,0.0068031563,0.0140465405,0.49775493,-1.374587,1.8951505,-2.0888875,-1.5719389,2.4711387,-0.09856743,0.085637964,-0.118621014,0.033224586,-0.015139522,-0.11251937,-0.30645782,-0.019153614,-9.423578,0.8403672,47.704796,-0.94138074,-2.1314108,-3.284814,-0.083049186,-0.19752076,-0.34468547,28.9375,30.375,29.375,33.0,35.4375,36.5
0.16005252,0.07951506,0.29133573,-0.18102106,0.0071659307,0.074259125,-0.17560044,-0.39497614,-0.36696407,0.06001344,-3.0777338,0.622121,7.629398e-05,-0.075773224,0.024751335,0.0011346275,0.017141052,0.001573006,0.017288899,0.4975506,-1.3743808,1.8948873,-2.088827,-1.5719751,2.4709206,-0.10115686,0.091199756,-0.11863531,0.034143295,-0.01611087,-0.11834794,-0.30645782,0.038307227,-9.270349,0.80456203,47.70211,-0.8602207,-2.3231711,-3.4372697,-0.06433076,-0.18404314,-0.34920102,28.9375,30.375,29.375,33.0,35.4375,36.5
0.16205254,0.51943004,0.82476,0.04292293,-0.003220874,0.086726464,-0.18835914,-0.3951412,-0.3669055,0.06001895,-3.0777383,0.62196237,0.00011159005,-0.07720932,0.024006022,0.0031723855,0.014720205,0.0042602513,0.024930565,0.49732292,-1.3742013,1.894648,-2.0887673,-1.5720109,2.4705935,-0.10169654,0.09000334,-0.12212334,0.03528959,-0.0152798975,-0.12653032,-0.2681506,0.076614454,-9.308656,0.7597976,47.711964,-0.8121046,-2.2450404,-3.3686304,-0.07023038,-0.2168157,-0.2593394,28.9375,30.375,29.375,33.0,35.4375,36.5
0.16405243,-0.056104828,1.0200993,-0.13285847,-0.00555695,0.0776152,-0.18225019,-0.3952945,-0.36685884,0.06002676,-3.0776985,0.62202567,0.00011869838,-0.07806541,0.024525898,0.0022007665,0.015623831,0.0023924243,0.03222825,0.49711868,-1.37402,1.8943957,-2.088683,-1.5720347,2.470434,-0.10336912,0.09301383,-0.123629674,0.03583989,-0.0151968235,-0.13549961,-0.30645782,0.095768064,-9.232041,0.8403672,47.71823,-0.8421179,-2.2579794,-3.3031712,-0.04812128,-0.1955292,-0.18780729,28.9375,30.375,29.375,33.0,35.4375,36.5
0.16605242,0.45081443,0.7729245,-0.12217689,0.00072052743,0.09269402,-0.18853162,-0.39544052,-0.36681744,0.060014974,-3.0777276,0.62179923,8.64311e-05,-0.077791885,0.024745189,0.0016911246,0.016549043,0.0005300343,0.03330526,0.49691525,-1.3738153,1.8941683,-2.0886343,-1.5720347,2.4700856,-0.10349348,0.09407855,-0.1240844,0.037303284,-0.015125725,-0.1367006,-0.3256114,0.05746084,-9.32781,0.70608455,47.719128,-0.8243692,-2.3091378,-3.3943295,-0.040574506,-0.22469535,-0.13084954,28.9375,30.375,29.375,33.0,35.4375,36.5
0.16805251,0.016373366,0.06105092,-0.071564354,-0.006032219,0.085915804,-0.17376494,-0.39558706,-0.3667377,0.060006797,-3.0776298,0.62168264,6.8851085e-05,-0.07930419,0.02473325,0.002925098,0.016444663,0.0026286237,0.033583116,0.49669933,-1.3736233,1.8939289,-2.0885022,-1.5721191,2.4698095,-0.104247935,0.09414264,-0.12725173,0.03849904,-0.016052421,-0.13772814,-0.30645782,0.17238252,-9.270349,0.82022345,47.70838,-0.8861128,-2.2218866,-3.1701279,-0.037872314,-0.22694199,-0.05968415,28.9375,30.375,29.375,33.0,35.4375,36.5
0.1700526,0.42299274,0.0907502,-0.25925386,-0.016970752,0.087129086,-0.18682218,-0.39575467,-0.36667585,0.059999485,-3.0775957,0.6216185,9.823084e-05,-0.07948593,0.024869753,0.0015150057,0.018153701,-0.00034622327,0.029692145,0.49647182,-1.3734175,1.89369,-2.088454,-1.5721673,2.4695466,-0.10455033,0.0979991,-0.12892795,0.039743938,-0.016138121,-0.13413799,-0.28730422,0.15322891,-9.193734,0.7933669,47.67614,-0.94509757,-2.536242,-3.4400182,-0.048713095,-0.22241503,-0.12726387,28.9375,30.375,29.375,33.0,35.4375,36.5
0.17205162,0.4295456,-0.23435497,-0.4196795,-0.015181966,0.065657035,-0.17110854,-0.39593023,-0.36666453,0.060051993,-3.0776744,0.6215012,0.00019874098,-0.07992234,0.024758838,0.0023117932,0.018542644,0.0011502058,0.025206123,0.4962924,-1.3732616,1.8933662,-2.08837,-1.5721678,2.469284,-0.10407283,0.09746826,-0.13029574,0.04052012,-0.017178997,-0.12917282,-0.3256114,0.21068975,-9.270349,0.8157518,47.675243,-1.0510598,-2.2213602,-3.3616214,-0.03420972,-0.20308308,-0.16473418,28.9375,30.375,29.375,33.0,35.4375,36.5
0.1740528,0.78503543,-0.5122566,-0.25195572,-0.020956915,0.060339212,-0.1721328,-0.39608857,-0.3665811,0.060031865,-3.0775957,0.621412,0.00019438706,-0.08125181,0.025496997,0.0010264423,0.019659331,-0.0015015077,0.017838245,0.4960518,-1.3730558,1.8931512,-2.088298,-1.5722393,2.468998,-0.106658675,0.10174476,-0.13269843,0.041502956,-0.01690656,-0.12438893,-0.21068975,0.2681506,-9.289502,0.77545905,47.66271,-0.8476682,-2.4313488,-3.283836,-0.030480333,-0.22538704,-0.22900566,28.9375,30.375,29.375,33.0,35.4375,36.5
0.17605193,1.1880211,-0.32793397,-0.29829615,-0.022891019,0.052948482,-0.17147836,-0.39624697,-0.36655086,0.060033098,-3.0775898,0.6214495,0.00016643564,-0.08185855,0.02468731,0.0025281352,0.01853275,-0.00021963172,0.015113836,0.49584872,-1.3728399,1.8928751,-2.0882256,-1.5722274,2.4688191,-0.106045574,0.101112396,-0.1358652,0.04364043,-0.01652742,-0.12105129,-0.1340753,0.21068975,-9.232041,0.8627467,47.717335,-1.1028087,-2.3061976,-3.1922956,-0.026014034,-0.2320875,-0.3035843,28.9375,30.375,29.375,33.0,35.4375,36.5
0.17805216,1.6507984,0.2674275,-0.2373599,-0.023372348,0.059869844,-0.18092665,-0.3964149,-0.36648795,0.060028,-3.0775294,0.6213625,0.00014060235,-0.083664894,0.025900891,0.0020115606,0.01978762,-0.0011525722,0.009785597,0.49561974,-1.3726108,1.8925871,-2.0881054,-1.572276,2.4685438,-0.10927457,0.10383791,-0.13817827,0.044641666,-0.017197298,-0.118948065,-0.076614454,0.30645782,-9.32781,0.8157518,47.692257,-0.8507339,-2.39051,-3.1331346,-0.060412146,-0.21546158,-0.35411832,28.9375,30.375,29.375,33.0,35.4375,36.5
0.18005212,1.4993414,0.24453206,-0.446525,-0.0145348655,0.05533535,-0.1831182,-0.39659256,-0.36643618,0.060029756,-3.077495,0.62139285,0.00017332542,-0.08443691,0.025413271,0.0023913612,0.018919613,-0.0008761882,0.008352481,0.4953924,-1.3723943,1.8923119,-2.0880454,-1.5723113,2.46834,-0.109502256,0.10491163,-0.1404645,0.04519002,-0.016569836,-0.11774331,-0.05746084,0.34476504,-9.289503,0.8112748,47.703007,-0.97601783,-2.4101021,-3.1506276,-0.029752728,-0.25363505,-0.4137506,28.9375,30.375,29.375,33.0,35.4375,36.5
0.18205215,1.5216974,0.321342,-0.25753352,-0.02195914,0.05837731,-0.17764027,-0.39672542,-0.36637753,0.06000193,-3.0773926,0.6212176,0.00012282007,-0.08407239,0.026179107,0.0010415219,0.021543004,-0.0052209524,0.007516584,0.4952246,-1.3721528,1.8920606,-2.0879242,-1.5723952,2.468076,-0.11026693,0.10781621,-0.14161992,0.048498858,-0.01682271,-0.117669,-0.038307227,0.4213795,-9.251195,0.800085,47.695843,-0.9423915,-2.4651423,-3.1499453,-0.058907293,-0.24495831,-0.4804247,28.9375,30.375,29.375,33.0,35.4375,36.5
0.18405204,1.5903721,-0.20848583,-0.24788615,-0.015700549,0.07000903,-0.17866713,-0.3969017,-0.36633068,0.06000474,-3.077385,0.6211744,9.078748e-05,-0.08349151,0.026609296,0.0009705645,0.02272672,-0.00832838,0.00984296,0.4949851,-1.3719246,1.8917607,-2.087827,-1.5723952,2.4678106,-0.11067788,0.10816661,-0.14283556,0.052650765,-0.016391395,-0.12040699,-0.05746084,0.2681506,-9.232041,0.7709874,47.692257,-1.156867,-2.4684398,-3.129126,-0.09297818,-0.25482515,-0.4979628,28.9375,30.375,29.375,33.0,35.4375,36.5
0.18605228,0.35509878,-0.23880422,-0.4376139,-0.0074579087,0.039936397,-0.17480917,-0.3970662,-0.36626226,0.059999634,-3.0773058,0.62121063,0.00010388274,-0.08404188,0.026387747,0.0017964302,0.022761391,-0.009018458,0.017066812,0.4947574,-1.3717203,1.8915099,-2.087742,-1.5724553,2.4676158,-0.110937014,0.108719796,-0.14615087,0.05601178,-0.016112568,-0.12788913,-0.038307227,0.2681506,-9.461885,0.8224646,47.71823,-0.98795885,-2.3883967,-3.1562035,-0.13218252,-0.25357383,-0.49453804,28.9375,30.375,29.375,33.0,35.4375,36.5
0.18805213,0.9855838,0.006648716,-0.35651425,-0.022873214,0.053200345,-0.18749821,-0.39725682,-0.36623994,0.060038988,-3.0773602,0.62104446,0.000169376,-0.08301554,0.027924232,-0.0004664241,0.02538181,-0.012757561,0.023623766,0.49455366,-1.3715154,1.8911523,-2.0876348,-1.5724672,2.4673016,-0.112200215,0.11025663,-0.14276017,0.055602677,-0.01664615,-0.13570961,-0.019153614,0.22984336,-9.423578,0.8291774,47.704796,-1.2440579,-2.4404716,-3.2553835,-0.16070136,-0.27970183,-0.41781104,28.9375,30.375,29.375,33.0,35.4375,36.5
0.19005208,1.1831537,0.011445379,-0.22782211,-0.033765677,0.06061156,-0.18264197,-0.3974036,-0.3661795,0.06003335,-3.0773263,0.6209714,0.000107479966,-0.08347862,0.027530994,-5.9667545e-05,0.025550785,-0.013560789,0.035559855,0.4943259,-1.371323,1.8909115,-2.087526,-1.5724791,2.4670327,-0.112046726,0.11154492,-0.14580667,0.05812129,-0.016444301,-0.1474907,0.038307227,0.22984336,-9.346964,0.784413,47.686886,-1.1127911,-2.4278193,-3.1717563,-0.19405511,-0.2647647,-0.30698177,28.9375,30.375,29.375,33.0,35.4375,36.5
0.19205229,0.90472686,-0.29455802,-0.22895385,-0.013384143,0.054349974,-0.16990224,-0.39757967,-0.36612314,0.06001703,-3.0772774,0.6208419,2.6127242e-05,-0.083696954,0.028388834,-0.00041881154,0.02700754,-0.015283292,0.041312534,0.49408603,-1.3710463,1.8905891,-2.087394,-1.5725034,2.4667184,-0.113333106,0.112442754,-0.14654286,0.06014882,-0.016935688,-0.15452673,0.019153614,0.15322891,-9.289503,0.8291774,47.667187,-1.2059739,-2.426129,-3.325512,-0.2218036,-0.29742557,-0.24256516,28.9375,30.375,29.375,33.0,35.4375,36.5
0.19405226,0.896214,0.66885597,-0.41891423,-0.017709624,0.047244724,-0.17636201,-0.39775664,-0.36607864,0.060029894,-3.0772831,0.6207258,2.0727555e-05,-0.08470936,0.029130757,0.00014992518,0.026656497,-0.01449307,0.04309531,0.49385774,-1.3708303,1.8902782,-2.0872858,-1.5725154,2.466417,-0.11539942,0.111833684,-0.14722614,0.06056678,-0.017015427,-0.15837528,0.095768064,0.15322891,-9.346964,0.82694155,47.666286,-1.132822,-2.2955403,-3.3689175,-0.24423635,-0.28814578,-0.16173637,28.9375,30.375,29.375,33.0,35.4375,36.5
0.19605236,1.3187739,0.6749503,-0.4321001,0.00027348814,0.058263954,-0.17854169,-0.3979077,-0.3660096,0.060018368,-3.077225,0.62050086,-2.4129862e-05,-0.08560968,0.029483708,-0.0009543059,0.028047273,-0.015824467,0.04228921,0.493642,-1.3706126,1.8900155,-2.0871542,-1.5725759,2.4660685,-0.11638913,0.11533105,-0.14890063,0.060564153,-0.017632412,-0.15855442,0.019153614,0.0,-9.346964,0.8493211,47.71017,-1.1174955,-2.5778732,-3.4769053,-0.26923487,-0.29542243,-0.12763856,28.9375,30.375,29.375,33.0,35.4375,36.5
0.19805239,1.1856579,1.4794751,-0.5158232,0.009403704,0.048105713,-0.17694776,-0.39809602,-0.36595395,0.06002372,-3.0772026,0.62038517,3.429885e-05,-0.085506834,0.029953457,-0.0011155915,0.027522072,-0.016014794,0.035093892,0.49341407,-1.370385,1.889716,-2.0870826,-1.572635,2.4657714,-0.11737735,0.114555225,-0.1474652,0.059820063,-0.017074734,-0.15234968,-0.076614454,-0.05746084,-9.3661175,0.8784135,47.661808,-1.204655,-2.2822187,-3.473826,-0.27999088,-0.31454828,-0.2151236,28.9375,30.375,29.375,33.0,35.4375,36.5
0.20005237,1.1085322,1.3273996,-0.3806149,0.013489038,0.053986765,-0.18029274,-0.39824048,-0.36588457,0.060004726,-3.0771096,0.6203299,-0.00012967593,-0.08711033,0.029664433,-0.0007177548,0.026434373,-0.014863531,0.02895446,0.4931741,-1.3701441,1.889429,-2.0868914,-1.5726475,2.465509,-0.11854487,0.11621384,-0.15028901,0.059458572,-0.016688822,-0.14737521,-0.19153614,-0.038307227,-9.289503,0.83365434,47.65912,-1.1853323,-2.4801629,-3.4438558,-0.2887562,-0.33448744,-0.26172158,28.9375,30.375,29.375,33.0,35.4375,36.5
0.20205225,0.85668993,1.2205899,-0.51903677,0.012817763,0.061869934,-0.1808751,-0.39841187,-0.36583087,0.059988853,-3.0770466,0.6201821,-0.00018580144,-0.08876949,0.029824737,0.00017489906,0.026254198,-0.013273511,0.02570102,0.4929582,-1.3698677,1.8891057,-2.0867593,-1.5726956,2.465209,-0.119891815,0.116877496,-0.15333965,0.060355075,-0.01730179,-0.14546417,-0.19153613,-0.1340753,-9.308657,0.842603,47.687782,-1.1716092,-2.293502,-3.4769776,-0.3102176,-0.34088767,-0.32240897,28.9375,30.375,29.375,33.0,35.4375,36.5
0.20405234,0.34261835,0.6492441,-0.7374594,0.021751352,0.06655963,-0.17496711,-0.39861184,-0.36578432,0.06000642,-3.077072,0.62012947,-0.00013173767,-0.091070384,0.029957552,0.00062224484,0.024586076,-0.010352488,0.022809822,0.4927061,-1.3696511,1.8887943,-2.0867007,-1.5727075,2.464921,-0.122189544,0.11798377,-0.15508434,0.05762584,-0.017223734,-0.14487055,-0.21068975,-0.095768064,-9.500193,0.8179876,47.703007,-1.1204091,-2.3027256,-3.428779,-0.3041355,-0.34609863,-0.33486244,28.9375,30.375,29.375,33.0,35.4375,36.5
0.20605275,0.47188553,0.47685674,-0.59067965,-0.0058255643,0.09817753,-0.1753892,-0.39877746,-0.3657041,0.059996,-3.0769424,0.6200643,-0.00022092393,-0.09286961,0.03044359,0.001412622,0.023848757,-0.0077841543,0.020804465,0.49246588,-1.3693988,1.8884715,-2.0864975,-1.5727795,2.4646568,-0.12421837,0.11786833,-0.15652767,0.05656059,-0.0178182,-0.14488922,-0.30645782,-0.1340753,-9.595961,0.8179876,47.687782,-1.1261942,-2.2377908,-3.4378111,-0.30184972,-0.35786793,-0.3699581,28.9375,30.375,29.375,33.0,35.4375,36.5
0.20805205,-0.4918201,-0.09777323,-0.9097698,-0.020088306,0.103381,-0.17334168,-0.3989681,-0.3656543,0.06001539,-3.0769727,0.619991,-0.00022298639,-0.09296418,0.030602872,-0.0003978038,0.02591238,-0.010947606,0.023605984,0.49220255,-1.3691931,1.8881601,-2.0864012,-1.5727681,2.464344,-0.124307975,0.122282006,-0.15784447,0.057219308,-0.01815214,-0.14777829,-0.4213795,0.019153614,-9.672575,0.84708,47.684196,-1.1771584,-2.3209898,-3.49018,-0.32037997,-0.38486123,-0.38191825,28.9375,30.375,29.375,33.0,35.4375,36.5
0.21005242,-1.0879304,-0.51597923,-0.9729901,-0.02798158,0.11975736,-0.17440376,-0.39912552,-0.36557582,0.05998711,-3.0768836,0.61983365,-0.00036178614,-0.09463669,0.03031245,0.0014153572,0.0234478,-0.006683912,0.028949782,0.49195045,-1.3689297,1.8878726,-2.0862339,-1.5728039,2.4640052,-0.12535253,0.120403595,-0.15941909,0.055726685,-0.018040307,-0.15416415,-0.6512228,0.17238252,-9.787497,0.83813137,47.668976,-1.0276514,-2.144926,-3.4184396,-0.3252842,-0.3791659,-0.35493946,28.9375,30.375,29.375,33.0,35.4375,36.5
0.21205164,-1.3772123,-0.5738416,-1.0785296,-0.041507073,0.13341682,-0.18012533,-0.3993227,-0.36552984,0.05999509,-3.0768845,0.6197712,-0.00032586057,-0.09791199,0.030993754,0.0010976433,0.022714905,-0.003753969,0.03516167,0.49170998,-1.3686879,1.8875502,-2.0861642,-1.5728282,2.4637258,-0.12891851,0.12361342,-0.16167055,0.051813804,-0.018813724,-0.16393794,-0.5746084,0.19153613,-9.864111,0.8560339,47.687782,-1.1368847,-2.3818772,-3.4388802,-0.29634044,-0.38910043,-0.26838323,28.9375,30.375,29.375,33.0,35.4375,36.5
0.21405259,-1.2757473,-0.57999253,-1.0474184,-0.05852642,0.15223376,-0.18420435,-0.3995231,-0.36546347,0.06000744,-3.0768769,0.6195883,-0.00029308937,-0.0993547,0.02917124,0.0025419358,0.02090187,0.00026693495,0.046723858,0.4914472,-1.3684597,1.8872255,-2.0860565,-1.5728763,2.46335,-0.1268953,0.12449148,-0.16575067,0.050583273,-0.019149357,-0.17347385,-0.57460845,0.17238252,-9.825804,0.86498255,47.690468,-1.1636817,-2.1777885,-3.3598032,-0.2743677,-0.40516374,-0.1385257,28.9375,30.375,29.375,33.0,35.4375,36.5
0.21605189,-1.0179048,-0.6711711,-0.8032879,-0.06639183,0.1657346,-0.18684094,-0.39972433,-0.3654183,0.060029875,-3.0768964,0.61937875,-0.00022056446,-0.10108952,0.029526364,0.0013502869,0.021336025,0.00022974428,0.049440954,0.4912191,-1.3682299,1.8868788,-2.0859616,-1.572924,2.4629889,-0.12876076,0.12850551,-0.16736452,0.048399568,-0.019530818,-0.17805417,-0.78529817,0.1340753,-9.864111,0.87393653,47.67614,-1.1982553,-2.156278,-3.413215,-0.250095,-0.40791744,-0.079607226,28.9375,30.375,29.375,33.0,35.4375,36.5
0.21805198,-1.1108532,-0.93143445,-1.1203097,-0.04615075,0.15217906,-0.1737576,-0.39993358,-0.36533874,0.060020335,-3.076842,0.6193119,-0.000258886,-0.10259419,0.029617501,0.001484252,0.021388609,0.0026928217,0.044675667,0.49091947,-1.3679534,1.8865436,-2.0858424,-1.5729607,2.4626546,-0.12944841,0.12970708,-0.16867484,0.04636243,-0.020751325,-0.17397028,-0.8236054,0.30645782,-9.844957,0.900793,47.719128,-1.214527,-2.2960901,-3.3092237,-0.21711487,-0.42457426,-0.07121536,28.9375,30.375,29.375,33.0,35.4375,36.5
0.22005168,-0.9807191,-0.68704224,-0.82498235,-0.040217213,0.13961194,-0.17189772,-0.4001538,-0.36527675,0.060020033,-3.076829,0.6192178,-0.00017226854,-0.10520815,0.031397093,0.0008276967,0.02257413,0.0027098365,0.034036145,0.49065423,-1.367688,1.8862194,-2.0858066,-1.5730213,2.4623325,-0.13407381,0.13268913,-0.17067364,0.045924716,-0.021796148,-0.16795175,-0.80445176,0.24899697,-9.749189,0.85826975,47.72002,-0.9591938,-2.3340025,-3.3271074,-0.17863862,-0.41536778,-0.12063373,28.9375,30.375,29.375,33.0,35.4375,36.5
0.22205268,-0.47055703,-0.7823719,-0.79488677,-0.040070087,0.1229317,-0.17458747,-0.40038162,-0.36521617,0.06003,-3.0768049,0.6190983,-8.7692315e-05,-0.106065616,0.030017484,0.0021808832,0.02116367,0.005896227,0.029050333,0.4903917,-1.3674119,1.8858484,-2.0857236,-1.5730933,2.4619987,-0.13230464,0.13259949,-0.17356418,0.045429144,-0.022046532,-0.1611951,-0.842759,0.28730422,-9.615114,0.86945957,47.70211,-1.2400482,-2.2169168,-3.3260157,-0.14142884,-0.42223132,-0.22766086,28.9375,30.375,29.375,33.0,35.4375,36.5
0.22405173,-0.061859693,-0.0058524497,-0.6147475,-0.041575305,0.114095934,-0.17452408,-0.4006133,-0.36517695,0.060059614,-3.076827,0.6189923,-6.182953e-07,-0.10685947,0.031359773,0.00087884313,0.023031445,0.0036244097,0.018795937,0.49013934,-1.3671465,1.8854421,-2.0856268,-1.573129,2.4616776,-0.13485059,0.13531679,-0.17402206,0.046062876,-0.022603294,-0.15348518,-0.8810662,0.24899697,-9.615114,0.83813137,47.73525,-1.0069269,-2.381123,-3.4512575,-0.13168159,-0.3980111,-0.32392913,28.9375,30.375,29.375,33.0,35.4375,36.5
0.22605188,0.13490029,0.2641572,-0.6276123,-0.031016279,0.115970924,-0.17205119,-0.40081236,-0.36511916,0.060064297,-3.0768251,0.6190313,9.093654e-06,-0.10697829,0.032133333,-0.00030964517,0.024755122,0.0012732395,0.015125204,0.48986357,-1.3669176,1.8851446,-2.0855672,-1.5731295,2.4614265,-0.13593297,0.13760723,-0.17427564,0.04691335,-0.023012204,-0.15089527,-0.842759,0.22984336,-9.500193,0.8851263,47.71554,-1.0789593,-2.3326187,-3.4465508,-0.10134994,-0.42167085,-0.3901921,28.9375,30.375,29.375,33.0,35.4375,36.5
0.22805186,0.23164088,0.62373525,-0.39604226,-0.024489691,0.121748075,-0.17204998,-0.40106326,-0.365021,0.060048245,-3.07672,0.6190087,6.9016634e-05,-0.106948085,0.03271379,-0.0019182734,0.027549643,-0.0018268066,0.012402405,0.4895404,-1.366592,1.8847731,-2.0854828,-1.5732383,2.461103,-0.13617451,0.14124225,-0.1753277,0.048366796,-0.024023887,-0.14840886,-0.63206923,0.22984336,-9.519346,0.85826975,47.73077,-1.135667,-2.4340076,-3.4138744,-0.09247057,-0.4254381,-0.46436653,28.9375,30.375,29.375,33.0,35.4375,36.5
0.23005177,0.0031420677,0.29653198,-0.071896195,-0.016201269,0.114331044,-0.16739517,-0.40129066,-0.36497387,0.06007523,-3.0767453,0.61895376,0.00012220677,-0.10826321,0.032965068,0.0006183792,0.026366659,0.002190733,0.014629742,0.48926446,-1.3663412,1.8843902,-2.0853865,-1.5732502,2.4607897,-0.13717167,0.13775828,-0.17725123,0.049658958,-0.024874115,-0.15163128,-0.38307226,0.05746084,-9.3661175,0.84708,47.68062,-1.1329168,-2.3183184,-3.4899037,-0.08667408,-0.42114246,-0.5129787,28.9375,30.375,29.375,33.0,35.4375,36.5
0.23205175,0.49976632,0.42772087,0.31275916,-0.006248686,0.109087944,-0.17510772,-0.40151483,-0.3648984,0.060071472,-3.0766819,0.61885625,0.00017265,-0.10905335,0.033568088,-0.0002033554,0.027952518,0.0010499622,0.02395433,0.48898873,-1.3660517,1.8840312,-2.0852907,-1.5733346,2.4604614,-0.13826701,0.14036961,-0.17865042,0.050155517,-0.025767868,-0.16204672,-0.3256114,0.05746084,-9.193734,0.87617236,47.68599,-1.1729,-2.5510802,-3.3573575,-0.06659356,-0.401241,-0.47003788,28.9375,30.375,29.375,33.0,35.4375,36.5
0.23405272,0.983029,1.0154389,0.27609628,0.016092543,0.08315923,-0.18697159,-0.40172577,-0.36483812,0.06006859,-3.07668,0.6187704,0.00019279153,-0.11033099,0.033463817,0.00022343127,0.027851854,0.0019759017,0.03592474,0.4887131,-1.3657871,1.8837079,-2.0852306,-1.5733584,2.4601326,-0.1389305,0.14170288,-0.1813525,0.050616924,-0.026147418,-0.17467822,-0.038307227,-0.1340753,-9.078813,0.8537928,47.72808,-1.146523,-2.445735,-3.369177,-0.01861845,-0.4041978,-0.36321282,28.9375,30.375,29.375,33.0,35.4375,36.5
0.23605177,1.2911308,1.8218344,0.4010034,0.039832428,0.037615504,-0.16890863,-0.40198797,-0.36477748,0.060087424,-3.0766797,0.6186875,0.00030614747,-0.11128845,0.033608112,0.00016313906,0.027675964,0.0014855437,0.044859074,0.4884134,-1.3654865,1.8832892,-2.0851586,-1.5734185,2.4597814,-0.14016747,0.14331752,-0.1833373,0.05129081,-0.025780015,-0.1848512,0.17238252,-0.22984336,-9.021352,0.9097417,47.71465,-1.1538979,-2.3973043,-3.320774,0.009206003,-0.4176259,-0.2542826,28.9375,30.375,29.375,33.0,35.4375,36.5
0.23805173,1.8331325,2.118274,0.7315534,0.056528896,0.014006589,-0.18305477,-0.4022346,-0.3647029,0.060085468,-3.076691,0.618569,0.00036994743,-0.113056734,0.033067744,0.0019451606,0.027247386,0.005831907,0.050929192,0.4880902,-1.3651981,1.8829406,-2.0851228,-1.5734552,2.459383,-0.13972332,0.14287028,-0.18686822,0.0512052,-0.027457714,-0.19047093,0.076614454,-0.28730422,-8.925584,0.8784135,47.691364,-1.1684768,-2.3953178,-3.2351637,0.041510753,-0.3903637,-0.167925,28.9375,30.375,29.375,33.0,35.4375,36.5
0.2400518,2.282612,2.125266,0.6843832,0.06621377,0.0069028973,-0.18072769,-0.40248436,-0.36463165,0.060109265,-3.0766327,0.6184626,0.00048557445,-0.11474453,0.03438292,0.001734002,0.029506398,0.005742184,0.046009567,0.48781395,-1.364909,1.882511,-2.0849903,-1.5735635,2.459048,-0.14215097,0.14500923,-0.18929665,0.052619092,-0.029408911,-0.18797152,0.15322891,-0.24899697,-8.829816,0.8179876,47.723602,-1.0868622,-2.3740754,-3.3453236,0.06651504,-0.36798468,-0.16979654,28.9375,30.375,29.375,33.0,35.4375,36.5
0.24205182,1.7746096,1.9568378,0.46515438,0.0659624,-0.010451717,-0.17847234,-0.4026994,-0.36453068,0.06006988,-3.0765402,0.61833334,0.00041022516,-0.11528466,0.036344763,0.0007241705,0.032166876,0.0020152768,0.035199817,0.48748973,-1.3645842,1.8821872,-2.0848815,-1.573624,2.458655,-0.14546768,0.1470112,-0.1902183,0.056081083,-0.030015899,-0.18047282,0.21068975,-0.095768064,-8.714894,0.84708,47.66808,-1.1759474,-2.2956367,-3.2085536,0.07854642,-0.35636586,-0.23855442,28.9375,30.375,29.375,33.0,35.4375,36.5
0.24405171,1.7996233,1.389761,0.29624286,0.04865086,0.0010942257,-0.18282652,-0.40291741,-0.3644918,0.060113735,-3.0765483,0.61812437,0.0005217589,-0.11628568,0.03633413,0.0033058347,0.03203049,0.004461479,0.03121777,0.48727408,-1.3643448,1.8817686,-2.0847366,-1.573696,2.4583082,-0.14564423,0.1444736,-0.19399418,0.060165036,-0.031028446,-0.17666419,0.2681506,-0.038307227,-8.791509,0.85155696,47.74331,-1.0642173,-2.136402,-3.1324248,0.068043604,-0.34388065,-0.32374287,28.9375,30.375,29.375,33.0,35.4375,36.5
0.246052,1.9165558,1.0242752,0.12800972,0.016218485,0.01802862,-0.18692052,-0.4031163,-0.36438918,0.06008014,-3.0764072,0.6180381,0.00037152425,-0.11570809,0.03879586,0.002104197,0.036092874,-0.00055034837,0.026256263,0.48696184,-1.3640202,1.88141,-2.084531,-1.5737566,2.4579604,-0.14840162,0.14527497,-0.19335924,0.06505017,-0.0322895,-0.17445076,0.19153613,0.11492168,-8.963891,0.83589023,47.72002,-1.0321058,-2.1241813,-3.2680752,0.027494084,-0.305055,-0.35645625,28.9375,30.375,29.375,33.0,35.4375,36.5
0.24805203,0.7717964,-0.41433817,-0.37697038,0.0039632283,0.010392331,-0.16763641,-0.40336102,-0.36430258,0.060092676,-3.0763383,0.617965,0.00042003393,-0.11498991,0.03974989,0.0014453179,0.0394548,-0.0050060083,0.026476292,0.48665035,-1.3637316,1.8810033,-2.0843856,-1.573841,2.4576123,-0.1487257,0.14688769,-0.19508667,0.07065265,-0.03317933,-0.17499034,0.095768064,0.11492168,-9.174581,0.8784135,47.72808,-1.007911,-2.056663,-3.2409158,-0.035008304,-0.29022545,-0.40040487,28.9375,30.375,29.375,33.0,35.4375,36.5
0.25005206,0.3374198,-0.8815203,-0.4574893,-0.02607502,0.031455033,-0.18146935,-0.40356466,-0.36420432,0.060084067,-3.0762503,0.61786544,0.00030253574,-0.114651844,0.040358413,0.0007262425,0.040557757,-0.009753469,0.031045187,0.48632625,-1.3634546,1.8806447,-2.08418,-1.5738767,2.4572375,-0.15011105,0.14886914,-0.19686942,0.075126536,-0.03197187,-0.18094458,-0.038307227,0.24899697,-9.32781,0.9298854,47.666286,-0.99581593,-2.1200147,-3.1921906,-0.09947532,-0.2727536,-0.3736738,28.9375,30.375,29.375,33.0,35.4375,36.5
0.25205198,0.60164,-0.86346185,-0.5990306,-0.043148328,0.061961286,-0.18827055,-0.4037996,-0.364123,0.060083486,-3.076173,0.61770767,0.00033201615,-0.113428734,0.04060224,-7.623214e-05,0.0424061,-0.014729983,0.04019423,0.48603964,-1.3631415,1.8802384,-2.0840347,-1.5739726,2.4568624,-0.14975648,0.15044111,-0.19805323,0.07994481,-0.031310942,-0.1897398,-0.076614454,0.30645782,-9.404425,0.8224646,47.68062,-1.2220628,-2.0602036,-3.2523744,-0.16538063,-0.273957,-0.3123955,28.9375,30.375,29.375,33.0,35.4375,36.5
0.25405204,0.09526732,-0.6266771,-0.8521153,-0.0472095,0.062123157,-0.18744773,-0.40401766,-0.36406267,0.060078148,-3.0761538,0.61756134,0.00026732305,-0.1132369,0.04126585,-0.00076655025,0.044852853,-0.01680878,0.051127493,0.4857521,-1.3628286,1.8798431,-2.0838912,-1.573985,2.4564862,-0.14985709,0.1519634,-0.19884259,0.08215015,-0.032548606,-0.20076673,-0.1340753,0.30645782,-9.576807,0.82022345,47.694946,-1.1319759,-2.160122,-3.3107262,-0.23398182,-0.24016806,-0.18461163,28.9375,30.375,29.375,33.0,35.4375,36.5
0.256052,0.30796596,-0.6736877,-0.74369794,-0.056855556,0.09447998,-0.19157463,-0.40423664,-0.363979,0.060079105,-3.0760765,0.6172925,0.0002546564,-0.11442295,0.04189705,-0.0023637775,0.046053812,-0.018811457,0.054366373,0.48547614,-1.3625269,1.8794364,-2.0836995,-1.5740808,2.4560525,-0.15178838,0.1563534,-0.20038617,0.081590794,-0.032721225,-0.20593232,-0.15322891,0.34476504,-9.595961,0.8806493,47.70838,-1.1232225,-2.1116493,-3.3217916,-0.23809138,-0.23856468,-0.09213935,28.9375,30.375,29.375,33.0,35.4375,36.5
0.25805217,-0.3039957,-0.39350447,-0.7135336,-0.051197488,0.07787502,-0.18126853,-0.40445384,-0.36387604,0.060037952,-3.0759609,0.61721313,0.0001212627,-0.11378593,0.0433927,-0.0020404763,0.047212105,-0.02145146,0.050652012,0.48513997,-1.3621793,1.8790778,-2.083542,-1.5741285,2.4556818,-0.15375516,0.15439534,-0.1997612,0.085784234,-0.032541834,-0.20418169,-0.19153613,0.2681506,-9.672575,0.8806493,47.77555,-1.1358006,-2.0734906,-3.4434376,-0.33059275,-0.21210155,-0.08044405,28.9375,30.375,29.375,33.0,35.4375,36.5
0.2600521,0.38133806,-0.36751342,-0.75361526,-0.044027884,0.074988954,-0.18864854,-0.40468207,-0.36379683,0.060054827,-3.0758872,0.6170091,0.00014068867,-0.11617813,0.04351305,-0.0023161133,0.046394292,-0.019209713,0.04200045,0.48486382,-1.36189,1.8786472,-2.0833404,-1.5742248,2.455288,-0.15579271,0.15726484,-0.2019202,0.08270522,-0.03288066,-0.19756295,-0.21068975,0.2681506,-9.653421,0.8784135,47.71554,-0.9951664,-2.342508,-3.3193228,-0.33750594,-0.1907782,-0.13648868,28.9375,30.375,29.375,33.0,35.4375,36.5
0.26205197,0.21288575,-0.14467812,-0.7578968,-0.04842998,0.060986713,-0.1827455,-0.40494293,-0.36370364,0.060085334,-3.0758216,0.6169595,0.00020365452,-0.11759266,0.04399384,-0.003575576,0.04679062,-0.019964548,0.03342324,0.48452824,-1.3616124,1.8782047,-2.0831606,-1.5743092,2.45493,-0.15775669,0.16100436,-0.20322338,0.08111778,-0.032884046,-0.19094811,-0.34476504,0.19153613,-9.749189,0.85155696,47.694946,-0.95055735,-2.3168173,-3.4294658,-0.3473292,-0.18341756,-0.25283366,28.9375,30.375,29.375,33.0,35.4375,36.5
0.26405194,0.26499036,-0.087338254,-0.7927449,-0.04175072,0.066038825,-0.1792074,-0.40515995,-0.3636367,0.06004916,-3.0757923,0.6168811,8.527788e-05,-0.11863322,0.04397521,-0.0044310503,0.04659031,-0.018878372,0.024460042,0.48421642,-1.3612632,1.8778466,-2.0830667,-1.5742973,2.4545732,-0.15835385,0.16332239,-0.2033978,0.07794309,-0.03322517,-0.18257722,-0.40222588,0.17238252,-9.672575,0.85826975,47.68062,-0.9894686,-2.4574564,-3.5292478,-0.35644957,-0.15802306,-0.33745563,28.9375,30.375,29.375,33.0,35.4375,36.5
0.26605195,0.16372617,0.14557098,-0.544694,-0.038106434,0.08046983,-0.19333,-0.40538633,-0.36356726,0.060046393,-3.0757306,0.6166963,1.324801e-05,-0.12079551,0.043564167,-0.004431834,0.04447519,-0.015876915,0.019196237,0.48392886,-1.3609263,1.8774031,-2.0828645,-1.574345,2.4541783,-0.15976883,0.16538776,-0.20500132,0.073834665,-0.03277978,-0.17872615,-0.38307226,0.076614454,-9.557653,0.9410752,47.70211,-1.0676681,-2.3828788,-3.574201,-0.33048946,-0.17146182,-0.44116706,28.9375,30.375,29.375,33.0,35.4375,36.5
0.2680522,-0.010665117,-0.29401982,-0.43610844,-0.016503233,0.093982756,-0.18248303,-0.40563163,-0.36348224,0.060067512,-3.075701,0.6166089,6.824929e-05,-0.121962555,0.041591894,-0.0027653708,0.04121637,-0.010974643,0.022762306,0.48360604,-1.3606627,1.8770093,-2.0827334,-1.5744046,2.453805,-0.15776113,0.16478944,-0.20748124,0.07102879,-0.032202013,-0.18028618,-0.40222588,0.038307227,-9.634268,0.92093146,47.683304,-1.1541839,-2.3556933,-3.4874897,-0.3011096,-0.14395405,-0.4793982,28.9375,30.375,29.375,33.0,35.4375,36.5
0.27005246,-0.69286567,-0.064881496,-0.089613594,-0.013672562,0.109805465,-0.1841703,-0.40588966,-0.36338997,0.060050238,-3.0756016,0.6165431,8.903618e-05,-0.12512204,0.040615484,-0.0014667733,0.0376547,-0.0061030644,0.031912867,0.4832822,-1.3603024,1.8765897,-2.0826156,-1.5745004,2.453453,-0.15932605,0.16631782,-0.21153557,0.06751529,-0.031380907,-0.19100185,-0.45968673,-0.05746084,-9.519346,0.94331104,47.667187,-1.027667,-2.4110608,-3.48278,-0.28101182,-0.1349727,-0.42272213,28.9375,30.375,29.375,33.0,35.4375,36.5
0.27205247,-0.89797467,0.3770548,-0.3959733,0.0052743964,0.10242572,-0.19566159,-0.40613768,-0.36332616,0.060065545,-3.075602,0.61637926,8.28632e-05,-0.12798747,0.039326906,-0.0007268841,0.03457577,-0.0011618679,0.04585706,0.48297095,-1.3599899,1.8761448,-2.0824616,-1.5745243,2.4530396,-0.1598216,0.16867255,-0.21503158,0.06278066,-0.03102229,-0.2054409,-0.34476504,0.038307227,-9.576807,0.8403672,47.68062,-1.1806116,-2.410298,-3.3458977,-0.20123096,-0.13251212,-0.28494832,28.9375,30.375,29.375,33.0,35.4375,36.5
0.2740525,-0.47937807,0.3190696,-0.41391793,0.01475767,0.1035976,-0.19340827,-0.40640342,-0.36320746,0.060055908,-3.0755076,0.6162194,0.00013778657,-0.12884656,0.039225124,-0.0010526822,0.03348578,-0.0010931205,0.053561565,0.48261142,-1.3596655,1.8757504,-2.082342,-1.5746444,2.4525926,-0.1608482,0.17021565,-0.21590042,0.061466858,-0.030136596,-0.21417418,-0.49799395,0.05746084,-9.519346,0.8291774,47.74241,-1.1916081,-2.4482756,-3.3730812,-0.16326323,-0.13643613,-0.21126817,28.9375,30.375,29.375,33.0,35.4375,36.5
0.27605256,-0.029822884,0.2248737,-0.38260716,-0.002992175,0.10646637,-0.18478203,-0.4066511,-0.36315605,0.060056545,-3.0755088,0.6159894,0.00016593235,-0.1298194,0.03892385,0.00018714668,0.032345966,0.0004239871,0.053169917,0.48233587,-1.3593184,1.8753074,-2.0822337,-1.5746917,2.4521735,-0.16128428,0.16968814,-0.21839172,0.06259368,-0.029840682,-0.214219,-0.7086837,0.0,-9.423578,0.87393653,47.687782,-1.387561,-2.3387685,-3.4039288,-0.16098335,-0.14119855,-0.13496399,28.9375,30.375,29.375,33.0,35.4375,36.5
0.2780525,-0.03264944,-0.085752435,-0.5753459,-0.016382333,0.09876652,-0.1874556,-0.40690055,-0.36306486,0.06003629,-3.0754414,0.6158237,0.00012086843,-0.13045374,0.038785145,-0.00025974234,0.031920474,0.0018792528,0.04682724,0.4820006,-1.3589581,1.8748888,-2.082092,-1.5747522,2.4517436,-0.16132109,0.17076936,-0.21808545,0.059723437,-0.030147191,-0.20790915,-0.7469909,0.11492168,-9.461885,0.8672237,47.721813,-1.3072851,-2.2304897,-3.4370205,-0.10941138,-0.13153735,-0.21762207,28.9375,30.375,29.375,33.0,35.4375,36.5
0.28005233,-0.5104624,-1.0785297,-0.7989581,-0.026236622,0.08868906,-0.17761627,-0.40717128,-0.36300328,0.06006726,-3.0754557,0.61571485,0.00022111779,-0.13143565,0.039448008,0.00034574792,0.031961057,0.001670299,0.03878716,0.48168847,-1.3586583,1.8744334,-2.0819829,-1.5747999,2.451362,-0.16323648,0.17087507,-0.22011198,0.061853945,-0.030061245,-0.20178567,-0.7086837,0.1340753,-9.576807,0.88960326,47.686886,-1.1547438,-2.2132788,-3.4592466,-0.09838433,-0.1061432,-0.29973477,28.9375,30.375,29.375,33.0,35.4375,36.5
0.28205234,-0.24673775,-0.8506411,-0.48192534,-0.050812505,0.097413935,-0.18929319,-0.40743843,-0.36291137,0.060049493,-3.0753756,0.6156598,0.00016227592,-0.13229038,0.03922906,0.0010674453,0.031460755,0.0018594887,0.033922717,0.48132896,-1.3582745,1.8739771,-2.0818264,-1.5748476,2.4509785,-0.16372213,0.17153288,-0.22301804,0.063699655,-0.029715186,-0.19740508,-0.59376204,0.15322891,-9.557653,0.8985519,47.688675,-1.3306489,-2.280017,-3.4140124,-0.100191504,-0.12140496,-0.37287867,28.9375,30.375,29.375,33.0,35.4375,36.5
0.2840521,-0.23993473,-0.8448907,-0.5048155,-0.053413983,0.106869996,-0.19349743,-0.40771055,-0.3628211,0.060063247,-3.075323,0.61553264,0.0002793266,-0.1323937,0.03904915,0.0006741067,0.03126806,0.000609954,0.03488993,0.48100513,-1.3579624,1.8735465,-2.0817192,-1.5749558,2.4505823,-0.16385885,0.17298178,-0.22403988,0.064253256,-0.028972588,-0.19851245,-0.6512229,0.19153613,-9.5385,0.91421866,47.691364,-1.3465416,-2.2877264,-3.482819,-0.083931684,-0.12026909,-0.43028808,28.9375,30.375,29.375,33.0,35.4375,36.5
0.2860521,-0.1505892,-0.49711248,-0.38551366,-0.035417914,0.10578323,-0.19566046,-0.40800703,-0.3627643,0.06008699,-3.0753512,0.61545706,0.00032780672,-0.13339117,0.03895538,0.0013709955,0.03006265,0.0013612267,0.040639948,0.48065686,-1.3576026,1.8730325,-2.0815985,-1.5749673,2.4501834,-0.1648806,0.17316464,-0.22602126,0.06478522,-0.028273648,-0.20528793,-0.30645782,0.095768064,-9.519346,0.8627467,47.72719,-1.4215388,-2.1085012,-3.477254,-0.06538927,-0.12717861,-0.3811078,28.9375,30.375,29.375,33.0,35.4375,36.5
0.28805202,0.3797117,0.27882886,-0.5436042,-0.007208332,0.085971326,-0.19689697,-0.40824053,-0.3626778,0.0600669,-3.0752895,0.6152255,0.00026739057,-0.13487975,0.03938018,0.001408469,0.028855508,0.0014521629,0.05085307,0.48034418,-1.3572544,1.8726243,-2.0814435,-1.5750273,2.4497342,-0.16738442,0.17445888,-0.22763179,0.06438424,-0.027314177,-0.21800633,-0.038307227,0.076614454,-9.576807,0.8940802,47.683304,-1.3147522,-2.1257303,-3.4675632,-0.035993256,-0.14873198,-0.28434595,28.9375,30.375,29.375,33.0,35.4375,36.5
0.29005232,0.8660266,0.89811385,-0.44151402,0.0012637285,0.055987343,-0.19619513,-0.40852448,-0.36258307,0.06007993,-3.075255,0.61506003,0.00037161403,-0.13584386,0.04002396,0.0013964253,0.028899519,0.00074771896,0.058678966,0.47999534,-1.3569303,1.8721803,-2.0813353,-1.5751227,2.4492867,-0.16934136,0.17551446,-0.22915958,0.065428,-0.027061954,-0.22779036,0.0,0.095768064,-9.634268,0.90527004,47.685097,-1.2729888,-2.0579174,-3.459652,-0.014870321,-0.13227281,-0.14821556,28.9375,30.375,29.375,33.0,35.4375,36.5
0.29205215,0.76610965,0.19043827,-0.40753075,0.027637552,0.0263973,-0.1824176,-0.40880686,-0.36250177,0.06006675,-3.0752487,0.6148671,0.00037115504,-0.13724056,0.040979538,0.0008414287,0.02996045,-0.00071437395,0.057172462,0.47963437,-1.3565456,1.8717254,-2.081239,-1.575159,2.4488063,-0.17186639,0.17826022,-0.23159209,0.06688054,-0.027344227,-0.22880583,-0.05746084,0.11492168,-9.442732,0.83813137,47.685097,-1.0352306,-2.2452235,-3.5103893,0.0061009265,-0.13282326,-0.06715439,28.9375,30.375,29.375,33.0,35.4375,36.5
0.2940523,0.90946984,0.54253906,-0.6155397,0.025038414,0.0041472306,-0.18130633,-0.4091285,-0.3624232,0.06011175,-3.0752475,0.6147587,0.00053323305,-0.13786758,0.042898014,-0.0011053584,0.032823868,-0.0058502606,0.0463646,0.47927347,-1.3562082,1.8711871,-2.081106,-1.5752434,2.448378,-0.17540438,0.18237911,-0.23286185,0.0699137,-0.027478855,-0.2215363,-0.076614454,0.019153614,-9.461885,0.8605109,47.691364,-1.1492496,-2.3341289,-3.4778128,0.025146881,-0.12737155,-0.14802305,28.9375,30.375,29.375,33.0,35.4375,36.5
0.29605213,1.6043963,0.6577526,-0.7372245,0.023221752,0.001071985,-0.18032661,-0.40941584,-0.36233473,0.06011867,-3.0752115,0.614562,0.00059429853,-0.13622484,0.043113064,-0.002075024,0.03542556,-0.011272684,0.037868682,0.47892585,-1.3558482,1.8707079,-2.0809724,-1.5753273,2.4479125,-0.1743438,0.18406567,-0.23397107,0.07536305,-0.027258331,-0.21198012,-0.095768064,0.095768064,-9.423578,0.8090337,47.70211,-1.1151149,-2.3781898,-3.556695,-0.011895511,-0.15022142,-0.25124735,28.9375,30.375,29.375,33.0,35.4375,36.5
0.2980524,1.6167,0.31392413,-0.47180295,-6.744641e-05,0.01468152,-0.1822592,-0.40964377,-0.3622496,0.06007632,-3.0751073,0.6144304,0.00045829747,-0.13633707,0.04411123,-0.002403005,0.03724163,-0.015624972,0.027900351,0.47861344,-1.3554521,1.8702887,-2.0808032,-1.5753745,2.4475315,-0.17624766,0.18592328,-0.23680848,0.08106033,-0.026871037,-0.20391268,-0.038307227,0.05746084,-9.461885,0.8985519,47.683304,-1.0773113,-2.3520172,-3.572886,-0.057999153,-0.13505474,-0.38238972,28.9375,30.375,29.375,33.0,35.4375,36.5
0.30005255,1.0700305,0.04082768,-0.25233743,-0.0038196386,0.012191179,-0.18991071,-0.40992355,-0.36217532,0.060095087,-3.0750966,0.61435276,0.00043400368,-0.13612743,0.0450502,-0.0034109673,0.039814096,-0.020813635,0.02367671,0.4782529,-1.3551033,1.8697847,-2.0806215,-1.5753869,2.447124,-0.17757565,0.18884851,-0.23930492,0.086423315,-0.026766624,-0.20101584,-0.15322891,-0.038307227,-9.251195,0.91421866,47.670765,-0.9505595,-2.4474387,-3.4042134,-0.12998857,-0.14301501,-0.49336213,28.9375,30.375,29.375,33.0,35.4375,36.5
0.30205262,0.9677074,-0.22334383,-0.20340496,0.012771334,0.02574643,-0.18132922,-0.41018015,-0.3620709,0.060093492,-3.0749917,0.6142893,0.00035549016,-0.13648918,0.046134155,-0.0031097787,0.040979184,-0.022746302,0.027224248,0.47789186,-1.3547556,1.8693179,-2.0803926,-1.5754474,2.446737,-0.17946991,0.18891114,-0.24097344,0.090234965,-0.026961263,-0.20645368,-0.076614454,0.05746084,-9.193734,0.8717007,47.64837,-0.87503254,-2.3740876,-3.4698882,-0.1736803,-0.14649452,-0.4983212,28.9375,30.375,29.375,33.0,35.4375,36.5
0.30405247,0.48231232,0.23105456,-0.09714754,0.008408705,0.040821534,-0.19734615,-0.4104754,-0.36199865,0.06009604,-3.0749705,0.6141628,0.00037939678,-0.13703771,0.047437396,-0.0041016815,0.042180218,-0.02619096,0.037458576,0.47754303,-1.3543588,1.8688039,-2.0802605,-1.5754946,2.4463122,-0.18227617,0.1911754,-0.24204297,0.09256928,-0.026503813,-0.21949594,-0.095768064,0.15322891,-9.193734,0.92764956,47.70211,-0.95028985,-2.4206185,-3.5080528,-0.21280406,-0.15964802,-0.40135685,28.9375,30.375,29.375,33.0,35.4375,36.5
0.30605265,0.32323122,0.06304305,0.12395635,0.0043043606,0.06009228,-0.19363292,-0.4107299,-0.36189294,0.06008018,-3.0749285,0.61389536,0.000250617,-0.13801587,0.046438694,-0.0024771676,0.04095917,-0.024246367,0.052433014,0.47715974,-1.353999,1.8683599,-2.080056,-1.5755185,2.4457674,-0.1813999,0.19101126,-0.2459852,0.09430498,-0.026410453,-0.2335906,0.038307227,0.17238252,-9.232041,0.84484416,47.68062,-1.0381577,-2.375298,-3.4741619,-0.26410273,-0.1747255,-0.26199153,28.9375,30.375,29.375,33.0,35.4375,36.5
0.3080524,0.6992628,0.14332286,0.1846268,-0.0026336012,0.08169156,-0.18210573,-0.41101006,-0.36179227,0.060090553,-3.0748563,0.61370575,0.00024424374,-0.13973661,0.04633856,-0.0009839268,0.039208755,-0.021359012,0.055871204,0.47679943,-1.3536403,1.8678554,-2.0798414,-1.5756024,2.4452982,-0.18271114,0.19031301,-0.24856156,0.09415867,-0.026234418,-0.2383387,-0.17238252,0.095768064,-9.174581,0.91198283,47.689575,-0.99541545,-2.149868,-3.3506527,-0.27239403,-0.21726577,-0.15259345,28.9375,30.375,29.375,33.0,35.4375,36.5
0.31005248,-0.115459554,0.36798707,0.23416021,-0.0068890667,0.06862019,-0.1819169,-0.41128793,-0.3617265,0.06010557,-3.074855,0.6134963,0.00021820443,-0.14100164,0.046023197,-0.0005704908,0.0388875,-0.019403014,0.050694615,0.47646353,-1.3532681,1.867329,-2.0796497,-1.5756272,2.4448318,-0.1827792,0.19149831,-0.25081128,0.0933507,-0.02685524,-0.23322503,-0.34476504,0.095768064,-9.155427,0.83365434,47.660015,-1.071904,-2.1210895,-3.2633471,-0.32742962,-0.19344993,-0.18726286,28.9375,30.375,29.375,33.0,35.4375,36.5
0.31205288,-0.02455709,0.12077236,0.16795594,-0.005926532,0.078503944,-0.19088751,-0.4115498,-0.36161628,0.06009249,-3.074748,0.6133244,0.00015136339,-0.1425708,0.044987176,-1.52518305e-05,0.037196852,-0.013843472,0.044404387,0.47610366,-1.3528963,1.8668622,-2.0794365,-1.5757111,2.4443786,-0.18163885,0.19194481,-0.25143155,0.08782055,-0.027926667,-0.22578524,-0.51714754,0.11492168,-9.155427,0.88289046,47.655537,-1.1997719,-2.136304,-3.332647,-0.28015426,-0.19544412,-0.28191414,28.9375,30.375,29.375,33.0,35.4375,36.5625
0.31405202,-0.5960639,-0.5200588,0.063864045,-0.011550888,0.092228815,-0.18775396,-0.41183966,-0.361524,0.060080316,-3.0746987,0.6131997,9.2320464e-05,-0.14259982,0.044747397,-0.0010085867,0.037868124,-0.014483463,0.040044654,0.47572032,-1.3524873,1.8663582,-2.0792687,-1.5757469,2.443924,-0.18094078,0.19421832,-0.25175047,0.08675062,-0.02824146,-0.22072333,-0.5554548,0.095768064,-9.289502,0.8717007,47.694946,-1.3797033,-2.222481,-3.305264,-0.27397192,-0.217929,-0.3292118,29.0,30.375,29.375,33.0,35.4375,36.5625
0.31605193,-0.5630511,-0.55170333,0.04307425,-0.032556277,0.119534776,-0.19050835,-0.41211784,-0.3614354,0.060069732,-3.0746307,0.6130494,1.8574376e-05,-0.14409092,0.0428583,-0.00086322264,0.035302408,-0.009991292,0.041742828,0.47536108,-1.3520792,1.8658441,-2.079068,-1.575795,2.4434798,-0.17906038,0.1963468,-0.25347322,0.08115662,-0.028064081,-0.22053851,-0.45968673,0.17238252,-9.174581,0.94331104,47.711063,-1.6500769,-2.2063975,-3.346561,-0.2266314,-0.21141353,-0.4012209,29.0,30.375,29.375,33.0,35.4375,36.5625
0.3180519,-0.70004725,-0.57650805,-0.18817829,-0.03630807,0.123902395,-0.19486709,-0.412418,-0.36136574,0.06009232,-3.0746584,0.6128952,6.764725e-05,-0.14656174,0.042802636,0.00035694594,0.03231595,-0.006048375,0.049450558,0.4750001,-1.35172,1.8653291,-2.0789368,-1.5758194,2.4430192,-0.1814497,0.19617492,-0.25548846,0.07840248,-0.027266158,-0.23064017,-0.34476504,0.1340753,-9.308657,0.90750587,47.703903,-1.5617757,-2.0532093,-3.4669838,-0.17524949,-0.24246138,-0.3534783,29.0,30.375,29.375,33.0,35.4375,36.5625
0.3200518,-0.82963854,-1.1023971,-0.36024824,-0.024778353,0.114265494,-0.17777169,-0.41272417,-0.3612743,0.06009192,-3.0746348,0.61261517,8.914511e-05,-0.14920504,0.043511417,0.0002817597,0.031808812,-0.0038446994,0.05856309,0.47462702,-1.3513116,1.8648018,-2.0787823,-1.5758914,2.4424744,-0.18438955,0.19853367,-0.25769618,0.075973876,-0.027896764,-0.24268742,-0.47884035,0.19153613,-9.346964,0.9768804,47.650166,-1.4013146,-2.1202862,-3.3646188,-0.15242504,-0.25578588,-0.22875847,29.0,30.375,29.375,33.0,35.4375,36.5625
0.32205182,0.09716675,-0.50144887,-0.17072701,-0.023107156,0.12049652,-0.19277744,-0.4129891,-0.36119026,0.060081583,-3.0745687,0.6124286,6.640615e-05,-0.1509754,0.044317152,-0.00015759222,0.0325719,-0.001988213,0.062274467,0.47430235,-1.350927,1.864323,-2.0786154,-1.5759639,2.4420419,-0.18617572,0.2004274,-0.25850555,0.07353766,-0.029476892,-0.24817389,-0.36391866,0.22984336,-9.3661175,0.9231726,47.675243,-1.3422655,-2.1842856,-3.489479,-0.087616354,-0.24839719,-0.11397892,29.0,30.375,29.375,33.0,35.4375,36.5625
0.32405174,-0.4625755,-0.5757672,-0.34464028,-0.020197425,0.09235618,-0.17306615,-0.41332585,-0.36109453,0.06008527,-3.074546,0.6123102,9.12708e-05,-0.1517584,0.04560764,8.45032e-06,0.033891235,-0.0033798693,0.056752708,0.47388178,-1.3504952,1.8637599,-2.0784705,-1.576012,2.4415505,-0.18851803,0.20093614,-0.26026312,0.07662204,-0.030009694,-0.24499069,-0.4405331,0.28730422,-9.346964,0.8605109,47.70032,-1.4243519,-2.0161364,-3.5918713,-0.07955951,-0.23364845,-0.115662664,29.0,30.375,29.375,33.0,35.4375,36.5625
0.32605174,0.05110092,-0.6621902,-0.23210579,-0.0075343233,0.07283518,-0.17849603,-0.41360056,-0.3609738,0.060051665,-3.0744376,0.6121208,7.492406e-05,-0.15360941,0.045028742,0.0012849431,0.03179001,0.000845467,0.046809193,0.4735098,-1.3501,1.8633288,-2.0783393,-1.5761203,2.4410744,-0.18897958,0.20072536,-0.26246783,0.07433303,-0.030067114,-0.23550491,-0.5363012,0.21068975,-9.270349,0.90750587,47.703903,-1.3765318,-2.0735018,-3.5586524,-0.03960348,-0.27134025,-0.19053696,29.0,30.375,29.375,33.0,35.4375,36.5625
0.3280526,1.0036336,-0.31643248,-0.33290613,0.0008882647,0.0684178,-0.18210098,-0.41394642,-0.36089927,0.060071815,-3.074423,0.6120655,0.00017146725,-0.15583667,0.045817047,0.0011761142,0.032992,0.0018841325,0.03530675,0.47312495,-1.3496673,1.8627299,-2.0782077,-1.5761808,2.4406571,-0.19112805,0.20360412,-0.26580226,0.07444317,-0.031575628,-0.22614187,-0.4213795,0.2681506,-9.270349,0.9254084,47.703007,-1.2966259,-2.102826,-3.5024176,0.0016352423,-0.26161525,-0.334665,29.0,30.375,29.375,33.0,35.4375,36.5625
0.33005172,0.019353028,0.21857035,-0.27894646,-0.011173143,0.033489224,-0.18276365,-0.41425043,-0.36081076,0.060069297,-3.074411,0.6119721,0.000103714076,-0.15606806,0.047228698,-0.00012282858,0.03495318,-0.0033091959,0.025267424,0.47271588,-1.3492584,1.8622025,-2.078039,-1.5761803,2.4401915,-0.19391645,0.20671935,-0.26765954,0.078726865,-0.030937549,-0.21889208,-0.4405331,0.24899697,-9.270349,0.9545008,47.65464,-1.1431451,-2.195631,-3.4169707,-0.009126708,-0.26112092,-0.45421314,29.0,30.375,29.375,33.0,35.4375,36.5625
0.33205262,0.7098132,-0.10459833,-0.5389158,-0.007323855,0.043652184,-0.19047737,-0.41456595,-0.36071494,0.060071506,-3.0743463,0.6118031,0.00014729952,-0.15824535,0.04685788,0.0004949922,0.032656424,-0.0016839885,0.026668612,0.47234342,-1.3488382,1.8616513,-2.077872,-1.5762757,2.439722,-0.19578491,0.20857282,-0.271199,0.07786614,-0.029670224,-0.22216676,-0.28730422,0.15322891,-9.3661175,0.9186956,47.664497,-1.1296475,-2.2292259,-3.5151258,0.026547577,-0.29697376,-0.5219329,29.0,30.375,29.375,33.0,35.4375,36.5625
0.33405256,0.33255774,0.10340567,-0.48564804,-0.022236694,0.05386742,-0.18909138,-0.4148642,-0.36061108,0.060042508,-3.0742521,0.6116406,7.769839e-05,-0.1594844,0.047708977,-8.275899e-05,0.034039095,-0.0041930247,0.038446404,0.47195864,-1.3483819,1.8611239,-2.0776913,-1.5763482,2.439248,-0.19800726,0.2118435,-0.27457574,0.08073114,-0.029853303,-0.23616175,-0.24899697,0.076614454,-9.461885,0.91198283,47.692257,-1.0528533,-2.2075086,-3.3193488,0.029621668,-0.3182519,-0.41329846,29.0,30.375,29.375,33.0,35.4375,36.5625
0.33605257,0.5369938,0.40640196,-0.34553292,-0.020139579,0.07875729,-0.2011211,-0.41520452,-0.36051863,0.060051497,-3.0742333,0.61149436,0.00012934831,-0.16074975,0.04943815,-0.00028468933,0.035971392,-0.00650607,0.049483005,0.47154972,-1.3479495,1.860547,-2.077546,-1.5764083,2.4387505,-0.20135427,0.21359336,-0.27712956,0.08436938,-0.030591663,-0.25054064,-0.2681506,0.076614454,-9.3661175,0.8918391,47.694946,-0.95942,-2.355858,-3.1777549,-0.00053219777,-0.32260668,-0.26511705,29.0,30.375,29.375,33.0,35.4375,36.5625
0.33805254,0.003930376,0.8625001,-0.5306956,-0.0058489637,0.0730009,-0.1908951,-0.41551548,-0.3604299,0.060052034,-3.0742128,0.61127824,0.00012015303,-0.1602453,0.050390508,-0.0011197551,0.038146075,-0.011135847,0.05292094,0.4711652,-1.347529,1.8599981,-2.0773766,-1.5764564,2.4382339,-0.20243551,0.21540996,-0.27856025,0.08904665,-0.03045855,-0.25505915,-0.49799395,-0.05746084,-9.576807,0.8537928,47.681515,-1.0232018,-2.4516716,-3.3329434,-0.027390828,-0.33169204,-0.19743371,29.0,30.375,29.375,33.0,35.4375,36.5625
0.3400524,0.16699849,0.8164983,-0.42883936,0.005446221,0.09620009,-0.18145753,-0.41579428,-0.3603171,0.060027823,-3.0741165,0.61105025,1.8553399e-05,-0.15738216,0.04971143,-0.002406038,0.040804155,-0.017313613,0.04941216,0.47078246,-1.3471088,1.859495,-2.0771592,-1.576528,2.4377213,-0.19898422,0.21709956,-0.27898654,0.09450414,-0.030026615,-0.2480976,-0.5554548,0.0,-9.634268,0.9365982,47.664497,-1.103841,-2.51431,-3.4507768,-0.071963415,-0.34324965,-0.228082,29.0,30.375,29.375,33.0,35.4375,36.5625
0.34205225,-0.306196,0.6706157,-0.29997578,0.009712555,0.09139125,-0.18451425,-0.41616106,-0.3602093,0.060044765,-3.0740514,0.6109632,0.00015443529,-0.15506577,0.050379638,-0.0033684352,0.04401518,-0.022721961,0.04427473,0.47036278,-1.3466651,1.8588861,-2.0770142,-1.5766481,2.4372559,-0.19772016,0.21727103,-0.27829868,0.099918686,-0.030403843,-0.24169497,-0.6512228,-0.019153614,-9.519346,0.9254084,47.661808,-1.2580199,-2.3820844,-3.5931726,-0.13460046,-0.35891163,-0.32976672,29.0,30.375,29.375,33.0,35.4375,36.5625
0.3440523,-0.039971802,0.9478359,-0.17748806,0.007031271,0.0934054,-0.18301845,-0.41643947,-0.36011407,0.060008027,-3.0739632,0.6108677,-6.0548384e-05,-0.15470025,0.050893366,-0.004695885,0.04725916,-0.027278027,0.04128226,0.46996713,-1.3461963,1.8583463,-2.076773,-1.5766486,2.4368122,-0.19759978,0.22097746,-0.28084666,0.1043016,-0.03127072,-0.23857059,-0.4405331,-0.05746084,-9.385271,0.9164598,47.690468,-1.3599086,-2.3948257,-3.6215608,-0.19259903,-0.36708093,-0.38010043,29.0,30.375,29.375,33.0,35.4375,36.5625
0.34605247,0.31366074,1.2627578,-0.23984247,0.018424992,0.08033143,-0.19148786,-0.41677648,-0.36001584,0.060027555,-3.0739446,0.6106898,-5.018753e-05,-0.15570766,0.052200794,-0.0038281532,0.048749126,-0.027493417,0.044351306,0.46954614,-1.3457772,1.8577474,-2.0765684,-1.5766972,2.4362826,-0.19969438,0.22056264,-0.28318572,0.10787193,-0.032548122,-0.24372534,-0.28730422,-0.17238252,-9.346964,0.9321212,47.68599,-1.2881651,-2.367415,-3.5250225,-0.25914305,-0.3761282,-0.4015049,29.0,30.375,29.375,33.0,35.4375,36.5625
0.34805247,0.79944646,1.4975374,-0.15514128,0.02330291,0.059920825,-0.19740085,-0.4171082,-0.35991228,0.060018875,-3.073847,0.61052835,-6.716556e-05,-0.15747009,0.053187195,-0.0024677769,0.049139604,-0.025226522,0.054610703,0.46914992,-1.3452976,1.8571366,-2.0763524,-1.5767936,2.4357984,-0.20178096,0.21971293,-0.28562775,0.109213725,-0.03402171,-0.25605947,-0.19153613,-0.22984336,-9.385271,0.98807013,47.70211,-1.3936944,-2.3380818,-3.497695,-0.2875868,-0.38180548,-0.30368522,29.0,30.375,29.375,33.0,35.4375,36.5625
0.35005254,1.379554,1.6574416,-0.3303366,0.03236245,0.045710105,-0.1922984,-0.41740918,-0.35980013,0.060016997,-3.073764,0.61029315,-8.276079e-05,-0.15908772,0.05239619,-0.00089135277,0.048713755,-0.020589164,0.067123845,0.4687662,-1.3448899,1.8565978,-2.0761373,-1.5768903,2.4352787,-0.20058818,0.21954848,-0.28884336,0.10816465,-0.035840143,-0.2673651,-0.05746084,-0.076614454,-9.346964,0.8918391,47.67345,-1.4447751,-2.3023367,-3.4477577,-0.3071325,-0.37519842,-0.16012627,29.0,30.375,29.375,33.0,35.4375,36.5625
0.35205248,1.1968234,1.2041451,-0.47641927,0.024210319,0.05276518,-0.19150817,-0.41772142,-0.35967058,0.059984148,-3.07364,0.61015326,-0.00023510063,-0.16198637,0.05236201,0.00020011468,0.04750067,-0.015388537,0.06601152,0.46832195,-1.3444102,1.8560337,-2.0758874,-1.5769504,2.4347632,-0.20201565,0.22048788,-0.29184848,0.10501417,-0.037182953,-0.26766485,-0.21068975,-0.038307227,-9.3661175,0.9164598,47.64658,-1.3200785,-2.303927,-3.424617,-0.2994982,-0.35486412,-0.09708241,29.0,30.375,29.375,33.0,35.4375,36.5625
0.35405245,-0.035239093,0.21154869,-0.44723833,0.0038889074,0.054422654,-0.16859488,-0.41805097,-0.35958543,0.059995696,-3.0736122,0.6099426,-0.00022602883,-0.1651551,0.05228588,0.0011522331,0.04642704,-0.009666038,0.056606565,0.4679376,-1.343966,1.8554224,-2.0756853,-1.577011,2.434251,-0.2034256,0.22194594,-0.29500058,0.101143025,-0.038804226,-0.2596566,-0.24899697,0.076614454,-9.346964,0.87617236,47.688675,-1.352259,-2.4399621,-3.3253424,-0.27564138,-0.3224004,-0.18220505,29.0,30.375,29.375,33.0,35.4375,36.5625
0.35605252,0.53976125,-0.48516035,-0.35682788,-0.031162106,0.110691145,-0.17799763,-0.4183666,-0.35946375,0.059987757,-3.0734942,0.609715,-0.00024882925,-0.16799761,0.05317054,0.0010789983,0.046312615,-0.0063720928,0.042678554,0.46754056,-1.3435217,1.8548473,-2.0754468,-1.5771312,2.4337273,-0.20631051,0.22418353,-0.2968985,0.0978411,-0.040181,-0.24859925,-0.095768064,0.076614454,-9.442732,0.95002913,47.691364,-1.3338053,-2.3693054,-3.2695737,-0.27014342,-0.3315184,-0.28812224,29.0,30.375,29.375,33.0,35.4375,36.5625
0.35805252,-0.13633475,-0.4844763,-0.51963365,-0.06631514,0.119181,-0.18637224,-0.41870126,-0.35936764,0.059991308,-3.073445,0.60963404,-0.0002916837,-0.17160524,0.053160496,0.0013401732,0.044156466,-0.00044156497,0.031982448,0.46711987,-1.3430654,1.8542365,-2.0752342,-1.5771679,2.4332626,-0.20871262,0.22658576,-0.29906064,0.091365665,-0.0409287,-0.24029669,-0.26815057,0.15322891,-9.557653,0.93436235,47.701214,-1.2698236,-2.4388835,-3.2814424,-0.21505234,-0.3198256,-0.4234122,29.0,30.375,29.375,33.0,35.4375,36.5625
0.36005268,-0.49117324,-1.185407,-0.67758864,-0.069551624,0.11370027,-0.18812504,-0.41903302,-0.35924375,0.05997647,-3.0733323,0.60953176,-0.0002861542,-0.1711187,0.054946836,-0.0005318836,0.04692074,-0.0041234284,0.03357178,0.46669903,-1.3426093,1.8536752,-2.075054,-1.5772761,2.4327927,-0.21058723,0.22833918,-0.297223,0.09224482,-0.041779537,-0.2437527,-0.2681506,0.2873042,-9.500193,0.9097417,47.684196,-1.1064837,-2.3654218,-3.388116,-0.18144292,-0.287506,-0.4839676,29.0,30.375,29.375,33.0,35.4375,36.5625
0.36205178,-0.33513695,-1.3464136,-0.8226983,-0.06581703,0.11517258,-0.18154918,-0.4193755,-0.35912314,0.059973005,-3.0732253,0.60931003,-0.00025357984,-0.1731442,0.05654857,-0.00089529605,0.047196455,-0.0011581788,0.044330508,0.4662899,-1.3421414,1.8530663,-2.0748408,-1.5774091,2.432259,-0.2137608,0.22878116,-0.29607168,0.08799196,-0.043469045,-0.2576716,-0.30645782,0.34476504,-9.576807,0.8985519,47.690468,-0.90287876,-2.4249344,-3.6677308,-0.13430431,-0.27948487,-0.37432122,29.0,30.375,29.375,33.0,35.4375,36.5625
0.3640518,0.3860867,-0.38618574,-1.0104263,-0.07131644,0.10641522,-0.19971082,-0.41975933,-0.35903275,0.06000276,-3.0732543,0.6091955,-0.00012727024,-0.1744625,0.058007255,-0.0006322662,0.04894766,0.00010478797,0.055494674,0.4658453,-1.3416975,1.8524312,-2.0747201,-1.5774573,2.4317393,-0.21576521,0.22886737,-0.2969222,0.08830397,-0.045663692,-0.2708287,-0.1340753,0.2873042,-9.672575,0.87393653,47.688675,-0.86226034,-2.4844482,-3.816584,-0.099887684,-0.24679504,-0.21766956,29.0,30.375,29.375,33.0,35.4375,36.5625
0.36605203,0.10000016,-0.5478279,-0.80160743,-0.063615076,0.076226845,-0.16817681,-0.4200707,-0.35889134,0.0599579,-3.0731182,0.608956,-0.00022237888,-0.17570212,0.057306167,-0.001029912,0.04886529,-6.4075386e-05,0.05781428,0.4654135,-1.3412172,1.8519028,-2.0745165,-1.5775656,2.4311757,-0.21552312,0.2325913,-0.30067292,0.08838229,-0.04558525,-0.27289858,-0.34476507,0.24899697,-9.730036,0.9701675,47.681515,-0.8778229,-2.4391003,-3.7090907,-0.08121257,-0.22763443,-0.17463139,29.0,30.375,29.375,33.0,35.4375,36.5625
0.368052,0.3252486,-0.29880008,-0.5769118,-0.064989984,0.073518954,-0.18100977,-0.42047,-0.35880426,0.059998054,-3.073108,0.60878617,-1.3019445e-05,-0.1768333,0.056833766,-0.00095983257,0.048554186,0.00093439274,0.049528968,0.46500546,-1.3407487,1.851209,-2.074373,-1.5776852,2.430663,-0.21541159,0.23467602,-0.3033774,0.08797844,-0.04570316,-0.26450345,-0.53630114,0.24899697,-9.481039,0.94331104,47.675243,-1.0207014,-2.4566863,-3.6822252,-0.052904006,-0.23068637,-0.22846426,29.0,30.375,29.375,33.0,35.4375,36.5625
0.37005213,0.7114221,0.31500724,-0.51633745,-0.033360552,0.07147695,-0.18519302,-0.42082295,-0.35871416,0.06000732,-3.073125,0.6086009,1.7175678e-06,-0.17662339,0.055903826,0.0003694108,0.049279984,0.0009891072,0.044271916,0.46457437,-1.340293,1.8505973,-2.0742157,-1.57771,2.4301143,-0.21311013,0.23450539,-0.30724812,0.09232575,-0.046343464,-0.25693932,-0.34476507,0.19153614,-9.385271,0.9186956,47.672558,-1.2144674,-2.4575274,-3.5186214,-0.04566155,-0.19338039,-0.36417103,29.0,30.375,29.375,33.0,35.4375,36.5625
0.37205213,1.1829845,1.0898163,-0.73271745,-0.002733178,0.063380376,-0.1876037,-0.42115566,-0.3585755,0.05995104,-3.07296,0.6085479,-7.762448e-05,-0.17888954,0.055659145,0.002375181,0.048515882,0.0049697873,0.042224616,0.46413025,-1.3397659,1.8500451,-2.0740478,-1.5778183,2.4296587,-0.2137298,0.2343329,-0.3118956,0.093211144,-0.047488425,-0.25549617,-0.11492168,0.15322891,-9.576807,0.9768804,47.666286,-1.1833255,-2.374815,-3.364183,-0.0408772,-0.16434264,-0.41306877,29.0,30.375,29.375,33.0,35.4375,36.5625
0.37405208,1.3527927,0.96155804,-0.39655757,0.0040863776,0.06684095,-0.18119453,-0.42151335,-0.35847086,0.059970804,-3.072894,0.60831594,-3.125973e-05,-0.1774617,0.057171408,0.0013784592,0.052849595,-0.0010833073,0.051783737,0.46372217,-1.3392979,1.8493756,-2.0738056,-1.5779265,2.4291143,-0.21412028,0.23553403,-0.312706,0.10006006,-0.04871545,-0.26543573,-0.21068975,0.21068975,-9.481039,0.8717007,47.690468,-1.3103838,-2.2906556,-3.3951468,-0.07900547,-0.14308597,-0.35818547,29.0,30.375,29.375,33.0,35.4375,36.5625
0.37605202,1.2467248,1.4500924,-0.23380995,-0.00047851217,0.059498657,-0.18510638,-0.42186448,-0.35835132,0.05996936,-3.072825,0.60802513,1.3983916e-05,-0.17750575,0.05741606,0.00072710944,0.052775588,-0.005714103,0.06313182,0.46330208,-1.3388292,1.8487643,-2.073613,-1.5780462,2.4285216,-0.2156119,0.23814109,-0.31541914,0.1041235,-0.046671793,-0.27828738,-0.30645782,0.13407528,-9.346964,0.9365982,47.704796,-1.3416364,-2.3343492,-3.334961,-0.13174443,-0.13463394,-0.23258135,29.0,30.375,29.375,33.0,35.4375,36.5625
0.37805203,1.1508942,1.6472521,-0.53974146,0.012054534,0.059475634,-0.1889266,-0.42223373,-0.35824332,0.059981823,-3.0727658,0.6078768,1.1619883e-05,-0.17647831,0.05840055,0.0005921046,0.05513233,-0.010025776,0.069461465,0.46285734,-1.3383374,1.848082,-2.0733712,-1.5781177,2.427992,-0.21604806,0.23817754,-0.31657693,0.11006688,-0.04690919,-0.28504956,-0.17238252,-0.13407528,-9.481039,0.8627467,47.72808,-1.3929493,-2.3346324,-3.4011183,-0.20263696,-0.11562936,-0.10734476,29.0,30.375,29.375,33.0,35.4375,36.5625
