Tylouw/Master_Thesis_Code/training_data/batch_1/rect_rod_t0.2/sample_14_session_1.csv
timestamp[s],tcp_force_x[N],tcp_force_y[N],tcp_force_z[N],tcp_force_rx[Nm?],tcp_force_ry[Nm?],tcp_force_rz[Nm?],tcp_pose_x[m],tcp_pose_y[m],tcp_pose_z[m],tcp_pose_rx[rot_vec_x],tcp_pose_ry[rot_vec_y],tcp_pose_rz[rot_vec_z],tcp_velo_x[m/s],tcp_velo_y[m/s],tcp_velo_z[m/s],tcp_velo_rx[rot_vec_x/s],tcp_velo_ry[rot_vec_y/s],tcp_velo_rz[rot_vec_z/s],q1[rad],q2[rad],q3[rad],q4[rad],q5[rad],q6[rad],qd1[rad/s],qd2[rad/s],qd3[rad/s],qd4[rad/s],qd5[rad/s],qd6[rad/s],tool_acc_x,tool_acc_y,tool_acc_z,current_of_whole_robot[A],voltage_of_whole_robot[V],current_J1[A],current_J2[A],current_J3[A],current_J4[A],current_J5[A],current_J6[A],temp_J1[C],temp_J2[C],temp_J3[C],temp_J4[C],temp_J5[C],temp_J6[C]
1.0570002e-06,0.21773176,-0.89362293,0.4986996,0.009044558,0.006328917,-0.0013384105,-0.3893299,-0.36870366,0.059985496,-3.0786533,0.6249753,0.00014799884,0.0005146677,0.00026838682,-0.00036089006,0.00091564166,-0.0018471341,7.127665e-05,0.50502086,-1.3816197,1.9042224,-2.091903,-1.5708655,2.4800491,-3.0504427e-05,0.00037406068,-3.8095757e-06,0.0016889396,9.6285e-05,-0.00010204325,0.15322891,0.15322891,-8.791509,0.800085,47.713753,-0.20926666,-3.0781467,-2.3618774,-0.21175237,0.08848545,0.024120685,28.75,30.125,29.3125,32.8125,35.375,36.4375
0.002052446,0.33025756,-0.9824614,0.34406734,0.014208603,0.009952437,-0.014031795,-0.38935322,-0.36873263,0.06001187,-3.0787487,0.6249181,0.00024116768,-0.0013963276,-0.00079388986,-0.00088676723,-0.0029403782,0.005088788,7.020587e-05,0.5050329,-1.3816314,1.904188,-2.0919554,-1.5708417,2.4800134,-2.9504288e-05,0.0011740172,0.0028841025,-0.009934658,9.426806e-05,-9.9780336e-05,0.019153614,0.19153613,-8.676587,0.7642693,47.694946,-0.15851688,-3.0633044,-2.2803898,-0.14111167,0.06998581,0.018896343,28.75,30.125,29.3125,32.8125,35.375,36.4375
0.004052283,0.30465367,-0.4466778,0.56901675,-0.00060550333,0.019351259,-0.0139696635,-0.38932398,-0.36873248,0.05999763,-3.0787249,0.6249324,0.00014470414,-0.0016271785,-0.0009224678,-0.0014108043,-0.0030663153,0.005313905,6.919832e-05,0.5050448,-1.381631,1.9042119,-2.0919197,-1.5708174,2.4800372,-2.8567803e-05,0.002246911,0.0031770684,-0.011558459,9.233363e-05,-9.761595e-05,0.1340753,0.24899697,-8.676587,0.7777002,47.71823,-0.18864718,-3.3076982,-2.615592,-0.027305692,0.08075104,0.026752407,28.75,30.125,29.3125,32.8125,35.375,36.4375
0.006052392,0.2642143,-0.28701735,0.38605502,0.019428974,-0.0005269611,-0.007013218,-0.38933852,-0.3687227,0.05999132,-3.0787036,0.62492806,0.0002215466,-0.00075384096,-0.00043648004,-0.0008685091,-0.0015609899,0.0026153545,6.776799e-05,0.5050448,-1.3816193,1.9042228,-2.0919654,-1.5708655,2.4800372,-2.7688826e-05,0.0011969138,0.001971195,-0.0062125837,9.047717e-05,-9.554323e-05,0.076614454,0.21068975,-8.63828,0.7463667,47.690468,-0.19002485,-3.3401942,-2.5582948,-0.06733596,0.07270769,0.009378084,28.75,30.125,29.3125,32.8125,35.375,36.4375
0.00805268,0.9987992,0.65725124,-0.0026840516,0.05381034,-0.01399047,-0.009652234,-0.38931474,-0.36871564,0.059988797,-3.0787032,0.6249089,0.00012750571,-0.00019806683,-0.00012672972,0.00015211129,-0.00089557795,0.0014313823,6.6304776e-05,0.5050329,-1.3816441,1.9042467,-2.0919163,-1.5708297,2.4800134,-2.6862448e-05,-0.0006617264,0.00086383574,-0.00188845,8.869379e-05,-9.3556824e-05,0.0,0.22984336,-8.734048,0.7329411,47.695843,-0.1545898,-3.2340183,-2.512472,-0.08955848,0.085231185,0.023505112,28.75,30.125,29.3125,32.8125,35.375,36.4375
0.010052038,0.6589681,0.4654627,-0.3759316,0.06371527,-0.022975497,-0.011373936,-0.38934696,-0.368722,0.059991118,-3.07869,0.6250019,0.00016641624,-0.000311186,-0.00017942023,0.0005163473,-0.0006431751,0.0009808145,4.842676e-05,0.50502086,-1.381596,1.9041871,-2.0919273,-1.5708417,2.480061,-4.3225184e-05,-0.00055294513,-0.0004936453,-0.00012330229,8.69795e-05,-9.1651294e-05,0.019153614,0.15322891,-9.021352,0.78217715,47.66808,-0.71427673,-2.749404,-2.904213,-0.12470101,0.058135588,-0.04974833,28.75,30.125,29.3125,32.8125,35.375,36.4375
0.012052387,-0.045545053,-0.55727667,-0.5781888,0.028658614,-0.010781336,-0.011218172,-0.38930866,-0.3687078,0.05996254,-3.0786476,0.624936,6.559149e-05,0.0007417923,0.00057012774,-0.0006357893,0.0020705226,-0.003905919,-0.00018383293,0.5050328,-1.3815955,1.9042457,-2.091902,-1.5708417,2.4800372,-0.0003196147,0.0012479651,-0.00096585654,0.0041376594,8.5330095e-05,-0.00013575863,-0.019153614,0.15322891,-9.11712,0.7642693,47.66808,-0.88148713,-2.6513228,-3.07347,-0.14517269,0.05602911,-0.10089935,28.75,30.125,29.3125,32.8125,35.375,36.4375
0.014052548,-0.24657018,-1.203442,-0.7029132,-0.021847323,0.027999772,-0.011779014,-0.38931343,-0.36870098,0.059954233,-3.0786376,0.62493473,4.699736e-05,-0.0033003152,0.004815123,-0.005995431,0.0064415177,-0.01182399,-0.0032759395,0.5050168,-1.381579,1.9042453,-2.0919025,-1.5708417,2.4800217,-0.011250612,0.013152118,-0.002541788,0.0028527004,8.374221e-05,-0.007971973,-0.1340753,0.15322891,-9.289502,0.7709874,47.704796,-0.44321662,-3.33345,-3.138278,-0.1443826,0.07789644,-0.12760824,28.75,30.125,29.3125,32.8125,35.375,36.4375
0.016052458,-0.46631807,-1.5430989,-0.6378352,-0.04689573,0.060233537,-0.02632238,-0.38932145,-0.36869353,0.05995309,-3.0786343,0.6248728,4.738027e-05,-0.006147616,0.004287414,-0.0027367526,0.0028681974,-0.0053797094,0.0040032496,0.5050042,-1.3815682,1.9042324,-2.0918906,-1.5708536,2.479971,-0.013023898,0.010270093,-0.0064119175,0.0022346491,8.221211e-05,-0.017023254,-0.26815057,0.15322891,-9.442732,0.71951014,47.661808,-0.43399957,-3.1555855,-3.0362182,-0.09438191,0.06613375,-0.019536745,28.75,30.125,29.3125,32.8125,35.375,36.4375
0.018052263,-1.4219964,-1.3253074,-0.74857706,-0.04408268,0.06310829,-0.042620637,-0.38930994,-0.3687035,0.05992648,-3.0786262,0.62481123,-4.7539266e-05,-0.0060449336,0.003412209,-0.0014740584,0.0016081413,-0.0031034525,0.008445771,0.50501686,-1.3815087,1.90422,-2.0918787,-1.5708297,2.4799461,-0.011453294,0.008376518,-0.0070274076,0.002141988,8.0737256e-05,-0.019895215,-0.47884032,0.11492168,-9.481039,0.7709874,47.703903,-0.6897719,-2.8465962,-3.215144,-0.09556152,0.049843393,-0.0020232778,28.75,30.125,29.3125,32.8125,35.375,36.4375
0.020052193,-0.9329312,-0.7241062,-1.0357668,-0.005543133,0.086419016,-0.06903875,-0.38928598,-0.36867502,0.05989173,-3.0785718,0.6248201,-0.00023007698,-0.0057826284,0.0040079667,-0.002360547,0.0033143933,-0.0061844853,0.008432555,0.5049687,-1.3814842,1.9042562,-2.0918176,-1.5707935,2.4799104,-0.01221142,0.010171713,-0.007667222,0.0045092036,7.9314166e-05,-0.020639835,-0.63206923,0.17238252,-9.500193,0.7530795,47.73614,-0.8552239,-2.7917376,-3.3601012,-0.088311814,0.0662129,-0.0049229935,28.75,30.125,29.3125,32.8125,35.375,36.4375
0.022052158,-0.86793226,0.20494643,-1.1171968,0.02339378,0.082471915,-0.085985005,-0.3893037,-0.36867982,0.05990129,-3.0785775,0.6248241,-0.0001896673,-0.0067148544,0.005257212,-0.002803832,0.0044592586,-0.00824633,0.0036531484,0.50496763,-1.3814716,1.9042195,-2.0918171,-1.5708054,2.479911,-0.015185563,0.01167571,-0.008911203,0.0066075185,7.794043e-05,-0.018834041,-0.6512229,0.17238252,-9.595961,0.7418897,47.723602,-0.8400793,-2.7539272,-3.4729033,-0.13230643,0.047068574,-0.051892646,28.75,30.125,29.3125,32.8125,35.375,36.4375
0.024052033,-1.4993399,0.099606946,-1.20388,0.03019992,0.059517935,-0.10659772,-0.38933238,-0.3686536,0.059882943,-3.0785322,0.62483466,-0.00018015332,-0.008880445,0.005032583,-0.0024271102,0.0035801881,-0.0066733765,0.0012500786,0.50491923,-1.3814229,1.9042066,-2.09183,-1.5708417,2.479875,-0.016833792,0.014016149,-0.012381766,0.0059351632,7.661342e-05,-0.018077336,-0.6703764,0.095768064,-9.672575,0.7016076,47.690468,-0.8631773,-2.7069254,-3.3487628,-0.120839946,0.039775863,-0.05795458,28.75,30.125,29.3125,32.8125,35.375,36.4375
0.02605251,-0.93777615,-0.28792602,-1.1782583,0.013113935,0.07194047,-0.120800905,-0.3893486,-0.36865443,0.059872247,-3.0785508,0.62480044,-0.0002468639,-0.009905567,0.00502811,-0.0025000933,0.003103659,-0.0058194166,-0.00085503404,0.5048829,-1.3813744,1.9041709,-2.091818,-1.5708054,2.479815,-0.017784422,0.015208929,-0.013354077,0.0047375686,7.5330936e-05,-0.01692214,-0.7852981,0.05746084,-9.710882,0.72622824,47.709274,-0.8682512,-2.755231,-3.385272,-0.10453015,0.04975885,-0.06875301,28.75,30.125,29.3125,32.8125,35.375,36.4375
0.028052455,-1.478938,-0.9946124,-1.3373652,4.030355e-05,0.08172074,-0.12332555,-0.38936868,-0.3686584,0.059882857,-3.0785477,0.6248193,-0.00024574183,-0.010877161,0.0048678005,-0.0026128655,0.0030934655,-0.0058070356,-0.0020018278,0.5048707,-1.3813496,1.9041094,-2.0917823,-1.5708054,2.479815,-0.0184233,0.017156826,-0.015423369,0.004843254,7.40906e-05,-0.016413078,-0.8810662,0.11492168,-9.80665,0.7620334,47.696735,-0.8822876,-2.7056203,-3.3644292,-0.08961731,0.055544265,-0.09813588,28.75,30.125,29.3125,32.8125,35.375,36.4375
0.030052407,-1.4776448,-0.892797,-1.2689553,-0.017814575,0.106570326,-0.13438416,-0.38938954,-0.3686414,0.05987566,-3.0785322,0.6248554,-0.00026062966,-0.010795106,0.0051897136,-0.0024083327,0.003604394,-0.0067232978,-0.0030661582,0.5048226,-1.3813257,1.9040974,-2.0917819,-1.5708054,2.4797914,-0.018886678,0.016882831,-0.015994808,0.006737848,7.289048e-05,-0.015812134,-0.80445176,0.0,-9.864111,0.7642693,47.674347,-0.96843815,-2.7990432,-3.4067922,-0.08574113,0.06198386,-0.11604458,28.75,30.125,29.3125,32.8125,35.375,36.4375
0.0320524,-1.568137,-1.0862898,-1.3099964,0.00037119683,0.1060454,-0.143384,-0.38941315,-0.36862856,0.05985663,-3.0784843,0.62488514,-0.00030746113,-0.011493032,0.005640877,-0.0026583918,0.0042291973,-0.0078540575,-0.004906477,0.50478625,-1.381253,1.9040493,-2.091757,-1.5708174,2.4797797,-0.020298112,0.018376773,-0.017483443,0.00802431,7.1728675e-05,-0.015382542,-0.6895301,-0.019153614,-9.844957,0.7777002,47.668976,-0.90413135,-2.7259498,-3.3984485,-0.117962524,0.042810388,-0.1486853,28.75,30.125,29.3125,32.8125,35.375,36.4375
0.034051795,-1.0466756,-0.37949204,-1.0360351,0.02030274,0.104848064,-0.15889625,-0.3894494,-0.36860824,0.059865277,-3.078468,0.6249586,-0.00027979666,-0.012562467,0.0057564704,-0.0019314553,0.0034117196,-0.0063797208,-0.00497691,0.50472593,-1.3812413,1.904013,-2.0917451,-1.5708297,2.4797673,-0.021490365,0.018056527,-0.018733546,0.007908522,7.060315e-05,-0.016503887,-0.7661445,-0.019153614,-9.844957,0.7642693,47.70211,-1.0323968,-2.716773,-3.4371872,-0.1274736,0.036928073,-0.15458018,28.75,30.125,29.3125,32.8125,35.375,36.4375
0.03605217,-0.57692313,-0.110640734,-1.2657124,0.03738085,0.09756933,-0.17239475,-0.389455,-0.36859235,0.059843186,-3.0784328,0.62489367,-0.00033881265,-0.014045407,0.0058789896,-0.001611368,0.0026320235,-0.0049809883,-0.005372768,0.5047014,-1.3811927,1.9040006,-2.0917218,-1.5708417,2.4797068,-0.023082908,0.018947504,-0.020307321,0.006989591,6.951264e-05,-0.017699694,-0.61291564,-0.076614454,-9.825804,0.7530795,47.674347,-0.9722599,-2.7453723,-3.3867636,-0.11496067,0.038202316,-0.17711575,28.75,30.125,29.3125,32.8125,35.375,36.4375
0.038052313,-1.1080351,-0.5444816,-1.3668288,0.053888775,0.0611585,-0.1712655,-0.3895141,-0.3685751,0.05984299,-3.0784335,0.6250087,-0.000295507,-0.015686661,0.0060226177,-0.001303996,0.0019354877,-0.0037309283,-0.0053318175,0.50461704,-1.3811443,1.903952,-2.091758,-1.5708417,2.4796941,-0.024856126,0.020178266,-0.022313913,0.006334157,6.8455214e-05,-0.019512774,-0.5363012,-0.076614454,-9.80665,0.7418897,47.682407,-0.92877585,-2.6903346,-3.296565,-0.07508981,0.030926883,-0.1622302,28.75,30.125,29.3125,32.8125,35.375,36.4375
0.040052302,-0.73426,-0.3181688,-1.3107214,0.030684775,0.04347174,-0.18224838,-0.38952297,-0.36857888,0.059855703,-3.078464,0.62491864,-0.00036150665,-0.016973624,0.006258062,-0.00068304624,0.001139924,-0.002298376,-0.0052501946,0.5045925,-1.3811325,1.9038929,-2.0916865,-1.5708054,2.4796095,-0.026453938,0.020184577,-0.023669276,0.0060451017,6.742944e-05,-0.021191625,-0.4405331,-0.019153614,-9.749189,0.8493211,47.716442,-0.8793137,-2.7087698,-3.380383,-0.07393069,0.031795382,-0.17801708,28.75,30.125,29.3125,32.8125,35.375,36.4375
0.042052254,-0.15696588,-0.87147844,-1.2721922,0.015210574,0.05459013,-0.19498655,-0.3895725,-0.3685521,0.059836637,-3.0784285,0.62500775,-0.0003645331,-0.017640583,0.006338162,-0.0003903938,0.0009389747,-0.0019370898,-0.0055798353,0.5045085,-1.3810602,1.9038562,-2.0917094,-1.5708174,2.4795856,-0.027208883,0.020541793,-0.02485237,0.006457281,6.643394e-05,-0.021616435,-0.36391866,-0.05746084,-9.691729,0.75084364,47.675243,-0.9230481,-2.6329784,-3.4292655,-0.07572318,0.043868154,-0.19804254,28.75,30.125,29.3125,32.8125,35.375,36.4375
0.044052564,-0.11333779,-0.90672874,-1.1059135,0.0057327463,0.058196828,-0.20348531,-0.38963637,-0.36853564,0.059850946,-3.0784152,0.6251394,-0.00028150372,-0.01839411,0.0063945856,-0.00030509665,0.0010762488,-0.002166289,-0.005471776,0.50443625,-1.3810236,1.9037832,-2.0917218,-1.5708417,2.4795973,-0.027998455,0.02172712,-0.026646482,0.007332455,5.574411e-05,-0.022513214,-0.22984336,0.095768064,-9.5385,0.800085,47.681515,-0.89640206,-2.6822639,-3.372445,-0.063437656,0.02605315,-0.21400458,28.75,30.125,29.3125,32.8125,35.375,36.4375
0.046051912,-0.15543339,-0.698113,-1.1251309,-7.3731586e-05,0.052193105,-0.19615467,-0.3896356,-0.36852512,0.059833918,-3.0784085,0.62502176,-0.0003656498,-0.01973059,0.006646924,0.00019364254,0.0007151421,-0.0015149706,-0.0053841807,0.5044118,-1.3809874,1.9037708,-2.0916855,-1.5708297,2.4795003,-0.029669931,0.022454983,-0.028796036,0.008009468,5.184303e-05,-0.024271362,-0.11492168,0.15322891,-9.595961,0.82694155,47.71017,-0.8744137,-2.5954015,-3.2727432,-0.06597116,0.03899256,-0.24572027,28.75,30.125,29.3125,32.8125,35.375,36.4375
0.048051775,-0.45135894,-1.4552292,-1.3430735,0.020257885,0.027406482,-0.17191328,-0.38971987,-0.36851275,0.05985567,-3.0784068,0.6251363,-0.00026971413,-0.020865424,0.007513649,0.00040583953,0.0008535626,-0.0017632227,-0.0053700604,0.5043271,-1.3809273,1.9036502,-2.091685,-1.5708536,2.4794874,-0.032182716,0.022869337,-0.03001687,0.00909922,5.090753e-05,-0.026797814,-0.19153613,0.1340753,-9.730036,0.6948948,47.67614,-0.7932391,-2.6202037,-3.320309,-0.06678699,0.040556435,-0.21898592,28.75,30.125,29.3125,32.8125,35.375,36.4375
0.050052136,0.294123,-1.242191,-1.0598202,0.011421182,0.03193638,-0.17714822,-0.38976833,-0.36851272,0.05986587,-3.0784543,0.62506866,-0.0002670154,-0.021437317,0.008005491,0.0001859195,0.0010247702,-0.0020514282,-0.004368357,0.50426686,-1.380879,1.9035672,-2.0916731,-1.5708297,2.479379,-0.033533763,0.023513274,-0.03026474,0.009038584,3.92763e-05,-0.029150335,-0.038307227,0.15322891,-9.500193,0.7978386,47.71465,-0.7742692,-2.6066623,-3.2997918,-0.07166512,0.024794163,-0.23637597,28.75,30.125,29.3125,32.8125,35.375,36.4375
0.052052047,0.57564944,-0.80261534,-1.142633,-0.0025562185,0.024445567,-0.18196449,-0.38978067,-0.36846316,0.059849504,-3.0783594,0.62516457,-0.0003163869,-0.022753261,0.0084788315,0.00041677026,0.0005491023,-0.0011984935,-0.004448707,0.50419426,-1.3808668,1.9035791,-2.0916255,-1.5708655,2.4793782,-0.035557732,0.024072114,-0.031348262,0.008585304,3.722732e-05,-0.031093376,0.038307227,0.15322891,-9.500193,0.7709874,47.698532,-0.7977951,-2.5331125,-3.4200096,-0.07576957,0.02355903,-0.22117007,28.75,30.125,29.3125,32.8125,35.375,36.4375
0.0540519,0.6789454,-0.8596716,-1.0263413,-0.005989215,0.02196168,-0.18494453,-0.38986543,-0.36845282,0.059880193,-3.0783827,0.6252464,-0.00024459366,-0.024527188,0.0086536305,0.00096234167,2.9160177e-05,-0.0001314313,-0.0054208976,0.5040977,-1.3808182,1.9034466,-2.0916016,-1.5708655,2.4793298,-0.03746232,0.025331806,-0.03416375,0.008955716,-2.6766495e-05,-0.032024346,0.0,0.17238252,-9.423578,0.75084364,47.73614,-0.77531934,-2.648168,-3.3338957,-0.067452565,0.042856704,-0.23613176,28.75,30.125,29.3125,32.8125,35.375,36.4375
0.056052163,0.5436367,-0.9894927,-0.82224995,-0.0059855822,0.018651752,-0.1795135,-0.3899075,-0.36843348,0.05987234,-3.078383,0.62524545,-0.00024499226,-0.02491105,0.0082907975,0.0010812199,-8.712172e-05,0.00010823233,-0.003564566,0.5040258,-1.3807698,1.9034098,-2.091613,-1.5708655,2.4792573,-0.037196524,0.026213204,-0.035526082,0.009170426,-4.373073e-05,-0.03361418,-0.019153614,0.3256114,-9.442732,0.7083204,47.65106,-0.7313099,-2.5337484,-3.2464085,-0.07669495,0.025990091,-0.25737366,28.75,30.125,29.3125,32.8125,35.375,36.4375
0.05805211,0.5169335,-0.6628591,-0.7091825,-0.013600371,0.026801325,-0.18111137,-0.38996306,-0.3684305,0.059884284,-3.0784075,0.6252489,-0.0002573743,-0.025264727,0.0083656395,0.00086583605,0.0001429011,-0.00029533717,-0.0020346134,0.50395405,-1.3807094,1.903303,-2.0915768,-1.5708417,2.4791846,-0.037643097,0.027211579,-0.036263797,0.00937479,-5.172937e-05,-0.035590257,0.0,0.30645782,-9.461885,0.85155696,47.690468,-0.8677472,-2.5224895,-3.27485,-0.062357046,0.039887898,-0.270515,28.75,30.125,29.3125,32.8125,35.375,36.4375
0.060051914,0.4151364,-1.0900093,-0.8924038,-0.008579181,0.03940745,-0.18320735,-0.38999557,-0.36840534,0.05985541,-3.0783696,0.6252415,-0.00032875198,-0.026585663,0.009061676,0.0010162166,0.00021130973,-0.00042890786,-0.003510708,0.50388134,-1.3806251,1.9032663,-2.091565,-1.5708417,2.4791121,-0.040044945,0.02818728,-0.03795891,0.010244064,-5.1323113e-05,-0.03651526,0.0,0.2681506,-9.423578,0.7463667,47.74868,-0.75280356,-2.5359583,-3.2968903,-0.06348008,0.029663568,-0.28377265,28.75,30.125,29.3125,32.8125,35.375,36.4375
0.06205179,0.80967146,-0.52834284,-0.6247542,-0.017529942,0.054479245,-0.18410997,-0.3900668,-0.36840022,0.059901208,-3.0784123,0.62525,-0.0001913327,-0.02713569,0.009352787,0.001136089,0.00050056365,-0.0009490276,-0.0032349988,0.5038211,-1.3806249,1.903159,-2.0915525,-1.5708655,2.4790518,-0.041042864,0.028831694,-0.039281417,0.011516214,-5.040269e-05,-0.037788384,-0.076614454,0.2681506,-9.32781,0.8179876,47.691364,-0.75135857,-2.5137677,-3.3237634,-0.07407111,0.0071198833,-0.26825732,28.75,30.125,29.3125,32.8125,35.375,36.4375
0.06405182,0.3865871,-0.3371648,-0.65167534,-0.013638853,0.049235277,-0.18355797,-0.39012608,-0.36837596,0.059901346,-3.0783973,0.62524694,-0.00021989782,-0.028044427,0.009637855,0.0012841681,0.00036548957,-0.0007127071,-0.003871136,0.50372493,-1.3805525,1.9030622,-2.0915043,-1.5708655,2.4789557,-0.04236552,0.029531535,-0.040504564,0.011767238,-4.9481438e-05,-0.038474325,-0.1340753,0.19153613,-9.346964,0.73741806,47.705692,-0.86667526,-2.457892,-3.3389575,-0.07269581,0.030166153,-0.30628818,28.75,30.125,29.3125,32.8125,35.375,36.4375
0.06605258,-0.23763363,-0.9619618,-0.72213715,0.0070376694,0.04127964,-0.16087186,-0.39016688,-0.3683646,0.059897847,-3.0784159,0.62524897,-0.00024337396,-0.028602092,0.00952305,0.0015713689,0.0003093586,-0.0006171391,-0.002450916,0.5036529,-1.3805043,1.9030131,-2.0915043,-1.5708417,2.4788826,-0.042689126,0.030192846,-0.042136353,0.0126275895,-4.8591028e-05,-0.040217474,-0.1340753,0.2681506,-9.308656,0.74413085,47.677036,-0.8255967,-2.4731636,-3.2965338,-0.07389349,0.009915085,-0.3145474,28.75,30.125,29.3125,32.8125,35.375,36.4375
0.068052426,-0.14643845,-0.5343795,-0.69782734,0.010689276,0.0455522,-0.17102684,-0.39023975,-0.3683683,0.059912436,-3.078469,0.62527806,-0.00022512428,-0.029718243,0.009959735,0.0015096682,0.00017826042,-0.0003849234,-0.0014988541,0.5035685,-1.3804319,1.9028944,-2.0915043,-1.5708054,2.4788096,-0.044457953,0.0312608,-0.043199275,0.012357075,-4.7732115e-05,-0.04293774,-0.22984336,0.1340753,-9.270349,0.779936,47.647476,-0.8220366,-2.4524665,-3.238459,-0.09920627,0.023364583,-0.30625796,28.75,30.125,29.3125,32.8125,35.375,36.4375
0.07005239,-0.20203276,-0.81478834,-0.5396818,0.022319369,0.05704089,-0.15891284,-0.3902893,-0.36832884,0.0599141,-3.0784512,0.6252941,-0.0002804575,-0.030689502,0.010056602,0.0016791064,-0.00012275066,0.00014942918,-0.0019451403,0.5034484,-1.3803954,1.9028338,-2.0914443,-1.5707935,2.4787018,-0.04552183,0.032128762,-0.044592217,0.012269228,-4.6902907e-05,-0.04355462,-0.24899697,0.17238252,-9.289502,0.77545905,47.694946,-0.8030059,-2.4266338,-3.3156185,-0.07532664,0.0024650267,-0.31927973,28.75,30.125,29.3125,32.8125,35.375,36.4375
0.07205226,-0.2908452,-0.93143535,-0.59428823,0.027258946,0.064621925,-0.16030364,-0.39033788,-0.36831373,0.059911214,-3.0784206,0.6252683,-0.00025776637,-0.031584214,0.0099116545,0.0018267969,-0.0004466152,0.00072648627,-0.0021543333,0.50340027,-1.380323,1.9027494,-2.0914204,-1.5708297,2.4786415,-0.04610857,0.03323735,-0.04620542,0.01211051,-4.610198e-05,-0.043931324,-0.2681506,0.05746084,-9.251195,0.8314132,47.70659,-0.8708297,-2.421541,-3.2952929,-0.09038573,0.011383532,-0.35766447,28.75,30.125,29.3125,32.8125,35.375,36.4375
0.07405225,-0.40675187,-0.42922747,-0.43554905,0.018842326,0.07032463,-0.17255814,-0.3904238,-0.36829862,0.059922576,-3.0784538,0.62527317,-0.00025552636,-0.03310575,0.010910078,0.0017802471,-0.00038043267,0.00060037937,-0.001431388,0.50327957,-1.3802385,1.9026183,-2.0913966,-1.5708054,2.4785197,-0.049197327,0.034323864,-0.047456507,0.012418138,-4.532805e-05,-0.047742385,-0.34476504,0.1340753,-9.232041,0.7978386,47.71286,-0.88950074,-2.434708,-3.2526283,-0.07172714,0.003586837,-0.3324156,28.75,30.125,29.3125,32.8125,35.375,36.4375
0.076052494,-0.2788824,-0.63311034,-0.5869305,0.03181918,0.080028325,-0.17109911,-0.39047977,-0.36827964,0.05991962,-3.0784464,0.62527007,-0.00027043372,-0.033693273,0.011055852,0.0017298543,-6.23393e-05,1.5388345e-05,0.0015233845,0.5031954,-1.3801662,1.9025339,-2.0913723,-1.5708054,2.4784346,-0.0499847,0.035504032,-0.0489651,0.013412037,-4.457962e-05,-0.05148384,-0.40222588,0.11492168,-9.212888,0.683705,47.709274,-0.77202034,-2.4549117,-3.2754316,-0.09502221,0.008799959,-0.32831967,28.75,30.125,29.3125,32.8125,35.375,36.4375
0.07805235,-0.5944857,0.0323347,-0.46359012,0.018648058,0.07814539,-0.17075168,-0.3905276,-0.36823162,0.059899647,-3.0783844,0.62519604,-0.00029358905,-0.0332274,0.010647399,0.001591348,0.00026657467,-0.0005922189,0.00688395,0.5031001,-1.3800939,1.9024857,-2.091336,-1.5708536,2.478301,-0.048859406,0.035948437,-0.0493118,0.0140021,-4.385551e-05,-0.055718966,-0.40222588,-0.038307227,-9.308656,0.7620334,47.68599,-0.940778,-2.4200644,-3.1677282,-0.09797723,0.0031278026,-0.29702652,28.75,30.125,29.3125,32.8125,35.375,36.4375
0.08005225,-0.25462404,0.123667054,-0.39583147,0.015828881,0.08657584,-0.17576726,-0.39059278,-0.36822787,0.059913225,-3.078435,0.62520874,-0.00031471282,-0.034646217,0.011621044,0.0012663718,0.0006304448,-0.0012563032,0.0038585386,0.503003,-1.3800331,1.9023775,-2.0913122,-1.5708054,2.4782054,-0.051811717,0.037606485,-0.05063057,0.014422758,-4.3154578e-05,-0.055645116,-0.49799395,-0.038307227,-9.385271,0.80679786,47.698532,-0.87955177,-2.400507,-3.2966075,-0.101090446,-0.00038498326,-0.29239857,28.75,30.125,29.3125,32.8125,35.375,36.4375
0.082052365,-0.2323559,-0.20035772,-0.7138047,0.019870419,0.08217839,-0.17384213,-0.3906915,-0.36821815,0.059948176,-3.0784962,0.62514126,-0.00022911422,-0.036599994,0.01181825,0.0018369679,-4.9201362e-06,-9.476173e-05,0.0056662206,0.5028947,-1.3799728,1.9022211,-2.0912879,-1.5708054,2.4780474,-0.053947367,0.039010283,-0.053659063,0.014723112,-4.9448932e-05,-0.05958702,-0.38307226,-0.05746084,-9.385271,0.784413,47.67614,-0.84840256,-2.4717963,-3.147522,-0.11362441,-0.0069092563,-0.29495803,28.75,30.125,29.3125,32.8125,35.375,36.4375
0.08405249,-0.457387,-0.9097252,-0.5834855,0.04119856,0.071667165,-0.16126573,-0.3907871,-0.36819312,0.05995762,-3.0784917,0.6251773,-0.00013672622,-0.03654451,0.013184299,0.0004786105,0.0015238993,-0.0028508082,0.00791653,0.50278616,-1.3798882,1.9021024,-2.0913002,-1.5708417,2.477962,-0.056179494,0.040345967,-0.05224099,0.015118258,-5.5287946e-05,-0.06406986,-0.4405331,-0.11492168,-9.346964,0.779936,47.691364,-0.7364123,-2.412398,-3.2705393,-0.10662967,-0.0021554888,-0.2379235,28.75,30.125,29.3125,32.8125,35.375,36.4375
0.086051725,-0.3446301,-0.454469,-0.56627274,0.02581361,0.07207407,-0.17379948,-0.3908327,-0.3681592,0.059931044,-3.0784473,0.62512696,-0.00026475333,-0.036616396,0.01185945,0.0007650174,0.0010445698,-0.0020057312,0.013470584,0.50267917,-1.3797797,1.902018,-2.0912278,-1.5708297,2.4778292,-0.054012477,0.04157578,-0.054325193,0.0150015,-5.4876033e-05,-0.06745585,-0.5554548,-0.019153614,-9.385271,0.7933669,47.684196,-0.91369146,-2.426798,-3.3193445,-0.13356239,-0.0016765567,-0.19670638,28.75,30.125,29.3125,32.8125,35.375,36.4375
0.08805263,-0.32576543,-0.38058987,-0.4370214,0.027131597,0.07706662,-0.17618047,-0.39092988,-0.3681396,0.059960663,-3.0784872,0.6250376,-0.00016845459,-0.038702782,0.0120584285,0.0012164809,0.0002478102,-0.000545259,0.013816588,0.50257057,-1.3797194,1.901874,-2.0912044,-1.5708536,2.47766,-0.056271117,0.043145716,-0.057109468,0.014550209,-6.411919e-05,-0.07005906,-0.47884032,-0.038307227,-9.308656,0.76874626,47.67614,-0.89946306,-2.4527493,-3.2195365,-0.14430863,-0.0046932586,-0.17143166,28.75,30.125,29.3125,32.8125,35.375,36.4375
0.090052634,-0.76488215,-0.45352048,-0.7453104,0.025239488,0.06717245,-0.16740607,-0.39100078,-0.36812583,0.059974402,-3.0785227,0.6249863,-0.00015211212,-0.040567175,0.01218666,0.0016618303,-0.0005568419,0.0009120462,0.014460668,0.502474,-1.3796585,1.9017652,-2.0911806,-1.5708417,2.477527,-0.05821005,0.044468682,-0.05957103,0.0140246,-6.6374436e-05,-0.072640814,-0.34476504,0.05746084,-9.3661175,0.8224646,47.709274,-0.8961817,-2.434846,-3.1519191,-0.14074707,-0.010425145,-0.113855295,28.75,30.125,29.3125,32.8125,35.375,36.4375
0.09205243,-0.4208053,-0.6781903,-0.807065,0.012951632,0.070766814,-0.16282913,-0.39108074,-0.36807236,0.059924863,-3.0784643,0.6250115,-0.0003084107,-0.039480668,0.012932858,0.00023097191,0.0010402726,-0.0020030064,0.015866414,0.5022945,-1.3794903,1.9016708,-2.0911448,-1.5708174,2.4773705,-0.058443893,0.045270626,-0.057337668,0.014314784,-6.561557e-05,-0.07428122,-0.3256114,0.038307227,-9.346964,0.71279734,47.694054,-0.9425623,-2.4763367,-3.3041806,-0.13416517,-0.01674043,-0.09818953,28.75,30.125,29.3125,32.8125,35.375,36.4375
0.09405236,-0.05853889,-1.0598894,-0.6482022,0.00029017232,0.076930925,-0.15814161,-0.391137,-0.3680321,0.059908245,-3.0784307,0.6249854,-0.000379489,-0.041093417,0.012775947,0.00088919554,0.00028839693,-0.00050230423,0.0154191535,0.5021744,-1.3794057,1.9015979,-2.091097,-1.5708174,2.4772384,-0.059624985,0.04636307,-0.060139015,0.01434655,-0.00013991454,-0.075013615,-0.40222588,0.17238252,-9.385271,0.7642693,47.698532,-0.9432067,-2.5053225,-3.2898774,-0.15746848,-0.018553011,-0.07383411,28.75,30.125,29.3125,32.8125,35.375,36.4375
0.09605167,-0.8155089,-1.1410723,-0.8411396,-0.008101237,0.05191085,-0.15774009,-0.3912024,-0.36800477,0.059913028,-3.078414,0.6248863,-0.00035885692,-0.041624054,0.012951128,0.00066977204,0.0007452784,-0.0010875664,0.013809842,0.5020902,-1.3793333,1.9014901,-2.0910485,-1.5708536,2.4770947,-0.060329832,0.047679424,-0.06133989,0.014961848,-0.00026058612,-0.074108295,-0.34476507,0.24899697,-9.3661175,0.78217715,47.688675,-0.9420564,-2.5006552,-3.2125523,-0.16977218,-0.029495561,-0.067517675,28.75,30.125,29.3125,32.8125,35.375,36.4375
0.09805182,-0.260035,-1.090229,-0.8790703,-0.0029018696,0.05738902,-0.16732484,-0.39131808,-0.3679845,0.059931163,-3.0784762,0.62486154,-0.00031248652,-0.042737234,0.013400808,0.0010271316,0.0010521096,0.00016138439,0.011986863,0.501934,-1.3792372,1.9013351,-2.0910485,-1.5708302,2.4769151,-0.06156201,0.047980808,-0.062492993,0.014871293,-0.0011288291,-0.07351539,-0.17238252,0.2681506,-9.404425,0.79560274,47.704796,-1.0200758,-2.4335623,-3.2194476,-0.18686877,-0.012411926,-0.07027744,28.75,30.125,29.3125,32.8125,35.375,36.4375
0.10005179,0.37101814,-0.83995736,-0.7283505,-0.0142786065,0.058070842,-0.17693357,-0.39143687,-0.36795816,0.059953377,-3.0784795,0.62490016,-0.00020503753,-0.043576248,0.013905473,-1.7452988e-06,0.0027605223,-0.0009484595,0.009865463,0.5018019,-1.3791399,1.9011668,-2.0910366,-1.5708665,2.4768069,-0.062575825,0.05106791,-0.06381723,0.014904149,-0.002090946,-0.072405145,-0.17238252,0.28730422,-9.461885,0.8627467,47.682407,-0.98651195,-2.4949756,-3.2805161,-0.19204503,-0.0115400795,-0.06874285,28.75,30.125,29.3125,32.8125,35.375,36.4375
0.10205165,0.6234294,-0.42431143,-0.61818355,-0.033059742,0.051681023,-0.17830594,-0.39149967,-0.36792448,0.059941515,-3.078444,0.62479824,-0.00027979838,-0.044170626,0.013948943,-0.00016198128,0.002711705,-0.0011003498,0.00790912,0.501694,-1.3790313,1.9010462,-2.0909526,-1.5708779,2.47664,-0.063259564,0.05221642,-0.06480559,0.014852481,-0.0019823264,-0.07113202,-0.15322891,0.24899697,-9.423578,0.8112748,47.675243,-1.0893869,-2.661988,-3.3009937,-0.19291781,0.0070452485,-0.09079404,28.75,30.125,29.3125,32.8125,35.375,36.4375
0.104052566,1.0224788,-0.5148296,-0.7862599,-0.031820826,0.0505341,-0.18199098,-0.39159662,-0.36788958,0.059945416,-3.0784683,0.6248035,-0.00026329886,-0.045426644,0.014040191,0.0014670965,0.000809606,0.0017806268,0.004726422,0.50153786,-1.3789481,1.9009389,-2.0909526,-1.570866,2.476484,-0.064737186,0.050076675,-0.06594694,0.014692748,-0.0017004686,-0.06942738,-0.17238252,0.3256114,-9.404425,0.7911258,47.709274,-1.0165954,-2.3932395,-3.2929287,-0.20781365,-0.010348792,-0.10786793,28.75,30.125,29.3125,32.8125,35.375,36.4375
0.10605193,1.176156,-0.63554555,-0.8440595,-0.027715009,0.04953518,-0.17944753,-0.39165887,-0.3678685,0.059896357,-3.0784438,0.62470275,-0.00040387813,-0.04592881,0.014200965,0.00067974615,0.0014248902,-0.00014763998,0.0026698366,0.50142974,-1.378767,1.9008306,-2.0909288,-1.5708421,2.4763162,-0.065701306,0.052704472,-0.06747755,0.015582463,-0.0013204892,-0.06833456,-0.019153614,0.24899697,-9.442732,0.8023209,47.696735,-1.0346526,-2.514282,-3.3182473,-0.19529918,-0.007115382,-0.15749618,28.75,30.125,29.3125,32.8125,35.375,36.4375
0.10805169,-0.21017613,-1.2538099,-0.94288814,-0.0138790775,0.011577435,-0.15961494,-0.39175904,-0.36784786,0.059923273,-3.0784607,0.62472653,-0.0003357452,-0.046648286,0.0145105105,2.2095839e-05,0.0017233121,-0.0012285258,0.00016289092,0.50130945,-1.3786943,1.9006752,-2.090893,-1.5708541,2.4762087,-0.067036316,0.054810327,-0.06847319,0.0155618405,-0.0010613704,-0.06716244,0.019153614,0.28730422,-9.423578,0.7933669,47.694946,-1.0858223,-2.4557261,-3.351985,-0.21171764,-0.009514529,-0.16432835,28.75,30.125,29.3125,32.8125,35.375,36.4375
0.11005169,-0.1094237,-1.0418125,-0.8383819,-0.014270348,0.019617122,-0.16206484,-0.39188683,-0.36781204,0.05994592,-3.078468,0.62474734,-0.00022763232,-0.047883343,0.015044023,-0.00020053599,0.0017415462,-0.0016240522,-0.0022784967,0.50115323,-1.3785976,1.9005064,-2.0908806,-1.5708903,2.4760647,-0.069168754,0.056467462,-0.0699793,0.015763324,-0.0008863205,-0.06685303,-0.019153614,0.2681506,-9.3661175,0.77545905,47.66987,-1.0739555,-2.6593695,-3.3108673,-0.22739865,-0.019519597,-0.21446568,28.75,30.125,29.25,32.8125,35.375,36.4375
0.11205176,0.84284246,-0.6920557,-0.8325855,-0.013423483,0.048479732,-0.17026573,-0.3919726,-0.36779597,0.059930675,-3.078487,0.6247703,-0.00033175846,-0.048997115,0.014652603,0.0014992881,-0.00031371566,0.002043799,-0.0023549828,0.5010092,-1.3784542,1.9003633,-2.0908453,-1.5708302,2.4759326,-0.069545716,0.054348793,-0.0711356,0.01483782,-0.0008528827,-0.067153335,-0.019153614,0.28730422,-9.346964,0.8873621,47.709274,-1.1035562,-2.434758,-3.3253036,-0.2157823,-0.0042152405,-0.23847203,28.75,30.125,29.25,32.8125,35.375,36.4375
0.11405176,0.29277602,-0.87562865,-0.8481393,0.00844411,0.037958436,-0.16230871,-0.3920552,-0.36777917,0.059913762,-3.0784967,0.62477094,-0.00037355607,-0.049693935,0.014992742,0.0006605174,0.00041117048,0.000551403,-0.0016584053,0.5008892,-1.378321,1.9002441,-2.0908453,-1.5708059,2.4758117,-0.07079832,0.05695189,-0.07238677,0.015144124,-0.0007755681,-0.06910178,-0.038307227,0.22984336,-9.385271,0.7284641,47.698532,-1.1549958,-2.4542477,-3.3479714,-0.22502951,-0.033945642,-0.24427605,28.75,30.125,29.25,32.8125,35.375,36.4375
0.116051756,0.027243253,-1.1050923,-0.80059874,0.013311822,0.031979002,-0.15599865,-0.39215797,-0.36772972,0.059930116,-3.078451,0.6248193,-0.00035144328,-0.050431177,0.014805002,0.0005588044,0.00028979697,0.000690046,-0.0035781607,0.5007334,-1.3782365,1.9000877,-2.0907614,-1.5708421,2.475692,-0.07117155,0.058466878,-0.07391577,0.014975739,-0.0007395297,-0.06755445,-0.076614454,0.13407528,-9.3661175,0.7732232,47.68062,-1.1474565,-2.5320852,-3.3143454,-0.24576418,-0.016598787,-0.29757422,28.75,30.125,29.25,32.8125,35.375,36.4375
0.11805255,0.8239275,-0.5766935,-0.6577865,0.00858966,0.05876432,-0.16006732,-0.3922466,-0.36769822,0.059910987,-3.0784218,0.6247561,-0.00037034438,-0.052060563,0.014676454,0.0014650506,-0.0004069234,0.001885285,-0.004672453,0.5006131,-1.378092,1.8999547,-2.090737,-1.570866,2.475536,-0.072468154,0.05939274,-0.07733322,0.01608254,-0.0007092872,-0.0677554,-0.15322891,0.1340753,-9.32781,0.83365434,47.67614,-1.2097538,-2.4406695,-3.3005686,-0.22972524,-0.024160948,-0.33938104,28.75,30.125,29.25,32.8125,35.375,36.4375
0.12005241,0.3258156,0.087060265,-0.76677036,0.0031583156,0.04994916,-0.16663526,-0.3923746,-0.36766493,0.0599223,-3.0784206,0.6247912,-0.00033255955,-0.051954273,0.014718459,0.0011388749,-0.00015783883,0.0010462909,-0.0016655514,0.5004457,-1.3779597,1.899764,-2.0907009,-1.5708774,2.475391,-0.07253341,0.060038146,-0.077432394,0.016389867,-0.00052425783,-0.07082783,-0.15322891,0.1340753,-9.289502,0.7732232,47.705692,-1.2697796,-2.5130494,-3.1473508,-0.24157846,-0.044010054,-0.34778577,28.75,30.125,29.25,32.8125,35.375,36.4375
0.122052215,0.29396528,-0.3094021,-0.85230684,0.018198881,0.05472515,-0.1623951,-0.39246753,-0.36764836,0.05994122,-3.0784812,0.6246929,-0.00028825898,-0.05334163,0.016326465,0.00028277014,0.00087459624,-0.0010137708,-0.008749244,0.5003244,-1.3778869,1.8996319,-2.090689,-1.5708655,2.4752007,-0.07655952,0.062230147,-0.07830955,0.017378844,-0.0004368932,-0.06776984,-0.21068975,0.076614454,-9.423578,0.78217715,47.65912,-1.1760204,-2.4739347,-3.3418493,-0.27558213,-0.029256098,-0.4026612,28.75,30.125,29.25,32.8125,35.375,36.4375
0.12405219,0.4682874,-0.24290015,-0.7985038,0.0100402115,0.07378539,-0.1726541,-0.39256313,-0.3676213,0.059913542,-3.0784338,0.62467873,-0.00032202483,-0.054750893,0.014228709,0.002062051,-0.0011019091,0.0025654673,-0.0048203054,0.5002055,-1.3777064,1.8994755,-2.0906646,-1.5708898,2.475079,-0.0743204,0.06315899,-0.08350995,0.017559735,-0.0004342408,-0.06945745,-0.24899697,0.13407528,-9.442732,0.82022345,47.684196,-1.3642349,-2.5400655,-3.1317234,-0.28115898,-0.03720372,-0.44672984,28.75,30.125,29.25,32.8125,35.375,36.4375
0.12605248,-0.4397266,-0.67550206,-0.8613176,0.015401693,0.06984764,-0.16149925,-0.39268592,-0.36759055,0.059925802,-3.0784552,0.62474024,-0.0003201946,-0.05488823,0.015761202,0.0012087491,-0.00024920734,0.0010134295,-0.0041471035,0.5000251,-1.3775862,1.8992971,-2.0906289,-1.5708655,2.4749343,-0.077000305,0.063149266,-0.08151568,0.017347151,-0.0004338767,-0.072811365,-0.24899697,0.095768064,-9.442732,0.76874626,47.66808,-1.344599,-2.427806,-3.172987,-0.2875247,-0.034177527,-0.45858145,28.75,30.125,29.25,32.8125,35.375,36.4375
0.12805235,0.13032928,-0.59236896,-1.0436804,0.004129794,0.10591955,-0.15920456,-0.39282325,-0.36755246,0.059962817,-3.0784702,0.6247613,-0.00019847923,-0.056097463,0.016473632,0.0012121233,0.00013598417,0.00025230055,-0.0034787403,0.49985638,-1.3775017,1.8991045,-2.0905921,-1.5709013,2.474777,-0.07931011,0.064533636,-0.08349538,0.018791784,-0.00040368587,-0.07578876,-0.34476504,0.076614454,-9.595961,0.842603,47.672558,-1.2134373,-2.3880877,-3.2314754,-0.3060809,-0.045205418,-0.4605466,28.75,30.125,29.25,32.8125,35.375,36.4375
0.13005254,0.24970394,-0.7273391,-0.77004176,-0.0040702135,0.11627954,-0.16778414,-0.3929023,-0.3675052,0.059915133,-3.078394,0.62483686,-0.00036829597,-0.0564198,0.016182004,0.00059264485,0.0008093357,-0.0009494781,0.004387562,0.49968892,-1.3773206,1.8989848,-2.0905325,-1.5708774,2.4746664,-0.079083346,0.0670792,-0.08524739,0.01937626,-0.00043395287,-0.08342717,-0.38307226,0.019153614,-9.519346,0.8784135,47.716442,-1.394294,-2.6430817,-3.2386675,-0.31359148,-0.040722646,-0.4479746,28.75,30.125,29.25,32.8125,35.375,36.4375
0.13205239,0.39425355,-0.61825526,-0.56074786,-0.008208426,0.12939478,-0.17034176,-0.39301684,-0.36746818,0.059919443,-3.0783908,0.6248143,-0.0003834362,-0.057102866,0.016748594,0.0014770511,0.0002171547,7.981251e-05,0.0070306766,0.49952084,-1.3771892,1.8988055,-2.0904725,-1.5708774,2.4744847,-0.080658175,0.065564185,-0.08563267,0.020088525,-0.00040954057,-0.08764533,-0.51714754,0.095768064,-9.461885,0.7709874,47.683304,-1.2982911,-2.3874695,-3.2517486,-0.3397405,-0.0569349,-0.4102152,28.75,30.125,29.25,32.8125,35.375,36.4375
0.13405222,-0.047169697,-0.58428186,-0.82610744,0.002318251,0.11057432,-0.15568922,-0.3931452,-0.36745265,0.05993531,-3.0784328,0.6247235,-0.00034151322,-0.058672704,0.017326856,0.0010730494,0.00020612899,9.4475865e-05,0.011172415,0.4993762,-1.3770442,1.8985895,-2.0904367,-1.5708774,2.4742782,-0.08305395,0.06774398,-0.08715255,0.019409327,-0.00041151376,-0.09418185,-0.53630114,0.095768064,-9.461885,0.8090337,47.688675,-1.2978666,-2.4113257,-3.2322392,-0.35482368,-0.048932593,-0.3639059,28.75,30.125,29.25,32.8125,35.375,36.4375
0.13605246,-0.71707076,-0.7113127,-1.1116351,0.009468734,0.09460001,-0.16403331,-0.39323476,-0.3674123,0.05990869,-3.0784414,0.6246642,-0.0004644911,-0.059923097,0.017717632,0.0015499508,-0.0004934184,0.001353538,0.016266337,0.49919596,-1.3769,1.8984708,-2.0904005,-1.5708297,2.4740598,-0.08484296,0.067781,-0.08819274,0.018975792,-0.00041258606,-0.10106432,-0.51714754,0.05746084,-9.5385,0.7978386,47.66987,-1.4188836,-2.4743347,-3.2660422,-0.33941448,-0.05475553,-0.27062276,28.75,30.125,29.25,32.8125,35.375,36.4375
0.13805236,-0.59982395,-0.27020064,-1.0542401,0.0038900343,0.09748422,-0.16654019,-0.39339826,-0.36737722,0.05993672,-3.078475,0.6245532,-0.0003295368,-0.06103229,0.01806654,0.001433569,-0.00070309447,0.0018375929,0.018918311,0.4990158,-1.3767555,1.8982304,-2.090377,-1.5708774,2.4738064,-0.08639245,0.0689282,-0.08912872,0.018233832,-0.00045807083,-0.10526512,-0.63206923,-0.019153614,-9.519346,0.8672237,47.666286,-1.2494103,-2.387487,-3.362894,-0.33367097,-0.06858455,-0.24073917,28.75,30.125,29.25,32.8125,35.375,36.4375
0.14005223,-0.66175944,-0.08360657,-0.9154543,0.007326876,0.095111385,-0.16371669,-0.39350352,-0.36734846,0.059932794,-3.0784953,0.6245547,-0.0003797156,-0.06285864,0.017463977,0.0024886918,-0.0022343532,0.0047374656,0.022204563,0.49884817,-1.3766232,1.8980745,-2.0903423,-1.5708417,2.473637,-0.087005265,0.0696467,-0.092174776,0.017285734,-0.0005121769,-0.10916268,-0.6703765,-0.019153614,-9.519346,0.8247004,47.701214,-1.413363,-2.4545174,-3.1968288,-0.34298477,-0.066878185,-0.19425358,28.75,30.125,29.25,32.8125,35.375,36.4375
0.14205196,-0.53594357,-0.17416328,-0.8997279,0.015284765,0.10637659,-0.16964395,-0.393634,-0.36731878,0.059936706,-3.07852,0.62446666,-0.00036821034,-0.06483693,0.020055702,0.0018893407,-0.001710791,0.003865596,0.017173195,0.49867797,-1.3764668,1.8978719,-2.090306,-1.5708417,2.473409,-0.09313098,0.070287034,-0.09151689,0.017003594,-0.00055270595,-0.11025712,-0.47884035,-0.038307227,-9.519346,0.7866488,47.70211,-1.1438572,-2.3251035,-3.3721128,-0.3365891,-0.060840897,-0.13479337,28.75,30.125,29.25,32.8125,35.375,36.4375
0.14405183,-0.33065385,-0.20673622,-1.0366472,0.021204047,0.10251941,-0.16601454,-0.3937455,-0.36725917,0.05991607,-3.0784976,0.62442195,-0.0004268375,-0.06635353,0.018809306,0.003241182,-0.0029321283,0.0061335266,0.01714553,0.498475,-1.3763224,1.8977393,-2.0902693,-1.5708417,2.473181,-0.09239196,0.0715159,-0.09627575,0.01795786,-0.000576545,-0.10948838,-0.5554548,-0.095768064,-9.481039,0.784413,47.66987,-1.2928289,-2.3537135,-3.1644568,-0.33212757,-0.07311581,-0.13965379,28.75,30.125,29.25,32.8125,35.375,36.4375
0.14605223,-0.27413154,-0.124912895,-0.8250048,0.023454774,0.09989228,-0.15983555,-0.39391088,-0.36724204,0.059947617,-3.0785677,0.6243433,-0.0003278227,-0.0671608,0.020398116,0.002827964,-0.0020899223,0.0053609386,0.010359688,0.49829417,-1.376166,1.8974766,-2.0902455,-1.5708421,2.4729424,-0.09554668,0.071646444,-0.095551275,0.01818575,-0.00093333056,-0.105856955,-0.47884035,-0.05746084,-9.519346,0.8023209,47.642998,-1.1814325,-2.3201284,-3.3226657,-0.35516876,-0.08188539,-0.18046105,28.75,30.125,29.25,32.8125,35.375,36.4375
0.14805228,-0.4420557,-0.05297602,-0.9605486,0.023374636,0.089277245,-0.1637148,-0.39403072,-0.36716837,0.059918642,-3.0784864,0.62432957,-0.00036515246,-0.06890009,0.020854557,0.002786555,-0.0023003554,0.005793424,0.0034025963,0.49808988,-1.3759973,1.8973316,-2.0901978,-1.5708903,2.47274,-0.09786817,0.07358888,-0.09771403,0.01792134,-0.0009646739,-0.101220064,-0.59376204,-0.019153614,-9.519346,0.83813137,47.677036,-1.116111,-2.3037724,-3.283545,-0.33853284,-0.08091508,-0.21091118,28.75,30.125,29.25,32.8125,35.375,36.4375
0.1500522,-0.13185798,-0.1676166,-0.9671576,0.027406992,0.09181053,-0.16608815,-0.39416942,-0.3671565,0.05995018,-3.0785773,0.6244274,-0.00034004418,-0.06999329,0.02197358,0.0025870898,-0.0020985936,0.0054477076,-0.0021727404,0.49789733,-1.375889,1.8971285,-2.0901854,-1.5708178,2.472597,-0.100717425,0.07417958,-0.09798815,0.018012403,-0.00096669263,-0.09849388,-0.45968673,0.038307227,-9.519346,0.83365434,47.661808,-1.0448081,-2.3107889,-3.2657218,-0.35709196,-0.06663041,-0.2683541,28.75,30.125,29.25,32.8125,35.375,36.4375
0.15205225,-0.2408245,-0.22198142,-0.7411738,0.018974496,0.084935255,-0.16735347,-0.39431396,-0.36709425,0.059940197,-3.0785184,0.6243576,-0.00029812977,-0.07166622,0.022726964,0.0024342095,-0.0021222855,0.0054764827,-0.005474013,0.49770477,-1.3757081,1.8969258,-2.0901377,-1.5708903,2.4723685,-0.1034904,0.0759556,-0.099747024,0.017951498,-0.00096479384,-0.09796461,-0.51714754,0.076614454,-9.461885,0.7642693,47.64837,-0.9668221,-2.3534937,-3.2768126,-0.3494802,-0.082810745,-0.32044873,28.75,30.125,29.25,32.8125,35.375,36.4375
0.15405226,0.18377174,-0.26756257,-0.7659813,0.0033817014,0.09797718,-0.16877429,-0.3944789,-0.36703902,0.059958454,-3.0785544,0.6243837,-0.0002536657,-0.072317444,0.023576494,0.0020364197,-0.001414037,0.0047790087,-0.0058948076,0.49745268,-1.3755758,1.8967217,-2.0901139,-1.5708779,2.4721282,-0.1052986,0.07685852,-0.099988505,0.018242836,-0.001248572,-0.099351354,-0.5363012,0.038307227,-9.385271,0.7709874,47.664497,-0.84391093,-2.337747,-3.3776946,-0.3468217,-0.07030257,-0.31320587,28.75,30.125,29.25,32.8125,35.375,36.4375
0.1560522,-0.81734,-0.86007047,-0.8905533,0.014642602,0.08252123,-0.15146579,-0.3945974,-0.36699212,0.059949435,-3.078522,0.6243762,-0.00028679162,-0.07363168,0.023650613,0.002169761,-0.0016297438,0.005179794,-0.0062723453,0.49727264,-1.3754189,1.8965424,-2.0900538,-1.5708903,2.4719477,-0.10659494,0.078486025,-0.102282636,0.018452786,-0.0012579181,-0.100268975,-0.5746084,0.15322891,-9.404425,0.800085,47.66091,-0.8122283,-2.3171253,-3.3256025,-0.34287143,-0.08037789,-0.34475577,28.75,30.125,29.25,32.8125,35.375,36.4375
0.15805194,-1.3136567,-0.7680667,-1.0504041,0.014210087,0.07926272,-0.15066196,-0.39477995,-0.36694643,0.059979487,-3.078535,0.62447536,-0.00025741578,-0.07440017,0.024223547,0.0019927216,-0.0012003493,0.0051803817,-0.007995716,0.4970206,-1.3752506,1.8962554,-2.0899704,-1.5708779,2.471756,-0.10798375,0.07931541,-0.10286705,0.018414496,-0.0016320165,-0.09993344,-0.40222588,0.11492168,-9.500193,0.80679786,47.657326,-0.8448539,-2.3800545,-3.3691592,-0.3476503,-0.08879516,-0.3557707,28.75,30.125,29.25,32.8125,35.375,36.4375
0.16005205,-0.7632678,-0.8464831,-0.9602992,0.009164457,0.09587857,-0.15894349,-0.3949299,-0.36687705,0.059963547,-3.0785065,0.62456304,-0.00021994716,-0.07535025,0.023862407,0.002352898,-0.001724092,0.0060007446,-0.006712493,0.4967812,-1.3750942,1.8961114,-2.0899942,-1.5709018,2.471575,-0.10825144,0.0804284,-0.10503871,0.018499115,-0.0015652672,-0.10148349,-0.34476504,0.21068975,-9.481039,0.86498255,47.719128,-0.8623835,-2.285302,-3.2927065,-0.35766432,-0.10160123,-0.38568804,28.75,30.125,29.25,32.8125,35.375,36.4375
0.16205195,-0.122712195,-0.8024194,-0.95700276,0.00063783675,0.09978144,-0.15597546,-0.39507887,-0.3668698,0.059981246,-3.0785637,0.6244774,-0.0001761189,-0.075479805,0.024034848,0.0014976653,-0.0010873077,0.004562522,-0.0068164603,0.49662527,-1.3749132,1.8958482,-2.0899584,-1.5708903,2.4713585,-0.10870352,0.08234113,-0.10537662,0.018492643,-0.0014350653,-0.101831496,-0.30645782,0.19153613,-9.346964,0.78217715,47.668976,-0.9032371,-2.274099,-3.3822355,-0.34538382,-0.09520416,-0.41129187,28.75,30.125,29.25,32.8125,35.375,36.4375
0.16405176,0.26237506,-0.8890005,-0.96744394,-0.0009015024,0.08783791,-0.1515964,-0.3952239,-0.36679387,0.059971496,-3.078534,0.62456334,-0.0002590026,-0.077168345,0.023304356,0.0023663063,-0.0025099716,0.006783167,-7.1320406e-05,0.4963497,-1.3747565,1.8956679,-2.089887,-1.570866,2.4711404,-0.10909342,0.08361643,-0.108760975,0.017971897,-0.0012563299,-0.10896524,-0.2681506,0.15322891,-9.289502,0.8112748,47.705692,-0.9510477,-2.505614,-3.3075686,-0.31700465,-0.070564814,-0.36225307,28.75,30.125,29.25,32.8125,35.375,36.4375
0.16605173,0.7153246,-0.8988826,-0.9299061,-0.0018286172,0.07301655,-0.16567515,-0.39536914,-0.3667522,0.059971288,-3.078529,0.6245218,-0.00019749708,-0.077872135,0.025124922,0.002128623,-0.0023234452,0.006208701,0.0008944193,0.4961688,-1.3745886,1.8954662,-2.0898745,-1.5709018,2.4709344,-0.11283033,0.08265597,-0.10705746,0.017817473,-0.0011414154,-0.11366897,-0.21068975,0.17238252,-9.346964,0.842603,47.66271,-0.93789065,-2.299498,-3.4023027,-0.3161276,-0.10250742,-0.3516906,28.75,30.125,29.25,32.8125,35.375,36.4375
0.16805167,0.6143929,-1.2749348,-0.9399628,0.0018923486,0.052102882,-0.16353828,-0.39554048,-0.36670983,0.05997634,-3.078584,0.6245065,-0.00019043895,-0.07852605,0.023120342,0.0018388224,-0.0024379008,0.006672839,0.011450926,0.4959185,-1.374407,1.8952364,-2.0898626,-1.570866,2.4706676,-0.10993609,0.086903706,-0.11136868,0.017421413,-0.0012683966,-0.121328674,-0.095768064,0.22984336,-9.32781,0.7933669,47.67614,-1.0768903,-2.3910646,-3.3098054,-0.30041906,-0.08796978,-0.27286306,28.75,30.125,29.25,32.8125,35.375,36.4375
0.17005257,0.9793516,-1.080144,-0.76913494,0.0070262915,0.051240634,-0.16801721,-0.3957181,-0.36664024,0.059996612,-3.0785718,0.6244824,-7.492382e-05,-0.08037679,0.026108442,0.0015940225,-0.0012767793,0.0065499013,0.013039274,0.49567667,-1.3742633,1.8950113,-2.0898268,-1.5709265,2.4704125,-0.116009854,0.086301945,-0.110106066,0.01741527,-0.0022231922,-0.12898983,-0.019153614,0.19153613,-9.289503,0.7777002,47.67614,-0.9148791,-2.3426828,-3.4440403,-0.30550447,-0.0856577,-0.20615949,28.75,30.125,29.25,32.8125,35.375,36.4375
0.1720524,0.6655601,-0.65105015,-0.8127559,0.012272144,0.041546986,-0.16194728,-0.3958637,-0.36660776,0.059997413,-3.0786135,0.624449,-7.102518e-05,-0.08100387,0.02535818,0.0015466544,-0.0004762625,0.0070129717,0.017210696,0.49547383,-1.3740941,1.8948058,-2.0898144,-1.5709022,2.4701836,-0.11470803,0.08869901,-0.1129581,0.017849095,-0.003149079,-0.13185649,0.038307227,0.24899697,-9.270349,0.83589023,47.705692,-0.96464556,-2.3807561,-3.39073,-0.28848207,-0.06571345,-0.118556164,28.75,30.125,29.25,32.8125,35.375,36.4375
0.17405231,0.76723844,-0.8122208,-0.80862314,0.011851152,0.03794814,-0.15549763,-0.39602774,-0.36657724,0.05999257,-3.0786617,0.6243417,-8.2039674e-05,-0.082395956,0.025195066,0.0020469783,-0.0010213127,0.008224784,0.018698126,0.49525782,-1.3738776,1.894554,-2.0897906,-1.5708784,2.4698946,-0.11559747,0.089887336,-0.11554233,0.017922292,-0.0032485516,-0.13423207,0.11492168,0.2681506,-9.251195,0.784413,47.698532,-0.99903977,-2.3463936,-3.2855191,-0.27960312,-0.068637595,-0.08760443,28.75,30.125,29.25,32.8125,35.375,36.4375
0.17605224,1.2154441,-0.6665718,-0.7931365,-0.0021235158,0.051736258,-0.16940899,-0.39617842,-0.3664945,0.05998561,-3.0785968,0.6242732,-8.084351e-05,-0.08275543,0.024912415,0.0022867222,-0.0014326624,0.008171807,0.014464702,0.49501848,-1.3737093,1.8943509,-2.0897067,-1.5709385,2.469621,-0.115646705,0.09048925,-0.116967835,0.01858788,-0.002866607,-0.13004783,-0.038307227,0.2681506,-9.232041,0.78217715,47.660015,-1.0781391,-2.3477526,-3.2615714,-0.27662143,-0.082929894,-0.11386934,28.75,30.125,29.25,32.8125,35.375,36.4375
0.17805211,1.2430073,-0.94484395,-0.7477289,0.00044215313,0.049893335,-0.16010612,-0.39633763,-0.36646125,0.059990402,-3.0786324,0.6242249,-9.32291e-05,-0.08409424,0.025046756,0.0017726831,-0.00088786345,0.0071481555,0.008147154,0.49480245,-1.373516,1.8940991,-2.0896585,-1.5709146,2.4693704,-0.117053166,0.09380755,-0.119946375,0.019411266,-0.0028603417,-0.1251352,-0.076614454,0.30645782,-9.308656,0.75755644,47.64121,-0.8786029,-2.3743896,-3.339935,-0.26015374,-0.05928339,-0.1290289,28.75,30.125,29.25,32.8125,35.375,36.4375
0.180052,1.095332,-0.2296077,-0.77553684,-0.03565803,0.049122807,-0.16870016,-0.3965265,-0.36640084,0.06000409,-3.0786307,0.62424576,-1.9154763e-06,-0.083723016,0.025889939,0.0018840906,-0.0004549183,0.006795626,0.0024022942,0.49455085,-1.3733362,1.8938488,-2.0896342,-1.5709504,2.4691322,-0.11795297,0.09217236,-0.118408315,0.020020999,-0.003060853,-0.1202909,0.019153614,0.34476504,-9.404425,0.8784135,47.684196,-1.1769743,-2.3670907,-3.331458,-0.2448523,-0.073789105,-0.2184119,28.75,30.125,29.25,32.8125,35.375,36.4375
0.18205188,1.0697501,-1.0280714,-0.66718876,-0.03161858,0.057248257,-0.17178062,-0.3966688,-0.36633086,0.059975673,-3.0785766,0.62423503,-7.618347e-05,-0.08587635,0.025326753,0.0023516659,4.6365498e-05,0.008894884,-0.0009999132,0.4943112,-1.373131,1.8936561,-2.089575,-1.5709628,2.4688928,-0.11802779,0.09532784,-0.123262696,0.020113789,-0.0045146924,-0.11695841,-0.05746084,0.2681506,-9.3661175,0.7709874,47.661808,-1.061795,-2.3384933,-3.20935,-0.2507615,-0.0503358,-0.25908336,28.75,30.125,29.25,32.8125,35.375,36.4375
0.1840517,0.7700293,-0.45255384,-0.71545094,-0.028151548,0.059705116,-0.17190088,-0.39684504,-0.36628953,0.05999481,-3.0786219,0.6243028,-5.526507e-05,-0.08615939,0.026201252,0.0020934115,0.0009849842,0.008375927,-0.004349454,0.4940593,-1.3729628,1.8934044,-2.0895388,-1.5709275,2.4686775,-0.11934749,0.09545783,-0.12294907,0.02057781,-0.005085276,-0.11492799,-0.038307227,0.2681506,-9.32781,0.8247004,47.686886,-1.1916046,-2.4482179,-3.299827,-0.2346015,-0.042851552,-0.34307107,28.75,30.125,29.25,32.8125,35.375,36.4375
0.18605182,0.71448666,-0.67996836,-0.83162284,-0.014731864,0.062014267,-0.16538009,-0.39700866,-0.3662496,0.059987944,-3.0786245,0.6242846,-5.944902e-05,-0.08750268,0.026524978,0.0022401346,0.00036346234,0.0083610555,-0.0075763473,0.4938429,-1.3727461,1.893154,-2.0895026,-1.570927,2.4684496,-0.121408135,0.09675804,-0.12494093,0.020985225,-0.0045329086,-0.11376177,-0.038307227,0.24899697,-9.32781,0.8605109,47.690468,-1.1195849,-2.390406,-3.271883,-0.20738633,-0.028459653,-0.37581313,28.75,30.125,29.25,32.8125,35.375,36.4375
0.18805166,0.49737448,-0.31455755,-0.77530897,-0.0153773045,0.05353784,-0.16347569,-0.39720872,-0.36621532,0.060025513,-3.0786765,0.6242961,3.9506187e-05,-0.088251434,0.026537415,0.0014893642,0.00071258086,0.0068715694,-0.009721914,0.4936033,-1.372565,1.8928422,-2.0894544,-1.570927,2.4682107,-0.122304216,0.09971203,-0.12686391,0.021429123,-0.004126509,-0.11251217,-0.095768064,0.24899697,-9.346964,0.8179876,47.66987,-1.0882822,-2.475029,-3.1687489,-0.23587462,-0.034899086,-0.4450484,28.75,30.125,29.25,32.8125,35.375,36.4375
0.19005252,0.56484115,-0.39243507,-1.0317891,-0.0031440964,0.046945672,-0.15856113,-0.39738235,-0.36614615,0.060006365,-3.0786316,0.6243424,6.0411752e-05,-0.08957007,0.026520984,0.002238512,-0.00034956186,0.007995348,-0.009940235,0.49335134,-1.3723488,1.8926257,-2.089442,-1.5709628,2.4679935,-0.123670556,0.100079134,-0.12911011,0.021808732,-0.0037273392,-0.11365994,-0.17238252,0.24899697,-9.346964,0.83589023,47.74331,-1.147695,-2.4335427,-3.1662145,-0.2134474,-0.046221003,-0.47959524,28.75,30.125,29.25,32.8125,35.375,36.4375
0.19205232,-0.14258158,-0.92275494,-0.7384126,0.006744225,0.041552454,-0.15858713,-0.39754403,-0.3660881,0.059985317,-3.0786061,0.624354,-1.2520447e-05,-0.09015724,0.026822044,0.0012484496,0.00041856946,0.0062254616,-0.00754751,0.4930995,-1.3721195,1.8923873,-2.089383,-1.5709509,2.4677522,-0.12475584,0.10292512,-0.13033713,0.022111539,-0.0035727485,-0.11713717,-0.19153613,0.19153613,-9.3661175,0.73069996,47.652847,-1.1730285,-2.566662,-3.1153727,-0.20296262,-0.042772815,-0.5006912,28.75,30.125,29.25,32.8125,35.375,36.4375
0.1940522,0.047211714,-0.3814704,-0.80494267,-0.012631746,0.06733581,-0.17085898,-0.3977349,-0.36603242,0.059992842,-3.0785935,0.62436396,2.5082658e-05,-0.09155143,0.026841762,0.0021754,-0.0007885019,0.007907174,0.00079714647,0.49284738,-1.3719033,1.8920993,-2.0893228,-1.5709747,2.467508,-0.12615962,0.10284819,-0.13238828,0.022179862,-0.0033085204,-0.12688537,-0.2681506,0.19153613,-9.3661175,0.83589023,47.68062,-1.1693826,-2.5045614,-3.1277566,-0.2015503,-0.029708967,-0.4353683,28.75,30.125,29.25,32.8125,35.375,36.4375
0.19605231,-0.26211998,-0.81975585,-1.0172683,-0.0003802272,0.084093384,-0.16223218,-0.3979003,-0.36598596,0.060000278,-3.0786083,0.62428653,2.1936163e-05,-0.09238707,0.027624987,0.0018891385,-0.00090674224,0.0068085603,0.0055219866,0.4926192,-1.3717109,1.891837,-2.0892508,-1.5709747,2.4672298,-0.12856717,0.103844084,-0.13307722,0.022780187,-0.002684876,-0.13401847,-0.21068975,0.1340753,-9.385271,0.7530795,47.658226,-1.0664294,-2.4850721,-3.2206726,-0.18807274,-0.02818375,-0.38754386,28.75,30.125,29.25,32.8125,35.375,36.4375
0.1980522,-1.1892704,-1.014741,-0.8297165,-0.0019308703,0.07941162,-0.15365198,-0.3980918,-0.36591572,0.05998742,-3.0786035,0.62431777,-8.163174e-06,-0.0929524,0.027847024,0.001799048,-0.0012392923,0.006012578,0.014567012,0.49231955,-1.3714821,1.8915857,-2.0892146,-1.5709618,2.4669504,-0.12980287,0.10479179,-0.13418114,0.023476753,-0.0020184484,-0.1442998,-0.49799395,0.114921674,-9.423578,0.82694155,47.651955,-1.0790975,-2.4759848,-3.1982386,-0.17998186,-0.052316584,-0.28334126,28.75,30.125,29.25,32.8125,35.375,36.4375
0.20005198,0.0027578722,-0.60469097,-0.7481104,-0.003543738,0.12835594,-0.1648269,-0.3982702,-0.36588427,0.060016826,-3.0786796,0.62423545,4.225154e-05,-0.0948095,0.029215155,0.0020271759,-0.0018993502,0.0062044864,0.016217502,0.4920903,-1.3713139,1.8913077,-2.0891669,-1.570938,2.4666603,-0.13403259,0.10517286,-0.13520534,0.023638867,-0.001519824,-0.15018055,-0.5554548,0.0,-9.423578,0.9030289,47.694946,-1.015021,-2.4132078,-3.1778824,-0.17491987,-0.055803824,-0.20737223,28.75,30.125,29.25,32.8125,35.375,36.4375
0.2020518,-0.66544527,0.1970451,-0.6613893,-0.00021455143,0.12210387,-0.16872478,-0.39848396,-0.36582488,0.06001916,-3.0787072,0.62415963,9.279803e-05,-0.09500466,0.027251288,0.002556188,-0.0028260192,0.0075818542,0.021364799,0.4918043,-1.3710731,1.8910102,-2.0891426,-1.5709499,2.4663236,-0.13094643,0.106864534,-0.13841456,0.023501538,-0.0013542792,-0.15224053,-0.59376204,-0.095768064,-9.500193,0.779936,47.695843,-1.1989765,-2.3803675,-3.210536,-0.16696541,-0.06732002,-0.16485363,28.75,30.125,29.25,32.8125,35.375,36.4375
0.2040517,-0.24736081,0.16676886,-0.7005377,0.023534006,0.13036032,-0.15945034,-0.39863932,-0.36577407,0.05998894,-3.0787046,0.6241034,7.2030525e-06,-0.094892226,0.028676251,0.002124166,-0.0025450352,0.0065847817,0.017598577,0.4915636,-1.3708334,1.8907851,-2.0891068,-1.5709261,2.4660482,-0.13332096,0.105658665,-0.13597028,0.023277674,-0.0011321072,-0.15085031,-0.59376204,-0.076614454,-9.576807,0.8112748,47.67614,-1.0798008,-2.3511176,-3.2736754,-0.1343031,-0.06850246,-0.14009777,28.75,30.125,29.25,32.8125,35.375,36.4375
0.20605172,-0.24378143,0.4689232,-0.8833008,0.021728218,0.1264461,-0.16690435,-0.39886367,-0.36572108,0.06002503,-3.0787652,0.62411594,9.354252e-05,-0.0950609,0.028759107,0.00042837177,-0.001080161,0.0037579539,0.0131419515,0.4912643,-1.3706396,1.8904613,-2.0890586,-1.5709141,2.4657493,-0.13357528,0.10978207,-0.13708732,0.023457116,-0.0010774481,-0.14664716,-0.68953013,-0.17238252,-9.5385,0.800085,47.67345,-1.1580794,-2.5235038,-3.3114965,-0.1132981,-0.05589245,-0.2004448,28.75,30.125,29.25,32.8125,35.375,36.4375
0.20805262,-0.37243906,0.98695457,-0.7218934,0.024647506,0.111024946,-0.15964441,-0.39904645,-0.3656676,0.060021933,-3.0787652,0.62402344,0.000116018826,-0.09562631,0.029674392,0.0013753793,-0.0017610245,0.004546792,0.0051780944,0.49102408,-1.3704123,1.8901867,-2.0890105,-1.570938,2.4654515,-0.135706,0.107590646,-0.13686627,0.024407618,-0.0008449739,-0.14081495,-0.7852981,-0.24899697,-9.461885,0.8403672,47.68599,-1.2140402,-2.2969413,-3.4193563,-0.09862068,-0.07534714,-0.2649447,28.75,30.125,29.25,32.8125,35.375,36.4375
0.21005256,-0.18545267,0.8735278,-0.97791153,0.0457099,0.10023184,-0.16444561,-0.39923584,-0.36559346,0.059996266,-3.078722,0.6240725,8.226428e-05,-0.097590275,0.030512294,0.00046606796,-0.0008719771,0.0028956968,0.0006563305,0.49073586,-1.3701586,1.8899344,-2.0889747,-1.5709499,2.4651995,-0.13881555,0.11180125,-0.14003232,0.025236882,-0.00085965457,-0.13940093,-0.53630114,-0.34476504,-9.481039,0.8090337,47.67614,-1.195334,-2.510133,-3.386838,-0.09969157,-0.073810786,-0.30240524,28.75,30.125,29.25,32.8125,35.375,36.4375
0.21205242,0.55240065,1.0703216,-0.7469604,0.046202153,0.09989047,-0.16950695,-0.39942488,-0.36552477,0.06000892,-3.0787122,0.6240127,0.0001296279,-0.09664118,0.030952776,0.00020641266,-0.00013419698,0.0016123045,8.974739e-05,0.4904723,-1.3699669,1.8896607,-2.0889022,-1.5709862,2.4649,-0.13861258,0.11082053,-0.13850184,0.026161943,-0.0008982174,-0.1386322,-0.59376204,-0.36391866,-9.500193,0.9097417,47.67345,-1.1369693,-2.3071578,-3.5791562,-0.09818846,-0.074892536,-0.3330335,28.75,30.125,29.25,32.8125,35.375,36.4375
0.2140522,-0.16164435,0.52372545,-0.81973135,0.049658556,0.07939659,-0.1580687,-0.39964217,-0.36549443,0.06002157,-3.0787888,0.62401026,0.00015090029,-0.098746076,0.03209997,0.00060275744,0.0002474247,0.0024807095,-0.0036700442,0.49019563,-1.369714,1.889325,-2.0888774,-1.570938,2.4646122,-0.14190342,0.11191259,-0.14089333,0.026884308,-0.0016388244,-0.13816118,-0.57460845,-0.28730422,-9.500193,0.78217715,47.667187,-0.9384581,-2.3735685,-3.4775095,-0.08573986,-0.08554699,-0.38284743,28.75,30.125,29.25,32.8125,35.375,36.4375
0.21605214,0.12984814,0.59161264,-0.7434987,0.039432175,0.08744985,-0.16712803,-0.3998381,-0.36538824,0.060003016,-3.0787168,0.62408876,7.475536e-05,-0.100014135,0.03205769,0.0014946654,-0.00010253324,0.0035760473,-0.0018989888,0.48984817,-1.3694857,1.8890733,-2.0887816,-1.5709499,2.464323,-0.14277077,0.11241114,-0.14383519,0.028194554,-0.0018583551,-0.14079808,-0.53630114,-0.2681506,-9.461885,0.8806493,47.66987,-1.0627934,-2.2609005,-3.4443576,-0.084062815,-0.06955431,-0.38341326,28.75,30.125,29.25,32.8125,35.375,36.4375
0.21805166,-0.16702558,0.18033701,-1.0399476,0.039798364,0.09305482,-0.15933669,-0.4000489,-0.36532566,0.059998512,-3.0787082,0.6241205,9.8767545e-05,-0.10040938,0.03245723,0.00042244195,0.0012781085,0.0013296832,0.003657322,0.48956057,-1.3692325,1.8887733,-2.0887454,-1.5709618,2.4640565,-0.1436273,0.11537916,-0.14519659,0.029216662,-0.002019443,-0.14720984,-0.40222588,-0.1340753,-9.481039,0.83589023,47.66987,-1.0691173,-2.2864287,-3.3613276,-0.078446865,-0.078501716,-0.3536237,28.75,30.125,29.25,32.8125,35.375,36.4375
0.22005256,0.22300519,0.014199421,-1.0921291,0.020233223,0.10358377,-0.1729633,-0.4002383,-0.36524877,0.060002897,-3.0786905,0.6241297,6.8196896e-05,-0.10118399,0.03239772,0.0017189851,0.00024675136,0.0028210855,0.01238669,0.4892611,-1.3690284,1.8884982,-2.0886495,-1.5709618,2.4637651,-0.14428215,0.11413222,-0.14694647,0.030408878,-0.0018158596,-0.15659401,-0.22984336,-0.038307227,-9.615114,0.88289046,47.704796,-1.0734892,-2.2693357,-3.4337225,-0.082805604,-0.077373944,-0.27679873,28.75,30.125,29.25,32.8125,35.375,36.4375
0.22205247,-0.07016224,-0.6135799,-1.0959705,-0.004500898,0.09019957,-0.16132903,-0.400451,-0.36517534,0.060005575,-3.0786834,0.6240627,8.828951e-05,-0.101324864,0.032666583,-0.00016071474,0.0020249095,-0.0009896584,0.02175253,0.4889616,-1.368787,1.8881878,-2.0885775,-1.5709862,2.463425,-0.14492443,0.118708245,-0.1484035,0.031481657,-0.0015975937,-0.16660134,-0.095768064,0.095768064,-9.576807,0.80679786,47.66091,-1.1867647,-2.344801,-3.502096,-0.09829493,-0.09584579,-0.16763915,28.75,30.125,29.25,32.8125,35.375,36.4375
0.22405225,0.6803416,-0.64104503,-1.0908782,-0.02979698,0.098736495,-0.17256346,-0.4006484,-0.3651487,0.060025975,-3.0787916,0.62390995,0.00011203873,-0.10255882,0.032402616,0.0015378396,0.00052318256,0.0019161387,0.02557439,0.4887098,-1.3685714,1.8878759,-2.0885413,-1.570938,2.4630642,-0.14549708,0.117218584,-0.15060468,0.03190878,-0.0016305831,-0.17099538,-0.22984336,0.2681506,-9.595961,0.85155696,47.67166,-1.145635,-2.265803,-3.4118853,-0.08694235,-0.08496004,-0.08475046,28.75,30.125,29.25,32.8125,35.375,36.4375
0.2260522,0.37725523,-1.4534876,-1.44419,-0.034868937,0.08056116,-0.1634375,-0.40088063,-0.36504206,0.060042985,-3.078723,0.62391543,0.00019219914,-0.103661634,0.03275246,0.0015168599,0.0008926251,0.0019996793,0.022363704,0.48837414,-1.3683546,1.887554,-2.0884335,-1.5710219,2.462741,-0.14676848,0.11872599,-0.15248187,0.032365326,-0.0019988525,-0.16905466,-0.30645782,0.3256114,-9.672575,0.83365434,47.694946,-1.191642,-2.3244023,-3.3856351,-0.0762862,-0.08087561,-0.048742436,28.75,30.125,29.25,32.8125,35.375,36.4375
0.2280521,0.10303151,-1.5099922,-1.2736877,-0.064619035,0.0629285,-0.15976356,-0.40107158,-0.3649744,0.060019553,-3.0787213,0.62385964,0.0001089916,-0.10503479,0.032121032,0.002068277,0.0007615667,0.003463186,0.016754359,0.48807487,-1.3680898,1.8872775,-2.088373,-1.5709985,2.462407,-0.14651,0.12062854,-0.15612446,0.032758553,-0.002583498,-0.16318421,-0.19153613,0.34476504,-9.653421,0.81351066,47.693153,-1.1992676,-2.1226099,-3.39333,-0.09211093,-0.097725436,-0.08843094,28.75,30.125,29.25,32.8125,35.375,36.4375
0.23005195,0.6771682,-2.0438182,-1.2138797,-0.061528485,0.072738566,-0.16118436,-0.4012795,-0.3648994,0.060001932,-3.0786974,0.62389773,7.7427954e-05,-0.10595193,0.033455316,0.00061587064,0.0025300789,0.0014093849,0.0056308666,0.48776254,-1.3678244,1.88699,-2.0883253,-1.5709985,2.4621217,-0.14912447,0.123617604,-0.15641098,0.03270304,-0.0031859728,-0.15467362,-0.30645782,0.45968673,-9.615114,0.8806493,47.71465,-1.1226788,-2.306292,-3.324193,-0.05621385,-0.07191369,-0.20128855,28.75,30.125,29.25,32.8125,35.375,36.4375
0.23205191,0.5897365,-1.904227,-1.0941421,-0.052771587,0.06673728,-0.1642341,-0.40151125,-0.36483645,0.060035452,-3.0787327,0.623948,0.00016107783,-0.10877603,0.0352876,0.0003314311,0.0027485557,0.0010270987,-0.00510507,0.48744938,-1.3676193,1.8866552,-2.0882652,-1.5709985,2.4618356,-0.15463817,0.12619619,-0.15895934,0.033113547,-0.0031933219,-0.1494503,-0.11492168,0.59376204,-9.519346,0.7978386,47.683304,-1.0836952,-2.2962708,-3.191613,-0.056275323,-0.06716745,-0.24988538,28.75,30.125,29.25,32.8125,35.375,36.4375
0.2340518,0.87230396,-1.554411,-1.2406514,-0.048234377,0.06734633,-0.16881087,-0.40172637,-0.3647785,0.06004958,-3.0787334,0.6239279,0.0002122458,-0.109099686,0.034641802,0.0012857522,0.0018562276,0.0018468343,-0.00662527,0.4871743,-1.3673792,1.88632,-2.0881932,-1.5710224,2.461548,-0.15401623,0.12585436,-0.16103354,0.034382343,-0.0027866252,-0.14730829,-0.038307227,0.61291564,-9.557653,0.83589023,47.668976,-1.0866144,-2.3060825,-3.2391396,-0.06796101,-0.05323473,-0.33797875,28.75,30.125,29.25,32.8125,35.375,36.4375
0.23605172,1.2644426,-1.1789293,-0.7901949,-0.04661093,0.057969924,-0.16174741,-0.40196425,-0.36470047,0.06006634,-3.0787416,0.6239902,0.000279078,-0.11023628,0.035448793,0.0001229211,0.0024344265,-0.00032263648,-0.014193991,0.486838,-1.3671498,1.8859972,-2.0881455,-1.5710343,2.4612498,-0.15661189,0.12919086,-0.16246846,0.034665827,-0.0022780541,-0.14233513,-0.038307227,0.51714754,-9.500193,0.77545905,47.67614,-0.93449354,-2.3444045,-3.1996222,-0.06988996,-0.06440408,-0.41321605,28.75,30.125,29.25,32.8125,35.375,36.5
0.23805256,1.0878645,-1.0740014,-0.61882216,-0.041893464,0.04970077,-0.16394731,-0.40219566,-0.3646589,0.060078416,-3.078788,0.62401605,0.0002848496,-0.110502034,0.03489943,-6.8627916e-05,0.0017863103,-0.00018342008,-0.013735721,0.48653916,-1.3668731,1.8856257,-2.088086,-1.5709981,2.4609613,-0.15615281,0.13041346,-0.16335508,0.03390653,-0.0017694035,-0.14233464,-0.1340753,0.49799395,-9.270349,0.8717007,47.675243,-1.0657651,-2.4000702,-3.1898475,-0.07386963,-0.08095819,-0.49007267,28.75,30.125,29.25,32.8125,35.375,36.5
0.2400524,0.9800281,-0.76432776,-0.6327323,-0.024097156,0.057207935,-0.16493842,-0.40241683,-0.36458224,0.060071282,-3.0787544,0.6240035,0.0002748206,-0.110618316,0.034566704,-0.0014601792,0.003180072,-0.002873707,-0.0059005953,0.4862278,-1.3665955,1.885291,-2.0880015,-1.5710219,2.4606466,-0.15562952,0.13461189,-0.16545531,0.034832105,-0.0017512214,-0.14964513,-0.05746084,0.4213795,-9.270349,0.9298854,47.701214,-1.0713816,-2.4016204,-3.1127927,-0.05610741,-0.07559947,-0.4875439,28.75,30.125,29.25,32.8125,35.375,36.5
0.24205229,0.44263586,-0.28061423,-0.5725862,-0.008530531,0.048449088,-0.16587085,-0.4026499,-0.3645173,0.060072355,-3.0787868,0.6240029,0.00030422013,-0.11142843,0.035740927,0.00053756713,0.0023212489,-0.0013633039,0.002693826,0.48590362,-1.3663325,1.8849686,-2.0879767,-1.57101,2.460318,-0.15826774,0.13080892,-0.1660903,0.03753141,-0.0016881712,-0.16087857,0.038307227,0.30645782,-9.270349,0.8493211,47.683304,-1.0359542,-2.307191,-3.184042,-0.075417966,-0.07314216,-0.40672526,28.75,30.125,29.25,32.8125,35.375,36.5
0.24405214,0.5866026,0.043378312,-0.122006536,-0.006748449,0.055246912,-0.16175757,-0.40290385,-0.3644621,0.060094137,-3.0788112,0.62402004,0.0003845369,-0.111102596,0.036193963,-0.0012506752,0.0044043604,-0.005214396,0.013814069,0.48559204,-1.3660548,1.8845733,-2.0879161,-1.5710219,2.4600143,-0.1586235,0.13438703,-0.16664581,0.038881484,-0.0017217863,-0.17235403,0.038307227,0.21068975,-9.174581,0.8627467,47.690468,-1.1888702,-2.6175961,-3.3180165,-0.08354453,-0.07426309,-0.28167933,28.75,30.125,29.25,32.8125,35.375,36.5
0.24605192,0.96781564,0.08406503,0.13835126,0.0019411722,0.059234466,-0.16960976,-0.40312615,-0.364378,0.060086224,-3.0787666,0.62402564,0.00036153945,-0.111967124,0.03712135,-0.0011795515,0.005304561,-0.006658601,0.019057201,0.485268,-1.3657784,1.8842391,-2.0878198,-1.5710462,2.4596996,-0.16078447,0.1354124,-0.16867849,0.04157972,-0.001851039,-0.17975722,0.019153614,0.05746084,-9.021352,0.784413,47.683304,-1.1044657,-2.3209515,-3.2509325,-0.114997745,-0.09206701,-0.19832829,28.75,30.125,29.25,32.8125,35.375,36.5
0.24805166,1.4987047,0.9366113,0.09640733,0.020935241,0.04739878,-0.16708957,-0.4033558,-0.36431992,0.06009517,-3.0788531,0.62392575,0.00039504652,-0.11271176,0.038332056,-0.0017227746,0.006239438,-0.008164869,0.0191631,0.48494396,-1.3655379,1.8839282,-2.0878074,-1.57101,2.4593024,-0.16331509,0.13661641,-0.16915143,0.042622842,-0.0019666455,-0.18239346,0.038307227,-0.019153614,-8.963891,0.8157518,47.70211,-1.0546882,-2.4570715,-3.3273547,-0.11365706,-0.084765315,-0.14874654,28.75,30.125,29.25,32.8125,35.375,36.5
0.25005254,1.8023939,0.6030759,0.2055025,0.053379152,0.042382643,-0.16249146,-0.40360638,-0.36423895,0.060101952,-3.0788474,0.6238879,0.00045957754,-0.11445724,0.03838446,-0.000825671,0.0051230197,-0.005430585,0.014353999,0.48460805,-1.3652614,1.8835686,-2.0877478,-1.5710467,2.4589438,-0.16467786,0.13675366,-0.17113952,0.04152914,-0.002259003,-0.17894602,0.114921674,-0.24899697,-8.963891,0.85155696,47.698532,-0.96872437,-2.3810835,-3.2189784,-0.10895692,-0.08361315,-0.1727944,28.75,30.125,29.25,32.8125,35.375,36.5
0.25205258,1.6347402,1.3078103,0.441982,0.058192063,0.035444733,-0.16848189,-0.4037979,-0.36418486,0.060097367,-3.078841,0.6238523,0.0003720827,-0.11456268,0.039228443,-0.002246815,0.0071556666,-0.009266212,0.0055630463,0.48433223,-1.3649958,1.8832339,-2.0876272,-1.5710224,2.4586468,-0.16609791,0.13997827,-0.17232734,0.043839373,-0.0022808546,-0.17157425,-0.19153613,-0.30645782,-8.829816,0.85826975,47.682407,-0.94103724,-2.5686505,-3.3294406,-0.12790121,-0.08035146,-0.24466205,28.75,30.125,29.25,32.8125,35.375,36.5
0.25405252,1.8264252,1.8075044,0.3357394,0.07065786,0.052349925,-0.17476991,-0.40402916,-0.3641004,0.06010019,-3.0788565,0.62377757,0.00037169363,-0.11519938,0.038771346,-0.00087675033,0.0067563597,-0.008013469,0.0032016581,0.4839854,-1.3647443,1.8829101,-2.0875552,-1.5710224,2.4582515,-0.16565959,0.13940698,-0.17529492,0.046084657,-0.0025157258,-0.16877343,-0.34476504,-0.28730422,-8.695741,0.7866488,47.711964,-1.0575786,-2.250455,-3.1700902,-0.15480143,-0.087766156,-0.32398498,28.75,30.125,29.25,32.8125,35.375,36.5
0.25605258,0.59682065,1.5324266,0.2201065,0.08718715,0.049561743,-0.16634506,-0.4042606,-0.3640272,0.060088765,-3.0788324,0.6237913,0.0003004384,-0.11620761,0.038383823,0.0007024553,0.005699353,-0.005618592,0.0015263127,0.4836501,-1.3644323,1.8825382,-2.087447,-1.5710105,2.457928,-0.16569126,0.13831908,-0.17785263,0.04712107,-0.0027084046,-0.16712873,-0.28730422,-0.28730422,-8.925584,0.8247004,47.667187,-1.1138239,-2.2539911,-3.2835698,-0.17204998,-0.092319384,-0.33444464,28.75,30.125,29.25,32.8125,35.375,36.5
0.25805172,-0.11158177,1.033764,0.10348453,0.08009643,0.064941086,-0.16441846,-0.40447173,-0.36393926,0.060080763,-3.0787585,0.62377626,0.00024418664,-0.11647877,0.03943947,0.00026302465,0.0070090755,-0.0072645796,0.00031437218,0.48333782,-1.3641558,1.8821925,-2.0873024,-1.5710467,2.4576159,-0.16736828,0.13907233,-0.17815553,0.048731435,-0.0031150377,-0.16759294,-0.2681506,-0.21068975,-8.963891,0.85826975,47.674347,-1.013598,-2.1711066,-3.2076821,-0.21741757,-0.06778013,-0.37887985,28.75,30.125,29.25,32.8125,35.375,36.5
0.26005253,-0.2238762,0.49207696,-0.07393028,0.05628299,0.08264474,-0.16713558,-0.4047136,-0.36386892,0.060084116,-3.0787663,0.6237525,0.00018761311,-0.117052525,0.039404064,0.00070688175,0.0071235625,-0.007436674,0.0059442027,0.48299083,-1.3638551,1.8817977,-2.0871823,-1.5710224,2.4572532,-0.16769968,0.13973269,-0.18039659,0.05051929,-0.0031454493,-0.17355332,-0.40222588,-0.17238252,-9.136273,0.89631605,47.694946,-1.1817203,-2.1736832,-3.1638544,-0.24963148,-0.09124929,-0.35364127,28.75,30.125,29.25,32.8125,35.375,36.5
0.26205242,-0.5809452,0.23339492,-0.35684985,0.026407592,0.09059138,-0.17314641,-0.4049079,-0.36377543,0.060056467,-3.0787199,0.623679,4.089448e-05,-0.11697697,0.040398017,-0.00019568688,0.008754119,-0.0098803155,0.013549438,0.48265493,-1.3635784,1.8814992,-2.0870502,-1.5710105,2.4568775,-0.16901581,0.14105296,-0.1803055,0.052029133,-0.0034760255,-0.1824738,-0.5554548,-0.019153614,-9.308656,0.83813137,47.675243,-1.2554076,-2.1944857,-3.2018857,-0.28798124,-0.06536579,-0.29549223,28.75,30.125,29.25,32.8125,35.375,36.5
0.26405218,-1.0429883,-0.5438036,-0.69059616,0.0066602817,0.09989369,-0.17360447,-0.4051529,-0.36370286,0.06006689,-3.078728,0.62353843,6.128741e-05,-0.11777087,0.04072309,-0.0004079956,0.009195217,-0.010135002,0.022952233,0.4823317,-1.3632895,1.8811048,-2.0869424,-1.5710348,2.4564657,-0.16999279,0.14251567,-0.18169074,0.052374452,-0.0037574987,-0.19285245,-0.59376204,0.019153614,-9.404425,0.8918391,47.690468,-1.3879874,-2.171345,-3.1856031,-0.32733342,-0.07494454,-0.1621032,28.75,30.125,29.25,32.8125,35.375,36.5
0.2660523,-0.8798619,-1.0301913,-1.1203133,-0.016289117,0.121096775,-0.17024109,-0.40540054,-0.3635929,0.060057726,-3.0786598,0.62359786,-1.561851e-05,-0.11867328,0.040909592,-0.00040680188,0.009830715,-0.009940367,0.027443578,0.48193628,-1.362989,1.8807329,-2.0867984,-1.5710472,2.4561162,-0.17058551,0.14400925,-0.18365529,0.052964754,-0.0044343555,-0.19793424,-0.51714754,0.076614454,-9.615114,0.84708,47.670765,-1.249028,-2.1535833,-3.2673187,-0.3569419,-0.05675505,-0.08005947,28.75,30.125,29.25,32.8125,35.375,36.5
0.2680524,-0.9447619,-1.0774349,-1.3429993,-0.03943801,0.12685351,-0.1797259,-0.40561023,-0.3634897,0.060030162,-3.078584,0.6235265,-9.9158715e-05,-0.119906135,0.04118443,-0.00042872338,0.009491289,-0.008749043,0.02396976,0.48160025,-1.3627001,1.8804225,-2.0866797,-1.571083,2.4557455,-0.17187689,0.1450927,-0.18464522,0.0516516,-0.0047135176,-0.19575033,-0.68953013,0.22984336,-9.844957,0.82022345,47.684196,-1.226891,-2.1652074,-3.3002064,-0.39839676,-0.052639373,-0.05802598,28.75,30.125,29.25,32.8125,35.375,36.5
0.27005237,-1.0801054,-1.687222,-1.4034454,-0.053186037,0.1288905,-0.17428909,-0.4058114,-0.36342448,0.060013454,-3.0785916,0.6234152,-0.00027895524,-0.121434666,0.040844776,-0.0014005982,0.008801322,-0.00749731,0.017546263,0.48127672,-1.3623986,1.8800639,-2.0865247,-1.5710229,2.4553516,-0.17256829,0.14855789,-0.18578768,0.047912,-0.0047131465,-0.19001664,-0.8619126,0.22984336,-9.940725,0.83589023,47.707485,-1.3322308,-2.4305053,-3.35245,-0.3850699,-0.06060669,-0.13751581,28.75,30.125,29.25,32.8125,35.375,36.5
0.27205226,-1.0173156,-1.6573108,-1.400989,-0.07131106,0.13271926,-0.17711438,-0.40608355,-0.36332923,0.06001465,-3.0785425,0.62344706,-0.00015266059,-0.12257082,0.040253963,-0.0017476227,0.007801315,-0.005990717,0.008893946,0.48092893,-1.362098,1.8796929,-2.0864904,-1.5711068,2.4550302,-0.1725864,0.15075062,-0.18705073,0.04516921,-0.004525897,-0.18138206,-0.7852981,0.30645782,-9.9790325,0.7978386,47.67614,-1.3802812,-2.1942294,-3.351133,-0.37256038,-0.03979873,-0.2155743,28.75,30.125,29.25,32.8125,35.375,36.5
0.27405217,-1.5638025,-1.9778239,-1.4974447,-0.061625723,0.11332312,-0.15396936,-0.40634993,-0.36326987,0.06005119,-3.0785885,0.62346023,-0.00012166099,-0.12345626,0.04066772,-0.0023192016,0.007169965,-0.005637224,0.00079006207,0.48058042,-1.3618212,1.8792509,-2.0863707,-1.571083,2.4546843,-0.17419131,0.15197423,-0.18678555,0.043078877,-0.0041262046,-0.17488389,-0.49799395,0.3256114,-9.959879,0.842603,47.657326,-1.3761953,-2.2943616,-3.4756227,-0.36679304,-0.05004374,-0.32087004,28.75,30.125,29.25,32.8125,35.375,36.5
0.27605203,-0.63915753,-1.5191971,-1.6920087,-0.05691057,0.09316589,-0.1734217,-0.4065917,-0.36318123,0.060039856,-3.0785728,0.623499,-0.00013832317,-0.125289,0.04136543,-0.0030522253,0.006677682,-0.0052492525,-0.00680231,0.48021936,-1.3615317,1.8789161,-2.0863125,-1.571083,2.4543495,-0.17701899,0.15458241,-0.18780266,0.040915776,-0.0038795462,-0.17011876,-0.3256114,0.34476504,-9.998186,0.8605109,47.655537,-1.3569195,-2.464665,-3.5557692,-0.35760128,-0.031691305,-0.41480124,28.75,30.125,29.25,32.8125,35.375,36.5
0.27805188,0.12338346,-1.3957071,-1.5612894,-0.052554287,0.07012547,-0.18044756,-0.40685198,-0.36307245,0.06001495,-3.0785103,0.62360173,-0.00016118055,-0.1272721,0.04150305,-0.003536585,0.0051971343,-0.0034541194,-0.00859873,0.47982287,-1.3612068,1.8785695,-2.086254,-1.5711063,2.4540253,-0.17916334,0.1569517,-0.18875799,0.03721884,-0.0034151343,-0.17046659,-0.30645782,0.3256114,-9.998186,0.86945957,47.666286,-1.3447303,-2.4883356,-3.618952,-0.32824978,-0.0494684,-0.4773103,28.75,30.125,29.25,32.8125,35.375,36.5
0.2800518,0.27910042,-1.6994768,-1.3057599,-0.054542024,0.0622288,-0.17911142,-0.40711245,-0.36300674,0.060011152,-3.078505,0.62349826,-0.00015382963,-0.12875243,0.04106592,-0.004395089,0.0045819897,-0.0024547307,0.00083801214,0.47949883,-1.3608576,1.8781375,-2.0861585,-1.5711302,2.4536376,-0.17965996,0.1604839,-0.19040774,0.034156855,-0.0033495154,-0.1803988,-0.34476504,0.30645782,-9.844957,0.86945957,47.675243,-1.2732251,-2.4723842,-3.615456,-0.27090123,-0.048688464,-0.45466644,28.75,30.125,29.25,32.8125,35.375,36.5
0.28205165,0.91081613,-1.0980089,-1.4571811,-0.05224839,0.06638164,-0.17881946,-0.40738946,-0.36292,0.060017653,-3.0785103,0.6235308,-7.287871e-05,-0.130165,0.04205393,-0.0025922284,0.0028331133,0.0009027501,0.010990981,0.47912562,-1.3605589,1.877756,-2.0861232,-1.5711545,2.4532843,-0.18243216,0.1570831,-0.19036171,0.033715233,-0.0033444716,-0.19332477,-0.095768064,0.3256114,-9.864111,0.7978386,47.661808,-1.0770582,-2.4540834,-3.685067,-0.24999644,-0.04115712,-0.34573507,28.75,30.125,29.25,32.8125,35.375,36.5
0.28405255,0.67130786,-1.1761347,-1.2420962,-0.044095445,0.066041484,-0.18516023,-0.40765446,-0.3628449,0.06003397,-3.0785847,0.62340736,-4.16001e-05,-0.13148731,0.042537063,-0.003022446,0.0027446183,0.00039023717,0.018783484,0.47875297,-1.3602822,1.8773731,-2.0860631,-1.5711302,2.4528253,-0.18447308,0.15936245,-0.19214311,0.033630144,-0.003028659,-0.203158,0.0,0.2873042,-9.787497,0.86498255,47.70032,-1.1427733,-2.5398982,-3.6665344,-0.24476245,-0.04376717,-0.22405846,28.75,30.125,29.25,32.8125,35.375,36.5
0.28605244,0.119510815,-0.68960917,-0.7803856,-0.032444417,0.04737293,-0.18200211,-0.40796095,-0.3627664,0.06003855,-3.07863,0.62331855,6.884801e-05,-0.13389051,0.042455453,-0.002890816,0.0014255634,0.0017505133,0.02088983,0.47836828,-1.3599337,1.8769416,-2.0860517,-1.5711545,2.4523797,-0.1866381,0.16225778,-0.19571148,0.032478847,-0.002481354,-0.20742884,-0.11492168,0.22984336,-9.653421,0.8493211,47.675243,-1.0978539,-2.4775825,-3.5602865,-0.20685516,-0.029009417,-0.1525254,28.75,30.125,29.25,32.8125,35.375,36.5
0.28805232,0.33804393,-0.16914883,-0.7491206,-0.010616753,0.049758617,-0.17345503,-0.4082112,-0.36269754,0.06002569,-3.0786514,0.6233084,4.2019885e-05,-0.13746706,0.042544205,-0.0011590574,-0.0015596127,0.005847024,0.013163157,0.4780191,-1.3596094,1.8765701,-2.0860035,-1.5711297,2.4520216,-0.19025443,0.16301014,-0.20034042,0.03134823,-0.001726877,-0.20331807,-0.17238252,0.19153613,-9.5385,0.87393653,47.70211,-1.0248003,-2.5584717,-3.4768074,-0.18413325,-0.04096421,-0.1602796,28.75,30.125,29.25,32.8125,35.375,36.5
0.29005218,0.3725529,-0.49116915,-0.70578814,0.020010034,0.04622307,-0.16749664,-0.40850466,-0.3626122,0.06003538,-3.0786679,0.6232959,0.0001269975,-0.13971634,0.042103834,0.0007402933,-0.004067167,0.009658383,0.0048416825,0.47763488,-1.3592862,1.876149,-2.0859563,-1.571154,2.4516277,-0.19163656,0.16248131,-0.20397954,0.030974489,-0.0012466653,-0.1963785,-0.1340753,0.0,-9.3661175,0.85155696,47.698532,-1.0517539,-2.3998237,-3.2741528,-0.13916346,-0.057875544,-0.2483252,28.75,30.125,29.25,32.8125,35.375,36.5
0.29205218,0.6906391,0.20359111,-0.5584821,0.037050385,0.05536501,-0.17952375,-0.40879214,-0.36252707,0.06005606,-3.0787148,0.6233443,0.00017279071,-0.1396139,0.041730348,0.00086508284,-0.003838908,0.009047088,0.002274283,0.47722685,-1.3589984,1.8757423,-2.0858953,-1.5711297,2.451244,-0.19084153,0.16318221,-0.20547417,0.032421593,-0.0011523637,-0.19301583,-0.22984336,0.019153614,-9.308657,0.8247004,47.704796,-1.0242761,-2.3668265,-3.273931,-0.108922265,-0.06954451,-0.3091275,28.75,30.125,29.25,32.8125,35.375,36.5
0.29405224,0.5785438,0.64668065,-0.587105,0.03878848,0.05708648,-0.18495794,-0.4090734,-0.36245668,0.060060155,-3.0787673,0.6233768,0.0001941797,-0.14061558,0.042085137,0.0020988653,-0.0043603485,0.00991306,-0.0014102315,0.4768421,-1.3586745,1.8753356,-2.0858595,-1.5710939,2.4508731,-0.19221893,0.16233255,-0.20778975,0.034585427,-0.0010734415,-0.19070844,-0.30645782,-0.076614454,-9.385271,0.83365434,47.670765,-0.99772656,-2.212565,-3.3427958,-0.080940455,-0.08284885,-0.39463857,28.75,30.125,29.25,32.8125,35.375,36.5
0.2960522,0.5437782,0.52256984,-0.7407844,0.032921307,0.068960726,-0.17794685,-0.40935034,-0.36238417,0.06008097,-3.0787673,0.6233174,0.00023010415,-0.13979629,0.042623032,0.0009139163,-0.0023790435,0.0060759867,-0.00054466835,0.47649458,-1.3583498,1.8748678,-2.085727,-1.5711182,2.4504888,-0.19228569,0.16421185,-0.20800762,0.03723729,-0.0010627215,-0.19164069,-0.22984336,-0.05746084,-9.346964,0.8851263,47.640312,-1.0594704,-2.4361215,-3.2269006,-0.079933725,-0.06152544,-0.3930748,28.75,30.125,29.25,32.8125,35.375,36.5
0.29805243,-0.026637385,0.19778799,-0.48804477,0.023871643,0.08245986,-0.18292461,-0.40964293,-0.36228985,0.060090132,-3.078786,0.6233926,0.0002620205,-0.13959147,0.042636134,0.00028227002,-0.001368836,0.0037734765,0.007947427,0.4760748,-1.3580381,1.8744582,-2.085666,-1.5711058,2.4501138,-0.19209303,0.16615175,-0.2093972,0.03919505,-0.00089469465,-0.19993985,-0.28730422,-0.15322891,-9.423578,0.8851263,47.65643,-1.1578668,-2.2592506,-3.1899862,-0.083773255,-0.07457218,-0.34436724,28.75,30.125,29.25,32.8125,35.375,36.5
0.30005246,-0.03020724,-0.0056209704,-0.40295485,0.01729503,0.11403339,-0.18294251,-0.40989286,-0.36219302,0.06006947,-3.078759,0.6232822,0.00019684594,-0.13974117,0.041652072,0.0020663156,-0.0023790717,0.00592384,0.021198492,0.4757033,-1.3577027,1.8740772,-2.0855577,-1.5711182,2.449677,-0.19039446,0.16442047,-0.2118133,0.040961683,-0.0009951913,-0.21149176,-0.38307226,-0.05746084,-9.404425,0.86945957,47.66091,-1.450414,-2.110282,-3.263748,-0.080813535,-0.088871755,-0.24123077,28.75,30.125,29.25,32.8125,35.375,36.5
0.3020523,-0.9112225,0.055571493,-0.5083742,0.012344479,0.11071839,-0.17568281,-0.4101569,-0.36210796,0.06006608,-3.0787992,0.6231115,0.00020734464,-0.13929671,0.041645084,0.0015996979,-0.0005290241,0.0045249704,0.029754588,0.47533217,-1.3573908,1.8736957,-2.0854971,-1.5711187,2.4491944,-0.18926212,0.16573964,-0.21278246,0.042702854,-0.0019947502,-0.21891358,-0.47884035,-0.038307227,-9.289502,0.85155696,47.657326,-1.5932229,-2.1194575,-3.3517795,-0.09588727,-0.08365881,-0.097282894,28.75,30.125,29.25,32.8125,35.375,36.5
0.3040524,-0.3499634,-0.40058598,-0.6029749,0.01640892,0.11719193,-0.16501221,-0.41046518,-0.36202475,0.060100373,-3.0788076,0.62309605,0.00030392155,-0.14053662,0.042160664,0.0018265506,-0.0004666332,0.004442923,0.026870817,0.4749473,-1.3570668,1.8732008,-2.0853775,-1.571154,2.4487991,-0.19105259,0.1669393,-0.21505137,0.043865904,-0.0020020176,-0.21781956,-0.2681506,-0.038307227,-9.289502,0.9097417,47.70211,-1.5251293,-2.0144467,-3.1936488,-0.08840002,-0.076625526,-0.093680725,28.75,30.125,29.25,32.8125,35.375,36.5
0.30605227,0.14371046,-0.7239251,-0.58502424,0.022570191,0.09265129,-0.16931182,-0.4107419,-0.3619274,0.06008501,-3.0788095,0.62304467,0.00025678662,-0.14144737,0.043727312,-0.00040931063,0.0017572991,0.0007950623,0.016266685,0.47453788,-1.3567173,1.8727959,-2.0852935,-1.5711426,2.4483576,-0.19413668,0.1714936,-0.21556924,0.04409655,-0.0023177431,-0.2102982,-0.34476504,0.019153614,-9.32781,0.8717007,47.682407,-1.4087274,-2.1342745,-3.294422,-0.08200421,-0.079092145,-0.15259278,28.75,30.125,29.25,32.8125,35.375,36.5
0.30805206,0.73192775,-0.09223101,-0.5210677,0.007417319,0.067242175,-0.17578118,-0.4110194,-0.3618511,0.06008288,-3.0788321,0.62292,0.0002799472,-0.14273056,0.044562813,3.9652314e-05,0.0014003998,0.0016976239,0.0050240476,0.47417748,-1.3563699,1.8723658,-2.085221,-1.5711545,2.4479167,-0.19645374,0.1714223,-0.21658374,0.044217337,-0.00241135,-0.20137228,-0.51714754,0.019153614,-9.385271,0.8784135,47.667187,-1.4162931,-2.0449202,-3.3353927,-0.08157709,-0.07875302,-0.2626753,28.75,30.125,29.25,32.8125,35.375,36.5
0.3100521,0.29111,-0.6350939,-0.9187132,0.01635492,0.032765273,-0.17253222,-0.4113375,-0.36177236,0.060116794,-3.0788934,0.6230158,0.00037177332,-0.14430344,0.046247236,-0.00073616736,0.0026182584,0.00071904133,-0.0061554103,0.47375616,-1.3560573,1.871899,-2.085162,-1.5711302,2.4475477,-0.2000962,0.17357352,-0.2175108,0.044428978,-0.0030306599,-0.19383407,-0.30645782,0.019153614,-9.481039,0.92764956,47.667187,-1.3277838,-2.201379,-3.4983695,-0.05062457,-0.07902256,-0.38615096,28.75,30.125,29.25,32.8125,35.375,36.5
0.3120519,1.116133,-0.20453121,-0.85514885,0.004621015,0.04174672,-0.18497713,-0.4116315,-0.36165482,0.060122974,-3.0788372,0.6230624,0.00040351404,-0.14604078,0.046618108,-0.0007249517,0.0031268785,0.0012914136,-0.0105289975,0.4733359,-1.3557327,1.8714665,-2.0850413,-1.5711793,2.4471638,-0.20163277,0.1759945,-0.22058882,0.044801798,-0.003752827,-0.1909946,-0.17238252,0.13407528,-9.500193,0.93436235,47.690468,-1.3297874,-2.2319345,-3.367271,-0.030723192,-0.068488576,-0.47582662,28.75,30.125,29.25,32.8125,35.375,36.5
0.31405178,0.9809769,-0.778506,-0.8143011,-0.0038679212,0.051822454,-0.1702969,-0.41192126,-0.36158487,0.060120728,-3.078893,0.62305236,0.0003826301,-0.1465511,0.047227036,-0.0012223041,0.0043381792,0.00068597007,-0.006942874,0.47293946,-1.3553725,1.871024,-2.0849817,-1.5711306,2.4467542,-0.20245735,0.17743854,-0.22135483,0.045223888,-0.004551867,-0.19540389,-0.1340753,0.21068975,-9.423578,0.8940802,47.666286,-1.2336974,-2.3832078,-3.4345586,-0.02076507,-0.05154793,-0.51767147,28.75,30.125,29.25,32.8125,35.375,36.5
0.31605172,0.65711164,-1.2914119,-0.6458458,-0.014094178,0.07013601,-0.18721622,-0.41219062,-0.36147866,0.060110778,-3.0788407,0.62295854,0.00039510336,-0.14856851,0.048173916,-0.0010494405,0.00468429,0.0005954404,0.0024290178,0.47256652,-1.3550364,1.8706168,-2.0848734,-1.5711907,2.4463296,-0.20547663,0.17949134,-0.22459501,0.046631835,-0.0048307516,-0.2077932,-0.095768064,0.22984336,-9.404425,0.8873621,47.66091,-1.1098754,-2.348889,-3.4507666,-0.021362085,-0.040497787,-0.40385717,28.75,30.125,29.25,32.8125,35.375,36.5
0.3180526,-0.15695965,-1.3592823,-0.7000608,-0.016204981,0.06624265,-0.18210007,-0.41249207,-0.3613838,0.060111362,-3.0788572,0.6228962,0.00034039127,-0.1494971,0.048625883,-0.000280611,0.004142474,0.0002718573,0.014397162,0.47213405,-1.3546646,1.8701371,-2.0847409,-1.5711669,2.4458563,-0.20725589,0.17948335,-0.22692774,0.04900952,-0.0042071627,-0.22154088,-0.076614454,0.22984336,-9.346964,0.8717007,47.65912,-1.0815253,-2.310387,-3.393097,-0.040901072,-0.05336044,-0.27665913,28.75,30.125,29.25,32.8125,35.375,36.5
0.32005247,-0.014786639,-1.1538397,-0.50631064,-0.026221093,0.07792187,-0.1828238,-0.41279608,-0.36127672,0.06011734,-3.078862,0.6229333,0.00039340113,-0.14952783,0.04939653,-0.0009641448,0.0048136883,-0.0018367758,0.019061139,0.4717014,-1.35434,1.8697184,-2.0846808,-1.5711793,2.4454465,-0.20864241,0.18056273,-0.22699597,0.050173577,-0.0038376239,-0.22759207,-0.22984336,0.21068975,-9.346964,0.91421866,47.681515,-0.97145545,-2.3794687,-3.4034867,-0.04921868,-0.042738225,-0.17369787,28.75,30.125,29.25,32.8125,35.375,36.5
0.3220523,-0.13601466,-0.93784934,-0.5077482,-0.008063403,0.06085623,-0.16946922,-0.41310072,-0.36115843,0.06011084,-3.0788329,0.622911,0.000386579,-0.1502169,0.04975114,-0.001040342,0.0051520765,-0.0027275262,0.013921956,0.4712568,-1.3539801,1.8692745,-2.084573,-1.5712031,2.4449918,-0.20973034,0.18194708,-0.22887881,0.051614024,-0.0037424176,-0.2235402,-0.32561144,0.22984336,-9.423578,0.8918391,47.674347,-0.9507704,-2.313741,-3.4608495,-0.049308322,-0.062477715,-0.1560531,28.75,30.125,29.25,32.8125,35.375,36.5
0.32405224,0.28284895,-0.23454167,-0.3708156,-0.007244674,0.07217768,-0.17854576,-0.41339362,-0.36107355,0.060099255,-3.0788465,0.6228207,0.0003152158,-0.15005845,0.050053667,-0.0010983698,0.0059039122,-0.004271285,0.0067085978,0.47084925,-1.3535846,1.8687962,-2.084452,-1.5711793,2.4445264,-0.20996395,0.18241952,-0.22989628,0.0538829,-0.003718994,-0.21656017,-0.57460845,0.21068975,-9.3661175,0.9030289,47.672558,-0.96717817,-2.2056386,-3.5582714,-0.06357715,-0.047916554,-0.24142383,28.75,30.125,29.25,32.8125,35.375,36.5
0.32605228,0.795487,-0.7480169,-0.37306306,0.011346933,0.09949244,-0.17187141,-0.4136789,-0.36098146,0.060094237,-3.0788133,0.62277776,0.0002922758,-0.150309,0.04930578,-0.0005172482,0.0057554278,-0.004525104,0.0025511268,0.47046554,-1.3532126,1.8683285,-2.0843194,-1.5712031,2.4441204,-0.20892954,0.18338533,-0.23294854,0.056123465,-0.0034828852,-0.21136756,-0.57460845,0.0,-9.155427,0.8605109,47.64658,-1.1772859,-2.1439166,-3.3914983,-0.097864605,-0.06004792,-0.3339197,28.75,30.125,29.25,32.8125,35.375,36.5
0.32805213,0.14980374,-0.28680232,-0.27827486,0.024183301,0.096006565,-0.18424626,-0.41396126,-0.36090523,0.060104895,-3.0788536,0.6227083,0.0002799966,-0.15068167,0.04845654,-5.146736e-05,0.0052267066,-0.004678093,0.0013747282,0.4700818,-1.3528767,1.867874,-2.084211,-1.5711788,2.4436884,-0.20801175,0.18463886,-0.23594616,0.057767477,-0.0029451447,-0.20927322,-0.47884035,0.05746084,-9.212888,0.900793,47.655537,-1.386481,-2.1406472,-3.3827171,-0.11492507,-0.07032399,-0.3929794,28.75,30.125,29.25,32.8125,35.375,36.5
0.33005193,-0.11902757,-0.4503993,-0.15173791,0.03598557,0.09679043,-0.16877343,-0.4143103,-0.36079735,0.060116358,-3.0788293,0.6227968,0.0003557163,-0.15162137,0.04942016,-0.0006006641,0.005900855,-0.0069221742,0.003221364,0.46962512,-1.3524796,1.8673466,-2.0841148,-1.5712146,2.4432902,-0.21050501,0.18686335,-0.2379156,0.05980667,-0.002526461,-0.21361308,-0.4213795,0.076614454,-9.097966,0.9791215,47.66808,-1.4295197,-2.2674088,-3.2407842,-0.14177862,-0.075448915,-0.38558054,28.75,30.125,29.25,32.8125,35.375,36.5
0.33205196,-0.15217298,-0.25100246,-0.3485932,0.042920932,0.08199347,-0.1806885,-0.4145918,-0.3607218,0.060123283,-3.0789123,0.6226147,0.00032002895,-0.15113813,0.050077956,-0.0015281988,0.007675535,-0.01138044,0.0137239555,0.46922907,-1.3521434,1.8669027,-2.0840175,-1.5711659,2.4427702,-0.21131149,0.1890147,-0.23939922,0.06392133,-0.0020889228,-0.2249223,-0.24899697,0.0,-9.11712,0.83365434,47.668976,-1.5003543,-2.1922147,-3.2707791,-0.19484252,-0.082849525,-0.28328216,28.75,30.125,29.25,32.8125,35.375,36.5
0.33405176,0.4806383,0.3462814,-0.36716568,0.023173232,0.068398714,-0.18187983,-0.41491884,-0.3606198,0.06012946,-3.0788872,0.62256455,0.00037160117,-0.15207365,0.04914508,-0.00045185126,0.005930581,-0.008249445,0.025569046,0.46880916,-1.3517483,1.8663844,-2.0838988,-1.5712141,2.4423225,-0.21046472,0.1886712,-0.24115273,0.062419903,-0.0019596098,-0.23592037,-0.17238252,-0.076614454,-9.193734,0.85826975,47.68062,-1.4923117,-2.0921674,-3.3142803,-0.19856986,-0.068034954,-0.13918458,28.75,30.125,29.25,32.8125,35.375,36.5
0.33605164,0.76677746,0.086933695,-0.24198014,0.011138484,0.061489273,-0.18112801,-0.41523153,-0.36051866,0.060130112,-3.0788968,0.6225666,0.00029918514,-0.15277615,0.050279465,-0.0017329152,0.007652161,-0.011116823,0.02511866,0.46835256,-1.3513637,1.8658851,-2.0837543,-1.5711788,2.4418662,-0.21264006,0.19184852,-0.24249691,0.06393051,-0.0022126767,-0.23764412,-0.36391866,-0.076614454,-9.212888,0.86498255,47.65106,-1.3940821,-2.1714225,-3.2995548,-0.22023371,-0.07744352,-0.0882806,28.75,30.125,29.25,32.8125,35.375,36.5
0.33805257,0.7519028,-0.35446456,-0.48490593,0.025896618,0.04785323,-0.16407487,-0.4155328,-0.36040145,0.06009722,-3.07883,0.6224222,0.00029159963,-0.15246637,0.051592074,-0.002170858,0.0102819,-0.01431091,0.017515361,0.46794397,-1.3509436,1.8654298,-2.083657,-1.5712503,2.4413762,-0.21386132,0.1925641,-0.24339373,0.068137586,-0.0031302958,-0.23126037,-0.36391866,-0.095768064,-9.11712,0.93436235,47.660015,-1.3528707,-2.2714896,-3.3249211,-0.27829635,-0.06906813,-0.12442501,28.75,30.125,29.25,32.8125,35.375,36.5
0.3400524,0.44859013,0.05765749,-0.44687554,0.041905675,0.026908876,-0.17147993,-0.41582552,-0.3603096,0.06010291,-3.078828,0.62240946,0.00025165654,-0.15575258,0.052306253,-0.00019464441,0.008246536,-0.0089819785,0.0049303956,0.46753496,-1.3505844,1.8649501,-2.083514,-1.5712389,2.4409597,-0.21732019,0.19160107,-0.246384,0.06642481,-0.0037364345,-0.22213241,-0.19153613,-0.038307227,-9.136273,0.91198283,47.66808,-1.3199943,-2.1218722,-3.4194746,-0.303402,-0.04970094,-0.24148236,28.75,30.125,29.25,32.8125,35.375,36.5
0.34205234,1.0285878,-0.33530545,-0.66969645,0.041426554,0.03905548,-0.157758,-0.41612726,-0.36019784,0.060084645,-3.0787942,0.6224082,0.0001222835,-0.15733804,0.053712226,-0.0007697969,0.008392234,-0.009295043,-0.0074366215,0.4670778,-1.350176,1.8644594,-2.0833466,-1.571215,2.4405062,-0.22084059,0.19325404,-0.24699628,0.065737255,-0.0037505773,-0.21328512,-0.15322891,0.019153614,-9.155427,0.93436235,47.691364,-1.2630711,-2.18372,-3.3375065,-0.2996788,-0.06600697,-0.371431,28.75,30.125,29.25,32.8125,35.375,36.5
0.34405208,0.2933101,-0.26645023,-0.36016226,0.0072476887,0.044152,-0.17494598,-0.41644448,-0.36008427,0.060080174,-3.078746,0.62243986,9.76407e-05,-0.15790206,0.054002907,-0.001375837,0.008033858,-0.010141556,-0.014305817,0.4666335,-1.3497798,1.8639578,-2.0832036,-1.5712384,2.440088,-0.22205319,0.19487447,-0.24754435,0.06525354,-0.003063736,-0.2076293,-0.22984336,0.038307227,-9.097966,0.9455522,47.688675,-1.1818236,-2.1607003,-3.4510014,-0.3086394,-0.05446854,-0.47807932,28.75,30.125,29.25,32.8125,35.375,36.5
0.3460521,0.1459298,-0.5892803,-0.46325,0.00023089045,0.0654569,-0.17262882,-0.41674572,-0.3599369,0.060052264,-3.0786262,0.6224897,6.327104e-05,-0.15945871,0.05503782,-0.002058313,0.0074970773,-0.010559489,-0.011747589,0.46617612,-1.3493956,1.8635262,-2.0830724,-1.5713104,2.4396772,-0.22532631,0.19691204,-0.24825986,0.06404199,-0.0024261863,-0.21346113,-0.15322891,0.076614454,-9.251196,0.88289046,47.695843,-1.0131066,-2.1528513,-3.5271206,-0.3340468,-0.0516356,-0.49055487,28.75,30.125,29.25,32.8125,35.375,36.5
0.34805214,0.044642467,-0.91807765,-0.8530237,0.0037178216,0.077743,-0.16977537,-0.41708788,-0.3598588,0.060073815,-3.0786967,0.62245715,3.3453827e-05,-0.16206735,0.05409446,-0.0010389169,0.0051223747,-0.0065280674,0.0016173627,0.46572,-1.3489875,1.8629507,-2.0829294,-1.5712503,2.439192,-0.22594263,0.19881311,-0.2523985,0.06161532,-0.002135244,-0.22744136,-0.1340753,0.095768064,-9.3661175,0.9298854,47.657326,-0.9241657,-2.1910956,-3.5031605,-0.32354316,-0.06890085,-0.3985391,28.75,30.125,29.25,32.8125,35.375,36.5
0.35005245,-0.4631216,-1.3762226,-0.92875856,-0.008845294,0.08638057,-0.17147744,-0.41737944,-0.35975224,0.06004539,-3.0786545,0.6224202,-9.774286e-05,-0.1638192,0.052352797,0.00022706494,0.002736574,-0.002179165,0.01624763,0.46528834,-1.3485672,1.862471,-2.0827744,-1.5712379,2.4387429,-0.22443314,0.19998007,-0.25624454,0.059332915,-0.001999342,-0.24056081,-0.21068975,0.1340753,-9.3661175,0.8873621,47.698532,-1.0183434,-2.1826549,-3.507586,-0.30919874,-0.08500524,-0.25923225,28.75,30.125,29.25,32.8125,35.375,36.5
0.3520525,-0.19514762,-0.66616917,-0.5560043,-0.0445677,0.113492176,-0.17948236,-0.41769823,-0.35965598,0.060049742,-3.078677,0.62240386,-0.00012232226,-0.16454463,0.052378144,-0.00018427472,0.002991719,-0.002005842,0.019722199,0.4648446,-1.3481824,1.8619679,-2.0826557,-1.5712146,2.4382863,-0.22471929,0.20182934,-0.25747526,0.05867843,-0.002312632,-0.24432036,-0.45968673,0.24899697,-9.404425,0.9254084,47.67345,-1.115902,-2.3630366,-3.4604943,-0.30124506,-0.09725489,-0.18005091,28.75,30.125,29.25,32.8125,35.375,36.5
0.3540523,-0.047453076,-1.0986413,-0.9711526,-0.032852568,0.13041012,-0.17724024,-0.4179964,-0.35954317,0.06002172,-3.0786386,0.62228715,-0.00021661329,-0.16672665,0.051947527,-0.0008781669,0.001746428,0.00073948066,0.011661941,0.46441236,-1.3477621,1.8614897,-2.082513,-1.5712265,2.4377863,-0.22558132,0.2053665,-0.25917524,0.05382928,-0.0024622288,-0.23712054,-0.4405331,0.22984336,-9.5385,0.9612189,47.690468,-1.2505994,-2.435318,-3.4006479,-0.2718792,-0.09757933,-0.23411049,28.75,30.125,29.25,32.8125,35.375,36.5
0.35605225,-0.20227256,-1.2226284,-1.2605542,-0.04226884,0.116189234,-0.1825793,-0.4183396,-0.3594154,0.06001262,-3.0785968,0.6222811,-0.00021140068,-0.16843076,0.051528208,-0.0010123366,0.001190669,0.0029486332,0.0053280275,0.46393234,-1.3473418,1.8609737,-2.0823944,-1.5712627,2.437308,-0.22581826,0.20794958,-0.26152813,0.051370345,-0.0029668566,-0.2310214,-0.40222588,0.28730422,-9.710882,0.90750587,47.690468,-1.2201921,-2.3878026,-3.3886487,-0.24367997,-0.08799443,-0.32504454,28.75,30.125,29.25,32.8125,35.375,36.5
0.3580522,-0.07972145,-1.9329616,-1.135366,-0.050757326,0.11529003,-0.173621,-0.41870236,-0.35933077,0.06003026,-3.0786443,0.62221396,-8.711675e-05,-0.16931441,0.05056264,-0.00043223277,0.00068937754,0.004540776,0.00425935,0.4635007,-1.3469217,1.8604106,-2.0823343,-1.5712866,2.4368289,-0.22459978,0.20936142,-0.26464692,0.051424824,-0.003215854,-0.22873293,-0.6703765,0.36391866,-9.634268,0.8605109,47.66987,-1.3372368,-2.3878055,-3.4229236,-0.21505412,-0.08136724,-0.37723255,28.75,30.125,29.25,32.8125,35.375,36.5
0.36005205,0.1848613,-1.0632106,-1.1765281,-0.065826885,0.10984811,-0.19430178,-0.41901365,-0.35920104,0.059990965,-3.0785558,0.6222114,-0.0001715755,-0.16860501,0.050654225,-0.0007851825,0.00130413,0.003893059,0.008532936,0.46304524,-1.3464785,1.8599323,-2.0822031,-1.5713233,2.4363832,-0.22381184,0.20914917,-0.2637002,0.051534124,-0.0034964727,-0.23221827,-0.6512228,0.4213795,-9.5385,0.88960326,47.690468,-1.3709211,-2.3785353,-3.4221208,-0.1967451,-0.077717125,-0.3858742,28.75,30.125,29.25,32.8125,35.375,36.5
0.3620519,-0.9192953,-1.6532629,-1.4482735,-0.04915725,0.08403233,-0.17334263,-0.41934276,-0.359113,0.059993267,-3.0785987,0.62217784,-0.00019561705,-0.17071657,0.05160321,-0.001368406,0.0007214055,0.0055567096,0.015283378,0.46260053,-1.346069,1.8594059,-2.0820963,-1.571287,2.4359124,-0.22683482,0.21120627,-0.26421076,0.04824187,-0.0037282326,-0.24199085,-0.4405331,0.45968673,-9.672575,0.9388393,47.68062,-1.456283,-2.451344,-3.4793415,-0.15864164,-0.058904223,-0.32324135,28.75,30.0625,29.25,32.8125,35.3125,36.5
0.36405182,-0.84840804,-1.5974606,-1.2079589,-0.063502766,0.08666537,-0.17794783,-0.41972694,-0.3590016,0.060010444,-3.0786245,0.62221694,-7.265235e-05,-0.17117266,0.052831545,-0.0018944191,0.0010434305,0.0042082295,0.024594104,0.4621073,-1.3456497,1.8588442,-2.0820363,-1.5713104,2.4354405,-0.22924955,0.21172988,-0.26383206,0.048675697,-0.0033968557,-0.2537175,-0.28730422,0.38307226,-9.787497,0.9164598,47.687782,-1.3729858,-2.4971118,-3.6545916,-0.12097967,-0.071942836,-0.18705949,28.75,30.0625,29.25,32.8125,35.3125,36.5
0.36605158,-0.36559275,-2.1665123,-1.0884696,-0.05022583,0.094127275,-0.1648252,-0.42006153,-0.3589125,0.060007937,-3.0786526,0.62206894,-4.6506488e-05,-0.17285243,0.053383406,-0.0003251514,0.00021239137,0.0061150836,0.02536587,0.46168676,-1.3452189,1.8583049,-2.08194,-1.5713233,2.4349244,-0.2313197,0.21083173,-0.26677796,0.05043696,-0.0035014483,-0.2565587,-0.22984336,0.45968673,-9.595961,0.95002913,47.67166,-1.315048,-2.2450728,-3.7444217,-0.13392851,-0.06494851,-0.09904507,28.75,30.0625,29.25,32.8125,35.3125,36.5
0.36805242,0.39321756,-0.83975446,-1.0303315,-0.04137886,0.088338494,-0.17215768,-0.42039385,-0.35881048,0.059990335,-3.078688,0.622006,-9.734906e-05,-0.17472951,0.053959947,8.804666e-05,-0.00026468586,0.007480452,0.015080519,0.46121725,-1.3447868,1.8578008,-2.0818565,-1.571287,2.4344113,-0.23353995,0.21202151,-0.26920182,0.050248988,-0.0036842942,-0.2484924,-0.30645782,0.3256114,-9.461885,0.8918391,47.660015,-1.1265614,-2.253329,-3.5451262,-0.092444584,-0.07863682,-0.13644327,28.75,30.0625,29.25,32.8125,35.3125,36.5
0.37005228,0.7364865,-0.24058226,-1.1209534,-0.010690399,0.065018415,-0.16593581,-0.42076948,-0.358697,0.060002428,-3.078687,0.6220131,-6.7996443e-06,-0.17676093,0.055205543,-0.00019760604,-0.00018111704,0.0074668173,0.0019743482,0.46073678,-1.3443545,1.8572263,-2.0817602,-1.5713233,2.4339356,-0.23706096,0.21420188,-0.27127263,0.050184034,-0.0037389684,-0.23890649,-0.38307226,0.21068975,-9.481039,0.91198283,47.68062,-1.0178503,-2.285048,-3.5038624,-0.078402765,-0.07355514,-0.25768661,28.75,30.0625,29.25,32.8125,35.3125,36.5
0.37205213,0.95568055,0.30158034,-0.8403923,0.011897457,0.06026254,-0.16827525,-0.42111748,-0.35861772,0.05998941,-3.078719,0.6220051,-4.403838e-05,-0.17846443,0.054651264,0.0012131694,-0.0020754586,0.009656447,-0.007961019,0.46029258,-1.343875,1.8566512,-2.0816643,-1.5712866,2.4334826,-0.23778512,0.21457408,-0.2751852,0.050930824,-0.003014418,-0.22969556,-0.36391866,0.095768064,-9.461885,0.8717007,47.67614,-1.1196644,-2.333656,-3.5552902,-0.062394544,-0.062307365,-0.39311475,28.75,30.0625,29.25,32.8125,35.3125,36.5
0.374052,0.73146564,0.6134085,-0.9965664,0.031822134,0.057591856,-0.1654392,-0.4215078,-0.3584853,0.05999504,-3.0786994,0.6220984,7.473603e-05,-0.17926487,0.054577243,0.0008077379,-0.0020082865,0.008539849,-0.011896566,0.45977643,-1.3434423,1.8560985,-2.0816038,-1.5713347,2.4330275,-0.23837252,0.2172103,-0.27777702,0.051905014,-0.0025626915,-0.2263474,-0.38307226,0.095768064,-9.32781,0.9254084,47.67614,-1.1841726,-2.3878357,-3.4482746,-0.029999495,-0.07761301,-0.49836326,28.75,30.0625,29.25,32.8125,35.3125,36.5
