Tylouw/Master_Thesis_Code/training_data/batch_1/rect_rod_t0.2/sample_98_session_3.csv
timestamp[s],tcp_force_x[N],tcp_force_y[N],tcp_force_z[N],tcp_force_rx[Nm?],tcp_force_ry[Nm?],tcp_force_rz[Nm?],tcp_pose_x[m],tcp_pose_y[m],tcp_pose_z[m],tcp_pose_rx[rot_vec_x],tcp_pose_ry[rot_vec_y],tcp_pose_rz[rot_vec_z],tcp_velo_x[m/s],tcp_velo_y[m/s],tcp_velo_z[m/s],tcp_velo_rx[rot_vec_x/s],tcp_velo_ry[rot_vec_y/s],tcp_velo_rz[rot_vec_z/s],q1[rad],q2[rad],q3[rad],q4[rad],q5[rad],q6[rad],qd1[rad/s],qd2[rad/s],qd3[rad/s],qd4[rad/s],qd5[rad/s],qd6[rad/s],tool_acc_x,tool_acc_y,tool_acc_z,current_of_whole_robot[A],voltage_of_whole_robot[V],current_J1[A],current_J2[A],current_J3[A],current_J4[A],current_J5[A],current_J6[A],temp_J1[C],temp_J2[C],temp_J3[C],temp_J4[C],temp_J5[C],temp_J6[C]
7.9799975e-07,-0.5976037,-0.38298452,-0.22509441,-0.016876245,0.002351513,0.0058250455,-0.3893418,-0.36871913,0.060018264,-3.078712,0.62496823,0.00019393017,0.0011301192,0.000612776,-0.0009732692,0.001672673,-0.0032528143,7.211468e-05,0.50502086,-1.3816557,1.9041876,-2.091891,-1.5708417,2.4800372,-4.71535e-05,0.000527979,0.0011396729,0.0019879385,0.00011705814,-0.000120030505,0.095768064,0.19153613,-8.791509,0.8112748,47.721813,-0.21198098,-3.1412127,-2.344377,-0.19092229,0.17835724,-0.019041792,29.0,30.375,29.375,33.0625,35.5,36.5625
0.002055091,-0.17298461,0.06891433,-0.15188837,-0.024200443,0.01945485,-0.00936688,-0.3893451,-0.3687138,0.06000499,-3.0787175,0.6249504,0.00019700758,-0.00083577,-0.00048602145,-0.0011619754,-0.0022334747,0.0037420583,7.0456736e-05,0.5050088,-1.3816435,1.9042124,-2.0919306,-1.5708417,2.4800134,-4.594981e-05,0.001007183,0.0034536312,-0.008816855,0.00013116343,-0.000116911615,0.076614454,0.19153613,-8.676587,0.72622824,47.716442,-0.2369911,-3.0536366,-2.3854463,-0.14433637,0.18921116,-0.02019871,29.0,30.375,29.375,33.0625,35.5,36.5625
0.004054891,-0.5652287,-0.15388012,0.03278684,-0.021773007,0.013631316,-0.004933917,-0.38934183,-0.36871746,0.060002234,-3.078704,0.6249664,0.00023648985,-0.0013341891,-0.0007644241,-0.0018153561,-0.0023240484,0.0038964811,6.930421e-05,0.5050329,-1.3816428,1.9042233,-2.091955,-1.5708655,2.4800491,-4.480594e-05,0.002948242,0.0030327344,-0.010515994,0.00013072911,-0.0001139511,0.019153614,0.17238252,-8.619126,0.7284641,47.721813,-0.23334979,-3.415337,-2.5887203,-0.052614935,0.18348025,-0.016227309,29.0,30.375,29.375,33.0625,35.5,36.5625
0.006054389,-0.29351524,0.7486834,0.042338125,-0.019140959,0.00079120207,-0.003733295,-0.38935062,-0.36871687,0.060010523,-3.0787134,0.62500685,0.0002103339,-0.00041246004,-0.0002513979,-0.0013620848,-0.0007991513,0.0011639211,6.726851e-05,0.5050088,-1.3816432,1.904199,-2.0919287,-1.5708417,2.4800491,-4.3717733e-05,0.0019116513,0.0020604918,-0.00537791,0.00012821799,-0.000111136666,0.076614454,0.21068975,-8.580819,0.75755644,47.716442,-0.22149019,-3.3145273,-2.523159,-0.10157728,0.18121037,-0.016125169,29.0,30.375,29.375,33.0625,35.5,36.5625
0.008054418,0.21245115,1.2415771,-0.6197824,0.011585185,-0.011544263,-0.0030610536,-0.38933867,-0.36870414,0.059987914,-3.0786674,0.6249399,0.00018919616,8.248775e-05,2.4605444e-05,-0.00031266827,-0.00013482569,-1.7138567e-05,8.566041e-05,0.50502086,-1.3816197,1.9042224,-2.0919273,-1.5708774,2.4800253,-4.2681168e-05,0.00016581173,0.00073018466,-0.0009467149,0.00012566992,-0.00012869827,0.0,0.21068975,-8.676587,0.6926589,47.71286,-0.19605693,-3.272296,-2.415781,-0.11447641,0.17909147,-0.01914931,29.0,30.375,29.375,33.0625,35.5,36.5625
0.010054333,0.21184677,0.9309698,-0.83679205,0.024202863,-0.009123753,-0.0031932094,-0.3893368,-0.3687048,0.05997536,-3.0786653,0.6249588,0.00013452061,0.0011329814,0.0006280143,-0.00046668923,0.0017802285,-0.0034562622,6.292963e-05,0.5050088,-1.3815958,1.9042224,-2.0919259,-1.5708536,2.4800253,-7.3805524e-05,2.224576e-06,0.0002308222,0.003652609,0.00012321261,-0.0001374014,-0.019153614,0.05746084,-8.887277,0.75084364,47.74062,-0.76741433,-2.8261251,-2.794947,-0.18163377,0.16985643,-0.108894005,29.0,30.375,29.375,33.0625,35.5,36.5625
0.012054536,-0.92598647,0.12208995,-0.8733505,-0.011703522,-0.0017494314,-0.0052552535,-0.38932413,-0.36872184,0.059977196,-3.0786753,0.6248255,0.00013274209,0.0007748121,0.0005057219,-0.00029418146,0.0013145305,-0.0026132688,0.0001175797,0.5050568,-1.3815837,1.9041985,-2.0919025,-1.5708655,2.4799888,-0.0002015376,2.9845527e-08,8.421745e-06,0.0029140976,0.00012084927,-0.00031961215,0.076614454,0.076614454,-9.174581,0.72622824,47.70032,-0.95419526,-2.731577,-2.9349418,-0.18270233,0.1879381,-0.16443454,29.0,30.375,29.375,33.0625,35.5,36.5625
0.014053717,-0.5941317,-0.5505557,-1.0926424,-0.05725291,0.042199653,-0.020010663,-0.38931432,-0.36868238,0.05992368,-3.078587,0.6249422,-1.2718833e-05,-0.0036032447,0.0060454416,-0.0067046005,0.0064934306,-0.012008508,0.00023265605,0.5049921,-1.3815312,1.9042586,-2.0919034,-1.5708536,2.4800081,-0.013630823,0.01273984,1.1298846e-07,0.00090849237,0.00012691045,-0.013861755,0.038307227,0.076614454,-9.423578,0.7463667,47.716442,-0.38718602,-3.2997594,-3.0489326,-0.15593848,0.18244746,-0.07916039,29.0,30.375,29.375,33.0625,35.5,36.5625
0.01605429,-1.5078566,-0.80967164,-1.2544441,-0.081458725,0.047710784,-0.028077658,-0.38931713,-0.36866975,0.05992248,-3.0785627,0.62499124,-3.820592e-05,-0.0058023497,0.0047706007,-0.003451305,0.0029094154,-0.005565369,0.007396307,0.5049682,-1.3815323,1.9042572,-2.0918796,-1.5708536,2.480018,-0.013546468,0.009956167,-0.003974763,0.00029303608,0.000134643,-0.020939816,-0.21068975,0.076614454,-9.519346,0.800085,47.72719,-0.5425457,-3.2495613,-2.9880435,-0.1518144,0.21228611,-0.0146344025,29.0,30.375,29.375,33.0625,35.5,36.5625
0.018053826,-2.3970497,-1.1869218,-1.3775536,-0.057504404,0.05332575,-0.03975418,-0.38931784,-0.36867929,0.05991268,-3.0786114,0.62484485,-6.2177234e-05,-0.005734157,0.004120131,-0.0023146877,0.0018790581,-0.0038211364,0.012249951,0.5049687,-1.3815088,1.9042572,-2.0919034,-1.5708297,2.4799209,-0.012422361,0.008252562,-0.0046228035,0.00061946915,0.00019131353,-0.024669487,-0.49799395,0.21068975,-9.423578,0.7911258,47.72719,-0.83399475,-3.005305,-3.0307255,-0.14850472,0.21015614,-0.0054410268,29.0,30.375,29.375,33.0625,35.5,36.5625
0.020054102,-1.8414943,0.26839232,-1.5529815,-0.03033082,0.071657166,-0.0679941,-0.38932228,-0.36866742,0.059896857,-3.078581,0.6248405,-0.00012082114,-0.0059585758,0.004537544,-0.002872906,0.00037726702,-0.0062705358,0.007788101,0.50494397,-1.3814726,1.9042448,-2.0918791,-1.5708288,2.4798973,-0.0148958685,0.009035557,-0.004360639,0.0009826461,0.0026911714,-0.02268539,-0.53630114,0.19153613,-9.595961,0.8157518,47.754948,-0.91163385,-2.8875456,-3.1961198,-0.14951542,0.20786113,-0.019497842,29.0,30.375,29.375,33.0625,35.5,36.5625
0.022054067,-1.7049185,0.6392837,-1.8130988,-0.0076726973,0.07454539,-0.091129735,-0.38935247,-0.36866915,0.059907,-3.0786262,0.62487173,-0.00011804901,-0.0058167614,0.0046563344,-0.0035089618,-0.0008135307,-0.009597992,0.0038025437,0.50489545,-1.3814601,1.9042095,-2.0918906,-1.5707916,2.4798625,-0.016620787,0.010281997,-0.004711346,0.0024146324,0.0053464356,-0.020428855,-0.47884035,0.22984336,-9.691729,0.7396539,47.71554,-0.85036725,-2.942451,-3.3948421,-0.16570109,0.17963527,-0.069519654,29.0,30.375,29.375,33.0625,35.5,36.5625
0.024054434,-1.7400919,0.08009617,-1.6489047,-0.0064947866,0.081956245,-0.114310026,-0.3893452,-0.36868167,0.059917737,-3.078663,0.62468815,-8.974023e-05,-0.007818327,0.004546187,-0.0028734296,-0.0017335999,-0.007831875,0.00033064248,0.50493073,-1.3814716,1.9041961,-2.0918791,-1.5708035,2.4797785,-0.018274102,0.011759785,-0.0078225145,0.0020571756,0.005290585,-0.018608559,-0.61291564,0.019153614,-9.730036,0.7418897,47.72271,-0.83917785,-2.8241422,-3.3537602,-0.1874782,0.16982603,-0.07799159,29.0,30.375,29.375,33.0625,35.5,36.5625
0.026053946,-1.75193,0.5600345,-1.7897198,-0.027536787,0.08892447,-0.13044377,-0.38934574,-0.36865237,0.0598603,-3.0785835,0.62478846,-0.00028361642,-0.009265217,0.004362002,-0.0027262568,-0.0022096827,-0.0066781817,-0.0017888856,0.50485855,-1.3813748,1.9042071,-2.0918553,-1.5707678,2.479779,-0.01922497,0.01351306,-0.010057781,0.001300808,0.005140079,-0.017439056,-0.78529817,-0.05746084,-9.634268,0.7597976,47.716442,-0.89479196,-2.9390392,-3.2461326,-0.17582399,0.1626902,-0.09608351,29.0,30.375,29.375,33.0625,35.5,36.5625
0.02805446,-2.3786962,0.076153986,-1.7676246,-0.03501486,0.09614988,-0.13776349,-0.38937393,-0.36863768,0.059853114,-3.0785506,0.6248593,-0.00025952418,-0.010016611,0.004258308,-0.002866799,-0.0026036133,-0.006549863,-0.0033433188,0.5048223,-1.3813385,1.9041833,-2.0918677,-1.5707916,2.4797912,-0.019927543,0.014837516,-0.011191325,0.00080588635,0.0054192673,-0.016586965,-0.7661445,-0.11492168,-9.749189,0.779936,47.686886,-0.99378,-2.881271,-3.3200588,-0.15868093,0.1826485,-0.122433156,29.0,30.375,29.375,33.0625,35.5,36.5625
0.030055594,-2.277388,-0.35292056,-1.7680796,-0.026946563,0.09974094,-0.14307232,-0.3893929,-0.36862618,0.059830576,-3.0785513,0.62491757,-0.00032592178,-0.010802978,0.004099335,-0.0027440982,-0.0037143214,-0.006534433,-0.0046491,0.50476223,-1.3812901,1.9041828,-2.0918915,-1.5707549,2.4797673,-0.020995107,0.015710596,-0.012469234,0.00065749214,0.00638028,-0.016349927,-0.7278373,-0.11492168,-9.883265,0.80679786,47.70838,-0.94166356,-2.9204345,-3.331471,-0.16518888,0.1769522,-0.14637996,29.0,30.375,29.375,33.0625,35.5,36.5625
0.03205418,-2.1165195,0.11029176,-1.6931999,-0.02838348,0.085450485,-0.14699242,-0.38942134,-0.3686301,0.05985274,-3.0785656,0.6248828,-0.00028391235,-0.011805877,0.0037560326,-0.0023122279,-0.005624468,-0.0060709734,-0.004915291,0.5047497,-1.3812779,1.9041098,-2.0918558,-1.5707668,2.4797313,-0.022255719,0.016294885,-0.014071475,0.0003405669,0.007823943,-0.017345961,-0.7469909,-0.05746084,-9.749189,0.7105615,47.71017,-0.99692816,-2.8137703,-3.265583,-0.14579585,0.14575607,-0.16611132,29.0,30.375,29.375,33.0625,35.5,36.5625
0.034053817,-2.2525384,-0.56030273,-1.9482809,0.0022536307,0.06897988,-0.14273182,-0.3894335,-0.3686127,0.05984283,-3.0785518,0.6248797,-0.0003403519,-0.01233867,0.004408233,-0.002447357,-0.00559838,-0.006424316,-0.0056113983,0.50470126,-1.3812537,1.9040984,-2.091832,-1.5707544,2.4796827,-0.023942836,0.016486188,-0.014004695,0.00040438306,0.007971168,-0.018337527,-0.7469909,-0.019153614,-9.749189,0.7620334,47.719128,-1.0422184,-2.871845,-3.3897185,-0.15478615,0.1362058,-0.16601123,29.0,30.375,29.375,33.0625,35.5,36.5625
0.036053546,-1.6381161,0.12432347,-1.9671613,-5.9898426e-05,0.083734125,-0.1789549,-0.38946438,-0.36862046,0.0598339,-3.0785935,0.6249467,-0.00041379823,-0.013751328,0.0047445185,-0.002001788,-0.006773971,-0.005874696,-0.006753352,0.50464076,-1.3811934,1.9040502,-2.0918438,-1.5706829,2.4796586,-0.026301814,0.01696204,-0.015596666,0.00047002622,0.008730579,-0.019555207,-0.5554548,0.019153614,-9.710882,0.7530795,47.703007,-1.0159329,-2.7916152,-3.3355432,-0.17095114,0.13544331,-0.17986907,29.0,30.375,29.375,33.0625,35.5,36.5625
0.038053557,-1.6842138,0.068618864,-1.8259106,-0.005383237,0.07952344,-0.18307063,-0.3894676,-0.36860326,0.059833765,-3.078581,0.6249242,-0.0004155969,-0.014788872,0.005095387,-0.0014382023,-0.0069387043,-0.004388793,-0.0063288487,0.50461626,-1.3812056,1.9040622,-2.091832,-1.5706948,2.4796216,-0.027501583,0.016712397,-0.016542813,0.00028756872,0.008153059,-0.021178165,-0.40222588,-0.019153614,-9.730036,0.7642693,47.705692,-0.9400693,-2.7981837,-3.351794,-0.17839453,0.12863326,-0.16929616,29.0,30.375,29.375,33.0625,35.5,36.5625
0.040054183,-1.6334013,-0.2211528,-1.5823154,-0.005131072,0.076942116,-0.19850045,-0.3895273,-0.3685854,0.05983013,-3.0785742,0.6251344,-0.00043803296,-0.016077196,0.0055807005,-0.00144446,-0.0064406684,-0.00363693,-0.00660075,0.5045081,-1.381145,1.9040016,-2.0918438,-1.570659,2.4796455,-0.029018104,0.01796942,-0.017956734,3.165141e-05,0.0073497337,-0.022420434,-0.51714754,-0.038307227,-9.691729,0.78888994,47.747787,-0.96278346,-2.8372471,-3.2963538,-0.17740685,0.14188647,-0.20285022,29.0,30.375,29.375,33.0625,35.5,36.5625
0.04205374,-1.8940021,-0.17027928,-1.7537206,-0.004701012,0.058721535,-0.21145414,-0.38958856,-0.36858174,0.059856053,-3.078625,0.62502825,-0.0003266307,-0.017473243,0.005792694,-0.00046775496,-0.00679321,-0.0013431817,-0.006626246,0.5044598,-1.3811213,1.9039172,-2.0918558,-1.5706834,2.4795246,-0.030174704,0.01758189,-0.019715272,2.066611e-06,0.006547133,-0.023548955,-0.36391866,0.076614454,-9.615114,0.71279734,47.703007,-0.96827257,-2.6719322,-3.2675204,-0.1841708,0.16541381,-0.21819589,29.0,30.375,29.375,33.0625,35.5,36.5625
0.0440542,-1.1649128,0.047802173,-1.7633446,-0.007771062,0.056202352,-0.22898377,-0.3895858,-0.36856478,0.059820753,-3.0786066,0.6250245,-0.00044926102,-0.018498316,0.006151252,-0.00020115447,-0.0074331798,-0.00093234837,-0.006253163,0.5044112,-1.381073,1.9039406,-2.0918558,-1.5706471,2.479476,-0.031959023,0.017911004,-0.020711452,1.3493492e-07,0.0069043683,-0.025707014,-0.17238252,0.095768064,-9.634268,0.7933669,47.692257,-0.98415935,-2.8018217,-3.2940557,-0.18564561,0.15283403,-0.23166125,29.0,30.375,29.375,33.0625,35.5,36.5625
0.046054002,-0.49142215,-0.1441135,-1.7345157,-0.016056407,0.049053304,-0.22604068,-0.3896729,-0.36854222,0.05984916,-3.0786061,0.6251206,-0.00032718605,-0.019452382,0.007323155,-0.0008576604,-0.006694158,-0.0019556077,-0.0069262525,0.5043144,-1.3810365,1.9038328,-2.0918558,-1.5706834,2.4794393,-0.03472313,0.01923146,-0.020778483,8.810287e-09,0.0067532025,-0.02779704,-0.19153613,0.076614454,-9.672575,0.7866488,47.699425,-0.9030458,-2.7319393,-3.296804,-0.17555574,0.16849715,-0.23099175,29.0,30.375,29.375,33.0625,35.5,36.5625
0.048053935,-0.8063592,-0.48004398,-1.7093067,-0.01949704,0.016791243,-0.1874776,-0.38971457,-0.36852515,0.059845407,-3.0785902,0.6251549,-0.00031490982,-0.020743685,0.007442971,3.090008e-05,-0.0073160464,-4.13801e-05,-0.0057286094,0.5042542,-1.3809886,1.9037846,-2.0918558,-1.5706953,2.4794025,-0.03588783,0.01896684,-0.022488808,5.7524874e-10,0.0063685663,-0.030158062,-0.095768064,0.095768064,-9.634268,0.78217715,47.709274,-0.8839972,-2.713039,-3.286829,-0.17868668,0.1724403,-0.21895787,29.0,30.375,29.375,33.0625,35.5,36.5625
0.05005345,-0.031271517,-0.36294946,-1.5293357,-0.025656084,0.03237534,-0.20127493,-0.38975438,-0.36851746,0.059865404,-3.0786328,0.62520194,-0.0003085245,-0.022355687,0.0077316156,0.0005003457,-0.00833605,0.0007815884,-0.005758349,0.50418144,-1.3809882,1.903736,-2.0918438,-1.570659,2.4793537,-0.038183074,0.0197662,-0.024501653,3.7559632e-11,0.006860534,-0.03242322,-0.038307227,0.13407528,-9.557653,0.80679786,47.721813,-0.85858566,-2.69001,-3.2688482,-0.19406623,0.18217918,-0.23238671,29.0,30.375,29.375,33.0625,35.5,36.5625
0.052054137,-0.18772376,-0.843353,-1.6094134,-0.015286713,0.03183508,-0.18494599,-0.3898146,-0.36848462,0.059861578,-3.0786333,0.6252214,-0.00024225462,-0.02367775,0.008181026,0.00057593104,-0.008524986,0.0011120294,-0.006055308,0.5040851,-1.3809519,1.9037126,-2.0918915,-1.5706834,2.4792695,-0.040172167,0.020909347,-0.02602551,2.4523755e-12,0.006864302,-0.03411432,0.038307227,0.21068975,-9.481039,0.78888994,47.719128,-0.8361024,-2.7061396,-3.1679265,-0.2018578,0.19505195,-0.2376206,29.0,30.375,29.375,33.0625,35.5,36.5625
0.054053746,-0.7804791,-1.2075263,-1.6327612,-0.010770358,0.01995072,-0.16650143,-0.38984597,-0.3684748,0.059849426,-3.0786605,0.62520516,-0.00034581556,-0.023258336,0.007306713,0.00068342855,-0.010144229,0.0005110774,-0.0037885872,0.5040015,-1.3808919,1.903664,-2.0918682,-1.5706228,2.4791722,-0.03937062,0.02098283,-0.02635826,1.6012261e-13,0.008570611,-0.035582483,0.076614454,0.19153613,-9.423578,0.7351769,47.73077,-0.8565322,-2.6392875,-3.2364397,-0.20308757,0.15753856,-0.26423138,29.0,30.375,29.375,33.0625,35.5,36.5625
0.05605385,-0.6710769,-0.9175301,-1.633081,-0.018817758,0.021819578,-0.1720162,-0.38991702,-0.36846396,0.059880774,-3.078694,0.6253089,-0.00024743646,-0.024030877,0.008423021,0.00051602477,-0.009832873,0.00024927311,-0.0050814655,0.5039169,-1.3808799,1.903581,-2.0918796,-1.5706228,2.4791481,-0.0418751,0.020984238,-0.025978716,1.0454862e-14,0.008428404,-0.036793306,0.05746084,0.19153613,-9.3661175,0.75755644,47.68062,-0.89020205,-2.6015775,-3.2416263,-0.21086016,0.15784287,-0.25752652,29.0,30.375,29.375,33.0625,35.5,36.5625
0.05805327,-0.45739746,-0.52284724,-1.5069318,-0.025147952,0.02418264,-0.18205355,-0.38994896,-0.36846167,0.0598676,-3.0787115,0.6253131,-0.00027253668,-0.024872642,0.008988461,0.00012690824,-0.009798839,-0.0004714,-0.005979423,0.50386834,-1.3808192,1.9035448,-2.0919034,-1.570599,2.4791,-0.043807387,0.022283468,-0.026630174,6.826277e-16,0.008745204,-0.03782768,0.095768064,0.21068975,-9.404425,0.7530795,47.690468,-0.8089017,-2.671063,-3.331222,-0.19453332,0.17375445,-0.27972054,29.0,30.375,29.375,33.0625,35.5,36.5625
0.060054082,0.21419679,-0.48517364,-1.5171912,-0.022864973,0.035286926,-0.18116565,-0.3900138,-0.3684283,0.059868123,3.0787232,-0.6253531,0.00029704455,-0.026188845,0.0087345885,0.0006552818,-0.011634468,6.384586e-05,-0.00620283,0.50373614,-1.3807709,1.9034837,-2.0918915,-1.5705742,2.4789913,-0.04544145,0.023130143,-0.028834332,4.457071e-17,0.010090057,-0.03923947,0.11492168,0.21068975,-9.461885,0.7911258,47.7254,-0.8197615,-2.5944097,-3.3008487,-0.21076617,0.16949017,-0.30735552,29.0,30.375,29.375,33.0625,35.5,36.5625
0.062053747,-0.090430476,-0.47937047,-1.5904831,-0.0207157,0.02899382,-0.18138607,-0.39006633,-0.3684172,0.059883036,3.0787058,-0.62532985,0.00022767235,-0.027216189,0.008436909,0.001032005,-0.012659037,0.0013473659,-0.0056503685,0.50367594,-1.3807468,1.9034241,-2.091904,-1.5705861,2.4789188,-0.046065696,0.023802994,-0.03029983,-0.0008267194,0.010364887,-0.040415335,-0.038307227,0.22984336,-9.442732,0.7351769,47.731667,-0.8481833,-2.5818431,-3.2281337,-0.19154292,0.15992664,-0.2927022,29.0,30.375,29.375,33.0625,35.5,36.5625
0.06405522,-0.4328635,-0.5489599,-1.464939,-0.018831767,0.03135307,-0.17567843,-0.39012817,-0.36839163,0.05989138,3.0786927,-0.6253458,0.00023985839,-0.02830932,0.009043951,0.0011888313,-0.012939871,0.0017738369,-0.0051519717,0.50356746,-1.3806987,1.9033402,-2.0918686,-1.5705737,2.478822,-0.048124485,0.024156868,-0.031050961,-0.0009367046,0.010403735,-0.042972207,-0.21068975,0.21068975,-9.404425,0.71279734,47.691364,-0.8371233,-2.5094652,-3.2463222,-0.20026031,0.17053553,-0.335385,29.0,30.375,29.375,33.0625,35.5,36.5625
0.06605371,-1.3871001,-0.27259487,-1.4405488,-0.026729463,0.03353644,-0.18094958,-0.39016256,-0.3683891,0.059886232,3.0786252,-0.62535155,0.00035274762,-0.028988495,0.00902232,0.0013364721,-0.014101081,0.0015555336,-0.005146106,0.5034713,-1.3806504,1.9032921,-2.0918562,-1.5704778,2.4787378,-0.04941547,0.024697036,-0.032045633,-0.0008499348,0.011524277,-0.04427048,-0.15322891,0.095768064,-9.423578,0.7553206,47.691364,-0.8772142,-2.581644,-3.281269,-0.21389332,0.14612529,-0.3117906,29.0,30.375,29.375,33.0625,35.5,36.5625
0.06805362,-0.584261,-0.28814858,-1.428373,-0.029001374,0.07070162,-0.18241954,-0.3902302,-0.36835626,0.059879653,3.078637,-0.6253534,0.00028808098,-0.029710254,0.009037285,0.0016084887,-0.014338069,0.0021429493,-0.005630685,0.50337523,-1.3805901,1.9032439,-2.091892,-1.5705136,2.4786415,-0.05005939,0.02516315,-0.03323969,-0.0007510187,0.01144796,-0.04442888,-0.2681506,0.076614454,-9.308656,0.7642693,47.72092,-0.886647,-2.478643,-3.2817197,-0.21269399,0.14100477,-0.3680262,29.0,30.375,29.375,33.0625,35.5,36.5625
0.070053935,-1.3711439,-0.11762803,-1.3161818,-0.025629774,0.069057494,-0.18099742,-0.39027593,-0.3683374,0.059881113,3.0786095,-0.625347,0.00032424348,-0.03107089,0.010001512,0.0014291372,-0.015286466,0.001345334,-0.005420607,0.50327826,-1.3805537,1.9031948,-2.09188,-1.5704774,2.478544,-0.053702455,0.026042294,-0.033869527,-0.0007599021,0.012662621,-0.04828351,-0.24899697,0.1340753,-9.270349,0.7933669,47.723602,-0.78425133,-2.585406,-3.292148,-0.2262635,0.1416761,-0.34327123,29.0,30.375,29.375,33.0625,35.5,36.5625
0.072053455,-1.1529142,-0.08707818,-1.3154039,-0.012339277,0.084815554,-0.18744117,-0.39036527,-0.36832207,0.05989797,3.0785344,-0.6253869,0.0002913425,-0.031291723,0.009613481,0.001522595,-0.015659288,0.0014986077,-0.00213778,0.5031466,-1.3804935,1.903088,-2.091892,-1.5704411,2.4784467,-0.053403296,0.026661148,-0.03481897,-0.0007400944,0.012917178,-0.05126634,-0.2873042,0.095768064,-9.251195,0.76874626,47.707485,-0.7561854,-2.5510364,-3.235021,-0.24839202,0.12956741,-0.35027534,29.0,30.375,29.375,33.0625,35.5,36.5625
0.0740538,-1.8842578,-0.20699018,-1.48017,-0.00068197557,0.069184385,-0.16609423,-0.39041352,-0.3683194,0.059907462,3.0785112,-0.6253216,0.0003135748,-0.032022655,0.009467511,0.0013629126,-0.01612446,0.0012518201,0.0023054436,0.50307447,-1.3804449,1.9030036,-2.0918686,-1.5704049,2.4783368,-0.05416019,0.028173419,-0.036217276,-0.0008597231,0.013441573,-0.056466255,-0.4213795,0.019153614,-9.404425,0.7284641,47.71017,-0.90828127,-2.5297127,-3.2654932,-0.23647827,0.12020906,-0.30643886,29.0,30.375,29.375,33.0625,35.5,36.5625
0.07605419,-1.3963919,0.06359271,-1.3895634,-0.0020280248,0.083675355,-0.18222253,-0.39047354,-0.36829898,0.059882063,3.0784907,-0.62527996,0.00037833047,-0.033241753,0.009962336,0.0015617838,-0.016462393,0.001785143,0.0010751372,0.5029541,-1.3803484,1.9029554,-2.091904,-1.5703567,2.478193,-0.0561431,0.02878356,-0.037376136,-0.0009366948,0.013478187,-0.05721852,-0.47884035,0.095768064,-9.346964,0.779936,47.704796,-0.86929053,-2.5521007,-3.230713,-0.23842639,0.11603138,-0.30710423,29.0,30.375,29.375,33.0625,35.5,36.5625
0.0780538,-1.5368927,0.03882097,-1.3407308,0.00092497084,0.079898424,-0.17793763,-0.39054576,-0.36827156,0.05990419,3.0784397,-0.625365,0.00034659763,-0.035045784,0.010801409,0.0015794131,-0.017302265,0.0025806925,0.0012408738,0.5028333,-1.3803241,1.902871,-2.0918806,-1.5703448,2.4781318,-0.05944468,0.029715497,-0.038257424,-0.002086907,0.013829393,-0.060685232,-0.5554548,-0.05746084,-9.423578,0.7978386,47.690468,-0.7910478,-2.5322227,-3.2701092,-0.24828385,0.09132466,-0.2984239,29.0,30.375,29.375,33.0625,35.5,36.5625
0.08005352,-1.4072516,-0.3137702,-1.5107472,0.0016203144,0.080437765,-0.17634973,-0.39060894,-0.36826327,0.059888776,3.0784292,-0.625243,0.00037113726,-0.03504663,0.010224543,0.0015472049,-0.017245052,0.0033760036,0.0072605563,0.5027379,-1.3802279,1.9028004,-2.0919168,-1.5703086,2.4779615,-0.058195133,0.030339438,-0.03874276,-0.0028878623,0.013394863,-0.06545422,-0.49799395,-0.05746084,-9.385271,0.7642693,47.731667,-0.83426726,-2.5155,-3.2312927,-0.22922793,0.081963,-0.24430212,29.0,30.375,29.375,33.0625,35.5,36.5625
0.08205411,-1.6660362,-0.56597763,-1.4551702,0.0051151924,0.07485816,-0.16777037,-0.39069027,-0.36823565,0.05991832,3.0783577,-0.62526584,0.00033550008,-0.036183987,0.010665918,0.0019552214,-0.016603053,0.004567237,0.009943387,0.5025937,-1.3802158,1.902716,-2.0919044,-1.5702733,2.4778407,-0.05927842,0.03079701,-0.040295534,-0.0025173097,0.012261743,-0.0692173,-0.47884035,-0.095768064,-9.385271,0.7284641,47.674347,-0.9632771,-2.5045738,-3.2453995,-0.24151139,0.10517849,-0.21229938,29.0,30.375,29.375,33.0625,35.5,36.5625
0.08405382,-1.6290925,-0.26395166,-1.5632192,0.0076983008,0.07435612,-0.16904008,-0.39077047,-0.3682067,0.05992532,3.078371,-0.62517095,0.0002675562,-0.037116744,0.011441775,0.0017924906,-0.016399303,0.004179207,0.0112694595,0.5024852,-1.3801554,1.9026316,-2.0919168,-1.5702971,2.4776714,-0.061449125,0.03158647,-0.04092356,-0.00223949,0.012273578,-0.0727133,-0.51714754,0.0,-9.3661175,0.7329411,47.70659,-0.9088243,-2.5605636,-3.1811209,-0.24783161,0.08642325,-0.1596549,29.0,30.375,29.375,33.0625,35.5,36.5625
0.08605398,-1.8544456,-0.07417215,-1.7671185,0.004715646,0.061971143,-0.17550059,-0.39082825,-0.36818781,0.05989819,3.0783799,-0.62515193,0.00036359142,-0.037389956,0.011728775,0.0012220411,-0.015602766,0.0031930935,0.01341898,0.50237733,-1.3800348,1.9025477,-2.091904,-1.5702614,2.4775505,-0.062037464,0.033066913,-0.041448317,-0.0019413944,0.012047643,-0.075451046,-0.4213795,-0.019153614,-9.481039,0.784413,47.71554,-0.9545412,-2.4897964,-3.1702223,-0.2619522,0.079125926,-0.14601634,29.0,30.375,29.375,33.0625,35.5,36.5625
0.08805375,-1.0983703,-0.1771221,-1.5741756,-0.00075826235,0.07676483,-0.17343955,-0.3909058,-0.36816826,0.059919216,3.0783281,-0.62508255,0.00030368415,-0.03787908,0.0120998295,0.0005179736,-0.014990733,0.0021464883,0.014336681,0.50225717,-1.3800101,1.9024762,-2.0919278,-1.570237,2.4773936,-0.063089505,0.03488234,-0.041978013,-0.0020108277,0.012020562,-0.07741939,-0.34476504,-0.076614454,-9.461885,0.7732232,47.716442,-0.9745312,-2.5148623,-3.2231574,-0.280487,0.08930354,-0.098218575,29.0,30.375,29.375,33.0625,35.5,36.5625
0.09005357,-1.1492454,0.110406175,-1.5314679,-0.01821112,0.07092133,-0.16972901,-0.39099503,-0.36814517,0.059922934,3.0783014,-0.625,0.00031068275,-0.03861221,0.012469991,0.00016722966,-0.014366025,0.0025988326,0.014526581,0.50211334,-1.3799257,1.902368,-2.0919282,-1.5702018,2.4772017,-0.06390426,0.036037195,-0.04235125,-0.0028805037,0.011255746,-0.078422345,-0.2681506,-0.076614454,-9.346964,0.78888994,47.719128,-1.0566585,-2.5383353,-3.3330336,-0.28095922,0.09842391,-0.0834941,29.0,30.375,29.375,33.0625,35.5,36.5625
0.092054196,-1.1550722,-0.41447362,-1.6120131,-0.006986563,0.061306056,-0.1635638,-0.39109948,-0.3680755,0.059906133,3.078312,-0.62511694,0.00028668364,-0.041271456,0.01196812,0.0018891883,-0.016576208,0.007520539,0.012640744,0.50192124,-1.3798295,1.9022955,-2.0919416,-1.5702375,2.4770813,-0.06524064,0.035975054,-0.045767967,-0.00477891,0.010814438,-0.07787085,-0.21068975,0.05746084,-9.481039,0.7463667,47.703903,-1.0850512,-2.5781798,-3.2027092,-0.2599173,0.10478586,-0.05988434,29.0,30.375,29.375,33.0625,35.5,36.5625
0.09405369,-0.7792849,-0.44889987,-1.6818672,-0.013028213,0.060126677,-0.17202453,-0.39114824,-0.3680727,0.05990372,3.0783274,-0.62490934,0.00032536828,-0.04191369,0.012303191,0.0016752433,-0.016535675,0.0073856865,0.010769793,0.5018489,-1.3797572,1.9022125,-2.0919292,-1.5702018,2.4768775,-0.066411026,0.03685129,-0.046266243,-0.0050160163,0.010842928,-0.07716999,-0.15322891,0.076614454,-9.423578,0.77545905,47.71823,-1.1186826,-2.6463852,-3.176534,-0.26927188,0.10686463,-0.06542388,29.0,30.375,29.375,33.0625,35.5,36.5625
0.0960538,-0.5805853,-0.17851885,-1.6536189,-0.016965592,0.046186354,-0.1708609,-0.3912569,-0.36804715,0.059927277,3.078271,-0.6249178,0.00022640535,-0.04112108,0.013299288,7.142579e-05,-0.014589393,0.0039675646,0.0089417435,0.501705,-1.3796968,1.9020928,-2.0919526,-1.5702018,2.476746,-0.06730506,0.038325854,-0.04452718,-0.0042954287,0.010794056,-0.07623557,-0.22984336,0.15322891,-9.3661175,0.8179876,47.707485,-1.1917557,-2.5503454,-3.3300655,-0.28806174,0.11138575,-0.08811942,29.0,30.375,29.375,33.0625,35.5,36.5625
0.09805386,-0.74345064,-0.5627121,-1.6150473,-0.008535709,0.030114636,-0.16521154,-0.3913355,-0.36800846,0.059908785,3.0782387,-0.6249699,0.00030468643,-0.042668737,0.013053303,0.00069871976,-0.015740674,0.004823711,0.0061311936,0.50153685,-1.3795999,1.9020203,-2.0919526,-1.5701536,2.4766145,-0.06868412,0.03958837,-0.047556635,-0.0038301507,0.011386019,-0.074803725,-0.19153613,0.095768064,-9.385271,0.7911258,47.693153,-1.1485528,-2.646658,-3.279962,-0.29438758,0.123202085,-0.0881484,29.0,30.375,29.375,33.0625,35.5,36.5625
0.100053884,-0.3318037,-0.3351514,-1.7885404,-0.017673071,0.03805759,-0.17073995,-0.39142403,-0.36799017,0.059911743,3.0782292,-0.6248922,0.00028782917,-0.044064377,0.013403074,0.0013636866,-0.01639088,0.006161965,0.0023098767,0.50141644,-1.3795041,1.9019002,-2.0919526,-1.5701417,2.4764469,-0.070507474,0.03966246,-0.049173184,-0.0037723025,0.011312309,-0.07280474,-0.095768064,0.19153613,-9.385271,0.8314132,47.719128,-1.1534655,-2.562483,-3.2758327,-0.29871297,0.11705278,-0.12865645,29.0,30.375,29.375,33.0625,35.5,36.5625
0.1020535,-0.14277154,-0.9981945,-1.6831561,-0.018911427,0.042652708,-0.15866193,-0.3915036,-0.36795917,0.059916116,3.0781815,-0.62490225,0.0003222181,-0.04559837,0.013510445,0.0014813279,-0.016585547,0.007204138,-0.0002099559,0.5012604,-1.3794434,1.9018158,-2.091941,-1.5700935,2.476303,-0.07189001,0.041335687,-0.051297482,-0.0043229116,0.010978981,-0.07166573,0.019153614,0.21068975,-9.442732,0.7217513,47.66808,-1.1882682,-2.561965,-3.0936017,-0.29316884,0.115783885,-0.14671662,29.0,30.375,29.375,33.0625,35.5,36.5625
0.1040541,0.018330937,-0.8127594,-1.7234987,-0.04051902,0.05104085,-0.167064,-0.391601,-0.3679227,0.059916418,3.0781643,-0.62491894,0.0002687573,-0.04552732,0.01424831,0.0007932136,-0.01669348,0.005543242,-0.0027078534,0.5011161,-1.3793592,1.9017209,-2.091965,-1.5701054,2.4761715,-0.073610075,0.0416115,-0.050029244,-0.0044651274,0.011878306,-0.07088905,-0.05746084,0.21068975,-9.461885,0.77545905,47.694946,-1.0956861,-2.589422,-3.2655287,-0.29213828,0.1217687,-0.19088173,29.0,30.375,29.375,33.0625,35.5,36.5625
0.10605365,-0.27574787,-1.0954729,-1.7827867,-0.04965532,0.054985162,-0.16706142,-0.39169505,-0.36788177,0.059912145,3.0781689,-0.624901,0.00027073506,-0.04636268,0.014404507,0.00072138145,-0.017017223,0.0051988945,-0.0047464436,0.50096,-1.3792627,1.9016136,-2.0919526,-1.5701054,2.4760036,-0.074911624,0.042836756,-0.05138162,-0.0041916594,0.012327031,-0.07015186,-0.11492168,0.30645782,-9.404425,0.8247004,47.70032,-1.1103009,-2.5205364,-3.2807827,-0.30383757,0.09997754,-0.22653675,29.0,30.375,29.375,33.0625,35.5,36.5625
0.10805414,-1.3348737,-1.5058517,-1.8722368,-0.035083573,0.03014748,-0.1584187,-0.3917728,-0.36790133,0.05995154,3.0780487,-0.62481797,0.00019832274,-0.04769781,0.014181022,0.0018364828,-0.018834004,0.0072137727,-0.0038335896,0.5008757,-1.3792387,1.9015039,-2.0919888,-1.570033,2.4758828,-0.07615087,0.0423398,-0.05327198,-0.0044388645,0.012958883,-0.07230243,-0.038307227,0.22984336,-9.346964,0.8157518,47.684196,-1.1375792,-2.5899677,-3.2116528,-0.3156709,0.12061806,-0.24242505,29.0,30.375,29.375,33.0625,35.5,36.5625
0.11005406,-0.34046078,-1.1620117,-1.8451905,-0.03068393,0.05317792,-0.16210954,-0.39185038,-0.3678362,0.0599059,3.0780606,-0.62493736,0.00035245,-0.04821271,0.014565251,0.00041177496,-0.018180458,0.004735155,-0.006099683,0.5006716,-1.3791057,1.9014448,-2.091965,-1.5699967,2.4757516,-0.07764152,0.045696534,-0.05397351,-0.004603458,0.013569236,-0.071528144,-0.11492168,0.22984336,-9.3661175,0.8023209,47.71554,-1.2209136,-2.5373573,-3.228251,-0.31887186,0.10577364,-0.25412276,29.0,30.375,29.375,33.0625,35.5,36.5625
0.112053685,0.059832107,-0.83991426,-1.6577361,-0.027336204,0.06739793,-0.16474298,-0.39196205,-0.36781403,0.05991599,3.0780015,-0.6249435,0.00030550588,-0.048425175,0.014183256,0.00050846976,-0.01909992,0.0049679307,-0.006565076,0.500516,-1.3790092,1.9013132,-2.0919893,-1.5699729,2.4756074,-0.07761045,0.04602378,-0.054477632,-0.0050711054,0.014268089,-0.07103136,-0.05746084,0.22984336,-9.385271,0.75755644,47.696735,-1.2380074,-2.6952794,-3.2478147,-0.32427192,0.1056102,-0.31228185,29.0,30.375,29.375,33.0625,35.5,36.5625
0.11405402,-0.19848715,-0.45455885,-1.6792741,-0.034729898,0.06602219,-0.16732144,-0.39207697,-0.36778304,0.05993719,3.0779393,-0.62491083,0.00026883685,-0.051040635,0.015338514,0.0020935389,-0.021121958,0.008191856,-0.0080015315,0.50033486,-1.378938,1.9011806,-2.0919893,-1.5699366,2.4754138,-0.08209554,0.04433902,-0.05594436,-0.005711697,0.014499074,-0.07407899,-0.17238252,0.22984336,-9.423578,0.7978386,47.716442,-1.20047,-2.4740086,-3.2778108,-0.32651436,0.10975616,-0.35213035,29.0,30.375,29.375,33.0625,35.5,36.5625
0.11605344,-1.726426,-0.95686024,-1.8275255,-0.017341148,0.029456342,-0.15320511,-0.39216706,-0.36775383,0.0599211,3.0778937,-0.6249602,0.00029159425,-0.05081596,0.014602737,0.0016508065,-0.020615837,0.007762586,-0.008965764,0.50018,-1.3788291,1.9010967,-2.0920255,-1.5699009,2.4752955,-0.08048449,0.046058394,-0.056958657,-0.0057936274,0.014260819,-0.07150262,-0.19153613,0.095768064,-9.442732,0.7732232,47.650166,-1.3111081,-2.522625,-3.2224107,-0.32521406,0.1237259,-0.37693256,29.0,30.375,29.375,33.0625,35.5,36.5625
0.1180539,-0.5799064,-0.80253494,-1.6724851,-0.0151705425,0.06727169,-0.1539165,-0.3922865,-0.3677203,0.059941996,3.0778873,-0.62497765,0.00019953732,-0.05210511,0.015334182,0.0014921463,-0.020503515,0.007847594,-0.010395759,0.50003535,-1.3787326,1.9009293,-2.0920012,-1.5699366,2.4751627,-0.082802184,0.04726659,-0.057986513,-0.005993998,0.01412495,-0.07238891,-0.24899697,0.17238252,-9.404425,0.75084364,47.678825,-1.3519721,-2.541529,-3.2116382,-0.3295833,0.10485566,-0.44702777,29.0,30.375,29.375,33.0625,35.5,36.5625
0.12005347,-0.81824005,-0.14698075,-1.7160621,-0.026834395,0.07075004,-0.16643712,-0.39237052,-0.36769888,0.059926752,3.077792,-0.6249965,0.00029565362,-0.05362226,0.01641169,0.00043412906,-0.019720478,0.0065441844,-0.010379,0.49985448,-1.3786355,1.9008573,-2.0920374,-1.5698289,2.4750056,-0.08596209,0.05030803,-0.05909374,-0.006395577,0.01406444,-0.07556441,-0.15322891,0.11492168,-9.32781,0.7709874,47.733456,-1.098387,-2.614951,-3.234251,-0.3238176,0.11951673,-0.46361125,29.0,30.375,29.375,33.0625,35.5,36.5625
0.12205386,-0.7958234,-0.08967822,-1.6630905,-0.01515897,0.07546168,-0.16168214,-0.3924845,-0.3676552,0.059924345,3.077781,-0.6249707,0.00026739927,-0.053826544,0.01579278,0.0014613149,-0.021324027,0.008062187,-0.0061000646,0.49967527,-1.3785279,1.9007381,-2.0920498,-1.5698284,2.4748118,-0.085512504,0.048999473,-0.05988513,-0.0063929367,0.014749381,-0.07939398,-0.26815057,0.076614454,-9.346964,0.76874626,47.70032,-1.3913426,-2.6435487,-3.272108,-0.31939214,0.123253375,-0.46841595,29.0,30.375,29.375,33.0625,35.5,36.5625
0.1240533,-1.5135337,-0.14735615,-1.5928657,-0.006878889,0.06968217,-0.1633966,-0.39259055,-0.36763835,0.0599317,3.077722,-0.62495583,0.00027246572,-0.05484327,0.016112525,0.0021321122,-0.02276047,0.008963083,-0.0011506232,0.49951896,-1.3784199,1.9005936,-2.0920498,-1.5697802,2.4746537,-0.087487474,0.048354708,-0.060632847,-0.006469847,0.015586369,-0.08631844,-0.40222588,0.076614454,-9.404425,0.7351769,47.6636,-1.3463006,-2.4616308,-3.2852333,-0.33941153,0.10336951,-0.45109656,29.0,30.375,29.375,33.0625,35.5,36.5625
0.12605345,-1.1427605,0.18209417,-1.6059299,-0.0023564883,0.07385673,-0.1702696,-0.39271107,-0.36760607,0.059949946,3.077668,-0.62486565,0.00019843498,-0.05586078,0.016646024,0.0015687398,-0.022436853,0.007894222,0.0011607108,0.49933848,-1.3783472,1.900474,-2.0920846,-1.5697564,2.474424,-0.08944911,0.050507575,-0.06196729,-0.0061868723,0.015824972,-0.0905895,-0.40222588,-0.1340753,-9.423578,0.78888994,47.682407,-1.3217237,-2.5168705,-3.273861,-0.3444269,0.12250112,-0.40626138,29.0,30.375,29.375,33.0625,35.5,36.5625
0.1280541,-1.5351939,0.38253912,-1.6445963,-0.00100097,0.068775006,-0.1651486,-0.392788,-0.36757588,0.05992804,3.0776596,-0.62488115,0.0002790149,-0.057358824,0.017637096,0.001399202,-0.022877157,0.008060772,0.004779949,0.4991938,-1.3782268,1.9003786,-2.0920737,-1.5697197,2.47429,-0.092673436,0.051404074,-0.06248478,-0.006911644,0.016132344,-0.09743351,-0.4405331,-0.095768064,-9.289503,0.7396539,47.66271,-1.3048122,-2.5002766,-3.2891767,-0.33937937,0.1352576,-0.40434742,29.0,30.375,29.375,33.0625,35.5,36.5625
0.13005345,-1.7855885,0.41543877,-1.6762322,-0.004964837,0.075511344,-0.16971992,-0.3929112,-0.36752445,0.059916813,3.0776472,-0.6248531,0.00030448567,-0.057235785,0.016988603,0.001426248,-0.023047436,0.008173549,0.013558468,0.49897867,-1.3780944,1.9002475,-2.0920737,-1.5696958,2.4740589,-0.0915059,0.052065615,-0.06334255,-0.006882788,0.016234368,-0.10504418,-0.36391866,-0.15322891,-9.308656,0.83589023,47.71554,-1.3296251,-2.5031898,-3.3267248,-0.34406435,0.10461233,-0.26745898,29.0,30.375,29.375,33.0625,35.5,36.5625
0.13205397,-1.6379226,0.0029338896,-1.7134416,0.0049895784,0.08606923,-0.16433226,-0.3930279,-0.36749178,0.059930734,3.077573,-0.62479806,0.000266035,-0.059129167,0.01794372,0.0017023862,-0.023544095,0.008983102,0.014953554,0.4987861,-1.3780221,1.9001383,-2.0921094,-1.5696477,2.4738414,-0.094869494,0.052822348,-0.06481973,-0.007097802,0.016293818,-0.10980102,-0.45968673,-0.19153613,-9.385271,0.7978386,47.70211,-1.3660808,-2.4715743,-3.2630284,-0.3561909,0.114155054,-0.2416496,29.0,30.375,29.375,33.0625,35.5,36.5625
0.13405333,-1.6849384,-0.050923258,-1.765712,0.009586108,0.095191725,-0.16310112,-0.3931502,-0.36743984,0.059914954,3.07761,-0.6247456,0.0002843213,-0.06076464,0.018753653,0.0019391959,-0.022984706,0.010052092,0.01678379,0.4985936,-1.3778657,1.8999833,-2.0920851,-1.5696601,2.4736116,-0.09708991,0.053777426,-0.06651685,-0.0070173894,0.01529128,-0.11385046,-0.5554548,-0.21068975,-9.442732,0.7732232,47.703903,-1.1051807,-2.4638402,-3.3445325,-0.35869694,0.14802271,-0.18972862,29.0,30.375,29.375,33.0625,35.5,36.5625
0.1360535,-1.1802722,0.37297666,-1.6137319,-0.0018711399,0.1061973,-0.17407195,-0.393291,-0.36740813,0.059937537,3.0775073,-0.62466586,0.00024300876,-0.061870974,0.018865023,0.0014177574,-0.023285635,0.00874143,0.016371785,0.49836567,-1.3777804,1.8998393,-2.0921214,-1.5695881,2.473347,-0.09882599,0.05650512,-0.06866341,-0.006581219,0.016194709,-0.11517252,-0.47884035,-0.076614454,-9.442732,0.7911258,47.675243,-1.3041983,-2.5785332,-3.1743796,-0.37818888,0.124457896,-0.14968829,29.0,30.375,29.375,33.0625,35.5,36.5625
0.13805327,-1.212429,0.4375489,-1.7028592,-0.012898851,0.09886273,-0.16515087,-0.3934125,-0.36737168,0.059942704,3.077493,-0.6246082,0.00022589767,-0.06314121,0.020287162,0.0020777672,-0.02407463,0.0098457355,0.011940643,0.4981847,-1.3776611,1.8996834,-2.0921094,-1.5695757,2.473132,-0.102465376,0.054813687,-0.068120934,-0.0067764632,0.016366484,-0.11438098,-0.5554548,-0.019153614,-9.442732,0.8090337,47.698532,-1.1914618,-2.4694388,-3.308309,-0.38893276,0.15842992,-0.15450603,29.0,30.375,29.375,33.0625,35.5,36.5625
0.1400532,-1.3836442,-0.05778963,-1.7371085,-0.009103141,0.0946591,-0.15811583,-0.39354464,-0.3673306,0.05995337,3.077429,-0.6245783,0.00024446502,-0.06481035,0.020280013,0.0027065119,-0.02533379,0.010949414,0.0059987768,0.4979566,-1.3775526,1.8995279,-2.0920975,-1.5695156,2.4728932,-0.10431672,0.055783432,-0.07071626,-0.0067182854,0.016945379,-0.110289104,-0.6703765,-0.076614454,-9.404425,0.800085,47.690468,-1.119568,-2.4871075,-3.2586036,-0.39151466,0.14660507,-0.17733565,29.0,30.375,29.375,33.0625,35.5,36.5625
0.1420537,-1.7142276,-0.030222083,-1.819304,-0.016083429,0.083348036,-0.16332398,-0.39369333,-0.36726895,0.059967354,3.0773723,-0.62466556,0.00017342993,-0.06673434,0.021425216,0.0021815214,-0.02443117,0.010466947,-0.0018338283,0.497716,-1.3774556,1.8993839,-2.0921094,-1.5695156,2.4727144,-0.10763122,0.058451552,-0.07273618,-0.006510825,0.016386544,-0.105768465,-0.5554548,-0.05746084,-9.615114,0.7620334,47.664497,-1.0260503,-2.4842072,-3.1386447,-0.3943046,0.15783466,-0.23343965,29.0,30.375,29.375,33.0625,35.5,36.5625
0.14405423,-1.3552991,-0.5760214,-1.8918391,-0.018897373,0.098391496,-0.15692112,-0.39380386,-0.36723518,0.059943184,3.0773385,-0.62458366,0.0001676979,-0.066870496,0.0230556,0.0008692804,-0.022736318,0.0084366845,-0.0065956702,0.49753562,-1.3773232,1.8993009,-2.0921934,-1.5694803,2.4724872,-0.11015327,0.059433445,-0.07086679,-0.0067632236,0.015875015,-0.10352841,-0.63206923,0.019153614,-9.576807,0.74413085,47.691364,-0.9373246,-2.541198,-3.342229,-0.3864146,0.18772596,-0.28187716,29.0,30.375,29.375,33.0625,35.5,36.5625
0.1460535,-1.8698214,-0.36601081,-1.7282598,-0.042013016,0.09371194,-0.15996823,-0.39395082,-0.36718044,0.059951432,3.077311,-0.6246354,0.00013922491,-0.06845351,0.02243031,0.0028146855,-0.025796892,0.0115268165,-0.007440797,0.49730778,-1.3771915,1.8991207,-2.092169,-1.5694793,2.4722953,-0.11127476,0.057964213,-0.07354706,-0.0067900014,0.017091705,-0.10380424,-0.7086837,0.038307227,-9.576807,0.7933669,47.687782,-0.90288544,-2.3673408,-3.243078,-0.39413095,0.18543056,-0.30431035,29.0,30.375,29.375,33.0625,35.5,36.5625
0.14805353,-2.0605912,-0.967008,-1.8104694,-0.025451865,0.09829654,-0.15499665,-0.39407143,-0.36713436,0.05993845,3.0772374,-0.62463903,0.0002094497,-0.06945899,0.023092058,0.0020368327,-0.024814112,0.01064902,-0.008206205,0.49706757,-1.3770705,1.8990124,-2.0921934,-1.5693959,2.4720666,-0.11300527,0.06038915,-0.07464271,-0.0068633817,0.01665132,-0.10476811,-0.6703765,0.1340753,-9.615114,0.8605109,47.698532,-0.8955095,-2.468099,-3.187539,-0.40183014,0.19124286,-0.32707995,29.0,30.375,29.375,33.0625,35.5,36.5625
0.15005332,-1.1762167,-0.21598832,-1.7767506,-0.02861405,0.11915766,-0.1701953,-0.3942261,-0.36708364,0.059954822,3.0771956,-0.6246487,0.00013813013,-0.07002498,0.02286083,0.0022692254,-0.026044788,0.01106283,-0.008569613,0.49683988,-1.3769504,1.8988327,-2.0921934,-1.5693954,2.4718504,-0.11365144,0.06070527,-0.075445324,-0.007326282,0.017544461,-0.10504992,-0.8619126,0.076614454,-9.595961,0.8291774,47.711964,-0.9519414,-2.4011624,-3.2505102,-0.40558404,0.20137608,-0.35296637,29.0,30.375,29.375,33.0625,35.5,36.5625
0.15205386,-1.6379256,-0.39799234,-1.7952133,-0.017689435,0.10171231,-0.15721743,-0.394366,-0.3670583,0.059959244,3.0771012,-0.6246863,0.00015510338,-0.07065485,0.022645047,0.0023688518,-0.027059283,0.011331977,-0.007714551,0.4966241,-1.376806,1.8986543,-2.0922058,-1.5693234,2.4716702,-0.11430723,0.061418336,-0.0764215,-0.0077725104,0.018316163,-0.1065598,-0.45968673,0.038307227,-9.481039,0.7933669,47.677036,-0.9651333,-2.4469068,-3.254148,-0.4106835,0.20457509,-0.3569971,29.0,30.375,29.375,33.0625,35.5,36.5625
0.154054,-1.042351,-0.015725367,-1.7332388,-0.013704384,0.08994893,-0.16162336,-0.39449605,-0.36700013,0.059933092,3.077074,-0.62471867,0.00020590101,-0.07140762,0.022685181,0.0022785251,-0.027357858,0.011831855,-0.009100691,0.4963844,-1.3766495,1.8985337,-2.0922296,-1.5692872,2.4714541,-0.115045086,0.062391683,-0.077205904,-0.0085359095,0.01834066,-0.10591123,-0.2681506,0.13407528,-9.519346,0.8157518,47.705692,-1.0068074,-2.3687944,-3.2015917,-0.41689298,0.2180545,-0.4102213,29.0,30.375,29.375,33.0625,35.5,36.5625
0.15605414,-0.7985979,0.016910443,-1.8603392,-0.014346072,0.0679112,-0.16154258,-0.39465177,-0.36695516,0.059955154,3.0769942,-0.62465966,0.00012623008,-0.07345031,0.023625892,0.002683894,-0.028775588,0.013079947,-0.006069254,0.49614352,-1.3765532,1.8983778,-2.0922663,-1.569251,2.4711866,-0.118873574,0.06270078,-0.07826804,-0.009539516,0.019012121,-0.112769105,-0.2681506,0.17238252,-9.423578,0.8224646,47.65912,-1.0081693,-2.4192786,-3.194149,-0.40653807,0.21706349,-0.4032637,29.0,30.375,29.375,33.0625,35.5,36.5625
0.15805364,-0.056987572,-0.38416874,-1.8436317,-0.013780877,0.06339657,-0.16516101,-0.39480737,-0.36689982,0.059987415,3.0769176,-0.6247163,6.4941676e-05,-0.07369216,0.022045167,0.0030756223,-0.028919596,0.01445331,0.00089576753,0.49589306,-1.3764684,1.8981985,-2.0922425,-1.5692271,2.4709814,-0.11607485,0.06441012,-0.081173904,-0.009603899,0.018498013,-0.11693252,-0.19153613,0.13407528,-9.423578,0.842603,47.703007,-1.1812435,-2.4259055,-3.2512524,-0.39133152,0.24094643,-0.36151254,29.0,30.375,29.375,33.0625,35.5,36.5625
0.16005333,-0.154021,0.34935448,-1.6468865,-0.030911112,0.048728164,-0.16462573,-0.39492995,-0.36683175,0.059930816,3.0769491,-0.62470156,0.00017606272,-0.074963205,0.024672536,0.0021722342,-0.027671268,0.012431618,0.0031659158,0.49565142,-1.3762642,1.8980902,-2.0922658,-1.5692033,2.4707265,-0.12154512,0.06504971,-0.08003281,-0.008993038,0.018371847,-0.12467469,-0.05746084,0.095768064,-9.461885,0.7642693,47.690468,-0.8999111,-2.4305594,-3.2093148,-0.4113079,0.25311923,-0.30228096,29.0,30.375,29.375,33.0625,35.5,36.5625
0.16205357,0.33783174,0.059695918,-1.7452776,-0.023178983,0.050490223,-0.16826028,-0.3951007,-0.3668102,0.05996625,3.0768557,-0.62459975,5.525693e-05,-0.075140335,0.024119545,0.0023017183,-0.0287899,0.012535581,0.010793593,0.4954364,-1.3761439,1.8978752,-2.0923016,-1.569167,2.47046,-0.12132694,0.065533385,-0.08083924,-0.0092771305,0.019334763,-0.13208164,-0.038307227,0.076614454,-9.461885,0.7463667,47.690468,-1.0450423,-2.3025942,-3.301592,-0.4207,0.27258667,-0.22314742,29.0,30.375,29.375,33.0625,35.5,36.5625
0.16405338,-0.3858791,-0.60992664,-1.8692906,-0.012501901,0.036214825,-0.16276221,-0.3952706,-0.3667528,0.059979014,3.0768068,-0.62460613,-3.2408752e-05,-0.077592306,0.023404568,0.0037523531,-0.031020114,0.015429724,0.014624831,0.4951845,-1.3760114,1.8976945,-2.092326,-1.569167,2.4702184,-0.12269109,0.066686094,-0.08548549,-0.009379141,0.019934053,-0.13727373,0.038307227,0.11492168,-9.308656,0.7239871,47.72092,-1.0190895,-2.410307,-3.1220508,-0.41692266,0.27441156,-0.13651296,29.0,30.375,29.375,33.0625,35.5,36.5625
0.16605414,0.07619842,-0.4844409,-1.8080826,-0.016151695,0.04565941,-0.15864545,-0.39542797,-0.36672512,0.059984844,3.0767512,-0.6244196,-5.601815e-05,-0.07733603,0.024726082,0.0023212472,-0.029965427,0.012581676,0.015559822,0.49495646,-1.3758548,1.8975037,-2.0923617,-1.5691065,2.469881,-0.12491213,0.06773448,-0.08347733,-0.009412112,0.020383444,-0.1404291,0.05746084,0.17238252,-9.3661175,0.7978386,47.721813,-1.0853753,-2.3923483,-3.3044581,-0.41807953,0.2741967,-0.10491569,29.0,30.375,29.375,33.0625,35.5,36.5625
0.16805461,-0.47631544,-0.6742223,-1.878541,-0.012937142,0.031906847,-0.16076049,-0.3955503,-0.36665305,0.059970822,3.0767262,-0.62447405,3.7132057e-05,-0.077475466,0.023348881,0.002620838,-0.031204013,0.012754212,0.013182744,0.49469328,-1.3757343,1.8973845,-2.092326,-1.5690578,2.469655,-0.12330686,0.06910779,-0.08585477,-0.009145913,0.021383127,-0.1364465,0.11492168,0.1340753,-9.346964,0.8179876,47.71286,-1.0952677,-2.3773348,-3.2739549,-0.4157063,0.2804153,-0.08929044,29.0,30.375,29.375,33.0625,35.5,36.5625
0.17005387,0.06402112,-0.2791389,-1.8550422,-0.029525606,0.040644225,-0.16210783,-0.39573875,-0.36662507,0.05998982,3.0766456,-0.6244239,-4.183446e-05,-0.07937769,0.025077842,0.0026386532,-0.032067858,0.0125527745,0.0034542826,0.49445194,-1.375554,1.8971328,-2.0923498,-1.569022,2.4693928,-0.12843363,0.06932916,-0.0861236,-0.00933191,0.022250695,-0.13184269,0.019153614,0.17238252,-9.385271,0.78888994,47.741516,-1.0469645,-2.4027662,-3.2056293,-0.41622132,0.2950536,-0.13647772,29.0,30.375,29.375,33.0625,35.5,36.5625
0.17205371,-0.05473126,-0.8356297,-1.701383,-0.033008117,0.032202307,-0.15080659,-0.39585382,-0.366542,0.059958458,3.0766366,-0.6244414,6.523571e-05,-0.078396834,0.02424301,0.001720953,-0.031437848,0.010336503,0.0006738468,0.4941774,-1.3754333,1.8970608,-2.0923493,-1.5689739,2.4691303,-0.12640482,0.07136971,-0.08663237,-0.00861143,0.022741836,-0.12703413,-0.019153614,0.2681506,-9.346964,0.75084364,47.66808,-1.1528829,-2.344176,-3.2982695,-0.42496568,0.29925936,-0.21888267,29.0,30.375,29.375,33.0625,35.5,36.5625
0.17405409,-0.49372095,-1.1363322,-1.8769425,-0.035453286,0.020444397,-0.15128224,-0.3960293,-0.36650094,0.059987407,3.0765376,-0.62444144,-2.719741e-05,-0.07903339,0.024659168,0.0017029048,-0.03157851,0.010289477,-0.004346835,0.4939255,-1.3753128,1.8968576,-2.0923736,-1.5689372,2.4688911,-0.12773167,0.07180511,-0.08711996,-0.008581212,0.022901064,-0.123337634,-0.05746084,0.2681506,-9.346964,0.7530795,47.67345,-1.2294904,-2.424829,-3.3270025,-0.4407298,0.3094191,-0.27870238,29.0,30.375,29.375,33.0625,35.5,36.5625
0.17605363,0.37495652,-0.74631524,-1.8344558,-0.046711456,0.05030923,-0.15987675,-0.3961901,-0.3664531,0.059989884,3.0764775,-0.6243923,-9.208257e-06,-0.08040701,0.025213264,0.0017328111,-0.03214163,0.010542593,-0.008956552,0.49366122,-1.3751564,1.8966664,-2.0923736,-1.5688771,2.4686038,-0.13010086,0.072869584,-0.088399075,-0.008848292,0.023280762,-0.121095635,-0.076614454,0.21068975,-9.404425,0.842603,47.684196,-1.1360967,-2.3248103,-3.350957,-0.45005944,0.31687826,-0.3496341,29.0,30.375,29.375,33.0625,35.5,36.5625
0.17805406,0.28960103,-0.6454636,-1.8106796,-0.045378983,0.052761134,-0.16298154,-0.3963465,-0.36641744,0.05999074,3.0763955,-0.6243752,-1.9515388e-05,-0.08098851,0.025196351,0.0020650786,-0.033218604,0.010502374,-0.01149416,0.49342152,-1.3750002,1.8964871,-2.092409,-1.568817,2.468364,-0.13115843,0.073029086,-0.089445904,-0.008429125,0.024257572,-0.11961376,-0.17238252,0.24899697,-9.442732,0.79560274,47.661808,-1.2026544,-2.424843,-3.3130023,-0.4498687,0.3119275,-0.39517814,29.0,30.375,29.375,33.0625,35.5,36.5625
0.18005393,-0.18089917,-0.7582322,-1.9085584,-0.03751503,0.05067878,-0.1534599,-0.39648083,-0.36635908,0.05997911,3.0763972,-0.62439567,2.1648313e-05,-0.08141678,0.025688123,0.00052499445,-0.032899857,0.0072876127,-0.014472578,0.4931934,-1.374843,1.8963188,-2.0923736,-1.5688046,2.4681485,-0.13310611,0.07642039,-0.09002229,-0.008260966,0.025499122,-0.11858276,-0.1340753,0.24899697,-9.3661175,0.88289046,47.703007,-1.1677151,-2.3762248,-3.3388114,-0.45504224,0.31484458,-0.4678654,29.0,30.375,29.375,33.0625,35.5,36.5625
0.18205369,-0.43435708,-1.131263,-1.7462091,-0.025913298,0.06595118,-0.15346989,-0.39667302,-0.3663212,0.06000076,3.0762694,-0.6243674,-7.670064e-05,-0.08317153,0.025278065,0.0025699763,-0.03630181,0.011069611,-0.013939472,0.49291733,-1.3746995,1.8961157,-2.0924456,-1.5687441,2.4678712,-0.13470946,0.07437661,-0.09205009,-0.009116973,0.02672531,-0.1207151,-0.1340753,0.24899697,-9.3661175,0.7866488,47.69763,-1.1695629,-2.4285007,-3.3453863,-0.47159773,0.3165451,-0.48919865,29.0,30.375,29.375,33.0625,35.5,36.5625
0.18405315,-0.53993136,-0.77507216,-1.8174562,-0.026465919,0.07596604,-0.15763128,-0.39684245,-0.36627245,0.059996415,3.076173,-0.6244414,-2.1124006e-05,-0.08413524,0.025753517,0.0028908397,-0.03734544,0.01112968,-0.01170287,0.4926293,-1.3745193,1.8959116,-2.0924451,-1.5686601,2.4676416,-0.13689089,0.0744199,-0.09290514,-0.008828094,0.027633399,-0.12513202,-0.21068975,0.1340753,-9.442732,0.7665104,47.69763,-1.0829054,-2.227849,-3.2790494,-0.45707065,0.30286884,-0.48831934,29.0,30.375,29.375,33.0625,35.5,36.5625
0.18605332,-0.49154523,-0.05167284,-1.7065742,-0.034632567,0.09379883,-0.17027101,-0.3970221,-0.3662231,0.06002293,3.0760446,-0.6245061,-0.0001151974,-0.08486199,0.026400596,0.000485772,-0.035823572,0.006993042,-0.0048205634,0.49235302,-1.3744093,1.8957318,-2.0924933,-1.5686115,2.4674222,-0.13898708,0.080062605,-0.0941475,-0.008833485,0.028283808,-0.13410573,-0.095768064,0.19153613,-9.3661175,0.89631605,47.684196,-1.0806668,-2.2803285,-3.4372473,-0.45623678,0.30573413,-0.44837785,29.0,30.375,29.375,33.0625,35.5,36.5625
0.18805407,-1.1621048,-0.21103513,-1.5979912,-0.027241856,0.08669425,-0.1580464,-0.3971433,-0.3661506,0.059978597,3.076056,-0.624445,5.934144e-05,-0.08645753,0.027703045,0.0011622088,-0.036903642,0.008365322,0.0037362315,0.49207634,-1.3742296,1.8956136,-2.0924695,-1.5685395,2.4671059,-0.14277925,0.07888947,-0.094201185,-0.009283218,0.028602788,-0.14645723,-0.36391866,0.15322891,-9.289502,0.8851263,47.71286,-1.0075266,-2.2166371,-3.2410321,-0.46464822,0.3096622,-0.35650325,29.0,30.375,29.375,33.0625,35.5,36.5625
0.19005348,-1.2083471,0.3355651,-1.5557443,-0.023710862,0.0995399,-0.16706806,-0.3973432,-0.36610585,0.060004465,3.075954,-0.6244175,-2.1813847e-05,-0.085505374,0.026637087,-0.00033140066,-0.036010887,0.0059955404,0.01360626,0.49178997,-1.3740721,1.8953732,-2.0924933,-1.5684913,2.4668155,-0.14028682,0.082231514,-0.09472459,-0.009560993,0.028969485,-0.15383098,-0.40222588,-0.05746084,-9.289502,0.7978386,47.73256,-1.1891774,-2.3500857,-3.4100769,-0.47164387,0.30316916,-0.24974054,29.0,30.375,29.375,33.0625,35.5,36.5625
0.19205406,-1.550231,0.22981301,-1.6404945,-0.0027350811,0.09920745,-0.16680011,-0.3975024,-0.36605644,0.060011555,3.0758834,-0.6243429,-3.4437136e-05,-0.0881205,0.026615532,0.001002611,-0.0376142,0.008687695,0.016694415,0.49152562,-1.3739396,1.8952054,-2.0925171,-1.5684317,2.4665136,-0.14266518,0.08312525,-0.09885368,-0.009427039,0.029129136,-0.15929404,-0.40222588,-0.095768064,-9.32781,0.7866488,47.70211,-1.1164935,-2.4278398,-3.2684808,-0.478633,0.30095384,-0.19706026,29.0,30.375,29.375,33.0625,35.5,36.5625
0.19405374,-1.7807494,0.13618888,-1.4802597,-0.0014255061,0.09923949,-0.16007169,-0.39769682,-0.36600542,0.06000152,3.075839,-0.62417835,-3.0047833e-05,-0.08780742,0.027048875,0.00026322485,-0.037645567,0.0073412852,0.017879814,0.49122617,-1.3737233,1.8949794,-2.0925534,-1.5683712,2.4661171,-0.14346752,0.08348966,-0.09750268,-0.0099494485,0.029812407,-0.16128062,-0.7086837,-0.076614454,-9.289502,0.8224646,47.72002,-1.3266445,-2.332203,-3.3860786,-0.47884527,0.31698927,-0.17119506,29.0,30.375,29.375,33.0625,35.5,36.5625
0.1960535,-1.335053,0.18491825,-1.4910799,0.0036874183,0.112154245,-0.15702538,-0.39787468,-0.3659403,0.060002625,3.075786,-0.62417114,-1.2909146e-05,-0.08997909,0.027298132,0.0005315745,-0.038642008,0.008325945,0.008251604,0.49092582,-1.3735547,1.8947738,-2.0925415,-1.568323,2.4658191,-0.14604183,0.08554523,-0.10046808,-0.010379378,0.0302167,-0.15422426,-0.7278373,-0.076614454,-9.251195,0.9254084,47.693153,-1.2359533,-2.304782,-3.3079088,-0.48680568,0.3070948,-0.17928539,29.0,30.375,29.375,33.0625,35.5,36.5625
0.1980541,-1.3987597,0.43242186,-1.6071655,0.010232983,0.10359316,-0.15352684,-0.3980592,-0.3659084,0.060027316,3.075679,-0.6241159,-5.5805303e-05,-0.09191222,0.028570605,0.0012115968,-0.039010786,0.009365882,-0.00039926835,0.4906607,-1.3733984,1.894535,-2.0925534,-1.568251,2.4655333,-0.14976725,0.085408,-0.10198859,-0.009805063,0.030061005,-0.1492956,-0.68953013,-0.11492168,-9.346964,0.8291774,47.690468,-1.0250063,-2.357157,-3.2472436,-0.4809503,0.29422927,-0.24213937,29.0,30.375,29.375,33.0625,35.5,36.5625
0.20005362,-1.568276,0.10260881,-1.3002486,0.011329416,0.101175584,-0.15550746,-0.3982188,-0.36584878,0.060003404,3.075587,-0.62407696,2.203015e-05,-0.09314296,0.028545786,0.001980983,-0.039422438,0.011479719,-0.0036472084,0.49034974,-1.37323,1.8944029,-2.0926135,-1.5681437,2.4652097,-0.1503863,0.08549882,-0.103778094,-0.010144046,0.029430179,-0.14666574,-0.7661445,-0.038307227,-9.346964,0.7866488,47.723602,-1.2768486,-2.3141923,-3.2778332,-0.48883277,0.33408955,-0.30785322,29.0,30.375,29.375,33.0625,35.5,36.5625
0.20205389,-1.188215,0.36233863,-1.3197049,-0.0029765044,0.11323886,-0.16494486,-0.3984109,-0.36577138,0.0599907,3.0755522,-0.6241652,2.1888589e-05,-0.09284814,0.028949603,-0.0002847487,-0.037871312,0.0072035324,-0.004749601,0.49003807,-1.3730245,1.8941873,-2.0926135,-1.5681309,2.4649577,-0.15114008,0.08973901,-0.10374518,-0.009906359,0.030084498,-0.14631581,-0.80445176,-0.11492168,-9.270349,0.8627467,47.717335,-1.2292081,-2.450951,-3.3502498,-0.4803546,0.31436145,-0.33535963,29.0,30.375,29.375,33.0625,35.5,36.5625
0.2040535,-1.8961449,0.3579847,-1.4687669,-0.003258481,0.112965114,-0.15773518,-0.39860344,-0.36570618,0.059998397,3.0754511,-0.6242605,7.727271e-05,-0.09374323,0.02876525,0.0013530104,-0.040163994,0.009195553,-0.006251544,0.4897024,-1.372845,1.8939484,-2.0925772,-1.5680465,2.4646945,-0.15224282,0.08770635,-0.10521142,-0.009226361,0.031179754,-0.14591506,-0.8236054,-0.11492168,-9.193734,0.83365434,47.72002,-1.2204427,-2.3164546,-3.1406827,-0.50397736,0.30946344,-0.36078894,29.0,30.375,29.375,33.0625,35.5,36.5625
0.20605403,-1.1156464,0.24582493,-1.3704722,-0.0030042036,0.13859901,-0.16807246,-0.39881185,-0.36564755,0.060004376,3.0753438,-0.62425464,2.2870978e-05,-0.09419554,0.029234126,-0.00010018263,-0.039026078,0.006594685,-0.0052531054,0.48937872,-1.3726637,1.8937329,-2.0926368,-1.5679864,2.464381,-0.15351681,0.09119263,-0.10613734,-0.008931997,0.031424135,-0.1481836,-0.7278373,-0.076614454,-9.251195,0.84484416,47.709274,-1.2188354,-2.3890562,-3.359747,-0.5021696,0.31641302,-0.39151797,29.0,30.375,29.375,33.0625,35.5,36.5625
0.2080537,-2.1109865,-0.21986328,-1.4239955,0.006540065,0.11118003,-0.1542092,-0.39899188,-0.36558163,0.059987362,3.0753052,-0.62424207,3.2126427e-06,-0.09528374,0.029113961,0.00011713011,-0.038891844,0.007624384,0.00034902254,0.48909113,-1.372471,1.8935531,-2.0926845,-1.567963,2.4640906,-0.15387167,0.0925756,-0.108279645,-0.008987476,0.03084263,-0.15413901,-0.5746084,-0.076614454,-9.308656,0.7597976,47.709274,-1.2729027,-2.4540417,-3.0906875,-0.51794964,0.3106136,-0.35563302,29.0,30.375,29.375,33.0625,35.5,36.5625
0.21005319,-1.4074132,0.08393373,-1.5322661,-0.00580528,0.10942612,-0.16175665,-0.39920047,-0.36551738,0.06000448,3.07518,-0.62430584,4.4292398e-07,-0.096176,0.029804435,-0.0005134126,-0.038155224,0.0066565913,0.008411738,0.4887434,-1.3723023,1.8933138,-2.0926845,-1.5678791,2.4637988,-0.1556627,0.09458959,-0.10931927,-0.008709232,0.030687606,-0.16399018,-0.5554548,0.05746084,-9.346964,0.82022345,47.72092,-1.2509341,-2.4853945,-3.2493076,-0.5007913,0.320202,-0.27821508,29.0,30.375,29.375,33.0625,35.5,36.5625
0.21205415,-1.1433222,-0.23260272,-1.7003242,-0.005981699,0.09012992,-0.15977845,-0.39938074,-0.36546767,0.05999455,3.0751562,-0.6241218,5.4567704e-06,-0.09740199,0.029315123,0.00024177646,-0.040259205,0.0082734525,0.018176394,0.4884675,-1.3720978,1.8930987,-2.0927088,-1.5678304,2.463411,-0.15657482,0.0948909,-0.11123288,-0.009468867,0.03181843,-0.17466415,-0.36391866,0.11492168,-9.289502,0.8112748,47.71286,-1.3290267,-2.5090284,-3.2102666,-0.53223145,0.31095877,-0.16606537,29.0,30.375,29.375,33.0625,35.5,36.5625
0.21405391,-0.06482457,-0.36962092,-1.6468418,-0.018862728,0.08115038,-0.16050212,-0.3996131,-0.36539316,0.060004834,3.0750592,-0.6241363,-2.2319078e-05,-0.09846852,0.028873049,0.00042565662,-0.04141688,0.008773674,0.022607427,0.48809618,-1.371893,1.8928345,-2.0927207,-1.5677704,2.4630613,-0.15720843,0.09645698,-0.11346182,-0.009756418,0.03263532,-0.17972474,-0.28730422,0.19153613,-9.404425,0.7911258,47.71017,-1.3673867,-2.583023,-3.1540008,-0.52089834,0.30046844,-0.08771558,29.0,30.375,29.375,33.0625,35.5,36.5625
0.21605352,-0.36269894,-0.5717017,-1.6179111,-0.029161846,0.056821473,-0.1533763,-0.3997994,-0.36533353,0.060011413,3.0749857,-0.6240667,-7.990954e-06,-0.09961154,0.029440885,0.00065183634,-0.04249519,0.008652065,0.017299496,0.48778376,-1.3717247,1.8926195,-2.0927207,-1.5676979,2.462715,-0.15974617,0.09685777,-0.114525236,-0.009480617,0.03365312,-0.1769516,-0.34476504,0.19153613,-9.423578,0.8179876,47.691364,-1.2808428,-2.4302833,-3.1138303,-0.5326238,0.29649085,-0.04940304,29.0,30.375,29.375,33.0625,35.5,36.5625
0.21805348,-0.097611725,-1.0076458,-1.9619967,-0.03178161,0.05138875,-0.16044974,-0.39997986,-0.36526063,0.059977148,3.0749362,-0.62406135,0.00010592566,-0.1018384,0.03093339,0.0008044576,-0.044212602,0.007989055,0.006041948,0.48744676,-1.3714963,1.8924283,-2.0927327,-1.567613,2.462381,-0.16530333,0.09769806,-0.115977876,-0.009084892,0.035469484,-0.17124963,-0.22984336,0.24899697,-9.442732,0.8560339,47.716442,-1.1600432,-2.491491,-3.1437614,-0.5398255,0.29016805,-0.10153474,29.0,30.375,29.375,33.0625,35.5,36.5625
0.2200534,-0.289382,-0.9621616,-1.9305584,-0.046398763,0.04832397,-0.15709159,-0.40018493,-0.36518812,0.05997102,3.0748734,-0.62399304,7.979252e-05,-0.10230273,0.030723803,0.0006459413,-0.04454084,0.007658253,-0.0016647809,0.48711148,-1.3713037,1.8922237,-2.0927804,-1.5675653,2.462011,-0.16556126,0.099034525,-0.11723628,-0.009029329,0.035912402,-0.16379759,-0.15322891,0.34476504,-9.270349,0.842603,47.744205,-1.1897603,-2.453733,-3.05509,-0.5343031,0.2633387,-0.20176756,29.0,30.375,29.375,33.0625,35.5,36.5625
0.22205324,-0.009734386,-1.0561676,-1.9502057,-0.048482206,0.04630011,-0.15318684,-0.40038964,-0.36512205,0.059970833,3.0748074,-0.62406075,9.999331e-05,-0.10342831,0.032030806,0.00081339414,-0.04421811,0.007747151,-0.012141436,0.48678717,-1.3710876,1.8919615,-2.092756,-1.5675172,2.4617376,-0.16848016,0.09888218,-0.11758334,-0.008460964,0.035579383,-0.15623938,-0.038307227,0.36391866,-9.500193,0.779936,47.68599,-1.0630025,-2.4150448,-3.0949106,-0.54928875,0.26096457,-0.28031003,29.0,30.375,29.375,33.0625,35.5,36.5625
0.22405393,-0.44103274,-1.025768,-1.9835436,-0.052942846,0.03538454,-0.15355025,-0.400606,-0.3650342,0.05995876,3.0747445,-0.62410545,0.00011846843,-0.1041216,0.03201503,0.0009746101,-0.046301894,0.0070239957,-0.01711794,0.48641565,-1.3708711,1.891734,-2.0927684,-1.5674685,2.4614022,-0.17033684,0.09934397,-0.11855271,-0.00828554,0.037763637,-0.15311593,-0.05746084,0.3256114,-9.557653,0.80679786,47.68062,-1.141602,-2.4094064,-3.0936089,-0.5655256,0.2510386,-0.35851723,29.0,30.375,29.375,33.0625,35.5,36.5625
0.22605497,0.09208563,-0.866931,-1.8994446,-0.054813895,0.049548898,-0.16680248,-0.40080968,-0.36500016,0.059978265,3.0746086,-0.6240587,8.4810425e-05,-0.10460732,0.030216167,0.00057898846,-0.048323207,0.006268874,-0.018725218,0.48611644,-1.3706899,1.8914822,-2.0928042,-1.5673717,2.4610913,-0.16899143,0.10284578,-0.121687934,-0.008920484,0.039911874,-0.1501549,0.038307227,0.24899697,-9.519346,0.94331104,47.67614,-1.1955278,-2.4063432,-3.0638187,-0.56730187,0.22293168,-0.4572032,29.0,30.375,29.375,33.0625,35.5,36.5625
0.22805344,0.13278781,-0.39672887,-2.0159864,-0.05626401,0.05116484,-0.16807592,-0.4009935,-0.3649293,0.059978362,3.0745192,-0.62409586,0.00013914646,-0.10377951,0.03131332,0.00030066233,-0.048741832,0.0050809956,-0.017962521,0.4857809,-1.3705224,1.89128,-2.0927927,-1.5672873,2.4607904,-0.17060512,0.10059534,-0.118337534,-0.00913468,0.04086279,-0.15253094,0.15322891,0.28730422,-9.557653,0.85155696,47.687782,-1.1431959,-2.4139972,-3.2552786,-0.5635501,0.19500086,-0.4967939,29.0,30.375,29.375,33.0625,35.5,36.5625
0.23005415,0.057651334,-0.8241282,-2.0643568,-0.042808015,0.042780496,-0.16580267,-0.40123203,-0.36486974,0.059954114,3.0744002,-0.6241617,0.00017755335,-0.10618335,0.03108696,0.00059726054,-0.050293796,0.005655518,-0.010686559,0.4854085,-1.3702329,1.891004,-2.0928519,-1.5671915,2.4604745,-0.17297633,0.103712104,-0.122780226,-0.0089812325,0.042001612,-0.16217282,0.15322891,0.2681506,-9.576807,0.9365982,47.719128,-1.1239028,-2.402512,-3.1107268,-0.56566405,0.17390269,-0.4636819,29.0,30.375,29.375,33.0625,35.5,36.5625
0.23205353,-0.3078127,-0.4856082,-2.0524092,-0.039956428,0.032684304,-0.15894417,-0.40145636,-0.36481574,0.05997328,3.0742874,-0.62416846,0.00014817537,-0.106255315,0.032408312,8.1612496e-05,-0.05048685,0.004567754,-0.000120827084,0.4850726,-1.3700291,1.8907179,-2.0928524,-1.5671185,2.4601574,-0.17562602,0.10297483,-0.12064053,-0.009440461,0.04274348,-0.17538494,0.24899697,0.2681506,-9.500193,0.7978386,47.704796,-1.0442849,-2.4566762,-3.3143175,-0.5691999,0.14695111,-0.35986215,29.0,30.375,29.375,33.0625,35.5,36.5625
0.23405385,-0.03378733,-0.64270675,-2.1541,-0.02018385,0.029219553,-0.15360679,-0.40162435,-0.36475787,0.059937093,3.0741985,-0.62408817,0.0003058071,-0.10747338,0.033097353,-1.4809664e-05,-0.05103235,0.0047193635,0.008050851,0.48473665,-1.3698126,1.8905505,-2.092888,-1.5669745,2.4597826,-0.17806906,0.10386506,-0.121397614,-0.0098841265,0.043189485,-0.18599941,0.095768064,0.1340753,-9.557653,0.7866488,47.74331,-0.9822537,-2.4268327,-3.353611,-0.5851305,0.123078205,-0.23745838,29.0,30.375,29.375,33.0625,35.5,36.5625
0.23605372,0.25928074,-0.33645478,-2.0242093,-0.022922678,0.036202453,-0.16325356,-0.40187046,-0.3646703,0.059965838,3.0740929,-0.62408,0.0002210016,-0.10813305,0.034067415,-0.00056137703,-0.050297275,0.0039300825,0.012077305,0.48434082,-1.369644,1.8902873,-2.0929005,-1.5669268,2.4593954,-0.18004104,0.10493137,-0.12146181,-0.009795852,0.04295497,-0.1919936,0.095768064,0.095768064,-9.672575,0.8247004,47.690468,-0.9037304,-2.3681798,-3.369659,-0.5951288,0.11043237,-0.16208573,29.0,30.375,29.375,33.0625,35.5,36.5625
0.23805334,0.41257617,0.017402079,-1.6771852,-0.027180027,0.059009317,-0.1689897,-0.40208304,-0.36460707,0.05996492,3.074018,-0.62404686,0.00027433838,-0.10889782,0.033324175,0.00048796486,-0.05152782,0.0060058106,0.009998,0.48399353,-1.3694159,1.8900121,-2.0928767,-1.5668429,2.459037,-0.1794574,0.10468312,-0.12355344,-0.009845667,0.04307948,-0.1893288,-0.019153614,0.05746084,-9.576807,0.82694155,47.682407,-0.9845611,-2.3550262,-3.4875731,-0.5897487,0.0968921,-0.17306583,29.0,30.375,29.375,33.0625,35.5,36.5625
0.24005398,-0.4000897,-0.062890425,-1.7984442,-0.0050919447,0.055471547,-0.15175381,-0.4022802,-0.364553,0.059946194,3.0738926,-0.62400544,0.00034856756,-0.108375065,0.03444927,-0.002110603,-0.048983984,0.0018936916,0.0018625368,0.4836459,-1.3691984,1.8898095,-2.0929368,-1.5667108,2.4586797,-0.1805889,0.108242646,-0.12181635,-0.010305783,0.04274003,-0.18232358,-0.095768064,0.05746084,-9.519346,0.90750587,47.719128,-0.9843943,-2.452919,-3.548905,-0.57319236,0.070997596,-0.22749981,29.0,30.375,29.375,33.0625,35.5,36.5625
0.24205366,-0.9275526,0.6461019,-1.70899,-0.00843569,0.07208401,-0.16612485,-0.40251246,-0.36449265,0.059975043,3.073753,-0.62401706,0.00029841985,-0.11092838,0.03389255,0.00080288673,-0.051778596,0.0069483444,-0.0034932587,0.48328608,-1.369019,1.8895329,-2.0929482,-1.5666264,2.4583452,-0.18190128,0.10643821,-0.12643622,-0.0096422,0.04287317,-0.17827399,-0.17238252,-0.095768064,-9.442732,0.83589023,47.704796,-0.9584218,-2.233476,-3.4237952,-0.58830005,0.05725299,-0.3094597,29.0,30.375,29.375,33.0625,35.5,36.5625
0.2440533,-0.9634352,0.33577898,-1.4068508,0.007422229,0.092918165,-0.16355793,-0.4027118,-0.3644435,0.05997213,3.0736806,-0.6239051,0.0003248161,-0.11047892,0.034425188,-0.0016527235,-0.04856724,0.0029748904,-0.005327487,0.48297513,-1.368801,1.8892826,-2.0929606,-1.566543,2.4579737,-0.18170567,0.111049786,-0.12649989,-0.009156382,0.041886386,-0.1762433,-0.24899697,-0.076614454,-9.500193,0.88960326,47.707485,-1.0851381,-2.491231,-3.440371,-0.5869265,0.03786267,-0.3414191,29.0,30.375,29.375,33.0625,35.5,36.5625
0.24605408,-0.49400607,0.97004557,-1.5837233,0.0036325261,0.111429065,-0.17005002,-0.4029331,-0.3643627,0.059965204,3.0735729,-0.6239186,0.00033223952,-0.11230053,0.034544796,0.0006280652,-0.049897313,0.007656491,-0.00584409,0.4825916,-1.3685979,1.889067,-2.0930083,-1.5664595,2.4576125,-0.18282047,0.10860549,-0.12877451,-0.00916475,0.040909022,-0.17684038,-0.40222588,0.019153614,-9.500193,0.8784135,47.692257,-1.203817,-2.3235438,-3.4058022,-0.60545355,0.027516812,-0.37061402,29.0,30.375,29.375,33.0625,35.5,36.5625
0.24805377,-1.6643894,0.2625709,-1.5893576,0.0049604434,0.10343749,-0.16496885,-0.40317607,-0.36428422,0.059969597,3.0734916,-0.62393725,0.00033257855,-0.11401844,0.036162462,0.00061336637,-0.047833532,0.00858978,-0.002641332,0.4822077,-1.3683571,1.8887671,-2.0929954,-1.5663999,2.4572508,-0.1855857,0.10963005,-0.13010511,-0.008668245,0.038685016,-0.18281007,-0.47884032,0.05746084,-9.576807,0.93436235,47.7254,-1.3066006,-2.3771324,-3.3686342,-0.6131626,0.050849386,-0.3507836,29.0,30.375,29.375,33.0625,35.5,36.5625
0.2500534,-1.615441,0.45897174,-1.5778686,-0.01386024,0.11512329,-0.17602198,-0.40339994,-0.36422294,0.059992217,3.0733922,-0.6238335,0.0003390246,-0.11519504,0.037065774,0.00018018494,-0.045534614,0.009053984,0.005286854,0.48184812,-1.3681643,1.8884805,-2.0929716,-1.566305,2.4568393,-0.18668957,0.11164351,-0.13159539,-0.008458082,0.036483318,-0.19184296,-0.30645782,0.095768064,-9.423578,0.8157518,47.709274,-1.3348033,-2.3061132,-3.3904674,-0.628772,0.05446156,-0.29642844,29.0,30.375,29.375,33.0625,35.5,36.5625
0.25205332,-1.4796283,-0.3675641,-1.6954576,-0.014668042,0.11834837,-0.17066373,-0.40363017,-0.36413842,0.059963718,3.0733259,-0.6238491,0.00036739817,-0.11513487,0.036622114,0.00025952636,-0.044860445,0.009820608,0.017636616,0.48146543,-1.3678998,1.8882407,-2.0930197,-1.566245,2.456475,-0.18523403,0.11218203,-0.13245375,-0.008427827,0.03558095,-0.20273793,-0.5554548,0.11492168,-9.519346,0.7978386,47.674347,-1.4107871,-2.3726423,-3.4188874,-0.6374734,0.05681508,-0.15896009,29.0,30.375,29.375,33.0625,35.5,36.5625
0.25405407,-1.6894511,-0.4382895,-1.5446203,-0.03850675,0.118875556,-0.16415411,-0.403871,-0.36408707,0.05999427,3.0732307,-0.6237109,0.00027982448,-0.11614537,0.036771443,0.00020877899,-0.043217223,0.010805384,0.022922192,0.48112997,-1.367695,1.8879298,-2.0930316,-1.5661858,2.4560657,-0.18512541,0.11406274,-0.13466977,-0.008150724,0.033715975,-0.20791359,-0.842759,0.22984336,-9.481039,0.842603,47.687782,-1.4732296,-2.2982688,-3.3352795,-0.65138626,0.08365337,-0.080204725,29.0,30.375,29.375,33.0625,35.5,36.5625
0.2560536,-2.1606805,-0.76288307,-1.521513,-0.040993303,0.111905314,-0.15511268,-0.40410295,-0.36399955,0.059992947,3.073154,-0.62373495,0.0003207612,-0.116871275,0.037336063,0.00029481162,-0.04240905,0.011317217,0.019854113,0.48073375,-1.3674667,1.8876551,-2.0930078,-1.5661138,2.4556944,-0.18602909,0.114535354,-0.13552901,-0.007822427,0.03277042,-0.2057501,-0.90021986,0.30645782,-9.442732,0.89631605,47.699425,-1.606479,-2.373986,-3.3835506,-0.6545299,0.10835563,-0.071393594,29.0,30.375,29.375,33.0625,35.5,36.5625
0.25805354,-1.3809806,-0.44859454,-1.674071,-0.047794163,0.12430021,-0.16693094,-0.4043479,-0.36391795,0.06000768,3.0730517,-0.62369925,0.00028806206,-0.11802118,0.03846991,-0.00033906865,-0.041274548,0.010914063,0.010402859,0.48033693,-1.3672618,1.88738,-2.0930197,-1.5660428,2.4552886,-0.1883355,0.11626748,-0.13612176,-0.0080829635,0.031951815,-0.19860382,-0.5363012,0.22984336,-9.595961,0.86945957,47.674347,-1.4913287,-2.3268366,-3.3084943,-0.660659,0.123655304,-0.12090093,29.0,30.375,29.375,33.0625,35.5,36.5625
0.2600541,-1.3036243,-0.5659,-1.5791024,-0.04008292,0.10557291,-0.1620399,-0.4046159,-0.3638472,0.060023423,3.072944,-0.6236623,0.00018777365,-0.120754264,0.038521174,0.00034335032,-0.041835085,0.013587676,0.0011841406,0.4799523,-1.3670208,1.8870677,-2.0930674,-1.5659946,2.454895,-0.19025482,0.11857313,-0.14026283,-0.008887961,0.031211348,-0.19130036,-0.38307226,0.22984336,-9.519346,0.89631605,47.719128,-1.4325411,-2.4558644,-3.180148,-0.67648697,0.1301527,-0.23058033,29.0,30.375,29.375,33.0625,35.5,36.5625
0.2620538,-1.3542737,-0.9439219,-1.5136415,-0.03544887,0.08241584,-0.16222252,-0.40482053,-0.36376876,0.05998089,3.0729036,-0.6236991,0.00027356448,-0.12332457,0.03832223,0.0021249254,-0.04382162,0.017656798,-0.008927385,0.4796034,-1.3667445,1.8868397,-2.0930922,-1.5659345,2.4545743,-0.19199423,0.118417695,-0.14399645,-0.009542889,0.031062182,-0.18292786,-0.7086837,0.28730422,-9.404425,0.800085,47.67614,-1.3444841,-2.4497356,-3.11086,-0.66444886,0.15068874,-0.35077932,29.0,30.375,29.375,33.0625,35.5,36.5625
0.26405424,-0.71103215,-0.48850724,-1.4149549,-0.030167311,0.08184171,-0.17474435,-0.40507546,-0.36366776,0.05998863,3.0728343,-0.62372553,0.00021032321,-0.12452042,0.0396276,0.00032343506,-0.043090273,0.015577832,-0.015830083,0.4791946,-1.366527,1.8865651,-2.0931041,-1.5659102,2.4541912,-0.1953207,0.121968165,-0.14382319,-0.011085942,0.031382438,-0.17934822,-0.49799395,0.24899697,-9.251195,0.8851263,47.696735,-1.2810941,-2.5636163,-3.0980396,-0.6379749,0.17759526,-0.4336334,29.0,30.375,29.375,33.0625,35.5,36.5625
0.26605365,-0.6450346,-0.4783933,-1.3548317,-0.022084381,0.07584296,-0.16985908,-0.40535894,-0.36362225,0.06002367,3.0726688,-0.6236702,0.00011195487,-0.12634443,0.039981406,0.00199648,-0.04472188,0.0189534,-0.01579224,0.4788102,-1.3662757,1.8861941,-2.0931404,-1.5658144,2.4537938,-0.19734254,0.120387435,-0.14568695,-0.011349506,0.03131949,-0.18140301,-0.3256114,0.19153613,-9.346964,0.90750587,47.687782,-1.3780334,-2.3423429,-3.1463413,-0.6558298,0.19961756,-0.48904538,29.0,30.375,29.375,33.0625,35.5,36.5625
0.26805332,0.040875964,-0.3791146,-1.1809337,-0.018868592,0.09023369,-0.1745011,-0.40562534,-0.3635296,0.06003787,3.0725203,-0.6237485,3.465495e-05,-0.12777765,0.041394584,0.001633311,-0.04293863,0.018963344,-0.0064033833,0.47837716,-1.3660706,1.8859309,-2.0932004,-1.5657433,2.453429,-0.1999226,0.12199988,-0.14693856,-0.010806542,0.029815834,-0.19337183,-0.28730422,0.095768064,-9.270349,0.88960326,47.716442,-1.2767415,-2.4920456,-3.1265686,-0.6515059,0.23535147,-0.4316103,29.0,30.375,29.375,33.0625,35.5,36.5625
0.270055,-0.77275336,-0.021970598,-1.2678937,-0.0145616755,0.0680334,-0.17441116,-0.4058668,-0.3634555,0.060043175,3.0724583,-0.623711,5.070299e-05,-0.12894541,0.042958684,0.0006393228,-0.042907443,0.017115476,0.0038594892,0.47800383,-1.3658178,1.8856086,-2.0931642,-1.5656828,2.4530404,-0.20401077,0.12377273,-0.14678863,-0.010982206,0.030715985,-0.20771979,-0.3256114,0.076614454,-9.193734,0.8717007,47.704796,-1.1311038,-2.4673178,-3.0919514,-0.6560661,0.2554511,-0.2780605,29.0,30.375,29.375,33.0625,35.5,36.5625
0.27205375,-0.9236417,0.0018317336,-1.0974774,-0.0010584004,0.07066962,-0.16608267,-0.40612045,-0.36335513,0.060023237,3.0723925,-0.6236552,2.2715956e-05,-0.13025595,0.042613965,0.0011196712,-0.045464702,0.017288119,0.010699255,0.47758323,-1.3655652,1.8853682,-2.0932357,-1.5656341,2.4525936,-0.20583749,0.12484516,-0.14919215,-0.010920962,0.032965027,-0.21637782,-0.4213795,0.095768064,-9.232041,0.84708,47.689575,-1.1811206,-2.4414487,-3.0266447,-0.64962274,0.26054314,-0.19074775,29.0,30.375,29.375,33.0625,35.5,36.5625
0.2740532,-1.0276744,0.28558615,-1.1490114,-0.004863193,0.085786626,-0.17278373,-0.40637565,-0.36326882,0.06001119,3.0723295,-0.62360346,8.939863e-05,-0.12929468,0.042646654,0.0003230672,-0.045100465,0.015055478,0.01081506,0.47716343,-1.3652768,1.8850454,-2.0932114,-1.5655502,2.4521496,-0.20536885,0.12540938,-0.14824295,-0.010256424,0.03368634,-0.21602325,-0.51714754,0.05746084,-9.308657,0.8560339,47.688675,-1.1925519,-2.4325442,-3.1999598,-0.663994,0.246052,-0.14129049,29.0,30.375,29.375,33.0625,35.5,36.5625
0.27605397,-0.9937685,0.17236249,-1.0569513,-0.0031177886,0.0857867,-0.15898176,-0.40663436,-0.3631925,0.060024966,3.0722456,-0.623494,7.211479e-06,-0.12948938,0.043129917,-0.001616793,-0.044784345,0.010858675,0.0022455796,0.47677898,-1.365047,1.8847479,-2.0932477,-1.5655011,2.4517078,-0.2072426,0.1294192,-0.14874028,-0.009912769,0.035338532,-0.20931874,-0.40222588,-0.038307227,-9.289502,0.8627467,47.67345,-1.1595366,-2.4507363,-3.2912996,-0.6669804,0.26208925,-0.19400771,29.0,30.375,29.375,33.0625,35.5,36.5625
0.27805373,-1.180429,0.4553865,-0.9835796,-0.012886878,0.07688062,-0.16732448,-0.40692925,-0.36312625,0.060067378,3.0720701,-0.62349933,-0.00011862007,-0.13052654,0.04303532,0.00066320173,-0.04708028,0.014572287,-0.003416848,0.47635883,-1.36482,1.8843888,-2.0932834,-1.5654172,2.451314,-0.2080639,0.12604205,-0.14993465,-0.009689,0.035700466,-0.20447095,-0.34476504,-0.114921674,-9.308657,0.8537928,47.694054,-1.180037,-2.3684323,-3.253675,-0.6600285,0.25528622,-0.3215565,29.0,30.375,29.375,33.0625,35.5,36.5625
0.28005326,-1.1065533,0.39350554,-0.87418985,-0.0016784946,0.073753275,-0.16691175,-0.4071865,-0.36301568,0.060059246,3.072021,-0.62352854,-0.00011466088,-0.13010602,0.042824067,-0.00057139905,-0.045414783,0.01327043,-0.0055921027,0.47592688,-1.3645668,1.8841017,-2.093272,-1.5653814,2.4509068,-0.20667824,0.12854199,-0.15005854,-0.010138023,0.03481899,-0.20091142,-0.36391866,-0.17238252,-9.136273,0.90750587,47.74331,-1.2253454,-2.4310045,-3.3088262,-0.659702,0.28324246,-0.36920935,29.0,30.375,29.375,33.0625,35.5,36.5625
0.2820538,-0.35042718,1.174836,-0.7982757,0.0023767857,0.094904214,-0.18977594,-0.40742192,-0.36292905,0.06003342,3.0718946,-0.62359685,-2.1422939e-06,-0.13014908,0.041866545,0.00037922568,-0.046790004,0.015137916,-0.0033029895,0.47549525,-1.364303,1.8838505,-2.0932958,-1.5652493,2.450534,-0.20522133,0.12760523,-0.15104312,-0.010461947,0.03520372,-0.20174211,-0.38307226,-0.15322891,-9.136273,0.80679786,47.678825,-1.3956238,-2.2799318,-3.3582973,-0.6511593,0.31718528,-0.39138478,29.0625,30.375,29.375,33.0625,35.5,36.5625
0.2840534,-0.7533363,1.5417663,-0.95467746,0.022666376,0.073579736,-0.18959773,-0.4077054,-0.36284894,0.06003981,3.0718033,-0.6235354,-0.00014128069,-0.13129649,0.041754063,0.0011638822,-0.049058508,0.015932636,0.0027563674,0.47509882,-1.3640388,1.8835391,-2.0933793,-1.5652245,2.4501114,-0.20695284,0.12755194,-0.15280604,-0.010334605,0.03692938,-0.20952286,-0.17238253,-0.15322891,-9.193734,0.85826975,47.703007,-1.4357798,-2.218028,-3.3686028,-0.64802444,0.3109302,-0.3592031,29.0625,30.375,29.375,33.0625,35.5,36.5625
0.28605482,-0.57208645,1.3496785,-1.1722974,0.029200606,0.056746606,-0.17965688,-0.40798995,-0.36273497,0.06003872,3.0717435,-0.62353456,-0.0001394819,-0.1319491,0.04272011,0.00015795861,-0.048951615,0.013757207,0.012357733,0.47463056,-1.363762,1.8832048,-2.0933554,-1.5651764,2.4496505,-0.20960326,0.129582,-0.15305221,-0.010042854,0.037908725,-0.22177047,-0.05746084,-0.15322891,-9.251195,0.87617236,47.678825,-1.4620117,-2.2659426,-3.3119454,-0.64511704,0.30907312,-0.23051545,29.0625,30.375,29.375,33.0625,35.5,36.5625
0.28805542,-0.11001846,0.7043259,-1.1616546,0.027039044,0.04724941,-0.19189541,-0.4082367,-0.36264953,0.0600389,3.071665,-0.62343884,-0.00011990223,-0.13434196,0.043437053,0.0010138456,-0.050166685,0.015940553,0.0172285,0.47422144,-1.3635215,1.8829168,-2.093356,-1.5650924,2.4491918,-0.21284313,0.13013804,-0.1555781,-0.010490965,0.038048252,-0.22987825,0.019153614,-0.11492168,-9.232041,0.87617236,47.703007,-1.3708236,-2.1811142,-3.2719502,-0.66189027,0.32724553,-0.11883761,29.0625,30.375,29.375,33.0625,35.5,36.5625
0.2900541,0.07582741,-0.040495787,-1.4745017,0.011422432,0.04236145,-0.17393748,-0.40849304,-0.36255583,0.06002844,3.0716105,-0.62337244,-0.00013323092,-0.13640267,0.04422021,0.0013153735,-0.05071223,0.015779821,0.013562355,0.47381222,-1.3632566,1.8826288,-2.0933788,-1.5650443,2.4487484,-0.2161703,0.1319906,-0.15880203,-0.009203079,0.038627118,-0.22953445,-0.05746084,-0.019153614,-9.346964,0.8873621,47.709274,-1.3467187,-2.2330706,-3.3816938,-0.64878464,0.35796893,-0.08485371,29.0625,30.375,29.375,33.0625,35.5,36.5625
0.29205412,0.6909598,-0.39313662,-1.7445265,-0.022269242,0.04834902,-0.17324953,-0.40877867,-0.36248216,0.060044024,3.0714715,-0.62325317,-0.00014910214,-0.13649392,0.045521993,0.00042709173,-0.049412485,0.013491427,0.0030367468,0.47336742,-1.362992,1.8822826,-2.0934026,-1.5649241,2.4482472,-0.2182183,0.1329538,-0.15821806,-0.008125293,0.038517542,-0.22105339,0.0,0.15322891,-9.461885,0.8918391,47.696735,-1.2677654,-2.2254884,-3.336166,-0.67230195,0.35166258,-0.16164151,29.0625,30.375,29.375,33.0625,35.5,36.5625
0.29405412,-0.16923521,-1.2362266,-1.7642871,-0.047858708,0.030679448,-0.16291375,-0.40904245,-0.36237115,0.060026214,3.0714269,-0.6232874,-0.000103743296,-0.13739465,0.045451395,0.0009819043,-0.050171535,0.013531823,-0.0066106296,0.47292322,-1.3627034,1.8819717,-2.0933783,-1.564876,2.4478302,-0.21912828,0.13364649,-0.16063857,-0.0068052206,0.03914584,-0.212313,-0.076614454,0.24899697,-9.576807,0.8560339,47.711063,-1.2212083,-2.2043169,-3.235736,-0.69645905,0.38175422,-0.2838701,29.0625,30.375,29.375,33.0625,35.5,36.5625
0.29605335,0.138911,-0.9243542,-1.8907238,-0.08855366,0.050634775,-0.18729319,-0.4093189,-0.36227036,0.060039505,3.0713034,-0.62336236,-0.00016352118,-0.13879007,0.046611004,-0.0006887951,-0.049538095,0.010280375,-0.017823858,0.47247797,-1.3624735,1.8816718,-2.0934021,-1.5648154,2.447448,-0.22269765,0.13807955,-0.16227365,-0.006438306,0.04005701,-0.2046611,-0.21068975,0.38307226,-9.595961,0.900793,47.696735,-1.0876259,-2.4679058,-3.1408992,-0.72100604,0.3980735,-0.37601086,29.0625,30.375,29.375,33.0625,35.5,36.5625
0.2980532,-1.1685128,-1.1041793,-2.239033,-0.09342215,0.041383203,-0.18948983,-0.4095868,-0.36217678,0.06002087,3.0712419,-0.62334996,-0.00010947621,-0.13999368,0.046601344,0.00062738487,-0.05203783,0.01156672,-0.021934537,0.4720454,-1.3621619,1.881338,-2.0933897,-1.5647434,2.4470158,-0.2245838,0.13701,-0.16415885,-0.00575338,0.04170074,-0.20243023,-0.15322891,0.40222588,-9.730036,0.89631605,47.677036,-1.0183061,-2.1223216,-3.3683786,-0.7422509,0.39259815,-0.49164802,29.0625,30.375,29.375,33.0625,35.5,36.5625
0.30005378,-0.8945047,-1.2871815,-2.0709078,-0.10282287,0.07064533,-0.18899736,-0.4098644,-0.3620712,0.060006727,3.071126,-0.62347597,-7.219774e-05,-0.14051062,0.047800563,-0.0003570605,-0.05260532,0.008846461,-0.017600592,0.47157648,-1.3618733,1.8810271,-2.0934017,-1.564658,2.4466407,-0.22799836,0.138408,-0.16372715,-0.005340351,0.04350473,-0.21017152,-0.15322891,0.59376204,-9.80665,0.8672237,47.705692,-0.99360764,-2.3296237,-3.4067345,-0.7472499,0.37915283,-0.47978216,29.0625,30.375,29.375,33.0625,35.5,36.5625
0.30205315,-1.1905779,-1.9300342,-2.2591445,-0.088619456,0.082959056,-0.17979367,-0.41015983,-0.36198586,0.060053173,3.0709853,-0.6233825,-0.000141994,-0.14137384,0.04800003,-0.0013498581,-0.053319115,0.007036187,-0.005069041,0.4711198,-1.3616557,1.8806561,-2.0933778,-1.5645617,2.446144,-0.22987838,0.14143091,-0.16505387,-0.005624158,0.04507301,-0.22457165,-0.11492168,0.5554548,-9.844957,0.88960326,47.690468,-0.96514034,-2.3739278,-3.3782752,-0.75693,0.3845594,-0.37138197,29.0625,30.375,29.375,33.0625,35.5,36.5625
0.30405378,-1.4216313,-1.4846066,-2.173511,-0.0936675,0.09509999,-0.18661678,-0.41043937,-0.36190212,0.06004636,3.0708559,-0.62332726,-0.00011432988,-0.14078084,0.04586813,-0.0016264445,-0.05528242,0.0068199933,0.011039905,0.47066486,-1.3613667,1.8803338,-2.093414,-1.5644411,2.4456716,-0.22682251,0.14336155,-0.16653186,-0.0066518667,0.04701116,-0.23761438,-0.24899697,0.45968673,-9.883265,0.78217715,47.717335,-1.0185843,-2.4485402,-3.3560052,-0.7536665,0.36793172,-0.22477388,29.0625,30.375,29.375,33.0625,35.5,36.5625
0.30605364,-1.5884094,-1.3563153,-1.9690363,-0.08361715,0.09827257,-0.18016931,-0.4107101,-0.36182785,0.060043667,3.0707412,-0.6232241,-7.517048e-05,-0.14065133,0.043839492,-0.0011697954,-0.05926481,0.007108082,0.01576011,0.47023344,-1.3610781,1.8799971,-2.0934265,-1.56432,2.4451907,-0.2252717,0.14392251,-0.16800472,-0.007744758,0.050468992,-0.24076787,-0.4213795,0.45968673,-9.787497,0.8806493,47.69763,-1.1893021,-2.4510663,-3.3465514,-0.7558125,0.35838747,-0.151518,29.0625,30.375,29.375,33.0625,35.5,36.5625
0.3080533,-1.5017587,-1.1111972,-1.8121455,-0.07098482,0.09759005,-0.17510235,-0.41099778,-0.3617387,0.06005459,3.0706303,-0.62316597,-7.2742856e-05,-0.1412552,0.042441227,-0.0012802106,-0.06194894,0.007022879,0.009289033,0.46977767,-1.3608013,1.8796381,-2.093415,-1.5642232,2.444713,-0.22476692,0.14615315,-0.17017442,-0.008953266,0.05288886,-0.23377816,-0.5554548,0.2681506,-9.825804,0.92093146,47.674347,-1.3318585,-2.5989323,-3.3214993,-0.751938,0.30746707,-0.20902099,29.0625,30.375,29.375,33.0625,35.5,36.5625
0.31005365,-1.1290588,-0.81711054,-1.8648798,-0.049790785,0.08858887,-0.17678906,-0.41127664,-0.36164916,0.060038216,3.0705092,-0.6231449,-4.433446e-05,-0.14133175,0.04190978,-0.0018220103,-0.06427024,0.0055603497,0.0008599704,0.4693215,-1.3605018,1.8793272,-2.0934632,-1.564114,2.4442596,-0.22544834,0.14750312,-0.1703858,-0.009849433,0.055606492,-0.22601666,-0.30645782,0.30645782,-9.691729,0.9567419,47.73077,-1.3769724,-2.428268,-3.30259,-0.73698676,0.28449073,-0.30018824,29.0625,30.375,29.375,33.0625,35.5,36.5625
0.3120541,-0.59271896,-0.57944244,-1.6789787,-0.032381687,0.0633536,-0.17384093,-0.41156057,-0.3615642,0.060021106,3.0703998,-0.6230871,-4.161544e-05,-0.14250886,0.04218499,-0.0018076302,-0.06575244,0.0062626568,-0.0053027477,0.46887714,-1.3601896,1.8790053,-2.0935233,-1.5640181,2.4437935,-0.22737837,0.14824963,-0.17102942,-0.011234686,0.056614753,-0.2217759,-0.22984336,0.11492168,-9.5385,0.80679786,47.694946,-1.4307935,-2.3990555,-3.4016957,-0.71950877,0.2468894,-0.38248855,29.0625,30.375,29.375,33.0625,35.5,36.5625
0.31405407,0.5424864,-0.2368346,-1.3694073,-0.016815063,0.05683093,-0.16921169,-0.41188374,-0.361491,0.060050193,3.0701814,-0.62311625,-0.0001221985,-0.14375578,0.04161825,-0.00200746,-0.068478756,0.0061495337,-0.0044658356,0.46839657,-1.359913,1.8786219,-2.0935833,-1.5638851,2.4433599,-0.22886772,0.1504768,-0.17295216,-0.012605982,0.05915773,-0.22408181,-0.22984336,0.15322891,-9.423578,0.8940802,47.67166,-1.4413787,-2.5258098,-3.2730508,-0.6918278,0.22268015,-0.38886422,29.0625,30.375,29.375,33.0625,35.5,36.5625
0.31605402,-0.64064443,0.0444536,-1.2059363,-0.0060726483,0.02171484,-0.17794998,-0.41217494,-0.36141077,0.060055014,3.0700543,-0.6230449,-9.795784e-05,-0.14577605,0.041842766,-0.0010158988,-0.06998871,0.009081823,0.004534651,0.4679398,-1.359613,1.8782514,-2.0935838,-1.5637649,2.4428751,-0.23087288,0.15059166,-0.17510836,-0.013732545,0.05926937,-0.23508278,-0.19153613,0.038307227,-9.251195,0.88960326,47.67614,-1.3999867,-2.5752072,-3.2454276,-0.67512774,0.17931199,-0.31597447,29.0625,30.375,29.375,33.0625,35.5,36.5625
0.3180537,0.2439288,0.7919076,-1.2805401,-0.0010075378,0.050816096,-0.19009306,-0.4124761,-0.361318,0.060054608,3.069949,-0.62298,-0.00015114759,-0.14639856,0.042932462,-0.0007159368,-0.07013313,0.009006159,0.01356865,0.46748316,-1.3593137,1.8779043,-2.0936315,-1.5636929,2.4423919,-0.23322938,0.14982586,-0.17510562,-0.012843821,0.059539806,-0.24646747,0.0,-0.13407528,-9.212888,0.9298854,47.674347,-1.3859196,-2.4016504,-3.3769345,-0.6763052,0.17913207,-0.18223426,29.0625,30.375,29.375,33.0625,35.5,36.5625
0.32005328,-0.30447152,0.4930301,-1.3630527,0.01438877,0.04271691,-0.18300965,-0.4127783,-0.36123988,0.060050517,3.0698113,-0.6228745,-0.0001301399,-0.14872031,0.044001363,-0.00019646373,-0.0717363,0.009164806,0.012764585,0.46701366,-1.3589898,1.8775333,-2.0936673,-1.5635604,2.4418745,-0.23769046,0.15093155,-0.177831,-0.012006191,0.06095584,-0.25011295,-0.038307227,-0.13407528,-9.251195,0.900793,47.677036,-1.311731,-2.279099,-3.3960748,-0.670768,0.15434319,-0.10389523,29.0625,30.375,29.375,33.0625,35.5,36.5625
0.32205367,-0.8712475,0.5855327,-0.879237,0.0040989383,0.05110068,-0.16321695,-0.41306397,-0.36115092,0.060068797,3.0696535,-0.62282646,-9.6570584e-05,-0.14948544,0.04428889,0.00022224807,-0.07299703,0.008849427,0.0057938905,0.46653306,-1.3587378,1.8771871,-2.0936549,-1.5634159,2.4413846,-0.23943299,0.15103438,-0.17913623,-0.01106723,0.06223216,-0.24487399,-0.3256114,-0.13407528,-9.155427,0.8717007,47.682407,-1.1842363,-2.2614326,-3.459958,-0.67773545,0.1051441,-0.12937309,29.0625,30.375,29.375,33.0625,35.5,36.5625
0.32405326,-0.98263234,0.21644637,-1.039184,0.035821404,0.06392841,-0.16242725,-0.41335806,-0.36108053,0.060071774,3.0694594,-0.622831,-5.652969e-05,-0.15202127,0.04677143,-0.000334624,-0.06982856,0.009569455,-0.0077630393,0.46606347,-1.3584367,1.8768276,-2.0936906,-1.5632495,2.4409432,-0.24364343,0.15345186,-0.1808521,-0.010976992,0.059060927,-0.23553507,-0.38307226,-0.019153614,-9.059659,0.88960326,47.70659,-0.96542007,-2.391275,-3.4450314,-0.66864747,0.09350221,-0.23634915,29.0625,30.375,29.375,33.0625,35.5,36.5625
0.32605392,-0.72917473,1.4268875,-1.2690649,0.027262092,0.078320794,-0.18309872,-0.41365233,-0.36099613,0.060064044,3.069296,-0.6228392,-1.1094195e-05,-0.15282804,0.046229664,0.0010258554,-0.07065694,0.011568098,-0.016739763,0.46558392,-1.3581259,1.8764805,-2.0937264,-1.563105,2.4404902,-0.2431315,0.15284905,-0.18348588,-0.0099081285,0.058879416,-0.22604224,-0.15322891,-0.1340753,-9.193734,0.88960326,47.694946,-1.045051,-2.2023492,-3.2724264,-0.65400803,0.093751475,-0.36852017,29.0625,30.375,29.375,33.0625,35.5,36.5625
0.32805377,-0.66750765,1.0983771,-1.0573821,0.028694183,0.08294612,-0.17492437,-0.41396776,-0.36090425,0.060086098,3.069161,-0.6227943,-5.7531066e-05,-0.15328526,0.04638371,0.0019963947,-0.06982885,0.012900741,-0.021324465,0.46510446,-1.3578383,1.8760852,-2.093726,-1.5630101,2.4400005,-0.24278611,0.15211807,-0.18522333,-0.008243292,0.057555746,-0.22111182,-0.3830723,-0.038307227,-9.270349,0.8672237,47.690468,-1.1743579,-2.1308494,-3.193791,-0.6633619,0.037255317,-0.48275477,29.0625,30.375,29.375,33.0625,35.5,36.5625
0.3300535,-1.0321766,0.64640415,-1.1833885,0.009644434,0.09735008,-0.182779,-0.41424954,-0.36079347,0.06005822,3.0690775,-0.6228862,-7.766431e-06,-0.15355834,0.04727371,0.0017087547,-0.06610394,0.0136309955,-0.013245174,0.4646364,-1.3575141,1.8757614,-2.0937374,-1.5629386,2.439601,-0.24215966,0.15303023,-0.1859503,-0.007298067,0.053967338,-0.22858118,-0.57460845,0.038307227,-9.11712,0.92764956,47.711964,-1.2732029,-2.1234808,-3.2683215,-0.68096435,0.09867206,-0.49138218,29.0625,30.375,29.375,33.0625,35.5,36.5625
0.33205333,-0.896067,0.39567155,-1.6706473,0.008018941,0.12156936,-0.18622816,-0.41455385,-0.3607109,0.06007865,3.0689487,-0.6227549,-1.6451659e-05,-0.15466423,0.048344776,0.0018324314,-0.063318565,0.015063188,0.0008273126,0.46416813,-1.3572261,1.8753666,-2.0937254,-1.5628198,2.4390676,-0.2428844,0.15391049,-0.18753344,-0.0064480943,0.050967406,-0.24338822,-0.34476504,0.076614454,-9.346964,0.90527004,47.66271,-1.3416944,-2.0515165,-3.2967992,-0.7028618,0.099401735,-0.36007732,29.0625,30.375,29.375,33.0625,35.5,36.5625
0.33405367,-1.5190946,-0.21335062,-1.6291053,-0.011021872,0.122948684,-0.17655154,-0.41486016,-0.36059916,0.060087424,3.0688446,-0.62270766,-4.693443e-06,-0.15498634,0.049303208,0.0012864005,-0.060558997,0.014688846,0.010786888,0.46366414,-1.356938,1.8749951,-2.0937011,-1.562725,2.4385478,-0.24324459,0.15522814,-0.1881683,-0.00542237,0.048767913,-0.2537162,-0.2681506,0.038307227,-9.557653,0.90750587,47.66987,-1.3420078,-2.1367304,-3.2380564,-0.70873207,0.13884407,-0.2449514,29.0625,30.375,29.375,33.0625,35.5,36.5625
0.33605346,-2.4207737,-0.77530295,-1.8063054,-0.035870586,0.10900791,-0.16938084,-0.41515973,-0.3605076,0.060059294,3.0687702,-0.62259865,1.2801857e-05,-0.1560367,0.049850654,0.0007531032,-0.05848465,0.014520626,0.01095863,0.46320698,-1.356577,1.8746356,-2.0937483,-1.5626415,2.4380324,-0.24381003,0.15791914,-0.19041985,-0.0047288397,0.04701857,-0.25445896,-0.45968673,0.17238252,-9.500193,0.9365982,47.664497,-1.3246851,-2.2834342,-3.2205124,-0.7325758,0.14633518,-0.19887628,29.0625,30.375,29.375,33.0625,35.5,36.5625
0.33805332,-2.1068654,-1.0568479,-1.9386345,-0.030959008,0.10162826,-0.16288191,-0.41547942,-0.36037847,0.060063686,3.068625,-0.62270534,3.6355235e-05,-0.15636194,0.050900277,-0.0014514292,-0.05484932,0.011594764,0.0038400453,0.46265572,-1.356288,1.8742756,-2.0937364,-1.5625342,2.437567,-0.24446756,0.1625515,-0.19113964,-0.0043937857,0.045065653,-0.24800393,-0.6703765,0.3256114,-9.5385,0.95226496,47.672558,-1.3792425,-2.2609165,-3.3362756,-0.7383863,0.20694669,-0.26791716,29.0625,30.375,29.375,33.0625,35.5,36.5625
0.34005317,-1.6153252,-0.6538845,-2.021041,-0.044746764,0.10457203,-0.17400694,-0.41579953,-0.3602902,0.0600675,3.0685241,-0.62264997,2.4294643e-05,-0.15726045,0.052335378,-0.001561806,-0.053714644,0.01203224,-0.00462195,0.46218723,-1.3559402,1.8738459,-2.0937245,-1.5624503,2.4370773,-0.246702,0.16252562,-0.19088651,-0.00451231,0.04384853,-0.24177952,-0.4405331,0.3256114,-9.634268,0.89631605,47.687782,-1.4747063,-2.3150334,-3.3723967,-0.73440814,0.20513192,-0.34733814,29.0625,30.375,29.375,33.0625,35.5,36.5625
0.34205365,-1.4353877,-0.86650926,-2.1283224,-0.035985004,0.083323,-0.1739012,-0.41611987,-0.3601856,0.060081776,3.0684135,-0.62258935,-7.197787e-05,-0.1596661,0.053095695,-0.0014917911,-0.053705502,0.013914619,-0.007227808,0.46170634,-1.3556517,1.873475,-2.0937607,-1.5623907,2.4365733,-0.24931864,0.16472065,-0.19343475,-0.0058021024,0.04303856,-0.24178839,-0.34476504,0.3256114,-9.691729,0.97464454,47.67345,-1.3688533,-2.3026211,-3.4165168,-0.7321857,0.24140912,-0.41556525,29.0625,30.375,29.375,33.0625,35.5,36.5625
0.34405342,-0.94363534,-0.81369627,-1.9189891,-0.040905777,0.06775377,-0.16529605,-0.41647613,-0.3600671,0.060097408,3.068274,-0.62261647,-0.00015879728,-0.16067164,0.05430739,-0.0024920192,-0.05254091,0.013322211,-0.0015247876,0.4611649,-1.3553276,1.8730553,-2.0937855,-1.5623187,2.4360673,-0.25157046,0.16682296,-0.19356924,-0.00661113,0.042359058,-0.24974215,-0.26815057,0.24899697,-9.710882,0.8918391,47.684196,-1.2227418,-2.4278474,-3.4292393,-0.7097167,0.27569154,-0.3884071,29.0625,30.375,29.375,33.0625,35.5,36.5625
0.34605342,-0.80579156,-0.6334303,-1.840977,-0.048024617,0.058458183,-0.1806329,-0.4167927,-0.3599705,0.060103342,3.06815,-0.62258214,-0.00014833634,-0.16281135,0.05580729,-0.0026415845,-0.053302728,0.013409012,0.008110662,0.4606721,-1.3550034,1.8726491,-2.0937731,-1.5622109,2.4355695,-0.25615326,0.1682941,-0.19497044,-0.006931338,0.043129988,-0.26395392,-0.24899697,0.24899697,-9.557653,0.8851263,47.683304,-1.1038365,-2.4011426,-3.510603,-0.70263946,0.2976902,-0.2313129,29.0625,30.375,29.375,33.0625,35.5,36.5625
0.34805405,-1.0855954,-0.761573,-1.7422953,-0.043148488,0.059731122,-0.16898994,-0.4170939,-0.35984245,0.06007461,3.0681102,-0.62249416,-0.00011402987,-0.16342793,0.055470407,-0.0020251975,-0.055515286,0.0141599495,0.014138236,0.46016815,-1.3546674,1.8723124,-2.0937855,-1.5621499,2.435016,-0.2569617,0.16803259,-0.19603205,-0.0071737505,0.04484374,-0.2707806,-0.2681506,0.22984336,-9.5385,0.9030289,47.675243,-1.1593678,-2.4194405,-3.462716,-0.6949755,0.30301356,-0.12928471,29.0625,30.375,29.375,33.0625,35.5,36.5625
0.3500534,-0.9274302,-0.30944598,-1.6279752,-0.057509575,0.0723292,-0.1743373,-0.41744787,-0.35974735,0.060084295,3.067946,-0.6224235,-0.00016659357,-0.1644643,0.054972135,-0.0019229148,-0.056798983,0.014334533,0.009653814,0.45963982,-1.3543187,1.8718818,-2.0938332,-1.5620297,2.4344652,-0.25743955,0.16993798,-0.19858612,-0.0072344104,0.045937903,-0.26676145,-0.38307226,0.22984336,-9.481039,0.88960326,47.711964,-1.2420567,-2.5294688,-3.4521089,-0.6972566,0.32039505,-0.11646131,29.0625,30.375,29.375,33.0625,35.5,36.5625
0.35205394,-0.5489529,-0.28464684,-1.5437158,-0.04927602,0.08543737,-0.16909315,-0.41778883,-0.35962382,0.0600925,3.0678234,-0.6225219,-0.0002203636,-0.16640545,0.055459674,-0.0016034682,-0.058603995,0.01467684,-0.0044929697,0.4591111,-1.3539948,1.8714732,-2.0938332,-1.5619687,2.4340143,-0.26053384,0.17136137,-0.20102619,-0.007387081,0.047363818,-0.2556958,-0.47884035,0.21068975,-9.481039,0.8605109,47.655537,-1.2108631,-2.4829705,-3.3557272,-0.70310056,0.31050104,-0.23987734,29.0625,30.375,29.375,33.0625,35.5,36.5625
0.35405356,-1.0515926,-0.531618,-1.3666925,-0.030208886,0.074047975,-0.16062382,-0.41812253,-0.3595367,0.060098585,3.0676482,-0.62249064,-0.0002484344,-0.1671763,0.055079862,-0.0007801786,-0.06070798,0.016187957,-0.01495205,0.45860672,-1.3536595,1.8710669,-2.0938814,-1.5618366,2.4335136,-0.26105168,0.17083102,-0.20212294,-0.008082486,0.048556603,-0.24574183,-0.5363012,0.2681506,-9.212888,0.91198283,47.667187,-1.1981273,-2.3203213,-3.4319587,-0.68203926,0.34035063,-0.36882696,29.0625,30.375,29.375,33.0625,35.5,36.5625
0.3560535,-0.043852698,0.4650065,-1.3171021,-0.027201599,0.0896123,-0.17496686,-0.41844136,-0.3594225,0.060071725,3.0675468,-0.62252843,-0.00019380772,-0.16744915,0.05348652,-0.00018695954,-0.06403834,0.016116232,-0.018763976,0.45809114,-1.3532878,1.8706826,-2.0938933,-1.5617398,2.4330351,-0.26023233,0.17169766,-0.20458618,-0.007899098,0.05156445,-0.24109133,-0.49799395,0.095768064,-9.346964,0.91198283,47.66271,-1.2084488,-2.2045417,-3.44276,-0.66865396,0.3039991,-0.499096,29.0625,30.375,29.375,33.0625,35.5,36.5625
0.35805413,-0.41325074,0.4675967,-1.2160133,-0.020181406,0.08385962,-0.17839865,-0.41878632,-0.35931134,0.060079608,3.067429,-0.622498,-0.00026372608,-0.1678858,0.053790003,-0.0004916027,-0.062877916,0.01624848,-0.0085346615,0.4575747,-1.3529515,1.8702649,-2.0939171,-1.5616683,2.4325154,-0.2602963,0.1730098,-0.2055867,-0.0076759155,0.050585274,-0.2513855,-0.30645782,0.038307227,-9.232041,0.9254084,47.677036,-1.3148373,-2.330865,-3.405217,-0.6668677,0.3305878,-0.46976793,29.0625,30.375,29.375,33.0625,35.5,36.5625
0.36005375,-0.4515015,0.71241826,-1.1229353,-0.006684578,0.08393514,-0.18300308,-0.41913247,-0.35919923,0.06007737,3.0672565,-0.6225087,-0.00023866225,-0.16762462,0.05239958,-0.0014412961,-0.06310442,0.0148691945,0.009458333,0.45701155,-1.352603,1.8698558,-2.0939415,-1.5615233,2.4319818,-0.25811645,0.17649792,-0.20768407,-0.007721853,0.051553376,-0.26718915,-0.21068975,-0.019153614,-9.059659,0.9701675,47.705692,-1.378476,-2.211113,-3.3759098,-0.6599173,0.316267,-0.33828032,29.0625,30.375,29.375,33.0625,35.5,36.5625
0.36205325,-0.22825053,1.3778025,-1.0261179,0.008344629,0.08734019,-0.18038598,-0.41947752,-0.35908356,0.060089633,3.067171,-0.6224685,-0.0002772035,-0.16898052,0.05289418,0.00047010943,-0.06611023,0.01752573,0.01559384,0.456495,-1.3522562,1.8694013,-2.0939047,-1.5614628,2.4314516,-0.26084083,0.17358793,-0.2085742,-0.0075125564,0.0531846,-0.2760369,-0.22984336,-0.019153614,-9.155427,0.89631605,47.69763,-1.487636,-2.2212343,-3.3051658,-0.653958,0.32700205,-0.21140277,29.0625,30.375,29.375,33.0625,35.5,36.5625
0.36405408,-0.6336135,0.98970664,-1.1761967,0.012805422,0.07447896,-0.16429819,-0.41979945,-0.35897473,0.060072,3.0670426,-0.6223892,-0.00023318209,-0.16994718,0.05362598,-0.0005177558,-0.06734165,0.014548341,0.008343043,0.45596582,-1.3519075,1.8690294,-2.093941,-1.5613302,2.4308898,-0.26412827,0.1763269,-0.20984125,-0.0068359096,0.05561043,-0.27205524,-0.2873042,-0.038307227,-9.193734,0.8784135,47.66808,-1.4015894,-2.246921,-3.3237593,-0.6298706,0.3025449,-0.19254585,29.0625,30.375,29.375,33.0625,35.5,36.5625
0.36605406,-0.3485545,0.74149853,-1.0519311,-0.0060083168,0.08750771,-0.1688114,-0.4201464,-0.35885805,0.06006225,3.066871,-0.6223972,-0.00017999513,-0.1712906,0.05480986,-0.0007743266,-0.0664468,0.013609621,-0.0020528673,0.45538905,-1.3515472,1.8686227,-2.0939643,-1.5611743,2.4303408,-0.2667471,0.17814638,-0.21183984,-0.005419533,0.055203427,-0.26427597,-0.4405331,0.0,-9.232041,0.9030289,47.672558,-1.2193394,-2.3415546,-3.3841348,-0.6336272,0.32253695,-0.31376135,29.0625,30.375,29.375,33.0625,35.5,36.5625
0.36805362,-0.22021952,0.0570097,-1.3780175,0.0010964785,0.086700305,-0.15550737,-0.42047995,-0.3587378,0.060059197,3.0667586,-0.62239593,-0.00019724372,-0.17185292,0.05490601,-0.0009550989,-0.065499514,0.013038027,-0.007765764,0.4548615,-1.351211,1.8682264,-2.0939758,-1.5610904,2.4298275,-0.26679286,0.17997806,-0.21398535,-0.0041779964,0.054599307,-0.25860775,-0.22984336,0.038307227,-9.251195,0.900793,47.661808,-1.3144414,-2.3129272,-3.2832632,-0.63849056,0.34814787,-0.40007102,29.0625,30.375,29.375,33.0625,35.5,36.5625
0.37005383,-0.16408074,0.27332518,-1.0879155,-0.0320442,0.08461944,-0.16510323,-0.42082453,-0.35864353,0.06006343,3.0666435,-0.6224087,-0.00021208635,-0.17318763,0.05481126,-9.362292e-05,-0.0677654,0.01334841,-0.006670192,0.4543684,-1.3508269,1.8677477,-2.0939515,-1.561006,2.4293578,-0.26869813,0.18045452,-0.21681483,-0.003028152,0.05655656,-0.2615923,-0.26815057,0.11492168,-9.251195,1.0037369,47.691364,-1.4048638,-2.2723322,-3.3251233,-0.64544165,0.34416878,-0.42602682,29.0625,30.375,29.375,33.0625,35.5,36.5625
0.37205362,-0.1979547,0.036095634,-1.0559274,-0.05152485,0.08735183,-0.18059489,-0.4211533,-0.35849872,0.06004445,3.066576,-0.622368,-0.0001542919,-0.17336112,0.05537688,-0.0007312132,-0.0688629,0.011209103,0.0058853705,0.4538039,-1.3504792,1.8673652,-2.0939271,-1.5609211,2.4287767,-0.2708219,0.18146719,-0.21677348,-0.00245006,0.05862117,-0.27625957,-0.36391866,0.28730422,-9.232041,0.87617236,47.66987,-1.2816167,-2.11767,-3.2747033,-0.6526022,0.3084955,-0.33318156,29.0625,30.375,29.375,33.0625,35.5,36.5625
0.374054,-0.27611634,-0.5845314,-1.71785,-0.044012394,0.07608823,-0.16036767,-0.42153698,-0.35840952,0.06006163,3.066368,-0.6223378,-0.00021746184,-0.17455815,0.05550848,0.00040326346,-0.07183362,0.012272565,0.014428308,0.45325145,-1.3500955,1.8668746,-2.0939748,-1.5607761,2.4282331,-0.2731954,0.18051001,-0.21830504,-0.0020461073,0.060974102,-0.2871533,-0.076614454,0.2681506,-9.346964,0.90527004,47.67345,-1.2058058,-2.1553588,-3.3362548,-0.6690012,0.3110687,-0.15348485,29.0625,30.375,29.375,33.0625,35.5,36.5625
0.37605348,-0.14034405,-0.4659594,-1.4639587,-0.07182234,0.06499076,-0.17083289,-0.42186624,-0.3582867,0.06004531,3.0662858,-0.62226874,-0.00013985715,-0.1765115,0.056344874,0.0006161637,-0.073750235,0.011813923,0.008092776,0.45270982,-1.3497236,1.866454,-2.093939,-1.5606674,2.4276593,-0.27714387,0.18196158,-0.2207143,-0.0014821853,0.06290204,-0.2847524,-0.095768064,0.34476504,-9.461885,0.88960326,47.684196,-1.0286131,-2.2572522,-3.2857513,-0.6749511,0.26523274,-0.14442213,29.0625,30.375,29.375,33.0625,35.5,36.5625
0.37805393,-0.6669293,-1.3221551,-1.5115105,-0.07646568,0.032592908,-0.1526397,-0.42222175,-0.35819498,0.06005597,3.0661008,-0.6221958,-0.00014601441,-0.17578013,0.0555934,-0.0008771308,-0.07438961,0.0084166415,-0.0009364764,0.4521703,-1.3493627,1.866,-2.093963,-1.560511,2.4270988,-0.27627873,0.18500443,-0.22107647,-0.0014178985,0.064938195,-0.2748368,-0.30645782,0.38307226,-9.423578,0.92764956,47.674347,-1.1389697,-2.2059228,-3.3166618,-0.6741929,0.24996993,-0.24294925,29.0625,30.375,29.375,33.0625,35.5,36.5625
