Tylouw/Master_Thesis_Code/training_data/batch_1/rect_rod_t0.2/sample_42_session_2.csv
timestamp[s],tcp_force_x[N],tcp_force_y[N],tcp_force_z[N],tcp_force_rx[Nm?],tcp_force_ry[Nm?],tcp_force_rz[Nm?],tcp_pose_x[m],tcp_pose_y[m],tcp_pose_z[m],tcp_pose_rx[rot_vec_x],tcp_pose_ry[rot_vec_y],tcp_pose_rz[rot_vec_z],tcp_velo_x[m/s],tcp_velo_y[m/s],tcp_velo_z[m/s],tcp_velo_rx[rot_vec_x/s],tcp_velo_ry[rot_vec_y/s],tcp_velo_rz[rot_vec_z/s],q1[rad],q2[rad],q3[rad],q4[rad],q5[rad],q6[rad],qd1[rad/s],qd2[rad/s],qd3[rad/s],qd4[rad/s],qd5[rad/s],qd6[rad/s],tool_acc_x,tool_acc_y,tool_acc_z,current_of_whole_robot[A],voltage_of_whole_robot[V],current_J1[A],current_J2[A],current_J3[A],current_J4[A],current_J5[A],current_J6[A],temp_J1[C],temp_J2[C],temp_J3[C],temp_J4[C],temp_J5[C],temp_J6[C]
9.550004e-07,0.31919593,0.016407797,0.8869,-0.012107884,0.010937446,-0.006759376,-0.38935846,-0.36871508,0.060027786,-3.0787268,0.6249131,0.0002868046,0.0018695362,0.0010626119,-0.0018323312,0.0024249025,-0.004676722,-4.7254598e-05,0.5050208,-1.3816675,1.904188,-2.0919268,-1.5708774,2.480001,-0.00013325292,0.00063185825,0.003066637,0.0015670775,0.0001508759,-8.753047e-05,0.019153614,0.038307227,-8.695741,0.7239871,47.682407,-0.18269601,-3.079351,-2.3580618,-0.21895257,0.19754004,0.012123007,28.875,30.25,29.3125,32.9375,35.4375,36.5
0.002055448,0.28947547,-0.13845588,0.80136544,-0.0014490738,0.008671106,-0.00855526,-0.38931626,-0.3687191,0.060007136,-3.078715,0.6249305,0.00018552947,-0.0011117718,-0.00059579755,-0.0017693463,-0.0021395194,0.0035313726,-4.4368076e-05,0.50504476,-1.381679,1.9042472,-2.0919201,-1.5708417,2.4800372,-0.00013083158,0.002505499,0.0033239422,-0.009955705,0.00014777937,-8.658072e-05,0.05746084,0.21068975,-8.714894,0.71279734,47.684196,-0.21691722,-3.0215259,-2.4093502,-0.1616511,0.19287655,0.022911053,28.875,30.25,29.3125,32.9375,35.4375,36.5
0.00405456,0.15942891,-0.15521464,0.8048224,-0.0034222163,0.011387223,-0.0049102553,-0.389335,-0.36872247,0.060001183,-3.078726,0.62491363,0.00019912269,-0.0018511256,-0.0010072555,-0.0015123086,-0.0031715094,0.005392807,-4.291889e-05,0.50503284,-1.3816429,1.9042233,-2.091944,-1.5708417,2.4800134,-0.00012849666,0.0027865057,0.002845063,-0.011886191,0.00014480701,-8.5243395e-05,0.076614454,0.2681506,-8.6574335,0.7530795,47.684196,-0.18557686,-3.3348715,-2.5817516,-0.031663265,0.18776041,0.01645241,28.875,30.25,29.3125,32.9375,35.4375,36.5
0.006054007,0.22158194,-0.03964687,0.9068036,0.014974074,-0.0063989423,-0.0069378153,-0.389344,-0.3687167,0.060021885,-3.0787008,0.6249275,0.0002751689,-0.0010329618,-0.0005524901,-0.000910822,-0.0016245084,0.00262076,-4.2099473e-05,0.50504476,-1.3816671,1.904199,-2.0919178,-1.5708898,2.4800372,-0.00012624386,0.0018485535,0.0013017753,-0.006230458,0.00014195211,-8.3920684e-05,0.038307227,0.17238252,-8.619126,0.81351066,47.681515,-0.16622244,-3.3681593,-2.4936633,-0.08090569,0.19201306,0.0043262294,28.875,30.25,29.3125,32.9375,35.4375,36.5
0.00805459,1.0445185,1.2753081,0.51150936,0.029426174,-0.014226611,-0.012924666,-0.38930815,-0.3687262,0.05998371,-3.0787027,0.62490875,0.00012644894,-0.00014919856,-6.6298155e-05,-6.214711e-05,-0.00043717583,0.00046937863,-4.1682793e-05,0.5050568,-1.3816319,1.9042462,-2.0919273,-1.5708297,2.4800372,-0.00012406839,3.3772798e-05,0.00032382546,-0.000980482,0.0001538991,-8.263647e-05,-0.038307227,0.17238252,-8.714894,0.65908957,47.70211,-0.15728243,-3.1859298,-2.4257448,-0.11390129,0.1838316,-0.0060503837,28.875,30.25,29.3125,32.9375,35.4375,36.5
0.010054198,0.6418722,0.8403584,0.12994379,0.04017186,-0.022036793,-0.0014382346,-0.38933754,-0.36869362,0.059996027,-3.0786679,0.6250168,0.00018953925,0.0012800607,0.0007281356,-0.000521077,0.0020316602,-0.0039658113,-4.1431882e-05,0.50499684,-1.3816559,1.9042462,-2.0919254,-1.5708655,2.4800491,-0.00012206059,4.5310523e-07,0.00022643399,0.004226267,0.00015097471,-8.139105e-05,-0.05746084,0.19153613,-9.002198,0.6546126,47.70659,-0.7017262,-2.719266,-2.9433362,-0.16446298,0.17618439,-0.0446778,28.875,30.25,29.3125,32.9375,35.4375,36.5
0.012054655,0.28938824,0.2668447,0.11787405,0.00031020495,0.0016844434,-0.015897155,-0.38929936,-0.3686931,0.05996421,-3.0786355,0.6248971,8.760756e-05,-5.0643004e-05,0.0026067067,-0.00399344,0.0049498146,-0.0091827,-0.0044091004,0.50503165,-1.3816297,1.9042825,-2.0919025,-1.5708655,2.4800134,-0.004512421,0.0070390585,3.0379008e-06,0.0033886773,0.00011894334,-0.000102745886,0.038307227,0.15322891,-9.155427,0.6546126,47.668976,-0.8089763,-2.7058928,-3.1088662,-0.1365284,0.16499507,-0.10527398,28.875,30.25,29.3125,32.9375,35.4375,36.5
0.01405405,-0.02976169,-0.59772605,-0.07908172,-0.03502732,0.02996177,-0.01895707,-0.38932446,-0.36869845,0.05997503,-3.078648,0.62495613,0.00013186925,-0.004586048,0.0034674257,-0.003748549,0.0038192666,-0.007157685,-0.0027764542,0.50501716,-1.3816158,1.9042443,-2.0919154,-1.5708655,2.480034,-0.0102033345,0.011414166,-0.0054384596,0.0021346137,0.000113426475,-0.0074232346,0.019153614,0.1340753,-9.346964,0.7172743,47.660015,-0.42612076,-3.139733,-3.0767512,-0.11172047,0.15774763,-0.1050926,28.875,30.25,29.3125,32.9375,35.4375,36.5
0.016053872,-0.90703803,-0.803434,-0.14039552,-0.05762089,0.04064846,-0.011597491,-0.3893346,-0.3686825,0.05994811,-3.0786145,0.6249269,6.0125894e-05,-0.006284774,0.0033852053,-0.0026313332,0.0024893938,-0.004759413,0.0025406717,0.5049808,-1.3815558,1.9042319,-2.091903,-1.5708655,2.4799838,-0.011651944,0.011319694,-0.007805166,0.0018523391,0.00010984952,-0.014187988,-0.21068975,0.19153613,-9.423578,0.6926589,47.68062,-0.4824459,-3.017584,-2.9693208,-0.081348196,0.15966226,-0.046386387,28.875,30.25,29.3125,32.9375,35.4375,36.5
0.01805402,-1.2769356,-0.3791567,-0.20640947,-0.05513464,0.052128524,-0.035141334,-0.3893317,-0.36866945,0.059942562,-3.0785832,0.62488025,1.5719741e-05,-0.005741448,0.0034654173,-0.0026860808,0.0026266521,-0.0049988762,0.0066625597,0.504969,-1.3815441,1.90422,-2.0918553,-1.5708774,2.4799469,-0.011276164,0.010545801,-0.0067692436,0.0018654491,0.0001065891,-0.017934645,-0.3256114,0.22984336,-9.500193,0.6635613,47.695843,-0.7190429,-2.899651,-3.2482677,-0.07579999,0.15266877,-0.01860086,28.875,30.25,29.3125,32.9375,35.4375,36.5
0.020054469,-0.8665323,-0.10127243,-0.40842032,-0.01454102,0.0730247,-0.060092982,-0.3893295,-0.36866906,0.05992879,-3.0785816,0.62499446,-9.1127906e-05,-0.0045353407,0.0044977693,-0.0030842386,0.005451146,-0.010078394,0.007967645,0.5049329,-1.38152,1.9042195,-2.091841,-1.5708174,2.4799821,-0.011883649,0.010858561,-0.007687854,0.008284148,0.000103523395,-0.01984747,-0.45968673,0.21068975,-9.634268,0.80456203,47.71823,-0.8185775,-2.715094,-3.4200358,-0.115976065,0.1663534,0.002611768,28.875,30.25,29.3125,32.9375,35.4375,36.5
0.022054637,-0.554111,0.3542236,-0.6272486,0.005780304,0.07721332,-0.07431223,-0.38932544,-0.3686758,0.05990667,-3.0785747,0.6248227,-0.00013642796,-0.0068375217,0.004853447,-0.0033405535,0.005400969,-0.009998647,0.0044016046,0.5049557,-1.3814586,1.9041947,-2.091829,-1.5708297,2.4798987,-0.0146364905,0.014300953,-0.011156364,0.008216062,0.000100629404,-0.019032296,-0.53630114,0.17238252,-9.768343,0.7239871,47.698532,-0.79116654,-2.7609668,-3.3545067,-0.13153519,0.1444025,-0.030478988,28.875,30.25,29.3125,32.9375,35.4375,36.5
0.024054207,-0.9659862,-0.16314347,-0.603192,0.0076610614,0.0750376,-0.08641454,-0.38934144,-0.36865166,0.059906285,-3.0785358,0.62485445,-0.00016632638,-0.008585768,0.004543902,-0.002281713,0.0036821226,-0.006900842,0.0016539828,0.50490755,-1.3814468,1.9041709,-2.0917819,-1.5708417,2.4798753,-0.015749063,0.014246701,-0.013166834,0.0067380914,9.789274e-05,-0.017396275,-0.7086837,0.19153613,-9.749189,0.7463667,47.655537,-0.82655764,-2.7224693,-3.3453562,-0.091502756,0.14183164,-0.06718631,28.875,30.25,29.3125,32.9375,35.4375,36.5
0.026054539,-1.3800689,0.029395713,-0.6466809,-0.022882728,0.07976409,-0.10513481,-0.38935024,-0.36866066,0.059893087,-3.0785444,0.6248192,-0.00019284476,-0.0101962155,0.004498575,-0.0025445204,0.003333038,-0.006279039,-0.0006463391,0.504907,-1.3813977,1.9041456,-2.0917938,-1.5708297,2.4798517,-0.017178988,0.016836276,-0.015382746,0.0056516817,9.5301206e-05,-0.016524442,-0.7278373,0.1340753,-9.691729,0.67475104,47.67614,-0.8214439,-2.7132769,-3.276859,-0.08140454,0.11829893,-0.06588427,28.875,30.25,29.3125,32.9375,35.4375,36.5
0.028054535,-1.5252906,-0.36837417,-0.8233108,-0.02536211,0.09264385,-0.11222243,-0.38938946,-0.36864674,0.059906404,-3.0785437,0.62489676,-0.0001654718,-0.010023281,0.0051079863,-0.0033032438,0.0046808217,-0.008682232,-0.0018749865,0.5048469,-1.3813854,1.9040979,-2.0917814,-1.5708297,2.47984,-0.01803357,0.018157473,-0.015589386,0.0072925175,8.144129e-05,-0.016150229,-0.7469909,0.1340753,-9.768343,0.7709874,47.69763,-0.88840103,-2.7979913,-3.3628922,-0.08689898,0.11123973,-0.1046622,28.875,30.25,29.3125,32.9375,35.4375,36.5
0.030054035,-2.1103673,-0.6329805,-0.5891883,-0.020149155,0.084764,-0.11519427,-0.3893716,-0.3686414,0.059872534,-3.0784914,0.62480867,-0.00032203097,-0.010244717,0.0051176217,-0.0028602716,0.0049922736,-0.009220211,-0.0026198407,0.5048468,-1.3813132,1.9040731,-2.0917084,-1.5708174,2.4797916,-0.018249875,0.018310746,-0.01726483,0.009436506,6.865276e-05,-0.015621184,-0.8236054,0.038307227,-9.768343,0.7530795,47.704796,-0.89741635,-2.7962174,-3.3665676,-0.1091154,0.11568074,-0.09997683,28.875,30.25,29.3125,32.9375,35.4375,36.5
0.032053698,-1.915897,-0.13050681,-0.58439165,-0.008672843,0.08574504,-0.1328495,-0.38938585,-0.3686277,0.059861716,-3.0784645,0.62482333,-0.00036563797,-0.01086998,0.0056486973,-0.003126204,0.0055914856,-0.010300833,-0.0046918616,0.5048104,-1.3812767,1.9040493,-2.0916846,-1.5708174,2.4797678,-0.019727284,0.019552441,-0.018378044,0.010543745,6.626707e-05,-0.015026036,-0.78529817,-0.019153614,-9.825804,0.7665104,47.666286,-0.9061934,-2.7482605,-3.441556,-0.123380706,0.10415529,-0.13053569,28.875,30.25,29.3125,32.9375,35.4375,36.5
0.03405416,-1.269975,0.3891511,-0.4317427,0.0140278395,0.0959714,-0.15108588,-0.38943148,-0.3686289,0.059865642,-3.078485,0.6248859,-0.00033488154,-0.012392014,0.0052036825,-0.001993111,0.0039036733,-0.007257369,-0.0055474928,0.50476223,-1.3812289,1.9039892,-2.0917084,-1.5708054,2.479756,-0.02039866,0.019283174,-0.02036199,0.0093170265,6.463484e-05,-0.014840878,-0.7661445,-0.05746084,-9.864111,0.78888994,47.690468,-0.97636855,-2.6915836,-3.346313,-0.095707476,0.093119934,-0.13802958,28.875,30.25,29.3125,32.9375,35.4375,36.5
0.036054395,-1.3778615,0.25142595,-0.71193546,0.03101486,0.07921916,-0.15290125,-0.38947377,-0.36861217,0.05987139,-3.07847,0.62492096,-0.00032037817,-0.013987387,0.0050215325,-0.0015152122,0.0030306764,-0.0053550117,-0.006160163,0.504702,-1.3811923,1.9039277,-2.0916855,-1.5708174,2.4797196,-0.02148074,0.020376777,-0.022508297,0.008282791,-9.882489e-05,-0.015308826,-0.6703765,-0.05746084,-9.787497,0.76874626,47.711964,-0.9566014,-2.7256606,-3.3323574,-0.09553618,0.09415126,-0.17061003,28.875,30.25,29.3125,32.9375,35.4375,36.5
0.038053907,-0.9884873,0.38615108,-0.6275234,0.020763459,0.067542866,-0.15595017,-0.38948396,-0.3685907,0.05983923,-3.0784311,0.6249715,-0.00043017915,-0.015440297,0.005502318,-0.0014883993,0.002871847,-0.0049884636,-0.007706778,0.5046414,-1.3811318,1.9039267,-2.0916736,-1.5707935,2.4796956,-0.023620997,0.021737207,-0.024152234,0.008169107,-0.00014259618,-0.01590148,-0.5554548,0.05746084,-9.653421,0.7172743,47.694946,-0.92135715,-2.7491257,-3.2746217,-0.06824644,0.07817533,-0.1737022,28.875,30.25,29.3125,32.9375,35.4375,36.5
0.04005485,-1.131441,-0.19521119,-0.6289329,0.022167603,0.047090136,-0.17163031,-0.38955954,-0.36858138,0.059877448,-3.078427,0.62502855,-0.00027121,-0.016422234,0.0063398397,-0.0015996915,0.0030786947,-0.0052697985,-0.008022617,0.50459254,-1.3811077,1.9038085,-2.0916612,-1.5708536,2.479683,-0.02591668,0.022391945,-0.02473546,0.008442763,-0.00018797933,-0.01788094,-0.47884035,0.019153614,-9.653421,0.75084364,47.666286,-0.80105436,-2.659217,-3.3898115,-0.061987303,0.07421102,-0.18293399,28.875,30.25,29.3125,32.9375,35.4375,36.5
0.04205477,-0.093071744,0.47231886,-0.47361943,-0.0055532907,0.058667812,-0.1995433,-0.3895665,-0.36858436,0.0598624,-3.0784285,0.6250473,-0.00034982344,-0.017300703,0.006228489,-0.000903464,0.0026623295,-0.0044131614,-0.006795142,0.5045684,-1.3810596,1.9037832,-2.0916493,-1.5708174,2.4796703,-0.026516553,0.022579858,-0.026739055,0.009307892,-0.0002414664,-0.019707426,-0.34476504,-0.095768064,-9.730036,0.73069996,47.690468,-0.8384448,-2.6441422,-3.3390808,-0.0575257,0.0678569,-0.17937794,28.875,30.25,29.3125,32.9375,35.4375,36.5
0.044054277,-0.64255387,-0.26326227,-0.6224631,0.007231075,0.034494273,-0.1960843,-0.3896299,-0.3685543,0.05987101,-3.0784023,0.6250606,-0.00024618083,-0.01853147,0.0062326244,-0.00025171248,0.0027764381,-0.0031766458,-0.0067918445,0.50449634,-1.3810232,1.9037231,-2.0916607,-1.5708779,2.47961,-0.027233383,0.023292324,-0.02923721,0.010067504,-0.0009426616,-0.020425225,-0.24899697,0.019153614,-9.672575,0.7150385,47.687782,-0.8191876,-2.6887498,-3.3033285,-0.0543079,0.052414514,-0.19189505,28.875,30.25,29.3125,32.9375,35.4375,36.5
0.04605434,-0.2401407,0.0631202,-0.6211955,-0.0024573896,0.033886123,-0.21117097,-0.38969147,-0.36854452,0.059887905,-3.0784216,0.62521863,-0.00023997064,-0.019268885,0.0068357117,-0.0004891462,0.003486578,-0.004226168,-0.0076372777,0.5044,-1.3809866,1.9036387,-2.0916488,-1.5708421,2.4796097,-0.028862363,0.024608778,-0.030535731,0.011312541,-0.0010569949,-0.021207992,-0.19153613,0.076614454,-9.595961,0.75755644,47.625084,-0.846872,-2.6912675,-3.316885,-0.055419087,0.057970993,-0.20052688,28.875,30.25,29.3125,32.9375,35.4375,36.5
0.048054717,0.3588849,0.16859922,-0.41202578,-0.009749042,0.039472476,-0.21729733,-0.3896956,-0.36853662,0.059859,-3.0783799,0.62515336,-0.00036849984,-0.019813318,0.0078012967,-0.0010683867,0.0044609513,-0.0059885657,-0.008445556,0.50437534,-1.3809022,1.903591,-2.0915883,-1.5708302,2.4795496,-0.030994719,0.025892515,-0.031009154,0.0125161,-0.0010593188,-0.022531696,-0.05746084,0.17238252,-9.615114,0.64342284,47.66987,-0.847541,-2.728727,-3.361102,-0.04802624,0.04476926,-0.22738582,28.875,30.25,29.3125,32.9375,35.4375,36.5
0.05005392,-0.34925908,-0.7864115,-0.8200421,0.0006845308,0.008141754,-0.18709874,-0.38974115,-0.36852157,0.059871297,-3.078382,0.6251715,-0.00032914,-0.02076039,0.008141141,-0.00094614143,0.004488941,-0.0058120266,-0.007730147,0.5043149,-1.3808779,1.9035314,-2.0915759,-1.5708421,2.4795003,-0.032378495,0.026694661,-0.032319218,0.012882757,-0.0011718997,-0.024630072,0.019153614,0.21068975,-9.519346,0.7732232,47.66808,-0.75213575,-2.676528,-3.3817797,-0.065800376,0.05520525,-0.21970646,28.875,30.25,29.3125,32.9375,35.4375,36.5
0.052054286,0.29348832,-0.73658603,-0.76969886,-0.0062381234,0.015043339,-0.18329646,-0.38979363,-0.36849907,0.059876148,-3.0783691,0.6251482,-0.0003037529,-0.022157991,0.007936153,-3.910393e-06,0.0037679933,-0.0043003145,-0.0060817422,0.50424284,-1.3808297,1.903458,-2.0915515,-1.570866,2.4794154,-0.033270117,0.027157871,-0.035175547,0.013603272,-0.0012771097,-0.027168741,0.0,0.19153613,-9.5385,0.7463667,47.668976,-0.795679,-2.654378,-3.3293204,-0.07839158,0.03994804,-0.22797659,28.875,30.25,29.3125,32.9375,35.4375,36.5
0.054054603,-0.08206168,-0.7442147,-0.5632871,-0.010206505,0.004141292,-0.18419468,-0.38983384,-0.36847994,0.059856184,-3.078341,0.62522006,-0.00038628114,-0.023283958,0.0084835,0.00011922104,0.0036694226,-0.004108631,-0.0062530492,0.5041582,-1.3807454,1.9033984,-2.0915277,-1.5708421,2.4793792,-0.03523274,0.027870346,-0.03635784,0.01385796,-0.0012879773,-0.028959412,0.019153614,0.21068975,-9.5385,0.65684843,47.61882,-0.79763275,-2.5570192,-3.2140617,-0.06457387,0.04566371,-0.22388837,28.875,30.25,29.3125,32.9375,35.4375,36.5
0.056053802,0.13150102,-0.5611395,-0.59457475,-0.01876156,0.0121958405,-0.1909946,-0.38988376,-0.3684559,0.059873987,-3.0783236,0.6252925,-0.0003333754,-0.02413716,0.009067054,0.00010536134,0.004092685,-0.0044862037,-0.0067357738,0.50408596,-1.3807331,1.9033378,-2.0915034,-1.570866,2.4793544,-0.036890123,0.02872224,-0.037526444,0.0147094345,-0.0014769721,-0.03013322,0.11492168,0.21068975,-9.519346,0.7284641,47.635834,-0.7917787,-2.5525713,-3.254065,-0.07732177,0.022546258,-0.22954515,28.875,30.25,29.3125,32.9375,35.4375,36.5
0.05805513,0.15017055,-0.58447045,-0.43593913,-0.026457315,0.024014832,-0.18666656,-0.3899376,-0.3684361,0.05987439,-3.0782893,0.6253044,-0.00039167755,-0.024485692,0.00842586,0.00029571963,0.003853842,-0.0040111323,-0.0050888467,0.50400233,-1.3806487,1.9032182,-2.0914195,-1.570866,2.4792826,-0.03611654,0.029732967,-0.039182313,0.014823059,-0.0015029713,-0.031005623,0.05746084,0.24899697,-9.481039,0.7284641,47.693153,-0.80431557,-2.5511403,-3.2749786,-0.07449086,0.013098403,-0.25341725,28.875,30.25,29.3125,32.9375,35.4375,36.5
0.060053986,0.024956936,-0.8668969,-0.43940386,-0.02373981,0.030743664,-0.18091851,-0.39001507,-0.36841577,0.05988871,-3.078301,0.6253056,-0.00028382987,-0.025197903,0.008752635,0.00037208595,0.0038823884,-0.004199464,-0.005315541,0.5039181,-1.3806003,1.9031337,-2.0914433,-1.5709018,2.4791977,-0.037366588,0.03038711,-0.040269043,0.015432676,-0.0014369914,-0.03202871,-0.05746084,0.30645782,-9.442732,0.75084364,47.707485,-0.90022993,-2.5113626,-3.335249,-0.08273913,0.018888557,-0.24584854,28.875,30.25,29.3125,32.9375,35.4375,36.5
0.062054325,0.494312,-0.03168321,-0.08452331,-0.034783673,0.047128577,-0.19647145,-0.39006242,-0.3684122,0.05990976,-3.0783322,0.6253697,-0.00029092692,-0.026833633,0.009021013,0.00076429796,0.0033630065,-0.0031097268,-0.0061778487,0.5038456,-1.3805759,1.9030489,-2.0914075,-1.570866,2.4791613,-0.03929281,0.031460848,-0.042397942,0.015283906,-0.0015132881,-0.033091463,-0.038307227,0.28730422,-9.481039,0.78217715,47.68062,-0.78712016,-2.5224771,-3.2634914,-0.09642445,0.0062112617,-0.25902498,28.875,30.25,29.3125,32.9375,35.4375,36.5
0.06405391,-0.14392015,-0.5715975,-0.14909084,-0.018868461,0.03527582,-0.18994124,-0.39009443,-0.36840394,0.059897903,-3.078311,0.6252696,-0.00033738094,-0.027777215,0.00916786,0.0011095775,0.0028485742,-0.0022741952,-0.006583255,0.5038092,-1.3804917,1.9029654,-2.0913594,-1.5708779,2.4790652,-0.040443935,0.0317642,-0.04350456,0.015106363,-0.0014710661,-0.033836678,-0.038307227,0.30645782,-9.404425,0.7150385,47.66987,-0.7601074,-2.4783368,-3.2527766,-0.10650721,0.0036731805,-0.26772526,28.875,30.25,29.3125,32.9375,35.4375,36.5
0.066054575,-0.21302226,-0.6313787,-0.025298981,-0.013694347,0.038822625,-0.18124677,-0.3901729,-0.36837626,0.059900615,-3.078308,0.6254029,-0.00029411167,-0.028744625,0.008875973,0.0013954971,0.002152095,-0.0012002483,-0.005629614,0.5036894,-1.3804313,1.9028934,-2.0913842,-1.5708779,2.479029,-0.04090237,0.03267679,-0.045101922,0.014513664,-0.0013840374,-0.035248116,-0.1340753,0.28730422,-9.404425,0.7933669,47.64479,-0.8099954,-2.5172052,-3.2434175,-0.10085321,-0.02362849,-0.29279327,28.875,30.25,29.3125,32.9375,35.4375,36.5
0.06805422,-0.19267543,-0.38443944,-0.15351145,-0.008770217,0.049576227,-0.18055551,-0.39022413,-0.36834824,0.059902232,-3.0782435,0.62542796,-0.00031431857,-0.029786544,0.009179737,0.001739583,0.0017328176,-0.0003353181,-0.006475747,0.50361705,-1.3803593,1.9027857,-2.0913007,-1.5709141,2.4789805,-0.042346306,0.03293354,-0.046152625,0.01434643,-0.0014390066,-0.03584527,-0.24899697,0.21068975,-9.404425,0.7351769,47.70211,-0.8496885,-2.449576,-3.3034763,-0.09218037,-0.02310476,-0.2883168,28.875,30.25,29.3125,32.9375,35.4375,36.5
0.07005459,-0.5929367,-0.28673783,-0.20925184,-0.0013973818,0.0435808,-0.17796484,-0.3902644,-0.36833397,0.05988643,-3.0782359,0.6254453,-0.00040997833,-0.030896287,0.009237526,0.001751251,0.0017196123,-0.00025394908,-0.00619252,0.5035328,-1.3802747,1.9027132,-2.091264,-1.5708779,2.478908,-0.043453258,0.034592327,-0.04821841,0.014676844,-0.001472978,-0.037234247,-0.28730422,0.21068975,-9.385271,0.8112748,47.678825,-0.8135985,-2.4502878,-3.2404895,-0.10893032,-0.06392208,-0.320024,28.875,30.25,29.3125,32.9375,35.4375,36.5
0.072055094,-0.3414804,-0.26808432,-0.22752264,0.0069173486,0.057703484,-0.17600124,-0.39033705,-0.36832416,0.059899434,-3.0782666,0.6253733,-0.00038108142,-0.03163875,0.009763707,0.0015454144,0.0025075444,-0.0008769769,-0.0050416472,0.50344855,-1.3802022,1.9025925,-2.0912402,-1.5708779,2.478775,-0.04478025,0.035855543,-0.049448274,0.015570229,-0.0018635172,-0.039710786,-0.36391866,0.19153613,-9.404425,0.77545905,47.67614,-0.78680307,-2.4911544,-3.2630255,-0.100565135,-0.06254499,-0.30126444,28.875,30.25,29.3125,32.9375,35.4375,36.5
0.07405443,0.15097015,0.18356301,-0.0093013635,0.0041373624,0.07913381,-0.17592101,-0.39038643,-0.36830398,0.0599029,-3.078256,0.6253707,-0.00037060323,-0.032377675,0.010170061,0.0016011624,0.0037782218,-0.00013007822,-0.004342886,0.50337654,-1.3801539,1.902522,-2.0912158,-1.5708908,2.4787028,-0.045227427,0.036609124,-0.05053444,0.015866075,-0.0033393279,-0.04085332,-0.36391866,0.19153613,-9.251195,0.8224646,47.690468,-0.8053277,-2.439827,-3.2394738,-0.10942551,-0.057725266,-0.3217839,28.875,30.25,29.3125,32.9375,35.4375,36.5
0.07605409,-0.91483223,0.1263658,-0.19337825,0.012645749,0.059104666,-0.1807414,-0.39046004,-0.3682941,0.059913527,-3.0782554,0.6254104,-0.00035652955,-0.03367066,0.0115013495,0.0016560951,0.0041818367,-8.493244e-05,-0.0074715116,0.50329155,-1.3800696,1.9023899,-2.0911796,-1.5708913,2.4786427,-0.048429955,0.036764476,-0.050937127,0.016269607,-0.003714335,-0.040926397,-0.45968673,-0.019153614,-9.270349,0.71951014,47.684196,-0.84139585,-2.436898,-3.2625723,-0.12242676,-0.056040995,-0.33480898,28.875,30.25,29.3125,32.9375,35.4375,36.5
0.07805391,-0.41502982,0.18203138,-0.02156763,0.009954418,0.07754662,-0.17883167,-0.3905441,-0.3682607,0.059912864,-3.078231,0.62540215,-0.00034620508,-0.034710694,0.010795832,0.0016565035,0.0040439665,-2.8676992e-05,-0.003987546,0.5031719,-1.3799728,1.9022688,-2.0911438,-1.5709151,2.478521,-0.04825755,0.039451372,-0.054229967,0.016757345,-0.0036290046,-0.044236373,-0.38307226,-0.076614454,-9.32781,0.7351769,47.64658,-0.81194586,-2.4922879,-3.2373583,-0.11840233,-0.068744056,-0.33837026,28.875,30.25,29.3125,32.9375,35.4375,36.5
0.08005392,-0.5784115,0.39210182,-0.13664144,0.008624245,0.07364788,-0.18288982,-0.39061084,-0.3682568,0.05994483,-3.0782864,0.62541175,-0.00030080558,-0.034910865,0.010718816,0.0012025214,0.0047748326,-8.625176e-05,-0.0013711266,0.5030883,-1.3799483,1.9021615,-2.0911195,-1.5708913,2.4784365,-0.04792465,0.040806208,-0.05468872,0.01626665,-0.004242239,-0.046518497,-0.38307226,-0.076614454,-9.32781,0.73741806,47.67166,-1.0033479,-2.4876826,-3.1689277,-0.1448703,-0.050728567,-0.3339234,28.875,30.25,29.3125,32.9375,35.4375,36.5
0.08205379,-0.6981549,0.24114822,-0.13127567,0.01118341,0.08077867,-0.17227966,-0.39067847,-0.36824632,0.05993635,-3.078266,0.6253864,-0.00031784349,-0.035712603,0.012499056,0.0004914667,0.0070141847,-0.0006986789,0.000506477,0.50301534,-1.3798279,1.9020303,-2.0910842,-1.5709037,2.4783504,-0.05061849,0.041505054,-0.053940702,0.016440194,-0.0059102834,-0.05108687,-0.4405331,-0.21068975,-9.32781,0.7239871,47.661808,-0.8030849,-2.414032,-3.3951707,-0.14971392,-0.045977738,-0.30030775,28.875,30.25,29.3125,32.9375,35.4375,36.5
0.084053636,-0.45568606,0.60372835,-0.13605812,0.014364934,0.08175895,-0.18783987,-0.39076775,-0.3682026,0.059944782,-3.0782654,0.62542635,-0.0003034238,-0.037944924,0.013508621,0.00080363126,0.0087520555,0.0012786265,-0.0013509642,0.50285894,-1.3797672,1.901934,-2.0910604,-1.5709041,2.478219,-0.05283749,0.043136083,-0.056618165,0.016599737,-0.008391606,-0.051442463,-0.45968673,-0.05746084,-9.232041,0.7396539,47.651955,-0.8050513,-2.5412378,-3.317486,-0.14411278,-0.039710198,-0.30322015,28.875,30.25,29.3125,32.9375,35.4375,36.5
0.086054094,-0.7699182,0.2964156,-0.3277206,0.027608203,0.06930162,-0.17447092,-0.3908412,-0.36817226,0.059936266,-3.0782268,0.6254366,-0.00027970746,-0.040140677,0.013895984,0.0015973246,0.009620732,0.0032410969,-0.0009546683,0.5027627,-1.3796706,1.9018363,-2.0910475,-1.5709413,2.4781342,-0.054455828,0.044683773,-0.060491126,0.017627051,-0.010106237,-0.05345202,-0.40222588,0.0,-9.32781,0.80456203,47.667187,-0.7811986,-2.4657187,-3.2082257,-0.15877108,-0.017396789,-0.2957412,28.875,30.25,29.3125,32.9375,35.4375,36.5
0.08805405,-0.70971847,0.37277314,-0.118101016,0.025112245,0.073099166,-0.17981009,-0.3908836,-0.3681348,0.05990521,-3.078161,0.62539977,-0.00038422705,-0.038878955,0.013631716,0.0008222578,0.011209838,0.0016450539,0.005162289,0.50266755,-1.3795624,1.9017652,-2.0909874,-1.5709532,2.4780245,-0.05244077,0.045369346,-0.059698116,0.018312333,-0.010734108,-0.05755197,-0.45968673,-0.038307227,-9.32781,0.7217513,47.65464,-0.9718732,-2.5301366,-3.253643,-0.15628545,0.0035577721,-0.27127272,28.875,30.25,29.3125,32.9375,35.4375,36.5
0.09005393,-0.6778195,0.25954017,-0.17415032,0.01949877,0.07211686,-0.18272209,-0.39096242,-0.36811385,0.059914533,-3.0781646,0.62538075,-0.0003851637,-0.03998782,0.014775447,0.00059991295,0.012255859,0.0010667462,0.0063004647,0.50255895,-1.3794779,1.9016331,-2.0909393,-1.5709532,2.4779036,-0.054987285,0.04640276,-0.0606223,0.019214012,-0.0113745965,-0.06123493,-0.47884035,-0.019153614,-9.32781,0.77545905,47.684196,-0.9470042,-2.4557266,-3.339848,-0.18477717,0.030831963,-0.22209907,28.875,30.25,29.3125,32.9375,35.4375,36.5
0.0920539,-0.112727694,-0.34496495,-0.27526736,0.008149756,0.07818938,-0.17689233,-0.391079,-0.3680911,0.059928555,-3.0781703,0.6253792,-0.00031958468,-0.04089125,0.014349039,0.00077645225,0.010453335,-9.609177e-05,0.008044815,0.50242674,-1.3793572,1.9014529,-2.090915,-1.5709766,2.4777699,-0.056427844,0.048011072,-0.06317956,0.020302447,-0.009237979,-0.064423285,-0.40222588,0.019153614,-9.346964,0.7978386,47.66987,-0.8886505,-2.500133,-3.288783,-0.20606121,-0.001591092,-0.20066614,28.875,30.25,29.3125,32.9375,35.4375,36.5
0.09405366,0.20008652,-0.27393624,-0.25219417,-0.020534499,0.075358175,-0.1841039,-0.39113358,-0.36806536,0.059921987,-3.0781324,0.625313,-0.00032733576,-0.04104181,0.01388867,0.00066578825,0.009103386,-0.001458879,0.009939477,0.5023547,-1.3792727,1.901357,-2.0908673,-1.5710119,2.4776614,-0.056930512,0.049082667,-0.064341545,0.020926856,-0.0074037006,-0.0668234,-0.4405331,0.076614454,-9.3661175,0.784413,47.653748,-0.9199392,-2.4834123,-3.2397456,-0.21847844,-0.032927386,-0.148612,28.875,30.25,29.3125,32.9375,35.4375,36.5
0.09605334,-0.47374004,-0.98763233,-0.5227999,-0.019929167,0.0498988,-0.17525698,-0.3912252,-0.36802587,0.05990951,-3.0781157,0.62527084,-0.00034523432,-0.04171497,0.013949977,0.0007711604,0.008187283,-0.0012697474,0.0105951065,0.50221044,-1.3791525,1.9012378,-2.0908434,-1.5710238,2.477493,-0.058086716,0.04948349,-0.06497585,0.020548565,-0.006697513,-0.06863614,-0.38307226,0.22984336,-9.32781,0.7642693,47.684196,-0.9599826,-2.42158,-3.2956862,-0.24077484,-0.028212242,-0.1297059,28.875,30.25,29.3125,32.9375,35.4375,36.5
0.09805354,0.009241086,-0.43092135,-0.44447568,-0.032066084,0.062066387,-0.17922086,-0.39130324,-0.3679835,0.059921805,-3.0780885,0.62532115,-0.000376177,-0.04247841,0.013947375,-0.00034508976,0.009034639,-0.0026113277,0.011737294,0.5020666,-1.3790911,1.9011182,-2.0907595,-1.5710238,2.477384,-0.058716904,0.053052474,-0.066575035,0.020161428,-0.0068026013,-0.070406884,-0.24899697,0.19153613,-9.481039,0.6702794,47.6421,-0.9762463,-2.599938,-3.265992,-0.23130593,-0.03220249,-0.08346093,28.875,30.25,29.3125,32.9375,35.4375,36.5
0.10005346,-0.52631974,-1.0236967,-0.5957588,-0.010354153,0.044596184,-0.17395607,-0.39139637,-0.36797777,0.059942465,-3.078138,0.6251972,-0.0003328017,-0.043542948,0.01410924,0.001041062,0.008143091,-0.0006884203,0.010785484,0.5019704,-1.3789955,1.9009498,-2.0907233,-1.5710238,2.4772043,-0.0598746,0.051629864,-0.068278596,0.021172773,-0.006945787,-0.07061238,-0.1340753,0.21068975,-9.481039,0.7597976,47.691364,-0.9944805,-2.4133172,-3.2977374,-0.2490463,-0.037433352,-0.06757341,28.875,30.25,29.3125,32.9375,35.4375,36.5
0.10205476,0.30192837,-0.4549146,-0.5014351,-0.023245811,0.060097743,-0.18378691,-0.3914969,-0.36794847,0.059932966,-3.0780988,0.6252088,-0.0003129026,-0.04432792,0.014306591,0.0011252757,0.008149287,-0.0006832284,0.008771484,0.50185025,-1.378851,1.9007949,-2.090699,-1.5710601,2.4770966,-0.060915258,0.05250848,-0.06962125,0.02163227,-0.006956537,-0.0696383,-0.15322891,0.2681506,-9.385271,0.74413085,47.640312,-1.0329475,-2.423592,-3.3263125,-0.25164932,-0.03427346,-0.059277203,28.875,30.25,29.3125,32.9375,35.4375,36.5
0.104054034,-0.46286592,-0.40623596,-0.57364684,-0.020126767,0.029419059,-0.17418434,-0.3915961,-0.367922,0.05994069,-3.0781004,0.62524724,-0.0003241419,-0.045067456,0.014691196,0.0007730855,0.009443317,-0.00071355124,0.0073935622,0.5017065,-1.3787425,1.900638,-2.0906513,-1.5710486,2.4769766,-0.061535176,0.05414723,-0.07081102,0.021836422,-0.008078818,-0.0688773,0.0,0.28730422,-9.289502,0.7911258,47.65912,-1.0596662,-2.4396627,-3.354087,-0.25183108,-0.029840618,-0.05608175,28.875,30.25,29.3125,32.9375,35.4375,36.5
0.106054306,0.15817249,-0.6966707,-0.50866425,-0.01585688,0.03185475,-0.1726759,-0.39165848,-0.36787155,0.059903257,-3.0780303,0.62513745,-0.00040441388,-0.04632696,0.0155706545,-0.0003525648,0.011639811,-0.0014628263,0.0045281867,0.5015862,-1.3786092,1.9005545,-2.0906036,-1.5710849,2.4767969,-0.06319428,0.05752431,-0.07219065,0.021554869,-0.009654701,-0.06766578,-0.019153614,0.2681506,-9.442732,0.7172743,47.658226,-1.0226879,-2.620613,-3.3483732,-0.2639636,-0.022662878,-0.07304648,28.875,30.25,29.3125,32.9375,35.4375,36.5
0.10805361,0.55368054,-0.015952807,-0.46792468,-0.039580036,0.03095086,-0.18557489,-0.3917653,-0.3678474,0.059908852,-3.0780249,0.62511814,-0.00039251405,-0.047345854,0.015874175,0.0006555838,0.011504363,0.00058147544,0.002610761,0.5014542,-1.3784773,1.9003748,-2.0905554,-1.5710973,2.4766536,-0.064093515,0.056563407,-0.07343139,0.02190029,-0.010520781,-0.066645436,-0.019153614,0.24899697,-9.423578,0.7284641,47.66987,-1.0518289,-2.5190094,-3.381455,-0.2751788,0.0066210506,-0.07757114,28.875,30.25,29.3125,32.9375,35.4375,36.5
0.11005379,0.5322908,-0.19625352,-0.3130691,-0.0353574,0.025365077,-0.18526538,-0.3918847,-0.36780968,0.059943706,-3.078027,0.6251573,-0.00025764995,-0.04863003,0.016389469,0.0011846975,0.01209447,0.0020241274,-0.00037780273,0.50130993,-1.3784171,1.9002188,-2.0905316,-1.5711454,2.4765337,-0.06538067,0.05687507,-0.07508879,0.022264991,-0.011729264,-0.064941615,0.038307227,0.2681506,-9.461885,0.7978386,47.670765,-1.0548631,-2.3729725,-3.381161,-0.2724816,0.03140508,-0.1060421,28.875,30.25,29.3125,32.9375,35.4375,36.5
0.1120538,0.28767607,-0.40147522,-0.57072926,-0.028654851,0.019473827,-0.17267932,-0.39196986,-0.36779398,0.059922833,-3.0780213,0.6251578,-0.0003266469,-0.049782723,0.01664451,0.0006922631,0.012178451,0.0011654231,-0.0035338858,0.50118965,-1.37826,1.9000748,-2.0905077,-1.5711216,2.4764144,-0.06707258,0.059373718,-0.07697838,0.022448935,-0.011396,-0.063476585,0.019153614,0.2681506,-9.423578,0.70608455,47.67793,-1.0493863,-2.5293188,-3.3103485,-0.28954804,0.022645496,-0.12547515,28.875,30.25,29.3125,32.9375,35.4375,36.5
0.11405415,-0.23375317,-0.7127685,-0.48176372,-0.013390903,0.0058385823,-0.16162093,-0.39205992,-0.36777076,0.059933536,-3.0780082,0.62509686,-0.00031688518,-0.05117277,0.015616466,0.0017927088,0.009486414,0.0024767173,-0.0053656944,0.50108165,-1.3781519,1.899906,-2.0904357,-1.5711449,2.4762702,-0.067691214,0.06012417,-0.080435224,0.022703571,-0.009672222,-0.062265452,0.038307227,0.22984336,-9.32781,0.77545905,47.68062,-1.0807028,-2.420583,-3.2978463,-0.29393613,0.012922162,-0.16577683,28.875,30.25,29.3125,32.9375,35.4375,36.5
0.11605363,0.12599297,0.06951477,-0.4342005,-0.022052424,0.014450065,-0.17588228,-0.3921306,-0.36772266,0.05989101,-3.0779064,0.6251151,-0.0004393919,-0.050928503,0.015876751,0.00111347,0.009071718,0.00026604085,-0.00709897,0.5009497,-1.3779833,1.8997868,-2.0903633,-1.5711683,2.4761627,-0.06877511,0.060930073,-0.07995589,0.023150604,-0.008252087,-0.0616182,-0.019153614,0.1340753,-9.289502,0.7866488,47.694946,-1.1009513,-2.481629,-3.2460785,-0.31589466,0.016148482,-0.18531762,28.875,30.25,29.3125,32.9375,35.4375,36.5
0.11805335,0.35609362,-0.25898555,-0.51060265,-0.0047388896,0.031095017,-0.16953199,-0.3922469,-0.36771268,0.0599268,-3.0779643,0.6251851,-0.00033787338,-0.05170439,0.015609832,0.0012472261,0.00808761,0.0010215566,-0.008109632,0.5008177,-1.3779112,1.8996199,-2.0903637,-1.5711564,2.476067,-0.069337584,0.061701123,-0.08097701,0.022263475,-0.0077502728,-0.061171256,-0.095768064,0.17238252,-9.308656,0.7709874,47.6636,-1.1806655,-2.3859508,-3.354206,-0.29311514,0.010456096,-0.22976273,28.875,30.25,29.3125,32.9375,35.4375,36.5
0.120054215,-0.23498751,-0.17345302,-0.5551757,-0.0039101928,0.030913848,-0.16590232,-0.39235628,-0.36766607,0.05992743,-3.0779312,0.6251954,-0.0003964123,-0.053923648,0.014809808,0.0017861263,0.006619947,0.0019681177,-0.0071926927,0.5006377,-1.3777778,1.8994387,-2.090268,-1.5711559,2.4758978,-0.070537895,0.0648378,-0.08600786,0.0226175,-0.0069321925,-0.06328746,-0.095768064,0.2681506,-9.308657,0.7732232,47.658226,-1.2484609,-2.5438967,-3.1659002,-0.30920672,-0.028050698,-0.236918,28.875,30.25,29.3125,32.9375,35.4375,36.5
0.12205339,-0.27451795,0.046599086,-0.49981472,-0.0083395485,0.052427076,-0.17403474,-0.39245394,-0.36765832,0.059922494,-3.0779326,0.62513846,-0.00038576662,-0.053081274,0.015407142,0.0016771894,0.008130989,0.0012876575,-0.006644444,0.5005419,-1.377622,1.8992599,-2.0902436,-1.5711683,2.4757664,-0.07012699,0.06364735,-0.08461095,0.023735346,-0.007925979,-0.0634235,-0.15322891,0.22984336,-9.442732,0.8090337,47.693153,-1.2341714,-2.3883903,-3.257069,-0.30904305,-0.0024717546,-0.24938029,28.875,30.25,29.3125,32.9375,35.4375,36.5
0.12405417,-0.39206514,-0.047124553,-0.61437595,-0.011991754,0.06170603,-0.17898634,-0.39258334,-0.36760998,0.059936367,-3.0779228,0.6252141,-0.00034493342,-0.05553107,0.016849069,0.0025172394,0.008597406,0.0029390256,-0.011241703,0.5003489,-1.377514,1.8990921,-2.0902073,-1.5711812,2.475622,-0.074045256,0.063923985,-0.08707346,0.024698494,-0.009129136,-0.06274117,-0.22984336,0.19153613,-9.519346,0.7933669,47.64658,-1.1716652,-2.3608906,-3.240079,-0.33484405,-0.0032304823,-0.30179167,28.875,30.25,29.3125,32.9375,35.4375,36.5
0.12605368,-0.6483523,-0.104046755,-0.66763926,-0.025765425,0.07390206,-0.17290403,-0.39267302,-0.3675613,0.059909794,-3.0778434,0.6252728,-0.00038273973,-0.05515444,0.015851082,0.0005547665,0.009661749,-0.00028816267,-0.008922137,0.500206,-1.377368,1.8989714,-2.0901716,-1.5712165,2.4755259,-0.072382845,0.06908848,-0.08869108,0.02448784,-0.008523863,-0.063397646,-0.2873042,0.21068975,-9.500193,0.7978386,47.6421,-1.2528763,-2.5346518,-3.228745,-0.3431002,0.0065177507,-0.3301654,28.875,30.25,29.3125,32.9375,35.4375,36.5
0.12805355,-1.1218451,-0.76065284,-0.78208107,-0.019227952,0.0767159,-0.16255812,-0.3928043,-0.3675575,0.059937093,-3.0778801,0.6251639,-0.00032858027,-0.056043353,0.0160091,0.0019687398,0.0075232536,0.0022641122,-0.008428762,0.5000856,-1.3772128,1.8987092,-2.0901,-1.5712284,2.475333,-0.07385047,0.0665582,-0.08876844,0.023825187,-0.007872516,-0.0653607,-0.34476504,0.21068975,-9.500193,0.73741806,47.650166,-1.4082673,-2.414018,-3.3004699,-0.3433636,-0.010936147,-0.3462585,28.875,30.25,29.3125,32.9375,35.4375,36.5
0.13005343,-1.0654922,-0.40353325,-0.7785681,-0.022044526,0.07835626,-0.16913024,-0.39291435,-0.36752003,0.059921745,-3.0778327,0.62527406,-0.00034605843,-0.05838935,0.017600052,0.0017697896,0.0077461423,0.0021552655,-0.016111009,0.49992824,-1.3770559,1.8985528,-2.0900762,-1.5712403,2.4752505,-0.078581385,0.068356946,-0.09048545,0.023945976,-0.008019071,-0.06240792,-0.49799395,0.17238252,-9.576807,0.8112748,47.688675,-1.2111155,-2.3871558,-3.2226453,-0.33963364,-0.025340945,-0.40124723,28.875,30.25,29.3125,32.9375,35.4375,36.5
0.13205421,-0.33695444,-0.63039094,-0.8092603,-0.009397009,0.09539541,-0.1708126,-0.39301684,-0.36748615,0.05991716,-3.0778134,0.6253046,-0.00042900266,-0.057982277,0.01630372,0.0018467155,0.007808761,0.0026941763,-0.01127304,0.4997617,-1.3769115,1.898373,-2.0899923,-1.5712165,2.4751055,-0.07580568,0.069388986,-0.091873564,0.02385937,-0.008340492,-0.06446836,-0.47884035,0.15322891,-9.5385,0.779936,47.672558,-1.3669461,-2.4165916,-3.2769153,-0.33204198,-0.024493264,-0.44670755,28.875,30.25,29.3125,32.9375,35.4375,36.5
0.13405417,-0.23145929,-0.554118,-0.6870676,-0.002691395,0.10009073,-0.16581841,-0.39314735,-0.36746106,0.059943777,-3.0778193,0.62532353,-0.000294847,-0.060819637,0.016398553,0.003258115,0.0055480734,0.005759711,-0.011057776,0.4996289,-1.3768032,1.8981813,-2.0899804,-1.5712646,2.474984,-0.07887699,0.06985942,-0.09550956,0.023243146,-0.0078321425,-0.06775507,-0.59376204,0.114921674,-9.5385,0.8247004,47.64837,-1.3618023,-2.3405461,-3.3259315,-0.33289093,-0.03552618,-0.4535697,28.875,30.25,29.3125,32.9375,35.4375,36.5
0.13605385,-0.1866696,-0.28306466,-0.72641855,0.0117245605,0.10558776,-0.16655566,-0.39326093,-0.36741617,0.059916012,-3.077755,0.6254052,-0.00038308196,-0.06095192,0.017595079,0.0017053363,0.0068934117,0.0036923212,-0.009648002,0.49944854,-1.3766104,1.8980025,-2.0899212,-1.5712646,2.4748628,-0.08086512,0.07164813,-0.09389733,0.02229886,-0.008028892,-0.07115227,-0.57460845,0.05746084,-9.557653,0.88960326,47.682407,-1.390332,-2.3597841,-3.3108802,-0.32405907,-0.05010081,-0.45752835,28.875,30.25,29.3125,32.9375,35.4375,36.5
0.13805375,-0.7634638,0.43592247,-0.781566,0.005491371,0.09181934,-0.17496432,-0.39338636,-0.36739677,0.059935626,-3.0778067,0.6253551,-0.00033843145,-0.06266575,0.017505731,0.0028307592,0.005599561,0.0060801352,-0.0055492437,0.49929243,-1.3764904,1.8978099,-2.089897,-1.5712522,2.474669,-0.08226081,0.07163269,-0.096402034,0.02209991,-0.008042889,-0.076646075,-0.4213795,-0.038307227,-9.672575,0.7396539,47.70032,-1.2913682,-2.3013911,-3.363987,-0.31736588,-0.041280515,-0.44274646,28.875,30.25,29.3125,32.9375,35.4375,36.5
0.14005372,-0.9293801,0.23024441,-0.8104804,0.0037128422,0.0947603,-0.16696408,-0.39351696,-0.36735868,0.059965465,-3.0778036,0.6253537,-0.00028646452,-0.065414384,0.019198414,0.0029475263,0.0056774076,0.0070200805,-0.0060172854,0.49912307,-1.3763819,1.8975943,-2.089813,-1.5712765,2.4744992,-0.0872876,0.07304954,-0.09827904,0.021768197,-0.008567078,-0.08120287,-0.51714754,-0.11492168,-9.481039,0.7486078,47.692257,-1.2270967,-2.2658186,-3.2227464,-0.30682975,-0.052135084,-0.3822858,28.875,30.25,29.3125,32.9375,35.4375,36.5
0.14205343,-0.9745119,-0.27186576,-0.71055865,0.019717466,0.091987394,-0.1683968,-0.3936424,-0.3673067,0.059929945,-3.0777583,0.6253785,-0.0003601022,-0.06511926,0.018310219,0.0032588914,0.005725167,0.007843167,0.00055185094,0.49892026,-1.3761775,1.8974274,-2.0897892,-1.571277,2.4743178,-0.085217714,0.07322925,-0.09923086,0.021837763,-0.009012556,-0.085700236,-0.51714754,-0.19153613,-9.500193,0.8157518,47.605385,-1.3362677,-2.2872798,-3.3307533,-0.30841526,-0.042485353,-0.38453364,28.875,30.25,29.3125,32.9375,35.4375,36.5
0.14405361,-0.8710916,0.58168393,-0.53346556,2.9403083e-05,0.101113394,-0.17973793,-0.39379516,-0.36727417,0.059955057,-3.0777678,0.6253947,-0.00027978935,-0.06703765,0.01924841,0.0031653075,0.0059331595,0.007910109,0.0064991885,0.49873957,-1.3760327,1.8971876,-2.0897415,-1.5713009,2.4741461,-0.08839297,0.07512672,-0.101331204,0.022073112,-0.009233158,-0.094821684,-0.47884035,-0.13407528,-9.576807,0.8291774,47.6421,-1.3537512,-2.2301574,-3.2073126,-0.29592943,-0.054446194,-0.2932341,28.875,30.25,29.3125,32.9375,35.4375,36.5
0.1460537,-1.1721411,-0.051432144,-0.6532941,0.014444106,0.09555845,-0.16874443,-0.39390996,-0.3672351,0.059940808,-3.0777645,0.6252787,-0.00027067764,-0.067736074,0.020102581,0.0029428182,0.006530603,0.0076758275,0.006911616,0.49858323,-1.3758762,1.8970317,-2.0897295,-1.5713252,2.473918,-0.09018865,0.07561846,-0.10144403,0.02218212,-0.009648019,-0.09702867,-0.47884035,-0.019153614,-9.519346,0.78888994,47.647476,-1.1068649,-2.282753,-3.3480082,-0.28002527,-0.045730613,-0.24051353,28.875,30.25,29.3125,32.9375,35.4375,36.5
0.1480537,-0.9406332,-0.06397343,-0.67083097,0.011508963,0.08933405,-0.16917433,-0.3940645,-0.367201,0.05997497,-3.0777707,0.6253547,-0.0002030235,-0.06895527,0.02034714,0.0027298064,0.0061737765,0.007484148,0.009082143,0.49839106,-1.3757436,1.8967804,-2.0896575,-1.5713371,2.4737725,-0.09193857,0.07744783,-0.10309679,0.021996418,-0.009244522,-0.1009495,-0.59376204,-0.038307227,-9.595961,0.7553206,47.690468,-1.2282282,-2.212609,-3.3460085,-0.26925308,-0.05756835,-0.21120788,28.875,30.25,29.3125,32.9375,35.4375,36.5
0.15005374,-0.59335226,0.19085374,-0.29484665,-0.009246172,0.09668846,-0.18187536,-0.39418533,-0.36713958,0.05993636,-3.077721,0.62526584,-0.00024077392,-0.070455916,0.021205606,0.0026356908,0.006719144,0.007858692,0.0092183,0.49819875,-1.375551,1.8966368,-2.0896456,-1.5713729,2.4735312,-0.094319016,0.0788057,-0.10450316,0.02197197,-0.009913079,-0.103463314,-0.53630114,-0.019153614,-9.423578,0.800085,47.667187,-1.153056,-2.2354774,-3.378452,-0.26813877,-0.053042777,-0.15656608,28.875,30.25,29.3125,32.9375,35.4375,36.5
0.15205376,-0.54236174,0.35542145,-0.28614458,-0.010663007,0.09178822,-0.18084763,-0.394339,-0.36711866,0.059970383,-3.0777638,0.625199,-0.00015876703,-0.07227715,0.022233805,0.0026174518,0.007498574,0.008417553,0.0061876113,0.49802998,-1.3754061,1.8963741,-2.089586,-1.5713853,2.4733155,-0.0970973,0.08036287,-0.10635995,0.022153731,-0.0108615905,-0.10320848,-0.5363012,0.038307227,-9.404425,0.8179876,47.682407,-1.0466745,-2.2939658,-3.4019084,-0.24883428,-0.033423457,-0.14601912,28.875,30.25,29.3125,32.9375,35.4375,36.5
0.15405415,-0.42458457,0.12700742,-0.67847365,0.00073751074,0.077838175,-0.17307244,-0.3945111,-0.36706638,0.0600087,-3.077755,0.62529504,-2.4066752e-05,-0.07398332,0.02284629,0.0033170227,0.006792602,0.009159661,0.0015078827,0.49781352,-1.375286,1.8961333,-2.0895379,-1.571433,2.4731603,-0.09982321,0.08076551,-0.1086348,0.02303004,-0.010589038,-0.101255156,-0.4213795,0.0,-9.461885,0.7239871,47.707485,-0.98550594,-2.2440028,-3.2753606,-0.24106914,-0.037287377,-0.1553483,28.875,30.25,29.3125,32.9375,35.4375,36.5
0.15605351,-0.51007634,-0.7146269,-0.5613658,0.0017797482,0.062286396,-0.15760083,-0.394651,-0.36702827,0.060001146,-3.0777717,0.625205,-2.6942142e-05,-0.0746137,0.023642268,0.0027753997,0.0074716536,0.008148662,-0.00472865,0.49762118,-1.3751054,1.8959306,-2.0895135,-1.5714334,2.4729097,-0.10163642,0.08200306,-0.10895241,0.023324246,-0.010699666,-0.096831314,-0.51714754,0.019153614,-9.423578,0.7732232,47.70211,-0.92143726,-2.2337456,-3.3764632,-0.21383657,-0.05485563,-0.1605774,28.875,30.25,29.3125,32.9375,35.4375,36.5
0.15805393,-0.31418025,-0.37176627,-0.48347142,-0.0074431747,0.059958767,-0.16690663,-0.39480752,-0.36696053,0.060004473,-3.0777245,0.6252548,2.0315178e-05,-0.07611204,0.023877332,0.0027029635,0.0075188368,0.0083952,-0.010379238,0.4973932,-1.3749486,1.8957261,-2.0894654,-1.5714811,2.472719,-0.1032696,0.08412925,-0.11133769,0.023385907,-0.0108604925,-0.09281232,-0.59376204,0.11492168,-9.346964,0.7709874,47.66539,-0.8651092,-2.1405241,-3.3938427,-0.2132108,-0.015875801,-0.22308922,28.875,30.25,29.3125,32.9375,35.4375,36.5
0.16005488,0.30510673,-0.14934628,-0.17917886,-0.013244488,0.08314903,-0.16692267,-0.3949213,-0.36692625,0.059978116,-3.0777035,0.625348,-0.00010209037,-0.07620062,0.024420833,0.0023146286,0.0075167795,0.0070820353,-0.013681035,0.4972012,-1.3747563,1.8955468,-2.0894177,-1.571433,2.4725878,-0.10462115,0.08450827,-0.111026086,0.023850042,-0.010234162,-0.090862915,-0.5363012,0.17238252,-9.270349,0.83365434,47.660015,-0.8337202,-2.3521695,-3.403634,-0.19103491,-0.06577426,-0.28508094,28.875,30.25,29.3125,32.9375,35.4375,36.5
0.1620541,-0.21694311,-0.35888377,-0.3681591,0.0016951192,0.08171361,-0.16589725,-0.39509788,-0.36688602,0.05999826,-3.0776958,0.6252687,9.810617e-07,-0.07805511,0.024291085,0.003946346,0.006558834,0.009985485,-0.014848369,0.49700916,-1.3745643,1.8952593,-2.0893576,-1.5714935,2.4723475,-0.10572291,0.08410741,-0.114460014,0.02467059,-0.010778282,-0.09079537,-0.4405331,0.076614454,-9.270349,0.84708,47.660015,-0.8669107,-2.120448,-3.3930697,-0.17638323,-0.042777464,-0.28973246,28.875,30.25,29.3125,32.9375,35.4375,36.5
0.16405411,-0.57720447,-0.4907325,-0.18857072,0.010422106,0.07235045,-0.16593488,-0.3952888,-0.3668247,0.06002001,-3.0776732,0.6254348,7.697384e-05,-0.07731104,0.025174774,0.0006479525,0.009315984,0.0038296455,-0.014917401,0.4967456,-1.3743943,1.894997,-2.0893095,-1.5715169,2.4721906,-0.10680078,0.08945528,-0.11339339,0.024974328,-0.010260607,-0.09180539,-0.2681506,0.038307227,-9.232041,0.83589023,47.705692,-0.83924687,-2.2418258,-3.4885387,-0.16185701,-0.03539432,-0.3239193,28.875,30.25,29.3125,32.9375,35.4375,36.5
0.16605413,-0.48405087,-0.16556072,-0.36378798,0.0037853918,0.06783596,-0.16914679,-0.39541498,-0.36677328,0.060005046,-3.0776098,0.62545985,5.7229227e-05,-0.07891369,0.023976563,0.0030261895,0.006569811,0.008285988,-0.0137977265,0.49656603,-1.3742148,1.8948044,-2.0892498,-1.5715531,2.472035,-0.106395364,0.087907605,-0.11694873,0.024844185,-0.009982132,-0.09251864,-0.30645782,0.095768064,-9.251195,0.8717007,47.657326,-0.91069174,-2.2015765,-3.4365315,-0.12623474,-0.051776104,-0.3258386,28.875,30.25,29.3125,32.9375,35.4375,36.5
0.1680541,-0.1063963,0.017410286,-0.35110763,0.0028193619,0.06029752,-0.16935071,-0.39559036,-0.3667174,0.06002694,-3.0776134,0.62553686,0.0001507875,-0.07962452,0.023830455,0.0027511085,0.007901145,0.008025223,-0.014149268,0.49632663,-1.3740696,1.8945764,-2.089225,-1.5715774,2.4718432,-0.10610919,0.09035043,-0.1194428,0.025758559,-0.011025223,-0.09187808,-0.24899697,0.15322891,-9.212888,0.7530795,47.65912,-0.9793973,-2.240964,-3.3205826,-0.12079367,-0.05886607,-0.36701572,28.875,30.25,29.3125,32.9375,35.4375,36.5
0.17005421,0.064015366,-0.16912986,-0.331117,0.0040997826,0.03762154,-0.17399332,-0.39575484,-0.36667785,0.06002053,-3.0776017,0.62559134,0.00014833845,-0.08115619,0.025177496,0.0023947756,0.0082068145,0.006486059,-0.01518817,0.4961096,-1.3738527,1.8943251,-2.0891893,-1.5715774,2.4716618,-0.11001632,0.092064,-0.12098705,0.027081862,-0.01056281,-0.094746545,-0.15322891,0.076614454,-9.193734,0.85155696,47.666286,-0.87239087,-2.193564,-3.3173275,-0.10763303,-0.050215445,-0.38997594,28.875,30.25,29.3125,32.9375,35.4375,36.5
0.17205426,-0.061439626,-0.38557425,-0.45875224,-0.0035879374,0.026824094,-0.16899852,-0.39592606,-0.366639,0.060052324,-3.0776148,0.6256303,0.00021479046,-0.08134893,0.023809498,0.0027257164,0.0083992025,0.006729324,-0.01356557,0.4958951,-1.3736959,1.89405,-2.0891168,-1.5715894,2.47147,-0.107674256,0.09405377,-0.12441356,0.028394558,-0.010847064,-0.09402547,-0.19153613,0.19153613,-9.212888,0.7978386,47.689575,-1.0946513,-2.2099214,-3.3111415,-0.1211579,-0.050275885,-0.39971483,28.875,30.25,29.3125,32.9375,35.4375,36.5
0.17405586,-0.25633687,-1.0293653,-0.4838711,-0.0023691286,0.021107517,-0.15963404,-0.39606106,-0.36657566,0.0600075,-3.0775642,0.6255995,0.00011023365,-0.08189481,0.02700981,-0.00047153365,0.012728217,0.00068744656,-0.013245098,0.49566555,-1.3734661,1.8938707,-2.0890806,-1.5715898,2.471228,-0.11292997,0.098499574,-0.12272952,0.029634532,-0.011786205,-0.09959885,-0.076614454,0.095768064,-9.212888,0.7597976,47.666286,-0.78175974,-2.4228148,-3.3508203,-0.107896574,-0.02379004,-0.3970605,28.875,30.25,29.3125,32.9375,35.4375,36.5
0.17605501,0.23298919,-0.87493885,-0.39958608,-0.0150997685,0.03693347,-0.17500916,-0.39623174,-0.36651438,0.06001242,-3.0774977,0.6256582,0.00018239296,-0.08354689,0.024881214,0.002420702,0.00888906,0.004963911,-0.008115308,0.49545068,-1.3732744,1.893618,-2.0890205,-1.5716609,2.4710584,-0.11164404,0.09741615,-0.12826526,0.030648155,-0.010455079,-0.103443675,0.038307227,0.19153613,-9.232041,0.8784135,47.666286,-1.0423862,-2.23138,-3.2044,-0.08447587,-0.056034647,-0.3540374,28.875,30.25,29.3125,32.9375,35.4375,36.5
0.17805444,-0.05201627,-0.805672,-0.27951285,-0.029370401,0.04260986,-0.16802616,-0.39641002,-0.36646843,0.060025573,-3.0775144,0.6256387,0.00020575168,-0.08298439,0.025976581,-0.0005547382,0.012317406,-0.00059990847,-0.0031292462,0.49521095,-1.3730805,1.8933438,-2.08896,-1.5716614,2.4708045,-0.1126936,0.10237592,-0.12762119,0.031562146,-0.0108257,-0.10947832,-0.05746084,0.3256114,-9.174581,0.7620334,47.678825,-0.9652,-2.4539223,-3.327402,-0.087545775,-0.067094035,-0.31429827,28.875,30.25,29.3125,32.9375,35.4375,36.5
0.18005385,-0.6916528,-0.9719483,-0.505742,-0.0157797,0.029784476,-0.15839767,-0.39655823,-0.3664235,0.060033377,-3.0774968,0.6256113,0.00018990185,-0.08448845,0.025217343,0.0022123451,0.009480026,0.0037059316,0.0030400457,0.49500728,-1.3729014,1.8930916,-2.0888646,-1.5716728,2.470586,-0.11301907,0.0995568,-0.13075985,0.032371845,-0.010387213,-0.11597311,-0.038307227,0.28730422,-9.193734,0.779936,47.66539,-1.0825241,-2.2419958,-3.2271585,-0.082393125,-0.052399885,-0.26510632,28.875,30.25,29.3125,32.9375,35.4375,36.5
0.18205428,0.3713637,-0.42358583,-0.2612632,-0.01565887,0.04601241,-0.17848925,-0.3967269,-0.36635613,0.05998425,-3.077407,0.62560755,8.073382e-05,-0.085128576,0.02530995,0.0008052812,0.0105706435,0.00095823436,0.009053289,0.49475527,-1.3725996,1.8928279,-2.0887926,-1.5716971,2.4703434,-0.11391344,0.10385923,-0.13287398,0.03310629,-0.010063608,-0.12287893,0.0,0.2681506,-9.155427,0.8560339,47.660015,-0.9267005,-2.344037,-3.0807061,-0.071002916,-0.06981185,-0.15862028,28.875,30.25,29.3125,32.9375,35.4375,36.5
0.18405382,0.4186411,-0.39496595,-0.5024291,-0.00808302,0.04149844,-0.1651271,-0.39690632,-0.36632335,0.060029272,-3.0774488,0.6255771,0.00020474628,-0.08629202,0.025501916,0.0013931862,0.010685924,0.00237312,0.008511958,0.49455175,-1.3724554,1.8925403,-2.0887325,-1.5717214,2.4701157,-0.114770986,0.10423498,-0.13473584,0.033399343,-0.010830849,-0.12319361,-0.05746084,0.3256114,-9.289502,0.8023209,47.647476,-1.2107946,-2.4286509,-3.0936484,-0.039272003,-0.050734214,-0.14573053,28.875,30.25,29.3125,32.9375,35.4375,36.5
0.18605399,0.25872758,-0.22606996,-0.39880377,-0.022328764,0.03499866,-0.17415845,-0.39708063,-0.36626464,0.060007717,-3.0774007,0.6255078,0.00020541213,-0.08659609,0.02544924,0.0008263657,0.011268554,0.00066562125,0.009832543,0.4943238,-1.3722022,1.8922771,-2.0886838,-1.5717691,2.4698508,-0.11509175,0.10651605,-0.13646047,0.034611404,-0.010541153,-0.12483431,-0.1340753,0.30645782,-9.232041,0.7866488,47.667187,-1.0461938,-2.46409,-3.0900214,-0.042350214,-0.049341112,-0.08020919,28.875,30.25,29.3125,32.9375,35.4375,36.5
0.1880546,0.5907765,-0.4969539,-0.48914528,-0.019643491,0.037381083,-0.17261156,-0.39724618,-0.3662259,0.060022697,-3.0774407,0.62538284,0.00023092743,-0.08698901,0.02564755,0.00031759733,0.011453112,-0.00083247473,0.0047159274,0.494108,-1.3720214,1.8920144,-2.0886238,-1.5717691,2.469552,-0.11607699,0.10823689,-0.13754354,0.035380255,-0.009989188,-0.120703764,-0.1340753,0.19153613,-9.308657,0.800085,47.688675,-1.176354,-2.5499835,-3.1005836,-0.037020802,-0.06366426,-0.0888201,28.875,30.25,29.3125,32.9375,35.4375,36.5
0.19005403,-0.098567925,-0.63722664,-0.81048054,-0.025403712,0.030006243,-0.16504204,-0.39742318,-0.36617613,0.060011633,-3.077422,0.62544,0.00018676379,-0.08803895,0.02655478,0.0004159392,0.012426515,-0.0007352333,-0.0017091554,0.49385592,-1.371781,1.8917397,-2.0885637,-1.5717572,2.4693382,-0.117941834,0.10888635,-0.13878386,0.036354035,-0.010894254,-0.116140835,-0.15322891,0.24899697,-9.385271,0.83365434,47.672558,-1.177001,-2.4517422,-3.1305585,-0.042098284,-0.068474516,-0.15363881,28.875,30.25,29.3125,32.9375,35.4375,36.5
0.19205472,0.26194966,-0.6518065,-0.6282651,-0.03231858,0.05392583,-0.16973735,-0.39759436,-0.36612278,0.060007367,-3.077356,0.62542856,0.00017647336,-0.08929173,0.026222121,0.0012075821,0.0111747375,-0.00010985254,-0.0074184393,0.49364015,-1.3715407,1.8914388,-2.0884554,-1.5718049,2.4691238,-0.11896813,0.1096958,-0.14181407,0.037425335,-0.010095732,-0.11145796,-0.1340753,0.24899697,-9.308657,0.8112748,47.667187,-1.1465787,-2.4275815,-3.0674605,-0.041930992,-0.068095565,-0.20928854,28.875,30.25,29.3125,32.9375,35.4375,36.5
0.19405381,0.20923962,-0.6019188,-0.73075837,-0.025609527,0.06046638,-0.16815719,-0.3977631,-0.36605522,0.059999626,-3.0772882,0.6255114,0.00013921941,-0.08820065,0.027570348,-0.00059626985,0.013106263,-0.0039925016,-0.012265595,0.49338815,-1.3713242,1.891177,-2.08836,-1.5718287,2.4689324,-0.120277725,0.11062364,-0.1389647,0.03798084,-0.009954573,-0.10792127,-0.1340753,0.15322891,-9.404425,0.679228,47.68062,-1.141513,-2.416052,-3.2662516,-0.028258462,-0.07715655,-0.26363772,28.875,30.25,29.3125,32.9375,35.4375,36.5
0.19605376,-0.2555139,-0.5973819,-0.5585964,-0.011285696,0.055906188,-0.15890835,-0.39792702,-0.36599213,0.059985425,-3.0772464,0.6255038,0.00011625155,-0.08930693,0.027772361,-0.0002513569,0.012900607,-0.0041937744,-0.015575377,0.49314806,-1.3711076,1.8909377,-2.088299,-1.5718526,2.468693,-0.12173984,0.111741625,-0.14142308,0.03939743,-0.0096850805,-0.106072895,-0.22984336,0.11492168,-9.423578,0.8560339,47.71554,-1.2036631,-2.3680315,-3.14006,-0.032638557,-0.07266387,-0.34191617,28.875,30.25,29.3125,32.9375,35.4375,36.5
0.19805403,-0.1245373,0.2984067,-0.5826463,-0.008522287,0.064935185,-0.17171432,-0.3981564,-0.3659561,0.060025893,-3.0772698,0.62566304,0.00018801428,-0.089831576,0.028287347,0.0002509471,0.012217294,-0.0049980334,-0.018215926,0.49287197,-1.3708794,1.8905548,-2.0882146,-1.5718406,2.4685135,-0.123623155,0.11130613,-0.14249747,0.041288488,-0.00869514,-0.10531843,-0.19153613,0.0,-9.519346,0.80679786,47.70032,-1.1313138,-2.373936,-3.2954931,-0.04270741,-0.08072835,-0.3622083,28.875,30.25,29.3125,32.9375,35.4375,36.5
0.20005454,-0.16888951,0.23664717,-0.72829723,0.022945011,0.062304158,-0.1557955,-0.39828506,-0.36591575,0.059994906,-3.0772254,0.62561566,5.65115e-05,-0.09013795,0.029404325,-0.002121277,0.01445082,-0.009082316,-0.02169462,0.49267977,-1.3706375,1.8903154,-2.0881193,-1.5718282,2.4682975,-0.12570906,0.11576693,-0.14248538,0.041472018,-0.008741823,-0.10392404,-0.24899697,0.019153614,-9.423578,0.8090337,47.690468,-1.0957139,-2.5084229,-3.3780327,-0.04963832,-0.092508376,-0.4123032,28.875,30.25,29.3125,32.9375,35.4375,36.5
0.20205383,-0.8486108,0.09648279,-0.7774493,0.037760355,0.045355402,-0.16001138,-0.39848915,-0.36583483,0.05998838,-3.0771587,0.62569785,0.00014031188,-0.091284744,0.029798426,-0.00029582484,0.01304051,-0.005807937,-0.023160959,0.49240375,-1.3704103,1.8900541,-2.088095,-1.5719007,2.4680815,-0.12715615,0.11286577,-0.14321885,0.041545898,-0.009051482,-0.103904404,-0.36391866,-0.11492168,-9.385271,0.78888994,47.66987,-1.083346,-2.34302,-3.5074348,-0.041202255,-0.13403381,-0.47832212,28.875,30.25,29.3125,32.9375,35.4375,36.5
0.20405458,-0.12804618,1.1776998,-0.4656767,0.024726516,0.07065829,-0.17269766,-0.398667,-0.36578342,0.059973143,-3.0770998,0.62570345,6.0997674e-05,-0.09085338,0.03170891,-0.0027773054,0.016380403,-0.01174733,-0.023241846,0.49216366,-1.3701329,1.8897308,-2.0879743,-1.5719126,2.4678526,-0.1298313,0.11633448,-0.14228232,0.043947473,-0.009193676,-0.10649772,-0.36391866,-0.17238252,-9.481039,0.784413,47.652847,-1.1540368,-2.5684285,-3.5645773,-0.049330235,-0.10138734,-0.4946196,28.875,30.25,29.3125,32.9375,35.4375,36.5
0.20605397,-0.4850887,0.62380177,-0.5844994,0.04738384,0.06762868,-0.16430356,-0.39886433,-0.36573917,0.059998296,-3.0771236,0.62587684,8.058947e-05,-0.09146539,0.030779446,-0.0012255082,0.016066272,-0.010581143,-0.017182015,0.49188864,-1.3699409,1.8894309,-2.0879133,-1.5718769,2.4676828,-0.12858962,0.116242096,-0.14640725,0.04698536,-0.009473788,-0.11131435,-0.4213795,-0.24899697,-9.481039,0.83813137,47.65912,-1.0788944,-2.3989913,-3.4541059,-0.080678284,-0.1356348,-0.50791717,28.875,30.25,29.3125,32.9375,35.4375,36.5
0.20805441,-0.017695267,1.5234746,-0.444139,0.04197278,0.08345636,-0.18307513,-0.3990212,-0.36565682,0.059975635,-3.077037,0.62585545,-2.9359797e-05,-0.09257744,0.032916483,-0.0015172681,0.01841985,-0.013125799,-0.011836757,0.49162352,-1.3697121,1.8891796,-2.0877802,-1.5719012,2.4674156,-0.13257974,0.11734697,-0.14793393,0.050748624,-0.010368112,-0.12064609,-0.40222588,-0.30645782,-9.461885,0.8560339,47.672558,-1.0154039,-2.396398,-3.492509,-0.1274415,-0.119826175,-0.42536598,28.875,30.25,29.3125,32.9375,35.4375,36.5
0.21005385,-0.89754534,1.2348077,-0.66913855,0.04136706,0.07364766,-0.17326653,-0.39921835,-0.36558643,0.059974223,-3.0769641,0.6259271,-5.1218078e-05,-0.092613995,0.03132205,-0.0005528512,0.01705687,-0.01133659,0.0005768814,0.49134922,-1.3694601,1.8888553,-2.087661,-1.571937,2.4671955,-0.13008152,0.117317975,-0.15011065,0.0507134,-0.010037048,-0.1305611,-0.49799395,-0.2681506,-9.500193,0.80456203,47.709274,-1.2204207,-2.3286138,-3.3844411,-0.1513663,-0.12799397,-0.3720616,28.875,30.25,29.3125,32.9375,35.4375,36.5
0.21205406,-1.1679989,0.7529564,-0.69168586,0.027964605,0.084305845,-0.15531631,-0.39938506,-0.3655348,0.059962727,-3.0769663,0.62580913,-0.00015333868,-0.093658976,0.032267,-0.0018531828,0.018578153,-0.0142194815,0.0052404753,0.49109685,-1.3692185,1.8885688,-2.0875528,-1.5719126,2.4668694,-0.13255626,0.12112763,-0.15203208,0.05207706,-0.010040803,-0.13769762,-0.61291564,-0.17238252,-9.423578,0.8090337,47.65464,-1.1730576,-2.4223757,-3.4204268,-0.16209131,-0.13354492,-0.27057904,28.875,30.25,29.3125,32.9375,35.4375,36.5
0.21405427,-1.2194469,0.54000884,-0.80280966,0.016435597,0.090256736,-0.17297214,-0.39958116,-0.36546254,0.05995395,-3.0769017,0.6258689,-0.00016249662,-0.09391229,0.032944348,-0.00050766143,0.019290328,-0.01360217,0.009074541,0.4908212,-1.3689672,1.8882698,-2.087468,-1.5719494,2.4666395,-0.13328414,0.118969,-0.15325691,0.055241924,-0.010971392,-0.14225695,-0.5363012,-0.038307227,-9.519346,0.80679786,47.692257,-1.2043166,-2.2687223,-3.4261932,-0.21900472,-0.1623297,-0.18209869,28.875,30.25,29.3125,32.9375,35.4375,36.5
0.21605384,-0.92172235,0.08162732,-0.9425737,0.0053465376,0.0961212,-0.168445,-0.3997709,-0.36539376,0.059982844,-3.0768726,0.62578636,-0.00016002408,-0.0948383,0.033649884,-0.0022371511,0.021269254,-0.016979706,0.0078052934,0.490557,-1.3687731,1.8879346,-2.0872996,-1.5719856,2.4663277,-0.13514382,0.12388905,-0.15548913,0.056457587,-0.011137884,-0.14284515,-0.5554548,0.076614454,-9.634268,0.84708,47.67345,-1.0078769,-2.5057833,-3.448226,-0.2651355,-0.15103,-0.1525692,28.875,30.25,29.3125,32.9375,35.4375,36.5
0.21805467,-0.62316,-0.2499841,-0.8862335,-0.0177358,0.107759185,-0.15920098,-0.39998764,-0.3653176,0.059976265,-3.076812,0.6258336,-0.00016780764,-0.09724635,0.035461914,-0.0009794965,0.021098986,-0.01448208,0.001159977,0.4902561,-1.3684973,1.8875989,-2.0872042,-1.5720218,2.4660642,-0.13964242,0.12250681,-0.15682621,0.05689157,-0.012175572,-0.14069507,-0.7086837,0.11492168,-9.653421,0.8023209,47.675243,-1.0232966,-2.2774,-3.413807,-0.2981279,-0.15454067,-0.14075346,28.875,30.25,29.3125,32.9375,35.4375,36.5
0.22005445,-0.9660275,-1.1124475,-0.84348345,-0.021683637,0.11031189,-0.16599573,-0.40019262,-0.36523646,0.059991244,-3.0767732,0.62580585,-0.00016439936,-0.09823193,0.03450846,-0.0007092674,0.021073539,-0.013395358,-0.0025041283,0.48995733,-1.3682802,1.887276,-2.0870726,-1.5720576,2.4657533,-0.13855612,0.12481002,-0.16024505,0.057036042,-0.012676173,-0.13594139,-0.7661445,0.24899697,-9.595961,0.9254084,47.661808,-1.1113034,-2.393989,-3.489071,-0.33517528,-0.15122171,-0.22375894,28.875,30.25,29.3125,32.9375,35.4375,36.5
0.22205384,-1.4185396,-1.0228798,-0.9368057,-0.041887052,0.10996169,-0.1646461,-0.40037337,-0.36518764,0.059988778,-3.0767431,0.62584144,-0.0002366796,-0.099116646,0.034527652,-0.00078236416,0.020632697,-0.012390335,-0.008478817,0.4897056,-1.3680278,1.8869532,-2.086953,-1.5720462,2.4655278,-0.13926587,0.12576042,-0.16093783,0.05569,-0.01276994,-0.13067509,-0.7086837,0.21068975,-9.672575,0.800085,47.651955,-1.0986668,-2.30657,-3.3300815,-0.3437342,-0.14141548,-0.2818463,28.875,30.25,29.3125,32.9375,35.4375,36.5
0.22405462,-1.2059376,-0.8069687,-0.91459805,-0.046135034,0.11414278,-0.16336945,-0.40058,-0.3650988,0.0599773,-3.076641,0.6258196,-0.00020063468,-0.10112435,0.03430844,4.0393654e-05,0.019510124,-0.010010677,-0.010990377,0.4894298,-1.367763,1.8866419,-2.0868576,-1.572142,2.4652517,-0.14054807,0.12693743,-0.16409366,0.055027183,-0.012916714,-0.12944335,-0.63206923,0.19153613,-9.710882,0.8247004,47.661808,-1.0812042,-2.3190656,-3.180068,-0.3559962,-0.1518504,-0.3206424,28.875,30.25,29.3125,32.9375,35.4375,36.5
0.22605418,-1.4247762,-1.2847501,-0.827055,-0.03327748,0.100226,-0.17516589,-0.400775,-0.365022,0.059974674,-3.0765865,0.6259425,-0.00028724808,-0.101935595,0.03384099,-0.000114390576,0.018939318,-0.009691539,-0.011484798,0.48911828,-1.3675222,1.8863305,-2.0867264,-1.5721301,2.465024,-0.14063233,0.12884067,-0.16589497,0.05437238,-0.012581158,-0.1290324,-0.59376204,0.21068975,-9.576807,0.8672237,47.68062,-1.149446,-2.3559575,-3.252629,-0.37998018,-0.13788328,-0.3374904,28.875,30.25,29.3125,32.9375,35.4375,36.5
0.22805455,-0.12670325,-0.75484306,-0.6985964,-0.03546613,0.11159735,-0.18306684,-0.40098834,-0.3649703,0.05998428,-3.0765731,0.62591964,-0.00026404604,-0.10424971,0.03336141,0.00045974465,0.016607635,-0.0050188894,-0.013016839,0.48885456,-1.3672576,1.8859714,-2.0866325,-1.5721539,2.464748,-0.14173856,0.12972282,-0.1672015,0.049571376,-0.012734969,-0.12860523,-0.40222588,0.22984336,-9.442732,0.83589023,47.678825,-1.1450742,-2.4168904,-3.1631231,-0.34600055,-0.15099522,-0.36428362,28.875,30.25,29.3125,32.9375,35.4375,36.5
0.23005393,-0.12655807,-0.7524685,-0.69554347,-0.030472022,0.08555954,-0.17461972,-0.40119144,-0.36488295,0.059964813,-3.0764809,0.6259562,-0.0003068503,-0.10511339,0.033234857,-0.0006747561,0.01675368,-0.0051685115,-0.012155256,0.48855507,-1.3669803,1.88566,-2.0865247,-1.5722016,2.4644833,-0.14218307,0.13290715,-0.16795379,0.04732859,-0.0128156645,-0.12990928,-0.19153613,0.30645782,-9.595961,0.7978386,47.647476,-1.2046365,-2.4271681,-3.2529674,-0.32957768,-0.15639184,-0.3735885,28.875,30.25,29.3125,32.9375,35.4375,36.5
0.23205425,-0.0034373426,-0.7979491,-0.76096743,-0.03423117,0.06263553,-0.17823987,-0.4014394,-0.3648234,0.059981883,-3.0764878,0.6259346,-0.00021452416,-0.10694967,0.033182967,0.00024411066,0.015623795,-0.0016490356,-0.008296918,0.48825544,-1.3667042,1.8852781,-2.086466,-1.5722383,2.4641695,-0.14324589,0.13295394,-0.16968805,0.045364417,-0.013481736,-0.13482839,-0.21068975,0.3256114,-9.481039,0.842603,47.674347,-1.2276382,-2.341487,-3.2469373,-0.28911653,-0.14987421,-0.36122304,28.875,30.25,29.3125,32.9375,35.4375,36.5
0.23405387,0.016251473,-0.386723,-0.6888198,-0.05656052,0.04750522,-0.18066302,-0.40168402,-0.3647619,0.060015462,-3.0764835,0.6260066,-0.0001094557,-0.108004235,0.034177832,-0.00034508307,0.015660312,-0.0026097388,-0.004183638,0.4879551,-1.3664632,1.8848947,-2.0863822,-1.5722741,2.4639149,-0.14602815,0.13441147,-0.17006695,0.045130644,-0.013069147,-0.14172557,-0.11492168,0.36391866,-9.423578,0.8493211,47.678825,-1.2403803,-2.5009608,-3.3766012,-0.31254354,-0.17490509,-0.30327544,28.875,30.25,29.3125,32.9375,35.4375,36.5
0.23605461,0.20954283,-1.254772,-0.58807653,-0.04746348,0.046509925,-0.168194,-0.40187517,-0.36467963,0.059980717,-3.076393,0.626039,-0.00017992205,-0.10808019,0.033550818,-0.0024004856,0.016254863,-0.0043370225,0.004876405,0.48766795,-1.3661734,1.8846086,-2.0862992,-1.5723099,2.4636598,-0.14513336,0.13903098,-0.1703864,0.042612605,-0.012818545,-0.14988951,-0.05746084,0.3256114,-9.519346,0.8090337,47.692257,-1.2118124,-2.44438,-3.4403882,-0.28225154,-0.151858,-0.22637936,28.875,30.25,29.3125,32.9375,35.4375,36.5
0.23805405,0.64639556,-0.63480824,-0.5218887,-0.061102595,0.054880958,-0.18237545,-0.40212443,-0.36461714,0.05999428,-3.0764134,0.62600213,-9.843038e-05,-0.11139396,0.034224045,-0.00049020484,0.013090058,0.00074063195,0.0076693567,0.48735508,-1.3658978,1.8842376,-2.0862525,-1.5723342,2.4633214,-0.14938188,0.13768166,-0.17260472,0.04019149,-0.012416729,-0.15693206,0.038307227,0.2681506,-9.423578,0.7933669,47.677036,-0.9545121,-2.4496207,-3.36368,-0.2444253,-0.18417093,-0.09014365,28.875,30.25,29.3125,32.9375,35.4375,36.5
0.24005432,0.45511606,-0.5960014,-0.41431776,-0.04541093,0.035091028,-0.18004884,-0.4023334,-0.3645553,0.05997857,-3.076392,0.6259371,-0.000106714404,-0.11269474,0.034788497,-0.000737429,0.012776182,0.0009888051,0.00914772,0.4870792,-1.3656088,1.8839144,-2.0861928,-1.572358,2.463008,-0.15150411,0.13909759,-0.17359109,0.039382357,-0.012270186,-0.16053222,0.15322891,0.21068975,-9.3661175,0.83365434,47.647476,-1.0489814,-2.4526591,-3.4670434,-0.20246902,-0.16917512,-0.05526831,28.875,30.25,29.3125,32.9375,35.4375,36.5
0.24205408,0.42979896,-0.37320048,-0.38823542,-0.020962669,0.012459732,-0.1674133,-0.40258992,-0.36449426,0.060006294,-3.0764275,0.62590945,-2.4420478e-05,-0.11440502,0.035057288,-8.494038e-05,0.012232923,0.0028680265,0.0025993478,0.48675507,-1.3653446,1.883519,-2.0861213,-1.5723699,2.4626622,-0.15314537,0.13975461,-0.17581508,0.03903813,-0.012660111,-0.15562382,0.19153613,0.21068975,-9.308656,0.83589023,47.678825,-0.89990723,-2.4914954,-3.4003696,-0.16115974,-0.1688437,-0.070910156,28.875,30.25,29.3125,32.9375,35.4375,36.5
0.24405457,0.7399611,-0.1528305,-0.23944561,0.013518518,0.0050138654,-0.16204299,-0.40282407,-0.36444744,0.060021333,-3.076448,0.6259157,1.396604e-05,-0.11500836,0.035309136,-0.0012262362,0.012597681,0.0011503154,-0.004226581,0.48646754,-1.3650671,1.8831366,-2.0860493,-1.5723699,2.462376,-0.15431978,0.14272536,-0.1767304,0.038675748,-0.01217061,-0.14997332,0.019153614,0.15322891,-9.059659,0.8224646,47.668976,-1.0765554,-2.405161,-3.4141426,-0.13229209,-0.18702985,-0.1014535,28.875,30.25,29.3125,32.9375,35.4375,36.5
0.24605384,1.0641942,0.6183289,-0.18277995,0.03199705,0.008868276,-0.16625822,-0.40304607,-0.36436453,0.059999377,-3.076386,0.62598133,-2.0443376e-05,-0.115337715,0.03365073,0.0009771641,0.010691328,0.005428425,-0.009028825,0.48614523,-1.3647677,1.8828119,-2.0859773,-1.5723938,2.462103,-0.15155227,0.14047554,-0.17906642,0.038594976,-0.012487369,-0.14240167,0.0,0.11492168,-9.097966,0.81351066,47.70032,-1.136784,-2.3910863,-3.2979302,-0.09200398,-0.18811205,-0.2067237,28.875,30.25,29.3125,32.9375,35.4375,36.5
0.24805439,1.1817118,0.7036447,-0.24299656,0.04761907,0.012911578,-0.16921146,-0.40329042,-0.36429694,0.060006894,-3.0763605,0.62609303,-8.841839e-08,-0.116777346,0.03372183,0.0017526809,0.009652913,0.0059415894,-0.015441249,0.48582122,-1.3644788,1.88243,-2.085893,-1.5724052,2.461852,-0.15327999,0.14120342,-0.18203093,0.039892867,-0.011804562,-0.13771796,0.038307227,0.038307227,-9.078813,0.78217715,47.70211,-1.0502534,-2.5141666,-3.2017941,-0.07136082,-0.21134263,-0.26037285,28.875,30.25,29.3125,32.9375,35.4375,36.5
0.25005466,1.1429195,0.37711734,-0.16783996,0.03583907,0.0361942,-0.1603237,-0.4035176,-0.3642367,0.060030073,-3.07636,0.6261117,6.5229615e-05,-0.11833575,0.03396752,0.0029521598,0.0092086615,0.0075025978,-0.018323349,0.48553324,-1.3642389,1.8820709,-2.0858085,-1.57243,2.461576,-0.15478684,0.14114918,-0.18505712,0.041382346,-0.01213645,-0.13634124,0.0,0.076614454,-9.002198,0.8314132,47.67614,-1.137439,-2.2416892,-3.3053575,-0.051902242,-0.2108922,-0.3491246,28.875,30.25,29.3125,32.9375,35.4375,36.5
0.252054,0.5005572,0.06535606,-0.3030709,0.020453202,0.037231892,-0.16121227,-0.40375638,-0.36415717,0.060019284,-3.0763032,0.62621766,8.518311e-05,-0.12006951,0.03417165,0.0038099778,0.009101747,0.0077589606,-0.025058044,0.48520952,-1.3639382,1.8817219,-2.0857484,-1.5724658,2.461326,-0.15656401,0.14257061,-0.18932852,0.043955807,-0.012158893,-0.13138197,-0.1340753,0.05746084,-9.193734,0.842603,47.690468,-1.1054095,-2.1864228,-3.1259804,-0.06455369,-0.24043901,-0.41013736,28.875,30.25,29.3125,32.9375,35.4375,36.5
0.25405434,-0.060406778,-0.19389406,-0.68310523,0.009950135,0.036829982,-0.15780406,-0.4040007,-0.36405963,0.060028594,-3.0762014,0.6262738,9.165478e-05,-0.12020318,0.035702057,0.0030791175,0.01082094,0.0044757407,-0.028108424,0.48487315,-1.3636496,1.881317,-2.0855796,-1.5725378,2.4610379,-0.15915872,0.14362906,-0.18963502,0.046897426,-0.0121487705,-0.13092573,-0.17238252,-0.076614454,-9.404425,0.8560339,47.698532,-1.0598161,-2.1730921,-3.298297,-0.07185023,-0.22866075,-0.49785972,28.875,30.25,29.3125,32.9375,35.4375,36.5
0.25605467,0.0319342,-0.27466682,-0.66323775,-0.00901111,0.06181304,-0.16317493,-0.40419123,-0.3639834,0.060003318,-3.0761518,0.62633604,-3.894047e-05,-0.1201064,0.03681795,0.0020571402,0.013065109,0.0014657769,-0.02432543,0.4845615,-1.3633727,1.881018,-2.085471,-1.5725139,2.4607716,-0.16049512,0.14536782,-0.18994477,0.04916988,-0.012747194,-0.13604216,-0.21068975,0.0,-9.423578,0.9030289,47.684196,-1.0060174,-2.1678371,-3.2634633,-0.06845215,-0.24003857,-0.4878683,28.875,30.25,29.3125,32.9375,35.4375,36.5
0.25805423,-0.027028678,-0.18473476,-0.6571616,-0.028598415,0.08832363,-0.17507133,-0.40442201,-0.36395156,0.06000955,-3.0761812,0.6263357,-0.00010616387,-0.12067571,0.03689568,0.0020741366,0.012783445,0.00046216,-0.015265321,0.48427373,-1.3630478,1.8805875,-2.0853508,-1.5724658,2.46048,-0.16146488,0.14653811,-0.1917373,0.05053234,-0.012049864,-0.1460733,-0.36391866,0.05746084,-9.519346,0.8717007,47.694054,-0.98522305,-2.2480068,-3.2130876,-0.07849935,-0.25364006,-0.43244922,28.875,30.25,29.3125,32.9375,35.4375,36.5
0.26005438,-0.5607287,-0.04552361,-0.84435344,-0.024028039,0.100189276,-0.17717199,-0.40467137,-0.3638439,0.060015336,-3.0760899,0.6262889,-2.9982728e-05,-0.120843865,0.03705501,0.0013885323,0.0138539085,-0.00089456444,-0.0041844225,0.48393875,-1.3627709,1.8802155,-2.085231,-1.572574,2.4601278,-0.16157821,0.14852601,-0.19275236,0.051219523,-0.012389314,-0.15726571,-0.4213795,0.15322891,-9.634268,0.8179876,47.691364,-1.1132684,-2.2219346,-3.3064861,-0.082659155,-0.2681443,-0.3372373,28.875,30.25,29.3125,32.9375,35.4375,36.5
0.26205367,-0.31324542,0.106181405,-0.9490424,-0.026526606,0.13255925,-0.17440517,-0.40489757,-0.36379358,0.060030267,-3.0760922,0.6263613,-6.053805e-05,-0.12060286,0.03726156,-0.00020959662,0.015636139,-0.0039747623,0.0049616927,0.4836391,-1.3624934,1.8798217,-2.085111,-1.5725497,2.4598732,-0.16152097,0.15191334,-0.19339965,0.0520196,-0.012551119,-0.16635343,-0.47884035,0.076614454,-9.80665,0.8627467,47.66808,-1.1499865,-2.3547025,-3.3533301,-0.07610531,-0.27565446,-0.23207894,28.875,30.25,29.3125,32.9375,35.4375,36.5
0.26405394,-1.3356981,-0.47530794,-0.89093244,-0.022628544,0.12777945,-0.16906665,-0.40514955,-0.36374038,0.060025867,-3.076107,0.626324,-4.900321e-05,-0.12142685,0.03793232,0.00064781477,0.015664145,-0.0026305392,0.007179931,0.48332718,-1.362158,1.8794159,-2.0850513,-1.5725502,2.4595363,-0.1628682,0.15073937,-0.19415319,0.052762125,-0.013207563,-0.16991714,-0.49799395,0.15322891,-9.768343,0.84484416,47.66808,-1.0321562,-2.1756177,-3.365062,-0.09240747,-0.2860482,-0.15375593,28.875,30.25,29.3125,32.9375,35.4375,36.5
0.26605424,-1.1081245,-0.22787082,-0.82873887,-0.024966901,0.12628518,-0.17015848,-0.40536833,-0.36363524,0.06000391,-3.076008,0.6263219,-0.00014863216,-0.12166217,0.038372118,-0.0008501356,0.016761798,-0.0044204,0.005169135,0.48297986,-1.3618565,1.8790692,-2.0848958,-1.5725864,2.4592006,-0.163625,0.15361997,-0.19404213,0.051857807,-0.013370307,-0.16866083,-0.59376204,0.019153614,-9.80665,0.8537928,47.67614,-1.1582551,-2.3353953,-3.478795,-0.07276222,-0.2915244,-0.15398303,28.875,30.25,29.3125,32.9375,35.4375,36.5
0.2680543,-0.9173366,-0.20601125,-1.0534335,-0.024601102,0.11393173,-0.17273474,-0.40566185,-0.36356768,0.06003551,-3.0760365,0.6262528,2.4083169e-05,-0.12297568,0.03839902,-0.0010884381,0.016698297,-0.0043597943,-0.001457239,0.48264423,-1.3615553,1.8786253,-2.0848477,-1.5726465,2.4588184,-0.16474333,0.15607218,-0.19645679,0.05173319,-0.0133272465,-0.16315298,-0.68953013,0.095768064,-9.787497,0.7463667,47.71465,-1.2366138,-2.4619918,-3.3956676,-0.073870935,-0.2950429,-0.16595419,28.875,30.25,29.3125,32.9375,35.4375,36.5
0.27005446,-0.46351182,-0.072436586,-0.9506482,-0.025461582,0.10558772,-0.17459273,-0.40588084,-0.3634956,0.06002189,-3.0759645,0.6262394,-5.8888127e-05,-0.12356169,0.038879614,-0.0018188603,0.018511785,-0.005212343,-0.0075328792,0.48234507,-1.3612303,1.8782309,-2.0846918,-1.5726708,2.4585204,-0.16522783,0.1584294,-0.19780427,0.052327566,-0.014548483,-0.15755618,-0.61291564,0.038307227,-9.710882,0.8627467,47.65464,-1.3777492,-2.4506772,-3.4491649,-0.04654473,-0.3087311,-0.2783644,28.875,30.25,29.3125,32.9375,35.4375,36.5
0.27205428,-0.23626006,-0.0646165,-0.87200433,-0.020136861,0.10228253,-0.17167027,-0.40613794,-0.3634161,0.060026407,-3.0759406,0.62642723,-3.488607e-05,-0.12333454,0.03953464,-0.0028606819,0.020246856,-0.007562681,-0.009898146,0.4819852,-1.3609415,1.8778604,-2.0846312,-1.5726708,2.458281,-0.1657464,0.16018763,-0.19785514,0.053507347,-0.014992225,-0.15570828,-0.57460845,-0.019153614,-9.730036,0.83589023,47.647476,-1.2955891,-2.4557338,-3.5816169,-0.054104835,-0.3010368,-0.29959938,28.875,30.25,29.3125,32.9375,35.4375,36.5
0.2740546,-0.29327762,-0.052448787,-0.60667086,-0.01572373,0.086938456,-0.17343853,-0.40640387,-0.3633434,0.060041822,-3.0759234,0.6263077,6.289201e-05,-0.124730885,0.04008437,-0.0016883586,0.019781234,-0.006058869,-0.012755462,0.48167324,-1.3606299,1.8774298,-2.0845354,-1.5727428,2.457897,-0.16761631,0.15949024,-0.20001817,0.054806776,-0.015277756,-0.15471986,-0.51714754,-0.019153614,-9.653421,0.84484416,47.66808,-1.1768051,-2.4624877,-3.5255313,-0.041712504,-0.32136273,-0.36028677,28.875,30.25,29.3125,32.9375,35.4375,36.5
0.27605408,0.044856884,-0.13737701,-0.21539858,-0.0024895633,0.08084758,-0.17028132,-0.40664035,-0.3632603,0.06004675,-3.0758855,0.626413,2.9095803e-05,-0.12530838,0.0401831,-0.0015660017,0.020188361,-0.0071395766,-0.012775062,0.48132592,-1.3603534,1.8770593,-2.0844152,-1.5727428,2.4576204,-0.16826981,0.1608691,-0.20249684,0.057046212,-0.015148631,-0.15535288,-0.3256114,0.15322891,-9.481039,0.88960326,47.661808,-1.2868826,-2.4509945,-3.46637,-0.05259613,-0.3246147,-0.35694444,28.875,30.25,29.3125,32.9375,35.4375,36.5
0.2780536,-0.4179123,0.27541876,-0.29710883,0.01423447,0.0533642,-0.16515502,-0.40692595,-0.3631849,0.060056996,-3.075872,0.62640524,0.000116603944,-0.12645279,0.03978541,-0.0010113008,0.02026093,-0.0069174035,-0.0067923176,0.480978,-1.3600172,1.8766159,-2.0843422,-1.572791,2.4572697,-0.1683849,0.16268572,-0.20642075,0.058965825,-0.015329538,-0.16144921,-0.4213795,-0.019153614,-9.251195,0.83365434,47.647476,-1.4062908,-2.4166193,-3.414609,-0.066152215,-0.3343734,-0.34060103,28.875,30.25,29.3125,32.9375,35.4375,36.5
0.2800538,0.9364042,1.0594692,-0.3051912,0.027671097,0.06882605,-0.18533833,-0.40717092,-0.36310825,0.06002244,-3.0758078,0.6264076,2.2995213e-05,-0.12837194,0.039873898,-0.0003947416,0.020369606,-0.0061640767,-0.00076627976,0.4806417,-1.3596328,1.8762082,-2.084234,-1.5728029,2.4569433,-0.16982087,0.16476822,-0.21074145,0.06056588,-0.015811212,-0.1689068,-0.21068975,0.05746084,-9.251195,0.8717007,47.67345,-1.3912275,-2.4712582,-3.3312008,-0.081660286,-0.341398,-0.2902628,28.875,30.25,29.3125,32.9375,35.4375,36.5
0.28205433,0.8817538,1.2275243,-0.17982858,0.042885497,0.05026949,-0.18912937,-0.4074536,-0.36300725,0.060050897,-3.0757728,0.62641513,0.00013562085,-0.12873545,0.041384045,0.00018042397,0.021146217,-0.008170141,0.006284507,0.48026863,-1.3593575,1.8757881,-2.0841248,-1.5728749,2.4565797,-0.17269017,0.16372392,-0.21177277,0.06473968,-0.015581187,-0.17882833,-0.05746084,0.019153614,-9.212888,0.7978386,47.667187,-1.3511344,-2.3097253,-3.2935522,-0.09322963,-0.3234852,-0.17387746,28.875,30.25,29.3125,32.9375,35.4375,36.5
0.28405395,0.8341976,0.6858819,-0.30211338,0.03847012,0.026599016,-0.1703046,-0.4076886,-0.36294195,0.060055707,-3.0757356,0.6263863,0.000111624904,-0.12939921,0.042348754,0.00026165092,0.023001079,-0.009708798,0.010498721,0.4799681,-1.3590454,1.8753694,-2.0839803,-1.5728992,2.4562662,-0.17420387,0.164819,-0.21408887,0.06816439,-0.016534433,-0.184552,-0.095768064,0.095768064,-9.174581,0.88960326,47.670765,-1.2654314,-2.2550838,-3.2525704,-0.16876191,-0.34293073,-0.08786335,28.875,30.25,29.3125,32.9375,35.4375,36.5
0.28605458,0.62611485,-0.33463466,-0.13987513,0.014278492,0.02801334,-0.16465876,-0.4079717,-0.3628353,0.060067546,-3.0756803,0.62643385,0.00014204493,-0.13003427,0.043075506,0.00025013727,0.023350796,-0.010317604,0.00777291,0.479571,-1.3587335,1.8749379,-2.0838482,-1.5729474,2.4559062,-0.17583297,0.16533005,-0.21495833,0.06921175,-0.01657132,-0.18345475,-0.24899697,0.038307227,-9.11712,0.88960326,47.686886,-1.1370667,-2.1871204,-3.3252316,-0.1757754,-0.3430759,-0.03127317,28.875,30.25,29.3125,32.9375,35.4375,36.5
0.28805462,0.55275846,-0.15821025,-0.17668667,-0.021445049,0.039992936,-0.17433979,-0.40821493,-0.3627511,0.06004602,-3.0756166,0.6264065,-2.089509e-05,-0.13070685,0.045156322,-0.00088590075,0.026295342,-0.014066679,-0.0020057394,0.47921017,-1.3583606,1.8744949,-2.0836556,-1.5729359,2.4555366,-0.1792467,0.16771804,-0.21607533,0.07263895,-0.01746827,-0.1770844,-0.22984336,0.095768064,-9.251195,0.8627467,47.690468,-1.0858853,-2.3544805,-3.1850202,-0.21858326,-0.35147995,-0.110018596,28.875,30.25,29.3125,32.9375,35.4375,36.5
0.2900547,0.43260276,-0.33733466,-0.43175068,-0.026772652,0.05229963,-0.1833538,-0.40848026,-0.36267447,0.060067054,-3.075574,0.6263812,3.3974236e-05,-0.1304086,0.045561682,-0.0012262434,0.027511535,-0.017428901,-0.010072466,0.47888637,-1.358049,1.8740395,-2.0835102,-1.5729955,2.4552028,-0.17984812,0.16909908,-0.21791027,0.07663644,-0.016987856,-0.16962008,-0.1340753,0.17238252,-9.32781,0.91421866,47.681515,-1.2227795,-2.2027109,-3.235944,-0.29777628,-0.3350013,-0.16356903,28.875,30.25,29.3125,32.9375,35.4375,36.5
0.2920544,-0.2753475,-0.6245395,-0.33609635,-0.030345928,0.060116827,-0.17332935,-0.40873957,-0.3625758,0.060074065,-3.07551,0.6264668,-2.8809307e-05,-0.132693,0.045468133,0.0008032542,0.024490338,-0.012695936,-0.016654553,0.4785017,-1.3577378,1.873609,-2.0833318,-1.573007,2.45488,-0.18186483,0.16735107,-0.22008817,0.07497025,-0.016506338,-0.16505481,-0.22984336,0.17238252,-9.32781,0.8224646,47.66091,-1.1032267,-2.0714884,-3.2639046,-0.31085983,-0.3666926,-0.24152881,28.875,30.25,29.3125,32.9375,35.4375,36.5
0.2940546,-0.7954679,-0.44376722,-0.20080017,-0.022781221,0.059630826,-0.17643498,-0.40900043,-0.3624546,0.060043905,-3.0753748,0.6265782,-0.0001554585,-0.13357311,0.045912657,0.00032985964,0.024495937,-0.012511605,-0.024544938,0.47809336,-1.3573656,1.8731893,-2.083153,-1.5730432,2.4545588,-0.18319227,0.1687701,-0.22051802,0.07382311,-0.016617619,-0.15848902,-0.21068975,0.15322891,-9.308656,0.8224646,47.686886,-1.0980382,-2.059483,-3.2148786,-0.31997412,-0.3763438,-0.3447166,28.875,30.25,29.3125,32.9375,35.4375,36.5
0.29605386,-0.46352577,0.0067679132,-0.23013034,-0.008485435,0.065285444,-0.1739531,-0.40928474,-0.36236393,0.060042955,-3.0753007,0.626583,-8.901345e-05,-0.13515699,0.045566626,0.00079833873,0.022512816,-0.009959009,-0.028245687,0.47774506,-1.3570058,1.8727344,-2.0830462,-1.5731272,2.4542234,-0.18422396,0.16949822,-0.22195539,0.07133926,-0.01604344,-0.15582114,-0.1340753,0.15322891,-9.308657,0.95002913,47.667187,-1.0661696,-2.0373669,-3.3296332,-0.31766096,-0.36627588,-0.44226313,28.875,30.25,29.3125,32.9375,35.4375,36.5
0.29805478,0.2240727,0.20584376,-0.33903414,-0.0028579289,0.07955505,-0.18678585,-0.40957576,-0.36230695,0.060093425,-3.0753365,0.62666726,8.58551e-06,-0.1371457,0.045730647,-0.0010791046,0.022904271,-0.0095854625,-0.027700067,0.47739622,-1.3567163,1.8722442,-2.0829275,-1.5731272,2.4539227,-0.18577817,0.17493565,-0.22333303,0.06711923,-0.016573675,-0.15791899,-0.21068975,0.13407528,-9.346964,0.8784135,47.689575,-0.96583545,-2.0519326,-3.3538785,-0.31586266,-0.39784163,-0.47782657,28.875,30.25,29.3125,32.9375,35.4375,36.5
0.30005437,-0.13063718,0.13264221,-0.42327788,-0.0010634295,0.072898015,-0.17696999,-0.4098415,-0.3622063,0.060074855,-3.075258,0.6267392,-5.5512595e-05,-0.13898322,0.046139035,-0.0007932326,0.021801597,-0.007666514,-0.019195344,0.47701147,-1.3563566,1.8718237,-2.0827963,-1.5731515,2.4535933,-0.18796879,0.17583798,-0.224733,0.06537005,-0.01652196,-0.16861282,-0.19153613,0.095768064,-9.3661175,0.86945957,47.647476,-1.0663761,-2.0614333,-3.4478955,-0.28465512,-0.40096134,-0.40580565,28.875,30.25,29.3125,32.9375,35.4375,36.5
0.30205464,-0.5598404,0.030186044,-0.4286112,-0.0046288525,0.061911147,-0.18432152,-0.4101135,-0.36211637,0.060063038,-3.0751965,0.62675834,-0.0001085091,-0.14047706,0.046293974,-0.00074656424,0.021870641,-0.005510849,-0.007642513,0.47663942,-1.3559842,1.8713697,-2.0826538,-1.5731758,2.4532413,-0.18872912,0.1772206,-0.22613485,0.06346981,-0.017621608,-0.18092051,-0.21068975,0.0,-9.442732,0.87393653,47.66091,-1.0198354,-2.194326,-3.4729881,-0.27340496,-0.40429163,-0.3443761,28.875,30.25,29.3125,32.9375,35.4375,36.5
0.30405402,-0.43295896,-0.27131855,-0.4881281,-0.021173522,0.074539185,-0.18164764,-0.41038793,-0.3620346,0.060083196,-3.0752017,0.6267162,-5.6402183e-05,-0.14206609,0.04581511,-0.0012555916,0.021649668,-0.0027075813,0.0012844305,0.47627947,-1.3556837,1.8709377,-2.082547,-1.5732006,2.4528546,-0.18849859,0.17996585,-0.22741432,0.05938377,-0.018741358,-0.1896125,-0.36391866,0.05746084,-9.500193,0.87617236,47.684196,-1.0695581,-2.2678022,-3.4882226,-0.20742062,-0.38817906,-0.19889289,28.875,30.25,29.3125,32.9375,35.4375,36.5
0.30605465,-0.51147974,-0.4085104,-0.40801463,-0.042532872,0.098258495,-0.18834972,-0.4106818,-0.36192906,0.060071815,-3.075124,0.6267161,-5.9504047e-05,-0.14245436,0.043936655,-0.00096737733,0.02085828,-0.00073680206,0.0079784505,0.47588444,-1.355299,1.8704704,-2.0824158,-1.5732602,2.4524698,-0.18542142,0.1819287,-0.23020172,0.05806745,-0.018971508,-0.19322647,-0.47884035,0.076614454,-9.500193,0.8851263,47.65106,-1.2702154,-2.3812127,-3.401678,-0.16811168,-0.40577686,-0.14134207,28.875,30.25,29.3125,32.9375,35.4375,36.5
0.30805394,-0.57287097,-0.38309675,-0.42006722,-0.04974768,0.11906247,-0.19141884,-0.41092536,-0.36183134,0.06003515,-3.0750463,0.62666285,-0.00017132548,-0.14217152,0.043916922,-0.001446503,0.022332065,-0.0024117858,0.004927876,0.47552472,-1.3549267,1.8700751,-2.0822837,-1.5732845,2.4520872,-0.18468873,0.18350911,-0.23150524,0.059954945,-0.019529905,-0.18943866,-0.5363012,0.21068975,-9.557653,0.7911258,47.672558,-1.3771865,-2.3071232,-3.4049184,-0.17748368,-0.39379385,-0.15635878,28.875,30.25,29.3125,32.9375,35.4375,36.5
0.3100744,-0.8234376,-0.4337252,-0.58020705,-0.033066884,0.11228065,-0.18332924,-0.41123706,-0.36175683,0.06007159,-3.075037,0.6267609,-6.5393375e-05,-0.14437209,0.044248763,-0.0006974624,0.02076518,0.0013369932,-0.0039606662,0.4751521,-1.3545914,1.8695611,-2.082165,-1.5733203,2.4517772,-0.18681543,0.18360795,-0.23272093,0.05702641,-0.019840058,-0.18267636,-0.59376204,0.22984336,-9.500193,0.88289046,47.672558,-1.3459698,-2.3012924,-3.5078573,-0.15440702,-0.3991714,-0.20613866,28.875,30.25,29.3125,32.9375,35.4375,36.5
0.3120541,-1.0196235,-0.48011222,-0.54419065,-0.032523107,0.09318271,-0.17815554,-0.41152614,-0.36165598,0.06005669,-3.074988,0.626716,-9.006683e-05,-0.14631711,0.044444945,0.00038096803,0.019518338,0.0045925947,-0.010939978,0.4747556,-1.3542076,1.8691052,-2.0820458,-1.5733565,2.4513593,-0.18845128,0.183429,-0.23473078,0.05575102,-0.02022705,-0.17732997,-0.5363012,0.30645782,-9.519346,0.9254084,47.642998,-1.4453213,-2.2859936,-3.4621034,-0.100953534,-0.3956686,-0.30502078,28.875,30.25,29.3125,32.9375,35.4375,36.5
0.31405428,-0.41294077,-0.67472774,-0.581961,-0.031862717,0.08283371,-0.18106867,-0.41183072,-0.36156976,0.06006568,-3.0749211,0.6267429,2.9929246e-05,-0.14750423,0.04540002,-5.319703e-05,0.020753654,0.0036350128,-0.016737657,0.47440702,-1.3538355,1.8686141,-2.0819495,-1.5734528,2.4510365,-0.1905374,0.18557084,-0.2366567,0.056939974,-0.020879637,-0.17361571,-0.36391866,0.24899697,-9.519346,0.89631605,47.655537,-1.3117257,-2.363307,-3.457452,-0.095663525,-0.3825878,-0.3415083,28.875,30.25,29.3125,32.9375,35.4375,36.5
0.31605336,-0.3939679,-0.6220286,-0.34951323,-0.04014148,0.068341106,-0.1879677,-0.41215196,-0.36146358,0.060076274,-3.0748746,0.6268285,6.211902e-05,-0.14904968,0.04580352,0.00018474954,0.021877578,0.0048665437,-0.016778575,0.4739747,-1.3534632,1.868111,-2.0818179,-1.5734895,2.4506638,-0.19143271,0.18732339,-0.23947826,0.05741474,-0.022451527,-0.17446333,-0.3256114,0.2681506,-9.481039,0.9164598,47.682407,-1.3848101,-2.2449727,-3.4309945,-0.0853447,-0.38924035,-0.3923964,28.875,30.25,29.3125,32.9375,35.4375,36.5
0.31805426,-0.40058014,-0.51733124,-0.48153284,-0.026358616,0.054707736,-0.18367136,-0.412442,-0.36139572,0.060068693,-3.0748458,0.62687653,8.29237e-05,-0.15126297,0.04591443,0.0011156138,0.021385573,0.006829833,-0.01356468,0.47362605,-1.3530669,1.8676308,-2.0817335,-1.5735139,2.450349,-0.1930959,0.18874846,-0.24351963,0.058036096,-0.022929087,-0.17933726,-0.30645782,0.24899697,-9.346964,0.87393653,47.685097,-1.3054446,-2.271731,-3.29667,-0.07416953,-0.3640386,-0.39831477,28.875,30.25,29.3125,32.9375,35.4375,36.5
0.3200543,0.19836037,-0.54091793,-0.5027906,-0.0031220068,0.053580496,-0.18095873,-0.41274595,-0.36129597,0.0600894,-3.074799,0.6268232,0.00014885516,-0.15207769,0.04712582,0.0012341137,0.02195712,0.0066933497,-0.005463889,0.47324148,-1.3527191,1.8671287,-2.0815775,-1.5735859,2.4499376,-0.1953886,0.18859984,-0.24384683,0.058844887,-0.023398407,-0.18972921,-0.21068975,0.24899697,-9.385271,0.9231726,47.655537,-1.2195084,-2.2129753,-3.3967304,-0.041286938,-0.36079973,-0.2980833,28.875,30.25,29.3125,32.9375,35.4375,36.5
0.3220536,-0.21142435,-0.11371802,-0.3518516,-0.0114494255,0.05225849,-0.18388845,-0.41305116,-0.36121112,0.06008146,-3.074791,0.62681746,0.00015668535,-0.15334022,0.048223693,0.0014072404,0.021575687,0.006520418,0.0020050013,0.4728444,-1.3523237,1.86665,-2.0814936,-1.5735978,2.4495382,-0.19839536,0.18890983,-0.24481826,0.059444238,-0.02300502,-0.20020615,-0.21068975,0.22984336,-9.3661175,0.9321212,47.645687,-1.172816,-2.2744403,-3.429624,-0.03204131,-0.34926838,-0.18059379,28.875,30.25,29.3125,32.9375,35.4375,36.5
0.324054,0.20917861,-0.7056944,-0.45287502,0.017461022,0.06693564,-0.17759001,-0.4133672,-0.36110005,0.0600834,-3.0747411,0.626825,0.00021042558,-0.15409127,0.049185555,0.00034518607,0.022965694,0.00389568,0.0039862716,0.47242385,-1.3519508,1.8661708,-2.0813854,-1.5736579,2.449129,-0.2004595,0.19188343,-0.24641517,0.06100457,-0.023058956,-0.20425057,-0.15322891,0.038307227,-9.32781,0.8560339,47.66271,-1.0763961,-2.2316947,-3.457889,0.0060120537,-0.3270574,-0.08184943,28.875,30.25,29.3125,32.9375,35.4375,36.5
0.32605422,0.14051875,0.29228687,-0.269569,0.009250667,0.065374315,-0.17671715,-0.41366854,-0.3609942,0.06007959,-3.0746925,0.62681776,0.00016994184,-0.1555831,0.05028735,0.00010735888,0.024499765,0.0028510264,-0.0019815336,0.47200292,-1.3515664,1.8656796,-2.081229,-1.5736817,2.4487102,-0.20288059,0.19427608,-0.2493118,0.06313612,-0.02395696,-0.2006983,-0.15322891,-0.019153614,-9.3661175,0.9410752,47.675243,-0.97122073,-2.21645,-3.383854,0.012441723,-0.32295012,-0.07820129,28.875,30.25,29.3125,32.9375,35.4375,36.5
0.32805339,0.07998611,0.52488977,-0.10908198,0.00906542,0.056923185,-0.1855329,-0.4139687,-0.3608842,0.06006649,-3.07461,0.6267868,0.00017715001,-0.1559723,0.05220463,-0.0009765522,0.026881022,-0.0007426061,-0.013430623,0.47160596,-1.3511702,1.8652004,-2.0810964,-1.5737542,2.448305,-0.20597625,0.19613507,-0.24982913,0.06608091,-0.02443445,-0.19234172,-0.36391866,-0.095768064,-9.251195,0.83365434,47.66808,-0.9769465,-2.2244124,-3.4426727,-0.005804904,-0.32950956,-0.17529798,28.875,30.25,29.3125,32.9375,35.4375,36.5
0.3300537,0.32918873,0.70219004,-0.12537825,0.023993883,0.05543926,-0.1827273,-0.41430748,-0.36078352,0.060092162,-3.0745854,0.6269199,0.00023748534,-0.1551414,0.05290973,-0.0012189889,0.028806232,-0.0041367374,-0.021522272,0.47116226,-1.3507985,1.8646625,-2.080963,-1.573778,2.4479477,-0.20618081,0.19644858,-0.2507329,0.07057889,-0.024582608,-0.1844548,-0.38307226,-0.095768064,-9.346964,0.8851263,47.666286,-1.057564,-2.1804938,-3.517876,-0.038267918,-0.32163906,-0.2525989,28.875,30.25,29.3125,32.9375,35.4375,36.5
0.33205417,0.4229776,0.94592655,-0.12604928,0.0299932,0.0525425,-0.17874713,-0.41459623,-0.36068717,0.060070034,-3.0744946,0.62690365,0.00020174704,-0.15434198,0.052066848,-0.0019939607,0.029745728,-0.0080345925,-0.026064552,0.47079057,-1.3503779,1.8641714,-2.080818,-1.5738376,2.447578,-0.20451441,0.19947821,-0.2535428,0.07425514,-0.023655126,-0.17824668,-0.40222588,-0.095768064,-9.232041,0.8985519,47.677036,-1.0488592,-2.147064,-3.5192645,-0.06846772,-0.30952948,-0.36801058,28.875,30.25,29.3125,32.9375,35.4375,36.5
0.334054,0.10240045,1.3142442,0.09681641,0.020309567,0.05184967,-0.18240753,-0.4148951,-0.36059278,0.060060754,-3.0744104,0.6269826,0.00018786418,-0.1536509,0.05178637,-0.0013309944,0.030469922,-0.009624392,-0.028060984,0.47040683,-1.3499705,1.8636669,-2.0806735,-1.5738858,2.4472547,-0.20335212,0.19904672,-0.25553226,0.07841386,-0.023583677,-0.17508684,-0.40222588,-0.19153613,-9.136273,0.900793,47.66987,-1.2261374,-2.039297,-3.5008044,-0.09682682,-0.32587475,-0.45672747,28.875,30.25,29.3125,32.9375,35.4375,36.5
0.33605388,0.43670687,1.0527025,0.15371864,0.026352534,0.07312611,-0.19265017,-0.41517386,-0.3605009,0.060027383,-3.0743272,0.6269627,4.6356927e-05,-0.1540748,0.052077975,-0.0007615955,0.031941872,-0.010350932,-0.026101004,0.47002295,-1.3495265,1.8631643,-2.0804923,-1.5738982,2.4468694,-0.20344238,0.19968191,-0.2584834,0.08203076,-0.024600053,-0.17712946,-0.34476504,-0.17238252,-9.097966,0.947788,47.67345,-1.3473668,-2.0964046,-3.398344,-0.14926918,-0.3015927,-0.48521537,28.875,30.25,29.3125,32.9375,35.4375,36.5
0.33805332,-0.0047439933,0.88710433,-0.22072816,0.04818092,0.0560389,-0.18170522,-0.4155267,-0.36035797,0.060042817,-3.0742245,0.62712747,0.0001504961,-0.15482444,0.053802416,-0.0017019217,0.035102513,-0.013372059,-0.016915804,0.46954215,-1.3491539,1.8626484,-2.0803597,-1.5739945,2.446505,-0.20588368,0.20233642,-0.2603645,0.085321166,-0.026085915,-0.18874975,-0.05746084,-0.15322891,-9.11712,0.8851263,47.67614,-1.3448911,-2.2017832,-3.4350438,-0.21215197,-0.2603249,-0.42234296,28.875,30.25,29.3125,32.9375,35.4375,36.5
0.34005424,0.37448263,0.95255566,-0.12810794,0.039130438,0.057738114,-0.18808462,-0.41584125,-0.3602767,0.060055185,-3.0742023,0.6271141,0.00012773507,-0.15632486,0.054022066,-0.001115763,0.035155036,-0.012828814,-0.0048488644,0.46914583,-1.3487457,1.8620852,-2.0801795,-1.5740064,2.4461036,-0.20715983,0.20370562,-0.2637677,0.0868402,-0.02643106,-0.20208979,-0.05746084,-0.17238252,-9.232041,0.90527004,47.66987,-1.3519354,-2.2032819,-3.4568396,-0.25148976,-0.25126392,-0.29316375,28.875,30.25,29.3125,32.9375,35.4375,36.5
0.34205413,0.13763149,0.07482293,-0.27434075,0.023406656,0.04410433,-0.18628001,-0.41612422,-0.36016497,0.060049836,-3.074104,0.62701166,7.478071e-05,-0.15646575,0.05328358,-0.002689518,0.036533803,-0.015278366,0.005063819,0.46876234,-1.3483604,1.8615822,-2.079964,-1.5740784,2.4456692,-0.20580082,0.20865235,-0.26634607,0.087228134,-0.026611365,-0.21063882,-0.076614454,-0.076614454,-9.251195,0.8672237,47.675243,-1.3856716,-2.2267644,-3.3580623,-0.27879763,-0.22318143,-0.17926408,28.875,30.25,29.3125,32.9375,35.4375,36.5
0.34405395,0.35400566,-0.2758553,-0.23875497,0.00010993723,0.042525697,-0.1864706,-0.41643947,-0.3600574,0.06005816,-3.0740218,0.6269756,0.000108372864,-0.1578568,0.053494923,-0.0018570188,0.036110885,-0.0142929545,0.0041776993,0.46836594,-1.3479646,1.8610433,-2.0797842,-1.5741624,2.4452612,-0.20712394,0.20918727,-0.26923832,0.08848642,-0.026702998,-0.2110737,-0.24899697,0.095768064,-9.232041,0.83813137,47.684196,-1.3487087,-2.272778,-3.249447,-0.29350615,-0.2264354,-0.15461773,28.875,30.25,29.3125,32.9375,35.4375,36.5
0.3460544,0.6437697,-0.09255136,-0.60459614,-0.03367501,0.05073919,-0.17462718,-0.4167632,-0.3599379,0.06004102,-3.0739305,0.62698054,5.0737573e-05,-0.16046365,0.053503092,-0.00091038906,0.0344292,-0.009415653,-0.0049564666,0.46792126,-1.3475207,1.860504,-2.0796063,-1.574211,2.4448318,-0.20874469,0.20971519,-0.27130908,0.08492476,-0.027424982,-0.20355436,-0.40222588,0.17238252,-9.232041,0.9164598,47.681515,-1.2909796,-2.3434813,-3.1834545,-0.311878,-0.20320705,-0.21362741,28.875,30.25,29.3125,32.9375,35.4375,36.5
0.3480536,0.4823823,-0.6036626,-0.5278585,-0.0523021,0.06544658,-0.19329514,-0.41708976,-0.35983682,0.0600437,-3.0738544,0.6270459,7.603953e-05,-0.16282961,0.054685727,-0.001543572,0.033738323,-0.0076151234,-0.015165294,0.4675122,-1.3471006,1.8599538,-2.0794518,-1.5742711,2.4444737,-0.21243306,0.21179603,-0.27165478,0.08127168,-0.027626099,-0.19703199,-0.2873042,0.22984336,-9.423578,0.9298854,47.690468,-1.3019843,-2.4153523,-3.3880494,-0.27696583,-0.19086003,-0.2755461,28.875,30.25,29.3125,32.9375,35.4375,36.5
0.35005385,-0.22531983,-1.7551641,-0.84092987,-0.07458511,0.086352214,-0.1919075,-0.4174024,-0.359694,0.060047254,-3.0737264,0.62700325,4.7781446e-05,-0.16413732,0.055654828,-0.00086087483,0.032523762,-0.0061938195,-0.021429589,0.46706742,-1.3467171,1.8594269,-2.0792124,-1.5743669,2.4440193,-0.21524863,0.21079643,-0.27193758,0.08071835,-0.0272025,-0.19358273,-0.4405331,0.34476504,-9.500193,0.9321212,47.658226,-1.2252845,-2.2137907,-3.481708,-0.2972976,-0.16164827,-0.34796283,28.875,30.25,29.3125,32.9375,35.4375,36.5
0.35205358,-1.4687994,-2.501723,-0.49687615,-0.09147929,0.09891455,-0.17303084,-0.4177318,-0.35958582,0.060041856,-3.073657,0.62710357,8.054997e-06,-0.16539831,0.05548473,-0.0024985934,0.030989224,-0.0055458862,-0.023669884,0.46662286,-1.3462846,1.8588771,-2.079047,-1.5743908,2.4436467,-0.21649398,0.21434712,-0.27141455,0.075359195,-0.026150435,-0.1925907,-0.63206923,0.30645782,-9.3661175,0.88960326,47.639416,-1.1290843,-2.216996,-3.5956283,-0.23786944,-0.15366371,-0.38362548,28.875,30.25,29.3125,32.9375,35.4375,36.5
0.35405368,-1.1350617,-1.9968886,-0.60700953,-0.09945039,0.12998411,-0.18827234,-0.4180444,-0.35949913,0.060039897,-3.0736449,0.6270611,-3.902821e-05,-0.16830239,0.055581316,-0.00107191,0.02776654,-0.0011644635,-0.022002112,0.46621385,-1.3458651,1.8583373,-2.078892,-1.5743903,2.443213,-0.21946287,0.2142255,-0.27398324,0.07265698,-0.025281021,-0.1972296,-0.47884035,0.34476504,-9.423578,0.91421866,47.66271,-0.998593,-2.2203908,-3.6461926,-0.21580502,-0.13924557,-0.37107253,28.875,30.25,29.3125,32.9375,35.4375,36.5
0.35605374,-0.835274,-1.9547672,-0.7458597,-0.08685265,0.13710885,-0.19522102,-0.41838628,-0.35936955,0.06002221,-3.0735466,0.62716836,-4.2132524e-05,-0.17012383,0.05517216,0.00060942065,0.024543623,0.003463556,-0.012470763,0.46574545,-1.3454219,1.8578099,-2.0787613,-1.5744499,2.4428246,-0.22058079,0.2126205,-0.27533415,0.06996548,-0.024535842,-0.2078811,-0.36391866,0.47884035,-9.557653,0.9791215,47.664497,-0.9097502,-2.0845606,-3.5693657,-0.18359616,-0.13633843,-0.25454265,28.875,30.25,29.3125,32.9375,35.4375,36.5
0.35805354,-0.8179205,-1.3311633,-0.768191,-0.060161557,0.10607834,-0.18800582,-0.418739,-0.3592784,0.060015302,-3.07353,0.62710214,1.4085018e-05,-0.17152855,0.054013953,0.0008885327,0.022303432,0.006272349,-0.0020960756,0.46532512,-1.3449535,1.8572353,-2.0786664,-1.5744976,2.4423654,-0.2200684,0.21426694,-0.2773406,0.06675116,-0.02383597,-0.2177461,-0.51714754,0.4213795,-9.595961,0.8560339,47.653748,-0.84739757,-2.1699927,-3.6276145,-0.13737507,-0.13250542,-0.15669085,28.875,30.25,29.3125,32.9375,35.4375,36.5
0.36005428,-0.8530945,-0.66079015,-0.49886996,-0.031675752,0.08065182,-0.17692444,-0.41905347,-0.3591768,0.059986368,-3.0734568,0.6271043,-7.184251e-05,-0.17236193,0.05329931,0.0012905367,0.02198854,0.0067405757,0.00071208127,0.46490577,-1.3444854,1.856697,-2.0785105,-1.5745219,2.4419572,-0.21942902,0.21599863,-0.2806803,0.06777653,-0.02379642,-0.21991198,-0.6703765,0.40222588,-9.461885,0.9254084,47.64658,-1.0379413,-2.1432269,-3.617894,-0.08858483,-0.13352649,-0.085037276,28.875,30.25,29.3125,32.9375,35.4375,36.5
0.36205623,0.30266157,-0.006095592,-0.79602045,-0.005131119,0.07943945,-0.17998078,-0.4194248,-0.35908642,0.060024805,-3.073456,0.62708724,9.594849e-05,-0.17324978,0.05276942,0.00064618257,0.022188446,0.006458725,-0.0045857597,0.46448618,-1.3440759,1.8560852,-2.0783913,-1.5745934,2.4415274,-0.21908018,0.21938013,-0.28331572,0.06736868,-0.02382244,-0.21426588,-0.49799395,0.30645782,-9.461885,0.92093146,47.647476,-1.1441516,-2.403078,-3.5646305,-0.06980805,-0.12115325,-0.12522033,28.875,30.25,29.3125,32.9375,35.4375,36.5
0.3640543,-0.24357772,-0.3759884,-0.9938448,0.017198047,0.04894363,-0.1744652,-0.41977587,-0.35897052,0.060004193,-3.0733595,0.6271683,0.000117826574,-0.17474145,0.052121203,0.0016838553,0.020211825,0.00878709,-0.0146306055,0.46404216,-1.3435967,1.8555225,-2.0782716,-1.5746659,2.4411469,-0.21950592,0.21988708,-0.28627083,0.06685936,-0.023085726,-0.20464833,-0.3256114,0.2681506,-9.672575,0.91421866,47.65912,-1.2572683,-2.2949615,-3.4396853,-0.016370604,-0.14152348,-0.19767396,28.875,30.25,29.3125,32.9375,35.4375,36.5
0.36605433,0.18739289,-0.26836693,-0.7003757,-0.01685353,0.064576,-0.18358923,-0.42014137,-0.35887226,0.059996307,-3.0733254,0.6272038,0.000118453085,-0.17470223,0.052354526,0.00053742225,0.021788778,0.004620098,-0.024051968,0.46358606,-1.3431041,1.8549112,-2.0781386,-1.5746893,2.4407177,-0.21994935,0.22350141,-0.2889571,0.07038243,-0.022607317,-0.19567099,-0.38307226,0.15322891,-9.461885,0.9254084,47.667187,-1.3266337,-2.3850322,-3.337247,0.0035923216,-0.1273315,-0.34400022,28.875,30.25,29.3125,32.9375,35.4375,36.5
0.36805367,0.2974831,-0.80108494,-0.67257184,-0.011516081,0.065042,-0.17081267,-0.42047104,-0.35876504,0.05998296,-3.073245,0.6272674,7.3338146e-05,-0.17518619,0.052183785,0.00018102073,0.022434495,0.0030990243,-0.02890017,0.4631532,-1.3426479,1.8543485,-2.0779703,-1.5747255,2.4403353,-0.2199477,0.22606637,-0.29179472,0.07230698,-0.022506954,-0.19081913,-0.3256114,0.076614454,-9.5385,0.8873621,47.677036,-1.1992254,-2.4881954,-3.3923864,-0.03642082,-0.10911654,-0.42915842,28.875,30.25,29.3125,32.9375,35.4375,36.5
0.37005398,0.81579363,-0.5197205,-0.7651133,-0.0038890762,0.077515945,-0.17332126,-0.42081115,-0.3586665,0.05997784,-3.073184,0.62731016,8.672706e-05,-0.1761777,0.05238636,9.436181e-05,0.022128625,0.003121303,-0.03009125,0.46273348,-1.3421916,1.8537725,-2.0778272,-1.5747732,2.4399505,-0.22107883,0.22754748,-0.2935084,0.072364464,-0.022254158,-0.19075929,-0.11492168,-0.11492168,-9.500193,0.9030289,47.64121,-1.2074372,-2.5352468,-3.2767339,0.018137632,-0.10475105,-0.5132404,28.875,30.25,29.3125,32.9375,35.4375,36.5
0.37205377,0.36729714,-0.412878,-0.98124456,0.0076067317,0.060043003,-0.18160516,-0.42121089,-0.35856563,0.060002342,-3.0731916,0.6273829,0.00021502137,-0.1749729,0.054035436,-0.0015316369,0.023996664,-0.0024791998,-0.022427099,0.46225318,-1.3417352,1.8531393,-2.07773,-1.574809,2.4395149,-0.22309099,0.22849457,-0.29176033,0.07545624,-0.021434464,-0.20044184,0.0,-0.076614454,-9.634268,0.94331104,47.62419,-1.2954652,-2.6629798,-3.4673724,0.0059732855,-0.1286145,-0.45719722,28.875,30.25,29.3125,32.9375,35.4375,36.5
0.3740538,0.42429116,0.034836188,-0.7104061,-0.00072222756,0.048177663,-0.18427634,-0.42156282,-0.3584529,0.06001607,-3.0731235,0.6274379,0.0002505703,-0.17493062,0.055642437,-0.0024078875,0.025398897,-0.006326137,-0.011247274,0.46180815,-1.341304,1.8525423,-2.0775492,-1.574869,2.4391134,-0.22578579,0.22957475,-0.2918483,0.07845351,-0.02101919,-0.2143183,0.13407528,-0.1340753,-9.615114,0.91198283,47.661808,-1.2606267,-2.6378932,-3.5861306,-0.0014145226,-0.12173305,-0.36764872,28.875,30.25,29.3125,32.9375,35.4375,36.5
