Tylouw/Master_Thesis_Code/training_data/batch_1/rect_rod_t0.2/sample_96_session_3.csv
timestamp[s],tcp_force_x[N],tcp_force_y[N],tcp_force_z[N],tcp_force_rx[Nm?],tcp_force_ry[Nm?],tcp_force_rz[Nm?],tcp_pose_x[m],tcp_pose_y[m],tcp_pose_z[m],tcp_pose_rx[rot_vec_x],tcp_pose_ry[rot_vec_y],tcp_pose_rz[rot_vec_z],tcp_velo_x[m/s],tcp_velo_y[m/s],tcp_velo_z[m/s],tcp_velo_rx[rot_vec_x/s],tcp_velo_ry[rot_vec_y/s],tcp_velo_rz[rot_vec_z/s],q1[rad],q2[rad],q3[rad],q4[rad],q5[rad],q6[rad],qd1[rad/s],qd2[rad/s],qd3[rad/s],qd4[rad/s],qd5[rad/s],qd6[rad/s],tool_acc_x,tool_acc_y,tool_acc_z,current_of_whole_robot[A],voltage_of_whole_robot[V],current_J1[A],current_J2[A],current_J3[A],current_J4[A],current_J5[A],current_J6[A],temp_J1[C],temp_J2[C],temp_J3[C],temp_J4[C],temp_J5[C],temp_J6[C]
8.5099964e-07,-0.01163865,0.0019178389,0.7715794,-0.009428842,-0.0069741625,-0.009582571,-0.3893428,-0.3687064,0.060004327,-3.0786903,0.6249056,0.00021804994,6.3660104e-06,2.0359241e-06,-0.00013093752,4.0379414e-06,-0.00025744227,3.016496e-05,0.50502086,-1.3816439,1.9042109,-2.0919158,-1.5708774,2.480001,-7.314033e-05,0.00025829795,-1.3873769e-07,-3.1364067e-05,0.00012095352,-0.00010343551,0.114921674,0.11492168,-8.695741,0.7038487,47.709274,-0.14155625,-3.0402923,-2.2905045,-0.1977233,0.17195404,0.012356063,29.0625,30.4375,29.375,33.0,35.5,36.5625
0.002052574,-0.31272677,-0.15274745,0.89280605,-0.00198588,-0.009954389,-0.014917821,-0.38934487,-0.36870128,0.060010448,-3.0786486,0.6249358,0.00024154234,-0.0006736019,-0.00037651762,-0.0021605704,-0.0012757193,0.0020353587,2.8966699e-05,0.5050329,-1.3816429,1.9041885,-2.091883,-1.5709137,2.4800372,-7.1970484e-05,0.0029471098,0.0034230803,-0.008769164,0.0001186751,-0.00010111125,0.038307227,0.15322891,-8.599973,0.7642693,47.717335,-0.17832553,-3.0349998,-2.364474,-0.14258866,0.16544627,0.0060175536,29.0625,30.4375,29.375,33.0,35.5,36.5625
0.004052318,-0.6165704,-0.38352188,0.89400065,-0.0049018934,-0.010608099,-0.00594067,-0.3893375,-0.36870956,0.06002215,-3.0787253,0.624952,0.00021193495,-0.0010333629,-0.0005765119,-0.0022829876,-0.001770434,0.0029277704,2.8083781e-05,0.5050088,-1.3816907,1.9042238,-2.0919073,-1.5708417,2.4800134,-7.083771e-05,0.0033999393,0.0035238827,-0.010343144,0.00011648065,-9.888925e-05,0.019153614,0.095768064,-8.561666,0.75084364,47.701214,-0.14143607,-3.4140587,-2.630414,-0.06544374,0.17363362,0.025933124,29.0625,30.4375,29.375,33.0,35.5,36.5625
0.006052347,-0.6015546,0.084320806,1.0257328,-0.004442477,-0.022196714,-0.014624484,-0.38934267,-0.368708,0.060006205,-3.0787122,0.6249294,0.00020861837,-0.00045412433,-0.00026170854,-0.0012043477,-0.0010942824,0.0017255446,4.013031e-05,0.5050088,-1.3816553,1.9042233,-2.0919292,-1.5708536,2.480001,-5.6348068e-05,0.0014360741,0.002369503,-0.005845598,0.00011436608,-9.67629e-05,0.019153614,0.11492168,-8.599973,0.7239871,47.703903,-0.172014,-3.383991,-2.579329,-0.08234762,0.1859768,0.009093738,29.0625,30.4375,29.375,33.0,35.5,36.5625
0.008052638,0.16291769,0.72967917,0.46503028,0.030268202,-0.028610513,-0.0150647545,-0.38935992,-0.36869285,0.060012043,-3.0786767,0.6249611,0.00027168242,-0.00043443436,-0.00024996942,0.0006982409,-0.0014189234,0.0023279267,3.941169e-05,0.5049969,-1.3816564,1.9042109,-2.0919278,-1.5709013,2.4800134,-5.4947857e-05,-0.0013712556,0.00043724728,-0.0017902546,0.000112327,-9.472588e-05,-0.076614454,0.21068975,-8.695741,0.78217715,47.723602,-0.11783118,-3.1315856,-2.4646013,-0.0962309,0.17611946,0.012956425,29.0625,30.4375,29.375,33.0,35.5,36.5625
0.0100519,0.096492164,0.90166306,0.1202134,0.036230493,-0.029606827,-0.014534071,-0.38933408,-0.3687006,0.059979543,-3.0786638,0.6249777,0.00011037051,-0.00011636409,-5.3537715e-05,0.00060684734,-0.0007009182,0.0010396552,5.5113996e-06,0.5049969,-1.3816081,1.9042224,-2.0919034,-1.5708417,2.4800253,-8.687625e-05,-0.0012231675,9.065086e-05,-0.000116890835,0.00011035941,-9.2772876e-05,-0.019153614,0.19153613,-9.040505,0.68818194,47.691364,-0.5983886,-2.6513968,-2.940763,-0.11312632,0.14792931,-0.04189136,29.0625,30.4375,29.375,33.0,35.5,36.5625
0.012051964,-0.23938768,-0.105308585,-0.14217234,0.017934987,-0.014382305,-0.025368802,-0.3893193,-0.3686972,0.059956633,-3.078625,0.6249521,8.821323e-05,0.00020904969,0.0023697813,-0.0032547913,0.0044922507,-0.008330911,-0.0037256689,0.50501984,-1.3815821,1.9042462,-2.0919144,-1.5708655,2.4800372,-0.00386319,0.005509194,1.2161969e-06,0.0039535626,0.0001084593,-0.00013723252,0.019153614,0.15322891,-9.174581,0.7463667,47.71823,-0.7457863,-2.6348038,-3.082932,-0.13292998,0.1491138,-0.08674914,29.0625,30.4375,29.375,33.0,35.5,36.5625
0.01405204,-0.66993994,-0.6107207,-0.11930832,-0.023778597,0.0025547158,-0.012190433,-0.38934055,-0.36869606,0.059959438,-3.078607,0.6249481,8.345363e-05,-0.0035667373,0.0035468012,-0.0053567234,0.0057079587,-0.010554126,-0.0035199297,0.5050055,-1.3815427,1.9041852,-2.0918787,-1.5708774,2.4800227,-0.009380367,0.013882759,-0.0048940536,0.0030080841,0.00010662384,-0.00585671,-0.076614454,0.076614454,-9.346964,0.8179876,47.704796,-0.4134476,-3.3103888,-3.107355,-0.107479945,0.15248404,-0.080405265,29.0625,30.4375,29.375,33.0,35.5,36.5625
0.016051648,-1.1779071,-1.0698702,-0.2886025,-0.048142646,0.029488077,-0.021397138,-0.38933012,-0.36867934,0.059946243,-3.078595,0.6250007,-3.4415745e-05,-0.005455159,0.003028392,-0.0025611455,0.002680414,-0.0050910157,0.0024049978,0.5049574,-1.381544,1.9042085,-2.091843,-1.5708297,2.4800088,-0.010271925,0.010659199,-0.0073086247,0.0023996544,0.00010484939,-0.012672658,-0.22984336,0.19153613,-9.385271,0.7105615,47.72002,-0.47836468,-3.1251268,-3.0351305,-0.08010757,0.14774922,-0.028720707,29.0625,30.4375,29.375,33.0,35.5,36.5625
0.018052487,-1.559406,-0.80563235,-0.26528066,-0.05315567,0.04609901,-0.035727594,-0.38930675,-0.36867625,0.059922148,-3.0785558,0.62495273,-9.3551236e-05,-0.0051478487,0.003025806,-0.0027088597,0.0029394366,-0.0055560903,0.0056911204,0.5049814,-1.38152,1.9042324,-2.091831,-1.5708417,2.480008,-0.009979508,0.010656395,-0.0070262505,0.0026518353,0.00010313282,-0.01566651,-0.4213795,0.21068975,-9.404425,0.78217715,47.704796,-0.5853039,-2.7770336,-3.2647152,-0.07305534,0.13828097,-0.020306375,29.0625,30.4375,29.375,33.0,35.5,36.5625
0.020051826,-1.4400469,-0.5830572,-0.51751155,-0.027700065,0.06237926,-0.06336202,-0.38931817,-0.36867523,0.059914283,-3.0785394,0.62490994,-0.00013925429,-0.0050796797,0.0038993787,-0.0032688924,0.004752949,-0.008824036,0.006015952,0.504969,-1.3814713,1.9041842,-2.0917933,-1.5708417,2.479971,-0.011385585,0.012057675,-0.008204088,0.006165566,0.00010147176,-0.017397089,-0.36391866,0.21068975,-9.576807,0.7172743,47.70032,-0.8313673,-2.812965,-3.3993068,-0.08736149,0.11802687,-0.015221057,29.0625,30.4375,29.375,33.0,35.5,36.5625
0.022052165,-1.7159519,-0.46647716,-0.84837925,0.00572679,0.051551882,-0.06132698,-0.38933522,-0.36868337,0.059902515,-3.0785773,0.62486213,-0.00017640211,-0.006897528,0.004718749,-0.0025751619,0.0046455227,-0.008630573,0.0032983548,0.5049441,-1.3814232,1.9041594,-2.0918167,-1.5708054,2.4799113,-0.014464104,0.012753325,-0.011040477,0.008085618,9.98632e-05,-0.017756939,-0.4213795,0.22984336,-9.615114,0.7463667,47.66808,-0.78209186,-2.7555127,-3.4380517,-0.123527184,0.11678073,-0.0077931127,29.0625,30.4375,29.375,33.0,35.5,36.5625
0.024052322,-1.7208079,0.17898361,-0.72990716,0.00055806665,0.046464667,-0.08690292,-0.38932362,-0.36863744,0.059880935,-3.0784843,0.6248254,-0.00024061036,-0.008230035,0.0046533537,-0.0030257662,0.00465272,-0.008656277,0.00050244114,0.5049077,-1.3814222,1.9041938,-2.091757,-1.5708536,2.479864,-0.015602319,0.0155842835,-0.013216367,0.0074559343,9.8304954e-05,-0.01609784,-0.61291564,0.19153614,-9.653421,0.7911258,47.719128,-0.8105362,-2.7453003,-3.3845286,-0.10832273,0.10944357,-0.04255226,29.0625,30.4375,29.375,33.0,35.5,36.5625
0.026052125,-2.0771077,-0.27022767,-0.9013959,0.00033221176,0.047846273,-0.093909524,-0.3893546,-0.36865804,0.059893575,-3.0785353,0.624875,-0.0002471924,-0.009407703,0.0047302055,-0.0031127066,0.004522317,-0.0084253,-0.0012246058,0.5048833,-1.3813854,1.9041218,-2.0917575,-1.5708054,2.479864,-0.016832234,0.017326517,-0.015035338,0.007268273,9.6794516e-05,-0.0155996615,-0.7278373,0.11492168,-9.634268,0.69937176,47.690468,-0.7857415,-2.834247,-3.3418345,-0.080892235,0.10696313,-0.06848371,29.0625,30.4375,29.375,33.0,35.5,36.5625
0.028052103,-1.4757257,-0.36458656,-0.7605985,-0.02254541,0.08019716,-0.11769477,-0.38935903,-0.3686327,0.059872106,-3.0784774,0.6248238,-0.0002830829,-0.009358147,0.005194968,-0.0039195986,0.0056125326,-0.0102843065,-0.0017768586,0.50485915,-1.3813487,1.9041218,-2.0917332,-1.5708417,2.4798152,-0.017534947,0.018789325,-0.015098344,0.00802249,4.2150252e-05,-0.01574985,-0.80445176,0.11492168,-9.844957,0.6948948,47.682407,-0.8559314,-2.8302908,-3.40423,-0.08998343,0.09436429,-0.0849797,29.0625,30.4375,29.375,33.0,35.5,36.5625
0.03005186,-2.0941882,-0.44616202,-0.7723531,-0.031010104,0.08395135,-0.12471105,-0.3893923,-0.36862272,0.059870694,-3.078446,0.624934,-0.00029987897,-0.009824532,0.0052396324,-0.003714593,0.006023844,-0.011013188,-0.0023928736,0.50481117,-1.3813004,1.9040622,-2.091708,-1.5708417,2.47984,-0.01804093,0.019704826,-0.017078346,0.009923934,3.404313e-05,-0.01563905,-0.80445176,0.076614454,-9.787497,0.75084364,47.67614,-0.90397406,-2.8547711,-3.4190063,-0.074499056,0.08054267,-0.086229675,29.0625,30.4375,29.375,33.0,35.5,36.5625
0.03205186,-2.426522,-0.7115304,-0.8371772,-0.008305662,0.08209677,-0.12821665,-0.38940698,-0.36863682,0.059872564,-3.0784848,0.6248851,-0.00033520837,-0.010768235,0.00572039,-0.0028414691,0.005705879,-0.010434381,-0.005111592,0.50479853,-1.3812648,1.904013,-2.091696,-1.5708054,2.4797919,-0.019730736,0.019029694,-0.018621672,0.011482688,3.2942433e-05,-0.0146097755,-0.7852981,0.019153614,-9.844957,0.7172743,47.694946,-0.8915932,-2.7672644,-3.4625776,-0.09762704,0.06546639,-0.11185323,29.0625,30.4375,29.375,33.0,35.5,36.5625
0.034052093,-2.1915395,-0.33284864,-0.7817903,0.012322694,0.076670125,-0.13681266,-0.38945085,-0.3686033,0.059845727,-3.0783908,0.62500054,-0.00031755233,-0.011855942,0.0054718405,-0.0027611405,0.0051665567,-0.009439226,-0.0065361443,0.5047385,-1.38118,1.9039768,-2.091708,-1.5708655,2.479816,-0.020319415,0.020421764,-0.020247055,0.010583458,1.7235325e-05,-0.013772896,-0.7278373,-0.095768064,-9.844957,0.779936,47.684196,-0.9435386,-2.7885833,-3.3756928,-0.09288177,0.066682704,-0.14032678,29.0625,30.4375,29.375,33.0,35.5,36.5625
0.036051758,-1.893219,0.19552088,-0.75007045,0.029984847,0.061944336,-0.14904167,-0.38946217,-0.36860225,0.05985817,-3.0784104,0.62490964,-0.00031581265,-0.013424698,0.005176738,-0.0022832502,0.0040826616,-0.007466133,-0.007298519,0.5047262,-1.3811797,1.9039401,-2.0916731,-1.5708655,2.4797444,-0.021281797,0.021522237,-0.022353021,0.009337758,4.1625185e-06,-0.0139717115,-0.5746084,-0.05746084,-9.883265,0.6926589,47.683304,-0.91941583,-2.799501,-3.3879106,-0.086335264,0.071649596,-0.13315445,29.0625,30.4375,29.375,33.0,35.5,36.5625
0.038051683,-1.441513,0.41703343,-0.81502455,0.027406199,0.055559836,-0.16140062,-0.38949338,-0.36860597,0.059852175,-3.078436,0.62497246,-0.0003920826,-0.015059116,0.005375474,-0.0014676045,0.003027348,-0.005559903,-0.008445023,0.50466573,-1.3811197,1.90388,-2.0916607,-1.5708054,2.4797199,-0.02313998,0.02159426,-0.024205709,0.008940344,2.717827e-07,-0.014682574,-0.4405331,-0.019153614,-9.787497,0.7530795,47.694054,-0.83778566,-2.7412186,-3.3666642,-0.06365357,0.041044086,-0.15063998,29.0625,30.4375,29.375,33.0,35.5,36.5625
0.040051762,-1.0927161,-0.5658442,-0.7690047,0.033867966,0.043273233,-0.15843384,-0.38953245,-0.36858258,0.059849977,-3.0783763,0.6250959,-0.00039587272,-0.016259907,0.0060413433,-0.0012326546,0.0028218306,-0.0051930854,-0.009904585,0.50460494,-1.3810714,1.9038199,-2.091625,-1.5708297,2.4797437,-0.025381166,0.021985115,-0.025257705,0.009180564,1.7745469e-08,-0.015463733,-0.40222588,0.019153614,-9.749189,0.7150385,47.692257,-0.8042468,-2.7862277,-3.4316926,-0.056183584,0.043148447,-0.16294307,29.0625,30.4375,29.375,33.0,35.5,36.5625
0.04205169,-0.8593694,-0.5889207,-0.78846765,0.02210249,0.04144056,-0.18248612,-0.3895783,-0.36858037,0.05985087,-3.0783954,0.6250223,-0.00030245745,-0.017165372,0.0061885924,-0.0011180812,0.002963905,-0.0054544304,-0.009417463,0.5045807,-1.3810229,1.9037713,-2.0916727,-1.5708655,2.4796712,-0.026473943,0.02325405,-0.027250743,0.010201308,1.1586523e-09,-0.017042724,-0.36391866,0.0,-9.672575,0.83813137,47.713753,-0.8348023,-2.7586174,-3.3827944,-0.050815158,0.030719904,-0.1841949,29.0625,30.4375,29.375,33.0,35.5,36.5625
0.0440518,-0.80428725,-0.63322824,-0.6411332,0.010559786,0.032871924,-0.18618575,-0.38963595,-0.3685434,0.059850503,-3.0783403,0.62512547,-0.00033325693,-0.018323198,0.00690483,-0.0009380196,0.0050384467,-0.0047834828,-0.008927252,0.50447255,-1.3809624,1.9036869,-2.091612,-1.5708784,2.4796345,-0.02742058,0.024437312,-0.029366685,0.011556732,-0.0021437975,-0.01847458,-0.30645782,0.0,-9.634268,0.7911258,47.739727,-0.84724414,-2.760129,-3.3539052,-0.05716998,0.046895783,-0.17355052,29.0625,30.4375,29.375,33.0,35.5,36.5625
0.046052232,-1.2805334,-0.5933978,-0.72916216,0.005547226,0.0068806508,-0.1960582,-0.38964614,-0.36853182,0.05983566,-3.078318,0.62515986,-0.00038943096,-0.019115303,0.0073013976,-0.0008863043,0.0054631974,-0.0050959717,-0.009756898,0.50443614,-1.3809261,1.903675,-2.0915997,-1.5708665,2.4796224,-0.02868891,0.025364496,-0.030805612,0.012548216,-0.0023665656,-0.018912124,-0.19153613,0.095768064,-9.634268,0.6971306,47.690468,-0.8566092,-2.7199216,-3.3505268,-0.07109235,0.035254396,-0.18098044,29.0625,30.4375,29.375,33.0,35.5,36.5625
0.04805216,-0.72865677,-0.6241251,-0.56451917,0.00037017764,0.0050750254,-0.21379077,-0.38970774,-0.3685098,0.05985773,-3.078307,0.6251965,-0.00031019756,-0.01960542,0.008000529,-0.0012876288,0.006035228,-0.00642447,-0.010436443,0.50436383,-1.3809018,1.9035906,-2.0915754,-1.5709022,2.4795744,-0.030408816,0.026393667,-0.031317994,0.013469361,-0.0022246225,-0.019952565,-0.13407528,0.11492168,-9.5385,0.78888994,47.70659,-0.8460299,-2.6731918,-3.373662,-0.05702438,0.03164398,-0.20095532,29.0625,30.4375,29.375,33.0,35.5,36.5625
0.05005246,-0.49535096,-0.8716408,-0.6720084,0.0015285541,-0.007851604,-0.22241211,-0.3897516,-0.36850452,0.05985064,-3.0783036,0.6253114,-0.00036197057,-0.020509578,0.008352713,-0.0010712692,0.0055468776,-0.0065045524,-0.010894946,0.5042913,-1.3808296,1.9035186,-2.0915635,-1.570866,2.479574,-0.032132205,0.02687196,-0.0324991,0.014004973,-0.0017611209,-0.021217814,-0.019153614,0.1340753,-9.519346,0.7486078,47.70211,-0.7413224,-2.7009623,-3.4101934,-0.0704568,0.03617413,-0.21988466,29.0625,30.4375,29.375,33.0,35.5,36.5625
0.052052367,-0.10367419,-0.77028716,-0.59044075,-0.010463549,-0.003906929,-0.23207432,-0.38982123,-0.3684841,0.059869558,-3.0782938,0.62534636,-0.00030838806,-0.021977974,0.008177861,-0.00032814863,0.0044690943,-0.0050033564,-0.0105946865,0.5042071,-1.3807813,1.9034103,-2.0915277,-1.5708903,2.479513,-0.03333748,0.02750069,-0.0349262,0.01396653,-0.0015489117,-0.022722702,-0.019153614,0.22984336,-9.500193,0.8112748,47.686886,-0.7836838,-2.660459,-3.321161,-0.07081866,0.016479105,-0.22052634,29.0625,30.4375,29.375,33.0,35.5,36.5625
0.05405218,-0.35934144,-0.8509578,-0.5471388,-0.011153416,-0.007424094,-0.22428861,-0.38981912,-0.36847296,0.059855577,-3.0782647,0.6253027,-0.00040682175,-0.0230276,0.008447509,0.00022230129,0.0038096833,-0.0045265798,-0.01059248,0.5041825,-1.3807453,1.903386,-2.0914676,-1.5708779,2.4794648,-0.03498534,0.027617285,-0.036475066,0.014661479,-0.0012062378,-0.024372756,0.019153614,0.2681506,-9.519346,0.7597976,47.71554,-0.74206173,-2.608018,-3.2863224,-0.076676115,0.011290609,-0.21519607,29.0625,30.4375,29.375,33.0,35.5,36.5625
0.056051835,0.2445702,-0.9359042,-0.7079005,-0.009066261,0.009542376,-0.19426785,-0.38988566,-0.36843222,0.059844498,-3.0782156,0.625368,-0.0003843638,-0.024168566,0.008849952,0.00018870662,0.0038226903,-0.0043106265,-0.010175044,0.5040744,-1.3806727,1.9033254,-2.0914676,-1.5709141,2.4794037,-0.036648273,0.028811233,-0.0378,0.014608634,-0.0013269157,-0.02645214,0.0,0.22984336,-9.461885,0.7665104,47.70211,-0.677711,-2.5540214,-3.2856975,-0.07150601,0.016568338,-0.22105229,29.0625,30.4375,29.375,33.0,35.5,36.5625
0.05805155,-0.9346054,-1.4414436,-0.39682147,-0.0049038357,0.001117484,-0.18766758,-0.38993233,-0.36844036,0.05985895,-3.078266,0.6253768,-0.00040626322,-0.02426037,0.008783947,4.120764e-05,0.0049375533,-0.004693602,-0.008072919,0.50401473,-1.3806243,1.9032296,-2.0914428,-1.5708665,2.4793432,-0.036124974,0.029893044,-0.03896108,0.015565501,-0.0021190012,-0.028028904,-0.038307227,0.28730422,-9.461885,0.779936,47.711063,-0.71027607,-2.6254237,-3.3143687,-0.08006579,-0.007861742,-0.22076292,29.0625,30.4375,29.375,33.0,35.5,36.5625
0.060052652,-0.19103324,-1.0179708,-0.29291418,-0.019943653,0.028474206,-0.2000628,-0.3899614,-0.3684349,0.059849046,-3.0782535,0.6253175,-0.0004506864,-0.025127701,0.008939902,0.00032069592,0.005120051,-0.0038086423,-0.008029477,0.5039784,-1.3805519,1.9031585,-2.091407,-1.5708665,2.4792714,-0.03682582,0.030423436,-0.040240593,0.01562979,-0.0027104735,-0.02877134,-0.114921674,0.30645782,-9.3661175,0.71279734,47.678825,-0.80253637,-2.5323334,-3.3374672,-0.09253728,-0.010234183,-0.22558235,29.0625,30.4375,29.375,33.0,35.5,36.5625
0.06205238,-0.701929,-1.1250757,-0.3526493,-0.016127564,0.017937373,-0.19430093,-0.39002898,-0.36841512,0.05985812,-3.0782394,0.6254298,-0.00043509007,-0.027040843,0.009286203,0.0010197405,0.004656472,-0.0021575522,-0.008998072,0.50388193,-1.3804917,1.9030613,-2.0913832,-1.5708665,2.4792469,-0.03894049,0.031236866,-0.042816106,0.015723167,-0.0031078649,-0.029915499,-0.038307227,0.28730422,-9.404425,0.7463667,47.67345,-0.7491389,-2.5344734,-3.3766005,-0.10262218,-0.009861933,-0.22905248,29.0625,30.4375,29.375,33.0,35.5,36.5625
0.06405223,-1.0694687,-1.3089144,-0.5497248,-0.003920256,0.011250558,-0.19533941,-0.3900746,-0.36837867,0.05983985,-3.0781772,0.6254543,-0.00050898356,-0.027904145,0.009773169,0.00078589487,0.005221051,-0.0022291394,-0.0092506325,0.5037857,-1.3804071,1.9029893,-2.0913236,-1.5708789,2.479174,-0.04027173,0.032461725,-0.043743066,0.015761355,-0.003572864,-0.030992437,-0.095768064,0.24899697,-9.3661175,0.7620334,47.668976,-0.8063532,-2.5026674,-3.3395448,-0.09684901,-0.037764,-0.24850571,29.0625,30.4375,29.375,33.0,35.5,36.5625
0.066051684,-0.6605351,-0.67739326,-0.26330817,-0.0036787414,0.021533167,-0.19558679,-0.3901353,-0.36835605,0.059855998,-3.0781474,0.6255441,-0.00044242427,-0.029113697,0.009706526,0.0014308456,0.0050610187,-0.00032772392,-0.008956653,0.50371367,-1.3803713,1.9029049,-2.0912998,-1.5709151,2.4791617,-0.040794834,0.032862764,-0.04562744,0.015503511,-0.004355203,-0.03180717,-0.11492168,0.19153613,-9.3661175,0.7239871,47.664497,-0.77213514,-2.5068998,-3.337009,-0.100546874,-0.039745122,-0.25346035,29.0625,30.4375,29.375,33.0,35.5,36.5625
0.06805175,-1.0132735,-0.48171023,-0.24059874,0.0015398569,0.019955667,-0.18877748,-0.39022452,-0.36835286,0.059888862,-3.0782247,0.6254829,-0.00035487255,-0.029960377,0.010102942,0.0012858282,0.0054809735,-0.00021979246,-0.008928832,0.5036176,-1.3803228,1.9027728,-2.0912998,-1.5709032,2.4790177,-0.041981068,0.033952694,-0.046581395,0.015476939,-0.004775425,-0.03302021,-0.22984336,0.22984336,-9.346964,0.800085,47.70211,-0.7870343,-2.5167048,-3.3224216,-0.116504215,-0.018150542,-0.2720558,29.0625,30.4375,29.375,33.0,35.5,36.5625
0.07005264,-1.1475763,-0.20981036,-0.40590063,0.00624234,0.030258924,-0.19004694,-0.3902533,-0.36833292,0.059873063,-3.0781703,0.625472,-0.0004570936,-0.031193038,0.010557835,0.0015147991,0.006027917,0.0007677542,-0.009222979,0.50355715,-1.3802379,1.9026893,-2.0912158,-1.5709032,2.4789574,-0.043293,0.034798797,-0.048128817,0.015580254,-0.0057377103,-0.03403489,-0.2681506,0.11492168,-9.308656,0.73741806,47.690468,-0.73416007,-2.5150042,-3.335075,-0.10796414,-0.034892075,-0.28005356,29.0625,30.4375,29.375,33.0,35.5,36.5625
0.072052,-1.7206066,-0.34162804,-0.4654997,0.018079957,0.027588328,-0.19073172,-0.39032903,-0.3683157,0.059879452,-3.078153,0.62558293,-0.00038837257,-0.032576963,0.011063923,0.0019114316,0.0069641056,0.0019332299,-0.010206702,0.503473,-1.3801662,1.9025925,-2.0912273,-1.570928,2.4789448,-0.044564154,0.03570143,-0.050248284,0.016231617,-0.00712224,-0.03431884,-0.2681506,0.076614454,-9.346964,0.800085,47.70032,-0.82995903,-2.443419,-3.2991261,-0.11820448,-0.020326141,-0.30675644,29.0625,30.4375,29.375,33.0,35.5,36.5625
0.074052066,-1.730586,-0.5856434,-0.5355257,0.020140084,0.039148614,-0.18615568,-0.39039367,-0.3683033,0.05990094,-3.0781746,0.62560517,-0.00039942196,-0.03318109,0.011457052,0.0018416301,0.008197044,0.0022075395,-0.008323038,0.50337696,-1.3801179,1.9024729,-2.0911672,-1.5709041,2.47886,-0.0450243,0.03659566,-0.051254585,0.016702276,-0.008336641,-0.036659826,-0.36391866,0.076614454,-9.346964,0.779936,47.701214,-0.829606,-2.4606593,-3.280896,-0.12640552,-0.00085054117,-0.28693724,29.0625,30.4375,29.375,33.0,35.5,36.5625
0.07605248,-1.0724157,-0.045658197,-0.30798304,0.014883154,0.05630141,-0.19802105,-0.39044532,-0.3682833,0.059901066,-3.0781884,0.6256281,-0.00042397113,-0.034165364,0.0128180785,0.0013186252,0.009487337,0.00080488034,-0.010092181,0.5032803,-1.3800693,1.9024123,-2.0911553,-1.5708803,2.4787757,-0.047943078,0.03791378,-0.051889956,0.01787211,-0.008789884,-0.037808217,-0.4213795,0.05746084,-9.3661175,0.6859408,47.670765,-0.76598614,-2.4582455,-3.3741193,-0.14632612,0.015605057,-0.31744254,29.0625,30.4375,29.375,33.0,35.5,36.5625
0.07805245,-1.2248144,-0.0019888207,-0.25101763,0.015057409,0.0560764,-0.19576825,-0.39051867,-0.36825606,0.059902318,-3.0781374,0.6256947,-0.00037568065,-0.036088616,0.012058702,0.0023716441,0.007905065,0.0027892794,-0.010379341,0.5031961,-1.3799847,1.902304,-2.091131,-1.5709285,2.4787397,-0.048712607,0.03937051,-0.05605906,0.018078834,-0.008369861,-0.038289517,-0.4405331,0.038307227,-9.404425,0.7530795,47.70211,-0.67340183,-2.4760275,-3.1609907,-0.15611008,-0.010583671,-0.3096032,29.0625,30.4375,29.375,33.0,35.5,36.5625
0.08005252,-1.4431815,-0.14654833,-0.15986201,0.01521345,0.04634756,-0.18609,-0.3905842,-0.36824304,0.059883792,-3.0781028,0.6256663,-0.00045039094,-0.03495763,0.011589622,0.0009955317,0.008433661,0.00020987642,-0.008234515,0.5031128,-1.37984,1.9021615,-2.0910714,-1.570928,2.4786432,-0.047349203,0.04127598,-0.055109024,0.01773427,-0.0075909435,-0.039072074,-0.4405331,0.019153614,-9.404425,0.71951014,47.699425,-0.8949251,-2.493594,-3.2386813,-0.14149171,0.0045423275,-0.32118937,29.0625,30.4375,29.375,33.0,35.5,36.5625
0.082052074,-1.5156921,-0.23333961,-0.1894808,0.016285205,0.046346903,-0.18413986,-0.39066982,-0.36822402,0.059904203,-3.0781276,0.6256129,-0.00036811875,-0.036109257,0.01238992,0.00079304026,0.0077783577,-0.00042674315,-0.007760634,0.5030159,-1.3797795,1.9020408,-2.09106,-1.5709518,2.47851,-0.050307,0.042159077,-0.055677526,0.017655788,-0.006711597,-0.0425055,-0.4213795,-0.05746084,-9.385271,0.7620334,47.651955,-0.82670844,-2.4801118,-3.4383364,-0.13127899,-0.031599358,-0.32490587,29.0625,30.4375,29.375,33.0,35.5,36.5625
0.08405202,-1.5916381,-0.47053,-0.32611135,0.01882134,0.03595804,-0.184686,-0.3907223,-0.368187,0.059882544,-3.0780482,0.6256345,-0.0004462306,-0.03767759,0.012386779,0.001191495,0.0066672894,1.3074568e-05,-0.0077079437,0.50291955,-1.3796706,1.901945,-2.0909874,-1.5709757,2.4784372,-0.052224774,0.043549303,-0.058303848,0.017966047,-0.00596031,-0.044475712,-0.40222588,-0.05746084,-9.404425,0.7620334,47.670765,-0.82466465,-2.4733145,-3.3450089,-0.168646,-0.039127655,-0.31272689,29.0625,30.4375,29.375,33.0,35.5,36.5625
0.08605256,-0.8722263,-0.0044434443,-0.28606308,0.014333692,0.04747073,-0.19095424,-0.39080402,-0.3681464,0.059898786,-3.0780492,0.6257094,-0.00041724194,-0.03942964,0.012559748,0.0019196445,0.0062882807,0.0007112438,-0.0055974084,0.50277513,-1.3796345,1.9018596,-2.0909626,-1.5709757,2.4783394,-0.054129977,0.044775244,-0.06173079,0.01937073,-0.005970536,-0.048490137,-0.4405331,-0.019153614,-9.346964,0.7418897,47.66987,-0.6963943,-2.53054,-3.1621218,-0.17563996,-0.06514424,-0.30903754,29.0625,30.4375,29.375,33.0,35.5,36.5625
0.0880527,-1.1155297,0.32463086,-0.091961,0.009770737,0.047463607,-0.19408046,-0.3908916,-0.36815956,0.05991538,-3.0780935,0.62567854,-0.0003481859,-0.037675004,0.012521609,0.00064449734,0.008193189,-0.0022670873,-0.003213164,0.502716,-1.3795261,1.9016937,-2.0909626,-1.5709761,2.4782555,-0.052282173,0.04565156,-0.0601017,0.0203933,-0.006196479,-0.049027104,-0.47884035,-0.076614454,-9.32781,0.82022345,47.688675,-0.8607192,-2.4885151,-3.3381562,-0.19282536,-0.048635483,-0.28571787,29.0625,30.4375,29.375,33.0,35.5,36.5625
0.090051845,-1.1177851,-0.0165431,-0.06176555,0.008552707,0.054876573,-0.19255945,-0.39096764,-0.36813444,0.059911184,-3.0780723,0.62571335,-0.00040432907,-0.039297707,0.013184117,0.00074375985,0.008418556,-0.0018326803,-0.0040654177,0.50259525,-1.3794177,1.9015611,-2.0909026,-1.5709637,2.4781592,-0.05463875,0.0470729,-0.062078223,0.020677354,-0.0066102166,-0.050529376,-0.45968673,0.076614454,-9.346964,0.78888994,47.70032,-0.9042369,-2.4829311,-3.4111414,-0.19772536,-0.047914132,-0.29139954,29.0625,30.4375,29.375,33.0,35.5,36.5625
0.09205202,-1.2023194,-0.17642476,-0.32807136,0.0023705561,0.053131044,-0.18546164,-0.39105275,-0.36807343,0.059896283,-3.0779786,0.62574923,-0.0004147778,-0.040571444,0.013748337,0.0006801137,0.009213734,-0.0015869405,-0.0019923106,0.5024511,-1.3793088,1.9014529,-2.090843,-1.5710243,2.4780495,-0.05624894,0.048610564,-0.06384697,0.021073837,-0.0074345297,-0.054209642,-0.34476504,0.076614454,-9.500193,0.78888994,47.71017,-0.85627735,-2.5868783,-3.3171966,-0.22539902,-0.055496134,-0.25187355,29.0625,30.4375,29.375,33.0,35.5,36.5625
0.094052,-1.5245041,-1.1629958,-0.3825398,0.011921315,0.042432606,-0.18319859,-0.39111263,-0.3680709,0.059899587,-3.0779939,0.62563556,-0.0004295695,-0.04141743,0.013737579,0.001269408,0.008973764,-0.00020887236,0.0008701494,0.5023911,-1.3792129,1.9013208,-2.0907948,-1.5710243,2.4779167,-0.056723095,0.048591785,-0.065175176,0.021097654,-0.007893751,-0.05754468,-0.38307226,0.1340753,-9.3661175,0.72622824,47.701214,-0.8598768,-2.4954243,-3.2897415,-0.2160445,-0.045500413,-0.22889578,29.0625,30.4375,29.375,33.0,35.5,36.5625
0.09605261,-1.2502186,-0.9560166,-0.3965514,-0.0048814914,0.04300791,-0.17673643,-0.39122075,-0.36803588,0.059931137,-3.078001,0.62565434,-0.0003503084,-0.04227416,0.014500642,0.00037879567,0.011537396,-0.0011913623,0.002761043,0.50224715,-1.3791518,1.9011658,-2.0907462,-1.5710491,2.4777837,-0.057683766,0.0514614,-0.06672205,0.021873182,-0.009669104,-0.060391944,-0.4405331,0.19153613,-9.308656,0.7620334,47.689575,-0.9032526,-2.5028584,-3.350644,-0.23570591,-0.037735898,-0.18018481,29.0625,30.4375,29.375,33.0,35.5,36.5625
0.09805168,-0.8323645,-0.50932646,-0.32464918,-0.01006947,0.04977109,-0.19763425,-0.39132324,-0.3679791,0.059897885,-3.077906,0.6257488,-0.00039947528,-0.043112405,0.015239233,9.8035285e-05,0.013827658,-0.0008611751,0.003973222,0.5020792,-1.3789831,1.9010338,-2.0907109,-1.5710858,2.477687,-0.05833673,0.052914035,-0.067941666,0.022456367,-0.011843611,-0.06225111,-0.30645782,0.17238252,-9.404425,0.8224646,47.70211,-0.888184,-2.6082497,-3.366295,-0.25863096,-0.022702962,-0.15560885,29.0625,30.4375,29.375,33.0,35.5,36.5625
0.10005167,-0.3950584,0.19355404,-0.2789198,-0.021257807,0.05627744,-0.20378317,-0.39140356,-0.36795297,0.059916496,-3.0779028,0.62570894,-0.00033266144,-0.04426825,0.015404155,0.0017544241,0.0130908275,0.0021154182,0.004874209,0.50198317,-1.3789239,1.9009131,-2.0906746,-1.571122,2.4775665,-0.059184317,0.050926555,-0.06948909,0.02302615,-0.012632212,-0.06399807,-0.19153613,0.19153613,-9.385271,0.7642693,47.71286,-0.9865577,-2.399375,-3.3372076,-0.2832108,0.024437502,-0.09808582,29.0625,30.4375,29.375,33.0,35.5,36.5625
0.10205156,-0.89025617,-0.8469176,-0.32891017,-0.010203023,0.030349268,-0.18650603,-0.39148632,-0.36793357,0.05990564,-3.0779066,0.6257083,-0.00041444087,-0.045212977,0.015362305,0.0012481229,0.012661688,0.0017171218,0.005112841,0.501851,-1.3787909,1.9007696,-2.090627,-1.5710858,2.4774334,-0.06032764,0.053141013,-0.070790954,0.02225439,-0.012072929,-0.06537982,-0.11492168,0.2681506,-9.3661175,0.83589023,47.70211,-0.9621532,-2.5073109,-3.3313634,-0.27059296,0.023300517,-0.09637056,29.0625,30.4375,29.375,33.0,35.5,36.5625
0.10405256,-0.4206287,-0.69302505,-0.4652465,-0.019651735,0.024989175,-0.18510678,-0.3915642,-0.36789757,0.0598916,-3.0778422,0.6256757,-0.0003992113,-0.04516912,0.015022542,0.00012021811,0.012460769,-0.0010736365,0.005414452,0.50175524,-1.3786697,1.9006499,-2.0905907,-1.5711454,2.4773257,-0.060650136,0.05607468,-0.07179743,0.02266647,-0.010559076,-0.06600596,-0.22984336,0.22984336,-9.32781,0.779936,47.688675,-1.0542536,-2.4908648,-3.3288417,-0.27289248,0.0030387663,-0.07147157,29.0625,30.4375,29.375,33.0,35.5,36.5625
0.106052294,0.0889764,-0.99399555,-0.2968424,-0.018651657,0.019920798,-0.18347721,-0.39168203,-0.36786804,0.059904516,-3.0778513,0.6256196,-0.00034676844,-0.046555698,0.015249314,0.00034609603,0.01215392,-0.00078649895,0.0033314973,0.501611,-1.3785492,1.9004697,-2.090555,-1.5711693,2.4771454,-0.06238152,0.057458263,-0.07406484,0.023147626,-0.010431091,-0.065653846,-0.05746084,0.21068975,-9.32781,0.7866488,47.67793,-1.0054044,-2.6887174,-3.3426707,-0.2752887,-0.0029247995,-0.07398343,29.0625,30.4375,29.375,33.0,35.5,36.5625
0.10805219,-0.020581333,-0.9248218,-0.6660601,-0.022612818,0.0040345765,-0.17597827,-0.3917594,-0.3678509,0.059895135,-3.077826,0.6255958,-0.00043099347,-0.047511976,0.0153364595,0.0019145869,0.011208056,0.0018389709,0.0020895577,0.5015029,-1.3784059,1.9003023,-2.090471,-1.5711573,2.4770257,-0.063128285,0.05543231,-0.07537304,0.023726404,-0.010869657,-0.065156944,0.0,0.19153613,-9.308657,0.83589023,47.709274,-0.98511565,-2.4232144,-3.357534,-0.30080122,0.014556486,-0.058810446,29.0625,30.4375,29.375,33.0,35.5,36.5625
0.11005226,-0.45983303,-1.6038402,-0.56397307,-0.0051604887,-0.011413282,-0.16718435,-0.39185363,-0.3678032,0.05990109,-3.0778186,0.62563264,-0.00043260583,-0.04848222,0.015374055,0.0012030064,0.011151745,0.0008252834,-7.524872e-05,0.5013349,-1.3783327,1.900194,-2.0904353,-1.5711569,2.4768817,-0.06440879,0.05824717,-0.07702198,0.02341905,-0.010337427,-0.06427268,0.05746084,0.1340753,-9.423578,0.784413,47.6636,-1.0829389,-2.5034919,-3.368976,-0.31468564,0.016567457,-0.062372617,29.0625,30.4375,29.375,33.0,35.5,36.5625
0.112052456,-0.14182068,-0.6599834,-0.43731904,-0.024309766,-0.0019150641,-0.18213908,-0.3919708,-0.3677881,0.05992164,-3.0777988,0.6256108,-0.00033029934,-0.049509633,0.015967311,0.0010212614,0.011669352,0.001100715,-0.0029128834,0.5012385,-1.3782002,1.8999795,-2.0903876,-1.5712174,2.4767745,-0.06597774,0.059357215,-0.077871494,0.023163645,-0.01092349,-0.06300254,0.095768064,0.24899697,-9.404425,0.7978386,47.704796,-1.0523596,-2.4909444,-3.3399208,-0.33058947,0.01409057,-0.079041824,29.0625,30.4375,29.375,33.0,35.5,36.5625
0.11405173,-0.6675483,-0.81229365,-0.46669528,-0.00966476,-0.004254238,-0.17567691,-0.3920761,-0.36775783,0.059900884,-3.0777783,0.62564635,-0.0003848298,-0.05246267,0.014840799,0.0030233422,0.009056788,0.0055769235,-0.005015957,0.50108254,-1.3780317,1.8998216,-2.0903633,-1.5712055,2.4766433,-0.0668803,0.060387827,-0.08353361,0.02261344,-0.010798034,-0.061799455,0.095768064,0.2681506,-9.442732,0.8560339,47.729877,-1.0146111,-2.518341,-3.1503372,-0.31556165,0.033179335,-0.079424635,29.0625,30.4375,29.375,33.0,35.5,36.5625
0.11605235,-0.08178915,-0.14165369,-0.5909228,-0.018281946,0.011819866,-0.18066798,-0.39218384,-0.36772567,0.059927616,-3.0777853,0.6256283,-0.0002935898,-0.05159835,0.01550224,0.0017586735,0.009504478,0.0022971262,-0.007572723,0.5009506,-1.3779595,1.8996671,-2.0903275,-1.5712408,2.4764993,-0.06791659,0.061128937,-0.08163929,0.0230627,-0.009606356,-0.060282763,0.05746084,0.24899697,-9.385271,0.7105615,47.716442,-1.0512099,-2.520295,-3.284895,-0.30679998,0.017585654,-0.09698579,29.0625,30.4375,29.375,33.0,35.5,36.5625
0.118052386,0.031112188,-0.24302843,-0.50935686,-0.020333732,0.016923457,-0.19071354,-0.39226988,-0.36769736,0.05990862,-3.0777266,0.62567437,-0.00035498058,-0.052808024,0.015235009,0.00143307,0.009944607,0.0013966237,-0.009020626,0.5008306,-1.3778021,1.8995103,-2.090267,-1.5712527,2.4764156,-0.06859854,0.06448194,-0.085140005,0.024210092,-0.009568405,-0.059514508,-0.05746084,0.2681506,-9.385271,0.7911258,47.689575,-1.1123525,-2.5091286,-3.287054,-0.3219529,0.0024294867,-0.13305047,29.0625,30.4375,29.375,33.0,35.5,36.5625
0.12005256,0.29751948,-0.35689095,-0.39122286,-0.021175854,0.03743171,-0.17857467,-0.3923572,-0.36769176,0.05990866,-3.0777621,0.6256428,-0.00041923625,-0.05344885,0.015026037,0.0024553621,0.008584454,0.0026570896,-0.010536486,0.50071055,-1.3776702,1.8993429,-2.0902188,-1.571205,2.4762714,-0.069187865,0.06346652,-0.08638484,0.02471171,-0.008982328,-0.058588896,-0.15322891,0.21068975,-9.442732,0.8023209,47.684196,-1.1694893,-2.5114818,-3.146012,-0.32940063,0.003449093,-0.15065652,29.0625,30.4375,29.375,33.0,35.5,36.5625
0.122052506,-0.8755822,-0.7259486,-0.734883,-0.008679519,0.026792273,-0.17371222,-0.39244685,-0.36762902,0.059904005,-3.077667,0.6256816,-0.000404496,-0.053588748,0.015359048,0.0020257882,0.008471678,0.0015135992,-0.012302755,0.50056654,-1.3775738,1.8992232,-2.0901473,-1.5712765,2.4761639,-0.07026476,0.06416542,-0.086269945,0.024839558,-0.008336548,-0.057900533,-0.17238252,0.19153613,-9.595961,0.83589023,47.70211,-1.1986402,-2.4584768,-3.3072407,-0.33052278,-0.006236868,-0.18561292,29.0625,30.4375,29.375,33.0,35.5,36.5625
0.12405252,-0.7527823,-0.46736228,-0.6939989,-0.022762965,0.04946698,-0.18575981,-0.39257538,-0.36761585,0.059911255,-3.077692,0.6256875,-0.00041716738,-0.055084232,0.01573431,0.0013629721,0.009012594,0.0005914554,-0.014565353,0.50041026,-1.3774047,1.8989953,-2.090099,-1.5712522,2.4760082,-0.07223478,0.06748141,-0.088756144,0.02507881,-0.00837316,-0.057606485,-0.15322891,0.17238252,-9.576807,0.8157518,47.64927,-1.2136364,-2.4744382,-3.233818,-0.3604555,-0.013258936,-0.21087512,29.0625,30.4375,29.375,33.0,35.5,36.5625
0.12605208,-1.168923,-0.87457424,-0.8543975,-0.019246986,0.05767935,-0.17582303,-0.3926976,-0.36758667,0.05992906,-3.0776598,0.6257764,-0.0003265205,-0.05605918,0.015928984,0.0017272084,0.008905703,0.0014467053,-0.0144183105,0.50027806,-1.3772844,1.8988041,-2.0900633,-1.5713004,2.4759357,-0.07324474,0.06792885,-0.09015511,0.025225267,-0.008691689,-0.05876247,-0.22984336,0.15322891,-9.634268,0.7978386,47.68599,-1.1125063,-2.5495949,-3.2123916,-0.36401594,-0.03059605,-0.22528017,29.0625,30.4375,29.375,33.0,35.5,36.5625
0.12805207,-1.5586973,-0.93348455,-0.8424307,-0.006916544,0.06200542,-0.16977523,-0.3927891,-0.3675775,0.059957214,-3.0776806,0.62579805,-0.00031033825,-0.056504853,0.015304399,0.0025648952,0.007888376,0.00330445,-0.011991489,0.5001706,-1.3772005,1.8986243,-2.0899913,-1.5712885,2.4758391,-0.07258791,0.067358054,-0.09129701,0.02481867,-0.008693607,-0.060532264,-0.40222588,0.22984336,-9.481039,0.87393653,47.71286,-1.3421035,-2.4519324,-3.3571732,-0.35813543,-0.022071227,-0.23049,29.0625,30.4375,29.375,33.0,35.5,36.5625
0.13005182,-1.5328584,-0.5292125,-0.8363659,-0.006287123,0.07211675,-0.17798698,-0.39291647,-0.36752206,0.059934124,-3.0776136,0.62582475,-0.00030639584,-0.058437936,0.016808793,0.0015656087,0.008534542,0.002402508,-0.018034158,0.49998954,-1.3770194,1.8984569,-2.089968,-1.5713366,2.4756835,-0.07679445,0.070126735,-0.09212729,0.023978828,-0.008832992,-0.05869468,-0.38307226,0.15322891,-9.576807,0.779936,47.695843,-1.2834587,-2.4478006,-3.3235812,-0.3416115,-0.029668782,-0.2763729,29.0625,30.4375,29.375,33.0,35.5,36.5625
0.132052,-1.4944047,-0.8777118,-0.92493445,0.007940254,0.07310132,-0.1742116,-0.3930223,-0.36746904,0.059899844,-3.077513,0.6259567,-0.0004118282,-0.05840931,0.016503112,0.0016411808,0.008588518,0.0031387315,-0.016985588,0.4998103,-1.376827,1.8982905,-2.089896,-1.571349,2.4755995,-0.07597911,0.07018378,-0.09225495,0.023428231,-0.009241094,-0.058926,-0.38307226,0.038307227,-9.691729,0.8672237,47.71554,-1.210915,-2.4771366,-3.3421674,-0.35423234,-0.04031976,-0.30821496,29.0625,30.4375,29.375,33.0,35.5,36.5625
0.1340524,-1.1924078,-0.32409093,-0.7311377,-0.0028663084,0.07930164,-0.17835271,-0.3931576,-0.3674594,0.05992216,-3.077567,0.62594616,-0.00037636078,-0.060818635,0.015963338,0.0031164202,0.0067423214,0.00673359,-0.015255659,0.4996542,-1.3766828,1.8980607,-2.0898607,-1.5713252,2.47543,-0.077199854,0.070801936,-0.09618978,0.022703553,-0.009352979,-0.06187516,-0.45968673,0.095768064,-9.5385,0.8537928,47.707485,-1.3731782,-2.4172988,-3.1826282,-0.3382658,-0.019723851,-0.32714075,29.0625,30.4375,29.375,33.0,35.5,36.5625
0.13605252,-1.665557,0.061268423,-0.75004137,0.0040404084,0.06386652,-0.18205477,-0.3932841,-0.36743,0.059934475,-3.077551,0.62600267,-0.00030005307,-0.06112274,0.01655142,0.0026066331,0.0065100673,0.0055968515,-0.01870188,0.49950993,-1.3765506,1.8978704,-2.0898368,-1.5713605,2.4753232,-0.07891314,0.071428865,-0.09573709,0.022505427,-0.008600185,-0.06014434,-0.57460845,0.038307227,-9.557653,0.7463667,47.652847,-1.4190682,-2.3636425,-3.401079,-0.32438126,-0.053392395,-0.36353675,29.0625,30.4375,29.375,33.0,35.5,36.5625
0.13805196,-1.7097344,-0.28951478,-0.8669162,0.017816957,0.058589775,-0.1749267,-0.39340276,-0.36738402,0.05993885,-3.0774846,0.626105,-0.0002652719,-0.06419702,0.016852468,0.0036760503,0.006332134,0.00852503,-0.021424666,0.49935332,-1.3764176,1.8976892,-2.0897768,-1.5714091,2.475239,-0.08145172,0.0733595,-0.10051002,0.022692408,-0.009856418,-0.059954993,-0.51714754,0.038307227,-9.557653,0.7866488,47.690468,-1.3447459,-2.3815744,-3.2542984,-0.30692783,-0.041757304,-0.4308433,29.0625,30.4375,29.375,33.0,35.5,36.5625
0.14005195,-1.2024531,-0.28803465,-0.7635239,0.014216953,0.06507786,-0.18323964,-0.3934948,-0.3673501,0.05990465,-3.077445,0.6260769,-0.00040686637,-0.0653177,0.018580455,0.0033048727,0.0075919614,0.008252097,-0.022021735,0.4991965,-1.3762254,1.8975228,-2.0897052,-1.5713853,2.4750698,-0.084757626,0.073693305,-0.10009709,0.022790093,-0.010838348,-0.06266069,-0.59376204,-0.019153614,-9.576807,0.8157518,47.657326,-1.3328612,-2.3390024,-3.3405046,-0.29518327,-0.025252536,-0.4472592,29.0625,30.4375,29.375,33.0,35.5,36.5625
0.14205222,-1.1612275,-0.21426141,-0.79817,0.01031093,0.06863456,-0.17863682,-0.39366457,-0.3673204,0.05995192,-3.0774915,0.62614095,-0.00024059552,-0.06552773,0.017895041,0.0032205943,0.007007853,0.008202005,-0.018044315,0.49900517,-1.376117,1.8972839,-2.0896933,-1.5714096,2.4749126,-0.084099606,0.07497459,-0.101375885,0.022544215,-0.010299369,-0.06598187,-0.57460845,-0.038307227,-9.576807,0.80679786,47.691364,-1.2267286,-2.356668,-3.3099065,-0.2859196,-0.033246964,-0.43354085,29.0625,30.4375,29.375,33.0,35.5,36.5625
0.14405245,-1.2780498,-0.22429082,-0.61095744,0.008850452,0.074237324,-0.18548864,-0.3937936,-0.3672924,0.059960447,-3.0774615,0.62618995,-0.00019126029,-0.06657003,0.017866502,0.0037067733,0.006835736,0.0095268935,-0.016163744,0.4988614,-1.3759604,1.8970679,-2.0896451,-1.5714453,2.4748034,-0.084682725,0.07549957,-0.10310424,0.022498,-0.010786596,-0.068443835,-0.6703765,0.0,-9.500193,0.81351066,47.655537,-1.3926412,-2.3366659,-3.3006504,-0.2530633,-0.035749987,-0.42601967,29.0625,30.4375,29.375,33.0,35.5,36.5625
0.14605223,-2.0178006,-0.34386355,-0.74700856,0.0029196357,0.067166716,-0.16692781,-0.39390406,-0.36723602,0.059950903,-3.0773952,0.6262337,-0.00023883158,-0.06856061,0.020111404,0.0032408189,0.0071720453,0.008273226,-0.015400884,0.49867964,-1.3758161,1.8968996,-2.0895617,-1.5714692,2.4746575,-0.09044756,0.0766019,-0.10348201,0.023025662,-0.01049058,-0.07497133,-0.5554548,-0.095768064,-9.576807,0.779936,47.666286,-1.0899864,-2.2380145,-3.3670623,-0.2535109,-0.04450042,-0.4144131,29.0625,30.4375,29.375,33.0,35.5,36.5625
0.14805235,-2.0373123,-0.8063367,-0.7479661,0.012096639,0.06026664,-0.17345652,-0.39405373,-0.36720175,0.0599518,-3.0774264,0.62623656,-0.00021227362,-0.06866589,0.019585256,0.003152849,0.0075163185,0.007644392,-0.01124668,0.49847648,-1.3756472,1.8966969,-2.0895612,-1.5714568,2.4744523,-0.08962484,0.078118,-0.10532954,0.024070393,-0.010493342,-0.07830231,-0.5363012,-0.019153614,-9.576807,0.85826975,47.684196,-1.266412,-2.2999449,-3.3888,-0.24354877,-0.043478504,-0.3795355,29.0625,30.4375,29.375,33.0,35.5,36.5625
0.15005225,-1.5227038,-0.48652714,-0.5897484,-0.0030099517,0.07351034,-0.18393844,-0.39420763,-0.36716494,0.059962705,-3.0773847,0.6263416,-0.00016118576,-0.07069609,0.020541916,0.003430557,0.0077672414,0.008759164,-0.009659118,0.49829575,-1.3754666,1.8964442,-2.0895011,-1.5714935,2.4743426,-0.092594504,0.07929256,-0.10736676,0.024068266,-0.011253106,-0.08285698,-0.5554548,0.0,-9.500193,0.8627467,47.717335,-1.1693466,-2.2930636,-3.3362188,-0.2444995,-0.04690304,-0.35691348,29.0625,30.4375,29.375,33.0,35.5,36.5625
0.1520523,-1.6299123,-0.70549905,-0.6444616,0.0070082997,0.06419516,-0.18346,-0.39433995,-0.36710697,0.059964053,-3.077352,0.6263302,-0.00016796772,-0.07200167,0.021211658,0.003237382,0.0073233424,0.008513851,-0.00399268,0.4980914,-1.3753222,1.8962535,-2.0894296,-1.5715173,2.4741354,-0.0951976,0.08057802,-0.10840628,0.02381302,-0.010756875,-0.09112677,-0.51714754,0.05746084,-9.3661175,0.7463667,47.684196,-1.1018188,-2.2659822,-3.3837032,-0.20639579,-0.041330576,-0.2729575,29.0625,30.4375,29.375,33.0,35.5,36.5625
0.1540524,-1.7956626,-0.65768623,-0.7131542,0.011545333,0.047000807,-0.17553206,-0.39450872,-0.3670786,0.059991624,-3.0773737,0.62635326,-3.2973778e-05,-0.07331441,0.021960963,0.003192682,0.007708439,0.008636256,-0.004190797,0.49791104,-1.3751657,1.8960022,-2.0894172,-1.5715536,2.4739668,-0.09738109,0.081777595,-0.10979851,0.024076665,-0.011149331,-0.09311147,-0.3256114,0.11492168,-9.481039,0.7866488,47.709274,-0.97336054,-2.2084155,-3.333188,-0.2150056,-0.06412355,-0.24972871,29.0625,30.4375,29.375,33.0,35.5,36.5625
0.15605184,-0.8749341,-0.49031562,-0.31895262,0.007011709,0.06013083,-0.18116774,-0.39466497,-0.3670377,0.060006257,-3.0773869,0.6263554,2.078797e-05,-0.0746359,0.023534283,0.0029379327,0.008770976,0.008188923,-0.004313826,0.49770644,-1.3750094,1.8957752,-2.0893815,-1.571566,2.473762,-0.100754395,0.08253864,-0.11027084,0.024684781,-0.011867254,-0.09636035,-0.34476507,0.05746084,-9.423578,0.78217715,47.716442,-0.8886825,-2.2194731,-3.3727946,-0.18176416,-0.03981948,-0.18224254,29.0625,30.4375,29.375,33.0,35.5,36.5625
0.15805177,-0.36655614,0.026495883,-0.16170625,-0.008645766,0.06333258,-0.18667449,-0.3948139,-0.36697978,0.05999877,-3.0773282,0.6263419,2.4643174e-05,-0.07602058,0.023664797,0.0020615726,0.009477385,0.0069026416,-0.0032005587,0.49750218,-1.3748157,1.8955458,-2.089309,-1.5716141,2.473557,-0.102200486,0.08655346,-0.11312827,0.02498562,-0.011884529,-0.09891754,-0.6512228,0.17238252,-9.346964,0.75755644,47.68062,-0.81943417,-2.341023,-3.242487,-0.18198863,-0.041148588,-0.13209279,29.0625,30.4375,29.375,33.0,35.5,36.5625
0.1600526,-1.2479407,-0.28167382,-0.2668821,0.0077458145,0.04451923,-0.17787658,-0.39497694,-0.36694503,0.06001587,-3.0773716,0.62636894,8.245218e-05,-0.076747954,0.024027567,0.0032545428,0.008321951,0.008706033,-0.0049159876,0.49728638,-1.3746603,1.8953198,-2.0892975,-1.5716017,2.4733527,-0.103533864,0.084491566,-0.11346309,0.025244694,-0.011723018,-0.09853678,-0.4405331,0.13407528,-9.32781,0.82022345,47.694946,-0.8574221,-2.2216,-3.4669905,-0.1522721,-0.05148226,-0.12803775,29.0625,30.4375,29.375,33.0,35.5,36.5625
0.16205166,-1.3753036,-0.65394735,-0.3865368,0.020948661,0.047574498,-0.16567002,-0.39511487,-0.36689028,0.059987158,-3.0773184,0.626341,3.064971e-05,-0.07741936,0.024243524,0.0027248787,0.008248438,0.0071073603,-0.008377661,0.49708235,-1.3744432,1.8951162,-2.089249,-1.5716251,2.473138,-0.104988106,0.086582586,-0.114927724,0.025982663,-0.010901404,-0.09652965,-0.40222588,0.05746084,-9.232041,0.83813137,47.668976,-0.75826836,-2.173897,-3.3642526,-0.12641041,-0.06742688,-0.12163369,29.0625,30.4375,29.375,33.0,35.5,36.5625
0.16405176,-0.74549836,-0.17529365,-0.262363,0.011363212,0.060078274,-0.17516397,-0.39528984,-0.3668439,0.06002168,-3.0773172,0.6263999,0.00013774702,-0.07794104,0.024137517,0.0028159434,0.008550083,0.006452206,-0.0125391055,0.4968665,-1.3742987,1.8948525,-2.0891888,-1.5716614,2.4729593,-0.10527915,0.08792474,-0.117086545,0.02751678,-0.0108465385,-0.09265911,-0.34476507,0.038307227,-9.212888,0.83589023,47.692257,-0.8255038,-2.324768,-3.399312,-0.10613534,-0.06804585,-0.1571453,29.0625,30.4375,29.375,33.0,35.5,36.5625
0.16605175,-0.6369629,-0.016881872,-0.12608908,0.013070712,0.053422526,-0.18245922,-0.3954414,-0.36680543,0.060032878,-3.0773165,0.6264388,0.00014952807,-0.07927778,0.024078917,0.0031549847,0.00868036,0.0067071826,-0.017639132,0.4966629,-1.3741299,1.8946127,-2.0891283,-1.5716614,2.4727802,-0.10621982,0.08975575,-0.12032969,0.02876953,-0.011082639,-0.08849794,-0.34476504,0.05746084,-9.193734,0.78217715,47.684196,-0.8357196,-2.2119775,-3.2871985,-0.10797556,-0.06273346,-0.224472,29.0625,30.4375,29.375,33.0,35.5,36.5625
0.16805173,-0.6494614,-0.045871194,-0.38492808,0.015567458,0.035914864,-0.18061136,-0.3955931,-0.36674178,0.0600275,-3.077253,0.6264856,0.00016736396,-0.07977178,0.024139637,0.0030197722,0.009004621,0.005832929,-0.021224262,0.4964469,-1.3739493,1.8943967,-2.0890677,-1.5717095,2.4726017,-0.10681688,0.0911795,-0.12199041,0.029925602,-0.0109520145,-0.08550914,-0.19153613,0.1340753,-9.11712,0.8247004,47.651955,-0.8830619,-2.255085,-3.2901564,-0.10816367,-0.06171177,-0.23095956,29.0625,30.4375,29.375,33.0,35.5,36.5625
0.17005175,0.05475518,0.0051804767,-0.53138787,0.0010194225,0.03672202,-0.18949705,-0.39575934,-0.3666925,0.06003729,-3.077225,0.6266127,0.0001909201,-0.08024184,0.024516225,0.0027371321,0.009809694,0.0052062036,-0.022482593,0.49621934,-1.3737687,1.8941463,-2.089008,-1.5717214,2.4724572,-0.10758235,0.09237412,-0.122936666,0.030610247,-0.011360671,-0.08501504,-0.17238252,0.095768064,-9.193734,0.8247004,47.703903,-1.0237625,-2.3228931,-3.3338952,-0.09450474,-0.08577565,-0.30483943,29.0625,30.4375,29.375,33.0,35.5,36.5625
0.1720521,-0.48288253,-1.0742912,-0.5194424,0.0041813743,0.012671576,-0.16825292,-0.3959221,-0.36664128,0.060031064,-3.0771968,0.626663,0.00018691646,-0.080011114,0.024303066,0.0017299893,0.011427465,0.003176967,-0.020583533,0.49599203,-1.3735635,1.8939055,-2.0889595,-1.5717338,2.472265,-0.10668695,0.095149636,-0.12419744,0.03164724,-0.011819947,-0.08601675,-0.17238252,0.19153613,-9.289502,0.8023209,47.704796,-0.9950075,-2.276524,-3.2421873,-0.08041744,-0.042990275,-0.31270716,29.0625,30.4375,29.375,33.0,35.5,36.5625
0.17405221,-0.61969954,-0.7812337,-0.4829287,-0.019999823,0.0076221637,-0.17660701,-0.3961017,-0.36658356,0.060024735,-3.077109,0.626742,0.00022862728,-0.083231896,0.024818249,0.0036012481,0.009601922,0.006161868,-0.023686366,0.49577516,-1.3733232,1.893618,-2.0888875,-1.5718054,2.4721088,-0.1105579,0.09530589,-0.12889345,0.032682933,-0.011645237,-0.086783245,-0.1340753,0.15322891,-9.32781,0.84484416,47.70211,-1.016876,-2.3496642,-3.302693,-0.078492,-0.07600428,-0.29387987,29.0625,30.4375,29.375,33.0,35.5,36.5625
0.1760523,-0.35893708,-1.1347201,-0.46389672,-0.014190982,0.016528,-0.17609626,-0.39626405,-0.36653215,0.060041603,-3.0771174,0.6267223,0.00026567097,-0.08199165,0.025446493,0.0022914074,0.012207641,0.0031977287,-0.022699378,0.4955481,-1.3731668,1.89338,-2.088827,-1.5718178,2.4718685,-0.10989387,0.09636212,-0.12749825,0.03407738,-0.01251993,-0.08710508,-0.15322891,0.15322891,-9.346964,0.75084364,47.686886,-0.90997314,-2.2081673,-3.3221567,-0.07168404,-0.05516577,-0.3376125,29.0625,30.4375,29.375,33.0,35.5,36.5625
0.17805237,-0.11785727,-0.8430092,-0.5505273,-0.022455432,0.025778724,-0.17642765,-0.39638573,-0.36648414,0.06001636,-3.0770428,0.6268228,0.00016400084,-0.083553605,0.025074156,0.0026123566,0.011047189,0.003574492,-0.024040092,0.495356,-1.3729618,1.8931745,-2.088743,-1.5718173,2.4717488,-0.11117415,0.09844504,-0.13079956,0.034407403,-0.0116923,-0.087043926,0.019153614,0.19153613,-9.308657,0.83589023,47.696735,-1.0270154,-2.4855769,-3.2548666,-0.06542261,-0.070303634,-0.3735576,29.0625,30.4375,29.375,33.0,35.5,36.5625
0.18005238,0.65386975,-0.6590674,-0.26063827,-0.024863772,0.04665229,-0.17514257,-0.39656228,-0.36644256,0.06003211,-3.077024,0.6268549,0.00019926089,-0.0844683,0.025180057,0.0026155014,0.010986978,0.0029911196,-0.023364937,0.49514005,-1.3727572,1.8928765,-2.088659,-1.5718416,2.4715555,-0.11234182,0.10003051,-0.1329451,0.035444353,-0.011365442,-0.08888665,0.076614454,0.24899697,-9.212888,0.7665104,47.692257,-1.0174088,-2.3003469,-3.1471567,-0.0597516,-0.05458354,-0.36644757,29.0625,30.4375,29.375,33.0,35.5,36.5625
0.18205261,0.2620174,-0.817043,-0.37880164,-0.006401825,0.03377631,-0.17834441,-0.39675686,-0.36637473,0.060042493,-3.0769908,0.6270028,0.00025050726,-0.086161144,0.02592494,0.0023848603,0.010472197,0.0021088195,-0.026225293,0.4948634,-1.3725641,1.8926123,-2.0886114,-1.5718654,2.4713755,-0.115620606,0.1021519,-0.13508512,0.03598613,-0.010495761,-0.0893062,-0.05746084,0.22984336,-9.289502,0.7351769,47.691364,-0.932879,-2.4341264,-3.1212258,-0.05079574,-0.079649165,-0.41184604,29.0625,30.4375,29.375,33.0,35.5,36.5625
0.18405259,0.36002,-0.11804238,-0.70122856,-0.020747397,0.030032432,-0.1930302,-0.39689547,-0.36634395,0.060035594,-3.0769577,0.6270081,0.00019056631,-0.08560802,0.024528578,0.0024812089,0.0109503325,0.002273337,-0.01622021,0.49468526,-1.3723476,1.8923486,-2.088515,-1.5718654,2.471205,-0.11241652,0.10339667,-0.13696565,0.036696345,-0.011007557,-0.096104704,-0.019153614,0.3256114,-9.346964,0.80679786,47.661808,-1.1898583,-2.3767364,-3.1236212,-0.039342165,-0.06831567,-0.36643505,29.0625,30.4375,29.375,33.0,35.5,36.5625
0.18605196,0.119260386,-0.64912343,-0.6721839,-0.020681214,0.034707814,-0.17715849,-0.39706388,-0.36627558,0.06003103,-3.0768826,0.6270888,0.00013940517,-0.087252304,0.026388314,0.001489484,0.012186541,6.490976e-05,-0.017741712,0.49443176,-1.3721304,1.8920735,-2.0883954,-1.5718893,2.4710116,-0.1169581,0.106007,-0.13806613,0.03770871,-0.011057146,-0.099123284,-0.076614454,0.3256114,-9.442732,0.784413,47.651955,-1.0587158,-2.5146527,-3.0756307,-0.04207658,-0.08438918,-0.33192596,29.0625,30.4375,29.375,33.0,35.5,36.5625
0.18805218,-0.4360372,-1.3298098,-0.65355515,-0.013983811,0.029008355,-0.16852425,-0.39725268,-0.3662282,0.060022574,-3.07683,0.62714905,0.0002105665,-0.08659833,0.025307886,0.0016921519,0.012238488,8.448583e-05,-0.009043389,0.49421743,-1.3718781,1.8917869,-2.0883706,-1.5719494,2.470842,-0.11446,0.10636365,-0.13913502,0.038412724,-0.011118433,-0.10532313,-0.095768064,0.30645782,-9.346964,0.75084364,47.655537,-1.1832685,-2.4777427,-3.1640172,-0.04199026,-0.07853784,-0.2903173,29.0625,30.4375,29.375,33.0,35.5,36.5625
0.19005235,-0.6930861,-1.3686912,-0.54759747,-0.01927136,0.03186962,-0.17058644,-0.39739802,-0.3661756,0.060011484,-3.0768094,0.62710285,0.0001247785,-0.08775909,0.02562561,0.0023183196,0.012096211,0.00028462632,-0.0050250683,0.49398938,-1.3716737,1.8915471,-2.0882747,-1.5719374,2.4705877,-0.11601554,0.10689824,-0.1415932,0.040084586,-0.011102316,-0.110895514,-0.11492168,0.34476504,-9.404425,0.78888994,47.681515,-1.1963236,-2.372652,-3.1791158,-0.030895436,-0.08691965,-0.21053149,29.0625,30.4375,29.375,33.0,35.5,36.5625
0.19205232,-0.15667923,-1.191098,-0.78434956,-0.031719275,0.0610521,-0.17826986,-0.39760512,-0.36611974,0.060039196,-3.076787,0.62709415,0.0001966049,-0.08688574,0.027443461,0.0003330539,0.015393924,-0.004658693,-3.6488833e-05,0.49373707,-1.3714569,1.8912014,-2.088166,-1.5719856,2.470333,-0.11787107,0.10873123,-0.13979352,0.04235304,-0.011659478,-0.117739186,-0.095768064,0.3256114,-9.442732,0.77545905,47.67345,-1.122192,-2.5109184,-3.2129796,-0.06004484,-0.077567354,-0.12789324,29.0625,30.4375,29.375,33.0,35.5,36.5625
0.1940524,-1.0209085,-1.5928986,-0.81956613,-0.00949806,0.03419238,-0.16094242,-0.39776805,-0.36607245,0.060028657,-3.0767572,0.6271266,0.00015220381,-0.08828347,0.026758544,0.0011033098,0.013609452,-0.0035542157,-0.0013965518,0.49350953,-1.3712281,1.8909367,-2.088094,-1.5719856,2.4701297,-0.11858466,0.109900974,-0.14301324,0.042579472,-0.010623889,-0.11709343,-0.095768064,0.24899697,-9.423578,0.8717007,47.67166,-1.2159184,-2.4451172,-3.1248336,-0.057928216,-0.095994435,-0.115548626,29.0625,30.4375,29.375,33.0,35.5,36.5625
0.1960526,-0.32689646,-0.51361674,-0.75094396,-0.01777463,0.03794373,-0.17309214,-0.39792535,-0.36603603,0.06001893,-3.0767612,0.6270298,0.00012146782,-0.08866017,0.027455073,0.00078845094,0.014206708,-0.0042341924,-0.001373263,0.49330541,-1.3709999,1.8906735,-2.0880344,-1.5719856,2.4698648,-0.1199197,0.11043503,-0.14304034,0.042951245,-0.010833282,-0.11845098,-0.15322891,0.15322891,-9.423578,0.7597976,47.639416,-1.1848122,-2.4384947,-3.2987418,-0.060049843,-0.105977386,-0.047108576,29.0625,30.4375,29.375,33.0,35.5,36.5625
0.19805251,-0.5437816,-0.2538932,-0.37223864,0.0001116516,0.031006034,-0.17441109,-0.39811257,-0.36596695,0.060025636,-3.0766943,0.6271344,0.00012324237,-0.088666,0.028365493,0.00061206816,0.014988369,-0.0057803425,-0.0076128254,0.4930416,-1.3707839,1.8903764,-2.0879257,-1.5720214,2.469675,-0.12142648,0.11033415,-0.14292875,0.04467155,-0.010787138,-0.11371826,-0.28730422,0.05746084,-9.404425,0.83365434,47.688675,-1.1804667,-2.266216,-3.405379,-0.0807341,-0.108599156,-0.09072226,29.0625,30.4375,29.375,33.0,35.5,36.5625
0.20005205,-0.07087257,0.47210282,-0.5843827,0.018060273,0.03603769,-0.1859898,-0.3983021,-0.3659147,0.06002997,-3.0766835,0.6271347,0.00013130819,-0.088526085,0.029603714,-0.00068492687,0.017155796,-0.009801924,-0.013933309,0.4927893,-1.3705546,1.890077,-2.0878532,-1.5720333,2.4694245,-0.12332255,0.112520754,-0.1432104,0.047336947,-0.010787484,-0.109293625,-0.19153613,-0.019153614,-9.423578,0.82022345,47.66091,-1.1697237,-2.5377822,-3.5157218,-0.095084906,-0.13551119,-0.15484193,29.0625,30.4375,29.375,33.0,35.5,36.5625
0.20205191,0.116788544,0.6358726,-0.5697322,0.046176556,0.044056874,-0.18024524,-0.39847657,-0.3658597,0.060030572,-3.0766513,0.62711024,0.00014984376,-0.089090705,0.030966002,-0.0008819415,0.018871091,-0.01170936,-0.020125471,0.49256113,-1.3703384,1.8898014,-2.0877798,-1.5720695,2.4691854,-0.12569472,0.113228686,-0.14426985,0.0501814,-0.011394069,-0.105471745,-0.21068975,-0.095768064,-9.423578,0.8112748,47.66091,-1.0445206,-2.2343547,-3.4233553,-0.1290641,-0.13349026,-0.18112308,29.0625,30.4375,29.375,33.0,35.5,36.5625
0.20405215,-0.41062728,0.58485144,-0.41491055,0.051966842,0.039105054,-0.17449345,-0.39864329,-0.36579975,0.060021408,-3.0765913,0.6272141,7.6415876e-05,-0.091035426,0.030078651,0.00057099725,0.016339395,-0.0085215075,-0.024560811,0.49230945,-1.37011,1.8895258,-2.0876725,-1.5720695,2.4690063,-0.12635313,0.113566324,-0.14782073,0.049388465,-0.010686596,-0.10169449,-0.4213795,-0.1340753,-9.3661175,0.8627467,47.66271,-1.0618193,-2.406168,-3.4991279,-0.12690282,-0.15392189,-0.2518918,29.0625,30.4375,29.375,33.0,35.5,36.5625
0.20605224,-0.8397272,0.58975804,-0.51976377,0.046608813,0.049663983,-0.1818657,-0.3988434,-0.36576572,0.060042165,-3.0765924,0.62733227,6.259574e-05,-0.09222355,0.031998776,-0.00010471784,0.017809993,-0.010968665,-0.030319676,0.4920564,-1.369869,1.8891667,-2.0875638,-1.5720457,2.468827,-0.13050279,0.115176134,-0.1487099,0.05152193,-0.0108247725,-0.100084655,-0.36391866,-0.24899697,-9.32781,0.800085,47.667187,-0.9296166,-2.3257666,-3.464158,-0.1415044,-0.16392381,-0.2803046,29.0625,30.4375,29.375,33.0,35.5,36.5625
0.20805243,-0.8748764,0.56713724,-0.53208536,0.052916653,0.06521876,-0.18033789,-0.39901304,-0.36567357,0.06001222,-3.0764675,0.6274194,-4.9430226e-05,-0.091164775,0.031133724,-7.2874614e-06,0.019271232,-0.012725511,-0.028896114,0.4917703,-1.3696166,1.888904,-2.0874317,-1.5720814,2.4686115,-0.1277514,0.11604615,-0.15076666,0.0549443,-0.011295587,-0.098753676,-0.4213795,-0.2681506,-9.404425,0.8314132,47.668976,-1.1568943,-2.2818432,-3.4067628,-0.20443651,-0.14921853,-0.32628784,29.0625,30.4375,29.375,33.0,35.5,36.5625
0.21005245,-1.180776,0.6010289,-0.7322449,0.04048821,0.07222243,-0.18071307,-0.39919186,-0.36563575,0.060026918,-3.0764701,0.62742,-0.00010555202,-0.09260017,0.031567063,0.0012039003,0.018442538,-0.011407396,-0.031243278,0.49153006,-1.3693887,1.8885688,-2.087299,-1.5720571,2.4683714,-0.12978029,0.115389995,-0.15308134,0.05636182,-0.01119587,-0.09843477,-0.5554548,-0.21068975,-9.5385,0.8605109,47.689575,-1.018465,-2.0723581,-3.4030828,-0.24846901,-0.18282436,-0.40344465,29.0625,30.4375,29.375,33.0,35.5,36.5625
0.21205254,-0.9463568,0.28032055,-0.5510414,0.021336723,0.099909045,-0.18749231,-0.39938232,-0.36555123,0.06003785,-3.0763557,0.6275115,1.1952797e-05,-0.092754915,0.032092273,-0.0012392689,0.022136627,-0.014922751,-0.032522712,0.49129066,-1.3691945,1.8882936,-2.0872157,-1.5721778,2.468204,-0.12976006,0.12098317,-0.15432534,0.056848317,-0.012799348,-0.09712951,-0.63206923,-0.1340753,-9.461885,0.8224646,47.693153,-1.2281939,-2.2441473,-3.3759284,-0.26686266,-0.17511666,-0.43923503,29.0625,30.4375,29.375,33.0,35.5,36.5625
0.21405162,-1.2866677,0.05376273,-0.7152386,0.006968741,0.10086477,-0.17736404,-0.39960077,-0.36551276,0.06005572,-3.0763397,0.6276031,-4.2847885e-05,-0.09453806,0.032917004,-0.00024966878,0.021650018,-0.013189394,-0.033620596,0.4910143,-1.3689065,1.887874,-2.0870593,-1.5721544,2.467987,-0.13243465,0.1205622,-0.15623134,0.057415366,-0.013201272,-0.09870426,-0.6703765,-0.038307227,-9.461885,0.9030289,47.704796,-1.1658398,-2.2071304,-3.3876839,-0.2912674,-0.1710423,-0.47400647,29.0625,30.4375,29.375,33.0,35.5,36.5625
0.21605171,-1.9988664,-0.25733408,-0.93055874,-0.0031799008,0.08935599,-0.17715727,-0.3997664,-0.36542225,0.060051825,-3.0762153,0.62774813,-7.208857e-05,-0.09649713,0.033728514,-0.0005409248,0.022364428,-0.012657906,-0.03241484,0.49075007,-1.3687133,1.8876227,-2.0869277,-1.5722145,2.4678295,-0.13495418,0.12304584,-0.15846175,0.057018515,-0.014105511,-0.10242487,-0.61291564,0.05746084,-9.576807,0.78888994,47.682407,-1.1501715,-2.3625073,-3.4045415,-0.3190093,-0.16777164,-0.49028713,29.0625,30.4375,29.375,33.0,35.5,36.5625
0.21805228,-1.5869145,-0.84999526,-0.885635,-0.021007938,0.09741897,-0.17916368,-0.39994857,-0.3653517,0.060038913,-3.076147,0.6278063,-0.00014927289,-0.0967421,0.03351701,-0.00080859207,0.022616621,-0.013258194,-0.025493776,0.49047473,-1.3684608,1.8873237,-2.0868084,-1.5722264,2.4675994,-0.13478379,0.12450488,-0.15971963,0.0574504,-0.01406965,-0.10917401,-0.6895301,0.11492168,-9.634268,0.83365434,47.67793,-1.1255625,-2.2100956,-3.4158967,-0.3477889,-0.18976545,-0.46438286,29.0625,30.4375,29.375,33.0,35.5,36.5625
0.22005224,-1.7404025,-1.3563602,-0.86879265,-0.03754569,0.09649796,-0.18226582,-0.40016875,-0.36528012,0.06005235,-3.0760772,0.62792313,-0.0001180695,-0.09920533,0.034296084,-0.000693422,0.022169027,-0.012093266,-0.022251172,0.49018595,-1.3682077,1.8869642,-2.0866888,-1.5722746,2.4673927,-0.13813011,0.12660438,-0.16235177,0.056725815,-0.014247656,-0.11576094,-0.80445176,0.24899697,-9.615114,0.84484416,47.67345,-0.93091494,-2.204168,-3.2963052,-0.3714488,-0.17316397,-0.4085578,29.0625,30.4375,29.375,33.0,35.5,36.5625
0.22205232,-1.7634686,-1.7114217,-0.7904659,-0.0422465,0.101571776,-0.18419868,-0.4003501,-0.36518776,0.060036603,-3.0760186,0.6279033,-0.00020844759,-0.10141596,0.03308455,0.00056407467,0.018898651,-0.0067963037,-0.011952844,0.48987472,-1.3679796,1.886701,-2.0865705,-1.572286,2.4670768,-0.13823923,0.12690333,-0.16463475,0.0524739,-0.013900627,-0.12616707,-0.7852981,0.2681506,-9.672575,0.82694155,47.66987,-1.1093946,-2.2338724,-3.2022505,-0.35216558,-0.1954927,-0.32503763,29.0625,30.4375,29.375,33.0,35.5,36.5625
0.22405219,-1.5959266,-1.5020951,-0.804885,-0.048921652,0.11521191,-0.18268666,-0.40056306,-0.36515024,0.06004345,-3.0759888,0.62795144,-0.00018693034,-0.10281443,0.03272027,-2.3795885e-05,0.018828027,-0.00535172,-0.0072577633,0.48963535,-1.3676898,1.8863181,-2.0864756,-1.5723108,2.4668715,-0.13842386,0.1298646,-0.16627042,0.049828533,-0.01453842,-0.13104367,-0.63206923,0.2681506,-9.653421,0.8806493,47.690468,-1.1405517,-2.30184,-3.2839308,-0.35041046,-0.19317122,-0.23143399,29.0625,30.4375,29.375,33.0,35.5,36.5625
0.22605227,-1.5598079,-1.3530462,-0.7607661,-0.050495237,0.112689674,-0.18263632,-0.40079904,-0.36507148,0.060066067,-3.0759392,0.6279965,-8.691661e-05,-0.10423169,0.032831833,0.00075446593,0.017825171,-0.003347531,-0.0053332043,0.48933548,-1.3674499,1.8859586,-2.0863802,-1.5723828,2.4666064,-0.13976498,0.12985022,-0.167914,0.049227357,-0.014605907,-0.13430892,-0.53630114,0.28730422,-9.576807,0.78888994,47.677036,-1.0823479,-2.203825,-3.2462068,-0.3375422,-0.20195007,-0.19193883,29.0625,30.4375,29.375,33.0,35.5,36.5625
0.22805247,-1.7221274,-1.5526394,-0.7521527,-0.040523678,0.0894482,-0.16907999,-0.4010111,-0.3650049,0.060061652,-3.0759137,0.6279902,-8.032507e-05,-0.105209745,0.032776866,-0.00034567434,0.018095305,-0.0035300106,-0.005551345,0.48904794,-1.3671845,1.8856357,-2.0863097,-1.5724066,2.4663184,-0.1403778,0.13313684,-0.16891973,0.0472272,-0.014771129,-0.13470195,-0.53630114,0.36391866,-9.442732,0.83589023,47.70032,-1.1454945,-2.3737762,-3.22689,-0.3132437,-0.20454225,-0.14830683,29.0625,30.4375,29.375,33.0,35.5,36.5625
0.2300524,-0.43602526,-0.9550435,-0.7537354,-0.033624154,0.08713924,-0.18073095,-0.40122664,-0.36494,0.060050245,-3.0758731,0.6280204,-8.779077e-05,-0.10748358,0.031966574,0.00012812615,0.01563294,0.000572965,-0.008450187,0.48876023,-1.3668957,1.8853005,-2.0862386,-1.5724305,2.466055,-0.1411263,0.13475898,-0.17099437,0.042896524,-0.014541709,-0.13255064,-0.45968673,0.4405331,-9.461885,0.78217715,47.695843,-1.1822364,-2.2884328,-3.1660998,-0.27473217,-0.2173457,-0.15083328,29.0625,30.4375,29.375,33.0,35.5,36.5625
0.23205237,-0.14058915,-1.0733104,-0.758081,-0.030793022,0.06509667,-0.17374322,-0.4014615,-0.36489233,0.06008134,-3.0758727,0.6280801,-8.508858e-06,-0.108359694,0.032441586,-0.0014208144,0.016861478,-0.0003640768,-0.015181103,0.48848453,-1.3666424,1.8849057,-2.0861437,-1.5724548,2.4658167,-0.14223523,0.13837452,-0.17142312,0.041118782,-0.015179563,-0.12692666,-0.24899697,0.40222588,-9.519346,0.85826975,47.70211,-1.2138236,-2.4153955,-3.3603659,-0.2301769,-0.20051855,-0.2177378,29.0625,30.4375,29.375,33.0,35.5,36.5625
0.2340522,-0.63191277,-1.4000884,-0.6094671,-0.03388943,0.030239597,-0.1695978,-0.4016946,-0.36481526,0.060059037,-3.0758393,0.6281519,1.2438696e-05,-0.10904796,0.032380495,-0.00013953345,0.015477928,0.002335525,-0.019897101,0.48816106,-1.3663429,1.8845958,-2.0861323,-1.5724787,2.4655426,-0.1426377,0.13635467,-0.17182073,0.040503096,-0.015222658,-0.12261319,-0.19153613,0.30645782,-9.385271,0.8672237,47.69763,-1.2448099,-2.345058,-3.3641772,-0.20845017,-0.21924658,-0.25445476,29.0625,30.4375,29.375,33.0,35.5,36.5625
0.2360522,-0.26768556,-1.3099622,-0.47443393,-0.03723579,0.02225569,-0.16695336,-0.40191355,-0.36473802,0.060076505,-3.075762,0.6282518,5.3673495e-05,-0.111023925,0.033365883,-0.0010695688,0.016447952,0.0020108104,-0.024012636,0.48787275,-1.3661009,1.8842372,-2.0860007,-1.5725392,2.4653268,-0.14554411,0.13988702,-0.17376608,0.039650813,-0.015935123,-0.12140048,-0.17238252,0.30645782,-9.289502,0.8985519,47.67614,-1.1344415,-2.5841398,-3.3829846,-0.1691752,-0.20670107,-0.30027908,29.0625,30.4375,29.375,33.0,35.5,36.5625
0.23805228,-0.09149288,-1.2996985,-0.5417856,-0.012973905,0.016641341,-0.16897504,-0.4021383,-0.3646616,0.060062386,-3.0756922,0.62837076,8.418004e-05,-0.111904554,0.033683233,-0.0008631072,0.01543787,0.001943764,-0.025926355,0.48757285,-1.3658128,1.8839139,-2.0859525,-1.5725869,2.4651103,-0.1473488,0.14026871,-0.17477553,0.03985106,-0.015016263,-0.12129363,-0.076614454,0.2681506,-9.270349,0.83813137,47.68062,-1.2144505,-2.3791203,-3.4464214,-0.12448433,-0.22253647,-0.32832202,29.0625,30.4375,29.375,33.0,35.5,36.5625
0.24005231,1.0703386,-0.3893163,-0.3517558,0.0081095,0.028163554,-0.1777594,-0.4023864,-0.36460367,0.060064267,-3.0756946,0.62842834,0.00013692064,-0.113202736,0.033715814,-0.00048243493,0.015102715,0.0024469076,-0.027854666,0.48726118,-1.3655123,1.883542,-2.0859163,-1.5725988,2.4648345,-0.14850982,0.1415965,-0.1774309,0.04057246,-0.014956177,-0.120525956,0.22984336,0.114921674,-9.097966,0.8112748,47.65912,-1.0466844,-2.4283724,-3.3182955,-0.11577234,-0.23131089,-0.35585284,29.0625,30.4375,29.375,33.0,35.5,36.5625
0.24205223,0.67895734,0.3271271,-0.23550071,0.02715503,-0.006243171,-0.17479876,-0.40263683,-0.3645597,0.06009857,-3.0757337,0.6285899,0.00021049519,-0.11454658,0.034583285,-0.0002479452,0.014644661,0.0028806715,-0.029671656,0.48694903,-1.3652598,1.8831486,-2.0858572,-1.572575,2.4646182,-0.15119562,0.14191686,-0.1783874,0.04060699,-0.014749215,-0.12139623,0.1340753,0.019153614,-9.136273,0.83589023,47.647476,-1.0170237,-2.4142983,-3.3618078,-0.0783312,-0.25925797,-0.3814574,29.0625,30.4375,29.375,33.0,35.5,36.5625
0.2440522,0.792639,0.688885,-0.07090833,0.04876427,-0.02143118,-0.1814988,-0.4028461,-0.3644705,0.060053766,-3.0756369,0.62856716,0.00016572648,-0.11544212,0.034700852,-0.00035506522,0.015566594,0.00274387,-0.027033973,0.48664936,-1.3649346,1.8828477,-2.0857966,-1.5726346,2.464317,-0.15164088,0.14385547,-0.18071519,0.041533746,-0.015519067,-0.124474704,0.095768064,-0.038307227,-8.963891,0.9321212,47.67614,-0.9981935,-2.5056489,-3.2192745,-0.033942394,-0.23642838,-0.36244452,29.0625,30.4375,29.375,33.0,35.5,36.5625
0.24605204,0.8371948,0.580632,-0.18276533,0.059232406,-0.017808316,-0.17316148,-0.40310323,-0.3644294,0.06009129,-3.075636,0.62862116,0.00026994635,-0.116549626,0.034874786,4.0089104e-05,0.014913093,0.0017930672,-0.023047185,0.48637307,-1.3646463,1.8823928,-2.0856879,-1.5726703,2.4640749,-0.15345275,0.1451226,-0.1836624,0.04372537,-0.014500337,-0.13027613,0.1340753,0.019153614,-9.021352,0.8291774,47.667187,-0.99878454,-2.305106,-3.1995225,-0.021514159,-0.28055173,-0.34231168,29.0625,30.4375,29.375,33.0,35.5,36.5625
0.24805197,0.6456922,0.6298511,-0.3747343,0.0549417,-0.008668518,-0.1858527,-0.4033153,-0.36434343,0.060074862,-3.0755532,0.62873155,0.0002459924,-0.11724268,0.034382638,0.0022479945,0.014020439,0.004165804,-0.014729265,0.48606253,-1.364371,1.8820814,-2.085603,-1.572707,2.463844,-0.15295412,0.1429632,-0.18673888,0.046423033,-0.014839058,-0.13809323,0.15322891,0.019153614,-9.11712,0.8717007,47.690468,-1.2698743,-2.1522846,-3.2954407,-0.03169125,-0.2586655,-0.2656697,29.0625,30.4375,29.375,33.0,35.5,36.5625
0.25005206,0.07782482,0.04536583,-0.35391602,0.037379738,-0.0018896122,-0.18601698,-0.4035612,-0.36426237,0.060089305,-3.0755174,0.6288145,0.0002377637,-0.11803314,0.03387658,0.0031971817,0.013801902,0.004056176,-0.0063955444,0.4857151,-1.364094,1.881687,-2.0854704,-1.572719,2.4635532,-0.1528544,0.14388075,-0.19071294,0.049450696,-0.014611152,-0.14632638,0.17238252,0.038307227,-9.193734,0.9410752,47.699425,-1.184662,-2.1929648,-3.1677666,-0.029626392,-0.29287052,-0.18117031,29.0625,30.4375,29.375,33.0,35.5,36.5625
0.2520522,0.25048503,-0.3053768,-0.51783997,0.007231824,0.03778762,-0.17883813,-0.40376148,-0.36417487,0.060061134,-3.0754309,0.6286984,0.00017669986,-0.11819102,0.035309847,0.0024127054,0.016118966,0.0013299086,-0.005354568,0.48542687,-1.3637933,1.8813637,-2.0853498,-1.5727786,2.463204,-0.15483277,0.14518192,-0.19110607,0.052019097,-0.015403147,-0.14934187,0.0,0.1340753,-9.270349,0.8537928,47.679718,-1.1751971,-2.1188374,-3.2797446,-0.036315687,-0.2888162,-0.09577574,29.0625,30.4375,29.375,33.0,35.5,36.5625
0.25405207,-1.0191952,-1.0909332,-0.7744325,0.0031264245,0.026034214,-0.16995233,-0.40397385,-0.36409706,0.060034662,-3.0753536,0.6287192,6.7886e-05,-0.11821594,0.0361737,0.001344076,0.017336896,-0.0019994034,-0.0061080945,0.4851152,-1.3634683,1.8810047,-2.0852172,-1.572791,2.4629154,-0.15650201,0.14725447,-0.19164978,0.05399339,-0.014942818,-0.15025723,-0.076614454,0.1340753,-9.500193,0.9791215,47.721813,-1.1141747,-2.1891234,-3.2633648,-0.04245454,-0.3001104,-0.048279643,29.0625,30.4375,29.375,33.0,35.5,36.5625
0.25605184,-0.84632635,-1.0873815,-1.0578678,-0.015758146,0.046883136,-0.17316987,-0.40423208,-0.3640665,0.06008834,-3.0754094,0.62875414,0.00015248176,-0.11886009,0.037318703,0.0008760303,0.018514762,-0.0039164894,-0.013910787,0.48482698,-1.3632035,1.8805383,-2.085097,-1.5727786,2.462642,-0.15881313,0.14858635,-0.19264899,0.05591537,-0.0150712505,-0.14476608,-0.1340753,0.21068975,-9.634268,0.8537928,47.70032,-1.0336235,-2.1681888,-3.1898482,-0.056140784,-0.31329918,-0.07618467,29.0625,30.4375,29.375,33.0,35.5,36.5625
0.25805226,-0.6253701,-1.0776418,-1.1067095,-0.029748153,0.060468264,-0.17237644,-0.40445414,-0.36395448,0.06005985,-3.075288,0.62880814,9.2030794e-05,-0.11957333,0.037940875,0.000314422,0.019230664,-0.004629918,-0.021453707,0.48447913,-1.3629026,1.8802155,-2.0849774,-1.5728387,2.4623437,-0.16021028,0.15021954,-0.19338585,0.055984195,-0.015382152,-0.13861744,-0.36391866,0.22984336,-9.710882,0.8537928,47.675243,-1.0190564,-2.2010179,-3.2672863,-0.072918266,-0.32939202,-0.13331755,29.0625,30.4375,29.375,33.0,35.5,36.5625
0.26005238,-1.3140562,-1.4296241,-1.1787059,-0.029370135,0.06542697,-0.16400106,-0.4046756,-0.36391976,0.060080327,-3.0752757,0.6287323,9.700267e-05,-0.1207666,0.0381401,0.00045736635,0.019235717,-0.0037124173,-0.029029809,0.48423943,-1.362602,1.8797735,-2.0848215,-1.572863,2.4620585,-0.16125275,0.15139227,-0.19509645,0.055721067,-0.015812386,-0.13208148,-0.59376204,0.1340753,-9.672575,0.82022345,47.647476,-1.0534551,-2.1896672,-3.3535752,-0.058155302,-0.32336956,-0.21830586,29.0625,30.4375,29.375,33.0,35.5,36.5625
0.26205248,-1.2508011,-0.6847526,-1.0762938,-0.034026913,0.088732295,-0.17786685,-0.4049509,-0.36381575,0.060079236,-3.0752063,0.62896883,0.0001442638,-0.12139589,0.039209835,0.00010809233,0.020073775,-0.004756862,-0.035218995,0.48384356,-1.3623015,1.879402,-2.0847614,-1.5728992,2.4618194,-0.16333678,0.15217285,-0.19548814,0.056645658,-0.01606371,-0.12797558,-0.5554548,0.17238252,-9.825804,0.89631605,47.689575,-1.077413,-2.257249,-3.3778267,-0.06317899,-0.3437428,-0.2747588,29.0625,30.4375,29.375,33.0,35.5,36.5625
0.26405248,-1.0425966,-0.9094461,-1.1168996,-0.017087664,0.114902675,-0.16974656,-0.4051484,-0.3637335,0.06004187,-3.075083,0.62901765,-1.2840558e-05,-0.119207904,0.0387682,-0.0026095216,0.022796826,-0.01038073,-0.03402012,0.48354518,-1.3619635,1.8790439,-2.084594,-1.5729226,2.4615676,-0.16070037,0.15616828,-0.19441612,0.057818197,-0.015875125,-0.12653627,-0.51714754,0.19153613,-9.902418,0.96569055,47.704796,-1.1932826,-2.3789248,-3.4982376,-0.061268225,-0.34818423,-0.36056048,29.0625,30.4375,29.375,33.0,35.5,36.5625
0.26605272,-1.2381674,-0.7812599,-0.90316045,-0.014961504,0.11745126,-0.17150582,-0.40538347,-0.36366865,0.060053322,-3.0750563,0.62918663,-2.911101e-05,-0.119961075,0.039374616,-0.0029118175,0.023727236,-0.011609665,-0.03947172,0.48322156,-1.3616868,1.8786615,-2.0844858,-1.5729111,2.461353,-0.16213278,0.1578824,-0.19617966,0.059394374,-0.016127665,-0.12251546,-0.61291564,0.13407528,-9.691729,0.86498255,47.690468,-1.1468037,-2.373642,-3.4567537,-0.09712302,-0.3760879,-0.42358837,29.0625,30.4375,29.375,33.0,35.5,36.5625
0.2680525,-1.0928626,-0.4418049,-1.2035478,-0.0073805377,0.10683125,-0.17837241,-0.40563887,-0.36359537,0.060067426,-3.074998,0.62927,3.806807e-05,-0.120167114,0.039747223,-0.0037696483,0.024977772,-0.014543755,-0.04141207,0.4829097,-1.3613858,1.8782438,-2.084377,-1.5729707,2.461101,-0.16299734,0.16058224,-0.19803748,0.06172101,-0.015875068,-0.121439755,-0.59376204,0.095768064,-9.749189,0.87617236,47.682407,-1.2450954,-2.43209,-3.5296955,-0.1060095,-0.36963743,-0.47905123,29.0625,30.4375,29.375,33.0,35.5,36.5625
0.27005237,-1.0602019,-0.18965237,-0.9861158,-0.0043721125,0.09579592,-0.17758903,-0.40588814,-0.36351293,0.060065646,-3.0749328,0.62936807,4.1377338e-05,-0.12061233,0.04071697,-0.0037420848,0.026692154,-0.014990076,-0.038328018,0.48257405,-1.3610734,1.8778485,-2.0842683,-1.5730075,2.4608352,-0.16410035,0.16084546,-0.19884673,0.063443825,-0.017203266,-0.12562193,-0.53630114,0.095768064,-9.691729,0.947788,47.691364,-1.2381748,-2.4367638,-3.639171,-0.11500043,-0.38812357,-0.5106358,29.0625,30.4375,29.375,33.0,35.5,36.5625
0.27205247,-0.8618454,0.036955867,-0.6974701,-0.010527184,0.08722413,-0.18315795,-0.40617138,-0.36345786,0.060094144,-3.0749173,0.62943673,0.00015532134,-0.12237966,0.04211373,-0.0038323689,0.027483454,-0.015164035,-0.03274276,0.48226145,-1.3607465,1.8773698,-2.0841725,-1.5730556,2.4605677,-0.16749533,0.16228911,-0.20060247,0.064247385,-0.01784243,-0.13460037,-0.45968673,-0.11492168,-9.557653,0.9298854,47.677036,-1.2634373,-2.6011806,-3.5462286,-0.12170056,-0.38257578,-0.45917588,29.0625,30.4375,29.375,33.0,35.5,36.5625
0.27405235,-0.65573114,-0.1426926,-0.45868132,0.009065085,0.07758857,-0.17788771,-0.40637982,-0.3633473,0.0600515,-3.0747833,0.62949675,1.3327957e-05,-0.12222939,0.04213209,-0.0042808657,0.029884508,-0.018340718,-0.021810327,0.48191482,-1.3604243,1.877047,-2.084027,-1.5730919,2.4602761,-0.16688067,0.16500933,-0.2039029,0.06872277,-0.018542724,-0.14491202,-0.2873042,-0.1340753,-9.519346,0.90527004,47.66091,-1.2924899,-2.3937256,-3.5058656,-0.15937719,-0.38065463,-0.37618247,29.0625,30.4375,29.375,33.0,35.5,36.5625
0.27605256,-0.26913506,0.34692416,-0.3943319,0.01923532,0.062863946,-0.17739674,-0.4066685,-0.3632827,0.060091656,-3.0747888,0.6296455,0.00013800239,-0.12433362,0.041651204,-0.0023557898,0.028812291,-0.013978462,-0.012828591,0.48156738,-1.3601367,1.8765916,-2.0839436,-1.5731162,2.460021,-0.16714147,0.16460213,-0.20781243,0.06864913,-0.019636746,-0.15415126,-0.34476504,-0.038307227,-9.308657,0.83365434,47.66987,-1.2401891,-2.3928616,-3.4795823,-0.19781348,-0.39278793,-0.2874393,29.0625,30.4375,29.375,33.0,35.5,36.5625
0.27805254,0.038314275,0.68746734,-0.13741644,0.037066143,0.04909232,-0.17973639,-0.4069145,-0.3632083,0.06007396,-3.07472,0.62960815,0.00011036542,-0.1259057,0.041121427,-0.0020996977,0.028153399,-0.013529662,-0.007648822,0.48125583,-1.359776,1.8761715,-2.083824,-1.5731643,2.4596953,-0.16774924,0.16726471,-0.211776,0.06921873,-0.01929601,-0.15993711,-0.24899697,0.0,-9.251195,0.82694155,47.66271,-1.3204467,-2.4613814,-3.2805958,-0.21151769,-0.40299642,-0.19022998,29.0625,30.4375,29.375,33.0,35.5,36.5625
0.28005245,0.32751817,0.8625538,0.022210091,0.03469115,0.05204447,-0.18675134,-0.4071544,-0.36311492,0.060068335,-3.074644,0.6296282,1.7359679e-06,-0.12590058,0.041484438,-0.0010337031,0.029116983,-0.014165402,-0.005639101,0.48089594,-1.3594527,1.8757523,-2.0836308,-1.5731763,2.459358,-0.16789262,0.16619231,-0.21389872,0.07341158,-0.019879878,-0.16208611,-0.30645782,-0.05746084,-9.232041,0.8784135,47.65464,-1.3716427,-2.3313942,-3.2544441,-0.24210459,-0.39237046,-0.16159026,29.0625,30.4375,29.375,33.0,35.5,36.5625
0.2820524,0.12448925,0.89455515,-0.14825335,0.03568777,0.044782124,-0.18104672,-0.40739888,-0.36304998,0.060076177,-3.0746086,0.62962466,2.1112743e-05,-0.12769355,0.042312652,-0.00046597281,0.029822748,-0.012484694,-0.011949317,0.48059502,-1.359141,1.8753327,-2.0835106,-1.573213,2.4590597,-0.16989022,0.1669026,-0.21617779,0.073820546,-0.021287965,-0.15776755,-0.22984336,0.05746084,-9.193734,0.83589023,47.67345,-1.4139785,-2.2852635,-3.2256026,-0.290738,-0.39147532,-0.18949826,29.0625,30.4375,29.375,33.0,35.5,36.5625
0.28405255,0.015222217,0.15578687,-0.27408594,0.03260597,0.03859265,-0.17577766,-0.407695,-0.3629534,0.06010391,-3.074539,0.62973064,7.6553646e-05,-0.12885945,0.043396745,-0.0008529408,0.030522143,-0.012751127,-0.021071644,0.48021036,-1.3588166,1.874842,-2.0833428,-1.5732731,2.4587505,-0.17230147,0.16822644,-0.21693493,0.073814765,-0.021783244,-0.15105432,-0.11492168,0.076614454,-9.11712,0.9254084,47.683304,-1.324431,-2.2935925,-3.1974177,-0.2724215,-0.39055616,-0.23846312,29.0625,30.4375,29.375,33.0,35.5,36.5625
0.2860516,0.22694269,-0.68877256,-0.26308683,0.006689454,0.04632659,-0.17898168,-0.40794483,-0.36286128,0.06008348,-3.0744185,0.6298229,3.1150386e-05,-0.12968802,0.044152416,-0.001980482,0.03181476,-0.014442877,-0.026885247,0.47987393,-1.3584554,1.874422,-2.0831993,-1.5733331,2.4584875,-0.17395665,0.17121987,-0.21808264,0.07406255,-0.022163438,-0.14689197,-0.21068975,0.15322891,-9.251195,0.84484416,47.690468,-1.2724907,-2.2625542,-3.183415,-0.30755472,-0.38723183,-0.32338104,29.0625,30.4375,29.375,33.0,35.5,36.5625
0.28805256,0.14988776,-0.4965173,-0.13329788,-0.038720362,0.049909975,-0.18460989,-0.4081774,-0.36274406,0.06006619,-3.0742626,0.62984896,-4.6666028e-05,-0.1312461,0.04404186,-0.00093253923,0.031055601,-0.01097275,-0.028652638,0.47952577,-1.3581324,1.8740271,-2.0829966,-1.5734175,2.4581761,-0.17444998,0.17096776,-0.21989551,0.07268567,-0.02312405,-0.14561094,-0.28730422,0.1340753,-9.174581,0.88289046,47.698532,-1.2513623,-2.219135,-3.2621622,-0.33907217,-0.36466897,-0.33085012,29.0625,30.4375,29.375,33.0,35.5,36.5625
0.29005235,-0.65445614,-0.9503449,-0.5277823,-0.030556625,0.035090465,-0.17849474,-0.4084605,-0.36265492,0.06007853,-3.074226,0.6299573,-7.792309e-05,-0.13399933,0.04428591,0.0008851198,0.028384505,-0.0051219817,-0.031001454,0.47912893,-1.357797,1.8735608,-2.082842,-1.5734175,2.457852,-0.1769246,0.16941723,-0.22146487,0.06937433,-0.023475459,-0.14573452,-0.13407528,0.21068975,-9.289502,0.83589023,47.66808,-1.1599791,-2.0946903,-3.227568,-0.3227538,-0.37668693,-0.38306212,29.0625,30.4375,29.375,33.0,35.5,36.5625
0.2920525,-0.15193987,-0.6640396,-0.40478322,-0.045666657,0.06111187,-0.1943535,-0.4087313,-0.36256036,0.060068432,-3.0741465,0.63009536,-8.787128e-05,-0.13547847,0.045138627,0.0009594471,0.028506065,-0.004145699,-0.03341918,0.47875616,-1.357449,1.8731407,-2.0827343,-1.5734538,2.4575758,-0.17917384,0.17025271,-0.2225664,0.06881874,-0.024048215,-0.14556263,-0.095768064,0.22984336,-9.404425,0.8940802,47.687782,-1.1730533,-2.0018044,-3.2557468,-0.30465415,-0.35859975,-0.38339123,29.0625,30.4375,29.375,33.0,35.5,36.5625
0.29405245,-0.76720303,-0.72911406,-0.44633463,-0.039714828,0.06429137,-0.17806233,-0.40900877,-0.36246446,0.060071632,-3.0740218,0.63014245,-4.1144212e-05,-0.13814457,0.044896014,0.0013286239,0.026091129,0.00039536878,-0.029130707,0.47841933,-1.3570889,1.8726629,-2.0825694,-1.5735615,2.457285,-0.18098515,0.17169034,-0.2240299,0.0636609,-0.024036998,-0.15166052,-0.11492168,0.17238252,-9.385271,0.900793,47.709274,-1.1251835,-2.0153925,-3.348212,-0.26496813,-0.35401872,-0.3589713,29.0625,30.4375,29.375,33.0,35.5,36.5625
0.29605234,-1.2687293,-0.88557255,-0.60029536,-0.009427967,0.049336918,-0.17704691,-0.40926668,-0.36239475,0.06009879,-3.074025,0.63017803,-5.3427153e-05,-0.14032465,0.045802526,-0.00022578207,0.026463453,0.0011521066,-0.02468847,0.4780707,-1.3568003,1.872219,-2.0824153,-1.5735501,2.4569583,-0.18385035,0.17577842,-0.22454296,0.059561078,-0.024747299,-0.15896438,-0.21068975,0.21068975,-9.423578,0.8784135,47.67345,-1.1401725,-2.0178614,-3.423318,-0.21366662,-0.35982198,-0.31792933,29.0625,30.4375,29.375,33.0,35.5,36.5625
0.29805243,-0.53233236,-0.6589972,-0.668734,-0.004841996,0.070900835,-0.1892359,-0.40957287,-0.36230585,0.06009683,-3.073993,0.6301654,5.522637e-05,-0.14105718,0.045310248,0.00032516656,0.025361821,0.0023381591,-0.014942879,0.4776989,-1.3564284,1.8717645,-2.0823662,-1.5736216,2.456583,-0.18377937,0.17616032,-0.2262509,0.05927786,-0.02433956,-0.1686409,-0.21068975,0.2681506,-9.5385,0.83589023,47.661808,-1.0762478,-2.013942,-3.447431,-0.17922473,-0.34466046,-0.19119532,29.0625,30.4375,29.375,33.0,35.5,36.5625
0.30005246,-0.73434323,-0.6742636,-0.7191733,-0.010155114,0.06839236,-0.1836895,-0.40984452,-0.36223003,0.060103264,-3.0739417,0.6302486,4.7389534e-05,-0.14133781,0.045797415,-0.0010803988,0.026883926,0.0002538622,-0.010298229,0.4773504,-1.3560796,1.8712977,-2.0822241,-1.573646,2.4562933,-0.18446203,0.17924653,-0.22683655,0.05930177,-0.024754863,-0.17396553,-0.28730422,0.22984336,-9.461885,0.8806493,47.68062,-1.0394742,-2.1972985,-3.4892821,-0.17598906,-0.34035817,-0.117036715,29.0625,30.4375,29.375,33.0,35.5,36.5625
0.30205238,-1.0255075,-1.0943813,-0.86052454,-0.0056502186,0.06602033,-0.16709785,-0.41010994,-0.36212164,0.060075145,-3.0738115,0.6302608,1.1581233e-05,-0.143569,0.046418045,-0.0016911544,0.026949191,0.0022799869,-0.012819178,0.47698984,-1.355695,1.8708662,-2.0820816,-1.5737303,2.4559577,-0.18669823,0.18202892,-0.22812517,0.05601939,-0.025773898,-0.17367361,-0.47884035,0.24899697,-9.500193,0.86945957,47.693153,-1.0684997,-2.2944248,-3.4940658,-0.123237334,-0.32241207,-0.057086375,29.0625,30.4375,29.375,33.0,35.5,36.5625
0.30405217,-1.162973,-1.2732533,-0.85790676,-0.012461025,0.064585984,-0.17588337,-0.4104091,-0.36202687,0.060072098,-3.073764,0.630388,5.8375503e-05,-0.14394107,0.047057904,-0.002130411,0.028819092,0.00091185997,-0.018823847,0.47659385,-1.3553344,1.8704222,-2.082009,-1.5737671,2.4556475,-0.18732883,0.18373469,-0.2296726,0.057938434,-0.02679603,-0.16829526,-0.61291564,0.19153613,-9.730036,0.9097417,47.683304,-1.0680155,-2.2640264,-3.4913652,-0.10059357,-0.32252344,-0.0978331,29.0625,30.4375,29.375,33.0,35.5,36.5625
0.30605218,-1.5558788,-1.4609846,-0.674548,-0.026374971,0.0666924,-0.17332706,-0.41065824,-0.3619307,0.06005455,-3.0736487,0.6303847,-4.5897683e-05,-0.1445174,0.04652708,-0.0017851641,0.02913241,0.0009435383,-0.023585815,0.47624615,-1.3549623,1.8699673,-2.081804,-1.5738152,2.455313,-0.18663971,0.18526892,-0.23273759,0.059585486,-0.02710306,-0.16283861,-0.59376204,0.1340753,-9.615114,0.86945957,47.67614,-1.1078347,-2.3647318,-3.4557028,-0.106491074,-0.2904071,-0.15219072,29.0625,30.375,29.375,33.0,35.5,36.5625
0.30805212,-1.1467999,-0.9554146,-0.53791845,-0.02944421,0.08093175,-0.18446326,-0.41097927,-0.3618507,0.060082782,-3.0736303,0.6305174,8.5982225e-05,-0.14359088,0.044862818,-0.0015797437,0.0283797,0.0008647298,-0.027552204,0.47586313,-1.3546145,1.8694652,-2.0817215,-1.5738629,2.4550154,-0.18335511,0.18575293,-0.23394954,0.06004087,-0.02637486,-0.15559201,-0.61291564,0.24899697,-9.461885,0.9164598,47.667187,-1.356628,-2.2968895,-3.5854635,-0.08339043,-0.2964651,-0.26505092,29.0625,30.375,29.375,33.0,35.5,36.5625
0.310052,-1.0519329,-0.84021175,-0.4244595,-0.010611251,0.089501165,-0.18386474,-0.41128516,-0.36175936,0.060080394,-3.073572,0.6306607,0.00011597661,-0.14341173,0.044324666,-0.0013983679,0.028633337,0.0009583875,-0.03141063,0.47546732,-1.3542306,1.8689855,-2.0816238,-1.5738987,2.454717,-0.18200117,0.18620293,-0.23514338,0.060819358,-0.026636451,-0.15037824,-0.6512229,0.076614454,-9.404425,0.97240865,47.661808,-1.4421759,-2.440482,-3.5248075,-0.0719809,-0.2756486,-0.31545812,29.0625,30.375,29.375,33.0,35.5,36.5625
0.31205207,-0.8399914,-0.40050605,-0.67724603,0.004008678,0.088301525,-0.18577442,-0.41157717,-0.36166817,0.060093407,-3.0734937,0.6307634,0.00018411412,-0.14606129,0.045254696,-0.00083618617,0.028764876,0.002833129,-0.03890138,0.47510642,-1.3538824,1.8685063,-2.0814922,-1.5739712,2.4544306,-0.18512003,0.18791667,-0.23856586,0.060918737,-0.027612086,-0.14600118,-0.49799395,0.1340753,-9.519346,0.8717007,47.693153,-1.42991,-2.351861,-3.5011337,-0.049210668,-0.28551948,-0.42056912,29.0625,30.375,29.375,33.0,35.5,36.5625
0.3140519,-0.6256014,0.30371293,-0.16464646,-0.017970985,0.0823723,-0.19304049,-0.41187802,-0.36157602,0.06008979,-3.0734158,0.6309203,0.00021477675,-0.14779648,0.045810334,-0.00037753166,0.029156806,0.003674484,-0.04125626,0.47472203,-1.3534982,1.8680266,-2.081385,-1.5740198,2.4541545,-0.18695544,0.18934035,-0.24162672,0.061973877,-0.028354038,-0.14547738,-0.36391866,0.17238252,-9.346964,0.87393653,47.688675,-1.4750724,-2.2899082,-3.439589,-0.025196187,-0.24325919,-0.48297435,29.0625,30.375,29.375,33.0,35.5,36.5625
0.31605187,-0.95034933,-0.26666516,-0.27265096,0.0011269563,0.048206937,-0.18007044,-0.41216275,-0.36148563,0.060071155,-3.0733232,0.6309564,0.0001971829,-0.15002668,0.046483953,0.00033949388,0.02918634,0.004635042,-0.039529532,0.47436145,-1.3530899,1.8675464,-2.0812528,-1.5740794,2.4538288,-0.18957193,0.19088511,-0.24552135,0.063451596,-0.028847428,-0.14981565,-0.3256114,0.15322891,-9.308657,0.8605109,47.661808,-1.3926449,-2.2802916,-3.3460965,-0.01721286,-0.250801,-0.49962068,29.0625,30.375,29.375,33.0,35.5,36.5625
0.31805176,-0.5376748,0.031278595,-0.49805653,0.015049541,0.028257955,-0.18420677,-0.41248733,-0.36139667,0.060090527,-3.0732758,0.6310543,0.0003218704,-0.15014285,0.04711923,0.0005288528,0.030191265,0.0038534878,-0.028256193,0.473977,-1.3527184,1.8670319,-2.081156,-1.5741519,2.453512,-0.19024009,0.19078086,-0.24633883,0.06546734,-0.029407993,-0.16175635,-0.21068975,0.095768064,-9.346964,0.92764956,47.675243,-1.4011731,-2.2009046,-3.365672,0.0017446661,-0.21855414,-0.39309087,29.0625,30.375,29.375,33.0,35.5,36.5625
0.32005188,-0.51559347,-0.45161924,-0.5722707,0.026650527,0.013777776,-0.17409806,-0.41279328,-0.3613229,0.060116947,-3.0732698,0.6310648,0.00037010486,-0.15022558,0.0477615,0.0009690606,0.031302772,0.0019505578,-0.016392495,0.47360468,-1.3523588,1.866505,-2.0810115,-1.5741757,2.4531472,-0.1911481,0.19083205,-0.24839061,0.06961082,-0.029555386,-0.17452788,-0.1340753,0.038307227,-9.346964,0.94331104,47.677036,-1.3567836,-2.2847774,-3.4769208,-0.013040049,-0.20185056,-0.27764326,29.0625,30.375,29.375,33.0,35.5,36.5625
0.32205233,-0.24769814,-0.09919913,-0.29540014,0.02207973,0.007315724,-0.18113004,-0.41308683,-0.36119878,0.060096137,-3.0731382,0.6311131,0.00034352322,-0.15049924,0.049303595,-0.00028883296,0.033506647,-0.003013178,-0.013301229,0.47319582,-1.3519621,1.8660377,-2.0808542,-1.5742596,2.452786,-0.19398479,0.19374493,-0.2500482,0.07373014,-0.029284142,-0.1804538,-0.076614454,0.0,-9.251195,0.8985519,47.67166,-1.2676467,-2.2404768,-3.4381142,-0.06408313,-0.17371455,-0.20861962,29.0625,30.375,29.375,33.0,35.5,36.5625
0.32405248,-0.2409133,-0.107981026,-0.34393403,0.027140386,0.006494535,-0.17413591,-0.41338763,-0.36110535,0.060097747,-3.0730884,0.63116074,0.00038283193,-0.15081662,0.0517252,-0.0018555684,0.036410794,-0.0087453695,-0.015965758,0.47281048,-1.3515896,1.865559,-2.080744,-1.5743078,2.4524372,-0.19817029,0.19645628,-0.25083965,0.07821111,-0.02926198,-0.18197443,-0.13407528,-0.019153614,-9.2703495,0.9388393,47.67614,-1.1849043,-2.2636757,-3.3937683,-0.10779685,-0.17919353,-0.12335582,29.0625,30.375,29.375,33.0,35.5,36.5625
0.32605258,0.0020930257,0.2417382,-0.33456993,0.039583094,0.019862257,-0.17567827,-0.41370848,-0.3609895,0.060114205,-3.072993,0.63124114,0.00037704437,-0.15122893,0.05254241,-0.0021898684,0.037528723,-0.011868099,-0.023068722,0.47237778,-1.3512055,1.8650087,-2.080528,-1.5743674,2.4520674,-0.19999155,0.19832295,-0.2532679,0.082056634,-0.028838862,-0.17669217,-0.22984336,-0.076614454,-9.232041,0.8627467,47.690468,-1.0760903,-2.3177354,-3.4086902,-0.14304465,-0.1532105,-0.1740039,29.0625,30.375,29.375,33.0,35.5,36.5625
0.3280525,-0.43714386,0.5456206,-0.31259152,0.041658364,0.01832332,-0.17746826,-0.4139891,-0.36088172,0.060078308,-3.0728688,0.6313153,0.0003131381,-0.15178905,0.05337438,-0.0015283301,0.037386663,-0.01347884,-0.031505283,0.47199333,-1.3507856,1.8645524,-2.080394,-1.574427,2.4517457,-0.20224203,0.19801112,-0.2553034,0.08577241,-0.027986977,-0.1705065,-0.19153613,-0.11492168,-9.212888,0.9030289,47.690468,-1.0510855,-2.1919239,-3.455914,-0.2070894,-0.15426554,-0.25630924,29.0625,30.375,29.375,33.0,35.5,36.5625
0.3300517,-0.28675655,0.6043509,-0.14313348,0.024084026,0.03587789,-0.18609527,-0.41428852,-0.36076123,0.06006295,-3.0727444,0.6313895,0.00024973575,-0.15233153,0.05505235,-0.0028211283,0.038711943,-0.01698055,-0.039846998,0.4715721,-1.3503776,1.8640507,-2.0802033,-1.5744871,2.4513874,-0.20560326,0.2002533,-0.25553653,0.08748047,-0.027588263,-0.16552481,-0.24899697,-0.11492168,-9.232041,0.95897776,47.679718,-0.9518088,-2.1720796,-3.4515295,-0.25001806,-0.14000808,-0.29840353,29.0625,30.375,29.375,33.0,35.5,36.5625
0.3320521,-0.18642773,-0.09093101,0.045569826,0.013480812,0.0456229,-0.19187191,-0.41457257,-0.36064807,0.060036838,-3.0725994,0.63149405,0.00015827293,-0.15295237,0.054792352,-0.0019729256,0.03771561,-0.016299224,-0.042731088,0.47117624,-1.3499582,1.8635596,-2.0800116,-1.5745467,2.451076,-0.20589615,0.20005575,-0.25755522,0.08862478,-0.027036784,-0.16293234,-0.3256114,-0.076614454,-9.136273,0.90750587,47.68062,-1.0199556,-2.1019976,-3.4562397,-0.28702837,-0.13956451,-0.3556696,29.0625,30.375,29.375,33.0,35.5,36.5625
0.33405218,-0.57650274,-0.36070386,0.0024180608,0.0043467167,0.046581358,-0.18202265,-0.4148861,-0.36056167,0.060063984,-3.072545,0.63157606,0.00020151344,-0.1536398,0.05310881,-0.00075752585,0.036271453,-0.013763731,-0.03968591,0.47079292,-1.3495861,1.863007,-2.079831,-1.5745944,2.4507513,-0.20359254,0.20059273,-0.26103142,0.08862834,-0.026921744,-0.16367331,-0.36391866,-0.05746084,-9.040505,0.93436235,47.687782,-1.0513752,-2.14025,-3.398016,-0.2916926,-0.12325856,-0.37084672,29.0625,30.375,29.375,33.0,35.5,36.5625
0.3360516,-0.40950358,-0.16754061,-0.107651114,0.007857745,0.05727314,-0.1917329,-0.4152029,-0.3604565,0.06006828,-3.0724535,0.6317461,0.0001477664,-0.15468398,0.051511344,-0.000508417,0.034198944,-0.012065224,-0.035354458,0.47036123,-1.3491775,1.8624572,-2.0796297,-1.5746182,2.450438,-0.20229091,0.20287123,-0.2640393,0.08687381,-0.025886009,-0.16670491,-0.34476504,-0.11492168,-9.251195,0.86945957,47.661808,-1.2358212,-2.1359038,-3.4304485,-0.3265519,-0.124412805,-0.38422495,29.0625,30.375,29.375,33.0,35.5,36.5625
0.3380517,-0.9837645,-0.5442763,-0.08635471,0.0016935975,0.059798647,-0.19664428,-0.41548932,-0.36036265,0.06005905,-3.072361,0.6317576,9.0655456e-05,-0.15651205,0.050500188,-9.1035356e-05,0.03146114,-0.008064776,-0.026274653,0.46998948,-1.3487695,1.8619412,-2.0794394,-1.5746664,2.4500859,-0.20236406,0.20409794,-0.26551428,0.082260415,-0.025322175,-0.17585777,-0.2681506,0.019153614,-9.289502,0.9164598,47.67614,-1.2897403,-2.2425528,-3.3229961,-0.28081274,-0.118220165,-0.33792892,29.0625,30.375,29.375,33.0,35.5,36.5625
0.34005207,-0.96663374,-0.7644241,-0.098099306,-0.016216544,0.07428794,-0.18765077,-0.41580123,-0.36024794,0.06005095,-3.0722637,0.6318096,6.983914e-05,-0.15776543,0.051101316,-0.0022509475,0.032654773,-0.011188586,-0.01776298,0.46956873,-1.34836,1.8614258,-2.0792716,-1.5747265,2.4497106,-0.20445724,0.20988809,-0.2676062,0.08182416,-0.025031501,-0.18646112,-0.19153614,0.095768064,-9.232041,0.90750587,47.68062,-1.3248425,-2.2960992,-3.3132799,-0.28179762,-0.11179477,-0.19717851,29.0625,30.375,29.375,33.0,35.5,36.5625
0.34205207,-0.8381732,-0.8720329,-0.48217252,-0.019169921,0.06262076,-0.19117352,-0.41610253,-0.36014378,0.06003294,-3.0721908,0.6318101,1.4481426e-05,-0.16118751,0.05045552,-0.0013496883,0.029019957,-0.0052626156,-0.013078718,0.46916014,-1.34794,1.8609232,-2.0791185,-1.5747622,2.4493122,-0.20643993,0.2114638,-0.270342,0.07601025,-0.0245329,-0.19312759,-0.11492168,0.114921674,-9.346964,0.9701675,47.674347,-1.2997535,-2.2835453,-3.3444276,-0.24123389,-0.123124436,-0.10071376,29.0625,30.375,29.375,33.0,35.5,36.5625
0.34405208,-0.84277284,-1.2507783,-0.5244494,-0.03382868,0.05719417,-0.1932205,-0.41645807,-0.36002705,0.060050394,-3.0721164,0.63183147,0.00014621462,-0.1625456,0.048880573,0.0002766261,0.0265121,-7.674177e-06,-0.011932534,0.46872878,-1.3475323,1.86036,-2.0789874,-1.5748705,2.4489043,-0.20469919,0.21085443,-0.27273244,0.073161095,-0.024682488,-0.19253238,-0.28730422,0.21068975,-9.442732,0.8985519,47.685097,-1.357265,-2.331293,-3.3100915,-0.19106625,-0.11461474,-0.057400487,29.0625,30.375,29.375,33.0,35.5,36.5625
0.3460524,-1.8781785,-2.0591202,-0.7370317,-0.05101226,0.0289552,-0.18472072,-0.41677466,-0.35993317,0.06005178,-3.072042,0.6318976,0.00014385577,-0.16231155,0.04995993,-0.0016611557,0.027823634,-0.002421704,-0.021084871,0.4683322,-1.347112,1.8598098,-2.0788205,-1.5749182,2.448559,-0.20609766,0.21297738,-0.27066746,0.07173337,-0.0247491,-0.18477774,-0.4213795,0.38307226,-9.481039,0.8605109,47.684196,-1.3609724,-2.3594413,-3.4976459,-0.14593416,-0.10016128,-0.10419504,29.0625,30.375,29.375,33.0,35.5,36.5625
0.34805176,-1.5892665,-2.214581,-0.8271515,-0.06870916,0.043641854,-0.18837495,-0.41706496,-0.35981426,0.060019307,-3.0719223,0.63187855,4.9855298e-05,-0.16383716,0.049929716,-0.0010826947,0.026030533,-0.0004311532,-0.031208977,0.46792373,-1.3466804,1.8593196,-2.0786412,-1.5749778,2.4481547,-0.20761073,0.21340016,-0.2722668,0.07033775,-0.024053229,-0.17616658,-0.5363012,0.49799395,-9.595961,0.9164598,47.677036,-1.3349457,-2.2968888,-3.627718,-0.115290344,-0.112743825,-0.2120662,29.0625,30.375,29.375,33.0,35.5,36.5625
0.35005176,-1.0535338,-2.305154,-0.7667355,-0.08483784,0.057178438,-0.18346919,-0.41738367,-0.35972524,0.06000085,-3.0718367,0.63196033,3.034792e-06,-0.16434444,0.051318105,-0.0025594216,0.027410539,-0.004431713,-0.040715028,0.46752712,-1.3462118,1.8587574,-2.0784838,-1.575014,2.4478207,-0.2105413,0.21647632,-0.27320376,0.07240217,-0.023473281,-0.16959181,-0.5554548,0.5363012,-9.576807,0.9835985,47.66539,-1.3262993,-2.2141705,-3.6554217,-0.09359251,-0.095798045,-0.2961134,29.0625,30.375,29.375,33.0,35.5,36.5625
0.35205168,-0.7767621,-1.884903,-0.84962326,-0.08550899,0.062361337,-0.1901047,-0.41774097,-0.35962683,0.0600124,-3.0717804,0.6321837,6.647289e-05,-0.16583271,0.052250158,-0.0022887697,0.02621028,-0.0041011027,-0.049567387,0.46708202,-1.3457804,1.8581809,-2.0783656,-1.5750493,2.4475226,-0.21373242,0.21680902,-0.27429298,0.072328,-0.022536818,-0.16393544,-0.51714754,0.45968673,-9.500193,0.87617236,47.661808,-1.2491786,-2.2705135,-3.645814,-0.10291359,-0.11243202,-0.39768282,29.0625,30.375,29.375,33.0,35.5,36.5625
0.35405162,-0.63116014,-1.4113623,-0.4303169,-0.075504094,0.072541736,-0.20422985,-0.41806397,-0.35950217,0.059988085,-3.0716386,0.6323445,2.3298073e-06,-0.16816607,0.051593028,0.00033198885,0.022533564,0.0016219987,-0.051007662,0.46663752,-1.3453251,1.857643,-2.0781863,-1.5751094,2.4471974,-0.21484396,0.21462362,-0.27732918,0.07076389,-0.021859894,-0.16360745,-0.53630114,0.34476507,-9.481039,0.87617236,47.684196,-1.0796322,-2.2123077,-3.5686142,-0.052487105,-0.11506954,-0.48584485,29.0625,30.375,29.375,33.0,35.5,36.5625
0.35605192,-1.4047035,-1.2885077,-0.62431014,-0.024903605,0.053962544,-0.18641059,-0.41840845,-0.3594243,0.059983447,-3.0716343,0.6324394,2.476112e-05,-0.1697369,0.05255607,0.0002856676,0.022500966,4.913475e-05,-0.05118462,0.46621653,-1.344869,1.8570803,-2.0781019,-1.5751089,2.4468365,-0.2180262,0.21672261,-0.28038788,0.07308968,-0.021135328,-0.16661574,-0.36391866,0.22984336,-9.461885,0.9410752,47.63315,-0.96111417,-2.2036695,-3.6283233,-0.048069768,-0.12361123,-0.4830417,29.0625,30.375,29.375,33.0,35.5,36.5625
0.35805196,-0.53668606,0.1315,-0.89097124,0.0022689898,0.05831242,-0.20006807,-0.4187612,-0.3593361,0.059991032,-3.0715797,0.6325182,9.46605e-05,-0.17165992,0.05226583,0.0012820491,0.020788433,0.0017342198,-0.04112351,0.46580815,-1.3444128,1.856479,-2.0779698,-1.5751685,2.4464848,-0.21941447,0.21782884,-0.28415683,0.0734066,-0.020410545,-0.17806795,-0.22984336,0.28730422,-9.595961,0.8784135,47.661808,-0.9078113,-2.1707416,-3.557187,-0.057320666,-0.1296073,-0.40953863,29.0625,30.375,29.375,33.0,35.5,36.5625
0.36005193,-0.65944135,0.12350718,-0.78285563,0.011514956,0.04857445,-0.19073267,-0.41910985,-0.3592299,0.06000354,-3.0715399,0.6326169,0.00011154733,-0.17238224,0.051498532,0.0014681455,0.019770892,0.0026516744,-0.027968071,0.46535197,-1.3439926,1.8559049,-2.0778143,-1.5751923,2.4460957,-0.21882093,0.21922196,-0.2862011,0.07271108,-0.019965632,-0.1906315,-0.36391866,0.2681506,-9.576807,0.947788,47.64927,-0.9360304,-2.4544358,-3.432043,0.0082919095,-0.15429372,-0.28041506,29.0625,30.375,29.375,33.0,35.5,36.5625
0.36205176,-0.98045444,-0.5844305,-0.59605944,0.011441399,0.052596264,-0.17964359,-0.41944352,-0.3591317,0.059997376,-3.0714617,0.6326526,0.000121006415,-0.17317392,0.051117502,0.0017561307,0.020501263,0.0016933052,-0.019726036,0.46494427,-1.3435366,1.8553294,-2.077658,-1.5752529,2.445721,-0.21851383,0.22158703,-0.29050902,0.07578439,-0.020227965,-0.19856311,-0.45968673,0.05746084,-9.385271,0.92093146,47.674347,-1.00547,-2.3716784,-3.393775,0.008793557,-0.15896147,-0.15975598,29.0625,30.375,29.375,33.0,35.5,36.5625
0.36405197,-0.8114192,-0.22287416,-0.95465404,0.019674864,0.044642318,-0.18501899,-0.41980568,-0.35902825,0.059981626,-3.0714004,0.6326974,0.00010274206,-0.17208494,0.050911594,0.00060660875,0.022383977,-0.002660626,-0.019177884,0.464489,-1.343032,1.8547186,-2.077513,-1.5752882,2.445302,-0.21721846,0.2242698,-0.29207397,0.07938951,-0.019964369,-0.19781585,-0.17238252,-0.05746084,-9.5385,0.98135734,47.703903,-1.201993,-2.456936,-3.3331356,-0.0014598186,-0.1629764,-0.13447097,29.0625,30.375,29.375,33.0,35.5,36.5625
0.366052,-0.014576214,0.3737643,-1.00683,0.012738064,0.03710289,-0.18530236,-0.42018232,-0.35890493,0.059987057,-3.0713394,0.6328043,0.0001437063,-0.17226131,0.051535435,5.965327e-05,0.02485398,-0.0059735943,-0.02737718,0.463997,-1.3425759,1.8541187,-2.077368,-1.5753368,2.444885,-0.21777466,0.22697635,-0.29523227,0.08392819,-0.020666566,-0.19016802,-0.19153614,-0.076614454,-9.730036,0.9231726,47.66271,-1.2398458,-2.4883742,-3.3154526,-0.028605321,-0.17506224,-0.18538213,29.0625,30.375,29.375,33.0,35.5,36.5625
0.36805204,0.18445247,0.03531107,-0.70889384,0.010228016,0.03879055,-0.1916688,-0.4205139,-0.3588207,0.05997004,-3.0712485,0.6329412,0.00010758183,-0.17007558,0.053512976,-0.0019807522,0.029674646,-0.012848731,-0.03409634,0.46360075,-1.3420835,1.8535222,-2.0772092,-1.575373,2.4445865,-0.21832204,0.2280763,-0.29319763,0.089117214,-0.021882463,-0.1839898,-0.21068975,-0.038307227,-9.557653,0.97464454,47.684196,-1.3108633,-2.566137,-3.3091834,-0.07945482,-0.15169555,-0.25322333,29.0625,30.375,29.375,33.0,35.5,36.5625
0.37005198,0.5708012,0.7227204,-0.74878526,0.016019408,0.029277237,-0.19536048,-0.42084497,-0.35871726,0.05997475,-3.071168,0.6329636,7.568291e-05,-0.16893797,0.05412511,-0.0021977532,0.032154772,-0.016464692,-0.037051912,0.4631805,-1.3416398,1.8529228,-2.0769932,-1.5754212,2.4441912,-0.21784697,0.22831284,-0.29422912,0.094256,-0.022485007,-0.18055473,-0.17238252,-0.24899697,-9.500193,0.9455522,47.67614,-1.3087204,-2.6726036,-3.542274,-0.13744915,-0.16535527,-0.3174106,29.0625,30.375,29.375,33.0,35.5,36.5625
0.37205198,0.26397592,0.5214706,-0.78941804,0.04650111,0.012741898,-0.18304692,-0.42117718,-0.3586273,0.05998773,-3.0711164,0.6330118,1.927838e-05,-0.16911049,0.055452134,-0.0031703915,0.03450089,-0.020834103,-0.04125588,0.4627602,-1.3411958,1.852301,-2.0767639,-1.5754331,2.443808,-0.21992485,0.23090158,-0.29624566,0.09864051,-0.022641677,-0.17842591,-0.019153614,-0.28730422,-9.576807,0.92764956,47.681515,-1.3495936,-2.5943153,-3.5876732,-0.17322098,-0.17800772,-0.37543172,29.0625,30.375,29.375,33.0,35.5,36.5625
0.37405214,0.26492897,0.3617689,-0.5618887,0.04849652,0.0075691333,-0.1914936,-0.42155153,-0.3584891,0.059965003,-3.0709894,0.6331938,5.0615774e-05,-0.16921812,0.05564122,-0.003603347,0.035621896,-0.023523442,-0.03881769,0.46226832,-1.3407031,1.8517255,-2.0766442,-1.575517,2.4434469,-0.22022916,0.2331282,-0.29879418,0.10183041,-0.02247712,-0.18116768,0.1340753,-0.30645782,-9.3661175,0.9567419,47.66271,-1.3666255,-2.6719646,-3.4817138,-0.23064888,-0.17782983,-0.38568512,29.0625,30.375,29.375,33.0,35.5,36.5625
0.37605217,0.41757038,0.3136473,-0.46092042,0.055365127,-0.006210064,-0.18316597,-0.42189038,-0.35838997,0.059988905,-3.0709152,0.6331916,0.00011194319,-0.17122091,0.056362923,-0.0021475279,0.034500286,-0.02153517,-0.031506572,0.46187145,-1.3402836,1.8511142,-2.0764396,-1.575601,2.4430587,-0.22295542,0.23250422,-0.3016812,0.10298944,-0.022416709,-0.19120473,0.038307227,-0.2681506,-9.251195,0.900793,47.651955,-1.307812,-2.5830936,-3.4576566,-0.27111006,-0.1717969,-0.3397915,29.0625,30.375,29.375,33.0,35.5,36.5625
