Tylouw/Master_Thesis_Code/training_data/batch_1/rect_rod_t0.2/sample_17_session_1.csv
timestamp[s],tcp_force_x[N],tcp_force_y[N],tcp_force_z[N],tcp_force_rx[Nm?],tcp_force_ry[Nm?],tcp_force_rz[Nm?],tcp_pose_x[m],tcp_pose_y[m],tcp_pose_z[m],tcp_pose_rx[rot_vec_x],tcp_pose_ry[rot_vec_y],tcp_pose_rz[rot_vec_z],tcp_velo_x[m/s],tcp_velo_y[m/s],tcp_velo_z[m/s],tcp_velo_rx[rot_vec_x/s],tcp_velo_ry[rot_vec_y/s],tcp_velo_rz[rot_vec_z/s],q1[rad],q2[rad],q3[rad],q4[rad],q5[rad],q6[rad],qd1[rad/s],qd2[rad/s],qd3[rad/s],qd4[rad/s],qd5[rad/s],qd6[rad/s],tool_acc_x,tool_acc_y,tool_acc_z,current_of_whole_robot[A],voltage_of_whole_robot[V],current_J1[A],current_J2[A],current_J3[A],current_J4[A],current_J5[A],current_J6[A],temp_J1[C],temp_J2[C],temp_J3[C],temp_J4[C],temp_J5[C],temp_J6[C]
7.790004e-07,-0.48572487,-0.7757759,-0.14760277,-0.008891677,0.006536067,0.010956575,-0.3893391,-0.36872476,0.060015775,-3.078728,0.624933,0.00020956367,0.0011038488,0.00063736824,-0.0007293243,0.0016034722,-0.002754038,0.0001342794,0.5050329,-1.3816559,1.904199,-2.0919154,-1.5708417,2.4800253,-4.54e-42,-8.340661e-06,0.0012216171,0.0019729831,-6.3517524e-05,-0.00013490093,0.038307227,0.1340753,-8.580819,0.73069996,47.703903,-0.18870026,-3.1454096,-2.3771644,-0.19680957,-0.034110595,-0.025221653,28.75,30.125,29.3125,32.8125,35.375,36.5
0.002051956,-0.6725611,-0.31231597,-0.032910317,-0.022737034,0.011197163,0.003003535,-0.38934517,-0.36872196,0.060032234,-3.0787146,0.62494934,0.000278212,-0.0012260728,-0.0006580617,-0.0004550931,-0.0029548267,0.0054434086,0.00013416458,0.5050448,-1.3816799,1.904188,-2.0919073,-1.5708774,2.4800491,-6e-44,-1.1190061e-07,0.003156192,-0.009349389,-6.277908e-05,-0.00013437554,-0.019153614,0.095768064,-8.695741,0.7105615,47.707485,-0.19327465,-2.9636765,-2.3795338,-0.1470199,-0.021911666,-0.00991772,28.75,30.125,29.3125,32.8125,35.375,36.5
0.004052464,-1.2150275,-1.0367879,-0.15508829,-0.012151686,0.0026254007,0.011044643,-0.38934955,-0.36871186,0.060017314,-3.0787206,0.6249701,0.00023858469,-0.0015612324,-0.00084582786,-0.001912254,-0.0024117974,0.004449711,0.00013229434,0.5050088,-1.3816667,1.9042119,-2.0919316,-1.5708536,2.4800253,-1e-45,0.0032917883,0.0030481669,-0.011400891,-6.2057596e-05,-0.00013171963,0.019153614,0.17238252,-8.6574335,0.7329411,47.683304,-0.22027811,-3.3711834,-2.6159773,-0.059540212,-0.021709532,-0.022470098,28.75,30.125,29.3125,32.8125,35.375,36.5
0.006051719,-0.6748013,-0.47936857,-0.21464327,-0.0063123647,-0.00045742228,0.01006076,-0.38934752,-0.36873654,0.060013928,-3.0787477,0.62495613,0.0002534869,-0.00039820257,-0.00019921831,-0.001510996,-0.0005342381,0.0010762977,0.00012916162,0.5050448,-1.3816432,1.9041995,-2.0919654,-1.5708417,2.4800491,-0.0,0.0021459353,0.0021492713,-0.0054954244,-6.135256e-05,-0.00012903166,0.038307227,0.22984336,-8.695741,0.83365434,47.686886,-0.24312878,-3.3570685,-2.5469725,-0.083165884,-0.011390416,-0.029443372,28.75,30.125,29.3125,32.8125,35.375,36.5
0.00805182,-0.2640273,0.40739977,-0.5784093,0.025730642,-0.023415733,0.009393185,-0.38931668,-0.3687024,0.059994575,-3.0786839,0.62500095,0.00012624498,0.00029175676,0.00018472562,-0.0003527281,0.00040053827,-0.0005964341,0.00012627355,0.5050088,-1.3816679,1.9042586,-2.0919034,-1.5708297,2.4800491,0.0,0.000106846295,0.0006960479,-8.691936e-05,-6.066332e-05,-0.00012644273,0.019153614,0.22984336,-8.734048,0.7038487,47.693153,-0.18855983,-3.176364,-2.476269,-0.11575444,0.00016874494,-0.014653558,28.75,30.125,29.3125,32.8125,35.375,36.5
0.010051825,-0.70421106,0.49049994,-0.9773844,0.0363625,-0.034728948,0.004667169,-0.38933903,-0.36872476,0.059998278,-3.078697,0.62500316,0.000179457,0.0011158283,0.0006426231,-0.00046466655,0.0019097537,-0.0033120015,0.00013227337,0.5050329,-1.3816198,1.9041985,-2.0919259,-1.5708417,2.480073,0.0,1.4334794e-06,0.00024418702,0.003577125,-5.9989456e-05,-0.00013266664,0.038307227,0.21068975,-9.078813,0.72622824,47.691364,-0.72382534,-2.7306361,-2.8999658,-0.16608521,-0.03118008,-0.0942463,28.75,30.125,29.3125,32.8125,35.375,36.5
0.012051676,-0.41132343,0.08344567,-0.8448507,-0.005734853,-0.0023009067,-0.0059988815,-0.38930267,-0.36870086,0.05997204,-3.0786264,0.6248545,0.000114094786,0.0009900552,0.0006878523,-0.0017011304,0.00274929,-0.0049270345,0.00017062966,0.5050568,-1.3816186,1.9042462,-2.0918787,-1.5708898,2.4800131,-0.00022338214,0.00271206,3.2760804e-06,0.002926794,-1.5244112e-05,-0.00039386933,0.095768064,0.1340753,-9.155427,0.7351769,47.696735,-0.9055451,-2.6789386,-3.0660834,-0.14169523,-0.040798314,-0.13283888,28.75,30.125,29.3125,32.8125,35.375,36.5
0.014051649,-0.99486023,-0.8912187,-1.0337467,-0.040856857,0.024254117,-0.0032426396,-0.3893267,-0.3687005,0.059969306,-3.078666,0.6249785,2.6633426e-05,-0.005178317,0.0037288016,-0.00384005,0.0035715871,-0.006479524,-0.0010414366,0.504981,-1.3815916,1.9042205,-2.0918791,-1.5708054,2.4800096,-0.01112575,0.011695281,-0.0053072264,0.0010094984,-9.953316e-07,-0.010080385,0.05746084,0.11492168,-9.3661175,0.75755644,47.67614,-0.43006182,-3.2138662,-3.0048537,-0.1061767,-0.020550553,-0.07069933,28.75,30.125,29.3125,32.8125,35.375,36.5
0.016052421,-1.4358971,-0.95281947,-1.0544139,-0.06676801,0.0458096,-0.024244536,-0.38931555,-0.36869496,0.059961617,-3.078613,0.6249063,-7.5420808e-06,-0.0063291965,0.0035813828,-0.0029958514,0.0026546728,-0.0048336657,0.0043784734,0.5050047,-1.3815676,1.9041961,-2.091819,-1.5708417,2.479995,-0.011955437,0.011646818,-0.007178695,0.0010441133,-6.4988036e-08,-0.016329229,-0.24899697,0.30645782,-9.32781,0.7038487,47.66987,-0.51397663,-3.0950563,-3.0227735,-0.10085282,-0.033938568,-0.032114983,28.75,30.125,29.3125,32.8125,35.375,36.5
0.01805193,-2.0715332,-1.0592887,-1.3200119,-0.05560042,0.056883805,-0.033456452,-0.38932946,-0.3686977,0.059950013,-3.078643,0.6249285,-4.3871223e-06,-0.0050257333,0.0036420994,-0.0024358493,0.0033334927,-0.006045682,0.010239507,0.5049811,-1.3815445,1.9042085,-2.0918782,-1.5708174,2.4799814,-0.010836598,0.009550664,-0.006646441,0.0039969846,-4.2432546e-09,-0.021072289,-0.40222588,0.21068975,-9.481039,0.7665104,47.690468,-0.75312257,-2.88448,-3.1870794,-0.09432116,-0.0408226,0.0069903843,28.75,30.125,29.3125,32.8125,35.375,36.5
0.020051809,-2.1876287,0.13479918,-1.4608581,-0.036927715,0.06796867,-0.05592119,-0.38931462,-0.3686775,0.059927195,-3.0786016,0.6248058,-9.3721275e-05,-0.004319196,0.004788524,-0.0037257702,0.005878718,-0.010637096,0.008896191,0.5049687,-1.3815196,1.90422,-2.091829,-1.5708297,2.4798977,-0.012106411,0.01128006,-0.006524179,0.007394769,-2.7705419e-10,-0.020998921,-0.40222588,0.1340753,-9.576807,0.76874626,47.698532,-0.85870254,-2.8202314,-3.3608313,-0.12803982,-0.049135175,0.016592704,28.75,30.125,29.3125,32.8125,35.375,36.5
0.022052782,-1.8275715,0.19094244,-1.6971587,-0.006181666,0.06845024,-0.074846104,-0.38934198,-0.36867085,0.059915278,-3.0785975,0.624828,-9.3238836e-05,-0.0066584107,0.0051084487,-0.0033599453,0.005136128,-0.00930883,0.0024468533,0.5049319,-1.381471,1.9041952,-2.0918534,-1.5708297,2.4798753,-0.014833922,0.013242139,-0.009577838,0.006965111,-1.8089658e-11,-0.017275486,-0.4213795,0.17238252,-9.634268,0.7284641,47.72002,-0.875721,-2.846228,-3.4749,-0.15267736,-0.049026534,-0.03926355,28.75,30.125,29.3125,32.8125,35.375,36.5
0.024055663,-2.725342,-0.8028549,-1.6258185,-0.00583204,0.051050287,-0.07186581,-0.3893638,-0.36863822,0.059899587,-3.0785308,0.6249121,-0.00012530803,-0.00903129,0.0049280087,-0.0024267691,0.0034540168,-0.0062336884,-0.0013218134,0.5048714,-1.3814348,1.9041828,-2.09183,-1.5708536,2.4798758,-0.016733928,0.014182732,-0.012457984,0.005399527,-2.6122474e-05,-0.015405287,-0.63206923,0.17238252,-9.691729,0.6948948,47.661808,-0.84891254,-2.7431142,-3.347877,-0.117443904,-0.057882663,-0.08776267,28.75,30.125,29.3125,32.8125,35.375,36.5
0.026051955,-2.8833563,-0.6058832,-1.6937758,-0.027900448,0.053336304,-0.085516766,-0.38933492,-0.3686505,0.059872735,-3.0784957,0.6247708,-0.00024022486,-0.009839539,0.0048420643,-0.0029253291,0.0034201795,-0.006174652,-0.0014435605,0.5049191,-1.3813739,1.9041585,-2.0917704,-1.5708536,2.4798398,-0.017344521,0.016201401,-0.013463792,0.0043185637,-3.108577e-05,-0.015893277,-0.6512228,0.11492168,-9.787497,0.7978386,47.677036,-0.8439121,-2.7269506,-3.3899083,-0.092541225,-0.061711825,-0.08765848,28.75,30.125,29.3125,32.8125,35.375,36.5
0.028052036,-2.2312613,-0.5381956,-1.9034767,-0.037693057,0.093544796,-0.11602558,-0.3893813,-0.36864933,0.059907593,-3.0785487,0.62487817,-0.00016343332,-0.010787603,0.004814103,-0.0032067162,0.0036442461,-0.0065749288,-0.002195068,0.50485885,-1.3813971,1.9041094,-2.0917828,-1.5708297,2.4798398,-0.018180633,0.018393172,-0.015476773,0.0045988746,-3.6424593e-05,-0.01597673,-0.80445176,0.0,-9.902418,0.6859408,47.66091,-0.9404733,-2.8732948,-3.3357606,-0.08087304,-0.06188967,-0.07023496,28.75,30.125,29.3125,32.8125,35.375,36.5
0.030051949,-3.2880313,-0.9980767,-1.9208937,-0.027076906,0.080093324,-0.12282985,-0.38937092,-0.36864272,0.05986796,-3.078514,0.6248705,-0.00031653364,-0.010559001,0.0052799974,-0.0028684516,0.004476577,-0.008073405,-0.0034967025,0.5048348,-1.3813252,1.9041089,-2.091757,-1.5707935,2.4798152,-0.018750995,0.01787779,-0.01633909,0.007691346,-3.6310743e-05,-0.015245513,-0.842759,-0.076614454,-9.921572,0.77545905,47.687782,-1.0074861,-2.7591093,-3.4239407,-0.08486821,-0.057357796,-0.109978184,28.75,30.125,29.3125,32.8125,35.375,36.5
0.032051872,-2.7673023,-0.14491789,-1.7267138,-0.024456562,0.0868331,-0.12559831,-0.38941538,-0.36861563,0.05987095,-3.0784957,0.62490684,-0.00027881042,-0.011126614,0.0057421215,-0.0031173078,0.005006216,-0.009033347,-0.0056607183,0.5047625,-1.3813008,1.9040731,-2.091757,-1.5708174,2.479768,-0.020059079,0.019030841,-0.017352432,0.008647736,-3.5853125e-05,-0.014389086,-0.7278373,-0.019153614,-9.902418,0.7396539,47.707485,-0.9398097,-2.736693,-3.3950686,-0.116209604,-0.057703808,-0.12107148,28.75,30.125,29.3125,32.8125,35.375,36.5
0.034052186,-2.6351671,-0.09491671,-1.8927318,-0.0005790304,0.08130641,-0.1348388,-0.38943964,-0.36861277,0.059879187,-3.07847,0.62490183,-0.00026834905,-0.012620005,0.0056012925,-0.002201513,0.0036853915,-0.006656568,-0.0066289846,0.50475013,-1.3812649,1.9040011,-2.091709,-1.5708417,2.4797559,-0.021217998,0.01895729,-0.019160513,0.0078098625,-3.5384888e-05,-0.014578924,-0.63206923,0.0,-9.80665,0.70608455,47.65106,-1.0137765,-2.737042,-3.4143527,-0.103752814,-0.05330244,-0.1527074,28.75,30.125,29.3125,32.8125,35.375,36.5
0.036051616,-1.7780529,-0.47486827,-1.6902262,0.016523728,0.089171946,-0.131574,-0.3894681,-0.36859715,0.059861787,-3.078464,0.62493926,-0.00029456706,-0.014059063,0.005741982,-0.001801984,0.0027418782,-0.0049625044,-0.007791626,0.50468975,-1.3812166,1.9039892,-2.0917337,-1.5708297,2.4797196,-0.022799486,0.01945699,-0.0203863,0.006596982,-3.4927245e-05,-0.014997064,-0.57460845,0.019153614,-9.710882,0.800085,47.711964,-0.98381364,-2.6669784,-3.4314985,-0.09232533,-0.05649902,-0.15954457,28.75,30.125,29.3125,32.8125,35.375,36.5
0.038052585,-2.24157,-0.102164425,-1.8365213,0.0053310543,0.05215266,-0.15146299,-0.3894972,-0.36859626,0.05985888,-3.0784621,0.6249202,-0.00033518192,-0.0155258635,0.0059536914,-0.0016442357,0.0023116323,-0.0041966527,-0.008441916,0.5046533,-1.3811561,1.9039162,-2.091698,-1.5708174,2.4796715,-0.024526695,0.020803781,-0.022257831,0.006243363,-3.4481196e-05,-0.016072968,-0.45968673,-0.1340753,-9.768343,0.6948948,47.686886,-0.96492004,-2.7437615,-3.387126,-0.069413275,-0.06882834,-0.1716843,28.75,30.125,29.3125,32.8125,35.375,36.5
0.04005248,-1.2978894,-0.19049393,-1.8987565,0.0045554703,0.061208364,-0.17298718,-0.38952875,-0.36856884,0.059838023,-3.078391,0.6250591,-0.00035405473,-0.016549243,0.0062738643,-0.0013231431,0.0021967746,-0.003978754,-0.008661196,0.5045928,-1.3810958,1.9038924,-2.091698,-1.5708417,2.4797068,-0.026016103,0.021431189,-0.023906788,0.007018093,-4.2476848e-05,-0.01734239,-0.49799395,-0.019153614,-9.730036,0.7597976,47.69763,-0.883664,-2.6425486,-3.3558784,-0.065825,-0.07783056,-0.16895506,28.75,30.125,29.3125,32.8125,35.375,36.5
0.042052638,-1.8892037,-0.70756406,-1.8795191,0.00945652,0.03149682,-0.17464463,-0.38957205,-0.36856878,0.059856363,-3.0784268,0.6250471,-0.00032271343,-0.01706214,0.006368789,-0.0009840898,0.0021968423,-0.0039755213,-0.007896502,0.50454473,-1.3810717,1.9038194,-2.0916855,-1.5708297,2.4796467,-0.026651531,0.021694671,-0.025229901,0.008074955,-4.463935e-05,-0.01874204,-0.34476504,-0.076614454,-9.672575,0.7530795,47.690468,-0.8603854,-2.6514802,-3.3712173,-0.08453388,-0.060242675,-0.1868346,28.75,30.125,29.3125,32.8125,35.375,36.5
0.044051778,-1.4768026,-0.46932304,-1.6711564,-0.0007553613,0.037851054,-0.18244162,-0.3896213,-0.3685532,0.05986674,-3.0784268,0.62508523,-0.00030919342,-0.018464968,0.0061875354,-0.0002218502,0.0014623377,-0.0024341606,-0.008094257,0.5044725,-1.3810354,1.9037474,-2.0916612,-1.5708297,2.4795983,-0.027587954,0.022334222,-0.027764576,0.008265998,-0.00015211003,-0.019479394,-0.2681506,0.0,-9.595961,0.7172743,47.65464,-0.9425342,-2.6613302,-3.42183,-0.0683126,-0.07093459,-0.18945497,28.75,30.125,29.3125,32.8125,35.375,36.5
0.046052087,-1.1889858,-0.4718059,-1.7509681,-0.011815058,0.03361403,-0.19614968,-0.3896389,-0.36853173,0.059838932,-3.0784023,0.62513804,-0.00036458016,-0.019852415,0.006448262,2.5476194e-05,0.0010495111,-0.0015447233,-0.008641715,0.5044121,-1.3809869,1.9037589,-2.0916855,-1.5708174,2.479574,-0.029276162,0.023323493,-0.02942935,0.007963683,-0.00022622316,-0.020619133,-0.095768064,0.076614454,-9.595961,0.7866488,47.698532,-0.95372176,-2.711163,-3.306766,-0.059026785,-0.07878171,-0.20634131,28.75,30.125,29.3125,32.8125,35.375,36.5
0.048052426,-0.92037475,-0.62338793,-1.719753,-0.02082234,0.03597242,-0.19729808,-0.38970366,-0.3685154,0.05985201,-3.0783775,0.6252103,-0.0003242598,-0.021070203,0.007363895,-0.00012712438,0.0014250154,-0.0020445026,-0.009666056,0.5043393,-1.3809266,1.9036497,-2.0916498,-1.5708417,2.4795494,-0.031895738,0.02445838,-0.030564988,0.008583023,-0.000314992,-0.022213629,-0.095768064,0.13407528,-9.634268,0.7105615,47.72002,-0.8617983,-2.6707666,-3.3266127,-0.05454628,-0.08434382,-0.22982839,28.75,30.125,29.3125,32.8125,35.375,36.5
0.050052576,-1.4782376,-1.117337,-1.694923,-0.017161662,0.011074702,-0.16981395,-0.38973734,-0.36849394,0.059854094,-3.0783484,0.62522197,-0.0003435566,-0.021290803,0.008083828,-0.0007623316,0.0022312833,-0.0034726504,-0.009363419,0.50427914,-1.3808903,1.903591,-2.0916011,-1.5708536,2.4795003,-0.033301603,0.025453446,-0.030406196,0.00906862,-0.00033082408,-0.023922052,0.05746084,0.15322891,-9.595961,0.75755644,47.692257,-0.8061291,-2.6160579,-3.3805103,-0.06268808,-0.09122348,-0.21719378,28.75,30.125,29.3125,32.8125,35.375,36.5
0.052052468,-0.5125241,-1.1552848,-1.583027,-0.022420801,0.02009868,-0.16682243,-0.38979086,-0.36849907,0.05986739,-3.0783803,0.62526655,-0.00029777476,-0.022517227,0.008597794,-0.00022866485,0.002364564,-0.0022548793,-0.008416405,0.50423056,-1.3808422,1.9035066,-2.091613,-1.5708421,2.4794755,-0.034866374,0.025541356,-0.031793755,0.009368938,-0.0010381775,-0.026432002,0.095768064,0.21068975,-9.653421,0.7486078,47.692257,-0.80210596,-2.6121564,-3.378076,-0.0764958,-0.07951453,-0.23820345,28.75,30.125,29.3125,32.8125,35.375,36.5
0.054052345,-1.3863353,-1.3952527,-1.5796939,-0.01631002,-0.0040709656,-0.15576267,-0.38986877,-0.36844853,0.059874974,-3.0783288,0.6253708,-0.00020852759,-0.024266476,0.008985964,0.00055719673,0.0017005497,-0.0009842427,-0.008856824,0.50411,-1.380806,1.9034466,-2.091613,-1.5709018,2.4794266,-0.03712478,0.025989274,-0.034240164,0.009932183,-0.001074909,-0.028248938,-0.019153614,0.15322891,-9.519346,0.77545905,47.705692,-0.7480327,-2.4973607,-3.3429804,-0.063147575,-0.07265303,-0.21845916,28.75,30.125,29.3125,32.8125,35.375,36.5
0.056052003,-0.7912306,-1.1359361,-1.6102676,-0.017716343,0.010281505,-0.16498037,-0.38988525,-0.3684398,0.059862375,-3.0783486,0.62529784,-0.00031504422,-0.024721298,0.008868219,0.0007366797,0.0015184934,-0.00094465754,-0.007990223,0.5040501,-1.3807577,1.9034098,-2.0915763,-1.5708541,2.4793186,-0.03743504,0.026588943,-0.035475094,0.010445449,-0.0009380432,-0.02942546,-0.019153614,0.19153613,-9.519346,0.7665104,47.67345,-0.7889744,-2.5350235,-3.3225203,-0.05954235,-0.10022546,-0.24375485,28.75,30.125,29.3125,32.8125,35.375,36.5
0.058051985,-0.4853324,-0.8464501,-1.6575011,-0.024686048,0.022386448,-0.16519508,-0.38994992,-0.3684232,0.059888303,-3.0783617,0.62539583,-0.00028457135,-0.02490292,0.008620023,0.0007433096,0.0017298764,-0.0013546175,-0.0066950517,0.50395435,-1.3807334,1.903314,-2.0915406,-1.5708421,2.4792824,-0.037189674,0.027523182,-0.036784478,0.0112817325,-0.00092556013,-0.030474728,-0.05746084,0.30645782,-9.481039,0.7597976,47.696735,-0.8611111,-2.4982498,-3.337433,-0.050895296,-0.07857979,-0.21936716,28.75,30.125,29.3125,32.8125,35.375,36.5
0.060051918,-0.942147,-1.0199265,-1.4465119,-0.028578555,0.025141327,-0.16420344,-0.3899895,-0.36839834,0.05988311,-3.078322,0.62536824,-0.00025057213,-0.026205622,0.009287872,0.00083950115,0.0017122024,-0.0015337762,-0.007970964,0.5039056,-1.3806851,1.9032658,-2.0915282,-1.5708903,2.4792216,-0.039589036,0.028561097,-0.03839442,0.012000026,-0.0008263063,-0.031597607,-0.019153614,0.3256114,-9.442732,0.7642693,47.66987,-0.82348996,-2.5083284,-3.318119,-0.07027255,-0.08662724,-0.25440952,28.75,30.125,29.3125,32.8125,35.375,36.5
0.06205189,-1.1416205,-1.1513722,-1.4317572,-0.025353998,0.025218433,-0.15968253,-0.39003235,-0.36840692,0.059876293,-3.078345,0.62539256,-0.00028792548,-0.026929965,0.009532739,0.00081866333,0.0017367383,-0.001744396,-0.008236939,0.5038574,-1.3806006,1.9031814,-2.0915282,-1.5708541,2.4791856,-0.040722005,0.029485924,-0.039536636,0.012414394,-0.0007480639,-0.03246418,-0.038307227,0.24899697,-9.519346,0.6926589,47.719128,-0.75755584,-2.5058846,-3.3027828,-0.063237146,-0.10837494,-0.2551773,28.75,30.125,29.3125,32.8125,35.375,36.5
0.06405173,-0.7369075,-0.68418795,-1.4592612,-0.03103925,0.039714657,-0.16077957,-0.39011905,-0.36839524,0.059915055,-3.078411,0.6253861,-0.00020148446,-0.027987767,0.00991433,0.0010831075,0.0016233758,-0.001744919,-0.009067029,0.5037491,-1.3805763,1.9030617,-2.0915158,-1.5708417,2.479065,-0.042405482,0.030244747,-0.041237023,0.013301537,-0.00064797583,-0.033317085,-0.095768064,0.28730422,-9.404425,0.7150385,47.650166,-0.8177123,-2.4592755,-3.338808,-0.070925504,-0.093172476,-0.270221,28.75,30.125,29.3125,32.8125,35.375,36.5
0.06605261,-0.5710226,-0.7924074,-1.3189858,-0.018839344,0.050711554,-0.1656162,-0.3901527,-0.3683623,0.059900623,-3.0783412,0.62544817,-0.00024748838,-0.028465169,0.009794861,0.0011712634,0.0015767311,-0.0016367822,-0.007928454,0.5036771,-1.380516,1.9030126,-2.091468,-1.5708655,2.4790406,-0.04263737,0.03102963,-0.042433877,0.013595276,-0.00066384085,-0.034686904,-0.1340753,0.2681506,-9.3661175,0.784413,47.71823,-0.8341806,-2.4899907,-3.269248,-0.0790147,-0.103099324,-0.27005643,28.75,30.125,29.3125,32.8125,35.375,36.5
0.06805256,-1.6571391,-0.7771957,-1.2826246,-0.0053205206,0.030423164,-0.14686902,-0.3902174,-0.3683319,0.05988649,-3.0782955,0.6254198,-0.00028220462,-0.02984825,0.010266877,0.001308074,0.0013924451,-0.0014396776,-0.00956792,0.5035807,-1.3804073,1.9029053,-2.09142,-1.5708898,2.4789324,-0.04475404,0.032221075,-0.04423604,0.013943214,-0.00060278416,-0.03516331,-0.2681506,0.15322891,-9.385271,0.72622824,47.70211,-0.8109324,-2.4808712,-3.331093,-0.079077736,-0.10045871,-0.29469284,28.75,30.125,29.3125,32.8125,35.375,36.5
0.07005259,-1.889609,-0.6883899,-1.248285,0.0016012193,0.032624327,-0.1515573,-0.39028722,-0.3683546,0.059913114,-3.07838,0.62551343,-0.00027076053,-0.030559823,0.010320313,0.0011430724,0.0013502085,-0.0013153356,-0.008796053,0.5035085,-1.3803469,1.9027733,-2.09142,-1.5708174,2.4789078,-0.045484737,0.033431195,-0.04521114,0.013581328,-0.0006268784,-0.03666525,-0.15322891,0.17238252,-9.346964,0.83589023,47.745995,-0.83598185,-2.4017222,-3.3091288,-0.086907215,-0.11865811,-0.30811816,28.75,30.125,29.3125,32.8125,35.375,36.5
0.072052754,-1.4978726,-0.64065284,-1.1410334,0.0055136033,0.050328,-0.14321844,-0.39034036,-0.36833662,0.059919033,-3.0783746,0.62545305,-0.00027305383,-0.031352203,0.0103058405,0.0012163144,0.0012680752,-0.0011996505,-0.0073401625,0.50343645,-1.3802865,1.9026774,-2.0913723,-1.5708297,2.4787989,-0.0462018,0.034566704,-0.046790868,0.013883764,-0.0006148064,-0.03883743,-0.22984336,0.095768064,-9.289503,0.7351769,47.691364,-0.86034936,-2.4788992,-3.2402778,-0.06987877,-0.118971586,-0.30572957,28.75,30.125,29.3125,32.8125,35.375,36.5
0.07405602,-1.721437,0.04753692,-0.9774384,-0.006533486,0.05318653,-0.15925379,-0.39043114,-0.3682922,0.059914187,-3.0783231,0.62557775,-0.00026318923,-0.032793358,0.010841723,0.0017285311,0.00071190076,-0.00022893588,-0.008381369,0.50329196,-1.3801901,1.9025692,-2.0913484,-1.5708536,2.4787388,-0.048445996,0.03480823,-0.048272397,0.014003931,-0.0005998579,-0.04003982,-0.36391866,0.11492168,-9.251195,0.7530795,47.647476,-0.8154574,-2.4254527,-3.2871628,-0.08983386,-0.15077236,-0.32773668,28.75,30.125,29.3125,32.8125,35.375,36.5
0.07605257,-2.183506,-0.451868,-1.0037305,0.011169864,0.050453715,-0.15180947,-0.3904984,-0.36826238,0.059910234,-3.0783238,0.6256553,-0.0002630233,-0.0338463,0.011451806,0.0019351584,0.00069555815,-0.0002435271,-0.0104196565,0.5031716,-1.38013,1.9025096,-2.0913594,-1.5708417,2.4786668,-0.050458472,0.03533217,-0.04953218,0.014745023,-0.0005791606,-0.040013537,-0.47884035,0.019153614,-9.251195,0.7866488,47.65643,-0.7216916,-2.439063,-3.2897434,-0.08905582,-0.12779787,-0.33567783,28.75,30.125,29.3125,32.8125,35.375,36.5
0.07805248,-1.6537173,-0.014959003,-1.05632,0.0015427626,0.06814219,-0.15716517,-0.39054316,-0.36825112,0.05990939,-3.0783095,0.62566787,-0.00037221945,-0.033366997,0.010807269,0.0012701844,0.0012602835,-0.0013717056,-0.005574243,0.5030883,-1.3800455,1.9023899,-2.091264,-1.5708054,2.478593,-0.04895048,0.037088875,-0.050120514,0.014838207,-0.0005348532,-0.043350503,-0.4213795,0.038307227,-9.251195,0.7239871,47.703903,-0.9007389,-2.3730683,-3.2948027,-0.10626404,-0.121171094,-0.34887752,28.75,30.125,29.3125,32.8125,35.375,36.5
0.08005246,-1.789898,-0.14399412,-1.1861982,0.002370286,0.06315943,-0.15868159,-0.39059633,-0.36822385,0.05989143,-3.0783017,0.6255704,-0.00033487193,-0.0354185,0.011272093,0.0014889734,0.001046419,-0.00092745625,-0.005650022,0.50301546,-1.3799726,1.9023527,-2.0913002,-1.5708417,2.4784606,-0.051617786,0.039156687,-0.05317977,0.01533548,-0.0005682938,-0.045940455,-0.45968673,0.038307227,-9.289502,0.75755644,47.66987,-0.8362384,-2.4229543,-3.3156939,-0.09889868,-0.13616808,-0.31884778,28.75,30.125,29.3125,32.8125,35.375,36.5
0.08205257,-1.7628777,0.12270331,-1.2494235,-0.00080373534,0.060443975,-0.16016273,-0.39066076,-0.36820674,0.05990983,-3.0783036,0.62556833,-0.00036158887,-0.03655222,0.011708038,0.0018000761,0.0006837066,-0.00022470973,-0.003294382,0.5029192,-1.3799124,1.9022206,-2.0912163,-1.5708297,2.4783628,-0.05338256,0.039498273,-0.054288205,0.015311827,-0.0005940654,-0.050060313,-0.47884035,0.019153614,-9.385271,0.73069996,47.695843,-0.86205065,-2.4493349,-3.1528442,-0.114279956,-0.13209388,-0.30132937,28.75,30.125,29.3125,32.8125,35.375,36.5
0.08405694,-2.1101978,-0.40511352,-1.235557,0.006332433,0.048600152,-0.14976564,-0.39073998,-0.36818162,0.05991146,-3.078312,0.6255128,-0.00033863945,-0.0361576,0.013294842,-0.0001833862,0.002963367,-0.0042851516,-0.004552957,0.5028106,-1.3798276,1.9021138,-2.0912035,-1.5708417,2.4782186,-0.05565437,0.041595366,-0.052413568,0.01599588,-0.0006292109,-0.05107399,-0.49799395,-0.05746084,-9.385271,0.779936,47.679718,-0.7374878,-2.436232,-3.375963,-0.12550321,-0.15154934,-0.2884183,28.75,30.125,29.3125,32.8125,35.375,36.5
0.08605238,-1.4729733,-0.4017782,-1.3371044,-1.1122059e-05,0.06838809,-0.15510581,-0.390841,-0.36815068,0.0599336,-3.078295,0.62562203,-0.0002706019,-0.03670093,0.011960038,0.00068478996,0.001961179,-0.0017703186,-0.0012141234,0.50267965,-1.3797553,1.9019698,-2.0911682,-1.570866,2.478158,-0.053690646,0.04196045,-0.054635454,0.015165824,-0.0009686931,-0.05244746,-0.51714754,-0.038307227,-9.3661175,0.784413,47.70211,-0.8812467,-2.437043,-3.3042905,-0.14282842,-0.13950133,-0.31509656,28.75,30.125,29.3125,32.8125,35.375,36.5
0.08805221,-1.6217648,-0.6653582,-1.2150158,0.0055620167,0.063809566,-0.14683615,-0.39091808,-0.36812875,0.059948277,-3.0782998,0.62560177,-0.00027007173,-0.039229635,0.011974646,0.0011830551,0.0013062465,-0.0003040969,0.0006892349,0.502571,-1.3796824,1.9018368,-2.0911086,-1.570866,2.4780362,-0.055969816,0.04452953,-0.058813028,0.01517366,-0.0011118611,-0.05662763,-0.38307226,-0.038307227,-9.270349,0.7172743,47.72719,-0.8844842,-2.5323567,-3.2589836,-0.14756617,-0.1581739,-0.25450414,28.75,30.125,29.3125,32.8125,35.375,36.5
0.09005216,-1.8455217,-0.5292386,-1.3897791,0.0031262888,0.057162125,-0.15458456,-0.39100105,-0.36812264,0.059935424,-3.0783038,0.6255629,-0.00021852931,-0.03987636,0.012693941,0.0010632447,0.0016439646,9.9531906e-05,0.0024382882,0.5024986,-1.3795501,1.9017175,-2.0911443,-1.5708903,2.4779391,-0.057464674,0.044612326,-0.05851407,0.014600574,-0.0016028149,-0.05987074,-0.30645782,0.076614454,-9.3661175,0.7709874,47.719128,-0.89898074,-2.498505,-3.2015386,-0.14940023,-0.1465939,-0.23403004,28.75,30.125,29.3125,32.8125,35.375,36.5
0.09205202,-2.0669332,-0.85998976,-1.6244732,-0.0006360362,0.0435999,-0.14432919,-0.3910716,-0.36808518,0.05993734,-3.0782948,0.6255779,-0.00028907735,-0.039524235,0.013221697,9.2542876e-05,0.0029255033,-0.0020434065,0.005281453,0.5023548,-1.3794777,1.9016112,-2.0910723,-1.570866,2.4778059,-0.05795778,0.045905843,-0.057993345,0.015282591,-0.0016951545,-0.06320686,-0.3256114,0.17238252,-9.404425,0.7418897,47.72719,-0.9603113,-2.484921,-3.3780737,-0.14292005,-0.16313791,-0.20552827,28.75,30.125,29.3125,32.8125,35.375,36.5
0.09405203,-1.5910945,-0.96944606,-1.345161,-0.020253861,0.049524635,-0.14818579,-0.39116424,-0.36804166,0.059939373,-3.078278,0.6255735,-0.00026252092,-0.04108684,0.013102378,0.0005664575,0.0024858722,-0.000780006,0.0065341415,0.5022106,-1.3793931,1.901501,-2.0910485,-1.5708903,2.4776611,-0.059054423,0.04732589,-0.06076199,0.0153108025,-0.001925182,-0.06555443,-0.28730422,0.1340753,-9.385271,0.7530795,47.694946,-0.9365121,-2.4639108,-3.3189883,-0.1675834,-0.1606442,-0.16947237,28.75,30.125,29.3125,32.8125,35.375,36.5
0.096052215,-1.3236401,-0.9172383,-1.3362931,-0.023116069,0.050519813,-0.14602011,-0.39123878,-0.368002,0.05992153,-3.0782454,0.6256234,-0.00033380179,-0.041751914,0.013130852,0.0006952039,0.002478376,-0.0005171205,0.007921371,0.50206685,-1.3792847,1.9014052,-2.0910122,-1.5708779,2.4775527,-0.059630692,0.048099346,-0.06203562,0.0155776,-0.0020515928,-0.067517,-0.2681506,0.15322891,-9.442732,0.76874626,47.694946,-0.9770663,-2.452933,-3.3500614,-0.19014311,-0.15872006,-0.1210681,28.75,30.125,29.3125,32.8125,35.375,36.5
0.098052405,-0.8780532,-1.0170612,-1.4182739,-0.019057093,0.056128327,-0.14910145,-0.39132103,-0.36798465,0.05992318,-3.0782585,0.62560546,-0.00037417325,-0.04264313,0.013676025,0.00048261532,0.003306288,-0.00054325274,0.008172764,0.5019466,-1.3791763,1.9012622,-2.090964,-1.5708545,2.4774196,-0.060917202,0.049358398,-0.06309849,0.015806414,-0.0027684006,-0.069052905,-0.2681506,0.15322891,-9.557653,0.7396539,47.66539,-0.9740921,-2.4020967,-3.3709412,-0.19513284,-0.15517285,-0.096188694,28.75,30.125,29.3125,32.8125,35.375,36.5
0.10005234,-0.77524906,-0.93784237,-1.4028884,-0.030190378,0.05543676,-0.15739346,-0.39142036,-0.36796004,0.05992432,-3.078228,0.62552285,-0.00031357468,-0.04336105,0.014426665,-0.0005961728,0.005976098,-0.0015988864,0.0074491794,0.5018506,-1.3790431,1.9010938,-2.0909283,-1.5709151,2.477276,-0.06169235,0.052327733,-0.06425429,0.016204964,-0.0046030516,-0.06910007,-0.17238252,0.19153613,-9.500193,0.78217715,47.70838,-0.99847555,-2.5102272,-3.3484926,-0.2042464,-0.1322133,-0.09034844,28.75,30.125,29.3125,32.8125,35.375,36.5
0.10205237,-0.7226216,-0.66298914,-1.3526833,-0.033832923,0.051728316,-0.1523314,-0.3914789,-0.36792532,0.05990584,-3.0782216,0.6254825,-0.00036848855,-0.044587076,0.014629056,0.0009961094,0.0057767867,0.0016299539,0.0064341007,0.5017307,-1.3789595,1.9010342,-2.0909164,-1.5709037,2.4771318,-0.06229848,0.050605487,-0.0659563,0.016707895,-0.0059865452,-0.0686879,-0.17238252,0.30645782,-9.481039,0.7911258,47.70211,-1.0849816,-2.5043533,-3.3313766,-0.22624277,-0.113899514,-0.038165048,28.75,30.125,29.3125,32.8125,35.375,36.5
0.10405224,-0.73142844,-0.770953,-1.3801277,-0.026445003,0.04696082,-0.14968447,-0.3915859,-0.3678911,0.05992632,-3.0782242,0.6254648,-0.00036853142,-0.046316236,0.01609306,0.0008880056,0.0087945,0.0033980538,0.004014212,0.5015744,-1.3788631,1.9008545,-2.0908325,-1.5709046,2.4769642,-0.064170144,0.051901247,-0.06722031,0.016588751,-0.009485721,-0.068132125,-0.095768064,0.28730422,-9.3661175,0.7665104,47.661808,-1.0467222,-2.3371093,-3.4012463,-0.21763259,-0.07423178,-0.06849706,28.75,30.125,29.3125,32.8125,35.375,36.5
0.10605169,-0.6511151,-0.68990934,-1.4827392,-0.027061416,0.04631138,-0.15136273,-0.3916772,-0.36786982,0.059917342,-3.0782306,0.62546647,-0.00035477118,-0.047221363,0.017132953,0.00047151698,0.011655288,0.0036374964,0.001954117,0.5014544,-1.3787425,1.9007348,-2.0908444,-1.5709056,2.4768445,-0.06511171,0.05345565,-0.06826965,0.017257605,-0.012109027,-0.06700802,-0.095768064,0.21068975,-9.423578,0.7777002,47.67614,-1.0506992,-2.5323489,-3.3420687,-0.21595928,-0.02485645,-0.059506617,28.75,30.125,29.3125,32.8125,35.375,36.5
0.108051665,-0.5543257,-0.77238435,-1.4211576,-0.025663102,0.047753662,-0.15177673,-0.39178473,-0.36782795,0.05990403,-3.0781696,0.6254934,-0.0003083066,-0.048657574,0.018037604,-0.0005415122,0.014346023,0.003958216,-0.00032481557,0.50132215,-1.3785971,1.9005903,-2.0908325,-1.5709666,2.476737,-0.06638242,0.056711916,-0.06962625,0.016373677,-0.014628515,-0.065993585,-0.038307227,0.24899697,-9.3661175,0.75084364,47.685097,-1.0767899,-2.5383344,-3.342436,-0.22627653,0.033343077,-0.08394281,28.75,30.125,29.3125,32.8125,35.375,36.5
0.11005691,-0.52159995,-0.91234595,-1.3115389,-0.028383607,0.03997438,-0.14779827,-0.39188746,-0.3678065,0.059940055,-3.0782316,0.62542975,-0.00022347906,-0.049589023,0.017426731,0.0009626473,0.0102998065,0.005286529,-0.0033823592,0.5011899,-1.3785497,1.9004468,-2.0908086,-1.5709652,2.4765573,-0.068014234,0.054989144,-0.07100789,0.01635694,-0.011716278,-0.06457411,0.019153614,0.2681506,-9.385271,0.7665104,47.66987,-1.0253955,-2.549306,-3.3615055,-0.2284123,0.03454122,-0.09221983,28.75,30.125,29.3125,32.8125,35.375,36.5
0.11205183,-0.55177355,-1.004898,-1.4135418,-0.02771787,0.019941274,-0.14350928,-0.39199308,-0.36776635,0.05992941,-3.0781744,0.62549585,-0.00021916871,-0.049721558,0.016136905,0.0011835902,0.0061670206,0.0033787112,-0.005813601,0.5010461,-1.3784053,1.9002918,-2.0907724,-1.571,2.4764621,-0.06877708,0.05591147,-0.0727143,0.016809113,-0.0071786856,-0.06291329,0.0,0.30645782,-9.308657,0.7620334,47.694946,-1.0933521,-2.375734,-3.427494,-0.23538898,-0.0025496774,-0.12127304,28.75,30.125,29.3125,32.8125,35.375,36.5
0.11405185,-0.48342532,-0.94516844,-1.7038192,-0.04054897,0.0018489289,-0.14756447,-0.3920775,-0.36774176,0.059918996,-3.0781596,0.6254547,-0.00026410935,-0.04977541,0.015643006,0.00035779356,0.0047524543,0.00021804751,-0.007877909,0.50092584,-1.3782722,1.9001468,-2.0907242,-1.570999,2.4763181,-0.069699615,0.058494404,-0.074104294,0.017698633,-0.0044227326,-0.06177575,-0.019153614,0.24899697,-9.308656,0.7732232,47.690468,-1.1188859,-2.5435562,-3.3655849,-0.24457219,-0.02556207,-0.14879638,28.75,30.125,29.3125,32.8125,35.375,36.5
0.11605219,-0.67004955,-0.8370827,-1.3805301,-0.035252076,-0.0042586033,-0.14480373,-0.3921816,-0.3677121,0.059916075,-3.0781343,0.62548786,-0.00024200355,-0.049906548,0.01531061,0.00040337493,0.003120227,-0.0009355616,-0.009194985,0.50079405,-1.37814,1.8999914,-2.0907,-1.5710224,2.4762104,-0.070481144,0.058944117,-0.0748698,0.018233594,-0.0024375587,-0.06124375,-0.05746084,0.05746084,-9.308657,0.7777002,47.651955,-1.1897792,-2.4478223,-3.4290648,-0.25171125,-0.05189275,-0.1857763,28.75,30.125,29.3125,32.8125,35.375,36.5
0.118052125,-0.7412628,-0.9634295,-1.5463277,-0.012346093,0.019724756,-0.14000331,-0.39226636,-0.36770517,0.059925783,-3.0782094,0.6254272,-0.00024571823,-0.052548118,0.01427202,0.00227779,0.0005374024,0.0026267534,-0.010634052,0.50067383,-1.3780555,1.8998693,-2.0907004,-1.5709742,2.4760427,-0.071504794,0.05988852,-0.080281265,0.018336572,-0.0018910576,-0.060827162,-0.095768064,0.095768064,-9.423578,0.7284641,47.70032,-1.2363999,-2.5200057,-3.1746655,-0.2519547,-0.051612295,-0.18425168,28.75,30.125,29.3125,32.8125,35.375,36.5
0.12005206,-1.3547729,-0.51441574,-1.432522,-0.003616005,0.03161028,-0.14211862,-0.3923816,-0.36765736,0.059930846,-3.0781543,0.62553,-0.00027976546,-0.051403478,0.014918739,0.00094339164,0.0018696814,-0.00020911773,-0.010320844,0.5004941,-1.3779233,1.8996795,-2.0906045,-1.5709862,2.4759343,-0.07163429,0.060485084,-0.07801979,0.018604016,-0.0016957188,-0.061271034,-0.095768064,0.13407528,-9.461885,0.8023209,47.704796,-1.2481021,-2.3803859,-3.35185,-0.27091095,-0.051288947,-0.2514698,28.75,30.125,29.3125,32.8125,35.375,36.5
0.12205202,-0.8357113,-0.2340752,-1.4718337,-0.0105411075,0.06697937,-0.14882402,-0.39246896,-0.36761484,0.059902076,-3.0780835,0.6255931,-0.00035671552,-0.053754836,0.015900932,0.0005138539,0.0021306556,-0.0012434875,-0.012285345,0.5003491,-1.3777659,1.8995475,-2.090556,-1.5709981,2.4758377,-0.07560711,0.063901305,-0.08130287,0.019501155,-0.001439335,-0.063278,-0.15322891,0.19153613,-9.346964,0.800085,47.678825,-1.1745722,-2.624821,-3.380228,-0.29743126,-0.07079397,-0.23100483,28.75,30.125,29.3125,32.8125,35.375,36.5
0.12405191,-1.3955647,-0.87514395,-1.5491782,-0.0062093325,0.058922343,-0.15064912,-0.39257455,-0.36759686,0.059907127,-3.0781138,0.62561667,-0.0003521074,-0.05415104,0.014481452,0.0022228835,0.00014589388,0.0015621679,-0.012270268,0.50020635,-1.3776463,1.8993915,-2.090544,-1.5709742,2.4757059,-0.07381043,0.062564485,-0.08368297,0.019804638,-0.0010456637,-0.06149651,-0.24899697,0.076614454,-9.3661175,0.8112748,47.683304,-1.2522116,-2.4141653,-3.1724992,-0.30646116,-0.08704354,-0.2916777,28.75,30.125,29.3125,32.8125,35.375,36.5
0.12605235,-1.3848094,-0.90770173,-1.8582368,-0.015135603,0.054956414,-0.14474484,-0.39269567,-0.3675589,0.059900913,-3.0780778,0.6257065,-0.000356317,-0.054149196,0.015575158,0.0016439457,0.0011980274,-0.00036782163,-0.013979273,0.50003785,-1.3774899,1.8992122,-2.0905077,-1.5709862,2.475598,-0.07562924,0.06289894,-0.083049566,0.021034013,-0.0010400324,-0.06160666,-0.40222588,0.095768064,-9.481039,0.7620334,47.623295,-1.3483541,-2.4321072,-3.3240585,-0.30918688,-0.07886381,-0.31514877,28.75,30.125,29.3125,32.8125,35.375,36.5
0.1280523,-0.97958344,-0.92348313,-1.7725815,-0.027721805,0.06860995,-0.14457142,-0.3927813,-0.3674966,0.059899483,-3.0780213,0.6256938,-0.00040612117,-0.056286447,0.0169468,0.00029472422,0.00258066,-0.0025024763,-0.014894666,0.49986875,-1.3774041,1.8990921,-2.090412,-1.57101,2.4754283,-0.07977227,0.06747044,-0.08549541,0.021442669,-0.0012405796,-0.064832166,-0.40222588,0.15322891,-9.461885,0.7978386,47.690468,-1.1924899,-2.6065474,-3.2815013,-0.33188224,-0.09459393,-0.34523183,28.75,30.125,29.3125,32.8125,35.375,36.5
0.13005246,-1.7875991,-1.0619174,-1.7338967,-0.026949465,0.06816415,-0.13938364,-0.392898,-0.36749724,0.05992034,-3.0780487,0.62568045,-0.00036244336,-0.056376856,0.015626216,0.0019802435,0.0010612296,0.0007182165,-0.014785342,0.49976194,-1.3772607,1.8988637,-2.0903637,-1.57101,2.4753098,-0.07748141,0.065541446,-0.087032184,0.021354854,-0.0014507115,-0.06264995,-0.45968673,0.19153613,-9.5385,0.86945957,47.703903,-1.3967593,-2.4516978,-3.286632,-0.3439004,-0.08820841,-0.3692417,28.75,30.125,29.3125,32.8125,35.375,36.5
0.13205227,-1.9093567,-1.100348,-1.7525455,-0.014339119,0.08134845,-0.13554958,-0.39299878,-0.36748695,0.059904736,-3.0780673,0.6256845,-0.00041497237,-0.057675123,0.016433416,0.001517795,0.0009905784,0.0007415452,-0.017063633,0.4996292,-1.3770921,1.8986968,-2.0903523,-1.5709742,2.4751773,-0.08004636,0.06696984,-0.08744149,0.020283278,-0.0014042518,-0.06293622,-0.51714754,0.17238252,-9.519346,0.78217715,47.695843,-1.3151469,-2.4187508,-3.3542876,-0.34332937,-0.08657573,-0.43012506,28.75,30.125,29.3125,32.8125,35.375,36.5
0.13405216,-1.6253982,-0.37200645,-1.5260526,-0.017995793,0.1075634,-0.15155719,-0.3931303,-0.3674147,0.05990206,-3.0780005,0.6258036,-0.00043532136,-0.05891613,0.016885176,0.0014059158,0.00077706826,0.0009391948,-0.016059889,0.4994011,-1.3769596,1.8985294,-2.0902808,-1.5709981,2.475032,-0.08197843,0.06828997,-0.08867844,0.01992139,-0.0013190828,-0.06587144,-0.47884035,0.076614454,-9.557653,0.85155696,47.689575,-1.3066347,-2.4282541,-3.3409302,-0.32915968,-0.10949792,-0.46068898,28.75,30.125,29.3125,32.8125,35.375,36.5
0.13605238,-1.8189396,-0.13307047,-1.8275391,-0.008638987,0.10023529,-0.15108795,-0.3932385,-0.36740908,0.059904728,-3.078043,0.6258104,-0.00044469823,-0.059374798,0.017030543,0.0015302813,0.00051910314,0.0009919571,-0.013835997,0.4992692,-1.3768154,1.8983496,-2.0902684,-1.5709618,2.474899,-0.08274777,0.06854166,-0.089318626,0.020140808,-0.0011189313,-0.06886486,-0.45968673,0.076614454,-9.519346,0.80456203,47.675243,-1.3822062,-2.4389334,-3.3306394,-0.33586878,-0.105780914,-0.4501198,28.75,30.125,29.3125,32.8125,35.375,36.5
0.13805237,-1.9800617,-0.51667345,-1.7427378,0.0018998527,0.09009679,-0.14811906,-0.39337426,-0.36734813,0.05989783,-3.0779903,0.62585664,-0.00043657277,-0.06269972,0.017667936,0.0028298255,-0.0010581743,0.003751498,-0.014502993,0.49906397,-1.3766589,1.8981689,-2.0902207,-1.5709981,2.4747295,-0.08689006,0.06955331,-0.0934771,0.020105895,-0.001067522,-0.07233843,-0.51714754,0.11492168,-9.500193,0.7933669,47.684196,-1.1155233,-2.3940444,-3.2929983,-0.35639158,-0.11558099,-0.4608714,28.75,30.125,29.3125,32.8125,35.375,36.5
0.14005233,-1.824301,-0.37703824,-1.5287077,0.0031471842,0.08047656,-0.14826572,-0.39350963,-0.36732757,0.059910428,-3.0780222,0.62589586,-0.00039360247,-0.061515957,0.017494706,0.0019238521,-0.0001641871,0.0021821093,-0.0056122,0.4988971,-1.3765144,1.8979663,-2.0902088,-1.5709862,2.4745831,-0.085459396,0.0700802,-0.09200597,0.01991247,-0.0010991351,-0.079799056,-0.61291564,0.05746084,-9.500193,0.83589023,47.682407,-1.3527269,-2.414223,-3.3928747,-0.3468146,-0.10571214,-0.39126283,28.75,30.125,29.3125,32.8125,35.375,36.5
0.14205226,-1.4171327,-0.27863398,-1.7726994,-0.0016788237,0.08858719,-0.14354168,-0.3936506,-0.36729693,0.05992871,-3.0780528,0.6259023,-0.0003367119,-0.06505342,0.018716617,0.0028126885,-0.0014324022,0.0044226553,-0.008149367,0.49871564,-1.376382,1.8977622,-2.090185,-1.5709862,2.474402,-0.09076507,0.07141234,-0.09552921,0.019528294,-0.0010628826,-0.08256605,-0.59376204,0.038307227,-9.500193,0.8247004,47.684196,-1.287643,-2.3461802,-3.3393283,-0.34541577,-0.13437533,-0.4102325,28.75,30.125,29.3125,32.8125,35.375,36.5
0.14405216,-1.8414837,-0.21951905,-1.7476379,-0.0039909286,0.074085,-0.14658722,-0.3937402,-0.36725548,0.059900846,-3.0780113,0.62588847,-0.00047773583,-0.06484553,0.018510934,0.0023333654,-0.0010261525,0.0041538123,-0.000774882,0.49854824,-1.3762134,1.8976067,-2.0901015,-1.5709618,2.4742312,-0.09005711,0.07228749,-0.095347226,0.018902568,-0.0013035123,-0.089231886,-0.45968673,-0.076614454,-9.5385,0.78888994,47.661808,-1.2856064,-2.3393679,-3.281115,-0.3418305,-0.12014398,-0.35441738,28.75,30.125,29.3125,32.8125,35.375,36.5
0.14605236,-1.5570434,0.10127656,-1.6261091,-0.00795051,0.07289086,-0.15168111,-0.39386803,-0.36721128,0.059915747,-3.0780141,0.6258498,-0.00039810207,-0.067510284,0.019986363,0.0029190131,-0.0007132301,0.0057184063,0.0006865412,0.49837902,-1.3761051,1.8974389,-2.0900776,-1.5709985,2.4740376,-0.09432471,0.07316136,-0.09780321,0.019258643,-0.002330204,-0.094957784,-0.49799395,-0.076614454,-9.500193,0.800085,47.681515,-1.2260315,-2.2811644,-3.3402133,-0.34701592,-0.13746484,-0.27070343,28.75,30.125,29.3125,32.8125,35.375,36.5
0.14805223,-1.0950524,-0.2891096,-1.6266085,-0.0077678845,0.08569132,-0.1455209,-0.39402625,-0.36717904,0.05994176,-3.0780466,0.6258356,-0.00031631184,-0.068987265,0.02099106,0.0027735143,-0.00028772547,0.005715057,0.0013971395,0.49818656,-1.3759605,1.8972,-2.0900419,-1.5710105,2.4738324,-0.09710704,0.07443478,-0.099027105,0.019414177,-0.0026999263,-0.09844946,-0.53630114,-0.038307227,-9.423578,0.80679786,47.703903,-1.0836678,-2.2565084,-3.3715687,-0.34327987,-0.1299336,-0.2324414,28.75,30.125,29.3125,32.8125,35.375,36.5
0.15005217,-1.4870585,-0.10645986,-1.7518044,-0.0050755143,0.074593894,-0.1470556,-0.39415592,-0.3671072,0.05990235,-3.0779755,0.62595284,-0.00040355214,-0.06988989,0.021717943,0.0026663404,-0.00015557978,0.0055604177,0.0030653698,0.49794647,-1.3757681,1.897056,-2.090018,-1.5710105,2.4736745,-0.099095166,0.075086564,-0.09959748,0.019530246,-0.002751178,-0.10210524,-0.49799395,-0.076614454,-9.481039,0.80456203,47.691364,-0.9898952,-2.3088527,-3.3457959,-0.338525,-0.12752871,-0.18905604,28.75,30.125,29.3125,32.8125,35.375,36.5
0.15205215,-1.1171758,0.03955329,-1.5736341,-0.014501343,0.08397869,-0.15580729,-0.39432612,-0.3671017,0.059949543,-3.078083,0.6258605,-0.00030098736,-0.071405396,0.022739936,0.0022786285,0.0004499162,0.0050329096,0.0011248838,0.49776587,-1.3756233,1.8967685,-2.0899813,-1.5709866,2.4734228,-0.10199696,0.076996796,-0.10106109,0.019838987,-0.0030225674,-0.10306547,-0.47884035,-0.076614454,-9.442732,0.78888994,47.67614,-0.98452675,-2.2546234,-3.4001682,-0.3374192,-0.1381388,-0.14158356,28.75,30.125,29.3125,32.8125,35.375,36.5
0.15405603,-1.3103437,-0.43355662,-1.6215074,-0.016576549,0.08229616,-0.14445713,-0.3944935,-0.3670263,0.059957623,-3.0780196,0.62588656,-0.00020255614,-0.072696835,0.023486765,0.0020283258,0.001064646,0.005239654,-0.0017856327,0.49753773,-1.3754666,1.8965534,-2.089934,-1.571071,2.4732192,-0.104003474,0.0784916,-0.10222553,0.019613706,-0.0036619506,-0.10215957,-0.59376204,0.038307227,-9.500193,0.7620334,47.660015,-0.8898277,-2.3206265,-3.404529,-0.3266794,-0.1196969,-0.14119902,28.75,30.125,29.3125,32.8125,35.375,36.5
0.15605184,-1.6550614,0.07073852,-1.6066035,-0.024975905,0.07975185,-0.14978394,-0.3946158,-0.36698678,0.05995469,-3.0780451,0.6259889,-0.00026381548,-0.07389672,0.02388214,0.0023999591,0.0017892062,0.0069474885,-0.00586863,0.49732193,-1.3753341,1.8963975,-2.0899103,-1.5710114,2.473064,-0.104833715,0.079013616,-0.10364368,0.019366255,-0.00511482,-0.098903336,-0.6895301,0.05746084,-9.461885,0.8605109,47.68599,-0.90258205,-2.333372,-3.4067476,-0.32228863,-0.12255488,-0.15426922,28.75,30.125,29.3125,32.8125,35.375,36.5
0.15805185,-1.5458741,-0.040263966,-1.2948623,-0.019287378,0.10025612,-0.13568571,-0.3947628,-0.36695537,0.059960715,-3.0780463,0.62597305,-0.00023998319,-0.07526985,0.024515044,0.0024047075,0.0024129883,0.007549854,-0.011792781,0.49714154,-1.3751537,1.8961586,-2.089862,-1.5710233,2.4728737,-0.10660278,0.08033057,-0.10524244,0.019418458,-0.0059498586,-0.09474588,-0.68953013,0.038307227,-9.3661175,0.7418897,47.68599,-0.8536546,-2.3426073,-3.3689818,-0.33127686,-0.10303274,-0.1959117,28.75,30.125,29.3125,32.8125,35.375,36.5
0.16005184,-2.1446917,-0.5648357,-1.4856396,-0.005841163,0.100623965,-0.14409818,-0.39488688,-0.36689183,0.05992827,-3.0780015,0.62596434,-0.00035287047,-0.07586161,0.025256732,0.0021514196,0.0044164304,0.007959043,-0.016043352,0.49691403,-1.3749613,1.8959903,-2.089802,-1.5710124,2.4726465,-0.10714119,0.081210725,-0.105786614,0.019685948,-0.007911352,-0.091028966,-0.61291564,0.05746084,-9.461885,0.82694155,47.658226,-0.833729,-2.2458286,-3.42626,-0.31927067,-0.08727826,-0.26080823,28.75,30.125,29.3125,32.8125,35.375,36.5
0.16205196,-2.0515926,-0.76798517,-1.3750659,-0.0029016025,0.10336722,-0.1416726,-0.39504585,-0.36683103,0.05994713,-3.0779908,0.62603885,-0.00031452772,-0.07719605,0.025892287,0.0010849565,0.0072042434,0.007596444,-0.018022753,0.4966741,-1.3748277,1.8957752,-2.089742,-1.5710253,2.4724545,-0.10797856,0.08513634,-0.10802353,0.019650193,-0.010190796,-0.08988106,-0.53630114,0.11492168,-9.442732,0.7597976,47.690468,-0.9143127,-2.4145272,-3.510961,-0.30881476,-0.04353177,-0.27924785,28.75,30.125,29.3125,32.8125,35.375,36.5
0.16405372,-1.7673548,-0.4560548,-1.4469613,-0.005995879,0.09290783,-0.14194785,-0.39522013,-0.36678568,0.05996787,-3.0779681,0.62607235,-0.00016990841,-0.078026004,0.02575193,0.0025544914,0.0054737106,0.010436732,-0.017714879,0.4964825,-1.3746603,1.8955239,-2.0897186,-1.5710968,2.472287,-0.10856566,0.082976915,-0.10870083,0.019155964,-0.010019105,-0.09077705,-0.36391866,0.19153613,-9.346964,0.7597976,47.645687,-0.990064,-2.2615736,-3.379415,-0.3118929,-0.02169644,-0.31347603,28.75,30.125,29.3125,32.8125,35.375,36.5
0.1660517,-1.2045199,-0.48147625,-1.4899398,-0.009067243,0.072888725,-0.14752644,-0.39539558,-0.36673185,0.059974477,-3.0779727,0.62620556,-0.00011469966,-0.07858829,0.025379498,0.001884109,0.004967353,0.008922654,-0.017138852,0.49623102,-1.3744911,1.8953079,-2.0897186,-1.5710963,2.4721181,-0.10913417,0.0857423,-0.11050136,0.019274365,-0.008851178,-0.091923155,-0.22984336,0.17238252,-9.32781,0.83365434,47.67614,-1.0799465,-2.2218251,-3.5444355,-0.29469776,-0.035967905,-0.30957183,28.75,30.125,29.3125,32.8125,35.375,36.5
0.16805266,-0.8177762,-0.82971317,-1.3219646,-0.01575358,0.048674263,-0.13601118,-0.39555448,-0.36668286,0.05997894,-3.077964,0.62624097,-0.00011811106,-0.078859456,0.025218379,0.001489342,0.0043868283,0.0082242675,-0.017189136,0.49600318,-1.3743104,1.8950695,-2.0896585,-1.5710963,2.4719136,-0.109591685,0.08699505,-0.11101439,0.018867414,-0.008009452,-0.09233156,-0.19153613,0.17238252,-9.308656,0.73741806,47.723602,-0.9079859,-2.4768054,-3.4070938,-0.2680609,-0.023851106,-0.3321278,28.75,30.125,29.3125,32.8125,35.375,36.5
0.17005259,-0.6820582,-0.8854123,-1.3066902,-0.021396486,0.027672386,-0.1380442,-0.39570126,-0.36663067,0.059983384,-3.0779283,0.6262735,-5.6090223e-05,-0.08089695,0.025332337,0.002172562,0.0025734918,0.009423407,-0.019894768,0.49581078,-1.374154,1.8948654,-2.0896227,-1.571144,2.4717462,-0.11224171,0.088045746,-0.11378141,0.018656714,-0.006989364,-0.09227672,-0.28730422,0.15322891,-9.308656,0.7642693,47.703903,-1.1149908,-2.2832952,-3.4701,-0.26156515,-0.050570156,-0.38076574,28.75,30.125,29.3125,32.8125,35.375,36.5
0.17205247,0.037022334,-0.8371078,-1.4284841,-0.01901669,0.031181438,-0.14535727,-0.39588597,-0.36658883,0.06000245,-3.0779436,0.6263898,1.284307e-05,-0.081860244,0.024660986,0.0025094624,0.0015351042,0.009361466,-0.0185792,0.49557123,-1.3739733,1.8946017,-2.089598,-1.5711435,2.4715774,-0.112530254,0.08983259,-0.11688194,0.019525405,-0.0060446816,-0.09388158,-0.095768064,0.1340753,-9.193734,0.800085,47.685097,-0.9026062,-2.3509805,-3.3431082,-0.24755365,-0.040050983,-0.3677346,28.75,30.125,29.3125,32.8125,35.375,36.5
0.17405263,0.12632714,-0.5347035,-1.4535698,-0.028513433,0.033254005,-0.14270395,-0.39605266,-0.3665206,0.059978046,-3.0779002,0.62643754,7.992613e-06,-0.08245927,0.024882186,0.0023024674,0.0009362735,0.007994403,-0.020062001,0.49531907,-1.3737566,1.8943971,-2.0895865,-1.5711673,2.4713607,-0.114132345,0.09108773,-0.11812588,0.020424305,-0.0048690056,-0.094002336,0.0,0.19153613,-9.346964,0.7620334,47.694946,-1.0186527,-2.317926,-3.2801838,-0.23156781,-0.050810404,-0.40787667,28.75,30.125,29.3125,32.8125,35.375,36.5
0.1760517,-0.2790592,-0.8960105,-1.6139998,-0.034309037,0.03330933,-0.14217252,-0.3961843,-0.3664664,0.05995978,-3.0778503,0.62644196,-5.3838146e-05,-0.08315059,0.024987435,0.0020834208,0.00045057008,0.007385793,-0.0137384785,0.49511504,-1.3735641,1.8941935,-2.0895145,-1.5711793,2.471166,-0.115341686,0.092404716,-0.11922936,0.020507388,-0.004162338,-0.10153566,-0.038307227,0.30645782,-9.308656,0.7642693,47.693153,-0.961285,-2.234642,-3.3768184,-0.22852421,-0.051281556,-0.36905205,28.75,30.125,29.3125,32.8125,35.375,36.5
0.17805263,-0.07395194,-1.2260891,-1.5636052,-0.037649766,0.051821366,-0.14877324,-0.39638668,-0.3664323,0.059981946,-3.077911,0.6265112,-6.65714e-06,-0.08457934,0.02596713,0.0024676437,-0.00020644354,0.0073254136,-0.013819491,0.49485058,-1.3733597,1.8938946,-2.0894902,-1.571143,2.470937,-0.11861201,0.092571005,-0.12051131,0.021363242,-0.0035486552,-0.10472598,0.05746084,0.3256114,-9.308657,0.7530795,47.698532,-0.984139,-2.4525254,-3.2547297,-0.22440766,-0.052798793,-0.32476836,28.75,30.125,29.3125,32.8125,35.375,36.5
0.18005247,-1.0857185,-1.5595247,-1.9167955,-0.03516388,0.0212458,-0.1300764,-0.3965336,-0.36637658,0.05997814,-3.0778515,0.6264532,8.243629e-06,-0.08455606,0.02417924,0.003234735,-0.000671182,0.008121234,-0.0041935127,0.4946601,-1.3731672,1.8936552,-2.0894058,-1.5712031,2.4707181,-0.11556179,0.09377882,-0.12401762,0.022730488,-0.003527211,-0.11130025,0.076614454,0.3256114,-9.32781,0.8179876,47.65643,-1.1023064,-2.302095,-3.3680491,-0.20945324,-0.044066343,-0.29615653,28.75,30.125,29.3125,32.8125,35.375,36.5
0.18205234,0.056187283,-0.88981074,-1.5424527,-0.057396006,0.046604175,-0.1593506,-0.3966755,-0.36633596,0.05995551,-3.0778449,0.6264129,-5.060661e-05,-0.08564944,0.026276257,0.0012016381,0.0016180772,0.0044918656,-0.0031277079,0.49445474,-1.3729495,1.8934397,-2.08937,-1.5711907,2.4704885,-0.11985695,0.09745726,-0.12389859,0.02321334,-0.0038236373,-0.11666007,0.0,0.28730422,-9.346964,0.78217715,47.71823,-0.9486402,-2.482372,-3.3424356,-0.19901676,-0.053649537,-0.22284079,28.75,30.125,29.3125,32.8125,35.375,36.5
0.18405224,-0.6714907,-0.67142546,-1.563293,-0.05153274,0.019909691,-0.15249081,-0.39691016,-0.3662667,0.060014844,-3.07789,0.6265702,0.000120460834,-0.08627908,0.025155947,0.0027837502,0.00019369376,0.0077146753,0.00414999,0.49413234,-1.3728179,1.8931402,-2.0893342,-1.5712031,2.4702587,-0.118315004,0.096309334,-0.12610212,0.02304759,-0.004088642,-0.12239519,0.05746084,0.38307226,-9.346964,0.8247004,47.689575,-1.1441609,-2.3098123,-3.257164,-0.18720978,-0.065282166,-0.118558004,28.75,30.125,29.3125,32.8125,35.375,36.5
0.18605238,-0.5704466,-1.0110623,-1.6817415,-0.023475576,0.023647442,-0.13909039,-0.3970373,-0.36624724,0.05999341,-3.0779057,0.6264576,7.561965e-05,-0.08802679,0.025248231,0.002233653,0.0007661153,0.007322122,0.0037272738,0.49397612,-1.3726003,1.8929247,-2.08931,-1.5711907,2.4700303,-0.11982225,0.100138016,-0.12945972,0.02319519,-0.004416055,-0.12347716,0.076614454,0.30645782,-9.346964,0.77545905,47.687782,-1.1189983,-2.437182,-3.2588744,-0.17440605,-0.041888855,-0.13025594,28.75,30.125,29.3125,32.8125,35.375,36.5
0.18805218,-0.3545031,-0.6701119,-1.5276902,-0.02266466,0.03498682,-0.14148007,-0.39724034,-0.3661911,0.06001877,-3.0779178,0.62646145,0.00015736705,-0.08915391,0.02571747,0.0026716767,0.00051722385,0.00808795,-3.2721717e-05,0.4937121,-1.372408,1.8926247,-2.0892503,-1.571215,2.4697673,-0.12149012,0.10035126,-0.13080116,0.023528578,-0.0045538233,-0.121384524,-0.038307227,0.24899697,-9.270349,0.7620334,47.717335,-1.0707251,-2.4530218,-3.1225824,-0.16984558,-0.056876957,-0.08046827,28.75,30.125,29.3125,32.8125,35.375,36.5
0.19005208,-0.37903094,-1.2973154,-1.789577,-0.0029288116,0.045761358,-0.13305458,-0.39739555,-0.3661312,0.059988763,-3.0778944,0.62651503,4.6929414e-05,-0.09027538,0.02582605,0.0019449573,0.001120582,0.007254848,-0.0044826204,0.49344844,-1.3721787,1.8924092,-2.0892026,-1.5711797,2.46954,-0.122552834,0.10356953,-0.13300338,0.023537347,-0.0046998844,-0.11799548,-0.19153614,0.2681506,-9.385271,0.81351066,47.690468,-1.107354,-2.5250502,-3.168729,-0.13657802,-0.052765615,-0.1209352,28.75,30.125,29.3125,32.8125,35.375,36.5
0.19205202,-0.72501165,-0.80014205,-1.6297839,-0.01954957,0.05424849,-0.13317657,-0.39758587,-0.36608258,0.06000331,-3.0779018,0.6264987,0.00011160212,-0.090721846,0.02624102,0.0021241251,0.0012613934,0.0071768705,-0.009955061,0.49320856,-1.3719746,1.8921221,-2.089154,-1.5712036,2.4692893,-0.12354858,0.10359279,-0.1336222,0.024266923,-0.004779787,-0.11351867,-0.2873042,0.24899697,-9.423578,0.80456203,47.703903,-1.1272545,-2.53664,-3.1596138,-0.115391225,-0.032129705,-0.17430489,28.75,30.125,29.3125,32.8125,35.375,36.5
0.19405182,-1.2547307,-1.2007562,-1.5313073,-0.021631831,0.06404471,-0.13181221,-0.39776033,-0.36603427,0.060000703,-3.0778859,0.6265748,0.00010808755,-0.091209255,0.026733734,0.0019741305,0.0018574221,0.005816295,-0.015426582,0.49296865,-1.371758,1.8918594,-2.0891058,-1.5712031,2.469099,-0.124840654,0.10470702,-0.1350302,0.02604195,-0.004657427,-0.10933891,-0.34476504,0.24899697,-9.423578,0.7239871,47.705692,-1.1759226,-2.5009367,-3.1481705,-0.11709516,-0.046626512,-0.20971973,28.75,30.125,29.3125,32.8125,35.375,36.5
0.19605201,-1.4103354,-0.7466322,-1.6645496,-0.026245842,0.075554244,-0.14672126,-0.39791784,-0.36600646,0.059997797,-3.0779057,0.62656206,7.982982e-05,-0.091851495,0.027684482,0.0016658105,0.0022114574,0.0041933367,-0.020859107,0.4927642,-1.3715414,1.8915972,-2.0890572,-1.5711793,2.4688842,-0.12725435,0.10558138,-0.13570932,0.027445534,-0.0041982895,-0.10632066,-0.30645782,0.21068975,-9.423578,0.8112748,47.68062,-1.136699,-2.4678328,-3.2189317,-0.121327445,-0.048820265,-0.29132217,28.75,30.125,29.3125,32.8125,35.375,36.5
0.19805199,-1.5288016,-0.4381114,-1.7425112,-0.030040773,0.07806262,-0.14555146,-0.39810467,-0.36593595,0.059999634,-3.0778754,0.6266713,6.4024964e-05,-0.092470646,0.0282573,0.0016898985,0.0020186235,0.0036589222,-0.024134802,0.4924763,-1.3713372,1.8913335,-2.0889852,-1.5711793,2.4686685,-0.12897928,0.1058995,-0.13631292,0.028108828,-0.0037755282,-0.10477042,-0.36391866,0.1340753,-9.481039,0.76874626,47.694946,-1.0695488,-2.423511,-3.182865,-0.121337086,-0.049900115,-0.33645678,28.75,30.125,29.3125,32.8125,35.375,36.5
0.20005201,-0.6710928,-0.35071132,-1.6642659,-0.021640629,0.103792876,-0.14059559,-0.39830482,-0.36587968,0.060022425,-3.0778499,0.6266837,0.00016536193,-0.093538195,0.027489308,0.0022360506,0.0010769096,0.0046705515,-0.024582485,0.4922369,-1.3711325,1.8910216,-2.0889132,-1.5712384,2.4684403,-0.12881446,0.10734339,-0.1393492,0.028356692,-0.0034253413,-0.104157336,-0.51714754,0.05746084,-9.461885,0.84484416,47.688675,-1.0542197,-2.3568113,-3.2529325,-0.12814008,-0.077258825,-0.3760256,28.75,30.125,29.3125,32.8125,35.375,36.5
0.202052,-1.8953689,-0.19271055,-1.567759,-0.015001891,0.08281911,-0.14009415,-0.39850104,-0.36581835,0.060016077,-3.0778508,0.6267618,0.00016556938,-0.09344261,0.028482798,0.0017133242,0.001557074,0.003525439,-0.027418328,0.4919488,-1.3709043,1.8907589,-2.0888894,-1.5712265,2.468201,-0.13040785,0.10708206,-0.13787882,0.028384324,-0.0033019043,-0.10291581,-0.5746084,-0.095768064,-9.442732,0.784413,47.66091,-1.0170448,-2.4116035,-3.284338,-0.09704801,-0.06609368,-0.4405685,28.75,30.125,29.3125,32.8125,35.375,36.5
0.20405188,-1.6427888,0.2526098,-1.6016479,2.9604405e-05,0.08779799,-0.14054896,-0.3986782,-0.36579126,0.06002061,-3.0778806,0.6268639,0.0001688804,-0.094592094,0.029793106,-3.3216806e-05,0.0032546949,0.0005129722,-0.029651431,0.4917205,-1.3706865,1.8904837,-2.0888655,-1.5711902,2.4680326,-0.13354711,0.1111892,-0.13891123,0.0287696,-0.0033736944,-0.10382098,-0.5554548,-0.17238252,-9.461885,0.83365434,47.642998,-1.1763796,-2.4698825,-3.3529577,-0.09542837,-0.06810871,-0.46091563,28.75,30.125,29.3125,32.8125,35.375,36.5
0.20605205,-1.8062712,-0.16426763,-1.5336244,0.027882284,0.089529246,-0.13838904,-0.39884815,-0.365716,0.059994,-3.0778036,0.62697804,4.1121588e-05,-0.094188474,0.029355898,0.0015039764,0.00232261,0.0027416039,-0.024730118,0.49143362,-1.3704355,1.8902205,-2.0887573,-1.5711793,2.4678268,-0.13224116,0.10800226,-0.13878083,0.029420905,-0.0036133463,-0.107436255,-0.45968673,-0.19153613,-9.404425,0.8179876,47.69763,-1.1532366,-2.3206348,-3.491129,-0.079641595,-0.08271847,-0.48901606,28.75,30.125,29.3125,32.8125,35.375,36.5
0.2080519,-1.5957025,0.6095112,-1.1550465,0.017417107,0.09346165,-0.14820409,-0.39902994,-0.3656579,0.05997978,-3.077762,0.6270042,5.904299e-05,-0.095750615,0.029571425,0.0003583851,0.0029436846,0.0010432544,-0.019464057,0.4911934,-1.3701936,1.8899564,-2.088721,-1.5712146,2.4676085,-0.13411035,0.112673275,-0.14179783,0.029548405,-0.0033699789,-0.11457007,-0.45968673,-0.2681506,-9.481039,0.8247004,47.71823,-1.1984603,-2.4707987,-3.488244,-0.061160654,-0.0850922,-0.48453084,28.75,30.125,29.3125,32.8125,35.375,36.5
0.21005198,-1.1387408,1.1699189,-1.3594757,0.01376722,0.094057284,-0.15795237,-0.39923674,-0.36559516,0.059991293,-3.0777705,0.6270773,7.182253e-05,-0.09508351,0.030388849,-5.3641794e-05,0.0036634505,-0.0007626409,-0.013119876,0.4908939,-1.3699777,1.8896593,-2.088661,-1.5712026,2.4673536,-0.1349482,0.111992836,-0.14033064,0.030689824,-0.0031477325,-0.12175339,-0.4405331,-0.3256114,-9.442732,0.87617236,47.687782,-1.1806215,-2.340488,-3.646145,-0.065180846,-0.09935719,-0.3885827,28.75,30.125,29.3125,32.8125,35.375,36.5
0.21205182,-1.1120657,1.1535021,-1.3965628,0.019548485,0.08238523,-0.14681086,-0.3994316,-0.36553177,0.059998505,-3.077747,0.6270476,0.00013342837,-0.097151935,0.031173367,0.0005067966,0.0031807877,0.00015078616,-0.0050801984,0.49064103,-1.3697612,1.8893713,-2.0886014,-1.5712503,2.4670854,-0.13806248,0.11296914,-0.14291853,0.031255957,-0.003159562,-0.13290632,-0.4405331,-0.34476507,-9.519346,0.8179876,47.68599,-1.0267131,-2.3752,-3.4780264,-0.038146622,-0.100070804,-0.3236587,28.75,30.125,29.3125,32.8125,35.375,36.5
0.214052,-0.7420624,0.9989799,-1.547038,0.0130275935,0.08518225,-0.15382971,-0.39964813,-0.3654536,0.060004443,-3.0777137,0.62715256,0.00017036566,-0.098843545,0.031545486,0.0015070321,0.003185368,0.0023008143,-0.0013682367,0.49032983,-1.3695328,1.8890718,-2.0885408,-1.5712751,2.466844,-0.13950899,0.113104925,-0.1455006,0.03180446,-0.0041811187,-0.13806209,-0.34476504,-0.2681506,-9.500193,0.85155696,47.690468,-1.1237803,-2.2730544,-3.4976697,-0.039381854,-0.10102913,-0.2383045,28.75,30.125,29.3125,32.8125,35.375,36.5
0.21605214,-1.1550877,0.5595816,-1.4851078,0.012259362,0.08548024,-0.1466985,-0.39983892,-0.36540478,0.060018327,-3.0777447,0.62713647,0.00013259133,-0.099512964,0.03200744,0.0012686639,0.0042405184,0.0017827861,0.0017155816,0.4900538,-1.3693165,1.8887604,-2.088445,-1.5712394,2.4665542,-0.14039558,0.114529565,-0.14688802,0.03272533,-0.0048704227,-0.14203063,-0.63206923,-0.17238252,-9.442732,0.8806493,47.72002,-1.0617485,-2.2276425,-3.4906254,-0.03547286,-0.081197724,-0.15625966,28.75,30.125,29.3125,32.8125,35.375,36.5
0.2180521,-1.6413113,0.08606178,-1.605729,0.0037285374,0.0904891,-0.14602514,-0.40004346,-0.36533597,0.060016003,-3.0777516,0.62713814,0.00014481218,-0.100582145,0.03201238,0.0019583956,0.003775108,0.0024555544,0.0008060063,0.48975405,-1.3690878,1.8884848,-2.0884087,-1.5712394,2.4662547,-0.14135352,0.115002,-0.14929718,0.03384777,-0.0047774618,-0.14207835,-0.6703765,-0.095768064,-9.423578,0.80679786,47.717335,-1.0494488,-2.3045602,-3.4205313,-0.03650309,-0.07959479,-0.14508805,28.75,30.125,29.3125,32.8125,35.375,36.5
0.22005196,-1.6804614,-0.059706237,-1.8470584,-0.0062377295,0.097674005,-0.14281884,-0.40025797,-0.36524504,0.060012545,-3.0776932,0.6272048,0.00014778123,-0.10097053,0.03248791,0.0007973908,0.004751725,-0.0004471139,-0.005264314,0.4894304,-1.3688467,1.8881859,-2.0883243,-1.5712751,2.4659803,-0.1427387,0.11806973,-0.1506357,0.03513388,-0.004276803,-0.13739316,-0.63206923,0.11492168,-9.576807,0.91198283,47.70211,-1.1067395,-2.2074378,-3.4810605,-0.046579387,-0.102931425,-0.15397432,28.75,30.125,29.3125,32.8125,35.375,36.5
0.22205189,-1.7356688,-0.7654208,-1.7337283,-0.016820345,0.10124814,-0.14174214,-0.40043163,-0.36519796,0.06001473,-3.0776908,0.6270901,0.00012820173,-0.100978225,0.032685965,0.001340212,0.005324516,-0.001131417,-0.0089985235,0.48920253,-1.3686185,1.8878869,-2.088228,-1.571287,2.4656813,-0.1429052,0.11770301,-0.15205835,0.037796658,-0.0044605373,-0.1338248,-0.5554548,0.15322891,-9.500193,0.82694155,47.66987,-1.1348232,-2.3058312,-3.441339,-0.06253132,-0.10732536,-0.21310855,28.75,30.125,29.3125,32.8125,35.375,36.5
0.22405171,-1.4007897,-0.9864619,-1.7625576,-0.039749116,0.10733486,-0.14140671,-0.40066612,-0.3651173,0.06003693,-3.0776541,0.6272758,0.00021934991,-0.10181514,0.033433817,0.0010586712,0.0071485224,-0.0018712495,-0.015557385,0.4888791,-1.3684018,1.8875641,-2.0881674,-1.5713238,2.4654787,-0.14405772,0.11946797,-0.15390816,0.03939299,-0.0057170745,-0.1284156,-0.57460845,0.22984336,-9.557653,0.81351066,47.637623,-1.2243077,-2.3245192,-3.4644053,-0.0744698,-0.095715694,-0.2753749,28.75,30.125,29.3125,32.8125,35.375,36.5
0.22605185,-1.4121753,-1.4333478,-1.9643823,-0.04929181,0.09405426,-0.14335585,-0.40086076,-0.36506167,0.060024444,-3.0776331,0.6272709,0.00014745028,-0.104584396,0.032698106,0.0022603804,0.006078761,0.0017669209,-0.017010309,0.48860353,-1.3681245,1.8872398,-2.0880716,-1.5713118,2.4652028,-0.14475738,0.12168822,-0.15916732,0.03872071,-0.0065006968,-0.12765828,-0.36391866,0.2681506,-9.615114,0.8605109,47.70211,-1.2136475,-2.3126636,-3.348552,-0.08386048,-0.08673008,-0.3226142,28.75,30.125,29.3125,32.8125,35.375,36.5
0.22805172,-1.248,-1.297917,-1.9878764,-0.06540735,0.06866697,-0.14858353,-0.40109584,-0.36496243,0.060033794,-3.0775733,0.6274125,0.00020685466,-0.10447047,0.03358576,0.0014438994,0.0073633897,-0.00022953478,-0.01835036,0.4882558,-1.367896,1.8869294,-2.0879996,-1.57136,2.4649513,-0.14594306,0.12265029,-0.15869439,0.03964406,-0.006694645,-0.12750378,-0.28730422,0.3256114,-9.653421,0.80456203,47.716442,-1.1923748,-2.1571016,-3.3387125,-0.089252084,-0.06850619,-0.33025652,28.75,30.125,29.3125,32.8125,35.375,36.5
0.23005162,-1.1598905,-1.2889687,-1.9436463,-0.06703036,0.04183438,-0.15664229,-0.40133563,-0.36491036,0.06005527,-3.0775998,0.6274168,0.0003135627,-0.1055338,0.034353316,0.00054865633,0.00818925,-0.0026579462,-0.021225043,0.48796782,-1.3676426,1.8865699,-2.0879629,-1.5713834,2.4646628,-0.14835836,0.12579598,-0.16077608,0.04110628,-0.0062787826,-0.12704448,-0.2681506,0.45968673,-9.576807,0.8112748,47.71286,-1.204767,-2.2911758,-3.2563496,-0.10457155,-0.06575703,-0.35989708,28.75,30.125,29.3125,32.8125,35.375,36.5
0.23205242,-0.6431557,-1.6388749,-1.9479887,-0.05265181,0.036380645,-0.14380875,-0.40153703,-0.3648234,0.060040083,-3.0775163,0.62757015,0.0002762699,-0.1055843,0.034100197,0.00016587647,0.009347702,-0.0040155775,-0.01846132,0.48765674,-1.3673898,1.8862833,-2.0878785,-1.5714082,2.4644582,-0.14766341,0.12786186,-0.16278267,0.042784255,-0.0066755917,-0.12911133,-0.11492168,0.45968673,-9.500193,0.8493211,47.72271,-1.190736,-2.3248754,-3.2766938,-0.117543116,-0.05225585,-0.38224563,28.75,30.125,29.3125,32.8125,35.375,36.5
0.23405245,-0.2756563,-1.5233594,-1.6945095,-0.041201983,0.031432938,-0.13838473,-0.40174705,-0.3647851,0.06004048,-3.077558,0.6275963,0.00021408247,-0.10735205,0.03556766,1.2678711e-05,0.009828415,-0.0054608253,-0.017107476,0.48736745,-1.3671129,1.8859352,-2.0878065,-1.5713481,2.46418,-0.15178065,0.12964158,-0.16504261,0.04476824,-0.006428103,-0.13458194,0.05746084,0.47884035,-9.481039,0.83813137,47.696735,-0.916275,-2.3984852,-3.2662745,-0.14105856,-0.0488197,-0.35911095,28.75,30.125,29.3125,32.8125,35.375,36.5
0.23605238,0.003849471,-0.43328395,-1.5896424,-0.056408226,0.023757363,-0.15434708,-0.40196595,-0.3647129,0.060088836,-3.0775487,0.62757045,0.00030189386,-0.10781471,0.036547706,-0.0013796499,0.010895157,-0.0078647435,-0.0117088165,0.4870796,-1.3669318,1.8855766,-2.087663,-1.5713953,2.4638774,-0.15387392,0.1321935,-0.16493796,0.044721555,-0.0062459,-0.1420741,0.11492168,0.49799395,-9.385271,0.78888994,47.690468,-1.0338569,-2.345066,-3.2105393,-0.15977435,-0.05725853,-0.29413012,28.75,30.125,29.3125,32.8125,35.375,36.5
0.23805228,0.105673246,-0.5482212,-1.3399831,-0.049572818,0.016338974,-0.15175319,-0.40222555,-0.36465362,0.060107812,-3.0775726,0.62762785,0.00039705564,-0.109012894,0.036708172,-0.0018635036,0.010383429,-0.008511825,-0.0052867024,0.48675576,-1.3666548,1.8851942,-2.0876267,-1.5714077,2.4635866,-0.15558463,0.13464372,-0.16672365,0.044377696,-0.005491618,-0.15020762,0.095768064,0.45968673,-9.289502,0.80456203,47.687782,-0.95036197,-2.4148428,-3.1561441,-0.15346457,-0.041679777,-0.19920088,28.75,30.125,29.3125,32.8125,35.375,36.5
0.2400526,-0.6762092,-1.1615986,-1.3983183,-0.042849414,0.008355756,-0.14073035,-0.40243167,-0.3645822,0.06008921,-3.0775454,0.62761766,0.0003102631,-0.10938674,0.037341405,-0.0006368806,0.009696857,-0.008506962,-0.0009572189,0.48644426,-1.3663671,1.8848709,-2.0875304,-1.5713953,2.4632723,-0.15726629,0.13258354,-0.16769382,0.047076896,-0.0048975055,-0.15621972,-0.038307227,0.34476504,-9.174581,0.90527004,47.723602,-1.0331471,-2.3895853,-3.2868726,-0.18816578,-0.06474537,-0.08833298,28.75,30.125,29.3125,32.8125,35.375,36.5
0.2420524,0.03900014,-0.8492611,-1.1977141,-0.038915675,0.041641746,-0.15215634,-0.40264165,-0.36448124,0.060049716,-3.077446,0.62761265,0.00020916288,-0.10810266,0.036583256,-0.0025004516,0.011471022,-0.012351513,0.0040122485,0.48610952,-1.3660533,1.884561,-2.0874221,-1.571431,2.4629474,-0.15490168,0.13634865,-0.16822298,0.048059355,-0.0046914713,-0.15882379,0.038307227,0.24899697,-9.174581,0.78888994,47.67166,-1.1020907,-2.5228167,-3.2955008,-0.20172483,-0.07436262,-0.027652672,28.75,30.125,29.3125,32.8125,35.375,36.5
0.24405232,-0.3876344,-0.58498317,-1.1998119,-0.021436036,0.03630727,-0.13913941,-0.40287763,-0.36442512,0.060078334,-3.077473,0.6276783,0.00025341197,-0.10949028,0.03674696,-0.0013544953,0.010497279,-0.010417862,-0.0023794796,0.48579767,-1.3658134,1.88419,-2.0873382,-1.5714191,2.4626732,-0.15629861,0.13581868,-0.17032963,0.048535623,-0.0047325594,-0.15382852,0.038307227,0.15322891,-9.059659,0.8560339,47.691364,-1.0987406,-2.3732884,-3.297696,-0.24375913,-0.07590419,-0.06390958,28.75,30.125,29.3125,32.8125,35.375,36.5
0.24605227,-0.52785575,-0.5252019,-0.9796063,-0.008046626,0.03566593,-0.1287082,-0.40312082,-0.3643567,0.060084544,-3.0774972,0.627667,0.0003225013,-0.110614076,0.03753351,-0.0019360541,0.010675918,-0.011035856,-0.010663672,0.48547363,-1.3655485,1.8838538,-2.0873148,-1.571431,2.4623392,-0.1586094,0.13762438,-0.17111364,0.048144415,-0.004600168,-0.14785504,0.05746084,0.038307227,-9.021352,0.99702406,47.691364,-1.0819211,-2.4680872,-3.3475313,-0.24082726,-0.07769365,-0.10767612,28.75,30.125,29.3125,32.8125,35.375,36.5
0.24805214,-0.22332788,-0.0460791,-0.7651986,0.016536048,0.029944222,-0.13794501,-0.40332255,-0.36429113,0.060074028,-3.0774703,0.62774265,0.00020951708,-0.112054005,0.037410717,-0.0013486636,0.0094163995,-0.009568673,-0.018807253,0.4851618,-1.3652718,1.8835195,-2.0871947,-1.5713948,2.462078,-0.15985893,0.13836783,-0.17326616,0.047675386,-0.0041873367,-0.14096057,0.019153614,-0.11492168,-8.925584,0.7642693,47.691364,-1.092404,-2.4186773,-3.330958,-0.24228844,-0.08162624,-0.19811866,28.75,30.125,29.3125,32.8125,35.375,36.5
0.2500521,0.1395025,0.8958913,-0.8353391,0.03787207,0.015440277,-0.14496318,-0.40357038,-0.36420894,0.06008519,-3.077434,0.6278525,0.00027166898,-0.11321398,0.038408216,-0.0025628388,0.010192758,-0.011042639,-0.026263298,0.48482594,-1.3650064,1.8831605,-2.0871232,-1.571431,2.4618156,-0.1624686,0.1413211,-0.1739355,0.04705448,-0.00418969,-0.1361136,0.038307227,-0.095768064,-8.944737,0.8985519,47.693153,-0.96846634,-2.499601,-3.2644677,-0.24354872,-0.096904404,-0.26603574,28.75,30.125,29.3125,32.8125,35.375,36.5
0.25205198,0.2222292,0.9186483,-0.72882026,0.046984486,0.007987463,-0.13808233,-0.4037803,-0.36415556,0.060078625,-3.07742,0.62784904,0.00024248537,-0.115036495,0.038581543,-0.0008712567,0.0085475845,-0.0076435516,-0.02908497,0.48454982,-1.364719,1.8828124,-2.0870392,-1.571431,2.4615393,-0.16420893,0.13990961,-0.17607482,0.046831414,-0.0043292264,-0.1350314,-0.038307227,-0.22984336,-8.963891,0.8224646,47.65912,-0.9581567,-2.2909527,-3.2448068,-0.24922326,-0.11207795,-0.33669287,28.75,30.125,29.3125,32.8125,35.375,36.5
0.25405183,0.136041,0.6498704,-0.7970026,0.044432573,0.026458154,-0.13825431,-0.4039967,-0.36406723,0.060073856,-3.0773609,0.6279929,0.00015555914,-0.116306596,0.038389374,0.00092917675,0.007294191,-0.00507954,-0.03463819,0.48420227,-1.3644553,1.8824776,-2.0869071,-1.5714191,2.4612892,-0.16486533,0.13854018,-0.17885114,0.048128445,-0.004426376,-0.13013348,-0.17238252,-0.21068975,-8.944737,0.81351066,47.687782,-0.98884594,-2.1450849,-3.1577888,-0.25660524,-0.08092981,-0.40486026,28.75,30.125,29.3125,32.8125,35.375,36.5
0.25605163,-1.1144979,0.45267582,-1.2146056,0.044050474,0.03955546,-0.13313372,-0.40422696,-0.36398003,0.060058482,-3.0773017,0.628038,0.00011882644,-0.11790079,0.038806096,0.0011648851,0.006951516,-0.003942528,-0.036937464,0.48386645,-1.3641546,1.882131,-2.0868123,-1.571443,2.4609892,-0.1667388,0.13970828,-0.18071677,0.04765684,-0.0046660034,-0.12970616,-0.3256114,-0.21068975,-9.059659,0.82022345,47.637623,-1.1330274,-2.1757283,-3.2512114,-0.28118578,-0.12708868,-0.47917098,28.75,30.125,29.3125,32.8125,35.375,36.5
0.25805265,-1.3691058,0.18274508,-1.2622242,0.023198042,0.079040036,-0.13680045,-0.40442833,-0.3639084,0.06006058,-3.0772355,0.6281332,2.9458313e-05,-0.11891949,0.036891397,0.002529929,0.0053132335,-0.0007656095,-0.029137367,0.48356786,-1.3638899,1.8817714,-2.0866444,-1.571443,2.4607587,-0.1643193,0.14057484,-0.1848079,0.047302157,-0.0047169,-0.13508473,-0.30645782,-0.076614454,-9.136273,0.83589023,47.707485,-1.1120514,-2.1461067,-3.2147584,-0.28039294,-0.110302776,-0.47662592,28.75,30.125,29.3125,32.8125,35.375,36.5
0.26005262,-2.075736,-0.21208066,-1.4471145,-0.007347524,0.1035828,-0.144873,-0.4046549,-0.36382356,0.06003836,-3.0771744,0.6281905,-3.5993304e-05,-0.11838588,0.037911955,0.0008534593,0.0066669574,-0.0040010293,-0.02046594,0.48323226,-1.3635774,1.8814257,-2.0865486,-1.5714549,2.4604669,-0.16564636,0.14226538,-0.18308087,0.04736725,-0.004424117,-0.14508401,-0.4213795,-0.05746084,-9.346964,0.78888994,47.691364,-1.1205567,-2.1822124,-3.2976599,-0.31206787,-0.10221499,-0.4200626,28.75,30.125,29.3125,32.8125,35.375,36.5
0.26205254,-2.5056999,-0.89731526,-1.863168,-0.024321169,0.11696032,-0.13777252,-0.4048927,-0.36374453,0.060045775,-3.0771477,0.6281586,-7.058417e-05,-0.119004935,0.038081694,0.00079985335,0.00702475,-0.0044321422,-0.010292367,0.48289666,-1.3632882,1.88103,-2.0864046,-1.5714668,2.460115,-0.1663014,0.14351514,-0.18469775,0.048271853,-0.004557003,-0.15591154,-0.61291564,0.038307227,-9.576807,0.8112748,47.67166,-1.2487099,-2.1718912,-3.2984052,-0.3164904,-0.12359242,-0.33057302,28.75,30.125,29.3125,32.8125,35.375,36.5
0.26405257,-1.8600359,-0.8848754,-1.904764,-0.053295236,0.14375383,-0.14989534,-0.40508014,-0.3636777,0.060013633,-3.0770972,0.6281619,-0.00025510255,-0.12007603,0.03823124,0.00051304814,0.0069340877,-0.004098762,-0.002323315,0.4825969,-1.3629754,1.8806957,-2.0862615,-1.571431,2.4598238,-0.16735357,0.14529534,-0.1860478,0.04750282,-0.0046643545,-0.16493124,-0.61291564,0.17238252,-9.80665,0.8717007,47.71286,-1.2183595,-2.1701627,-3.287519,-0.34457165,-0.11611608,-0.21099113,28.75,30.125,29.3125,32.8125,35.375,36.5
0.26605198,-2.7985697,-1.5528643,-2.2285411,-0.068182595,0.12750159,-0.1460062,-0.40536568,-0.3636159,0.060040057,-3.0771291,0.6282249,-0.00014232942,-0.12249319,0.039084762,0.00056362303,0.0063143508,-0.00082061905,-0.0016725841,0.4822487,-1.3626747,1.8802646,-2.0862148,-1.5714434,2.459511,-0.1702052,0.14638011,-0.18667756,0.043853797,-0.005636593,-0.16843133,-0.7086837,0.19153613,-9.883265,0.86498255,47.694946,-1.303512,-2.2173932,-3.3403616,-0.3355052,-0.11032451,-0.1692996,28.75,30.125,29.3125,32.8125,35.375,36.5
0.26805183,-2.3916285,-1.8364828,-2.4069638,-0.07428895,0.12915215,-0.13741934,-0.4056031,-0.36350453,0.0600123,-3.0770233,0.6282792,-0.00017286385,-0.123379424,0.039162464,-0.0007401159,0.007319177,-0.0008054317,-0.003305228,0.48188964,-1.3623611,1.8799304,-2.0861204,-1.571504,2.4591997,-0.17045875,0.149826,-0.18736872,0.041543745,-0.0065536294,-0.16704892,-0.7278373,0.24899697,-10.01734,0.800085,47.723602,-1.3715355,-2.4107587,-3.390153,-0.28394455,-0.12203497,-0.13608003,28.75,30.125,29.3125,32.8125,35.375,36.5
0.27005178,-2.4239469,-1.6114501,-2.5592477,-0.083053656,0.11957291,-0.13057867,-0.40583563,-0.36342952,0.060020957,-3.077021,0.6282419,-0.00016422766,-0.124278456,0.038742118,-0.0015655812,0.0073358305,-0.0008438857,-0.008850714,0.48156622,-1.3620961,1.8795713,-2.0860245,-1.5715159,2.4588535,-0.1704505,0.15304482,-0.18905362,0.04005209,-0.006555116,-0.16149402,-0.7852981,0.28730422,-10.0748005,0.91198283,47.703903,-1.3322121,-2.2681901,-3.4233851,-0.28515396,-0.11078916,-0.17540179,28.75,30.125,29.3125,32.8125,35.375,36.5
0.27205187,-2.074954,-1.4048468,-2.2579181,-0.080122955,0.109125555,-0.15300371,-0.40610868,-0.36333567,0.060010016,-3.0769725,0.62834865,-0.00015727578,-0.12488852,0.038745485,-0.0015223625,0.006609506,0.00092146057,-0.014838792,0.48118302,-1.3617597,1.8791765,-2.0859535,-1.5715398,2.4585433,-0.17076999,0.15302737,-0.18866496,0.037778948,-0.0067320163,-0.15582506,-0.7278373,0.3256114,-10.113108,0.842603,47.68062,-1.29771,-2.3520346,-3.5457916,-0.26602972,-0.113673195,-0.26732737,28.75,30.125,29.3125,32.8125,35.375,36.5
0.27405182,-1.5975442,-1.2461257,-2.3156948,-0.06727917,0.11107333,-0.14393291,-0.4063557,-0.3632951,0.06003593,-3.0770242,0.6283787,-0.00010948205,-0.12705475,0.03776556,-0.001144651,0.005070414,0.003578725,-0.016908508,0.480883,-1.3614821,1.8787688,-2.085883,-1.5715159,2.4582555,-0.1710116,0.15587635,-0.19251344,0.03571349,-0.006599981,-0.15399574,-0.6703765,0.28730422,-9.9790325,0.8605109,47.679718,-1.4014677,-2.4607844,-3.5266256,-0.22125968,-0.10417734,-0.3124859,28.75,30.125,29.3125,32.8125,35.375,36.5
0.27605176,-1.6556414,-0.8686232,-2.3429124,-0.049607083,0.09149702,-0.14375128,-0.4066314,-0.36320674,0.06004127,-3.0770042,0.6284337,-8.942901e-06,-0.12794514,0.03848148,-0.0021675804,0.0054673185,0.0023825336,-0.020012608,0.48052207,-1.3611813,1.8783873,-2.0858467,-1.5715641,2.4579318,-0.17300545,0.15831047,-0.19299226,0.03499302,-0.0063938703,-0.15288572,-0.34476507,0.30645782,-9.959879,0.8605109,47.675243,-1.4181275,-2.566171,-3.6083243,-0.20477128,-0.13153441,-0.35349235,28.75,30.125,29.3125,32.8125,35.375,36.5
0.2780526,-0.805891,-0.39841044,-2.4130578,-0.039492514,0.08632674,-0.1497588,-0.40690148,-0.3631401,0.060043477,-3.0769992,0.6285674,3.0833256e-05,-0.12886785,0.039626457,-0.0040614093,0.006693332,-5.4365813e-05,-0.021817258,0.48017317,-1.3608558,1.8779811,-2.0857995,-1.5715641,2.457667,-0.17564341,0.16210549,-0.19307163,0.03400225,-0.006353614,-0.15371875,-0.15322891,0.2681506,-9.921572,0.8784135,47.685097,-1.3021646,-2.5171409,-3.6018305,-0.16362521,-0.11211488,-0.35824764,28.75,30.125,29.3125,32.8125,35.375,36.5
0.28005248,-1.5902373,-1.0451593,-2.065792,-0.028219545,0.04067994,-0.13795148,-0.4071691,-0.36304903,0.06002863,-3.0769823,0.62859946,6.854035e-05,-0.13171148,0.040193558,-0.0009138095,0.004114432,0.005801603,-0.019182282,0.47980034,-1.3605332,1.877622,-2.0857756,-1.5715879,2.4573166,-0.17870742,0.15862146,-0.19611323,0.03413365,-0.0067782425,-0.1594165,-0.17238252,0.24899697,-9.749189,0.88960326,47.719128,-1.2522933,-2.449894,-3.6633694,-0.12790284,-0.11963062,-0.3767693,28.75,30.125,29.3125,32.8125,35.375,36.5
0.28205258,-0.94642764,-0.3350654,-1.6483984,-0.04278083,0.03807188,-0.15004958,-0.40745136,-0.3629819,0.06005624,-3.0770156,0.6286211,0.00013761825,-0.13174851,0.040232487,-0.0016120712,0.005387657,0.0041787885,-0.011555831,0.47944042,-1.3602328,1.8771795,-2.0856912,-1.5715879,2.4569662,-0.17845212,0.16080299,-0.19745757,0.035316598,-0.007153399,-0.16678661,-0.095768064,0.019153614,-9.442732,0.8627467,47.689575,-1.2987974,-2.4782085,-3.7263646,-0.12420366,-0.10065466,-0.30559945,28.75,30.125,29.3125,32.8125,35.375,36.5
0.28405243,-0.8681663,-0.29360723,-1.9643879,-0.007146532,0.010243567,-0.13713978,-0.40770188,-0.3628827,0.060045272,-3.07693,0.628694,0.0001515138,-0.1333007,0.04089222,-0.0016927331,0.005519121,0.003139241,-0.0036787759,0.4790917,-1.3599201,1.8768071,-2.085595,-1.571648,2.456674,-0.18102083,0.16308317,-0.2004347,0.036973637,-0.0068055354,-0.17723162,0.038307227,-0.038307227,-9.423578,0.82694155,47.675243,-1.1834433,-2.5392506,-3.524982,-0.095701635,-0.10865504,-0.20281512,28.75,30.125,29.3125,32.8125,35.375,36.5
0.28605244,-0.8273346,-0.48605272,-1.5920875,0.009892981,0.0046520927,-0.14430362,-0.40797347,-0.36283395,0.06005459,-3.0770147,0.6286523,0.00017315157,-0.13507797,0.041150775,-0.00076768326,0.005006196,0.0042617195,0.00018367017,0.47874287,-1.3595963,1.8763884,-2.0855582,-1.5715998,2.4562886,-0.1828474,0.16390447,-0.20388645,0.038373306,-0.006864469,-0.18291973,0.05746084,0.0,-9.404425,0.8717007,47.71017,-1.1364635,-2.5438614,-3.3332589,-0.07021276,-0.10139319,-0.085640624,28.75,30.125,29.3125,32.8125,35.375,36.5
0.28805223,0.4349945,-0.038386554,-1.3727388,0.014398204,0.03299441,-0.13839957,-0.40824038,-0.36273736,0.060045358,-3.0769804,0.6286464,0.00019383947,-0.13689813,0.041898813,0.0006409378,0.0042399815,0.006315683,-0.0031072227,0.47837,-1.359273,1.8760046,-2.0854862,-1.5716361,2.4559166,-0.18540339,0.16299386,-0.2062949,0.039509002,-0.007133517,-0.18218367,-0.05746084,-0.038307227,-9.308657,0.8023209,47.666286,-1.0851135,-2.3761454,-3.2823424,-0.06913106,-0.09849629,-0.08007288,28.75,30.125,29.3125,32.8125,35.375,36.5
0.29005206,-0.012867182,-0.43395162,-1.494253,0.03718718,0.026936274,-0.13035744,-0.4085581,-0.36264,0.060093593,-3.0770063,0.6288106,0.00033466937,-0.13837603,0.042796537,0.00097517227,0.0040801857,0.005955613,-0.012155251,0.47793692,-1.3590088,1.8755611,-2.0854137,-1.571648,2.4555829,-0.18825129,0.16392717,-0.20857184,0.04109835,-0.006803405,-0.17598414,-0.13407528,0.05746084,-9.3661175,0.8179876,47.684196,-0.9746664,-2.3146737,-3.3082013,-0.052339606,-0.12311706,-0.08834043,28.75,30.125,29.3125,32.8125,35.375,36.5
0.29205203,-0.60202837,-0.13490878,-1.300242,0.009830363,0.036313627,-0.12883618,-0.40880662,-0.36257607,0.060071904,-3.0769804,0.6287895,0.00027360822,-0.13894577,0.043177664,0.0017137232,0.0031830962,0.00580008,-0.0205733,0.47761276,-1.3586373,1.875142,-2.0853174,-1.5716475,2.455249,-0.18979909,0.16319023,-0.20980214,0.04279253,-0.0059379255,-0.16911519,-0.2681506,0.038307227,-9.346964,0.84708,47.70211,-1.1001716,-2.2645607,-3.2905674,-0.03094818,-0.11880861,-0.16186053,28.75,30.125,29.3125,32.8125,35.375,36.5
0.29405192,-0.9037927,-0.70110965,-1.327665,-0.0026792858,0.06651749,-0.14146169,-0.4090711,-0.36246312,0.06007225,-3.0769153,0.6289511,0.00021074651,-0.13885957,0.042196754,0.0019814137,0.0031019712,0.0046602986,-0.023718111,0.47719324,-1.3583369,1.8747472,-2.0851724,-1.5716475,2.454939,-0.18831773,0.16473411,-0.21287803,0.045299534,-0.005347672,-0.16448882,-0.2681506,0.038307227,-9.346964,0.84708,47.675243,-1.1108923,-2.3575087,-3.3680153,-0.050663307,-0.14388558,-0.27007228,28.75,30.125,29.3125,32.8125,35.375,36.5
0.29605183,-1.4597012,-0.6633252,-1.4351733,-0.021522265,0.07850497,-0.14705855,-0.40937355,-0.36239183,0.06009671,-3.0769358,0.6289794,0.00034740154,-0.139356,0.043536272,0.0013929497,0.0047632265,0.0024592245,-0.032679766,0.47683248,-1.3580128,1.8742908,-2.0851243,-1.5716833,2.4545934,-0.19058248,0.16605985,-0.21368018,0.047494378,-0.0057920455,-0.15779124,-0.24899697,0.15322891,-9.423578,0.85155696,47.698532,-1.0439453,-2.2619207,-3.3318353,-0.06232086,-0.12820901,-0.34365937,28.75,30.125,29.3125,32.8125,35.375,36.5
0.29805258,-1.6720139,-0.5863704,-1.3880103,-0.027749414,0.07792937,-0.14354682,-0.4096302,-0.362294,0.060084842,-3.0768533,0.6290976,0.00029617548,-0.13905337,0.04393142,0.0015256089,0.0055508735,0.002350319,-0.035551574,0.47646064,-1.3576776,1.8738846,-2.0849922,-1.5717081,2.4543061,-0.19045915,0.16530107,-0.2133094,0.0483399,-0.006447275,-0.15479486,-0.30645782,0.019153614,-9.423578,0.82694155,47.71465,-1.0799904,-2.1317787,-3.2915268,-0.054056462,-0.124547645,-0.43528402,28.75,30.125,29.3125,32.8125,35.375,36.5
0.30005267,-1.5858369,-0.8203099,-1.2612445,-0.02296869,0.0920668,-0.14560468,-0.40993387,-0.3622194,0.06011662,-3.0768876,0.629199,0.00036945607,-0.14024839,0.043335225,0.002121231,0.004836743,0.003650468,-0.034078192,0.4760647,-1.3573654,1.8734177,-2.0849082,-1.5716962,2.4539692,-0.1903833,0.1666849,-0.21642911,0.04859103,-0.00640455,-0.15619172,-0.53630114,0.038307227,-9.3661175,0.900793,47.69763,-1.1840932,-2.0799804,-3.377842,-0.048803076,-0.12989172,-0.47247922,28.75,30.125,29.3125,32.8125,35.375,36.5
0.30205256,-1.9036129,-0.8655448,-1.1984034,-0.012311675,0.085340664,-0.13634385,-0.41018012,-0.3621369,0.060089137,-3.076836,0.6292774,0.00026701074,-0.14014652,0.04291006,0.001997109,0.0043639448,0.0030687945,-0.02373704,0.47570503,-1.3570055,1.8730224,-2.0848005,-1.5716833,2.4536653,-0.18987477,0.16743279,-0.21716754,0.04887041,-0.0057350574,-0.166025,-0.40222588,0.019153614,-9.32781,0.8179876,47.681515,-1.4581068,-2.0935884,-3.4295013,-0.040568866,-0.13050935,-0.44981664,28.75,30.125,29.3125,32.8125,35.375,36.5
0.3040525,-1.4281048,-0.37013707,-1.2540679,0.009825005,0.088697985,-0.15399574,-0.41046903,-0.36206463,0.06011083,-3.076881,0.6292403,0.00033595753,-0.13942054,0.042454623,2.3038205e-05,0.0060922876,-0.0010425107,-0.011445232,0.47533366,-1.356692,1.8725795,-2.0847285,-1.5716833,2.4532652,-0.18856522,0.17189011,-0.21836887,0.0500475,-0.00538564,-0.17700732,-0.30645782,0.038307227,-9.346964,0.8851263,47.683304,-1.6535939,-2.1824481,-3.3787222,-0.040631365,-0.16575374,-0.35257888,28.75,30.125,29.3125,32.8125,35.375,36.5
0.3060524,-1.3240012,-0.1346701,-1.5201951,0.020723943,0.06898972,-0.14968775,-0.41076452,-0.36198875,0.06012106,-3.0768607,0.62927014,0.00039717907,-0.13985121,0.043767884,-0.0010968943,0.0079371855,-0.0035006595,-0.0036297892,0.4749729,-1.356332,1.8721007,-2.0846317,-1.5717195,2.452926,-0.19068523,0.17397465,-0.21867278,0.051280815,-0.0059019444,-0.18694165,-0.17238252,-0.019153614,-9.423578,0.8851263,47.684196,-1.522528,-2.123841,-3.433616,-0.044656925,-0.15038973,-0.23828906,28.75,30.125,29.3125,32.8125,35.375,36.5
0.30805233,-0.929186,0.17240277,-1.0591258,0.0072384975,0.05539141,-0.14694394,-0.41103917,-0.36186898,0.060091943,-3.0768108,0.6293744,0.00031185793,-0.14132476,0.04468526,-0.00043898934,0.008394288,-0.0029233852,-0.0017507118,0.47452796,-1.3559841,1.8717288,-2.0845482,-1.5717081,2.4525526,-0.19293919,0.17433998,-0.22104588,0.05298235,-0.0065897903,-0.1910723,-0.30645782,0.05746084,-9.32781,0.92764956,47.709274,-1.4168613,-2.1344101,-3.4732327,-0.03840741,-0.14004867,-0.15048066,28.75,30.125,29.3125,32.8125,35.375,36.5
0.31005225,-0.4941976,0.04084714,-1.1493632,-0.0042260974,0.048167136,-0.15868899,-0.41133597,-0.36178657,0.06011598,-3.076804,0.6293365,0.00037105396,-0.14170724,0.04600559,-0.0015308419,0.010960618,-0.006277382,-0.0063081207,0.4741554,-1.3556471,1.8712381,-2.0844152,-1.5717438,2.4521575,-0.1948862,0.17700382,-0.22249375,0.055918496,-0.0073350514,-0.1884599,-0.2873042,0.076614454,-9.32781,0.88960326,47.681515,-1.3460687,-2.2962,-3.4490933,-0.06298815,-0.13819095,-0.15397242,28.75,30.125,29.3125,32.8125,35.375,36.5
0.3120523,-1.2614068,-0.77249116,-1.5375243,-0.0070523233,0.021332044,-0.13614832,-0.41162354,-0.3616599,0.06010259,-3.076717,0.6294771,0.00031838755,-0.14235072,0.04800143,-0.0026042566,0.012858673,-0.009813155,-0.016451662,0.47371012,-1.355299,1.870819,-2.0842826,-1.5717682,2.4518113,-0.19858937,0.17891172,-0.22300471,0.05853319,-0.007418825,-0.1820187,-0.38307226,0.17238252,-9.308657,0.86498255,47.721813,-1.3269682,-2.251938,-3.4426842,-0.09147349,-0.13710684,-0.23170948,28.75,30.125,29.3125,32.8125,35.375,36.5
0.31405225,-1.1958716,-0.7231325,-1.2303878,-0.027781034,0.022003207,-0.14587839,-0.4119179,-0.36159167,0.06012565,-3.076736,0.62948465,0.0003862548,-0.14334755,0.048755072,-0.0027161026,0.014030564,-0.010822455,-0.023946278,0.47334972,-1.3549627,1.8703393,-2.0841858,-1.5717806,2.4514534,-0.20021805,0.1806399,-0.22535317,0.060589574,-0.007995885,-0.17615108,-0.22984336,0.076614454,-9.385271,0.88960326,47.684196,-1.4055299,-2.3509073,-3.4060962,-0.12039309,-0.14921923,-0.2803797,28.75,30.125,29.3125,32.8125,35.375,36.5
0.3160521,-0.38633752,-0.85697335,-1.1212782,-0.04357709,0.043327272,-0.16226144,-0.41221997,-0.36149293,0.060135882,-3.0766945,0.6295354,0.00044399104,-0.14377528,0.049146276,-0.0017998753,0.014931691,-0.01210022,-0.027551899,0.47295344,-1.354615,1.869872,-2.0840762,-1.5718282,2.4510944,-0.20096396,0.18071724,-0.2286581,0.06535777,-0.008215264,-0.17329021,-0.22984336,0.24899697,-9.212888,0.93436235,47.70211,-1.2630823,-2.248154,-3.325902,-0.1749197,-0.11745564,-0.34045276,28.75,30.125,29.3125,32.8125,35.375,36.5
0.31805238,-0.8851575,-0.44429523,-1.0556463,-0.048261933,0.038112424,-0.16381493,-0.4124822,-0.36139888,0.060124535,-3.0766196,0.62953967,0.00039070103,-0.14527303,0.050161835,-0.0012316154,0.014361238,-0.01113751,-0.029937254,0.47259256,-1.3542554,1.869429,-2.0839212,-1.5718645,2.450746,-0.20385295,0.18049213,-0.22978495,0.065583155,-0.008166534,-0.17379315,-0.17238252,0.2681506,-9.078813,0.8314132,47.70032,-1.1226474,-2.3280106,-3.435649,-0.22036889,-0.11080976,-0.3869461,28.75,30.125,29.3125,32.8125,35.375,36.5
0.32005233,-0.6292724,-0.87887245,-1.3321438,-0.009550315,0.033808406,-0.15411158,-0.41276693,-0.36129996,0.060112704,-3.076592,0.6296286,0.0002778857,-0.14565824,0.050655287,-0.0019437078,0.013871663,-0.013096675,-0.028803403,0.47216,-1.3538831,1.8689741,-2.0837772,-1.5718278,2.4503727,-0.2056617,0.18204542,-0.23018962,0.06595186,-0.006859175,-0.17673777,-0.17238252,0.28730422,-9.193734,0.8940802,47.65643,-1.1096019,-2.3611116,-3.4204733,-0.23360391,-0.13040733,-0.39767683,28.75,30.125,29.3125,32.8125,35.375,36.5
0.3220523,-0.71218157,-0.78075945,-0.9645874,-0.015064526,0.047728904,-0.15527198,-0.41309628,-0.3612074,0.060143415,-3.0765848,0.62973684,0.00042432023,-0.14631692,0.0508591,-0.0019275623,0.014107151,-0.015137569,-0.020831615,0.47175157,-1.3535469,1.868482,-2.0837038,-1.5718755,2.450033,-0.20684972,0.18392818,-0.23325011,0.06903077,-0.006138737,-0.18589851,-0.19153613,0.15322891,-9.289502,0.86945957,47.703007,-1.066392,-2.1146092,-3.3820992,-0.27470762,-0.13428631,-0.3571518,28.75,30.125,29.3125,32.8125,35.375,36.5
0.32405224,-0.8594268,-0.66095304,-0.96894,-0.010068817,0.04901413,-0.14988773,-0.41337183,-0.3610874,0.060107708,-3.0764997,0.62975144,0.00023348973,-0.14752954,0.050776105,-0.0012545192,0.013491793,-0.01444932,-0.01069638,0.47130737,-1.3531389,1.8680271,-2.083512,-1.5718635,2.449609,-0.207725,0.18482156,-0.23617849,0.070160024,-0.0059501757,-0.19690761,-0.2681506,0.076614454,-9.136273,0.9321212,47.703903,-0.95729864,-2.248067,-3.305941,-0.31806692,-0.15571377,-0.1998783,28.75,30.125,29.3125,32.8125,35.375,36.5
0.32605225,-1.6664606,-0.54764664,-1.126139,0.0033786795,0.042913046,-0.14735213,-0.41365027,-0.3610206,0.06010728,-3.0765288,0.62975353,0.00019769085,-0.14979862,0.050319176,2.9435227e-05,0.011357693,-0.009944209,-0.005758412,0.4709353,-1.3527792,1.8675722,-2.0834177,-1.5718278,2.4492347,-0.20866194,0.18497726,-0.23876345,0.067605756,-0.0061151804,-0.20278126,-0.34476504,0.038307227,-9.174581,0.8224646,47.682407,-0.9574355,-2.1127136,-3.2543855,-0.31295353,-0.14537227,-0.10097985,28.75,30.125,29.3125,32.8125,35.375,36.5
0.3280521,-1.4785919,-0.2067477,-0.9908481,-0.0019759755,0.07968936,-0.15314704,-0.4139551,-0.3609027,0.060114846,-3.076467,0.6297416,0.00013035427,-0.15002707,0.049592856,0.0002587372,0.010574191,-0.009352049,-0.0063716574,0.4704916,-1.352407,1.8670567,-2.0832021,-1.5718511,2.4487917,-0.20773765,0.18569301,-0.24016303,0.067399666,-0.0057085133,-0.20124374,-0.57460845,-0.076614454,-9.174581,0.800085,47.70838,-1.2908206,-2.3346086,-3.3495116,-0.3286712,-0.17024097,-0.09486146,28.75,30.125,29.3125,32.8125,35.375,36.5
0.3300522,-2.083925,-0.30398083,-1.0452505,-0.0006837576,0.091644615,-0.15123092,-0.4142522,-0.36081097,0.060102027,-3.0764434,0.62981725,0.00011214459,-0.15017179,0.048772503,-0.00082033424,0.010755078,-0.00993103,-0.012534742,0.47008428,-1.3520224,1.8666023,-2.0831187,-1.5718511,2.4484348,-0.20639877,0.18888193,-0.24131106,0.0659628,-0.005615676,-0.19374108,-0.57460845,0.019153614,-9.232041,0.90750587,47.674347,-1.4657626,-2.167019,-3.4034076,-0.34190497,-0.17264414,-0.12924033,28.75,30.125,29.3125,32.8125,35.375,36.5
0.33205256,-1.9373271,-0.96443725,-1.2293495,0.005840744,0.10725108,-0.14511803,-0.41454044,-0.36070216,0.06008194,-3.076372,0.62986463,2.1352504e-05,-0.1519025,0.04871296,-0.0004370203,0.009343264,-0.007240644,-0.022635058,0.46966383,-1.3516266,1.8661345,-2.0829642,-1.5718635,2.4480534,-0.20764026,0.18976513,-0.24276008,0.0634959,-0.0055974983,-0.18488126,-0.45968673,0.05746084,-9.232041,0.8918391,47.679718,-1.4773791,-2.124248,-3.4672804,-0.32830957,-0.1692467,-0.24165851,28.75,30.125,29.3125,32.8125,35.375,36.5
0.33405173,-1.959974,-0.72755617,-1.3016974,-0.014901169,0.10024101,-0.1473287,-0.4148493,-0.36060238,0.06008437,-3.0763223,0.62997305,5.656787e-05,-0.15401928,0.04884416,-0.00075941125,0.008913401,-0.0047295825,-0.030380018,0.46925572,-1.3512542,1.8656548,-2.0828578,-1.5718998,2.4477196,-0.20904563,0.19235478,-0.24447899,0.06019255,-0.006359928,-0.1785389,-0.38307226,0.1340753,-9.270349,0.92764956,47.70838,-1.5478235,-2.1448371,-3.3927336,-0.30909795,-0.17553681,-0.34399202,28.75,30.125,29.3125,32.8125,35.375,36.5
0.33605185,-1.8429526,-0.7743708,-1.396467,-0.023358816,0.07781781,-0.15217046,-0.41516706,-0.36053407,0.060110994,-3.0763416,0.6300191,0.0001106333,-0.15428703,0.049415097,-0.001484562,0.010354979,-0.005219945,-0.03643305,0.46887115,-1.3508819,1.865117,-2.0827372,-1.5719002,2.4473615,-0.20942432,0.19378923,-0.24457875,0.059954945,-0.0074156746,-0.17286229,-0.4213795,0.11492168,-9.270349,0.8806493,47.66271,-1.4295965,-2.1669703,-3.4115212,-0.2930934,-0.1661034,-0.43154043,28.75,30.125,29.3125,32.8125,35.375,36.5
0.3380526,-1.1066757,-0.7905417,-1.4621538,-0.027847216,0.07345664,-0.15890077,-0.4154448,-0.360401,0.060066484,-3.0762374,0.6300733,-1.2230791e-05,-0.1573407,0.048733167,-5.894599e-05,0.006908635,0.0013625904,-0.036071926,0.46842697,-1.3504864,1.8647102,-2.0826085,-1.5719241,2.4469647,-0.21077128,0.19398725,-0.2469323,0.054671742,-0.0073561706,-0.17456879,-0.36391866,0.095768064,-9.3661175,0.8918391,47.696735,-1.4493775,-1.9916708,-3.473505,-0.26392308,-0.1662687,-0.4837072,28.75,30.125,29.3125,32.8125,35.375,36.5
0.34005243,-1.1003621,-0.6899926,-1.4572204,-0.038597967,0.06359232,-0.15492772,-0.41576606,-0.3603082,0.060068276,-3.0761967,0.63019305,-1.6320537e-05,-0.1588211,0.049018048,0.0004264761,0.005231425,0.0040158397,-0.027981386,0.4680061,-1.3500787,1.8641833,-2.0824778,-1.571936,2.446624,-0.21250653,0.19373828,-0.24721564,0.052062128,-0.0070750797,-0.18439521,-0.4596867,0.15322891,-9.3661175,0.900793,47.694946,-1.4570915,-2.0527582,-3.5954278,-0.20289671,-0.17488755,-0.4291267,28.75,30.125,29.3125,32.8125,35.375,36.5
0.34205234,-0.6412189,-1.0595897,-1.7147634,-0.023241075,0.06531169,-0.15896164,-0.4161082,-0.36018845,0.060069077,-3.0761552,0.6302929,3.0829106e-05,-0.16061771,0.04984988,0.000108222346,0.00581387,0.004809463,-0.01720996,0.46753764,-1.3496825,1.8636802,-2.082382,-1.5719723,2.4462235,-0.21469773,0.19595678,-0.24905856,0.051218633,-0.007968243,-0.19735494,-0.17238253,0.19153613,-9.423578,0.8985519,47.691364,-1.4224273,-2.1223216,-3.5290709,-0.17974183,-0.17076376,-0.34348476,28.75,30.125,29.3125,32.8125,35.375,36.5
0.34405226,-0.39590192,-0.9610732,-1.752572,-0.025843212,0.0719062,-0.1595242,-0.41643226,-0.36009663,0.06006157,-3.076149,0.63026804,3.7127033e-05,-0.16189173,0.051175762,-0.00091276696,0.007746758,0.0024948397,-0.00953244,0.46711698,-1.3492615,1.8631657,-2.0822852,-1.5719846,2.4457884,-0.21739869,0.19933502,-0.2513151,0.053018495,-0.008662158,-0.20773068,-0.15322891,0.15322891,-9.481039,0.90750587,47.684196,-1.3745639,-2.1168628,-3.575931,-0.19045606,-0.17182061,-0.21945807,28.75,30.125,29.3125,32.8125,35.375,36.5
0.3460523,-1.3151959,-1.4754945,-1.7597349,-0.0227818,0.05916112,-0.14931889,-0.4167497,-0.3599927,0.06006359,-3.0761573,0.63032764,1.2692727e-05,-0.16409111,0.051439933,-0.0008655414,0.0058590085,0.0045470954,-0.010152926,0.4666599,-1.3488892,1.862686,-2.0821788,-1.5719603,2.4453676,-0.21998093,0.20104003,-0.25293088,0.050243568,-0.007911913,-0.20969349,-0.3256114,0.22984336,-9.442732,0.9231726,47.675243,-1.169275,-2.2305942,-3.5057223,-0.15547141,-0.17283331,-0.14642125,28.75,30.125,29.3125,32.8125,35.375,36.5
0.34805223,-1.0471774,-1.5893458,-2.0094259,-0.026411891,0.0839015,-0.14679034,-0.41708407,-0.3598923,0.060073614,-3.0761342,0.6303293,8.586341e-05,-0.16573636,0.05286174,-0.001268682,0.0053951903,0.003406751,-0.020348001,0.46623835,-1.3484931,1.8621591,-2.082071,-1.572008,2.4449503,-0.22413392,0.20267256,-0.2541568,0.050638273,-0.006975783,-0.20365335,-0.36391866,0.17238252,-9.500193,0.87617236,47.71286,-0.98565686,-2.1998644,-3.6689084,-0.10668652,-0.17170994,-0.15083285,28.75,30.125,29.3125,32.8125,35.375,36.5
0.35005242,-1.8736894,-1.6936485,-2.020522,-0.021450339,0.066181935,-0.14492847,-0.41740116,-0.35979107,0.060059194,-3.0760982,0.6304404,2.6383634e-05,-0.16710496,0.053114805,-0.0008095815,0.00592604,0.0029553412,-0.028051091,0.46579415,-1.3480729,1.8616551,-2.08195,-1.5719961,2.4445803,-0.22536784,0.20460264,-0.25824988,0.053451765,-0.007250942,-0.19718185,-0.30645782,0.095768064,-9.576807,0.94331104,47.690468,-0.9272747,-2.273954,-3.5748181,-0.1097472,-0.18473661,-0.24765524,28.75,30.125,29.3125,32.8125,35.375,36.5
0.35205188,-1.3752652,-1.4234531,-1.9374692,-0.037806198,0.069157675,-0.15029526,-0.4177403,-0.35967308,0.060044564,-3.0760422,0.63054585,1.768302e-05,-0.1686714,0.052586686,-0.00043860174,0.006193772,0.004156298,-0.032573413,0.4653258,-1.3476404,1.8611397,-2.0818422,-1.5720204,2.4441853,-0.22514364,0.2072764,-0.26257062,0.054146748,-0.008037245,-0.19243157,-0.49799395,0.11492168,-9.710882,0.85155696,47.64837,-0.96739674,-2.3554623,-3.3682466,-0.10382968,-0.18995425,-0.32793927,28.75,30.125,29.3125,32.8125,35.375,36.5
0.3540524,-1.5112906,-1.281493,-1.7350764,-0.049618408,0.07516774,-0.15110287,-0.4180547,-0.35957173,0.0600304,-3.0760028,0.6305382,-3.4989778e-06,-0.16936734,0.05164145,-0.00045749935,0.0057744705,0.0045276377,-0.033736892,0.46490633,-1.3472197,1.8606347,-2.081723,-1.5720447,2.4437664,-0.22409926,0.20962593,-0.26546177,0.054162923,-0.007839366,-0.19022278,-0.7278373,0.21068975,-9.5385,0.9097417,47.692257,-1.0779676,-2.4546852,-3.255661,-0.08510192,-0.16987768,-0.37667853,28.75,30.125,29.3125,32.8125,35.375,36.5
0.35605222,-1.3491781,-0.75673807,-1.7350235,-0.044964015,0.082639456,-0.16098817,-0.4183974,-0.35949793,0.060059752,-3.076038,0.63059795,5.2985302e-05,-0.16929646,0.051161893,-0.00042016213,0.0057067107,0.004016304,-0.029030157,0.46448693,-1.3468238,1.8600606,-2.0816023,-1.5720319,2.4433799,-0.22322898,0.21048816,-0.2668887,0.05514811,-0.0075426763,-0.19406,-0.5363012,0.2681506,-9.557653,0.88960326,47.668976,-1.2601403,-2.43603,-3.3132505,-0.06377863,-0.19974056,-0.38326436,28.75,30.125,29.3125,32.8125,35.375,36.5
0.3580521,-1.1500667,-1.013797,-1.9651351,-0.03240949,0.08247237,-0.15219294,-0.41874912,-0.35939443,0.060051195,-3.076031,0.6306678,6.372183e-05,-0.16948879,0.051687807,-0.0003046836,0.005767573,0.0038126623,-0.019844577,0.46401852,-1.3463802,1.8595227,-2.0815184,-1.5720319,2.4429562,-0.22408815,0.21017727,-0.26699656,0.05576035,-0.0075117657,-0.20410515,-0.34476507,0.2681506,-9.768343,0.8985519,47.690468,-1.258707,-2.3630338,-3.4495258,-0.05813399,-0.18669033,-0.31871027,28.75,30.125,29.3125,32.8125,35.375,36.5
0.3600521,-1.4970983,-1.5571,-1.6457285,-0.046826586,0.08033719,-0.15473159,-0.41908035,-0.35926887,0.06003955,-3.0759618,0.6306843,0.00011584362,-0.16892225,0.052081864,-0.00075704185,0.0067163813,0.0024044728,-0.0089208875,0.46357483,-1.3459724,1.8590325,-2.0814226,-1.5721043,2.442532,-0.2239503,0.21035564,-0.26648152,0.05671955,-0.007740039,-0.21489073,-0.40222588,0.19153613,-9.519346,0.87393653,47.675243,-1.363179,-2.437418,-3.5753527,-0.04813304,-0.18788171,-0.18563375,28.75,30.125,29.3125,32.8125,35.375,36.5
0.36205202,-1.4377292,-1.4430695,-1.430779,-0.040620226,0.074216336,-0.15193366,-0.41944,-0.35915768,0.060035903,-3.0759234,0.6307903,0.0001090536,-0.16907129,0.051643148,-0.0008858279,0.006632819,0.0011774991,-0.0052158656,0.46309465,-1.3455167,1.8584574,-2.0812905,-1.5721158,2.4421232,-0.22351606,0.21204679,-0.26868257,0.058277536,-0.0071246983,-0.2181622,-0.51714754,0.17238252,-9.346964,0.91421866,47.71465,-1.3084795,-2.3163738,-3.6363554,-0.03695961,-0.20792493,-0.10226139,28.75,30.125,29.3125,32.8125,35.375,36.5
0.3640523,-0.8874123,-0.7926718,-1.4061955,-0.018313948,0.0766605,-0.14039475,-0.41977727,-0.35904634,0.060025286,-3.0759053,0.630807,7.68465e-05,-0.17108358,0.052086625,0.0005044581,0.005966646,0.0032208536,-0.010334701,0.46262652,-1.345085,1.8579301,-2.0811703,-1.5721158,2.441668,-0.22555213,0.21209688,-0.27230495,0.05972645,-0.007448254,-0.21507749,-0.38307226,0.17238252,-9.442732,0.9612189,47.684196,-1.3200698,-2.2323627,-3.5303717,-0.04418746,-0.19013071,-0.09185101,28.75,30.125,29.3125,32.8125,35.375,36.5
0.36605227,-0.8387843,-0.002210325,-1.504011,-0.0011508252,0.052434664,-0.14792545,-0.4201211,-0.35897368,0.060046528,-3.0759282,0.6308375,0.00013014824,-0.17141818,0.053413115,-1.0775112e-05,0.0074903145,0.0005483664,-0.021311998,0.46221772,-1.3446648,1.857344,-2.0810492,-1.5721158,2.4412756,-0.22776116,0.21331878,-0.2733572,0.06263811,-0.0075977547,-0.20630892,-0.22984336,0.076614454,-9.3661175,0.90750587,47.691364,-1.3957651,-2.24822,-3.4633281,-0.045840543,-0.2139026,-0.1759487,28.75,30.125,29.3125,32.8125,35.375,36.5
0.36805177,-0.33838734,0.1748637,-1.4801983,0.030623453,0.023675948,-0.14574267,-0.4204596,-0.3588635,0.0600245,-3.0758612,0.63094425,0.00013078301,-0.17200802,0.054655124,-0.0017270606,0.0097268205,-0.0038938785,-0.03232411,0.46177313,-1.3442079,1.8568166,-2.0809524,-1.572152,2.4409065,-0.23012416,0.21760689,-0.27538043,0.06534828,-0.0076172105,-0.1976585,-0.15322891,0.076614454,-9.308657,0.87393653,47.690468,-1.2354548,-2.2055843,-3.3977442,-0.059956867,-0.21410966,-0.27466223,28.75,30.125,29.3125,32.8125,35.375,36.5
0.3700521,-0.101760834,0.053253956,-1.3758192,0.043704014,0.0111633185,-0.14270088,-0.42083701,-0.35875607,0.060032528,-3.0758672,0.6309902,0.00015717013,-0.17326823,0.05618091,-0.0012847239,0.010152862,-0.0051364833,-0.042136572,0.46127912,-1.3437523,1.8562173,-2.0808318,-1.572152,2.4404407,-0.23361059,0.21789902,-0.2775442,0.06852709,-0.007436226,-0.1913326,-0.15322891,0.019153614,-9.270349,0.8806493,47.689575,-1.1142532,-2.278937,-3.4861617,-0.09183902,-0.20701672,-0.39307204,28.75,30.125,29.3125,32.8125,35.375,36.5
0.37205207,0.26936543,0.29290614,-1.3897191,0.028046355,0.015876962,-0.15955506,-0.42118075,-0.35864252,0.060045592,-3.0758083,0.63119155,0.00015004765,-0.17486234,0.057144612,-0.00013770982,0.010610758,-0.005637551,-0.047998708,0.4608107,-1.3433443,1.8556532,-2.080662,-1.5721639,2.4401057,-0.23623012,0.21839255,-0.2818228,0.07296448,-0.0076262774,-0.18808825,-0.11492168,0.038307227,-9.2703495,0.90750587,47.68599,-1.0147274,-2.2403383,-3.3370376,-0.12209946,-0.2204198,-0.4763269,28.75,30.125,29.3125,32.8125,35.375,36.5
0.374052,-0.23733054,0.1432722,-1.4987289,0.0022224053,0.02193136,-0.16263485,-0.4215248,-0.35853222,0.06004079,-3.0757601,0.631253,0.00013844119,-0.1751235,0.057509277,-0.0003518381,0.012521184,-0.008147315,-0.041809946,0.46035528,-1.3428998,1.8550905,-2.080517,-1.5721883,2.4396951,-0.23648982,0.22060552,-0.28503746,0.07704895,-0.008236168,-0.19453393,-0.05746084,0.05746084,-9.3661175,0.94331104,47.719128,-1.0802962,-2.4520204,-3.2074642,-0.15782273,-0.21295533,-0.48663414,28.75,30.125,29.3125,32.8125,35.375,36.5
