Tylouw/Master_Thesis_Code/training_data/batch_1/rect_rod_t0.2/sample_6_session_1.csv
timestamp[s],tcp_force_x[N],tcp_force_y[N],tcp_force_z[N],tcp_force_rx[Nm?],tcp_force_ry[Nm?],tcp_force_rz[Nm?],tcp_pose_x[m],tcp_pose_y[m],tcp_pose_z[m],tcp_pose_rx[rot_vec_x],tcp_pose_ry[rot_vec_y],tcp_pose_rz[rot_vec_z],tcp_velo_x[m/s],tcp_velo_y[m/s],tcp_velo_z[m/s],tcp_velo_rx[rot_vec_x/s],tcp_velo_ry[rot_vec_y/s],tcp_velo_rz[rot_vec_z/s],q1[rad],q2[rad],q3[rad],q4[rad],q5[rad],q6[rad],qd1[rad/s],qd2[rad/s],qd3[rad/s],qd4[rad/s],qd5[rad/s],qd6[rad/s],tool_acc_x,tool_acc_y,tool_acc_z,current_of_whole_robot[A],voltage_of_whole_robot[V],current_J1[A],current_J2[A],current_J3[A],current_J4[A],current_J5[A],current_J6[A],temp_J1[C],temp_J2[C],temp_J3[C],temp_J4[C],temp_J5[C],temp_J6[C]
7.730014e-07,-0.96716994,-1.5767406,-0.5732535,-0.00039082082,0.009675823,0.020905059,-0.3893047,-0.36871275,0.059977483,-3.0786626,0.62490064,7.984428e-05,0.0010301829,0.00055855856,-0.0007037378,0.001285955,-0.0025579596,8.783214e-05,0.5050448,-1.3816198,1.9042352,-2.0918791,-1.5708417,2.4800253,-5.0066836e-05,-2.0275642e-05,0.0012569473,0.0016236901,0.00011877308,-0.00013877137,0.15322891,0.095768064,-8.7532015,0.6725152,47.681515,-0.20878801,-3.1682138,-2.361887,-0.21631816,0.10832018,-0.015376395,28.75,30.0625,29.3125,32.75,35.3125,36.4375
0.002051927,-0.36880362,-1.1447436,-0.41472384,-0.012410146,0.031665392,0.006554063,-0.3893371,-0.3687005,0.05998942,-3.0786443,0.625031,0.00015203943,-0.0014474515,-0.00081877894,-0.00033589615,-0.0034691587,0.0059994445,8.622858e-05,0.5050088,-1.3816198,1.9042119,-2.0918958,-1.5708655,2.480073,-4.8711914e-05,-2.7202364e-07,0.0030210703,-0.009950236,0.00011684552,-0.00013529473,0.11492168,0.15322891,-8.63828,0.69041777,47.71465,-0.2280039,-3.0410962,-2.3374531,-0.1455197,0.11898633,-0.014191635,28.75,30.0625,29.3125,32.75,35.3125,36.4375
0.004051858,-0.45538202,-1.1986306,-0.7339929,-0.004182108,0.031336598,0.0077405013,-0.38935414,-0.3687243,0.060010087,-3.078739,0.6249161,0.00028054963,-0.0021995464,-0.0012376105,-0.00066923344,-0.004141895,0.00720618,8.489167e-05,0.5050329,-1.3816434,1.9042119,-2.0919797,-1.5708655,2.4800134,-4.7428384e-05,0.0014763373,0.002585198,-0.012372556,0.00011497963,-0.0001319877,0.076614454,0.1340753,-8.619126,0.7978386,47.703903,-0.25306964,-3.2550325,-2.5620718,-0.0234532,0.106407955,-0.021107975,28.75,30.0625,29.3125,32.75,35.3125,36.4375
0.006052061,-0.7858382,-0.7350748,-0.6514042,0.0028308243,0.006731677,0.012282934,-0.38933754,-0.3687195,0.05999009,-3.078716,0.6248725,0.00019457072,-0.00076390913,-0.00043946554,-0.00077369454,-0.0015638969,0.0025743989,8.253937e-05,0.5050329,-1.3816193,1.9042228,-2.091953,-1.5708536,2.479989,-4.621075e-05,0.0011156686,0.00178237,-0.0059081633,0.00011317226,-0.00012883834,0.019153614,0.15322891,-8.599973,0.7553206,47.719128,-0.19116348,-3.3244972,-2.5236154,-0.07279612,0.10294123,-0.026304709,28.75,30.0625,29.3125,32.75,35.3125,36.4375
0.008052944,-0.24505506,-0.13462779,-1.0094216,0.034829237,-0.0033772544,0.00841165,-0.38932335,-0.36872044,0.059977528,-3.0786989,0.62492716,0.00012614252,0.0003350866,0.00015915005,0.0003319699,-0.00028778275,0.00029501566,0.00010221142,0.5050329,-1.3816082,1.9042352,-2.0919397,-1.5708297,2.4800253,-2.283702e-05,-0.0014469695,0.0009260265,0.0001230945,0.00011142096,-0.00012583597,-0.019153614,0.19153613,-8.6574335,0.7329411,47.711964,-0.2061629,-3.1384058,-2.4800782,-0.10539806,0.10839163,-0.028459959,28.75,30.0625,29.3125,32.75,35.3125,36.4375
0.010052015,-0.10447689,0.05699584,-1.2264719,0.040002074,-0.0050472068,0.0013608104,-0.38931513,-0.36870432,0.05995745,-3.0786438,0.62495434,6.5633925e-05,0.0013107124,0.0007235713,-4.619428e-05,0.0015312259,-0.0029745547,7.295036e-05,0.50502086,-1.381584,1.9042467,-2.0919144,-1.5708417,2.4800372,-5.9018737e-05,-0.0012635842,0.0007152171,0.003892028,0.00010972293,-0.00013304545,0.019153614,0.1340753,-8.963891,0.7329411,47.684196,-0.71312976,-2.747717,-2.9149632,-0.16705395,0.09103449,-0.10627337,28.75,30.0625,29.3125,32.75,35.3125,36.4375
0.012053469,-0.3426229,-0.55578625,-1.3762307,-0.0019304926,0.02465518,-0.002243655,-0.38932124,-0.36869827,0.059952326,-3.0786135,0.62493026,5.9629463e-05,-0.00016281352,0.0020438498,-0.0029276598,0.003885734,-0.007238801,-0.00326988,0.50501984,-1.3815582,1.9042224,-2.0918906,-1.5708655,2.480025,-0.003662432,0.005483639,-0.00056348625,0.0032945503,0.00010807595,-0.00039196812,0.038307227,0.05746084,-9.155427,0.7172743,47.69763,-0.921254,-2.7485733,-3.0705557,-0.15370208,0.0875223,-0.13358365,28.75,30.0625,29.3125,32.75,35.3125,36.4375
0.014052223,-1.2419465,-1.5970645,-1.5771548,-0.04283132,0.040245406,-0.007513948,-0.38931018,-0.36869937,0.059927642,-3.0786192,0.62483346,-2.313899e-05,-0.0042185546,0.0039086277,-0.004051713,0.004180498,-0.0077939066,-0.00022088124,0.5050171,-1.3815199,1.9042333,-2.091891,-1.5708417,2.4799612,-0.010597376,0.01094411,-0.004180634,0.002078187,0.00010647772,-0.010373435,-0.05746084,0.11492168,-9.289503,0.83589023,47.696735,-0.526934,-3.2973077,-2.9715838,-0.14806466,0.09175505,-0.10143623,28.75,30.0625,29.3125,32.75,35.3125,36.4375
0.016052216,-1.7821127,-2.1797917,-1.734958,-0.052329063,0.055314943,-0.0084387725,-0.389313,-0.3686838,0.059922617,-3.0785844,0.62489986,-9.054894e-05,-0.0056952303,0.0037322561,-0.002474336,0.0024176291,-0.0046162447,0.0056366986,0.5049808,-1.3815085,1.9042205,-2.0918434,-1.5708297,2.4799707,-0.011680426,0.009548677,-0.006033891,0.0016921688,0.000104925966,-0.01731349,-0.17238252,0.19153613,-9.3661175,0.72622824,47.72002,-0.55894893,-3.073341,-3.014017,-0.14001435,0.08794158,-0.041873135,28.75,30.0625,29.3125,32.75,35.3125,36.4375
0.018052047,-1.7714674,-1.7342215,-1.7683797,-0.045279738,0.0772752,-0.0314838,-0.38933307,-0.36866745,0.059927195,-3.078592,0.62484187,-1.1227542e-05,-0.005646356,0.0037367055,-0.001951775,0.0018968375,-0.0036702638,0.010432262,0.5049569,-1.3815209,1.9042329,-2.0918791,-1.5708655,2.4799097,-0.011640044,0.008191555,-0.005579194,0.0015133118,0.00010341879,-0.022069048,-0.40222588,0.19153613,-9.481039,0.71279734,47.693153,-0.7511854,-2.9039438,-3.140744,-0.1107185,0.08459787,0.0063779587,28.75,30.0625,29.3125,32.75,35.3125,36.4375
0.020052355,-1.8049227,-0.9173781,-1.9582456,-0.021184467,0.08766778,-0.059172753,-0.38932827,-0.36865762,0.05990381,-3.0785382,0.62486935,-9.8709075e-05,-0.005171815,0.0043525244,-0.0023885525,0.003507973,-0.006573119,0.010346994,0.5049448,-1.3814725,1.9042205,-2.091842,-1.5708655,2.4799216,-0.012232301,0.008936983,-0.0061874725,0.0046960725,0.00010195433,-0.022576012,-0.40222588,0.15322891,-9.672575,0.74413085,47.65912,-0.8513711,-2.7880232,-3.393375,-0.12271816,0.10797216,-0.002864025,28.75,30.0625,29.3125,32.75,35.3125,36.4375
0.022052307,-1.9900863,-0.6695324,-2.104776,0.007100223,0.076990746,-0.070456475,-0.38931978,-0.36866558,0.05989441,-3.0785449,0.62485564,-0.0001780396,-0.007038081,0.0051103453,-0.0020882457,0.0034747738,-0.0064989496,0.0037015306,0.5049438,-1.3814481,1.9042076,-2.0918176,-1.5708297,2.479911,-0.015248512,0.010376542,-0.008825255,0.0058146515,9.213209e-05,-0.018945556,-0.40222588,0.05746084,-9.768343,0.7866488,47.71823,-0.9471394,-2.6863961,-3.3947768,-0.15806356,0.100741304,-0.040731985,28.75,30.0625,29.3125,32.75,35.3125,36.4375
0.024052288,-2.1000283,-0.9111724,-2.1502044,0.012703917,0.07290203,-0.08733881,-0.38932016,-0.36866468,0.05987543,-3.0785522,0.6248391,-0.00025864804,-0.008856824,0.0050612176,-0.0025562164,0.0033529506,-0.0063184625,0.00031130348,0.5049193,-1.3814108,1.9042066,-2.0918176,-1.5707935,2.4798753,-0.016876275,0.013847626,-0.011670769,0.004973002,0.00010293807,-0.017181309,-0.59376204,0.019153614,-9.787497,0.7418897,47.668976,-0.8788924,-2.849854,-3.304478,-0.1284414,0.12045068,-0.088228196,28.75,30.0625,29.3125,32.75,35.3125,36.4375
0.026052741,-2.064675,-0.9792783,-2.2666018,-0.0065419134,0.08457613,-0.10403656,-0.38937128,-0.36866266,0.059904788,-3.0785692,0.62486255,-0.00016199524,-0.009794171,0.0050708563,-0.0026073342,0.0028759395,-0.005489135,-0.0007935742,0.50488293,-1.3813984,1.9041227,-2.0918067,-1.5708174,2.4798515,-0.017776173,0.0148594435,-0.012489877,0.0038232766,0.00011564721,-0.016975727,-0.7469909,0.038307227,-9.787497,0.71951014,47.733456,-0.85236394,-2.7311292,-3.4074802,-0.10678909,0.091800764,-0.08167702,28.75,30.0625,29.3125,32.75,35.3125,36.4375
0.02805228,-2.5470932,-1.2503427,-2.1940105,-0.026754096,0.100494444,-0.10800999,-0.38936976,-0.36865193,0.059872538,-3.0785437,0.6247994,-0.00026027623,-0.0109249,0.0048268894,-0.0024826042,0.002450079,-0.0047532762,-0.002007269,0.5048588,-1.3813379,1.9041218,-2.0917943,-1.5708054,2.4797912,-0.018430844,0.0164152,-0.014529571,0.0034574016,0.00012595921,-0.01641561,-0.8236054,0.019153614,-9.921572,0.67475104,47.65464,-0.91654253,-2.844965,-3.31609,-0.10289705,0.113112986,-0.10435301,28.75,30.0625,29.3125,32.75,35.3125,36.4375
0.030052299,-2.8177354,-1.3017122,-2.247249,-0.038892027,0.109689064,-0.12459236,-0.38939744,-0.3686368,0.05987434,-3.07851,0.62486994,-0.0002363601,-0.010743782,0.005285513,-0.0026802616,0.0033355101,-0.006360006,-0.0034932212,0.5048226,-1.3813138,1.9040865,-2.0917823,-1.5708297,2.4798033,-0.019036202,0.016722592,-0.014865503,0.0053201974,0.00013176037,-0.015535038,-0.8810662,0.019153614,-9.959879,0.779936,47.65643,-0.9915378,-2.6709688,-3.4171662,-0.09850238,0.10315859,-0.116198085,28.75,30.0625,29.3125,32.75,35.3125,36.4375
0.032052107,-3.0802605,-1.8422153,-2.222417,-0.01152124,0.11107477,-0.1280878,-0.3894224,-0.3686285,0.059881687,-3.0785446,0.62483937,-0.00027423713,-0.011527033,0.0054158377,-0.0021153283,0.002782087,-0.0064002248,-0.005235751,0.5047624,-1.3813016,1.9040498,-2.0917575,-1.570793,2.4797196,-0.020301053,0.016864214,-0.016634835,0.0067142555,0.0006347287,-0.015057658,-0.7469909,0.05746084,-9.864111,0.784413,47.70032,-0.9934219,-2.821604,-3.3773592,-0.13665387,0.09606925,-0.15273204,28.75,30.0625,29.3125,32.75,35.3125,36.4375
0.034052555,-1.8042618,-0.68833786,-2.0449,-0.003764384,0.12604833,-0.14075442,-0.38945898,-0.368628,0.059875827,-3.0785174,0.6248343,-0.00023762297,-0.01239298,0.0055951676,-0.0020119252,0.0024814676,-0.0061912597,-0.00575191,0.5047499,-1.3812294,1.9039778,-2.0917575,-1.5708293,2.4797075,-0.021511205,0.017644016,-0.01780716,0.0067772805,0.0007940947,-0.01575134,-0.6512229,0.038307227,-9.844957,0.7933669,47.686886,-1.0496538,-2.7066698,-3.3825428,-0.12325574,0.0813995,-0.15827653,28.75,30.0625,29.3125,32.75,35.3125,36.4375
0.03605226,-1.6617477,-0.53768957,-2.0917535,0.016642986,0.10688499,-0.16578975,-0.38946784,-0.36861318,0.059853043,-3.0784943,0.6249255,-0.00030518445,-0.014061854,0.005620969,-0.0011678586,0.0012155515,-0.003778288,-0.006396447,0.5047015,-1.3811932,1.9039897,-2.09177,-1.570805,2.479719,-0.023073273,0.017697997,-0.01956025,0.005752698,0.0007279764,-0.016667947,-0.5554548,0.1340753,-9.80665,0.7284641,47.653748,-1.0150385,-2.7082763,-3.3205178,-0.110740766,0.08605325,-0.17015213,28.75,30.0625,29.3125,32.75,35.3125,36.4375
0.038052466,-2.0142465,-0.71386176,-1.893756,0.015213689,0.07484017,-0.17048694,-0.38950297,-0.36858964,0.05984544,-3.07848,0.62496156,-0.00031805175,-0.015817773,0.0058866423,-0.001036416,0.0006305248,-0.00272137,-0.006974245,0.504629,-1.3811568,1.9039639,-2.09177,-1.570805,2.4796708,-0.025157353,0.019274974,-0.021541473,0.004948823,0.0007218854,-0.018173082,-0.4405331,0.038307227,-9.672575,0.76874626,47.65912,-0.97095823,-2.7338192,-3.3113015,-0.09660491,0.08840974,-0.1680025,28.75,30.0625,29.3125,32.75,35.3125,36.4375
0.040052384,-1.298456,-0.8700773,-1.9436661,0.007801271,0.07594876,-0.17923535,-0.38953483,-0.3685748,0.059846487,-3.078444,0.62495387,-0.0002683212,-0.017061142,0.0059541925,-0.0004915994,-0.00017813568,-0.0011586479,-0.006598114,0.5046046,-1.3811207,1.9039162,-2.0917585,-1.5708536,2.4796462,-0.026399208,0.019502765,-0.022911355,0.0043310737,0.00066917454,-0.019790312,-0.40222588,0.076614454,-9.634268,0.7777002,47.68062,-0.9567075,-2.6090899,-3.3307455,-0.06698397,0.09867421,-0.17909828,28.75,30.0625,29.3125,32.75,35.3125,36.4375
0.04205234,-1.0297407,-0.6428667,-1.7078372,-0.018742321,0.0820996,-0.19231582,-0.38959205,-0.36855394,0.05986325,-3.0784419,0.62508756,-0.00025227535,-0.017516186,0.0063484535,-0.00016389374,-0.00016687548,-0.0010469995,-0.0074787396,0.5045085,-1.3810966,1.9038442,-2.0917342,-1.5708417,2.4796338,-0.02744491,0.019190231,-0.023463292,0.0051037627,0.0006062725,-0.019955166,-0.38307226,0.095768064,-9.615114,0.71279734,47.711964,-0.9267086,-2.63202,-3.4088058,-0.07201508,0.1012829,-0.20507395,28.75,30.0625,29.3125,32.75,35.3125,36.4375
0.044052325,-1.2542577,-1.4304603,-1.8842533,-0.008678375,0.0685644,-0.18289545,-0.38962743,-0.36853167,0.059854876,-3.0783963,0.6250592,-0.00025853518,-0.018411595,0.006458973,-0.00016376718,1.5007913e-05,-0.0012739536,-0.0072060213,0.5044603,-1.3810362,1.9037837,-2.0916984,-1.5708774,2.4795737,-0.028433634,0.020645656,-0.025346532,0.005817455,0.0005530826,-0.021215608,-0.3256114,0.095768064,-9.557653,0.842603,47.734352,-0.9298562,-2.658362,-3.3472884,-0.07708839,0.10801293,-0.21225673,28.75,30.0625,29.3125,32.75,35.3125,36.4375
0.04605284,-0.97284275,-1.0245494,-1.9126121,-0.015482812,0.06580463,-0.18454349,-0.38965657,-0.36852005,0.05983828,-3.0784106,0.6250992,-0.00036356444,-0.019591507,0.006711934,0.00030309946,-0.00022298274,-0.0007589331,-0.006755354,0.50437593,-1.380976,1.9037474,-2.091686,-1.5708174,2.4795125,-0.0299318,0.021271426,-0.027329521,0.0066100233,0.00050841033,-0.023163555,-0.22984336,0.095768064,-9.634268,0.75755644,47.675243,-0.93773675,-2.580299,-3.244712,-0.08805981,0.08467512,-0.22356427,28.75,30.0625,29.3125,32.75,35.3125,36.4375
0.048051804,-0.60626304,-1.4656237,-1.9617645,-0.000605755,0.05811662,-0.15446082,-0.3897071,-0.36851716,0.059860904,-3.0784345,0.6251237,-0.00025305725,-0.020938536,0.0074361907,0.00061242614,-0.0004877224,-0.00020290677,-0.007203754,0.50433904,-1.3809638,1.9036869,-2.0917094,-1.5708417,2.479488,-0.032382246,0.021613283,-0.028481936,0.00680516,0.00047041586,-0.025164992,-0.22984336,0.15322891,-9.519346,0.7329411,47.66539,-0.8873602,-2.5407147,-3.265289,-0.0708179,0.11253476,-0.23932615,28.75,30.0625,29.3125,32.75,35.3125,36.4375
0.050052084,-0.58431035,-1.5175664,-1.7645073,-0.0043420866,0.04137412,-0.16001816,-0.38975146,-0.36849177,0.059858035,-3.0784237,0.62517804,-0.0002526383,-0.022108711,0.0077568404,0.0007766593,-0.0009639809,0.000718529,-0.0064082798,0.5042549,-1.3809274,1.9036506,-2.0917099,-1.5708417,2.479439,-0.033991396,0.02222404,-0.029416788,0.00609221,0.00043770854,-0.027569005,-0.11492168,0.17238252,-9.519346,0.7463667,47.639416,-0.8957958,-2.6043305,-3.2608752,-0.06528005,0.105055764,-0.22618881,28.75,30.0625,29.3125,32.75,35.3125,36.4375
0.05205188,-0.6890581,-1.9109823,-1.88689,0.002707868,0.029939504,-0.15338664,-0.3898081,-0.3684827,0.059880856,-3.0784523,0.6251455,-0.00018423473,-0.023002708,0.008561958,0.00039719473,-0.0005453381,1.8922141e-05,-0.0067685153,0.50419414,-1.3809031,1.9035672,-2.091698,-1.5708536,2.4793544,-0.036159743,0.023388626,-0.029977808,0.006302966,0.00040925675,-0.029376654,0.038307227,0.21068975,-9.519346,0.69041777,47.703007,-0.83486676,-2.605624,-3.359993,-0.06393485,0.11453849,-0.23451276,28.75,30.0625,29.3125,32.75,35.3125,36.4375
0.054051757,-0.6085153,-1.6291829,-1.9527463,-0.002758654,0.026850127,-0.15114047,-0.3898597,-0.36849138,0.059885673,-3.078493,0.62511605,-0.00017989437,-0.024505332,0.008719999,0.00076570373,-0.000900507,0.00070596166,-0.007062135,0.5041456,-1.3808305,1.9034704,-2.091698,-1.5708297,2.4792824,-0.037809547,0.024681957,-0.032435566,0.0066948966,0.00038427836,-0.030731622,0.0,0.15322891,-9.442732,0.75084364,47.689575,-0.76703775,-2.6041212,-3.3470452,-0.06437208,0.1252167,-0.23583478,28.75,30.0625,29.3125,32.75,35.3125,36.4375
0.05605227,-0.690086,-1.9555616,-1.691657,0.0006676198,0.024525233,-0.15386535,-0.38991597,-0.36846396,0.059898272,-3.078472,0.6252066,-0.00012755967,-0.025149846,0.008350826,0.0013055294,-0.0011112476,0.0011301383,-0.006000576,0.5040618,-1.3808063,1.9034103,-2.0916855,-1.5708536,2.4792578,-0.037772316,0.025355207,-0.03471743,0.00782953,0.0003621787,-0.031754985,0.019153614,0.17238252,-9.442732,0.7709874,47.689575,-0.8231961,-2.5000758,-3.2394323,-0.06337445,0.13367769,-0.25050995,28.75,30.0625,29.3125,32.75,35.3125,36.4375
0.058052257,-0.8411479,-1.6503972,-1.6559494,-0.00980635,0.03296914,-0.1523979,-0.38994396,-0.36844116,0.059882715,-3.078458,0.62520295,-0.00018268566,-0.025922932,0.008280108,0.0016399315,-0.0015283288,0.0018242712,-0.005391682,0.5039899,-1.380758,1.903386,-2.0916736,-1.5708417,2.4791853,-0.038388643,0.025831085,-0.036053963,0.007881075,0.00038802734,-0.032979652,0.0,0.22984336,-9.423578,0.7597976,47.694946,-0.9542707,-2.45398,-3.2120528,-0.053255647,0.13225767,-0.25201368,28.75,30.0625,29.3125,32.75,35.3125,36.4375
0.06005233,-0.36521927,-1.1063554,-1.4735878,-0.023033401,0.0591102,-0.17047562,-0.3900035,-0.3684282,0.0598942,-3.0784593,0.62524253,-0.00019518111,-0.026889108,0.009172179,0.0014055388,-0.0011896169,0.001330404,-0.006576918,0.503905,-1.3806978,1.9032778,-2.0916255,-1.5708297,2.479125,-0.04074951,0.026680864,-0.036590636,0.008164491,0.00032923717,-0.03415486,0.019153614,0.22984336,-9.404425,0.73069996,47.67345,-0.8769386,-2.472293,-3.2303154,-0.07351406,0.11889398,-0.27323604,28.75,30.0625,29.3125,32.75,35.3125,36.4375
0.062052257,-0.43183273,-1.6939967,-1.7835207,-0.015827926,0.06048103,-0.16346857,-0.3900772,-0.3684102,0.059911005,-3.078464,0.6252813,-0.000115226554,-0.027671423,0.009703777,0.0014423586,-0.00099573,0.0009449608,-0.007140046,0.5038208,-1.3806496,1.9031824,-2.091625,-1.5708536,2.4790645,-0.04237858,0.02733973,-0.037640408,0.008985545,0.00034665022,-0.03522037,-0.05746084,0.21068975,-9.442732,0.72622824,47.701214,-0.88070226,-2.4784465,-3.248394,-0.07481883,0.12431274,-0.28777528,28.75,30.0625,29.3125,32.75,35.3125,36.4375
0.06405211,-1.4187129,-1.7142079,-1.6219772,-0.014309362,0.03964969,-0.14656407,-0.3901252,-0.36839306,0.05991389,-3.0784683,0.6253592,-0.00016700369,-0.028671376,0.009735159,0.0016787269,-0.0013611055,0.0014399583,-0.006794984,0.5037246,-1.3806012,1.9031104,-2.0915892,-1.5708174,2.4790163,-0.043407552,0.028256921,-0.039292287,0.009111222,0.0004237623,-0.03659374,-0.1340753,0.22984336,-9.500193,0.7933669,47.698532,-0.8487768,-2.4514208,-3.2671254,-0.07565522,0.13038848,-0.28767672,28.75,30.0625,29.3125,32.75,35.3125,36.4375
0.066052,-1.4646813,-1.3230848,-1.5522909,-0.017870383,0.04589104,-0.14946586,-0.39016458,-0.3683677,0.05989958,-3.0784295,0.6253502,-0.00021168932,-0.029324148,0.009586738,0.0018410579,-0.0023854433,0.0012706855,-0.007142778,0.5036525,-1.3805289,1.9030493,-2.091553,-1.5708293,2.4789436,-0.044371344,0.028967293,-0.040548198,0.00930658,0.0013985503,-0.037210874,-0.19153613,0.17238252,-9.404425,0.77545905,47.71465,-0.87533045,-2.4210405,-3.23233,-0.07246091,0.12906629,-0.29755056,28.75,30.0625,29.3125,32.75,35.3125,36.4375
0.068052076,-0.4588528,-1.054574,-1.4915287,-0.0075002923,0.080571376,-0.16335133,-0.39023066,-0.3683561,0.059926435,-3.0784814,0.6253408,-0.00018029167,-0.030169811,0.009886528,0.0018593823,-0.0025404575,0.0011290922,-0.0061876853,0.5035562,-1.3805045,1.902954,-2.0915291,-1.570805,2.4788349,-0.045784675,0.029854067,-0.041712746,0.0096336175,0.0016022688,-0.039579,-0.24899697,0.24899697,-9.3661175,0.7284641,47.64479,-0.8127534,-2.4149156,-3.292513,-0.07151759,0.11192292,-0.30041382,28.75,30.0625,29.3125,32.75,35.3125,36.4375
0.070052065,-1.7575552,-1.0239313,-1.5423719,0.00075825496,0.057580754,-0.14708471,-0.3902976,-0.36833888,0.059929103,-3.0784957,0.62534344,-0.00012633855,-0.030974172,0.010122721,0.0018476034,-0.0029506835,0.00062773953,-0.0061505972,0.5034719,-1.3804442,1.902882,-2.091553,-1.5708164,2.4787505,-0.047300447,0.03084636,-0.04297662,0.010143724,0.0022031905,-0.041132197,-0.34476504,0.15322891,-9.270349,0.7777002,47.65464,-0.88375187,-2.4345303,-3.2273655,-0.0726918,0.11059821,-0.30322748,28.75,30.0625,29.3125,32.75,35.3125,36.4375
0.07205193,-1.4986751,-1.1457248,-1.4238435,0.013061117,0.07475247,-0.15020888,-0.39037895,-0.36832425,0.059936646,-3.0785084,0.62540394,-0.00011081574,-0.03148345,0.010060352,0.0017094859,-0.0028500725,0.0005482466,-0.0066019353,0.50336397,-1.3803598,1.9027623,-2.091541,-1.5708045,2.4786787,-0.04763005,0.032022603,-0.04406182,0.010171789,0.0021522965,-0.041009706,-0.2873042,0.19153613,-9.212888,0.78217715,47.717335,-0.9212077,-2.3860972,-3.2425137,-0.07436027,0.11494456,-0.32805663,28.75,30.0625,29.3125,32.75,35.3125,36.4375
0.07405174,-1.6736356,-0.8110415,-1.4250154,0.006124467,0.07347506,-0.15374601,-0.39042515,-0.36829928,0.059920587,-3.0784774,0.6253972,-0.00016969701,-0.033177823,0.011291875,0.0013508024,-0.002566275,-0.00023634541,-0.008269809,0.50327885,-1.3802749,1.9026903,-2.0915048,-1.5708045,2.4785933,-0.05135485,0.033787023,-0.045432385,0.010601625,0.0022777792,-0.043066166,-0.36391866,0.15322891,-9.270349,0.66803825,47.71017,-0.82906127,-2.4146564,-3.2430134,-0.06108536,0.105548725,-0.35217953,28.75,30.0625,29.3125,32.75,35.3125,36.4375
0.0760521,-1.1700473,-0.54578435,-1.4475565,0.0061144317,0.09166736,-0.15391421,-0.39048743,-0.36827263,0.059909575,-3.078443,0.62540674,-0.00019979134,-0.03355581,0.010517318,0.0020297577,-0.0031999492,0.00095653255,-0.0040278835,0.50318336,-1.3801787,1.9025935,-2.091469,-1.5708164,2.4785082,-0.05038086,0.033972155,-0.047266997,0.010899933,0.002252092,-0.0463334,-0.3256114,0.019153614,-9.232041,0.84708,47.694946,-0.75886786,-2.4544969,-3.2498887,-0.07075504,0.08872574,-0.34286195,28.75,30.0625,29.3125,32.75,35.3125,36.4375
0.078052275,-1.4271479,-0.7187075,-1.2943586,0.0048882137,0.09302558,-0.15904601,-0.39054728,-0.36824414,0.059910484,-3.078445,0.6253858,-0.00017428464,-0.03399556,0.010895325,0.0018908241,-0.0030521522,0.000690299,-0.0011315753,0.5030874,-1.3801304,1.9025344,-2.091469,-1.5708288,2.478399,-0.0514186,0.034462027,-0.04755474,0.011001453,0.0022502998,-0.05026724,-0.40222588,0.05746084,-9.270349,0.66803825,47.64927,-0.95656097,-2.3725696,-3.2497969,-0.08082662,0.09080374,-0.32587352,28.75,30.0625,29.3125,32.75,35.3125,36.4375
0.080052175,-1.6244234,-1.0431917,-1.5796547,0.009230984,0.08833199,-0.14499344,-0.39065608,-0.36824346,0.05995169,-3.0785344,0.62544143,-0.00010933283,-0.03453791,0.011810424,0.001228097,-0.0024119876,-0.0007058061,-6.6775465e-05,0.50295484,-1.3800701,1.9023665,-2.0914571,-1.5707806,2.4782898,-0.053523064,0.035638656,-0.047510713,0.011314638,0.002367743,-0.053436346,-0.45968673,0.0,-9.32781,0.7866488,47.67345,-0.86448455,-2.3894935,-3.264093,-0.08084568,0.115534835,-0.28611267,28.75,30.0625,29.3125,32.75,35.3125,36.4375
0.08205272,-1.195027,-0.47475693,-1.5098914,0.0022221194,0.0925811,-0.15535413,-0.39072192,-0.3682313,0.05995514,-3.0785522,0.625485,-0.00012048136,-0.03713306,0.012194598,0.0015863392,-0.0032712596,0.00041095298,-0.003131478,0.5028579,-1.3799973,1.9022697,-2.0914447,-1.5707563,2.4782178,-0.056706905,0.037979204,-0.051053535,0.011125058,0.0025749274,-0.05355397,-0.4405331,-0.05746084,-9.270349,0.83365434,47.71286,-0.83141136,-2.361588,-3.234251,-0.076476835,0.096616834,-0.29430047,28.75,30.0625,29.3125,32.75,35.3125,36.4375
0.0840519,-1.9761059,-0.7940229,-1.4648378,0.008692373,0.06424665,-0.14929318,-0.3907553,-0.36818117,0.059920944,-3.0784824,0.6254291,-0.00023771307,-0.037238553,0.011924976,0.0014801248,-0.0033007339,0.000114816736,0.0011225035,0.50275016,-1.3799127,1.902234,-2.0913851,-1.5707687,2.478084,-0.056447715,0.038811855,-0.05184672,0.011329629,0.002735564,-0.05754889,-0.47884035,-0.1340753,-9.442732,0.74413085,47.711063,-0.74570364,-2.4591498,-3.1583683,-0.0817226,0.08556085,-0.27890474,28.75,30.0625,29.3125,32.75,35.3125,36.4375
0.08605258,-1.3309014,-0.6191714,-1.2910591,0.0048365337,0.07935672,-0.15390155,-0.39083442,-0.3681638,0.05993037,-3.078515,0.62533635,-0.00018432326,-0.036276836,0.0120854825,0.00032887774,-0.0024891938,-0.0021057602,0.0056122043,0.50265473,-1.3798405,1.9021271,-2.0913851,-1.5707806,2.4779267,-0.05603967,0.039726168,-0.050277837,0.011181234,0.0030984955,-0.06163155,-0.45968673,-0.05746084,-9.346964,0.7284641,47.642998,-0.9973174,-2.3932407,-3.3985162,-0.08273479,0.06822456,-0.22477037,28.75,30.0625,29.3125,32.75,35.3125,36.4375
0.08805261,-1.5587462,-0.9601761,-1.6884506,0.012431365,0.07697344,-0.14504881,-0.39093933,-0.36812708,0.059954654,-3.0785089,0.6254306,-0.00010330243,-0.038169328,0.012426062,0.0005574617,-0.0031158556,-0.0013773883,0.0063668056,0.5025102,-1.3797798,1.9019946,-2.0913608,-1.5708045,2.4778419,-0.058482103,0.041425213,-0.05277798,0.0110401325,0.0032933843,-0.064827465,-0.4405331,-0.095768064,-9.251195,0.73069996,47.67614,-0.93360656,-2.4661283,-3.2994683,-0.083338425,0.08516075,-0.2073428,28.75,30.0625,29.3125,32.75,35.3125,36.4375
0.09005173,-1.2537254,-0.9012573,-1.7466049,0.015441795,0.078427546,-0.15053008,-0.39100945,-0.3681008,0.059938148,-3.0785172,0.62541085,-0.0001841884,-0.039691772,0.012094705,0.0013521949,-0.0038906778,-0.00027233406,0.008001611,0.5023781,-1.3796713,1.9018983,-2.0913365,-1.5707682,2.4776964,-0.059417035,0.04262368,-0.056211263,0.011935463,0.0034320962,-0.067396075,-0.2681506,-0.095768064,-9.404425,0.7597976,47.655537,-0.9321937,-2.4527414,-3.2389357,-0.08354205,0.07185208,-0.16359034,28.75,30.0,29.3125,32.75,35.3125,36.4375
0.092051625,-1.4792529,-1.0738245,-1.6897663,0.0055733523,0.065116666,-0.14050525,-0.39110026,-0.36807963,0.059947528,-3.07854,0.6253373,-0.00017040959,-0.040277943,0.012275413,0.0011452907,-0.0036200122,-0.0006954623,0.009585917,0.502258,-1.3795748,1.9017547,-2.0913012,-1.5707682,2.4775276,-0.060232352,0.043860193,-0.057283666,0.012272923,0.0033975067,-0.06979501,-0.28730422,-0.038307227,-9.423578,0.683705,47.70211,-0.9230423,-2.4603572,-3.1642733,-0.088915616,0.077655405,-0.13105005,28.75,30.0,29.3125,32.75,35.3125,36.4375
0.09405272,-1.0884854,-1.4774239,-1.7187303,-0.0030337304,0.07718337,-0.13953866,-0.39115977,-0.36805278,0.05995168,-3.0785642,0.6252645,-0.00018286282,-0.039825946,0.013039841,0.00024060959,-0.0023532037,-0.0024714428,0.0109749315,0.50215006,-1.3795265,1.9016827,-2.0912774,-1.5707563,2.4773712,-0.060932443,0.04438646,-0.055911027,0.012542509,0.0031451937,-0.0718842,-0.2681506,0.05746084,-9.385271,0.7911258,47.66987,-0.9855768,-2.4571426,-3.322501,-0.1088735,0.0765716,-0.08848718,28.75,30.0,29.3125,32.75,35.3125,36.4375
0.09605203,-1.6196891,-2.0797467,-1.8199501,-0.0024488282,0.061703347,-0.13810337,-0.3912381,-0.36801046,0.05993757,-3.078529,0.62527597,-0.00024313715,-0.04112238,0.012970654,0.00037785832,-0.0021761444,-0.0021254164,0.010502664,0.50200605,-1.3794178,1.901575,-2.0912282,-1.5707563,2.477239,-0.06180459,0.046368234,-0.058708776,0.013142011,0.002814919,-0.07228229,-0.22984336,0.1340753,-9.442732,0.7866488,47.684196,-1.0367134,-2.4363925,-3.2810175,-0.12652631,0.08339803,-0.0833811,28.75,30.0,29.3125,32.75,35.3125,36.4375
0.098052174,-1.3372132,-1.6465001,-1.8159153,-0.025195813,0.061751723,-0.1427166,-0.39136183,-0.3679842,0.059963483,-3.0785565,0.62532043,-0.00011805865,-0.0420888,0.013249407,0.0005119778,-0.0019726981,-0.0016288074,0.008843042,0.50186205,-1.3793334,1.901419,-2.0912406,-1.5707806,2.4771192,-0.06289628,0.047238275,-0.06008517,0.013311115,0.002401106,-0.07171278,-0.24899697,0.19153613,-9.385271,0.77545905,47.655537,-1.0582832,-2.4690046,-3.290463,-0.116061166,0.07901489,-0.07102895,28.75,30.0,29.3125,32.75,35.3125,36.4375
0.10005217,-0.73101276,-1.3623492,-1.7394525,-0.03856119,0.06833657,-0.15251519,-0.39142135,-0.36794853,0.059940245,-3.078528,0.6252184,-0.0001792396,-0.042619374,0.013360326,0.0007791859,-0.0019631423,-0.0011507355,0.00773307,0.50175416,-1.3792251,1.9013356,-2.0912044,-1.5707926,2.4769514,-0.063414834,0.047411334,-0.060970373,0.013609083,0.0021572635,-0.07112075,-0.22984336,0.30645782,-9.346964,0.78217715,47.67614,-1.0921222,-2.4301052,-3.309216,-0.15958798,0.08187245,-0.06036784,28.75,30.0,29.3125,32.75,35.3125,36.4375
0.10205197,-0.4653123,-1.5354486,-1.8031403,-0.030475806,0.06455353,-0.1515854,-0.3915111,-0.36792806,0.05993716,-3.0785263,0.6252765,-0.00021822004,-0.04375631,0.013834311,-0.0002629615,-0.0011146859,-0.0023479962,0.0050110715,0.5016218,-1.379104,1.9011911,-2.0911686,-1.5707692,2.4768555,-0.065147504,0.050707072,-0.06241773,0.013221122,0.0019843078,-0.07013001,-0.17238252,0.28730422,-9.32781,0.7642693,47.72271,-1.091573,-2.483726,-3.2704115,-0.15373348,0.08617283,-0.072777905,28.75,30.0,29.3125,32.75,35.3125,36.4375
0.104051866,-0.60444516,-1.5504687,-1.9676504,-0.028175637,0.051773235,-0.14884456,-0.39161712,-0.36789212,0.059941955,-3.07852,0.6252565,-0.00017943227,-0.044552844,0.01406627,9.859257e-05,-0.001173701,-0.0019466616,0.0028049964,0.5014777,-1.3789958,1.9010466,-2.0911448,-1.570793,2.4766998,-0.0661728,0.051017296,-0.063760094,0.013872251,0.0018426386,-0.068948455,-0.095768064,0.40222588,-9.32781,0.82022345,47.688675,-1.0917823,-2.5826328,-3.2752872,-0.16320623,0.08892845,-0.094446,28.75,30.0,29.3125,32.75,35.3125,36.4375
0.106052354,-0.48804417,-1.3821104,-1.9014547,-0.029784504,0.043940514,-0.14551964,-0.39171764,-0.3678663,0.05993777,-3.078537,0.6252608,-0.00017695257,-0.045830593,0.014234687,0.0013722868,-0.0026409964,0.0005795862,-3.0078161e-05,0.5013336,-1.3788761,1.9009145,-2.0911448,-1.5707811,2.4765563,-0.06766769,0.049572945,-0.064871,0.013507928,0.001912975,-0.067608126,-0.019153614,0.3256114,-9.308656,0.6926589,47.693153,-1.1352705,-2.4089813,-3.2895331,-0.14790045,0.078820854,-0.1036913,28.75,30.0,29.3125,32.75,35.3125,36.4375
0.10805272,-0.8310739,-1.5458821,-1.9561918,-0.030161437,0.030573532,-0.1427229,-0.391788,-0.36785397,0.0599599,-3.0785928,0.6251965,-0.00018667112,-0.046955287,0.014667858,0.0011145336,-0.002381899,0.00030195882,-0.0030968725,0.5012253,-1.3788275,1.9007958,-2.091097,-1.5707453,2.4764009,-0.06936876,0.051297624,-0.06635854,0.013641816,0.0018181786,-0.06624134,0.05746084,0.28730422,-9.423578,0.7732232,47.652847,-1.0879656,-2.3836875,-3.311593,-0.15787785,0.08807164,-0.14730382,28.75,30.0,29.3125,32.75,35.3125,36.4375
0.11005249,-0.355565,-1.4206518,-1.8822285,-0.032319058,0.044196744,-0.15102352,-0.39186934,-0.36780635,0.059933886,-3.078529,0.6252798,-0.00027365205,-0.04749128,0.014606365,0.00025109592,-0.002120393,-0.0007718648,-0.004734562,0.50106937,-1.3786945,1.9006866,-2.091049,-1.5707449,2.476305,-0.069923446,0.05390879,-0.0673725,0.013111412,0.0020969352,-0.06515809,-0.019153614,0.21068975,-9.519346,0.7911258,47.651955,-1.0901644,-2.5148373,-3.258837,-0.17538497,0.09841196,-0.15386857,28.75,30.0,29.3125,32.75,35.3125,36.4375
0.112052396,-0.3351427,-1.4632045,-1.9438162,-0.032380298,0.051909916,-0.14585286,-0.39198574,-0.36778048,0.05994307,-3.0785456,0.62526476,-0.00022174831,-0.048583496,0.014862376,0.00024076815,-0.002417765,-0.00077206775,-0.0070512337,0.50092506,-1.3785739,1.9005202,-2.091037,-1.5707563,2.4761493,-0.07150974,0.0551901,-0.06889404,0.013207693,0.0023572028,-0.064427294,-0.095768064,0.2681506,-9.404425,0.8112748,47.690468,-1.1481805,-2.5688605,-3.266712,-0.17791833,0.09850714,-0.19568521,28.75,30.0,29.3125,32.75,35.3125,36.4375
0.11405228,-0.85838926,-1.5361116,-1.862196,-0.021066993,0.04490547,-0.14013544,-0.3920593,-0.36777455,0.059957217,-3.078586,0.6252537,-0.00026873936,-0.049460556,0.014747587,0.0017401128,-0.0038082192,0.0017950049,-0.008124197,0.5008172,-1.3784904,1.9003757,-2.0909774,-1.5707086,2.4760294,-0.07210469,0.053262692,-0.07006836,0.013393397,0.0023424511,-0.063949116,-0.038307227,0.21068975,-9.385271,0.8112748,47.675243,-1.2022907,-2.396671,-3.347237,-0.20229824,0.07128757,-0.22646312,28.75,30.0,29.3125,32.75,35.3125,36.4375
0.116052814,-0.65520865,-1.5480999,-1.9576008,-0.010579899,0.062047817,-0.13940424,-0.39216995,-0.36773553,0.059951816,-3.0785818,0.6253089,-0.0002570293,-0.05037678,0.015062184,0.0007995866,-0.0030949577,0.0007434184,-0.007280929,0.5006491,-1.3783693,1.9002446,-2.0909774,-1.5707086,2.4758964,-0.073387295,0.056203853,-0.07132272,0.012972352,0.0022185051,-0.06607375,-0.095768064,0.22984336,-9.404425,0.78217715,47.71017,-1.2244138,-2.4108217,-3.2994018,-0.18190774,0.07503991,-0.2534086,28.75,30.0,29.3125,32.75,35.3125,36.4375
0.11805181,-1.2802587,-1.438273,-1.9884406,-0.00010064425,0.050938334,-0.14225118,-0.3922835,-0.36767617,0.05993649,-3.078503,0.6253508,-0.00023969018,-0.051004086,0.014674897,0.000954094,-0.0033299366,0.0012316862,-0.0071690287,0.5004814,-1.3782248,1.9001001,-2.0909412,-1.5707687,2.475765,-0.07327741,0.0573311,-0.073023915,0.013001728,0.002184701,-0.066074945,-0.11492168,0.17238252,-9.385271,0.7553206,47.67345,-1.2343034,-2.4995062,-3.2563062,-0.20027444,0.082321696,-0.25581983,28.75,30.0,29.3125,32.75,35.3125,36.4375
0.12005226,-0.8578032,-0.9003499,-2.0239158,-0.006532843,0.06694544,-0.13942839,-0.39237583,-0.3676683,0.059939977,-3.0785484,0.62530375,-0.00026282904,-0.053394824,0.015770577,0.0014976395,-0.004084995,0.0020712614,-0.0119646955,0.50036013,-1.3781044,1.8999442,-2.0909173,-1.5707325,2.4756086,-0.077474706,0.05820539,-0.07539227,0.013398675,0.0024414144,-0.065475956,-0.095768064,0.11492168,-9.404425,0.7911258,47.704796,-1.1731031,-2.4014454,-3.2696428,-0.19912368,0.09517169,-0.30428255,28.75,30.0,29.3125,32.75,35.3125,36.4375
0.12205257,-0.7357918,-0.942374,-2.066709,-0.0013546166,0.06934712,-0.13022508,-0.39247224,-0.36763826,0.059930567,-3.0785403,0.62535685,-0.00031690643,-0.052922312,0.014764623,0.0014455921,-0.004402495,0.0019265237,-0.008109398,0.5002055,-1.3779721,1.8998007,-2.0908816,-1.5707086,2.4754882,-0.07554207,0.05897185,-0.07619095,0.013406321,0.0027861553,-0.06739885,-0.22984336,0.11492168,-9.500193,0.7777002,47.70211,-1.3344363,-2.4631689,-3.1560588,-0.20918418,0.09065993,-0.35395598,28.75,30.0,29.3125,32.75,35.3125,36.4375
0.124052174,-1.0301744,-1.2071124,-2.0424848,0.006226824,0.07193523,-0.13203295,-0.39258397,-0.3676005,0.059951156,-3.0785391,0.6253378,-0.00023852031,-0.05336844,0.015269827,0.00050566543,-0.0036729996,0.00034174015,-0.009802102,0.5000612,-1.3778872,1.8996452,-2.0908458,-1.5707449,2.4753323,-0.07686161,0.061090365,-0.07656578,0.013400712,0.0029080156,-0.067025326,-0.24899697,0.076614454,-9.461885,0.80679786,47.653748,-1.332202,-2.3493469,-3.3141527,-0.21239728,0.088329025,-0.34968597,28.75,30.0,29.3125,32.75,35.3125,36.4375
0.1260526,-1.6303786,-1.2828964,-1.9264963,0.0040523745,0.07673494,-0.12653023,-0.39270622,-0.3675821,0.05995638,-3.0785842,0.62546563,-0.0002563377,-0.05681277,0.01605342,0.0019775357,-0.005018851,0.0031140626,-0.015860826,0.49987987,-1.3777548,1.8994764,-2.0908458,-1.5706848,2.475225,-0.08124236,0.061944045,-0.08106139,0.013969579,0.002755007,-0.06534512,-0.4405331,0.1340753,-9.3661175,0.7642693,47.655537,-1.1717519,-2.557025,-3.1705842,-0.2405441,0.07462341,-0.43624127,28.75,30.0,29.3125,32.75,35.3125,36.4375
0.12805301,-1.6001589,-1.264199,-1.9203656,0.00169902,0.09222716,-0.13350692,-0.39279377,-0.36754808,0.05993323,-3.0785415,0.6254331,-0.00031770385,-0.055549927,0.015770419,0.0011577652,-0.004101,0.0017222425,-0.011126874,0.499749,-1.3775985,1.8993329,-2.0907977,-1.5706967,2.4750793,-0.07949596,0.062333673,-0.079632275,0.0138124265,0.0026150323,-0.06833312,-0.45968673,0.11492168,-9.481039,0.8157518,47.698532,-1.4237986,-2.3859386,-3.1772327,-0.24215603,0.0779464,-0.45985532,28.75,30.0,29.3125,32.75,35.3125,36.4375
0.13005254,-2.3615832,-1.8482382,-2.269989,0.008751305,0.092375964,-0.13137245,-0.39290905,-0.36751115,0.059936695,-3.0785415,0.6254709,-0.0003044088,-0.05708941,0.016407894,0.0014719897,-0.0044317953,0.0022098187,-0.010123169,0.49958038,-1.3774782,1.899177,-2.0907733,-1.5706967,2.4749343,-0.08200097,0.06314856,-0.08140351,0.014182626,0.002669311,-0.07184111,-0.51714754,0.1340753,-9.5385,0.74413085,47.66987,-1.3351709,-2.3762782,-3.2960608,-0.23194286,0.072785094,-0.46820664,28.75,30.0,29.3125,32.75,35.3125,36.4375
0.13205257,-1.9259,-1.3247877,-2.1955338,-0.013834297,0.11185578,-0.1388515,-0.3930057,-0.3674776,0.059940834,-3.0785677,0.62539697,-0.0003726953,-0.058504812,0.016936544,0.0006511335,-0.003638012,0.0008854338,-0.008847816,0.49941215,-1.3773688,1.8990215,-2.0907013,-1.5706605,2.4747167,-0.0841348,0.06658085,-0.08370473,0.014597828,0.0026005553,-0.07524884,-0.53630114,0.095768064,-9.557653,0.800085,47.687782,-1.3442359,-2.611252,-3.1804178,-0.2661424,0.07623562,-0.45414436,28.75,30.0,29.3125,32.75,35.3125,36.4375
0.13405257,-1.5022144,-1.9006214,-2.065663,0.0036825368,0.119163066,-0.13604905,-0.39315233,-0.36744836,0.059943475,-3.0785825,0.6254919,-0.00034085277,-0.059233855,0.017062783,0.0023313996,-0.0051609697,0.0032051157,-0.002259906,0.4992202,-1.3772017,1.8988174,-2.0907013,-1.5706486,2.4745822,-0.08512937,0.06388403,-0.08450624,0.015331521,0.002828545,-0.082831815,-0.59376204,0.13407528,-9.576807,0.9321212,47.716442,-1.3828175,-2.3884153,-3.2353535,-0.2658623,0.06716339,-0.4230485,28.75,30.0,29.3125,32.75,35.3125,36.4375
0.13605185,-1.1186312,-1.1264542,-2.1301107,-0.012226806,0.12830448,-0.1483115,-0.39327544,-0.3674021,0.059941158,-3.0785513,0.62554204,-0.0002917212,-0.060875807,0.018181833,0.0015401243,-0.0044449833,0.0022824397,-0.0024857176,0.4990513,-1.3770686,1.8986624,-2.09069,-1.5706848,2.4744487,-0.08838432,0.06655145,-0.0858339,0.015142847,0.002639215,-0.08585965,-0.61291564,0.15322891,-9.595961,0.8291774,47.70211,-1.2357478,-2.3505483,-3.27638,-0.29363704,0.078372195,-0.40122396,28.75,30.0,29.3125,32.75,35.3125,36.4375
0.13805206,-2.1559129,-1.2986628,-2.2059598,-0.0041936752,0.09873939,-0.13310304,-0.3934001,-0.3673845,0.05994491,-3.0786135,0.62549084,-0.00028647564,-0.060716514,0.017657977,0.00160278,-0.004313978,0.002334155,0.006104266,0.49888414,-1.3769243,1.8984827,-2.09069,-1.5706486,2.4742417,-0.08724336,0.0670666,-0.08667451,0.015490109,0.0025006942,-0.09330799,-0.59376204,0.095768064,-9.576807,0.7709874,47.698532,-1.4688985,-2.46914,-3.236475,-0.28329402,0.07195589,-0.3524599,28.75,30.0,29.3125,32.75,35.3125,36.4375
0.14005199,-1.49426,-1.3303989,-1.9162202,0.0019698022,0.11592356,-0.13408172,-0.39350554,-0.3673516,0.0599465,-3.078626,0.62549496,-0.0003792883,-0.063566595,0.020378593,0.0015752269,-0.0045697493,0.0025368305,0.004176169,0.49870196,-1.3767921,1.8983034,-2.090606,-1.5706009,2.4740605,-0.0944948,0.06743278,-0.08697152,0.015125671,0.0026229632,-0.098631434,-0.47884035,0.095768064,-9.595961,0.84484416,47.68062,-1.2069232,-2.4064002,-3.3380506,-0.28927296,0.0738685,-0.27697787,28.75,30.0,29.3125,32.75,35.3125,36.4375
0.14205195,-2.171954,-1.1111743,-2.0575883,0.013304071,0.09558758,-0.1364087,-0.39364254,-0.36730266,0.059936892,-3.0786064,0.6254094,-0.00033134714,-0.06516174,0.018465921,0.0029199994,-0.0065612886,0.0058114035,0.010340054,0.49852306,-1.3766233,1.8981222,-2.0905936,-1.5706486,2.473831,-0.09282634,0.06905229,-0.09182626,0.014528116,0.0027942273,-0.103124924,-0.45968673,-0.038307227,-9.5385,0.7732232,47.691364,-1.2789689,-2.3647442,-3.1113257,-0.30227417,0.06411222,-0.23010093,28.75,30.0,29.3125,32.75,35.3125,36.4375
0.14405192,-1.8328068,-0.96031696,-2.0311866,0.0063979817,0.10051224,-0.13505568,-0.3937837,-0.36724484,0.05994919,-3.0786016,0.6253683,-0.0002677111,-0.06546057,0.020243766,0.0021061038,-0.005519685,0.0042937864,0.010453569,0.49831837,-1.3765033,1.8979439,-2.0905578,-1.5706848,2.4736013,-0.095945865,0.06896509,-0.08986966,0.014487248,0.002612175,-0.10635841,-0.59376204,-0.1340753,-9.500193,0.85155696,47.677036,-1.1978545,-2.30572,-3.31034,-0.2824742,0.06627878,-0.17839581,28.75,30.0,29.3125,32.75,35.3125,36.4375
0.14605273,-1.2307258,-0.9548782,-1.9420701,0.0056435894,0.120121956,-0.14033411,-0.39393458,-0.36720482,0.059954215,-3.0786626,0.6253621,-0.00024773434,-0.068038255,0.020926487,0.0029623695,-0.0063165547,0.0061290795,0.007927752,0.49808964,-1.3763587,1.8977636,-2.0905697,-1.5706486,2.473361,-0.09931906,0.0699795,-0.093075186,0.014690594,0.0024352656,-0.10720398,-0.61291564,-0.1340753,-9.385271,0.7709874,47.707485,-1.0873822,-2.3732955,-3.2658346,-0.29401487,0.07247115,-0.15705563,28.75,30.0,29.3125,32.75,35.3125,36.4375
0.14805178,-1.2733374,-0.38780853,-2.01281,0.009000133,0.10660597,-0.14347935,-0.39408582,-0.3671635,0.05998036,-3.0787048,0.625429,-0.00017551219,-0.068611875,0.021816038,0.002347342,-0.005483274,0.005288702,0.0052405354,0.49787366,-1.3762503,1.8975729,-2.0905578,-1.5706366,2.4731815,-0.10110629,0.071070865,-0.0929624,0.014625737,0.0021140003,-0.10630321,-0.61291564,-0.076614454,-9.442732,0.7642693,47.660015,-1.0704767,-2.2664213,-3.1479793,-0.3031207,0.0721344,-0.13555188,28.75,30.0,29.3125,32.75,35.3125,36.4375
0.15005179,-1.0615464,-0.6959115,-1.9947277,0.013462615,0.10200957,-0.14671129,-0.39418855,-0.3671377,0.059954412,-3.0786903,0.6253527,-0.00025958967,-0.070857674,0.0226325,0.003006516,-0.006004851,0.0064823106,-0.0017589884,0.4977286,-1.3760577,1.8973926,-2.0905101,-1.5706252,2.4729908,-0.10444268,0.07196461,-0.09564747,0.015120982,0.0019929302,-0.10263887,-0.59376204,-0.076614454,-9.481039,0.7665104,47.67345,-0.9372762,-2.2757978,-3.2135344,-0.31441903,0.091457635,-0.15745845,28.75,30.0,29.3125,32.75,35.3125,36.4375
0.15205255,-1.3443066,-1.1608992,-1.9854659,0.015165425,0.08879078,-0.11859882,-0.39433545,-0.36707115,0.05995718,-3.0786657,0.62538826,-0.00026422075,-0.071424656,0.023093209,0.0025831284,-0.005741067,0.00566769,-0.007336794,0.49748883,-1.3759134,1.8972014,-2.09045,-1.5706366,2.4727764,-0.105799876,0.073205106,-0.09620077,0.015274045,0.0021503961,-0.09841817,-0.5554548,-0.095768064,-9.461885,0.7911258,47.689575,-0.8479972,-2.2784863,-3.2360654,-0.32651722,0.09120305,-0.22849417,28.75,30.0,29.3125,32.75,35.3125,36.4375
0.15405227,-0.52800375,-0.793011,-1.9960034,0.008386832,0.1068771,-0.12872969,-0.39448163,-0.3670314,0.059956037,-3.0786715,0.62548715,-0.00027618525,-0.07214834,0.023595387,0.002194399,-0.005471272,0.005125856,-0.012463372,0.49727282,-1.3757446,1.8969983,-2.0904262,-1.5706128,2.4726214,-0.107285775,0.07447947,-0.09683239,0.01523867,0.0021735171,-0.09477708,-0.6512228,-0.019153614,-9.404425,0.7978386,47.698532,-0.9032327,-2.2286632,-3.2703807,-0.3275495,0.06460409,-0.2808477,28.75,30.0,29.3125,32.75,35.3125,36.4375
0.1560525,-1.1574649,-0.7660174,-1.8054148,-0.0018638043,0.10194318,-0.14075202,-0.39462465,-0.36699235,0.059975404,3.0786834,-0.6254711,0.00023123245,-0.07320045,0.023830907,0.0024524739,-0.006176432,0.0053026476,-0.014281417,0.4970685,-1.3756244,1.8968061,-2.090402,-1.5706009,2.4724057,-0.10894528,0.07517026,-0.09831449,0.015537968,0.0027124882,-0.09461863,-0.45968673,0.0,-9.423578,0.7083204,47.681515,-0.8794162,-2.2739177,-3.2805018,-0.33300143,0.07111682,-0.3050519,28.75,30.0,29.3125,32.75,35.3125,36.4375
0.15805241,-1.370464,-1.2384146,-1.9109725,-0.0015985579,0.107937716,-0.13409445,-0.39477596,-0.3669237,0.05996454,-3.0786479,0.6255964,-0.00025143154,-0.073534615,0.023855709,0.0016744351,-0.005800875,0.003997346,-0.01350471,0.496829,-1.3754433,1.8966025,-2.0903428,-1.5706247,2.472249,-0.10943532,0.07738658,-0.099183865,0.015515036,0.0030007309,-0.09588528,-0.40222588,0.019153614,-9.3661175,0.800085,47.661808,-0.84832805,-2.1952326,-3.307612,-0.3447063,0.071128905,-0.3170569,28.75,30.0,29.3125,32.75,35.3125,36.4375
0.1600522,-1.379918,-0.92172784,-1.8528733,-0.008719186,0.10322391,-0.13572535,-0.3949401,-0.36688662,0.059992496,3.0786443,-0.6255558,0.00019270295,-0.07449108,0.023729578,0.001983358,-0.0059559573,0.0048337844,-0.013373596,0.49660134,-1.3753108,1.896376,-2.090318,-1.5706009,2.4719965,-0.109896906,0.0783721,-0.10109103,0.015631452,0.002742683,-0.096476495,-0.36391866,0.095768064,-9.346964,0.78217715,47.705692,-0.9118452,-2.3596725,-3.2106981,-0.3233803,0.06984335,-0.33337763,28.75,30.0,29.3125,32.75,35.3125,36.4375
0.16205224,-1.1337073,-1.6900291,-2.0405028,0.0006994711,0.095386885,-0.12764917,-0.39507937,-0.366827,0.0599738,3.0786552,-0.62561595,0.00023638926,-0.07522035,0.023805333,0.002052215,-0.0061124065,0.00521044,-0.014705109,0.49637344,-1.3751303,1.8961962,-2.0902827,-1.5706009,2.4718049,-0.11062696,0.07916852,-0.10218175,0.015520844,0.0026964291,-0.095874526,-0.36391866,0.17238252,-9.423578,0.83813137,47.698532,-0.9525286,-2.265811,-3.3383555,-0.31611454,0.079423726,-0.34838134,28.75,30.0,29.3125,32.75,35.3125,36.4375
0.16405208,-1.3220458,-1.8399425,-2.090424,-0.008606844,0.06799354,-0.122442946,-0.39525092,-0.3667917,0.059996847,3.0785875,-0.62571627,0.00015047807,-0.07694961,0.024992948,0.0022427067,-0.0060234284,0.0056335554,-0.015520096,0.49615693,-1.3749741,1.8959554,-2.0902698,-1.5706009,2.4716597,-0.113991596,0.079851866,-0.10350818,0.015836148,0.0024229996,-0.098423,-0.24899697,0.17238252,-9.3661175,0.85826975,47.72002,-0.9838619,-2.2261164,-3.2652528,-0.33109832,0.08275605,-0.38641047,28.75,30.0,29.3125,32.75,35.3125,36.4375
0.16605237,-0.6577826,-1.897023,-1.9596522,-0.0079822885,0.064982325,-0.1290959,-0.3953908,-0.36672443,0.05998141,3.0786257,-0.6256644,0.0001435558,-0.07593643,0.023967635,0.0004268516,-0.004428414,0.0030719282,-0.013332176,0.49593055,-1.3748165,1.895801,-2.0902588,-1.5706247,2.4713962,-0.11119157,0.08379571,-0.103968196,0.015363226,0.0022374017,-0.09780982,-0.19153613,0.24899697,-9.385271,0.8157518,47.70838,-1.0964711,-2.3916068,-3.3898602,-0.34449315,0.07858867,-0.41458717,28.75,30.0,29.3125,32.75,35.3125,36.4375
0.16805232,-1.0874513,-1.8885101,-2.16334,-0.01102812,0.046227887,-0.12666866,-0.3955533,-0.36669013,0.059996556,3.0785966,-0.62565607,8.726322e-05,-0.07906699,0.026118396,0.002137237,-0.0057117385,0.0059015304,-0.012897268,0.49572453,-1.3746492,1.895562,-2.090234,-1.5706252,2.4711888,-0.117491394,0.08182564,-0.10565631,0.015923845,0.0020234531,-0.104543865,-0.11492168,0.22984336,-9.32781,0.78888994,47.68062,-0.88996136,-2.2696187,-3.1903076,-0.33022195,0.07747206,-0.38515043,28.75,30.0,29.3125,32.75,35.3125,36.4375
0.17005214,-0.49439013,-1.8138254,-1.9767345,-0.0055730552,0.05697893,-0.1319369,-0.39570722,-0.36665127,0.059999768,3.0785134,-0.62575114,0.00014675719,-0.07868053,0.02552425,0.0013207388,-0.004966364,0.004635239,-0.00796681,0.4954737,-1.3744802,1.895346,-2.0901983,-1.5705532,2.4710078,-0.116062894,0.08399696,-0.10640394,0.015977412,0.0019714322,-0.10804512,-0.11492168,0.15322891,-9.308656,0.8537928,47.67793,-0.9797604,-2.2108574,-3.4039936,-0.34091234,0.0964092,-0.3733472,28.75,30.0,29.3125,32.75,35.3125,36.4375
0.17205207,-0.541488,-1.5812963,-1.8854285,-0.017752286,0.05530701,-0.13644685,-0.39587668,-0.36658308,0.0600091,3.0785203,-0.62582535,7.1505725e-05,-0.07953048,0.025498837,0.0010541478,-0.005268728,0.004188621,-0.0022616768,0.4952338,-1.3743232,1.89513,-2.090162,-1.5706009,2.4708135,-0.11704971,0.08584982,-0.10801051,0.015974764,0.0024504357,-0.11473682,-0.05746084,0.11492168,-9.3661175,0.9365982,47.67614,-1.0118032,-2.4401124,-3.294303,-0.35346484,0.09913398,-0.29199034,28.75,30.0,29.3125,32.75,35.3125,36.4375
0.17405207,-0.6346698,-1.6516387,-1.9865278,-0.018391415,0.050309386,-0.13246478,-0.39602816,-0.36653012,0.059995126,3.0785449,-0.62574863,8.876176e-05,-0.07972376,0.025240071,0.00093353965,-0.005690917,0.004037591,0.0039197095,0.49500644,-1.3741308,1.8949279,-2.0901382,-1.5706009,2.4705353,-0.11702292,0.0866234,-0.10861818,0.0157409,0.0028917235,-0.12089174,-0.019153614,0.21068975,-9.193734,0.800085,47.74868,-1.0429115,-2.2838373,-3.4077144,-0.3372497,0.08949588,-0.23853284,28.75,30.0,29.3125,32.75,35.3125,36.4375
0.17605221,-0.7474199,-1.7595278,-1.8396419,-0.010030697,0.040718235,-0.12876025,-0.39618945,-0.3664822,0.059997495,3.078545,-0.6257056,7.540879e-05,-0.08139446,0.025014406,0.0013423682,-0.0067530223,0.004686229,0.009482342,0.49477834,-1.37395,1.8946995,-2.0901024,-1.5706004,2.4702804,-0.118510164,0.08849235,-0.11184746,0.016025355,0.0035151325,-0.12794098,0.11492168,0.36391866,-9.212888,0.8493211,47.709274,-0.91854084,-2.4009008,-3.3501506,-0.32242602,0.07798073,-0.17062204,28.75,30.0,29.3125,32.75,35.3125,36.4375
0.17805241,-0.4785087,-1.7922356,-2.0991662,-0.011962013,0.034812845,-0.12827909,-0.39636526,-0.3664253,0.060009513,3.078502,-0.6257158,3.0922343e-05,-0.08261395,0.025218606,0.0015112599,-0.0070324168,0.0050388374,0.009576124,0.49451464,-1.3737935,1.8944834,-2.0900905,-1.570588,2.4700286,-0.119966164,0.08974188,-0.11378475,0.016272657,0.0035981836,-0.12948981,0.0,0.30645782,-9.212888,0.7418897,47.693153,-1.1928995,-2.3663728,-3.237334,-0.3342809,0.091505975,-0.11031322,28.75,30.0,29.3125,32.75,35.3125,36.4375
0.1800524,-0.20132649,-1.3800963,-1.8434486,-0.02062725,0.042180672,-0.13642327,-0.39654303,-0.36636767,0.059996936,3.0785193,-0.62571913,3.5100213e-05,-0.08253224,0.025010338,0.000979591,-0.006520583,0.004336884,0.008113187,0.49426332,-1.373565,1.8942322,-2.0900543,-1.5706004,2.4697773,-0.119418144,0.09113687,-0.11423457,0.016187843,0.0034794903,-0.12747838,-0.05746084,0.24899697,-9.270349,0.7329411,47.65912,-1.0987498,-2.2175605,-3.2935882,-0.32162094,0.097704485,-0.09481493,28.75,30.0,29.3125,32.75,35.3125,36.4375
0.1820523,-0.28910765,-2.1231794,-2.0084956,-0.012096309,0.04719711,-0.12418391,-0.3966782,-0.36631206,0.059987824,3.07856,-0.6256334,7.754677e-05,-0.08484995,0.024894783,0.0023787343,-0.007683837,0.006864527,0.002984179,0.49404696,-1.3733965,1.894039,-2.0899942,-1.5706009,2.4695024,-0.12118033,0.09183719,-0.11842367,0.0169007,0.0032944526,-0.12410976,0.0,0.28730422,-9.251195,0.8224646,47.692257,-1.1551162,-2.4437175,-3.120902,-0.31827682,0.094915435,-0.1469813,28.75,30.0,29.3125,32.75,35.3125,36.4375
0.18405224,-0.25948548,-1.6608316,-1.8581698,-0.036119428,0.05974995,-0.14194791,-0.39685118,-0.3662861,0.059994895,3.0785012,-0.62568206,4.7804086e-05,-0.08452821,0.026470933,0.0015267248,-0.0066230455,0.004880048,-0.004666324,0.4938307,-1.3731925,1.8937777,-2.0899823,-1.5705765,2.469324,-0.12349605,0.091318965,-0.11595645,0.01720495,0.0033144597,-0.11877597,-0.11492168,0.30645782,-9.385271,0.83589023,47.693153,-1.0875604,-2.2923803,-3.3432465,-0.32411522,0.092176944,-0.17034465,28.75,30.0,29.3125,32.75,35.3125,36.4375
0.18605547,-0.5406777,-1.7036244,-1.9687221,-0.034454405,0.05992847,-0.13981405,-0.39701256,-0.3662255,0.059999205,3.0785093,-0.62558895,8.8692155e-05,-0.08603443,0.025942702,0.0005426468,-0.0066849403,0.00332779,-0.009972155,0.49356696,-1.3730223,1.8935493,-2.0899107,-1.5705522,2.4690013,-0.12441628,0.09646203,-0.11987615,0.017319515,0.004096188,-0.11438921,-0.1340753,0.30645782,-9.32781,0.8717007,47.71017,-1.1354755,-2.5495195,-3.1607797,-0.34075892,0.096526355,-0.239771,28.75,30.0,29.3125,32.75,35.3125,36.4375
0.18805243,-1.065842,-1.6792355,-1.9849421,-0.02275697,0.052096013,-0.13334233,-0.39719167,-0.36617008,0.059986547,3.0784657,-0.6257156,8.712115e-05,-0.08670203,0.025836378,0.0016368771,-0.008501004,0.004694688,-0.013323348,0.4933032,-1.3728069,1.8933219,-2.0899107,-1.5705398,2.4688222,-0.1253793,0.095050395,-0.12075473,0.017544528,0.005049859,-0.11200227,-0.038307227,0.28730422,-9.3661175,0.7642693,47.63852,-1.131194,-2.3102627,-3.2696,-0.32991964,0.09860802,-0.3096049,28.75,30.0,29.3125,32.75,35.3125,36.4375
0.19005243,-0.8204722,-1.5400599,-1.8727465,-0.022022117,0.06630757,-0.13189466,-0.3973584,-0.36612442,0.06000014,3.078448,-0.6257708,7.593292e-05,-0.08840726,0.026212243,0.0013810472,-0.008616301,0.0047584292,-0.017235478,0.49307495,-1.3726257,1.8930591,-2.0898387,-1.5705398,2.4686308,-0.1275527,0.097551495,-0.12310477,0.01728343,0.005118288,-0.1102623,-0.11492168,0.22984336,-9.423578,0.8247004,47.637623,-1.1227577,-2.3999887,-3.2373476,-0.31769586,0.066116676,-0.34912843,28.75,30.0,29.3125,32.75,35.3125,36.4375
0.19205238,-1.0756723,-1.3790526,-1.7348645,-0.009250912,0.07328007,-0.13347737,-0.3975135,-0.36606035,0.059975117,3.078445,-0.6258083,0.00014526135,-0.08938765,0.026185729,0.0013647948,-0.009082121,0.0049093324,-0.019212496,0.4928113,-1.372421,1.892867,-2.0898144,-1.5705155,2.468391,-0.12855493,0.09899402,-0.12477566,0.017161176,0.005451404,-0.10928732,-0.34476507,0.17238252,-9.423578,0.76874626,47.66987,-1.1180369,-2.4750102,-3.1687891,-0.31872717,0.076047756,-0.39238656,28.75,30.0,29.3125,32.75,35.3125,36.4375
0.1940523,-0.62398523,-1.4528965,-2.0252512,0.00843934,0.09924436,-0.12716193,-0.3977046,-0.36601782,0.059996173,3.0784135,-0.6257632,0.00010023085,-0.09101155,0.026738675,0.0012709142,-0.008929528,0.005071147,-0.021989452,0.492559,-1.3722283,1.892579,-2.0897667,-1.5705036,2.4681146,-0.130769,0.10097719,-0.12697199,0.017307341,0.0052432814,-0.10872278,-0.38307226,0.15322891,-9.442732,0.8247004,47.687782,-1.0868663,-2.504221,-3.1888685,-0.3154035,0.086098276,-0.4655559,28.75,30.0,29.3125,32.75,35.3125,36.4375
0.19605248,-1.26631,-1.1248568,-1.8418353,-0.0041169967,0.10505754,-0.12832627,-0.39788273,-0.36596867,0.05998193,3.078387,-0.62589145,0.00012989572,-0.0914539,0.026622111,0.0010671038,-0.009216205,0.0044655893,-0.02062216,0.49230736,-1.3719876,1.8923167,-2.089731,-1.5704917,2.4679465,-0.13125044,0.10230477,-0.12817366,0.017580738,0.005780918,-0.11057174,-0.5363012,0.095768064,-9.423578,0.7732232,47.667187,-1.0592271,-2.5526743,-3.1200414,-0.29172862,0.061204776,-0.47904104,28.75,30.0,29.3125,32.75,35.3125,36.4375
0.19805242,-1.5722425,-1.1511608,-1.8895333,-0.011414557,0.11799943,-0.14010093,-0.39805424,-0.36590964,0.059971966,3.0783596,-0.6259233,0.00018009792,-0.09342169,0.027733903,0.0017613961,-0.009907668,0.0056204502,-0.020952048,0.49203056,-1.3717835,1.8920883,-2.0896952,-1.5704559,2.467693,-0.13488126,0.10226081,-0.12979218,0.017904982,0.0058432273,-0.11387228,-0.63206923,0.1340753,-9.3661175,0.8247004,47.683304,-0.930223,-2.4592059,-3.1340694,-0.29734725,0.050368596,-0.5034702,28.75,30.0,29.3125,32.75,35.3125,36.4375
0.20005238,-1.9761705,-1.2027583,-1.8557675,-0.01250818,0.13251987,-0.14062668,-0.39826038,-0.3658702,0.06000093,3.078309,-0.62596136,4.474485e-05,-0.0927688,0.026812231,0.001181731,-0.009891479,0.004513587,-0.0089639835,0.49179205,-1.3715907,1.8917903,-2.0896828,-1.5704793,2.467485,-0.133001,0.10381759,-0.13033897,0.01787766,0.0063648648,-0.123979814,-0.68953013,0.11492168,-9.404425,0.8247004,47.716442,-1.240468,-2.470996,-3.1541536,-0.288737,0.04753641,-0.4415751,28.75,30.0,29.3125,32.75,35.3125,36.4375
0.20205222,-1.9038128,-1.2707407,-2.0477602,-0.0068925223,0.14464737,-0.14249319,-0.39843073,-0.36582685,0.059991527,3.0782764,-0.6259689,0.00013444663,-0.09442437,0.027201027,0.0021629273,-0.010262231,0.006386019,-0.0022308244,0.49152803,-1.3713623,1.8915261,-2.0896227,-1.5704197,2.4672298,-0.13474613,0.10383155,-0.13273692,0.018449668,0.005804462,-0.13245669,-0.7278373,0.0,-9.519346,0.83813137,47.716442,-1.1116159,-2.3948221,-3.2323923,-0.2930258,0.031247422,-0.38943714,28.75,30.0,29.3125,32.75,35.3125,36.4375
0.20405225,-2.2609613,-0.92939806,-1.9401292,-0.006516988,0.13849379,-0.13624917,-0.39864343,-0.36575413,0.06001143,3.0782743,-0.62592447,5.628898e-05,-0.093705945,0.028285194,0.00054954144,-0.0085281525,0.0034080925,0.005354461,0.49122822,-1.37117,1.891241,-2.089575,-1.5704435,2.4669027,-0.13578175,0.105079465,-0.13058467,0.018494774,0.005695619,-0.14107788,-0.6512228,0.019153614,-9.481039,0.8627467,47.716442,-1.1939449,-2.4075189,-3.188857,-0.29867756,0.04041799,-0.277019,28.75,30.0,29.3125,32.75,35.3125,36.4375
0.20605259,-1.7107025,-0.30176622,-1.8909847,-0.0022048713,0.14532967,-0.14461441,-0.39881867,-0.3656973,0.059994537,3.078254,-0.6259552,0.00011922456,-0.09674709,0.027704762,0.0025063814,-0.010772396,0.0080250725,0.009077484,0.49095222,-1.3709415,1.8909992,-2.0895398,-1.5704077,2.4666486,-0.13736404,0.1056549,-0.13558067,0.017794756,0.0054851193,-0.14638102,-0.7086837,-0.019153614,-9.404425,0.8224646,47.71286,-1.2054074,-2.4489565,-3.1248202,-0.27454066,0.05002031,-0.21566328,28.75,30.0,29.3125,32.75,35.3125,36.4375
0.20805244,-1.616981,-0.48524132,-2.1607623,0.015377554,0.12515768,-0.13539834,-0.39900288,-0.365636,0.059986707,3.078235,-0.6259328,0.00010571878,-0.097039245,0.029890334,0.0006011677,-0.009167066,0.004445286,0.0070114527,0.49067542,-1.3707368,1.8907732,-2.0895398,-1.5703958,2.4663603,-0.14141013,0.10745641,-0.13340364,0.017733118,0.0057675084,-0.14836192,-0.61291564,-0.21068975,-9.519346,0.79560274,47.69763,-1.0712789,-2.3241196,-3.3167002,-0.2612514,0.03360972,-0.16720515,28.75,30.0,29.3125,32.75,35.3125,36.4375
0.21005245,-1.4894911,-0.1059712,-1.9730039,0.0148297055,0.10828732,-0.13627127,-0.39921427,-0.36557168,0.059985086,3.078247,-0.62587595,0.00010786334,-0.09722308,0.02946993,0.0012636724,-0.009337525,0.00656843,0.0063752946,0.4903766,-1.3704846,1.8904628,-2.0894802,-1.5703958,2.4660246,-0.140272,0.1066607,-0.13381864,0.016995018,0.004917239,-0.14658652,-0.5746084,-0.24899697,-9.5385,0.8806493,47.679718,-1.2026825,-2.438848,-3.3721485,-0.2445021,0.027470198,-0.15089561,28.75,30.0,29.3125,32.75,35.3125,36.4375
0.21205227,-1.1795617,-0.43400636,-2.034877,0.024850655,0.10364951,-0.12433425,-0.39940965,-0.36551392,0.059993085,3.078196,-0.6258872,7.741403e-05,-0.09789483,0.030605527,-0.0003980908,-0.0073246458,0.0040652915,4.088312e-06,0.49008858,-1.3702914,1.8902115,-2.0894673,-1.570372,2.4657502,-0.14235404,0.11008221,-0.1341567,0.017073268,0.0043275533,-0.14229578,-0.61291564,-0.30645782,-9.5385,0.8672237,47.698532,-1.006548,-2.3742375,-3.4495108,-0.20884705,0.031023989,-0.21347879,28.75,30.0,29.3125,32.75,35.3125,36.4375
0.21405232,-1.0147425,-0.30834123,-1.9184076,0.024026468,0.108239286,-0.12707187,-0.39962023,-0.36543337,0.059982654,3.0782094,-0.6260087,1.1472474e-06,-0.09970677,0.03067168,0.0014853681,-0.008279705,0.0072735474,-0.007243126,0.48980063,-1.3700516,1.8899468,-2.0894558,-1.5704321,2.4655366,-0.14361408,0.10892317,-0.13731234,0.018101152,0.003659041,-0.13630684,-0.5554548,-0.22984336,-9.5385,0.8985519,47.709274,-1.0834458,-2.4110491,-3.4233327,-0.20977335,0.03441117,-0.26888442,28.75,30.0,29.3125,32.75,35.3125,36.4375
0.21605252,-1.147059,0.022615746,-2.0214272,0.022728402,0.104488276,-0.1339722,-0.3998175,-0.3653756,0.059990495,3.0781476,-0.62601584,3.807871e-05,-0.098777026,0.03200248,-0.00059515185,-0.0059535904,0.003082173,-0.010357791,0.4894888,-1.3698466,1.8896736,-2.0894072,-1.570372,2.4652371,-0.14489713,0.110800214,-0.13497677,0.018690512,0.0035886068,-0.13447577,-0.45968673,-0.19153613,-9.519346,0.84484416,47.704796,-1.1010479,-2.325675,-3.6327717,-0.20411672,0.040941495,-0.3235582,28.75,30.0,29.3125,32.75,35.3125,36.4375
0.21805272,-0.8983388,-0.6046103,-2.2066376,0.03334185,0.098141536,-0.13200934,-0.40003806,-0.36532268,0.060005836,3.0780983,-0.6260622,-3.4983e-05,-0.10023963,0.031514037,0.00068380724,-0.0068597565,0.005171081,-0.010677045,0.48920146,-1.3696183,1.8893613,-2.0893838,-1.570372,2.4649851,-0.14520726,0.1111428,-0.1385265,0.019629749,0.0034110327,-0.13446493,-0.2681506,-0.21068975,-9.423578,0.82022345,47.694946,-1.134847,-2.3928516,-3.4478817,-0.19601272,0.06557874,-0.33892453,28.75,30.0,29.3125,32.75,35.3125,36.4375
0.22005266,-0.7687507,-1.4100417,-2.1470435,0.027404025,0.093226016,-0.11435944,-0.400233,-0.3652557,0.06000506,3.0781069,-0.62606335,-1.749576e-05,-0.10189507,0.031389695,0.001890669,-0.008141139,0.0072828177,-0.012111776,0.48891369,-1.36939,1.8890742,-2.089311,-1.570372,2.4646971,-0.14650033,0.11117521,-0.14141981,0.02002505,0.0035453527,-0.13432246,-0.28730422,-0.095768064,-9.5385,0.7866488,47.67614,-1.1391749,-2.2836578,-3.4489534,-0.17826907,0.043290757,-0.3740637,28.75,30.0,29.3125,32.75,35.3125,36.4375
0.22205257,-0.5984029,-1.489936,-2.2613955,0.008455466,0.08229472,-0.12801892,-0.40041956,-0.3651666,0.059987385,3.0781558,-0.6260903,-3.423698e-05,-0.10227157,0.031563193,0.00035600897,-0.0068398467,0.004495533,-0.010843421,0.48862612,-1.3691725,1.8888468,-2.0892751,-1.5704201,2.4644203,-0.1471648,0.1152167,-0.14288925,0.02051962,0.0037026915,-0.13625446,-0.24899697,-0.019153614,-9.500193,0.88289046,47.699425,-1.2463031,-2.4844863,-3.421996,-0.17612812,0.04533347,-0.37825537,28.75,30.0,29.3125,32.75,35.3125,36.4375
0.22405274,-0.98303246,-1.9606239,-2.4744701,-0.004397304,0.061102796,-0.12849496,-0.4006381,-0.36512682,0.060014114,3.078081,-0.62607056,-3.329181e-05,-0.10371568,0.03180505,0.0024706437,-0.008271626,0.007907514,-0.0066433754,0.48832625,-1.3689452,1.8884987,-2.0892031,-1.5703605,2.4641178,-0.14858168,0.11263134,-0.14482343,0.02136688,0.0033747477,-0.14187063,-0.076614454,0.11492168,-9.519346,0.8985519,47.692257,-1.179662,-2.22833,-3.3898067,-0.17604317,0.037368424,-0.35213822,28.75,30.0,29.3125,32.75,35.3125,36.4375
0.22605208,-0.41832832,-2.0486257,-2.2916267,-0.02681274,0.06623138,-0.13547197,-0.40086395,-0.365027,0.05999568,3.078111,-0.6261486,-3.5750163e-05,-0.10438831,0.0330696,0.00016559311,-0.0056708255,0.0037455584,-0.0006905087,0.48797843,-1.368679,1.8882121,-2.089155,-1.5703968,2.463815,-0.1510177,0.11762751,-0.14576885,0.022211863,0.0030310608,-0.15025818,-0.038307227,0.22984336,-9.557653,0.8247004,47.71286,-1.2750702,-2.4755666,-3.3959167,-0.17497975,0.05869576,-0.29434752,28.75,30.0,29.3125,32.75,35.3125,36.4375
0.22805227,-0.6253954,-1.9739038,-2.3551278,-0.04756697,0.07314859,-0.14751266,-0.40109855,-0.36495787,0.06001386,3.0780783,-0.6261355,-0.00015946639,-0.105061695,0.032625303,0.0013123201,-0.006544259,0.005682459,0.009460063,0.4876668,-1.3684632,1.8879131,-2.0891545,-1.5704206,2.4634995,-0.15071654,0.11686233,-0.1475885,0.022677284,0.002910253,-0.16010675,-0.05746084,0.38307226,-9.5385,0.83813137,47.689575,-1.1789166,-2.3323827,-3.3366926,-0.16837665,0.066359125,-0.18587539,28.75,30.0,29.3125,32.75,35.3125,36.4375
0.23005232,-0.6855957,-2.2821183,-2.5178196,-0.058346115,0.07705417,-0.13875645,-0.40129855,-0.36491314,0.060034182,3.0780442,-0.62608767,-0.00015099473,-0.1068766,0.033975914,0.0010829858,-0.006252096,0.0052556912,0.010082483,0.48739013,-1.3682466,1.8875893,-2.0890706,-1.5703844,2.4631975,-0.15450095,0.11847496,-0.14911328,0.023111764,0.0028573521,-0.16451271,0.019153614,0.45968673,-9.557653,0.83365434,47.68062,-0.9476868,-2.2449875,-3.3786902,-0.17339355,0.07916723,-0.09460917,28.75,30.0,29.3125,32.75,35.3125,36.4375
0.23205231,-0.9570633,-2.5461566,-2.464625,-0.066243336,0.070972614,-0.1320035,-0.40151095,-0.36481485,0.060020655,3.0780618,-0.6260901,-0.00014566517,-0.108309686,0.034131445,0.0014147557,-0.0070377123,0.0056338897,0.008854527,0.4870424,-1.3680179,1.887339,-2.0890348,-1.5703963,2.4628491,-0.15628114,0.119767785,-0.15153094,0.02353216,0.003370841,-0.16506451,0.0,0.40222588,-9.615114,0.73741806,47.704796,-1.0871217,-2.2478614,-3.3752828,-0.16956314,0.06074351,-0.05934204,28.75,30.0,29.3125,32.75,35.3125,36.4375
0.23405229,-0.86478126,-2.7619803,-2.228166,-0.07150087,0.059199393,-0.12260454,-0.40174153,-0.36475462,0.060043216,3.0780294,-0.62610584,-0.00022859882,-0.109537855,0.03439167,0.00089867646,-0.007084588,0.00466865,0.0018865714,0.4867424,-1.3677887,1.8870033,-2.088987,-1.5704082,2.4625633,-0.15803866,0.12248944,-0.1536935,0.023799997,0.0038695075,-0.15985322,-0.038307227,0.45968673,-9.519346,0.800085,47.682407,-0.95997286,-2.1735723,-3.2534351,-0.15424952,0.06076679,-0.077886656,28.75,30.0,29.3125,32.75,35.3125,36.4375
0.23605233,-0.5712578,-3.1358926,-2.202787,-0.06010965,0.06426138,-0.123122305,-0.40196022,-0.36469144,0.060034413,3.0780241,-0.6260313,-0.00017617339,-0.11123417,0.034673594,0.0011444931,-0.0076177423,0.0054329005,-0.0072568716,0.4864186,-1.3675119,1.886679,-2.0889266,-1.570372,2.4621937,-0.1600064,0.12407284,-0.15616733,0.023769854,0.0039752354,-0.15267657,-0.15322891,0.5554548,-9.481039,0.80456203,47.678825,-1.0429184,-2.3767223,-3.137817,-0.13023995,0.080569364,-0.14304058,28.75,30.0,29.3125,32.75,35.3125,36.4375
0.23805252,-0.493149,-2.462434,-2.0356383,-0.049839348,0.06876166,-0.12559977,-0.4022064,-0.36462578,0.06005579,3.0779562,-0.6261135,-0.00030062336,-0.110984966,0.033666972,0.00073689054,-0.007133338,0.0047210394,-0.010254211,0.486096,-1.3672831,1.8863572,-2.0889266,-1.5703839,2.4619312,-0.15795088,0.12624729,-0.15797445,0.024256451,0.003890915,-0.14762233,-0.21068975,0.47884035,-9.3661175,0.8717007,47.695843,-1.1454806,-2.2452557,-3.232036,-0.12500788,0.07837635,-0.22602598,28.75,30.0,29.3125,32.75,35.3125,36.4375
0.24005248,-0.48297957,-1.6558676,-1.7528111,-0.044333275,0.06767099,-0.12839645,-0.4024129,-0.36454713,0.060046196,3.077958,-0.6261741,-0.0002435166,-0.111862764,0.03386046,0.00042366135,-0.00725709,0.004126803,-0.017431626,0.48577243,-1.36703,1.8860577,-2.088843,-1.570372,2.4616454,-0.1592105,0.12805729,-0.15949588,0.024435246,0.004268913,-0.14170428,-0.17238252,0.36391866,-9.404425,0.78217715,47.67614,-1.1607476,-2.409836,-3.1281395,-0.11021142,0.05966369,-0.3224699,28.75,30.0,29.3125,32.75,35.3125,36.4375
0.24205247,-0.659729,-1.2250811,-1.4848216,-0.036679357,0.06737192,-0.1341482,-0.40264466,-0.3645074,0.060061704,3.077895,-0.6262015,-0.00029013076,-0.11326126,0.033842556,0.0010275593,-0.009062433,0.0047751097,-0.022349343,0.48548415,-1.3667655,1.8856982,-2.0888069,-1.5703477,2.4613824,-0.16113572,0.12866534,-0.16165408,0.024568485,0.005567399,-0.1387119,-0.1340753,0.3256114,-9.232041,0.83589023,47.684196,-1.1218305,-2.3273766,-3.0590043,-0.08659548,0.072075784,-0.359469,28.75,30.0,29.3125,32.75,35.3125,36.4375
0.24405247,-0.50108397,-0.8287497,-1.5657544,-0.022778362,0.061784077,-0.13278022,-0.40288338,-0.36441988,0.06005822,3.0778534,-0.6263277,-0.00031735544,-0.11480655,0.033907518,0.0010071833,-0.00966345,0.0046122763,-0.026057983,0.4851244,-1.3665124,1.8853983,-2.088783,-1.5703472,2.4611068,-0.16290003,0.13103025,-0.16455464,0.024967166,0.006174695,-0.13676663,-0.076614454,0.36391866,-9.270349,0.8717007,47.687782,-1.1002918,-2.6454139,-3.1376047,-0.09113281,0.04944144,-0.462876,28.75,30.0,29.3125,32.75,35.3125,36.4375
0.2460526,-0.4529964,-0.692804,-1.6442564,-0.0116994325,0.057804216,-0.12850626,-0.40311304,-0.36436552,0.060070798,3.0778418,-0.6263231,-0.00036944135,-0.11469767,0.03539179,-0.0002291621,-0.008365042,0.0021290092,-0.025247134,0.48483616,-1.3662481,1.8850402,-2.0887225,-1.5703591,2.4608173,-0.1652169,0.13183899,-0.16280021,0.025207585,0.006196605,-0.13989478,-0.038307227,0.24899697,-9.308656,0.83589023,47.691364,-1.0173746,-2.295569,-3.2109752,-0.060150377,0.042624984,-0.49528044,28.75,30.0,29.3125,32.75,35.3125,36.4375
0.24805257,0.24131246,-0.7203876,-1.3931117,-0.01553279,0.07369997,-0.1379922,-0.40336525,-0.3643004,0.0600966,3.077744,-0.6264121,-0.0004604057,-0.11571931,0.036062043,0.00051507977,-0.008567444,0.003299661,-0.017546041,0.48448837,-1.3660202,1.8847064,-2.088711,-1.5703357,2.4605377,-0.16693364,0.13111237,-0.16378064,0.025795028,0.005851482,-0.14931165,0.0,0.095768064,-9.251195,0.7396539,47.67793,-0.9822358,-2.4062896,-3.2046616,-0.059465867,0.047954787,-0.43575943,28.75,30.0,29.3125,32.75,35.3125,36.4375
0.25005257,-0.7976179,-0.5309906,-1.1611128,-0.020746447,0.06368059,-0.14006877,-0.40356776,-0.3642352,0.060067702,3.0777605,-0.62638897,-0.00034748536,-0.11595638,0.036602106,-0.0008471658,-0.007100458,0.00041286545,-0.0067966664,0.48417673,-1.3657187,1.884395,-2.088638,-1.5702995,2.4602096,-0.16799569,0.13429318,-0.1647694,0.02685309,0.0058974116,-0.16112277,-0.1340753,-0.038307227,-9.097966,0.82022345,47.698532,-1.0030409,-2.4254868,-3.329689,-0.046757765,0.058308307,-0.36200082,28.75,30.0,29.3125,32.75,35.3125,36.4375
0.25205338,-0.38547465,-0.22567225,-0.9870005,0.008589885,0.086844906,-0.13824034,-0.40380085,-0.3641758,0.06007499,3.0777068,-0.62639165,-0.00032684882,-0.116404876,0.037263926,-0.0013815325,-0.007297867,-0.0013722851,0.0013291655,0.48384055,-1.365454,1.8840483,-2.088579,-1.5702513,2.459882,-0.1700328,0.13546228,-0.16514748,0.027561527,0.0069149802,-0.17128621,-0.15322891,-0.1340753,-9.021352,0.86945957,47.704796,-1.0341856,-2.4022098,-3.3032038,-0.032512873,0.028967684,-0.23986903,28.75,30.0,29.3125,32.75,35.3125,36.4375
0.25405252,-0.9098521,0.07609106,-0.98491347,0.034672637,0.085523576,-0.13293287,-0.40406114,-0.36411855,0.060102433,3.0776358,-0.6263153,-0.00045705232,-0.11710412,0.036491048,-8.325717e-07,-0.008854832,0.0007088017,0.0063496893,0.48350585,-1.3652141,1.8837017,-2.08859,-1.5702385,2.459509,-0.16951576,0.13460584,-0.16741288,0.028122364,0.0073467554,-0.1757886,-0.11492168,-0.2681506,-9.078813,0.90527004,47.72719,-1.1966902,-2.3459373,-3.3508267,-0.02707107,0.0030765398,-0.17117019,28.75,30.0,29.3125,32.75,35.3125,36.4375
0.2560527,-0.2885035,1.1311996,-0.66044325,0.03986299,0.09923921,-0.14558913,-0.40427217,-0.36402717,0.060057927,3.0776649,-0.6263973,-0.00034151936,-0.11714277,0.036366865,-0.00078774744,-0.007902606,-0.0006047764,0.0063336897,0.48315856,-1.3649007,1.8834141,-2.0885303,-1.570227,2.4592092,-0.16910236,0.13685966,-0.16845472,0.02852139,0.0070987293,-0.175359,-0.21068975,-0.28730422,-8.963891,0.83589023,47.707485,-1.1793823,-2.4990215,-3.317309,-0.010110864,0.012108019,-0.13705957,28.75,30.0,29.3125,32.75,35.3125,36.4375
0.25805238,-0.8281434,0.84532684,-1.0018537,0.06627454,0.08070461,-0.12938191,-0.4045255,-0.36396524,0.060082942,3.0776124,-0.62638825,-0.00041332387,-0.1181353,0.036277253,-0.001244796,-0.007255515,-0.0012003571,0.0005969899,0.48282313,-1.3646477,1.8830436,-2.0884817,-1.5702151,2.458875,-0.1695488,0.13979736,-0.17108254,0.029042419,0.0068066805,-0.17006671,-0.34476504,-0.28730422,-8.887277,0.76874626,47.689575,-1.2489147,-2.3834486,-3.3292203,0.008011022,0.013968235,-0.17769907,28.75,30.0,29.3125,32.75,35.3125,36.4375
0.26005223,-0.29871693,1.0020006,-1.0617828,0.059153296,0.08919766,-0.13867912,-0.40475383,-0.36390436,0.060076028,3.0776176,-0.626352,-0.00038658734,-0.11763733,0.036336046,-0.00026618587,-0.007998969,-0.00047851985,-0.0049117813,0.48251176,-1.3643486,1.8826851,-2.0884101,-1.5702032,2.4585404,-0.16930933,0.13714297,-0.17038502,0.030014968,0.007128457,-0.16431963,-0.36391866,-0.28730422,-9.078813,0.8806493,47.688675,-1.2970029,-2.2533517,-3.3607953,-0.004411026,0.0055701607,-0.26874226,28.75,30.0,29.3125,32.75,35.3125,36.4375
0.26205212,-0.3541281,0.42191178,-1.184143,0.046318248,0.090819485,-0.14046358,-0.40499413,-0.36380607,0.06007471,3.07762,-0.6263735,-0.00034350195,-0.11955926,0.037566904,0.000734884,-0.0077502555,0.00022087798,-0.009748332,0.48212728,-1.3640841,1.8823494,-2.0883133,-1.5701913,2.4581692,-0.172631,0.13716178,-0.17324398,0.032356825,0.0065789637,-0.1628037,-0.4213795,-0.2681506,-9.136273,0.8940802,47.695843,-1.1785406,-2.1851118,-3.2675288,0.0067367163,0.01050958,-0.32626897,28.75,30.0,29.3125,32.75,35.3125,36.4375
0.26405212,-0.6311289,0.1941703,-1.4196316,0.020070512,0.09177023,-0.14579627,-0.40522134,-0.36373958,0.060091905,3.077588,-0.62638456,-0.00040007438,-0.120913595,0.03859923,0.0011277664,-0.0063964217,-0.00034264702,-0.012335069,0.48181552,-1.3638556,1.8820256,-2.0882642,-1.5701917,2.4578686,-0.17489149,0.1382776,-0.17616661,0.035295714,0.005649306,-0.16247551,-0.45968673,-0.22984336,-9.212888,0.91198283,47.690468,-1.2800038,-2.166757,-3.2495396,-0.020465354,0.003461713,-0.35792282,28.75,30.0,29.3125,32.75,35.3125,36.4375
0.26605248,-1.2967556,-0.9416441,-1.7455631,0.011086498,0.0795042,-0.13325341,-0.40545678,-0.3636522,0.060078226,3.077624,-0.6264481,-0.0003366897,-0.12109304,0.03813684,0.0012211509,-0.0053633554,-0.00077502115,-0.011765581,0.48146865,-1.3635427,1.8816546,-2.0881445,-1.5702037,2.457557,-0.17373104,0.13985041,-0.17872147,0.037141915,0.0049231034,-0.16188337,-0.36391866,-0.1340753,-9.385271,0.8717007,47.67614,-1.3816347,-2.1938586,-3.1064396,-0.046128765,0.031641945,-0.3532129,28.75,30.0,29.3125,32.75,35.3125,36.4375
0.268052,-1.3150456,-1.3679689,-1.8093783,-0.015783278,0.10325897,-0.13899073,-0.4056881,-0.36358118,0.060067743,3.0775883,-0.6265125,-0.00023016382,-0.12167839,0.038081396,0.0009435857,-0.0048035644,-0.0011765303,-0.0051594707,0.48110908,-1.3632417,1.881296,-2.0880482,-1.570144,2.4572423,-0.17386004,0.14173427,-0.18050876,0.03767704,0.004608835,-0.16861759,-0.51714754,0.095768064,-9.481039,0.9097417,47.675243,-1.4155121,-2.175208,-3.3240256,-0.07364092,0.0077079115,-0.33972508,28.75,30.0,29.3125,32.75,35.3125,36.4375
0.27005205,-1.3447171,-0.99367034,-2.0091207,-0.038068853,0.120293446,-0.15291178,-0.40592298,-0.36346498,0.060050346,3.0776799,-0.6264868,-0.00018604143,-0.12087335,0.039040357,-0.00026180592,-0.0028368055,-0.004840433,0.003352998,0.480737,-1.3629531,1.8809623,-2.0879276,-1.5701922,2.4568427,-0.17463204,0.14295381,-0.17977147,0.039877295,0.0045593125,-0.17790267,-0.49799395,0.17238252,-9.5385,0.900793,47.689575,-1.4500079,-2.217608,-3.3325088,-0.076206826,0.024213854,-0.27045247,28.75,30.0,29.3125,32.75,35.3125,36.4375
0.27205208,-1.0148635,-1.0483555,-2.2439427,-0.04423926,0.13109913,-0.15765919,-0.40615493,-0.363386,0.060033735,3.0776954,-0.6264845,-0.00015508279,-0.12152445,0.039837733,-0.0002954123,-0.0023599216,-0.0060874005,0.011628919,0.48040023,-1.3626525,1.8806261,-2.087867,-1.5701917,2.4565027,-0.1765388,0.14371094,-0.18106681,0.04174849,0.0047145737,-0.18808521,-0.24899697,0.2681506,-9.691729,0.85826975,47.719128,-1.4358916,-2.1685214,-3.3197942,-0.12569028,0.014420088,-0.16262028,28.75,30.0,29.3125,32.75,35.3125,36.4375
0.2740521,-1.2791473,-2.159913,-2.5240848,-0.046592813,0.1030329,-0.14238109,-0.40641898,-0.36331227,0.060061704,3.077658,-0.6263794,-0.00014696519,-0.121959336,0.041514616,-0.0017191952,-0.00021228302,-0.010214485,0.012889178,0.48001537,-1.3623868,1.8802193,-2.0877583,-1.570144,2.456057,-0.17962581,0.14646655,-0.18176445,0.044356473,0.00472706,-0.19243191,-0.22984336,0.34476504,-9.80665,0.87617236,47.677036,-1.4293854,-2.4583716,-3.3965716,-0.16095516,0.025351217,-0.06074953,28.75,30.0,29.3125,32.75,35.3125,36.4375
0.27605227,-1.0083362,-2.5893106,-2.4185102,-0.06130153,0.08518017,-0.1344238,-0.40665433,-0.36323437,0.060042486,3.0776813,-0.62635005,-0.00011292988,-0.12286133,0.04293111,-0.0034831578,0.002061238,-0.013368963,0.0074349768,0.4796781,-1.3620739,1.8798741,-2.0876982,-1.570144,2.4556987,-0.18234281,0.15041453,-0.18273702,0.045231007,0.004155852,-0.1896935,-0.4405331,0.4405331,-9.844957,0.8247004,47.68599,-1.2598199,-2.3166962,-3.3935704,-0.20873132,0.031426206,-0.05871518,28.75,30.0,29.3125,32.75,35.3125,36.4375
0.2780526,-1.2079066,-2.363313,-2.4938226,-0.0741742,0.0725168,-0.13667277,-0.40690288,-0.3631421,0.060037307,3.0776823,-0.62645096,-7.1146875e-05,-0.12540272,0.04363473,-0.002423966,0.0005369751,-0.009636463,-0.0016991453,0.4793054,-1.3617737,1.8795017,-2.087592,-1.570144,2.455389,-0.18540113,0.15013774,-0.1843738,0.043129273,0.0037640003,-0.18361686,-0.47884035,0.34476504,-9.902418,0.842603,47.65464,-1.2777002,-2.3367481,-3.414855,-0.22429478,0.052713,-0.10724251,28.75,30.0,29.3125,32.75,35.3125,36.4375
0.28005177,-0.71933234,-2.3549743,-2.4707172,-0.066472575,0.08246574,-0.14386766,-0.4071658,-0.36304867,0.060046695,3.0776756,-0.62651134,-0.000120296754,-0.12510453,0.043711122,-0.0038579698,0.0019270069,-0.012120258,-0.010752453,0.47893333,-1.3614963,1.8791312,-2.0875194,-1.5701684,2.4550557,-0.18509935,0.15303116,-0.18468778,0.043386877,0.0036701716,-0.17426114,-0.34476507,0.3256114,-9.902418,0.90750587,47.683304,-1.2663574,-2.4544113,-3.5281982,-0.22660436,0.035150718,-0.21833321,28.75,30.0,29.3125,32.75,35.3125,36.4375
0.28205177,-0.66803974,-1.8919672,-2.2585125,-0.061708707,0.08531297,-0.14042762,-0.40741822,-0.3629511,0.06003781,3.077694,-0.62657636,-5.892674e-05,-0.12711152,0.043988235,-0.0034321973,0.001164153,-0.011535822,-0.018694887,0.47854877,-1.3611834,1.8787488,-2.0873997,-1.5701684,2.4547095,-0.18744603,0.15494882,-0.1881516,0.044059925,0.0040561035,-0.1686645,-0.28730422,0.2681506,-9.844957,0.8627467,47.71465,-1.2577577,-2.5072782,-3.3998594,-0.25827873,0.056510944,-0.30545986,28.75,30.0,29.3125,32.75,35.3125,36.4375
0.28405172,-0.9576265,-1.1224847,-2.112073,-0.056100275,0.077381656,-0.15194501,-0.40767336,-0.36288422,0.060036913,3.077615,-0.6266593,-2.4830306e-05,-0.12799604,0.044145245,-0.004742044,0.00087131426,-0.013416532,-0.024566924,0.47817644,-1.360882,1.8783783,-2.087352,-1.5701078,2.454399,-0.18905245,0.15855838,-0.18935983,0.043198697,0.005174143,-0.16439888,-0.24899697,0.3256114,-9.730036,0.88960326,47.699425,-1.2239903,-2.4833827,-3.4945598,-0.2631022,0.04649791,-0.40908018,28.75,30.0,29.3125,32.75,35.3125,36.4375
0.28605187,-1.225219,-0.90137786,-1.813983,-0.032079294,0.07298854,-0.14861725,-0.4079557,-0.3627791,0.060053386,3.077583,-0.62678707,-9.3191185e-05,-0.12848486,0.044146985,-0.0030661589,-0.0018874926,-0.010400834,-0.02569247,0.47776794,-1.3606074,1.8779949,-2.0872805,-1.5701312,2.4540746,-0.1900063,0.15497942,-0.18866259,0.042128365,0.0062374137,-0.1642288,-0.22984336,0.24899697,-9.749189,0.8112748,47.704796,-1.1241982,-2.353596,-3.5363278,-0.2768223,0.03626448,-0.46398222,28.75,30.0,29.3125,32.75,35.3125,36.4375
0.2880517,-1.3872977,-1.0796089,-1.6704803,-0.022040846,0.07893394,-0.14703815,-0.40820453,-0.3627199,0.060053516,3.0775256,-0.6267917,-1.9844218e-05,-0.13042599,0.044385765,-0.0029934943,-0.0025343755,-0.009388572,-0.02044659,0.4774074,-1.3602949,1.8776006,-2.087197,-1.5700592,2.4537244,-0.19204703,0.15714297,-0.19131342,0.04143819,0.0063402215,-0.17151427,-0.22984336,0.11492168,-9.615114,0.82694155,47.695843,-1.079181,-2.5113564,-3.6357386,-0.26664823,0.023689175,-0.47998613,28.75,30.0,29.3125,32.75,35.3125,36.4375
0.29005188,-1.0135014,-0.8075303,-1.416342,-0.0026384941,0.083439514,-0.1532723,-0.40846983,-0.36263257,0.06004061,3.077514,-0.6268026,-6.8121894e-06,-0.1315292,0.045048524,-0.003951684,-0.0022627553,-0.010716458,-0.011679137,0.47702247,-1.3599702,1.8772291,-2.0871494,-1.5700473,2.453348,-0.19422384,0.15995449,-0.19249195,0.0411205,0.006708523,-0.18245809,-0.11492168,0.1340753,-9.500193,0.9612189,47.703903,-1.1306216,-2.4392424,-3.6106544,-0.27627638,0.016118303,-0.37407935,28.75,30.0,29.3125,32.75,35.3125,36.4375
0.29205173,-0.86768776,-0.41602403,-1.1814293,0.009917895,0.08334903,-0.14801766,-0.4087665,-0.36254472,0.06005166,3.07746,-0.62686145,-2.5855352e-05,-0.13376614,0.044556014,-0.0025734561,-0.0042112162,-0.0073971082,-0.0005359093,0.47660226,-1.3596462,1.8767985,-2.0870779,-1.5700234,2.4529715,-0.195336,0.16057807,-0.19626069,0.040437784,0.0069173337,-0.19471204,-0.17238252,0.019153614,-9.423578,0.8784135,47.690468,-1.0722766,-2.5438728,-3.4574223,-0.28440002,0.005105984,-0.24966097,28.75,30.0,29.3125,32.75,35.3125,36.4375
0.29405162,-0.79791516,0.114779636,-1.2824324,0.019944347,0.0750896,-0.14700904,-0.4090354,-0.3624639,0.060061596,3.077491,-0.6267294,-0.00010612603,-0.13534744,0.04324221,-0.0007012223,-0.006544055,-0.0029752376,0.006008151,0.4762547,-1.3593469,1.8764027,-2.0870183,-1.5700592,2.4525378,-0.19441591,0.16006555,-0.19969821,0.039387863,0.006962493,-0.20033468,-0.38307226,-0.095768064,-9.174581,0.8940802,47.71017,-1.1728828,-2.3489695,-3.3542562,-0.2805269,0.015580606,-0.15321535,28.75,30.0,29.3125,32.75,35.3125,36.4375
0.29605263,-1.0632012,0.057317764,-1.2117051,0.038567897,0.07091464,-0.14663567,-0.40928018,-0.36236817,0.060032383,3.0775006,-0.62676895,1.807517e-05,-0.13527787,0.041875847,-4.951235e-05,-0.0070806732,-0.0015333963,0.006576229,0.47585967,-1.359011,1.8760437,-2.0869224,-1.5700234,2.4521663,-0.19182445,0.16042125,-0.20167865,0.039494514,0.0067592906,-0.19831097,-0.49799395,-0.095768064,-9.174581,0.8537928,47.72002,-1.4115083,-2.359075,-3.2254634,-0.2763743,-0.0011713011,-0.1617981,28.75,30.0,29.3125,32.75,35.3125,36.4375
0.29805207,-1.1232651,0.3204041,-1.1577072,0.030634088,0.088219635,-0.14895418,-0.4095674,-0.36229783,0.060064036,3.0774755,-0.6266717,-9.532748e-05,-0.135366,0.041245144,0.00068792386,-0.0072230888,-0.00081294216,0.0011901861,0.47549948,-1.3587232,1.8756121,-2.0868623,-1.5700349,2.4517488,-0.1905962,0.16032587,-0.20356631,0.040768247,0.0065678935,-0.19169547,-0.5554548,-0.15322891,-9.174581,0.8537928,47.683304,-1.5369847,-2.2400703,-3.2501726,-0.3108573,0.018315978,-0.21724933,28.75,30.0,29.3125,32.75,35.3125,36.4375
0.30005214,-1.078098,-0.22253717,-1.3508328,0.028692758,0.097568095,-0.15338,-0.40986076,-0.36221632,0.060056966,3.077405,-0.62679505,-6.1363135e-05,-0.13678086,0.041828662,8.066325e-05,-0.0070466283,-0.00073540956,-0.00681586,0.47507933,-1.3583626,1.8751811,-2.0868027,-1.5699872,2.4514148,-0.19253872,0.16270858,-0.20486686,0.03970612,0.0063692755,-0.18563095,-0.40222588,-0.05746084,-9.289502,0.90750587,47.687782,-1.519464,-2.375585,-3.1853065,-0.30053294,0.0009904462,-0.29097363,28.75,30.0,29.3125,32.75,35.3125,36.4375
0.30205217,-0.82329595,-0.65649456,-1.436172,-0.003436709,0.11228189,-0.1496322,-0.41012302,-0.3621063,0.06005524,3.0774288,-0.6268799,-4.170141e-05,-0.13825414,0.042857602,-0.00014584576,-0.0072117276,-0.0004969985,-0.01301941,0.47468233,-1.3580626,1.8747972,-2.0866835,-1.570011,2.451068,-0.19543007,0.16385971,-0.20562802,0.0390244,0.006396283,-0.1823186,-0.30645782,-0.019153614,-9.385271,0.9858343,47.7254,-1.5240264,-2.202515,-3.315031,-0.2958904,0.015706755,-0.359303,28.75,30.0,29.3125,32.75,35.3125,36.4375
0.30405208,-1.9537181,-1.8183054,-1.6392732,-0.0230852,0.086926915,-0.14244962,-0.410394,-0.3620008,0.06005724,3.0774553,-0.62692255,-3.434439e-05,-0.1395343,0.044035695,0.00091461214,-0.007300729,0.0009003362,-0.015042863,0.47428596,-1.3577515,1.874391,-2.0865629,-1.5700353,2.450695,-0.19803661,0.16244352,-0.20663407,0.040163696,0.00583457,-0.1829014,-0.3256114,0.076614454,-9.461885,0.9254084,47.68599,-1.4825706,-2.0964293,-3.343719,-0.2998953,0.005502829,-0.38312957,28.75,30.0,29.3125,32.75,35.3125,36.4375
0.30605212,-1.1138008,-1.9576911,-1.7656336,-0.042905726,0.09551267,-0.14853334,-0.4106787,-0.36191222,0.060053013,3.0774214,-0.626952,-2.6651383e-05,-0.14143185,0.04489276,0.0011520381,-0.0074569853,0.0024414961,-0.012515393,0.4738769,-1.3574154,1.8739828,-2.0865037,-1.5700115,2.4503088,-0.20062822,0.16343863,-0.20823333,0.03933802,0.005272025,-0.18801928,-0.3256114,0.076614454,-9.423578,0.90750587,47.683304,-1.4578707,-2.0665896,-3.3638134,-0.3175888,0.028550442,-0.4008878,28.75,30.0,29.3125,32.75,35.3125,36.4375
0.3080518,-0.3187641,-1.0272726,-1.7655349,-0.06587053,0.10659639,-0.17120859,-0.41093856,-0.3618197,0.060038146,3.0774312,-0.6269486,0.000110382905,-0.14188272,0.04552507,0.0007533951,-0.0066148583,0.0018646555,-0.0029503289,0.47346863,-1.3570675,1.8735651,-2.0863602,-1.5699643,2.4498973,-0.20164388,0.1644682,-0.20870228,0.039696135,0.0047793863,-0.19859976,-0.2681506,0.21068975,-9.5385,0.8672237,47.68062,-1.5150774,-2.057047,-3.403349,-0.3206364,0.01873121,-0.31194624,28.75,30.0,29.3125,32.75,35.3125,36.4375
0.31005192,-1.4170023,-1.9731632,-1.9383264,-0.041033797,0.07603816,-0.15427433,-0.41125262,-0.36172888,0.060068894,3.077388,-0.6269522,-2.8437875e-05,-0.1432459,0.04624331,-0.0008484843,-0.005975745,0.0008407959,0.00658167,0.47305986,-1.3567667,1.8731226,-2.086313,-1.5699877,2.4494965,-0.20382322,0.16846722,-0.2094707,0.03767494,0.0046986006,-0.21030968,-0.19153613,0.30645782,-9.730036,0.84484416,47.68599,-1.3907871,-2.0420964,-3.332891,-0.30280736,0.02939329,-0.16107273,28.75,30.0,29.3125,32.75,35.3125,36.4375
0.3120518,-1.3631581,-1.6966672,-1.9340428,-0.041253768,0.07026777,-0.15451324,-0.41153932,-0.36163077,0.06005978,3.0773697,-0.6268916,3.591066e-06,-0.14641607,0.046759754,0.0003553405,-0.008272901,0.005569548,0.006661205,0.4726267,-1.3564308,1.8727254,-2.0862544,-1.5699519,2.449028,-0.20720086,0.16864443,-0.21175618,0.03454011,0.004583088,-0.21376587,-0.19153613,0.21068975,-9.653421,0.87617236,47.703007,-1.2268296,-2.1572113,-3.4114237,-0.26988336,0.032538556,-0.108934835,28.75,30.0,29.3125,32.75,35.3125,36.4375
0.31405208,-0.5707055,-1.2707144,-1.9724388,-0.041985635,0.07981626,-0.16068941,-0.41182774,-0.36154503,0.060069542,3.0773685,-0.6268367,-4.8887214e-05,-0.14734998,0.04706153,-0.0007897804,-0.008626715,0.004561843,-0.0003026481,0.47224215,-1.3561059,1.8722957,-2.0861828,-1.5699638,2.4486096,-0.20884013,0.17155035,-0.21235117,0.032958064,0.005358447,-0.20844114,-0.34476507,0.19153613,-9.519346,0.9030289,47.696735,-1.1481079,-2.2506046,-3.5356593,-0.2454341,0.041033365,-0.12298815,28.75,30.0,29.3125,32.75,35.3125,36.4375
0.31605414,-1.2326587,-1.4717188,-2.1367671,-0.031839427,0.054441184,-0.14488468,-0.41213846,-0.3614346,0.060053334,3.0773804,-0.6268646,-4.380067e-05,-0.14880589,0.047918726,-0.0014290145,-0.008465475,0.00363198,-0.011996383,0.47179735,-1.3557214,1.8718528,-2.0861108,-1.5699757,2.448181,-0.21153405,0.17409459,-0.21403687,0.03299327,0.0056286207,-0.19944076,-0.30645782,0.2681506,-9.615114,0.8851263,47.68599,-1.0590968,-2.3037767,-3.5043092,-0.2359305,0.039823405,-0.17352471,28.75,30.0,29.3125,32.75,35.3125,36.4375
0.31805155,-1.0269729,-1.4943852,-2.1175015,-0.033254884,0.066080295,-0.14890061,-0.41243014,-0.3613472,0.06006715,3.0773299,-0.6269561,-0.00010417026,-0.15021178,0.04777965,-0.0013563661,-0.009061031,0.004331351,-0.020813495,0.47140053,-1.3554091,1.8714317,-2.0860512,-1.5699757,2.4478478,-0.2124903,0.17611618,-0.21660855,0.032645393,0.0058422396,-0.19157867,-0.22984336,0.22984336,-9.615114,0.86498255,47.67166,-0.9423597,-2.3790462,-3.4314985,-0.20863588,0.030315269,-0.30470395,28.75,30.0,29.3125,32.75,35.3125,36.4375
0.32005242,-1.5375538,-1.3906733,-1.9759321,-0.035472393,0.060882434,-0.14860658,-0.4127805,-0.361253,0.06009728,3.07721,-0.62710804,-0.00018320615,-0.15087466,0.0482946,-0.002208614,-0.008315379,0.0030836614,-0.02866314,0.47092023,-1.3550606,1.8709296,-2.0859911,-1.5699395,2.4474778,-0.2136871,0.17850125,-0.21762642,0.032733332,0.0057581863,-0.18492465,-0.34476504,0.19153614,-9.653421,0.82694155,47.67614,-0.980446,-2.4074626,-3.4916005,-0.17830336,0.031265203,-0.4187466,28.75,30.0,29.3125,32.75,35.3125,36.4375
0.32205284,-1.5471381,-1.6732934,-1.8219159,-0.03582606,0.09198295,-0.1470429,-0.41303837,-0.36117655,0.060082197,3.0772002,-0.6270459,-0.00013392046,-0.15195774,0.0466452,-0.00058208767,-0.010576056,0.006237523,-0.02803428,0.4705492,-1.3547248,1.8705453,-2.0859315,-1.5699033,2.4470694,-0.2120699,0.17853427,-0.22138539,0.03262933,0.006334325,-0.18393557,-0.38307226,0.17238252,-9.595961,0.8918391,47.69763,-1.2594398,-2.4118495,-3.4638352,-0.18559544,0.03434238,-0.48510283,28.75,30.0,29.3125,32.75,35.3125,36.4375
0.3240519,-1.9491076,-1.3661335,-1.5310287,-0.035484668,0.10965679,-0.14336501,-0.41333872,-0.36109987,0.06006918,3.077141,-0.62712383,-0.00012501035,-0.15185726,0.0458255,-0.0010640637,-0.010762878,0.005256973,-0.019311132,0.47014168,-1.3543398,1.8701023,-2.0858953,-1.569867,2.4467182,-0.21083514,0.18061376,-0.22292379,0.032891642,0.0069565396,-0.19142355,-0.49799395,0.22984336,-9.404425,0.9186956,47.661808,-1.3712465,-2.439697,-3.3616576,-0.17190394,0.026573189,-0.4884039,28.75,30.0,29.3125,32.75,35.3125,36.4375
0.32605225,-1.3409129,-1.0413142,-1.6968389,-0.015417928,0.12388962,-0.15840985,-0.41362515,-0.36098355,0.06005138,3.0771742,-0.62716156,-7.609641e-05,-0.15187748,0.046166733,-0.0016006927,-0.010613195,0.003969123,-0.007654275,0.4697097,-1.3539801,1.8696841,-2.085787,-1.5698794,2.4463058,-0.21155009,0.18155606,-0.22298212,0.033233844,0.007410612,-0.20379601,-0.22984336,0.17238252,-9.404425,0.90750587,47.67614,-1.5034633,-2.4269695,-3.4254026,-0.1307053,0.023310442,-0.37489405,28.75,30.0,29.3125,32.75,35.3125,36.4375
0.32805285,-1.1952621,-0.78141356,-1.477598,0.0005619661,0.11551111,-0.15901093,-0.41393268,-0.3608821,0.060057577,3.0771594,-0.6271137,-0.00012244949,-0.15356342,0.046172645,-9.50676e-05,-0.011740765,0.0063358485,0.0037108702,0.46927732,-1.3536448,1.8692521,-2.085728,-1.5698794,2.4458456,-0.2128084,0.18117326,-0.22621778,0.034246214,0.0073625194,-0.2164183,-0.17238252,0.095768064,-9.289502,0.88960326,47.691364,-1.5632181,-2.2716582,-3.617301,-0.11615582,0.011113109,-0.24168742,28.75,30.0,29.3125,32.75,35.3125,36.4375
0.33005187,-0.94066787,-0.791351,-1.4915226,0.013643037,0.082179464,-0.14979485,-0.41427386,-0.3608006,0.060078222,3.077118,-0.627064,-0.00025140579,-0.15459298,0.046122722,0.00042511857,-0.011707824,0.0074120956,0.007875747,0.46885717,-1.353273,1.8687481,-2.0856912,-1.5698913,2.4454,-0.2131288,0.18201213,-0.22860895,0.034859832,0.0068722325,-0.22090183,-0.24899697,0.05746084,-9.32781,1.0037369,47.675243,-1.4765234,-2.2603424,-3.5363102,-0.090782456,0.024156053,-0.14595327,28.75,30.0,29.3125,32.75,35.3125,36.4375
0.33205208,-0.38712832,-0.55231553,-1.370198,0.0018701373,0.071607634,-0.14502014,-0.41459402,-0.3607123,0.060088728,3.0770085,-0.62718076,-0.00026578514,-0.15655912,0.046712693,0.0011472912,-0.011566309,0.008933507,0.00083790434,0.46840042,-1.352925,1.8682932,-2.0856435,-1.5698317,2.4450302,-0.2151257,0.18309693,-0.23180029,0.0356876,0.006067669,-0.21585898,-0.30645782,0.095768064,-9.289502,0.90527004,47.7245,-1.4857278,-2.2152643,-3.425496,-0.095048204,0.031101285,-0.1622344,28.75,30.0,29.3125,32.75,35.3125,36.4375
0.33405212,-0.28726935,-0.8963937,-1.4402332,0.0089832,0.057359945,-0.14558198,-0.41490343,-0.36062115,0.0600791,3.0770261,-0.6270729,-0.000302903,-0.15763049,0.047301218,-0.00014799705,-0.009988221,0.0065728812,-0.00792041,0.46799198,-1.3525398,1.8678387,-2.085595,-1.5698436,2.4445524,-0.21665044,0.18739939,-0.23437259,0.036770932,0.0057238224,-0.20862375,-0.30645782,0.05746084,-9.32781,0.9768804,47.690468,-1.4307033,-2.3435862,-3.3079848,-0.07401177,0.045572367,-0.25101048,28.75,30.0,29.3125,32.75,35.3125,36.4375
0.33605206,-0.10271526,-0.6726103,-1.6400063,-0.001227846,0.069704466,-0.15081711,-0.41519925,-0.36052004,0.060065333,3.077039,-0.6271168,-0.00025973096,-0.15857075,0.048285067,0.00040446385,-0.009836628,0.0068086237,-0.01451805,0.4675714,-1.3521565,1.8673824,-2.0854867,-1.5698436,2.4441578,-0.21878248,0.18696299,-0.23548155,0.038173653,0.005475928,-0.20415813,-0.19153613,-0.05746084,-9.308656,0.89631605,47.691364,-1.5101643,-2.0994265,-3.2593021,-0.074384056,0.029985745,-0.33423704,28.75,30.0,29.3125,32.75,35.3125,36.4375
0.33805227,-0.24885094,-0.8150796,-1.6665049,0.00025906635,0.07622281,-0.15176654,-0.41552284,-0.36041972,0.060079396,3.0769868,-0.627205,-0.0002650322,-0.1596393,0.049860656,0.0006691754,-0.009413373,0.005938173,-0.020025529,0.46711445,-1.3517967,1.8668913,-2.0853784,-1.5698198,2.4437628,-0.22215916,0.18684399,-0.236469,0.04025346,0.005500149,-0.20202714,-0.2873042,0.019153614,-9.289502,0.8918391,47.686886,-1.3843303,-2.244543,-3.3344474,-0.066041596,0.05322031,-0.37206197,28.75,30.0,29.3125,32.75,35.3125,36.4375
0.34005213,-0.30078796,-1.2636678,-1.3622735,-0.009769677,0.103516854,-0.14771451,-0.4158636,-0.36033827,0.060105786,3.0769255,-0.6271507,-0.00037298774,-0.16078596,0.050328642,0.0007445865,-0.0095924465,0.005498244,-0.017549934,0.4666818,-1.3514365,1.8663849,-2.0853298,-1.5698074,2.4433043,-0.22396208,0.18825129,-0.23864791,0.04134524,0.005884078,-0.20630454,-0.40222588,0.05746084,-9.308656,0.84484416,47.73077,-1.2612126,-2.154672,-3.3318796,-0.06960389,0.047254108,-0.3919093,28.75,30.0,29.3125,32.75,35.3125,36.4375
0.34205213,-1.51923,-1.303542,-1.2955456,-0.007223157,0.09797193,-0.15181527,-0.41616574,-0.36022907,0.06007758,3.0769413,-0.62718815,-0.00029667435,-0.16238104,0.05190694,2.4658266e-05,-0.009260286,0.0036787887,-0.010951629,0.4662361,-1.3510281,1.8659333,-2.085234,-1.5697955,2.4428802,-0.22809981,0.19057548,-0.24010837,0.042269867,0.0064082094,-0.21704046,-0.24899697,0.13407528,-9.308657,0.9254084,47.71465,-1.0944632,-2.3004215,-3.3142219,-0.057966087,0.028427824,-0.28661567,28.75,30.0,29.3125,32.75,35.3125,36.4375
0.344052,-1.3484674,-0.93666315,-1.59869,0.00027765744,0.100251794,-0.15039021,-0.41650742,-0.36013192,0.060104087,3.0769043,-0.6271939,-0.00039438167,-0.16291827,0.052103918,0.000759416,-0.010299936,0.0041959104,-0.0016109295,0.46579167,-1.3506685,1.8654193,-2.0851495,-1.5698069,2.4424443,-0.22913575,0.18980165,-0.24108528,0.043099545,0.0071342946,-0.22741695,-0.15322891,0.019153614,-9.442732,0.9992599,47.675243,-0.9902365,-2.2449286,-3.387033,-0.054886743,0.018299483,-0.17084128,28.75,30.0,29.3125,32.75,35.3125,36.4375
0.34605217,-0.8624166,-0.28478232,-1.2855049,-0.011081849,0.09220125,-0.1630585,-0.41684943,-0.36002523,0.060119938,3.0768182,-0.6272332,-0.00039357302,-0.16329697,0.051277556,0.0007567937,-0.010336638,0.0043740827,0.0026608903,0.465288,-1.3503081,1.8649281,-2.0850656,-1.5697469,2.4419763,-0.22785957,0.19170685,-0.24353336,0.04348744,0.0071007814,-0.2304113,-0.2873042,-0.019153614,-9.404425,0.8403672,47.73614,-1.074506,-2.239562,-3.4176643,-0.045504272,0.018443914,-0.08910305,28.75,30.0,29.3125,32.75,35.3125,36.4375
0.34805247,-1.0287509,-1.2642636,-1.2699562,-0.0070229615,0.09268432,-0.13814503,-0.41712978,-0.35992554,0.06008671,3.076897,-0.62711704,-0.00031653978,-0.16389826,0.05108798,0.00032175687,-0.009795397,0.0046373648,-0.0021747232,0.46489233,-1.3498999,1.8644851,-2.0849583,-1.5697592,2.4414983,-0.22751585,0.19374506,-0.24494828,0.042868745,0.0064756135,-0.22523154,-0.63206923,0.15322891,-9.232041,0.8403672,47.666286,-1.190677,-2.2165596,-3.3976665,-0.03568694,0.04276538,-0.10257012,28.75,30.0,29.3125,32.75,35.3125,36.4375
0.35005227,-0.27145982,-1.4014744,-1.510428,0.0047004367,0.10072117,-0.13929169,-0.4174274,-0.3598085,0.06003178,3.0769186,-0.6271642,-0.00016350667,-0.16403453,0.051997438,0.00012057291,-0.008917879,0.00409688,-0.012323494,0.46442422,-1.3494563,1.8640536,-2.0848744,-1.5697235,2.441057,-0.22863367,0.19364442,-0.24459445,0.043495867,0.005909103,-0.21620126,-0.47884032,0.095768064,-9.251196,0.8940802,47.72092,-1.329819,-2.14778,-3.5146523,-0.018281326,0.056751058,-0.20755206,28.75,30.0,29.3125,32.75,35.3125,36.4375
0.3520521,-0.785908,-0.6693888,-1.8552831,-0.009278815,0.074078575,-0.14737149,-0.4178201,-0.35971177,0.060102507,3.0767977,-0.62724066,-0.00036839824,-0.16473557,0.052098963,3.728968e-05,-0.008289134,0.0032452538,-0.022198707,0.4639321,-1.34912,1.8634671,-2.08479,-1.5697235,2.4406283,-0.22908397,0.1955722,-0.24717917,0.045189735,0.005755272,-0.20677437,-0.21068975,0.0,-9.481039,0.99031126,47.73077,-1.3413473,-2.2439237,-3.4904575,-0.02514288,0.06317337,-0.3280261,28.75,30.0,29.3125,32.75,35.3125,36.4375
0.3540522,-1.0663368,-1.4795687,-1.4522972,-0.010662566,0.06870053,-0.1406236,-0.41812244,-0.35958663,0.060068928,3.0768132,-0.6273621,-0.0003203984,-0.16496973,0.051489346,0.00016441317,-0.008157967,0.002507741,-0.027842194,0.46347642,-1.3487241,1.863047,-2.084717,-1.5697359,2.4402466,-0.22821209,0.19720542,-0.2499332,0.047021743,0.0059518483,-0.20025839,-0.51714754,0.11492168,-9.232041,0.95002913,47.72002,-1.3714211,-2.1616788,-3.4351351,-0.024868116,0.0427702,-0.46104804,28.75,30.0,29.3125,32.75,35.3125,36.4375
0.3560522,-0.48891,-1.5140021,-1.7131894,0.0010742499,0.07585503,-0.14561118,-0.41844594,-0.35950688,0.060060225,3.0767918,-0.6273734,-0.00029377887,-0.16534658,0.0514941,-0.0016286733,-0.006568695,-0.00097520516,-0.02611343,0.46305653,-1.3482906,1.8625196,-2.0846212,-1.5697111,2.4398367,-0.2284397,0.20230237,-0.25239962,0.048226602,0.006087219,-0.20221344,-0.30645782,0.11492168,-9.174581,0.92764956,47.67614,-1.5073624,-2.3120399,-3.405326,-0.026501944,0.057431318,-0.49820355,28.75,30.0,29.3125,32.75,35.3125,36.4375
0.35805234,-0.4065636,-0.64741546,-1.7800354,0.00650736,0.07597881,-0.15507084,-0.4187965,-0.35939807,0.060096,3.0767512,-0.6273967,-0.000393497,-0.16643848,0.05247463,-0.0016941553,-0.0061548487,-0.0022828307,-0.01691422,0.4625881,-1.3479425,1.8619922,-2.084513,-1.569723,2.4393883,-0.23094304,0.20370695,-0.25447845,0.050267816,0.0063292803,-0.21391496,-0.019153614,0.05746084,-9.3661175,0.87393653,47.688675,-1.4579295,-2.3574927,-3.4139676,-0.043084897,0.06015008,-0.45713937,28.75,30.0,29.3125,32.75,35.3125,36.4375
0.36005235,-0.8415544,-1.0424577,-1.5679159,0.00086108246,0.064846955,-0.14204149,-0.41910836,-0.35929078,0.06006553,3.0767372,-0.62746465,-0.00027142186,-0.16738828,0.05351155,-0.0012047881,-0.005616536,-0.0029448937,-0.005570591,0.4621189,-1.3475109,1.8615135,-2.0844042,-1.5696753,2.4389634,-0.23317528,0.20388506,-0.25649607,0.052968923,0.0061462293,-0.22749074,0.019153614,0.095768064,-9.346964,0.93436235,47.64121,-1.4594988,-2.3711548,-3.3661408,-0.07460823,0.058024384,-0.30897814,28.75,30.0,29.3125,32.75,35.3125,36.4375
0.36205238,-0.545854,-1.0561,-1.5927831,-0.016143009,0.053286325,-0.14333872,-0.41946316,-0.35916495,0.06005986,3.076753,-0.62752223,-0.00027733314,-0.1680154,0.053969108,-0.0014222142,-0.0051298635,-0.0046307654,0.0009798898,0.46162647,-1.3470787,1.8609747,-2.0842836,-1.5696992,2.4385052,-0.23445731,0.20564687,-0.25871718,0.055159517,0.0064666793,-0.23532271,-0.076614454,0.24899697,-9.251195,0.96569055,47.709274,-1.3589468,-2.4760962,-3.2654996,-0.11218774,0.072442785,-0.20142964,28.75,30.0,29.3125,32.75,35.3125,36.4375
0.36405236,-0.79214627,-1.3266646,-1.6163328,-0.012868815,0.04048942,-0.13475257,-0.41980553,-0.359057,0.06005978,3.0767334,-0.6274831,-0.0002695358,-0.16966237,0.054512158,-8.575532e-05,-0.0063014864,-0.003073899,-0.004807065,0.46114582,-1.3466712,1.8604587,-2.0841873,-1.5696753,2.4380028,-0.23675208,0.20501943,-0.2613677,0.056525793,0.006818705,-0.23183003,-0.1340753,0.2873042,-9.270349,0.94331104,47.67614,-1.2259829,-2.3481534,-3.2480397,-0.12681933,0.070619315,-0.19042322,28.75,30.0,29.3125,32.75,35.3125,36.4375
0.3660524,-0.2987607,-1.4229265,-1.8330998,-0.01944938,0.052031577,-0.13720918,-0.4201366,-0.35894862,0.06004995,3.0767417,-0.6274907,-0.00024889398,-0.16927879,0.057053883,-0.002845593,-0.0023947218,-0.010701112,-0.015394276,0.4606887,-1.3462504,1.8599457,-2.084078,-1.5696753,2.4375496,-0.2404185,0.20914637,-0.26116523,0.060761463,0.006709204,-0.22490902,-0.24899697,0.2681506,-9.289502,0.88960326,47.689575,-1.1060224,-2.296444,-3.3667748,-0.15650941,0.07201981,-0.27961308,28.75,30.0,29.3125,32.75,35.3125,36.4375
0.36805245,-0.8527984,-1.4764875,-1.7312176,-0.03666932,0.057044048,-0.14033881,-0.42046687,-0.3588202,0.060023665,3.076739,-0.62758917,-0.00015154383,-0.16912636,0.05757108,-0.0025893187,-0.0016393304,-0.011288013,-0.021331392,0.46018448,-1.3458191,1.8594545,-2.0839584,-1.569651,2.4371073,-0.24069543,0.20857745,-0.26154992,0.06258077,0.006273024,-0.21924923,-0.30645782,0.26815057,-9.289502,0.947788,47.688675,-1.1833775,-2.273512,-3.4339638,-0.23294944,0.07232962,-0.36074126,28.75,30.0,29.3125,32.75,35.3125,36.4375
0.37005255,-0.9655881,-1.4151791,-1.3315876,-0.057512388,0.09288737,-0.15973641,-0.42079905,-0.3587168,0.060035147,3.0767334,-0.6276462,-0.00010840733,-0.16957921,0.05811843,-0.0020620564,-0.002001208,-0.010449867,-0.022923313,0.4597283,-1.3454115,1.8588928,-2.0837786,-1.5696391,2.4366877,-0.24175686,0.20756935,-0.26163867,0.0627713,0.006215217,-0.21871918,-0.4213795,0.24899697,-9.308657,0.947788,47.687782,-1.2341905,-2.1931477,-3.504578,-0.2233079,0.07579811,-0.40227273,28.75,30.0,29.3125,32.75,35.3125,36.4375
0.3720524,-2.027913,-1.600858,-1.4454387,-0.040544853,0.09699419,-0.14127111,-0.42114785,-0.3586144,0.060031034,3.07666,-0.6277227,-3.7536527e-05,-0.17022826,0.058177516,-0.0015048,-0.0028009543,-0.010712117,-0.016109228,0.45922405,-1.3449798,1.858353,-2.0836694,-1.5695671,2.4362407,-0.24269085,0.20786913,-0.26372957,0.06446848,0.007050647,-0.2264672,-0.2681506,0.19153613,-9.308657,0.9321212,47.71286,-1.2077749,-2.1804907,-3.5580812,-0.26318613,0.092741065,-0.36849147,28.75,30.0,29.3125,32.75,35.3125,36.4375
0.37405252,-1.4828413,-0.9675275,-1.7849876,-0.010657156,0.101596124,-0.14617202,-0.42149228,-0.35848507,0.060025457,3.0766988,-0.62774324,-4.164014e-05,-0.17116559,0.058580242,-0.0013601355,-0.0031430982,-0.012130418,-0.005530024,0.4587438,-1.34456,1.8578256,-2.0835373,-1.5696024,2.4357686,-0.2445083,0.20935093,-0.2664787,0.06686273,0.00798722,-0.23886363,-0.15322891,0.05746084,-9.385271,0.9321212,47.672558,-1.262721,-2.181469,-3.465815,-0.33275735,0.063341066,-0.25746995,28.75,30.0,29.3125,32.75,35.3125,36.4375
0.37605238,-1.4616859,-0.94352144,-1.7133261,0.01648619,0.08353275,-0.13150549,-0.421857,-0.35837004,0.06002273,3.0766573,-0.627806,-5.7442408e-06,-0.1721054,0.057762068,-0.0028445688,-0.00357003,-0.011443085,0.0043227104,0.45822802,-1.3441143,1.8572634,-2.0834196,-1.5695666,2.4352975,-0.2437504,0.21359752,-0.26744515,0.06280105,0.008057679,-0.24795763,-0.24899697,0.05746084,-9.32781,0.947788,47.694946,-1.2352748,-2.355895,-3.5180988,-0.3346686,0.066275895,-0.1342058,28.75,30.0,29.3125,32.75,35.3125,36.4375
