Tylouw/Master_Thesis_Code/training_data/batch_1/rect_rod_t0.2/sample_19_session_1.csv
timestamp[s],tcp_force_x[N],tcp_force_y[N],tcp_force_z[N],tcp_force_rx[Nm?],tcp_force_ry[Nm?],tcp_force_rz[Nm?],tcp_pose_x[m],tcp_pose_y[m],tcp_pose_z[m],tcp_pose_rx[rot_vec_x],tcp_pose_ry[rot_vec_y],tcp_pose_rz[rot_vec_z],tcp_velo_x[m/s],tcp_velo_y[m/s],tcp_velo_z[m/s],tcp_velo_rx[rot_vec_x/s],tcp_velo_ry[rot_vec_y/s],tcp_velo_rz[rot_vec_z/s],q1[rad],q2[rad],q3[rad],q4[rad],q5[rad],q6[rad],qd1[rad/s],qd2[rad/s],qd3[rad/s],qd4[rad/s],qd5[rad/s],qd6[rad/s],tool_acc_x,tool_acc_y,tool_acc_z,current_of_whole_robot[A],voltage_of_whole_robot[V],current_J1[A],current_J2[A],current_J3[A],current_J4[A],current_J5[A],current_J6[A],temp_J1[C],temp_J2[C],temp_J3[C],temp_J4[C],temp_J5[C],temp_J6[C]
6.530008e-07,0.6404681,-0.6045498,-0.2861464,-0.037473205,0.046831917,-0.008835156,-0.38933197,-0.36870039,0.059993856,-3.0786638,0.62495834,0.00018960866,8.713142e-05,1.5461274e-05,-2.0780224e-05,-3.431566e-05,-0.00033395388,6.93517e-05,0.50502086,-1.3816439,1.9042348,-2.0919158,-1.5708774,2.4800372,-6.454208e-05,-1.4716312e-05,-1.4084357e-06,0.00029105716,0.00019228528,-0.00013420879,0.095768064,0.19153613,-8.714894,0.78888994,47.690468,-0.19860823,-3.1754742,-2.321023,-0.19390798,0.15302137,-0.01658078,28.75,30.125,29.25,32.875,35.375,36.5
0.002052377,0.2902745,-0.4027523,-0.1467362,-0.043461148,0.04460428,-0.0041587087,-0.38931507,-0.36870256,0.059974793,-3.0786433,0.62495404,0.00012243749,-0.00095804123,-0.0005632641,-0.0005879507,-0.0027846778,0.0046286676,6.657755e-05,0.5050329,-1.3816198,1.9042476,-2.0919068,-1.5708655,2.4800491,-6.303532e-05,-1.974381e-07,0.0033136564,-0.00871232,0.00018440429,-0.00013032377,0.1340753,0.24899697,-8.504205,0.7642693,47.7254,-0.19083308,-3.0197334,-2.3710425,-0.16391683,0.1530266,-0.03349331,28.75,30.125,29.25,32.875,35.375,36.5
0.004051986,0.23425852,-0.3970726,-0.18991742,-0.0371454,0.04087968,-0.002730316,-0.38934174,-0.36871636,0.060001414,-3.0787234,0.62497073,0.00018654198,-0.0014421046,-0.0008310247,-0.0009529444,-0.003048884,0.005112942,6.490827e-05,0.5050088,-1.3816435,1.9042233,-2.091943,-1.5708297,2.4800253,-6.1597195e-05,0.0013297334,0.002908146,-0.010188358,0.00017714349,-0.00012665546,0.076614454,0.22984336,-8.599973,0.7866488,47.704796,-0.2102863,-3.243795,-2.6188893,-0.060134616,0.15719862,-0.021755014,28.75,30.125,29.25,32.875,35.375,36.5
0.006052071,0.13484757,-0.25000066,-0.277784,-0.014978427,0.023081988,-5.4484797e-05,-0.38934338,-0.36870214,0.059982702,-3.0786629,0.62491983,0.0002035681,-0.00062442455,-0.00037483196,-0.00084773346,-0.0013865352,0.0021374116,6.27325e-05,0.50502086,-1.3816073,1.9042228,-2.0919416,-1.5708898,2.4800134,-6.0223283e-05,0.0011424862,0.001829752,-0.005514326,0.00017043312,-0.00012318777,0.0,0.28730422,-8.599973,0.78217715,47.707485,-0.14331599,-3.2949352,-2.5753832,-0.07391378,0.13008776,-0.02763037,28.75,30.125,29.25,32.875,35.375,36.5
0.008052123,1.1168405,1.0468193,-0.52069426,-0.0017597344,0.021662464,-0.008897701,-0.38931423,-0.36869055,0.059971754,-3.0786405,0.6249154,0.00013203308,-9.952471e-05,-8.06064e-05,0.0005437422,-0.0010597843,0.0015754659,7.207603e-05,0.50502086,-1.3816323,1.9042715,-2.0919158,-1.5708774,2.4800134,-5.890926e-05,-0.001510374,0.000819299,-0.0012010954,0.00016421264,-0.00013168252,-0.095768064,0.2681506,-8.791509,0.76874626,47.741516,-0.14110902,-3.1368542,-2.519029,-0.12241492,0.16034766,-0.023734577,28.75,30.125,29.25,32.875,35.375,36.5
0.010052277,0.5861971,0.8212535,-1.1072413,0.010527944,0.01083708,-0.0045740106,-0.38933888,-0.36872292,0.059989348,-3.078695,0.62492627,0.00020537162,0.0001395567,5.2437736e-05,0.00042710314,-0.00054111343,0.00060522713,6.8346475e-05,0.5050448,-1.3816082,1.9042109,-2.0919511,-1.5708655,2.4800372,-7.029278e-05,-0.0013252735,0.00061152445,-7.842295e-05,0.00018187445,-0.00013935498,0.019153614,0.17238252,-8.963891,0.7083204,47.711964,-0.70779824,-2.75281,-2.8950744,-0.1091622,0.12495105,-0.09920165,28.75,30.125,29.25,32.875,35.375,36.5
0.012052266,0.49410057,0.06708694,-1.2414858,-0.03370209,0.042671,-0.018577123,-0.38933188,-0.3686851,0.059968174,-3.0786436,0.6249926,7.9017926e-05,0.0008327111,0.0004862287,-0.0027325698,0.0034000468,-0.0065202243,0.00043213804,0.5049729,-1.3816062,1.9042457,-2.0919025,-1.5708417,2.4800131,-0.00015720034,0.005505316,-0.0009109525,0.0027561903,0.00018311181,-0.0005886626,0.095768064,0.095768064,-9.193734,0.6725152,47.698532,-0.91048574,-2.6394427,-3.005725,-0.14456493,0.14001533,-0.15225098,28.75,30.125,29.25,32.875,35.375,36.5
0.014052246,-0.19810952,-0.86226755,-1.3756547,-0.06776373,0.059985567,-0.016505342,-0.38931116,-0.36869526,0.059947465,-3.078622,0.6248915,3.217574e-05,-0.0039688856,0.0044696075,-0.004567079,0.0048562856,-0.009103677,-0.0006960721,0.50501674,-1.3815678,1.9042448,-2.0918906,-1.5708536,2.4799967,-0.011336168,0.011161947,-0.003364712,0.0025173272,0.00015189238,-0.01063745,-0.038307227,0.1340753,-9.270349,0.75084364,47.679718,-0.39448684,-3.337184,-3.0382376,-0.13272232,0.13565938,-0.10548775,28.75,30.125,29.25,32.875,35.375,36.5
0.016051903,-1.0530232,-1.607271,-1.6495423,-0.075499825,0.071938,-0.0158577,-0.38932377,-0.36869237,0.059944887,-3.0786247,0.62488866,6.960638e-06,-0.005633952,0.003984319,-0.0025303364,0.0026170823,-0.005051555,0.006505811,0.50499266,-1.3815446,1.9042205,-2.0918787,-1.5708417,2.4799705,-0.0120709725,0.009400831,-0.0058264425,0.0021095052,0.00014354728,-0.018573355,-0.17238252,0.15322891,-9.404425,0.6658024,47.683304,-0.49054325,-3.0238283,-3.1073098,-0.13695808,0.13821974,-0.014864091,28.75,30.125,29.25,32.875,35.375,36.5
0.018051708,-0.50906444,-0.84282285,-1.4152367,-0.08564446,0.11180891,-0.053845666,-0.38930994,-0.36866784,0.059906065,-3.078566,0.62487453,-0.00013301212,-0.00548574,0.003774375,-0.0021960367,0.0021719409,-0.004296998,0.011360718,0.50495684,-1.3814968,1.9042443,-2.0918434,-1.5708297,2.4799333,-0.011592181,0.008559442,-0.0055144303,0.0017627056,0.00016479105,-0.022949748,-0.38307226,0.15322891,-9.519346,0.7530795,47.684196,-0.75502753,-2.87222,-3.217319,-0.10776754,0.14590064,0.017362475,28.75,30.125,29.25,32.875,35.375,36.5
0.020051692,-1.3337518,-0.63814956,-1.7566558,-0.0452937,0.10810241,-0.06775335,-0.38931587,-0.36868256,0.05990519,-3.078597,0.62480557,-0.00013226578,-0.006198824,0.0043986854,-0.0025149342,0.0028405632,-0.005498389,0.008543745,0.5049683,-1.3814722,1.90422,-2.0918548,-1.5708174,2.4798977,-0.013308558,0.009945223,-0.006690393,0.0029282302,0.0001615353,-0.021848565,-0.45968673,0.038307227,-9.595961,0.6725152,47.65912,-0.82322747,-2.7287593,-3.3866007,-0.11191741,0.13857943,0.009457456,28.75,30.125,29.25,32.875,35.375,36.5
0.022051627,-0.9967373,-0.30617484,-1.9955835,-0.011273182,0.10902838,-0.088301286,-0.3893229,-0.36865836,0.05987893,-3.0785382,0.6247586,-0.00016805348,-0.007057879,0.005244282,-0.0029058664,0.0037963712,-0.007267838,0.0028649198,0.5049436,-1.3814237,1.9042195,-2.091842,-1.5708536,2.4798512,-0.015548878,0.0116808815,-0.008272425,0.0047852956,0.00018134949,-0.018409379,-0.45968673,0.038307227,-9.672575,0.7150385,47.675243,-0.7961854,-2.7689853,-3.4555154,-0.13717797,0.13174982,-0.058960184,28.75,30.125,29.25,32.875,35.375,36.5
0.02405258,-1.3363197,-0.32042116,-2.122457,-0.011051549,0.09534316,-0.101087056,-0.38932642,-0.3686475,0.05986738,-3.0785217,0.6248527,-0.0002210314,-0.009027776,0.005072445,-0.0024383008,0.0031220743,-0.006106135,-0.0003000557,0.50490713,-1.3814108,1.9042305,-2.091842,-1.5708297,2.4798756,-0.017116815,0.013771414,-0.011836234,0.0049162293,0.00020183946,-0.016810603,-0.59376204,0.1340753,-9.653421,0.77545905,47.69763,-0.8808055,-2.855194,-3.396237,-0.12737206,0.14384018,-0.08209878,28.75,30.125,29.25,32.875,35.375,36.5
0.026052054,-1.8175918,-0.6069034,-2.301665,-0.025404252,0.088868715,-0.10679029,-0.38935044,-0.3686529,0.05987474,-3.0785565,0.6248602,-0.00024342294,-0.009837445,0.0048206146,-0.0025193684,0.0027360755,-0.0055184267,-0.00091951835,0.50487113,-1.3813864,1.9041823,-2.0918305,-1.5707935,2.4798398,-0.017480865,0.015154846,-0.013101052,0.004096985,0.00025077318,-0.01655445,-0.80445176,0.15322891,-9.825804,0.64342284,47.6636,-0.8601736,-2.7809265,-3.343175,-0.10982539,0.14046247,-0.09648901,28.75,30.125,29.25,32.875,35.375,36.5
0.028052041,-1.3549296,-0.8488134,-2.254234,-0.044813007,0.1219569,-0.1180854,-0.38937783,-0.36864024,0.059880603,-3.0785255,0.6248733,-0.00020721243,-0.010768825,0.0049197394,-0.0024653098,0.0025181368,-0.0051952037,-0.0025866306,0.5048468,-1.381362,1.9041346,-2.0918067,-1.5708297,2.4798276,-0.018538283,0.016213225,-0.01445352,0.004002134,0.00028203867,-0.01594408,-0.7661445,0.095768064,-9.9790325,0.7239871,47.66987,-0.91001,-2.8710656,-3.4114397,-0.10802089,0.13378263,-0.10052556,28.75,30.125,29.25,32.875,35.375,36.5
0.030052029,-1.9436078,-1.1270995,-2.2935596,-0.057585243,0.12991627,-0.12995957,-0.3893747,-0.36863494,0.059848208,-3.0785263,0.6248164,-0.00034342275,-0.01100411,0.0051511787,-0.00262162,0.0028948986,-0.0059149116,-0.0039203684,0.5048107,-1.3813016,1.9041342,-2.0917938,-1.5707816,2.4797559,-0.019159181,0.01689893,-0.01507919,0.004755029,0.00029963278,-0.01523101,-0.80445176,0.038307227,-10.01734,0.6926589,47.63852,-0.9239108,-2.765766,-3.3907452,-0.10977475,0.12980396,-0.14435293,28.75,30.125,29.25,32.875,35.375,36.5
0.032052044,-2.0811677,-0.67771167,-2.0178874,-0.057946734,0.12995662,-0.14872593,-0.38941216,-0.368628,0.059875514,-3.0785298,0.6248561,-0.00023567825,-0.011588382,0.005446158,-0.0022817424,0.003088563,-0.006275685,-0.004997063,0.5047863,-1.3813136,1.904086,-2.0917933,-1.5708174,2.4797559,-0.020204898,0.017205233,-0.016577663,0.006356083,0.00030583006,-0.015199532,-0.842759,0.05746084,-9.844957,0.7329411,47.67166,-0.99605364,-2.8088455,-3.4121237,-0.12546453,0.14458518,-0.13151278,28.75,30.125,29.25,32.875,35.375,36.5
0.034052514,-1.5099506,-0.6302306,-2.0312915,-0.02308133,0.133058,-0.15143797,-0.3894285,-0.36860836,0.059853174,-3.0784578,0.6249377,-0.000335893,-0.012438062,0.0057285363,-0.0024007154,0.0028250108,-0.0063879527,-0.00564831,0.5047379,-1.3812412,1.9040378,-2.0917337,-1.5708174,2.4797676,-0.021649942,0.018228486,-0.017483374,0.006208246,0.0005865737,-0.015993329,-0.7661445,0.038307227,-9.825804,0.83813137,47.704796,-0.9714262,-2.8182976,-3.4177766,-0.13719508,0.1422387,-0.16188414,28.75,30.125,29.25,32.875,35.375,36.5
0.03605232,-1.1995159,-0.016985046,-2.030937,-0.0062279403,0.115728654,-0.16017535,-0.38946143,-0.36859092,0.0598313,-3.0784476,0.62495494,-0.00034951846,-0.014317517,0.0056620976,-0.0013566028,0.0010725063,-0.0037204276,-0.0067167063,0.5046775,-1.3811812,1.904025,-2.09177,-1.5708169,2.4797192,-0.023441475,0.018197447,-0.019586528,0.0051591764,0.00082286925,-0.01671595,-0.59376204,0.0,-9.768343,0.73069996,47.640312,-0.9774508,-2.6774664,-3.4258375,-0.11530498,0.14398368,-0.16512957,28.75,30.125,29.25,32.875,35.375,36.5
0.038052335,-1.2285525,-0.11767182,-2.0549982,-0.00054980133,0.08907202,-0.16434263,-0.3895003,-0.3685897,0.059844103,-3.07849,0.62496424,-0.0003566248,-0.016079044,0.006041047,-0.0010743313,0.00030601595,-0.0022652256,-0.007499418,0.50461674,-1.3811568,1.9039644,-2.0917585,-1.5707811,2.4796588,-0.025700005,0.019176979,-0.021145936,0.0040953117,0.00078402786,-0.018190771,-0.47884035,-0.076614454,-9.80665,0.7709874,47.672558,-0.91042405,-2.7779925,-3.418915,-0.09559849,0.15578122,-0.17384595,28.75,30.125,29.25,32.875,35.375,36.5
0.04005244,-0.8128371,-0.28634664,-1.904693,-0.007271433,0.081647605,-0.18469657,-0.38953772,-0.36855224,0.059831727,-3.07843,0.6249896,-0.0003091567,-0.0172465,0.006104292,-0.0007652961,-0.00027823975,-0.0010222709,-0.006858591,0.5045565,-1.3811204,1.9039525,-2.091771,-1.5708417,2.4796221,-0.026837245,0.019814128,-0.022441387,0.003382136,0.00068909896,-0.019967968,-0.38307226,0.0,-9.672575,0.70608455,47.63046,-0.9042443,-2.750159,-3.3900208,-0.07956636,0.1532288,-0.17594405,28.75,30.125,29.25,32.875,35.375,36.5
0.04205238,-0.9188224,-0.68983626,-1.8576063,-0.021746056,0.07262429,-0.19871444,-0.389589,-0.36854866,0.05983908,-3.0784469,0.6250896,-0.00035898175,-0.017811228,0.0063574584,-0.0005683867,-0.00030836003,-0.0008085316,-0.00767568,0.50447243,-1.3810605,1.9038566,-2.0917346,-1.5707935,2.4795983,-0.027739005,0.019996207,-0.023188407,0.0037467068,0.00061127165,-0.020052202,-0.38307226,-0.019153614,-9.615114,0.78888994,47.684196,-0.9633068,-2.6715806,-3.3805094,-0.051960193,0.14183313,-0.20546716,28.75,30.125,29.25,32.875,35.375,36.5
0.044052318,-0.6492183,-0.7342417,-1.7730149,-0.02985397,0.07356801,-0.20570742,-0.38961327,-0.36854407,0.059854954,-3.0784376,0.62506825,-0.00026698728,-0.01850871,0.0065778564,-0.00037284128,3.027311e-05,-0.0012931975,-0.007721733,0.5044721,-1.3810601,1.9038199,-2.0917342,-1.5708417,2.479586,-0.028722577,0.02089466,-0.025045583,0.0052925255,0.000549039,-0.020988846,-0.30645782,0.05746084,-9.653421,0.7978386,47.66987,-0.92455363,-2.7401996,-3.3709254,-0.07902429,0.1388436,-0.20424394,28.75,30.125,29.25,32.875,35.375,36.5
0.04605195,-0.6868868,-1.2644767,-2.0153468,-0.02097811,0.06621856,-0.20372616,-0.3896593,-0.36851683,0.059846073,-3.0784318,0.6251041,-0.00029336248,-0.019931383,0.00676874,0.00018287744,-0.00018803026,-0.000801708,-0.0072103753,0.50437576,-1.3810116,1.9037827,-2.0917337,-1.5708297,2.4795127,-0.030339014,0.021917157,-0.027788285,0.006477152,0.00049830496,-0.023115398,-0.038307227,0.11492168,-9.576807,0.84484416,47.71286,-0.930363,-2.6960554,-3.2446468,-0.0945584,0.14974166,-0.22487834,28.75,30.125,29.25,32.875,35.375,36.5
0.04805183,0.10312006,-0.60086036,-1.9465704,-0.036014117,0.07055929,-0.20731242,-0.38971138,-0.36849087,0.059837334,-3.0783844,0.6252103,-0.00031188322,-0.021034474,0.0078097456,1.718197e-05,0.00010694285,-0.0012525795,-0.007982055,0.5042908,-1.3809394,1.9037117,-2.0917094,-1.5708417,2.4795,-0.03309182,0.022635506,-0.028347278,0.0068547064,0.00045616349,-0.025096161,-0.038307227,0.095768064,-9.615114,0.784413,47.689575,-0.8397626,-2.6516783,-3.2489457,-0.08351257,0.17061353,-0.22000542,28.75,30.125,29.25,32.875,35.375,36.5
0.05005227,-0.2068055,-0.73564756,-1.9700931,-0.034129247,0.048557207,-0.17911127,-0.3897576,-0.36849687,0.059863232,-3.0784342,0.62525845,-0.00026333323,-0.022307668,0.007925143,0.0006023921,-0.00084698683,0.00047177216,-0.0071399766,0.50424254,-1.3809274,1.9036387,-2.0917099,-1.5708174,2.4794755,-0.034470435,0.022659557,-0.029521957,0.006035079,0.00045455163,-0.027316254,0.019153614,0.15322891,-9.481039,0.7597976,47.679718,-0.87061644,-2.6625288,-3.3047528,-0.075129166,0.15577696,-0.22980776,28.75,30.125,29.25,32.875,35.375,36.5
0.052052356,0.19260743,-1.3778988,-2.0435865,-0.02840341,0.05210658,-0.17355461,-0.38979617,-0.36848402,0.05987108,-3.0784514,0.62522346,-0.00030309474,-0.023135582,0.00853874,0.00064782257,-0.00093295425,0.0006272818,-0.0070821433,0.50417,-1.3808912,1.9035672,-2.0916617,-1.5707935,2.479379,-0.03627179,0.02290549,-0.029908407,0.00599842,0.00045285292,-0.029175244,0.038307227,0.15322891,-9.5385,0.7396539,47.67614,-0.7596467,-2.5656934,-3.3477867,-0.062680066,0.16125184,-0.22529833,28.75,30.125,29.25,32.875,35.375,36.5
0.05405232,0.23981516,-1.3640938,-1.9415158,-0.032246802,0.045694496,-0.17318247,-0.38983977,-0.36848032,0.05985925,-3.0784543,0.62514716,-0.00023858338,-0.024237053,0.008784919,0.0005930882,-0.0008818855,0.00058789056,-0.0073093255,0.5041456,-1.3808186,1.903519,-2.0917094,-1.5708297,2.4793067,-0.03769472,0.024419567,-0.031637035,0.006271033,0.00042436394,-0.030370018,0.13407528,0.22984336,-9.461885,0.78217715,47.70032,-0.77056956,-2.6296108,-3.4010978,-0.054691084,0.16465624,-0.22437018,28.75,30.125,29.25,32.875,35.375,36.5
0.056052513,0.6321334,-0.97427016,-1.7704022,-0.03870593,0.05655307,-0.1760197,-0.38989154,-0.36844054,0.0598647,-3.078409,0.6252908,-0.00023897766,-0.024776276,0.008546492,0.0008890223,-0.00088184007,0.00053661125,-0.006218305,0.5040378,-1.3807943,1.9034699,-2.091674,-1.5708417,2.4792943,-0.037807304,0.025316494,-0.033629645,0.0074110716,0.00044680425,-0.031572834,0.019153614,0.19153613,-9.481039,0.800085,47.66091,-0.8138834,-2.586173,-3.2474256,-0.07349783,0.1881482,-0.25513044,28.75,30.125,29.25,32.875,35.375,36.5
0.05805249,-0.14354216,-1.1690472,-1.6728164,-0.033100877,0.042430878,-0.16441587,-0.3899613,-0.36843646,0.05988048,-3.0784464,0.62525874,-0.00018357846,-0.025461448,0.008667391,0.0010777388,-0.00085374387,0.0005220821,-0.00567494,0.50396574,-1.380734,1.9033626,-2.0916736,-1.5708417,2.4791975,-0.03863364,0.026028816,-0.035074342,0.008169646,0.00042899232,-0.032941863,0.019153614,0.21068975,-9.404425,0.80456203,47.711964,-0.84199345,-2.608736,-3.2685945,-0.0699123,0.16843611,-0.25282013,28.75,30.125,29.25,32.875,35.375,36.5
0.06005237,-0.31761402,-1.2572452,-1.8493443,-0.03348448,0.044154793,-0.16243342,-0.3900137,-0.3684037,0.059872888,-3.0784144,0.6252908,-0.00020108832,-0.02676496,0.00937646,0.0009554925,-0.0008140325,0.00054312433,-0.0067282612,0.5038691,-1.3806735,1.903303,-2.0916498,-1.5708536,2.479125,-0.041008875,0.02722031,-0.036188897,0.008093078,0.00038032056,-0.034263052,-0.019153614,0.19153613,-9.500193,0.75084364,47.668976,-0.82078844,-2.5464458,-3.2865014,-0.060165573,0.18398015,-0.26294768,28.75,30.125,29.25,32.875,35.375,36.5
0.06205234,-0.1288108,-1.3577625,-1.7801039,-0.03569383,0.057975568,-0.1633385,-0.39007732,-0.36839506,0.05990236,-3.0784643,0.62537813,-0.00016680326,-0.027911382,0.00971728,0.0011184148,-0.0011951398,0.0010531539,-0.0074914126,0.5037726,-1.3806612,1.9032186,-2.0916374,-1.5708174,2.4790766,-0.042699702,0.027980115,-0.037422545,0.007937139,0.00046672326,-0.035190213,-0.019153614,0.21068975,-9.404425,0.779936,47.657326,-0.7873354,-2.5148187,-3.3004897,-0.057929747,0.18352842,-0.2709258,28.75,30.125,29.25,32.875,35.375,36.5
0.06405229,-0.39390802,-1.4806154,-1.5999775,-0.03760911,0.064709455,-0.17071417,-0.39014578,-0.36839488,0.059910372,-3.0784817,0.6254198,-0.00015052613,-0.028283969,0.009522787,0.001140982,-0.0019935844,0.00049897627,-0.0067605735,0.5037006,-1.380577,1.903098,-2.0916255,-1.570805,2.4790285,-0.043316312,0.028740399,-0.03845978,0.008310847,0.0014327769,-0.036538783,-0.038307227,0.2681506,-9.308657,0.8112748,47.682407,-0.75715816,-2.5487506,-3.3026102,-0.05387057,0.17788248,-0.2939576,28.75,30.125,29.25,32.875,35.375,36.5
0.06605208,0.15735449,-1.0462983,-1.6185173,-0.042348746,0.08582009,-0.1708402,-0.39018565,-0.3683508,0.05989943,-3.0784328,0.62544847,-0.00016969223,-0.029385429,0.009537082,0.0015596985,-0.002701865,0.00096082856,-0.008000669,0.5036045,-1.3805406,1.9030746,-2.0916016,-1.5708293,2.4789565,-0.044609506,0.029486144,-0.040395606,0.00875241,0.001825837,-0.036591753,-0.17238252,0.19153613,-9.232041,0.79560274,47.661808,-0.86004806,-2.5131726,-3.2753139,-0.06694811,0.1906235,-0.2975468,28.75,30.125,29.25,32.875,35.375,36.5
0.06805195,-0.3984213,-1.2648321,-1.4941043,-0.019508297,0.08188305,-0.16123222,-0.39022884,-0.36836234,0.059894495,-3.0784588,0.6253753,-0.00021013216,-0.030102773,0.0095207235,0.0015359907,-0.0034928059,0.0009134239,-0.00667697,0.50356805,-1.3804443,1.9029664,-2.0915773,-1.5708045,2.478871,-0.045690678,0.03037934,-0.041333128,0.008454693,0.0025377134,-0.038997337,-0.2681506,0.19153613,-9.32781,0.7866488,47.678825,-0.8276422,-2.4830935,-3.2480783,-0.067758605,0.1557667,-0.32260773,28.75,30.125,29.25,32.875,35.375,36.5
0.07005203,-0.5172821,-0.5915755,-1.5794202,-0.021944527,0.09166186,-0.17082997,-0.3902995,-0.36833447,0.059918594,-3.0784945,0.6254013,-0.0001651892,-0.031178718,0.009863111,0.0018627302,-0.003593738,0.0014303605,-0.006018237,0.50344783,-1.380432,1.9028944,-2.0915654,-1.5707926,2.4787626,-0.047161493,0.03094144,-0.042842437,0.008901581,0.0023761757,-0.041125834,-0.24899697,0.1340753,-9.270349,0.7777002,47.67345,-0.84110576,-2.4366853,-3.308056,-0.062410034,0.18101472,-0.31101334,28.75,30.125,29.25,32.875,35.375,36.5
0.07205206,-0.8081026,-0.6712576,-1.566783,-0.008075487,0.090187185,-0.15643513,-0.39035067,-0.36830303,0.059889592,-3.0784578,0.62547076,-0.00023541304,-0.03155578,0.010246098,0.0014583525,-0.0029522975,0.00058917346,-0.0066258414,0.50333977,-1.3803356,1.9028462,-2.0915654,-1.5707806,2.4787025,-0.048053436,0.032105617,-0.04340258,0.009345124,0.0022181056,-0.041409653,-0.36391866,0.17238252,-9.308657,0.78217715,47.67614,-0.88405764,-2.4734206,-3.3098946,-0.06598149,0.17372592,-0.32872146,28.75,30.125,29.25,32.875,35.375,36.5
0.07405213,-0.98273915,-0.0693055,-1.6721153,-0.018542476,0.089123614,-0.16302781,-0.39042377,-0.368302,0.059901346,-3.0784907,0.6254778,-0.00023254084,-0.033546537,0.0111655565,0.0018235628,-0.0032961583,0.0013477678,-0.008554732,0.50325465,-1.380251,1.9027141,-2.091541,-1.5707563,2.4786177,-0.051405117,0.0330114,-0.04535674,0.009564496,0.0021505111,-0.042831365,-0.4213795,0.076614454,-9.423578,0.8291774,47.70211,-0.7095015,-2.5303667,-3.2820845,-0.06062712,0.1789292,-0.3567009,28.75,30.125,29.25,32.875,35.375,36.5
0.07605164,-0.5886028,-0.30636904,-1.623048,-0.016280442,0.09799462,-0.16548924,-0.39048627,-0.36827818,0.059908625,-3.0784733,0.625471,-0.00020799939,-0.03339998,0.010371769,0.0021845608,-0.0036307923,0.0020286057,-0.003928737,0.5031715,-1.380191,1.9026183,-2.0915053,-1.5707806,2.4785326,-0.049902834,0.033115137,-0.046326987,0.009672215,0.0021129674,-0.04595462,-0.34476504,-0.05746084,-9.3661175,0.779936,47.6421,-0.8796307,-2.4664097,-3.2217407,-0.057380345,0.16579513,-0.34123358,28.75,30.125,29.25,32.875,35.375,36.5
0.07805257,-0.8716643,-0.67856437,-1.6077273,-0.00956533,0.09371865,-0.15853603,-0.3905593,-0.3682658,0.059908167,-3.0784938,0.62549305,-0.00019222096,-0.034587905,0.010565535,0.0023857371,-0.004276784,0.0022384839,-0.0021508087,0.5030752,-1.3801067,1.9025224,-2.0915172,-1.5707687,2.4784474,-0.051615167,0.034131512,-0.048033275,0.009865629,0.0025751207,-0.049444783,-0.4213795,-0.05746084,-9.3661175,0.7709874,47.688675,-0.9861649,-2.4166358,-3.2796538,-0.071608454,0.16641925,-0.32653344,28.75,30.125,29.25,32.875,35.375,36.5
0.08005255,-0.73329663,-0.33927464,-1.5756017,-0.01734855,0.10454991,-0.16848417,-0.39063054,-0.3682283,0.05991239,-3.0785084,0.6255134,-0.00021662438,-0.03500279,0.011306287,0.0015224015,-0.003654291,0.00052013714,-2.4302655e-05,0.5029308,-1.3800582,1.90245,-2.0914934,-1.5707449,2.478314,-0.05341569,0.035743434,-0.048017178,0.010043564,0.0028581077,-0.053372063,-0.40222588,-0.038307227,-9.385271,0.7486078,47.688675,-0.9330789,-2.4351254,-3.2225766,-0.08405243,0.16300699,-0.30869472,28.75,30.125,29.25,32.875,35.375,36.5
0.0820522,-0.72412664,-0.418618,-1.597472,-0.015112392,0.10157396,-0.16581772,-0.39072368,-0.3682151,0.05993318,-3.078519,0.62557495,-0.00017522725,-0.03642387,0.012411457,0.0009794009,-0.0031976677,-0.0005609333,-0.0033930086,0.5028219,-1.3799733,1.902294,-2.0914571,-1.5707449,2.4782422,-0.056662954,0.037692055,-0.049174238,0.010419206,0.0029794453,-0.05324999,-0.40222588,-0.019153614,-9.423578,0.82022345,47.693153,-0.7680368,-2.4708302,-3.278594,-0.079212464,0.17674427,-0.3033397,28.75,30.125,29.25,32.875,35.375,36.5
0.08405219,-0.7615765,-0.38286662,-1.6223487,-0.021441834,0.09912696,-0.16663498,-0.39076865,-0.36818424,0.059913445,-3.078489,0.62543124,-0.00019629918,-0.037052285,0.011284408,0.0020049668,-0.00451067,0.0011699302,0.0014467645,0.50275034,-1.379889,1.902234,-2.0914333,-1.5707806,2.4780848,-0.055538826,0.03786869,-0.051783513,0.010699381,0.00328761,-0.05696525,-0.4405331,-0.076614454,-9.423578,0.779936,47.690468,-0.7748226,-2.5287943,-3.1616452,-0.08907972,0.1718879,-0.27727777,28.75,30.125,29.25,32.875,35.375,36.5
0.08605253,-0.21948497,-0.014152584,-1.4320029,-0.024872102,0.10670839,-0.17816357,-0.39085114,-0.36815062,0.059930652,-3.0785007,0.62554675,-0.00022053636,-0.036677074,0.011898842,0.00066471956,-0.0036263615,-0.0011790842,0.004600815,0.5025944,-1.3798407,1.9021267,-2.0913851,-1.5707444,2.4779994,-0.056436256,0.039365362,-0.050421376,0.010326166,0.00364648,-0.061017584,-0.4405331,-0.019153614,-9.385271,0.7620334,47.667187,-0.9834467,-2.4036841,-3.3034549,-0.06941361,0.16421513,-0.25879785,28.75,30.125,29.25,32.875,35.375,36.5
0.08805256,0.06410482,-0.32726765,-1.4158713,-0.017334837,0.111921445,-0.17188129,-0.390937,-0.36813653,0.059928387,-3.078523,0.6254731,-0.00018049973,-0.03812887,0.012320151,0.00091231853,-0.004060756,-0.000894264,0.0058281957,0.5024979,-1.379732,1.902006,-2.091397,-1.5707558,2.4778543,-0.05863523,0.040467612,-0.05238337,0.0107256835,0.0038875067,-0.064443335,-0.32561144,-0.038307227,-9.442732,0.7642693,47.687782,-0.8825544,-2.563808,-3.329153,-0.10146927,0.14303166,-0.20165062,28.75,30.125,29.25,32.875,35.375,36.5
0.090052515,-0.34417754,-0.3120043,-1.7147245,-0.017285867,0.09427058,-0.16846918,-0.3910101,-0.36810735,0.059926327,-3.0785408,0.625475,-0.0002057369,-0.039205503,0.01203607,0.0011134959,-0.0044740005,-0.00038542986,0.008409462,0.50236595,-1.3796594,1.9019221,-2.0913851,-1.570732,2.4777212,-0.059218474,0.042014915,-0.054703854,0.010855472,0.00399941,-0.06760687,-0.2681506,-0.11492168,-9.423578,0.7665104,47.667187,-0.9259559,-2.437292,-3.2602408,-0.09502283,0.14676677,-0.17779312,28.75,30.125,29.25,32.875,35.375,36.5
0.09205245,-0.15665713,-0.65438896,-1.75795,-0.013352906,0.09173002,-0.16692647,-0.39107612,-0.36807337,0.05992428,-3.078507,0.62538946,-0.00021122831,-0.04065117,0.011906885,0.0017103371,-0.004854806,0.0011323425,0.010026202,0.5022699,-1.379575,1.9018134,-2.0913255,-1.5707682,2.4775763,-0.06008452,0.04302324,-0.057267424,0.010896335,0.0035942178,-0.07008792,-0.19153613,0.038307227,-9.3661175,0.8090337,47.693153,-0.9784856,-2.531501,-3.1637406,-0.10382247,0.15208746,-0.13884771,28.75,30.125,29.25,32.875,35.375,36.5
0.09405243,-0.528578,-0.7000452,-1.7326828,-0.02457601,0.08466635,-0.16799885,-0.39115196,-0.3680384,0.0599157,-3.078527,0.6253342,-0.0002520953,-0.040020794,0.012782403,0.0006726489,-0.003492421,-0.001011294,0.011395615,0.502126,-1.3794909,1.9017304,-2.0913126,-1.5707449,2.4773953,-0.06086115,0.04345382,-0.055495117,0.0112308515,0.0034353095,-0.07223443,-0.22984336,0.05746084,-9.3661175,0.779936,47.660015,-0.9693284,-2.4687572,-3.3424406,-0.10595627,0.14690974,-0.10238381,28.75,30.125,29.25,32.875,35.375,36.5
0.09605187,0.12420909,-1.2862504,-1.9251341,-0.029351031,0.09642058,-0.1540584,-0.39125368,-0.3680161,0.059936427,-3.0785458,0.6253578,-0.00020994889,-0.041351892,0.01283303,0.0005876829,-0.003437476,-0.0007746366,0.01081688,0.5019939,-1.3794061,1.901575,-2.0912774,-1.5707449,2.4772756,-0.062067173,0.045577575,-0.057823688,0.011255703,0.0032707765,-0.07286005,-0.21068975,0.11492168,-9.404425,0.7933669,47.657326,-1.0152203,-2.4716978,-3.3333848,-0.13810988,0.14891824,-0.062320963,28.75,30.125,29.25,32.875,35.375,36.5
0.09805194,-0.039282054,-1.4553705,-1.9317064,-0.040577892,0.09050671,-0.15694444,-0.39135402,-0.36799052,0.059931837,-3.0785666,0.6253424,-0.00020894404,-0.042263765,0.012997926,0.00091484125,-0.0033335392,-1.422064e-07,0.009369252,0.5018499,-1.3792857,1.9014429,-2.0912774,-1.5707325,2.4771194,-0.06288683,0.046132766,-0.05929611,0.011547074,0.0028056633,-0.072230615,-0.22984336,0.19153613,-9.423578,0.80679786,47.698532,-1.0701866,-2.4964342,-3.2759018,-0.10897857,0.15868868,-0.07657073,28.75,30.125,29.25,32.875,35.375,36.5
0.10005194,0.049054775,-1.2308993,-1.8711269,-0.050138008,0.08462028,-0.16911669,-0.39141762,-0.36793292,0.05991813,-3.0785322,0.625355,-0.0002667719,-0.042783864,0.013245726,0.001240934,-0.0031314227,0.00025222235,0.0078095547,0.5016939,-1.3792256,1.9013947,-2.0912411,-1.5707325,2.4769757,-0.06358845,0.046189483,-0.060293198,0.012364973,0.002503806,-0.07137183,-0.22984336,0.28730422,-9.404425,0.7530795,47.668976,-1.1273918,-2.437205,-3.2576199,-0.12799548,0.16319866,-0.05202292,28.75,30.125,29.25,32.875,35.375,36.5
0.102051854,0.04660837,-1.2453003,-2.002032,-0.04631434,0.07876857,-0.1596831,-0.39149883,-0.36792597,0.05992623,-3.0785398,0.62526095,-0.0002302457,-0.043583073,0.01368973,-0.00010194284,-0.002027075,-0.0015506143,0.005650581,0.5016216,-1.3791164,1.9012388,-2.091205,-1.5707563,2.4768438,-0.06500339,0.04971608,-0.06133107,0.011986931,0.0024003058,-0.07062659,-0.1340753,0.28730422,-9.385271,0.74413085,47.682407,-1.0891868,-2.5103421,-3.2942445,-0.12239488,0.16444132,-0.090182096,28.75,30.125,29.25,32.875,35.375,36.5
0.10405181,-0.019973435,-1.6832411,-2.0472486,-0.035464708,0.0659768,-0.15985662,-0.39160755,-0.36791524,0.059940852,-3.078619,0.6252972,-0.00021871658,-0.044480126,0.013740498,0.00030841425,-0.002816943,-0.0010201985,0.0031954262,0.5014655,-1.3790201,1.9010943,-2.0912173,-1.5706967,2.4767003,-0.06617685,0.05003414,-0.06269066,0.01218666,0.0028398822,-0.0693449,-0.095768064,0.24899697,-9.500193,0.7732232,47.66271,-1.1193285,-2.6220813,-3.3087833,-0.13812438,0.17025784,-0.07289405,28.75,30.125,29.25,32.875,35.375,36.5
0.106052406,0.2708406,-0.96210456,-1.7413988,-0.058354978,0.06457416,-0.15750694,-0.39169163,-0.3678611,0.059925925,-3.078525,0.6252594,-0.00025924813,-0.045743857,0.01381669,0.0016865673,-0.0044775344,0.0016063463,9.180421e-05,0.5013335,-1.3788885,1.9009508,-2.091121,-1.5707563,2.4765568,-0.067579255,0.048451066,-0.06388363,0.01185698,0.0030251264,-0.067644,-0.15322891,0.28730422,-9.481039,0.7553206,47.64837,-1.1115577,-2.4000502,-3.335863,-0.1341085,0.15895283,-0.10959735,28.75,30.125,29.25,32.875,35.375,36.5
0.10805236,0.025714962,-1.5185459,-1.9946676,-0.043784253,0.054013997,-0.15434906,-0.39180228,-0.3678637,0.05994702,-3.0786185,0.6252419,-0.0001835458,-0.046818048,0.014392439,0.0010501567,-0.0036898905,0.00056602905,-0.0031745667,0.50121295,-1.3787917,1.9007963,-2.0911572,-1.5707206,2.4764135,-0.069410615,0.0508958,-0.06542187,0.012244837,0.0028387834,-0.06620744,-0.05746084,0.19153613,-9.442732,0.80456203,47.692257,-1.1025882,-2.3752697,-3.2708387,-0.14685561,0.16786525,-0.12800352,28.75,30.125,29.25,32.875,35.375,36.5
0.110052384,0.11137327,-1.1487517,-1.8945216,-0.05035714,0.057243653,-0.15904705,-0.3918815,-0.36780316,0.059913836,-3.0785608,0.62524885,-0.0002575827,-0.047496896,0.014743647,0.0004862747,-0.0029605404,-0.0003130984,-0.0053653615,0.50104505,-1.3786708,1.9007233,-2.0911334,-1.5707325,2.4762573,-0.07047933,0.05286125,-0.06653316,0.012512649,0.002615471,-0.065084465,0.019153614,0.21068975,-9.404425,0.7530795,47.655537,-1.0897225,-2.5434237,-3.3476706,-0.14816806,0.186777,-0.16828138,28.75,30.125,29.25,32.875,35.375,36.5
0.11205236,-0.25084296,-1.2196474,-1.9132025,-0.046016812,0.054333698,-0.15948988,-0.39200035,-0.36779186,0.05994124,-3.0786083,0.62533647,-0.00019756772,-0.04818566,0.014963703,5.2658934e-06,-0.002511499,-0.0011727411,-0.0074826544,0.500901,-1.378574,1.9005436,-2.091121,-1.5707086,2.476162,-0.07148203,0.054810554,-0.06782192,0.012823673,0.002637265,-0.063968934,-0.11492168,0.22984336,-9.385271,0.72622824,47.705692,-1.1470697,-2.6006322,-3.3171663,-0.1561293,0.17049293,-0.17542037,28.75,30.125,29.25,32.875,35.375,36.5
0.11405247,-0.06794013,-0.78979367,-1.7180929,-0.047185577,0.06254863,-0.15644746,-0.39207056,-0.3677671,0.059934057,-3.0786226,0.625379,-0.0003021237,-0.049201336,0.015009907,0.0016870851,-0.0040410124,0.0015600208,-0.00918047,0.50075686,-1.3784789,1.9004363,-2.0910728,-1.5706486,2.4760425,-0.07250104,0.05250915,-0.0690091,0.01318484,0.0026631125,-0.0632902,-0.1340753,0.30645782,-9.308656,0.8247004,47.66091,-1.1534903,-2.4757538,-3.3335943,-0.16325009,0.170521,-0.23059984,28.75,30.125,29.25,32.875,35.375,36.5
0.11605184,-0.59983164,-1.1508725,-1.760572,-0.036919348,0.053889282,-0.15023862,-0.392171,-0.3677315,0.05994686,-3.0786037,0.625315,-0.00018560547,-0.05000402,0.014908829,0.0012514822,-0.004401056,0.0010293887,-0.0077962223,0.5006488,-1.378394,1.9003042,-2.0910618,-1.5707206,2.475897,-0.07341428,0.05458478,-0.07038724,0.01277366,0.0032319827,-0.06558761,-0.05746084,0.2681506,-9.346964,0.8314132,47.67614,-1.187705,-2.45802,-3.2920856,-0.18040611,0.17238945,-0.23950094,28.75,30.125,29.25,32.875,35.375,36.5
0.11805184,-0.19149755,-0.6149121,-1.7411711,-0.03264364,0.0699535,-0.1547787,-0.392285,-0.367708,0.059949484,-3.078631,0.62535924,-0.00020883394,-0.050735,0.0144009385,0.0012663059,-0.0053630536,0.0008844493,-0.007951466,0.50048107,-1.3782612,1.9001354,-2.0910375,-1.5706843,2.4757535,-0.07378323,0.0561864,-0.072324894,0.012774864,0.0041425494,-0.06580174,-0.019153614,0.15322891,-9.32781,0.8224646,47.681515,-1.3350424,-2.5064287,-3.307128,-0.17916653,0.18791327,-0.25447842,28.75,30.125,29.25,32.875,35.375,36.5
0.12005257,0.21701124,-0.27019715,-1.6522208,-0.035103478,0.08237532,-0.15943536,-0.3923752,-0.36768547,0.059933987,-3.0786371,0.6253242,-0.00021109343,-0.05217632,0.016046835,0.00070630276,-0.004988089,0.00017604865,-0.013217248,0.50035965,-1.3781289,1.9000167,-2.0910494,-1.5706843,2.4756095,-0.07787574,0.057187628,-0.07216214,0.0124127995,0.004153394,-0.064628385,-0.17238252,0.15322891,-9.385271,0.8560339,47.689575,-1.128543,-2.4002671,-3.3385262,-0.18289825,0.16215862,-0.2980537,28.75,30.125,29.25,32.875,35.375,36.5
0.12205264,-0.28722712,-0.06709909,-1.6421956,-0.03363976,0.07567043,-0.15752678,-0.39247093,-0.3676419,0.05993105,-3.0785954,0.6254088,-0.0002274355,-0.053748272,0.0141121,0.00246187,-0.0067991004,0.0038055785,-0.010201605,0.50020516,-1.3780205,1.8998841,-2.0910017,-1.5706962,2.4755132,-0.07595662,0.0582188,-0.077423066,0.012589632,0.0039893934,-0.06572249,-0.21068975,0.1340753,-9.3661175,0.8023209,47.66808,-1.3511028,-2.485634,-3.1456244,-0.18592572,0.16169214,-0.34535795,28.75,30.125,29.25,32.875,35.375,36.5
0.124052525,0.011491422,0.1055948,-1.6131524,-0.030279815,0.09346658,-0.16033861,-0.39256126,-0.36761802,0.05992023,-3.0786142,0.6254704,-0.0003461943,-0.053249177,0.015554571,0.0008390002,-0.0048884708,0.0005037332,-0.010805201,0.5000366,-1.3778878,1.8997406,-2.090953,-1.5706242,2.4753807,-0.077846654,0.05945421,-0.07530866,0.013059342,0.0038998185,-0.06700964,-0.2681506,0.05746084,-9.346964,0.91421866,47.686886,-1.4003614,-2.4212742,-3.299261,-0.20202748,0.16368416,-0.34559575,28.75,30.125,29.25,32.875,35.375,36.5
0.12605172,-0.7706388,-0.11960762,-1.5922211,-0.023947189,0.08566398,-0.15523449,-0.39271086,-0.3675867,0.059955254,-3.078655,0.625481,-0.00018205932,-0.055616904,0.015987627,0.001228453,-0.005898426,0.0011973956,-0.016085979,0.49986786,-1.377791,1.8995489,-2.090965,-1.57066,2.4752135,-0.08108242,0.06145166,-0.07861374,0.013270291,0.004454878,-0.06496348,-0.34476504,0.05746084,-9.461885,0.7732232,47.67614,-1.159063,-2.6422668,-3.3255138,-0.19707209,0.17003885,-0.41138858,28.75,30.125,29.25,32.875,35.375,36.5
0.12805258,-0.595814,-0.43259448,-1.7995131,-0.023282096,0.104625374,-0.14964807,-0.39278898,-0.36756146,0.05992678,-3.078648,0.6255727,-0.00036653838,-0.056329537,0.01463271,0.0028477572,-0.007912392,0.0040612514,-0.012384795,0.49970067,-1.3776351,1.8994154,-2.0909054,-1.5705756,2.4751043,-0.079682305,0.06060563,-0.0813222,0.013351214,0.0048394604,-0.06726464,-0.36391866,0.038307227,-9.442732,0.7933669,47.6421,-1.4123048,-2.3507822,-3.1449876,-0.20941488,0.13584284,-0.45851624,28.75,30.125,29.25,32.875,35.375,36.5
0.13005191,-0.88008785,-0.4579046,-1.8700993,-0.029527314,0.11128527,-0.16249843,-0.39290363,-0.36753058,0.059944995,-3.0786362,0.6255112,-0.00026563182,-0.056170285,0.015800295,0.0019701864,-0.0074040443,0.0013572418,-0.011035354,0.49958017,-1.3775269,1.8992375,-2.0908692,-1.5706357,2.4749472,-0.082011424,0.061029423,-0.08003884,0.014254812,0.0056960736,-0.07094499,-0.4213795,0.095768064,-9.442732,0.78217715,47.655537,-1.3488731,-2.3761854,-3.2501066,-0.22812212,0.13648224,-0.44809115,28.75,30.125,29.25,32.875,35.375,36.5
0.13205186,-0.46589565,-0.16683541,-1.8076411,-0.04573686,0.13198045,-0.1631269,-0.39303458,-0.36751556,0.059977707,3.0786753,-0.62553656,0.00023325994,-0.0576489,0.01662502,0.0005379865,-0.0058047324,-0.0008165469,-0.010497509,0.49941173,-1.3774171,1.899022,-2.090821,-1.5705999,2.4747896,-0.08451334,0.065578684,-0.082257345,0.014603464,0.0053336537,-0.07398228,-0.45968673,0.05746084,-9.481039,0.7978386,47.661808,-1.3384349,-2.5760121,-3.2105148,-0.25026783,0.12681644,-0.46823853,28.75,30.125,29.25,32.875,35.375,36.5
0.13405181,-0.9378139,-0.649776,-1.7522957,-0.04304345,0.1284119,-0.16951329,-0.3931459,-0.3674623,0.059941206,-3.078652,0.6255659,-0.0003039824,-0.05912268,0.016936662,0.0021168068,-0.007115568,0.0025107516,-0.0043274667,0.49921966,-1.3772378,1.8988899,-2.090809,-1.5706004,2.474619,-0.086091846,0.06360364,-0.083428286,0.014204167,0.004882844,-0.08173025,-0.45968673,0.076614454,-9.519346,0.83365434,47.683304,-1.4854558,-2.4544764,-3.2135925,-0.2562598,0.131614,-0.42426986,28.75,30.125,29.25,32.875,35.375,36.5
0.13605219,-1.2735277,-0.3208051,-1.8807594,-0.046914313,0.124493085,-0.15990278,-0.3932868,-0.3674155,0.05997491,3.07864,-0.6256202,0.00023033997,-0.0598534,0.01787309,0.0014105978,-0.0063725836,0.0017780798,-0.0029048491,0.49900326,-1.3771654,1.898722,-2.0907857,-1.570588,2.474438,-0.08812688,0.064901784,-0.08325875,0.013738987,0.004587129,-0.08518691,-0.5554548,0.11492168,-9.691729,0.7530795,47.661808,-1.3071504,-2.3830373,-3.2994337,-0.25892645,0.123414144,-0.40974337,28.75,30.125,29.25,32.875,35.375,36.5
0.1380521,-1.4016387,-0.56029576,-1.8728918,-0.03953159,0.12716633,-0.15791108,-0.39337647,-0.36737218,0.05992887,-3.0786397,0.6255958,-0.00034709446,-0.060704917,0.017802166,0.001413918,-0.006196687,0.0023157648,0.0027418353,0.49884763,-1.3769726,1.89859,-2.0907495,-1.570588,2.4742672,-0.08851008,0.06625751,-0.0848532,0.013592721,0.004162909,-0.0912157,-0.5746084,0.17238252,-9.576807,0.84708,47.687782,-1.4221916,-2.4554439,-3.2706852,-0.24957973,0.13470663,-0.355833,28.75,30.125,29.25,32.875,35.375,36.5
0.14005202,-0.8067655,-0.26824558,-1.842297,-0.034539346,0.1423677,-0.17021388,-0.39349473,-0.3673332,0.05992373,-3.0786524,0.6255407,-0.00037414927,-0.06338984,0.01983769,0.0016932791,-0.006751971,0.0027445448,0.003980876,0.49866566,-1.3768283,1.8984226,-2.0907142,-1.5705761,2.4740493,-0.09455339,0.06679046,-0.08615966,0.013725908,0.0044412785,-0.098497994,-0.61291564,0.076614454,-9.595961,0.82694155,47.68062,-1.1523988,-2.4186106,-3.2876391,-0.27250728,0.13000062,-0.28472507,28.75,30.125,29.25,32.875,35.375,36.5
0.14205194,-0.64657444,0.083877645,-1.8270336,-0.032289088,0.12984005,-0.16946283,-0.39362425,-0.36730373,0.05994452,3.078671,-0.62556,0.0003828892,-0.06414402,0.019018259,0.0021045757,-0.0077173724,0.003967775,0.0080539305,0.49847448,-1.3767079,1.898219,-2.0906541,-1.5705403,2.473868,-0.09400203,0.06784744,-0.08824005,0.013217448,0.0047013797,-0.10201899,-0.6703765,0.095768064,-9.615114,0.7911258,47.719128,-1.3279834,-2.366664,-3.3647628,-0.27349764,0.12386685,-0.23862487,28.75,30.125,29.25,32.875,35.375,36.5
0.14405182,-1.1474265,-0.35578114,-1.6598707,-0.025190162,0.11817359,-0.15115029,-0.39375842,-0.3672815,0.05995333,3.0786583,-0.6254211,0.00033952156,-0.06543012,0.020111073,0.0021978475,-0.0076533696,0.004181423,0.009237686,0.49830577,-1.3765637,1.8980278,-2.0906541,-1.5705279,2.4736142,-0.096896976,0.068127565,-0.08882788,0.01337149,0.004547563,-0.10609698,-0.63206923,-0.019153614,-9.423578,0.80456203,47.705692,-1.2352546,-2.4082081,-3.2184486,-0.289173,0.113681614,-0.17264804,28.75,30.125,29.25,32.875,35.375,36.5
0.14605224,-0.9882777,0.150533,-1.7554238,-0.03288134,0.1244415,-0.15953414,-0.3939295,-0.36721873,0.05997218,3.0786371,-0.6254752,0.00023341115,-0.06688188,0.021116322,0.0016923302,-0.0070561017,0.003957434,0.0076470934,0.49806532,-1.3764309,1.8978246,-2.0906417,-1.5705642,2.4734104,-0.09962841,0.06997734,-0.08978728,0.012962232,0.0041346475,-0.10723623,-0.61291564,-0.019153614,-9.461885,0.79560274,47.668976,-1.1034164,-2.400204,-3.3348103,-0.29110536,0.12772155,-0.15732184,28.75,30.125,29.25,32.875,35.375,36.5
0.14805204,-0.5731582,0.058170266,-1.9010885,-0.022560686,0.12505151,-0.16409053,-0.3940684,-0.36717233,0.059969988,3.078579,-0.625579,0.0002548065,-0.07005087,0.021201836,0.0035961359,-0.008775525,0.007837816,0.0039217607,0.497837,-1.3762865,1.8976558,-2.0906303,-1.5705279,2.4732542,-0.10243394,0.07030702,-0.09456831,0.013189161,0.0037854733,-0.10631393,-0.5554548,-0.095768064,-9.576807,0.7911258,47.68599,-1.0649648,-2.3484674,-3.057253,-0.27108374,0.123081654,-0.12758645,28.75,30.125,29.25,32.875,35.375,36.5
0.15005206,-0.8434923,-0.56668115,-1.9429065,-0.0061408216,0.10954364,-0.14657392,-0.39419994,-0.36712977,0.059973255,3.0785866,-0.62546784,0.00022801748,-0.07051314,0.022528298,0.0026641474,-0.0077952244,0.006281145,-0.0016764934,0.49764448,-1.3761541,1.8974885,-2.090618,-1.5705279,2.4729915,-0.10498719,0.07130758,-0.09361846,0.013075232,0.0036736084,-0.1032689,-0.6703765,-0.1340753,-9.576807,0.8717007,47.689575,-0.90953267,-2.3684325,-3.2947297,-0.3001611,0.10944274,-0.17027101,28.75,30.125,29.25,32.875,35.375,36.5
0.15205188,-0.5862753,-0.040160943,-1.6596581,-0.026349224,0.10887084,-0.15866986,-0.3943344,-0.36709785,0.059962064,3.0785494,-0.62555945,0.00025334276,-0.071414195,0.022919748,0.0025814923,-0.007817138,0.006242953,-0.0074372836,0.49745238,-1.3759737,1.8972973,-2.0906065,-1.5705041,2.4728613,-0.10646212,0.07231696,-0.09465125,0.013123982,0.0037108152,-0.098982565,-0.6512229,-0.11492168,-9.500193,0.8247004,47.647476,-0.935152,-2.2989948,-3.2041042,-0.29757625,0.13607171,-0.18468785,28.75,30.125,29.25,32.875,35.375,36.5
0.1540517,-0.5545023,-0.048449747,-1.7116755,-0.02499516,0.11018714,-0.15661064,-0.39448595,-0.36704323,0.059966378,3.0785599,-0.6255625,0.00021629706,-0.07250349,0.023228107,0.0028446177,-0.008557978,0.00659309,-0.01263887,0.49723613,-1.3758173,1.8970937,-2.0905702,-1.5705279,2.4726458,-0.10824426,0.07286365,-0.09592198,0.013183018,0.004195477,-0.09556325,-0.68953013,-0.076614454,-9.461885,0.87393653,47.677036,-0.9051931,-2.2650294,-3.239654,-0.30738297,0.12462413,-0.24266827,28.75,30.125,29.25,32.875,35.375,36.5
0.15605168,-0.4506393,0.025500862,-1.6659777,-0.024896655,0.12591206,-0.15953305,-0.39460978,-0.36699316,0.059973463,3.0785165,-0.62559205,0.00026584178,-0.07313803,0.023516398,0.0024678512,-0.008443735,0.0054326127,-0.014957169,0.49700835,-1.3757086,1.8969377,-2.0905225,-1.5704798,2.472442,-0.10955983,0.07449738,-0.09716738,0.013872963,0.004649481,-0.09456053,-0.53630114,0.076614454,-9.423578,0.7329411,47.63852,-0.87440217,-2.3690803,-3.2532835,-0.29944122,0.10975142,-0.3177489,28.75,30.125,29.25,32.875,35.375,36.5
0.15805167,-1.2942249,-0.5082868,-1.8120891,-0.022731876,0.10780625,-0.15530536,-0.3947674,-0.36695346,0.059974115,3.07852,-0.62559116,0.00024274475,-0.07306409,0.023750298,0.0016972992,-0.0072634276,0.004015067,-0.014054229,0.49680465,-1.3755159,1.8966993,-2.0904858,-1.5704921,2.4722373,-0.10962348,0.07611372,-0.09745636,0.014355713,0.004290611,-0.09552625,-0.4405331,0.076614454,-9.346964,0.842603,47.687782,-0.9752614,-2.2509856,-3.3016698,-0.32839355,0.12393214,-0.2960472,28.75,30.125,29.25,32.875,35.375,36.5
0.16005254,-0.6475717,-0.45248848,-1.6254727,-0.025414573,0.120856956,-0.15692356,-0.3949341,-0.3669002,0.05999087,3.0784845,-0.62562174,0.00013171164,-0.074044764,0.023348648,0.0021460443,-0.007813076,0.004826955,-0.013187557,0.49657708,-1.3753834,1.8965067,-2.0904982,-1.570516,2.4720335,-0.10986809,0.07722256,-0.09987762,0.014691065,0.0043911478,-0.09663628,-0.3256114,0.076614454,-9.404425,0.8023209,47.689575,-1.0001206,-2.4233723,-3.2619407,-0.3120393,0.113454,-0.31323928,28.75,30.125,29.25,32.875,35.375,36.5
0.16205162,-0.13187155,-0.09906578,-1.6292609,-0.038577534,0.11465554,-0.15941982,-0.39509177,-0.3668525,0.06000108,3.0784483,-0.6257097,0.00015731562,-0.07450083,0.023638345,0.001999457,-0.007119691,0.0050802035,-0.014136667,0.4963375,-1.375215,1.8962673,-2.0904262,-1.5704921,2.4718535,-0.11027775,0.07793928,-0.100385055,0.014595287,0.0036612672,-0.09609551,-0.24899697,0.11492168,-9.385271,0.8179876,47.687782,-1.0356257,-2.3477561,-3.2995539,-0.31819367,0.12712307,-0.3532343,28.75,30.125,29.25,32.875,35.375,36.5
0.1640526,0.13281527,-0.88966554,-1.851494,-0.031805187,0.09280652,-0.14580089,-0.39523056,-0.3667846,0.059976276,3.0784528,-0.62576777,0.0001870242,-0.07675859,0.02490967,0.0023397428,-0.007142622,0.0058461,-0.016307399,0.49609652,-1.3750466,1.8961238,-2.0904262,-1.5704926,2.4716482,-0.11422829,0.07897864,-0.10249342,0.014982379,0.0033127137,-0.09787398,-0.19153613,0.15322891,-9.461885,0.842603,47.689575,-0.89842725,-2.2408879,-3.2549036,-0.31805298,0.13122284,-0.36984366,28.75,30.125,29.25,32.875,35.375,36.5
0.16605163,0.7201924,-0.844976,-1.613572,-0.045440737,0.09014106,-0.15579244,-0.39538285,-0.3667398,0.059994362,3.0784316,-0.62580055,0.00016091255,-0.0758628,0.02403522,0.00075643254,-0.005913982,0.0036794958,-0.014591948,0.4958818,-1.3749012,1.8958963,-2.0903661,-1.5704926,2.4714568,-0.11187054,0.08227524,-0.10267757,0.01436098,0.0032650367,-0.09723091,-0.19153613,0.1340753,-9.308657,0.7351769,47.675243,-1.1613505,-2.4105988,-3.2912405,-0.33324558,0.14740638,-0.4152776,28.75,30.125,29.25,32.875,35.375,36.5
0.16805243,0.45542583,-0.5449241,-1.6550794,-0.050013594,0.07460446,-0.15134427,-0.39553365,-0.3666945,0.05997048,3.0784278,-0.62579834,0.00021364898,-0.07953678,0.024951898,0.0033255937,-0.008439543,0.008549912,-0.0137992995,0.49565256,-1.3746855,1.8956918,-2.0903542,-1.5704683,2.4712267,-0.11666302,0.080600314,-0.10656478,0.014442564,0.0031612392,-0.10281474,-0.019153614,0.21068975,-9.308656,0.8784135,47.684196,-0.8410642,-2.3606157,-3.2983298,-0.34077907,0.1279802,-0.3912136,28.75,30.125,29.25,32.875,35.375,36.5
0.17005251,0.85763204,-0.75558156,-1.7536474,-0.044062115,0.07673425,-0.15607698,-0.3956816,-0.36663523,0.05997757,3.0784197,-0.6258115,0.00017428867,-0.078568265,0.025388695,0.002593387,-0.0077878255,0.00696948,-0.009573501,0.49542528,-1.3745534,1.8955134,-2.0903304,-1.5704807,2.4710088,-0.116587214,0.08025144,-0.10448905,0.014415738,0.0033488215,-0.10696583,0.038307227,0.22984336,-9.289503,0.78888994,47.658226,-0.98668367,-2.240184,-3.3000848,-0.32085297,0.16312115,-0.3724483,28.75,30.125,29.25,32.875,35.375,36.5
0.17205247,0.23703864,-0.67321515,-1.805999,-0.04387261,0.05925506,-0.15433191,-0.39584118,-0.36659122,0.059984975,3.0783823,-0.6258773,0.00016216318,-0.07955208,0.025263464,0.0008988269,-0.0069278227,0.0036834134,-0.0045541236,0.49519745,-1.3743834,1.8952864,-2.0902946,-1.5704678,2.4708269,-0.11773332,0.08593089,-0.10755079,0.015098795,0.0041535115,-0.11313036,0.095768064,0.22984336,-9.232041,0.8023209,47.64389,-0.9981855,-2.3913054,-3.4407802,-0.34214664,0.1413392,-0.31027076,28.75,30.125,29.25,32.875,35.375,36.5
0.1740524,-0.2665679,-1.270626,-1.8721545,-0.038106702,0.042320956,-0.14054798,-0.39602357,-0.36654505,0.059990242,3.0783434,-0.6258655,0.000116807525,-0.079876326,0.025646362,0.0015947527,-0.008258096,0.004431001,0.00038115957,0.49494585,-1.374192,1.8950471,-2.0902946,-1.5704559,2.470573,-0.119131275,0.08417745,-0.107057914,0.015070717,0.00497786,-0.11946502,0.15322891,0.15322891,-9.32781,0.8717007,47.67614,-1.1212689,-2.2334332,-3.3660994,-0.3517555,0.13856508,-0.22626519,28.75,30.125,29.25,32.875,35.375,36.5
0.17605227,0.34300464,-0.9664352,-1.8558755,-0.03925604,0.05517634,-0.1524069,-0.39618093,-0.36648366,0.059988055,3.0783534,-0.62586147,0.00010645711,-0.08056486,0.024822148,0.0014569468,-0.008241858,0.0043661306,0.008956742,0.49470612,-1.3740228,1.894843,-2.0902588,-1.5704674,2.4703295,-0.11834021,0.08679016,-0.109938346,0.015404997,0.004991536,-0.12724808,0.11492168,0.17238252,-9.32781,0.7732232,47.639416,-1.0576301,-2.3795645,-3.343652,-0.34815186,0.13614637,-0.16154718,28.75,30.125,29.25,32.875,35.375,36.5
0.17805214,0.41854042,-1.1419282,-1.9434594,-0.038536735,0.054872338,-0.15100032,-0.3963615,-0.3664543,0.060026046,3.0782979,-0.6257368,1.661357e-05,-0.082811795,0.026185846,0.0015354834,-0.008440976,0.004910104,0.0050681974,0.4944773,-1.3738784,1.8945793,-2.0902345,-1.5704435,2.47003,-0.12258341,0.08802886,-0.11155599,0.015215275,0.0049185636,-0.12760136,0.095768064,0.24899697,-9.423578,0.82022345,47.709274,-1.1499021,-2.4303815,-3.273009,-0.34041584,0.13424265,-0.10094786,28.75,30.125,29.25,32.875,35.375,36.5
0.18005203,0.29120955,-1.1124499,-1.9449925,-0.04729827,0.05136249,-0.15240315,-0.3964941,-0.3663772,0.059996244,3.0783474,-0.6258013,0.00013299412,-0.08253329,0.025014687,0.0021173302,-0.008795771,0.0057591787,0.007825201,0.49422678,-1.3736861,1.8943995,-2.0901506,-1.5704435,2.4698136,-0.12025837,0.088152856,-0.11317427,0.015795581,0.0048157917,-0.12803309,-0.019153614,0.30645782,-9.289502,0.83365434,47.690468,-1.1715258,-2.3799524,-3.2887535,-0.35349452,0.14156215,-0.07566394,28.75,30.125,29.25,32.875,35.375,36.5
0.182052,0.4630719,-1.115776,-1.9024209,-0.04950756,0.06041272,-0.1521074,-0.39668906,-0.3663301,0.06001549,3.0782833,-0.6258485,6.2838895e-05,-0.08308187,0.025745252,-7.619029e-05,-0.0070848865,0.002023328,0.0022221976,0.4939626,-1.3735042,1.8941368,-2.0901382,-1.5704316,2.469587,-0.12210126,0.09301108,-0.113991424,0.0158558,0.005089526,-0.12427195,0.076614454,0.2681506,-9.423578,0.7978386,47.675243,-1.2159653,-2.4598696,-3.4297833,-0.3329326,0.14627805,-0.119984634,28.75,30.125,29.25,32.875,35.375,36.5
0.18405204,0.2718482,-1.022867,-1.8916895,-0.06559505,0.06380244,-0.15304966,-0.39684695,-0.36628255,0.060012076,3.0783174,-0.625723,5.0100374e-05,-0.08423566,0.026009379,0.0012363386,-0.0089274,0.0035089944,-0.0047428487,0.4937463,-1.3733124,1.8939084,-2.0901024,-1.5704435,2.4692883,-0.12411659,0.09149505,-0.11534317,0.016537135,0.0060068304,-0.119323224,-0.05746084,0.2681506,-9.346964,0.8247004,47.684196,-1.1165289,-2.3760371,-3.194417,-0.34565076,0.14253023,-0.16338441,28.75,30.125,29.25,32.875,35.375,36.5
0.18605234,-0.17358989,-1.2634916,-1.7821759,-0.06493862,0.0664012,-0.15277691,-0.3970208,-0.36623037,0.06000518,3.0782564,-0.6257707,7.336824e-05,-0.085145846,0.025975171,0.0003279394,-0.008303657,0.002182528,-0.009697432,0.49347085,-1.3731191,1.8936943,-2.0901024,-1.5703958,2.4690504,-0.12488315,0.095027424,-0.11752139,0.016652483,0.006084966,-0.115133815,-0.038307227,0.24899697,-9.3661175,0.8784135,47.703903,-1.1464783,-2.3889947,-3.4316568,-0.3352083,0.13112436,-0.23479459,28.75,30.125,29.25,32.875,35.375,36.5
0.1880522,-0.20140477,-0.98259026,-1.9089289,-0.06388693,0.07154724,-0.15200475,-0.39720103,-0.36617813,0.06002114,3.0782137,-0.62581974,1.3910909e-05,-0.08573459,0.02619766,0.0014507037,-0.009148591,0.004116101,-0.013558237,0.49321917,-1.3729517,1.8934535,-2.0900786,-1.5703958,2.4688349,-0.12563425,0.09313581,-0.117868535,0.01678933,0.0059196567,-0.11202382,-0.095768064,0.22984336,-9.423578,0.78217715,47.703903,-1.1938292,-2.4368854,-3.269192,-0.3577547,0.1287346,-0.2682417,28.75,30.125,29.25,32.875,35.375,36.5
0.19005212,0.25985655,-0.7261768,-1.6957905,-0.059417594,0.09935972,-0.15746157,-0.3973501,-0.3661461,0.060011886,3.0782037,-0.62585753,7.011029e-05,-0.087587506,0.026550682,0.0011714374,-0.00940001,0.004096343,-0.018157914,0.4930147,-1.3727345,1.8932027,-2.090019,-1.5703715,2.4686553,-0.12800363,0.0959112,-0.120498545,0.016544795,0.0061423588,-0.10979251,-0.15322891,0.21068975,-9.423578,0.7978386,47.65464,-1.135133,-2.4434247,-3.321886,-0.3453947,0.12340222,-0.34801656,28.75,30.125,29.25,32.875,35.375,36.5
0.19205204,-0.42104563,-0.5118517,-1.8352629,-0.04770851,0.09540212,-0.16193905,-0.39752963,-0.36608523,0.06000874,3.0781543,-0.6259245,9.408603e-05,-0.08928841,0.02646177,0.0013264245,-0.0099467775,0.0049817082,-0.02026657,0.49272695,-1.3725415,1.8929747,-2.0899947,-1.5703353,2.4684157,-0.12937808,0.09807541,-0.12336801,0.016216706,0.006201532,-0.10905687,-0.21068975,0.22984336,-9.404425,0.8314132,47.65643,-1.153501,-2.474861,-3.236474,-0.3321941,0.1176168,-0.40475896,28.75,30.125,29.25,32.875,35.375,36.5
0.19405198,-0.29966253,-0.4254468,-1.7398189,-0.030970233,0.11089328,-0.15729319,-0.39768237,-0.3660293,0.0599921,3.078159,-0.62596554,0.00015067241,-0.09087825,0.02663207,0.0020532196,-0.011899551,0.0059781456,-0.023734394,0.49248636,-1.3723372,1.8927587,-2.089947,-1.5703224,2.4682002,-0.1318266,0.09830432,-0.12528487,0.01610134,0.007444706,-0.10803861,-0.38307226,0.21068975,-9.289502,0.8314132,47.653748,-1.0769949,-2.4693074,-3.1890693,-0.323654,0.10699619,-0.43229368,28.75,30.125,29.25,32.875,35.375,36.5
0.19605236,-0.81829387,-0.3736264,-1.7454841,-0.032186057,0.10792114,-0.15142809,-0.39788014,-0.36596617,0.059995897,3.0781612,-0.62602085,8.764325e-05,-0.09077652,0.02596708,0.0011158354,-0.011812784,0.0043194923,-0.021263637,0.4922233,-1.3721201,1.8924836,-2.0899112,-1.5703586,2.4679716,-0.13099746,0.10108227,-0.12645546,0.015992852,0.008154927,-0.1096801,-0.5554548,0.19153613,-9.404425,0.779936,47.66987,-1.1854162,-2.549721,-3.186611,-0.31151608,0.09773536,-0.49578616,28.75,30.125,29.25,32.875,35.375,36.5
0.19805242,-0.72599334,-0.28910205,-1.738144,-0.037268642,0.1313557,-0.16389664,-0.39804757,-0.3659167,0.05998927,3.0780993,-0.6261025,0.00012159478,-0.092659645,0.026820263,0.0020922,-0.012136119,0.005943628,-0.02039079,0.4919589,-1.371928,1.8922671,-2.0898988,-1.570311,2.467766,-0.13378234,0.100898296,-0.12865722,0.016805073,0.007674457,-0.11333643,-0.63206923,0.095768064,-9.3661175,0.90527004,47.683304,-0.98540294,-2.5086017,-3.1440501,-0.33870447,0.092584744,-0.49321085,28.75,30.125,29.25,32.875,35.375,36.5
0.20005248,-1.5265975,-0.37453142,-1.6964256,-0.03255031,0.12956439,-0.15505868,-0.3982269,-0.3658464,0.059975956,3.0780923,-0.6261715,0.00016512656,-0.09355732,0.027728368,0.0014697717,-0.011593585,0.005066767,-0.01327692,0.49167094,-1.3717113,1.8920287,-2.0898511,-1.570299,2.4675221,-0.13602214,0.102427274,-0.1290642,0.016720004,0.0076112323,-0.12268986,-0.61291564,0.076614454,-9.404425,0.86498255,47.69763,-1.2210433,-2.5376363,-3.1048613,-0.33058935,0.096694455,-0.4572606,28.75,30.125,29.25,32.875,35.375,36.5
0.20205234,-1.4968094,-0.56007856,-1.7240672,-0.02640036,0.14595294,-0.1623816,-0.39843148,-0.3658437,0.06001478,3.0779812,-0.62610525,8.4476014e-05,-0.09373879,0.027066894,0.0018784105,-0.012199156,0.005765081,-0.0054539815,0.49144372,-1.3715069,1.8916944,-2.0898387,-1.5702385,2.4672678,-0.13514347,0.10270796,-0.13037603,0.016861508,0.0078319805,-0.12963301,-0.68953013,0.11492168,-9.423578,0.7978386,47.674347,-1.2050383,-2.4699106,-3.1734915,-0.32269353,0.07076802,-0.40098226,28.75,30.125,29.25,32.875,35.375,36.5
0.20405221,-1.2909963,-0.38006082,-1.4921678,-0.029328918,0.16792914,-0.15705498,-0.39858645,-0.36576426,0.05998487,3.0780168,-0.62618476,0.00023820579,-0.095473275,0.027210316,0.0022773328,-0.01263611,0.006846034,0.003111379,0.4911556,-1.3712782,1.8914655,-2.089731,-1.5702151,2.4670248,-0.13681306,0.10424902,-0.1331628,0.016958978,0.007692981,-0.13986737,-0.68953013,-0.076614454,-9.442732,0.8090337,47.691364,-1.2639874,-2.4314444,-3.1147685,-0.3359133,0.0724002,-0.27848366,28.75,30.125,29.25,32.875,35.375,36.5
0.20605223,-1.3320163,0.3640714,-1.8600602,-0.032325402,0.1591604,-0.16430967,-0.39877445,-0.36569968,0.05999678,3.0780437,-0.6260322,0.00017303786,-0.09464067,0.028598305,0.0006996355,-0.010503978,0.00427132,0.007530677,0.4908919,-1.3710978,1.8912157,-2.0896957,-1.570239,2.4666626,-0.13792786,0.104803614,-0.13020174,0.016722988,0.0070416434,-0.1454015,-0.7852981,-0.11492168,-9.385271,0.84484416,47.698532,-1.2139218,-2.423112,-3.3002515,-0.30890292,0.06975231,-0.22589096,28.75,30.125,29.25,32.875,35.375,36.5
0.20805208,-0.9480814,-0.10770756,-1.9892838,-0.010320453,0.15161128,-0.16074218,-0.399,-0.36565793,0.060018323,3.0779738,-0.626016,9.7110205e-05,-0.09708932,0.029387388,0.0022797873,-0.011457182,0.007723239,0.0076119453,0.49060327,-1.3708699,1.8908924,-2.0896833,-1.5702151,2.466373,-0.14090715,0.10387287,-0.13268939,0.016657546,0.006265998,-0.14845984,-0.6512228,-0.17238252,-9.442732,0.88960326,47.668976,-1.0865179,-2.3136852,-3.11282,-0.29662383,0.08179533,-0.14955246,28.75,30.125,29.25,32.875,35.375,36.5
0.2100522,-0.5753357,0.68777394,-1.7260983,-0.020815533,0.13824566,-0.16297062,-0.3992042,-0.36559334,0.060012396,3.0779324,-0.6261047,8.265124e-05,-0.09825519,0.030325294,6.372314e-05,-0.009725239,0.0047240085,0.004828819,0.4903034,-1.3706398,1.8906292,-2.0896719,-1.5702037,2.4661338,-0.1433966,0.10917328,-0.13383533,0.015968509,0.006153052,-0.14816462,-0.6895301,-0.21068975,-9.404425,0.83813137,47.657326,-1.2074488,-2.6200542,-3.2191818,-0.2769441,0.061124332,-0.14311066,28.75,30.125,29.25,32.8125,35.375,36.5
0.21205218,-0.7335718,0.27151498,-1.7934356,-0.003931465,0.120908834,-0.15502676,-0.39938533,-0.36553535,0.06001723,3.0778987,-0.62606245,6.3631036e-05,-0.098605484,0.030211264,0.0019027874,-0.011263627,0.0079750335,-0.0019626252,0.49002787,-1.3704609,1.8904022,-2.0896595,-1.5701798,2.4658363,-0.14335066,0.10567439,-0.13384287,0.015884731,0.0059850686,-0.14132743,-0.8236054,-0.21068975,-9.481039,0.82694155,47.66808,-1.1543896,-2.3298786,-3.371905,-0.2698009,0.07284069,-0.19979258,28.75,30.125,29.25,32.8125,35.375,36.5
0.21405253,-0.6121026,0.6399158,-1.7706192,-0.0065634334,0.12019359,-0.14880621,-0.39962566,-0.36544862,0.060005452,3.0778959,-0.6261398,3.023854e-05,-0.09806689,0.031192435,-0.0008207208,-0.008483584,0.0035299012,-0.0076984456,0.48968032,-1.3701832,1.8900927,-2.0896356,-1.5702037,2.4655375,-0.1442133,0.1098142,-0.13257667,0.015706725,0.0056282743,-0.1364537,-0.61291564,-0.19153613,-9.557653,0.800085,47.707485,-1.2031701,-2.537099,-3.453587,-0.2537619,0.07937682,-0.26030695,28.75,30.125,29.25,32.8125,35.375,36.5
0.21605264,-0.58759624,0.16792801,-1.7998006,0.0067549013,0.11164198,-0.14641736,-0.39980495,-0.36538488,0.059994683,3.0778782,-0.626214,5.5838485e-05,-0.099821344,0.031360045,0.0008864892,-0.009686539,0.0064796642,-0.011370737,0.48940444,-1.3699676,1.8898519,-2.0895994,-1.5701917,2.4653103,-0.14580616,0.108627744,-0.13521178,0.016362676,0.0052987207,-0.13437326,-0.4405331,-0.19153613,-9.519346,0.75084364,47.66987,-1.2013477,-2.3208275,-3.3837254,-0.24952513,0.077571996,-0.29628992,28.75,30.125,29.25,32.8125,35.375,36.5
0.2180518,-0.10786286,0.20228411,-1.729347,-0.0004106978,0.11402701,-0.15220384,-0.39999232,-0.3653096,0.05998969,3.0779068,-0.6261992,7.464541e-05,-0.10043838,0.031347807,0.0006538023,-0.009430812,0.005314006,-0.012059707,0.4891168,-1.3697506,1.8895882,-2.0895274,-1.5702037,2.46501,-0.14647384,0.11060566,-0.13736278,0.017683743,0.0056185895,-0.13435148,-0.34476504,-0.2681506,-9.442732,0.8157518,47.67614,-1.2494255,-2.448469,-3.6809344,-0.2343784,0.070731536,-0.3287239,28.75,30.125,29.25,32.8125,35.375,36.5
0.2200518,0.05870908,0.15527086,-1.9261135,-0.008339259,0.107095696,-0.15862598,-0.4002295,-0.3652394,0.059998292,3.0778491,-0.62626404,-3.611336e-05,-0.101191595,0.032097645,0.0007894615,-0.00930985,0.005579407,-0.014343978,0.488793,-1.3695226,1.8893021,-2.0895512,-1.5702156,2.464734,-0.14819211,0.110559255,-0.13768096,0.017871697,0.005400601,-0.13378476,-0.2681506,-0.15322891,-9.404425,0.8672237,47.66987,-1.2338157,-2.3074355,-3.5335884,-0.24080291,0.09398576,-0.3617373,28.75,30.125,29.25,32.8125,35.375,36.5
0.22205162,0.5874032,-0.1747023,-2.09822,-0.012298297,0.10117731,-0.15106618,-0.40044343,-0.3651842,0.06002862,3.0777829,-0.6263068,-8.401003e-05,-0.10224602,0.031944565,0.0014865525,-0.00961021,0.006727152,-0.013602969,0.48849332,-1.3693302,1.8889903,-2.0894911,-1.5701917,2.4644697,-0.14864106,0.11111103,-0.14010485,0.018595884,0.005134913,-0.13497324,-0.11492168,0.019153614,-9.404425,0.83589023,47.69763,-1.2521756,-2.2489011,-3.4448783,-0.23996425,0.079876184,-0.38274586,28.75,30.125,29.25,32.8125,35.375,36.5
0.22405162,0.635164,-0.097438075,-2.1450686,-0.0369701,0.08601681,-0.15840323,-0.40061015,-0.36509633,0.059990175,3.0778072,-0.6264034,5.6542427e-05,-0.10319207,0.032328416,0.001582544,-0.009162613,0.0069405083,-0.009721466,0.4881817,-1.3690896,1.8887743,-2.0894191,-1.5701684,2.4642153,-0.14976017,0.11213346,-0.14170745,0.019207042,0.004629693,-0.13997315,-0.1340753,0.11492168,-9.5385,0.8717007,47.66808,-1.2164263,-2.3554032,-3.421985,-0.22731146,0.10169801,-0.36698127,28.75,30.125,29.25,32.8125,35.375,36.5
0.22605178,0.28991446,-0.76747376,-2.1134825,-0.049986795,0.071305074,-0.15450883,-0.40086043,-0.36505297,0.060018186,3.0777345,-0.62636584,-3.2212898e-05,-0.10474996,0.03329142,0.0010458402,-0.0084239,0.0061990023,-0.004731242,0.48786932,-1.3688365,1.8884033,-2.0893948,-1.570144,2.463889,-0.1525064,0.1146112,-0.14355586,0.019589536,0.0043418217,-0.1477079,-0.05746084,0.21068975,-9.557653,0.7978386,47.66091,-1.1564641,-2.2400022,-3.4060493,-0.208597,0.10227447,-0.30336982,28.75,30.125,29.25,32.8125,35.375,36.5
0.22805175,0.5443526,-1.0315381,-2.2912529,-0.06949304,0.0829526,-0.15754202,-0.40107405,-0.36497706,0.060034435,3.077704,-0.6264116,-0.000100311365,-0.10545544,0.033921648,0.0010702371,-0.008115402,0.0057516186,0.0022821224,0.4875578,-1.3686441,1.8881286,-2.089359,-1.570156,2.46361,-0.15408875,0.11519043,-0.14453653,0.02053553,0.0042934413,-0.15630303,-0.019153614,0.36391866,-9.595961,0.8090337,47.661808,-1.2869606,-2.3817327,-3.4442716,-0.22583544,0.11144717,-0.21675718,28.75,30.125,29.25,32.8125,35.375,36.5
0.23005222,0.104431935,-1.2377863,-2.415796,-0.08343085,0.07909939,-0.16458094,-0.40126663,-0.3648913,0.060004182,3.0777452,-0.6263963,7.660437e-07,-0.10639096,0.034086104,0.0007685206,-0.008055721,0.005136736,0.007869724,0.4872339,-1.3683789,1.8878645,-2.0892866,-1.570144,2.4632714,-0.15527011,0.117207,-0.14637879,0.020938963,0.004520094,-0.16307162,0.0,0.4213795,-9.672575,0.800085,47.642998,-1.092394,-2.3746097,-3.4278264,-0.2199763,0.098262966,-0.09085414,28.75,30.125,29.25,32.8125,35.375,36.5
0.23205242,0.52122056,-2.068598,-2.4553015,-0.09135611,0.08817849,-0.15948077,-0.40149385,-0.36483353,0.06001906,3.0777016,-0.62638664,-8.2001105e-05,-0.10820778,0.035093833,0.0007930346,-0.008278969,0.0049408255,0.006978916,0.48693335,-1.3681502,1.887555,-2.0892746,-1.5701436,2.4629705,-0.15868838,0.11871261,-0.1483851,0.021510294,0.0048211035,-0.16559815,-0.019153614,0.47884035,-9.80665,0.8112748,47.655537,-1.0658302,-2.268219,-3.4086924,-0.21032318,0.13202995,-0.03554309,28.75,30.125,29.25,32.8125,35.375,36.5
0.2340524,-0.06398717,-2.4770796,-2.3503227,-0.102274105,0.07538329,-0.14537302,-0.40172273,-0.3647379,0.060027763,3.0777295,-0.6263554,-0.00015990874,-0.110092826,0.034058288,0.0016549759,-0.009719213,0.0068710125,0.0021991758,0.48659784,-1.3679335,1.8872656,-2.0892265,-1.5701917,2.4626122,-0.15877612,0.12093657,-0.15302755,0.021539085,0.0051856684,-0.1609043,-0.038307227,0.49799395,-9.634268,0.9030289,47.661808,-0.9463498,-2.2461803,-3.4056091,-0.21255663,0.11661258,-0.06628239,28.75,30.125,29.25,32.8125,35.375,36.5
0.23602104,0.25490728,-2.380034,-2.1450422,-0.104661025,0.08947646,-0.14934197,-0.40193993,-0.3646926,0.06004831,3.0776715,-0.62630767,-0.0001666333,-0.11019633,0.03489051,-5.075368e-05,-0.008645153,0.0039981855,-0.0053780116,0.48629802,-1.3677043,1.8869318,-2.0891674,-1.5701436,2.46229,-0.16042794,0.12370706,-0.15240876,0.021196086,0.0055861105,-0.15497889,-0.11492168,0.63206923,-9.595961,0.900793,47.661808,-0.9726861,-2.3699887,-3.3286488,-0.19561198,0.100521825,-0.11551177,28.75,30.125,29.25,32.8125,35.375,36.5
0.23805295,-0.58679914,-2.1947389,-2.1054487,-0.09322595,0.07975959,-0.146967,-0.40214914,-0.3646429,0.06006273,3.0775976,-0.62633365,-0.00017503818,-0.11205968,0.03493945,0.0007723003,-0.010042196,0.005842107,-0.013397325,0.48599815,-1.3674878,1.8866323,-2.089131,-1.5700954,2.4620159,-0.16231886,0.12437486,-0.15502353,0.020864133,0.005959034,-0.14884947,-0.11492168,0.47884035,-9.481039,0.88289046,47.6636,-1.1145718,-2.3311324,-3.176831,-0.17093143,0.12599751,-0.19981599,28.75,30.125,29.25,32.8125,35.375,36.5
0.24005233,-0.055322856,-1.4684517,-1.7928399,-0.08841162,0.09226272,-0.14719668,-0.40239182,-0.3645678,0.060060643,3.077566,-0.62638706,-0.00024394588,-0.11250881,0.03400533,0.0010143946,-0.0104196165,0.0065066204,-0.018845577,0.4856633,-1.3672231,1.886321,-2.089131,-1.5701078,2.4617186,-0.16107355,0.12583958,-0.1573815,0.020989612,0.005983256,-0.14215462,-0.076614454,0.5363012,-9.500193,0.80456203,47.67345,-1.1466515,-2.399487,-3.2251406,-0.15827739,0.1181463,-0.29010397,28.75,30.125,29.25,32.8125,35.375,36.5
0.24205235,-0.45097658,-1.6975594,-1.8062803,-0.066195734,0.08014036,-0.14885962,-0.40260935,-0.36449504,0.06003407,3.0775795,-0.6263895,-0.00018462095,-0.113557845,0.034595326,0.00023448575,-0.010318739,0.005228216,-0.023140421,0.48533937,-1.3669217,1.8860105,-2.089084,-1.570095,2.4613945,-0.16322096,0.12830009,-0.15856375,0.020889882,0.006484145,-0.14000705,-0.11492168,0.51714754,-9.423578,0.8247004,47.666286,-1.1384046,-2.382836,-3.1617799,-0.16137092,0.117204964,-0.346293,28.75,30.125,29.25,32.8125,35.375,36.5
0.24405235,0.5252685,-0.73347324,-1.5340736,-0.06046447,0.09220455,-0.14582734,-0.4028384,-0.36441645,0.06004277,3.077522,-0.6265533,-0.00022792694,-0.11497906,0.03491791,0.0005816012,-0.011697156,0.005799475,-0.029116362,0.48500317,-1.3666937,1.8857101,-2.0890477,-1.5700945,2.461168,-0.16552348,0.12898101,-0.16013174,0.020625485,0.0074388487,-0.13633348,-0.17238252,0.3256114,-9.32781,0.9030289,47.689575,-1.0943706,-2.3897,-3.1568894,-0.14527385,0.113978565,-0.4445101,28.75,30.125,29.25,32.8125,35.375,36.5
0.24605261,0.70854515,-0.4860697,-1.711943,-0.03978356,0.08043383,-0.15202415,-0.40309036,-0.36438432,0.06009819,3.077406,-0.6265673,-0.00035188787,-0.11671613,0.035019897,0.0011657253,-0.012711563,0.007677131,-0.029462667,0.48470342,-1.3664769,1.8853143,-2.089,-1.5700592,2.460892,-0.16716109,0.12981789,-0.16230045,0.019831209,0.007477031,-0.13762291,-0.19153613,0.28730422,-9.289502,0.784413,47.660015,-1.0018346,-2.4595447,-3.0604658,-0.096339375,0.09108854,-0.4980711,28.75,30.125,29.25,32.8125,35.375,36.5
0.24805266,0.350649,-0.1739474,-1.244463,-0.048562746,0.0820105,-0.15128505,-0.40334237,-0.3643193,0.060087465,3.0773423,-0.6266447,-0.00038057144,-0.11667936,0.03622694,-0.0009605334,-0.010444695,0.0037874745,-0.02320565,0.48435533,-1.3661754,1.884981,-2.089012,-1.5700349,2.4606004,-0.16894391,0.13327123,-0.16175434,0.020341897,0.0073019657,-0.14566211,-0.24899697,0.114921674,-9.270349,0.80679786,47.666286,-1.0090733,-2.5011935,-3.1712549,-0.080980964,0.10056804,-0.46886694,28.75,30.125,29.25,32.8125,35.375,36.5
0.2500517,-0.40878457,-0.46555495,-1.119077,-0.0350784,0.085412055,-0.14541323,-0.40356374,-0.36426002,0.06008959,3.0773118,-0.62666863,-0.00036786962,-0.11607256,0.03599234,-0.00049651414,-0.010699221,0.0029134236,-0.011220027,0.48404428,-1.3659117,1.8846473,-2.0889513,-1.5700105,2.4603083,-0.16832004,0.13239336,-0.16225363,0.022386005,0.007951741,-0.15702437,-0.34476504,0.095768064,-9.097966,0.86498255,47.670765,-1.022414,-2.4419649,-3.3615427,-0.087042645,0.10042158,-0.39056614,28.75,30.125,29.25,32.8125,35.375,36.5
0.2520517,-0.38382983,-0.022397066,-1.0028021,-0.015882438,0.104013376,-0.14413348,-0.4038177,-0.3641858,0.060093354,3.0772605,-0.62667006,-0.00037400628,-0.116683915,0.036357336,-0.0006564782,-0.010695606,0.0015192869,-0.0016414076,0.48367244,-1.3656348,1.8842992,-2.0889146,-1.5699748,2.459944,-0.16977781,0.1337403,-0.1638822,0.023918169,0.00861527,-0.16806023,-0.30645782,-0.05746084,-9.097966,0.87393653,47.666286,-0.9956838,-2.419012,-3.3129826,-0.071136974,0.08235669,-0.2620981,28.75,30.125,29.25,32.8125,35.375,36.5
0.2540517,-0.62314576,0.8495151,-0.9033692,-0.005387395,0.11370596,-0.1533346,-0.40402487,-0.3641024,0.060077533,3.077291,-0.62667274,-0.00031413336,-0.117133476,0.037092242,-0.0011788356,-0.0101802675,0.00021780815,0.0031671172,0.48334855,-1.3653703,1.8839997,-2.0888307,-1.5699743,2.459618,-0.17141509,0.13488148,-0.16423291,0.024526926,0.0087639345,-0.17450635,-0.30645782,-0.1340753,-9.040505,0.8873621,47.684196,-0.94794625,-2.5245667,-3.353817,-0.07018691,0.07106551,-0.19602168,28.75,30.125,29.25,32.8125,35.375,36.5
0.25600588,-0.43889213,1.0863719,-0.594539,0.017431142,0.12252834,-0.14750919,-0.40427017,-0.36401355,0.06006081,3.077287,-0.6267066,-0.00033857865,-0.11776601,0.03657939,-0.0015421603,-0.009833524,-0.00013678607,0.0059035644,0.48298988,-1.3650813,1.8836893,-2.0888193,-1.5699867,2.4592812,-0.17092918,0.13751268,-0.16665398,0.024795199,0.008622351,-0.1767555,-0.38307226,-0.30645782,-8.925584,0.78888994,47.674347,-1.2278817,-2.381726,-3.3229146,-0.07069811,0.077305816,-0.11913435,28.75,30.125,29.25,32.8125,35.375,36.5
0.25805166,-0.16474694,1.2745433,-0.80099994,0.044354368,0.105092525,-0.15144865,-0.40452275,-0.3639829,0.060089134,3.0771782,-0.6266671,-0.00040820133,-0.11884428,0.03664094,-0.00015660484,-0.011234779,0.0024633177,0.00134126,0.482678,-1.3648173,1.8833064,-2.0888069,-1.5699266,2.4589586,-0.17190818,0.13587599,-0.16784568,0.024680577,0.008670404,-0.17317122,-0.40222588,-0.38307226,-8.963891,0.8493211,47.716442,-1.2371459,-2.3968344,-3.4005713,-0.049287815,0.072202966,-0.16582027,28.75,30.125,29.25,32.8125,35.375,36.5
0.26005244,0.41195777,1.6425204,-0.76619196,0.043496296,0.10795563,-0.15244454,-0.40476403,-0.3639119,0.06009588,3.0771306,-0.62666076,-0.000440902,-0.12042057,0.03647126,0.0005479091,-0.011298759,0.0038433827,-0.0070415107,0.48233095,-1.3645642,1.8829826,-2.0887825,-1.5699028,2.4586139,-0.17255467,0.13732909,-0.1714108,0.025543313,0.0080836825,-0.16543287,-0.4405331,-0.38307226,-8.829816,0.8605109,47.66271,-1.3599472,-2.479573,-3.3009062,-0.005909645,0.042116575,-0.2559521,28.75,30.125,29.25,32.8125,35.375,36.5
0.26205257,0.21549717,1.1067207,-0.95107603,0.0441349,0.09526895,-0.15499558,-0.4049817,-0.36382335,0.06007002,3.077156,-0.6267238,-0.0003394535,-0.12001578,0.03747351,0.00039437553,-0.009809502,0.0029447242,-0.010455794,0.48198313,-1.3642645,1.8826607,-2.0886862,-1.5698913,2.4583023,-0.17322513,0.13646087,-0.17035934,0.026852556,0.0071740835,-0.1626899,-0.34476504,-0.34476504,-9.021352,0.86498255,47.66271,-1.3112154,-2.2487478,-3.4145684,0.0056300377,0.06781523,-0.30246776,28.75,30.125,29.25,32.8125,35.375,36.5
0.2640526,0.5860695,1.2707398,-1.2933495,0.027045868,0.095779486,-0.15622643,-0.40523037,-0.36372828,0.06006613,3.07715,-0.62679964,-0.0003505248,-0.12142565,0.038173903,0.000804849,-0.009117267,0.0033336382,-0.013910998,0.48161155,-1.3639882,1.882325,-2.0886261,-1.5699033,2.457979,-0.1750509,0.13746397,-0.17286268,0.028331209,0.00637938,-0.16105916,-0.3256114,-0.28730422,-9.174581,0.8291774,47.657326,-1.2376684,-2.195837,-3.3075676,-0.027060965,0.072656766,-0.33697388,28.75,30.125,29.25,32.8125,35.375,36.5
0.26605186,0.024184415,0.19107713,-1.5397451,0.010611302,0.09074657,-0.15223427,-0.4054607,-0.36364478,0.060081363,3.0771496,-0.62685436,-0.00036103732,-0.12228818,0.03815102,0.0014185575,-0.009098962,0.0036344228,-0.013823366,0.48127604,-1.3637477,1.8819779,-2.088518,-1.5699157,2.4576778,-0.17558104,0.13813518,-0.1754699,0.030010434,0.0062248814,-0.16167597,-0.4213795,-0.21068975,-9.270349,0.8672237,47.64121,-1.3369899,-2.11881,-3.1730099,-0.037401248,0.0849369,-0.36278594,28.75,30.125,29.25,32.8125,35.375,36.5
0.2680518,0.23279262,-0.49728096,-1.5553856,-0.021384614,0.12305478,-0.15581317,-0.4057004,-0.36357057,0.060071178,3.07717,-0.6268345,-0.0003284011,-0.122546986,0.038017556,0.0011539438,-0.008554211,0.0024293829,-0.007952487,0.4809401,-1.3634347,1.8816069,-2.0884335,-1.5699152,2.4573271,-0.17553204,0.13991317,-0.17736775,0.031457447,0.0063022794,-0.16749728,-0.49799395,-0.11492168,-9.3661175,0.90527004,47.64837,-1.4421139,-2.169604,-3.112719,-0.039211735,0.097830296,-0.34761375,28.75,30.125,29.25,32.8125,35.375,36.5
0.270052,-0.775806,-0.7383668,-1.8040344,-0.04205265,0.12969655,-0.15637751,-0.4059155,-0.36348602,0.060059145,3.0771677,-0.62681216,-0.00022056553,-0.12353533,0.038639043,0.0013589457,-0.008585776,0.001988427,-0.0026107882,0.4805794,-1.3631703,1.8812956,-2.0883372,-1.569867,2.4569528,-0.17748924,0.14064068,-0.17904262,0.0327972,0.006533946,-0.17479606,-0.38307226,0.05746084,-9.461885,0.95226496,47.661808,-1.4289126,-2.1967955,-3.273957,-0.054655846,0.07661864,-0.31079206,28.75,30.125,29.25,32.8125,35.375,36.5
0.2720519,-1.0206288,-1.5042286,-2.3603332,-0.04675563,0.12625515,-0.15510705,-0.40616703,-0.3634051,0.060063113,3.077202,-0.626738,-0.00021569763,-0.12402092,0.0404749,-4.6081168e-05,-0.0064428654,-0.0012533048,0.004414688,0.48023048,-1.3628691,1.8809012,-2.0882294,-1.5698799,2.4565535,-0.18064766,0.14283274,-0.178861,0.034298927,0.0061432812,-0.18497974,-0.17238252,0.22984336,-9.730036,0.83365434,47.655537,-1.397198,-2.178766,-3.2853992,-0.07521824,0.10063372,-0.19102627,28.75,30.125,29.25,32.8125,35.375,36.5
0.27405208,-0.70365846,-1.5259488,-2.4029138,-0.08128274,0.11891721,-0.16216683,-0.40642858,-0.36329728,0.060051933,3.0771577,-0.6268611,-0.00016126581,-0.12509821,0.04164869,-9.59795e-05,-0.0057350285,-0.0022890419,0.007575254,0.4797977,-1.3625807,1.880567,-2.0881684,-1.5698436,2.4562032,-0.1833546,0.14379294,-0.18034078,0.036079347,0.0059973598,-0.19084677,-0.2681506,0.3256114,-9.844957,0.85826975,47.67345,-1.3086245,-2.140153,-3.2806497,-0.09976744,0.12065922,-0.08677613,28.75,30.125,29.25,32.8125,35.375,36.5
0.27605215,-0.28189427,-2.1423268,-2.3729644,-0.09641966,0.116618335,-0.15769614,-0.40665886,-0.36323175,0.060044162,3.0771725,-0.6268264,-0.00014431446,-0.12529694,0.041634995,-0.00027329888,-0.0059342533,-0.0027619323,0.006354968,0.47948536,-1.36228,1.8802079,-2.0880964,-1.5698432,2.4558675,-0.18364617,0.14455794,-0.18092974,0.036230817,0.0063881497,-0.18991815,-0.4405331,0.38307226,-9.864111,0.80456203,47.687782,-1.3041376,-2.3124273,-3.3760903,-0.11581284,0.113380134,-0.052183673,28.75,30.125,29.25,32.8125,35.375,36.5
0.27805263,-0.08669494,-1.5053389,-2.604296,-0.112858705,0.11427821,-0.1647618,-0.4069164,-0.36312097,0.06003304,3.0771985,-0.6269137,-0.00012122356,-0.12674476,0.04278608,-0.002070564,-0.0044560377,-0.004441069,-0.002966918,0.47908875,-1.361978,1.8798493,-2.088001,-1.5698675,2.4555223,-0.18639366,0.14889237,-0.18179531,0.034927856,0.005832887,-0.18334262,-0.40222588,0.38307226,-9.940725,0.86498255,47.675243,-1.2022388,-2.4646373,-3.4080906,-0.12241322,0.10428967,-0.09262101,28.75,30.125,29.25,32.8125,35.375,36.5
0.28005248,-0.21722586,-1.693601,-2.510008,-0.113444366,0.11184389,-0.16928066,-0.40719655,-0.3630465,0.060061842,3.0771015,-0.6269576,-0.00022792439,-0.12803863,0.043286998,-0.0019409814,-0.0045880117,-0.003939992,-0.01273544,0.4787039,-1.3617258,1.8794788,-2.0879896,-1.5698436,2.4551773,-0.18817648,0.14996575,-0.18342145,0.034975123,0.0057273116,-0.17535557,-0.24899697,0.4213795,-10.036493,0.8627467,47.666286,-1.141975,-2.3317118,-3.4367201,-0.13295737,0.11087112,-0.18508779,28.75,30.125,29.25,32.8125,35.375,36.5
0.28205255,-0.67092717,-2.0691233,-2.460185,-0.0930331,0.10012107,-0.14579776,-0.40745363,-0.36296427,0.06006568,3.0770824,-0.6269568,-0.000173607,-0.12840131,0.044793528,-0.0035652353,-0.0029231135,-0.007703459,-0.020298885,0.47831887,-1.3614244,1.879084,-2.0878808,-1.5698074,2.4547944,-0.19105558,0.15274452,-0.18341136,0.03629713,0.005977227,-0.1706712,-0.2873042,0.36391866,-9.959879,0.8537928,47.660015,-1.0675384,-2.4622264,-3.547721,-0.14171268,0.13429292,-0.2591868,28.75,30.125,29.25,32.8125,35.375,36.5
0.28405243,-0.84015805,-1.3601428,-2.3611715,-0.08004414,0.089798175,-0.15514785,-0.40770084,-0.3628581,0.060039304,3.077055,-0.62710905,-0.000105089544,-0.13009627,0.045212027,-0.0033424678,-0.0038152453,-0.007466289,-0.02834483,0.47790986,-1.3611233,1.8787717,-2.0878332,-1.5697831,2.454484,-0.19353168,0.15428732,-0.18587987,0.036600895,0.0066423356,-0.16510093,-0.40222588,0.30645782,-9.998186,0.84708,47.67614,-0.9552915,-2.5547853,-3.4639096,-0.15475203,0.11599617,-0.36633912,28.75,30.125,29.25,32.8125,35.375,36.5
0.28605264,-0.3937073,-0.8141513,-2.239398,-0.06090372,0.10157361,-0.16191581,-0.4079892,-0.36277756,0.06005303,3.0770187,-0.6271984,-0.00019691259,-0.13102914,0.045756783,-0.0043244404,-0.0034124968,-0.010095735,-0.03260298,0.4775374,-1.36081,1.8783535,-2.0877845,-1.5698065,2.4541721,-0.1956556,0.15762816,-0.18799995,0.03789419,0.0074970275,-0.16296569,-0.36391866,0.2681506,-9.787497,0.8784135,47.670765,-0.9965819,-2.6613326,-3.5899096,-0.16304046,0.12468731,-0.45341837,28.75,30.125,29.25,32.8125,35.375,36.5
0.28805175,-0.28787974,-0.8789789,-2.0133598,-0.03483047,0.10564582,-0.15686525,-0.40823528,-0.36270413,0.060062494,3.0769768,-0.6272261,-0.00017581595,-0.13062112,0.045370936,-0.0033037933,-0.0047637494,-0.008835085,-0.028864818,0.47717774,-1.3605356,1.8779835,-2.0877006,-1.5697707,2.4538352,-0.19491959,0.155268,-0.18756443,0.03808772,0.008121738,-0.16596873,-0.22984336,0.15322891,-9.653421,0.8784135,47.668976,-1.1428386,-2.4107115,-3.4622686,-0.18159215,0.11563942,-0.47985977,28.75,30.125,29.25,32.8125,35.375,36.5
0.29005176,-0.06725756,0.19999711,-1.5611641,-0.042864755,0.11279134,-0.1737596,-0.4085002,-0.36261567,0.06004823,3.0769298,-0.62730646,-0.00011292833,-0.13300012,0.045282684,-0.0028064027,-0.0062360037,-0.0062559946,-0.019406049,0.4767691,-1.3602111,1.877613,-2.087642,-1.5697225,2.4534829,-0.19679236,0.15711881,-0.19055192,0.036279883,0.008241352,-0.17729908,-0.095768064,0.019153614,-9.481039,0.9388393,47.652847,-1.0298653,-2.433591,-3.6498995,-0.15782435,0.101640195,-0.40068364,28.75,30.125,29.25,32.8125,35.375,36.5
0.29205218,0.03526046,-0.083023116,-1.3933709,-0.021524834,0.10030854,-0.16936618,-0.4087887,-0.3625436,0.060063623,3.0768917,-0.62727123,-0.00019827098,-0.13362573,0.04542313,-0.0033425156,-0.005473545,-0.0070727034,-0.006010479,0.47639713,-1.3598984,1.8771943,-2.0876057,-1.5697225,2.453094,-0.19726889,0.1593845,-0.19221377,0.036769934,0.007960811,-0.19116966,-0.1340753,-0.076614454,-9.404425,0.90527004,47.65106,-1.0509199,-2.4457793,-3.6106472,-0.17021316,0.11328231,-0.28988612,28.75,30.125,29.25,32.8125,35.375,36.5
0.29405227,-0.30771464,0.021991855,-0.9604214,-0.009309078,0.085669145,-0.16164455,-0.40905687,-0.36244106,0.060042582,3.0768964,-0.62726706,-0.00013073468,-0.13389148,0.044196863,-0.0021887443,-0.0066839843,-0.006221298,0.003270521,0.47597748,-1.3595629,1.8768224,-2.0875332,-1.5696987,2.4526713,-0.19573563,0.15946163,-0.19537874,0.038560037,0.008642652,-0.19891712,-0.34476504,-0.019153614,-9.212888,0.842603,47.68062,-1.1742256,-2.523473,-3.4553926,-0.1930612,0.11136988,-0.18162182,28.75,30.125,29.25,32.8125,35.375,36.5
0.29605228,0.2716338,1.1599143,-1.0536484,-0.0064685666,0.09758915,-0.17457168,-0.4093438,-0.36237416,0.060052782,3.0768313,-0.6272527,-0.00016883704,-0.13488625,0.043195024,-0.0006917073,-0.007682971,-0.0032382272,0.0056226193,0.4755939,-1.3592393,1.8764023,-2.087497,-1.5696625,2.4522872,-0.19449733,0.1591619,-0.19854513,0.03893043,0.008170979,-0.20002924,-0.34476507,-0.2681506,-9.174581,0.8247004,47.67614,-1.3164773,-2.3570259,-3.2959657,-0.18519336,0.10343002,-0.14442338,28.75,30.125,29.25,32.8125,35.375,36.5
0.29805243,0.073075175,1.01449,-1.2394104,0.035813164,0.08200551,-0.15306897,-0.4096197,-0.3622877,0.060080476,3.0768085,-0.6272521,-0.00021223704,-0.13647181,0.043582626,-0.00016529708,-0.008046715,-0.002111395,-0.0022396506,0.47520965,-1.3589633,1.8759831,-2.0873892,-1.5696625,2.4519057,-0.19627297,0.160052,-0.20091893,0.039243173,0.007975322,-0.19394135,-0.28730422,-0.21068975,-9.193734,0.9545008,47.691364,-1.5046997,-2.3049135,-3.2907104,-0.21288535,0.10847603,-0.19129139,28.75,30.125,29.25,32.8125,35.375,36.5
0.30005303,0.309186,1.1232048,-1.2012584,0.027648937,0.079513356,-0.16816835,-0.40988994,-0.36218646,0.0600579,3.0768237,-0.6272585,-0.00021081809,-0.13707039,0.04318737,0.000843688,-0.009108124,-0.0009825208,-0.009153678,0.47481334,-1.3586277,1.8756226,-2.087353,-1.5696748,2.4515116,-0.19625662,0.15956989,-0.20289554,0.040204633,0.008392502,-0.18701078,-0.3256114,-0.15322891,-9.174581,0.8717007,47.66987,-1.4598998,-2.2230153,-3.2342014,-0.22390416,0.1032588,-0.24717465,28.75,30.125,29.25,32.8125,35.375,36.5
0.3020522,0.12621792,0.22748768,-1.1774087,0.0111099025,0.07572332,-0.1688243,-0.4101681,-0.36210954,0.0600878,3.076769,-0.6273254,-0.00022781418,-0.13822773,0.04461293,0.0003888504,-0.0077848784,-0.0021368158,-0.015276323,0.4744287,-1.3583391,1.8751806,-2.0872328,-1.5696505,2.451176,-0.19911799,0.16111785,-0.20404838,0.041447584,0.00774709,-0.18374848,-0.2681506,-0.038307227,-9.193734,0.86945957,47.675243,-1.3485402,-2.3105006,-3.2136183,-0.2481493,0.11235214,-0.32390058,28.75,30.125,29.25,32.8125,35.375,36.5
0.30405197,0.4721836,-0.36125693,-1.4667813,-0.012065209,0.08528444,-0.16045897,-0.4104107,-0.36200675,0.06005101,3.0768025,-0.6273712,-8.6816275e-05,-0.13832672,0.045346882,-0.0001279521,-0.006028458,-0.0036862423,-0.016322218,0.47403234,-1.3579912,1.8748211,-2.0871246,-1.5696272,2.450804,-0.19978154,0.16234678,-0.2047954,0.04315633,0.006876484,-0.1833662,-0.21068975,0.038307227,-9.155427,0.8940802,47.68062,-1.3632969,-2.2970552,-3.353026,-0.27009845,0.12383871,-0.37439597,28.75,30.125,29.25,32.8125,35.375,36.5
0.3060521,-0.06512665,-1.0671196,-1.7068641,-0.041001584,0.0856676,-0.16244076,-0.41069332,-0.36192274,0.06007242,3.0767806,-0.6273674,-0.00013071306,-0.13939168,0.046131633,0.00065058493,-0.005839035,-0.0023646904,-0.016365845,0.47364762,-1.3576918,1.8743905,-2.0870287,-1.5696276,2.45042,-0.20141271,0.1616442,-0.20593062,0.043911807,0.0061122216,-0.184953,-0.11492168,0.17238252,-9.289503,0.90750587,47.677036,-1.2300913,-2.0014799,-3.308086,-0.2922238,0.14882408,-0.40621036,28.75,30.125,29.25,32.8125,35.375,36.5
0.30805206,0.05680477,-1.4331962,-1.6711543,-0.058521982,0.09014508,-0.17777036,-0.41098702,-0.36179,0.06007044,3.0767748,-0.6275147,-0.000112026195,-0.14070866,0.047103263,0.0006972699,-0.0060602473,-0.0024035007,-0.009843565,0.4731788,-1.3573799,1.8739952,-2.0869205,-1.5696391,2.450044,-0.20416531,0.16241893,-0.20708904,0.044239663,0.006329791,-0.19422774,-0.1340753,0.19153613,-9.461885,0.8806493,47.698532,-1.2412212,-2.029337,-3.350265,-0.32033044,0.15339492,-0.35371217,28.75,30.125,29.25,32.8125,35.375,36.5
0.3100521,-0.82123065,-1.5571907,-1.8076177,-0.087956846,0.08926427,-0.16864087,-0.4112668,-0.3616987,0.060073324,3.0767508,-0.627543,-8.6462176e-05,-0.14162974,0.048361037,0.00021575367,-0.006107079,-0.0040838793,-0.0016959425,0.47277004,-1.3570557,1.8735765,-2.0868242,-1.5696152,2.449656,-0.20742647,0.16352804,-0.20757702,0.045110617,0.007148619,-0.20563677,-0.1340753,0.21068975,-9.423578,0.90750587,47.67345,-1.2164619,-2.058672,-3.3699331,-0.35393238,0.15366045,-0.19974911,28.75,30.125,29.25,32.8125,35.375,36.5
0.31205213,-1.0934768,-1.5122833,-2.137955,-0.082170464,0.08605522,-0.17719682,-0.4115577,-0.36160874,0.060073704,3.0767531,-0.62748337,-7.3472715e-05,-0.14248103,0.049106568,-0.0022039113,-0.004591986,-0.0069018314,0.0024920858,0.47236124,-1.3567063,1.8731335,-2.0867298,-1.5696028,2.44921,-0.20922591,0.16876979,-0.20811681,0.043620184,0.007082166,-0.21162324,-0.1340753,0.2681506,-9.5385,0.8873621,47.655537,-1.0970325,-2.1143599,-3.414166,-0.37917197,0.15184279,-0.120811954,28.75,30.125,29.25,32.8125,35.375,36.5
0.31405222,-0.71582776,-1.2704153,-2.1139185,-0.0711908,0.09141518,-0.17211683,-0.41184074,-0.36151153,0.060082905,3.07674,-0.62744504,-5.317174e-05,-0.14537871,0.04914946,-0.0009361072,-0.0074860393,-0.0018058586,-0.0014639659,0.47194034,-1.3563948,1.8727134,-2.0866234,-1.569579,2.448767,-0.21179532,0.1687042,-0.21009742,0.039817464,0.0073272544,-0.21023592,-0.1340753,0.24899697,-9.615114,0.84708,47.675243,-1.0441921,-2.0362914,-3.42796,-0.3525288,0.15873536,-0.08027264,28.75,30.125,29.25,32.8125,35.375,36.5
0.3160523,-1.077364,-1.1481357,-2.0616686,-0.06846528,0.08521896,-0.15969577,-0.41215086,-0.36141482,0.06008401,3.076712,-0.6274831,-0.000121270845,-0.14716937,0.05031252,-0.0017704191,-0.008036127,-0.0026928475,-0.012909384,0.4715191,-1.3560462,1.8722829,-2.0865872,-1.5695909,2.4483733,-0.21566923,0.17127794,-0.21113071,0.038806085,0.008218199,-0.20266378,-0.34476507,0.28730422,-9.519346,0.85826975,47.709274,-0.9853574,-2.2416725,-3.5627513,-0.35191822,0.15911643,-0.16050291,28.75,30.125,29.25,32.8125,35.375,36.5
0.3180523,-0.6167631,-0.82845604,-2.0526652,-0.06677426,0.08786029,-0.16656253,-0.41246647,-0.36131588,0.060101368,3.0766714,-0.6275185,-0.00015226583,-0.14827761,0.050013132,-0.0022131647,-0.009744688,-0.0024421974,-0.023024682,0.4710747,-1.3557097,1.8718165,-2.0864928,-1.569578,2.4479563,-0.21681134,0.17341104,-0.21230187,0.036836155,0.009617892,-0.19369015,-0.47884035,0.3256114,-9.5385,0.9298854,47.67614,-0.926558,-2.2538095,-3.5881193,-0.32622638,0.16664281,-0.29054382,28.75,30.125,29.25,32.8125,35.375,36.5
0.32005212,-0.64869,-0.82083607,-1.9945235,-0.060758844,0.107095666,-0.1712088,-0.41273522,-0.3612209,0.060078744,3.0766447,-0.6275723,-6.167357e-05,-0.14802243,0.04838737,-0.0020285363,-0.0094928015,-0.0013574015,-0.0263314,0.47065613,-1.3553613,1.8714317,-2.0864203,-1.5695304,2.4475749,-0.21328264,0.1748871,-0.21453658,0.03674998,0.008883288,-0.18685386,-0.47884035,0.22984336,-9.615114,0.83813137,47.66091,-1.0902138,-2.3941944,-3.4665618,-0.3257945,0.14440969,-0.3616708,28.75,30.125,29.25,32.8125,35.375,36.5
0.3220521,-1.2157085,-1.154069,-1.8598241,-0.051023073,0.113768764,-0.16024168,-0.41300303,-0.36113483,0.060066696,3.0766177,-0.62760425,-1.0629537e-05,-0.14831996,0.047377393,-0.0022139829,-0.00945887,-1.23790805e-05,-0.02787593,0.4702609,-1.3550254,1.8710378,-2.0863492,-1.5694946,2.4472032,-0.21131136,0.17662662,-0.21592124,0.03521984,0.008232098,-0.18333715,-0.47884035,0.19153613,-9.595961,0.8717007,47.647476,-1.2362788,-2.3295784,-3.5456698,-0.32066864,0.17696667,-0.48518553,28.75,30.125,29.25,32.8125,35.375,36.5
0.3240523,-1.3637482,-1.2311506,-1.7365493,-0.054736905,0.13616943,-0.16699925,-0.41331366,-0.36102998,0.06006,3.0765526,-0.62778175,-3.7168913e-06,-0.15066655,0.045952495,-0.00047599367,-0.012917596,0.004635209,-0.025522696,0.46980476,-1.3546652,1.8706053,-2.0862906,-1.5694703,2.4468663,-0.21136442,0.17718491,-0.22012593,0.033164326,0.009204884,-0.18574226,-0.38307226,0.1340753,-9.481039,0.9254084,47.675243,-1.3879298,-2.326354,-3.5377429,-0.28770077,0.16588414,-0.5159354,28.75,30.125,29.25,32.8125,35.375,36.5
0.32605198,-0.8831236,-0.6390299,-1.438579,-0.07144387,0.15318775,-0.17448892,-0.41363886,-0.3609535,0.06009346,3.0764747,-0.62773955,-0.0001103087,-0.15166254,0.04570992,-0.0006372656,-0.0132815465,0.005565058,-0.013750873,0.46938434,-1.3543406,1.8701271,-2.0862424,-1.5694464,2.4464297,-0.21160194,0.17897795,-0.22170554,0.031981505,0.009139922,-0.1977499,-0.30645782,0.21068975,-9.346964,0.9612189,47.657326,-1.3703682,-2.4445632,-3.4472303,-0.25684386,0.1693384,-0.4436226,28.75,30.125,29.25,32.8125,35.375,36.5
0.32805204,-0.3029352,-0.929932,-1.5328919,-0.04704774,0.13082594,-0.1693028,-0.41392896,-0.36084872,0.06005466,3.0765169,-0.62770057,-0.00010425918,-0.15256512,0.046688415,-0.0011719766,-0.012518106,0.0048768194,-0.0019309006,0.46897614,-1.3539445,1.8697318,-2.0862186,-1.5694708,2.445992,-0.21364248,0.18045093,-0.22237863,0.032158893,0.0087838145,-0.21161021,-0.1340753,0.1340753,-9.404425,0.9097417,47.685097,-1.3357209,-2.407532,-3.4388459,-0.24877983,0.17034243,-0.3141585,28.75,30.125,29.25,32.8125,35.375,36.5
0.33005205,0.747341,-0.48065487,-1.3944255,-0.049303576,0.12216705,-0.17209238,-0.41426,-0.36076322,0.060082864,3.0764413,-0.6277207,-0.0002118609,-0.15448958,0.047020014,2.0511377e-05,-0.013792646,0.007857341,0.004616856,0.46854356,-1.3536092,1.8692526,-2.0861714,-1.5694588,2.445582,-0.21555322,0.1800531,-0.22449528,0.031456746,0.008603651,-0.22006729,-0.4213795,0.17238252,-9.385271,0.800085,47.666286,-1.449286,-2.3045275,-3.4981709,-0.2131343,0.1696232,-0.16509634,28.75,30.125,29.25,32.8125,35.375,36.5
0.332052,0.76307493,-0.5007684,-1.534885,-0.03217498,0.101254664,-0.16695228,-0.41456506,-0.3606616,0.06008553,3.0764444,-0.6276446,-0.00017393651,-0.1556828,0.047608748,-0.00018806524,-0.013754404,0.008453744,0.002907374,0.46809897,-1.3532492,1.8687848,-2.0860517,-1.5694345,2.4450896,-0.21720394,0.18133819,-0.22544208,0.030613916,0.008299504,-0.22000813,-0.49799395,0.15322891,-9.32781,0.9388393,47.661808,-1.4207716,-2.187366,-3.6578321,-0.18282813,0.17861784,-0.13751374,28.75,30.125,29.25,32.8125,35.375,36.5
0.33405188,0.64922404,0.209735,-1.4844878,-0.029851453,0.080827005,-0.17660673,-0.41488528,-0.36056435,0.060077794,3.0764065,-0.6277376,-0.00027134296,-0.15810649,0.04721672,0.0012754181,-0.0150310565,0.011840847,-0.0054843887,0.46767867,-1.3528774,1.8683532,-2.0860517,-1.5694588,2.4447324,-0.21820459,0.18230337,-0.22997724,0.030575186,0.007911717,-0.21261486,-0.30645782,0.076614454,-9.385271,0.87617236,47.682407,-1.35543,-2.2481785,-3.4991374,-0.17814021,0.20134108,-0.22959134,28.75,30.125,29.25,32.8125,35.375,36.5
0.33605197,0.4549832,-0.32396972,-1.4764283,-0.013624304,0.08170276,-0.16790016,-0.4152158,-0.36049265,0.060095094,3.076307,-0.6277213,-0.0002877913,-0.15983643,0.047663976,0.0007460301,-0.014652407,0.011474,-0.014875251,0.46723416,-1.3525041,1.8678497,-2.0859916,-1.5693868,2.4442906,-0.2201385,0.1856356,-0.2328811,0.030654365,0.0077454145,-0.205156,-0.2681506,0.038307227,-9.3661175,0.94331104,47.681515,-1.3592356,-2.2883954,-3.3485022,-0.14884892,0.18661317,-0.3035522,28.75,30.125,29.25,32.8125,35.375,36.5
0.33805206,-0.41629848,-0.3985929,-1.5025293,-0.021022424,0.087575294,-0.15802489,-0.41551924,-0.36037073,0.060071483,3.0762951,-0.62787604,-0.00021639325,-0.1611464,0.048958506,0.00093191117,-0.015539619,0.01048489,-0.021866636,0.46676493,-1.3521208,1.8674182,-2.0858953,-1.569374,2.4439197,-0.22399218,0.18592757,-0.2340223,0.031985264,0.008977438,-0.20201868,-0.45968673,0.095768064,-9.270349,0.8537928,47.704796,-1.241972,-2.1311007,-3.2925715,-0.13334209,0.17306614,-0.36863297,28.75,30.125,29.25,32.8125,35.375,36.5
0.34005213,-0.44929937,-0.094551794,-1.673324,-0.021884711,0.11024968,-0.16624254,-0.4158401,-0.36028877,0.06008776,3.0762239,-0.62784344,-0.00021559677,-0.16253205,0.05074608,0.0013122458,-0.015785621,0.009713216,-0.024561474,0.4663194,-1.351761,1.8669275,-2.085811,-1.5693139,2.443463,-0.22832863,0.18557414,-0.23493837,0.03385004,0.009565273,-0.20365997,-0.4405331,0.05746084,-9.346964,0.9410752,47.686886,-1.0644716,-2.1366386,-3.3153477,-0.12093446,0.19593331,-0.39983565,28.75,30.125,29.25,32.8125,35.375,36.5
0.34205252,-0.37761724,0.038421053,-1.8829876,-0.024365451,0.12814648,-0.17251402,-0.41618687,-0.36018407,0.06010361,3.076155,-0.62791955,-0.00031851744,-0.16377783,0.051594928,0.0010163488,-0.014808182,0.008294746,-0.016716879,0.46585086,-1.3514007,1.8664478,-2.0857747,-1.5693139,2.443051,-0.23048861,0.187968,-0.23769577,0.035939936,0.009366291,-0.2136627,-0.2681506,0.038307227,-9.423578,0.9186956,47.67345,-0.9054228,-2.2196662,-3.3789742,-0.13345546,0.19319259,-0.35204816,28.75,30.125,29.25,32.8125,35.375,36.5
0.3440526,-0.7426011,-0.26750246,-1.7399484,-0.030248947,0.12173458,-0.1655066,-0.416492,-0.36007252,0.060094383,3.0761642,-0.6278772,-0.00031721935,-0.16376303,0.051734917,0.0004395704,-0.014296195,0.006344534,-0.006036971,0.46540645,-1.3510405,1.8660167,-2.0857022,-1.5693139,2.4425793,-0.23080574,0.18965024,-0.2388076,0.037360806,0.009806137,-0.22465937,-0.22984336,0.0,-9.481039,0.90750587,47.667187,-0.95219374,-2.249618,-3.3777514,-0.12842067,0.18117628,-0.22370099,28.75,30.125,29.25,32.8125,35.375,36.5
0.34605175,-0.60575557,-0.45267484,-1.3292127,-0.049622085,0.12807006,-0.1693952,-0.4168079,-0.3599779,0.060099166,3.076164,-0.6278346,-0.00030502843,-0.1637124,0.05179365,0.0006139123,-0.013851709,0.0065961615,-0.0004148681,0.46497455,-1.3506567,1.8655146,-2.0855825,-1.5693024,2.442121,-0.23038124,0.18949376,-0.23920241,0.037902962,0.00930855,-0.22985704,-0.40222588,0.114921674,-9.442732,0.83589023,47.677036,-1.0931326,-2.1498,-3.3966954,-0.12255967,0.19323559,-0.10929479,28.75,30.125,29.25,32.8125,35.375,36.5
0.34805167,-0.8009016,-0.7619496,-1.7013289,-0.024382483,0.11441384,-0.15779996,-0.41716525,-0.3598802,0.060124725,3.0760696,-0.62787426,-0.0004124573,-0.16372551,0.051104654,0.00062984624,-0.013378489,0.0067841895,-0.0013964552,0.46449545,-1.3502964,1.8650125,-2.0855463,-1.5692786,2.441679,-0.22874741,0.1907654,-0.24095951,0.03844043,0.008824697,-0.22724009,-0.5554548,0.22984336,-9.32781,0.8873621,47.66987,-1.3075691,-2.2453663,-3.51151,-0.09705092,0.20516647,-0.09853061,28.75,30.125,29.25,32.8125,35.375,36.5
0.35005173,-0.0024803225,-0.6088519,-1.9248716,-0.01553588,0.10062931,-0.16006477,-0.41746068,-0.35977066,0.060075082,3.0761113,-0.6279261,-0.00030841984,-0.16436419,0.0512646,0.00043309943,-0.01341632,0.0057137837,-0.011903628,0.46406317,-1.3498524,1.8645686,-2.0854619,-1.5692781,2.441274,-0.22967973,0.19241977,-0.24286334,0.03961826,0.009308633,-0.21766528,-0.24899697,0.15322891,-9.481039,0.8291774,47.65464,-1.269393,-2.1320703,-3.550596,-0.10408625,0.20747101,-0.17214972,28.75,30.125,29.25,32.8125,35.375,36.5
0.3520525,-0.29610655,-0.5259542,-1.3659639,-0.045137674,0.08184467,-0.15894388,-0.41779023,-0.35964927,0.0600746,3.0761025,-0.628006,-0.0002932776,-0.16476972,0.0516074,2.6837342e-05,-0.013024175,0.0052575935,-0.02185506,0.46358308,-1.3494687,1.8640779,-2.0853422,-1.5692781,2.440845,-0.23031092,0.19361086,-0.24344468,0.039583307,0.0091499165,-0.2083449,-0.34476507,0.076614454,-9.346964,0.85826975,47.661808,-1.3003619,-2.152893,-3.5068738,-0.08923432,0.20399353,-0.28711933,28.75,30.125,29.25,32.8125,35.375,36.5
0.3540526,0.40315396,-0.7038813,-1.5516819,-0.043263406,0.091718584,-0.15594095,-0.41813162,-0.35956243,0.06010087,3.075982,-0.62806123,-0.00035492732,-0.16491379,0.05110617,-0.0003812506,-0.012166914,0.0052190754,-0.026978236,0.46311504,-1.3491201,1.8635858,-2.085295,-1.5692185,2.440427,-0.22895253,0.19559076,-0.24497242,0.03955822,0.008411946,-0.20186184,-0.47884035,0.038307227,-9.251195,0.9455522,47.65912,-1.3105575,-2.3140485,-3.5675783,-0.0644076,0.24315843,-0.40579054,28.75,30.125,29.25,32.8125,35.375,36.5
0.35605168,0.42723703,-0.9717922,-1.8100795,-0.025460968,0.092928424,-0.16348755,-0.41845965,-0.35945532,0.060085803,3.0760064,-0.6280861,-0.00038852144,-0.16701713,0.051473763,0.00047361176,-0.012945118,0.0066235913,-0.031203818,0.46268278,-1.3487003,1.8630947,-2.085222,-1.5692548,2.4400074,-0.23118825,0.19675991,-0.24859045,0.040396217,0.008476457,-0.1998708,-0.17238252,0.15322891,-9.346964,0.8627467,47.694054,-1.3460928,-2.2397676,-3.4252887,-0.06613233,0.23781851,-0.50248945,28.75,30.125,29.25,32.8125,35.375,36.5
0.3580527,0.54528487,-0.7754349,-1.5411718,-0.031735435,0.097949855,-0.15886173,-0.4188075,-0.35935545,0.060093056,3.0759404,-0.6281248,-0.00040893754,-0.16774157,0.05232696,-0.0014369026,-0.01158641,0.0026696026,-0.024934633,0.46220222,-1.3483026,1.8625802,-2.08515,-1.569218,2.4395597,-0.23336889,0.20150034,-0.25034717,0.04158015,0.009049981,-0.20831911,-0.076614454,0.1340753,-9.3661175,0.88289046,47.679718,-1.4061862,-2.3978693,-3.3827162,-0.06362978,0.24489951,-0.4863728,28.75,30.125,29.25,32.8125,35.375,36.5
0.3600526,0.69652,-1.1546706,-1.7230799,-0.027136263,0.093802735,-0.16321002,-0.4191547,-0.35923737,0.060093902,3.0758674,-0.62825584,-0.0003777695,-0.16919334,0.05314753,-0.0013477756,-0.011915121,0.0024824634,-0.013494857,0.46168557,-1.347907,1.8620771,-2.0850542,-1.5691704,2.4391344,-0.23599285,0.20277523,-0.2523424,0.0423575,0.009453216,-0.2223821,0.019153614,0.28730422,-9.270349,0.9388393,47.664497,-1.313278,-2.324333,-3.4301991,-0.04912789,0.23706624,-0.38161105,28.75,30.125,29.25,32.8125,35.375,36.5
0.36205244,0.41322625,-0.6378283,-1.630578,-0.05346451,0.07817672,-0.1691407,-0.41948864,-0.35912445,0.06008582,3.07591,-0.6282221,-0.00039827017,-0.17129706,0.0541745,-0.0004911624,-0.01283234,0.0045439573,-0.005705796,0.4612395,-1.3474872,1.8615621,-2.0849469,-1.5692061,2.438662,-0.23922344,0.2026792,-0.25417238,0.04204328,0.00937001,-0.23340146,-0.019153614,0.24899697,-9.346964,0.8940802,47.653748,-1.1042656,-2.378223,-3.3557942,-0.025997518,0.25295365,-0.19918993,28.75,30.125,29.25,32.8125,35.375,36.5
0.3640525,-0.021522533,-1.3606507,-1.7384174,-0.04906612,0.06763162,-0.16433533,-0.41983047,-0.35901648,0.060087495,3.0758545,-0.6282499,-0.00043510305,-0.17285894,0.05446719,-3.2453656e-05,-0.013294622,0.0049326643,-0.006421582,0.46075946,-1.3471031,1.8610815,-2.0848982,-1.5691823,2.4382067,-0.24096704,0.20413151,-0.25729924,0.04317513,0.009624491,-0.23442777,-0.17238252,0.21068975,-9.32781,0.9634547,47.66271,-0.97365355,-2.3385537,-3.296136,-0.02032816,0.24293323,-0.17823562,28.75,30.125,29.25,32.8125,35.375,36.5
0.36605248,-0.19940798,-1.4188043,-1.748274,-0.053996496,0.066781834,-0.15902537,-0.420161,-0.35891005,0.06007608,3.07586,-0.6282369,-0.00036732818,-0.17373824,0.05503498,0.0005085553,-0.013319027,0.0049106716,-0.01505816,0.46029148,-1.3466715,1.8605536,-2.0847657,-1.569158,2.43773,-0.24245967,0.20429744,-0.2592014,0.044919074,0.009641183,-0.22728375,-0.22984336,0.2681506,-9.3661175,0.800085,47.67793,-1.108571,-2.2972808,-3.1367903,-0.035784192,0.25582877,-0.2346505,28.75,30.125,29.25,32.8125,35.375,36.5
0.3680523,-0.27824357,-1.3070508,-1.6206272,-0.05086118,0.08322576,-0.15274805,-0.42051393,-0.35879987,0.060074024,3.075813,-0.62830806,-0.0003695686,-0.17338535,0.05509737,-0.0012975993,-0.011616461,0.0009572222,-0.020694114,0.4597993,-1.3462507,1.8600286,-2.0846813,-1.5691341,2.4372885,-0.24220079,0.20838502,-0.2604918,0.046420183,0.009870803,-0.22138786,-0.38307226,0.2681506,-9.308657,0.83589023,47.690468,-1.158315,-2.2780156,-3.2515473,-0.053197853,0.25872105,-0.33252263,28.75,30.125,29.25,32.8125,35.375,36.5
0.37005216,-0.51365906,-0.7776072,-1.6332769,-0.06568386,0.103869624,-0.16185835,-0.42086464,-0.35870844,0.060103048,3.075701,-0.62840104,-0.00039952222,-0.17343237,0.055887386,-0.001058076,-0.011956852,-0.0002946275,-0.024096044,0.45931876,-1.3458792,1.8594903,-2.084585,-1.569074,2.4368806,-0.24387775,0.20762442,-0.2605972,0.048269518,0.010750626,-0.2196624,-0.4405331,0.24899697,-9.270349,0.842603,47.67614,-1.117317,-2.190939,-3.3995218,-0.045607604,0.25254115,-0.38741136,28.75,30.125,29.25,32.8125,35.375,36.5
0.37205204,-0.81604564,-0.87629443,-1.4776658,-0.06344751,0.11765694,-0.16229911,-0.42118573,-0.35856628,0.060050804,3.0757546,-0.6285059,-0.0002510182,-0.17267941,0.05657681,-0.0011885371,-0.0111759715,-0.0021648214,-0.020957252,0.4588149,-1.3454119,1.859011,-2.0844524,-1.569074,2.4364355,-0.24427953,0.20684235,-0.2599305,0.050418735,0.010866705,-0.22320485,-0.3256114,0.21068975,-9.270349,0.90527004,47.691364,-1.0723441,-2.164622,-3.5541253,-0.07215307,0.2321513,-0.41181588,28.75,30.125,29.25,32.8125,35.375,36.5
0.37405202,-0.47291914,-1.0264019,-1.4149328,-0.04399869,0.12485026,-0.15836573,-0.42154223,-0.3584574,0.06007823,3.0756972,-0.62850785,-0.0003000336,-0.17306003,0.056888986,-0.0008014348,-0.011562549,-0.0032863815,-0.0125194155,0.45832258,-1.34504,1.8584727,-2.0843441,-1.5690492,2.435952,-0.2454316,0.20708753,-0.26171562,0.05281794,0.011740932,-0.23279369,-0.28730422,0.17238252,-9.3661175,0.947788,47.705692,-1.1569607,-2.115601,-3.5846374,-0.09444548,0.24458921,-0.32518673,28.75,30.125,29.25,32.8125,35.375,36.5
0.37605223,-0.60802454,-0.5182418,-1.3928316,-0.03370715,0.1159498,-0.1587692,-0.42190367,-0.35834625,0.060064543,3.0756667,-0.628572,-0.00030334323,-0.17420527,0.056076072,-0.00020287815,-0.01206655,-0.0023959472,0.00010467077,0.45783064,-1.3445841,1.8579334,-2.0842721,-1.5690373,2.4355042,-0.24485524,0.20903686,-0.2657802,0.053941216,0.01181602,-0.2448399,-0.34476507,0.05746084,-9.289503,0.90750587,47.684196,-1.2384592,-2.187309,-3.5412502,-0.111343116,0.232021,-0.18522643,28.75,30.125,29.25,32.8125,35.375,36.5
0.37805268,-0.08549194,0.47933686,-1.2568231,-0.013216408,0.11988661,-0.16077192,-0.4222449,-0.35824496,0.060054895,3.075635,-0.6285451,-0.00025449626,-0.17436291,0.056886636,-0.0024875475,-0.009648475,-0.0061427066,0.0029091665,0.4573506,-1.3441505,1.8574065,-2.0841758,-1.5689896,2.4350116,-0.2458262,0.21369392,-0.2664625,0.054422133,0.011307272,-0.24861474,-0.45968673,-0.019153614,-9.11712,0.9030289,47.64479,-1.3540418,-2.35655,-3.5033998,-0.12773676,0.2436598,-0.08335477,28.75,30.125,29.25,32.8125,35.375,36.5
