Tylouw/Master_Thesis_Code/training_data/batch_1/rect_rod_t0.2/sample_24_session_1.csv
timestamp[s],tcp_force_x[N],tcp_force_y[N],tcp_force_z[N],tcp_force_rx[Nm?],tcp_force_ry[Nm?],tcp_force_rz[Nm?],tcp_pose_x[m],tcp_pose_y[m],tcp_pose_z[m],tcp_pose_rx[rot_vec_x],tcp_pose_ry[rot_vec_y],tcp_pose_rz[rot_vec_z],tcp_velo_x[m/s],tcp_velo_y[m/s],tcp_velo_z[m/s],tcp_velo_rx[rot_vec_x/s],tcp_velo_ry[rot_vec_y/s],tcp_velo_rz[rot_vec_z/s],q1[rad],q2[rad],q3[rad],q4[rad],q5[rad],q6[rad],qd1[rad/s],qd2[rad/s],qd3[rad/s],qd4[rad/s],qd5[rad/s],qd6[rad/s],tool_acc_x,tool_acc_y,tool_acc_z,current_of_whole_robot[A],voltage_of_whole_robot[V],current_J1[A],current_J2[A],current_J3[A],current_J4[A],current_J5[A],current_J6[A],temp_J1[C],temp_J2[C],temp_J3[C],temp_J4[C],temp_J5[C],temp_J6[C]
6.7100154e-07,-0.5616041,-0.9878582,-0.5400456,-0.02093564,0.019709708,0.0082111,-0.38935217,-0.36871877,0.060033113,-3.0787165,0.6249688,0.00028859804,0.001005999,0.0005476777,-0.0012222012,0.001538767,-0.0030579402,7.622826e-05,0.5050329,-1.3816795,1.9041876,-2.0919158,-1.5708774,2.4800491,-6.723385e-05,0.0009980873,0.0013607277,0.001061351,0.0001383315,-0.00014416559,0.15322891,0.21068975,-8.772355,0.7597976,47.675243,-0.19959244,-3.1058068,-2.4137816,-0.20874977,0.14972006,-0.013147568,28.8125,30.1875,29.25,32.875,35.375,36.4375
0.002054101,-1.0808492,-1.2881868,-0.54301274,-0.015722483,0.011969556,0.014265518,-0.38932514,-0.3687339,0.060014248,-3.0787241,0.6248747,0.00021033484,-0.0013132028,-0.00074297865,-0.0015715089,-0.002228177,0.0037108136,8.468583e-05,0.5050688,-1.3816549,1.9041995,-2.0919073,-1.5708536,2.4800253,-6.5600216e-05,0.0026972997,0.002563591,-0.009587068,0.00013764908,-0.00015008466,0.15322891,0.22984336,-8.619126,0.7777002,47.696735,-0.20748386,-3.067416,-2.3247101,-0.1684849,0.15630758,-0.017346585,28.8125,30.1875,29.25,32.875,35.375,36.4375
0.00405361,-0.6601028,-1.0293694,-0.52418715,-0.017287066,0.023792755,-0.0033253776,-0.38935634,-0.3687068,0.060019366,-3.0786917,0.62498325,0.00024903181,-0.0023004406,-0.0012912018,-0.0010855864,-0.00382473,0.0065918756,8.4205276e-05,0.5050088,-1.381655,1.904188,-2.0919077,-1.5708774,2.4800372,-6.4044216e-05,0.0026330994,0.0021793246,-0.012432446,0.000133788,-0.00014759105,0.095768064,0.22984336,-8.523358,0.8023209,47.689575,-0.19935177,-3.3252392,-2.5813289,-0.035259858,0.13145806,-0.021092776,28.8125,30.1875,29.25,32.875,35.375,36.4375
0.00605443,-0.44876224,-0.40884236,-0.6212669,-0.01384103,0.012460583,0.0020369284,-0.38936266,-0.36870763,0.06001113,-3.0787263,0.6249712,0.0002782083,-0.0007051628,-0.00040353474,-0.0010193199,-0.001181611,0.0018494836,8.2165025e-05,0.5049969,-1.3816553,1.9042228,-2.091977,-1.5708655,2.4800134,-6.2560335e-05,0.0017397116,0.0014945751,-0.005425092,0.00012993987,-0.00014466385,0.05746084,0.21068975,-8.676587,0.7150385,47.683304,-0.24210191,-3.3632445,-2.5892735,-0.07123288,0.15361398,-0.0037577087,28.8125,30.1875,29.25,32.875,35.375,36.4375
0.008053484,-0.47980702,-0.5269842,-1.0911249,0.032302134,-0.020418819,0.007054456,-0.38937154,-0.3687214,0.060034208,-3.078774,0.6249809,0.00030994051,0.0003422355,0.00017979598,-0.0004055228,0.00023513284,-0.0006835024,8.0169804e-05,0.5049969,-1.3816799,1.904199,-2.0919755,-1.5708417,2.4800134,-6.1143495e-05,6.227495e-05,0.00090753473,-0.00025834912,0.00012629351,-0.00014181665,0.019153614,0.19153613,-8.714894,0.76874626,47.707485,-0.15269831,-3.2245488,-2.4913468,-0.102288924,0.15713257,-0.022743765,28.8125,30.1875,29.3125,32.875,35.375,36.4375
0.010054068,-0.29837754,0.15726897,-1.4863454,0.027397033,-0.0152825015,0.007769513,-0.38931414,-0.36868775,0.059976548,-3.0786333,0.6249906,0.00011765023,0.0013791507,0.00076449465,-0.0006563524,0.0020924767,-0.0040173507,6.543667e-05,0.5050088,-1.3816439,1.904271,-2.091902,-1.5708655,2.4800491,-7.2898896e-05,8.3549793e-07,0.0006024101,0.0039245295,0.0001228458,-0.00013918606,0.095768064,0.13407528,-8.963891,0.7396539,47.694946,-0.68209606,-2.7137682,-2.998383,-0.13879189,0.11412352,-0.09005703,28.8125,30.1875,29.3125,32.875,35.375,36.4375
0.012053932,-0.08688265,-0.23753035,-1.3236412,-0.011218105,0.017301548,-0.00691927,-0.38931727,-0.3687197,0.060003243,-3.0787053,0.6248888,0.00015264197,0.0005230808,0.00031222592,6.0780796e-05,0.0011073156,-0.0022011884,0.0028957243,0.50504476,-1.3816559,1.9042219,-2.0918906,-1.5708417,2.4800124,-9.975971e-05,1.1209271e-08,-0.0009008443,0.0033621734,0.00010185805,-0.002995622,0.13407528,0.05746084,-9.174581,0.68146914,47.658226,-0.8125648,-2.6526566,-3.1203942,-0.14856847,0.11189824,-0.13060796,28.8125,30.1875,29.3125,32.875,35.375,36.4375
0.014053777,-1.0747206,-1.6276618,-1.6247118,-0.03111645,0.03223196,-0.0016646582,-0.38933033,-0.36870795,0.059975535,-3.0786781,0.62490183,7.949823e-05,-0.004923372,0.003340309,-0.004332944,0.0043144627,-0.008017977,0.0012114642,0.5050053,-1.3815911,1.9042085,-2.091891,-1.5708297,2.4799845,-0.010293833,0.0134552,-0.006529724,0.0021771162,9.3592775e-05,-0.011500856,0.0,0.038307227,-9.3661175,0.7016076,47.66271,-0.40020597,-3.1698775,-3.052828,-0.098612234,0.112521306,-0.07955728,28.8125,30.1875,29.3125,32.875,35.375,36.4375
0.016054654,-1.5366766,-1.9319714,-1.7119043,-0.058822,0.05370738,-0.017709965,-0.38932276,-0.368692,0.05995569,-3.0786362,0.6248717,2.1366433e-05,-0.005807335,0.0034014238,-0.0037912403,0.0036435092,-0.00680737,0.0067261294,0.504993,-1.3815671,1.90422,-2.0918677,-1.5708417,2.4799588,-0.011222173,0.013321021,-0.007551694,0.0019480846,9.086335e-05,-0.017943442,-0.21068975,0.21068975,-9.385271,0.72622824,47.64389,-0.43413305,-3.2569447,-3.1041849,-0.070004806,0.1077541,-0.020221198,28.8125,30.1875,29.3125,32.875,35.375,36.4375
0.018054519,-1.883827,-2.21815,-1.7551886,-0.054153163,0.07751695,-0.039327692,-0.38931078,-0.36868104,0.05993391,-3.0785816,0.62485796,-5.295113e-05,-0.004943809,0.0036409472,-0.0023884296,0.0037087607,-0.006907893,0.011447062,0.5049932,-1.3815323,1.90422,-2.09183,-1.5708536,2.4799573,-0.010814221,0.009883985,-0.0074712196,0.005423307,8.860286e-05,-0.022257373,-0.34476507,0.2681506,-9.442732,0.7284641,47.658226,-0.66775393,-2.8362834,-3.3087707,-0.0837408,0.097346686,-0.0006209528,28.8125,30.1875,29.3125,32.875,35.375,36.4375
0.020053351,-2.441942,-1.3969716,-2.0079205,-0.029629344,0.066760525,-0.052153405,-0.389311,-0.3686874,0.059937462,-3.0786219,0.6247902,-9.298948e-05,-0.004369231,0.004181657,-0.003153067,0.005732789,-0.01055242,0.010640643,0.50498104,-1.3815317,1.9042081,-2.0918162,-1.5708174,2.4798977,-0.011186365,0.011479197,-0.0084128985,0.008939487,8.647292e-05,-0.021822829,-0.47884035,0.19153613,-9.615114,0.800085,47.70032,-0.820916,-2.70027,-3.451881,-0.13211103,0.076269135,0.009460773,28.8125,30.1875,29.3125,32.875,35.375,36.4375
0.022053866,-1.81858,-0.22191899,-2.114121,-0.013759123,0.079886824,-0.0837443,-0.38931832,-0.36867207,0.05989608,-3.0785444,0.6248163,-0.00019359401,-0.0071298615,0.004346689,-0.002288697,0.004428874,-0.008211737,0.004523258,0.50495607,-1.3814352,1.9041828,-2.0917928,-1.5708297,2.479899,-0.014046674,0.01307369,-0.012140216,0.00839313,8.4444306e-05,-0.01856392,-0.4405331,0.15322891,-9.653421,0.7329411,47.68599,-0.8032261,-2.7084107,-3.3804963,-0.12815914,0.0692889,-0.06334679,28.8125,30.1875,29.3125,32.875,35.375,36.4375
0.024053384,-2.3219047,-1.0490447,-2.1905012,-0.008842558,0.066650115,-0.08923833,-0.3893476,-0.368658,0.059912533,-3.078553,0.6247999,-0.00012646356,-0.008418319,0.0043499744,-0.002957657,0.0044025877,-0.008140964,0.0020701,0.5049199,-1.3814461,1.9041585,-2.0917933,-1.5708536,2.4798515,-0.0152479205,0.015944015,-0.0136937685,0.007001518,6.7213376e-05,-0.017310737,-0.61291564,0.21068975,-9.653421,0.779936,47.687782,-0.8588949,-2.7451663,-3.353267,-0.10802396,0.073988,-0.07153942,28.8125,30.1875,29.3125,32.875,35.375,36.4375
0.026054466,-2.6918197,-1.508232,-2.2185638,-0.018915016,0.07012507,-0.094539426,-0.38935363,-0.36865115,0.05989876,-3.0785353,0.62473875,-0.00020971602,-0.0099646365,0.0045897807,-0.0026288575,0.0038464365,-0.007134051,4.1583764e-05,0.50489527,-1.3813977,1.9041218,-2.0917456,-1.5708417,2.479791,-0.017094474,0.017007621,-0.015638,0.0067321,6.0843155e-05,-0.017127775,-0.7278373,0.11492168,-9.730036,0.69937176,47.672558,-0.7999525,-2.7639556,-3.3865423,-0.080746084,0.06553261,-0.09270524,28.8125,30.1875,29.3125,32.875,35.375,36.4375
0.02805354,-2.3899713,-1.3085545,-2.3177183,-0.0359766,0.1006484,-0.1146067,-0.3893679,-0.3686404,0.059874047,-3.0784879,0.62480664,-0.00024155114,-0.00964441,0.005035037,-0.0034317463,0.0055507296,-0.009878031,-0.0010867121,0.5048712,-1.381337,1.9041089,-2.0917566,-1.5708536,2.4798152,-0.01744433,0.018693957,-0.016303863,0.0089381365,-0.00010043458,-0.016348738,-0.7661445,0.11492168,-9.710882,0.7486078,47.675243,-0.9147135,-2.7975783,-3.3899584,-0.08526652,0.059986457,-0.09467528,28.8125,30.1875,29.3125,32.875,35.375,36.4375
0.030053988,-2.3859391,-1.4421858,-2.2168345,-0.029985711,0.110439494,-0.12600242,-0.3894045,-0.3686313,0.05989032,-3.0785105,0.62486994,-0.0002652541,-0.010164245,0.005166227,-0.0030289195,0.0057431012,-0.010090624,-0.0027076036,0.50479907,-1.381325,1.9040493,-2.0917203,-1.5708174,2.4797797,-0.018109182,0.019007256,-0.017958665,0.0105596995,-0.00016614152,-0.015392027,-0.7086837,0.0,-9.80665,0.7620334,47.666286,-0.89423126,-2.7458553,-3.4049969,-0.092741504,0.045805126,-0.13008443,28.8125,30.1875,29.3125,32.875,35.375,36.4375
0.03205424,-2.142044,-0.61398154,-2.228432,-0.029153934,0.115291156,-0.13972549,-0.3894281,-0.3686344,0.059880383,-3.0785046,0.6249078,-0.00029158118,-0.01099154,0.005491915,-0.0024718924,0.0055990918,-0.009682194,-0.0039764866,0.5047747,-1.381265,1.9040011,-2.0917203,-1.5708054,2.4797797,-0.019384703,0.01892172,-0.019368457,0.011628337,-0.00023865866,-0.015398082,-0.7852981,0.076614454,-9.768343,0.7553206,47.68062,-0.92806506,-2.7083328,-3.4587092,-0.109082535,0.042767487,-0.13956404,28.8125,30.1875,29.3125,32.875,35.375,36.4375
0.03405407,-2.5740523,-1.0342947,-2.2419167,0.010491543,0.09437665,-0.13169372,-0.38943174,-0.36861768,0.05987845,-3.0784798,0.6248252,-0.00033739957,-0.011812578,0.0053216363,-0.0026744925,0.0055260137,-0.0095209805,-0.003660803,0.5047506,-1.3812523,1.9039768,-2.0916603,-1.5708174,2.4797072,-0.019854885,0.020664398,-0.020872314,0.011212847,-0.00025822158,-0.016182965,-0.6895301,0.019153614,-9.672575,0.78888994,47.704796,-0.8882434,-2.7413433,-3.3973238,-0.09409571,0.012703722,-0.17255238,28.8125,30.1875,29.3125,32.875,35.375,36.4375
0.036054462,-1.8832438,-0.7679431,-2.170008,0.01824957,0.09045604,-0.15345104,-0.3894665,-0.36859205,0.059852295,-3.0784392,0.62489384,-0.0003257178,-0.013518389,0.0052636904,-0.0021050205,0.0051884493,-0.007168881,-0.0034004487,0.5046904,-1.3811918,1.9039758,-2.0917084,-1.5708421,2.479695,-0.020820891,0.021678701,-0.023151692,0.010258367,-0.0011086016,-0.017406542,-0.5554548,0.0,-9.80665,0.71951014,47.68062,-0.9308276,-2.7491708,-3.3174195,-0.08458784,0.029405147,-0.15966019,28.8125,30.1875,29.3125,32.875,35.375,36.4375
0.038054273,-2.1401415,-0.61322635,-2.0113025,0.01210496,0.06345401,-0.15936707,-0.38950822,-0.3686006,0.05985893,-3.0784397,0.6248944,-0.00032526348,-0.015086557,0.0057672076,-0.0014123002,0.0045032306,-0.0057324436,-0.004153973,0.50466573,-1.3811198,1.9038676,-2.0916727,-1.5708421,2.4796708,-0.023070522,0.02168653,-0.024736363,0.010246647,-0.0012076267,-0.018901816,-0.45968673,-0.038307227,-9.710882,0.7732232,47.683304,-0.9343739,-2.661674,-3.374193,-0.06585678,0.006000827,-0.18060179,28.8125,30.1875,29.3125,32.875,35.375,36.4375
0.04005439,-1.9820751,-0.85414815,-2.2729402,0.005828069,0.051466964,-0.17669393,-0.38954833,-0.36858496,0.05985266,-3.0784066,0.6249267,-0.00031602784,-0.016748762,0.006416733,-0.0010375475,0.00409907,-0.004859442,-0.0051836865,0.50461674,-1.3810596,1.903808,-2.0916607,-1.570866,2.4796462,-0.025670184,0.022376908,-0.02641211,0.010271915,-0.0012807371,-0.020470822,-0.38307226,-0.019153614,-9.672575,0.7978386,47.698532,-0.84008515,-2.7354348,-3.383065,-0.0712983,-0.004341434,-0.17641377,28.8125,30.1875,29.3125,32.875,35.375,36.4375
0.04205453,-1.2699145,-0.81661946,-2.1168933,-0.009602868,0.054806158,-0.19113646,-0.38956082,-0.36855012,0.05982542,-3.0783305,0.62492996,-0.00036554286,-0.01787294,0.006204156,-0.0005805854,0.0038178284,-0.0040112897,-0.005352582,0.50456876,-1.381011,1.903807,-2.0916364,-1.5709018,2.47961,-0.02625754,0.023478407,-0.028861037,0.010740663,-0.0014507804,-0.020887734,-0.30645782,0.0,-9.710882,0.76874626,47.672558,-0.7979181,-2.7351735,-3.3768122,-0.05336678,-0.0037541164,-0.19789651,28.8125,30.1875,29.3125,32.875,35.375,36.4375
0.044054624,-1.7233541,-1.5474935,-2.3314168,0.00087050407,0.036304705,-0.18276294,-0.38964754,-0.36856258,0.059874225,-3.0784035,0.6249241,-0.00023657874,-0.018340081,0.0065397765,-0.00061887625,0.004418009,-0.0051435833,-0.005314591,0.5045086,-1.3809747,1.9036502,-2.091624,-1.5709018,2.479537,-0.027269583,0.024504835,-0.030392773,0.0125269275,-0.0014264855,-0.02193737,-0.19153613,0.15322891,-9.691729,0.7620334,47.71017,-0.8813636,-2.6909604,-3.3030357,-0.05932884,-0.0011176129,-0.2110047,28.8125,30.1875,29.3125,32.875,35.375,36.4375
0.046054464,-1.3785326,-1.5448049,-2.2544823,-0.0051907883,0.040855616,-0.1901406,-0.38966477,-0.3685603,0.059873737,-3.0784314,0.6250257,-0.00035192296,-0.01876409,0.0068856627,-0.00073605456,0.0051187635,-0.0061216867,-0.0043209377,0.5044363,-1.3809505,1.9036144,-2.0915878,-1.5708178,2.4795244,-0.028157968,0.025523018,-0.031656943,0.0139699085,-0.0015683945,-0.023818582,-0.17238252,0.17238252,-9.672575,0.7530795,47.690468,-0.91049004,-2.6724777,-3.3003542,-0.06377292,-0.035318416,-0.22790658,28.8125,30.1875,29.3125,32.875,35.375,36.4375
0.04805459,-1.0363178,-1.870579,-2.2979276,-0.002228284,0.038735323,-0.17995535,-0.38967454,-0.3685308,0.05983251,-3.0783427,0.6250075,-0.00043127337,-0.019074686,0.0077339313,-0.001201901,0.0060101813,-0.0075352006,-0.004037575,0.5044001,-1.380866,1.903603,-2.0915635,-1.5708541,2.4794881,-0.029814102,0.026286025,-0.03171909,0.014936473,-0.001667114,-0.02575769,-0.019153614,0.15322891,-9.691729,0.7553206,47.66091,-0.8615702,-2.6459284,-3.3751826,-0.06090078,-0.022696085,-0.23325622,28.8125,30.1875,29.3125,32.875,35.375,36.4375
0.05005456,-0.9144915,-1.5336744,-2.2813623,-0.012644652,0.03077404,-0.16147521,-0.38973856,-0.36851412,0.059862684,-3.0783439,0.625026,-0.0003637183,-0.02063829,0.00854421,-0.0009073706,0.0064963037,-0.006717794,-0.0035074789,0.50432736,-1.3808419,1.9034947,-2.0915153,-1.5708784,2.4794269,-0.03212021,0.02708539,-0.033433516,0.015372562,-0.002491493,-0.028591583,-0.095768064,0.17238252,-9.672575,0.7665104,47.67614,-0.773919,-2.676704,-3.390428,-0.08130665,-0.029162006,-0.22682494,28.8125,30.1875,29.3125,32.875,35.375,36.4375
0.052053835,-0.37944195,-1.4297355,-2.1203148,-0.019143635,0.036541592,-0.1633399,-0.38977084,-0.36849344,0.0598554,-3.078326,0.62504125,-0.00041834076,-0.022165228,0.0086064795,-6.3649255e-05,0.006720419,-0.0047365637,-0.002015856,0.50425524,-1.3807936,1.9034461,-2.091479,-1.570867,2.4793665,-0.032924652,0.027687522,-0.036185954,0.01590053,-0.0036525442,-0.030884115,0.17238252,0.19153613,-9.481039,0.79560274,47.690468,-0.7742193,-2.6241689,-3.2992086,-0.06118297,-0.019780125,-0.22191891,28.8125,30.1875,29.3125,32.875,35.375,36.4375
0.054053947,-0.49970198,-1.5220685,-2.0228202,-0.025677223,0.028346524,-0.161021,-0.38982898,-0.3684711,0.05985255,-3.0783098,0.6250384,-0.00042042043,-0.023436584,0.00899427,0.000319767,0.0064460053,-0.0040226285,-0.003069221,0.5041707,-1.3807212,1.9033617,-2.0914552,-1.5708789,2.4792824,-0.034692585,0.028262053,-0.037804306,0.01618628,-0.0037613735,-0.031597707,0.15322891,0.19153613,-9.500193,0.7620334,47.64837,-0.75223625,-2.6025648,-3.3640175,-0.08634542,-0.035992846,-0.23216754,28.8125,30.1875,29.3125,32.875,35.375,36.4375
0.05605402,-1.0919402,-1.9047197,-2.036947,-0.020776644,0.017149854,-0.15867108,-0.38988614,-0.36843684,0.05987303,-3.078277,0.6251464,-0.00038229872,-0.024272667,0.009270852,0.000381697,0.006229073,-0.0037652836,-0.0031654201,0.5040746,-1.380709,1.9032897,-2.091407,-1.5709027,2.4792578,-0.03597371,0.028918993,-0.038701203,0.016094537,-0.0036987439,-0.03278232,0.038307227,0.22984336,-9.5385,0.7530795,47.64479,-0.70977974,-2.5527434,-3.3437777,-0.08843531,-0.040228292,-0.25929448,28.8125,30.1875,29.3125,32.875,35.375,36.4375
0.058054294,-0.83764887,-1.8919959,-2.0617537,-0.03742627,0.03558886,-0.17049012,-0.38990903,-0.36843082,0.059855465,-3.078253,0.6251012,-0.00041239502,-0.024991198,0.009022865,0.0004722691,0.006646888,-0.0024979059,-0.0014014515,0.5040508,-1.3806367,1.9032415,-2.0913956,-1.5709151,2.479209,-0.035611913,0.030003345,-0.040044576,0.015448406,-0.004683216,-0.034181606,-0.038307227,0.22984336,-9.500193,0.71951014,47.64837,-0.7817768,-2.511498,-3.3609004,-0.08446345,-0.05225192,-0.2590151,28.8125,30.1875,29.3125,32.875,35.375,36.4375
0.0600545,-0.80972403,-1.8646395,-2.0839164,-0.0450733,0.051174548,-0.17131488,-0.38999024,-0.36840266,0.059876073,-3.0782425,0.625099,-0.00037407925,-0.026118306,0.0091605,0.00069590023,0.0069975965,-0.0017760748,-0.0013085969,0.5039427,-1.3805761,1.9031094,-2.0913355,-1.5709394,2.479101,-0.03647795,0.031197894,-0.04204494,0.015792336,-0.005343134,-0.03513827,-0.076614454,0.28730422,-9.442732,0.80456203,47.67614,-0.83780265,-2.4761395,-3.3294044,-0.080848545,-0.036309756,-0.26833642,28.8125,30.1875,29.3125,32.875,35.375,36.4375
0.062054403,-1.751347,-1.8179783,-2.0253212,-0.03171429,0.041058537,-0.15314639,-0.39002723,-0.36841884,0.0598871,-3.0783083,0.6250361,-0.00039295055,-0.027738096,0.010102063,0.0010527954,0.008164051,-0.00028820604,-0.0016897569,0.50390595,-1.3805279,1.9030246,-2.0913236,-1.5708922,2.4790165,-0.038482927,0.031826828,-0.04365913,0.016045427,-0.007086083,-0.036758065,-0.05746084,0.28730422,-9.3661175,0.7642693,47.687782,-0.80660284,-2.5403905,-3.3157005,-0.10497275,-0.025996167,-0.28292555,28.8125,30.1875,29.3125,32.875,35.375,36.4375
0.06405443,-1.4104861,-1.7850834,-2.147329,-0.011645465,0.053826362,-0.1560147,-0.3900934,-0.36837772,0.059885014,-3.0782433,0.6251764,-0.00037019068,-0.029099632,0.010964648,0.0011662162,0.0101923235,0.0012027633,-0.0023530195,0.5037979,-1.3804675,1.9029526,-2.0912998,-1.5709289,2.4790044,-0.039639708,0.03284023,-0.045152526,0.016205814,-0.009586174,-0.037245803,-0.1340753,0.22984336,-9.346964,0.8247004,47.681515,-0.8065492,-2.5066402,-3.318957,-0.12190696,-0.001255847,-0.30342114,28.8125,30.1875,29.3125,32.875,35.375,36.4375
0.06605386,-1.2176008,-1.5263296,-1.9295009,-0.005144749,0.05757864,-0.1507152,-0.3901537,-0.3683795,0.059891183,-3.0782852,0.62504905,-0.00036851518,-0.03018905,0.0118444925,0.0012692062,0.011904287,0.0024925242,-0.0019127155,0.5037377,-1.3803831,1.9028333,-2.091276,-1.570918,2.4788594,-0.040805556,0.033343066,-0.045992743,0.016247295,-0.011710429,-0.03884747,-0.15322891,0.24899697,-9.404425,0.7016076,47.617023,-0.7762729,-2.4743042,-3.3396735,-0.11501178,0.023374539,-0.3099501,28.8125,30.1875,29.3125,32.875,35.375,36.4375
0.06805392,-1.1850605,-1.6417315,-1.7620939,0.002734213,0.06113178,-0.14710525,-0.39021468,-0.36834827,0.059897684,-3.0782409,0.62499994,-0.0003214822,-0.0311807,0.01181056,0.0015384183,0.012366383,0.0038666325,0.00041717623,0.50366575,-1.3803227,1.9027361,-2.0912273,-1.570978,2.4787626,-0.040998783,0.034299586,-0.047681008,0.015998656,-0.0127845965,-0.041367464,-0.22984336,0.22984336,-9.32781,0.7620334,47.63225,-0.8403212,-2.4925158,-3.3723369,-0.10986439,0.03301668,-0.3232732,28.8125,30.1875,29.3125,32.875,35.375,36.4375
0.07005362,-1.5954777,-1.071358,-1.7648153,-0.009204547,0.053348623,-0.16206181,-0.39027303,-0.36834675,0.059904955,-3.0782516,0.62507933,-0.00033349777,-0.032332994,0.011580951,0.0020711138,0.010220675,0.0036972112,-0.0003576532,0.50359327,-1.3802505,1.9026288,-2.0912035,-1.5709532,2.4787383,-0.042902123,0.034994658,-0.0498496,0.016577732,-0.010827154,-0.042499043,-0.28730422,0.19153613,-9.385271,0.8247004,47.692257,-0.8346729,-2.495753,-3.30084,-0.12564856,0.044725515,-0.30926245,28.8125,30.1875,29.3125,32.875,35.375,36.4375
0.07205437,-1.8665298,-1.0878713,-1.696646,-0.014999315,0.040808484,-0.15055065,-0.39032394,-0.3683059,0.0598853,-3.07818,0.6250065,-0.0003188027,-0.032558043,0.010628101,0.0021166913,0.007053817,0.001988559,-0.0014823368,0.503521,-1.380166,1.9025682,-2.0911796,-1.5710238,2.4786298,-0.04374677,0.036095846,-0.051335827,0.016914437,-0.007233309,-0.042224996,-0.28730422,0.15322891,-9.442732,0.7597976,47.698532,-0.82582426,-2.4289055,-3.3437772,-0.123294145,-0.0012885542,-0.35176426,28.8125,30.1875,29.3125,32.875,35.375,36.4375
0.07405431,-0.8459928,-1.1467217,-1.6992376,-0.01765342,0.06432772,-0.15714435,-0.3904088,-0.36830938,0.059909496,-3.07823,0.62509155,-0.00028583847,-0.032469656,0.010509859,0.0017665233,0.006437804,-0.00020743371,0.0015331995,0.5034251,-1.3800936,1.9024247,-2.0911672,-1.5709876,2.4785807,-0.044455014,0.03722283,-0.052177034,0.018248929,-0.0056325113,-0.045951955,-0.24899697,0.076614454,-9.461885,0.70608455,47.678825,-0.8651517,-2.4054089,-3.3169513,-0.12701063,-0.034556456,-0.34421337,28.8125,30.1875,29.3125,32.875,35.375,36.4375
0.07605441,-0.65968555,-1.4348415,-1.6544677,-0.0051226295,0.07385467,-0.14974986,-0.3904675,-0.36827153,0.059903476,-3.078191,0.62502486,-0.00029552748,-0.033567175,0.010775431,0.001675406,0.005968372,-0.0011772838,0.0025654412,0.5033287,-1.3800207,1.9023412,-2.0911186,-1.5710229,2.4784477,-0.04646409,0.03891441,-0.054184362,0.01918147,-0.0047593387,-0.04899382,-0.34476504,-0.038307227,-9.404425,0.683705,47.675243,-0.8348109,-2.4481392,-3.3167508,-0.15230942,-0.06098043,-0.34484166,28.8125,30.1875,29.3125,32.875,35.375,36.4375
0.07805451,-1.8329412,-0.7678714,-1.7319672,-0.0025540036,0.0576663,-0.14692783,-0.3905299,-0.3682528,0.059894323,-3.0781782,0.62498164,-0.00036334142,-0.035725795,0.011405009,0.001854941,0.0061973836,-0.00018729453,0.004908845,0.5032319,-1.3799121,1.9022201,-2.0910594,-1.5710114,2.4783256,-0.04909801,0.040918946,-0.056974553,0.019211384,-0.0054489146,-0.053968076,-0.40222588,-0.076614454,-9.3661175,0.7642693,47.67166,-0.6874865,-2.479197,-3.1284256,-0.16123155,-0.06651741,-0.31801802,28.8125,30.1875,29.3125,32.875,35.375,36.4375
0.08005445,-1.5930935,-0.81029814,-1.6398683,0.00797295,0.08138127,-0.15282638,-0.39059424,-0.36824274,0.059897643,-3.0782015,0.6250043,-0.00042978773,-0.03388683,0.011484734,0.0005187175,0.00818524,-0.002849981,0.0075768647,0.5031249,-1.3798277,1.9021019,-2.0910113,-1.5709633,2.4782298,-0.047228448,0.041462664,-0.054684024,0.019671835,-0.0059021013,-0.05476642,-0.4405331,-0.095768064,-9.3661175,0.73741806,47.694054,-0.89056826,-2.4909248,-3.3490334,-0.16929331,-0.050033886,-0.28703776,28.8125,30.1875,29.3125,32.875,35.375,36.4375
0.08205451,-1.6962287,-0.8037849,-1.6373526,0.011832352,0.091398075,-0.15629055,-0.39070797,-0.36822024,0.05994002,-3.078243,0.62497395,-0.0002777025,-0.035825603,0.0122862235,0.00075608323,0.0085019395,-0.0019180677,0.007325048,0.503004,-1.3797793,1.9019455,-2.0909994,-1.571,2.4780848,-0.049916573,0.04284359,-0.056897108,0.01983941,-0.006629948,-0.05720077,-0.4405331,-0.095768064,-9.212888,0.800085,47.690468,-0.87848246,-2.4599295,-3.3693023,-0.18344507,-0.058327653,-0.30288243,28.8125,30.1875,29.3125,32.875,35.375,36.4375
0.08405382,-1.6606929,-0.34196422,-1.5312791,0.0068129115,0.08436405,-0.15777636,-0.3907425,-0.36818057,0.05990646,-3.0781608,0.62497425,-0.00036878462,-0.037939236,0.012166408,0.0015966169,0.008237103,-0.0002894872,0.010128944,0.5029199,-1.3796825,1.9018964,-2.0909507,-1.5710238,2.4780114,-0.051325288,0.044617303,-0.06111267,0.020725477,-0.0071984353,-0.061409686,-0.34476504,0.019153614,-9.232041,0.73741806,47.719128,-0.799287,-2.4921947,-3.266151,-0.19002394,-0.066100374,-0.2568519,28.8125,30.1875,29.3125,32.875,35.375,36.4375
0.08605465,-1.4902812,-0.48074374,-1.7712747,0.0057549304,0.07381392,-0.15627009,-0.39085913,-0.36816663,0.05994027,-3.0781972,0.62492317,-0.00023212786,-0.03947366,0.014097744,0.0011856067,0.011301664,-0.00015668645,0.010749689,0.5028111,-1.379598,1.9017166,-2.0909383,-1.571061,2.4778662,-0.054277025,0.04595403,-0.061959114,0.02160137,-0.009944674,-0.064976886,-0.4405331,0.019153614,-9.346964,0.68146914,47.693153,-0.6559047,-2.442013,-3.166129,-0.18416451,-0.052705083,-0.21851149,28.8125,30.1875,29.3125,32.875,35.375,36.4375
0.0880541,-1.5946089,-1.0275022,-1.9286809,0.006501785,0.070691526,-0.14852463,-0.3909139,-0.36812854,0.05992721,-3.0781612,0.62485456,-0.0002919829,-0.038411945,0.014381087,0.0005424816,0.014351663,-0.0011482092,0.016036933,0.502704,-1.3795139,1.9016331,-2.0908782,-1.5710739,2.477721,-0.05238955,0.04634935,-0.061245088,0.022835266,-0.012141662,-0.068371944,-0.47884035,0.076614454,-9.308656,0.7463667,47.660015,-0.78132737,-2.4976954,-3.3868055,-0.19991666,-0.029625025,-0.16180375,28.8125,30.1875,29.3125,32.875,35.375,36.4375
0.090054154,-1.3636045,-1.3310804,-1.6789014,0.0006772945,0.07959126,-0.1422975,-0.39098918,-0.36811006,0.05992435,-3.0781665,0.6247969,-0.00033204778,-0.040373974,0.014769856,0.0007135096,0.015323456,0.00044428027,0.01707897,0.50259566,-1.3794051,1.9015001,-2.0908306,-1.5710624,2.477576,-0.053844314,0.048489746,-0.06413097,0.022657871,-0.013771029,-0.07086359,-0.51714754,0.05746084,-9.212888,0.7486078,47.66539,-0.9388341,-2.4273703,-3.3097491,-0.21872695,0.0024763886,-0.1500851,28.8125,30.1875,29.3125,32.875,35.375,36.4375
0.09205541,-1.8826681,-0.70226604,-1.8750093,-0.014688262,0.07411648,-0.15797119,-0.39108363,-0.36809888,0.05994971,-3.0781841,0.624722,-0.00024139651,-0.041665338,0.015233408,0.0006420021,0.015351449,0.0008601363,0.017292934,0.50251126,-1.3793205,1.9013342,-2.0907948,-1.5710982,2.4774427,-0.055672627,0.049810305,-0.06545462,0.022306344,-0.013998013,-0.072905265,-0.34476504,0.17238252,-9.308656,0.7239871,47.67345,-0.8646369,-2.4740105,-3.3000937,-0.22403154,0.01996653,-0.10049519,28.8125,30.1875,29.3125,32.875,35.375,36.4375
0.09405351,-1.0739253,-1.2106032,-1.7181826,-0.011705293,0.09374735,-0.15052277,-0.3911741,-0.3680528,0.059951838,-3.0781374,0.6246933,-0.00022189038,-0.041983612,0.0149983475,0.0012272819,0.01418702,0.000502812,0.017694952,0.5023793,-1.3792244,1.9012021,-2.0907347,-1.5711459,2.477299,-0.05630275,0.04961258,-0.06686172,0.023653531,-0.0128085185,-0.0739391,-0.30645782,0.095768064,-9.3661175,0.7866488,47.699425,-0.87051594,-2.4784265,-3.3636503,-0.23160973,-0.0038396353,-0.0883384,28.8125,30.1875,29.3125,32.875,35.375,36.4375
0.09605533,-1.2439587,-1.8421162,-1.8990334,-0.015980275,0.08161063,-0.1473001,-0.39122975,-0.36800978,0.05993108,-3.0781038,0.62462837,-0.00033709957,-0.041992392,0.015109586,-0.00020214434,0.015344257,-0.0030840265,0.0166286,0.50224745,-1.379127,1.9011177,-2.0906622,-1.5711335,2.477131,-0.056931756,0.053243954,-0.068238676,0.025096927,-0.012102656,-0.073501185,-0.30645782,0.15322891,-9.385271,0.80456203,47.66808,-0.89485204,-2.498311,-3.2602348,-0.2666154,-0.009415095,-0.06009976,28.8125,30.1875,29.3125,32.875,35.375,36.4375
0.09805386,-1.5083898,-1.6750561,-1.8704262,-0.022348009,0.061029777,-0.14607723,-0.39131775,-0.36797822,0.059903234,-3.0780704,0.62450707,-0.00038536865,-0.04277508,0.0147315515,0.0007185313,0.013067997,-0.0022700867,0.015232261,0.50212735,-1.3789592,1.9009742,-2.0906265,-1.5711573,2.4769394,-0.058004994,0.052625977,-0.06966167,0.025320001,-0.010507093,-0.0731804,-0.3256114,0.2873042,-9.385271,0.76874626,47.63315,-0.9583293,-2.547926,-3.311231,-0.2915205,-0.0032371613,-0.07386106,28.8125,30.1875,29.3125,32.875,35.375,36.4375
0.10005422,-0.76993555,-1.1801057,-1.8554916,-0.038730662,0.060015567,-0.16149576,-0.39142546,-0.36794838,0.059937563,-3.0780544,0.6245992,-0.0002629536,-0.04389612,0.014897411,0.0013420988,0.013621556,-0.00026387538,0.01367296,0.50200737,-1.3788991,1.9008168,-2.0905902,-1.571206,2.4768791,-0.058407642,0.052831613,-0.07131594,0.02527744,-0.01195719,-0.07202061,-0.21068975,0.2873042,-9.423578,0.8247004,47.71286,-0.9555003,-2.352883,-3.3639143,-0.2811076,-0.016271193,-0.05790224,28.8125,30.1875,29.3125,32.875,35.375,36.4375
0.1020539,-1.3425543,-2.1715336,-2.1146877,-0.024524368,0.035823647,-0.13910317,-0.39148632,-0.36791068,0.059899293,-3.0780077,0.6245136,-0.00038035846,-0.044377398,0.015404379,0.0007184365,0.015148401,-0.0013611135,0.011765115,0.5018874,-1.3787543,1.9007214,-2.090542,-1.571206,2.4767118,-0.059189495,0.05474507,-0.07235563,0.026102297,-0.012775241,-0.070891015,-0.17238252,0.24899697,-9.442732,0.7665104,47.684196,-0.99354506,-2.4569495,-3.3402872,-0.291053,0.014508563,-0.090924844,28.8125,30.1875,29.3125,32.875,35.375,36.4375
0.1040532,-0.92557395,-1.9867551,-2.1517272,-0.030210664,0.038226366,-0.1499713,-0.39159292,-0.367876,0.059909515,-3.0779612,0.6244279,-0.00035124735,-0.045137756,0.01557162,-0.00018780878,0.016046323,-0.00282582,0.009468529,0.5017674,-1.378621,1.9005188,-2.0904462,-1.571266,2.4765444,-0.06010984,0.05786247,-0.07405723,0.026397875,-0.012862827,-0.069513105,-0.1340753,0.3256114,-9.3661175,0.7709874,47.70211,-0.96113694,-2.5838099,-3.399653,-0.2924171,0.013798196,-0.09580208,28.8125,30.1875,29.3125,32.875,35.375,36.4375
0.106054485,-0.77415806,-1.7245057,-2.1728551,-0.0377125,0.03259037,-0.14704613,-0.39167047,-0.36785194,0.05990305,-3.0779486,0.62446475,-0.00039119463,-0.046389032,0.015668778,0.00062633265,0.014959727,-0.0010616975,0.006396328,0.5016472,-1.3785131,1.9003977,-2.0904105,-1.5712537,2.4764488,-0.061483666,0.05753486,-0.07544865,0.026047546,-0.01276372,-0.067814134,-0.019153614,0.30645782,-9.3661175,0.7530795,47.647476,-1.0315876,-2.5211473,-3.3900144,-0.3049579,0.03343761,-0.13378246,28.8125,30.1875,29.3125,32.875,35.375,36.4375
0.10805429,-0.732975,-1.6580061,-2.0556493,-0.038554642,0.02248896,-0.1487813,-0.3917584,-0.36782026,0.05990108,-3.0779345,0.62440467,-0.00038201927,-0.047438692,0.015215448,0.0012738586,0.012306815,0.00019106922,0.003985228,0.5015271,-1.3784051,1.900266,-2.0903747,-1.5712775,2.476293,-0.06275159,0.05745913,-0.07657105,0.024862988,-0.011045883,-0.06667417,0.019153614,0.28730422,-9.385271,0.75755644,47.681515,-1.0030082,-2.41312,-3.3836336,-0.32029867,0.027278058,-0.1476501,28.8125,30.1875,29.3125,32.875,35.375,36.4375
0.11005411,-0.24815844,-1.6924969,-2.1590183,-0.043499365,0.023983214,-0.15961696,-0.39187482,-0.36778307,0.059899807,-3.077898,0.6244553,-0.00037390264,-0.04821635,0.014947164,0.0006315296,0.011752684,-0.0006782801,0.002105502,0.501371,-1.3782598,1.9000863,-2.0903275,-1.5713009,2.4761734,-0.06356456,0.060063444,-0.07806074,0.02423849,-0.010147683,-0.06560828,0.038307227,0.28730422,-9.423578,0.90750587,47.686886,-1.0369023,-2.4817686,-3.3926458,-0.320728,0.00034020282,-0.20570672,28.8125,30.1875,29.3125,32.875,35.375,36.4375
0.112054296,-0.026781736,-1.6748106,-2.057439,-0.042648423,0.02372131,-0.16251649,-0.3919769,-0.36778736,0.0599409,-3.0779517,0.624332,-0.00026358213,-0.050572097,0.014314511,0.0021805875,0.009978211,0.002186978,0.00067519525,0.5012987,-1.3781756,1.8998822,-2.0902793,-1.5713252,2.4760175,-0.064778745,0.06096817,-0.082757376,0.024662126,-0.009973311,-0.06539129,0.019153614,0.3256114,-9.3661175,0.78888994,47.682407,-1.014953,-2.5052526,-3.2825642,-0.33579475,-0.0056749796,-0.22635965,28.8125,30.1875,29.3125,32.875,35.375,36.4375
0.11405367,-0.3375048,-1.2785848,-2.235253,-0.033141844,0.023417594,-0.15327992,-0.39206398,-0.36773527,0.05989224,-3.0778596,0.6243885,-0.0004098513,-0.050390266,0.015594153,0.0011793597,0.012125698,0.00011848307,0.0013089667,0.5011306,-1.3779831,1.8997511,-2.0902188,-1.5713257,2.4758964,-0.06618952,0.06177821,-0.081662275,0.025603177,-0.010868672,-0.067432955,0.019153614,0.2681506,-9.289502,0.8291774,47.664497,-0.99926215,-2.451636,-3.2277343,-0.3252716,-0.010841548,-0.24000522,28.8125,30.1875,29.3125,32.875,35.375,36.4375
0.116055064,-0.15278749,-1.1327794,-2.2290046,-0.019337479,0.04117682,-0.15358075,-0.39217412,-0.3677132,0.059924994,-3.077881,0.624432,-0.00032640537,-0.051307943,0.01594825,0.0012267907,0.012642883,0.0005433082,5.23741e-05,0.5009988,-1.3779109,1.8995827,-2.0901825,-1.5713376,2.475789,-0.067208916,0.062731616,-0.08295074,0.025814394,-0.011525187,-0.06719427,0.05746084,0.22984336,-9.32781,0.7284641,47.64927,-1.0586295,-2.4224808,-3.4007435,-0.33784795,0.002805166,-0.25793493,28.8125,30.1875,29.3125,32.875,35.375,36.4375
0.11805425,-1.8625325,-2.004266,-2.4408622,0.0038405783,0.027528008,-0.12844639,-0.3922719,-0.36770275,0.0599282,-3.0778968,0.6243197,-0.00034040274,-0.053635575,0.014979553,0.0019741547,0.011020924,0.0026580524,-0.0012863462,0.50089055,-1.3777657,1.8993901,-2.090124,-1.5713376,2.4756088,-0.06796652,0.06547876,-0.08779267,0.02527305,-0.011130699,-0.06661151,0.0,0.28730422,-9.385271,0.7732232,47.645687,-1.0796752,-2.5786014,-3.1271648,-0.33474284,-0.008925892,-0.29878253,28.8125,30.1875,29.3125,32.875,35.375,36.4375
0.120054156,-1.360105,-1.3687901,-2.242084,-0.01727289,0.06260552,-0.14721377,-0.3923698,-0.36765617,0.059932746,-3.07784,0.62428766,-0.00031115743,-0.05307061,0.01547708,0.0016760625,0.011440732,0.0018338318,0.0005003409,0.50075865,-1.3776578,1.8992356,-2.0900514,-1.5713972,2.4754643,-0.06828046,0.06471577,-0.086246215,0.025407184,-0.011103453,-0.06871269,-0.15322891,0.19153613,-9.442732,0.8605109,47.67345,-1.2028091,-2.3821902,-3.333242,-0.34070683,-0.02619833,-0.34257978,28.8125,30.1875,29.3125,32.875,35.375,36.4375
0.12205394,-1.7070737,-1.551515,-2.4133477,-0.025229253,0.073673286,-0.14476852,-0.39247108,-0.36763075,0.05990093,-3.0777962,0.6243172,-0.0004099895,-0.054533843,0.015165449,0.0024979701,0.010016522,0.0029370384,-0.0017207825,0.50061464,-1.3774533,1.8990549,-2.0900033,-1.5713853,2.4753444,-0.06953462,0.06547927,-0.0891432,0.025886588,-0.010393322,-0.067745425,-0.17238252,0.19153613,-9.519346,0.7620334,47.670765,-1.2071104,-2.4203484,-3.2782135,-0.35096723,-0.02874367,-0.34588435,28.8125,30.1875,29.3125,32.875,35.375,36.4375
0.1240544,-1.2968897,-1.5502485,-2.3514287,-0.035640012,0.09028571,-0.15440392,-0.3925822,-0.36760673,0.059917957,-3.0778072,0.6243385,-0.00038433203,-0.054707706,0.014630693,0.00072605605,0.0105839465,-0.0004777654,-0.002260984,0.50047106,-1.3773435,1.8988751,-2.0899556,-1.5713848,2.4752128,-0.06948819,0.0704622,-0.0910717,0.026095238,-0.009254603,-0.06716019,-0.22984336,0.17238252,-9.5385,0.85155696,47.64658,-1.2181325,-2.5642872,-3.2527246,-0.3509832,-0.04235399,-0.4379164,28.8125,30.1875,29.3125,32.875,35.375,36.4375
0.12605411,-1.5001283,-1.7748785,-2.3279796,-0.04149548,0.08195069,-0.14219083,-0.3926817,-0.36756366,0.059917253,-3.077773,0.6243501,-0.00041411383,-0.05682969,0.015811337,0.002625272,0.008576697,0.003164019,-0.0033767903,0.500314,-1.3772246,1.8987197,-2.0898845,-1.5713967,2.4750674,-0.07341827,0.06738015,-0.091629036,0.025572127,-0.009248586,-0.06997439,-0.34476504,0.095768064,-9.576807,0.7553206,47.677036,-1.105598,-2.432677,-3.3420868,-0.3574643,-0.03626988,-0.44265497,28.8125,30.1875,29.3125,32.875,35.375,36.4375
0.12805435,-1.1667219,-1.3573027,-2.3282323,-0.041976403,0.0913682,-0.1466192,-0.3927961,-0.36754963,0.059919264,-3.0777571,0.6242851,-0.00037897198,-0.05649759,0.014899557,0.0017728101,0.010202958,0.0028940623,0.0026839357,0.50020736,-1.3770554,1.8985037,-2.0898364,-1.5714334,2.4749224,-0.0707489,0.07011222,-0.092818365,0.025045041,-0.010553357,-0.07336167,-0.38307226,0.19153613,-9.500193,0.7777002,47.667187,-1.3334379,-2.4335656,-3.3393896,-0.34344006,-0.04195594,-0.4744031,28.8125,30.1875,29.3125,32.875,35.375,36.4375
0.1300539,-0.6594008,-1.4461088,-2.3643062,-0.02175003,0.10442474,-0.14816323,-0.3928993,-0.3674769,0.059883185,-3.0776367,0.62433547,-0.00043573647,-0.05760062,0.015660774,0.0016441997,0.009883861,0.0029097055,0.003965797,0.5000267,-1.376887,1.8983725,-2.0897763,-1.571493,2.4747887,-0.07319036,0.070778005,-0.09322856,0.024612611,-0.010294121,-0.07708434,-0.3256114,0.11492168,-9.519346,0.7530795,47.64121,-1.3204302,-2.4232922,-3.3092198,-0.3135574,-0.03386001,-0.46364498,28.8125,30.1875,29.3125,32.875,35.375,36.4375
0.13205422,-1.2764058,-0.919462,-2.2931528,-0.024841437,0.09449779,-0.14669523,-0.3930211,-0.36747357,0.059905753,-3.0777123,0.6242132,-0.00040222757,-0.06137038,0.015845656,0.0034505047,0.008102982,0.00729798,0.00848587,0.4998937,-1.3767545,1.898156,-2.089741,-1.5714692,2.4745698,-0.07661338,0.07178607,-0.098424815,0.024092348,-0.01085149,-0.085024305,-0.4405331,0.095768064,-9.595961,0.75755644,47.658226,-1.1030043,-2.4552991,-3.2111425,-0.3119647,-0.06219724,-0.42127228,28.8125,30.1875,29.3125,32.875,35.375,36.4375
0.13405411,-1.856802,-0.80356586,-2.2718902,-0.02114805,0.08377078,-0.15399486,-0.39316446,-0.36742982,0.05992257,-3.0776975,0.62422585,-0.00036652194,-0.059851967,0.01585429,0.0021124447,0.009790283,0.0050951783,0.01381928,0.4997028,-1.3766102,1.8979305,-2.0896695,-1.5714935,2.4743888,-0.074934825,0.0726398,-0.096359715,0.023910074,-0.011275131,-0.088678926,-0.4405331,0.076614454,-9.595961,0.8224646,47.64837,-1.4056773,-2.3936205,-3.4174037,-0.29895762,-0.036344014,-0.40019923,28.8125,30.1875,29.3125,32.875,35.375,36.4375
0.13605405,-1.2597071,-0.7884772,-2.2689257,-0.021856457,0.100615926,-0.15602976,-0.39329082,-0.36740446,0.059926823,-3.0777192,0.6241487,-0.0002990924,-0.0627043,0.015669575,0.0035448875,0.0075254203,0.007942628,0.01952834,0.49955827,-1.3764656,1.8977493,-2.0896695,-1.5715173,2.4741936,-0.0776119,0.0736199,-0.10074912,0.023722202,-0.010665709,-0.09706505,-0.47884035,0.019153614,-9.595961,0.7553206,47.63136,-1.3316841,-2.3718903,-3.2850904,-0.29436597,-0.062192485,-0.3367226,28.8125,30.1875,29.3125,32.875,35.375,36.4375
0.13805407,-1.5774859,-1.0229455,-2.3981848,-0.020736216,0.09072334,-0.14967197,-0.39340502,-0.367377,0.059915196,-3.077717,0.62406975,-0.0003043704,-0.06329961,0.016578643,0.0030262214,0.008462696,0.0076522427,0.021875104,0.4994141,-1.3762971,1.8975705,-2.0896451,-1.5715293,2.4740005,-0.079237945,0.07439201,-0.100401044,0.023302432,-0.0113543,-0.10103605,-0.4405331,-0.038307227,-9.653421,0.83365434,47.660015,-1.3060515,-2.3481913,-3.3248441,-0.25252664,-0.064713895,-0.26715562,28.8125,30.1875,29.3125,32.875,35.375,36.4375
0.14005435,-1.5380158,-0.6729626,-2.33293,-0.022437667,0.08576979,-0.15628251,-0.39354444,-0.36737087,0.059961498,-3.077785,0.6239267,-0.00020651708,-0.0643364,0.01613042,0.0036700268,0.007019901,0.008375906,0.02554694,0.49928224,-1.376177,1.8973063,-2.0895736,-1.5715407,2.4737709,-0.0799852,0.07504983,-0.102729276,0.023637062,-0.010434609,-0.10545714,-0.40222588,-0.11492168,-9.615114,0.82694155,47.67614,-1.4596014,-2.318046,-3.283384,-0.266846,-0.0747966,-0.2131314,28.8125,30.1875,29.3125,32.875,35.375,36.4375
0.14205426,-1.4985981,-0.86318374,-2.1782792,-0.018845683,0.08150295,-0.14507172,-0.39366347,-0.36732158,0.059943553,-3.077753,0.62382424,-0.00021447183,-0.066593334,0.018222205,0.0034241327,0.007414175,0.0077690403,0.023346648,0.4991124,-1.3760083,1.897139,-2.0895379,-1.5715774,2.4735413,-0.08551695,0.076293014,-0.103772976,0.024150886,-0.010497651,-0.10878754,-0.57460845,0.038307227,-9.595961,0.7217513,47.67793,-1.2042923,-2.3783083,-3.3259645,-0.24471119,-0.078411184,-0.16638786,28.8125,30.1875,29.3125,32.875,35.375,36.4375
0.14405455,-1.5978719,-1.0974572,-2.322971,-0.0033957222,0.08361908,-0.14158277,-0.39378783,-0.36728325,0.059935533,-3.0777307,0.623857,-0.00024457392,-0.066900015,0.017533656,0.0039914683,0.00742835,0.009128925,0.024994507,0.49893332,-1.3758402,1.8969468,-2.0894892,-1.5715774,2.4733856,-0.08419913,0.07659146,-0.10547935,0.02437186,-0.011166397,-0.109115034,-0.5554548,-0.019153614,-9.557653,0.7911258,47.66987,-1.3555455,-2.3034344,-3.2911716,-0.23406935,-0.060819715,-0.13967988,28.8125,30.1875,29.3125,32.875,35.375,36.4375
0.14605474,-2.1253424,-0.7822035,-2.3295777,-0.0062261014,0.078833625,-0.13732977,-0.39392933,-0.36723715,0.059942175,-3.077734,0.6237451,-0.00022320126,-0.06831897,0.019391714,0.002708716,0.008418073,0.006374952,0.018560855,0.49874023,-1.3756831,1.8967317,-2.0894296,-1.5716013,2.4731224,-0.088878594,0.079278424,-0.10590162,0.02499432,-0.010715414,-0.107361406,-0.47884035,0.038307227,-9.519346,0.8247004,47.657326,-1.3166538,-2.3360698,-3.3711877,-0.19974963,-0.07897459,-0.12853363,28.8125,30.1875,29.3125,32.875,35.375,36.4375
0.14805456,-1.7605323,-0.82673603,-2.0891263,-0.00039032727,0.0974968,-0.14586253,-0.39407766,-0.36722124,0.05996977,-3.0777767,0.62371683,-0.0001265464,-0.06885642,0.019113285,0.003388751,0.008548327,0.007189561,0.014780788,0.49858457,-1.3755386,1.8964919,-2.0894048,-1.5716137,2.4729438,-0.08856621,0.07947204,-0.1079629,0.02621145,-0.011209624,-0.10326783,-0.51714754,-0.05746084,-9.481039,0.81351066,47.65464,-1.1371831,-2.2177215,-3.3195343,-0.20205382,-0.081582956,-0.18993771,28.8125,30.1875,29.3125,32.875,35.375,36.4375
0.15005489,-1.7058904,-0.6162427,-2.0299468,-0.00979939,0.10499045,-0.14343469,-0.3942007,-0.36716974,0.059952416,-3.077744,0.6236356,-0.00018853694,-0.07047702,0.019909414,0.0033980212,0.009027536,0.0075850864,0.008129555,0.4983921,-1.3753579,1.8963007,-2.0893333,-1.5716256,2.472705,-0.09098448,0.08095741,-0.10981786,0.026465543,-0.011825011,-0.0990318,-0.5554548,-0.05746084,-9.3661175,0.8493211,47.668976,-1.2412581,-2.3416004,-3.340664,-0.20211583,-0.0767871,-0.23369816,28.8125,30.1875,29.3125,32.875,35.375,36.4375
0.15205392,-2.0053651,-1.0440177,-1.8968062,-0.0060602576,0.10108779,-0.13812959,-0.39436653,-0.36712852,0.059982758,-3.0777342,0.62369263,-7.032525e-05,-0.071899734,0.020639276,0.0032909634,0.008959712,0.007606735,0.0034062257,0.49819988,-1.3752135,1.8960494,-2.0892851,-1.5716733,2.4725497,-0.09351641,0.08229039,-0.11115428,0.026412575,-0.011770627,-0.0968405,-0.6895301,-0.019153614,-9.32781,0.80679786,47.64658,-1.163389,-2.2575407,-3.2693102,-0.17326333,-0.08138933,-0.27555972,28.8125,30.1875,29.3125,32.875,35.375,36.4375
0.15405384,-1.6506684,-1.2314192,-1.8920454,-0.008832298,0.106956944,-0.14425372,-0.39451963,-0.36707872,0.059979584,-3.077717,0.6237279,-5.9894228e-05,-0.072957784,0.022006342,0.0029643327,0.010081578,0.007376682,0.00083417346,0.49798313,-1.3750331,1.8958343,-2.0892494,-1.5716857,2.4723573,-0.09620531,0.08295742,-0.11125472,0.026583413,-0.012645872,-0.09695519,-0.57460845,-0.038307227,-9.346964,0.8112748,47.67166,-0.98380566,-2.1971698,-3.440042,-0.14815664,-0.09229165,-0.3207056,28.8125,30.1875,29.3125,32.875,35.375,36.4375
0.1560541,-1.163252,-0.65960455,-1.843488,-0.018653857,0.0980842,-0.15421547,-0.39467046,-0.36705935,0.06000512,-3.0777354,0.6236542,4.5478914e-06,-0.07459613,0.02223596,0.002579604,0.010551528,0.0063379714,-0.00013462779,0.49782702,-1.3748637,1.8955587,-2.089177,-1.57171,2.472153,-0.098113336,0.08641582,-0.11476675,0.027768588,-0.012564923,-0.09789323,-0.38307226,0.076614454,-9.442732,0.7709874,47.64837,-0.9411551,-2.2936063,-3.2223375,-0.14434968,-0.08533501,-0.31174326,28.8125,30.1875,29.3125,32.875,35.375,36.4375
0.15805413,-0.95620835,-0.8820249,-1.7920026,-0.01732367,0.08878896,-0.14771606,-0.3947754,-0.36698884,0.059975583,-3.0776553,0.623638,-6.098981e-05,-0.07473292,0.023573387,0.0028538492,0.011294991,0.0060436353,-0.0013061884,0.49763462,-1.3747082,1.8954276,-2.0891168,-1.5717462,2.4719608,-0.10013745,0.0847467,-0.113692366,0.028971972,-0.013081512,-0.098744325,-0.47884035,0.11492168,-9.3661175,0.84484416,47.67345,-0.83876824,-2.2138412,-3.490655,-0.11450955,-0.09367848,-0.3355628,28.8125,30.1875,29.3125,32.875,35.375,36.4375
0.16005443,-1.2501787,-0.9758036,-1.7705967,-0.004606496,0.0698004,-0.14786139,-0.39496088,-0.36695275,0.060009558,-3.0776863,0.62362397,4.843229e-05,-0.07602557,0.023750277,0.0031170174,0.011573231,0.0063235867,-0.0023274582,0.49741876,-1.3745396,1.8951391,-2.0890682,-1.5717705,2.4717324,-0.101344146,0.08629637,-0.1163724,0.02998514,-0.013456231,-0.09892863,-0.49799395,0.05746084,-9.404425,0.84708,47.688675,-0.93094814,-2.1509886,-3.2734063,-0.109537005,-0.08758256,-0.3786615,28.8125,30.1875,29.3125,32.875,35.375,36.4375
0.16205464,-0.72130907,-0.34570152,-1.7232422,-0.011110708,0.080709144,-0.15282771,-0.39512435,-0.36691615,0.060015175,-3.0776913,0.6236244,8.546398e-05,-0.07672288,0.02435576,0.0017446451,0.01309486,0.0037656387,-0.003246982,0.49721465,-1.374346,1.8948883,-2.0890324,-1.5717825,2.471528,-0.10288935,0.08997463,-0.11779823,0.030702654,-0.013573349,-0.09955329,-0.38307226,0.15322891,-9.32781,0.784413,47.687782,-0.84398377,-2.3572118,-3.4197268,-0.090791516,-0.08915439,-0.36728817,28.8125,30.1875,29.3125,32.875,35.375,36.4375
0.16405453,-0.8652314,-0.699479,-1.6208199,0.0011027352,0.08590884,-0.14227015,-0.39527187,-0.36686656,0.060017996,-3.0776584,0.6236159,7.9140365e-05,-0.07803481,0.024122821,0.0029946915,0.011785958,0.005412543,-0.0022786374,0.49701083,-1.3741659,1.8946489,-2.0889485,-1.5718063,2.4713233,-0.10388445,0.08969305,-0.120533265,0.031639013,-0.013216559,-0.10151632,-0.4405331,0.13407528,-9.193734,0.8717007,47.65464,-0.8289132,-2.2310643,-3.370731,-0.077843525,-0.113044456,-0.4367205,28.8125,30.1875,29.3125,32.875,35.375,36.4375
0.16605479,-1.0898559,-0.5996676,-1.5951802,-0.002122311,0.080532014,-0.15247174,-0.39542827,-0.36680138,0.060022715,-3.0776098,0.62358296,0.0001218253,-0.07867912,0.024257187,0.0026682704,0.012221237,0.0040876134,0.0027578163,0.49679494,-1.373997,1.894421,-2.0888755,-1.5718659,2.4710932,-0.10481209,0.091719605,-0.12250709,0.032941908,-0.012975762,-0.10747986,-0.36391866,0.095768064,-9.193734,0.82694155,47.63852,-0.93051374,-2.24581,-3.311078,-0.08279915,-0.107298724,-0.34329188,28.8125,30.1875,29.3125,32.875,35.375,36.4375
0.16805404,-0.9526895,-0.6844835,-1.8369681,-0.010366754,0.08359636,-0.15081178,-0.3956061,-0.3667462,0.060036764,-3.0776076,0.6236738,0.00012128044,-0.07852915,0.024253562,0.0020630518,0.0138526,0.0025213014,0.009055939,0.49653187,-1.3738161,1.8941578,-2.0888035,-1.571854,2.4708872,-0.104193136,0.09362981,-0.12374995,0.03442291,-0.0136675695,-0.11315693,-0.28730422,0.17238252,-9.174581,0.8291774,47.661808,-0.943564,-2.309123,-3.357161,-0.070730664,-0.12017439,-0.332137,28.8125,30.1875,29.3125,32.875,35.375,36.4375
0.17005515,-0.6338362,-1.2233131,-1.9599526,-0.015070513,0.086337246,-0.1505282,-0.39575696,-0.3667178,0.06002863,-3.07758,0.6235866,0.00015385766,-0.078941405,0.02434738,0.0016979035,0.014520934,0.0014532489,0.015988758,0.49637586,-1.3735875,1.8938936,-2.0887554,-1.5719022,2.4706805,-0.10463749,0.09536842,-0.12522718,0.03540302,-0.013756045,-0.12053301,-0.17238253,0.1340753,-9.385271,0.7911258,47.66271,-0.97702026,-2.2306204,-3.2109847,-0.061063275,-0.1011626,-0.27805308,28.8125,30.1875,29.3125,32.875,35.375,36.4375
0.17205457,-0.8668495,-1.9725311,-2.170341,-0.016453343,0.06443526,-0.13174412,-0.395943,-0.36664632,0.06003417,-3.077547,0.62355745,0.00022794251,-0.08208947,0.025600519,0.0031843479,0.013871417,0.0040199757,0.018572316,0.49612287,-1.3733953,1.8936418,-2.0887077,-1.5719622,2.4704137,-0.10916219,0.09544945,-0.12896116,0.036472462,-0.014418364,-0.12763856,-0.05746084,0.17238252,-9.308657,0.7911258,47.66091,-0.88032615,-2.3580055,-3.4262013,-0.07555994,-0.118932486,-0.1875007,28.8125,30.1875,29.3125,32.875,35.375,36.4375
0.17405365,-0.5108831,-1.8376307,-1.882832,-0.03132279,0.06142966,-0.14410363,-0.396086,-0.3665923,0.060049444,-3.0775301,0.6234729,0.00019351736,-0.08046019,0.024346627,0.0023447995,0.014628399,0.0019858535,0.024262518,0.49590868,-1.3732387,1.893391,-2.0885756,-1.5719742,2.470149,-0.10571331,0.09693971,-0.12899059,0.037152477,-0.014122231,-0.12987989,-0.21068975,0.17238252,-9.232041,0.87617236,47.683304,-1.0786636,-2.3041563,-3.325314,-0.04992242,-0.11270855,-0.15351574,28.8125,30.1875,29.3125,32.875,35.375,36.4375
0.17605408,-1.0101106,-1.76019,-2.1221871,-0.027091758,0.03926896,-0.1345435,-0.3962516,-0.36653495,0.06001452,-3.077463,0.6233831,0.0001521622,-0.08318672,0.02647704,0.0015812325,0.015664754,0.0004840812,0.020693198,0.49569082,-1.3729613,1.8931268,-2.088515,-1.5720223,2.469884,-0.11160741,0.100223295,-0.13139226,0.03807304,-0.014335609,-0.1322018,-0.15322891,0.19153613,-9.251195,0.800085,47.661808,-0.88235545,-2.4156532,-3.2982209,-0.045367934,-0.10921579,-0.09169169,28.8125,30.1875,29.3125,32.875,35.375,36.4375
0.17805414,-0.712496,-1.3613946,-2.110283,-0.0211922,0.039924253,-0.14119251,-0.3964131,-0.36650023,0.06003629,-3.0774853,0.62329245,0.0002177635,-0.08350189,0.025150888,0.0025987283,0.014397811,0.0018649746,0.018191203,0.49550003,-1.372793,1.8928636,-2.088455,-1.5720466,2.4696338,-0.109911256,0.10039033,-0.13407826,0.03877288,-0.013874647,-0.12800428,-0.1340753,0.21068975,-9.346964,0.79560274,47.690468,-1.0061291,-2.329434,-3.1647587,-0.04724761,-0.11777057,-0.09723599,28.8125,30.1875,29.3125,32.875,35.375,36.4375
0.18005458,-0.23467065,-1.561558,-2.1712422,-0.016953323,0.05602153,-0.13535997,-0.39656138,-0.36643815,0.06001453,-3.0774467,0.62324786,0.00012850997,-0.0844729,0.025355585,0.0019246788,0.01509348,0.000749431,0.012153679,0.49526033,-1.3725758,1.8926357,-2.088371,-1.5720466,2.4693713,-0.11104365,0.10330677,-0.1361394,0.03923337,-0.013965676,-0.12309673,-0.21068975,0.22984336,-9.3661175,0.8179876,47.68062,-0.961712,-2.4274516,-3.1182673,-0.029411117,-0.12961757,-0.15801975,28.8125,30.1875,29.3125,32.875,35.375,36.4375
0.18205443,-0.55443496,-1.6840905,-2.0632656,-0.017906772,0.05471654,-0.13481754,-0.3967461,-0.36635968,0.06001301,-3.0773714,0.6232725,0.00014309716,-0.08450668,0.024888873,0.0019001147,0.015008365,-0.00047632147,0.00811296,0.49499696,-1.372359,1.8923596,-2.0882747,-1.5721062,2.4691331,-0.11064748,0.104622304,-0.13803293,0.040842462,-0.013310493,-0.11866022,-0.095768064,0.28730422,-9.289502,0.79560274,47.666286,-1.0745765,-2.4919975,-3.1004152,-0.019870583,-0.15305038,-0.2055511,28.8125,30.1875,29.3125,32.875,35.375,36.4375
0.1840544,-1.0470761,-2.0057712,-2.2083447,-0.0127950525,0.040732715,-0.12770481,-0.396893,-0.36632302,0.059995946,-3.0773246,0.62316877,7.6306445e-05,-0.08515003,0.026239322,0.0012683155,0.017111335,-0.003152152,0.0022311858,0.49481642,-1.3721062,1.892073,-2.088166,-1.5721306,2.468894,-0.11310098,0.10648209,-0.13950257,0.043807667,-0.013893254,-0.11522889,-0.019153614,0.3256114,-9.308657,0.8179876,47.69763,-0.94387066,-2.4370108,-3.1284084,-0.025101691,-0.13466112,-0.2758549,28.8125,30.1875,29.3125,32.875,35.375,36.4375
0.18605398,-0.8087707,-1.6440599,-2.2841222,-0.02979291,0.048306916,-0.1309233,-0.39707893,-0.36626592,0.06001265,-3.0773258,0.62318635,0.0001419323,-0.08467117,0.025445541,0.0009679226,0.017535407,-0.0039162324,0.0020612956,0.49456584,-1.3719256,1.8918093,-2.0881183,-1.5721544,2.4686544,-0.11127649,0.10781521,-0.14055714,0.044399735,-0.013901248,-0.113234445,-0.114921674,0.30645782,-9.346964,0.80679786,47.66091,-1.1521436,-2.5633807,-3.1726627,-0.056197293,-0.1524129,-0.3260442,28.8125,30.1875,29.3125,32.875,35.375,36.4375
0.18805407,-0.58353347,-1.7842168,-2.2779648,-0.04106778,0.053109683,-0.13606586,-0.3972452,-0.3662367,0.060028426,-3.0773299,0.6231506,0.00016487559,-0.08673726,0.026448006,0.0014109525,0.01802966,-0.0031521246,-0.0022090417,0.494373,-1.371721,1.8915108,-2.088034,-1.5721668,2.4684389,-0.11429862,0.109058104,-0.14330386,0.045466244,-0.014702242,-0.111983195,-0.038307227,0.2681506,-9.385271,0.800085,47.694946,-0.9430448,-2.4835055,-3.1967387,-0.03536482,-0.14956982,-0.37758282,28.8125,30.1875,29.3125,32.875,35.375,36.4375
0.19005395,-0.2585408,-1.4596542,-2.0692356,-0.047148243,0.05897676,-0.15492812,-0.3974231,-0.36616054,0.060000572,-3.0772502,0.6231723,8.1321195e-05,-0.08478743,0.027436348,-0.00038754323,0.020482592,-0.00840669,-0.0034422835,0.4940976,-1.3714563,1.8912371,-2.087937,-1.5721902,2.4681873,-0.11433851,0.109921776,-0.1408185,0.04790062,-0.014370334,-0.11079053,-0.076614454,0.22984336,-9.404425,0.87393653,47.677036,-1.1739707,-2.483329,-3.234778,-0.068709426,-0.15012959,-0.44336247,28.8125,30.1875,29.3125,32.875,35.375,36.4375
0.19205382,-0.19808865,-1.41599,-2.2536173,-0.04107422,0.052060492,-0.1442104,-0.39759782,-0.36611858,0.06001476,-3.0772042,0.6231614,0.00013917482,-0.08548834,0.028385954,-0.00017624746,0.022348432,-0.010219794,-0.004389085,0.4939057,-1.3712399,1.8909253,-2.0878398,-1.5722507,2.4679947,-0.116038896,0.11098091,-0.1435065,0.052002806,-0.015154272,-0.11154121,-0.095768064,0.17238252,-9.385271,0.900793,47.709274,-1.1656291,-2.4870756,-3.0879521,-0.11418715,-0.17168848,-0.47597247,28.8125,30.1875,29.3125,32.875,35.375,36.4375
0.19405402,-0.53975654,-1.3727124,-2.3283026,-0.024113635,0.040131785,-0.13706543,-0.39777932,-0.3660697,0.060036115,-3.0772033,0.62315845,0.00016253947,-0.08544881,0.028856872,-0.00026117245,0.022292765,-0.012296045,-0.0021127996,0.4936657,-1.3710476,1.8906258,-2.0877435,-1.5722622,2.4677532,-0.117378764,0.11120704,-0.14408647,0.054144457,-0.014125322,-0.1151602,0.0,0.17238252,-9.385271,0.83589023,47.6421,-1.0994556,-2.4268024,-3.309762,-0.14368102,-0.16136317,-0.49604452,28.8125,30.1875,29.3125,32.875,35.375,36.4375
0.1960147,-0.41615325,-1.0732963,-2.3818612,-0.011858321,0.03899561,-0.13893099,-0.39793333,-0.366021,0.06001301,-3.077123,0.6230971,0.00010770614,-0.08637407,0.029120063,-4.8956943e-05,0.021463372,-0.0109704165,0.0060739983,0.4934737,-1.3707834,1.8903397,-2.0876367,-1.5723103,2.4675333,-0.11866367,0.11117203,-0.14423758,0.052746702,-0.014051988,-0.124630824,0.0,0.05746084,-9.423578,0.8537928,47.661808,-1.1368842,-2.3706777,-3.4137607,-0.13576043,-0.17804307,-0.45887125,28.8125,30.1875,29.3125,32.875,35.375,36.4375
0.19805466,-0.24493136,-0.5386813,-2.012187,-0.0128841065,0.05090867,-0.14789452,-0.39809608,-0.3659547,0.06001301,-3.077071,0.62310225,4.1262225e-05,-0.08553099,0.029718759,-0.0015078022,0.023311649,-0.015951732,0.011936744,0.49322197,-1.3705783,1.8900651,-2.0875032,-1.5723222,2.4672916,-0.1193002,0.11363072,-0.14457549,0.055870656,-0.01333634,-0.131131,0.0,0.019153614,-9.346964,0.83589023,47.688675,-1.1348946,-2.5292969,-3.5435653,-0.17323874,-0.215055,-0.4027555,28.8125,30.1875,29.3125,32.875,35.375,36.4375
0.20005496,-0.24359325,-0.3597467,-2.2157145,-0.0032568916,0.060524393,-0.1541471,-0.398271,-0.36589456,0.059997432,-3.0770438,0.62299377,-2.1646965e-05,-0.086156785,0.03093102,-0.0016028353,0.02473048,-0.016537065,0.020997055,0.4929699,-1.3703263,1.8897785,-2.0874074,-1.5723346,2.4669755,-0.12123313,0.11384355,-0.1449335,0.057183973,-0.014336281,-0.1421206,0.019153614,-0.019153614,-9.289502,0.8784135,47.683304,-1.190949,-2.2448964,-3.4774451,-0.21064165,-0.1894201,-0.29061016,28.8125,30.1875,29.3125,32.875,35.375,36.4375
0.20205353,-0.2536801,0.32235187,-2.0330105,0.003632972,0.069986425,-0.15761259,-0.39845288,-0.3658322,0.060006052,-3.0769975,0.6228855,-3.2496242e-05,-0.0884466,0.030914465,-0.00047409887,0.023318736,-0.014803959,0.024620688,0.49272975,-1.3700974,1.8894538,-2.0872638,-1.5723823,2.4666739,-0.12347493,0.11492516,-0.14898194,0.05793475,-0.013940701,-0.1479849,-0.038307227,-0.05746084,-9.385271,0.8247004,47.683304,-1.0897694,-2.4160867,-3.453887,-0.24645345,-0.22216874,-0.21921894,28.8125,30.1875,29.3125,32.875,35.375,36.4375
0.20405343,-0.8848109,-0.4379836,-2.2474504,0.03112806,0.065139025,-0.14154781,-0.3986548,-0.3657909,0.060031597,-3.0770314,0.622832,8.01224e-06,-0.08965113,0.031609606,-0.0005508272,0.023734419,-0.014882731,0.02590555,0.49247742,-1.3698808,1.8891186,-2.08718,-1.5723823,2.466384,-0.12546484,0.11620342,-0.15045598,0.058388926,-0.014277345,-0.15125851,-0.19153613,-0.1340753,-9.481039,0.8023209,47.658226,-0.9901571,-2.3931775,-3.5240238,-0.25686836,-0.23174255,-0.15213902,28.8125,30.1875,29.3125,32.875,35.375,36.4375
0.20605406,-1.019096,0.03750335,-2.1217186,0.014712732,0.07348464,-0.14400135,-0.39879817,-0.36573297,0.060002364,-3.0769677,0.6227618,-0.00013790997,-0.09037523,0.030434705,0.00040154307,0.022158101,-0.013324149,0.026259903,0.49225023,-1.3696284,1.8888544,-2.0870483,-1.5723823,2.4661212,-0.12449131,0.11668471,-0.15326953,0.058598284,-0.013653177,-0.15063842,-0.34476507,-0.11492168,-9.404425,0.83589023,47.668976,-1.0820824,-2.2650352,-3.4023366,-0.28394842,-0.24644576,-0.13498598,28.8125,30.1875,29.3125,32.875,35.375,36.4375
0.20805366,-1.3588476,-0.4192208,-2.258615,0.010288267,0.0881219,-0.14077513,-0.39898166,-0.3656537,0.059994448,-3.0769083,0.62267625,-0.00019194667,-0.092264414,0.03152549,0.0011051038,0.022399928,-0.010986969,0.017259384,0.49197376,-1.3693885,1.8885564,-2.0869162,-1.572419,2.465799,-0.12715362,0.11644579,-0.15450111,0.058129564,-0.014981482,-0.14429474,-0.57460845,-0.038307227,-9.385271,0.81351066,47.679718,-0.98433053,-2.2747726,-3.4394817,-0.29576358,-0.2566709,-0.19915158,28.8125,30.1875,29.3125,32.875,35.375,36.4375
0.21005379,-1.5891514,-1.0082921,-2.4576666,0.002877366,0.108333096,-0.13538629,-0.39915913,-0.36559513,0.05998921,-3.076864,0.62261105,-0.00027175643,-0.09238881,0.0321767,-0.0006739755,0.024665432,-0.015102074,0.011365633,0.49172226,-1.3691343,1.8882326,-2.0867717,-1.572431,2.4655128,-0.1282689,0.120626144,-0.15590048,0.060048863,-0.0150422575,-0.13951397,-0.57460845,-0.05746084,-9.481039,0.7911258,47.705692,-1.2206552,-2.4238756,-3.4548807,-0.34770852,-0.2562896,-0.24037057,28.8125,30.1875,29.3125,32.875,35.375,36.4375
0.21205375,-2.0582523,-1.1972109,-2.5013924,-0.021386681,0.12759697,-0.15075304,-0.39932337,-0.3655347,0.059987355,-3.0768006,0.6225594,-0.00032171243,-0.09461508,0.031739205,0.0012551744,0.02271981,-0.008792234,0.0090819,0.4914947,-1.368907,1.8879336,-2.0866296,-1.5724672,2.4652612,-0.1287006,0.11909347,-0.1577912,0.056990728,-0.01632846,-0.13765612,-0.6512228,-0.019153614,-9.634268,0.81351066,47.684196,-1.0538673,-2.200131,-3.403472,-0.3458029,-0.26923412,-0.3120586,28.8125,30.1875,29.3125,32.875,35.375,36.4375
0.21405426,-2.3391063,-1.4981464,-2.4094071,-0.04108199,0.14865251,-0.13714767,-0.3995169,-0.36548164,0.060004495,-3.0768106,0.6225031,-0.0003261841,-0.09575405,0.03161199,0.00065458636,0.022588698,-0.0085671395,0.00796267,0.49123082,-1.3686895,1.8876108,-2.0865219,-1.5724672,2.464961,-0.12945446,0.121786974,-0.15934649,0.055588707,-0.016330304,-0.13728963,-0.7469909,0.11492168,-9.634268,0.85155696,47.6421,-1.2165394,-2.4165068,-3.4361033,-0.33132237,-0.28413883,-0.33048093,28.8125,30.1875,29.3125,32.875,35.375,36.4375
0.21605471,-3.0440245,-2.0912354,-2.6073775,-0.05612311,0.14953294,-0.13429253,-0.3997243,-0.3654183,0.060010333,-3.076779,0.6224377,-0.0002936517,-0.098117545,0.031469997,0.0015535301,0.021451367,-0.0058200713,0.0060628853,0.49096695,-1.3684369,1.8872746,-2.0864265,-1.5725154,2.4646606,-0.13109517,0.12316534,-0.16287957,0.05477548,-0.01663809,-0.13702781,-0.7852981,0.19153613,-9.710882,0.8605109,47.650166,-1.16801,-2.2505536,-3.4800448,-0.32872552,-0.27713177,-0.35444874,28.8125,30.1875,29.3125,32.875,35.375,36.4375
0.21805394,-2.041568,-1.6842353,-2.4177704,-0.07555043,0.1659665,-0.15708229,-0.39993924,-0.365312,0.06001777,-3.0766535,0.6225284,-0.00025803316,-0.10001636,0.03291265,0.0006228714,0.022381546,-0.00602517,0.0040209694,0.4906542,-1.3682079,1.8869523,-2.086284,-1.5726117,2.4644208,-0.13470216,0.12580808,-0.16365494,0.053508885,-0.017380819,-0.13858894,-0.7469909,0.22984336,-9.749189,0.9030289,47.672558,-1.0864613,-2.0867655,-3.390392,-0.34282836,-0.30093163,-0.36430657,28.8125,30.1875,29.3125,32.875,35.375,36.4375
0.22005455,-2.043551,-1.8237783,-2.5025835,-0.071290106,0.14627418,-0.15250938,-0.40011942,-0.36525488,0.059998527,-3.0766082,0.62247515,-0.00033521187,-0.10194313,0.0313348,0.0010892877,0.020200117,-0.0014411103,0.010382893,0.49040323,-1.3679309,1.8866414,-2.0861776,-1.5726236,2.4641426,-0.13356309,0.12791653,-0.16622189,0.048881393,-0.017655622,-0.14380805,-0.8236054,0.22984336,-9.844957,0.83365434,47.667187,-1.1085176,-2.313242,-3.2792258,-0.3023234,-0.27862954,-0.35258734,28.8125,30.1875,29.3125,32.875,35.375,36.4375
0.22205438,-1.6112515,-1.6085407,-2.5628874,-0.07424285,0.13964997,-0.15755497,-0.4003418,-0.36519632,0.060011525,-3.0765972,0.6224679,-0.0002719183,-0.104359105,0.031627383,0.0005369285,0.019732727,7.6619355e-05,0.016536968,0.49012697,-1.3676776,1.8862933,-2.0861065,-1.5726599,2.4638634,-0.1359545,0.13132025,-0.16843387,0.046105355,-0.017984206,-0.15235138,-0.7661445,0.2681506,-9.653421,0.8224646,47.65464,-0.9813293,-2.3368,-3.2879376,-0.2752167,-0.30277908,-0.28430745,28.8125,30.1875,29.3125,32.875,35.375,36.4375
0.22405456,-1.2677737,-1.4583151,-2.4241478,-0.07470733,0.13918759,-0.15980296,-0.40055054,-0.36513525,0.060005568,-3.0765808,0.6223806,-0.00027945003,-0.10605267,0.031156344,0.0017478984,0.017587932,0.003698321,0.026071567,0.4898513,-1.3674014,1.8859581,-2.086023,-1.5726837,2.4635355,-0.13671178,0.13090515,-0.1702808,0.04413333,-0.017829584,-0.16264267,-0.63206923,0.3256114,-9.557653,0.84484416,47.666286,-1.076116,-2.3312201,-3.338461,-0.2528862,-0.31569874,-0.18176281,28.8125,30.1875,29.3125,32.875,35.375,36.4375
0.2260538,-2.039793,-1.866424,-2.50975,-0.043703448,0.11026392,-0.1436195,-0.40079102,-0.36508664,0.0600435,-3.0766163,0.62228805,-0.00016154934,-0.10630605,0.031752653,-0.00023405021,0.019343093,0.0016579293,0.029503655,0.4895758,-1.3671598,1.8855647,-2.0859401,-1.5727199,2.463198,-0.13749674,0.13453403,-0.16979742,0.042630356,-0.0184192,-0.1668586,-0.59376204,0.28730422,-9.787497,0.7866488,47.66091,-1.1779195,-2.396122,-3.3779838,-0.20546019,-0.31044176,-0.10051171,28.8125,30.1875,29.3125,32.875,35.375,36.4375
0.22805402,-1.869215,-1.5259176,-2.2061803,-0.05006696,0.1055358,-0.14472601,-0.4010091,-0.36502302,0.060036555,-3.0766063,0.6221699,-0.00016790109,-0.10748299,0.0319244,-0.0005149602,0.019502059,0.0020216377,0.029172458,0.48928806,-1.366871,1.8852166,-2.0858572,-1.5727443,2.462838,-0.13856754,0.13652195,-0.17143223,0.04202152,-0.018742958,-0.16759582,-0.61291564,0.34476504,-9.653421,0.8157518,47.660015,-1.1148022,-2.3492756,-3.3589258,-0.16542555,-0.32285416,-0.03864873,28.8125,30.1875,29.3125,32.875,35.375,36.4375
0.23005398,-1.9334421,-1.7179397,-2.0553687,-0.047690734,0.09815227,-0.14125004,-0.4012472,-0.364934,0.06003815,-3.076556,0.622123,-7.6108816e-05,-0.10809391,0.032110687,-0.001534488,0.02026046,0.00017978085,0.023610108,0.48897642,-1.3666056,1.8848823,-2.0857966,-1.5728277,2.4625037,-0.13947308,0.13966997,-0.1729972,0.042410254,-0.018542336,-0.16293885,-0.49799395,0.28730422,-9.423578,0.8918391,47.655537,-1.1368561,-2.406775,-3.4308176,-0.14303792,-0.32856214,-0.06463081,28.8125,30.1875,29.3125,32.875,35.375,36.4375
0.23205444,-1.6297635,-1.6579353,-2.1197248,-0.04129236,0.08149781,-0.14849642,-0.40148538,-0.3648997,0.06004988,-3.0765917,0.62205625,-7.2028006e-06,-0.10877298,0.032354016,5.9248494e-05,0.019550592,0.002750496,0.015722932,0.48871273,-1.3663063,1.884487,-2.085749,-1.5728401,2.462194,-0.14005935,0.1371333,-0.17379172,0.04314927,-0.019104365,-0.15563723,-0.30645782,0.22984336,-9.481039,0.8157518,47.64837,-1.1771946,-2.4248595,-3.440412,-0.122930095,-0.35055548,-0.13995835,28.8125,30.1875,29.3125,32.875,35.375,36.4375
0.23405416,-0.80609477,-1.1981833,-1.7911849,-0.04763352,0.07294812,-0.14104003,-0.40169185,-0.36482936,0.06003993,-3.07656,0.62203276,-1.6641105e-05,-0.10988852,0.032903105,-0.0006217956,0.021059377,0.0018556184,0.008974476,0.4884249,-1.3660406,1.8841757,-2.0856764,-1.5728649,2.4618957,-0.14134529,0.14006765,-0.17594774,0.043875095,-0.020016273,-0.15017009,-0.2873042,0.19153613,-9.32781,0.9791215,47.675243,-1.1598966,-2.6353202,-3.4333296,-0.09938669,-0.32592982,-0.21969113,28.8125,30.1875,29.3125,32.875,35.375,36.4375
0.23605487,-0.5180789,-1.1228493,-1.5754521,-0.024019493,0.048635796,-0.13684486,-0.40193737,-0.36476472,0.060055383,-3.0765417,0.62205005,6.924006e-05,-0.11020292,0.032732304,-0.00072042766,0.021301823,0.0012430841,0.003653011,0.48812562,-1.3657641,1.8837937,-2.0856044,-1.5729121,2.4616098,-0.14130735,0.14139211,-0.1775529,0.044809088,-0.019932574,-0.14481094,-0.095768064,0.15322891,-9.251195,0.94331104,47.690468,-1.175547,-2.4299536,-3.4453025,-0.069412984,-0.3529092,-0.325594,28.8125,30.1875,29.3125,32.875,35.375,36.4375
0.2380541,0.6983145,-0.39755896,-1.3635402,0.0043851463,0.045921326,-0.14751312,-0.4021519,-0.36469245,0.06003983,-3.0764844,0.62202024,9.676808e-05,-0.111537695,0.03347018,-0.0007208957,0.021427851,0.00069966505,-0.0024680414,0.4878494,-1.3654755,1.8834704,-2.0855443,-1.5729722,2.4613225,-0.14375119,0.14283033,-0.17955758,0.04590842,-0.01979062,-0.14113288,0.076614454,-0.038307227,-9.059659,0.92093146,47.698532,-1.061319,-2.387978,-3.3639834,-0.06174305,-0.34549493,-0.38980466,28.8125,30.1875,29.3125,32.875,35.375,36.4375
0.24005455,0.7285712,0.21706252,-1.2756702,0.034739986,0.014378422,-0.13530292,-0.40240934,-0.36464003,0.060073692,-3.076503,0.62200576,0.00024226132,-0.11343377,0.034744877,0.0001159917,0.02084518,0.0014831612,-0.008304028,0.4875609,-1.3652114,1.8830637,-2.0854838,-1.5730203,2.4610229,-0.14758854,0.14250818,-0.18136969,0.04706927,-0.019631913,-0.13913588,0.114921674,-0.095768064,-9.002198,0.83365434,47.687782,-1.1003581,-2.419571,-3.4100513,-0.02472324,-0.3516122,-0.47814116,28.8125,30.1875,29.3125,32.875,35.375,36.4375
0.24205427,1.1637069,0.8700558,-1.1187991,0.04296387,0.007144138,-0.15743516,-0.4026591,-0.36455566,0.060064387,-3.0764399,0.6220846,0.0002688156,-0.1136325,0.0347533,-0.00057596486,0.021651395,-5.935836e-05,-0.0040025422,0.4872256,-1.3648981,1.8826936,-2.0854113,-1.573068,2.460745,-0.14768776,0.14473723,-0.18268678,0.04787454,-0.019635629,-0.14353561,0.24899697,-0.019153614,-8.848969,0.800085,47.67345,-1.0565076,-2.5370274,-3.3735075,-0.0030168653,-0.3832326,-0.50369954,28.8125,30.1875,29.3125,32.875,35.375,36.4375
0.24405456,1.501421,0.5024081,-1.2366543,0.054258954,0.008856874,-0.15308785,-0.4028871,-0.36448342,0.06006617,-3.0764263,0.6221532,0.00026789992,-0.11559507,0.035680395,-0.00031985668,0.022413699,-0.00039247575,0.0033529494,0.4869012,-1.3646333,1.8823565,-2.0853393,-1.5730685,2.4604654,-0.15057333,0.14679621,-0.18624651,0.049998213,-0.020176938,-0.15377358,0.28730422,-0.038307227,-8.887277,0.86498255,47.657326,-0.9946213,-2.3345175,-3.2553163,0.01661587,-0.35684425,-0.43027708,28.8125,30.1875,29.3125,32.875,35.375,36.4375
0.24605483,1.1330353,0.16451024,-1.243103,0.031780068,0.013904374,-0.15482235,-0.40311682,-0.36440328,0.060059335,-3.076319,0.6221233,0.00026166096,-0.1165114,0.0352824,0.002156323,0.021718252,0.0026866808,0.015533361,0.4866138,-1.36431,1.8819498,-2.085183,-1.5731529,2.4601734,-0.15010953,0.14431001,-0.1895449,0.05269208,-0.021038111,-0.16548547,0.22984336,-0.05746084,-8.887277,0.83589023,47.666286,-0.93415034,-2.23366,-3.2432034,0.03181943,-0.36885154,-0.3366422,28.8125,30.1875,29.3125,32.875,35.375,36.4375
0.24805458,0.27140802,-0.48426294,-1.4564148,0.010797884,0.025150534,-0.15180339,-0.4033252,-0.36433893,0.06008726,-3.0763097,0.6219424,0.0002920073,-0.11738586,0.035652675,0.0027933198,0.02185415,0.0025070661,0.024189232,0.48634982,-1.3640815,1.8815774,-2.085026,-1.5732011,2.4597979,-0.1513962,0.14460671,-0.19187531,0.054910436,-0.021096116,-0.17542693,0.15322891,-0.05746084,-8.868123,0.8717007,47.63315,-0.90905595,-2.1871476,-3.023794,0.016502114,-0.3830447,-0.24289846,28.8125,30.1875,29.3125,32.875,35.375,36.4375
0.2500545,0.20062928,-0.6430091,-1.7385874,-0.009791506,0.049667634,-0.14585465,-0.40354598,-0.36425015,0.060058337,-3.0762181,0.6219002,0.00019111768,-0.11749916,0.036602676,0.0023213709,0.023723118,0.00017430217,0.028208124,0.48602661,-1.3637447,1.8812073,-2.0848815,-1.5732373,2.4594603,-0.1526406,0.14581518,-0.1929098,0.057648204,-0.02168688,-0.18068567,0.17238252,0.076614454,-9.078813,0.8873621,47.652847,-1.1568052,-2.168712,-3.1358538,0.009206604,-0.38586572,-0.1633723,28.8125,30.1875,29.3125,32.875,35.375,36.4375
0.2520542,-0.7226808,-1.15914,-1.9609108,-0.027819084,0.05287471,-0.138618,-0.40375444,-0.36418405,0.060044248,-3.076205,0.62182075,7.3103234e-05,-0.11668774,0.036949486,0.0015151232,0.02605806,-0.0036370703,0.025859516,0.4857153,-1.3634439,1.8808488,-2.0847485,-1.573213,2.4591012,-0.15223883,0.14764354,-0.19418962,0.061566107,-0.021977723,-0.17793225,0.038307227,0.19153613,-9.251195,0.7642693,47.65464,-1.1768466,-2.1909568,-3.2686844,-0.025560554,-0.3844009,-0.15385678,28.8125,30.1875,29.3125,32.875,35.375,36.4375
0.2540543,-0.25103647,-0.838621,-1.9627291,-0.06674373,0.09175698,-0.16097364,-0.40398046,-0.36409387,0.06005428,-3.0761244,0.6216916,8.003026e-05,-0.11683963,0.038040463,0.0013937454,0.02805053,-0.0052904217,0.018543826,0.48541534,-1.3631675,1.8804544,-2.0845683,-1.5732979,2.4587312,-0.15351008,0.14805633,-0.19508773,0.06444118,-0.022967206,-0.17188287,-0.1340753,0.24899697,-9.404425,0.90527004,47.68599,-1.0740937,-2.1158915,-3.2693925,-0.048309505,-0.3543406,-0.20623648,28.8125,30.1875,29.3125,32.875,35.375,36.4375
0.25605437,-1.8792573,-1.9892602,-2.4133625,-0.048579246,0.05774746,-0.14762641,-0.4042222,-0.36402574,0.060050715,-3.076049,0.62179303,9.217151e-05,-0.117168546,0.039386436,0.00035794385,0.03054806,-0.008129614,0.011910824,0.48511562,-1.3628424,1.8800486,-2.08446,-1.5733455,2.4585047,-0.1554253,0.15021656,-0.19588466,0.06675493,-0.023849275,-0.16716094,-0.15322891,0.30645782,-9.5385,0.8940802,47.681515,-1.0716934,-2.1528597,-3.3083134,-0.08111514,-0.38191137,-0.29051763,28.8125,30.1875,29.3125,32.875,35.375,36.4375
0.2580551,-1.0915279,-1.6917467,-2.6351519,-0.065551214,0.0801718,-0.15164113,-0.4044395,-0.36394823,0.060047437,-3.07602,0.62159586,5.0192175e-05,-0.117167145,0.04075453,-0.0013340904,0.033402793,-0.012804106,0.008689177,0.48481536,-1.3625534,1.8796767,-2.0843146,-1.5733823,2.4580853,-0.15741527,0.15353598,-0.19672655,0.06973521,-0.024205659,-0.16592596,-0.15322891,0.24899697,-9.672575,0.91421866,47.67793,-0.97655463,-2.0577717,-3.3181791,-0.14085288,-0.38151228,-0.34730762,28.8125,30.1875,29.3125,32.875,35.375,36.4375
0.26005447,-1.3958893,-2.2742927,-2.5890198,-0.0590556,0.07764078,-0.13919118,-0.40465546,-0.36387792,0.060033787,-3.0759475,0.6215401,-2.2941414e-05,-0.11710545,0.04174641,-0.0011658184,0.033748265,-0.013904448,0.007968668,0.4845276,-1.362229,1.8792838,-2.0841587,-1.5734175,2.4577723,-0.15905389,0.15244521,-0.19622998,0.071448304,-0.024017986,-0.16684327,-0.24899697,0.21068975,-9.749189,0.86945957,47.66987,-0.97703195,-2.2529244,-3.4694383,-0.17854024,-0.38366088,-0.35425407,28.8125,30.1875,29.3125,32.875,35.375,36.4375
0.2620537,-1.2271457,-1.5016612,-2.3680725,-0.06273927,0.08473799,-0.14841355,-0.4049106,-0.36377606,0.06003815,-3.0758786,0.6215628,2.91076e-06,-0.117509924,0.04250745,-0.0021569638,0.036272623,-0.017098345,0.008879115,0.484168,-1.3619395,1.8788995,-2.0840375,-1.5734781,2.4574358,-0.16012254,0.1557165,-0.19863999,0.074567825,-0.024782356,-0.16881782,-0.4405331,0.24899697,-9.730036,0.87617236,47.68062,-0.97959286,-2.3535404,-3.597869,-0.21352881,-0.37993863,-0.38530988,28.8125,30.1875,29.3125,32.875,35.375,36.4375
0.26405394,-2.0767574,-1.458923,-2.5511897,-0.025219891,0.08602183,-0.14137422,-0.40512925,-0.3636991,0.060038906,-3.0758138,0.62146795,-6.783898e-05,-0.1180354,0.04379804,-0.003936838,0.03876062,-0.020157475,0.01347308,0.4838679,-1.3616382,1.8784932,-2.0838463,-1.5735148,2.4570851,-0.1621644,0.15927611,-0.19906022,0.07526501,-0.025600474,-0.1754479,-0.40222588,0.19153614,-9.80665,0.88960326,47.65464,-1.0252175,-2.3280394,-3.6247842,-0.24963966,-0.36844158,-0.31245142,28.8125,30.1875,29.3125,32.875,35.375,36.4375
0.2660548,-1.5459232,-0.47003898,-2.4706318,-0.018110434,0.10896595,-0.15354483,-0.40538603,-0.36363915,0.06005426,-3.0758047,0.62132204,-2.5657206e-05,-0.1178411,0.042396545,-0.0042355927,0.03883458,-0.020247571,0.026063532,0.48356944,-1.3613132,1.8780388,-2.0837147,-1.5735625,2.456697,-0.15951367,0.16152376,-0.20109197,0.0751197,-0.02566301,-0.18538639,-0.38307226,0.038307227,-9.959879,0.8717007,47.65912,-1.1649102,-2.4326878,-3.6555877,-0.26832575,-0.35426968,-0.24350749,28.8125,30.1875,29.3125,32.875,35.375,36.4375
0.26805452,-1.4828016,-0.6077921,-2.2122705,-0.016744647,0.12156287,-0.15694395,-0.40561005,-0.36355534,0.060030058,-3.0757332,0.6212642,-0.00012561493,-0.11775228,0.043654736,-0.0044356445,0.040854737,-0.022662189,0.032680478,0.4832459,-1.3609767,1.8776573,-2.0835698,-1.5735868,2.4563468,-0.16101871,0.16171923,-0.20169336,0.078569375,-0.026372965,-0.19350322,-0.5554548,-0.038307227,-9.730036,0.89631605,47.640312,-1.0934557,-2.488256,-3.7042556,-0.30385128,-0.3622524,-0.11313248,28.8125,30.1875,29.3125,32.875,35.375,36.4375
0.2700547,-1.5765318,-0.6173683,-2.165675,-0.0056484314,0.113588385,-0.15057941,-0.40586197,-0.3634658,0.060031317,-3.075685,0.62115616,-0.000112264584,-0.119562835,0.0435706,-0.004071589,0.04086284,-0.019695824,0.033828124,0.48291022,-1.3606644,1.8772501,-2.083439,-1.5736469,2.45595,-0.16151208,0.16319734,-0.20390826,0.07666312,-0.027790977,-0.19513668,-0.38307226,-0.05746084,-9.5385,0.90750587,47.647476,-1.1431081,-2.5693893,-3.6988215,-0.34708428,-0.35127908,-0.08259404,28.8125,30.1875,29.3125,32.875,35.375,36.4375
0.272055,-1.3297387,-0.49163738,-1.9659158,-0.0029338503,0.105356,-0.1449113,-0.40611514,-0.36339816,0.06004421,-3.075665,0.6210197,-5.5716966e-05,-0.122150876,0.043346222,-0.0033422324,0.040532243,-0.016384577,0.02719891,0.4826106,-1.3603517,1.8768185,-2.0833194,-1.5737075,2.455568,-0.16255687,0.16542934,-0.20801793,0.07545574,-0.029044,-0.18954547,-0.57460845,-0.095768064,-9.442732,0.8537928,47.67345,-1.2100186,-2.469207,-3.6155348,-0.3407799,-0.34406227,-0.073556945,28.8125,30.1875,29.3125,32.875,35.375,36.4375
0.27405432,-1.3455788,-0.62720937,-1.8443935,0.005969663,0.08453087,-0.14390631,-0.4063584,-0.36328277,0.060036235,-3.075522,0.621051,-7.684496e-05,-0.12555614,0.043832973,-0.0019728178,0.038958102,-0.011845205,0.016812861,0.48226222,-1.3600401,1.8764223,-2.0831406,-1.5738043,2.455258,-0.16582859,0.16614495,-0.21160953,0.07357644,-0.029778225,-0.18242404,-0.4213795,-0.17238252,-9.346964,0.9298854,47.68062,-1.2837946,-2.4458206,-3.3779461,-0.34046674,-0.30799398,-0.17126368,28.8125,30.1875,29.3125,32.875,35.375,36.4375
0.2760547,-0.884471,-0.10633127,-1.6919916,0.00776914,0.076190345,-0.15175647,-0.40662262,-0.3632162,0.06004344,-3.0754957,0.6209694,-7.382436e-05,-0.1267873,0.042345062,-0.0018381553,0.0371968,-0.009516071,0.012636786,0.48193952,-1.3596914,1.875955,-2.082998,-1.5738395,2.4548879,-0.1646069,0.16855013,-0.21426837,0.07094924,-0.029308744,-0.17702606,-0.34476504,-0.076614454,-9.2703495,0.86945957,47.675243,-1.2407242,-2.4706097,-3.3162327,-0.3277697,-0.32689214,-0.24922125,28.8125,30.1875,29.3125,32.875,35.375,36.4375
0.27805385,-0.538201,0.087174915,-1.780656,-0.0006243056,0.078412265,-0.14724398,-0.40687928,-0.36313137,0.06003827,-3.0754454,0.62090445,-1.7626693e-05,-0.12889993,0.041973546,-0.00068113604,0.035236217,-0.0038437548,0.0052270447,0.481616,-1.3593681,1.8755597,-2.0829155,-1.573912,2.4545305,-0.16519287,0.16800295,-0.21531105,0.06660689,-0.030203646,-0.17019789,-0.4213795,0.019153614,-9.32781,0.8224646,47.660015,-1.1824287,-2.3874233,-3.3462024,-0.274755,-0.3029737,-0.35024142,28.8125,30.1875,29.3125,32.875,35.375,36.4375
0.2800543,-1.4337575,-0.9114294,-1.9418676,-0.005167481,0.072903395,-0.14584759,-0.40713072,-0.36301348,0.060044054,-3.0753055,0.6209521,-2.7967588e-05,-0.13003828,0.042347465,-1.5402888e-05,0.03626751,-0.0020289563,0.00232875,0.48125657,-1.3590683,1.8751405,-2.0827115,-1.5740083,2.454219,-0.16563128,0.16827697,-0.217325,0.067203246,-0.031975772,-0.16772752,-0.51714754,0.1340753,-9.308657,0.9097417,47.67166,-1.3100471,-2.279257,-3.3010254,-0.277205,-0.2557921,-0.44251102,28.8125,30.1875,29.3125,32.875,35.375,36.4375
0.28205463,-2.0785646,-1.9551997,-2.0002112,-0.019680306,0.09011669,-0.14260788,-0.40739587,-0.36294582,0.060051627,-3.0752802,0.620868,-2.2123157e-05,-0.13255462,0.041335028,0.0015452257,0.033449847,0.0037943323,0.004078436,0.48093247,-1.3587204,1.8746732,-2.0825698,-1.5740446,2.453846,-0.16589993,0.16841279,-0.22025777,0.06351209,-0.032201897,-0.16974308,-0.40222588,0.095768064,-9.423578,0.85826975,47.660015,-1.3451719,-2.2238922,-3.3623614,-0.25603247,-0.25863987,-0.4754215,28.8125,30.1875,29.3125,32.875,35.375,36.4375
0.28405446,-1.8475803,-2.044341,-2.0379744,-0.054658353,0.118023306,-0.15869008,-0.40766147,-0.3628711,0.060047742,-3.0752285,0.62086874,-3.4755816e-05,-0.13371265,0.04119087,0.0011192382,0.03260157,0.0044231256,0.014814675,0.4805961,-1.3583597,1.8742188,-2.0824392,-1.5740803,2.453517,-0.16681692,0.17049515,-0.22141662,0.061581858,-0.031789653,-0.18139626,-0.26815057,0.21068975,-9.404425,0.88960326,47.677036,-1.414367,-2.356926,-3.4106746,-0.21700542,-0.21804067,-0.4090473,28.8125,30.1875,29.3125,32.875,35.375,36.4375
0.28605422,-1.7719108,-2.3527722,-2.3162215,-0.06890423,0.118024744,-0.1626504,-0.40791592,-0.36278558,0.060047958,-3.0751822,0.62079537,-3.477655e-05,-0.13428177,0.04297122,0.00018895896,0.03443532,0.0019618217,0.024790138,0.48025924,-1.3580359,1.8737992,-2.0823066,-1.5741285,2.4531405,-0.16986032,0.17184922,-0.22131962,0.06309966,-0.032321453,-0.19441189,-0.15322891,0.30645782,-9.481039,0.90750587,47.66091,-1.3606052,-2.1973906,-3.3910327,-0.21666156,-0.22026384,-0.27531812,28.8125,30.1875,29.3125,32.875,35.375,36.4375
0.2880545,-1.1720088,-2.0753543,-2.0409894,-0.07844839,0.10152264,-0.16472472,-0.40818468,-0.3626711,0.06004707,-3.075094,0.620658,1.1567997e-05,-0.13711475,0.04258146,0.0027970131,0.031753134,0.008268189,0.031876717,0.47989875,-1.3577129,1.8733805,-2.0821636,-1.5742372,2.4527059,-0.1712201,0.17017308,-0.22491103,0.061475124,-0.03290356,-0.2028534,-0.24899697,0.28730422,-9.595961,0.86945957,47.652847,-1.3088796,-2.0969772,-3.431915,-0.18910941,-0.20330709,-0.20018756,28.8125,30.1875,29.3125,32.875,35.375,36.4375
0.2900806,-0.9588379,-2.2910335,-2.1372733,-0.073074,0.08295773,-0.16091882,-0.40847036,-0.36260468,0.060051553,-3.0750866,0.62050295,8.304389e-05,-0.13872747,0.04259709,0.0027235872,0.030892134,0.010954444,0.032615393,0.47957423,-1.3573407,1.8729013,-2.0820692,-1.5742973,2.4522858,-0.1722374,0.17146991,-0.22559159,0.058051515,-0.033393368,-0.20460725,-0.30645782,0.24899697,-9.576807,0.900793,47.664497,-1.1725676,-2.094171,-3.4674706,-0.13909735,-0.16388264,-0.1249138,28.8125,30.1875,29.3125,32.875,35.375,36.4375
0.29209203,-1.0472293,-1.6591594,-2.3547628,-0.051593114,0.046917297,-0.15437135,-0.40874195,-0.36251622,0.060061906,-3.0750515,0.6204045,0.00012293644,-0.13936894,0.044131674,0.0016165192,0.031699676,0.008249416,0.023514112,0.47922516,-1.3570166,1.8724579,-2.081937,-1.5743569,2.45188,-0.17557964,0.17323129,-0.22543815,0.058904793,-0.032848325,-0.19885005,-0.30645782,0.30645782,-9.557653,0.8493211,47.661808,-1.1125922,-2.0414617,-3.4789784,-0.09279624,-0.15098238,-0.17280099,28.8125,30.1875,29.3125,32.875,35.375,36.4375
0.29409343,-0.88286906,-1.3680102,-2.3814533,-0.029657712,0.03226915,-0.15220316,-0.40903893,-0.3624167,0.060064193,-3.0749893,0.62035614,0.00025058966,-0.13974634,0.04435928,-0.00020896792,0.032854438,0.0050072162,0.015478269,0.4788651,-1.3566672,1.8720158,-2.0818646,-1.5744647,2.451498,-0.1764646,0.17772813,-0.22682668,0.059198134,-0.03236023,-0.19170085,-0.3256114,0.17238252,-9.595961,0.88289046,47.684196,-1.2162024,-2.155454,-3.5277796,-0.0767654,-0.12049363,-0.26290107,28.8125,30.1875,29.3125,32.875,35.375,36.4375
0.2960941,-0.7243317,-1.2453784,-2.292705,-0.014136004,0.036256015,-0.1532719,-0.40932953,-0.36233822,0.060085416,-3.0749593,0.62035096,0.0003360282,-0.14126894,0.044550113,-7.339788e-05,0.031752527,0.0044862363,0.009353091,0.47851658,-1.3563311,1.8715361,-2.0817454,-1.5745243,2.4511504,-0.1787354,0.17966609,-0.22972943,0.060105797,-0.031134771,-0.1878513,-0.22984336,0.22984336,-9.557653,0.90527004,47.661808,-1.196127,-2.1309555,-3.5095897,-0.03662076,-0.12215434,-0.31388837,28.8125,30.1875,29.3125,32.875,35.375,36.4375
0.29809505,-0.4078521,-0.938866,-2.2014506,-0.02213943,0.048319492,-0.1528361,-0.4096107,-0.36222333,0.060064897,-3.0748746,0.6203537,0.00029003684,-0.14142364,0.04487855,-0.00024661337,0.03177271,0.002890046,0.0077195615,0.47810844,-1.3559588,1.8711046,-2.0816128,-1.574572,2.4507551,-0.17971997,0.18045631,-0.23070832,0.06169967,-0.030432932,-0.1872029,-0.19153613,0.11492168,-9.557653,0.86945957,47.670765,-1.2170713,-2.2410927,-3.5566607,-0.04073279,-0.11736696,-0.39553037,28.8125,30.1875,29.3125,32.875,35.375,36.4375
0.30005512,-0.22393115,-1.5360867,-2.1869028,-0.014619957,0.06863157,-0.15583679,-0.40988588,-0.362151,0.06008074,-3.0748403,0.6202482,0.00032857666,-0.1422913,0.044656333,-0.00055682653,0.031537786,0.0012675788,0.009802901,0.4777841,-1.3556103,1.8706135,-2.0814564,-1.5746316,2.4503696,-0.18055718,0.18328068,-0.23382245,0.063286774,-0.0294962,-0.19012584,-0.22984336,0.13407528,-9.519346,0.9164598,47.647476,-1.086977,-2.2898347,-3.5770082,-0.026709544,-0.12385602,-0.3797817,28.8125,30.1875,29.3125,32.875,35.375,36.4375
0.30205423,-0.49157366,-1.5938967,-2.0295653,-0.025355248,0.07994556,-0.16458029,-0.41015244,-0.36206082,0.060076896,-3.0747807,0.62025034,0.00030079283,-0.14328046,0.04504347,-0.0006433761,0.031269368,-0.00042422037,0.017369626,0.47742316,-1.355262,1.87017,-2.0813124,-1.5746673,2.450018,-0.18253769,0.18515553,-0.2364011,0.06531182,-0.028523156,-0.1996751,-0.24899697,0.05746084,-9.519346,0.82694155,47.684196,-0.9571593,-2.3991528,-3.486111,-0.03416437,-0.1204606,-0.34167415,28.8125,30.1875,29.3125,32.875,35.375,36.4375
0.30405384,-0.3305838,-1.2411612,-1.9414731,-0.027249694,0.08851026,-0.16342224,-0.4104619,-0.36196688,0.06008837,-3.0747547,0.62006664,0.00044479285,-0.14322919,0.045902938,-0.001294412,0.032227356,-0.0035994116,0.02741077,0.47706285,-1.3549018,1.8696908,-2.0812275,-1.5747751,2.4495466,-0.18414824,0.18645579,-0.23713763,0.06792827,-0.027943555,-0.2113303,-0.15322891,-0.038307227,-9.519346,0.8291774,47.66987,-1.060278,-2.3386,-3.5076668,-0.015967391,-0.1080261,-0.21178499,28.8125,30.1875,29.3125,32.875,35.375,36.4375
0.30605447,-0.8610402,-1.3483294,-2.002815,-0.011680351,0.065342166,-0.15592483,-0.41074622,-0.36188477,0.06008485,-3.0747325,0.62002075,0.0003789308,-0.14366409,0.046077657,-0.0016028245,0.03248598,-0.0065111206,0.0316543,0.47667837,-1.3545177,1.8692001,-2.0810707,-1.5747746,2.4491365,-0.18534112,0.18875559,-0.24000657,0.07116721,-0.026869506,-0.21676905,-0.24899697,0.0,-9.461885,0.88960326,47.642998,-1.0786803,-2.3396876,-3.435904,-0.029134292,-0.12650526,-0.10641637,28.8125,30.1875,29.3125,32.875,35.375,36.4375
0.30805463,-0.9165941,-0.853317,-1.7624967,-0.00943098,0.055679124,-0.15924978,-0.4110198,-0.3617925,0.06008452,-3.074678,0.61985683,0.00038691686,-0.14298072,0.04597567,-0.0006243955,0.032511286,-0.007706175,0.029852938,0.4763307,-1.3541584,1.8687323,-2.0809138,-1.5748466,2.4486938,-0.18477225,0.18721558,-0.24130589,0.075063504,-0.026348338,-0.21440002,-0.40222588,-0.05746084,-9.289502,0.8918391,47.63315,-1.0746903,-2.3264108,-3.55119,-0.068911076,-0.10698901,-0.10758652,28.8125,30.1875,29.3125,32.875,35.375,36.4375
0.31005406,-0.38093093,-0.7659193,-1.5945429,0.0017620191,0.06728936,-0.15346876,-0.41132036,-0.3616927,0.060086537,-3.0746114,0.61978775,0.00040808748,-0.14251487,0.045042247,-0.0003480742,0.03303755,-0.009767305,0.022804927,0.47594726,-1.3537743,1.8682293,-2.0807574,-1.5749186,2.448276,-0.1829741,0.18870494,-0.24468832,0.07903986,-0.025859565,-0.20555395,-0.45968673,-0.095768064,-9.270349,0.9365982,47.647476,-1.2666547,-2.232579,-3.4031482,-0.10381569,-0.10539843,-0.15006459,28.8125,30.1875,29.3125,32.875,35.375,36.4375
0.3120543,-1.3127722,-0.66434777,-1.4943908,0.006332302,0.05821384,-0.15134388,-0.41161776,-0.36161998,0.06010132,-3.0746121,0.6197346,0.00041256056,-0.14205824,0.044891775,-0.00043137727,0.0338381,-0.012859082,0.015114023,0.4755752,-1.353402,1.8677133,-2.0806115,-1.5749301,2.447871,-0.18263346,0.19005872,-0.24715038,0.08328281,-0.025136344,-0.19752476,-0.5746084,0.019153614,-9.212888,0.80679786,47.68062,-1.3527806,-2.24541,-3.3145561,-0.13716184,-0.13579911,-0.30733874,28.8125,30.1875,29.3125,32.875,35.375,36.4375
0.3140543,-0.60302883,0.08159712,-1.4384573,0.00014668045,0.07486558,-0.16308518,-0.4118892,-0.36152002,0.060079522,-3.074526,0.61966264,0.00033567802,-0.14232606,0.045768693,-0.00030324617,0.03453221,-0.015012778,0.0063364357,0.47520277,-1.3530061,1.867247,-2.0804427,-1.5749782,2.447465,-0.18442771,0.19040786,-0.24870357,0.08672931,-0.02477126,-0.19054033,-0.53630114,0.038307227,-9.251195,0.8873621,47.655537,-1.5263271,-2.1858993,-3.33049,-0.19327167,-0.1307447,-0.38354862,28.8125,30.1875,29.3125,32.875,35.375,36.4375
0.31605437,-1.2453202,-0.57730114,-1.674801,0.01868714,0.057747547,-0.15934141,-0.41219214,-0.36141357,0.06009545,-3.0744638,0.6196493,0.0003866926,-0.14137994,0.04621188,-0.0019235762,0.036482014,-0.0197876,0.0043125846,0.47480702,-1.352658,1.8667554,-2.0802863,-1.5750502,2.4470692,-0.18448809,0.19315255,-0.24899632,0.089399174,-0.02432469,-0.18857834,-0.38307226,0.019153614,-9.193734,0.91198283,47.647476,-1.4798307,-2.102648,-3.3829904,-0.23440185,-0.14578013,-0.47971994,28.8125,30.1875,29.3125,32.875,35.375,36.4375
0.31805485,-1.1818489,-0.8407968,-1.4651808,-0.0066989376,0.068824634,-0.15102217,-0.41248155,-0.3613573,0.06011577,-3.0744517,0.6196246,0.0003779036,-0.1425386,0.047072094,-0.00095392385,0.03576396,-0.019334124,0.007969677,0.47447014,-1.3522745,1.8662056,-2.0801065,-1.5750617,2.4467187,-0.18703431,0.19224204,-0.2505435,0.09108732,-0.02392607,-0.19478309,-0.34476504,0.038307227,-9.212888,0.9030289,47.66987,-1.3655576,-2.060492,-3.2986753,-0.29038733,-0.15195274,-0.5016074,28.8125,30.1875,29.3125,32.875,35.375,36.4375
0.32005394,-1.1000673,-1.0008868,-1.6179315,-0.018380187,0.07006188,-0.166826,-0.41275716,-0.3612473,0.060109314,-3.0743418,0.61955595,0.00028696746,-0.14476028,0.047070913,-0.00072425004,0.035365056,-0.017224051,0.018829746,0.4740856,-1.35189,1.865702,-2.079868,-1.5751222,2.4463058,-0.18839838,0.19466469,-0.2537541,0.089744434,-0.024620552,-0.20699997,-0.15322891,0.038307227,-9.136273,0.9298854,47.66987,-1.3380437,-2.1709986,-3.4303188,-0.29517153,-0.15117207,-0.38957947,28.8125,30.1875,29.3125,32.875,35.375,36.4375
0.3220543,-0.2241335,-1.0724115,-1.6525016,-0.014820036,0.085438244,-0.16326287,-0.4130179,-0.3611366,0.06008152,-3.07426,0.6194184,0.00022218672,-0.14584082,0.04799441,-0.0010520841,0.036028374,-0.017923562,0.029689824,0.4737127,-1.3515178,1.8652829,-2.0797236,-1.5751823,2.4458578,-0.19053684,0.19617383,-0.25503626,0.09036512,-0.024968497,-0.21999423,-0.095768064,-0.095768064,-9.174581,0.8940802,47.68599,-1.167508,-2.1344323,-3.3897297,-0.3311426,-0.14410883,-0.25745812,28.8125,30.1875,29.3125,32.875,35.375,36.4375
0.32405463,-0.8017977,-1.359889,-1.7649399,-0.0061925366,0.057091046,-0.15858677,-0.41335425,-0.36103764,0.060093064,-3.0742269,0.619372,0.00022389278,-0.14860295,0.048424777,-0.001329836,0.034043357,-0.014148569,0.031668387,0.4732798,-1.3510972,1.8647083,-2.0795462,-1.5752181,2.4454005,-0.19346963,0.19812803,-0.25555706,0.08462694,-0.024972703,-0.22490454,-0.19153613,0.019153614,-9.174581,0.9164598,47.66987,-1.2445023,-2.1944344,-3.3328056,-0.28758976,-0.14787035,-0.15165639,28.8125,30.1875,29.3125,32.875,35.375,36.4375
0.32605353,-0.9404658,-1.8038856,-1.677894,-0.018801168,0.061617017,-0.14499164,-0.41363603,-0.36095363,0.060098298,-3.0741584,0.61918783,0.0002565431,-0.15046097,0.048240397,-0.00017624086,0.03217857,-0.011165777,0.025502129,0.47295558,-1.3507138,1.8641928,-2.0793674,-1.5753139,2.4449704,-0.1948059,0.1981277,-0.2580058,0.08356303,-0.024682276,-0.22007413,-0.22984336,0.076614454,-9.232041,0.91198283,47.65464,-1.2214017,-2.065021,-3.4697044,-0.24739873,-0.1594307,-0.15982589,28.8125,30.1875,29.3125,32.875,35.375,36.4375
0.32805416,0.0065867323,-1.3767836,-1.5928776,-0.046685964,0.085184,-0.16459303,-0.41393057,-0.36084282,0.060080715,-3.0740664,0.6191149,0.00016610269,-0.15338828,0.048491567,-0.00011589728,0.030377865,-0.0068441313,0.016194638,0.47254696,-1.350293,1.8636783,-2.0791652,-1.5753621,2.4445283,-0.19735709,0.20006722,-0.25939846,0.07836103,-0.025071327,-0.21331239,-0.30645782,0.19153613,-9.193734,0.86945957,47.6421,-1.1298616,-2.1268766,-3.4967983,-0.22545797,-0.14991519,-0.23758864,28.8125,30.1875,29.3125,32.875,35.375,36.4375
0.33005443,-1.3604591,-2.4048681,-1.8147026,-0.041477706,0.061324835,-0.14202008,-0.41422132,-0.36072284,0.060047474,-3.073968,0.6190774,7.6763085e-05,-0.15546925,0.04841642,0.00019729073,0.028978629,-0.004019152,0.009904031,0.47212654,-1.3498732,1.863211,-2.0790102,-1.5754102,2.4440975,-0.19883236,0.20158173,-0.2614304,0.075728655,-0.02513437,-0.20849322,-0.22984336,0.2681506,-9.232041,0.9298854,47.66091,-1.0500578,-2.110205,-3.4734643,-0.1672417,-0.17197177,-0.32348832,28.8125,30.1875,29.3125,32.875,35.375,36.4375
0.33205462,-1.3100673,-2.3570287,-2.0467663,-0.053948183,0.077433065,-0.15259098,-0.41455686,-0.36065432,0.06009686,-3.073991,0.61896837,0.00019467398,-0.15716043,0.048365276,0.00054830837,0.02785086,-0.0019133692,0.00656672,0.4717539,-1.3495013,1.8626112,-2.0788438,-1.5754584,2.443654,-0.20006526,0.20278798,-0.26338464,0.07407925,-0.025080837,-0.20638981,-0.38307226,0.21068975,-9.308657,0.85826975,47.68062,-1.031165,-2.0064635,-3.447505,-0.14181627,-0.18442361,-0.38204792,28.8125,30.1875,29.3125,32.875,35.375,36.4375
0.33405375,-1.7758452,-2.24433,-2.1474352,-0.046365667,0.073638625,-0.16056317,-0.4148639,-0.36051685,0.060057543,-3.073858,0.6190527,0.000114349365,-0.15843822,0.048168074,0.00041523096,0.027103787,-0.0008873261,0.010199073,0.47129795,-1.3490689,1.8621448,-2.0787008,-1.575518,2.4432683,-0.2007625,0.20472737,-0.2651929,0.07265051,-0.024933401,-0.21071686,-0.49799395,0.2681506,-9.442732,0.90750587,47.681515,-0.9737732,-2.1532578,-3.4952536,-0.12831885,-0.18650958,-0.38035712,28.8125,30.1875,29.3125,32.875,35.375,36.4375
0.33605385,-2.1328065,-2.4218948,-2.228146,-0.047964476,0.08619991,-0.15233585,-0.41516072,-0.36042988,0.060042873,-3.0738196,0.61892116,4.380512e-05,-0.1591977,0.048136707,0.00036124958,0.02695032,-0.0016450308,0.020829862,0.4709138,-1.3486369,1.861617,-2.078532,-1.5755423,2.4428072,-0.201461,0.20645893,-0.26749882,0.07376064,-0.024518242,-0.22204597,-0.34476504,0.24899697,-9.404425,0.9030289,47.660015,-0.9111657,-2.1164024,-3.527181,-0.09065311,-0.17010942,-0.26301754,28.8125,30.1875,29.3125,32.875,35.375,36.4375
0.33805445,-2.137759,-2.2253122,-2.1901834,-0.032985155,0.101734035,-0.1533,-0.41548496,-0.36036727,0.060073078,-3.0738623,0.6187523,0.00014497427,-0.15994619,0.04698192,0.000234214,0.026855113,-0.0021221663,0.032720067,0.47055414,-1.3482512,1.8610543,-2.0784128,-1.5755781,2.4423368,-0.20017573,0.20978573,-0.27154687,0.074795805,-0.024254775,-0.23265219,-0.45968673,0.24899697,-9.404425,0.8851263,47.64658,-1.1772504,-2.3986764,-3.4398713,-0.10788513,-0.20205045,-0.14694013,28.8125,30.1875,29.3125,32.875,35.375,36.4375
0.34005377,-1.1323668,-1.8941154,-2.4189055,-0.009533096,0.11821206,-0.14058031,-0.41583502,-0.3602656,0.060085494,-3.0738244,0.6187038,0.00019751025,-0.16094053,0.046116583,0.0001561226,0.026628561,-0.000717553,0.035303973,0.47012243,-1.3478193,1.8604678,-2.0782573,-1.5756382,2.44188,-0.19913012,0.2122105,-0.27411035,0.07355015,-0.024709579,-0.2341871,-0.6895301,0.3256114,-9.461885,0.9455522,47.67614,-1.3560109,-2.4034376,-3.2717576,-0.060976226,-0.19908708,-0.09514266,28.8125,30.1875,29.3125,32.875,35.375,36.4375
0.34205416,-1.472698,-1.6012101,-2.4051204,-0.015421947,0.1194544,-0.14774047,-0.41610602,-0.36017084,0.06005338,-3.0737503,0.61849934,9.047817e-05,-0.1606984,0.046884842,-0.00039910604,0.029389095,-0.003072245,0.02894051,0.46976292,-1.3473877,1.8599766,-2.0780761,-1.5756868,2.4414027,-0.19921727,0.21365866,-0.27540112,0.07675851,-0.026109582,-0.22790003,-0.7086837,0.2681506,-9.595961,0.89631605,47.660015,-1.3987885,-2.3757932,-3.3961062,-0.03502417,-0.20537597,-0.123428404,28.8125,30.1875,29.3125,32.875,35.375,36.4375
0.34405395,-1.4631774,-1.2627112,-2.2986093,-0.039245546,0.10403794,-0.15583186,-0.41641966,-0.36006862,0.0600371,-3.0736804,0.6184311,4.3712815e-05,-0.16057597,0.04725163,-0.0015735971,0.030808495,-0.005219068,0.019924894,0.4693547,-1.346943,1.8594369,-2.0779088,-1.575735,2.4409611,-0.19939435,0.21600518,-0.27580893,0.0774006,-0.026392465,-0.21905772,-0.5554548,0.24899697,-9.576807,0.9768804,47.640312,-1.4457314,-2.400289,-3.4680276,-0.041634157,-0.209643,-0.24424946,28.8125,30.1875,29.3125,32.875,35.375,36.4375
0.3460546,-2.0415962,-2.3929093,-2.3192132,-0.043338243,0.07040531,-0.14582647,-0.41679308,-0.35995921,0.06006286,-3.073642,0.61848587,0.00016456287,-0.16145517,0.047884922,-0.001425909,0.030875955,-0.0045381095,0.009781503,0.4688982,-1.3465235,1.8588399,-2.0777771,-1.5758065,2.4405441,-0.20080616,0.21627513,-0.27652583,0.077288955,-0.026727077,-0.21032533,-0.57460845,0.21068975,-9.519346,0.9030289,47.67614,-1.4107847,-2.3162875,-3.6349354,-0.018514685,-0.22470982,-0.3651347,28.8125,30.1875,29.3125,32.875,35.375,36.4375
0.34805426,-1.1781653,-2.0433285,-1.9393919,-0.073020846,0.08284074,-0.15821879,-0.4170876,-0.35986215,0.06001608,-3.0735216,0.6183673,9.097788e-05,-0.16242237,0.048494354,-0.001545488,0.0314854,-0.0060285,0.002514088,0.46853742,-1.3460307,1.858313,-2.0776203,-1.5758909,2.4401252,-0.20256828,0.2181744,-0.2791871,0.079656996,-0.026608543,-0.20481658,-0.5746084,0.21068975,-9.404425,0.9410752,47.666286,-1.3857307,-2.4125156,-3.57202,-0.010584243,-0.22201978,-0.48091176,28.8125,30.1875,29.3125,32.875,35.375,36.4375
0.35005432,-0.945463,-1.765365,-1.9708365,-0.056484547,0.07583978,-0.1559562,-0.41744873,-0.3597876,0.060049515,-3.0735316,0.61840516,0.00021054907,-0.16308643,0.049724996,-0.00077219843,0.032467056,-0.0063212537,0.005382437,0.46812883,-1.3456116,1.8577012,-2.0775,-1.5759271,2.4397392,-0.20454176,0.2172377,-0.280545,0.082616,-0.027360512,-0.20965634,-0.38307226,0.095768064,-9.346964,1.099968,47.64837,-1.433209,-2.453238,-3.482638,-0.0071291523,-0.23207662,-0.49202627,28.8125,30.1875,29.3125,32.875,35.375,36.4375
0.35205448,-0.9174544,-0.96335477,-2.028865,-0.011680283,0.053307567,-0.15162078,-0.4177398,-0.35969928,0.060040474,-3.0735261,0.6182996,9.1714064e-05,-0.16335689,0.05026943,-0.0006868811,0.03382823,-0.008472643,0.018291755,0.46772054,-1.345204,1.8571857,-2.077319,-1.5759033,2.439266,-0.20532747,0.2184009,-0.28308925,0.08645637,-0.027680125,-0.2233472,-0.1340753,0.038307227,-9.442732,0.9545008,47.682407,-1.3654327,-2.316902,-3.5515535,-0.04487157,-0.23407927,-0.4131884,28.8125,30.1875,29.3125,32.875,35.375,36.4375
0.35405424,-0.24117959,0.15491764,-2.1894963,0.02377906,0.039649487,-0.16364852,-0.41812593,-0.35960647,0.060061045,-3.0734792,0.61820686,0.00025983987,-0.16454628,0.050600115,0.00026702887,0.033150375,-0.009793457,0.029672187,0.46731168,-1.3447239,1.8565263,-2.0771859,-1.576023,2.4388056,-0.20739055,0.2191625,-0.28719583,0.09056297,-0.026530875,-0.23679745,-0.095768064,0.0,-9.289502,0.9768804,47.67614,-1.2438879,-2.2160797,-3.4857085,-0.07929821,-0.24248469,-0.28191295,28.8125,30.1875,29.3125,32.875,35.375,36.4375
0.35605463,-0.31802714,0.56172305,-1.8386239,0.042062826,0.030839361,-0.16038312,-0.4184441,-0.35949838,0.060021486,-3.073422,0.61815643,8.875033e-05,-0.1650837,0.052446786,-0.0012983973,0.035304315,-0.015792366,0.030284192,0.46685484,-1.3442312,1.8559765,-2.0770047,-1.5760101,2.438325,-0.2111861,0.22292827,-0.28937253,0.095266245,-0.025806107,-0.24120495,-0.22984336,-0.076614454,-9.3661175,0.9567419,47.681515,-1.0881562,-2.2683558,-3.4388595,-0.12170528,-0.26738572,-0.18830615,28.8125,30.1875,29.3125,32.875,35.375,36.4375
0.3580542,-0.3830248,0.11535244,-2.0108848,0.05471158,0.026571928,-0.15345639,-0.41878334,-0.35938087,0.06001521,-3.0733035,0.6180411,0.00011097215,-0.16616619,0.054103293,-0.0015038698,0.037467383,-0.01912422,0.020461893,0.46644577,-1.3437634,1.8553761,-2.0767996,-1.5761307,2.4378595,-0.21442485,0.22510837,-0.2928094,0.10046975,-0.026237639,-0.23461604,-0.36391866,-0.13407528,-9.232041,0.88289046,47.684196,-1.0941012,-2.2859197,-3.2903438,-0.17165934,-0.27581212,-0.2311385,28.8125,30.1875,29.3125,32.875,35.375,36.4375
0.36005452,-0.51198345,0.10587927,-2.0334628,0.029924568,0.039316513,-0.15498991,-0.41912192,-0.35925317,0.060030974,-3.073232,0.618012,7.440979e-05,-0.1672767,0.055842333,-0.0007447434,0.03862455,-0.020204082,0.01059131,0.4659768,-1.3433552,1.8547901,-2.0765588,-1.5761789,2.437382,-0.21774164,0.22468847,-0.2950213,0.10460093,-0.026784657,-0.22805709,-0.17238252,-0.15322891,-9.289502,0.88289046,47.695843,-0.94677687,-2.3867173,-3.236088,-0.24780074,-0.29173958,-0.3047645,28.8125,30.1875,29.3125,32.875,35.375,36.4375
0.36205468,-0.38341245,-0.4614493,-2.2223692,0.012321032,0.03939867,-0.14515044,-0.419447,-0.3591454,0.060036533,-3.0731614,0.6179202,-1.4821522e-05,-0.1672618,0.05518991,-0.0004973778,0.03924966,-0.021179523,0.009307373,0.46554548,-1.3429112,1.8541783,-2.0762947,-1.5762151,2.4369028,-0.21638088,0.22614175,-0.29804403,0.107318535,-0.026931513,-0.22540808,-0.095768064,-0.21068975,-9.423578,0.86945957,47.67614,-1.0553414,-2.4552093,-3.2080655,-0.28776577,-0.29717818,-0.3991648,28.8125,30.1875,29.3125,32.875,35.375,36.4375
0.36405432,-1.1085842,-1.1234092,-1.8992013,-0.009438615,0.040686943,-0.15592316,-0.4197585,-0.35904038,0.06001041,-3.0730553,0.61787647,-0.00012438803,-0.16609977,0.055434417,-0.0024256778,0.040937718,-0.024751008,0.012032651,0.4651377,-1.3424308,1.8536047,-2.0760791,-1.5762633,2.4364817,-0.21567418,0.22855,-0.29673842,0.10752155,-0.02688627,-0.2274241,-0.21068975,-0.15322891,-9.423578,0.95897776,47.63315,-1.1623787,-2.4698257,-3.1922078,-0.3180428,-0.32335812,-0.41057944,28.8125,30.1875,29.3125,32.875,35.375,36.4375
0.3660562,-1.3924304,-0.8814612,-1.9371213,-0.045769013,0.07963983,-0.15253572,-0.42007697,-0.35892856,0.060002413,-3.0729182,0.617804,-0.00018518776,-0.16673641,0.055259384,-0.0034557262,0.04146267,-0.023598038,0.021994604,0.4647419,-1.341963,1.8529948,-2.0758169,-1.5763592,2.4360588,-0.21510217,0.23092544,-0.29663038,0.1041625,-0.027965711,-0.23680459,-0.28730422,-0.076614454,-9.385271,0.89631605,47.647476,-1.2120873,-2.4440336,-3.4365656,-0.33642995,-0.30796558,-0.35933828,28.8125,30.1875,29.3125,32.875,35.375,36.4375
0.36805484,-1.3680259,-1.2846333,-2.390068,-0.03930417,0.09425518,-0.17098828,-0.4204283,-0.35881674,0.05998575,-3.0728636,0.61765206,-0.0002062737,-0.16898456,0.05541913,-0.0032904728,0.040067825,-0.01972436,0.03274792,0.4642975,-1.3414706,1.8523959,-2.075651,-1.5764197,2.4355268,-0.21671239,0.23210493,-0.29755163,0.09972251,-0.028553894,-0.249163,0.095768064,-0.095768064,-9.615114,0.9254084,47.653748,-1.1994826,-2.4324975,-3.571332,-0.30185673,-0.31227618,-0.18491809,28.8125,30.1875,29.3125,32.875,35.375,36.4375
0.37005422,-1.666575,-2.123337,-2.1212027,-0.056507923,0.10384213,-0.15478046,-0.42077297,-0.3586959,0.05998702,-3.072799,0.6175783,-0.00027826382,-0.17201325,0.053885173,-0.0014593509,0.0363849,-0.011843177,0.038259137,0.4638294,-1.3410147,1.8517846,-2.075414,-1.576456,2.4350214,-0.21631953,0.2323469,-0.3008217,0.09400503,-0.02886742,-0.2542764,0.05746084,-0.019153614,-9.557653,0.9612189,47.655537,-1.2483774,-2.493435,-3.4909968,-0.28684723,-0.32490605,-0.105764136,28.8125,30.1875,29.3125,32.875,35.375,36.4375
0.3720544,-1.8634542,-2.5079546,-2.0422413,-0.054019947,0.0779946,-0.14201906,-0.42110795,-0.3586091,0.059981488,-3.0727544,0.61734086,-0.00019314629,-0.17499019,0.052679732,-0.00056953257,0.033014435,-0.0042083003,0.03354719,0.46346956,-1.3405468,1.8511981,-2.0752847,-1.5765637,2.4345193,-0.21638398,0.23338254,-0.3024783,0.08628128,-0.029278222,-0.24962547,-0.2681506,0.15322891,-9.270349,0.90750587,47.684196,-1.2953942,-2.5703337,-3.533045,-0.17771241,-0.3255961,-0.10886233,28.8125,30.1875,29.3125,32.875,35.375,36.4375
0.37405327,-0.86009175,-1.67447,-2.28798,-0.040682513,0.0702736,-0.14783691,-0.42145222,-0.35848814,0.0599724,-3.0726826,0.61737037,-0.00023958598,-0.17560944,0.052174132,-0.00060548406,0.033140227,-0.0038987524,0.023627086,0.4630021,-1.3400909,1.8506225,-2.0751045,-1.5765995,2.43408,-0.21573068,0.2352808,-0.30487853,0.0866033,-0.029507345,-0.23904786,-0.21068975,0.24899697,-9.3661175,0.9254084,47.666286,-1.4560366,-2.420609,-3.4481082,-0.15151472,-0.34189665,-0.20276248,28.8125,30.1875,29.3125,32.875,35.375,36.4375
