Tylouw/Master_Thesis_Code/training_data/batch_1/rect_rod_t0.2/sample_60_session_2.csv
timestamp[s],tcp_force_x[N],tcp_force_y[N],tcp_force_z[N],tcp_force_rx[Nm?],tcp_force_ry[Nm?],tcp_force_rz[Nm?],tcp_pose_x[m],tcp_pose_y[m],tcp_pose_z[m],tcp_pose_rx[rot_vec_x],tcp_pose_ry[rot_vec_y],tcp_pose_rz[rot_vec_z],tcp_velo_x[m/s],tcp_velo_y[m/s],tcp_velo_z[m/s],tcp_velo_rx[rot_vec_x/s],tcp_velo_ry[rot_vec_y/s],tcp_velo_rz[rot_vec_z/s],q1[rad],q2[rad],q3[rad],q4[rad],q5[rad],q6[rad],qd1[rad/s],qd2[rad/s],qd3[rad/s],qd4[rad/s],qd5[rad/s],qd6[rad/s],tool_acc_x,tool_acc_y,tool_acc_z,current_of_whole_robot[A],voltage_of_whole_robot[V],current_J1[A],current_J2[A],current_J3[A],current_J4[A],current_J5[A],current_J6[A],temp_J1[C],temp_J2[C],temp_J3[C],temp_J4[C],temp_J5[C],temp_J6[C]
7.870003e-07,0.1439688,0.09372289,1.0397261,-0.010947933,0.0045124493,-0.0098333685,-0.38932264,-0.36871558,0.059999846,-3.0786936,0.6249835,0.00016630304,0.00094085315,0.00054206746,-0.0005980802,0.0012329,-0.0024987748,-2.3086755e-05,0.50503284,-1.3816559,1.9042352,-2.0919154,-1.5708417,2.480061,-0.00011696773,-2.9844196e-05,0.0009803682,0.0018323145,0.00013642835,-9.468111e-05,0.11492168,0.21068975,-8.695741,0.7866488,47.760323,-0.12937419,-3.1260333,-2.383128,-0.1938146,0.09139317,0.01765494,28.9375,30.3125,29.3125,32.9375,35.4375,36.5
0.002055398,0.20030123,-0.053363957,1.0234163,-0.005357235,0.007941253,-0.010352671,-0.389318,-0.36870143,0.059983034,-3.078675,0.6249226,0.00013948343,-0.00096104445,-0.00051611004,-0.0015716068,-0.0018370021,0.0030173592,-2.192661e-05,0.5050208,-1.3816433,1.9042596,-2.0919197,-1.5708536,2.4800134,-0.000115097886,0.0022400874,0.0028946833,-0.008664767,0.00013389127,-9.327919e-05,0.11492168,0.24899697,-8.676587,0.8157518,47.711964,-0.11583501,-2.9659295,-2.289636,-0.18531239,0.10263088,-0.0015981868,28.9375,30.3125,29.3125,32.9375,35.4375,36.5
0.004054531,-0.35406494,-0.4624103,0.9742371,-0.007162169,0.00010108924,-0.001576912,-0.38932523,-0.36872607,0.05998708,-3.078713,0.6249493,0.00012973088,-0.0015723335,-0.000856578,-0.002212073,-0.002636033,0.0044529075,-9.727325e-06,0.50503284,-1.3816185,1.9042238,-2.0919316,-1.5708174,2.4800372,-0.00011328681,0.0035998016,0.0035826918,-0.012355422,0.00013144672,-0.00010333441,0.13407528,0.21068975,-8.580819,0.75755644,47.73256,-0.19510949,-3.434166,-2.6280153,-0.03844897,0.101446584,0.006577892,28.9375,30.3125,29.3125,32.9375,35.4375,36.5
0.006054686,0.4840846,0.25996742,0.9992905,-0.007225271,0.0029887026,-0.0070646335,-0.38936174,-0.36870265,0.060007386,-3.0787017,0.62496626,0.0002607728,-0.0007206759,-0.00038240413,-0.0010002599,-0.0016892875,0.0027672588,-8.417248e-06,0.50499684,-1.3816434,1.9042119,-2.091953,-1.5708774,2.4800134,-0.000111532354,0.0011048702,0.0025297638,-0.006874263,0.0001290903,-0.000103426755,0.019153614,0.11492168,-8.523358,0.75084364,47.72629,-0.12498838,-3.332983,-2.5857968,-0.064100824,0.10145239,-0.0063520786,28.9375,30.3125,29.3125,32.9375,35.4375,36.5
0.008054685,0.8152622,1.0666698,0.32811376,0.03666557,-0.023078,-0.010279292,-0.38930064,-0.36871043,0.05997138,-3.0786862,0.6249056,0.00012457151,-0.00028212758,-0.00013863007,5.9745293e-05,-0.000580498,0.0007831056,-7.876732e-06,0.50504476,-1.3816439,1.9042939,-2.0919511,-1.5708417,2.4800253,-0.00010983076,1.4823245e-05,8.938217e-05,-0.0010708976,0.00012681633,-0.00010206364,-0.076614454,0.21068975,-8.7532015,0.75084364,47.719128,-0.09145111,-3.1338248,-2.5157175,-0.09883462,0.10191317,0.0043869163,28.9375,30.3125,29.3125,32.9375,35.4375,36.5
0.010054611,0.98408663,1.412733,0.15958863,0.05086711,-0.026526112,-0.008288375,-0.38932076,-0.36871454,0.059978507,-3.078693,0.6249069,0.00013675661,0.0011783771,0.00067981594,-0.00042282636,0.0019653765,-0.0037551445,-8.162932e-06,0.50503284,-1.3816198,1.9042462,-2.0919378,-1.5708417,2.4800134,-0.000108197855,1.9887275e-07,1.1991759e-06,0.0042354744,0.00010674373,-0.00010064368,0.0,0.095768064,-8.925584,0.7978386,47.71823,-0.6637989,-2.8244748,-2.9227772,-0.16508844,0.09464368,-0.07327547,28.9375,30.3125,29.3125,32.9375,35.4375,36.5
0.012054329,-0.2392164,-0.1055725,-0.15657356,0.026193269,-0.02776401,-0.002062474,-0.38931435,-0.36868173,0.059954725,-3.0786092,0.62500703,2.2719129e-05,-0.00078240415,0.0023338848,-0.00029688174,0.0015053854,-0.0029113996,-0.0045550647,0.5049836,-1.3815958,1.9042586,-2.0918787,-1.5708417,2.4800372,-0.0047209198,-7.0489914e-05,1.6088476e-08,0.0033463966,9.881965e-05,-0.00016637742,0.095768064,0.038307227,-9.174581,0.8493211,47.731667,-0.8279692,-2.6441774,-3.0338602,-0.18161854,0.0970155,-0.1525722,28.9375,30.3125,29.3125,32.9375,35.4375,36.5
0.014054368,-0.42453158,-0.96571875,-0.28981286,-0.028256522,0.016429743,-0.013022011,-0.38929152,-0.3687004,0.059936177,-3.0786273,0.6248736,-2.2319438e-05,-0.0038684409,0.0045687244,-0.005352702,0.005313611,-0.009818181,-0.0003720907,0.5050289,-1.3815674,1.90427,-2.091891,-1.5708297,2.479997,-0.0113752475,0.0123217665,-0.002732618,0.0015723938,9.633914e-05,-0.0110003995,0.05746084,0.038307227,-9.423578,0.76874626,47.728977,-0.40361738,-3.194683,-3.1506827,-0.14771771,0.08907397,-0.103307806,28.9375,30.3125,29.3125,32.9375,35.4375,36.5
0.016054546,-0.71540743,-1.198192,-0.11608268,-0.062433023,0.04724086,-0.02950116,-0.3893362,-0.36866915,0.05994516,-3.0785916,0.624958,3.0168248e-05,-0.0053984667,0.0038921325,-0.0040587117,0.0036923925,-0.0068993918,0.007119228,0.50495684,-1.3815554,1.9042329,-2.0918791,-1.5708655,2.4799821,-0.011666516,0.012300897,-0.0055356314,0.0010557532,9.429665e-05,-0.018781783,-0.19153613,0.19153613,-9.404425,0.7329411,47.705692,-0.47851813,-3.2420933,-3.0719147,-0.1290727,0.105966635,-0.03638839,28.9375,30.3125,29.3125,32.9375,35.4375,36.5
0.018054498,-1.3471967,-1.2186692,-0.43175256,-0.047216732,0.061241765,-0.041442182,-0.38928834,-0.3686748,0.059903976,-3.0785828,0.62483925,-0.00014549085,-0.0059924447,0.0032440454,-0.0017351893,0.0013559036,-0.0026796036,0.012242266,0.50498104,-1.3815207,1.9042801,-2.0918553,-1.5708174,2.4799333,-0.011129063,0.008587999,-0.0063750697,0.00078496826,9.2359536e-05,-0.023367593,-0.47884035,0.24899697,-9.461885,0.75084364,47.694946,-0.74469125,-2.9093018,-3.1796546,-0.116153285,0.11326636,-0.010079365,28.9375,30.3125,29.3125,32.9375,35.4375,36.5
0.020054422,-1.1396269,-0.5745118,-0.766024,-0.004517864,0.069332644,-0.07449109,-0.3893051,-0.3686506,0.05990003,-3.0785418,0.6249089,-0.00016383431,-0.005952351,0.0048518376,-0.0022011688,0.0031712425,-0.005977077,0.009566179,0.50493234,-1.3815086,1.9042691,-2.0918305,-1.5708297,2.4799333,-0.013805865,0.008806916,-0.0063772947,0.0043320893,0.000106228596,-0.023368675,-0.4213795,0.17238252,-9.634268,0.77545905,47.716442,-0.78998286,-2.739423,-3.2885084,-0.14192997,0.10616885,-0.018999875,28.9375,30.3125,29.3125,32.9375,35.4375,36.5
0.02205409,-1.833918,-0.5878339,-0.99188536,0.030709688,0.038900133,-0.07468538,-0.38931853,-0.36865327,0.059901208,-3.0785697,0.62480164,-0.00012408452,-0.006568807,0.005432779,-0.0035880432,0.004599265,-0.0086225225,0.006000912,0.50493175,-1.3814955,1.9042562,-2.0918539,-1.5708417,2.4798622,-0.015380807,0.012364012,-0.0075690644,0.004972785,0.00013603215,-0.021377413,-0.4405331,0.21068975,-9.787497,0.77545905,47.704796,-0.82019764,-2.8157048,-3.458012,-0.13564011,0.10849236,-0.044471342,28.9375,30.3125,29.3125,32.9375,35.4375,36.5
0.024053862,-1.6046997,0.024338694,-0.8683882,0.006945245,0.041480005,-0.10617427,-0.3893341,-0.36865646,0.059915207,-3.078593,0.6248281,-0.00013250457,-0.008728352,0.005348992,-0.0026482851,0.0024586408,-0.005964076,0.0014559145,0.504907,-1.3814954,1.904219,-2.091831,-1.5708169,2.479851,-0.017621659,0.012775398,-0.009856926,0.0034857406,0.00071569294,-0.019073082,-0.59376204,0.19153613,-9.730036,0.7530795,47.716442,-0.8623493,-2.8851428,-3.4194899,-0.16066833,0.11751028,-0.06763484,28.9375,30.3125,29.3125,32.9375,35.4375,36.5
0.026054576,-1.6877344,-0.8190546,-0.8818643,0.008959266,0.055464502,-0.10193217,-0.38936108,-0.368652,0.059885852,-3.0785728,0.62486225,-0.00021589514,-0.010185821,0.004122738,-0.0022830097,-3.749349e-05,-0.004672744,7.6093216e-05,0.50485903,-1.3813983,1.9041713,-2.0918314,-1.5707926,2.479827,-0.017889095,0.014930244,-0.0129075525,0.0020388651,0.002264861,-0.017961677,-0.8619126,0.05746084,-9.749189,0.6948948,47.661808,-0.82252264,-2.7515564,-3.3444033,-0.1101933,0.10063217,-0.088962674,28.9375,30.3125,29.3125,32.9375,35.4375,36.5
0.028053954,-1.7885739,-0.45778984,-1.1529377,-0.01443975,0.080553636,-0.12611876,-0.38934636,-0.36863384,0.059857376,-3.0785284,0.6248154,-0.00034167152,-0.010601704,0.0042038276,-0.0027128656,-2.8388662e-05,-0.005274751,-0.0010735303,0.5048348,-1.381362,1.9041823,-2.0917838,-1.5707806,2.479779,-0.018590624,0.016268808,-0.0134511385,0.0017744766,0.002544615,-0.017513847,-0.842759,-0.038307227,-9.864111,0.800085,47.698532,-0.8753794,-2.8272924,-3.410615,-0.11481862,0.090689674,-0.10561387,28.9375,30.3125,29.3125,32.9375,35.4375,36.5
0.030054443,-2.0676742,-0.7861099,-0.8142537,-0.01574833,0.097474866,-0.14971451,-0.3894091,-0.36862487,0.05987397,-3.0785255,0.6248345,-0.00019477672,-0.011670039,0.0044096955,-0.0027898974,0.00022290014,-0.005093174,-0.0024058067,0.50479853,-1.3813254,1.9041094,-2.091819,-1.5708407,2.4797552,-0.019741554,0.017812299,-0.015120629,0.0018632847,0.0022345637,-0.017330855,-0.7469909,-0.019153614,-9.921572,0.76874626,47.703007,-0.8900945,-2.8752074,-3.377361,-0.110253885,0.10096077,-0.15212198,28.9375,30.3125,29.3125,32.9375,35.4375,36.5
0.032054115,-1.5429642,-0.36739275,-0.7478289,-0.0050142054,0.11405393,-0.16193615,-0.38940513,-0.3686366,0.05987721,-3.0785654,0.62488115,-0.00033677774,-0.011620709,0.0050196387,-0.0027621982,0.0012800008,-0.0062743593,-0.002603553,0.5047624,-1.3813134,1.9040741,-2.0917585,-1.5707453,2.479743,-0.020502217,0.017718416,-0.015539687,0.0039243163,0.0018834096,-0.017893286,-0.7852981,-0.05746084,-9.844957,0.7486078,47.696735,-0.9280247,-2.7863522,-3.4211187,-0.11261521,0.10319708,-0.15155712,28.9375,30.3125,29.3125,32.9375,35.4375,36.5
0.034053825,-1.7303349,-0.28185958,-0.8857291,0.026133705,0.096519075,-0.16436662,-0.38944918,-0.36860317,0.059859097,-3.0785062,0.6249067,-0.0002901999,-0.012394354,0.0052001793,-0.0021142983,0.0011696159,-0.005670907,-0.0021058,0.50470215,-1.3812534,1.9040498,-2.0917823,-1.570805,2.4797063,-0.021405015,0.017590111,-0.017118638,0.0050496017,0.0016863698,-0.019292999,-0.6703765,0.0,-9.864111,0.7866488,47.704796,-1.0163317,-2.8552651,-3.410212,-0.13017578,0.09491743,-0.176005,28.9375,30.3125,29.3125,32.9375,35.4375,36.5
0.03605424,-1.1610713,-0.11084373,-0.9838857,0.04285205,0.08510395,-0.1865317,-0.3894714,-0.36858934,0.059844688,-3.0784786,0.6249204,-0.0003063543,-0.013967586,0.005847954,-0.0021052354,0.0009681467,-0.0047604744,-0.0026640603,0.5046655,-1.381205,1.9040254,-2.0917828,-1.5708169,2.4796817,-0.02379745,0.01866594,-0.018212901,0.0041742832,0.0014167685,-0.021126011,-0.5554548,-0.05746084,-9.825804,0.7642693,47.719128,-0.9276311,-2.7582374,-3.4496524,-0.1431255,0.10112703,-0.17113319,28.9375,30.3125,29.3125,32.9375,35.4375,36.5
0.038053736,-1.0536358,-0.40221053,-0.90981156,0.036243822,0.056893967,-0.1839065,-0.3894912,-0.36858016,0.05984177,-3.078485,0.62494206,-0.00034453336,-0.015921807,0.006140289,-0.001364534,-0.0005601025,-0.0021545056,-0.0035571489,0.5046166,-1.381181,1.9040011,-2.091771,-1.570793,2.4796455,-0.026158756,0.018707473,-0.019559693,0.0024596818,0.0014866722,-0.022593636,-0.45968673,-0.05746084,-9.730036,0.75084364,47.704796,-0.8708017,-2.7715657,-3.3656003,-0.12827814,0.112502046,-0.20089075,28.9375,30.3125,29.3125,32.9375,35.4375,36.5
0.040054172,-0.9742265,-0.3123739,-0.91904837,0.017256116,0.043989304,-0.2050304,-0.38954964,-0.36857426,0.059838854,-3.0785065,0.6249655,-0.00032666605,-0.017200744,0.005826153,-0.00091585756,-0.0017778801,-0.0009383078,-0.003935354,0.5045446,-1.3811086,1.9039277,-2.0917952,-1.5707811,2.4795854,-0.02711774,0.01966378,-0.021578204,0.0018671412,0.0019592636,-0.0231742,-0.45968673,-0.11492168,-9.634268,0.82694155,47.72719,-0.8538966,-2.7475438,-3.374649,-0.08964136,0.090889,-0.21139583,28.9375,30.3125,29.3125,32.9375,35.4375,36.5
0.042053778,-1.2395599,-0.7301308,-1.0425419,0.012897803,0.040113527,-0.19382545,-0.3895857,-0.36854964,0.059857797,-3.078492,0.62501967,-0.00027534793,-0.018136896,0.0057865116,-0.0007255531,-0.0021994652,-0.000400013,-0.0032008465,0.50448436,-1.3811202,1.9038929,-2.0917714,-1.570805,2.4795609,-0.027990334,0.020596797,-0.023092242,0.0017721539,0.0020646288,-0.024780668,-0.38307226,-0.076614454,-9.730036,0.8403672,47.721813,-0.91085565,-2.7720666,-3.345801,-0.09229062,0.10456936,-0.22348055,28.9375,30.3125,29.3125,32.9375,35.4375,36.5
0.04405463,-0.25907224,-0.24380569,-0.86299527,0.003844388,0.0621929,-0.19525416,-0.3896303,-0.36855018,0.059864726,-3.0785246,0.62498635,-0.00025889688,-0.018923247,0.006186096,-0.0005271723,-0.0024800943,-1.3646934e-05,-0.0023804852,0.50443584,-1.3810722,1.9038204,-2.0917714,-1.5707926,2.4794874,-0.029430551,0.020729404,-0.023702104,0.0017755147,0.0021222122,-0.027041031,-0.15322891,-0.019153614,-9.710882,0.75084364,47.73256,-0.85238564,-2.7122526,-3.4146566,-0.062257215,0.10582927,-0.24374647,28.9375,30.3125,29.3125,32.9375,35.4375,36.5
0.046053953,-0.06500924,-0.57733357,-0.7139041,0.017922899,0.04712801,-0.17305918,-0.38968277,-0.36854264,0.059855707,-3.078551,0.6250288,-0.0002838088,-0.020029439,0.0067846626,-2.4647803e-05,-0.0025243287,-0.00022712827,-0.00092573924,0.50435144,-1.381,1.9037608,-2.0917943,-1.5707563,2.4794261,-0.03155572,0.021051453,-0.0256292,0.0035465194,0.0022633767,-0.030620523,-0.15322891,0.095768064,-9.615114,0.7553206,47.71465,-0.9003452,-2.7489414,-3.3761697,-0.08001061,0.11848913,-0.21710438,28.9375,30.3125,29.3125,32.9375,35.4375,36.5
0.048054527,-0.24931982,-0.75869095,-0.7972947,0.01733059,0.02019034,-0.17885526,-0.38970593,-0.3685104,0.059855696,-3.0785146,0.6250021,-0.00030079333,-0.021101097,0.0073691034,7.892557e-05,-0.0022811894,-0.0009215359,-0.0009251453,0.5042907,-1.3809874,1.903735,-2.091746,-1.5707806,2.4793534,-0.033614818,0.02216083,-0.02751698,0.005049147,0.002383753,-0.03267972,-0.1340753,0.17238252,-9.5385,0.7777002,47.71465,-0.78621995,-2.7257123,-3.3026826,-0.08969262,0.09904194,-0.23256892,28.9375,30.3125,29.3125,32.9375,35.4375,36.5
0.050053954,-0.17140262,-0.47472405,-0.81172734,0.0037973742,0.010578005,-0.17175359,-0.38976675,-0.36851117,0.059852626,-3.0785367,0.6249683,-0.00024492337,-0.021864114,0.0075750514,-0.00014381993,-0.0025424506,-0.0012224681,-0.0007554457,0.50424254,-1.3809031,1.9036506,-2.0917828,-1.5707926,2.4792814,-0.034902852,0.023371113,-0.028398737,0.0048560984,0.00275632,-0.034137454,-0.038307227,0.15322891,-9.615114,0.83365434,47.73256,-0.8252307,-2.7107615,-3.3204436,-0.10812731,0.111487806,-0.22680584,28.9375,30.3125,29.3125,32.9375,35.4375,36.5
0.05205456,-0.18200283,-0.78552634,-0.8567821,-0.0073859645,0.0028464815,-0.17194223,-0.3898045,-0.3684774,0.05985824,-3.0785007,0.6250572,-0.00024837998,-0.023028787,0.008154399,-0.00016604798,-0.003284233,-0.00074957346,-0.0019177769,0.5041579,-1.380891,1.9036154,-2.0917466,-1.5708045,2.4792569,-0.037223116,0.023880897,-0.028736657,0.0039100135,0.0031736505,-0.035295844,0.038307227,0.17238252,-9.576807,0.80456203,47.741516,-0.80349064,-2.6707325,-3.3897104,-0.07395561,0.12201596,-0.26169008,28.9375,30.3125,29.3125,32.9375,35.4375,36.5
0.05405418,0.09481259,-1.026418,-0.6792136,-0.02249551,0.016118258,-0.1817836,-0.3898669,-0.3684529,0.059867185,-3.078506,0.6250568,-0.00018052445,-0.02405258,0.008557641,0.00028528727,-0.003889752,0.000310151,-0.0018981086,0.5040736,-1.3808551,1.9035553,-2.0917585,-1.5708288,2.4791718,-0.03886308,0.023658821,-0.029433567,0.0036077523,0.003190707,-0.036955114,0.038307227,0.24899697,-9.576807,0.75084364,47.74331,-0.6652723,-2.62079,-3.3732092,-0.07464062,0.11332202,-0.25017783,28.9375,30.3125,29.3125,32.9375,35.4375,36.5
0.056054298,0.13823688,-0.9717449,-0.53217304,-0.023942897,0.01676655,-0.17888789,-0.38990784,-0.36845553,0.059875734,-3.0785441,0.62510234,-0.00024174576,-0.0245901,0.007555349,0.0010273366,-0.0050246664,0.0011624102,0.00046513716,0.504002,-1.3808066,1.9034704,-2.0917227,-1.5707682,2.4791236,-0.0380351,0.024293281,-0.032023,0.0042685904,0.0037685863,-0.03849029,-0.019153614,0.2681506,-9.481039,0.7709874,47.73077,-0.8436343,-2.6232138,-3.3970926,-0.06566186,0.11919022,-0.2848271,28.9375,30.3125,29.3125,32.9375,35.4375,36.5
0.0580539,0.097426035,-1.0493786,-0.71343136,-0.011150773,0.022046372,-0.17529234,-0.38995633,-0.368426,0.05987458,-3.0785096,0.62509507,-0.00022044376,-0.025946476,0.00784895,0.0013507613,-0.005941713,0.0010634561,7.1049355e-05,0.5039293,-1.3807582,1.9034103,-2.0916984,-1.570804,2.4790509,-0.040320586,0.025283251,-0.034094017,0.0049890634,0.0046158405,-0.040382296,0.0,0.24899697,-9.500193,0.8023209,47.74062,-0.8489111,-2.6265767,-3.2672873,-0.07399575,0.10324828,-0.28001305,28.9375,30.3125,29.3125,32.9375,35.4375,36.5
0.060054418,0.031544853,-0.9013165,-0.56897783,-0.0007258193,0.01950631,-0.17179838,-0.39001533,-0.36842477,0.059872,-3.0785575,0.6250671,-0.00020369436,-0.026556842,0.008182248,0.0011817557,-0.006313613,5.5246164e-05,-0.0009356841,0.50385696,-1.3806859,1.9033388,-2.0917342,-1.5707797,2.478955,-0.041953336,0.026233902,-0.034979235,0.005625284,0.005429387,-0.041009102,0.038307227,0.22984336,-9.423578,0.9030289,47.711063,-0.78053474,-2.5820823,-3.2817364,-0.08771585,0.102686256,-0.30983332,28.9375,30.3125,29.3125,32.9375,35.4375,36.5
0.06205369,-0.19867434,-0.65038615,-0.60182106,-0.008505225,0.018131359,-0.17232898,-0.3900709,-0.3684003,0.0598898,-3.078591,0.62507236,-0.0001999745,-0.027257279,0.008551807,0.001070826,-0.0064529106,0.00012436438,-7.124988e-05,0.5037488,-1.3806736,1.9032782,-2.0917099,-1.5707554,2.4788458,-0.043277916,0.026857855,-0.03538664,0.005282106,0.0055171666,-0.043197833,-0.019153614,0.24899697,-9.385271,0.84708,47.716442,-0.7569096,-2.6177206,-3.235994,-0.074223496,0.08436304,-0.31804532,28.9375,30.3125,29.3125,32.9375,35.4375,36.5
0.06405407,-0.7707343,-1.1466594,-0.55702966,-0.0017023867,0.019974908,-0.16562003,-0.39011687,-0.36839613,0.05988568,-3.0786216,0.62509656,-0.0002232564,-0.028037526,0.008642051,0.0012005157,-0.0067867585,0.0004932715,0.0015411263,0.50367653,-1.3806133,1.9032191,-2.0917222,-1.5707196,2.4787848,-0.044222713,0.02752682,-0.036455184,0.0051989416,0.005629164,-0.045754585,-0.15322891,0.24899697,-9.32781,0.8179876,47.716442,-0.76558405,-2.5243607,-3.2903152,-0.05421246,0.100943655,-0.316552,28.9375,30.3125,29.3125,32.9375,35.4375,36.5
0.06605387,-0.20742726,-0.9054785,-0.47874108,-0.0042241346,0.044923767,-0.16745074,-0.39017868,-0.36836517,0.059889734,-3.0785575,0.6251041,-0.0001908561,-0.02929429,0.009065257,0.0015277792,-0.006870548,0.0010883292,-0.00011052423,0.5036042,-1.3805411,1.9031109,-2.0916622,-1.5707797,2.4787254,-0.045966383,0.02822841,-0.0381227,0.0056017055,0.0054118433,-0.045845628,-0.11492168,0.1340753,-9.423578,0.75755644,47.667187,-0.8231348,-2.552763,-3.2827153,-0.07330501,0.09190981,-0.345487,28.9375,30.3125,29.3125,32.9375,35.4375,36.5
0.0680548,-0.6569535,-0.81171286,-0.38223854,0.0029801782,0.046836033,-0.16718435,-0.3902399,-0.36837307,0.059891906,-3.078659,0.6250456,-0.00023258553,-0.03035699,0.008985165,0.00187447,-0.0077117444,0.0018723502,0.0010672637,0.503508,-1.3804688,1.903026,-2.0916865,-1.5706958,2.4785798,-0.047037173,0.028953373,-0.039721336,0.005385858,0.0057680216,-0.048093814,-0.11492168,0.17238252,-9.461885,0.8179876,47.71465,-0.76807326,-2.538879,-3.2607255,-0.074544206,0.094494134,-0.36142442,28.9375,30.3125,29.3125,32.9375,35.4375,36.5
0.070053995,-1.027749,-0.26776612,-0.12866537,-0.0019592885,0.04110229,-0.16332082,-0.39029634,-0.3683294,0.059895337,-3.0786078,0.62507164,-0.0001992786,-0.030677572,0.009115966,0.0015424696,-0.0074470346,0.0010209297,0.004221765,0.50341195,-1.3804322,1.9029669,-2.0916507,-1.5707439,2.4785066,-0.047662005,0.030162238,-0.040495288,0.0058218595,0.005945332,-0.05187306,-0.24899697,0.1340753,-9.404425,0.7553206,47.74868,-0.7897886,-2.5250022,-3.2258542,-0.072664514,0.092431754,-0.35501352,28.9375,30.3125,29.3125,32.9375,35.4375,36.5
0.07205423,-0.87086946,0.013240622,-0.30264857,0.008989751,0.04964288,-0.17053153,-0.39037436,-0.36833316,0.05991661,-3.0787132,0.6250138,-0.00014712947,-0.03230699,0.009562907,0.0020952674,-0.008253191,0.0021614064,0.007167519,0.50331545,-1.3803841,1.9028696,-2.0916865,-1.5706958,2.4783607,-0.05002069,0.030611763,-0.042272132,0.005763824,0.006101599,-0.05717645,-0.3256114,0.19153613,-9.308656,0.75084364,47.681515,-0.8140879,-2.5216832,-3.2514296,-0.06531142,0.0629822,-0.32244733,28.9375,30.3125,29.3125,32.9375,35.4375,36.5
0.07405429,-0.5173813,-0.14239126,-0.15903468,0.021855872,0.067353524,-0.17229979,-0.39044198,-0.36831692,0.059916086,-3.0787406,0.6250195,-0.00021252698,-0.03296135,0.010410564,0.0016303387,-0.007408478,0.0015651438,0.00730911,0.50319505,-1.3802996,1.9027628,-2.0916507,-1.5706476,2.4782403,-0.051765744,0.031579383,-0.042377017,0.0058360496,0.0056487345,-0.059062265,-0.3256114,-0.038307227,-9.270349,0.7709874,47.72719,-0.7319391,-2.492512,-3.296426,-0.066614665,0.0792968,-0.29505634,28.9375,30.3125,29.3125,32.9375,35.4375,36.5
0.07605411,-0.801651,0.535185,-0.06734291,0.0086711245,0.061686467,-0.16624403,-0.39049873,-0.3683086,0.059921872,-3.078759,0.6249629,-0.0001716206,-0.033248268,0.00947914,0.0021964922,-0.0078901695,0.002723825,0.011044201,0.50313556,-1.3802394,1.9026784,-2.0916507,-1.5706595,2.4781432,-0.050373238,0.0320754,-0.044292413,0.0060083177,0.005509734,-0.06140366,-0.38307226,0.0,-9.289502,0.76874626,47.67614,-0.9559939,-2.514076,-3.2754889,-0.061549768,0.086992055,-0.3049271,28.9375,30.3125,29.3125,32.9375,35.4375,36.5
0.07805325,-0.570117,0.19931714,-0.12099537,0.016606987,0.074521534,-0.17792405,-0.3905808,-0.36827686,0.05991898,-3.0787845,0.6249275,-0.00019706735,-0.03466439,0.010503923,0.0020051398,-0.007731263,0.0025007227,0.013220837,0.50299084,-1.3801551,1.9025825,-2.0916383,-1.5706357,2.4779732,-0.053385433,0.03321461,-0.04522139,0.0060728826,0.0054764412,-0.066591896,-0.4213795,0.019153614,-9.289502,0.75084364,47.696735,-0.85238326,-2.4934127,-3.22445,-0.06027223,0.08615771,-0.2765712,28.9375,30.3125,29.3125,32.9375,35.4375,36.5
0.08005347,-0.25372612,-0.13060564,-0.20780161,0.024683487,0.07916016,-0.16876505,-0.39064938,-0.368239,0.05991979,-3.0787752,0.62496275,-0.00017318981,-0.035482988,0.011072601,0.0018142281,-0.008089842,0.001706694,0.015095619,0.5028704,-1.3801068,1.9025234,-2.0916378,-1.5706471,2.477876,-0.055530958,0.034093842,-0.04590128,0.0063940194,0.006173571,-0.07061286,-0.40222588,-0.038307227,-9.32781,0.7911258,47.72719,-0.8252104,-2.4400063,-3.2194958,-0.06452,0.07415453,-0.21477243,28.9375,30.3125,29.3125,32.9375,35.4375,36.5
0.08205368,-0.63779795,0.0704692,-0.35175613,0.014243711,0.06400553,-0.17469843,-0.39070925,-0.36823946,0.059918042,3.078812,-0.62483376,0.00020773604,-0.036026083,0.012197221,0.00074537314,-0.0066327527,-1.3077063e-05,0.016765645,0.502786,-1.3800219,1.9024271,-2.0916378,-1.5705999,2.4777064,-0.057642728,0.03594307,-0.045695305,0.006553769,0.0057272417,-0.074393705,-0.40222588,-0.095768064,-9.270349,0.8157518,47.723602,-0.70011574,-2.4338841,-3.296352,-0.054561988,0.0733183,-0.19264552,28.9375,30.3125,29.3125,32.9375,35.4375,36.5
0.08405386,-0.8085089,0.21628235,-0.19968364,0.0052298945,0.06062701,-0.16847773,-0.39078516,-0.3682019,0.05991713,-3.0788238,0.62477577,-0.00021171046,-0.036037683,0.011200848,0.0010264566,-0.006301721,0.00068596343,0.021853358,0.50266695,-1.3799374,1.9023184,-2.0915902,-1.5706238,2.4775498,-0.055574756,0.03699613,-0.047695685,0.0070494656,0.0050954707,-0.07741166,-0.4213795,-0.05746084,-9.32781,0.74413085,47.737934,-0.9616195,-2.5265114,-3.3686764,-0.06269325,0.08500609,-0.14124107,28.9375,30.3125,29.3125,32.9375,35.4375,36.5
0.08605328,-0.5831366,0.034453224,-0.24961118,0.012837444,0.07038496,-0.1728414,-0.3908495,-0.3681744,0.059925344,3.0788467,-0.6247408,0.00023626344,-0.038362708,0.011522811,0.0020262634,-0.0072830436,0.0028916285,0.022175442,0.50254625,-1.3798892,1.9022344,-2.091554,-1.5706004,2.4774044,-0.058140237,0.037693217,-0.050796814,0.0070513757,0.004886389,-0.08029753,-0.34476507,0.019153614,-9.346964,0.7866488,47.72719,-0.8775255,-2.5528345,-3.1795473,-0.058920264,0.08510086,-0.10515323,28.9375,30.3125,29.3125,32.9375,35.4375,36.5
0.08805336,-0.25389674,0.46571326,-0.29314613,0.010085926,0.0763534,-0.17426811,-0.3909485,-0.36815178,0.05993626,3.0788505,-0.62466455,0.00013016028,-0.037923876,0.012411293,0.00037782674,-0.00621722,-0.0005108869,0.021946916,0.502438,-1.3798045,1.9021147,-2.0915778,-1.5706357,2.4772482,-0.05965996,0.039566055,-0.049290095,0.007162282,0.005599675,-0.08158986,-0.34476504,-0.05746084,-9.32781,0.78217715,47.747787,-0.8141272,-2.5187976,-3.3261304,-0.06270774,0.08836776,-0.06976637,28.9375,30.3125,29.3125,32.9375,35.4375,36.5
0.09005357,-0.53287756,0.3027264,-0.3199053,0.011729326,0.06317055,-0.17099288,-0.3910259,-0.368118,0.059934262,3.0788329,-0.62466085,0.00015483027,-0.03872745,0.012153111,0.0010092903,-0.006837849,0.0006681852,0.020973349,0.5022943,-1.3797323,1.9020313,-2.0915663,-1.5706118,2.4771044,-0.059944995,0.039728194,-0.050961915,0.0073425453,0.005573151,-0.08090061,-0.24899697,-0.038307227,-9.404425,0.8717007,47.74331,-0.918026,-2.5472054,-3.3073554,-0.07195409,0.075751565,-0.060488176,28.9375,30.3125,29.3125,32.9375,35.4375,36.5
0.09205348,-0.9508211,-0.023233568,-0.2257451,0.008728831,0.048491847,-0.16360453,-0.3910875,-0.3680913,0.05992366,3.0788424,-0.62454736,0.000247902,-0.039899208,0.012321384,0.0007269117,-0.006976099,0.00026066284,0.018846894,0.50216204,-1.3796475,1.9019469,-2.09153,-1.5705637,2.4769,-0.06150237,0.04184272,-0.052836712,0.007396915,0.005884113,-0.08033114,-0.3256114,0.019153614,-9.346964,0.8090337,47.7254,-0.9609828,-2.510504,-3.2746422,-0.058815457,0.068913475,-0.073699206,28.9375,30.3125,29.3125,32.9375,35.4375,36.5
0.094053514,-0.10758041,0.027626548,-0.43955994,0.0013212682,0.061697993,-0.17370516,-0.3911844,-0.36807176,0.059953317,3.0788405,-0.6244524,0.00015186484,-0.041275162,0.012079106,0.0017163861,-0.0075598937,0.00243298,0.017084818,0.50205404,-1.3795874,1.9018029,-2.0915062,-1.5705875,2.4767332,-0.062027514,0.042063884,-0.055383045,0.0075374693,0.005350515,-0.079092,-0.30645782,0.05746084,-9.346964,0.83589023,47.72719,-0.9908409,-2.538551,-3.1411996,-0.0905559,0.07770775,-0.064006165,28.9375,30.3125,29.3125,32.9375,35.4375,36.5
0.09605423,-0.7408491,-0.71408135,-0.6634511,0.0002530041,0.03876448,-0.16449092,-0.39127687,-0.3680486,0.05995575,3.078821,-0.6244293,0.00013639305,-0.04120645,0.01299574,0.0007378725,-0.0060963375,0.0007755772,0.014341879,0.50192195,-1.379491,1.9016832,-2.0915058,-1.5705761,2.4765892,-0.06319295,0.04310924,-0.05443555,0.0077049513,0.004869899,-0.07751391,-0.22984336,0.2681506,-9.481039,0.75755644,47.747787,-0.9947766,-2.499687,-3.2748995,-0.07016127,0.09550463,-0.09877559,28.9375,30.3125,29.3125,32.9375,35.4375,36.5
0.09805361,-0.40873083,-0.9175836,-0.48208255,-0.016173279,0.04792402,-0.16532178,-0.39133012,-0.36800227,0.059921827,3.0788908,-0.6244061,0.00022610895,-0.04179756,0.013167569,0.0004188293,-0.0057066833,0.00022652309,0.011760363,0.5018019,-1.3793823,1.9016236,-2.09147,-1.570588,2.476446,-0.06397086,0.04460987,-0.055555858,0.007993203,0.004784635,-0.07570993,-0.2681506,0.15322891,-9.557653,0.8090337,47.704796,-1.0559165,-2.5000339,-3.3548717,-0.08612157,0.07632053,-0.117680974,28.9375,30.3125,29.3125,32.9375,35.4375,36.5
0.10005381,-0.1312951,-0.6889706,-0.36384496,-0.030734822,0.04542671,-0.17089494,-0.39144418,-0.36797705,0.05993232,3.0788467,-0.6243789,0.00016664281,-0.0432102,0.0130729275,0.0006385108,-0.0065599843,0.0012641526,0.008655558,0.50164586,-1.3792858,1.901491,-2.0914943,-1.5705756,2.4762785,-0.06526096,0.045982134,-0.057517923,0.007263478,0.005032945,-0.07389424,-0.1340753,0.24899697,-9.404425,0.83589023,47.741516,-1.1165636,-2.5977547,-3.2641046,-0.08592713,0.09662813,-0.16967504,28.9375,30.3125,29.3125,32.9375,35.4375,36.5
0.10205382,-0.059711475,-0.7568936,-0.62064373,-0.032806776,0.03805191,-0.16382195,-0.3914996,-0.36795923,0.059923973,3.0788698,-0.62432677,0.00024792828,-0.044529688,0.013247864,0.0013654012,-0.0076670735,0.0027831253,0.0061058616,0.5015495,-1.3791897,1.9013828,-2.0914347,-1.5705518,2.4761467,-0.06691575,0.04584607,-0.05894727,0.00696599,0.005266545,-0.07299936,-0.11492168,0.24899697,-9.423578,0.8157518,47.698532,-1.0751648,-2.4308918,-3.292635,-0.08452493,0.09501785,-0.18373306,28.9375,30.3125,29.3125,32.9375,35.4375,36.5
0.10405369,-0.46775258,-1.1663371,-0.6896154,-0.017470302,0.015475866,-0.15951718,-0.39162207,-0.36793408,0.059934307,3.0788407,-0.6243204,0.00019338912,-0.044868313,0.0137836225,-3.5334306e-05,-0.0064405384,0.0002763902,0.0042837267,0.5013935,-1.3790686,1.9012159,-2.0914347,-1.5705518,2.4759905,-0.06819658,0.04891289,-0.059445523,0.0071854433,0.005399574,-0.07245736,-0.076614454,0.22984336,-9.442732,0.8179876,47.73256,-1.1047935,-2.638829,-3.3265395,-0.08227121,0.09521012,-0.24696627,28.9375,30.3125,29.3125,32.9375,35.4375,36.5
0.10605387,0.0669602,-0.72570884,-0.58481705,-0.029494474,0.020229036,-0.16388991,-0.3917116,-0.3678835,0.059934966,3.0788255,-0.6243552,0.0001788812,-0.045904282,0.013969956,0.00038518952,-0.0070401565,0.0008274947,0.0055652014,0.50122535,-1.3790083,1.901143,-2.0914342,-1.5705518,2.475846,-0.06961804,0.049313173,-0.06095543,0.0075240205,0.0056595104,-0.07515998,0.019153614,0.3256114,-9.500193,0.76874626,47.7245,-1.0460229,-2.5934854,-3.297365,-0.097979814,0.11054965,-0.23726387,28.9375,30.3125,29.3125,32.9375,35.4375,36.5
0.108054064,-0.37256303,-0.75679743,-0.6111186,-0.024309834,0.003062723,-0.15931132,-0.39178342,-0.36786774,0.05992503,3.0788445,-0.6242066,0.00021830054,-0.047312494,0.014058579,0.0017849861,-0.008840897,0.0036088615,0.0020908108,0.50111705,-1.3789009,1.9010357,-2.0914223,-1.5705274,2.4756427,-0.07120762,0.04779106,-0.06222727,0.0070147607,0.0058982945,-0.07327529,-0.11492168,0.22984336,-9.404425,0.7620334,47.696735,-1.0577512,-2.4921277,-3.3074646,-0.0947709,0.09636285,-0.2950477,28.9375,30.3125,29.3125,32.9375,35.4375,36.5
0.11005419,-0.2138937,-1.1198273,-0.7446874,-0.019075602,0.0055571888,-0.16540942,-0.3918866,-0.3678534,0.059932597,3.0788143,-0.6242003,0.00016287577,-0.047927942,0.014273882,0.0008763876,-0.008489977,0.0020260836,0.0013974376,0.50099695,-1.3787918,1.9008921,-2.0914347,-1.570527,2.4755225,-0.072407484,0.050415855,-0.06326564,0.006984339,0.006352702,-0.07378134,-0.076614454,0.2681506,-9.442732,0.800085,47.719128,-1.0793638,-2.4935305,-3.3056018,-0.09399082,0.1073392,-0.33549154,28.9375,30.3125,29.3125,32.9375,35.4375,36.5
0.112054095,-0.52328694,-1.3547769,-0.9090926,-0.014044284,0.0054832175,-0.15641792,-0.39200306,-0.36781508,0.05992972,3.0787988,-0.62423277,0.00017639765,-0.04842246,0.014108876,0.00058572245,-0.009114168,0.001029362,0.0031398996,0.50081706,-1.3786592,1.9007362,-2.0914104,-1.570515,2.475365,-0.07320679,0.051994454,-0.06454107,0.0072545614,0.0073776646,-0.07632389,0.05746084,0.24899697,-9.423578,0.8112748,47.672558,-1.1509858,-2.5106587,-3.2714653,-0.091887124,0.09152346,-0.3440078,28.9375,30.3125,29.3125,32.9375,35.4375,36.5
0.11405347,-0.36958668,-1.2717677,-0.7661882,-0.0112893805,0.018375065,-0.16525608,-0.3921057,-0.36779493,0.059940364,3.0787394,-0.6242426,0.00013148427,-0.04877861,0.014411323,-0.0002005899,-0.008560943,-0.0005318363,-0.00071414636,0.50067294,-1.3785744,1.900617,-2.0914342,-1.5704907,2.4752345,-0.07419517,0.053995244,-0.06518991,0.007539116,0.0076459954,-0.07345763,-0.019153614,0.22984336,-9.423578,0.83813137,47.690468,-1.1830698,-2.6797667,-3.3111515,-0.09902069,0.08202028,-0.42824984,28.9375,30.3125,29.3125,32.9375,35.4375,36.5
0.116053514,-0.13346909,-0.6164103,-0.44058838,-0.010068683,0.034151867,-0.16666025,-0.39216736,-0.3677708,0.059926473,3.0787683,-0.6241504,0.00023741885,-0.04999915,0.013998346,0.0017241365,-0.01090497,0.002820178,0.0011174979,0.50055295,-1.378467,1.9005078,-2.0913746,-1.570455,2.4750533,-0.07489066,0.051810335,-0.06696186,0.0074328403,0.008085872,-0.075985484,-0.15322891,0.21068975,-9.346964,0.784413,47.683304,-1.2004817,-2.4797425,-3.307518,-0.08606054,0.08907777,-0.45958465,28.9375,30.3125,29.3125,32.9375,35.4375,36.5
0.11805373,0.15343185,-0.5072336,-0.71660584,0.0045079608,0.048994422,-0.16655768,-0.39229226,-0.3677349,0.059946638,3.0787249,-0.62417895,0.00014163043,-0.051566858,0.015431051,0.0011986352,-0.010210487,0.0020721648,0.0012075661,0.5003841,-1.3783823,1.9003643,-2.091386,-1.5704664,2.4749079,-0.078577265,0.05346048,-0.06775486,0.007567514,0.007840935,-0.07976069,-0.05746084,0.17238252,-9.404425,0.78888994,47.67345,-1.148718,-2.5014334,-3.3326864,-0.10271983,0.08370842,-0.48190582,28.9375,30.3125,29.3125,32.9375,35.4375,36.5
0.12005381,-0.05523603,-0.3759588,-0.47214198,0.010048678,0.049469262,-0.16939193,-0.39238298,-0.36771312,0.05992815,3.078725,-0.6241166,0.00020820445,-0.051122416,0.014427685,0.00068744144,-0.010580425,0.000716576,0.007685355,0.50024086,-1.3782375,1.9002322,-2.0913742,-1.5704302,2.4747257,-0.07706719,0.055321638,-0.068863034,0.007828413,0.008813198,-0.08472928,-0.15322891,0.095768064,-9.500193,0.7642693,47.72629,-1.189887,-2.5361476,-3.3038993,-0.09991051,0.062886804,-0.46061477,28.9375,30.3125,29.3125,32.9375,35.4375,36.5
0.122054026,-0.025445927,0.13797377,-0.4102688,0.006010329,0.05116276,-0.16498752,-0.3924999,-0.36766604,0.05993256,3.0787313,-0.6240939,0.00018240523,-0.051939107,0.014630008,0.0009625516,-0.010981138,0.00083551527,0.013733938,0.5000609,-1.3781294,1.9000887,-2.0913503,-1.5704421,2.474531,-0.07832538,0.055796046,-0.070180446,0.008376343,0.009108723,-0.09203583,-0.26815057,-0.019153614,-9.32781,0.8179876,47.70032,-1.286958,-2.521796,-3.294003,-0.094332755,0.057134107,-0.42027348,28.9375,30.3125,29.3125,32.9375,35.4375,36.5
0.12405556,-0.28947607,-0.19830647,-0.65682405,0.023826187,0.054466173,-0.15958294,-0.39259508,-0.36765397,0.059923287,3.0787094,-0.6240131,0.0002586408,-0.05503451,0.016097428,0.0017286205,-0.011595593,0.0026233213,0.012993115,0.49991545,-1.3779849,1.8999332,-2.0913265,-1.5703825,2.4743378,-0.0834333,0.056643263,-0.07294898,0.008443533,0.008785014,-0.09640136,-0.34476504,-0.05746084,-9.404425,0.80679786,47.72002,-1.1550182,-2.4269583,-3.3111675,-0.10605176,0.06645045,-0.39208746,28.9375,30.3125,29.3125,32.9375,35.4375,36.5
0.12605427,-0.5153286,0.05355182,-0.60433906,0.022781754,0.060664266,-0.16998762,-0.39271566,-0.36761865,0.059945747,3.0786898,-0.6239051,0.00021348613,-0.054194115,0.014671893,0.0017469266,-0.012337075,0.0024125183,0.025725927,0.49973688,-1.3779006,1.8997768,-2.0913026,-1.5703701,2.4740944,-0.080706954,0.057213783,-0.07366534,0.008422453,0.0095423,-0.106408074,-0.34476504,0.019153614,-9.346964,0.779936,47.70032,-1.3483152,-2.4590778,-3.1801496,-0.116298825,0.05009602,-0.3020045,28.9375,30.3125,29.3125,32.9375,35.4375,36.5
0.12805346,-1.1779648,-0.06591917,-0.6586388,0.023153016,0.0605868,-0.15984346,-0.3928255,-0.36757603,0.059938986,3.07869,-0.62386477,0.00022881797,-0.054898843,0.015852116,0.00014832772,-0.010941748,-0.0005199622,0.02696105,0.49955627,-1.3777792,1.8996457,-2.0912902,-1.5703582,2.4738886,-0.08343555,0.06039965,-0.073871255,0.008688769,0.009723993,-0.11037152,-0.34476504,-0.038307227,-9.32781,0.82022345,47.696735,-1.3012043,-2.5591116,-3.3027906,-0.13178976,0.047128435,-0.26280457,28.9375,30.3125,29.3125,32.9375,35.4375,36.5
0.13005368,-0.6957147,-0.0328259,-0.57273614,0.018952154,0.08465014,-0.172219,-0.3929165,-0.36752146,0.059915572,3.0787625,-0.62381995,0.00031579498,-0.057629745,0.015782064,0.0027997917,-0.013199432,0.0040495684,0.029326841,0.4993878,-1.3776358,1.8995126,-2.0912182,-1.5703701,2.473683,-0.085681036,0.05878408,-0.07818678,0.009529909,0.00950201,-0.114981905,-0.47884035,0.0,-9.32781,0.80456203,47.717335,-1.2666583,-2.4798512,-3.1220832,-0.11246891,0.03739847,-0.19413614,28.9375,30.3125,29.3125,32.9375,35.4375,36.5
0.1320541,-0.96672225,-0.1665451,-0.70128363,0.020953879,0.08270595,-0.1685904,-0.39303645,-0.36752826,0.05995773,3.078664,-0.623645,0.00024726853,-0.057699073,0.016431779,0.0023259863,-0.012973759,0.002808026,0.030751603,0.49924374,-1.3775637,1.8993338,-2.0912297,-1.5702981,2.4734423,-0.0870685,0.059135716,-0.077585354,0.009784236,0.00991554,-0.11779378,-0.57460845,-0.019153614,-9.461885,0.8247004,47.71823,-1.3169869,-2.4601252,-3.177603,-0.13085917,0.053596884,-0.16531086,28.9375,30.3125,29.3125,32.9375,35.4375,36.5
0.13405332,-1.4342203,-0.4488523,-0.74196005,0.015582422,0.07937814,-0.15319026,-0.39314288,-0.36746672,0.059921905,3.0787194,-0.6235612,0.00037644905,-0.058328386,0.017848002,5.8182457e-05,-0.010690474,-0.0016010205,0.027632996,0.49902716,-1.3773938,1.8992032,-2.0911815,-1.5702742,2.4731665,-0.09007083,0.063678585,-0.07801642,0.010641104,0.010013386,-0.117677726,-0.6703765,-0.038307227,-9.595961,0.83589023,47.716442,-1.2251074,-2.488112,-3.2924218,-0.13589981,0.024722058,-0.1325671,28.9375,30.3125,29.3125,32.9375,35.4375,36.5
0.13605405,-1.3531579,-0.09504004,-0.7022133,-0.008929222,0.09206682,-0.16846663,-0.39327943,-0.36744177,0.059940048,3.0786734,-0.6235525,0.0002884852,-0.059219953,0.017574683,0.0014842661,-0.011077493,0.0013078487,0.025037516,0.49885952,-1.3772743,1.8990229,-2.091194,-1.5702747,2.4729993,-0.08975319,0.06241044,-0.07984518,0.011002767,0.008967268,-0.114761986,-0.7661445,-0.019153614,-9.557653,0.8112748,47.71286,-1.4028516,-2.624848,-3.2427595,-0.16120312,0.025243744,-0.16571069,28.9375,30.3125,29.3125,32.9375,35.4375,36.5
0.13805425,-1.1610569,-0.247186,-0.67181563,-0.013383873,0.104912214,-0.1619608,-0.39338464,-0.36741194,0.059936803,3.0786865,-0.6234646,0.00036905982,-0.062362902,0.019723563,0.0021231007,-0.011771632,0.0031503777,0.013888216,0.49868977,-1.3771302,1.8988432,-2.091122,-1.5702385,2.472773,-0.09606475,0.062413592,-0.081168026,0.010376836,0.008687776,-0.109923616,-0.7278373,0.038307227,-9.500193,0.784413,47.71286,-1.1256695,-2.3515646,-3.2627754,-0.16256462,0.03256717,-0.21436332,28.9375,30.3125,29.3125,32.9375,35.4375,36.5
0.14005364,-1.6277103,-0.048162505,-0.8566358,-0.009226991,0.09239393,-0.1666926,-0.39350557,-0.36736283,0.059926566,3.0787127,-0.6233927,0.00033184,-0.061801504,0.019142488,0.0012523138,-0.01070156,0.0017103469,0.012344473,0.49851084,-1.3769972,1.8987116,-2.0911338,-1.5702628,2.472546,-0.094390504,0.06455099,-0.081788205,0.010634446,0.008438053,-0.10670465,-0.7469909,0.076614454,-9.5385,0.83813137,47.716442,-1.2180166,-2.5324922,-3.308874,-0.15571865,0.039501026,-0.2683159,28.9375,30.3125,29.3125,32.9375,35.4375,36.5
0.14205371,-1.2824111,-0.4052872,-0.6992575,-0.00056159945,0.10281853,-0.16146778,-0.39362428,-0.36733264,0.059928156,3.0786617,-0.6233647,0.00040441783,-0.06380346,0.020222476,0.0017899957,-0.011188692,0.0029431884,0.008994563,0.49830592,-1.3768651,1.8985432,-2.091098,-1.5701908,2.47233,-0.09791886,0.0648011,-0.08330638,0.010596932,0.0082747135,-0.106882244,-0.7086837,0.019153614,-9.595961,0.83365434,47.71554,-1.211289,-2.4045494,-3.3110628,-0.18106318,0.03861791,-0.3221138,28.9375,30.3125,29.3125,32.9375,35.4375,36.5
0.14405389,-1.7601018,-0.55371284,-0.6976407,0.0049689347,0.08867666,-0.16309093,-0.39377162,-0.3672732,0.059938427,3.0786674,-0.6233454,0.00037913444,-0.0654886,0.021020776,0.0019932305,-0.0114381295,0.004263725,0.0072407615,0.49807775,-1.3767327,1.898352,-2.0910504,-1.5702027,2.4720893,-0.100521624,0.06544988,-0.084344395,0.009709522,0.007861719,-0.10772997,-0.842759,0.076614454,-9.500193,0.84484416,47.73525,-1.1263015,-2.3842132,-3.3251953,-0.16974872,0.034081116,-0.30561823,28.9375,30.3125,29.3125,32.9375,35.4375,36.5
0.14605412,-0.67002684,0.24819987,-0.697406,0.0026102462,0.10095879,-0.17246085,-0.39391786,-0.36726353,0.05995462,3.0785704,-0.6232879,0.0002984811,-0.06813374,0.021298368,0.0030691545,-0.0131115895,0.006659247,0.004731123,0.49789697,-1.3766003,1.8981718,-2.0911105,-1.5701545,2.471885,-0.10359127,0.06629761,-0.08771861,0.009337894,0.008193105,-0.10828806,-0.61291564,0.038307227,-9.576807,0.8247004,47.729877,-1.0522783,-2.4084082,-3.285067,-0.17836772,0.03686502,-0.3466217,28.9375,30.3125,29.3125,32.9375,35.4375,36.5
0.14805341,-0.24569508,0.1289527,-0.75272495,0.0024756913,0.10271028,-0.17243244,-0.39404318,-0.36719275,0.059936132,3.0786376,-0.62330145,0.00030965576,-0.06860159,0.022738518,0.0019027404,-0.012111465,0.004705501,0.003552599,0.49769256,-1.3764436,1.8980173,-2.0910628,-1.5702027,2.4716806,-0.10644747,0.06760095,-0.08656183,0.009069126,0.008246299,-0.109966464,-0.5746084,0.0,-9.5385,0.80679786,47.71554,-0.8862869,-2.336487,-3.251835,-0.17406744,0.032613862,-0.358674,28.9375,30.3125,29.3125,32.9375,35.4375,36.5
0.15005368,-0.71303743,0.20812468,-0.8791278,-0.0016404595,0.07632161,-0.16269839,-0.3942085,-0.36715806,0.059975952,3.0785177,-0.6233548,0.00022817186,-0.06978476,0.023028936,0.0024427513,-0.012496459,0.005437954,0.0014002514,0.49745238,-1.3763475,1.8978127,-2.0910628,-1.5701545,2.471489,-0.10798062,0.067982025,-0.08838732,0.009693159,0.008246699,-0.10934566,-0.49799395,-0.038307227,-9.442732,0.8918391,47.72719,-0.8381692,-2.3115034,-3.3669102,-0.17464516,0.029336605,-0.3934282,28.9375,30.3125,29.3125,32.9375,35.4375,36.5
0.15205385,-0.6140705,-0.35803494,-0.6891768,0.01569229,0.078255914,-0.15535925,-0.39432153,-0.36709845,0.05995312,3.078575,-0.6232658,0.00030045575,-0.07199859,0.022916412,0.0038149052,-0.013991869,0.00813411,0.005666781,0.4972483,-1.3761911,1.8976682,-2.0910146,-1.5701545,2.4712222,-0.10980638,0.0683105,-0.09194089,0.009840309,0.008264432,-0.115437046,-0.49799395,-0.076614454,-9.461885,0.8605109,47.719128,-0.86689425,-2.282989,-3.1860247,-0.18148568,0.031163342,-0.4146666,28.9375,30.3125,29.3125,32.9375,35.4375,36.5
0.15405361,-0.47011718,-0.024826724,-0.5820049,0.016527573,0.0851036,-0.1688212,-0.39447168,-0.36703777,0.0599626,3.0785644,-0.62320364,0.0002586217,-0.07200216,0.023580613,0.0025264258,-0.013278093,0.0059286007,0.008748087,0.49700835,-1.3760705,1.8975009,-2.0910027,-1.5701545,2.470945,-0.111157924,0.070178196,-0.09114831,0.0094619505,0.008697873,-0.11987014,-0.4405331,-0.038307227,-9.385271,0.7777002,47.684196,-0.82602966,-2.3527007,-3.3382273,-0.17947127,0.030849917,-0.3561959,28.9375,30.3125,29.3125,32.9375,35.4375,36.5
0.15605387,-0.6531523,0.17358033,-0.7367214,0.014789973,0.08148041,-0.16900615,-0.39462796,-0.3670125,0.059973095,3.0784895,-0.62324,0.00025213923,-0.07282342,0.023222009,0.0030926934,-0.01414317,0.007184903,0.016798617,0.4967928,-1.3759022,1.8972744,-2.0909903,-1.5701069,2.4707615,-0.1113707,0.070493676,-0.09277637,0.009269817,0.008865968,-0.12813257,-0.34476504,0.019153614,-9.404425,0.7866488,47.645687,-0.9281773,-2.270187,-3.1897068,-0.18739885,0.028433707,-0.31966728,28.9375,30.3125,29.3125,32.9375,35.4375,36.5
0.15805414,-0.37640235,-0.20137823,-0.7062566,0.022018643,0.08183738,-0.16547163,-0.3947707,-0.36695957,0.059976324,3.0784888,-0.623119,0.0002367413,-0.07310752,0.023196308,0.002533215,-0.01339441,0.006102501,0.02429891,0.49656513,-1.3757695,1.897107,-2.0909789,-1.5700945,2.4704585,-0.11146704,0.07250337,-0.09402338,0.009824354,0.0087302225,-0.1357281,-0.19153613,0.038307227,-9.461885,0.78217715,47.682407,-0.9220321,-2.2645216,-3.1652713,-0.18670326,0.035645008,-0.2120172,28.9375,30.3125,29.3125,32.9375,35.4375,36.5
0.16005363,0.5182595,0.09322258,-0.571641,0.005832365,0.086039804,-0.16200307,-0.39490283,-0.36690882,0.05996122,3.0785334,-0.62302995,0.00022776658,-0.073449016,0.022953443,0.002726504,-0.013979883,0.0059813717,0.029032629,0.49637347,-1.375601,1.8969387,-2.0909665,-1.5701183,2.4702058,-0.11169415,0.073016696,-0.09519347,0.010308138,0.009303378,-0.14068924,-0.21068975,0.17238252,-9.385271,0.7978386,47.674347,-0.9863241,-2.2738342,-3.2923737,-0.20604074,0.034222364,-0.13958293,28.9375,30.3125,29.3125,32.9375,35.4375,36.5
0.162054,-0.16498955,-0.64864373,-0.83522975,0.0141237285,0.039832354,-0.16669388,-0.3950841,-0.36686492,0.059988163,3.0784483,-0.6229918,0.00020399709,-0.075072765,0.024623767,0.0019924168,-0.012891271,0.005251408,0.02888107,0.49609658,-1.3754563,1.8967003,-2.0909426,-1.5700587,2.4699159,-0.11556911,0.074866496,-0.09568789,0.010128574,0.008706438,-0.14441086,-0.1340753,0.095768064,-9.3661175,0.800085,47.70032,-0.8735641,-2.266833,-3.2639337,-0.20160332,0.03130638,-0.08791526,28.9375,30.3125,29.3125,32.9375,35.4375,36.5
0.16405328,0.8437129,-0.68259144,-0.7275405,-0.005189289,0.050617184,-0.16465402,-0.39524174,-0.36679575,0.059984494,3.078494,-0.6228656,0.00015420445,-0.07498313,0.023680015,0.0024122845,-0.012708854,0.0060202903,0.02704337,0.49585816,-1.3752998,1.89652,-2.0909302,-1.5700945,2.469593,-0.11353355,0.07542087,-0.09745138,0.010744747,0.008180478,-0.14053623,-0.15322891,0.15322891,-9.346964,0.83589023,47.717335,-1.1623232,-2.357885,-3.2474322,-0.2008172,0.027918845,-0.089278564,28.9375,30.3125,29.3125,32.9375,35.4375,36.5
0.16605385,0.8170348,-0.62294775,-0.7852692,-0.009600154,0.03534661,-0.16388355,-0.39538231,-0.36674473,0.059981808,3.0784864,-0.6227728,0.00016427219,-0.076708615,0.025244355,0.0022411318,-0.01253675,0.005582224,0.018113727,0.49562892,-1.3751556,1.8963522,-2.0909183,-1.5700706,2.469307,-0.11773901,0.07637325,-0.09828161,0.011091867,0.008238765,-0.1358116,-0.15322891,0.15322891,-9.289502,0.7978386,47.68599,-0.75316095,-2.2827778,-3.2890449,-0.20469512,0.046106335,-0.16460559,28.9375,30.3125,29.3125,32.9375,35.4375,36.5
0.16805403,0.9918471,-0.7504192,-0.8824367,-0.012048325,0.036630414,-0.1583794,-0.39555073,-0.36668238,0.05998219,3.0784762,-0.62279224,0.0001243613,-0.07760444,0.02488471,0.0024706523,-0.013643105,0.0063789194,0.012262537,0.49537745,-1.3749871,1.8961486,-2.0909064,-1.5700825,2.469069,-0.118276045,0.07732173,-0.09978826,0.0104182195,0.008832198,-0.1304971,-0.095768064,0.22984336,-9.251195,0.74413085,47.677036,-0.9818261,-2.271315,-3.2394848,-0.19996479,0.05780845,-0.19959317,28.9375,30.3125,29.3125,32.9375,35.4375,36.5
0.17005338,0.24009162,-1.2642143,-0.78262085,-0.0100887045,0.023181407,-0.15366887,-0.39571446,-0.36663935,0.059995912,3.0784116,-0.62281895,0.00013367958,-0.07791684,0.025493097,0.001102958,-0.011871783,0.0033785347,0.0074661947,0.49512556,-1.3748295,1.8959221,-2.0908701,-1.5700344,2.468842,-0.11946017,0.08066965,-0.100964375,0.011734729,0.008705361,-0.12688363,-0.038307227,0.24899697,-9.270349,0.8112748,47.68599,-0.9495747,-2.3506603,-3.3446126,-0.22336346,0.05384408,-0.27896613,28.9375,30.3125,29.3125,32.9375,35.4375,36.5
0.17205352,-0.22454174,-0.8355308,-0.5757154,-0.015364347,0.015411707,-0.15549855,-0.3958364,-0.36657986,0.059958395,3.0784905,-0.62266284,0.00019234615,-0.07942872,0.02567367,0.0029782965,-0.014148139,0.0066451128,0.0031732875,0.4949215,-1.3746383,1.8957776,-2.0908582,-1.5700463,2.4685307,-0.12138232,0.07822032,-0.102292165,0.011553179,0.009147129,-0.12451373,-0.019153614,0.2681506,-9.232041,0.7978386,47.66539,-1.030348,-2.2771885,-3.3204167,-0.23617007,0.060908355,-0.36177847,28.9375,30.3125,29.3125,32.9375,35.4375,36.5
0.1740541,0.28192446,-0.7607283,-0.7231456,-0.00996474,0.02567875,-0.15445392,-0.39602724,-0.36656186,0.0600193,3.0783737,-0.6226386,5.754099e-05,-0.0784181,0.025106393,0.0020044984,-0.013603552,0.00433486,0.0030419566,0.49469456,-1.3745179,1.8954905,-2.090834,-1.5700101,2.4683034,-0.11984925,0.07988209,-0.102175534,0.012069792,0.009785766,-0.12284849,0.095768064,0.3256114,-9.270349,0.8179876,47.709274,-1.0281484,-2.123953,-3.3379722,-0.24638626,0.0629809,-0.39219517,28.9375,30.3125,29.3125,32.9375,35.4375,36.5
0.17605403,0.7015767,-0.6129272,-0.61588764,-0.014837438,0.033507742,-0.17068043,-0.3961765,-0.36650535,0.060011104,3.0783587,-0.6226182,0.00011048866,-0.08057185,0.026663415,0.00035965213,-0.01269283,0.0019577397,-0.0021894635,0.49444118,-1.3743479,1.8952993,-2.0907986,-1.5699743,2.4680393,-0.12458875,0.08451232,-0.10385475,0.0116487695,0.01010811,-0.12235561,0.019153614,0.24899697,-9.346964,0.779936,47.69763,-0.9798918,-2.3827984,-3.4061942,-0.24723157,0.04755702,-0.4810948,28.9375,30.3125,29.3125,32.9375,35.4375,36.5
0.17805338,0.75610375,-0.66503143,-0.4149959,-0.01879307,0.035869844,-0.16355287,-0.3963328,-0.3664456,0.05999358,3.0783587,-0.62261313,0.0001382161,-0.079756394,0.025696186,0.00089901965,-0.013246787,0.0028607692,0.003024267,0.49419078,-1.3741561,1.8951086,-2.0907867,-1.5699624,2.4677858,-0.12221154,0.08339925,-0.10376751,0.01162283,0.010169374,-0.12519257,0.019153614,0.2681506,-9.270349,0.81351066,47.70211,-1.1594392,-2.1376882,-3.3080156,-0.22540686,0.057048235,-0.51201606,28.9375,30.3125,29.3125,32.9375,35.4375,36.5
0.18005359,0.7469587,-0.6530372,-0.66396695,-0.014754197,0.03380823,-0.160292,-0.39651725,-0.36639327,0.06002082,3.0782943,-0.622652,6.619977e-05,-0.08094556,0.025819127,-6.458218e-05,-0.012612618,0.0013842669,0.009885057,0.4939268,-1.3740107,1.8948683,-2.0907624,-1.5699495,2.4675543,-0.12354486,0.08728947,-0.10625839,0.011834254,0.010321929,-0.13338456,-0.019153614,0.24899697,-9.232041,0.87393653,47.71286,-1.1720151,-2.276527,-3.446221,-0.25703365,0.04194352,-0.49487743,28.9375,30.3125,29.3125,32.9375,35.4375,36.5
0.18205366,0.75036716,-0.87938416,-0.6246716,-0.008216408,0.0376651,-0.16472061,-0.39665422,-0.3663461,0.060005076,3.0783474,-0.6225049,0.00011003533,-0.08249447,0.026152814,9.187873e-05,-0.012805551,0.0018825489,0.015709555,0.49372268,-1.3738179,1.8946642,-2.0907147,-1.5699495,2.4672518,-0.12543307,0.08886583,-0.10854654,0.012024146,0.010251933,-0.14109649,0.1340753,0.2681506,-9.32781,0.85826975,47.71017,-1.1594125,-2.3752017,-3.3250318,-0.25015658,0.04767535,-0.42821097,28.9375,30.3125,29.3125,32.9375,35.4375,36.5
0.1840536,0.91510826,-0.5518647,-0.5570125,-0.012797275,0.040711742,-0.16528657,-0.39683458,-0.36630693,0.06003344,3.0782542,-0.6224795,1.5555603e-05,-0.08356582,0.026390184,0.00056073593,-0.013243467,0.0029108173,0.026456373,0.49347085,-1.3736858,1.8944482,-2.0907385,-1.5699142,2.466996,-0.12670276,0.089107014,-0.10991541,0.012056369,0.010172556,-0.1531113,0.1340753,0.22984336,-9.270349,0.8224646,47.741516,-1.1978136,-2.298279,-3.316122,-0.2581216,0.06303364,-0.2903059,28.9375,30.3125,29.3125,32.9375,35.4375,36.5
0.18605387,0.15939032,-0.54607034,-0.42270198,-0.012933479,0.03429474,-0.1585288,-0.39697948,-0.3662259,0.05999017,3.078338,-0.62237495,0.000161077,-0.08374704,0.026536018,-0.00085328694,-0.012159219,0.00041410656,0.03332948,0.4931954,-1.3734564,1.8942574,-2.0906665,-1.5699023,2.4666448,-0.12720327,0.092496224,-0.11080107,0.012275198,0.010387601,-0.16048542,-0.1340753,0.22984336,-9.289503,0.8023209,47.72629,-1.2004169,-2.5064068,-3.3169215,-0.2717701,0.04310359,-0.22677062,28.9375,30.3125,29.3125,32.9375,35.4375,36.5
0.18805422,0.10107559,-1.2451874,-0.41503128,-0.011155231,0.060829606,-0.16122752,-0.39714232,-0.36617455,0.05998582,3.0783195,-0.62231284,0.00022274666,-0.08679445,0.026313853,0.0020529565,-0.014951707,0.0060077296,0.03405638,0.4929312,-1.3732647,1.8940285,-2.0906184,-1.5698541,2.466344,-0.12942432,0.09071121,-0.11531335,0.012337163,0.010192356,-0.16343187,-0.15322891,0.21068975,-9.232041,0.83365434,47.719128,-1.132827,-2.2431214,-3.1552572,-0.28288195,0.05119255,-0.16297585,28.9375,30.3125,29.3125,32.9375,35.4375,36.5
0.19005339,-0.79287386,-1.1854743,-0.51344776,-0.008083766,0.057282172,-0.144199,-0.39733136,-0.36614382,0.060013752,3.0783029,-0.6220991,8.431009e-05,-0.08575379,0.027655834,-0.0012747303,-0.01242378,-0.00025885805,0.030516015,0.4927149,-1.3730952,1.8937663,-2.0906308,-1.5698656,2.4659967,-0.13115226,0.09486686,-0.1126915,0.012272746,0.01095362,-0.16161941,-0.24899697,0.19153613,-9.308657,0.8627467,47.719128,-1.1180196,-2.4025507,-3.357202,-0.28698966,0.05325284,-0.14482673,28.9375,30.3125,29.3125,32.9375,35.4375,36.5
0.19205329,-0.6632542,-0.48311323,-0.46862406,-0.012666373,0.079696074,-0.1601061,-0.39750263,-0.3660842,0.059993673,3.0782623,-0.6220938,0.00018487422,-0.08872198,0.027508635,0.0014393566,-0.015932446,0.004543558,0.023508245,0.4924146,-1.3728797,1.8935503,-2.090607,-1.5697936,2.4656982,-0.13403967,0.09310976,-0.11677854,0.012234537,0.011761418,-0.15749873,-0.38307226,0.15322891,-9.346964,0.8023209,47.72002,-1.1020044,-2.3238344,-3.1322343,-0.28503463,0.03849366,-0.21392423,28.9375,30.3125,29.3125,32.9375,35.4375,36.5
0.19405356,-0.5836615,-0.7178036,-0.43265858,-0.002852587,0.09392043,-0.15205812,-0.39766273,-0.36602792,0.060014665,3.078278,-0.6219836,0.00017177546,-0.08893239,0.027977305,0.00023141202,-0.014491999,0.0023434747,0.017140701,0.49217507,-1.3727345,1.8933109,-2.090523,-1.569794,2.465388,-0.13482712,0.09583024,-0.11739933,0.012752991,0.011532347,-0.15191773,-0.7086837,0.17238252,-9.3661175,0.81351066,47.704796,-1.2163506,-2.3293772,-3.2903156,-0.29750887,0.04150685,-0.27068383,28.9375,30.3125,29.375,32.9375,35.4375,36.5
0.19605395,-0.9609124,-0.81562704,-0.2814764,0.0181334,0.1004628,-0.14576837,-0.39785376,-0.3659851,0.060015313,3.0782151,-0.6219131,0.00015026977,-0.089990616,0.027371185,0.00073950953,-0.015538595,0.003689473,0.01619739,0.49189943,-1.37253,1.8930715,-2.0905468,-1.569745,2.4650764,-0.13488549,0.09687949,-0.11973074,0.012363257,0.011823863,-0.15103129,-0.59376204,0.11492168,-9.404425,0.8112748,47.72271,-1.1285483,-2.4095278,-3.2090573,-0.30419716,0.035584606,-0.3345248,28.9375,30.3125,29.375,32.9375,35.4375,36.5
0.19805391,-1.3510509,0.0015571177,-0.35291973,0.02570411,0.092489764,-0.1551293,-0.39802638,-0.36591327,0.059988067,3.0782418,-0.62189996,0.0001943118,-0.092135854,0.028662305,0.0003892567,-0.014712103,0.0037342494,0.012541817,0.49162263,-1.372301,1.8928555,-2.090523,-1.5697454,2.4647882,-0.13847399,0.09926403,-0.121804446,0.012409106,0.011066994,-0.15096289,-0.61291564,-0.038307227,-9.3661175,0.8560339,47.711964,-1.0537826,-2.439011,-3.1657033,-0.322297,0.047797594,-0.35762995,28.9375,30.3125,29.375,32.9375,35.4375,36.5
0.20005412,-1.5989445,0.5666412,-0.32044587,0.024843058,0.09155366,-0.1599175,-0.39818427,-0.36585543,0.059967812,3.078242,-0.62183905,0.00026162007,-0.09182609,0.027520359,0.00041308196,-0.015598195,0.0036763966,0.015073179,0.49135998,-1.3720965,1.8926529,-2.0904992,-1.5697092,2.4644876,-0.13671969,0.10013822,-0.12288181,0.012251504,0.011872101,-0.1517404,-0.80445176,-0.076614454,-9.346964,0.8605109,47.71286,-1.2124406,-2.4888368,-3.1301885,-0.32278952,0.037011676,-0.37743086,28.9375,30.3125,29.375,32.9375,35.4375,36.5
0.2020533,-1.3413568,-0.09313037,-0.32517314,0.029516894,0.11338275,-0.16109958,-0.39840066,-0.3657976,0.059988942,3.0782075,-0.62177205,0.0002012989,-0.093503565,0.02799611,0.0003398739,-0.015574724,0.0044141393,0.017641256,0.49105996,-1.3718916,1.8923529,-2.0904634,-1.5696977,2.4641502,-0.13874342,0.102018215,-0.1248483,0.011709919,0.011513211,-0.15633017,-0.7661445,-0.05746084,-9.289502,0.88289046,47.71465,-1.2502782,-2.46056,-3.1452546,-0.30997497,0.033665802,-0.36051244,28.9375,30.3125,29.375,32.9375,35.4375,36.5
0.20405345,-0.7169437,0.6734935,-0.4517963,0.010832356,0.1285731,-0.17035222,-0.39859086,-0.3657562,0.059985906,3.078193,-0.621667,0.00022463148,-0.09507408,0.028584922,0.0012971112,-0.015740735,0.0063677216,0.024445035,0.49079597,-1.3716515,1.8920659,-2.0904272,-1.5696615,2.4638226,-0.14061202,0.10168281,-0.12675016,0.012166757,0.010746321,-0.16500126,-0.78529817,-0.15322891,-9.32781,0.82694155,47.739727,-1.2874005,-2.434653,-3.0411465,-0.33117378,0.03612891,-0.31022197,28.9375,30.3125,29.375,32.9375,35.4375,36.5
0.20605384,-1.2330726,0.021496149,-0.5803796,0.01615526,0.10855225,-0.1720612,-0.39876512,-0.36569026,0.059983537,3.0781896,-0.621602,0.00022397455,-0.09528771,0.028923098,0.0004483771,-0.0150639,0.0050504482,0.034843165,0.49052036,-1.3714707,1.8918504,-2.0904028,-1.5696496,2.463507,-0.14133647,0.10347742,-0.12695448,0.012074061,0.010782196,-0.17612344,-0.7469909,-0.19153613,-9.519346,0.7978386,47.68062,-1.2255399,-2.482738,-3.1125221,-0.3365436,0.05394262,-0.20460537,28.9375,30.3125,29.375,32.9375,35.4375,36.5
0.20805386,-0.86412925,-0.06276689,-0.4513624,0.008507785,0.11230062,-0.1650669,-0.39897072,-0.365623,0.05998011,3.0781808,-0.62144476,0.00020668942,-0.09728689,0.03088786,0.00054935954,-0.014541464,0.0050787786,0.03566428,0.49020723,-1.3712542,1.8916005,-2.0904028,-1.5696262,2.4630969,-0.14608452,0.10395424,-0.1279419,0.012821042,0.010321082,-0.18169157,-0.8236054,-0.076614454,-9.519346,0.86945957,47.683304,-1.0277174,-2.4455638,-3.1897721,-0.32667688,0.060297318,-0.099807486,28.9375,30.3125,29.375,32.9375,35.4375,36.5
0.21005413,-1.1435593,-0.40408793,-0.62851286,0.012176603,0.10322628,-0.15106356,-0.39916065,-0.36554423,0.059974164,3.0781825,-0.62142456,0.00023214884,-0.09776285,0.030949956,0.00044507123,-0.013845483,0.005867087,0.036425374,0.48989618,-1.3710498,1.8913597,-2.0903552,-1.5696143,2.462773,-0.14594196,0.10479725,-0.12860787,0.012285679,0.009335206,-0.1823091,-0.842759,-0.05746084,-9.442732,0.7463667,47.73256,-1.1703672,-2.378638,-3.0956016,-0.3487083,0.062117826,-0.05392555,28.9375,30.3125,29.375,32.9375,35.4375,36.5
0.212054,-1.0796368,0.3091594,-0.7123037,0.008461277,0.09679009,-0.16220404,-0.3993641,-0.36548385,0.059975598,3.0781639,-0.6213078,0.00021264337,-0.099351965,0.030567694,0.0017243451,-0.015592183,0.008385878,0.030207576,0.48959658,-1.3708338,1.8910965,-2.0903437,-1.5695904,2.462403,-0.14687952,0.10464335,-0.13130741,0.012094802,0.009691849,-0.17702782,-0.7661445,-0.095768064,-9.519346,0.7911258,47.686886,-1.1677036,-2.321191,-3.243639,-0.34377113,0.07019603,-0.07878506,28.9375,30.3125,29.375,32.9375,35.4375,36.5
0.21405406,-0.44749072,-0.07736514,-0.5924465,0.022243371,0.10592627,-0.14011364,-0.39955842,-0.36540785,0.059974253,3.0781941,-0.62122196,0.00017855187,-0.09864619,0.031948574,-0.00082177937,-0.012797578,0.0035895307,0.020952446,0.48930857,-1.3706284,1.8908466,-2.0903075,-1.5696143,2.4620578,-0.14837065,0.10783459,-0.12945901,0.012593075,0.009484513,-0.16926388,-0.6512228,-0.11492168,-9.557653,0.8985519,47.698532,-1.1288933,-2.5877771,-3.2925978,-0.33927083,0.08280059,-0.18537667,28.9375,30.3125,29.375,32.9375,35.4375,36.5
0.21605337,-0.35691753,0.21357541,-0.69333524,0.016654529,0.09243861,-0.16497669,-0.39976898,-0.36536166,0.05998904,3.07809,-0.62122285,0.00016277932,-0.0999134,0.032028366,0.00088655174,-0.01426896,0.0071384604,0.012678944,0.48899698,-1.3704251,1.890571,-2.0903075,-1.5695423,2.46176,-0.14934129,0.105618924,-0.13061814,0.0121516995,0.009121777,-0.16196004,-0.51714754,-0.076614454,-9.557653,0.8247004,47.677036,-1.2324654,-2.3259664,-3.313768,-0.3361231,0.09975733,-0.2645235,28.9375,30.3125,29.375,32.9375,35.4375,36.5
0.21805382,-0.6580156,-0.21776947,-0.9204532,0.018977895,0.06350775,-0.14523894,-0.39998096,-0.36528113,0.059967775,3.0781093,-0.62126535,0.00015830398,-0.09942364,0.032203257,-0.0017003518,-0.013208003,0.0023027945,0.008710579,0.48868546,-1.3701591,1.8902968,-2.0902836,-1.5695657,2.4614727,-0.14994708,0.11030278,-0.1302939,0.011901742,0.010454064,-0.15859789,-0.3256114,-0.05746084,-9.500193,0.8403672,47.679718,-1.2444437,-2.5556529,-3.4064178,-0.35218692,0.08240719,-0.33813047,28.9375,30.3125,29.375,32.9375,35.4375,36.5
0.2200541,-0.30365583,-0.36488917,-0.9114806,0.016619287,0.047262706,-0.14798379,-0.40018132,-0.36522567,0.059967212,3.078087,-0.62120444,0.00015197723,-0.101099096,0.032247853,-0.00018790252,-0.014610062,0.0055122874,0.003494524,0.48839775,-1.3699312,1.8900212,-2.0902603,-1.5695423,2.46115,-0.15128684,0.10922118,-0.132393,0.011593568,0.010183898,-0.15472057,-0.17238252,-0.019153614,-9.595961,0.8627467,47.72002,-1.2523172,-2.414511,-3.487597,-0.35645837,0.097948655,-0.44509715,28.9375,30.3125,29.375,32.9375,35.4375,36.5
0.22205415,1.1573324,0.16126145,-0.7879669,-0.0058393795,0.05829867,-0.16041023,-0.4003864,-0.36514,0.059968498,3.0780654,-0.6211963,0.0001384602,-0.10042224,0.03326464,-0.0014019769,-0.012467133,0.0033782735,0.0053635407,0.48806235,-1.3697388,1.8897833,-2.0902355,-1.5695304,2.4608123,-0.15177082,0.109975986,-0.13064592,0.011992798,0.009305738,-0.15707347,-0.076614454,0.0,-9.557653,0.9365982,47.70211,-1.2921402,-2.4409323,-3.5476909,-0.34507918,0.12074733,-0.50394523,28.9375,30.3125,29.375,32.9375,35.4375,36.5
0.22405422,0.6820561,-0.5513336,-0.7189851,-0.0003032946,0.03802305,-0.16155665,-0.4005982,-0.365069,0.05996408,3.0780249,-0.6212213,0.0001327373,-0.10336446,0.032864995,0.0006735171,-0.015307772,0.0073684375,0.013005878,0.48773804,-1.3695107,1.8895186,-2.0902236,-1.569506,2.4605088,-0.15405774,0.11001597,-0.13540179,0.011869246,0.009950081,-0.16700111,0.05746084,0.076614454,-9.634268,0.86498255,47.698532,-1.2003653,-2.3231921,-3.450014,-0.33547938,0.11926071,-0.47612122,28.9375,30.3125,29.375,32.9375,35.4375,36.5
0.22605374,0.84163624,-0.4517935,-0.7446458,-0.005677572,0.034687825,-0.16428912,-0.40082347,-0.36498868,0.059962098,3.0780454,-0.6211229,0.00013557551,-0.10514892,0.034854475,-0.00048166243,-0.014904003,0.0050761597,0.021102695,0.48740086,-1.3692577,1.8892077,-2.0901635,-1.5695056,2.4601078,-0.15936781,0.11261742,-0.13594563,0.012043295,0.0106822075,-0.18040793,0.1340753,0.076614454,-9.5385,0.83365434,47.688675,-1.0048336,-2.2344828,-3.4272451,-0.34636492,0.12903379,-0.34775496,28.9375,30.3125,29.375,32.9375,35.4375,36.5
0.22805378,0.41930455,-0.5502343,-0.8658199,-0.0056083915,0.017483644,-0.16561554,-0.4010368,-0.36493298,0.059976265,3.0779994,-0.62102914,7.190817e-05,-0.10640567,0.03490644,0.0008843534,-0.015557143,0.007611291,0.031348996,0.48710176,-1.3690535,1.8889321,-2.0901635,-1.5694822,2.4597561,-0.16013704,0.11164235,-0.13802625,0.012576369,0.010096316,-0.19142188,0.15322891,0.22984336,-9.634268,0.85826975,47.68062,-1.0988896,-2.3396096,-3.4050379,-0.34312195,0.1440113,-0.23763487,28.9375,30.3125,29.375,32.9375,35.4375,36.5
0.23005378,1.0655581,-0.5451607,-0.9529253,-0.023228528,0.02859902,-0.17075385,-0.40125445,-0.36486477,0.059991397,3.0779707,-0.62092406,3.9106246e-05,-0.107281506,0.03560147,-0.00075995544,-0.014871188,0.0045739203,0.034996364,0.4867774,-1.368848,1.8886446,-2.0901282,-1.5694579,2.45937,-0.16251954,0.1157236,-0.13920785,0.0126948,0.01092807,-0.19745065,0.076614454,0.30645782,-9.595961,0.9254084,47.703007,-0.96727777,-2.3095255,-3.3539767,-0.3363129,0.159798,-0.16673279,28.9375,30.3125,29.375,32.9375,35.4375,36.5
0.23205447,0.4633412,-1.1878761,-1.0148333,-0.03667001,0.021434693,-0.16255125,-0.4014635,-0.36478892,0.059987243,3.0780108,-0.6208181,1.585262e-05,-0.108325355,0.03597402,0.00033961784,-0.015589444,0.006221733,0.031173816,0.48647773,-1.3686084,1.888357,-2.0900795,-1.5694817,2.4589992,-0.16391493,0.114591494,-0.14052892,0.013351705,0.010791985,-0.19502322,0.019153614,0.40222588,-9.615114,0.8784135,47.683304,-1.0317297,-2.4335334,-3.3868406,-0.3400496,0.15725216,-0.16476527,28.9375,30.3125,29.375,32.9375,35.4375,36.5
0.23405376,0.10191299,-1.3846952,-0.78917664,-0.049651105,0.032899782,-0.16519089,-0.40167648,-0.36468512,0.059964646,3.0779786,-0.6208713,9.48563e-05,-0.10792558,0.034710012,0.00021370368,-0.015774546,0.005706683,0.025422446,0.48608345,-1.3683794,1.8881296,-2.0900552,-1.5694336,2.4586422,-0.1615934,0.116198115,-0.1423082,0.013895173,0.011185699,-0.18694997,-0.11492168,0.4213795,-9.576807,0.84484416,47.72002,-1.1576599,-2.3290873,-3.427576,-0.3387726,0.1709967,-0.24961662,28.9375,30.3125,29.375,32.9375,35.4375,36.5
0.23605375,-0.111933246,-1.7713314,-1.1439652,-0.04806826,0.0419612,-0.16638155,-0.40189436,-0.36463407,0.059970297,3.077977,-0.62071866,6.547476e-05,-0.10872384,0.03498283,-0.00011428357,-0.015949015,0.0043929745,0.019927474,0.4857955,-1.3681265,1.8878068,-2.0900195,-1.5694212,2.4582593,-0.16315748,0.11805387,-0.14401576,0.014824938,0.011957769,-0.18301824,-0.11492168,0.45968673,-9.691729,0.8851263,47.69763,-1.0984071,-2.4457357,-3.3664155,-0.37148625,0.18719995,-0.31460166,28.9375,30.3125,29.375,32.9375,35.4375,36.5
0.23805407,-0.1502886,-1.6863889,-0.954629,-0.06801747,0.05835459,-0.15819661,-0.4021044,-0.36456826,0.059975535,3.0779595,-0.6205996,4.5852146e-05,-0.11042976,0.035478503,0.0003924848,-0.016573094,0.0057312637,0.016661376,0.48548317,-1.3679101,1.8875312,-2.0899951,-1.5693978,2.457875,-0.16538587,0.11873366,-0.14595321,0.014614734,0.011889338,-0.1819793,-0.19153613,0.4405331,-9.615114,0.83589023,47.703007,-1.053201,-2.315495,-3.338933,-0.38350877,0.1831379,-0.3796894,28.9375,30.3125,29.375,32.9375,35.4375,36.5
0.2400542,-0.32040957,-1.7024494,-0.719671,-0.06390121,0.055973984,-0.16180007,-0.40232477,-0.36451042,0.05996777,3.0779333,-0.6205369,9.4994204e-05,-0.112788275,0.03484014,0.0014168067,-0.019059991,0.0076389527,0.015431009,0.48515934,-1.3676332,1.8872074,-2.089948,-1.5693487,2.4575155,-0.16713051,0.12050995,-0.15038809,0.014434841,0.013194043,-0.18249224,-0.05746084,0.45968673,-9.576807,0.9768804,47.71465,-1.0844145,-2.4157362,-3.1970406,-0.36733693,0.17442545,-0.3642369,28.9375,30.3125,29.375,32.9375,35.4375,36.5
0.2420537,-0.07928968,-1.1960168,-0.8022156,-0.05236619,0.043673147,-0.17800154,-0.40256196,-0.36440757,0.05997781,3.0779085,-0.62054557,5.1659597e-05,-0.11406698,0.03572191,0.0013387484,-0.019591592,0.008380127,0.019899458,0.4847754,-1.367429,1.8869327,-2.0899127,-1.5693487,2.4571402,-0.16974019,0.12095117,-0.15047793,0.013194393,0.013335962,-0.18956983,0.019153614,0.4405331,-9.576807,0.83589023,47.711063,-0.95098066,-2.3674128,-3.3113933,-0.36421943,0.16409636,-0.35164824,28.9375,30.3125,29.375,32.9375,35.4375,36.5
0.24405326,0.36108112,-0.716899,-0.5250672,-0.04638085,0.044683725,-0.17915808,-0.40279156,-0.36437255,0.06000373,3.0778356,-0.6203701,-2.9016583e-06,-0.1156674,0.035988454,0.0011360449,-0.020122679,0.0084928125,0.02854196,0.4844753,-1.3671999,1.8865975,-2.0899003,-1.5692886,2.45674,-0.17179172,0.12324388,-0.15268824,0.012794211,0.013782919,-0.20026164,-0.05746084,0.3256114,-9.557653,0.80679786,47.705692,-0.97063065,-2.3332,-3.152958,-0.3476968,0.19132319,-0.25017416,28.9375,30.3125,29.375,32.9375,35.4375,36.5
0.24605338,0.09119814,-0.8283989,-0.32724974,-0.029026533,0.04429122,-0.16631506,-0.40304166,-0.36431834,0.060021706,3.077762,-0.6202525,-9.728605e-05,-0.11677282,0.03601358,0.0006445268,-0.019932682,0.008486075,0.038151585,0.48413992,-1.3669587,1.8862742,-2.0899246,-1.5692528,2.4563406,-0.17263336,0.12580177,-0.15451588,0.01218622,0.0136528015,-0.2107104,-0.24899697,0.22984336,-9.404425,0.83365434,47.651955,-1.0294743,-2.4917822,-3.1715915,-0.33690724,0.19257668,-0.14316113,28.9375,30.3125,29.375,32.9375,35.4375,36.5
0.24805363,-0.0870003,-0.23003915,-0.42477632,-0.005494032,0.056189004,-0.16942057,-0.40328565,-0.36424926,0.06003239,3.0777287,-0.62009025,-0.00015970037,-0.117723316,0.03583892,0.0009927423,-0.021490289,0.009019792,0.03981132,0.48379198,-1.3667184,1.8859628,-2.0899246,-1.569228,2.4558957,-0.1737906,0.12639813,-0.15596932,0.011856455,0.014804037,-0.21352598,-0.24899697,0.19153613,-9.385271,0.900793,47.66271,-0.97120154,-2.3520474,-3.1190429,-0.30668432,0.19695568,-0.063244805,28.9375,30.3125,29.375,32.9375,35.4375,36.5
0.25005367,0.06970722,0.12846325,-0.15355991,0.010966419,0.08013853,-0.16065548,-0.40351754,-0.364194,0.060046103,3.077673,-0.6200234,-0.0001422592,-0.118304156,0.03617422,0.0009940139,-0.021384748,0.008857971,0.03375693,0.48345676,-1.3664658,1.8856162,-2.0898645,-1.5691684,2.4555259,-0.17476067,0.1270494,-0.15688431,0.012322443,0.014791059,-0.20844084,-0.2681506,0.1340753,-9.308657,0.8247004,47.70838,-1.1519212,-2.597393,-3.1523867,-0.31172693,0.17968228,-0.06961317,28.9375,30.3125,29.375,32.9375,35.4375,36.5
0.25205353,-0.49847117,0.29262483,-0.009097398,0.014375879,0.088639826,-0.16998489,-0.40374312,-0.36410213,0.06003768,3.07769,-0.61995286,-0.00016654505,-0.11820847,0.03525199,-0.0003945563,-0.02082334,0.0064892448,0.026308756,0.4831099,-1.3662242,1.885341,-2.0898407,-1.5691804,2.455133,-0.1734028,0.13128988,-0.158845,0.012387998,0.015386008,-0.19963335,-0.49799395,0.095768064,-9.289502,0.8873621,47.66808,-1.1665193,-2.4903755,-3.0600483,-0.28980175,0.17782828,-0.1732166,28.9375,30.3125,29.375,32.9375,35.4375,36.5
0.25405356,-1.1358969,-0.004733219,-0.24760161,0.028628405,0.08197109,-0.16005406,-0.40399468,-0.36405694,0.060044482,3.077618,-0.61984444,-0.00019443214,-0.11819337,0.03567408,0.000692398,-0.021367531,0.007905724,0.019017244,0.48277423,-1.3659371,1.8849825,-2.0898407,-1.5691203,2.4547389,-0.1738878,0.1285502,-0.15820561,0.012988023,0.015222618,-0.19282657,-0.51714754,0.019153614,-9.251195,0.87617236,47.690468,-1.2319968,-2.3907466,-3.1813803,-0.29101732,0.183462,-0.26823583,28.9375,30.3125,29.375,32.9375,35.4375,36.5
0.2560533,-0.6276488,0.014416813,0.00790712,0.02270675,0.09517412,-0.1628976,-0.40424493,-0.36398676,0.06004241,3.0776029,-0.61976504,-0.00022317638,-0.11744032,0.035354417,-0.0008612463,-0.02009882,0.0049209343,0.014106223,0.48242763,-1.3656476,1.8846353,-2.0898159,-1.5691084,2.4543447,-0.17274559,0.13157874,-0.15843314,0.013416655,0.01548703,-0.18677238,-0.61291564,-0.114921674,-9.289502,0.87617236,47.704796,-1.3422381,-2.4912,-3.2633216,-0.2906217,0.18450414,-0.40516812,28.9375,30.3125,29.375,32.9375,35.4375,36.5
0.25805336,-1.1987704,0.13394699,0.029722707,0.014429626,0.08095768,-0.16489135,-0.4044678,-0.3639086,0.06006783,3.0775223,-0.6197304,-0.00021013975,-0.11895404,0.036442164,-0.00033294802,-0.019852316,0.0058758324,0.010029037,0.48205516,-1.3654673,1.8843488,-2.0897567,-1.5690364,2.453961,-0.17540918,0.13160162,-0.15983002,0.014078173,0.0148360785,-0.18535772,-0.7086837,-0.17238252,-9.212888,0.85826975,47.704796,-1.2407279,-2.4895964,-3.3080547,-0.30487874,0.20091593,-0.46583018,28.9375,30.3125,29.375,32.9375,35.4375,36.5
0.2600535,0.26688957,0.9614614,0.15563019,0.011988403,0.10341861,-0.1872268,-0.40471667,-0.3638411,0.060056597,3.0774844,-0.6197155,-0.00022780261,-0.11993832,0.037210073,-0.0005765224,-0.019981412,0.005707515,0.017211169,0.48170736,-1.3651669,1.884015,-2.0897567,-1.5690125,2.4536088,-0.17759404,0.13249345,-0.16031358,0.013784297,0.015052685,-0.19472398,-0.47884035,-0.22984336,-9.174581,0.90750587,47.73883,-1.1778036,-2.4272842,-3.3161674,-0.27942654,0.2052696,-0.46147576,28.9375,30.3125,29.375,32.9375,35.4375,36.5
0.26205415,0.24213214,1.0714291,0.2362561,0.036178533,0.08266708,-0.18954332,-0.40495062,-0.36376598,0.06005451,3.0774722,-0.6195693,-0.00024758594,-0.12079115,0.037202813,-7.49607e-05,-0.019635748,0.006706256,0.030984351,0.4813602,-1.3649143,1.8837146,-2.0897439,-1.5689887,2.453172,-0.1777803,0.13311201,-0.16240005,0.01456407,0.0143154245,-0.20868233,-0.40222588,-0.3256114,-9.193734,0.87393653,47.698532,-1.3702925,-2.4005368,-3.3742883,-0.2624217,0.20764264,-0.35548857,28.9375,30.3125,29.375,32.9375,35.4375,36.5
0.26405334,-0.77213454,1.0402535,0.26099533,0.054919273,0.050752405,-0.16758929,-0.4051945,-0.3637003,0.06004211,3.077458,-0.6194256,-0.00023906385,-0.12096545,0.036867253,-0.00056553044,-0.0199303,0.0057675913,0.041460294,0.48101264,-1.3646133,1.8833798,-2.089732,-1.5689524,2.4527366,-0.17770854,0.1348671,-0.16342156,0.014554928,0.015035348,-0.21908556,-0.40222588,-0.22984336,-9.059659,0.8918391,47.71286,-1.4322324,-2.4052618,-3.363759,-0.25418636,0.20964527,-0.2177222,28.9375,30.3125,29.375,32.9375,35.4375,36.5
0.26605383,0.26681256,1.1794168,0.3494902,0.06302871,0.065158516,-0.1818643,-0.40542895,-0.36360407,0.060033992,3.0774934,-0.6193347,-0.00023646424,-0.12243893,0.03690213,0.0014232087,-0.021617176,0.009088914,0.04446276,0.48065197,-1.36435,1.8830694,-2.0896723,-1.5689644,2.4523149,-0.17894131,0.13277307,-0.16558258,0.015095588,0.015001271,-0.22332065,-0.34476504,-0.1340753,-9.11712,0.9254084,47.703007,-1.5148427,-2.188214,-3.4029431,-0.24626961,0.23128164,-0.16034271,28.9375,30.3125,29.375,32.9375,35.4375,36.5
0.26805428,0.37494728,1.1203239,-0.0662261,0.0591527,0.055778112,-0.17770502,-0.40566063,-0.36353368,0.060035378,3.0774748,-0.61922044,-0.00025483308,-0.123014905,0.038289055,0.0006275802,-0.021034881,0.007409193,0.037055403,0.48031503,-1.3640975,1.8827585,-2.089648,-1.56894,2.451909,-0.18183744,0.13369258,-0.16495745,0.015311185,0.0152690485,-0.21880905,-0.21068975,-0.24899697,-9.193734,0.9388393,47.681515,-1.4289566,-2.1755269,-3.4241881,-0.24017915,0.22364724,-0.17336762,28.9375,30.3125,29.375,32.9375,35.4375,36.5
0.27005422,0.37665972,0.49201056,-0.159077,0.042346366,0.040439308,-0.17253223,-0.40594265,-0.36342794,0.060025524,3.0774648,-0.61918485,-0.0002578773,-0.124986924,0.038821302,0.0017711469,-0.021511689,0.009078041,0.026739556,0.47988236,-1.363785,1.8823985,-2.0896118,-1.5689281,2.4514556,-0.18412004,0.13395074,-0.16818781,0.016579026,0.014913515,-0.21077465,-0.1340753,-0.15322891,-9.289502,0.842603,47.694054,-1.4069843,-2.206185,-3.217266,-0.22265366,0.23086157,-0.29146594,28.9375,30.3125,29.375,32.9375,35.4375,36.5
0.27205324,0.028023994,-0.17579304,-0.03023324,0.00025311366,0.030078467,-0.17113417,-0.4061983,-0.36337006,0.060051955,3.0774176,-0.61906254,-0.00033512947,-0.1261778,0.03884375,0.0018580757,-0.021277992,0.008808193,0.021594563,0.47954607,-1.3635322,1.8820275,-2.0895755,-1.5689043,2.451049,-0.18504772,0.13607909,-0.17125668,0.01786948,0.014842872,-0.20655484,-0.28730422,0.038307227,-9.308656,0.94331104,47.69763,-1.2549232,-2.208542,-3.3306851,-0.23952875,0.25155094,-0.34414637,28.9375,30.3125,29.375,32.9375,35.4375,36.5
0.2740535,-0.0979879,-1.0593927,-0.616519,-0.009103002,0.03117866,-0.17244272,-0.40643877,-0.36327916,0.060033612,3.0774286,-0.61898804,-0.00025472458,-0.12871763,0.039643586,0.0026552496,-0.021710066,0.010243739,0.018673928,0.4791609,-1.3632313,1.8816923,-2.089503,-1.568869,2.4506161,-0.18833116,0.1374209,-0.17490342,0.01871617,0.01455794,-0.20691688,-0.2681506,0.17238252,-9.385271,0.8537928,47.71823,-1.1912813,-2.1817627,-3.1366398,-0.25381267,0.26350874,-0.3907126,28.9375,30.3125,29.375,32.9375,35.4375,36.5
0.27605414,0.05908266,-1.1143476,-0.7951544,-0.0270443,0.054058786,-0.18680277,-0.40664038,-0.36316162,0.05999763,3.077475,-0.6189176,-0.00010180099,-0.12865572,0.040853962,0.0016761258,-0.020865723,0.0076463833,0.022479,0.47876444,-1.3629789,1.8814524,-2.0894191,-1.5688323,2.4501698,-0.19048534,0.1383029,-0.17398003,0.019628204,0.015006445,-0.21287782,-0.15322891,0.2681506,-9.557653,0.86945957,47.683304,-1.2246294,-2.1819456,-3.351793,-0.2354536,0.27405098,-0.39789283,28.9375,30.3125,29.375,32.9375,35.4375,36.5
0.27805382,-0.8533346,-1.4431486,-0.86376345,-0.03616695,0.053782877,-0.17615663,-0.40694922,-0.36310503,0.06005111,3.0773883,-0.61877716,-0.000291703,-0.12960932,0.04158696,0.0015768285,-0.021085858,0.0069042845,0.032958608,0.4783917,-1.362714,1.8810109,-2.0894067,-1.5688204,2.4497206,-0.19277896,0.13926214,-0.17510487,0.02038189,0.01560659,-0.22564808,-0.095768064,0.3256114,-9.80665,0.8627467,47.703903,-1.1838992,-2.229823,-3.31775,-0.24984118,0.27002275,-0.26532868,28.9375,30.3125,29.375,32.9375,35.4375,36.5
0.28005373,-0.85697526,-1.4534237,-1.3126578,-0.045486007,0.06806062,-0.1786136,-0.4071909,-0.36299768,0.060028076,3.0773933,-0.6187171,-0.0001837366,-0.13137339,0.042780578,0.00074080884,-0.02153358,0.0053599807,0.038654357,0.4779704,-1.3624246,1.8807,-2.0893352,-1.5687717,2.4492612,-0.1968928,0.14203505,-0.1765369,0.020239132,0.016723303,-0.2354573,-0.30645782,0.40222588,-9.787497,0.9701675,47.71465,-1.0949064,-2.3834515,-3.3002777,-0.26129293,0.27291107,-0.15775947,28.9375,30.3125,29.375,32.9375,35.4375,36.5
0.2820542,-0.9988767,-1.0221499,-1.2228434,-0.06228088,0.079845265,-0.19080734,-0.40746254,-0.36290026,0.06001995,3.077388,-0.61862063,-0.0002001821,-0.13205281,0.043154307,0.00029756635,-0.022052761,0.0043572825,0.037793625,0.47756198,-1.3621243,1.8803529,-2.089311,-1.5687593,2.4487934,-0.198558,0.14347485,-0.17729002,0.020212388,0.017656209,-0.23626074,-0.4213795,0.4405331,-9.749189,0.9030289,47.716442,-1.0459037,-2.1840165,-3.3868256,-0.2526484,0.27711117,-0.08167575,28.9375,30.3125,29.375,32.9375,35.4375,36.5
0.28405347,-0.874487,-1.4604856,-1.1184858,-0.066519305,0.09583552,-0.18080124,-0.40771592,-0.36284235,0.060060326,3.0773406,-0.6184035,-0.0002543798,-0.13213763,0.04272034,-0.00014538973,-0.021920534,0.004368613,0.03129216,0.47721413,-1.3618956,1.8799709,-2.0892398,-1.5687112,2.448316,-0.19771394,0.14494362,-0.17788889,0.019396294,0.017541068,-0.22891341,-0.47884035,0.34476504,-9.844957,0.8627467,47.71286,-1.0253246,-2.2947428,-3.3508916,-0.24844018,0.26578242,-0.1459476,28.9375,30.3125,29.375,32.9375,35.4375,36.5
0.28605363,-1.2890868,-1.5506327,-1.2016454,-0.05929734,0.08401491,-0.17204504,-0.4079831,-0.3627623,0.060048006,3.0773044,-0.61836326,-0.0002197925,-0.1333096,0.04303226,-0.0011166525,-0.02194765,0.0031207514,0.020400636,0.47681758,-1.3615701,1.8796004,-2.089204,-1.5686635,2.447899,-0.19948894,0.14823608,-0.17955792,0.018866003,0.018123752,-0.21979544,-0.4213795,0.2681506,-9.844957,0.83589023,47.704796,-0.98835874,-2.403805,-3.360157,-0.24350552,0.2645898,-0.28806022,28.9375,30.3125,29.375,32.9375,35.4375,36.5
0.28805345,-1.1690695,-1.4539324,-1.0412115,-0.049104724,0.07717914,-0.17983904,-0.40824634,-0.36265004,0.060021356,3.077308,-0.6183297,-0.00016678163,-0.13328615,0.0434205,-0.002447572,-0.0210324,0.0009421714,0.011631242,0.47638535,-1.361257,1.8792771,-2.0891688,-1.5686396,2.4474456,-0.20009823,0.15068187,-0.1794784,0.018691815,0.01829434,-0.21163544,-0.51714754,0.2681506,-9.921572,0.85155696,47.67614,-1.0843481,-2.4604702,-3.4562843,-0.22080305,0.29283231,-0.3907383,28.9375,30.3125,29.375,32.9375,35.4375,36.5
0.2900537,-0.42186806,-1.0885928,-1.039886,-0.037701998,0.08830585,-0.18120703,-0.40852565,-0.36259842,0.060049027,3.077224,-0.6181776,-0.00026441077,-0.13431443,0.042280745,-0.0016421943,-0.022287397,0.0033164283,0.010572443,0.47602588,-1.3609806,1.8788828,-2.0891688,-1.568591,2.447002,-0.19897601,0.15163362,-0.18230008,0.0178885,0.018338183,-0.20945117,-0.5363012,0.19153613,-9.80665,0.90750587,47.684196,-1.1325481,-2.3737502,-3.5474467,-0.19613463,0.26214308,-0.48822302,28.9375,30.3125,29.375,32.9375,35.4375,36.5
0.29205382,-0.77792144,-0.8413561,-0.811981,-0.012179043,0.08280376,-0.1708847,-0.4088242,-0.3625071,0.060061496,3.0771534,-0.6181769,-0.000370448,-0.1342641,0.041803367,-0.001395475,-0.023317913,0.0042091743,0.01898862,0.47560593,-1.3606924,1.8785113,-2.0891807,-1.5685791,2.4465907,-0.19832462,0.15126191,-0.18224022,0.016959984,0.018884711,-0.21721411,-0.45968673,0.17238252,-9.710882,0.947788,47.703903,-1.2334859,-2.5050967,-3.484335,-0.18676874,0.26911587,-0.49576205,28.9375,30.3125,29.375,32.9375,35.4375,36.5
0.29405516,-0.6989213,-0.120848365,-0.7330254,0.0068263747,0.07905768,-0.1810556,-0.40908334,-0.36243397,0.060055133,3.0771239,-0.61804837,-0.00032651584,-0.13548183,0.042039193,-0.0019386716,-0.023474878,0.0034023514,0.031847347,0.47522146,-1.3603799,1.8781399,-2.089133,-1.568519,2.4461298,-0.19998279,0.15399693,-0.18435112,0.017032212,0.019426554,-0.23172949,-0.22984336,0.11492168,-9.595961,0.9634547,47.703007,-1.4654796,-2.4897451,-3.4681964,-0.14639157,0.29962593,-0.3598314,28.9375,30.3125,29.375,32.9375,35.4375,36.5
0.2960536,-0.53881973,0.3299347,-0.494057,0.013094689,0.06979349,-0.1850903,-0.40938723,-0.36234677,0.06005514,3.0770764,-0.6179538,-0.00036360876,-0.1357706,0.042178463,-0.002114748,-0.023191055,0.003469897,0.04444574,0.4747894,-1.3600442,1.8777341,-2.089121,-1.5684828,2.4456449,-0.20017372,0.15471,-0.1848282,0.016912675,0.019188149,-0.24451777,-0.15322891,0.019153614,-9.423578,0.8918391,47.658226,-1.4019094,-2.3568528,-3.5360646,-0.14596573,0.27128285,-0.23772852,28.9375,30.3125,29.375,32.9375,35.4375,36.5
0.29805368,-0.48634577,-0.27311894,-0.3140762,0.023051728,0.05074206,-0.16659322,-0.40967354,-0.362271,0.060076468,3.0770314,-0.617734,-0.00044619717,-0.13726899,0.043271128,-0.002605484,-0.022662714,0.0027923496,0.044104837,0.47439244,-1.3597674,1.8773507,-2.0891092,-1.568447,2.4451165,-0.20308535,0.15681973,-0.18635178,0.017193457,0.019059151,-0.2470861,-0.095768064,-0.038307227,-9.289503,0.88289046,47.687782,-1.3097798,-2.5152175,-3.4257717,-0.13732055,0.2833522,-0.17077932,28.9375,30.3125,29.375,32.9375,35.4375,36.5
0.300054,0.29555902,-0.11116341,-0.09942167,0.020656437,0.038554173,-0.1649973,-0.4099552,-0.36217454,0.06007788,3.0770013,-0.61767465,-0.00046775944,-0.13923693,0.042906832,-0.00071331725,-0.024125865,0.0067673665,0.036349837,0.47397235,-1.3594682,1.8769797,-2.089073,-1.5684232,2.4446633,-0.2037189,0.15610358,-0.1898178,0.017170353,0.018537274,-0.23996334,-0.24899697,0.0,-9.078813,0.8873621,47.704796,-1.3191986,-2.3538444,-3.3900003,-0.11130112,0.30595616,-0.22722739,28.9375,30.3125,29.375,32.9375,35.4375,36.5
0.30205417,0.38015813,0.15307043,-0.10291056,0.027929274,0.015022685,-0.16713041,-0.41025212,-0.3620843,0.060079515,3.0769932,-0.6175228,-0.0005417719,-0.14142679,0.042437118,0.0010555363,-0.0260619,0.010012424,0.02785999,0.47356406,-1.3591442,1.8765839,-2.0890605,-1.5684227,2.4441614,-0.20482503,0.1561745,-0.19404164,0.01754214,0.018776195,-0.23257692,-0.076614454,-0.05746084,-9.078813,0.9298854,47.684196,-1.233745,-2.2938657,-3.30965,-0.08114046,0.29563764,-0.31497854,28.9375,30.3125,29.375,32.9375,35.4375,36.5
0.30405352,0.99410874,0.20461924,-0.16644794,0.03845367,0.0063649737,-0.18687926,-0.4105285,-0.36197722,0.060067967,3.0769892,-0.61744773,-0.0005195069,-0.14303055,0.043188043,0.0015422348,-0.026332995,0.010130591,0.021628575,0.4731313,-1.3588325,1.8762244,-2.0890124,-1.5683988,2.4436824,-0.2074406,0.15710019,-0.19662887,0.018979536,0.018961934,-0.22896005,0.05746084,-0.11492168,-9.136273,0.87617236,47.687782,-1.2404537,-2.2785878,-3.1786156,-0.06316959,0.32087624,-0.39045918,28.9375,30.3125,29.375,32.9375,35.4375,36.5
0.30605385,0.6257533,0.15563191,-0.103001624,0.03955846,0.00017164774,-0.17812604,-0.41083083,-0.3619049,0.06008422,3.0768635,-0.6174024,-0.0005692845,-0.14411542,0.044939782,0.00025687175,-0.024971766,0.0067724218,0.021185823,0.472698,-1.358532,1.8758291,-2.0890238,-1.5683149,2.4432368,-0.21137463,0.16005082,-0.19770673,0.020751178,0.019322414,-0.23244846,-0.095768064,0.0,-9.097966,0.8717007,47.69763,-1.1387551,-2.2202733,-3.1974301,-0.05285091,0.31246275,-0.40360832,28.9375,30.3125,29.375,32.9375,35.4375,36.5
0.30805412,0.25514764,-0.33082712,-0.27825922,0.048282694,0.008776573,-0.17924398,-0.41110665,-0.36182055,0.06009921,3.0768387,-0.6172174,-0.0005686159,-0.14496836,0.045289703,0.0020073664,-0.026372796,0.008723395,0.031970527,0.47228956,-1.358245,1.8754338,-2.0889518,-1.5682667,2.4427161,-0.21279797,0.15753597,-0.19903283,0.022265373,0.019728346,-0.24465565,-0.019153614,0.038307227,-9.059659,0.85826975,47.711964,-1.0582001,-2.2177641,-3.2118807,-0.065810874,0.3103995,-0.29692617,28.9375,30.3125,29.375,32.9375,35.4375,36.5
0.3100533,0.3696109,0.18152376,-0.42887488,0.017478162,0.043205693,-0.17764094,-0.41138336,-0.36174184,0.060089536,3.0768554,-0.61708176,-0.0005285943,-0.14573407,0.04651822,0.0019124678,-0.025886266,0.007045974,0.04060933,0.4719046,-1.3578849,1.8750032,-2.088867,-1.5682424,2.4422445,-0.21559426,0.15818149,-0.20015365,0.024496928,0.02009195,-0.25609052,0.0,0.13407528,-9.2703495,0.9298854,47.678825,-1.0052723,-2.185113,-3.2363029,-0.073043354,0.3207702,-0.17116135,28.9375,30.3125,29.375,32.9375,35.4375,36.5
0.31205362,-0.86789453,-0.8015631,-0.36844894,0.0058856932,0.049907617,-0.16845182,-0.41167137,-0.36164278,0.060100265,3.0768006,-0.61695635,-0.0005042813,-0.14685482,0.047300275,0.002339577,-0.02538543,0.006715606,0.040220607,0.47144735,-1.357597,1.8746189,-2.088806,-1.5681709,2.441716,-0.21754514,0.15887599,-0.20249882,0.026702017,0.019816902,-0.2576516,-0.19153613,0.15322891,-9.270349,0.9254084,47.696735,-0.8753489,-2.060639,-3.158019,-0.08683322,0.31724954,-0.105767965,28.9375,30.3125,29.375,32.9375,35.4375,36.5
0.31405407,-0.67788935,-0.9082661,-0.48755318,-0.016973171,0.07946842,-0.1730087,-0.41195938,-0.3615228,0.060083367,3.0768158,-0.6169072,-0.00046263734,-0.1469806,0.047905896,0.0019224541,-0.024971116,0.004900514,0.030510364,0.47099108,-1.357261,1.8742365,-2.0887344,-1.568158,2.4412272,-0.21878354,0.15979423,-0.20302737,0.02810661,0.020254364,-0.24917965,-0.36391866,0.1340753,-9.481039,0.88960326,47.687782,-0.8777359,-2.0285506,-3.292127,-0.09232488,0.3119399,-0.15626642,28.9375,30.3125,29.375,32.9375,35.4375,36.5
0.31605336,-0.067853905,-0.61925346,-0.42953688,-0.048220433,0.119412735,-0.18138961,-0.41223633,-0.3614451,0.06009818,3.076809,-0.61677366,-0.00046842414,-0.14521426,0.04664116,0.00087458926,-0.02464839,0.002434211,0.022603838,0.47060877,-1.356949,1.8738054,-2.0886376,-1.5681342,2.4407625,-0.21550694,0.1612847,-0.2025784,0.028493164,0.021071022,-0.23799528,-0.63206923,0.15322891,-9.461885,0.8493211,47.693153,-1.1777008,-2.0301862,-3.3979363,-0.108773425,0.3251739,-0.28670806,28.9375,30.3125,29.375,32.9375,35.4375,36.5
0.31805354,-1.1639199,-0.75632256,-0.70246935,-0.033133682,0.10589946,-0.17063467,-0.41252604,-0.36135754,0.060096473,3.0767548,-0.61669016,-0.00045433184,-0.146059,0.045649126,0.0004390147,-0.0254803,0.0016965286,0.014944559,0.47017685,-1.3566235,1.8734096,-2.0886023,-1.5680736,2.4402854,-0.21506678,0.16476019,-0.20583494,0.028552927,0.022133784,-0.22989243,-0.36391866,0.05746084,-9.423578,0.9254084,47.683304,-1.3351055,-2.2173376,-3.3959875,-0.1047304,0.31440702,-0.44623,28.9375,30.3125,29.375,32.9375,35.4375,36.5
0.32005382,-0.9719271,-0.41553098,-0.5972873,-0.017831033,0.1057014,-0.17546217,-0.4128205,-0.36125603,0.060090832,3.0767322,-0.6166265,-0.00043353296,-0.146315,0.04578753,-0.0012163463,-0.024236696,-0.0004889683,0.014565068,0.46973297,-1.3562868,1.8730034,-2.0885427,-1.5680379,2.4398048,-0.21529514,0.16859315,-0.20663838,0.02805324,0.02201883,-0.22974044,-0.34476504,0.17238252,-9.5385,0.9030289,47.716442,-1.4080646,-2.1670144,-3.364155,-0.10917574,0.31148243,-0.5080384,28.9375,30.3125,29.375,32.9375,35.4375,36.5
0.32205412,-0.73969406,-0.32930106,-0.6459633,0.0016581472,0.081532076,-0.17133072,-0.41311118,-0.36115393,0.06007179,3.0766947,-0.6165726,-0.00037676707,-0.14741713,0.046451516,-0.0011164861,-0.024621308,0.00058394804,0.024988689,0.46927682,-1.355939,1.8726195,-2.0885065,-1.5679778,2.4393198,-0.2171258,0.16886865,-0.20703328,0.027100157,0.021908788,-0.24199487,-0.2681506,0.1340753,-9.500193,0.9455522,47.709274,-1.4423847,-2.2207024,-3.388537,-0.08639674,0.2942018,-0.47128874,28.9375,30.3125,29.375,32.9375,35.4375,36.5
0.32405338,-0.25826156,-0.5184005,-0.96433955,0.020469856,0.05949568,-0.16895346,-0.4134084,-0.36105734,0.060074426,3.0766954,-0.6163914,-0.0004770628,-0.14802784,0.04649039,-0.0018583207,-0.024277275,0.00019442047,0.04056464,0.46886846,-1.3556266,1.8722371,-2.088507,-1.5679897,2.4387984,-0.21751691,0.17118661,-0.20801657,0.026319053,0.021836614,-0.25796,-0.17238252,0.1340753,-9.557653,0.92764956,47.716442,-1.3977344,-2.2836084,-3.5138164,-0.077467784,0.30840522,-0.31073815,28.9375,30.3125,29.375,32.9375,35.4375,36.5
0.3260538,0.06343961,-0.51590234,-0.8240761,0.012861593,0.047528967,-0.16723417,-0.41373834,-0.36095852,0.060098488,3.0766547,-0.61626446,-0.0005171077,-0.14924324,0.047261253,-0.0022692105,-0.02381066,-0.00021736207,0.04607927,0.46839976,-1.3552902,1.8717583,-2.0884235,-1.567954,2.4382558,-0.21955249,0.17311881,-0.20950635,0.026496135,0.021643473,-0.26550856,-0.24899697,0.11492168,-9.576807,0.93436235,47.72002,-1.4685562,-2.3405643,-3.5255017,-0.054932907,0.32838017,-0.21290332,28.9375,30.3125,29.375,32.9375,35.4375,36.5
0.3280542,0.05672746,-0.33976555,-0.6679098,-0.010818662,0.03800002,-0.16670172,-0.41403344,-0.36087367,0.060087476,3.0765963,-0.6161818,-0.00045187434,-0.15034443,0.04782749,-0.002455326,-0.02383386,-0.0004290407,0.03838704,0.46795514,-1.35493,1.8713382,-2.0883753,-1.56787,2.437767,-0.22134124,0.17457038,-0.21092805,0.026659267,0.021749057,-0.25960416,-0.36391866,0.21068975,-9.481039,0.92093146,47.689575,-1.3564163,-2.3804626,-3.4582157,-0.052381285,0.31038356,-0.23753397,28.9375,30.3125,29.375,32.9375,35.4375,36.5
0.33005342,-0.32741576,-0.9791105,-0.90280634,-0.018558178,0.027334696,-0.16998988,-0.4143482,-0.36078957,0.06011736,3.0765707,-0.6160087,-0.00057059067,-0.15209956,0.04835332,-0.0015434672,-0.02530128,0.00046920567,0.028977882,0.46754646,-1.3546183,1.8708838,-2.0883272,-1.56787,2.4372537,-0.22410414,0.1747531,-0.21345766,0.027529366,0.022661274,-0.25295395,-0.40222588,0.22984336,-9.481039,0.9567419,47.70032,-1.3940372,-2.3211186,-3.4434953,-0.046009555,0.31524557,-0.3243156,28.9375,30.3125,29.375,32.9375,35.4375,36.5
0.33205372,-0.24370036,-0.9661908,-0.677623,-0.036218308,0.042057898,-0.17456385,-0.4146477,-0.36069092,0.060097914,3.076484,-0.6160317,-0.00042643576,-0.15368368,0.049853895,-0.0013731646,-0.02536274,-0.00059389294,0.022135822,0.46705332,-1.3542461,1.8704628,-2.0882547,-1.5677494,2.436786,-0.22810952,0.17559573,-0.2153798,0.029561704,0.023187425,-0.25011665,-0.40222588,0.15322891,-9.442732,1.0015011,47.703007,-1.3237793,-2.4741058,-3.3572235,-0.05916565,0.30341265,-0.3959399,28.9375,30.3125,29.375,32.9375,35.4375,36.5
0.33405468,-0.4493757,-1.010959,-0.50198364,-0.034668546,0.05083375,-0.17358509,-0.41494513,-0.36057195,0.06010226,3.0765088,-0.61584276,-0.0004827893,-0.15458757,0.04993892,-0.0011407523,-0.026177175,-0.0012903587,0.02587484,0.46660873,-1.3539461,1.8700799,-2.0882065,-1.5677608,2.4362204,-0.22950722,0.17681283,-0.21774404,0.030983442,0.024253812,-0.25525042,-0.24899697,0.17238252,-9.3661175,0.90527004,47.70211,-1.1832044,-2.3880029,-3.3469086,-0.06948462,0.29670194,-0.38259295,28.9375,30.3125,29.375,32.9375,35.4375,36.5
0.33605412,-0.42471477,-0.83283097,-0.5183888,-0.020939374,0.06954636,-0.17456254,-0.41525704,-0.36047313,0.06009035,3.0764594,-0.6157886,-0.00038802967,-0.15586351,0.050984107,-0.0014498349,-0.027828932,-0.0024318157,0.03612582,0.46612746,-1.3535624,1.869625,-2.088123,-1.5676764,2.4357116,-0.23339292,0.17778888,-0.21825121,0.0308613,0.026281372,-0.26938483,-0.22984336,0.17238252,-9.270349,0.95226496,47.690468,-0.95758903,-2.268579,-3.398268,-0.06739399,0.2903819,-0.27994213,28.9375,30.3125,29.375,32.9375,35.4375,36.5
0.33805338,-0.6719875,-0.37807488,-0.49264133,0.011363091,0.059017617,-0.16547494,-0.41554263,-0.36038423,0.06006404,3.0764601,-0.6155922,-0.0003413475,-0.15713334,0.05012129,-0.0005273518,-0.029966714,-0.0007390149,0.04625148,0.4657072,-1.3531903,1.8692302,-2.0880988,-1.5676278,2.4351687,-0.23357765,0.17857106,-0.22130947,0.030717066,0.027456243,-0.27969286,-0.17238252,0.076614454,-9.3661175,0.83813137,47.698532,-0.94676256,-2.1747277,-3.5275044,-0.058837093,0.2507007,-0.12966439,28.9375,30.3125,29.375,32.9375,35.4375,36.5
0.34005383,-0.21685204,0.5905467,-0.29527,0.010740114,0.06353831,-0.1758361,-0.41589296,-0.36029226,0.060107965,3.076399,-0.61540663,-0.00041419207,-0.15647686,0.04935725,-0.00046226778,-0.029996604,-0.0017444097,0.047130983,0.465228,-1.3528545,1.8687032,-2.088002,-1.5675801,2.4345815,-0.23185849,0.17908973,-0.22249033,0.032286413,0.027965132,-0.27884975,-0.28730422,0.095768064,-9.289503,0.8717007,47.698532,-1.0220654,-2.149078,-3.4629412,-0.07532756,0.23094979,-0.1123264,28.9375,30.3125,29.375,32.9375,35.4375,36.5
0.34205398,-0.78003746,0.07849027,-0.21176827,0.0119502805,0.058018185,-0.16395621,-0.41618752,-0.36019316,0.060090926,3.0763903,-0.61525667,-0.0003693608,-0.15751694,0.049875047,-0.0013712292,-0.02838747,-0.0031487162,0.036212843,0.46478403,-1.3524934,1.8682951,-2.0879543,-1.567532,2.434045,-0.23293056,0.18258421,-0.22492133,0.033196673,0.027130244,-0.26900357,-0.6895301,0.17238252,-9.193734,0.9768804,47.684196,-1.1251872,-2.3259597,-3.4012866,-0.08360082,0.23640734,-0.17488283,28.9375,30.3125,29.375,32.9375,35.4375,36.5
0.34405416,-0.34416637,0.67504734,-0.2788667,0.013629996,0.061133474,-0.16795272,-0.4165086,-0.3600837,0.06007721,3.0763702,-0.6152225,-0.00036290236,-0.15823801,0.04982483,-0.0010561828,-0.028346794,-0.0034256182,0.02371408,0.46431553,-1.3521097,1.8678516,-2.0879061,-1.5675081,2.433558,-0.23331119,0.18375291,-0.22748367,0.034835618,0.027189488,-0.25688413,-0.47884035,-0.019153614,-9.308657,0.92093146,47.689575,-1.2229444,-2.1226587,-3.2985606,-0.0951842,0.20921794,-0.33444232,28.9375,30.3125,29.375,32.9375,35.4375,36.5
0.34605375,0.17893733,0.8306666,-0.41759002,0.013760723,0.053662263,-0.17263031,-0.41683155,-0.36000597,0.060099907,3.0762618,-0.61514604,-0.00033239843,-0.15811367,0.049823638,-0.00030759888,-0.029004762,-0.004198736,0.0166581,0.4638476,-1.3517619,1.867361,-2.0878212,-1.5673999,2.433056,-0.23358558,0.18285297,-0.22872415,0.03738741,0.028126793,-0.25009966,-0.2681506,-0.038307227,-9.3661175,0.8717007,47.67793,-1.3102381,-2.1876304,-3.2366152,-0.13107716,0.19591406,-0.4498117,28.9375,30.3125,29.375,32.9375,35.4375,36.5
0.34805417,0.28960866,0.0014882585,-0.25020394,0.0035658814,0.05891991,-0.1784964,-0.41714194,-0.3599044,0.060087517,3.0762312,-0.615096,-0.0002605054,-0.15831907,0.050079864,-0.0011830874,-0.02785883,-0.0061738323,0.024508448,0.46337995,-1.3513777,1.8669056,-2.0877368,-1.5673398,2.4325612,-0.23393878,0.18538265,-0.2301432,0.038612578,0.028008776,-0.2583032,-0.34476504,0.019153614,-9.308657,0.8985519,47.672558,-1.4271929,-2.2229085,-3.310542,-0.14892438,0.18026525,-0.4582216,28.9375,30.3125,29.375,32.9375,35.4375,36.5
0.35005403,0.12282191,-0.07435089,-0.44199136,0.003975594,0.0634944,-0.1738315,-0.4174591,-0.35978496,0.06008249,3.0762365,-0.61497337,-0.00023959557,-0.16028348,0.05049464,-0.00076066644,-0.02810968,-0.0039159884,0.03988708,0.46289912,-1.3510176,1.8664626,-2.0876534,-1.5673159,2.4320033,-0.23565446,0.18666124,-0.23248194,0.037621856,0.027269764,-0.27539787,-0.1340753,0.038307227,-9.212888,0.8940802,47.691364,-1.4862435,-2.2722955,-3.284295,-0.1699414,0.16819307,-0.3308508,28.9375,30.3125,29.375,32.9375,35.4375,36.5
0.3520534,0.051679276,0.39506218,-0.36930743,-0.004994962,0.07139455,-0.17911705,-0.41779357,-0.35970604,0.060091242,3.0761976,-0.6147308,-0.00023137408,-0.16057852,0.050906014,-0.0004177646,-0.02761844,-0.003941279,0.04854397,0.4624429,-1.3506219,1.8659481,-2.0875814,-1.5672444,2.4314005,-0.23616481,0.18653014,-0.23349649,0.039075244,0.026886275,-0.2845645,-0.11492168,0.05746084,-9.308657,0.8918391,47.67614,-1.3597887,-2.2143855,-3.292798,-0.16269967,0.17205337,-0.18492183,28.9375,30.3125,29.375,32.9375,35.4375,36.5
0.3540538,-0.20548396,-0.2436876,-0.18876353,-0.0028923014,0.064921424,-0.15944482,-0.41810226,-0.35959056,0.060095467,3.0761614,-0.6146514,-0.00021445313,-0.16097437,0.052644346,-0.001401147,-0.025877472,-0.006952522,0.041724984,0.46196207,-1.3502973,1.8655294,-2.0875084,-1.5671967,2.4308748,-0.23909484,0.18806197,-0.23366097,0.041192867,0.026673265,-0.28067523,-0.21068975,0.095768064,-9.232041,0.87617236,47.68599,-1.2925,-2.2480764,-3.4529684,-0.20730457,0.15261945,-0.1883261,28.9375,30.3125,29.375,32.9375,35.4375,36.5
0.35605595,0.41091618,-0.22508009,-0.37147176,0.0026826924,0.061984714,-0.15333354,-0.4184415,-0.35948524,0.06008998,3.0761037,-0.61456686,-0.00017744603,-0.16216414,0.05334902,-0.0019349954,-0.025877165,-0.007845888,0.032037415,0.46145764,-1.3499013,1.8650492,-2.0874488,-1.5671238,2.430325,-0.24130256,0.19023557,-0.23518448,0.04134812,0.027055051,-0.27319348,-0.1340753,0.095768064,-9.232041,0.9097417,47.70211,-1.2668803,-2.1845982,-3.4701793,-0.24167824,0.123964965,-0.28078938,28.9375,30.3125,29.375,32.9375,35.4375,36.5
0.35805434,0.9675654,-0.1148211,-0.4497158,-0.006503797,0.05087552,-0.15753073,-0.4187569,-0.35937217,0.060061786,3.0761173,-0.61446077,-7.336463e-05,-0.16421832,0.054967813,-0.0015246698,-0.026146341,-0.0069922684,0.022120059,0.4609762,-1.3494816,1.8645834,-2.087353,-1.5670766,2.4297757,-0.24543683,0.1905254,-0.23659171,0.04158648,0.026885543,-0.2674116,-0.095768064,0.15322891,-9.2703495,0.9388393,47.657326,-1.1848172,-2.129949,-3.5038657,-0.25440213,0.122656554,-0.37892985,28.9375,30.3125,29.375,32.9375,35.4375,36.5
0.36005366,0.39622235,-0.51046294,-0.4596667,-0.012319603,0.02569379,-0.15834609,-0.41908002,-0.35925066,0.060046665,3.0761406,-0.6143678,-3.377313e-05,-0.16476633,0.05505498,-0.0025345525,-0.025331624,-0.0077880635,0.026737805,0.46049565,-1.349085,1.8641156,-2.0872571,-1.5670642,2.4292343,-0.24562913,0.19339596,-0.23770571,0.04094034,0.026515195,-0.2722222,-0.13407528,0.11492168,-9.404425,0.9186956,47.719128,-1.0587105,-2.2855854,-3.477065,-0.27143565,0.11989604,-0.39615256,28.9375,30.3125,29.375,32.9375,35.4375,36.5
0.36205393,0.5920278,-0.4075959,-0.3878606,-0.031565227,0.04161521,-0.16828234,-0.4194036,-0.35914242,0.06005148,3.076114,-0.6142377,-1.815942e-05,-0.16568828,0.0552559,-0.0026388916,-0.024860676,-0.007222514,0.041112043,0.46001595,-1.348725,1.8636497,-2.0871732,-1.5670165,2.4286768,-0.24616389,0.19492,-0.23936066,0.04085762,0.02588965,-0.2871311,-0.17238252,0.076614454,-9.32781,0.94331104,47.70211,-1.1006533,-2.2333121,-3.4463859,-0.28468412,0.10592269,-0.2821341,28.9375,30.3125,29.375,32.9375,35.4375,36.5
0.3640535,0.59952337,-0.20929128,-0.41545454,-0.034232266,0.062210504,-0.1756749,-0.41972554,-0.3590344,0.06004646,3.076088,-0.61411375,6.3993524e-05,-0.16713431,0.055486895,-0.0039657666,-0.024177833,-0.0086766565,0.048680194,0.45952356,-1.3483397,1.86317,-2.087066,-1.5669445,2.4281104,-0.24759293,0.19971892,-0.24216758,0.040539466,0.025940169,-0.29612717,-0.17238252,0.095768064,-9.3661175,0.8918391,47.696735,-1.1247878,-2.3617868,-3.528384,-0.29857242,0.10669425,-0.14750512,28.9375,30.3125,29.375,32.9375,35.4375,36.5
0.36605385,0.26692182,-0.012180067,-0.43099535,-0.020395918,0.07559497,-0.17136522,-0.42004433,-0.3589213,0.06003958,3.0760384,-0.6140515,0.00015518365,-0.16924277,0.05579643,-0.0030992888,-0.026221044,-0.006873579,0.04216424,0.45901823,-1.3479675,1.8627132,-2.0869706,-1.5668601,2.4275725,-0.25028017,0.20031554,-0.24481118,0.04008411,0.026953263,-0.2922965,-0.24899697,0.19153613,-9.423578,0.8918391,47.66987,-1.0029193,-2.3879535,-3.4340606,-0.3047939,0.07682929,-0.121570274,28.9375,30.3125,29.375,32.9375,35.4375,36.5
0.36805403,0.15376745,0.35746884,-0.3341183,-0.025150795,0.093823,-0.17252798,-0.42041418,-0.35879847,0.060030438,3.0760198,-0.6139377,0.00013339771,-0.16925989,0.054935325,-0.0026209163,-0.026841488,-0.005726702,0.03334203,0.45849097,-1.3475358,1.8621997,-2.0869224,-1.5668358,2.4269767,-0.24865194,0.20041579,-0.2460524,0.03990216,0.026980974,-0.2818448,-0.40222588,0.21068975,-9.404425,0.9030289,47.67166,-1.0700955,-2.451486,-3.4014874,-0.3224772,0.06536406,-0.24935961,28.9375,30.3125,29.375,32.9375,35.4375,36.5
0.3700543,-0.39463955,-0.21550924,-0.3181447,-0.029567024,0.089503996,-0.16418642,-0.42075342,-0.35871726,0.060052443,3.0759573,-0.61375856,0.00015028755,-0.1704861,0.054620665,-0.0023024871,-0.026952598,-0.0045744744,0.021965837,0.45802337,-1.3471516,1.8616599,-2.086815,-1.5667523,2.4264052,-0.24867561,0.20214252,-0.2489544,0.039986957,0.026547894,-0.27049056,-0.59376204,0.24899697,-9.404425,0.90750587,47.701214,-1.1481351,-2.4443915,-3.480682,-0.3468055,0.08024279,-0.38723058,28.9375,30.3125,29.375,32.9375,35.4375,36.5
0.37205473,-0.82578677,-0.62168825,-0.16843963,-0.032195482,0.10166996,-0.18033636,-0.42108154,-0.3585886,0.060024567,3.0759594,-0.61370116,0.000252255,-0.17215165,0.053512704,-0.000631643,-0.02903295,-3.8356266e-05,0.02215281,0.45750767,-1.3467323,1.8611926,-2.0867193,-1.5667046,2.4258535,-0.24790595,0.20185727,-0.25212252,0.038476627,0.026389379,-0.26990852,-0.6703765,0.28730422,-9.423578,0.88960326,47.691364,-1.2810681,-2.3641045,-3.3373644,-0.34677202,0.048199963,-0.50632066,28.9375,30.3125,29.375,32.9375,35.4375,36.5
0.37405393,-1.0142814,-0.50081074,-0.5739133,-0.03307113,0.10722798,-0.16886136,-0.42144468,-0.35849032,0.06004091,3.0759094,-0.61358404,0.0001663512,-0.1738967,0.05199905,0.000103265396,-0.030666588,0.0036777658,0.03788543,0.4570283,-1.346336,1.8606642,-2.0866725,-1.5666803,2.4253075,-0.24653465,0.20397654,-0.2558995,0.036157276,0.026273992,-0.28426656,-0.5554548,0.2681506,-9.461885,0.9254084,47.696735,-1.403617,-2.3217354,-3.2441616,-0.3181229,0.037643243,-0.41065788,28.9375,30.3125,29.375,32.9375,35.4375,36.5
