Tylouw/Master_Thesis_Code/training_data/batch_1/rect_rod_t0.2/sample_38_session_2.csv
timestamp[s],tcp_force_x[N],tcp_force_y[N],tcp_force_z[N],tcp_force_rx[Nm?],tcp_force_ry[Nm?],tcp_force_rz[Nm?],tcp_pose_x[m],tcp_pose_y[m],tcp_pose_z[m],tcp_pose_rx[rot_vec_x],tcp_pose_ry[rot_vec_y],tcp_pose_rz[rot_vec_z],tcp_velo_x[m/s],tcp_velo_y[m/s],tcp_velo_z[m/s],tcp_velo_rx[rot_vec_x/s],tcp_velo_ry[rot_vec_y/s],tcp_velo_rz[rot_vec_z/s],q1[rad],q2[rad],q3[rad],q4[rad],q5[rad],q6[rad],qd1[rad/s],qd2[rad/s],qd3[rad/s],qd4[rad/s],qd5[rad/s],qd6[rad/s],tool_acc_x,tool_acc_y,tool_acc_z,current_of_whole_robot[A],voltage_of_whole_robot[V],current_J1[A],current_J2[A],current_J3[A],current_J4[A],current_J5[A],current_J6[A],temp_J1[C],temp_J2[C],temp_J3[C],temp_J4[C],temp_J5[C],temp_J6[C]
8.099996e-07,-0.6820694,-0.09568541,-0.40636295,-0.030685514,0.017807001,0.0047219717,-0.38934776,-0.3687117,0.06002197,-3.078696,0.6249455,0.00027307053,0.0010825524,0.00058056216,-0.00070683484,0.0014020525,-0.0027463094,0.00011998485,0.5050329,-1.3816679,1.904199,-2.0919154,-1.5708898,2.4800372,-3.190588e-05,-6.0390917e-06,0.0011832506,0.0019041877,0.00010877719,-0.00015273243,0.05746084,0.21068975,-8.734048,0.75755644,47.72629,-0.26960027,-3.050671,-2.3957152,-0.19902337,0.16677472,-0.0037047593,28.875,30.25,29.3125,32.9375,35.375,36.5
0.00205242,-0.99229294,-0.74982274,-0.56756806,-0.014711722,0.017736342,0.016735906,-0.3893201,-0.3687142,0.05999883,-3.0787032,0.62490886,0.00015605391,-0.0013626615,-0.00077854237,-0.00033584898,-0.0032940907,0.005705242,0.000116563664,0.5050329,-1.3816559,1.9042357,-2.0919073,-1.5708417,2.4800134,-3.0813477e-05,-8.102212e-08,0.0029204595,-0.009507602,0.000106629224,-0.00014771889,0.019153614,0.15322891,-8.676587,0.78888994,47.7245,-0.21632141,-2.9469376,-2.366487,-0.16477403,0.16542748,-0.04519649,28.875,30.25,29.3125,32.9375,35.375,36.5
0.004052366,-1.7383232,-0.7897417,-0.53541166,-0.01676106,-0.0005485062,0.013105628,-0.38930845,-0.3686989,0.05998034,-3.078643,0.624954,0.00012202784,-0.001703563,-0.0009690632,-0.0016188048,-0.0027927805,0.0047931904,0.0001348432,0.5050329,-1.3816427,1.9042596,-2.0918953,-1.5708655,2.4800491,-2.9793448e-05,0.0030366583,0.002641586,-0.01122473,0.00010456445,-0.00016420087,0.076614454,0.19153613,-8.6574335,0.7418897,47.73077,-0.21253514,-3.3630354,-2.5614612,-0.054018743,0.17943063,-0.017848294,28.875,30.25,29.3125,32.9375,35.375,36.5
0.006052638,-0.66984934,-0.45284203,-0.54272753,-0.0061678328,0.011008259,0.0043629147,-0.38931653,-0.3687193,0.059987146,-3.0786977,0.62488866,0.00013888515,-0.00069688045,-0.00040901202,-0.0012642206,-0.0010558796,0.0016772961,0.00013715678,0.5050448,-1.381631,1.9042352,-2.0919173,-1.5708417,2.4800134,-2.8838725e-05,0.0021657103,0.0016271035,-0.0057720006,0.00010257801,-0.0001658559,0.0,0.17238252,-8.695741,0.7665104,47.704796,-0.17932934,-3.334587,-2.5394492,-0.07631482,0.17258567,-0.017884756,28.875,30.25,29.3125,32.9375,35.375,36.5
0.008052052,-0.9929586,0.19300707,-0.83916444,0.022280086,-0.023511726,0.008769122,-0.38935015,-0.3687122,0.060006548,-3.0787044,0.625005,0.00022215012,-0.000121026475,-8.795889e-05,-0.00025156754,-0.0005567371,0.000793744,0.00013308795,0.5050088,-1.3816439,1.9042114,-2.0919402,-1.5708536,2.4800491,-2.7943393e-05,6.955912e-05,0.00093725516,-0.0019712313,0.00010066583,-0.00016133768,-0.05746084,0.22984336,-8.772355,0.7150385,47.709274,-0.17623511,-3.1685069,-2.5357478,-0.10297871,0.17646101,-0.012927618,28.875,30.25,29.3125,32.9375,35.375,36.5
0.010052228,-0.3988639,0.85635126,-1.2456577,0.019947557,-0.012871103,0.008899193,-0.389314,-0.36870363,0.05999453,-3.0786896,0.62492543,0.0001378639,0.00069648534,0.00037728026,-0.0004156236,0.00093102234,-0.0018784285,0.00011122214,0.50502086,-1.3816679,1.9042586,-2.091903,-1.5708417,2.4800134,-4.4909302e-05,9.332244e-07,0.0006076139,0.001485459,9.882347e-05,-0.00015668468,0.038307227,0.15322891,-8.963891,0.7911258,47.666286,-0.7379472,-2.7000084,-2.9720674,-0.13675898,0.13514125,-0.08627276,28.875,30.25,29.3125,32.9375,35.375,36.5
0.012051696,-0.3496901,0.039574508,-1.4654436,-0.0026339798,0.0069882614,-0.0067596687,-0.38932267,-0.3687156,0.059991363,-3.0786889,0.62492484,0.00013630757,0.0008543988,0.0005543076,-0.0013117942,0.0024898308,-0.0046901125,0.00034919175,0.50503284,-1.3816308,1.9042219,-2.091902,-1.5708417,2.480025,-0.00019566738,0.0024398356,-0.00070894253,0.0035779413,9.704748e-05,-0.0005447048,0.11492168,0.095768064,-9.078813,0.7732232,47.687782,-0.87551045,-2.6605926,-3.1537478,-0.1305395,0.12380792,-0.12449833,28.875,30.25,29.3125,32.9375,35.375,36.5
0.014052049,-1.0164307,-0.92388195,-1.5226824,-0.029634962,0.02145357,-0.0042558913,-0.38930982,-0.36868304,0.059956484,-3.078602,0.6249076,3.08311e-05,-0.005144944,0.0037356138,-0.0041645337,0.004288419,-0.00794915,-0.0022714848,0.5050049,-1.3815912,1.9042438,-2.0918548,-1.5708655,2.4799974,-0.011160291,0.01295951,-0.006391275,0.0024615936,8.354119e-05,-0.008884521,0.019153614,0.11492168,-9.270349,0.72622824,47.681515,-0.45973343,-3.1468344,-3.053874,-0.10955958,0.14549336,-0.099263266,28.875,30.25,29.3125,32.9375,35.375,36.5
0.016052287,-1.6407373,-0.85427713,-1.4729649,-0.06508127,0.034620035,-0.017258799,-0.38932678,-0.36868966,0.059950598,-3.078619,0.6249076,3.239288e-05,-0.006027376,0.0037816653,-0.0036842157,0.003682419,-0.0068496913,0.0041351616,0.5049927,-1.3815552,1.90422,-2.0918787,-1.5708536,2.479983,-0.012059749,0.0129962,-0.0074821883,0.0022593753,7.833427e-05,-0.016190143,-0.19153614,0.19153613,-9.423578,0.76874626,47.691364,-0.4649858,-3.2242663,-3.1229382,-0.100135,0.11429635,-0.028489081,28.875,30.25,29.3125,32.9375,35.375,36.5
0.018052036,-2.0781596,-1.1294211,-1.534935,-0.06702139,0.05807176,-0.031043166,-0.38929322,-0.36867124,0.059911575,-3.078558,0.62481594,-0.00011097349,-0.0051232427,0.0037350473,-0.0026734266,0.0037210544,-0.006909668,0.009677816,0.5049931,-1.38152,1.9042562,-2.09183,-1.5708536,2.479934,-0.011133737,0.010390989,-0.007260466,0.0047133216,7.675309e-05,-0.020807559,-0.36391866,0.2681506,-9.3661175,0.75084364,47.698532,-0.6195086,-2.836093,-3.3029528,-0.076773256,0.11955924,0.022437897,28.875,30.25,29.3125,32.9375,35.375,36.5
0.020052355,-2.0775785,-0.8642363,-1.8014625,-0.037782624,0.07526456,-0.042572875,-0.38932857,-0.36867392,0.05991903,-3.078574,0.6248585,-9.5930474e-05,-0.004575349,0.004054307,-0.003582768,0.005793846,-0.0106459055,0.009057296,0.5049571,-1.3814833,1.9041957,-2.091829,-1.5708417,2.4799225,-0.011158507,0.012608026,-0.008575002,0.008083863,7.545016e-05,-0.020211272,-0.34476504,0.22984336,-9.481039,0.8179876,47.721813,-0.84315014,-2.7920494,-3.4522398,-0.10726926,0.10531482,0.032239616,28.875,30.25,29.3125,32.9375,35.375,36.5
0.022051591,-2.3286803,-0.29439873,-2.0648117,-0.014508688,0.06534307,-0.06228886,-0.38932803,-0.3686775,0.059917755,-3.0785744,0.62478566,-0.0001503709,-0.0072009647,0.004203194,-0.0023448868,0.0043700947,-0.0080838,0.002237107,0.5049561,-1.3814589,1.904159,-2.0917814,-1.5708297,2.479876,-0.013865253,0.013399284,-0.012335778,0.008123063,7.420488e-05,-0.016096167,-0.47884035,0.22984336,-9.576807,0.7418897,47.69763,-0.85926354,-2.6881673,-3.449322,-0.102070145,0.10647282,-0.034581725,28.875,30.25,29.3125,32.9375,35.375,36.5
0.024051864,-2.196645,-0.27150393,-2.0750089,-0.013928634,0.06962859,-0.07428034,-0.38932696,-0.36863938,0.059882175,-3.078488,0.62484586,-0.0002262532,-0.008520056,0.0043205936,-0.0027434775,0.004442681,-0.0082115475,-0.00041893352,0.50490785,-1.3814222,1.9041938,-2.091769,-1.5708536,2.4798763,-0.015293577,0.01593499,-0.014336477,0.0077348133,6.581116e-05,-0.014867179,-0.49799395,0.22984336,-9.653421,0.73069996,47.689575,-0.88678133,-2.6519413,-3.3489475,-0.09977013,0.09607637,-0.085209146,28.875,30.25,29.3125,32.9375,35.375,36.5
0.026052408,-2.1738453,-0.68689525,-2.1561258,-0.024837358,0.069340125,-0.08330235,-0.38935083,-0.36863357,0.059888083,-3.0784826,0.6248265,-0.00021471933,-0.00957041,0.0048816116,-0.0031235386,0.004732683,-0.00871097,-0.0019608517,0.50488317,-1.3813974,1.9041456,-2.0917451,-1.5708655,2.4798403,-0.017211251,0.017582497,-0.015421903,0.0077499324,5.087684e-05,-0.015242204,-0.59376204,0.19153613,-9.749189,0.7329411,47.63046,-0.83866477,-2.788531,-3.4117918,-0.09131953,0.070841454,-0.09356123,28.875,30.25,29.3125,32.9375,35.375,36.5
0.028051652,-2.1961994,-0.9181194,-2.2862756,-0.040040385,0.082917094,-0.104746014,-0.3893789,-0.36863494,0.05988782,-3.0784822,0.6248247,-0.00021647503,-0.009307919,0.0051616426,-0.0037993223,0.0060046907,-0.0109919105,-0.0014094413,0.50485915,-1.3813488,1.904086,-2.0917327,-1.5708655,2.4798152,-0.017432135,0.019075327,-0.016042855,0.009489584,4.3010972e-05,-0.016014177,-0.6512228,0.076614454,-9.825804,0.72622824,47.679718,-0.87774587,-2.797511,-3.4185698,-0.083862096,0.076726966,-0.07764255,28.875,30.25,29.3125,32.9375,35.375,36.5
0.030051734,-2.4826527,-0.9125668,-2.0727968,-0.04668683,0.08867642,-0.11546255,-0.38938358,-0.36862683,0.059874333,-3.0784838,0.62488353,-0.00030865314,-0.009977512,0.0052958927,-0.0031672153,0.0060639502,-0.010835627,-0.0030194768,0.50481105,-1.3813249,1.9040855,-2.0917203,-1.5708174,2.4798036,-0.018204065,0.019128958,-0.017938016,0.011224333,-8.540056e-05,-0.015175238,-0.7086837,-0.038307227,-9.787497,0.7105615,47.675243,-0.9300509,-2.7837377,-3.390308,-0.0898261,0.055674598,-0.10021,28.875,30.25,29.3125,32.9375,35.375,36.5
0.032052085,-2.3549085,-0.1780247,-2.1221068,-0.042178594,0.10048601,-0.12979458,-0.38940874,-0.36862886,0.05986857,-3.0784743,0.62484485,-0.00031022954,-0.010857329,0.0054855486,-0.0027338522,0.005707631,-0.010075085,-0.0052672382,0.50479865,-1.3812648,1.904025,-2.091708,-1.5708297,2.4797683,-0.01930912,0.019250784,-0.019119546,0.011446205,-0.00014330863,-0.014031946,-0.7469909,-0.05746084,-9.710882,0.83365434,47.683304,-0.90941656,-2.747387,-3.4850645,-0.0787713,0.04663159,-0.11828171,28.875,30.25,29.3125,32.9375,35.375,36.5
0.03400787,-1.9370224,-0.25627938,-2.1739006,-0.007950865,0.103268065,-0.13650945,-0.38943443,-0.36861897,0.059855826,-3.078449,0.6248978,-0.0003655633,-0.012126256,0.005596463,-0.0027606147,0.0062680086,-0.009118245,-0.0063999905,0.5047505,-1.381204,1.9039768,-2.0916846,-1.5708178,2.4797564,-0.02008368,0.021014106,-0.021054279,0.011054813,-0.0011025753,-0.013670833,-0.5363012,0.019153614,-9.80665,0.72622824,47.717335,-0.97043,-2.7568774,-3.4197512,-0.09376095,0.04116137,-0.15279064,28.875,30.25,29.3125,32.9375,35.375,36.5
0.03605287,-2.128427,0.19090316,-1.9423699,0.005697659,0.0790743,-0.14184453,-0.38946274,-0.368606,0.059851423,-3.0784419,0.6249733,-0.00035076158,-0.013483308,0.0054879994,-0.0022556193,0.005840118,-0.0075703897,-0.0064732833,0.5047022,-1.3811798,1.9039634,-2.091708,-1.5708178,2.479756,-0.02093228,0.021917025,-0.023198964,0.01073605,-0.0014825845,-0.014444389,-0.51714754,0.0,-9.787497,0.7396539,47.685097,-0.92088735,-2.7115054,-3.4057763,-0.09198457,0.032388147,-0.156455,28.875,30.25,29.3125,32.9375,35.375,36.5
0.0380518,-1.6363845,0.27520132,-2.0710447,0.009802684,0.069569424,-0.14853415,-0.3895094,-0.36860314,0.059856422,-3.0784304,0.6249902,-0.0003657576,-0.014930474,0.005932682,-0.0016335683,0.0051247,-0.0064162984,-0.007884785,0.5046537,-1.3811078,1.9038562,-2.0916603,-1.5708178,2.4797196,-0.02307143,0.022012286,-0.024751622,0.010836918,-0.0014184412,-0.015171505,-0.47884035,-0.1340753,-9.787497,0.7329411,47.70032,-0.90783095,-2.6651027,-3.4271998,-0.08078626,0.03332048,-0.16365191,28.875,30.25,29.3125,32.9375,35.375,36.5
0.04005287,-1.5464544,0.06954639,-2.0889251,1.7315731e-05,0.050722953,-0.15503874,-0.38952515,-0.36856502,0.059844725,-3.0783532,0.6249945,-0.0003871616,-0.016405595,0.006667812,-0.0013131286,0.0048846547,-0.0057350434,-0.008832364,0.5046049,-1.3810835,1.9038433,-2.0916126,-1.570866,2.4796834,-0.025610026,0.022488432,-0.026073985,0.010970115,-0.0015422817,-0.016761595,-0.36391866,-0.05746084,-9.691729,0.7150385,47.693153,-0.89469695,-2.7441645,-3.418908,-0.0650747,0.015882947,-0.17034566,28.875,30.25,29.3125,32.9375,35.375,36.5
0.042052276,-1.0547897,-0.27745807,-2.2661862,-0.0072593917,0.047528036,-0.16802028,-0.3895719,-0.36856955,0.05985613,-3.078364,0.62505376,-0.0003461827,-0.017221063,0.006529924,-0.0011949221,0.005001964,-0.0057592173,-0.0079917135,0.50456876,-1.381035,1.9037598,-2.091612,-1.570866,2.479683,-0.026079899,0.023934424,-0.028232202,0.01176028,-0.0016364048,-0.018070966,-0.28730422,-0.038307227,-9.615114,0.85826975,47.699425,-0.91749775,-2.7323895,-3.4256253,-0.05003081,0.006591619,-0.18069881,28.875,30.25,29.3125,32.9375,35.375,36.5
0.04405233,-1.1797159,-0.26788774,-1.9690942,-0.016508492,0.04248086,-0.17820938,-0.38961378,-0.368556,0.05985529,-3.0783827,0.62505734,-0.00039658605,-0.018098138,0.0068389387,-0.00096661807,0.005823105,-0.00594517,-0.008239884,0.5044848,-1.3809863,1.9036988,-2.0915878,-1.5708307,2.4795988,-0.027023695,0.025035433,-0.030429926,0.013419411,-0.0022674466,-0.018764466,-0.28730422,0.038307227,-9.576807,0.7016076,47.685097,-0.901777,-2.7215886,-3.3859992,-0.0488545,0.01021231,-0.18056321,28.875,30.25,29.3125,32.9375,35.375,36.5
0.04605229,-1.4152708,-0.6920159,-2.0489361,-0.008870852,0.03253689,-0.19124405,-0.38965133,-0.36852783,0.059860606,-3.07833,0.6251422,-0.00037430236,-0.018716872,0.007061849,-0.0008717678,0.006569324,-0.006256982,-0.007841171,0.5044246,-1.380962,1.9036497,-2.091551,-1.5708665,2.4795983,-0.027660923,0.026035989,-0.032131135,0.014754562,-0.0027717995,-0.019798694,-0.11492168,0.11492168,-9.557653,0.75755644,47.698532,-0.95765185,-2.6741877,-3.3660371,-0.060102068,0.0047441376,-0.20013438,28.875,30.25,29.3125,32.9375,35.375,36.5
0.048052307,-1.7156224,-0.64209837,-2.0503075,-0.015673226,0.015693624,-0.19981289,-0.38967496,-0.36853096,0.05985681,-3.078323,0.62514114,-0.00041689663,-0.019001333,0.007748566,-0.0013096278,0.0071127787,-0.0075896354,-0.008422561,0.50440025,-1.3809019,1.9035791,-2.0915153,-1.5708545,2.4795742,-0.0291864,0.026783207,-0.032185923,0.015490867,-0.0026030971,-0.020742979,-0.038307227,0.1340753,-9.615114,0.7418897,47.70211,-0.9007002,-2.6443741,-3.3993616,-0.07198493,-0.003315833,-0.22762434,28.875,30.25,29.3125,32.9375,35.375,36.5
0.050052147,-1.5402913,-0.9086221,-2.054103,-0.016720459,0.012112006,-0.19968916,-0.38972732,-0.36850327,0.059848852,-3.078281,0.6251323,-0.00040843544,-0.020456618,0.008599637,-0.0010992466,0.007100925,-0.007334261,-0.00954772,0.50432736,-1.3808295,1.9035062,-2.091491,-1.5708908,2.4795012,-0.031902343,0.027466103,-0.0335833,0.015975218,-0.002720069,-0.022332845,-0.05746084,0.19153613,-9.557653,0.7642693,47.690468,-0.8117224,-2.639865,-3.389382,-0.088150926,-0.027427815,-0.20687678,28.875,30.25,29.3125,32.9375,35.375,36.5
0.052052412,-0.019265128,-0.36907905,-1.9510796,-0.041341174,0.041899845,-0.20601979,-0.38976637,-0.36846602,0.059840407,-3.0782104,0.62523276,-0.00044023947,-0.022125334,0.008351011,-0.00024752953,0.0064970413,-0.004881746,-0.008998028,0.5042433,-1.3807812,1.9034575,-2.0914433,-1.5709151,2.4794888,-0.03262511,0.02820643,-0.036291376,0.0155053185,-0.0033858572,-0.023602556,-0.11492168,0.22984336,-9.461885,0.81351066,47.716442,-0.7827213,-2.5732107,-3.3603158,-0.100886896,-0.02032568,-0.22468367,28.875,30.25,29.3125,32.9375,35.375,36.5
0.054051727,-0.5663998,-0.74581295,-2.0380785,-0.031792436,0.024670513,-0.17251599,-0.38979974,-0.36846745,0.0598448,-3.078235,0.62516063,-0.0004526332,-0.023593757,0.00866048,0.0002048265,0.0064343167,-0.0033914957,-0.008399289,0.5042068,-1.3807329,1.903385,-2.0914195,-1.5709027,2.4794042,-0.03409637,0.028900165,-0.03809068,0.015277986,-0.0040567657,-0.025670335,-0.05746084,0.28730422,-9.461885,0.7083204,47.72629,-0.8071779,-2.5487947,-3.312592,-0.07775743,-0.035373032,-0.2329082,28.875,30.25,29.3125,32.9375,35.375,36.5
0.056052238,-0.6504422,-0.81418055,-1.8945936,-0.03865283,0.02756048,-0.17240423,-0.38985875,-0.36843657,0.059847403,-3.0781698,0.6252237,-0.00045856574,-0.024673045,0.009287672,0.00017546576,0.0075447266,-0.0026997535,-0.0077456073,0.50412256,-1.3806605,1.9032773,-2.091348,-1.5709394,2.4793677,-0.03533753,0.02992487,-0.039252467,0.015348825,-0.005368112,-0.0275617,-0.038307227,0.3256114,-9.519346,0.76874626,47.645687,-0.7818644,-2.5656862,-3.3564477,-0.07501711,-0.021471681,-0.21640882,28.875,30.25,29.3125,32.9375,35.375,36.5
0.05805186,-1.1777546,-0.84465516,-1.7798833,-0.042503785,0.030896882,-0.17659938,-0.38991666,-0.36843237,0.059851963,-3.0782192,0.6252713,-0.00044021764,-0.02490798,0.009006028,0.00014818934,0.0075614187,-0.002939019,-0.0070655597,0.5040388,-1.3806121,1.9032177,-2.0913832,-1.5709032,2.4793074,-0.035140693,0.03088061,-0.04041914,0.01577742,-0.0052682008,-0.02804478,-0.019153614,0.28730422,-9.385271,0.8179876,47.684196,-0.8059889,-2.5432594,-3.369567,-0.09024709,-0.036782727,-0.23910335,28.875,30.25,29.3125,32.9375,35.375,36.5
0.060051978,-1.0841339,-0.6171804,-1.6110666,-0.05271327,0.044683322,-0.17798108,-0.38993344,-0.36839965,0.05984233,-3.0781434,0.6252744,-0.0004871957,-0.02607736,0.008977631,0.00060325157,0.00769018,-0.0014274131,-0.0062228087,0.50399095,-1.3805758,1.9031805,-2.0913117,-1.5709399,2.4792712,-0.03565334,0.031679917,-0.042377457,0.015676461,-0.006118562,-0.029397102,-0.13407528,0.24899697,-9.442732,0.7642693,47.705692,-0.9074742,-2.5427794,-3.3947058,-0.109688535,-0.024098817,-0.22081643,28.875,30.25,29.3125,32.9375,35.375,36.5
0.062052265,-1.2482905,-0.61727536,-1.5626334,-0.03864486,0.053851888,-0.16963081,-0.3900219,-0.36838835,0.05986153,-3.0781562,0.62541145,-0.00044212997,-0.027781961,0.010082492,0.0009269071,0.009132513,-0.00011371743,-0.007206336,0.5038822,-1.3805033,1.9030484,-2.0912998,-1.5709285,2.4792464,-0.03791051,0.032434892,-0.04413363,0.016229998,-0.008018335,-0.030666389,-0.15322891,0.28730422,-9.423578,0.7978386,47.68062,-0.83440506,-2.544325,-3.3489313,-0.10216129,-0.0064489427,-0.24701717,28.875,30.25,29.3125,32.9375,35.375,36.5
0.06405254,-1.8160539,-0.7710917,-1.7736241,-0.021233052,0.038906462,-0.16534096,-0.39007342,-0.36836758,0.059843745,-3.0781093,0.6253435,-0.0004631746,-0.028951699,0.010563344,0.0013142454,0.010374965,0.0015829023,-0.006858681,0.503822,-1.3803949,1.9029526,-2.0912635,-1.5709652,2.4791498,-0.038613886,0.032949485,-0.045654513,0.016355446,-0.00993094,-0.031712357,-0.17238252,0.2681506,-9.481039,0.7463667,47.672558,-0.8597772,-2.4898853,-3.3986099,-0.104181,-0.0056706998,-0.25071234,28.875,30.25,29.3125,32.9375,35.375,36.5
0.06605242,-1.4718764,-0.79826695,-1.6933882,-0.014666383,0.051246535,-0.15989958,-0.39014205,-0.3683645,0.05987336,-3.0781615,0.62541205,-0.00040185385,-0.02998852,0.011065311,0.0015801443,0.01071341,0.0023218854,-0.0074748304,0.5037379,-1.380371,1.9028567,-2.0912635,-1.5709413,2.479102,-0.040011425,0.033375196,-0.046822637,0.016616177,-0.01058445,-0.032492626,-0.21068975,0.22984336,-9.32781,0.73741806,47.693153,-0.88063693,-2.4166572,-3.3648827,-0.11247376,0.017594893,-0.28766686,28.875,30.25,29.3125,32.9375,35.375,36.5
0.0680517,-1.1116102,-0.5420946,-1.6077623,-0.013486319,0.06301245,-0.16124567,-0.39019287,-0.36835253,0.05989171,-3.078164,0.6253923,-0.00037601317,-0.030649949,0.010886441,0.0013304232,0.01076681,0.0018805737,-0.006239602,0.5036778,-1.3803344,1.9027609,-2.0912158,-1.5709532,2.4790292,-0.040425178,0.035241663,-0.04851599,0.016853305,-0.010422045,-0.034141097,-0.19153613,0.22984336,-9.308656,0.72622824,47.63136,-0.8772261,-2.5174098,-3.3380399,-0.122906044,0.018680057,-0.27547976,28.875,30.25,29.3125,32.9375,35.375,36.5
0.07005184,-0.76660997,-0.65562797,-1.5627087,-0.008159189,0.06737693,-0.15883316,-0.39026406,-0.36833075,0.05988694,-3.0781486,0.625389,-0.00037904785,-0.03170297,0.010498697,0.0016374867,0.008644376,0.0015014039,-0.0075432225,0.5035815,-1.3802378,1.9026521,-2.091192,-1.5709642,2.4789329,-0.042019073,0.036396805,-0.050647024,0.01712816,-0.008385002,-0.03443434,-0.22984336,0.19153613,-9.3661175,0.7709874,47.683304,-0.90135956,-2.5508072,-3.3471966,-0.11947934,-0.0022946738,-0.3048232,28.875,30.25,29.3125,32.9375,35.375,36.5
0.07205207,-0.46742395,-0.3487018,-1.5675396,-0.015229858,0.06509237,-0.15925275,-0.3903156,-0.3683165,0.05987577,-3.0781188,0.62542087,-0.00042307936,-0.03218533,0.010332267,0.0017749215,0.0072727115,0.0003389607,-0.0077144154,0.50350916,-1.3801415,1.9025553,-2.0911553,-1.5709637,2.4788842,-0.04328131,0.03715293,-0.052093368,0.018167395,-0.006625489,-0.035528097,-0.28730422,0.1340753,-9.346964,0.7418897,47.655537,-0.9063837,-2.493354,-3.3160276,-0.12469121,-0.036507364,-0.30300093,28.875,30.25,29.3125,32.9375,35.375,36.5
0.07405207,-1.3417954,-0.8327177,-1.5291036,-0.0045449887,0.048324976,-0.1494249,-0.39039937,-0.3682971,0.059904512,-3.0781155,0.62549615,-0.00034418772,-0.03220024,0.010200199,0.0018151003,0.006556198,-0.00053066557,-0.0059114094,0.50341326,-1.3800933,1.9024247,-2.0911186,-1.5709876,2.4788358,-0.043718155,0.037387248,-0.05262334,0.018873168,-0.005577716,-0.03777018,-0.38307226,0.1340753,-9.3661175,0.7620334,47.70211,-0.87554336,-2.3674183,-3.36992,-0.13965355,-0.055891596,-0.31768668,28.875,30.25,29.3125,32.9375,35.375,36.5
0.076051705,-1.829474,-0.57908565,-1.4371696,-0.005714721,0.050687324,-0.15303275,-0.39045784,-0.36827308,0.059890836,-3.0780654,0.62544787,-0.00036495115,-0.033668894,0.010649277,0.001290451,0.007814089,-0.0009822709,-0.006469815,0.50334084,-1.3799843,1.902316,-2.091071,-1.5710238,2.4787397,-0.045282733,0.040472634,-0.05519251,0.019360477,-0.0064688944,-0.038772777,-0.4213795,0.05746084,-9.289502,0.7911258,47.689575,-0.91575944,-2.4792993,-3.3628507,-0.15314658,-0.050756775,-0.2979824,28.875,30.25,29.3125,32.9375,35.375,36.5
0.07805198,-1.9723307,-0.38138717,-1.584972,0.0020235395,0.0630337,-0.15499578,-0.39052126,-0.36826566,0.059896287,-3.0781322,0.6254238,-0.0003979716,-0.036078207,0.011668554,0.0019872917,0.00798685,0.0007781864,-0.010048445,0.50323206,-1.3799238,1.902232,-2.091071,-1.5709642,2.4786074,-0.048607573,0.041300047,-0.057843033,0.019730067,-0.0074736173,-0.038515933,-0.4213795,-0.019153614,-9.346964,0.7463667,47.70211,-0.8244927,-2.464716,-3.2241538,-0.17860267,-0.067711025,-0.35521567,28.875,30.25,29.3125,32.9375,35.375,36.5
0.08005238,-1.506424,0.025067065,-1.5254369,0.005297833,0.08247132,-0.16622435,-0.39057645,-0.36824927,0.05990473,-3.0780814,0.62546796,-0.00044420248,-0.03441809,0.011632059,0.00056385965,0.009974084,-0.0018883677,-0.0049096677,0.5031608,-1.3798394,1.9020885,-2.0909626,-1.5709766,2.4785702,-0.0467109,0.042418905,-0.05600627,0.020068523,-0.007928053,-0.041757338,-0.4213795,0.05746084,-9.289502,0.7911258,47.677036,-0.9227561,-2.4380872,-3.3826747,-0.16945675,-0.045652986,-0.34800953,28.875,30.25,29.3125,32.9375,35.375,36.5
0.08205292,-1.9938506,-0.10287041,-1.6177969,0.006369386,0.07472216,-0.15627962,-0.3906761,-0.36822644,0.05990775,-3.0780737,0.6254856,-0.0003646008,-0.03614844,0.012312505,0.0010722023,0.010362434,-0.0012410359,-0.0051195538,0.5030521,-1.3797308,1.901956,-2.0909746,-1.5710129,2.4784737,-0.049048007,0.043458536,-0.058681186,0.021323277,-0.008583693,-0.04388239,-0.34476504,-0.11492168,-9.3661175,0.8224646,47.70032,-0.92054987,-2.4750476,-3.3743534,-0.16781464,-0.069818735,-0.33482414,28.875,30.25,29.3125,32.9375,35.375,36.5
0.084054105,-1.4927121,0.119839735,-1.6303957,0.0055163093,0.07627178,-0.1671202,-0.39071342,-0.3681854,0.059874218,-3.0780003,0.62548786,-0.00046681476,-0.038572572,0.012759174,0.0017469182,0.011905715,0.00091806566,-0.002882736,0.502956,-1.379634,1.9019068,-2.0909264,-1.5710253,2.4783883,-0.050552122,0.04564256,-0.063037045,0.022353526,-0.010990978,-0.047615353,-0.45968673,0.019153614,-9.385271,0.7486078,47.70211,-0.86266863,-2.4183643,-3.2821288,-0.20488122,-0.033982217,-0.3123653,28.875,30.25,29.3125,32.9375,35.375,36.5
0.086053185,-1.0451715,0.5023288,-1.5632612,-0.0040775,0.07742409,-0.16988793,-0.39080262,-0.3681636,0.05988702,-3.077979,0.6254835,-0.00041828287,-0.039308686,0.014800386,0.0011363317,0.014476111,-0.00015722246,-0.004061877,0.50285906,-1.3795377,1.9017528,-2.0908782,-1.571062,2.4782915,-0.05358139,0.04605424,-0.062392518,0.023481147,-0.012722177,-0.049462218,-0.4213795,-0.019153614,-9.442732,0.8112748,47.687782,-0.7703147,-2.579699,-3.1573849,-0.22429124,-0.01017045,-0.281603,28.875,30.25,29.3125,32.9375,35.375,36.5
0.08805274,-1.5717263,-0.14786121,-1.628421,-0.009007963,0.06878342,-0.15989263,-0.39088836,-0.36813802,0.05989744,-3.0779688,0.62548107,-0.00037956005,-0.039315797,0.014782002,0.0004506191,0.015643753,-0.00036162836,-0.0031290464,0.5027514,-1.3794533,1.9016212,-2.090843,-1.5710863,2.4781837,-0.052969687,0.047547996,-0.062443946,0.022781273,-0.013648979,-0.04978121,-0.4213795,0.038307227,-9.423578,0.77545905,47.689575,-0.8007936,-2.4290771,-3.4106107,-0.19847524,0.0026485273,-0.29476637,28.875,30.25,29.3125,32.9375,35.375,36.5
0.09005369,-1.9601096,-0.38206545,-1.5562218,-0.020764707,0.06970615,-0.16027054,-0.39097437,-0.36809406,0.059895884,-3.0779006,0.62552106,-0.00040101973,-0.040055096,0.013979727,0.00074186263,0.014622676,0.00030366122,0.0012302146,0.5026199,-1.3793447,1.9014772,-2.090759,-1.5711225,2.478086,-0.0526489,0.048897024,-0.06465863,0.02256468,-0.013086252,-0.05381912,-0.45968673,0.038307227,-9.385271,0.7665104,47.66271,-0.9612295,-2.5732536,-3.3172598,-0.19874737,0.011520823,-0.2673934,28.875,30.25,29.3125,32.9375,35.375,36.5
0.09205334,-1.7153106,-0.6531203,-1.5115111,-0.02033731,0.07357963,-0.16256991,-0.39106843,-0.36806846,0.05990006,-3.0778816,0.6255152,-0.00035318168,-0.04096771,0.014471158,0.0008819351,0.013819726,-0.0011600696,0.0024547698,0.5025113,-1.3792361,1.9013337,-2.0907342,-1.5711578,2.4779763,-0.05518967,0.04972334,-0.066359036,0.024324644,-0.011679936,-0.057586983,-0.47884035,0.15322891,-9.32781,0.80679786,47.68599,-0.83771706,-2.4617598,-3.3285875,-0.24821287,-0.021100828,-0.23643112,28.875,30.25,29.3125,32.9375,35.375,36.5
0.09405226,-1.7339015,-0.82473874,-1.811913,-0.011761924,0.06725527,-0.15393978,-0.39110908,-0.3680502,0.059887268,-3.0778844,0.6253998,-0.0004511043,-0.04107936,0.014740788,0.0005241041,0.014330682,-0.0028238723,0.00464785,0.5024273,-1.3791518,1.9012493,-2.0906737,-1.571133,2.47782,-0.05595873,0.050860893,-0.067217134,0.02574732,-0.011331422,-0.060548816,-0.30645782,0.05746084,-9.346964,0.7665104,47.703007,-0.87931,-2.468439,-3.3653693,-0.27135247,-0.015542908,-0.19623798,28.875,30.25,29.3125,32.9375,35.375,36.5
0.096052326,-1.4583753,-0.8187651,-1.4942427,-0.011123091,0.06353717,-0.15140338,-0.39121014,-0.3680069,0.059898455,-3.0778348,0.6254646,-0.00042839476,-0.04178068,0.014777411,-0.00042229105,0.015331132,-0.0039972477,0.0066303937,0.5022834,-1.3790544,1.9010924,-2.0906022,-1.5711697,2.477723,-0.056461845,0.054054555,-0.06883082,0.02567361,-0.011651049,-0.06303247,-0.21068975,0.076614454,-9.3661175,0.842603,47.690468,-0.96302295,-2.6326718,-3.3752766,-0.28767642,-0.022907507,-0.17399177,28.875,30.25,29.3125,32.9375,35.375,36.5
0.09805235,-1.1123035,-0.5984414,-1.5002352,-0.016291715,0.06723204,-0.15490426,-0.39128155,-0.36798635,0.059894715,-3.0778215,0.62546057,-0.00048262015,-0.043440294,0.015297283,0.0012548332,0.015054664,-4.3949454e-05,0.007257953,0.5021752,-1.3789473,1.9009603,-2.090542,-1.5711583,2.477614,-0.05782662,0.05210795,-0.070309535,0.02550534,-0.0133201815,-0.06502032,-0.2681506,0.17238252,-9.193734,0.800085,47.694946,-0.9433709,-2.4618337,-3.3656387,-0.28726518,0.0066694394,-0.12700722,28.875,30.25,29.3125,32.9375,35.375,36.5
0.10005247,-0.871199,-0.9084365,-1.6835539,-0.0074356147,0.06774194,-0.15564966,-0.39139584,-0.36795333,0.059885077,-3.0777884,0.6254332,-0.000436867,-0.043964688,0.015276812,0.0009654671,0.01557434,-0.0005438404,0.008458833,0.5020434,-1.3787904,1.9007939,-2.0905302,-1.5712065,2.4774694,-0.05812853,0.053794295,-0.07175482,0.025947759,-0.013539591,-0.06652179,-0.19153613,0.22984336,-9.32781,0.7777002,47.68062,-0.9794814,-2.4082353,-3.3567438,-0.28877062,0.0011242478,-0.109073475,28.875,30.25,29.3125,32.9375,35.375,36.5
0.10205188,-1.5103651,-1.2921301,-1.8459661,-0.013876383,0.04088265,-0.152722,-0.39148006,-0.3679294,0.059920408,-3.077785,0.62539357,-0.000371489,-0.044594724,0.01539562,0.00068139995,0.015612163,-0.0014794566,0.008202946,0.5019472,-1.3787419,1.900637,-2.0904462,-1.5712422,2.477349,-0.05916212,0.055405427,-0.07315936,0.026573962,-0.013123922,-0.06730001,-0.038307227,0.24899697,-9.32781,0.7642693,47.651955,-1.0192966,-2.4908037,-3.3773246,-0.30910784,0.006782743,-0.07723883,28.875,30.25,29.3125,32.9375,35.375,36.5
0.10405214,-0.91928315,-1.1587657,-1.6823825,-0.034751043,0.031045191,-0.15467447,-0.3915731,-0.36789352,0.059915658,-3.0777473,0.6254054,-0.00037848137,-0.045361802,0.015147063,7.994234e-05,0.015363855,-0.0024539803,0.0075761476,0.50181526,-1.3786206,1.9004935,-2.090398,-1.571266,2.4772294,-0.059867643,0.05808532,-0.0749293,0.026393097,-0.012444698,-0.06737879,-0.038307227,0.30645782,-9.32781,0.7083204,47.668976,-1.0072969,-2.6052861,-3.3251595,-0.3180892,-0.006223468,-0.05009634,28.875,30.25,29.3125,32.9375,35.375,36.5
0.10605267,-0.3791046,-1.0122443,-1.8361216,-0.050487105,0.02987941,-0.15916967,-0.39166647,-0.36786488,0.059893154,-3.077707,0.6253579,-0.00041182968,-0.046400607,0.01504877,0.0014324422,0.013532384,0.00039566876,0.006063824,0.50169516,-1.3784533,1.9003385,-2.0903628,-1.5712899,2.4770849,-0.06079352,0.056264494,-0.07567527,0.025577078,-0.01221675,-0.066792205,-0.038307227,0.2681506,-9.346964,0.779936,47.63852,-1.0684977,-2.3855627,-3.3906105,-0.31148416,0.005897147,-0.069566324,28.875,30.25,29.3125,32.9375,35.375,36.5
0.10805196,-0.4650818,-1.064996,-1.9240118,-0.049100563,0.018740593,-0.15499634,-0.3917576,-0.3678232,0.05989093,-3.0776575,0.625311,-0.00043208536,-0.047863185,0.015082507,0.0013354515,0.013293105,0.0010414824,0.003751293,0.501563,-1.3783325,1.9001817,-2.0902793,-1.5713261,2.47693,-0.062126424,0.058344435,-0.077772856,0.024910415,-0.012326679,-0.06581052,0.0,0.19153613,-9.461885,0.8157518,47.660015,-1.0626035,-2.4538965,-3.4142225,-0.2992013,0.0009411826,-0.036161132,28.875,30.25,29.3125,32.9375,35.375,36.5
0.110052414,0.113368146,-0.2834632,-1.8050487,-0.054660622,0.031364758,-0.16961691,-0.39185974,-0.36779493,0.059904747,-3.0776644,0.6252929,-0.00034015373,-0.04810888,0.015312823,0.0005694789,0.013880832,-0.00079819286,0.0015008926,0.50144297,-1.3782476,1.9000496,-2.0902789,-1.5713619,2.4767978,-0.06295969,0.060379304,-0.07859884,0.025593016,-0.01195432,-0.06439424,0.076614454,0.24899697,-9.32781,0.84484416,47.647476,-1.071429,-2.4662306,-3.400715,-0.31853655,0.0064508743,-0.06930338,28.875,30.25,29.3125,32.9375,35.375,36.5
0.112051874,-0.14218956,-0.54452896,-1.8903712,-0.03597384,0.030067751,-0.1616999,-0.391961,-0.36776784,0.059904788,-3.0776362,0.62534595,-0.00034373836,-0.050699767,0.014686027,0.0023906762,0.012519528,0.0027540205,-0.00077864534,0.5013108,-1.3781152,1.8998817,-2.0902307,-1.5713738,2.4767025,-0.063966006,0.06121456,-0.08389672,0.026286768,-0.012478267,-0.06311747,0.05746084,0.2681506,-9.308657,0.8179876,47.67614,-1.0642349,-2.4582238,-3.1959376,-0.3346331,-0.0030592224,-0.069528535,28.875,30.25,29.3125,32.9375,35.375,36.5
0.11405199,-1.0297512,-0.9010313,-2.0489678,-0.016000874,0.0148934405,-0.14145568,-0.39205295,-0.36773983,0.05988711,-3.0776129,0.62530446,-0.00040250388,-0.050520148,0.015898565,0.0011559812,0.013142066,0.00019585273,-0.004697265,0.50117844,-1.3779588,1.8997258,-2.0901825,-1.5713738,2.4765472,-0.066249736,0.061961137,-0.08194474,0.026127849,-0.011793329,-0.06148427,0.038307227,0.30645782,-9.32781,0.77545905,47.694946,-1.0460646,-2.461893,-3.4062452,-0.33540487,0.006069551,-0.10417585,28.875,30.25,29.3125,32.9375,35.375,36.5
0.11605205,-0.692081,-1.0303429,-2.0506883,-0.015400422,0.022697702,-0.15176383,-0.3921453,-0.367709,0.059899103,-3.0775845,0.62526035,-0.00035507508,-0.051914904,0.015144225,0.0013676854,0.012043767,0.0009334431,-0.006619857,0.5010706,-1.3778619,1.8995703,-2.0901234,-1.5714215,2.4764156,-0.06663555,0.06433681,-0.08517254,0.025800195,-0.011191456,-0.059947222,-0.05746084,0.22984336,-9.461885,0.7217513,47.66987,-1.1111959,-2.411949,-3.4285889,-0.32775962,-0.03153688,-0.12701696,28.875,30.25,29.3125,32.9375,35.375,36.5
0.11805235,-0.60541266,-0.5102044,-1.960177,-0.045451447,0.037220478,-0.15656805,-0.39224154,-0.36769256,0.059905987,-3.0775797,0.6252978,-0.00040995234,-0.053120296,0.014944652,0.001979904,0.011471617,0.0021300802,-0.00830954,0.5009386,-1.3777294,1.8993787,-2.0900395,-1.5713972,2.4763076,-0.06735069,0.06510227,-0.08754456,0.026083346,-0.011270043,-0.05897119,-0.076614454,0.26815057,-9.461885,0.7284641,47.64479,-1.1494075,-2.567842,-3.1334472,-0.3304748,-0.015977135,-0.1549322,28.875,30.25,29.3125,32.9375,35.375,36.5
0.12005184,-0.5732602,-0.6312627,-1.9512855,-0.053650644,0.05364951,-0.16351052,-0.3924031,-0.36765233,0.059923366,-3.0775688,0.6253149,-0.00027902477,-0.052981522,0.015186486,0.0016170223,0.011371846,0.0009730386,-0.009686401,0.5007587,-1.3775731,1.8991512,-2.090027,-1.5714573,2.47614,-0.068005964,0.06542003,-0.08716347,0.026344234,-0.01062214,-0.05825193,-0.1340753,0.24899697,-9.423578,0.78217715,47.661808,-1.200388,-2.39699,-3.3603282,-0.3178625,-0.012845626,-0.19546366,28.875,30.25,29.3125,32.9375,35.375,36.5
0.1220522,-1.2698761,-1.1038072,-2.1170092,-0.04579674,0.06260229,-0.15543795,-0.39246252,-0.36762086,0.05990561,-3.0775006,0.62530047,-0.00040888757,-0.05435748,0.015161385,0.0016573045,0.011557199,0.0014801048,-0.010631255,0.5006507,-1.3774403,1.8990072,-2.089908,-1.5714573,2.4760318,-0.06896718,0.0675205,-0.08979111,0.026515936,-0.01104028,-0.05826477,-0.2681506,0.19153613,-9.653421,0.8314132,47.690468,-1.1872133,-2.442354,-3.3244877,-0.33413148,-0.025133427,-0.20891307,28.875,30.25,29.3125,32.9375,35.375,36.5
0.124052465,-1.3640498,-0.73957556,-2.0713634,-0.056465536,0.07722128,-0.15927319,-0.39256784,-0.36758903,0.05989687,-3.0774424,0.6254216,-0.0004419612,-0.054588646,0.014804797,0.0010633374,0.012022625,0.0004812178,-0.009136475,0.50050706,-1.3772833,1.8988274,-2.0898478,-1.5714692,2.4759712,-0.06860441,0.069808245,-0.09121317,0.026746608,-0.010975779,-0.059395645,-0.22984336,0.17238252,-9.595961,0.78888994,47.719128,-1.3088264,-2.6365516,-3.3254259,-0.3366694,-0.029679954,-0.24232313,28.875,30.25,29.3125,32.9375,35.375,36.5
0.12605254,-1.2256082,-0.76929003,-2.0141253,-0.041459806,0.086205795,-0.15806,-0.39268556,-0.36757305,0.05992569,-3.077463,0.62538826,-0.0003600159,-0.05694498,0.0155803375,0.0025662046,0.009552098,0.0031405056,-0.01142394,0.50038606,-1.3771759,1.8986238,-2.0898001,-1.571493,2.475827,-0.07261836,0.06842222,-0.092892826,0.026286436,-0.010088136,-0.061124347,-0.21068975,0.21068975,-9.519346,0.7866488,47.66091,-1.2452772,-2.3486662,-3.3320162,-0.3403265,-0.030152028,-0.23577544,28.875,30.25,29.3125,32.9375,35.375,36.5
0.12805182,-1.6748154,-0.16941902,-2.078702,-0.041051656,0.074012175,-0.16102247,-0.39277536,-0.36754435,0.05989438,-3.0774395,0.6253439,-0.00041896058,-0.056716695,0.014687737,0.0017226107,0.009939195,0.002659346,-0.011193179,0.500255,-1.3770068,1.8984917,-2.0897882,-1.5714935,2.4756713,-0.07081978,0.07083415,-0.09359501,0.02518491,-0.010202769,-0.059555005,-0.34476504,0.19153613,-9.615114,0.7418897,47.603592,-1.2600913,-2.507015,-3.3849123,-0.32864013,-0.0479682,-0.29226637,28.875,30.25,29.3125,32.9375,35.375,36.5
0.13005243,-2.1051657,-0.560791,-2.1099494,-0.028803736,0.06292758,-0.14977993,-0.3929101,-0.36751688,0.059903763,-3.0774143,0.62545455,-0.00036816468,-0.05738097,0.0150631685,0.0015761973,0.009560459,0.0024913787,-0.012650898,0.5000987,-1.3768505,1.8982772,-2.089753,-1.5715169,2.4755874,-0.07229726,0.071447365,-0.093926705,0.024864716,-0.009790368,-0.05957578,-0.40222588,0.22984336,-9.672575,0.800085,47.661808,-1.3792844,-2.3673236,-3.403283,-0.3042828,-0.043079853,-0.32364503,28.875,30.25,29.3125,32.9375,35.375,36.5
0.13205263,-1.1761687,-0.3892235,-2.0855238,-0.028740209,0.08916427,-0.14958702,-0.3930298,-0.36748207,0.059908174,-3.077385,0.62548566,-0.00041122956,-0.060986936,0.015714558,0.003273448,0.0075617796,0.006096766,-0.013771009,0.49992952,-1.376694,1.8980597,-2.0896566,-1.5715169,2.4754415,-0.076705836,0.07185383,-0.09822895,0.024633922,-0.009780413,-0.06286215,-0.47884035,0.076614454,-9.672575,0.83589023,47.68062,-1.236874,-2.42862,-3.246604,-0.29555947,-0.05135983,-0.33674932,28.875,30.25,29.3125,32.9375,35.375,36.5
0.13405198,-1.185563,-0.4288806,-2.0456257,-0.022609824,0.09656019,-0.1440136,-0.39313135,-0.36744127,0.059889838,-3.0773368,0.6255151,-0.0004586256,-0.059807476,0.015395859,0.0022379472,0.009345811,0.0049427403,-0.014088848,0.49977475,-1.3765376,1.8979052,-2.089609,-1.5715293,2.4753113,-0.0744323,0.072977975,-0.09713797,0.024290254,-0.010791687,-0.06026796,-0.49799395,0.05746084,-9.672575,0.78217715,47.70838,-1.3336084,-2.3526344,-3.4551558,-0.27063906,-0.050279893,-0.36934978,28.875,30.25,29.3125,32.9375,35.375,36.5
0.13605188,-1.2348157,-0.39622742,-1.9970653,-0.016817482,0.10296724,-0.14922151,-0.39328063,-0.36743098,0.059922628,-3.0773513,0.62557596,-0.00032275863,-0.06299035,0.01512051,0.0037981318,0.0072385883,0.008128122,-0.016253963,0.49964213,-1.3763928,1.8976535,-2.089585,-1.5715655,2.475215,-0.07707759,0.07440511,-0.10239417,0.024308596,-0.0104751205,-0.060747515,-0.53630114,0.11492168,-9.615114,0.77545905,47.66091,-1.4044414,-2.408766,-3.2191477,-0.27086502,-0.07084171,-0.43273515,28.875,30.25,29.3125,32.9375,35.375,36.5
0.13805212,-2.2658386,-0.15572311,-1.9818867,-0.015737943,0.07963004,-0.14745791,-0.39340264,-0.36739355,0.05994037,-3.0773544,0.62559325,-0.0002829367,-0.06305932,0.015963236,0.0034091074,0.008363553,0.007228701,-0.014258948,0.49947402,-1.3762847,1.8974742,-2.0895374,-1.5715774,2.4750574,-0.078187175,0.07460462,-0.10189303,0.024933206,-0.011030282,-0.06385125,-0.5554548,0.076614454,-9.500193,0.78888994,47.672558,-1.3129252,-2.3495264,-3.4048736,-0.2290419,-0.06724191,-0.4423017,28.875,30.25,29.3125,32.9375,35.375,36.5
0.14005245,-1.3441954,-0.274233,-1.9512489,0.0012125585,0.10125838,-0.14080483,-0.3935356,-0.36737633,0.059948806,-3.077356,0.6256117,-0.00024392769,-0.064515986,0.016560229,0.003382321,0.009165237,0.007750654,-0.013096745,0.49933004,-1.3761162,1.8972467,-2.0895011,-1.5715898,2.4749248,-0.07991228,0.07624466,-0.103840746,0.02516518,-0.011988692,-0.066735506,-0.5363012,0.0,-9.442732,0.85155696,47.67614,-1.3659503,-2.2792258,-3.324911,-0.2417787,-0.05982707,-0.4540646,28.875,30.25,29.3125,32.9375,35.375,36.5
0.14205201,-1.7165588,-0.21114568,-1.7934102,0.0017916872,0.09264719,-0.14818487,-0.39365953,-0.36733925,0.059946924,-3.0773475,0.6255707,-0.00024690744,-0.06627444,0.018205663,0.0033796127,0.0088002,0.007812692,-0.014431555,0.4991608,-1.3759596,1.8970546,-2.0894535,-1.5716017,2.4747312,-0.084449485,0.076445475,-0.10402739,0.024915112,-0.011702353,-0.069938354,-0.61291564,0.0,-9.481039,0.82694155,47.707485,-1.295888,-2.3252237,-3.4247088,-0.22019827,-0.08151823,-0.44566458,28.875,30.25,29.3125,32.9375,35.375,36.5
0.14405206,-2.2374086,-0.37084666,-1.8862717,-0.0005183126,0.079417676,-0.14455351,-0.39377984,-0.36729237,0.05991578,-3.0772798,0.6255702,-0.00028377128,-0.066577464,0.017591007,0.0034990422,0.009217188,0.008405618,-0.0062785246,0.49899355,-1.3757553,1.8968748,-2.0894172,-1.571638,2.4745724,-0.08325834,0.07767068,-0.10582183,0.025154784,-0.012366515,-0.07689703,-0.53630114,-0.095768064,-9.519346,0.75755644,47.707485,-1.3754177,-2.175439,-3.3965912,-0.19734646,-0.08260454,-0.39508379,28.875,30.25,29.3125,32.9375,35.375,36.5
0.14605188,-1.6614356,-0.73968154,-1.6689984,0.0050436994,0.096201316,-0.13420531,-0.39393798,-0.36724424,0.05995062,-3.0772524,0.62571836,-0.00019278355,-0.06775688,0.018145397,0.0031651924,0.009366496,0.0075290785,-0.0056649805,0.4987892,-1.3756346,1.8966359,-2.0893452,-1.5716738,2.4744642,-0.08542184,0.07962156,-0.107515015,0.025729306,-0.012079227,-0.079674445,-0.51714754,0.05746084,-9.500193,0.784413,47.666286,-1.4000429,-2.2726853,-3.4286551,-0.18904936,-0.09432571,-0.38660783,28.875,30.25,29.3125,32.9375,35.375,36.5
0.14805222,-1.3974429,0.0706359,-1.5878367,-0.017307984,0.10890898,-0.15957116,-0.3940582,-0.36724222,0.059953094,-3.0772877,0.6256275,-0.00019144686,-0.06977452,0.019736953,0.0031181518,0.010175738,0.007656,-0.0042420584,0.4986679,-1.3754538,1.8964075,-2.089309,-1.5716623,2.4742818,-0.08944419,0.08085914,-0.10900931,0.026258742,-0.0128567405,-0.08511726,-0.61291564,0.0,-9.385271,0.800085,47.679718,-1.1339905,-2.2314088,-3.3859823,-0.17077228,-0.06680821,-0.35577697,28.875,30.25,29.3125,32.9375,35.375,36.5
0.1500517,-1.6845211,-0.30165595,-1.7821608,-0.003304965,0.09934571,-0.15538473,-0.3942295,-0.3671744,0.0599727,-3.0772345,0.625726,-7.7932586e-05,-0.07030632,0.0193027,0.0034066117,0.010198247,0.008040143,0.0031900653,0.49844092,-1.3753092,1.8961805,-2.0892608,-1.5717343,2.4741232,-0.089036986,0.08190396,-0.11106677,0.026929336,-0.013066244,-0.09214123,-0.57460845,-0.019153614,-9.461885,0.80679786,47.68599,-1.2855756,-2.3203351,-3.3845983,-0.13913916,-0.08856608,-0.2604642,28.875,30.25,29.3125,32.9375,35.375,36.5
0.15205209,-1.2982785,-0.051738854,-1.6241558,-0.021423228,0.109585166,-0.16397367,-0.39436626,-0.36713544,0.05998302,-3.0772328,0.625668,-1.5406567e-05,-0.07139142,0.02052179,0.003338065,0.0108349295,0.00700801,0.002638085,0.49827215,-1.375165,1.8959774,-2.089224,-1.5717705,2.4739187,-0.09201261,0.08263921,-0.11214298,0.028473396,-0.013130776,-0.09456464,-0.61291564,-0.095768064,-9.346964,0.78217715,47.62688,-1.1654699,-2.2595701,-3.3966217,-0.13356519,-0.10148072,-0.23967597,28.875,30.25,29.3125,32.9375,35.375,36.5
0.15405202,-1.1584122,-0.32049146,-1.6315322,-0.011952226,0.10329898,-0.14997992,-0.39450914,-0.36708745,0.05997648,-3.0771942,0.6256196,-7.618276e-05,-0.072957925,0.021574326,0.003594103,0.011432653,0.0071028527,0.003501744,0.49806747,-1.3749605,1.8957251,-2.0891163,-1.5717825,2.4736888,-0.094826266,0.0835233,-0.1140705,0.029713498,-0.013711533,-0.09823901,-0.5554548,0.019153614,-9.308657,0.7105615,47.696735,-1.0349891,-2.2135973,-3.4718366,-0.12634735,-0.10039786,-0.17506382,28.875,30.25,29.3125,32.9375,35.375,36.5
0.15605217,-1.588807,0.15956838,-1.8516121,-0.018021906,0.07827691,-0.15041387,-0.39465055,-0.3670416,0.059982218,-3.0771828,0.6256557,-2.694272e-05,-0.07351729,0.022852767,0.001958482,0.013448361,0.0037498216,0.0025802148,0.49787524,-1.3748151,1.8955339,-2.089092,-1.5718063,2.4735208,-0.097352,0.086826876,-0.114521086,0.030763073,-0.013879043,-0.099842526,-0.4213795,0.076614454,-9.3661175,0.7284641,47.71017,-1.0104053,-2.3855927,-3.340547,-0.1179701,-0.10448275,-0.15302998,28.875,30.25,29.3125,32.9375,35.375,36.5
0.15805234,-0.8224672,-0.37511966,-1.7220274,-0.008449709,0.07811018,-0.14371896,-0.39481884,-0.3670057,0.05999499,-3.0771744,0.6255969,2.2707245e-05,-0.07571886,0.02324164,0.003967824,0.011785,0.007124726,-0.00039601687,0.49768278,-1.3746115,1.8952469,-2.08902,-1.5718426,2.4732928,-0.099890664,0.08523229,-0.117365345,0.031437214,-0.014032281,-0.099403985,-0.49799395,0.15322891,-9.3661175,0.75084364,47.686886,-0.89239657,-2.1476839,-3.4900918,-0.109123975,-0.09351586,-0.14329909,28.875,30.25,29.3125,32.9375,35.375,36.5
0.16005175,-1.0334498,-0.41228577,-1.6236128,-0.013063087,0.065719604,-0.1479669,-0.39496717,-0.3669591,0.06000666,-3.0771458,0.62563187,6.9706286e-05,-0.07599641,0.02426541,0.0020586743,0.013760359,0.003522407,-0.0048417426,0.4974905,-1.3744543,1.8950199,-2.08896,-1.5718783,2.4731262,-0.101823345,0.08889298,-0.11751797,0.03203431,-0.014044622,-0.09689049,-0.45968673,0.11492168,-9.232041,0.84708,47.67345,-0.8507469,-2.2189498,-3.4483447,-0.06923041,-0.119730756,-0.13502042,28.875,30.25,29.3125,32.9375,35.375,36.5
0.16205236,-0.794812,-0.25107607,-1.7066442,-0.009920106,0.068653345,-0.1508055,-0.39510915,-0.3668993,0.059990443,-3.0770943,0.6256416,3.6704274e-05,-0.07738348,0.02417019,0.0033612188,0.013194013,0.0057065957,-0.009452122,0.4972748,-1.374262,1.8948148,-2.0888999,-1.5719026,2.4729233,-0.102558345,0.08855752,-0.120309606,0.032972943,-0.014594264,-0.09301218,-0.4405331,0.11492168,-9.232041,0.8224646,47.678825,-0.8425544,-2.3004217,-3.358549,-0.06898089,-0.10304935,-0.18147278,28.875,30.25,29.3125,32.9375,35.375,36.5
0.16405255,-0.9820951,-0.033117704,-1.531812,-0.013898341,0.0747042,-0.1438253,-0.3952803,-0.36685336,0.060009763,-3.077057,0.62571275,0.0001109958,-0.078309864,0.024552116,0.0026665195,0.014228687,0.0039042123,-0.015072733,0.49707046,-1.3740808,1.8945392,-2.0888274,-1.5719508,2.4727683,-0.103980355,0.09158808,-0.12265959,0.034368034,-0.01464035,-0.08881254,-0.34476504,0.076614454,-9.212888,0.7463667,47.704796,-0.8359302,-2.2857547,-3.358365,-0.05979023,-0.106159836,-0.220887,28.875,30.25,29.3125,32.9375,35.375,36.5
0.166052,-1.604935,0.000850253,-1.6939582,-0.008552802,0.06478273,-0.14324836,-0.39544287,-0.3668112,0.060028,-3.0770724,0.625793,0.0001386812,-0.078307405,0.02455075,0.0019858147,0.015298425,0.002004854,-0.016884286,0.49684322,-1.3739239,1.8943003,-2.0887792,-1.5719389,2.4725893,-0.10391505,0.09372447,-0.12396896,0.035720877,-0.014671161,-0.08693539,-0.3256114,0.1340753,-9.174581,0.7016076,47.684196,-0.8969147,-2.3497696,-3.3366609,-0.036659088,-0.097025886,-0.2521575,28.875,30.25,29.3125,32.9375,35.375,36.5
0.16805236,-1.3034811,-0.24526979,-1.6124697,-0.017802007,0.07627472,-0.15115416,-0.39559498,-0.3667509,0.060016368,-3.0769715,0.62586653,0.00012572562,-0.08037341,0.023578703,0.0038767806,0.01298931,0.0049299328,-0.017392168,0.49663952,-1.3737077,1.8940481,-2.088683,-1.5719985,2.4724445,-0.10452222,0.09402957,-0.1288542,0.036618583,-0.014049752,-0.08703349,-0.40222588,0.19153613,-9.232041,0.81351066,47.691364,-0.9235108,-2.2099066,-3.336223,-0.049475558,-0.1206,-0.3053357,28.875,30.25,29.3125,32.9375,35.375,36.5
0.17005253,-0.9772763,-0.7775052,-1.6872909,-0.015983874,0.07077381,-0.14077143,-0.39576584,-0.36670914,0.060037978,-3.076984,0.62581074,0.00021421046,-0.079206154,0.025229769,0.0005921762,0.016829073,-0.0015819845,-0.017675644,0.4964354,-1.3735379,1.8937863,-2.0886347,-1.5720347,2.4722042,-0.10602129,0.09811903,-0.12651078,0.03773385,-0.014314378,-0.08824947,-0.24899697,0.11492168,-9.308656,0.8157518,47.655537,-0.9458064,-2.4012818,-3.3532848,-0.05233191,-0.12204008,-0.26967832,28.875,30.25,29.3125,32.9375,35.375,36.5
0.17205209,-0.8744103,-0.73257476,-1.7361768,-0.024058556,0.052404933,-0.14485645,-0.39592287,-0.36666706,0.06001671,-3.0769126,0.6258724,0.00019352583,-0.08115382,0.024877673,0.0027729867,0.015368692,0.0020711687,-0.017755887,0.49624342,-1.373286,1.8935217,-2.0885751,-1.572071,2.47206,-0.106880784,0.09699514,-0.13040665,0.03884058,-0.014782141,-0.089025706,-0.11492168,0.17238252,-9.251195,0.8224646,47.67345,-1.0053396,-2.2875295,-3.2162168,-0.034693,-0.122504056,-0.31310183,28.875,30.25,29.3125,32.9375,35.375,36.5
0.1740519,-1.0491921,-1.1391283,-1.6684643,-0.025329528,0.03698331,-0.13570161,-0.3960904,-0.36659443,0.0600158,-3.0768516,0.6260118,0.00013330809,-0.080830455,0.024413567,0.0014603712,0.017397927,8.519073e-05,-0.016256712,0.49596846,-1.3730928,1.8932694,-2.0884664,-1.5720714,2.47188,-0.105236605,0.1005426,-0.13177654,0.03937469,-0.015629316,-0.088876836,-0.28730422,0.21068975,-9.289502,0.78217715,47.707485,-1.0309486,-2.3562338,-3.3169546,-0.0149275325,-0.12207252,-0.3459077,28.875,30.25,29.3125,32.9375,35.375,36.5
0.17605245,-1.0361379,-0.7064093,-1.7773561,-0.030672455,0.03106457,-0.14150502,-0.3962442,-0.36656332,0.060039554,-3.076863,0.6259961,0.00014587663,-0.083519354,0.025653893,0.0030565325,0.015897766,0.002531894,-0.01960388,0.49577528,-1.372925,1.8929943,-2.0883706,-1.572071,2.4716756,-0.10982613,0.0994422,-0.13427776,0.04010541,-0.015479279,-0.09011905,-0.19153613,0.17238252,-9.251195,0.83589023,47.65464,-1.0478687,-2.3422697,-3.2237244,-0.012562894,-0.13114826,-0.3587417,28.875,30.25,29.3125,32.9375,35.375,36.5
0.17805178,0.031818997,-0.53169405,-1.8625779,-0.024243081,0.053028323,-0.15013276,-0.3964098,-0.36649433,0.060013834,-3.076758,0.6260312,0.00016942988,-0.08326893,0.025155663,0.002218262,0.016839653,0.00023368691,-0.019433174,0.49556014,-1.3726838,1.8927549,-2.0883224,-1.5721549,2.471496,-0.108880796,0.102228224,-0.13602956,0.041530184,-0.015220321,-0.08934336,0.019153614,0.13407528,-9.270349,0.8090337,47.7245,-0.92179346,-2.350289,-3.2078452,-0.021467876,-0.130241,-0.39315584,28.875,30.25,29.3125,32.9375,35.375,36.5
0.18005197,-0.8858545,-0.6916843,-1.9945445,-0.017932625,0.032243464,-0.14186876,-0.3965793,-0.3664305,0.060016785,-3.0766814,0.6261467,0.00015820295,-0.08365989,0.02563307,0.0017719371,0.0181603,-0.0022861713,-0.017235175,0.4953203,-1.3724787,1.8924798,-2.0882137,-1.5721906,2.4713383,-0.11001226,0.10436617,-0.13823086,0.044426512,-0.015191551,-0.092671424,-0.019153614,0.2873042,-9.270349,0.8493211,47.690468,-0.9871559,-2.510253,-3.154734,-0.030988827,-0.16802108,-0.40475997,28.875,30.25,29.3125,32.9375,35.375,36.5
0.18205225,-0.32638666,-0.9028179,-1.8348083,-0.01752506,0.052006986,-0.14896604,-0.3967165,-0.3663793,0.05997759,-3.076605,0.6261659,5.2645853e-05,-0.08444216,0.0258373,0.0015516083,0.018380404,-0.0032114363,-0.01277999,0.49511644,-1.3722259,1.8922518,-2.0881417,-1.5722026,2.4711564,-0.11117144,0.1061174,-0.14006102,0.045410868,-0.0149651915,-0.09828409,0.0,0.24899697,-9.289502,0.80679786,47.674347,-1.0116554,-2.4518695,-3.1350338,-0.048215203,-0.13748178,-0.33790123,28.875,30.25,29.3125,32.9375,35.375,36.5
0.18405274,-0.59399885,-0.89797187,-2.0722077,-0.027051633,0.05149485,-0.15296201,-0.39687854,-0.36634248,0.060013708,-3.0766315,0.6261119,5.1737385e-05,-0.08569872,0.027352022,0.0009161215,0.019971238,-0.004539772,-0.01163346,0.49489975,-1.3720692,1.8919533,-2.0880096,-1.5721911,2.4709027,-0.114333965,0.10795169,-0.14105554,0.046490073,-0.015740614,-0.10259067,0.0,0.28730422,-9.289502,0.8023209,47.689575,-0.9602497,-2.5166252,-3.15337,-0.029945165,-0.16150382,-0.34187728,28.875,30.25,29.3125,32.9375,35.375,36.5
0.18605286,-0.25417447,-0.9392217,-2.1898258,-0.033660494,0.05944009,-0.15091273,-0.39708534,-0.3662659,0.06001936,-3.0765395,0.6261821,0.00017032944,-0.08390463,0.026412934,0.00025491609,0.021333331,-0.007814596,-0.0016759436,0.49464935,-1.3718404,1.8916544,-2.0879486,-1.5722989,2.4707081,-0.11128785,0.10926054,-0.14179352,0.04942101,-0.015390146,-0.10950298,0.019153614,0.34476504,-9.385271,0.79560274,47.6636,-1.0979897,-2.5597138,-3.2107396,-0.05370785,-0.1543172,-0.27874482,28.875,30.25,29.3125,32.9375,35.375,36.5
0.18805201,-0.48908842,-0.80874735,-2.015955,-0.05301148,0.049872346,-0.15664966,-0.39724982,-0.36624455,0.060040418,-3.0765553,0.62610626,0.0001400546,-0.08519063,0.028569043,0.00030051867,0.023171665,-0.010587006,-0.00073485106,0.4944563,-1.371624,1.8913187,-2.087815,-1.572287,2.470466,-0.11584138,0.11005056,-0.14390187,0.054043014,-0.015697861,-0.11499607,0.019153614,0.3256114,-9.3661175,0.784413,47.64121,-1.0357913,-2.4557643,-3.1003902,-0.1136712,-0.15399258,-0.19542372,28.875,30.25,29.3125,32.9375,35.375,36.5
0.19005238,-0.8236518,-1.0178694,-2.0154488,-0.044172127,0.039280847,-0.13820933,-0.39739692,-0.36615753,0.05998504,-3.0764177,0.626093,-1.7288454e-06,-0.08465729,0.027069574,0.00090136996,0.022712298,-0.010948113,0.005987921,0.49420598,-1.3713477,1.8910912,-2.0877068,-1.5723351,2.470225,-0.1131371,0.110687755,-0.14652073,0.05610681,-0.015151646,-0.119012795,-0.05746084,0.28730422,-9.3661175,0.82694155,47.66539,-1.2352641,-2.5010552,-3.3386784,-0.16445819,-0.18747358,-0.14143899,28.875,30.25,29.3125,32.9375,35.375,36.5
0.19205241,-0.70990527,-0.60288507,-2.1292927,-0.041504767,0.035355475,-0.14734377,-0.39758304,-0.36611632,0.060001723,-3.076394,0.62606734,3.179763e-05,-0.0848846,0.028300393,-4.783639e-05,0.024305476,-0.011517576,0.0063243434,0.49398986,-1.3711191,1.890757,-2.0875995,-1.5723714,2.4699962,-0.114654444,0.11134031,-0.1449368,0.055120766,-0.016290301,-0.120863795,-0.05746084,0.21068975,-9.423578,0.80679786,47.682407,-1.1563127,-2.3855877,-3.3887918,-0.16022265,-0.17287329,-0.09506984,28.875,30.25,29.3125,32.9375,35.375,36.5
0.1940526,-0.44359857,-0.43888918,-1.9986795,-0.036245283,0.04283409,-0.14728661,-0.39774537,-0.36609167,0.0600227,-3.076422,0.62605655,1.6787408e-05,-0.08499171,0.02914862,-0.00028732725,0.025064383,-0.014221822,0.0012723175,0.49378547,-1.3709267,1.890458,-2.0875022,-1.5723466,2.4697816,-0.116512336,0.11204232,-0.1459345,0.058160093,-0.015670937,-0.11767134,0.0,0.17238252,-9.461885,0.7553206,47.709274,-1.1248348,-2.3892097,-3.3534555,-0.18232945,-0.20388907,-0.08628439,28.875,30.25,29.3125,32.9375,35.375,36.5
0.196052,-0.005937465,0.1550122,-1.7689435,-0.03332327,0.05175865,-0.14928229,-0.39792153,-0.36602026,0.060018063,-3.0763352,0.62600064,4.0700892e-05,-0.084703304,0.029726345,-0.002304583,0.026813487,-0.01840933,-0.003019452,0.49355772,-1.3706971,1.8901709,-2.087395,-1.572431,2.4695303,-0.117447,0.11575042,-0.14597723,0.059001893,-0.015232235,-0.11431424,-0.076614454,0.11492168,-9.404425,0.8403672,47.661808,-1.1587873,-2.4158297,-3.401394,-0.22724184,-0.196528,-0.13381995,28.875,30.25,29.3125,32.9375,35.375,36.5
0.19805236,-0.19840662,0.69942033,-1.8877101,-0.020780891,0.040112756,-0.15037811,-0.39809307,-0.36594713,0.05999917,-3.0762684,0.6260082,-2.3068853e-05,-0.086678796,0.029374095,0.0006400575,0.023768133,-0.013183922,-0.009322005,0.4932939,-1.370458,1.8899072,-2.0872986,-1.5724548,2.46928,-0.11871765,0.112416156,-0.14873683,0.059052695,-0.015038701,-0.10928133,-0.1340753,0.076614454,-9.346964,0.79560274,47.66808,-1.1544647,-2.3483078,-3.3671818,-0.24946631,-0.20491603,-0.1512276,28.875,30.25,29.3125,32.9375,35.375,36.5
0.20005259,-0.10568734,-0.25291917,-1.8948817,0.017931646,0.05513919,-0.14353839,-0.39825615,-0.3658948,0.059997614,-3.0761929,0.6260534,-0.00011671454,-0.086753055,0.030623073,-0.0020947908,0.027131528,-0.01805393,-0.015073652,0.49306563,-1.370216,1.8895844,-2.0871308,-1.5724672,2.4690897,-0.12042582,0.11757571,-0.14888641,0.05992949,-0.015703093,-0.10523378,-0.19153613,-0.05746084,-9.3661175,0.8537928,47.675243,-1.1510562,-2.464063,-3.5825486,-0.26275882,-0.2322272,-0.22775999,28.875,30.25,29.3125,32.9375,35.375,36.5
0.20205185,-0.46170375,0.31853288,-1.9426835,0.016930217,0.054796454,-0.14342807,-0.39844966,-0.36584517,0.060002357,-3.0761545,0.6261223,-0.00013452319,-0.08866328,0.030513262,-0.00020546543,0.025170388,-0.013956843,-0.019239588,0.49281415,-1.3699644,1.8892497,-2.087024,-1.5724791,2.4688864,-0.12177855,0.11601214,-0.15119566,0.059265636,-0.015925564,-0.10241888,-0.17238252,-0.15322891,-9.385271,0.80456203,47.647476,-1.1119819,-2.3611345,-3.468896,-0.2878278,-0.23120774,-0.26901466,28.875,30.25,29.3125,32.9375,35.375,36.5
0.20405217,-1.0266317,0.3901656,-2.044516,0.013196551,0.059777077,-0.14010601,-0.39861596,-0.36579484,0.060004603,-3.0761154,0.62615335,-0.00016886868,-0.090390846,0.030528964,0.00031228684,0.024258692,-0.012797434,-0.022048332,0.492586,-1.3697476,1.8889617,-2.0869157,-1.5724906,2.4686828,-0.1234707,0.11733748,-0.15397565,0.059263974,-0.015684143,-0.101301216,-0.15322891,-0.095768064,-9.32781,0.78888994,47.674347,-1.1029112,-2.3589334,-3.4600894,-0.28243193,-0.2652979,-0.31153393,28.875,30.25,29.3125,32.9375,35.375,36.5
0.20605251,-0.60306877,-0.26610184,-1.983471,0.008294632,0.09527711,-0.13631836,-0.39877298,-0.36571863,0.059988398,-3.0759923,0.62618583,-0.00026659068,-0.09144661,0.031266846,0.0006129022,0.024724526,-0.012676212,-0.024833264,0.49234584,-1.3695073,1.8886741,-2.086748,-1.5725392,2.468479,-0.12531886,0.117783055,-0.1554757,0.06042674,-0.01616856,-0.10036051,-0.4213795,-0.11492168,-9.442732,0.88960326,47.67614,-1.0491,-2.3141665,-3.4302351,-0.34151107,-0.26743954,-0.3789294,28.875,30.25,29.3125,32.9375,35.375,36.5
0.2080518,-1.169656,-0.5667756,-2.1312375,-0.005800718,0.109667875,-0.13527218,-0.3989833,-0.3656485,0.059994332,-3.075934,0.6263872,-0.0002718801,-0.09427388,0.03223176,0.00013697593,0.024160748,-0.010736433,-0.029972762,0.49204513,-1.3692662,1.8883518,-2.0866535,-1.5725511,2.4683115,-0.12916227,0.12054051,-0.15697841,0.05719407,-0.016604863,-0.099061586,-0.4405331,-0.038307227,-9.500193,0.80679786,47.667187,-1.0208724,-2.2588482,-3.3678668,-0.32316664,-0.27799907,-0.43018544,28.875,30.25,29.3125,32.9375,35.375,36.5
0.21005201,-2.0072246,-0.45316866,-2.1848931,-0.028786473,0.11901051,-0.14675722,-0.39916536,-0.36558068,0.060002875,-3.0758493,0.62632763,-0.0002456363,-0.094470434,0.030529983,0.0017434108,0.023114096,-0.006430497,-0.02643127,0.49181867,-1.3690385,1.8880285,-2.0865104,-1.5726355,2.468059,-0.12573484,0.11921403,-0.15881476,0.056058988,-0.017731955,-0.09917066,-0.5363012,0.076614454,-9.519346,0.85155696,47.655537,-1.161214,-2.229961,-3.4220743,-0.32632738,-0.2889486,-0.46872032,28.875,30.25,29.3125,32.9375,35.375,36.5
0.21205209,-2.5638003,-0.7786844,-2.4902349,-0.042071775,0.12374518,-0.1445799,-0.39934808,-0.36551696,0.05999483,-3.075767,0.62640494,-0.00034040006,-0.095741756,0.03169169,-0.00010589866,0.0244868,-0.010053763,-0.026171505,0.49155417,-1.3687724,1.8876942,-2.0863545,-1.5726479,2.4678535,-0.12907277,0.1239971,-0.16051202,0.05680088,-0.017253796,-0.102767155,-0.7278373,0.15322891,-9.653421,0.8806493,47.67614,-1.004396,-2.3468585,-3.452756,-0.3401811,-0.27826554,-0.49585795,28.875,30.25,29.3125,32.9375,35.375,36.5
0.21405236,-2.1425693,-1.1134235,-2.28096,-0.05234715,0.14962603,-0.15490426,-0.39954296,-0.3654736,0.060027942,-3.075764,0.6264381,-0.00024774432,-0.096220545,0.030515874,0.00082015496,0.022981841,-0.0064775874,-0.01962154,0.4913274,-1.3685807,1.8873714,-2.0862715,-1.5726837,2.467648,-0.12724055,0.12328735,-0.16124147,0.054361574,-0.017629735,-0.10748419,-0.7661445,0.34476504,-9.634268,0.7911258,47.746887,-1.2457786,-2.207726,-3.4185548,-0.35215247,-0.32204545,-0.46841788,28.875,30.25,29.3125,32.9375,35.375,36.5
0.21605171,-2.3464897,-1.264622,-2.3309414,-0.062245514,0.15559854,-0.15720955,-0.39973247,-0.3654045,0.060000904,-3.075667,0.6264713,-0.00032730834,-0.09985791,0.030524602,0.0016012395,0.02108041,-0.0011668054,-0.013831663,0.49106294,-1.3682795,1.8870467,-2.0861528,-1.5727204,2.467417,-0.12993737,0.12524498,-0.16439405,0.049954444,-0.018505568,-0.115964495,-0.7852981,0.2681506,-9.787497,0.82694155,47.647476,-1.2236389,-2.31363,-3.3136482,-0.2995448,-0.3042595,-0.40818062,28.875,30.25,29.3125,32.9375,35.375,36.5
0.21805197,-2.259837,-1.1024243,-2.5226476,-0.07072301,0.15448512,-0.157821,-0.3999131,-0.365365,0.060017645,-3.0756772,0.62652457,-0.00037954265,-0.1020781,0.030073987,0.0027015023,0.019478168,0.0022310002,-0.0062665707,0.49081132,-1.3680631,1.8867234,-2.086034,-1.5726842,2.4671974,-0.13098651,0.12611932,-0.16765268,0.048570424,-0.018725248,-0.12457636,-0.7086837,0.21068975,-9.864111,0.8806493,47.677036,-1.223226,-2.3075137,-3.213345,-0.2659448,-0.33187947,-0.36314785,28.875,30.25,29.3125,32.9375,35.375,36.5
0.22005221,-2.0259497,-1.1952252,-2.4483037,-0.075561136,0.14232883,-0.16135636,-0.40014282,-0.36526966,0.060004003,-3.075588,0.6265028,-0.00028983824,-0.10324482,0.030672997,0.0013853131,0.020481402,0.0017755622,-0.0009956249,0.49051103,-1.3677856,1.8864125,-2.0859864,-1.5727924,2.4668953,-0.1325434,0.12942594,-0.1682085,0.046663463,-0.019418592,-0.1314008,-0.6703765,0.24899697,-9.921572,0.7351769,47.670765,-1.0989256,-2.1855898,-3.3900495,-0.26335406,-0.32693282,-0.25337088,28.875,30.25,29.3125,32.9375,35.375,36.5
0.22205216,-1.927636,-1.1837739,-2.2137625,-0.07737424,0.12564954,-0.15424529,-0.40035638,-0.36522916,0.060042426,-3.0756052,0.6265237,-0.00022200185,-0.10608384,0.031891014,0.0011238653,0.020300666,0.003451728,-0.00079768786,0.4902583,-1.3675686,1.886042,-2.08588,-1.5728048,2.4666536,-0.1366748,0.13183916,-0.17003125,0.04449618,-0.020061547,-0.1357277,-0.842759,0.21068975,-9.672575,0.8247004,47.674347,-1.0828727,-2.3550885,-3.3121526,-0.22378612,-0.3288055,-0.17809296,28.875,30.25,29.3125,32.9375,35.375,36.5
0.22405252,-2.0567322,-1.1000199,-2.279286,-0.063175604,0.107715495,-0.15393133,-0.40057597,-0.36515582,0.060033705,-3.0755403,0.626584,-0.00023408959,-0.106344946,0.030976966,0.00071588525,0.020131012,0.0034905528,0.002663084,0.48995963,-1.3672795,1.8856949,-2.0857837,-1.5728406,2.466401,-0.13537392,0.13410187,-0.17167224,0.043744747,-0.019946812,-0.13788629,-0.80445176,0.30645782,-9.595961,0.8537928,47.690468,-1.1097882,-2.3271852,-3.2037141,-0.19427323,-0.34059396,-0.15015358,28.875,30.25,29.3125,32.9375,35.375,36.5
0.2260519,-1.6356049,-0.94179547,-2.290947,-0.042414565,0.11265006,-0.14737679,-0.40081418,-0.36510146,0.060076404,-3.0755613,0.62656784,-8.578142e-05,-0.107758895,0.030935172,0.00085009803,0.019960392,0.0044765947,0.001059886,0.4896839,-1.3670628,1.8853229,-2.0857127,-1.5728887,2.4661129,-0.13630621,0.1358867,-0.17405221,0.043380152,-0.020254971,-0.13721487,-0.7661445,0.30645782,-9.634268,0.8537928,47.670765,-1.0894535,-2.4009242,-3.2375686,-0.13305473,-0.33866492,-0.122449994,28.875,30.25,29.3125,32.9375,35.375,36.5
0.22805218,-1.4380424,-0.96889895,-2.1552796,-0.034603395,0.1118032,-0.13676588,-0.40104428,-0.36503386,0.060054265,-3.0754933,0.62657785,-3.376339e-05,-0.10806057,0.03189157,0.00051183853,0.02108262,0.0036558358,-0.008098361,0.48940805,-1.3667382,1.8849772,-2.0856764,-1.5729607,2.4658523,-0.13773856,0.13625851,-0.17394082,0.04415318,-0.020846639,-0.1294868,-0.68953013,0.22984336,-9.576807,0.8537928,47.681515,-1.1182123,-2.3568347,-3.4109077,-0.12937856,-0.3584295,-0.20944598,28.875,30.25,29.3125,32.9375,35.375,36.5
0.2300523,-1.4494131,-0.6600966,-2.001332,-0.041200377,0.10406738,-0.14026375,-0.401217,-0.36497387,0.06001664,-3.0754297,0.6265851,-0.00018105519,-0.10769032,0.031899996,-0.0005808175,0.022132128,0.00082735985,-0.011895853,0.48914483,-1.366437,1.8846782,-2.0855682,-1.5729488,2.465602,-0.13760254,0.13868113,-0.17468871,0.045471936,-0.020450884,-0.12555188,-0.49799395,0.22984336,-9.442732,0.8090337,47.70838,-1.1662278,-2.647367,-3.4460707,-0.11999351,-0.35410175,-0.236355,28.875,30.25,29.3125,32.9375,35.375,36.5
0.23205252,-1.7715715,-0.88957816,-1.7223191,-0.02707736,0.07758371,-0.13496651,-0.40149906,-0.36490354,0.06006591,-3.075394,0.62673104,4.0521132e-05,-0.10865121,0.0323479,-0.0015374298,0.02370756,-0.0010882728,-0.015069363,0.48883286,-1.3661836,1.8842472,-2.0854957,-1.5730447,2.465386,-0.13882843,0.14232145,-0.17718211,0.04674424,-0.020930804,-0.12360344,-0.3256114,0.13407528,-9.308656,0.8537928,47.71823,-1.1792334,-2.418212,-3.357317,-0.096901625,-0.3769359,-0.2992772,28.875,30.25,29.3125,32.9375,35.375,36.5
0.23405169,-0.6262718,0.062247362,-1.499885,-0.025309332,0.07599213,-0.15074551,-0.40172732,-0.36484623,0.060070448,-3.0753558,0.6267217,0.00011243649,-0.109461635,0.03251303,-0.00037594867,0.023418518,0.00096172275,-0.015546808,0.48856935,-1.3658959,1.8838767,-2.0854237,-1.5731052,2.4651217,-0.13931574,0.14104335,-0.17846608,0.047350302,-0.021641025,-0.12361102,-0.15322891,-0.076614454,-9.289503,0.7978386,47.729877,-1.2149471,-2.4049392,-3.4275382,-0.060385466,-0.37821722,-0.30692208,28.875,30.25,29.3125,32.9375,35.375,36.5
0.236052,-0.53740263,0.0565848,-1.416853,0.006945862,0.03946905,-0.13673215,-0.40193048,-0.36478293,0.060061045,-3.07534,0.62671804,8.055522e-05,-0.11120392,0.033001903,-0.0001525233,0.02403287,0.0016555897,-0.017549278,0.48828146,-1.3656309,1.8835648,-2.0853517,-1.5731057,2.4648337,-0.14108102,0.14292581,-0.18142843,0.048103333,-0.0225194,-0.123369046,-0.019153614,0.0,-9.078813,0.90750587,47.674347,-1.1811563,-2.4257915,-3.3336816,-0.032856204,-0.37323046,-0.34029445,28.875,30.25,29.3125,32.9375,35.375,36.5
0.23805238,0.4055876,0.6958648,-1.2206697,0.027259044,0.021275967,-0.14535315,-0.40219876,-0.36471635,0.06008319,-3.075287,0.6268793,0.00024696428,-0.11241382,0.034044817,-0.00029620444,0.024387,0.0012954162,-0.019975536,0.48798132,-1.3653424,1.8831586,-2.0853035,-1.5731896,2.4646413,-0.14373355,0.14390673,-0.18241876,0.048580013,-0.022659136,-0.12359602,0.0,-0.095768064,-8.848969,0.8717007,47.72002,-1.2222741,-2.3818426,-3.3120313,-0.0016393887,-0.38062128,-0.36429602,28.875,30.25,29.3125,32.9375,35.375,36.5
0.24005231,1.154151,1.4342145,-0.997751,0.047781494,0.013512296,-0.159178,-0.40241775,-0.36465564,0.06009214,-3.075267,0.62683386,0.00027917526,-0.11244933,0.033826593,-0.001300489,0.026165016,-0.0007214,-0.016981333,0.48770598,-1.3650769,1.882799,-2.0852077,-1.5732259,2.4643404,-0.14293317,0.1471934,-0.18439192,0.049867697,-0.023293136,-0.12578665,0.15322891,-0.17238252,-8.7532015,0.8560339,47.709274,-1.1768684,-2.45261,-3.2365618,0.0044792006,-0.37984133,-0.36536944,28.875,30.25,29.3125,32.9375,35.375,36.5
0.2420523,0.8928594,1.1165147,-1.2049742,0.06707556,-0.0012617626,-0.15217835,-0.40265787,-0.364565,0.060083397,-3.0751789,0.6269678,0.00028177846,-0.11545149,0.035151068,0.0014960556,0.024557954,0.00356792,-0.015250479,0.48736903,-1.3647776,1.882439,-2.085111,-1.573274,2.4640987,-0.14736685,0.14428675,-0.18767257,0.0514854,-0.02390564,-0.13194779,0.30645782,-0.17238252,-8.772355,0.8985519,47.650166,-0.93334556,-2.2981806,-3.1636732,0.04202789,-0.38707292,-0.33364666,28.875,30.25,29.3125,32.9375,35.375,36.5
0.24405248,1.1025604,1.0280238,-1.2565058,0.04816767,0.010466217,-0.1566534,-0.4029107,-0.36451057,0.060107794,-3.0751576,0.62695754,0.00035393995,-0.11661263,0.03523262,0.002623099,0.024697296,0.0049665524,-0.008109473,0.48708156,-1.3644773,1.881997,-2.0849907,-1.5733222,2.4638078,-0.14796,0.1442175,-0.19058971,0.05327091,-0.024699409,-0.13967901,0.30645782,-0.038307227,-8.791509,0.79560274,47.670765,-1.0126538,-2.2906094,-3.2477803,0.041501235,-0.3843624,-0.27011064,28.875,30.25,29.3125,32.9375,35.375,36.5
0.24605182,1.19134,0.22532852,-1.3674922,0.02546221,0.023556627,-0.1453317,-0.4031146,-0.36443666,0.06009344,-3.0750763,0.6268969,0.0002964121,-0.117764086,0.036233973,0.0030272698,0.026426725,0.004086249,-0.0014553064,0.48680565,-1.3641766,1.881637,-2.0848453,-1.5733708,2.4635048,-0.14988399,0.14529087,-0.1936212,0.05678429,-0.025845056,-0.14825025,0.21068975,0.05746084,-8.90643,0.83589023,47.65912,-0.98681986,-2.1682723,-3.085376,0.049354237,-0.3641624,-0.16501728,28.875,30.25,29.3125,32.9375,35.375,36.5
0.24805194,0.5883768,-0.17933202,-1.5618776,-0.012608279,0.030597527,-0.15001783,-0.4033207,-0.3643503,0.060072996,-3.0749836,0.6268544,0.00022201467,-0.11726958,0.03669186,0.002712644,0.028325865,0.0007340819,0.0017979975,0.48650643,-1.3638759,1.8812908,-2.0847008,-1.5734185,2.4631913,-0.15005337,0.1464831,-0.19535677,0.061155498,-0.025974354,-0.15166955,0.05746084,0.15322891,-9.040505,0.83813137,47.674347,-1.1170514,-2.1310856,-3.2400618,0.014732556,-0.36713666,-0.069871426,28.875,30.25,29.3125,32.9375,35.375,36.5
0.25005224,0.4336597,-0.33697107,-1.8051301,-0.046195645,0.057974212,-0.15544131,-0.40354127,-0.36426583,0.06009335,-3.0749085,0.62693304,0.00016792335,-0.115409546,0.037402157,0.0015151021,0.031305145,-0.0043130666,0.003814717,0.48618305,-1.3636235,1.880896,-2.0844958,-1.5734423,2.4629269,-0.14933023,0.14733185,-0.19464473,0.065434866,-0.026254792,-0.15296103,-0.05746084,0.21068975,-9.232041,0.91198283,47.67166,-1.1183128,-2.1495602,-3.2496853,-0.031775247,-0.371997,-0.022424936,28.875,30.25,29.3125,32.9375,35.375,36.5
0.25205266,-0.007304095,-1.1676257,-2.2053592,-0.05218417,0.081422955,-0.1441925,-0.40376824,-0.3641851,0.060066618,-3.074797,0.626893,9.173851e-05,-0.115260445,0.038912065,0.0009195172,0.034688316,-0.007834321,-0.002817191,0.48588318,-1.3632628,1.8804892,-2.0843384,-1.5735034,2.4626167,-0.1508139,0.14858966,-0.19589727,0.07012555,-0.027604986,-0.14780469,-0.15322891,0.2681506,-9.500193,0.8806493,47.661808,-1.0225494,-2.0911121,-3.2179813,-0.059710093,-0.35762808,-0.06828165,28.875,30.25,29.3125,32.9375,35.375,36.5
0.25405177,-0.7299589,-1.3123606,-2.1223342,-0.06559156,0.08709386,-0.15089661,-0.4040106,-0.36411834,0.060089067,-3.0747385,0.62684447,0.00016934019,-0.11515206,0.039976556,0.00018976009,0.037339836,-0.010866907,-0.01025132,0.4856076,-1.3629738,1.8800596,-2.084194,-1.5735878,2.4623187,-0.15185192,0.15022321,-0.19699125,0.073507406,-0.028521787,-0.14140473,-0.17238252,0.30645782,-9.500193,0.7866488,47.693153,-1.1525943,-2.1821156,-3.2870522,-0.117925204,-0.34733826,-0.11041346,28.875,30.25,29.3125,32.9375,35.375,36.5
0.256052,-1.0437286,-1.4682575,-2.1368976,-0.058019213,0.09511689,-0.14083357,-0.404248,-0.36402622,0.060081556,-3.0746367,0.6270008,0.00015313119,-0.11592918,0.04079619,-1.4559643e-05,0.038137447,-0.011981103,-0.018765077,0.48527154,-1.3626732,1.8796891,-2.0840733,-1.5736355,2.4620936,-0.15371239,0.15143806,-0.19836417,0.07502705,-0.02870831,-0.13474877,-0.2681506,0.30645782,-9.557653,0.8403672,47.655537,-1.1167123,-2.1388392,-3.3150964,-0.16791266,-0.33475015,-0.20841862,28.875,30.25,29.3125,32.9375,35.375,36.5
0.25805256,-1.1729335,-1.2655557,-2.680476,-0.047879316,0.07773424,-0.1465403,-0.40444332,-0.3639427,0.06005336,-3.074518,0.62695885,6.1849e-05,-0.11571691,0.042635478,-0.0016895231,0.041517597,-0.017349258,-0.025640786,0.4849953,-1.3623595,1.879342,-2.0839164,-1.573696,2.4618068,-0.15622996,0.15420909,-0.1988204,0.07903606,-0.02920169,-0.13038495,-0.17238252,0.21068975,-9.672575,0.8940802,47.66091,-0.9966384,-2.413378,-3.3926892,-0.23973474,-0.33800077,-0.25373808,28.875,30.25,29.3125,32.9375,35.375,36.5
0.2600516,-0.2968251,-0.84395593,-2.3911283,-0.03971746,0.08121122,-0.13956292,-0.4046887,-0.3638594,0.060059037,-3.0744457,0.6270576,4.9576225e-05,-0.11639943,0.043353684,-0.0035073073,0.043596406,-0.018846987,-0.027462646,0.48465994,-1.3620583,1.8789357,-2.0837739,-1.5737318,2.4615426,-0.15723541,0.1580934,-0.19908524,0.07770291,-0.030361563,-0.12956223,-0.26815057,0.24899697,-9.730036,0.8627467,47.65912,-0.9960736,-2.3107417,-3.49338,-0.25069338,-0.30564284,-0.34879786,28.875,30.25,29.3125,32.9375,35.375,36.5
0.26205188,-1.255399,-1.2549201,-2.3723352,-0.032406498,0.0579959,-0.13160658,-0.40489697,-0.363775,0.060037076,-3.0742745,0.62704325,1.8617942e-05,-0.117169164,0.044208277,-0.0034889455,0.044868816,-0.019643819,-0.033787165,0.48440796,-1.3617216,1.8785414,-2.0835931,-1.5738524,2.4613042,-0.15880491,0.1590259,-0.20074026,0.07971775,-0.031128572,-0.1247999,-0.53630114,0.17238252,-9.672575,0.89631605,47.64121,-0.9972709,-2.3715339,-3.519039,-0.27006522,-0.28701353,-0.40744907,28.875,30.25,29.3125,32.9375,35.375,36.5
0.26405215,-1.3498389,-0.8233501,-2.2373958,-0.01974306,0.05592312,-0.13854715,-0.40513715,-0.36370826,0.06005818,-3.0742683,0.6272131,-2.103636e-05,-0.11717604,0.043202143,-0.003832764,0.044298027,-0.020812087,-0.03334997,0.48406112,-1.3614565,1.8781456,-2.0834615,-1.5738162,2.4610643,-0.15766838,0.16128519,-0.20284802,0.08032695,-0.030094497,-0.12410366,-0.47884035,0.095768064,-9.615114,0.87393653,47.678825,-1.0359062,-2.4578445,-3.474161,-0.34280038,-0.29014927,-0.4843797,28.875,30.25,29.3125,32.9375,35.375,36.5
0.26605234,-0.8684854,0.22529432,-2.122397,-0.02090801,0.0878061,-0.14925092,-0.40539572,-0.36360866,0.060063254,-3.074124,0.62735337,-2.8981333e-06,-0.11809396,0.043955095,-0.004775384,0.04461882,-0.02096813,-0.030557968,0.48372453,-1.3611315,1.877704,-2.0832827,-1.5739125,2.4608343,-0.1594948,0.16311662,-0.20251736,0.078416616,-0.030342516,-0.12871909,-0.22984336,0.019153614,-9.672575,0.8806493,47.67614,-1.0021907,-2.4908228,-3.612008,-0.32296467,-0.290988,-0.48025256,28.875,30.25,29.3125,32.9375,35.375,36.5
0.2680519,-1.1520879,0.1043359,-1.7635006,-0.017072989,0.11246595,-0.142571,-0.40564826,-0.36354247,0.06006065,-3.0740674,0.62737346,-1.4535038e-05,-0.12007527,0.045223612,-0.0056020594,0.046009544,-0.020817393,-0.023693834,0.4834128,-1.3607821,1.877261,-2.0831516,-1.5739492,2.4605427,-0.16244642,0.16610274,-0.20405059,0.07743619,-0.031692594,-0.13852726,-0.22984336,0.0,-9.615114,0.9164598,47.655537,-1.0806496,-2.5926366,-3.623746,-0.34149903,-0.2724499,-0.43966103,28.875,30.25,29.3125,32.9375,35.375,36.5
0.27005246,-0.92220944,-0.022266146,-1.6137269,-0.01841494,0.13609912,-0.1450174,-0.4058874,-0.36345232,0.06006938,-3.0739655,0.6273631,-5.070781e-06,-0.12208271,0.043192733,-0.003180207,0.042640734,-0.014170523,-0.011053284,0.48310202,-1.3604834,1.8768424,-2.0829728,-1.5740331,2.460239,-0.16062708,0.16524981,-0.2079552,0.07468633,-0.031861674,-0.14934468,-0.2873042,-0.038307227,-9.423578,0.83365434,47.64837,-1.1387771,-2.295805,-3.594738,-0.3423233,-0.26724994,-0.34457704,28.875,30.25,29.3125,32.9375,35.375,36.5
0.2720518,-1.4016331,0.19795579,-1.6695803,-0.007927524,0.123716146,-0.141671,-0.4061222,-0.36335516,0.06004173,-3.073833,0.6273474,-2.644209e-05,-0.12535316,0.04205644,-0.001389769,0.039290916,-0.0074742404,-0.0024409592,0.4827908,-1.3601352,1.876458,-2.0828426,-1.574129,2.4599354,-0.16139369,0.165911,-0.21191669,0.07044555,-0.032072373,-0.1587182,-0.36391866,-0.076614454,-9.423578,0.9254084,47.65912,-1.1961716,-2.3919985,-3.4421663,-0.30520663,-0.24366835,-0.23018013,28.875,30.25,29.3125,32.9375,35.375,36.5
0.27405223,-1.3307681,0.34624672,-1.7288644,-0.0026189114,0.1108561,-0.15733299,-0.40637714,-0.3632849,0.06004446,-3.0737946,0.62737435,-6.269966e-05,-0.1261127,0.041269217,-0.0016058163,0.039097715,-0.0069920663,0.0024580066,0.4824555,-1.3597986,1.8760151,-2.082699,-1.5741409,2.4596221,-0.1605924,0.16837497,-0.21429516,0.06981736,-0.03215746,-0.1628132,-0.4213795,-0.15322891,-9.481039,0.83813137,47.703903,-1.2427685,-2.429678,-3.3735824,-0.2881163,-0.24388827,-0.1607451,28.875,30.25,29.3125,32.9375,35.375,36.5
0.27605245,-1.5721384,-0.24728806,-1.7338321,-0.012192314,0.099723145,-0.1396534,-0.40664482,-0.36320838,0.06007183,-3.0737555,0.62736577,6.463022e-05,-0.12949064,0.041323207,-0.00047143968,0.036690522,-0.0005543519,0.0005967856,0.48214293,-1.3595108,1.8755835,-2.0825937,-1.5742248,2.4593096,-0.1630197,0.16878794,-0.21621062,0.06447771,-0.03302934,-0.16337584,-0.63206923,-0.019153614,-9.481039,0.8537928,47.651955,-1.1602553,-2.443238,-3.3322678,-0.24219252,-0.2184389,-0.12066837,28.875,30.25,29.3125,32.9375,35.375,36.5
0.27805176,-1.6859914,-0.7162403,-2.1048949,-0.017825553,0.08843413,-0.14337313,-0.40687925,-0.3631044,0.060036793,-3.0736113,0.6273381,-4.0464027e-05,-0.13243282,0.042125702,0.000563827,0.035295427,0.003950137,-0.006191821,0.48180714,-1.3591392,1.8751763,-2.0824144,-1.5742978,2.4589756,-0.1663148,0.16876554,-0.21794064,0.06158502,-0.033910047,-0.1598731,-0.63206923,0.076614454,-9.461885,0.8537928,47.65464,-1.1986063,-2.3112998,-3.3673627,-0.2110734,-0.18984939,-0.1566489,28.875,30.25,29.3125,32.9375,35.375,36.5
0.28005207,-1.5895455,-0.65205395,-2.0372202,-0.050313003,0.09932792,-0.15050548,-0.40713856,-0.3630091,0.06003497,-3.0735414,0.6274207,-2.5992485e-05,-0.132177,0.041101754,0.00078851765,0.035377286,0.0035319026,-0.011956609,0.4814487,-1.358827,1.874781,-2.0823066,-1.5743455,2.458678,-0.164351,0.16989367,-0.22020344,0.06313631,-0.033775933,-0.15214343,-0.68953013,0.076614454,-9.595961,0.90750587,47.657326,-1.3601236,-2.2918653,-3.4519506,-0.2043611,-0.17943019,-0.22036901,28.875,30.25,29.3125,32.9375,35.375,36.5
0.2820522,-2.12021,-0.8779993,-1.9251103,-0.07306525,0.09685626,-0.16173713,-0.4074173,-0.36295015,0.060064208,-3.0735056,0.6273943,7.087938e-05,-0.13263182,0.041039474,-0.00038296188,0.036259886,0.0023190933,-0.014705371,0.48114908,-1.3584902,1.8742775,-2.082163,-1.5744175,2.4583669,-0.16440378,0.17314018,-0.22135468,0.06251461,-0.033993527,-0.14944643,-0.6512229,0.11492168,-9.595961,0.83589023,47.67345,-1.3639158,-2.2349372,-3.4557133,-0.18679036,-0.14984035,-0.29556873,28.875,30.25,29.3125,32.9375,35.375,36.5
0.28405252,-2.4734666,-1.3528318,-2.0494115,-0.06944745,0.100387156,-0.13614511,-0.40766764,-0.36286873,0.060053013,-3.073426,0.6273578,8.148265e-05,-0.13382319,0.04060277,0.0011323274,0.03345345,0.006310096,-0.016178658,0.48083702,-1.3581432,1.8738588,-2.082044,-1.5744895,2.4580426,-0.164999,0.17108774,-0.22187099,0.060226817,-0.03336682,-0.14856972,-0.5746084,0.21068975,-9.500193,0.8627467,47.677036,-1.5115082,-2.2373405,-3.3991995,-0.11805907,-0.14769453,-0.32187825,28.875,30.25,29.3125,32.9375,35.375,36.5
0.28605193,-1.1221718,-0.9995805,-2.0573123,-0.06706585,0.13265423,-0.15485105,-0.4079287,-0.3627709,0.060038146,-3.073301,0.6274664,6.128838e-05,-0.13581206,0.04115314,0.0023506552,0.03228644,0.0072554583,-0.017870365,0.48048803,-1.3577837,1.8734277,-2.0819,-1.574561,2.457778,-0.1679068,0.1712703,-0.2253377,0.062104575,-0.03279002,-0.14978507,-0.36391866,0.24899697,-9.5385,0.8985519,47.661808,-1.4007785,-2.1416543,-3.4498796,-0.10880014,-0.13928804,-0.3452788,28.875,30.25,29.3125,32.9375,35.375,36.5
0.288052,-1.323397,-0.8680721,-2.1735635,-0.05113745,0.093275,-0.1682292,-0.40824327,-0.3626909,0.060085658,-3.0732918,0.6275812,0.0002328052,-0.13695587,0.041803274,0.0024899382,0.031766523,0.0071055894,-0.020086125,0.48011523,-1.3574835,1.8729371,-2.081804,-1.5746211,2.4574783,-0.17019355,0.17198558,-0.22666933,0.06259063,-0.032250613,-0.1498611,-0.2873042,0.17238252,-9.5385,0.90527004,47.67614,-1.347176,-2.0913196,-3.4608903,-0.0972255,-0.11761309,-0.37296107,28.875,30.25,29.3125,32.9375,35.375,36.5
0.2900524,-1.1359152,-0.5295523,-2.1188889,-0.040753048,0.056661833,-0.14939779,-0.4085328,-0.3625889,0.06007618,-3.0732217,0.6276408,0.00032617568,-0.13793445,0.04352831,0.0016013316,0.032342076,0.0054625995,-0.017258469,0.4797422,-1.3571354,1.8725289,-2.0817554,-1.5747045,2.457152,-0.1739498,0.17318606,-0.22613521,0.06252813,-0.032022618,-0.15644662,-0.22984336,0.19153613,-9.500193,0.8537928,47.66091,-1.2980217,-2.0829172,-3.4831924,-0.0787676,-0.1225473,-0.32631022,28.875,30.25,29.3125,32.9375,35.375,36.5
0.29205263,-0.54674584,-0.051877107,-2.1114385,-0.033264108,0.038748037,-0.1476429,-0.40882716,-0.36252147,0.060096636,-3.073158,0.6276211,0.0004323267,-0.13818121,0.043026846,0.00055900315,0.032906678,0.0040107495,-0.007747191,0.47943047,-1.3567629,1.872002,-2.0816128,-1.5748004,2.4568365,-0.17329179,0.17653023,-0.22780941,0.06234574,-0.031885207,-0.16530004,-0.24899697,0.1340753,-9.423578,0.94331104,47.661808,-1.3149937,-2.0610158,-3.5820599,-0.061159533,-0.09374898,-0.25034183,28.875,30.25,29.3125,32.9375,35.375,36.5
0.2940519,0.30287638,0.03813539,-2.426473,-0.009016213,0.032217674,-0.15607831,-0.40908626,-0.36243948,0.060094893,-3.073114,0.62762666,0.00040720575,-0.1398855,0.04290916,0.0015083143,0.031414956,0.005217071,-0.00087990763,0.47908175,-1.3564267,1.8715714,-2.0814807,-1.5748247,2.4564972,-0.17491305,0.1772975,-0.23110873,0.06306755,-0.031158537,-0.17378964,-0.019153614,0.019153614,-9.557653,0.7978386,47.690468,-1.1837008,-2.0769215,-3.4930024,-0.014154594,-0.10040835,-0.12571523,28.875,30.25,29.3125,32.9375,35.375,36.5
0.29605207,-0.47614342,-0.466896,-2.1194322,-0.010696757,0.010320337,-0.13800788,-0.40935507,-0.3623426,0.060084708,-3.073039,0.6275714,0.00038688048,-0.13987137,0.043621704,-5.391415e-05,0.032333866,0.00049813424,0.0002250793,0.47872117,-1.356066,1.8711275,-2.0813358,-1.5748838,2.4561121,-0.17679222,0.18063465,-0.23215286,0.06534791,-0.029820653,-0.17677738,-0.05746084,0.019153614,-9.576807,0.90527004,47.65464,-1.1429186,-2.3167477,-3.4996958,-0.007526342,-0.10329154,-0.082368,28.875,30.25,29.3125,32.9375,35.375,36.5
0.29805183,0.06682393,-0.44928616,-2.0127962,-0.023784652,0.035113532,-0.14587201,-0.40965417,-0.36227095,0.06011405,-3.0729642,0.62769294,0.000467279,-0.14067811,0.044358537,-0.00078785245,0.03294648,-0.0031522384,-0.0049216594,0.47838444,-1.355705,1.8705882,-2.0811675,-1.5749558,2.4558613,-0.17929812,0.18371253,-0.23498754,0.068611875,-0.02867769,-0.17414081,-0.15322891,0.11492168,-9.461885,0.85826975,47.660015,-1.1506922,-2.2981815,-3.5659714,-0.0020243016,-0.10460935,-0.0357641,28.875,30.25,29.3125,32.9375,35.375,36.5
0.30005217,-0.38392624,-0.2112565,-2.0137274,-0.03199392,0.03956376,-0.14614047,-0.40993506,-0.3621507,0.060098685,-3.072858,0.6277532,0.00043292737,-0.1420335,0.045719653,-0.0006037186,0.033219088,-0.0056966674,-0.015474194,0.47797507,-1.355345,1.8701566,-2.0810225,-1.5750154,2.4555037,-0.18319426,0.18507619,-0.23802254,0.07267122,-0.027746003,-0.16748562,-0.11492168,0.095768064,-9.423578,0.8985519,47.651955,-1.0174693,-2.3801346,-3.4553516,-0.01876485,-0.10898192,-0.108468026,28.875,30.25,29.3125,32.9375,35.375,36.5
0.30205238,0.13160914,0.048263162,-1.8167664,-0.03150678,0.062205583,-0.15525286,-0.41021895,-0.36206135,0.060103312,-3.0727835,0.6277999,0.00045351652,-0.14051893,0.046602376,-0.0023078972,0.035578534,-0.012276789,-0.023522533,0.47761497,-1.3549845,1.8696789,-2.0808766,-1.575075,2.4551828,-0.18380657,0.18728879,-0.23791614,0.07728969,-0.026794557,-0.16005318,-0.05746084,0.05746084,-9.423578,0.8985519,47.653748,-1.0937212,-2.4012325,-3.4457598,-0.059244424,-0.1340619,-0.18518497,28.875,30.25,29.3125,32.9375,35.375,36.5
0.30405262,-0.48860642,-0.45089674,-1.5595002,-0.012300357,0.054148126,-0.14134237,-0.41046885,-0.3619962,0.0601005,-3.0727236,0.6278831,0.00042786042,-0.13978279,0.046104047,-0.001535433,0.03600272,-0.014173771,-0.025729695,0.47730327,-1.3546367,1.8692359,-2.0807436,-1.5750989,2.454931,-0.18252541,0.18695109,-0.24037197,0.08196463,-0.026297826,-0.15656568,-0.22984336,0.11492168,-9.270349,0.8605109,47.705692,-1.0273287,-2.3533676,-3.5389252,-0.11344741,-0.12617663,-0.25918397,28.875,30.25,29.3125,32.9375,35.375,36.5
0.30605176,-0.4793372,0.035837043,-1.5040092,-0.005819924,0.05307713,-0.14651872,-0.41074693,-0.3618801,0.060081225,-3.0725973,0.62788,0.00039067422,-0.14024654,0.046681885,-0.0013769277,0.036168903,-0.016468259,-0.033272874,0.47691882,-1.3542529,1.8687791,-2.0805752,-1.5751828,2.4545615,-0.18432043,0.18786244,-0.24268582,0.08548121,-0.025396384,-0.15081866,-0.24899697,0.076614454,-9.251195,0.9254084,47.661808,-0.99643475,-2.4693897,-3.4685063,-0.14869797,-0.13814214,-0.34642035,28.875,30.25,29.3125,32.9375,35.375,36.5
0.30805197,-0.5474343,-0.09192308,-1.6305226,0.01252676,0.045139294,-0.15262865,-0.41103232,-0.36181158,0.06009773,-3.0725336,0.6280212,0.00037854546,-0.14007406,0.046924047,-0.0011388932,0.036793567,-0.018593712,-0.036489163,0.4765708,-1.353881,1.8682522,-2.080394,-1.5752062,2.4543102,-0.18470281,0.1882215,-0.24454665,0.08915729,-0.024977382,-0.14798567,-0.26815057,0.076614454,-9.270349,0.88960326,47.66271,-1.0299914,-2.2904103,-3.445026,-0.20707007,-0.14480612,-0.4464206,28.875,30.25,29.3125,32.9375,35.375,36.5
0.3100523,-0.74903286,-0.3035753,-1.373337,-0.0027139222,0.04572026,-0.14976932,-0.41131088,-0.36170298,0.060091622,-3.072441,0.62796104,0.00038359978,-0.14072844,0.046180874,-0.0006351181,0.036721576,-0.018681237,-0.033612866,0.476199,-1.3535211,1.8677968,-2.080238,-1.5752901,2.4539132,-0.183951,0.18989085,-0.24821785,0.09117271,-0.024905043,-0.15010779,-0.38307226,0.038307227,-9.155427,0.8784135,47.65912,-1.1240219,-2.2370913,-3.3088675,-0.26197922,-0.14856327,-0.4832616,28.875,30.25,29.3125,32.9375,35.375,36.5
0.31205255,-1.1423223,-0.06384017,-1.2987918,-0.015958816,0.054585785,-0.14931685,-0.4116024,-0.36160195,0.060087796,-3.0723124,0.62815523,0.00026906465,-0.13968158,0.045132533,-0.0009825246,0.037357666,-0.019874629,-0.020250417,0.4757922,-1.353113,1.8672589,-2.0799983,-1.5753139,2.4536448,-0.18110994,0.19098005,-0.24903995,0.092196815,-0.024989728,-0.16062598,-0.4213795,0.11492168,-9.174581,0.9298854,47.66987,-1.364383,-2.141253,-3.3705146,-0.29825866,-0.15219092,-0.42014527,28.875,30.25,29.3125,32.9375,35.375,36.5
0.31405193,-1.0738574,-0.67680377,-1.3271642,-0.004844501,0.08501644,-0.15038256,-0.4118957,-0.3615166,0.06010341,-3.0722659,0.6281198,0.00031148773,-0.13965613,0.044381868,-0.00021923472,0.03653351,-0.018556165,-0.008795849,0.47543243,-1.3527534,1.8667544,-2.0798428,-1.575374,2.4532692,-0.17975311,0.1902756,-0.24999277,0.09223942,-0.024911616,-0.17072397,-0.45968673,0.038307227,-9.155427,0.8940802,47.688675,-1.4847419,-2.0820353,-3.3588884,-0.28954417,-0.16891393,-0.3563545,28.875,30.25,29.3125,32.9375,35.375,36.5
0.3160518,-1.2573512,-0.4737149,-1.3130138,-0.02848472,0.10472668,-0.15096846,-0.4121602,-0.36143595,0.060105372,-3.072178,0.6281918,0.00022814897,-0.14137495,0.04467112,1.8533863e-05,0.03549347,-0.016953455,-0.0007763952,0.47508386,-1.3523815,1.8662523,-2.0796278,-1.5753983,2.4529774,-0.18167686,0.191369,-0.25159,0.09078322,-0.024788162,-0.18066527,-0.24899697,0.038307227,-9.136273,0.8851263,47.667187,-1.4131398,-2.1405423,-3.2900214,-0.32825196,-0.1887276,-0.19879669,28.875,30.25,29.3125,32.9375,35.375,36.5
0.31805202,-1.6114405,-1.0661734,-1.1679467,-0.035394758,0.10750071,-0.15250453,-0.41245234,-0.36133167,0.06009497,-3.0720909,0.62813467,0.00015559189,-0.1451031,0.04489128,0.00025476978,0.033601247,-0.012345452,0.00067124516,0.474687,-1.3519727,1.8657368,-2.079426,-1.575447,2.4525566,-0.1848324,0.19426732,-0.25460386,0.08589744,-0.025275735,-0.1852622,-0.24899697,0.076614454,-9.193734,0.8537928,47.703903,-1.4343292,-2.15889,-3.414722,-0.28023124,-0.18404369,-0.13779521,28.875,30.25,29.3125,32.9375,35.375,36.5
0.3200522,-1.9172103,-1.1930493,-1.196199,-0.033457607,0.08270745,-0.14472693,-0.41276526,-0.36125275,0.06011332,-3.0720537,0.6281678,0.00021175797,-0.14647117,0.045712505,-0.00041585413,0.034230474,-0.0119538475,-0.0037007483,0.4743143,-1.3515884,1.8651985,-2.079283,-1.5754946,2.4522097,-0.1867878,0.19636354,-0.25536504,0.08449792,-0.02601833,-0.18284157,-0.4213795,0.11492168,-9.059659,0.8537928,47.694946,-1.3396189,-2.1143699,-3.3842793,-0.2951382,-0.19191998,-0.14303158,28.875,30.25,29.3125,32.9375,35.375,36.5
0.3220517,-1.2278616,-0.56632847,-1.3544964,-0.041089777,0.0833453,-0.15344706,-0.41302684,-0.36112988,0.060072333,-3.07189,0.6281942,0.00014421831,-0.14861564,0.045406714,-0.0006954157,0.032169044,-0.007895137,-0.011362113,0.47394207,-1.3511921,1.8647784,-2.07913,-1.5755905,2.4518757,-0.1879781,0.19820412,-0.25566217,0.07840705,-0.02606052,-0.17636648,-0.4213795,0.17238252,-9.251195,0.8627467,47.681515,-1.4044504,-2.156217,-3.3755221,-0.20875093,-0.17835957,-0.1968022,28.875,30.25,29.3125,32.9375,35.375,36.5
0.32405195,-1.1983846,-0.66092014,-1.541926,-0.035732165,0.06846151,-0.1547092,-0.41338414,-0.3610362,0.060115688,-3.0718486,0.6283027,0.00028169854,-0.15066889,0.044733662,0.0005067894,0.030303732,-0.0033050037,-0.017595185,0.47352192,-1.3508083,1.8641809,-2.0789745,-1.5756625,2.451529,-0.1881993,0.19851415,-0.2582376,0.07574478,-0.026482152,-0.17035295,-0.30645782,0.1340753,-9.289502,0.85155696,47.655537,-1.3702476,-2.0791113,-3.494879,-0.15513423,-0.18997006,-0.27739915,28.875,30.25,29.3125,32.9375,35.375,36.5
0.32605216,-1.0362955,-0.8366221,-1.6214498,-0.044323362,0.060300633,-0.159862,-0.4136249,-0.36095375,0.060079746,-3.0717623,0.6282296,0.00011482452,-0.15266526,0.04570893,-0.00039242458,0.030947506,-0.0027935514,-0.023015266,0.47318497,-1.3503997,1.8637255,-2.0787842,-1.5756754,2.451158,-0.1909176,0.20164807,-0.25963497,0.07385209,-0.027315516,-0.16764209,-0.21068975,0.24899697,-9.289502,0.91198283,47.65912,-1.2464633,-2.0372748,-3.5329113,-0.13084379,-0.19327384,-0.32566583,28.875,30.25,29.3125,32.9375,35.375,36.5
0.32805258,-1.2293504,-0.97955143,-1.4545017,-0.062189043,0.057663757,-0.16120157,-0.41396427,-0.36085245,0.06009001,-3.0716643,0.62838364,0.00019339629,-0.15561655,0.046891604,0.0006533305,0.030230006,0.0010548637,-0.026776856,0.47277573,-1.3499805,1.8631629,-2.0786407,-1.5757598,2.450858,-0.19457558,0.20173405,-0.2618083,0.07216641,-0.028444253,-0.16753188,-0.34476504,0.3256114,-9.193734,0.86945957,47.689575,-1.23944,-1.9734888,-3.5688467,-0.08382284,-0.18498471,-0.3646103,28.875,30.25,29.3125,32.9375,35.375,36.5
0.33005178,-0.41110808,-0.93350846,-1.5585483,-0.053444132,0.07558201,-0.16851257,-0.41425297,-0.3607591,0.06008006,-3.0715768,0.62849903,9.4322866e-05,-0.15567143,0.047538042,0.00033883497,0.030992512,-0.0022285758,-0.027827239,0.47237912,-1.349572,1.8626474,-2.078447,-1.5757712,2.4505453,-0.19604094,0.20312671,-0.26369566,0.07591422,-0.027645864,-0.16794825,-0.21068975,0.22984336,-9.308657,0.99702406,47.693153,-1.1220031,-2.0444696,-3.4736695,-0.088994294,-0.18159702,-0.40688285,28.875,30.25,29.3125,32.9375,35.375,36.5
0.33205232,-0.55431366,-0.66137505,-1.7865406,-0.04808245,0.06844552,-0.16559951,-0.41454184,-0.36066407,0.060043726,-3.0714693,0.62843376,9.560669e-05,-0.15718031,0.04751396,8.505025e-05,0.029722802,-0.0020939214,-0.021875916,0.47203085,-1.3491277,1.8621682,-2.0783403,-1.5758666,2.4501708,-0.19777292,0.20547299,-0.26582882,0.07493567,-0.02663163,-0.17563447,-0.22984336,0.24899697,-9.404425,0.8605109,47.652847,-1.1196274,-2.1991637,-3.5310946,-0.07348749,-0.207091,-0.34253708,28.875,30.25,29.3125,32.9375,35.375,36.5
0.33405167,-1.0415641,-0.8285057,-1.7078896,-0.067674495,0.07827782,-0.1701767,-0.41489395,-0.36057648,0.060076572,-3.07147,0.6284853,0.00017203738,-0.15883416,0.048328094,-7.337089e-05,0.02954873,-0.0026761107,-0.013536991,0.47159797,-1.3487313,1.8615812,-2.0781968,-1.5758909,2.4497702,-0.20059666,0.20752908,-0.2681827,0.07559915,-0.026258232,-0.18679972,-0.2873042,0.21068975,-9.461885,0.9231726,47.66808,-1.079077,-2.2456055,-3.5933404,-0.03625658,-0.23228408,-0.24943095,28.875,30.25,29.3125,32.9375,35.375,36.5
0.33605257,-1.0312362,-1.0587274,-1.6303403,-0.05240476,0.08409488,-0.16979977,-0.41518137,-0.36045724,0.060060166,-3.07132,0.62840974,0.00015023738,-0.15940239,0.048353866,-0.0013259283,0.03253236,-0.006862642,-0.0044743745,0.47122625,-1.3483216,1.8610762,-2.0779912,-1.5760111,2.4493713,-0.20048974,0.21310417,-0.27315137,0.08000185,-0.027079487,-0.19574612,-0.38307226,0.19153613,-9.404425,0.8918391,47.686886,-1.1349347,-2.3305297,-3.4518502,-0.05047857,-0.2318865,-0.14549525,28.875,30.25,29.3125,32.9375,35.375,36.5
0.3380519,-1.9830669,-0.9017493,-2.0755563,-0.022958517,0.066790715,-0.15334438,-0.4155081,-0.36037737,0.060065705,-3.0713263,0.6284297,0.00013342715,-0.16105896,0.04709021,-9.690403e-05,0.030619062,-0.0029955017,-0.0031469746,0.47080663,-1.3479019,1.8605255,-2.07786,-1.5759991,2.4489636,-0.19958588,0.21385553,-0.27656418,0.07833871,-0.02715043,-0.19616812,-0.49799395,0.21068975,-9.385271,0.8179876,47.66808,-1.1251366,-2.3378673,-3.264217,-0.031373747,-0.24810907,-0.088252924,28.875,30.25,29.3125,32.9375,35.375,36.5
0.34005213,-1.9829296,-0.66398126,-1.9406803,-0.014601291,0.08557536,-0.15466705,-0.4158182,-0.36029547,0.060053464,-3.0712411,0.6284726,0.00010162193,-0.16019604,0.04688934,-0.00053452834,0.031348195,-0.0052423696,-0.00944037,0.47043455,-1.3474458,1.8599628,-2.0776927,-1.5760473,2.4486299,-0.19859344,0.21464527,-0.27708152,0.080417804,-0.026766177,-0.1888827,-0.6512228,0.21068975,-9.423578,0.8537928,47.675243,-1.2639271,-2.40357,-3.3629599,0.0025532697,-0.26391584,-0.1233343,28.875,30.25,29.3125,32.9375,35.375,36.5
0.34205252,-1.386918,-0.14284046,-1.5755359,-0.027309401,0.110113665,-0.15471372,-0.41614375,-0.3602073,0.060049217,-3.07118,0.62850225,0.00010921502,-0.15927485,0.047330458,-0.0015217602,0.033563066,-0.008882205,-0.017377237,0.4700389,-1.3470017,1.8594011,-2.0775473,-1.576095,2.448261,-0.198201,0.21630697,-0.27765045,0.0835999,-0.02706419,-0.18055068,-0.6703765,0.1340753,-9.423578,0.947788,47.65643,-1.4229496,-2.4529352,-3.4686372,-0.0016045654,-0.2841853,-0.19886099,28.875,30.25,29.3125,32.9375,35.375,36.5
0.34405178,-1.4617983,-0.50739604,-1.5848652,-0.019891726,0.10571,-0.15305741,-0.4164639,-0.36010918,0.06006098,-3.0710874,0.6285443,0.00015488814,-0.15897731,0.049429245,-0.0023068585,0.036825564,-0.012708134,-0.026203498,0.4696542,-1.346594,1.8588394,-2.0773666,-1.5761799,2.447915,-0.20058732,0.21689013,-0.2776005,0.087869085,-0.028218519,-0.17410365,-0.5363012,0.21068975,-9.3661175,0.9321212,47.67614,-1.4745891,-2.3654287,-3.6051257,-0.038155667,-0.2779234,-0.2887131,28.875,30.25,29.3125,32.9375,35.375,36.5
0.34605235,-1.0076827,0.04513976,-1.5229356,-0.027473113,0.09036616,-0.16463597,-0.41676375,-0.3600029,0.060016185,-3.070953,0.62859493,5.930125e-05,-0.15895739,0.04979329,-0.0028300576,0.03849507,-0.016564272,-0.03230826,0.46925813,-1.3461133,1.8583225,-2.0772088,-1.5762395,2.4475687,-0.20117973,0.21946405,-0.28068516,0.09258245,-0.02796794,-0.16858824,-0.4405331,0.095768064,-9.442732,0.8403672,47.666286,-1.4823887,-2.4287913,-3.600208,-0.080038376,-0.29719493,-0.38362014,28.875,30.25,29.3125,32.9375,35.375,36.5
0.3480518,-0.50474024,-0.25928566,-1.4843215,-0.0076746736,0.06361697,-0.16161057,-0.41711763,-0.35990947,0.06004385,-3.070898,0.6286995,0.00013959967,-0.15764104,0.050231792,-0.003325399,0.040568538,-0.020838114,-0.034083888,0.46883819,-1.3456933,1.8577121,-2.07704,-1.5762995,2.4472215,-0.20067342,0.22009753,-0.28151274,0.097517185,-0.027876811,-0.16630736,-0.3256114,-0.095768064,-9.3661175,0.8224646,47.666286,-1.4844282,-2.4363306,-3.4716024,-0.13260534,-0.3075202,-0.49262083,28.875,30.25,29.3125,32.9375,35.375,36.5
0.35005182,-0.43534076,-0.21735382,-1.589597,0.0096868435,0.029295146,-0.15067966,-0.41744557,-0.35979939,0.060021978,-3.0707731,0.6288251,6.2751686e-05,-0.15888306,0.05121201,-0.0015721217,0.04119312,-0.020114418,-0.03346333,0.4684056,-1.3452146,1.8571371,-2.0768468,-1.5763477,2.4468842,-0.20263271,0.21872273,-0.28488603,0.10187111,-0.02880138,-0.16887869,-0.28730422,-0.05746084,-9.32781,0.86945957,47.650166,-1.4208851,-2.271863,-3.5578895,-0.1902375,-0.33245122,-0.49775353,28.875,30.25,29.3125,32.9375,35.375,36.5
0.35205188,0.3841863,0.88610196,-1.9302816,0.03247178,0.021357717,-0.16803432,-0.4177839,-0.35972145,0.06005118,-3.0707417,0.62892747,6.831463e-05,-0.16050433,0.05215017,-0.0011776374,0.042720813,-0.020195527,-0.02396877,0.4679968,-1.3447943,1.8565143,-2.0766428,-1.5763606,2.4465437,-0.20455317,0.22038072,-0.28845218,0.10446876,-0.03019515,-0.18028459,-0.17238252,-0.076614454,-9.232041,0.94331104,47.640312,-1.3506582,-2.2269254,-3.4953914,-0.22732103,-0.32822502,-0.4081607,28.875,30.25,29.3125,32.9375,35.375,36.5
0.35405222,0.42427012,1.3874121,-1.9530051,0.047510523,0.025899734,-0.1749804,-0.41808918,-0.35958648,0.06001037,-3.0705376,0.62887704,1.0068754e-05,-0.16113944,0.052626,-0.0013448272,0.04378609,-0.021657236,-0.012124437,0.46760067,-1.3443142,1.8559755,-2.0764263,-1.5765046,2.4461434,-0.20549642,0.22213237,-0.29079804,0.1067387,-0.030588193,-0.19306485,-0.038307227,-0.1340753,-9.346964,0.89631605,47.684196,-1.3525417,-2.2913156,-3.339115,-0.269628,-0.32281405,-0.30843866,28.875,30.25,29.3125,32.9375,35.375,36.5
0.35605237,-0.36027682,0.6679147,-1.6546663,0.029183468,0.03984414,-0.15604371,-0.41841248,-0.3594942,0.060030233,-3.0704944,0.62886137,-5.7675796e-05,-0.16315949,0.052758846,-0.00036641213,0.04270037,-0.020315865,-0.0051629525,0.46718055,-1.3438945,1.8553637,-2.0761745,-1.576516,2.4457195,-0.20743272,0.2232223,-0.29465416,0.10775166,-0.030297868,-0.20196165,-0.076614454,-0.05746084,-9.385271,0.8627467,47.705692,-1.3273015,-2.3373065,-3.3336365,-0.3075013,-0.34213895,-0.18130347,28.875,30.25,29.3125,32.9375,35.375,36.5
0.35805258,-1.0906907,-0.47177035,-1.5398886,-0.0025911792,0.06109219,-0.16127832,-0.4187261,-0.3593553,0.060010646,-3.0703247,0.6289247,-0.00015648072,-0.16561441,0.05376991,-0.00054294907,0.041953653,-0.01886099,-0.008732925,0.4667351,-1.3434501,1.854812,-2.0759246,-1.5766,2.4453363,-0.21099982,0.22528625,-0.29640925,0.105778,-0.030339595,-0.20195366,-0.11492168,-0.1340753,-9.289502,0.85826975,47.681515,-1.1014788,-2.326324,-3.2887077,-0.32194757,-0.3538956,-0.13917062,28.875,30.25,29.3125,32.9375,35.375,36.5
0.3600518,-1.3144729,-1.0565904,-1.9317605,-0.02752375,0.090137035,-0.147562,-0.41908443,-0.35926893,0.060036562,-3.0702627,0.6289186,-0.00013370403,-0.16957267,0.054663014,0.00024383015,0.04030892,-0.013926382,-0.020199765,0.46632555,-1.3429817,1.8541301,-2.0756862,-1.5766605,2.4449315,-0.2151846,0.22700149,-0.29954675,0.10207486,-0.031089693,-0.19466487,-0.19153613,-0.15322891,-9.3661175,0.9164598,47.690468,-0.96328676,-2.4599423,-3.2573946,-0.3071248,-0.35034275,-0.178759,28.875,30.25,29.3125,32.9375,35.375,36.5
0.36205202,-1.4212221,-1.4645547,-2.000723,-0.050628413,0.1106174,-0.16098851,-0.41935918,-0.3591348,0.059976686,-3.0700572,0.62887776,-0.00031212516,-0.16928555,0.056204896,-0.00219918,0.042375077,-0.016220678,-0.028173072,0.4659289,-1.3425013,1.8536285,-2.0754478,-1.5767568,2.444537,-0.21685645,0.22924551,-0.29625234,0.099524856,-0.031926654,-0.18835223,-0.19153613,-0.038307227,-9.634268,0.94331104,47.660015,-0.8434371,-2.4173617,-3.2932358,-0.30192268,-0.3576154,-0.26425683,28.875,30.25,29.3125,32.9375,35.375,36.5
0.36405224,-1.8068708,-1.8615729,-1.9887823,-0.07739065,0.10751721,-0.16587614,-0.41974613,-0.35903752,0.060008943,-3.0700302,0.6290468,-0.00027386937,-0.1722978,0.055945896,-0.0015201533,0.039905656,-0.008636603,-0.03335717,0.46544877,-1.3420455,1.8529581,-2.0752594,-1.5767692,2.4441662,-0.21801841,0.22967643,-0.29664382,0.09161162,-0.033134602,-0.18432285,-0.24899697,0.095768064,-9.615114,0.842603,47.684196,-0.9941565,-2.4461021,-3.531344,-0.22369964,-0.36320117,-0.32359976,28.875,30.25,29.3125,32.9375,35.375,36.5
0.36605227,-2.3765075,-1.5111791,-1.8798449,-0.10217622,0.09429014,-0.17015302,-0.42005295,-0.3589415,0.059988644,-3.0698984,0.62898016,-0.00032021623,-0.17273602,0.05548235,-0.0016505268,0.04063275,-0.0073800003,-0.033833794,0.4650892,-1.341566,1.852372,-2.0750434,-1.5768656,2.4437828,-0.21670708,0.23110661,-0.2979798,0.0907069,-0.034373466,-0.18252283,-0.38307226,0.19153613,-9.672575,0.95002913,47.677036,-1.106643,-2.290513,-3.7136116,-0.20240663,-0.35062194,-0.38530082,28.875,30.25,29.3125,32.9375,35.375,36.5
0.36805245,-1.1274387,-1.6079727,-1.9179088,-0.08909948,0.12154688,-0.17419825,-0.4204093,-0.35882998,0.05999377,-3.0698264,0.62911415,-0.0002913477,-0.1748417,0.054018006,-0.0012325683,0.039258916,-0.0017173872,-0.028581124,0.4646338,-1.3411213,1.8517846,-2.0748904,-1.5769142,2.443421,-0.21502471,0.23331818,-0.3005074,0.08530441,-0.03573223,-0.18608297,-0.38307226,0.24899697,-9.481039,0.9365982,47.655537,-1.1940913,-2.4621274,-3.6258602,-0.13953996,-0.37782598,-0.38891363,28.875,30.25,29.3125,32.9375,35.375,36.5
0.3700517,-1.4343951,-1.2154441,-2.2373695,-0.04651297,0.072908595,-0.16253856,-0.4207824,-0.3587015,0.060001284,-3.0697272,0.62918216,-0.00022046962,-0.1761721,0.054242514,-0.00088423974,0.03995243,7.193628e-06,-0.018716548,0.46416563,-1.3406651,1.8511742,-2.0747225,-1.577011,2.4430087,-0.21543004,0.234471,-0.30273524,0.08505527,-0.037193615,-0.19634254,-0.21068975,0.2681506,-9.5385,0.93436235,47.674347,-1.2034917,-2.4900994,-3.5841312,-0.09414405,-0.34069574,-0.3067366,28.875,30.25,29.3125,32.9375,35.375,36.5
0.37205186,-0.8441033,-0.5067885,-2.1697812,-0.039190996,0.06497228,-0.16376759,-0.42110905,-0.35861498,0.059966728,-3.0696647,0.62924016,-0.00023592688,-0.17790285,0.053880822,0.00015287225,0.039409943,0.0025087856,-0.009305198,0.46376967,-1.3401736,1.8506345,-2.0746381,-1.5770468,2.4426575,-0.21567304,0.23542155,-0.3063843,0.08519483,-0.037898794,-0.20599021,-0.22984335,0.22984336,-9.519346,0.96569055,47.64121,-1.2804446,-2.3851457,-3.5125813,-0.07684094,-0.3242355,-0.20260386,28.875,30.25,29.3125,32.9375,35.375,36.5
0.3740523,-0.55430806,-0.6326127,-1.9411364,-0.0209478,0.06661643,-0.16473688,-0.4214763,-0.35853094,0.059987593,-3.0696206,0.62909293,-0.00017553974,-0.17934352,0.054413363,0.00093966926,0.039529093,0.0044971416,-0.0058079907,0.46337354,-1.3396821,1.8499397,-2.0744226,-1.5771312,2.4421756,-0.21694402,0.23543957,-0.308318,0.08532705,-0.038931124,-0.210751,-0.47884035,0.2873042,-9.423578,0.87617236,47.683304,-1.4169171,-2.3784814,-3.416481,-0.04541415,-0.3351149,-0.10295882,28.875,30.25,29.3125,32.9375,35.375,36.5
0.3760525,-1.1753367,-0.845174,-2.2580686,-0.0032621836,0.04400291,-0.15133308,-0.42181402,-0.35837838,0.059951197,-3.0694232,0.6291291,-0.00021835302,-0.17929782,0.055031706,0.0015630176,0.041028105,0.0028261244,-0.008543626,0.46291763,-1.3391904,1.849377,-2.0742176,-1.5772637,2.441769,-0.21737958,0.23524699,-0.31063056,0.0899692,-0.039542615,-0.20844142,-0.4213795,0.3256114,-9.481039,0.9254084,47.677036,-1.479465,-2.3037162,-3.5152884,-0.021833256,-0.30708158,-0.09232226,28.875,30.25,29.3125,32.9375,35.375,36.5
