Tylouw/Master_Thesis_Code/training_data/batch_1/rect_rod_t0.2/sample_63_session_2.csv
timestamp[s],tcp_force_x[N],tcp_force_y[N],tcp_force_z[N],tcp_force_rx[Nm?],tcp_force_ry[Nm?],tcp_force_rz[Nm?],tcp_pose_x[m],tcp_pose_y[m],tcp_pose_z[m],tcp_pose_rx[rot_vec_x],tcp_pose_ry[rot_vec_y],tcp_pose_rz[rot_vec_z],tcp_velo_x[m/s],tcp_velo_y[m/s],tcp_velo_z[m/s],tcp_velo_rx[rot_vec_x/s],tcp_velo_ry[rot_vec_y/s],tcp_velo_rz[rot_vec_z/s],q1[rad],q2[rad],q3[rad],q4[rad],q5[rad],q6[rad],qd1[rad/s],qd2[rad/s],qd3[rad/s],qd4[rad/s],qd5[rad/s],qd6[rad/s],tool_acc_x,tool_acc_y,tool_acc_z,current_of_whole_robot[A],voltage_of_whole_robot[V],current_J1[A],current_J2[A],current_J3[A],current_J4[A],current_J5[A],current_J6[A],temp_J1[C],temp_J2[C],temp_J3[C],temp_J4[C],temp_J5[C],temp_J6[C]
8.09001e-07,-0.4703558,-1.3692867,-0.48957956,-0.0026657768,0.014614252,0.0127415685,-0.38934582,-0.36871964,0.060043585,-3.0787368,0.6249158,0.0002771755,0.00019912973,0.00011574314,-6.9090944e-05,0.00023019819,-0.00072401634,3.355692e-05,0.50503284,-1.381704,1.9041871,-2.0918915,-1.5708655,2.4800134,-0.00010249563,-1.1536523e-05,-9.315667e-07,0.0007569015,0.00015062239,-0.00013634317,0.076614454,0.11492168,-8.695741,0.7172743,47.694946,-0.13421366,-3.0499072,-2.3456492,-0.17399171,0.113247946,-0.03065077,28.9375,30.3125,29.3125,32.9375,35.4375,36.5
0.002052407,0.004432891,-0.80438143,-0.452089,-0.013835918,0.025617315,0.002576716,-0.3893492,-0.36871433,0.060021844,-3.0787046,0.62500495,0.0002515106,-0.00077574846,-0.00042626035,-0.0016828254,-0.0016900304,0.0027290217,3.330467e-05,0.5050208,-1.3816673,1.9041995,-2.0919192,-1.5708655,2.480061,-0.000100213125,0.0021249857,0.0032692328,-0.008600814,0.00014574765,-0.00013380937,0.076614454,0.11492168,-8.734048,0.7530795,47.68062,-0.18023393,-2.8215418,-2.3813598,-0.15450698,0.11072831,-0.03876426,28.9375,30.3125,29.3125,32.9375,35.4375,36.5
0.004052118,-0.5708184,-1.1370142,-0.438914,-0.0037414266,0.018248692,0.006818757,-0.38933802,-0.36872414,0.060001776,-3.0787213,0.62496996,0.00021105773,-0.0013019103,-0.0007195711,-0.0029445093,-0.0014927263,0.0023685896,3.3904133e-05,0.50503284,-1.3816419,1.9042233,-2.091955,-1.5708417,2.4800491,-9.802991e-05,0.0052301115,0.0030282615,-0.0110540595,0.00014117503,-0.00013136797,0.0,0.15322891,-8.580819,0.7038487,47.681515,-0.15917568,-3.5413446,-2.629602,-0.03568339,0.10923413,-0.02997322,28.9375,30.3125,29.3125,32.9375,35.4375,36.5
0.006052754,-0.36000094,-0.5484984,-0.3936409,-0.004888806,0.011042588,0.008729386,-0.38934425,-0.3686954,0.059998702,-3.0786662,0.62494,0.00021743581,-0.00068959047,-0.00037817776,-0.0018432507,-0.00070227653,0.0009653579,3.5282897e-05,0.50500876,-1.3816427,1.9042228,-2.0919178,-1.5708898,2.4800134,-9.593991e-05,0.0032772655,0.0017258896,-0.00618832,0.00013688034,-0.0001309499,-0.019153614,0.28730422,-8.599973,0.75084364,47.709274,-0.1777195,-3.3760808,-2.504812,-0.08679424,0.120804474,-0.048515342,28.9375,30.3125,29.3125,32.9375,35.4375,36.5
0.008052146,0.6551268,0.08915569,-0.865382,0.025329646,0.013048864,-0.002276687,-0.38935566,-0.3687037,0.06000936,-3.078711,0.62496823,0.0002497694,-0.0005233668,-0.0002831964,0.0014374078,-0.0022172912,0.0037298386,3.4499946e-05,0.50499684,-1.3816568,1.9042228,-2.0919516,-1.5708655,2.4800134,-9.393738e-05,-0.0030276575,0.0007802064,-0.0020900632,0.00013283938,-0.00012920325,-0.076614454,0.28730422,-8.676587,0.74413085,47.689575,-0.20882377,-3.2372112,-2.4995635,-0.09505135,0.10374348,-0.031017762,28.9375,30.3125,29.3125,32.9375,35.4375,36.5
0.010052256,-0.1492511,-0.17648529,-1.4156162,0.04036677,-0.006740428,-0.00015656945,-0.38934916,-0.36871603,0.059995808,-3.0787086,0.6249869,0.00019450112,0.0009304617,0.000532514,0.0010581078,0.00028705326,-0.00076682074,3.2649947e-05,0.50500876,-1.3816209,1.9042109,-2.0919497,-1.5708417,2.4800372,-0.000104123625,-0.0031913528,0.00058849866,0.0034123505,0.00012902997,-0.0001380699,0.019153614,0.22984336,-8.925584,0.7486078,47.690468,-0.73965466,-2.5300446,-2.8707356,-0.15244557,0.11729279,-0.12251078,28.9375,30.3125,29.3125,32.9375,35.4375,36.5
0.012052483,-0.46738055,-0.6662611,-1.4442465,0.0037472784,0.009432909,0.0032222355,-0.3893109,-0.36869472,0.059958443,-3.078647,0.6249351,6.405942e-05,0.0010239021,0.0007390452,-0.0030268487,0.0039523523,-0.007396107,0.0012458462,0.5050087,-1.3816061,1.9042705,-2.091915,-1.5708417,2.4800127,-0.0003678339,0.005780653,-0.00068788667,0.0032916043,0.00012543309,-0.0016130221,0.15322891,0.038307227,-9.174581,0.74413085,47.684196,-0.9601096,-2.7005544,-2.935103,-0.16580497,0.12251127,-0.18677537,28.9375,30.3125,29.3125,32.9375,35.4375,36.5
0.014052615,-1.256182,-1.5870506,-1.6222222,-0.032286707,0.025914267,-0.000784641,-0.38932434,-0.36869967,0.0599573,-3.078638,0.62493217,4.7254354e-05,-0.003984527,0.0052141165,-0.0057642143,0.0056795995,-0.010577625,0.002308999,0.5050044,-1.3815674,1.9042219,-2.091891,-1.5708417,2.4800076,-0.012599478,0.012508022,-0.001998988,0.001493344,0.00014479968,-0.0149060525,0.038307227,0.076614454,-9.270349,0.679228,47.693153,-0.46081433,-3.364493,-3.0479562,-0.15874586,0.11851677,-0.10157503,28.9375,30.3125,29.3125,32.9375,35.4375,36.5
0.016051788,-1.7326685,-1.731803,-1.4461113,-0.061284125,0.052040156,-0.020564955,-0.38930714,-0.36868986,0.05993667,-3.078606,0.62486434,-3.59945e-05,-0.0057902155,0.0048108236,-0.003538723,0.0027881938,-0.0054049836,0.008638292,0.505004,-1.3815444,1.9042338,-2.0918562,-1.5708417,2.479969,-0.013620475,0.009862992,-0.0035441807,-0.00024343857,0.0001630946,-0.022255987,-0.24899697,0.19153613,-9.3661175,0.7553206,47.70211,-0.4675395,-3.1443791,-3.0658498,-0.13081093,0.13929002,-0.04815558,28.9375,30.3125,29.3125,32.9375,35.4375,36.5
0.018052062,-2.0145257,-1.9478619,-1.5029787,-0.04427805,0.066360354,-0.038740445,-0.38933745,-0.36866966,0.059952028,-3.0786157,0.6248835,4.63607e-05,-0.005952989,0.0039750794,-0.001916281,0.0011050296,-0.002680839,0.013712303,0.50495654,-1.381569,1.9042333,-2.0918796,-1.5708655,2.4799323,-0.012460529,0.007519917,-0.0044876835,-0.00015703891,0.00031685852,-0.026170282,-0.4405331,0.21068975,-9.404425,0.72622824,47.71017,-0.7510029,-2.912334,-3.099596,-0.13514572,0.1628006,-0.018089198,28.9375,30.3125,29.3125,32.9375,35.4375,36.5
0.020052401,-1.8307773,-0.86663556,-1.747742,-0.0060712043,0.073139556,-0.07614922,-0.3893376,-0.36867142,0.059910644,-3.0786064,0.6248268,-5.1259256e-05,-0.006494091,0.004557688,-0.0029955583,0.00059687917,-0.00543621,0.0086406795,0.5049438,-1.3814844,1.9042329,-2.0919034,-1.5708407,2.4798853,-0.015057387,0.009771378,-0.0047257496,-1.025352e-05,0.0020931577,-0.023698006,-0.45968673,0.095768064,-9.557653,0.7351769,47.709274,-0.8436068,-2.8000634,-3.2509012,-0.13580497,0.15582593,-0.04636378,28.9375,30.3125,29.3125,32.9375,35.4375,36.5
0.022052433,-1.5521125,0.10216653,-2.0600662,0.011825477,0.07342988,-0.099294625,-0.38935983,-0.36866954,0.059939954,-3.0786357,0.62479675,-1.146763e-05,-0.0055314093,0.00488046,-0.0042459425,0.000551628,-0.011447067,0.004533486,0.5049193,-1.3815075,1.9041852,-2.0918667,-1.5708398,2.4798384,-0.01654622,0.011758383,-0.005033606,0.0035391073,0.005049102,-0.021084249,-0.4213795,0.05746084,-9.634268,0.7597976,47.703903,-0.86018014,-2.9316332,-3.4009786,-0.17034534,0.100733966,-0.07734586,28.9375,30.3125,29.3125,32.9375,35.4375,36.5
0.024051793,-1.0244141,-0.026623264,-1.8932801,0.004936739,0.08676433,-0.124108166,-0.38934276,-0.3686377,0.059885655,-3.078572,0.6248233,-0.00020567222,-0.006975254,0.004468462,-0.0034266268,-0.0020003652,-0.01003662,0.00061560015,0.50485873,-1.3814474,1.9042324,-2.091843,-1.570803,2.4798024,-0.018167704,0.012007109,-0.007026462,0.0028100535,0.0065916916,-0.018790254,-0.59376204,0.019153614,-9.749189,0.7620334,47.67793,-0.75320554,-2.8224614,-3.3583543,-0.17831543,0.09258804,-0.10315401,28.9375,30.3125,29.3125,32.9375,35.4375,36.5
0.026052129,-2.5569153,-1.2007498,-2.2568073,0.0061596013,0.067085,-0.11104325,-0.38936135,-0.3686477,0.059890553,-3.0785913,0.6248089,-0.00017510734,-0.00900714,0.004086377,-0.003091364,-0.0025251382,-0.007852642,-0.0011449954,0.50485843,-1.3814226,1.9041947,-2.0918553,-1.5708035,2.4797907,-0.019047612,0.014323011,-0.0102389185,0.0015435767,0.005985364,-0.017906547,-0.6895301,0.0,-9.825804,0.7351769,47.705692,-0.87629116,-2.9189742,-3.324261,-0.16933459,0.1053076,-0.12732157,28.9375,30.3125,29.3125,32.9375,35.4375,36.5
0.028052522,-2.2064734,-0.59640175,-2.1890879,-0.028338848,0.10750142,-0.13279569,-0.38937333,-0.36863732,0.05988887,-3.0785732,0.6248253,-0.00023067299,-0.010095869,0.0038256727,-0.0026526635,-0.0032355778,-0.0063059567,-0.0020559598,0.5048223,-1.3813982,1.904159,-2.0918076,-1.5707916,2.479767,-0.01954467,0.0149843525,-0.011849482,0.00079639006,0.0058531323,-0.017491784,-0.7278373,0.038307227,-9.825804,0.82022345,47.719128,-0.8775828,-2.8651211,-3.3206213,-0.16176458,0.09557882,-0.15659106,28.9375,30.3125,29.3125,32.9375,35.4375,36.5
0.030052643,-2.5418372,-1.2440214,-2.197279,-0.025842931,0.113443516,-0.14615281,-0.38940534,-0.36861512,0.0598714,-3.078557,0.6248218,-0.00023400117,-0.010589804,0.003913206,-0.0032045327,-0.0035358896,-0.0075010573,-0.0030154712,0.5047621,-1.3813496,1.9041466,-2.0918314,-1.570803,2.4797068,-0.020677349,0.016703894,-0.012612964,0.0007382167,0.0066916435,-0.017665908,-0.7086837,-0.019153614,-9.883265,0.7866488,47.70838,-0.915089,-2.8852642,-3.4045234,-0.16245088,0.10105573,-0.1693348,28.9375,30.3125,29.3125,32.9375,35.4375,36.5
0.032052036,-2.5650594,-1.3753088,-2.191183,-0.015608052,0.10184799,-0.1465723,-0.38942772,-0.36862215,0.059859097,-3.078556,0.62484103,-0.00028788482,-0.011443182,0.003581343,-0.0025000034,-0.005692094,-0.0067133084,-0.00326496,0.5047378,-1.3812777,1.904087,-2.0918195,-1.5707787,2.4796946,-0.021853484,0.016447641,-0.01386243,0.00050672545,0.008193947,-0.018594902,-0.842759,-0.095768064,-9.921572,0.71279734,47.695843,-0.93590975,-2.8480408,-3.3366213,-0.16095158,0.06534168,-0.1807319,28.9375,30.3125,29.3125,32.9375,35.4375,36.5
0.034051854,-2.43794,-1.2112288,-2.2536783,0.0070108394,0.08970712,-0.1604168,-0.38943493,-0.3685966,0.0598466,-3.078553,0.6249554,-0.00033894388,-0.01174131,0.0039634416,-0.0030706073,-0.0061375136,-0.008313645,-0.0032070186,0.50466543,-1.3812894,1.9041346,-2.0918438,-1.5707425,2.479694,-0.023501458,0.017528886,-0.013864582,0.0006100183,0.009356871,-0.020302838,-0.7661445,-0.019153614,-9.864111,0.7016076,47.652847,-1.0430444,-2.8273253,-3.4088702,-0.14092547,0.05671783,-0.18178442,28.9375,30.3125,29.3125,32.9375,35.4375,36.5
0.03605171,-2.0103939,-1.0392535,-2.3045838,0.02178501,0.08046199,-0.16953155,-0.38947573,-0.36862496,0.059860006,-3.0785916,0.624983,-0.00034605464,-0.013548353,0.004619833,-0.0021395846,-0.0064016976,-0.0060479003,-0.003820132,0.5046526,-1.3812174,1.9040135,-2.0918195,-1.5707067,2.4796934,-0.025750922,0.017230462,-0.015619662,0.00055649795,0.008488627,-0.021936746,-0.57460845,-0.05746084,-9.80665,0.77545905,47.696735,-0.916602,-2.8240447,-3.4075053,-0.14964068,0.049781017,-0.20943429,28.9375,30.3125,29.3125,32.9375,35.4375,36.5
0.038052287,-1.8633623,-0.9163114,-2.2690384,0.019643899,0.07475802,-0.18938352,-0.38949397,-0.36860615,0.05984137,-3.0786023,0.6249275,-0.0003461303,-0.014728651,0.00526147,-0.0018798601,-0.0056242165,-0.004786156,-0.0039749965,0.5046042,-1.381193,1.9040383,-2.0918682,-1.5707072,2.479609,-0.02712593,0.017649805,-0.016690036,0.00048405677,0.0071950504,-0.023154093,-0.49799395,-0.05746084,-9.787497,0.73069996,47.733456,-0.931003,-2.797359,-3.3973064,-0.15579785,0.061350644,-0.20992137,28.9375,30.3125,29.3125,32.9375,35.4375,36.5
0.040052645,-1.9191325,-1.3081279,-2.1441307,0.017938495,0.07101573,-0.19917816,-0.38953805,-0.3685806,0.05984767,-3.07858,0.625038,-0.00034623157,-0.016009223,0.0055813296,-0.0016505687,-0.0053030904,-0.0036680833,-0.0038299449,0.50452,-1.3811687,1.9039897,-2.0918438,-1.5707072,2.4795966,-0.028343692,0.018624179,-0.01832825,0.00032797732,0.006368999,-0.024514604,-0.40222588,0.019153614,-9.768343,0.72622824,47.703007,-0.95202994,-2.7849007,-3.3580582,-0.15069148,0.08662206,-0.22630185,28.9375,30.3125,29.3125,32.9375,35.4375,36.5
0.04205253,-1.858483,-1.2229109,-2.0868757,0.00920774,0.078107856,-0.20057431,-0.38956645,-0.3685719,0.059838984,-3.0785854,0.6250188,-0.00037129113,-0.017425427,0.0058088056,-0.0007070731,-0.0056862747,-0.0014519354,-0.003228963,0.50447166,-1.3811209,1.903953,-2.0918438,-1.5706958,2.4795356,-0.029585812,0.018305223,-0.020089941,0.00028663676,0.005628468,-0.026355786,-0.4213795,0.038307227,-9.672575,0.71951014,47.70211,-0.93085384,-2.7221742,-3.3210294,-0.15350133,0.07975666,-0.23957175,28.9375,30.3125,29.3125,32.9375,35.4375,36.5
0.04405177,-1.2916231,-0.95017624,-2.0506334,0.000574175,0.07433969,-0.20070407,-0.3896335,-0.36856174,0.059858423,-3.0786111,0.62504286,-0.00028749325,-0.0185076,0.00628054,-0.0004715037,-0.0058174017,-0.00080043374,-0.002771292,0.5043993,-1.3810847,1.9038686,-2.0918558,-1.5707077,2.479475,-0.031261228,0.01871591,-0.02110562,0.0002587013,0.005427282,-0.028487707,-0.15322891,0.05746084,-9.557653,0.7172743,47.687782,-0.97723615,-2.7501297,-3.3026416,-0.16571051,0.09518361,-0.25523195,28.9375,30.3125,29.3125,32.9375,35.4375,36.5
0.04605175,-0.47663385,-1.1731462,-1.9922342,0.004471025,0.06943162,-0.17847732,-0.38968456,-0.36853516,0.059845388,-3.0785873,0.6251149,-0.00027576802,-0.019613786,0.007450537,-0.00085503195,-0.005352157,-0.0013308232,-0.0029036934,0.5043143,-1.3810244,1.9038323,-2.0918796,-1.5707196,2.479438,-0.03416569,0.0196198,-0.021297049,0.00023603096,0.0052752513,-0.031259287,-0.19153613,0.17238252,-9.691729,0.6769922,47.66271,-0.9037591,-2.7097015,-3.3377738,-0.16077703,0.101500496,-0.24604216,28.9375,30.3125,29.3125,32.9375,35.4375,36.5
0.04805191,-1.0165972,-1.4090067,-2.020812,0.0019462297,0.0316476,-0.16848598,-0.38971755,-0.36851773,0.05983927,-3.0785763,0.6250929,-0.00030411745,-0.021000799,0.007589094,2.3976556e-05,-0.0060783788,0.0005404535,-0.0016257776,0.5042541,-1.3809763,1.9037842,-2.0918558,-1.5707196,2.4793656,-0.035521183,0.019465482,-0.023111722,0.00021703528,0.005001591,-0.033891626,-0.095768064,0.114921674,-9.595961,0.7351769,47.67345,-0.86637473,-2.6491008,-3.310453,-0.16424984,0.11160564,-0.26319784,28.9375,30.3125,29.3125,32.9375,35.4375,36.5
0.050052572,-0.66988057,-1.5476575,-2.029365,0.0031124053,0.026390038,-0.16980778,-0.38977718,-0.3685164,0.05988897,-3.078678,0.6251138,-0.00017062307,-0.022814019,0.0078088627,0.00068988267,-0.006981802,0.0019615977,-0.0021143747,0.50418127,-1.381024,1.9037355,-2.0918915,-1.5706958,2.4792929,-0.037644587,0.020253882,-0.025550708,0.00018767196,0.005105166,-0.03552481,-0.038307227,0.095768064,-9.557653,0.81351066,47.67614,-0.83706474,-2.6806986,-3.2282777,-0.16477707,0.123808116,-0.25748408,28.9375,30.3125,29.3125,32.9375,35.4375,36.5
0.052052602,-0.746225,-1.8623593,-2.0844605,0.012133383,0.024860114,-0.16480014,-0.38978234,-0.36848274,0.059838112,-3.0786211,0.62506336,-0.0003806857,-0.02348136,0.008255571,0.00015417776,-0.007854003,0.0003827614,-0.003035339,0.50409687,-1.3809274,1.9037236,-2.091832,-1.570659,2.4791842,-0.039968196,0.021597225,-0.025917713,0.00016869885,0.0066255447,-0.036930505,-0.019153614,0.19153613,-9.404425,0.8090337,47.704796,-0.7144352,-2.6821382,-3.2611547,-0.14857255,0.10933533,-0.2675051,28.9375,30.3125,29.3125,32.9375,35.4375,36.5
0.054052036,-0.40136698,-1.5321578,-2.0011072,-0.0036744785,0.031213505,-0.16176006,-0.38984275,-0.3684594,0.059852045,-3.0786333,0.6251221,-0.00033765976,-0.023847675,0.0076359017,0.000609403,-0.008457722,0.0013149019,-0.0010018946,0.5040012,-1.3809035,1.9036635,-2.091832,-1.570659,2.4791236,-0.039310284,0.021925846,-0.02733916,0.00015414483,0.006702285,-0.038305297,-0.05746084,0.076614454,-9.385271,0.7105615,47.670765,-0.86115545,-2.656005,-3.3068175,-0.16171363,0.10770874,-0.29238716,28.9375,30.3125,29.3125,32.9375,35.4375,36.5
0.056051843,-0.5213653,-1.5424207,-1.8816693,-0.008467516,0.036588963,-0.15692534,-0.38990286,-0.36846837,0.05987594,-3.0787067,0.62511754,-0.0002356477,-0.02454961,0.008029084,0.0007943016,-0.009119508,0.0014617998,-0.0012568951,0.50395274,-1.3808794,1.9035915,-2.0918796,-1.5706471,2.479063,-0.04094071,0.021884333,-0.027700316,0.00010759174,0.007213671,-0.039680768,-0.038307227,0.15322891,-9.423578,0.75084364,47.70032,-0.8568033,-2.610673,-3.3107991,-0.16092649,0.119878285,-0.28811103,28.9375,30.3125,29.3125,32.9375,35.4375,36.5
0.058052227,-1.0586507,-1.7397888,-2.0060966,-0.0034415529,0.02795286,-0.15319914,-0.38996804,-0.36845174,0.05988339,-3.0787308,0.6251611,-0.00020662209,-0.025476184,0.008431619,0.00063573074,-0.010374593,0.00057763135,-0.002195208,0.5038561,-1.380831,1.90352,-2.0918915,-1.5706347,2.4789906,-0.04342936,0.02279281,-0.028405352,6.817336e-05,0.0087397965,-0.041232847,0.019153614,0.15322891,-9.423578,0.800085,47.71465,-0.78906083,-2.6712563,-3.3234243,-0.16801444,0.11713351,-0.31788307,28.9375,30.3125,29.3125,32.9375,35.4375,36.5
0.06005249,-0.29291666,-1.4486961,-1.7218751,-0.0083571775,0.03776342,-0.16796581,-0.38999844,-0.36844087,0.059874035,-3.07875,0.6251457,-0.00032492285,-0.026665678,0.00815915,0.0010001948,-0.011758065,0.0010007179,-0.0025438732,0.50377166,-1.3807704,1.903459,-2.0918438,-1.5705742,2.478894,-0.04470223,0.02390724,-0.030551767,6.146228e-05,0.009740832,-0.042158052,-0.019153614,0.21068975,-9.3661175,0.78217715,47.72271,-0.7500975,-2.7116954,-3.2567763,-0.1637274,0.08589979,-0.31985465,28.9375,30.3125,29.3125,32.9375,35.4375,36.5
0.062051922,-0.64884186,-1.5298918,-1.8325608,-0.008380564,0.026118144,-0.1547885,-0.39007238,-0.3684248,0.05988419,3.0787349,-0.6251795,0.00025387376,-0.027677396,0.008337105,0.0012823953,-0.01180658,0.0018491687,-3.517995e-05,0.50367564,-1.3807223,1.903387,-2.0918796,-1.5705742,2.478821,-0.04570927,0.024553997,-0.03195824,5.7404934e-05,0.0093735,-0.045671955,-0.11492168,0.21068975,-9.32781,0.7665104,47.703007,-0.8063667,-2.5898337,-3.2290673,-0.17199433,0.09017825,-0.32926428,28.9375,30.3125,29.3125,32.9375,35.4375,36.5
0.064052306,-1.0663894,-1.5846534,-1.8541976,0.0018138184,0.031074757,-0.15346275,-0.3901306,-0.3683883,0.05988335,3.0787547,-0.6251642,0.00025562383,-0.028605135,0.008923876,0.0011841595,-0.011682887,0.001854316,-0.000755294,0.5035673,-1.380674,1.9033264,-2.0918558,-1.5705861,2.4787006,-0.047486395,0.025339676,-0.032658014,2.7689823e-05,0.009261222,-0.046728484,-0.095768064,0.15322891,-9.289502,0.7038487,47.704796,-0.75175315,-2.5883598,-3.2414088,-0.16939014,0.10508816,-0.32391226,28.9375,30.3125,29.3125,32.9375,35.4375,36.5
0.06605247,-1.0132735,-1.5329859,-1.9174854,0.001025211,0.05558105,-0.1591565,-0.3901844,-0.3683698,0.059893288,3.07873,-0.625159,0.00026719415,-0.02917174,0.009081906,0.0013975133,-0.0127512375,0.0018337757,-0.0017181156,0.5034711,-1.380638,1.9032558,-2.091832,-1.5705622,2.4786043,-0.048864447,0.025299989,-0.0330913,1.8079477e-06,0.010207067,-0.04714494,-0.11492168,0.19153613,-9.404425,0.7933669,47.711063,-0.81246734,-2.5359745,-3.2534056,-0.17048484,0.07965861,-0.3764786,28.9375,30.3125,29.3125,32.9375,35.4375,36.5
0.068051726,-1.4351243,-1.1763483,-1.7639132,-0.006557877,0.06324881,-0.1605173,-0.39022684,-0.36835507,0.059880268,3.078729,-0.625118,0.00028023124,-0.029521102,0.009070885,0.001280083,-0.013213364,0.0014234,0.0015947368,0.50339895,-1.3805777,1.9032196,-2.0918558,-1.5705498,2.4785068,-0.049542494,0.026003143,-0.03365652,1.1804607e-07,0.010808714,-0.051136453,-0.15322891,0.21068975,-9.346964,0.75755644,47.72719,-0.83760905,-2.5116878,-3.2437162,-0.18440148,0.10108018,-0.36858064,28.9375,30.3125,29.3125,32.9375,35.4375,36.5
0.070051946,-1.7750815,-1.3143268,-1.7098242,0.0023020827,0.06580925,-0.16154616,-0.39027014,-0.36833227,0.059873983,3.0787008,-0.62514997,0.000358091,-0.031094834,0.009776101,0.0016044021,-0.0140244635,0.0019298436,0.0026359444,0.5032902,-1.3805294,1.9031714,-2.091832,-1.5705017,2.4784214,-0.052479006,0.026513768,-0.034999155,7.707564e-09,0.011271116,-0.05511455,-0.28730422,0.1340753,-9.385271,0.8090337,47.71823,-0.7862902,-2.5013602,-3.2691665,-0.18658018,0.07646505,-0.3410714,28.9375,30.3125,29.3125,32.9375,35.4375,36.5
0.07205226,-1.4193482,-1.3444096,-1.7301613,0.012514251,0.08675818,-0.15738863,-0.39035606,-0.36833626,0.059898082,3.078635,-0.6250579,0.00029494564,-0.032175604,0.0096943965,0.001978815,-0.0152009865,0.0024040882,0.005930416,0.50319386,-1.3804692,1.9030508,-2.0918558,-1.570465,2.478276,-0.05383949,0.02722219,-0.036689118,5.0324883e-10,0.012074655,-0.05976898,-0.34476504,0.076614454,-9.3661175,0.8157518,47.690468,-0.7273935,-2.47433,-3.3068671,-0.21343285,0.0694832,-0.32108393,28.9375,30.3125,29.3125,32.9375,35.4375,36.5
0.07405257,-1.4176861,-0.7344476,-1.6715939,0.007645737,0.0842088,-0.166638,-0.39041737,-0.36831373,0.05988274,3.0786397,-0.62503767,0.00029637862,-0.031941667,0.0090004485,0.0018815962,-0.015037658,0.002427457,0.007921531,0.5030988,-1.3803847,1.9029912,-2.0918796,-1.570465,2.4781678,-0.052350253,0.028092448,-0.03749925,3.2858553e-11,0.011919336,-0.06027017,-0.40222588,0.019153614,-9.442732,0.73741806,47.69763,-0.97223103,-2.555009,-3.2554874,-0.21011518,0.058395047,-0.30420184,28.9375,30.3125,29.3125,32.9375,35.4375,36.5
0.07605245,-1.475726,-0.5607958,-1.5236379,0.007855753,0.0838229,-0.16849843,-0.39047045,-0.36829767,0.05989129,3.0785677,-0.62504065,0.00034080647,-0.03317057,0.009841106,0.0017096086,-0.015456377,0.0019528175,0.009796163,0.5029777,-1.3803605,1.902943,-2.0918796,-1.5703934,2.4780576,-0.055274066,0.029037973,-0.038225718,2.1454288e-12,0.012515842,-0.06506878,-0.38307226,0.076614454,-9.3661175,0.7642693,47.683304,-0.86633706,-2.5056148,-3.269096,-0.19227798,0.059894554,-0.2893026,28.9375,30.3125,29.3125,32.9375,35.4375,36.5
0.07805175,-1.4123306,-0.66817254,-1.6248595,0.015081319,0.08242917,-0.15939024,-0.3905817,-0.36827144,0.059916466,3.078552,-0.6249786,0.00023226698,-0.034845766,0.010938968,0.0016106581,-0.015337302,0.0020147196,0.011111093,0.5028448,-1.3802879,1.9028,-2.0918796,-1.5704173,2.477888,-0.058586672,0.030235598,-0.03941828,1.4008117e-13,0.012385087,-0.06969458,-0.38307226,0.11492168,-9.308657,0.72622824,47.716442,-0.7554872,-2.5285854,-3.2739863,-0.18823802,0.052330643,-0.23279195,28.9375,30.3125,29.3125,32.9375,35.4375,36.5
0.08005219,-1.4305297,-0.5638881,-1.682623,0.009205721,0.07667482,-0.15829316,-0.39061826,-0.36825076,0.059906565,3.0785675,-0.62488294,0.00028316386,-0.035597518,0.010461687,0.0019338205,-0.016282063,0.003064315,0.015154594,0.50276107,-1.3802395,1.9027628,-2.0918686,-1.5703934,2.4777427,-0.058675975,0.030938936,-0.04083784,-0.00065592374,0.012701877,-0.07382736,-0.36391866,-0.019153614,-9.557653,0.8224646,47.704796,-0.74397755,-2.5270576,-3.2357063,-0.20038292,0.052360296,-0.21032909,28.9375,30.3125,29.3125,32.9375,35.4375,36.5
0.082052395,-1.4061667,-0.6453648,-1.5198184,0.007324955,0.07874292,-0.16995025,-0.39070615,-0.3682392,0.05991561,3.0785167,-0.6248316,0.00028938756,-0.035704195,0.009946986,0.0018250083,-0.016263768,0.0033598985,0.019460736,0.50262976,-1.3801553,1.9026426,-2.0918686,-1.5703453,2.4775858,-0.057799328,0.031929612,-0.041673098,-0.0010545168,0.01254492,-0.07725565,-0.40222588,-0.076614454,-9.423578,0.779936,47.693153,-1.0253087,-2.4754136,-3.2244506,-0.2053381,0.03563661,-0.16054557,28.9375,30.3125,29.3125,32.9375,35.4375,36.5
0.08405171,-1.6028458,-1.2848762,-1.6132119,0.017846528,0.07843859,-0.14729428,-0.3907743,-0.3682257,0.0599357,3.0784597,-0.6247811,0.00025573614,-0.037079606,0.010915854,0.0017637195,-0.01595298,0.0035611775,0.019460717,0.50252104,-1.3801309,1.9025706,-2.09188,-1.570309,2.4774528,-0.060471904,0.03281651,-0.042582985,-0.0010516709,0.012179661,-0.07992647,-0.4405331,-0.038307227,-9.442732,0.7150385,47.70211,-0.90288854,-2.5505335,-3.2218993,-0.21638569,0.04344783,-0.11989739,28.9375,30.3125,29.3125,32.9375,35.4375,36.5
0.08605264,-1.5463004,-0.905863,-1.6394496,0.017057817,0.074753836,-0.155366,-0.3908338,-0.36817828,0.059899673,3.078521,-0.6247734,0.0003053894,-0.03729891,0.0113274455,0.00090902473,-0.015326476,0.0019379306,0.019853136,0.502401,-1.380022,1.9025239,-2.09188,-1.5703334,2.4773202,-0.06150447,0.034564126,-0.04274012,-0.0009185911,0.012408606,-0.08135221,-0.28730422,0.05746084,-9.423578,0.78888994,47.691364,-0.90280044,-2.4717324,-3.2316666,-0.20715155,0.038469523,-0.10751581,28.9375,30.3125,29.3125,32.9375,35.4375,36.5
0.088051915,-1.1696836,-1.0203218,-1.6232357,0.013930911,0.076819986,-0.1577269,-0.39092115,-0.3681684,0.059939284,3.0784786,-0.62464935,0.0002701512,-0.03788514,0.011883657,0.0006055194,-0.014314995,0.0018167838,0.01916268,0.50228083,-1.3799856,1.9023799,-2.0918324,-1.5702976,2.477128,-0.06246004,0.035544656,-0.04323595,-0.0008026032,0.011585545,-0.08161513,-0.2681506,0.019153614,-9.442732,0.75755644,47.675243,-0.960153,-2.5271637,-3.2257369,-0.22173086,0.0540877,-0.07534509,28.9375,30.3125,29.3125,32.9375,35.4375,36.5
0.090052165,-0.8053719,-1.1212252,-1.5258722,0.009669292,0.08095121,-0.14414513,-0.39100018,-0.36813724,0.059927877,3.0784273,-0.624639,0.0002904429,-0.039101783,0.011690409,0.001341843,-0.015239329,0.0032661736,0.01831195,0.5021249,-1.3799134,1.9023312,-2.09188,-1.5702494,2.476972,-0.06332306,0.03590324,-0.045346547,-0.0007605845,0.0116969785,-0.081626385,-0.22984336,0.038307227,-9.308657,0.7463667,47.703903,-0.9943216,-2.5293343,-3.2260804,-0.23161641,0.030956117,-0.07588331,28.9375,30.3125,29.3125,32.9375,35.4375,36.5
0.09205281,-0.6157849,-0.83475107,-1.6856692,0.0059641143,0.07443207,-0.15993251,-0.39111382,-0.36812136,0.059949867,3.0783815,-0.6245921,0.0001896405,-0.040232107,0.011890352,0.0014211581,-0.015141376,0.0037646203,0.015996492,0.5019928,-1.3798289,1.9021868,-2.091904,-1.5702499,2.4768167,-0.06449377,0.03717884,-0.047046207,-0.0007241344,0.011375586,-0.080479376,-0.34476504,-0.038307227,-9.442732,0.81351066,47.705692,-1.0259805,-2.5217967,-3.184967,-0.22508137,0.036402047,-0.07788774,28.9375,30.3125,29.3125,32.9375,35.4375,36.5
0.09405225,-0.85290563,-0.93320143,-1.8705074,-0.00015560366,0.06776701,-0.15741968,-0.39117244,-0.36808503,0.059928596,3.0784476,-0.6244721,0.00023645537,-0.040286552,0.012836859,0.0005481029,-0.013676696,0.0026481263,0.013233692,0.5018846,-1.3797326,1.9021157,-2.09188,-1.5702618,2.4766252,-0.06566252,0.03801868,-0.046016164,-0.00090824673,0.010627379,-0.07888519,-0.24899697,0.019153614,-9.404425,0.6948948,47.7254,-1.0686221,-2.5417118,-3.2851887,-0.2267724,0.05924584,-0.10034233,28.9375,30.3125,29.3125,32.9375,35.4375,36.5
0.09605213,-0.09014101,-0.8278551,-1.7002578,-0.012188614,0.076846235,-0.16437952,-0.3912357,-0.36806116,0.059924144,3.0784163,-0.6244281,0.00033868986,-0.04163736,0.012267649,0.0008045637,-0.015078657,0.004074858,0.010855445,0.50174075,-1.3796599,1.9020318,-2.0918448,-1.5701898,2.4764578,-0.06628172,0.03956601,-0.048123553,-0.0022689835,0.011161681,-0.07712588,-0.21068975,0.038307227,-9.32781,0.7418897,47.70211,-1.0844675,-2.5989428,-3.2340548,-0.23200193,0.03436984,-0.120834626,28.9375,30.3125,29.3125,32.9375,35.4375,36.5
0.09805175,-0.5674447,-1.0982856,-1.9123304,-0.008050973,0.057828937,-0.15773664,-0.3913588,-0.36801302,0.059937727,3.078377,-0.62447834,0.00022851354,-0.04296456,0.013028068,0.00080021005,-0.01480346,0.0045680716,0.0069549484,0.50156033,-1.3795877,1.9019235,-2.0918806,-1.5702137,2.4763138,-0.0684798,0.040494166,-0.049173977,-0.0024457432,0.010687656,-0.07542148,-0.15322891,0.24899697,-9.385271,0.78217715,47.683304,-1.1007689,-2.6297686,-3.2650292,-0.2314448,0.0450966,-0.1543301,28.9375,30.3125,29.3125,32.9375,35.4375,36.5
0.10005175,-0.76846254,-1.258259,-1.9761003,-0.0027006662,0.048565194,-0.15491451,-0.3914199,-0.36798862,0.05991568,3.0783684,-0.6244589,0.00029294062,-0.044702947,0.012625169,0.00209125,-0.016329078,0.0070446283,0.004665222,0.5014402,-1.3794913,1.9018625,-2.0918925,-1.5701779,2.4761827,-0.069491595,0.040637515,-0.052302856,-0.0023624168,0.010827692,-0.07414271,-0.15322891,0.17238252,-9.346964,0.7642693,47.699425,-1.1171554,-2.5357978,-3.1264904,-0.25169697,0.05425571,-0.19118892,28.9375,30.3125,29.3125,32.9375,35.4375,36.5
0.10205189,-0.94210744,-1.5410477,-2.1043873,-0.007669865,0.046048883,-0.1502245,-0.39149368,-0.36797407,0.059916645,3.0783436,-0.6243769,0.00027714932,-0.04421958,0.013298651,0.00089946244,-0.015589395,0.0043131923,0.0027545395,0.5013321,-1.379419,1.90178,-2.0919163,-1.5701536,2.4760265,-0.07058281,0.04177929,-0.051018976,-0.0020371769,0.011499139,-0.073324084,0.019153614,0.22984336,-9.385271,0.7709874,47.709274,-1.1081196,-2.5447068,-3.2082446,-0.2733034,0.047711305,-0.24147779,28.9375,30.3125,29.3125,32.9375,35.4375,36.5
0.10405221,-0.6144597,-1.644958,-2.196259,-0.0194883,0.05035581,-0.15224747,-0.3916122,-0.36793655,0.059943605,3.0782976,-0.6244054,0.00023345769,-0.045197032,0.014503153,0.00023559235,-0.014603804,0.0033382887,0.002541574,0.50115156,-1.3793464,1.9016246,-2.09188,-1.5701417,2.4758697,-0.07325395,0.043208018,-0.0512279,-0.0019226555,0.011109062,-0.07578097,-0.076614454,0.22984336,-9.385271,0.71279734,47.71286,-1.111607,-2.6241026,-3.320207,-0.2672534,0.061860003,-0.24768627,28.9375,30.3125,29.3125,32.9375,35.4375,36.5
0.106052205,-0.74817306,-1.930346,-2.1412275,-0.021888942,0.0507849,-0.15284653,-0.39170718,-0.36789364,0.059929617,3.0782943,-0.6243285,0.00022959472,-0.04657898,0.01402625,0.001440883,-0.016504146,0.005509343,0.0006768665,0.50098354,-1.3792504,1.9015511,-2.0919163,-1.5701293,2.4756541,-0.07410277,0.04296418,-0.053650033,-0.0020736777,0.011729924,-0.07476471,-0.05746084,0.3256114,-9.404425,0.80456203,47.72002,-1.1411268,-2.498666,-3.2635798,-0.26597196,0.032050893,-0.27966613,28.9375,30.3125,29.3125,32.9375,35.4375,36.5
0.108052395,-0.6873145,-1.5076079,-2.1928763,-0.032773286,0.050022382,-0.15792453,-0.3917899,-0.36789095,0.05992868,3.0782657,-0.62434244,0.00024106512,-0.04725579,0.014232941,0.0010343685,-0.016333329,0.005020258,-0.00093186414,0.50088745,-1.3791296,1.9014076,-2.0919044,-1.5701054,2.4755704,-0.075116664,0.044540603,-0.054561302,-0.0022255287,0.011814455,-0.07416923,-0.05746084,0.2681506,-9.385271,0.77545905,47.70032,-1.1944546,-2.5668454,-3.2740955,-0.27205324,0.061474554,-0.33736557,28.9375,30.3125,29.3125,32.9375,35.4375,36.5
0.11005256,-0.66900486,-1.7590737,-2.1093588,-0.02514597,0.059390735,-0.15219125,-0.3918778,-0.3678343,0.05991432,3.0782607,-0.6243583,0.00029728856,-0.047836047,0.014238325,-6.2019208e-06,-0.016592864,0.003579998,0.0010479474,0.5006955,-1.3790448,1.901337,-2.0918925,-1.5700811,2.475389,-0.07621953,0.047274783,-0.05522313,-0.0031563593,0.012731139,-0.07725253,-0.095768064,0.21068975,-9.500193,0.79560274,47.683304,-1.1671317,-2.5719562,-3.2770505,-0.2628265,0.06266679,-0.33486307,28.9375,30.3125,29.3125,32.9375,35.4375,36.5
0.11205179,-0.798794,-1.702078,-2.092804,-0.02288306,0.057011005,-0.15085052,-0.3919739,-0.36782667,0.059923965,3.0782,-0.62430984,0.0002880457,-0.049158957,0.014151611,0.001625224,-0.0187211,0.0067023286,-0.0033896007,0.5005633,-1.3789493,1.901205,-2.0919049,-1.5700325,2.4752343,-0.07750871,0.04531339,-0.056495856,-0.0036808702,0.01310002,-0.07410372,-0.11492168,0.2681506,-9.404425,0.7911258,47.68599,-1.2269851,-2.6410818,-3.2793798,-0.26805872,0.03812691,-0.42142034,28.9375,30.3125,29.3125,32.9375,35.4375,36.5
0.1140523,-0.58636075,-1.4347512,-1.9665551,-0.0126295565,0.061317623,-0.1575799,-0.392075,-0.36780077,0.059928052,3.0781722,-0.62428355,0.0002558648,-0.050072,0.014818373,0.0014681336,-0.018591976,0.0064162943,-0.0033380592,0.500419,-1.3788528,1.9010843,-2.0919173,-1.570021,2.4750772,-0.07947518,0.04616722,-0.05718816,-0.003525438,0.013128397,-0.0761209,-0.019153614,0.21068975,-9.442732,0.7620334,47.70032,-1.2240713,-2.4647367,-3.248617,-0.28359354,0.045864858,-0.46916592,28.9375,30.3125,29.3125,32.9375,35.4375,36.5
0.1160521,-0.53774637,-1.3082546,-2.0645092,-0.0045402255,0.060565934,-0.1506808,-0.39217234,-0.36776796,0.059931245,3.078116,-0.6243471,0.0002654087,-0.050635755,0.014706137,0.0011911325,-0.018975131,0.005769841,-0.00013523822,0.5002511,-1.3787683,1.900977,-2.0919173,-1.5699848,2.474956,-0.08019421,0.04772086,-0.05841425,-0.0034641058,0.013777812,-0.08004244,-0.019153614,0.076614454,-9.423578,0.79560274,47.711063,-1.1896374,-2.5316167,-3.2539186,-0.28596488,0.024605863,-0.46869385,28.9375,30.3125,29.3125,32.9375,35.4375,36.5
0.11805241,-0.58730805,-1.1739744,-1.9366603,-0.0024476263,0.060255304,-0.14656076,-0.39227688,-0.36772552,0.059932515,3.0781205,-0.624288,0.0002520085,-0.051340405,0.014867003,0.00046526056,-0.01836334,0.005002253,0.0033155617,0.50008297,-1.3786713,1.9008564,-2.0919049,-1.5699848,2.4747505,-0.080994494,0.05012729,-0.059549168,-0.0037626633,0.013610771,-0.08429233,-0.13407528,0.1340753,-9.3661175,0.784413,47.685097,-1.350346,-2.5789537,-3.243544,-0.2745952,0.04544843,-0.48069412,28.9375,30.3125,29.3125,32.9375,35.4375,36.5
0.12005178,-0.9977045,-0.90653974,-1.8752522,-0.0028618977,0.0628451,-0.15250511,-0.39238486,-0.3677109,0.059954055,3.0780253,-0.62424594,0.00023899194,-0.053653475,0.016513508,0.00065376476,-0.019134745,0.0054462184,0.0069454894,0.49991363,-1.378599,1.9007248,-2.0919173,-1.5699128,2.474567,-0.086175285,0.050646853,-0.06052997,-0.0040471996,0.01408453,-0.09310206,-0.095768064,0.114921674,-9.32781,0.8023209,47.70032,-1.1763542,-2.6240988,-3.321573,-0.28711382,0.04302643,-0.4198817,28.9375,30.3125,29.3125,32.9375,35.4375,36.5
0.12205195,-0.7502025,-1.3654927,-1.9032948,0.011916607,0.07914552,-0.15103662,-0.39249098,-0.36768636,0.05994001,3.0780385,-0.6241287,0.00027923635,-0.053145338,0.015107811,0.0018967332,-0.020773167,0.007449181,0.013974965,0.49975905,-1.3784436,1.9005698,-2.0919049,-1.5698885,2.4743376,-0.08361669,0.048889693,-0.061274886,-0.004081911,0.014563988,-0.09757361,-0.24899697,0.0,-9.3661175,0.8023209,47.687782,-1.3173738,-2.4962225,-3.2590122,-0.29819345,0.042848535,-0.396788,28.9375,30.3125,29.3125,32.9375,35.4375,36.5
0.12405218,-0.6967895,-0.55029863,-1.9201182,-0.0008181791,0.09067853,-0.16300404,-0.39259487,-0.3676332,0.05992535,3.078026,-0.62410206,0.0002762977,-0.054528553,0.015788212,0.0016547012,-0.02133435,0.0070204223,0.021064837,0.49956617,-1.3783469,1.9004968,-2.091941,-1.5698766,2.4741297,-0.08645699,0.050363183,-0.062427275,-0.0042858506,0.015268014,-0.10750361,-0.30645782,-0.019153614,-9.3661175,0.800085,47.689575,-1.2860737,-2.4795961,-3.2592728,-0.2866794,0.026511662,-0.323272,28.9375,30.3125,29.3125,32.9375,35.4375,36.5
0.12605216,-1.5137924,-0.7693813,-2.0005133,0.013154446,0.08308156,-0.15336126,-0.3927147,-0.36762124,0.05993903,3.0779448,-0.6240456,0.00025384407,-0.055718202,0.016741,0.0010037916,-0.020475572,0.0065304115,0.022540228,0.49939793,-1.3782381,1.9003423,-2.091965,-1.5698165,2.4739366,-0.08881658,0.052254397,-0.06311094,-0.0046376153,0.014758721,-0.11133647,-0.30645782,-0.095768064,-9.32781,0.83365434,47.70211,-1.2811177,-2.5728812,-3.3460252,-0.2880221,0.044228725,-0.27725905,28.9375,30.3125,29.3125,32.9375,35.4375,36.5
0.12805225,-1.3596472,-0.79790354,-1.8616723,0.024803171,0.08906087,-0.15257433,-0.3927887,-0.36758685,0.059929956,3.0779576,-0.6238726,0.0003308503,-0.056636725,0.0169822,0.0013225997,-0.021006428,0.006907272,0.026070135,0.49924177,-1.3781539,1.900258,-2.091941,-1.5697683,2.4736707,-0.090231284,0.052617926,-0.064335406,-0.004350428,0.015044668,-0.1162812,-0.36391866,-0.038307227,-9.385271,0.8157518,47.67614,-1.2915281,-2.4963665,-3.3028355,-0.285798,0.026326787,-0.21018171,28.9375,30.3125,29.3125,32.9375,35.4375,36.5
0.13005176,-1.2097107,-0.2023579,-1.9689635,0.01915257,0.098248184,-0.16071172,-0.3929063,-0.367528,0.05991402,3.0779946,-0.6238215,0.00032026242,-0.057976328,0.01771698,0.001440588,-0.02102861,0.0070236297,0.02644369,0.4990493,-1.3780216,1.9001373,-2.091941,-1.5697926,2.4734418,-0.092658006,0.05349724,-0.06574866,-0.003926475,0.0150095,-0.11908097,-0.40222588,-0.05746084,-9.404425,0.8157518,47.668976,-1.2141484,-2.5156794,-3.3036737,-0.30637574,0.034562804,-0.16225417,28.9375,30.3125,29.3125,32.9375,35.4375,36.5
0.13205196,-1.321495,-0.35215288,-1.8719585,0.024518132,0.10154587,-0.14714989,-0.39305806,-0.36751103,0.05994592,3.0779188,-0.62374735,0.00024327937,-0.058276325,0.017067121,0.0018981311,-0.0212899,0.008304824,0.027282339,0.4988582,-1.3779012,1.8999223,-2.091941,-1.5697564,2.4732141,-0.09157662,0.053782046,-0.06708812,-0.0041134967,0.014636847,-0.11883591,-0.57460845,-0.15322891,-9.481039,0.8179876,47.65464,-1.4202778,-2.532182,-3.300597,-0.31120753,0.04178925,-0.1548818,28.9375,30.3125,29.3125,32.9375,35.4375,36.5
0.13405232,-0.8376687,-0.2670658,-1.8816047,0.012518462,0.12390252,-0.15965924,-0.3931504,-0.36746863,0.05993197,3.0778801,-0.62366706,0.0002896164,-0.06135866,0.018863421,0.0011459076,-0.021398999,0.0076338393,0.018329091,0.49866435,-1.377816,1.8998612,-2.0919774,-1.5696963,2.472975,-0.09767613,0.057252355,-0.06933913,-0.004790086,0.015050129,-0.11598085,-0.61291564,0.038307227,-9.404425,0.78217715,47.661808,-1.1032062,-2.513554,-3.1623855,-0.31499907,0.043432504,-0.16060688,28.9375,30.3125,29.3125,32.9375,35.4375,36.5
0.13605195,-1.8962235,-0.9898572,-2.144065,0.019477163,0.10464205,-0.14634772,-0.3932827,-0.3674346,0.059940025,3.0778499,-0.62362367,0.00021891465,-0.061060995,0.018702574,0.001722187,-0.021937361,0.008561509,0.014212748,0.4984851,-1.3776964,1.8997067,-2.0920012,-1.5696963,2.4727726,-0.09712385,0.05569935,-0.068801336,-0.004849123,0.015087248,-0.111311845,-0.5363012,-0.019153614,-9.500193,0.78888994,47.68599,-1.2902498,-2.5483928,-3.3316755,-0.31830522,0.0508516,-0.21383399,28.9375,30.3125,29.3125,32.9375,35.4375,36.5
0.13805217,-1.8098991,-1.0273578,-2.0083823,-0.0013755927,0.10616487,-0.15033057,-0.39341092,-0.36737072,0.059930872,3.0778506,-0.6236063,0.00027210457,-0.062839925,0.019133812,0.002241034,-0.022570673,0.00939195,0.008696239,0.49824467,-1.3775638,1.8995622,-2.091965,-1.5696725,2.4725213,-0.09955411,0.056702036,-0.07127662,-0.00440609,0.015241977,-0.108225,-0.68953013,0.0,-9.519346,0.75755644,47.64389,-1.2175587,-2.473736,-3.3339143,-0.3254708,0.060391605,-0.27083987,28.9375,30.3125,29.3125,32.9375,35.4375,36.5
0.14005254,-1.2415904,-1.3844562,-2.3249772,0.00065619947,0.12071887,-0.15121041,-0.39355114,-0.36733916,0.05994047,3.0777814,-0.62357455,0.00022257888,-0.06520944,0.02009412,0.002757809,-0.022942297,0.010361732,0.0052217836,0.4980399,-1.3774434,1.8994058,-2.0920007,-1.5696362,2.4723055,-0.10323648,0.057919323,-0.07401159,-0.0039101103,0.015112164,-0.10843052,-0.78529817,-0.095768064,-9.519346,0.7530795,47.63404,-1.0844564,-2.4272292,-3.0828092,-0.34774798,0.054925706,-0.30525953,28.9375,30.3125,29.3125,32.9375,35.4375,36.5
0.14205186,-1.9534211,-1.0179803,-2.3548148,-0.0034170272,0.10036589,-0.15073113,-0.39366627,-0.36727795,0.059933376,3.0777738,-0.6236113,0.00025170093,-0.06480822,0.02157987,0.00033873823,-0.020396693,0.0063310596,0.004126253,0.49782357,-1.3773342,1.8992871,-2.091977,-1.5696243,2.4721131,-0.10515106,0.06083095,-0.07191322,-0.0041564833,0.014807586,-0.10924992,-0.61291564,0.05746084,-9.595961,0.78217715,47.650166,-1.0875261,-2.5934749,-3.2663345,-0.33917534,0.0764297,-0.3339573,28.9375,30.3125,29.3125,32.9375,35.4375,36.5
0.14405215,-1.5821961,-1.3971628,-2.2833796,-0.0080178445,0.10651732,-0.14423159,-0.3937986,-0.36725605,0.05994124,3.0777428,-0.6234315,0.00021449756,-0.06724993,0.021996563,0.002817151,-0.022583012,0.010946062,0.0019523205,0.49764302,-1.3772031,1.8991193,-2.0920007,-1.569589,2.4718244,-0.107889816,0.05824686,-0.07451164,-0.004064641,0.014530059,-0.109813064,-0.49799395,0.038307227,-9.615114,0.71951014,47.642998,-0.97072405,-2.4334705,-3.2633688,-0.34325203,0.07986179,-0.33813518,28.9375,30.3125,29.3125,32.9375,35.4375,36.5
0.14605187,-1.0794213,-1.3907113,-2.314097,-0.014522172,0.117533825,-0.1512711,-0.39394563,-0.36722317,0.05997854,3.0776267,-0.6235033,0.00017654587,-0.06837034,0.022563113,0.0020906886,-0.02237005,0.010329588,0.00143645,0.4974149,-1.3771181,1.8989285,-2.0919774,-1.5695285,2.4716558,-0.10990874,0.06049854,-0.07536174,-0.0048114797,0.014648397,-0.11131425,-0.61291564,0.019153614,-9.5385,0.7486078,47.682407,-0.89924234,-2.3882005,-3.1969447,-0.35186523,0.09147939,-0.3851289,28.9375,30.3125,29.3125,32.9375,35.4375,36.5
0.14805186,-1.8564304,-1.0441381,-2.2415476,-0.018252587,0.09817621,-0.15392078,-0.39407587,-0.36714712,0.05995245,3.0776498,-0.6235092,0.00019226033,-0.06951854,0.023017384,0.0020548499,-0.023019314,0.010593795,-0.0011426139,0.49717468,-1.3769737,1.8988193,-2.0919893,-1.5695404,2.4714165,-0.111970834,0.06136578,-0.076183684,-0.005398656,0.01509161,-0.11079741,-0.63206923,0.15322891,-9.404425,0.82022345,47.675243,-0.8887091,-2.4234028,-3.2201989,-0.34073758,0.11196208,-0.40678072,28.9375,30.3125,29.3125,32.9375,35.4375,36.5
0.15005207,-1.1606742,-1.0086296,-2.1821246,-0.01605435,0.119565465,-0.157112,-0.39420426,-0.36711836,0.05994405,3.07759,-0.6234533,0.000210117,-0.070630796,0.022633657,0.0027299752,-0.025343021,0.011701029,0.004310428,0.4969707,-1.3768295,1.8986758,-2.092026,-1.5694798,2.4711852,-0.11325804,0.06148812,-0.07772082,-0.0060524954,0.016615303,-0.1175374,-0.6703765,0.15322891,-9.557653,0.80679786,47.691364,-0.8661593,-2.4196362,-3.279336,-0.3420735,0.09902412,-0.39894435,28.9375,30.3125,29.3125,32.9375,35.4375,36.5
0.15205245,-0.9407612,-0.66201556,-2.3029919,-0.008208302,0.121585146,-0.16690652,-0.39434576,-0.36706737,0.059944626,3.0775762,-0.6234094,0.00016853418,-0.0709572,0.022788215,0.002378543,-0.025012985,0.011324649,0.008386137,0.496755,-1.376697,1.8985199,-2.092037,-1.5694798,2.470944,-0.11371994,0.06255757,-0.07816919,-0.0061758235,0.016516147,-0.12207405,-0.40222588,0.095768064,-9.481039,0.82022345,47.705692,-0.9358677,-2.4015632,-3.2601113,-0.3487928,0.10522315,-0.38303298,28.9375,30.3125,29.3125,32.9375,35.4375,36.5
0.15405233,-1.5361434,-1.20059,-2.1672857,0.015668651,0.086649634,-0.15086801,-0.39451662,-0.3670126,0.059953786,3.0775034,-0.6234082,9.345362e-05,-0.071321,0.022960156,0.0022218619,-0.025113462,0.010767324,0.015828168,0.49649134,-1.3765646,1.898353,-2.0920846,-1.569456,2.4706888,-0.11453207,0.063320726,-0.07879732,-0.0058523887,0.016893147,-0.13032675,-0.30645782,-0.019153614,-9.442732,0.7777002,47.699425,-0.99965906,-2.3737547,-3.2274368,-0.3637797,0.12144692,-0.2874655,28.9375,30.3125,29.3125,32.9375,35.4375,36.5
0.1560527,-0.94111735,-0.90228593,-2.2827234,0.01722459,0.08441509,-0.15138882,-0.39465532,-0.36695644,0.05994895,3.0774827,-0.6233597,0.00015508087,-0.073692106,0.022320464,0.0034761822,-0.026376776,0.014092172,0.023820087,0.49623975,-1.3764201,1.8981847,-2.0920498,-1.5694078,2.4704096,-0.1152987,0.06470164,-0.08318089,-0.0063513424,0.016422624,-0.13908328,-0.21068975,0.05746084,-9.461885,0.8560339,47.713753,-1.0518063,-2.4053597,-3.1528385,-0.34687436,0.13169171,-0.22366321,28.9375,30.3125,29.3125,32.9375,35.4375,36.5
0.15805225,-0.24838167,-0.6375994,-2.3855226,0.009776436,0.075398676,-0.14429124,-0.39482093,-0.36692443,0.05998004,3.0773852,-0.62331855,4.935995e-05,-0.07328261,0.022959689,0.002579311,-0.025793275,0.012490166,0.027026167,0.49601167,-1.3763117,1.8979934,-2.0920851,-1.5693716,2.4701684,-0.11612635,0.065143324,-0.08159541,-0.0066786166,0.01670099,-0.14311576,-0.095768064,0.038307227,-9.500193,0.8157518,47.72719,-0.9183756,-2.42724,-3.2023892,-0.34237003,0.13555813,-0.13506669,28.9375,30.3125,29.3125,32.9375,35.4375,36.5
0.16005266,-0.9457576,-1.5490906,-2.2635481,0.017473085,0.04145271,-0.14153998,-0.394958,-0.3668472,0.05995031,3.0774484,-0.6232153,6.797302e-05,-0.07504375,0.023942212,0.0028072284,-0.026249975,0.013508426,0.026121847,0.49577126,-1.3761433,1.8978614,-2.0920851,-1.5693959,2.4698555,-0.11930292,0.06565672,-0.0825917,-0.007304779,0.016617449,-0.14538807,-0.05746084,0.095768064,-9.481039,0.8224646,47.709274,-1.0905973,-2.293988,-3.3147607,-0.3365104,0.17199188,-0.081742905,28.9375,30.3125,29.3125,32.9375,35.4375,36.5
0.1620521,-0.61874115,-1.689977,-2.1363463,0.011882939,0.039663374,-0.13892923,-0.39511862,-0.36680725,0.059963346,3.0773606,-0.62317944,4.0389517e-05,-0.077019036,0.02307879,0.0041847634,-0.027693765,0.016250573,0.02229154,0.49551976,-1.3760109,1.8976802,-2.0921094,-1.5693358,2.4695928,-0.119592875,0.06674353,-0.08709019,-0.0069837077,0.016587423,-0.1418446,-0.15322891,0.076614454,-9.3661175,0.779936,47.684196,-0.96022177,-2.396388,-3.0640788,-0.3339733,0.18259642,-0.11688079,28.9375,30.3125,29.3125,32.9375,35.4375,36.5
0.16405225,-0.15419324,-1.3239588,-2.1777341,0.00940833,0.046808593,-0.14399146,-0.39527768,-0.36678478,0.06000288,3.077247,-0.62308306,-2.7606773e-05,-0.0767237,0.024086831,0.003292885,-0.02702011,0.0138641335,0.015265616,0.49529147,-1.3759147,1.8974789,-2.0921214,-1.5692633,2.4693189,-0.12132026,0.06717283,-0.085715555,-0.0063633835,0.017149713,-0.13654484,-0.11492168,0.095768064,-9.3661175,0.8112748,47.690468,-1.0126796,-2.3082867,-3.1875157,-0.3344829,0.18887338,-0.14733712,28.9375,30.3125,29.3125,32.9375,35.4375,36.5
0.1660519,-0.54706776,-1.0545539,-2.0844443,-0.0031110935,0.034566537,-0.1510862,-0.39542982,-0.36670804,0.05997318,3.0772605,-0.62304896,1.3961783e-05,-0.07715343,0.02391047,0.002842048,-0.027040264,0.012801799,0.010045876,0.4950159,-1.3757339,1.8973345,-2.0921328,-1.5692514,2.4690204,-0.12169534,0.069176555,-0.08716401,-0.005995977,0.017667454,-0.1316999,-0.1340753,0.05746084,-9.404425,0.779936,47.705692,-1.0322139,-2.3562396,-3.1924114,-0.3499332,0.21393129,-0.24328586,28.9375,30.3125,29.3125,32.9375,35.4375,36.5
0.16805224,-0.46146736,-1.513013,-2.1844232,-0.00013211192,0.038789377,-0.1409783,-0.39557284,-0.3666598,0.05997513,3.0772605,-0.62293637,-5.570261e-05,-0.07815729,0.024670964,0.0027973957,-0.028054923,0.011953792,0.003917144,0.49481118,-1.3756015,1.8971785,-2.0921571,-1.5692629,2.4687455,-0.1246597,0.06967196,-0.08773214,-0.0056659738,0.018969925,-0.12853472,0.0,0.30645782,-9.346964,0.8247004,47.704796,-0.91431546,-2.3091116,-3.2158232,-0.37634814,0.19849366,-0.28927827,28.9375,30.3125,29.3125,32.9375,35.4375,36.5
0.17005228,-0.41937727,-1.5156196,-2.180564,-0.0049282573,0.039001487,-0.14456716,-0.39572695,-0.36662728,0.059990402,3.0771656,-0.62287754,1.2480907e-05,-0.07778757,0.024034891,0.0023662464,-0.027977943,0.011136907,0.0031171376,0.4945486,-1.3754568,1.896964,-2.092121,-1.5691546,2.4684582,-0.12340736,0.07098485,-0.08832987,-0.0056110383,0.019296601,-0.1264814,0.019153614,0.30645782,-9.385271,0.82022345,47.709274,-1.1752088,-2.316753,-3.2485452,-0.3617237,0.21876541,-0.3540442,28.9375,30.3125,29.3125,32.9375,35.4375,36.5
0.17205255,0.14842147,-1.5050803,-2.1024384,-0.022688847,0.056392968,-0.1528786,-0.39588803,-0.36656988,0.060001597,3.077146,-0.622875,-8.401452e-05,-0.078558624,0.024803769,0.0021285326,-0.027704088,0.010452253,-0.00076958,0.49432012,-1.3753245,1.8967842,-2.0921328,-1.5691789,2.4682307,-0.12541758,0.0718202,-0.088893585,-0.005151879,0.019390458,-0.12460348,0.019153614,0.34476504,-9.423578,0.80679786,47.696735,-1.0359374,-2.3231175,-3.2593508,-0.37958884,0.23226795,-0.4281531,28.9375,30.3125,29.3125,32.9375,35.4375,36.5
0.17405379,-0.47212124,-1.7269971,-2.0218937,-0.02226407,0.04373982,-0.14517137,-0.39604425,-0.3665199,0.060004927,3.0770605,-0.6229527,-6.551378e-05,-0.07934773,0.024919631,0.0020584243,-0.0281018,0.010326529,-0.0017764525,0.49405634,-1.3751798,1.8966049,-2.0921328,-1.5691189,2.4680264,-0.12654348,0.07294698,-0.090077505,-0.005161336,0.019807953,-0.124721274,0.038307227,0.30645782,-9.404425,0.78888994,47.70032,-1.1570057,-2.2757583,-3.335456,-0.37841737,0.24010764,-0.4798597,28.9375,30.3125,29.3125,32.9375,35.4375,36.5
0.17611045,0.038800273,-1.5343109,-2.1735916,-0.030602112,0.054137927,-0.15019,-0.3962171,-0.36647707,0.06002414,3.0769804,-0.6228959,-0.00014467594,-0.080598846,0.02556804,0.0023116558,-0.029025625,0.010488993,-0.0017970229,0.493804,-1.3750478,1.8964127,-2.0921686,-1.5690821,2.4677489,-0.12919052,0.07327888,-0.091074124,-0.0050664,0.020563932,-0.12734546,0.019153614,0.2681506,-9.481039,0.8403672,47.71554,-1.1605508,-2.2837477,-3.3189683,-0.37927866,0.23858069,-0.51672006,28.9375,30.3125,29.3125,32.9375,35.4375,36.5
0.17809711,-0.4229822,-2.0702686,-2.1381247,-0.019021997,0.049613226,-0.14786032,-0.39635357,-0.36641023,0.059994366,3.0769908,-0.6228336,-8.898764e-05,-0.0808675,0.025770789,0.0009140225,-0.028460013,0.008157647,0.007653639,0.49355215,-1.3748784,1.8962821,-2.092181,-1.5690578,2.4674568,-0.13012196,0.076413415,-0.091564424,-0.005366343,0.021186002,-0.13772745,0.05746084,0.30645782,-9.442732,0.8090337,47.682407,-1.1129562,-2.2990785,-3.3310518,-0.37205374,0.2573704,-0.45900685,28.9375,30.3125,29.3125,32.9375,35.4375,36.5
0.1800971,-0.54905397,-1.5414094,-2.0626647,-0.029655049,0.0455932,-0.15256195,-0.39651966,-0.3663635,0.06001131,3.0769231,-0.6227951,-0.00014077386,-0.08214178,0.025726473,0.0022149903,-0.03050687,0.010694466,0.01578156,0.49330023,-1.3747467,1.8960899,-2.092193,-1.569022,2.4671896,-0.1315435,0.075058185,-0.092777945,-0.0059770523,0.021813143,-0.1472751,0.11492168,0.21068975,-9.423578,0.784413,47.68599,-1.1125252,-2.3695135,-3.293014,-0.39731705,0.26194686,-0.40691888,28.9375,30.3125,29.3125,32.9375,35.4375,36.5
0.1820947,-0.64556235,-1.8188915,-2.019562,-0.024363633,0.058292545,-0.15455137,-0.39670137,-0.36630428,0.06001179,3.0768783,-0.62276053,-0.00014648534,-0.08284602,0.02586307,0.0023778812,-0.03158563,0.0104650315,0.025136128,0.49301255,-1.3745664,1.8958749,-2.092193,-1.5689853,2.466886,-0.13303037,0.07549443,-0.0937292,-0.005744001,0.02289933,-0.15811534,-0.038307227,0.24899697,-9.481039,0.842603,47.666286,-1.1533506,-2.101219,-3.3408551,-0.39901772,0.25406858,-0.2848643,28.9375,30.3125,29.3125,32.9375,35.4375,36.5
0.18405522,-0.9168163,-1.7231537,-2.0703952,-0.011858277,0.06251433,-0.14401631,-0.396843,-0.3662574,0.06000822,3.0768478,-0.62259775,-8.646283e-05,-0.08467654,0.026045786,0.00073889416,-0.031262595,0.007939874,0.029182745,0.49276003,-1.3744202,1.8957065,-2.092181,-1.5689129,2.4665358,-0.13552772,0.08148849,-0.09707932,-0.0059847008,0.02381929,-0.16465676,-0.095768064,0.19153613,-9.32781,0.80679786,47.705692,-1.1071498,-2.3262305,-3.3424683,-0.40882418,0.25442934,-0.19814034,28.9375,30.3125,29.3125,32.9375,35.4375,36.5
0.1860531,-1.1494701,-1.2553564,-1.8961437,-0.006870391,0.075490825,-0.14671214,-0.39702517,-0.36622533,0.06001044,3.0767496,-0.6225,-0.00012803616,-0.08432647,0.027202586,0.00021686892,-0.03141189,0.0064071105,0.02963772,0.49249595,-1.3742404,1.8955044,-2.0922525,-1.5688409,2.4662232,-0.13764404,0.08045247,-0.094652146,-0.0060760467,0.0247061,-0.16722685,-0.1340753,0.05746084,-9.3661175,0.87617236,47.678825,-1.1145086,-2.3375638,-3.4099874,-0.4188438,0.26393378,-0.16261464,28.9375,30.3125,29.3125,32.9375,35.4375,36.5
0.18805207,-0.32325515,-1.2062883,-1.8499297,-0.0018984639,0.10783074,-0.14223717,-0.39718032,-0.36614823,0.059997853,3.076799,-0.62237805,-0.00011089361,-0.085126735,0.026362486,0.0003794131,-0.032515433,0.0064656655,0.02433045,0.49223253,-1.3740715,1.8953241,-2.0922167,-1.5688523,2.4658775,-0.1374881,0.08237106,-0.09736022,-0.0058686696,0.025637912,-0.16176274,-0.4596867,0.13407528,-9.270349,0.83365434,47.67614,-1.084245,-2.3557782,-3.3849912,-0.41384333,0.27531123,-0.17269805,28.9375,30.3125,29.3125,32.9375,35.4375,36.5
0.19005245,-1.3217559,-0.5377497,-1.5891857,-0.0049986667,0.09267331,-0.14178123,-0.39738506,-0.36611006,0.06001867,3.0766299,-0.62240416,-0.00012034599,-0.08601024,0.026932431,-0.00015050388,-0.03298663,0.0056356057,0.017216705,0.4919084,-1.3739027,1.8950847,-2.092253,-1.5687326,2.4655912,-0.13968663,0.08381904,-0.097767524,-0.006385269,0.026458662,-0.15684421,-0.5554548,0.1340753,-9.232041,0.8493211,47.704796,-0.98279345,-2.385391,-3.2575235,-0.40782267,0.26699704,-0.2264171,28.9375,30.3125,29.3125,32.9375,35.4375,36.5
0.19205204,-1.3632152,-0.7324851,-1.8153188,0.012185428,0.101258926,-0.14733362,-0.39752007,-0.36605924,0.060012747,3.076598,-0.6222449,-6.262781e-05,-0.087897345,0.027980601,0.00017916912,-0.03351993,0.0064643044,0.010620562,0.49165595,-1.3737706,1.8949412,-2.092253,-1.5686606,2.4652433,-0.14315993,0.08438604,-0.09916719,-0.0065236106,0.026535641,-0.15372044,-0.49799395,0.0,-9.308657,0.86498255,47.677036,-1.1027585,-2.293798,-3.389328,-0.39772838,0.25072008,-0.29842958,28.9375,30.3125,29.3125,32.9375,35.4375,36.5
0.19405258,-1.5325018,-0.7168502,-1.6996179,0.023899801,0.102129005,-0.14428595,-0.39768788,-0.36600408,0.06000492,3.0765615,-0.6222363,-1.41027795e-05,-0.088294536,0.02669322,0.00057877373,-0.03425996,0.007045348,0.011733524,0.491381,-1.3735781,1.8947247,-2.0922287,-1.568612,2.4649677,-0.14153317,0.085969985,-0.10208018,-0.0060436903,0.026913637,-0.15320525,-0.59376204,-0.11492168,-9.308657,0.7486078,47.691364,-1.1703457,-2.25789,-3.3203454,-0.40076846,0.2427992,-0.34641027,28.9375,30.3125,29.3125,32.9375,35.4375,36.5
0.19605207,-1.5334579,-0.59543896,-1.6170065,0.021636704,0.11012998,-0.14630264,-0.39785904,-0.36591062,0.059991445,3.0765507,-0.6222921,-1.3728201e-05,-0.08969959,0.027305568,0.0009339837,-0.0349055,0.007918509,0.009287587,0.49106884,-1.3734215,1.8945693,-2.0922287,-1.568612,2.4646919,-0.14387746,0.08632242,-0.103264876,-0.0062781945,0.027074637,-0.15310308,-0.61291564,-0.019153614,-9.289502,0.8224646,47.690468,-1.3036499,-2.421901,-3.2583327,-0.41963685,0.25587037,-0.37165177,28.9375,30.3125,29.3125,32.9375,35.4375,36.5
0.19805257,-1.1632638,-0.272908,-1.6684961,0.016887007,0.123866946,-0.15780398,-0.3980561,-0.36589468,0.06000771,3.0764227,-0.62216705,-6.364505e-05,-0.09125807,0.028113427,0.001365784,-0.03510441,0.009347659,0.009423933,0.49080467,-1.373229,1.8943175,-2.0922892,-1.5685166,2.464366,-0.14628302,0.08649265,-0.10437106,-0.006667267,0.026602358,-0.15564156,-0.61291564,-0.076614454,-9.232041,0.8403672,47.703903,-1.2322929,-2.3086853,-3.220374,-0.4102075,0.26997638,-0.38927382,28.9375,30.3125,29.3125,32.9375,35.4375,36.5
0.20005223,-1.5142198,-0.34692553,-1.6631095,0.012537647,0.11748155,-0.15560555,-0.39824614,-0.36583903,0.06000709,3.0763636,-0.6220934,-0.00011244459,-0.092854604,0.027710414,0.00070373685,-0.034877043,0.00860907,0.015427676,0.49051687,-1.3730475,1.8941139,-2.092337,-1.5684804,2.4640398,-0.14709054,0.091001675,-0.108285375,-0.0064754086,0.02677279,-0.16244876,-0.61291564,-0.1340753,-9.308656,0.82694155,47.672558,-1.1800897,-2.462186,-3.2543097,-0.41303426,0.2703936,-0.3449955,28.9375,30.3125,29.3125,32.9375,35.4375,36.5
0.20205234,-1.1654121,-0.5982185,-1.6273589,0.007075358,0.12830754,-0.1552371,-0.39841872,-0.36576325,0.059983343,3.0763586,-0.6220111,-3.588962e-05,-0.09344631,0.030006193,0.00060068024,-0.03432848,0.0082068825,0.021014705,0.49020398,-1.372844,1.8939232,-2.092325,-1.5684327,2.4636762,-0.15125616,0.0891233,-0.105858915,-0.006370957,0.026505861,-0.17220356,-0.61291564,-0.11492168,-9.289502,0.85155696,47.661808,-1.0813273,-2.3148844,-3.2850301,-0.4220913,0.28478068,-0.25031075,28.9375,30.3125,29.3125,32.9375,35.4375,36.5
0.2040526,-1.2568632,-0.9645018,-1.5472006,0.013210236,0.12577942,-0.14755675,-0.3986209,-0.36569935,0.06001695,3.0762608,-0.6219451,-6.351811e-05,-0.09475083,0.029173862,0.0007016222,-0.034856547,0.008253705,0.030959578,0.48986888,-1.3727107,1.8936828,-2.0923002,-1.5683597,2.4633124,-0.15125819,0.09222084,-0.10994872,-0.0056252894,0.026984416,-0.18214613,-0.8236054,-0.05746084,-9.289502,0.8090337,47.678825,-1.1863769,-2.4288657,-3.3089018,-0.43544972,0.29319692,-0.12820992,28.9375,30.3125,29.3125,32.9375,35.4375,36.5
0.20605215,-1.5258696,-0.36720863,-1.8132684,0.016005732,0.12500651,-0.14621751,-0.39879668,-0.36563137,0.059990566,3.0762813,-0.6218317,-9.91011e-06,-0.09462628,0.02971003,-0.0003503435,-0.034354262,0.0063600787,0.034153216,0.48958123,-1.3724821,1.8934683,-2.0922887,-1.5683359,2.4629514,-0.15226944,0.09358765,-0.10915195,-0.0058609894,0.027443247,-0.18635163,-0.7852981,-0.05746084,-9.270349,0.8560339,47.696735,-1.2115018,-2.4845233,-3.270866,-0.43481022,0.28933007,-0.042568505,28.9375,30.3125,29.3125,32.9375,35.4375,36.5
0.20805247,-1.5318034,-0.48765594,-1.7599751,0.018704524,0.12249849,-0.14773147,-0.39900157,-0.36558416,0.060010303,3.0761597,-0.62175095,-2.964452e-05,-0.09584927,0.029303098,-4.9329923e-05,-0.035666198,0.007095413,0.029115159,0.48925757,-1.3723134,1.8932284,-2.0923126,-1.5682396,2.4625928,-0.15312003,0.095024526,-0.11146972,-0.006232257,0.02826578,-0.18215999,-0.6512228,-0.019153614,-9.423578,0.8403672,47.709274,-1.2109535,-2.4391632,-3.164345,-0.43861616,0.2860935,-0.06709936,28.9375,30.3125,29.3125,32.9375,35.4375,36.5
0.2100521,-1.6960164,-0.7947071,-1.7159426,0.013773454,0.11357275,-0.13287349,-0.3992056,-0.36552417,0.060011018,3.0761259,-0.621632,-7.820715e-05,-0.09714313,0.02931781,0.00010601917,-0.0361311,0.007658894,0.021279514,0.48895788,-1.3721085,1.8929886,-2.092337,-1.5682153,2.4622233,-0.15432635,0.09655035,-0.1136362,-0.0063116057,0.028410185,-0.17552786,-0.7469909,0.076614454,-9.212888,0.85826975,47.719128,-1.2716782,-2.5211911,-3.1472573,-0.4578033,0.2948851,-0.11369319,28.9375,30.3125,29.3125,32.9375,35.4375,36.5
0.21205205,-0.71961534,-0.34219393,-1.676338,-0.0030888098,0.11982549,-0.15317407,-0.39939776,-0.3654593,0.060004033,3.0760787,-0.6216056,-5.9396043e-05,-0.0978809,0.029425427,5.1192896e-05,-0.03592281,0.00780243,0.01397674,0.4886464,-1.371904,1.8927611,-2.092337,-1.5681676,2.4619014,-0.15494132,0.09775245,-0.11498749,-0.006190244,0.028153228,-0.16883892,-0.6512228,0.11492168,-9.289502,0.82022345,47.677036,-1.3142068,-2.55248,-3.1113381,-0.44160068,0.30838645,-0.22145364,28.9375,30.3125,29.3125,32.9375,35.4375,36.5
0.21405227,-0.9508913,-0.87915987,-2.097093,-0.003189064,0.09544326,-0.14825669,-0.3996002,-0.36540696,0.060008384,3.0759976,-0.62155205,-0.00011253917,-0.0986983,0.029628333,0.0006698561,-0.036762252,0.008362346,0.00802053,0.48834658,-1.3717121,1.8925337,-2.092384,-1.5681194,2.4615786,-0.1562433,0.097489476,-0.11623533,-0.0055650054,0.028641252,-0.16418166,-0.5363012,0.19153613,-9.289502,0.8090337,47.66808,-1.3274915,-2.4057138,-3.1055565,-0.44226736,0.31110486,-0.32894325,28.9375,30.3125,29.3125,32.9375,35.4375,36.5
0.21605176,-0.6753331,-1.3270158,-2.1911209,-0.019384429,0.08352427,-0.14361401,-0.39977086,-0.36529493,0.05996668,3.0760126,-0.62163514,6.627589e-05,-0.10026209,0.030088998,0.00058412465,-0.03775686,0.008107806,-4.247013e-05,0.48797476,-1.3714951,1.8923539,-2.0923126,-1.5680708,2.4612567,-0.15895824,0.09922143,-0.11809666,-0.005676234,0.029614713,-0.15883508,-0.36391866,0.2681506,-9.404425,0.8627467,47.698532,-1.3865666,-2.5227718,-3.0841243,-0.45071602,0.3159591,-0.39870214,28.9375,30.3125,29.3125,32.9375,35.4375,36.5
0.2180523,-0.6649052,-1.3723509,-2.2275174,-0.032218125,0.076666564,-0.15608433,-0.39999598,-0.365243,0.059978116,3.0759337,-0.62157977,-1.43595935e-05,-0.10067574,0.029884133,0.0007387624,-0.038168266,0.008861234,-0.0009575738,0.4876632,-1.3712788,1.8920788,-2.0923488,-1.568035,2.4609208,-0.1589184,0.09959072,-0.11878431,-0.0062039313,0.029643087,-0.15787703,-0.28730422,0.22984336,-9.423578,0.83813137,47.67345,-1.3397378,-2.4010031,-3.0749812,-0.46933624,0.32976413,-0.4895295,28.9375,30.3125,29.375,32.9375,35.4375,36.5
0.22005266,-0.15858112,-1.4613798,-2.2573035,-0.038384836,0.07710055,-0.15030128,-0.4002087,-0.36516666,0.059964128,3.0758686,-0.62156236,-2.4181498e-05,-0.10274691,0.0314412,0.0007136046,-0.038065046,0.009278061,0.0018220007,0.48731428,-1.3710623,1.8918637,-2.092397,-1.5679868,2.4605694,-0.16315226,0.1006394,-0.119959556,-0.006359204,0.02938593,-0.1648888,-0.1340753,0.22984336,-9.442732,0.800085,47.661808,-1.0653476,-2.4965475,-3.1435761,-0.4540781,0.33634347,-0.49208,28.9375,30.3125,29.375,32.9375,35.4375,36.4375
0.22205178,-0.41159824,-1.2628512,-2.263678,-0.043079816,0.06037336,-0.15911923,-0.40040714,-0.3651017,0.059976526,3.0757756,-0.62159437,-3.8292586e-05,-0.10376065,0.032410134,0.00114997,-0.03915146,0.009741198,0.011309273,0.48699006,-1.3708944,1.8916358,-2.092397,-1.5679268,2.460277,-0.16609816,0.099745005,-0.119885765,-0.006404958,0.030176539,-0.17731987,-0.019153614,0.2681506,-9.576807,0.83813137,47.68062,-1.1049957,-2.3785052,-3.1814947,-0.45885593,0.33475882,-0.4047637,28.9375,30.3125,29.375,32.9375,35.4375,36.4375
0.22405216,0.095325336,-1.6396315,-2.296255,-0.0319348,0.054035492,-0.15444013,-0.40064323,-0.36505285,0.060000673,3.0757017,-0.62151307,-8.800416e-05,-0.103952385,0.03266977,-0.0009908918,-0.03867952,0.0053626243,0.022712244,0.48666647,-1.3706644,1.8913015,-2.0923727,-1.5678781,2.4599123,-0.16765656,0.104458235,-0.120715305,-0.006148578,0.031859934,-0.1902764,0.05746084,0.30645782,-9.595961,0.7642693,47.677036,-0.9887,-2.503197,-3.0577338,-0.46702543,0.325691,-0.27135876,28.9375,30.3125,29.375,32.9375,35.4375,36.4375
0.22605182,-0.41127253,-1.2249094,-2.2649987,-0.04648858,0.036076225,-0.1556435,-0.40083307,-0.36495897,0.059960853,3.075659,-0.62148255,-2.6114071e-06,-0.10499372,0.032671817,0.0012042919,-0.04181498,0.008557604,0.028167956,0.4862943,-1.3704495,1.891147,-2.0924203,-1.5678061,2.4595265,-0.16931373,0.10086225,-0.121448666,-0.006067636,0.03316034,-0.19738892,0.019153614,0.30645782,-9.461885,0.7642693,47.664497,-0.9659457,-2.3974223,-3.3352628,-0.47482747,0.32460588,-0.17935205,28.9375,30.3125,29.375,32.9375,35.4375,36.4375
0.22805232,-0.16284339,-1.6234423,-2.5039005,-0.025325416,0.0469604,-0.14412901,-0.40104154,-0.3648997,0.05997385,3.0755992,-0.6213548,-1.2928991e-05,-0.10516449,0.033134717,-0.0014109673,-0.04174314,0.0035052144,0.026368707,0.48597062,-1.3702556,1.8908838,-2.0924084,-1.5677451,2.4591308,-0.17159306,0.10592366,-0.12142661,-0.0066343914,0.035476554,-0.19786409,-0.076614454,0.26815057,-9.385271,0.8605109,47.661808,-1.1012118,-2.4665267,-3.2706943,-0.45585,0.31318682,-0.15965754,28.9375,30.3125,29.375,32.9375,35.4375,36.4375
0.23005272,0.21231273,-1.1661017,-2.3845704,-0.025348319,0.048516605,-0.15163429,-0.40125316,-0.36484113,0.05997331,3.0755022,-0.62129813,2.1965614e-05,-0.10556348,0.031410277,0.00071882986,-0.04620124,0.0063537406,0.021522498,0.48562333,-1.3700403,1.8906316,-2.0924208,-1.5676483,2.4587605,-0.17057256,0.10350233,-0.12332239,-0.006913499,0.03808775,-0.19199266,0.076614454,0.19153613,-9.461885,0.8717007,47.67345,-1.1040266,-2.4497716,-3.282798,-0.4580223,0.2703079,-0.1992547,28.9375,30.3125,29.375,32.9375,35.4375,36.4375
0.23205204,0.21324602,-1.1567243,-2.0625627,-0.024595177,0.055384345,-0.15103588,-0.4014698,-0.3647685,0.059984572,3.0754187,-0.6212066,7.631976e-06,-0.10614372,0.032643966,-0.0006241832,-0.04485112,0.004140977,0.013865679,0.4852635,-1.3698593,1.8903931,-2.0924327,-1.5675763,2.4583542,-0.17298196,0.10585901,-0.12310368,-0.006890249,0.03793572,-0.18674256,0.076614454,0.21068975,-9.461885,0.85826975,47.691364,-1.0428126,-2.384883,-3.3103373,-0.4481485,0.26182976,-0.29992217,28.9375,30.3125,29.375,32.9375,35.4375,36.4375
0.23405243,0.6435779,-0.5597925,-2.1710021,-0.025696412,0.04940558,-0.16343048,-0.40167984,-0.36471796,0.059952576,3.0753589,-0.6211388,7.778251e-05,-0.106806874,0.034132816,-0.0010984028,-0.044634525,0.0030325057,0.008127696,0.4849391,-1.369571,1.8901304,-2.0924685,-1.5674919,2.4579952,-0.17619152,0.10594517,-0.12217595,-0.0068037747,0.038266335,-0.18421385,0.13407528,0.1340753,-9.557653,0.80679786,47.677036,-0.9769296,-2.4675155,-3.4083712,-0.46536976,0.25226521,-0.3444992,28.9375,30.3125,29.375,32.9375,35.4375,36.4375
0.23605177,0.26286963,-0.9175854,-2.2085621,-0.005586647,0.028624868,-0.15181272,-0.40189523,-0.36463585,0.059951264,3.0752995,-0.621125,8.050129e-05,-0.108643204,0.03351494,0.00079823553,-0.04852638,0.006169122,0.006286119,0.48457912,-1.3693672,1.8898906,-2.0924685,-1.5674433,2.4576342,-0.17792572,0.10465299,-0.12480258,-0.0074583646,0.04025648,-0.18410204,0.17238252,0.076614454,-9.557653,0.83589023,47.695843,-0.8961276,-2.2981837,-3.3600295,-0.4709493,0.23467934,-0.36879107,28.9375,30.3125,29.375,32.9375,35.4375,36.4375
0.23805203,0.013111878,-0.7604705,-2.1001246,-0.010159125,0.014968118,-0.15126428,-0.4021247,-0.3645875,0.0599615,3.0751514,-0.6210903,8.5409796e-05,-0.10884436,0.03387483,-0.0014331315,-0.047854744,0.0020771779,0.01065202,0.48421943,-1.3691492,1.8896159,-2.0925047,-1.5673231,2.4572718,-0.17944632,0.109314285,-0.12526281,-0.007673535,0.041608423,-0.18998243,0.11492168,0.076614454,-9.519346,0.8157518,47.682407,-0.8938393,-2.4503875,-3.5544872,-0.46784088,0.21589638,-0.36833736,28.9375,30.3125,29.375,32.9375,35.4375,36.4375
0.24005228,-0.30011883,-1.023056,-2.0728235,-0.0069646398,0.026275262,-0.15042615,-0.4023138,-0.364516,0.059966486,3.0750828,-0.62097406,0.00014920969,-0.110188685,0.03407608,0.00031988838,-0.05043896,0.0043825605,0.018328281,0.48387173,-1.3689821,1.8893999,-2.0924804,-1.5672268,2.4568603,-0.18166721,0.10709278,-0.12671238,-0.0071825874,0.04286142,-0.19987702,-0.11492168,0.076614454,-9.461885,0.83365434,47.647476,-0.9695176,-2.3261206,-3.4334226,-0.4621986,0.17437369,-0.29499742,28.9375,30.3125,29.375,32.9375,35.4375,36.4375
0.24205211,-0.55975103,-1.1820501,-2.2304296,0.0059479875,0.048298053,-0.15091547,-0.40257314,-0.3644476,0.05998544,3.0749838,-0.62088734,7.881167e-05,-0.110064484,0.03294019,-0.0010294218,-0.049735833,0.0016713094,0.03192831,0.48348898,-1.368752,1.889088,-2.0925043,-1.5671662,2.4564362,-0.1799724,0.11180613,-0.12948672,-0.0063258726,0.043560434,-0.2117753,-0.038307227,0.1340753,-9.442732,0.84708,47.68062,-1.0160158,-2.4674902,-3.4196239,-0.46611485,0.1388772,-0.18016225,28.9375,30.3125,29.375,32.9375,35.4375,36.4375
0.24405243,-0.80733585,-0.52037096,-1.9043939,-0.011523993,0.07943296,-0.14979021,-0.40275273,-0.36438814,0.059975352,3.074947,-0.62066495,0.00013282431,-0.11068586,0.0327082,0.0002493168,-0.051615745,0.0033656186,0.03674142,0.48317757,-1.3685606,1.8888854,-2.0925157,-1.5670818,2.4559906,-0.1806107,0.11016947,-0.13052998,-0.005971708,0.04446447,-0.21722455,-0.17238252,0.095768064,-9.5385,0.78217715,47.675243,-1.0330882,-2.3512409,-3.333292,-0.4829771,0.12324514,-0.08199228,28.9375,30.3125,29.375,32.9375,35.4375,36.4375
0.24605258,-1.2096303,-1.4529495,-2.2388637,0.004453033,0.10093686,-0.1508386,-0.40298724,-0.36432874,0.05996974,3.074873,-0.6206314,0.00018719508,-0.11158408,0.032665115,0.0004022074,-0.05164871,0.0034466563,0.032750417,0.48281798,-1.3682837,1.8885626,-2.0924919,-1.5669979,2.4556196,-0.1812295,0.1115603,-0.13273178,-0.005226153,0.04445768,-0.2138505,-0.2681506,0.17238252,-9.557653,0.88289046,47.683304,-1.1460804,-2.3186493,-3.3787808,-0.483147,0.08101761,-0.079988666,28.9375,30.3125,29.375,32.9375,35.4375,36.4375
0.24805197,-1.9775839,-1.5551462,-2.0113633,-0.0039635766,0.09985505,-0.1430812,-0.40319854,-0.36426035,0.05997645,3.0747466,-0.6205513,0.00024347534,-0.11113894,0.032759912,-0.0004943768,-0.05051125,0.0016829957,0.024773644,0.4824347,-1.3681029,1.8883346,-2.0925038,-1.5668663,2.4552023,-0.18078226,0.11310341,-0.13266675,-0.004730903,0.044267703,-0.20542406,-0.49799395,0.15322891,-9.557653,0.8224646,47.67614,-1.14196,-2.380538,-3.4275699,-0.49532533,0.04690577,-0.14534247,28.9375,30.3125,29.375,32.9375,35.4375,36.4375
0.25005195,-1.1958597,-0.96530324,-2.0066562,-0.025574438,0.13186234,-0.15852419,-0.4034224,-0.36420727,0.059992798,3.074675,-0.62036824,0.00018476445,-0.11291961,0.0334126,-4.0112503e-05,-0.050041374,0.0032192564,0.015398495,0.48211056,-1.3678983,1.888059,-2.0925276,-1.5668067,2.4547732,-0.18266419,0.11412222,-0.13496496,-0.0045934548,0.04313919,-0.19792746,-0.59376204,0.17238252,-9.519346,0.83365434,47.67614,-1.1123053,-2.4199579,-3.381231,-0.51344544,0.044146918,-0.25582886,28.9375,30.3125,29.375,32.9375,35.4375,36.4375
0.2520521,-1.4017988,-1.1975825,-2.0107305,-0.022967018,0.12788181,-0.15784611,-0.40365818,-0.3641542,0.05999994,3.0745425,-0.6204019,0.00024479837,-0.11461413,0.034195293,4.0252107e-05,-0.04939688,0.0043099057,0.006431626,0.48173878,-1.3676456,1.8877362,-2.0925043,-1.5666865,2.4544394,-0.18470456,0.115543015,-0.13681814,-0.004813194,0.042055678,-0.19099987,-0.49799395,0.2681506,-9.519346,0.84708,47.660015,-1.1926148,-2.3681166,-3.3175569,-0.50900173,0.05411773,-0.37903926,28.9375,30.3125,29.375,32.9375,35.4375,36.4375
0.2540524,-1.90947,-1.4689493,-2.0204406,-0.020863937,0.10930161,-0.15278813,-0.40386716,-0.3640856,0.05998586,3.07446,-0.62028736,0.0002800615,-0.11530024,0.0342524,0.0004321108,-0.048868164,0.0057137054,0.0041958755,0.4813801,-1.3674295,1.8875211,-2.092552,-1.5665911,2.4540198,-0.18462822,0.11581827,-0.1380562,-0.0048220465,0.04094551,-0.1886873,-0.61291564,0.24899697,-9.557653,0.8224646,47.67166,-1.352874,-2.3919537,-3.3869135,-0.5089227,0.032925323,-0.4632464,28.9375,30.3125,29.375,32.9375,35.4375,36.4375
0.25605232,-1.9794462,-1.70562,-1.5217341,-0.025133083,0.10762908,-0.15825216,-0.4041214,-0.36400998,0.05999937,3.0743396,-0.62033325,0.0002459892,-0.11733492,0.033502948,0.0011014056,-0.04870707,0.00902207,0.0128406845,0.48098448,-1.3672003,1.8872198,-2.0925639,-1.5665196,2.4536684,-0.18404838,0.11823894,-0.1422602,-0.005827517,0.039313126,-0.19674993,-0.7086837,0.22984336,-9.442732,0.8851263,47.690468,-1.4775448,-2.3815293,-3.1967828,-0.5177505,0.02920565,-0.48325422,28.9375,30.3125,29.375,32.9375,35.4375,36.4375
0.25805238,-1.4359674,-1.1902845,-1.4968407,-0.020856015,0.12656242,-0.17376815,-0.40434197,-0.36394,0.059978276,3.0743163,-0.62022525,0.00030603207,-0.11765913,0.034983642,-0.0002853864,-0.04573442,0.007698448,0.025076816,0.48063594,-1.3669232,1.8869342,-2.092552,-1.5664605,2.4532554,-0.18551287,0.12021205,-0.14148244,-0.005939181,0.037344474,-0.21045442,-0.5554548,0.30645782,-9.346964,0.8179876,47.675243,-1.4749393,-2.4919443,-3.2448616,-0.5055903,0.06158535,-0.3882727,28.9375,30.3125,29.375,32.9375,35.4375,36.4375
0.26005256,-1.4095875,-0.74216056,-1.6698622,-0.0050718538,0.1196004,-0.16295797,-0.4046026,-0.36387545,0.05998661,3.0742116,-0.62006336,0.00028118512,-0.11998558,0.035899248,0.000493485,-0.04516988,0.010437157,0.03466314,0.4802391,-1.366671,1.8866223,-2.0925877,-1.5663651,2.452771,-0.18793502,0.120931804,-0.1440953,-0.0061205532,0.03564304,-0.22246177,-0.30645782,0.21068975,-9.461885,0.842603,47.653748,-1.4671481,-2.3630576,-3.1509604,-0.52017295,0.061457142,-0.2429891,28.9375,30.3125,29.375,32.9375,35.4375,36.4375
0.26205164,-0.9508575,-0.30528915,-1.5355691,-0.009311176,0.10852635,-0.17186348,-0.4048743,-0.36381498,0.06001984,3.0740728,-0.6199769,0.00016078337,-0.12166008,0.036842614,0.00093012844,-0.044927724,0.011636733,0.036808647,0.47985435,-1.3664545,1.8862995,-2.0926359,-1.5662936,2.4523501,-0.19043344,0.12146399,-0.14580508,-0.0058424105,0.034933254,-0.22710124,-0.3256114,0.1340753,-9.404425,0.9097417,47.668976,-1.4453151,-2.5063412,-3.1350985,-0.5055293,0.05674315,-0.17180638,28.9375,30.3125,29.375,32.9375,35.4375,36.4375
0.26405185,-1.1305543,-0.88026077,-1.4559506,-0.007388397,0.08592111,-0.15390979,-0.4051175,-0.36373413,0.06002036,3.074031,-0.61985564,0.00012322803,-0.12251684,0.037203103,-1.4802131e-05,-0.043613143,0.010869928,0.031705983,0.47948232,-1.3662132,1.8860129,-2.0926483,-1.5662574,2.4519079,-0.19118734,0.12447548,-0.14722031,-0.0061471956,0.03412618,-0.22275117,-0.51714754,0.15322891,-9.212888,0.84708,47.666286,-1.3899889,-2.435812,-3.1522307,-0.48660672,0.08058694,-0.16367495,28.9375,30.3125,29.375,32.9375,35.4375,36.4375
0.2660522,-0.40829423,-0.7389494,-1.3682145,0.007956883,0.08260907,-0.15830976,-0.4053715,-0.36365053,0.06002833,3.073992,-0.6197566,9.5581556e-05,-0.12503083,0.038504325,0.0014393562,-0.043430798,0.014969111,0.021055171,0.47909728,-1.3659616,1.8856887,-2.092624,-1.5662225,2.451466,-0.19419615,0.12333097,-0.14904663,-0.0067360224,0.03206433,-0.21511135,-0.4405331,0.1340753,-9.212888,0.8403672,47.698532,-1.3517859,-2.3997955,-3.01481,-0.48360476,0.1071413,-0.27418083,28.9375,30.3125,29.375,32.9375,35.4375,36.4375
0.2680527,-0.8859888,-0.63707936,-1.6466554,0.010339316,0.06283071,-0.15862648,-0.4056109,-0.36357442,0.060021166,3.0739002,-0.6196466,0.00011556152,-0.12734337,0.03922325,0.0019582978,-0.043099534,0.01681212,0.013463006,0.47870043,-1.3657206,1.8854254,-2.0926602,-1.5661267,2.4510124,-0.19661501,0.124897555,-0.1521354,-0.006683434,0.030921724,-0.20993736,-0.3256114,0.019153614,-9.289502,0.9612189,47.68599,-1.2685484,-2.4544263,-3.1159468,-0.4883702,0.11280138,-0.3436319,28.9375,30.3125,29.375,32.9375,35.4375,36.4375
0.27005246,-1.2118788,-0.95802486,-1.6390556,0.012786306,0.060436476,-0.15607512,-0.40586472,-0.3634855,0.060019597,3.0738115,-0.61970454,0.000115636656,-0.12667684,0.04098012,7.523927e-05,-0.040470827,0.013453566,0.011961096,0.4782918,-1.3654678,1.885127,-2.0926602,-1.5660671,2.4506514,-0.19839628,0.1261606,-0.1494759,-0.006385206,0.0301651,-0.21021798,-0.28730422,-0.076614454,-9.308656,0.92093146,47.686886,-1.2833227,-2.4589653,-3.1983008,-0.49459854,0.14207706,-0.3898739,28.9375,30.3125,29.375,32.9375,35.4375,36.4375
0.27205274,-1.4789633,-1.081781,-1.4590969,0.017172815,0.06141918,-0.15728585,-0.40613264,-0.36341336,0.06002347,3.0737624,-0.6194998,6.101109e-05,-0.12752482,0.041954286,4.917069e-05,-0.04058516,0.013201622,0.015824163,0.47790638,-1.3651915,1.8847932,-2.0926836,-1.5660189,2.4501445,-0.2008145,0.12633306,-0.14971828,-0.006093752,0.030434856,-0.21649644,-0.36391866,-0.076614454,-9.32781,0.91198283,47.68062,-1.1611867,-2.4566805,-3.2827063,-0.50457454,0.15846214,-0.41045254,28.9375,30.3125,29.375,32.9375,35.4375,36.4375
0.27405185,-0.9775965,-0.8734342,-1.3631122,0.012864972,0.09444846,-0.15608536,-0.40639907,-0.36332995,0.060037382,3.0736318,-0.61946577,3.7055877e-05,-0.128008,0.042879242,-0.00070481724,-0.04017739,0.011180483,0.026344365,0.477474,-1.3649626,1.8844937,-2.0927074,-1.5659226,2.4497077,-0.2030605,0.12787211,-0.15007557,-0.005199994,0.031085253,-0.22925839,-0.28730422,0.076614454,-9.174581,0.784413,47.698532,-1.0819875,-2.5118897,-3.3205907,-0.50916034,0.1564558,-0.27535862,28.9375,30.3125,29.375,32.9375,35.4375,36.4375
0.27605218,-1.2073901,-0.56646085,-1.6405263,0.01933076,0.09713435,-0.16003948,-0.4066391,-0.36324817,0.06002823,3.0735996,-0.619319,6.658268e-05,-0.12899326,0.043153472,-0.00051027443,-0.040576052,0.011421888,0.03461408,0.47708988,-1.3646984,1.8841957,-2.092695,-1.5658625,2.4492362,-0.20444658,0.1287146,-0.15164472,-0.004799198,0.03137903,-0.2389125,-0.19153613,-0.21068975,-9.155427,0.8179876,47.693153,-1.1949108,-2.3169594,-3.302907,-0.50120205,0.17270437,-0.14032876,28.9375,30.3125,29.375,32.9375,35.4375,36.4375
0.2780527,-1.34107,-0.10453485,-1.3569616,0.033716954,0.08363686,-0.16356541,-0.4069083,-0.36314628,0.060017593,3.0735843,-0.6191443,2.65022e-05,-0.13012631,0.043688446,0.00079226313,-0.04199102,0.013868229,0.0337567,0.47666904,-1.3644229,1.8838958,-2.0927193,-1.5658387,2.4487083,-0.20630287,0.1266832,-0.1521312,-0.00508106,0.03153972,-0.23990978,-0.1340753,-0.19153613,-9.232041,0.82694155,47.675243,-1.1453516,-2.3369784,-3.37145,-0.4859697,0.17324686,-0.09522712,28.9375,30.3125,29.375,32.9375,35.4375,36.4375
0.28005186,-0.5911469,0.42164138,-1.3302481,0.03534965,0.08451057,-0.16156691,-0.40717748,-0.36305055,0.060036153,3.0734804,-0.61912775,-3.3629065e-05,-0.13092034,0.04389426,0.00047654452,-0.040309306,0.01448409,0.025972774,0.4762372,-1.3642057,1.8835968,-2.0927312,-1.5657796,2.4482796,-0.20612061,0.12863144,-0.15375018,-0.0051919636,0.029763192,-0.23194432,-0.2681506,-0.21068975,-9.136273,0.8873621,47.66808,-1.2387317,-2.279621,-3.3091087,-0.48945898,0.19834146,-0.15522426,28.9375,30.3125,29.375,32.9375,35.4375,36.4375
0.2820521,-0.43796548,0.24899337,-1.3629218,0.04580307,0.08274042,-0.15950345,-0.40745246,-0.36297908,0.060029157,3.0733693,-0.6190695,-2.8800516e-05,-0.13083887,0.04228528,0.0011127036,-0.041696567,0.016151367,0.01938855,0.4758182,-1.3639053,1.8832616,-2.0927675,-1.5656828,2.4478385,-0.20349179,0.128895,-0.15535723,-0.0059794583,0.030219251,-0.22272737,-0.51714754,-0.28730422,-9.212888,0.8717007,47.692257,-1.3362762,-2.216387,-3.3955808,-0.4812768,0.22551045,-0.28590176,28.9375,30.3125,29.375,32.9375,35.4375,36.4375
0.28405267,-0.75144166,0.5876075,-1.5084157,0.039409485,0.073796965,-0.17133921,-0.40770555,-0.36288813,0.06003747,3.0733259,-0.6189867,-5.4889926e-05,-0.1310885,0.040759165,0.0015265024,-0.04380891,0.016179478,0.012673926,0.47542262,-1.3636646,1.8829492,-2.0927436,-1.565646,2.447397,-0.20216018,0.13024816,-0.15799528,-0.005714223,0.032070003,-0.21467358,-0.40222588,-0.22984336,-9.232041,0.8023209,47.687782,-1.5191376,-2.1994677,-3.31384,-0.48132718,0.22866943,-0.41778255,28.9375,30.3125,29.375,32.9375,35.4375,36.4375
0.28605193,-0.5854056,0.25373378,-1.8228961,0.030695235,0.07450778,-0.17062525,-0.40794763,-0.3627688,0.059989627,3.0733116,-0.6190423,2.636427e-05,-0.13140965,0.042237423,0.00059190026,-0.042774737,0.013687653,0.007515198,0.4749898,-1.3633641,1.8827003,-2.0927546,-1.5656103,2.4470007,-0.20493767,0.1313578,-0.15749241,-0.0046293787,0.032289956,-0.21229321,-0.15322891,-0.19153613,-9.385271,0.9164598,47.693153,-1.4970046,-2.217858,-3.4506686,-0.49285513,0.23030514,-0.48406214,28.9375,30.3125,29.375,32.9375,35.4375,36.4375
0.28805235,-0.48367822,-0.7337213,-1.9045701,0.019158276,0.07821805,-0.16445622,-0.40818718,-0.36269414,0.05999439,3.0732594,-0.61889315,7.683127e-05,-0.13324866,0.043452527,0.00068668526,-0.04311807,0.013166809,0.013232669,0.4746046,-1.3631113,1.8823761,-2.0927064,-1.5655259,2.4465292,-0.20882091,0.13270994,-0.15961738,-0.0034720018,0.03288787,-0.22189108,-0.19153613,-0.13407528,-9.461885,0.89631605,47.688675,-1.4341753,-2.2320824,-3.3625703,-0.5136343,0.25979465,-0.47865814,28.9375,30.3125,29.375,32.9375,35.4375,36.4375
0.29005173,-0.7154767,-1.1851333,-2.0606723,-0.00090445625,0.0682902,-0.17100148,-0.4084696,-0.3625954,0.05999354,3.0732079,-0.61877906,2.0691068e-05,-0.13507928,0.04413457,0.0012667859,-0.04336926,0.013951194,0.026794152,0.4741718,-1.3628348,1.8820523,-2.0927303,-1.5654901,2.4460318,-0.21138926,0.13375022,-0.1624604,-0.0023748013,0.03284613,-0.23801811,-0.15322891,0.095768064,-9.461885,0.8784135,47.675243,-1.3670297,-2.156452,-3.2555864,-0.53195316,0.27553052,-0.34231338,28.9375,30.3125,29.375,32.9375,35.4375,36.4375
0.29205182,-0.67449826,-1.8094642,-2.5070643,-0.017656917,0.07623402,-0.17366771,-0.40871236,-0.36248454,0.05998434,3.0731745,-0.6187102,7.6937926e-05,-0.13710518,0.04500447,0.0017198508,-0.04373749,0.014926892,0.0350032,0.4737384,-1.3625941,1.8817767,-2.092694,-1.56543,2.4455597,-0.2144428,0.13485427,-0.164935,-0.0019520333,0.032784786,-0.24928027,-0.038307227,0.21068975,-9.653421,0.8918391,47.67166,-1.2089927,-2.1728597,-3.1897576,-0.54284793,0.2902543,-0.20603722,28.9375,30.3125,29.375,32.9375,35.4375,36.4375
0.29405206,-0.51682794,-2.192501,-2.843815,-0.043358117,0.079365976,-0.16315578,-0.40900064,-0.36239415,0.060008563,3.0731413,-0.61849284,-4.4481254e-05,-0.13733256,0.046387903,0.00044118566,-0.042185858,0.012667824,0.03300063,0.4733297,-1.362341,1.8814186,-2.092694,-1.5654181,2.4450197,-0.2166311,0.13650751,-0.16410905,-0.001694799,0.03247648,-0.2494637,-0.038307227,0.24899697,-9.749189,0.8291774,47.675243,-1.1932313,-2.33164,-3.4045887,-0.554195,0.32950538,-0.16061556,28.9375,30.3125,29.375,32.9375,35.4375,36.4375
0.2960599,-1.5508484,-2.9104578,-2.875037,-0.06733253,0.053955097,-0.15452552,-0.40930048,-0.36229497,0.060015727,3.072997,-0.61852556,-4.1181906e-05,-0.13757344,0.046689484,-0.0014497065,-0.04115141,0.009165145,0.023886925,0.4728376,-1.3620632,1.8810724,-2.092706,-1.5653099,2.4445667,-0.21760254,0.14084287,-0.16511057,-0.0014431189,0.03314854,-0.24131598,-0.2873042,0.47884035,-9.787497,0.8985519,47.698532,-1.2345045,-2.3177838,-3.3922458,-0.5431404,0.35599908,-0.2353276,28.9375,30.3125,29.375,32.9375,35.4375,36.4375
0.2980575,-1.3517467,-3.002353,-2.7771394,-0.089247525,0.067490235,-0.15685144,-0.40956056,-0.36219743,0.059999853,3.072951,-0.6184248,1.12288435e-05,-0.13928671,0.047292184,-0.0006171804,-0.04339137,0.009866967,0.014978292,0.47240445,-1.3617752,1.8807606,-2.092694,-1.5652369,2.4440765,-0.22097467,0.14066267,-0.16687723,-0.0011453124,0.0348109,-0.23577371,-0.36391866,0.49799395,-9.844957,0.92093146,47.698532,-1.1166749,-2.300936,-3.3670464,-0.57226884,0.35278028,-0.3389285,28.9375,30.3125,29.375,32.9375,35.4375,36.4375
0.3000578,-1.0627908,-3.4282494,-3.0469904,-0.082770035,0.07383467,-0.15669206,-0.40985525,-0.3621071,0.060025655,3.0728784,-0.6183155,-0.000113945534,-0.1403007,0.047685187,-0.001395513,-0.0441557,0.008186159,0.01026001,0.47198364,-1.3615221,1.8804015,-2.092706,-1.5652126,2.443597,-0.22326007,0.1432514,-0.16822219,-0.001238192,0.03628153,-0.23333155,-0.24899697,0.59376204,-9.902418,0.8851263,47.685097,-1.0411093,-2.4450471,-3.3810363,-0.5863818,0.3627323,-0.3917826,28.9375,30.3125,29.375,32.9375,35.4375,36.4375
0.3020539,-1.0642868,-2.6590602,-2.800064,-0.08964684,0.073920056,-0.16288379,-0.41015065,-0.36204144,0.060032323,3.0727959,-0.6181038,-0.00017661949,-0.14202975,0.048707675,-0.0018459567,-0.04524904,0.0075142724,0.012491546,0.47157443,-1.3612092,1.8800195,-2.0927422,-1.5651401,2.4430664,-0.22713038,0.145151,-0.16938116,-0.0018160256,0.03762051,-0.2394251,-0.19153613,0.59376204,-9.921572,0.8493211,47.67614,-1.009408,-2.4278073,-3.3284333,-0.6030586,0.371974,-0.39820528,28.9375,30.3125,29.375,32.9375,35.4375,36.4375
0.3040521,-0.56961435,-2.0237567,-2.4360619,-0.077960424,0.089319885,-0.17837507,-0.41044173,-0.36193696,0.060028087,3.072684,-0.61807406,-0.00013472288,-0.14327987,0.04825249,-0.002071749,-0.047136474,0.0079401005,0.025400907,0.47108194,-1.3609203,1.8796834,-2.0927432,-1.5650314,2.4425697,-0.22824459,0.14739056,-0.17124361,-0.00331045,0.039191406,-0.2534414,-0.19153613,0.40222588,-9.80665,0.8023209,47.682407,-0.98213303,-2.365035,-3.372623,-0.56335455,0.3631956,-0.25732502,28.9375,30.3125,29.375,32.9375,35.4375,36.4375
0.3060529,-1.4539794,-1.833326,-2.2478251,-0.044920456,0.0803852,-0.16039154,-0.41071188,-0.361851,0.06003763,3.0725696,-0.61798555,-0.00012146907,-0.14250658,0.04606856,-0.0009238804,-0.050375782,0.010056881,0.0367408,0.4706392,-1.360669,1.8793606,-2.0927432,-1.5649232,2.4420865,-0.22498322,0.14580466,-0.17167193,-0.004567455,0.04118338,-0.2615112,-0.24899697,0.2681506,-9.634268,0.8493211,47.705692,-1.0616866,-2.4196417,-3.36389,-0.5635455,0.35619962,-0.13374875,28.9375,30.3125,29.375,32.9375,35.4375,36.4375
0.30805215,-1.1533523,-1.0390853,-2.0205543,-0.018602343,0.09468253,-0.16050269,-0.4110095,-0.36175555,0.060027964,3.0724816,-0.617871,-0.00012774148,-0.14205608,0.045296513,-0.0019528652,-0.05076689,0.008102305,0.036586117,0.47017175,-1.360356,1.8790153,-2.092779,-1.5648388,2.4415588,-0.22391166,0.14826348,-0.17226587,-0.004837827,0.042442285,-0.26027766,-0.2681506,0.28730422,-9.500193,0.8672237,47.701214,-1.2629446,-2.48523,-3.3687863,-0.55287147,0.3483478,-0.108422756,28.9375,30.3125,29.375,32.9375,35.4375,36.4375
0.31005237,-0.8619669,-0.67335224,-1.9485632,0.00979733,0.105017334,-0.1566894,-0.4112871,-0.36168402,0.06003707,3.0723584,-0.6177358,-0.000119379794,-0.14301386,0.044064965,-0.0010884005,-0.053460434,0.009322515,0.02817386,0.46973982,-1.36008,1.8786668,-2.0927913,-1.5647181,2.4410584,-0.22363578,0.14907017,-0.1751632,-0.00506418,0.044277653,-0.2515786,-0.30645782,0.21068975,-9.32781,0.9254084,47.672558,-1.407064,-2.4529264,-3.2816129,-0.54969287,0.346363,-0.20193963,28.9375,30.3125,29.375,32.9375,35.4375,36.4375
0.31205255,-0.9534964,-0.5045688,-1.7971138,0.028959466,0.087273784,-0.16315998,-0.4116066,-0.3616002,0.060053512,3.072259,-0.6176623,-0.00022195539,-0.1444258,0.04429633,-0.0012376122,-0.053600576,0.009413368,0.016744245,0.46929562,-1.3597676,1.87826,-2.0928152,-1.5646695,2.4405813,-0.22511014,0.15128073,-0.17750967,-0.0051017934,0.044350833,-0.2416167,-0.2873042,0.019153614,-9.251195,0.90527004,47.657326,-1.4687325,-2.5302925,-3.234705,-0.54299974,0.33693558,-0.34152135,28.9375,30.3125,29.375,32.9375,35.4375,36.4375
0.31405172,-1.1391046,-0.4225283,-1.606013,0.032260813,0.058010068,-0.15197611,-0.4118889,-0.3615228,0.060059715,3.072145,-0.61752903,-0.00019867717,-0.14498357,0.04467373,-0.0008805879,-0.054085344,0.010293755,0.00712457,0.46885133,-1.3594803,1.8779014,-2.0928152,-1.5645503,2.4400685,-0.22607565,0.15075944,-0.17764467,-0.0054553873,0.044372234,-0.2329594,-0.22984336,-0.05746084,-9.193734,0.84708,47.694946,-1.4459875,-2.462058,-3.3040848,-0.53498656,0.3464889,-0.46492076,28.9375,30.3125,29.375,32.9375,35.4375,36.4375
0.31605223,-0.22938238,-0.40104127,-1.4033523,0.022091528,0.056245837,-0.16640422,-0.41219056,-0.3614192,0.060035564,3.0720553,-0.6175453,-0.00021723809,-0.14655575,0.044691235,-5.7416924e-05,-0.055405084,0.012023217,0.010403238,0.46838266,-1.3591444,1.8775667,-2.0928752,-1.5644897,2.4396217,-0.2275558,0.1512108,-0.18006764,-0.0055598742,0.044817235,-0.23771347,-0.13407528,-0.19153613,-9.212888,0.89631605,47.675243,-1.4358199,-2.3528948,-3.4519773,-0.5096944,0.34270197,-0.5073908,28.9375,30.3125,29.375,32.9375,35.4375,36.4375
0.31805232,-0.33409318,-0.2715701,-1.3526068,0.019649576,0.036532804,-0.1654825,-0.41248378,-0.36134568,0.06006663,3.071919,-0.6174319,-0.00028796104,-0.14715348,0.04497062,-0.000151604,-0.05641516,0.011643321,0.024311775,0.46795014,-1.3588924,1.8771967,-2.0928867,-1.5643934,2.439136,-0.22910336,0.15184234,-0.18062295,-0.0056166654,0.04601577,-0.25315985,-0.17238252,-0.21068975,-9.040505,0.90750587,47.64837,-1.4276323,-2.382124,-3.4387145,-0.50945544,0.33385098,-0.40348816,28.9375,30.3125,29.375,32.9375,35.4375,36.4375
0.32005265,-0.292607,-0.10237644,-1.6384039,0.0425896,0.023293737,-0.16257621,-0.41278428,-0.36123696,0.06005037,3.07184,-0.61735225,-0.00020277793,-0.14908658,0.04544605,0.0007549814,-0.058779947,0.0122274505,0.032657903,0.46744514,-1.3585565,1.8768247,-2.0928624,-1.5642847,2.4385915,-0.2325528,0.15222286,-0.18337259,-0.0047149253,0.047942568,-0.2649473,-0.15322891,-0.17238252,-9.040505,0.95897776,47.64837,-1.4628237,-2.2806795,-3.3322074,-0.5118944,0.31852496,-0.24172077,28.9375,30.3125,29.375,32.9375,35.4375,36.4375
0.3220519,-0.06603111,0.07044192,-1.5741532,0.043410726,0.037737306,-0.16260992,-0.41307238,-0.3611499,0.06006854,3.07173,-0.61719924,-0.00020724417,-0.15121949,0.046152994,0.0018728386,-0.061814487,0.012968445,0.030449826,0.4669874,-1.358293,1.8764647,-2.0928504,-1.564176,2.4380524,-0.23686557,0.15196477,-0.18576542,-0.0040364787,0.05036556,-0.26703823,-0.095768064,-0.2681506,-9.059659,0.87393653,47.651955,-1.2667592,-2.233049,-3.2117267,-0.5141348,0.30753678,-0.20397191,28.9375,30.3125,29.375,32.9375,35.4375,36.4375
0.32405204,-0.95235705,-0.59030116,-1.5638989,0.048200402,0.036453072,-0.14418767,-0.41335866,-0.36105132,0.060064312,3.0716414,-0.6170702,-0.00018931217,-0.15155865,0.045930892,0.0014138803,-0.06343959,0.010579133,0.02257718,0.46651918,-1.3580042,1.87613,-2.092862,-1.5640787,2.437515,-0.23815474,0.15390638,-0.18731701,-0.0030275183,0.052888747,-0.26044124,-0.4213795,-0.05746084,-9.097966,0.8537928,47.68062,-1.1945649,-2.3114264,-3.1633015,-0.51557446,0.2454759,-0.26624435,28.9375,30.3125,29.375,32.9375,35.4375,36.4375
0.32605243,-1.1478964,-0.4776203,-1.8579323,0.023063207,0.0656622,-0.15749262,-0.41367805,-0.3609812,0.06009353,3.0715153,-0.61695296,-0.00030272233,-0.15275478,0.047042176,0.0021951308,-0.06496405,0.010859083,0.012751159,0.46608597,-1.357705,1.8757099,-2.0928857,-1.5640062,2.437025,-0.24161726,0.15271178,-0.18785809,-0.002233088,0.05414427,-0.25406522,-0.5363012,0.076614454,-9.136273,0.83589023,47.694946,-1.0398879,-2.0592334,-3.2319674,-0.5139074,0.25089514,-0.3910343,28.9375,30.3125,29.375,32.9375,35.4375,36.4375
0.32805198,-1.2317505,-0.89200354,-2.2281244,-0.00245901,0.10235503,-0.17158118,-0.41397545,-0.36088678,0.060091946,3.0713346,-0.6169337,-0.00018049785,-0.15321279,0.04628706,0.002309792,-0.06742262,0.009792333,0.013881751,0.46555784,-1.357405,1.8753508,-2.0928738,-1.5638136,2.4365082,-0.24221115,0.15406032,-0.18990281,-0.0016083142,0.05685895,-0.2557756,-0.2873042,0.076614454,-9.385271,0.9231726,47.66808,-0.9821411,-2.0660508,-3.2846222,-0.5293286,0.18722376,-0.41372293,28.9375,30.3125,29.375,32.9375,35.4375,36.4375
0.33005202,-1.8375425,-1.8011589,-2.1190205,-0.0349627,0.11171412,-0.15838005,-0.41427648,-0.3607758,0.06008615,3.071323,-0.61679083,-0.00020588978,-0.15273733,0.04672522,0.0012998722,-0.06568018,0.008003626,0.023599012,0.46510231,-1.3570807,1.8749684,-2.0928495,-1.5637902,2.435965,-0.24196361,0.15553497,-0.18960308,-0.0009023745,0.056185722,-0.26524672,-0.34476507,0.17238252,-9.442732,0.9164598,47.679718,-1.242826,-2.012941,-3.3027706,-0.53184384,0.17328677,-0.36726516,28.9375,30.3125,29.375,32.9375,35.4375,36.4375
0.33205268,-1.4689227,-1.7481124,-1.8858085,-0.07057803,0.1379191,-0.17017785,-0.4145471,-0.36066982,0.060049765,3.0712645,-0.6167527,-3.524865e-05,-0.15292098,0.04630391,-3.0058283e-05,-0.06473783,0.005936387,0.0381205,0.46462232,-1.3567318,1.8746203,-2.0928013,-1.56367,2.4354687,-0.24135132,0.15955515,-0.19156569,-0.00053305295,0.05634794,-0.27915755,-0.49799395,0.22984336,-9.500193,0.87393653,47.675243,-1.2782214,-2.0954175,-3.2021332,-0.5409322,0.15913905,-0.20009819,28.9375,30.3125,29.375,32.9375,35.4375,36.4375
0.33405188,-1.2035863,-1.8585529,-2.747148,-0.04046178,0.122177206,-0.16450971,-0.414864,-0.36057374,0.06007124,3.071172,-0.6165396,-9.219699e-05,-0.15376335,0.046376392,0.0006260058,-0.06610059,0.0068763364,0.041178256,0.46414185,-1.3564442,1.874226,-2.0928013,-1.5635856,2.4348671,-0.2425273,0.15926829,-0.19275948,-0.00042550446,0.057213537,-0.28338188,-0.38307226,0.30645782,-9.710882,0.8672237,47.66987,-1.2779489,-2.0405428,-3.348404,-0.5431007,0.12573592,-0.10036373,28.9375,30.3125,29.375,32.9375,35.4375,36.4375
0.33605215,-1.7337899,-1.7668505,-2.5165353,-0.04057986,0.08878567,-0.15060191,-0.41515008,-0.36050144,0.06004728,3.0710273,-0.6163811,4.410651e-05,-0.15306032,0.046537254,-0.0011313681,-0.065302975,0.003514729,0.034539215,0.46366203,-1.3560956,1.8738669,-2.0928257,-1.5633935,2.4343069,-0.24250363,0.16192427,-0.19202383,-0.0004241828,0.057993878,-0.276714,-0.4405331,0.28730422,-9.825804,0.90750587,47.660015,-1.3358392,-2.2959888,-3.4405227,-0.5604491,0.101864494,-0.13548858,28.9375,30.3125,29.375,32.9375,35.4375,36.4375
0.33805248,-1.1019762,-1.8578844,-2.4655929,-0.035055496,0.08772449,-0.1503583,-0.4154786,-0.36039272,0.060050074,3.0709105,-0.6163266,2.8865754e-05,-0.1548165,0.04733782,-0.0014292026,-0.06214568,0.0049525094,0.023828043,0.46314493,-1.3557707,1.8734726,-2.092837,-1.5632986,2.433771,-0.2430098,0.16488104,-0.1950053,-0.00028258725,0.054500617,-0.26651797,-0.5554548,0.28730422,-9.691729,0.8940802,47.666286,-1.251514,-2.3712811,-3.4756165,-0.5520408,0.108126104,-0.27527168,28.9375,30.3125,29.375,32.9375,35.4375,36.4375
0.34005186,-0.76982975,-1.1981107,-2.5118651,-0.028109826,0.08262178,-0.152498,-0.41580105,-0.36029664,0.060066976,3.0707846,-0.6162275,-1.8795125e-05,-0.15532933,0.047622323,-0.0019215394,-0.061424747,0.004475016,0.013542167,0.4626537,-1.3554704,1.8730758,-2.092849,-1.5632023,2.4332342,-0.24345765,0.16656575,-0.19596383,-0.00028036215,0.05405306,-0.25667545,-0.38307226,0.3256114,-9.615114,0.9298854,47.684196,-1.3578451,-2.314452,-3.4482913,-0.5682438,0.10369101,-0.41462582,28.9375,30.3125,29.375,32.9375,35.4375,36.4375
0.34205174,-0.9579198,-0.92826056,-2.2526374,-0.021861868,0.08683851,-0.16076171,-0.4161205,-0.3602162,0.060065523,3.0706556,-0.61621904,-7.893733e-06,-0.15691903,0.04905536,-0.0026423605,-0.060014267,0.0041162088,0.012525792,0.46218488,-1.3551098,1.8726453,-2.092849,-1.563095,2.432777,-0.2463627,0.1689282,-0.19721651,-0.00036903046,0.052991424,-0.2585649,-0.26815057,0.28730422,-9.5385,0.94331104,47.67614,-1.4377187,-2.4396334,-3.4554152,-0.5638264,0.10346705,-0.4768767,28.9375,30.3125,29.375,32.9375,35.4375,36.4375
0.34405196,-1.2917284,-1.1611515,-2.1839995,-0.010410985,0.078285,-0.16017762,-0.41643724,-0.36009952,0.060077097,3.0705729,-0.6161564,-2.0898493e-05,-0.15864944,0.05050904,-0.002601984,-0.058588233,0.005762551,0.023755692,0.46168005,-1.3548099,1.87225,-2.0928137,-1.5630239,2.4322438,-0.24890961,0.16976549,-0.19826096,-0.0008421316,0.051091712,-0.27234772,-0.038307227,0.22984336,-9.595961,0.89631605,47.690468,-1.322301,-2.35051,-3.478022,-0.56207395,0.11788465,-0.41027075,28.9375,30.3125,29.375,32.9375,35.4375,36.4375
0.3460517,-0.7659244,-1.2154351,-2.012698,-0.006611613,0.08579445,-0.15354063,-0.41677824,-0.36001635,0.060085036,3.0704122,-0.61598486,-7.661941e-05,-0.16043285,0.051662758,-0.0033998378,-0.056266043,0.0061954125,0.036017727,0.46117458,-1.3544731,1.8718432,-2.0928853,-1.5628923,2.431652,-0.25083554,0.17304376,-0.20039366,-0.0011610001,0.04895569,-0.28653863,0.019153614,0.19153613,-9.385271,0.9231726,47.684196,-1.1519544,-2.4282362,-3.4193616,-0.5571966,0.14480075,-0.23631752,28.9375,30.3125,29.375,32.9375,35.4375,36.4375
0.3480519,-0.301305,-0.43345234,-1.751249,-0.015025281,0.084478505,-0.1522098,-0.41709808,-0.35989827,0.06008932,3.0703607,-0.6157832,-5.2644238e-05,-0.16340627,0.053379428,-0.001014337,-0.057060335,0.011300381,0.0336617,0.460658,-1.3541505,1.8714341,-2.0928376,-1.5628089,2.4310162,-0.2550793,0.17029168,-0.20252809,-0.0011309952,0.04743175,-0.2884319,-0.19153613,0.24899697,-9.3661175,0.8403672,47.67345,-1.1013541,-2.2213418,-3.3729467,-0.52609646,0.1638645,-0.18269752,28.9375,30.3125,29.375,32.9375,35.4375,36.4375
0.3500521,-0.7918497,-0.986669,-1.8110225,0.002745965,0.068344854,-0.14184941,-0.41743344,-0.3598151,0.06010326,3.070196,-0.6157541,-9.139908e-05,-0.16467436,0.05405371,-0.00071972783,-0.055786896,0.0128324935,0.025128532,0.46016568,-1.3538145,1.8710035,-2.0928614,-1.5626897,2.4305272,-0.25595653,0.17109391,-0.20424135,-0.0010249459,0.045609936,-0.28077877,-0.28730422,0.22984336,-9.423578,0.8784135,47.65643,-1.1169882,-2.3595352,-3.3801756,-0.53441054,0.17414501,-0.2710216,28.9375,30.3125,29.375,32.9375,35.4375,36.4375
0.35205236,-0.8520026,-0.31601304,-1.6951745,-0.0051754406,0.070903435,-0.15233316,-0.41776735,-0.35969678,0.060100388,3.0700977,-0.6156799,-0.00010774628,-0.16663961,0.05391841,0.0003694319,-0.0563118,0.015561813,0.017935256,0.4596375,-1.3534783,1.8706077,-2.0928738,-1.5626057,2.4299655,-0.25670958,0.17202495,-0.20788498,-0.0009938955,0.04485971,-0.27433768,-0.28730422,0.17238252,-9.270349,0.9634547,47.66271,-1.1902397,-2.2929144,-3.381871,-0.5261735,0.19153115,-0.3381778,28.9375,30.3125,29.375,32.9375,35.4375,36.4375
0.35405162,-0.4855311,-0.30182502,-1.6318958,0.0042975824,0.08971946,-0.15310016,-0.41808122,-0.359575,0.06005233,3.070058,-0.61561525,-4.7907542e-06,-0.16855477,0.05515698,0.0005936011,-0.055673588,0.016730653,0.014776719,0.45912087,-1.3530701,1.8702244,-2.0928738,-1.5625223,2.4294136,-0.2595277,0.17310873,-0.20979452,-0.0008862451,0.04377671,-0.2740032,-0.2681506,-0.05746084,-9.212888,0.8873621,47.661808,-1.1675079,-2.2548084,-3.3893247,-0.5353368,0.2185768,-0.42807877,28.9375,30.3125,29.375,32.9375,35.4375,36.4375
0.35605183,-0.27882025,0.14980356,-1.7814082,0.015506779,0.09541616,-0.15612677,-0.4184191,-0.3594882,0.06008192,3.0699227,-0.6154469,-7.080525e-05,-0.16846447,0.055499088,0.00039082422,-0.0554972,0.016451374,0.02720702,0.45862824,-1.3527584,1.8697819,-2.0928738,-1.562414,2.4288335,-0.25987694,0.17313649,-0.20943296,-0.00078981597,0.04388145,-0.28677794,-0.30645782,-0.076614454,-9.212888,0.9186956,47.674347,-1.1667378,-2.282074,-3.2998137,-0.5144216,0.21306793,-0.3217625,28.9375,30.3125,29.375,32.9375,35.4375,36.4375
0.35805234,-0.15902936,0.025879866,-1.5168947,0.025634443,0.102070026,-0.14867793,-0.41877186,-0.3593503,0.060064834,3.0698276,-0.6154367,-5.7507677e-05,-0.16835928,0.055202834,8.3406245e-05,-0.054420672,0.016674433,0.041767124,0.45805305,-1.3523861,1.8693742,-2.0928853,-1.5623306,2.4282644,-0.2585004,0.17435901,-0.2102942,-0.0007116813,0.04293776,-0.299965,-0.3256114,-0.019153614,-9.3661175,0.900793,47.684196,-1.2058265,-2.3354983,-3.330668,-0.5156799,0.23849665,-0.18627009,28.9375,30.3125,29.375,32.9375,35.4375,36.4375
0.3600525,-1.1278982,-0.07411864,-1.7322043,0.029203666,0.09567209,-0.14827006,-0.41910276,-0.35923544,0.060061645,3.0697572,-0.61529,-0.000107888845,-0.16841991,0.05521725,-0.0012044841,-0.053856336,0.014444302,0.041011427,0.45754898,-1.3520491,1.8689803,-2.092909,-1.56227,2.4276779,-0.25868565,0.17738457,-0.21110131,-0.00064759457,0.043454994,-0.29938808,-0.4405331,-0.11492168,-9.32781,0.92764956,47.690468,-1.2728732,-2.33425,-3.3312764,-0.5142882,0.24839139,-0.128761,28.9375,30.3125,29.375,32.9375,35.4375,36.4375
0.36205244,-1.3217288,-0.33495742,-1.768694,0.027515644,0.101011544,-0.14851062,-0.41943267,-0.35913163,0.060059737,3.0696933,-0.61512756,-0.00012257135,-0.16859019,0.05388709,-0.00031608445,-0.054960772,0.016096395,0.033593357,0.4570577,-1.3516898,1.8685483,-2.0928972,-1.562198,2.4270935,-0.2565339,0.17747898,-0.21329561,-0.0005581636,0.043684516,-0.28981355,-0.4213795,-0.15322891,-9.385271,0.8806493,47.678825,-1.39324,-2.1246946,-3.3114605,-0.5052415,0.27492285,-0.22652084,28.9375,30.3125,29.375,32.9375,35.4375,36.4375
0.36405194,-0.57185054,-0.14138302,-1.7672077,0.004348618,0.12081728,-0.16202062,-0.41978762,-0.3590164,0.06010057,3.0695434,-0.61510414,-0.0001618276,-0.17064057,0.054264434,5.6221757e-05,-0.056156434,0.016790565,0.019287532,0.4565053,-1.3513895,1.86808,-2.092837,-1.5620903,2.426546,-0.25908425,0.17930068,-0.21639068,-0.0004850328,0.044417713,-0.278048,-0.51714754,-0.05746084,-9.251195,0.88289046,47.670765,-1.495508,-2.2513642,-3.2871432,-0.507565,0.26697683,-0.37530732,28.9375,30.3125,29.375,32.9375,35.4375,36.4375
0.3660521,-1.1730961,-1.0005871,-1.6877985,-0.0032205875,0.10681417,-0.15377812,-0.42012173,-0.35891482,0.060089387,3.06944,-0.61500984,-0.0001644477,-0.17233656,0.055252958,5.38489e-05,-0.056781925,0.016564082,0.011090102,0.45600015,-1.3510175,1.8676618,-2.092861,-1.5619935,2.4259956,-0.2623318,0.18074177,-0.21826282,-0.00012317646,0.04508123,-0.2730908,-0.61291564,0.019153614,-9.270349,0.90750587,47.687782,-1.4734213,-2.2205236,-3.2906528,-0.48802644,0.31152514,-0.48021138,28.9375,30.3125,29.375,32.9375,35.4375,36.4375
0.36805236,-0.72874486,-0.83146626,-1.7515367,-0.014680971,0.11659171,-0.15863445,-0.4204695,-0.3587891,0.060068946,3.0693855,-0.61487764,-0.00015002751,-0.1738651,0.05625829,0.0008905264,-0.05764342,0.01823532,0.021104611,0.45545888,-1.3506219,1.8672303,-2.092861,-1.561922,2.4253788,-0.26514927,0.18002304,-0.21936798,-2.2628052e-05,0.04523738,-0.28592128,-0.5554548,0.17238252,-9.232041,0.8717007,47.66091,-1.2548659,-2.1625006,-3.2953973,-0.48840997,0.28201973,-0.45069242,28.9375,30.3125,29.375,32.9375,35.4375,36.4375
0.37005284,-0.42855734,-1.109833,-2.0548525,-0.012756176,0.114949055,-0.17302012,-0.4208003,-0.358672,0.060047418,3.069317,-0.6147581,-9.401538e-05,-0.17320259,0.055952072,-0.00035954153,-0.05815614,0.015572124,0.037882183,0.45493126,-1.3502373,1.8668116,-2.092849,-1.5618252,2.4247854,-0.26495063,0.18207464,-0.21908087,-1.47745e-06,0.047011707,-0.3024908,-0.22984336,0.22984336,-9.442732,0.89631605,47.687782,-1.3548429,-2.2692251,-3.3310618,-0.48226553,0.31331307,-0.27589566,28.9375,30.3125,29.375,32.9375,35.4375,36.4375
0.37205222,-1.1649301,-1.9437971,-1.6955346,-0.033611033,0.09799148,-0.15280974,-0.4211538,-0.3585649,0.06005921,3.0691884,-0.61467344,-0.00014531713,-0.17394005,0.056472424,-0.0010996102,-0.058258798,0.0143147055,0.041185725,0.45440245,-1.349889,1.8663672,-2.092861,-1.5617288,2.4242206,-0.26664478,0.18419322,-0.22002017,-9.646693e-08,0.047742363,-0.30747965,-0.4213795,0.2681506,-9.423578,0.97240865,47.67614,-1.4338748,-2.196505,-3.3352847,-0.46680307,0.31388968,-0.18790543,28.9375,30.3125,29.375,32.9375,35.4375,36.4375
0.3740525,-0.9385381,-1.9839265,-1.5857446,-0.045072254,0.10783505,-0.1633873,-0.42150792,-0.35843903,0.0600553,3.0691013,-0.61458445,-0.00014911653,-0.1758866,0.05737107,-0.00040972477,-0.057998534,0.016358916,0.031337522,0.45384985,-1.3495175,1.8659242,-2.092849,-1.5616454,2.4236238,-0.26882485,0.18473853,-0.22230312,-6.2986008e-09,0.046592236,-0.29981434,-0.57460845,0.3256114,-9.212888,0.80456203,47.661808,-1.3115764,-2.1959474,-3.2967665,-0.47345158,0.34390083,-0.24901184,28.9375,30.3125,29.375,32.9375,35.4375,36.4375
