Tylouw/Master_Thesis_Code/training_data/batch_1/rect_rod_t0.2/sample_20_session_1.csv
timestamp[s],tcp_force_x[N],tcp_force_y[N],tcp_force_z[N],tcp_force_rx[Nm?],tcp_force_ry[Nm?],tcp_force_rz[Nm?],tcp_pose_x[m],tcp_pose_y[m],tcp_pose_z[m],tcp_pose_rx[rot_vec_x],tcp_pose_ry[rot_vec_y],tcp_pose_rz[rot_vec_z],tcp_velo_x[m/s],tcp_velo_y[m/s],tcp_velo_z[m/s],tcp_velo_rx[rot_vec_x/s],tcp_velo_ry[rot_vec_y/s],tcp_velo_rz[rot_vec_z/s],q1[rad],q2[rad],q3[rad],q4[rad],q5[rad],q6[rad],qd1[rad/s],qd2[rad/s],qd3[rad/s],qd4[rad/s],qd5[rad/s],qd6[rad/s],tool_acc_x,tool_acc_y,tool_acc_z,current_of_whole_robot[A],voltage_of_whole_robot[V],current_J1[A],current_J2[A],current_J3[A],current_J4[A],current_J5[A],current_J6[A],temp_J1[C],temp_J2[C],temp_J3[C],temp_J4[C],temp_J5[C],temp_J6[C]
6.5400127e-07,-1.026124,-1.1072444,-0.27733928,-0.011794528,0.0065572914,0.011708594,-0.38933372,-0.36871737,0.060006697,-3.0787117,0.6249297,0.00020808974,7.366622e-05,3.184304e-05,-3.4191146e-06,5.342996e-06,-0.00027110227,4.8166592e-05,0.5050329,-1.3816559,1.9042224,-2.0919273,-1.5708536,2.4800253,-6.402745e-05,-4.846863e-05,-3.7434546e-07,0.00028820187,0.00012717015,-0.0001124144,0.21068975,0.038307227,-8.63828,0.75755644,47.711964,-0.16856636,-3.1269984,-2.3107529,-0.18667546,0.11012049,-0.014217399,28.8125,30.125,29.3125,32.875,35.375,36.5
0.002020565,-1.2173091,-1.1119592,-0.36655638,-0.0058377506,0.004064621,0.007832959,-0.3893324,-0.36871222,0.05999676,-3.0786774,0.6249418,0.00017952916,-0.0011840309,-0.0006701375,-0.00043150535,-0.0030306086,0.005175823,4.6735582e-05,0.5050329,-1.3816319,1.9042119,-2.0919068,-1.5708655,2.4800372,-6.290859e-05,-6.5026853e-07,0.0030293488,-0.009025209,0.00013355543,-0.000110121815,0.095768064,0.17238252,-8.580819,0.80456203,47.693153,-0.24127752,-2.9640558,-2.3601437,-0.1484604,0.116205946,-0.01184793,28.8125,30.125,29.3125,32.875,35.375,36.5
0.004020448,-0.7432655,-0.95901066,-0.2710109,-0.017733594,0.017277349,0.005360276,-0.38931867,-0.3687205,0.059984487,-3.078711,0.6248715,0.00015633056,-0.0016567551,-0.0009337323,-0.0014111758,-0.0029780786,0.005073977,4.631061e-05,0.5050448,-1.3816309,1.9042472,-2.091944,-1.5708417,2.480001,-6.1828156e-05,0.0024510461,0.0028521288,-0.011185135,0.00013136379,-0.00010792096,0.019153614,0.095768064,-8.676587,0.7597976,47.683304,-0.19803175,-3.3884637,-2.6152935,-0.062073044,0.097131684,-0.0072535346,28.8125,30.125,29.3125,32.875,35.375,36.5
0.006019845,-0.45327803,-0.80258816,-0.42017484,-0.00039865734,0.01423668,-0.00044700288,-0.38931784,-0.3687228,0.05997955,-3.0787082,0.6248325,0.00016596731,-0.0007101848,-0.00040686395,-0.0009359525,-0.0013404218,0.0021386475,4.4974953e-05,0.50505686,-1.3816192,1.9042467,-2.091953,-1.5708536,2.479989,-6.07843e-05,0.001459597,0.0016916742,-0.005671975,0.00012871852,-0.000105806255,0.019153614,0.1340753,-8.7532015,0.7150385,47.674347,-0.16456512,-3.2874718,-2.493289,-0.07646546,0.10395751,-0.024899896,28.8125,30.125,29.3125,32.875,35.375,36.5
0.008019825,-0.354672,-0.42104247,-0.76797694,0.03003672,-0.007553851,0.011232109,-0.38935542,-0.36873388,0.060014,-3.0787394,0.6249162,0.0002238201,-0.00027890367,-0.00016584949,0.00042102812,-0.0011701435,0.0018503626,4.3530414e-05,0.5050329,-1.3816202,1.9041637,-2.0919278,-1.5708417,2.4800134,-5.9775004e-05,-0.0010995816,0.0007597578,-0.001846176,0.00012614379,-0.000103773054,-0.038307227,0.21068975,-8.829816,0.78888994,47.664497,-0.19447911,-3.2048533,-2.4734507,-0.12373862,0.10468055,-0.02589761,28.8125,30.125,29.3125,32.875,35.375,36.5
0.010020037,-0.14183119,-0.07573418,-1.1536272,0.02950498,-0.0011116554,-0.0010743133,-0.38931125,-0.36872542,0.05998147,-3.0787003,0.62492746,9.8732184e-05,0.0006514983,0.00035178565,0.0001641717,0.0004631195,-0.0010822832,5.0521427e-05,0.5050448,-1.3816202,1.9042348,-2.091915,-1.5708174,2.4800372,-5.8855185e-05,-0.0011438098,0.00058544945,0.0017291411,0.0001236677,-0.000110166766,0.0,0.24899697,-8.983045,0.7620334,47.64658,-0.77443624,-2.7027779,-2.8846388,-0.16016492,0.08737455,-0.102810755,28.8125,30.125,29.3125,32.875,35.375,36.5
0.012019854,-0.13345142,-0.7512972,-1.2600132,-0.0063500116,0.023209067,-0.0057928856,-0.3892996,-0.36868617,0.059941296,-3.0785842,0.6249249,5.213389e-06,-0.0011131794,0.0019417387,9.568279e-05,0.0009679692,-0.0019905241,-0.0041402257,0.5050197,-1.3815718,1.9042581,-2.0918672,-1.5708655,2.4800253,-0.0043846807,-4.1142008e-05,-0.00087875454,0.0031297803,0.000121286714,-0.00024462916,0.095768064,0.1340753,-9.11712,0.79560274,47.65643,-0.9183656,-2.6456094,-2.9735937,-0.16130611,0.09406102,-0.1594891,28.8125,30.125,29.3125,32.875,35.375,36.5
0.014020094,-1.2362247,-1.5412402,-1.5789548,-0.03915302,0.027482143,-0.009777241,-0.3893079,-0.36870512,0.059948053,-3.0786304,0.624931,3.276104e-05,-0.0037540288,0.004559991,-0.0056889425,0.0058364677,-0.010808952,0.0011117547,0.50502896,-1.3815671,1.9042453,-2.0919025,-1.5708417,2.4800324,-0.0112679275,0.013208511,-0.0031667242,0.0022393987,0.0001189957,-0.012376709,0.0,0.11492168,-9.289502,0.842603,47.698532,-0.45734993,-3.2870066,-3.0490384,-0.12054178,0.087990016,-0.08944997,28.8125,30.125,29.3125,32.875,35.375,36.5
0.016019806,-2.132548,-2.6090002,-1.6449065,-0.051223595,0.040534846,-0.0071332282,-0.38929954,-0.3686789,0.05992016,-3.0785754,0.6248966,-7.9104844e-05,-0.0054152994,0.0042702383,-0.0034527797,0.0034139564,-0.0064398823,0.007951301,0.50499266,-1.3815321,1.9042567,-2.0918553,-1.5708417,2.4799817,-0.012332213,0.010682687,-0.005163259,0.0017648725,0.00011678983,-0.020280082,-0.17238252,0.095768064,-9.3661175,0.7553206,47.691364,-0.45856193,-3.1014533,-3.0892076,-0.13022971,0.096566215,-0.025089437,28.8125,30.125,29.3125,32.875,35.375,36.5
0.018019926,-2.0079966,-1.7908989,-1.5367123,-0.060055234,0.07235775,-0.045530412,-0.3893188,-0.36869404,0.059926294,-3.0786154,0.6248642,-4.7595033e-05,-0.0059805573,0.0040156506,-0.0022499054,0.0020877912,-0.004040874,0.012216905,0.50499266,-1.3815087,1.9042205,-2.0918791,-1.5708297,2.4799564,-0.0124296425,0.008912701,-0.005714618,0.0013447194,0.00011466412,-0.02464312,-0.45968673,0.11492168,-9.519346,0.8112748,47.68062,-0.6771722,-2.9007025,-3.1783834,-0.118500605,0.100527704,0.015350854,28.8125,30.125,29.3125,32.875,35.375,36.5
0.020019975,-1.5776689,-0.7429697,-1.8232297,-0.032048576,0.09055763,-0.071748555,-0.38932186,-0.36867693,0.059899926,-3.0785751,0.62482035,-0.0001076576,-0.0060400767,0.0043917084,-0.0024982265,0.0028208422,-0.005391853,0.0090429,0.5049684,-1.3814602,1.9042205,-2.0918672,-1.5708417,2.47991,-0.013126835,0.009625318,-0.0063144416,0.002768951,0.00012763243,-0.02216613,-0.47884035,0.13407528,-9.519346,0.74413085,47.66091,-0.85866374,-2.7809033,-3.3315287,-0.09861222,0.11521676,-0.014609888,28.8125,30.125,29.3125,32.875,35.375,36.5
0.022019843,-2.2512026,-0.8781518,-2.0169678,0.012140206,0.07252744,-0.08849858,-0.3893267,-0.36866674,0.059901543,-3.0785768,0.6248232,-0.00016241753,-0.0071126376,0.005442135,-0.0024378349,0.0036299643,-0.0068797157,0.0035454158,0.50493157,-1.38146,1.9042081,-2.09183,-1.5708174,2.4798746,-0.01590693,0.010650113,-0.008253975,0.0053781187,0.00014096657,-0.019448085,-0.51714754,0.19153613,-9.691729,0.7665104,47.666286,-0.8724971,-2.707871,-3.4088793,-0.1323868,0.10828959,-0.06519608,28.8125,30.125,29.3125,32.875,35.375,36.5
0.024020346,-1.2831235,-0.48131573,-1.8737574,0.0042393645,0.08776999,-0.114528604,-0.38932675,-0.36865297,0.059880923,-3.0785494,0.6247422,-0.0001540567,-0.0090043405,0.0054493467,-0.002569301,0.0033585334,-0.006460053,0.00030272524,0.5049309,-1.381435,1.904231,-2.0918539,-1.5708536,2.479827,-0.017707828,0.01356914,-0.011324987,0.0050309254,0.00016792514,-0.018004585,-0.49799395,0.15322891,-9.634268,0.78217715,47.657326,-0.7406709,-2.7585125,-3.3526654,-0.13439085,0.10278511,-0.076059654,28.8125,30.125,29.3125,32.875,35.375,36.5
0.026019802,-1.947716,-0.7408748,-2.048943,-0.009484404,0.08075705,-0.114599675,-0.38935405,-0.36865047,0.059870172,-3.078536,0.62483585,-0.00026051523,-0.009980365,0.00503964,-0.0024640323,0.0026931437,-0.00534491,-0.00072062394,0.5048711,-1.3813624,1.904159,-2.0918067,-1.5708054,2.4798272,-0.01795364,0.014890843,-0.012887582,0.003974784,0.00020398461,-0.01722616,-0.63206923,0.13407528,-9.710882,0.73069996,47.684196,-0.79746294,-2.729734,-3.365275,-0.117444515,0.09252019,-0.1043613,28.8125,30.125,29.3125,32.875,35.375,36.5
0.028019821,-2.4410129,-1.0244491,-2.1483924,-0.032998707,0.09562109,-0.13033898,-0.38937336,-0.3686263,0.05987937,-3.0784945,0.624906,-0.00022296743,-0.010871252,0.0049737287,-0.0029242567,0.002307049,-0.005725799,-0.00247269,0.50483465,-1.3813738,1.9041461,-2.0917833,-1.5708412,2.4798398,-0.019000188,0.01699619,-0.014175121,0.0033012014,0.0007217823,-0.01652063,-0.842759,-0.05746084,-9.80665,0.80456203,47.66987,-0.83683234,-2.837607,-3.39328,-0.1161436,0.108219,-0.12535502,28.8125,30.125,29.3125,32.875,35.375,36.5
0.030020054,-3.4089463,-1.874365,-2.0376234,-0.0277277,0.08954613,-0.12396584,-0.38940933,-0.36862484,0.05988061,-3.0785093,0.6248701,-0.00020977257,-0.011087596,0.0050486885,-0.0026091826,0.0020008048,-0.006044717,-0.0036412156,0.50479853,-1.3813257,1.9040865,-2.0917828,-1.5708412,2.4797795,-0.019591415,0.016839623,-0.014948217,0.0043604565,0.0011449944,-0.015943896,-0.8810662,-0.076614454,-9.883265,0.7866488,47.655537,-0.9701419,-2.717002,-3.401155,-0.09933537,0.092317805,-0.14199765,28.8125,30.125,29.3125,32.875,35.375,36.5
0.03201996,-3.123574,-1.4198878,-2.0160232,-0.028151704,0.105623364,-0.13722546,-0.3894241,-0.36860877,0.05985668,-3.0784943,0.6248677,-0.00026690727,-0.011668445,0.005386645,-0.0027256107,0.0025818765,-0.0069719786,-0.0040637716,0.50475025,-1.3812772,1.904086,-2.0917933,-1.5708293,2.4797316,-0.020665303,0.018047765,-0.016418481,0.0057155914,0.0010836351,-0.01659451,-0.78529817,-0.05746084,-9.825804,0.8224646,47.70032,-0.9028848,-2.8203049,-3.4307036,-0.11247343,0.09698774,-0.16447443,28.8125,30.125,29.3125,32.875,35.375,36.5
0.0340199,-2.7094855,-1.5070403,-2.0476215,0.0077673905,0.10573214,-0.14468467,-0.3894369,-0.3686247,0.05987271,-3.0785356,0.624876,-0.0002482506,-0.0122666145,0.0058744536,-0.0023130968,0.0025704894,-0.006748892,-0.004235248,0.50474983,-1.3812774,1.9040498,-2.0917933,-1.570805,2.479731,-0.021983938,0.017657418,-0.017091986,0.006579306,0.0009865222,-0.017741336,-0.68953013,-0.15322891,-9.959879,0.7866488,47.678825,-0.8942177,-2.6919677,-3.4353926,-0.14330196,0.08309771,-0.17603102,28.8125,30.125,29.3125,32.875,35.375,36.5
0.036020033,-2.4144394,-0.8644522,-2.0288482,0.02227509,0.087854244,-0.16212891,-0.38946664,-0.36858916,0.059849914,-3.078484,0.6248458,-0.0002939787,-0.014189643,0.0058977297,-0.0016150121,0.001371413,-0.0045132665,-0.0044099824,0.5046774,-1.381217,1.904025,-2.09177,-1.5708293,2.4796464,-0.023795052,0.01841214,-0.019335942,0.00553141,0.0009456424,-0.019376552,-0.63206923,-0.038307227,-9.844957,0.80679786,47.682407,-0.9736868,-2.7547097,-3.3244824,-0.13253228,0.0952836,-0.17745207,28.8125,30.125,29.3125,32.875,35.375,36.5
0.03802004,-1.8207647,-0.9223822,-2.110278,0.02376596,0.070025556,-0.1749169,-0.38950866,-0.36858362,0.059849136,-3.078473,0.624901,-0.00029373544,-0.016101612,0.00630587,-0.0012643385,0.0004972672,-0.002768269,-0.0050717257,0.5046287,-1.3811568,1.903953,-2.0917585,-1.5708293,2.4796336,-0.026214112,0.019337352,-0.02094057,0.004260822,0.00085984106,-0.021132777,-0.5554548,-0.076614454,-9.749189,0.72622824,47.668976,-0.8864697,-2.706223,-3.4088027,-0.09726843,0.09591946,-0.19283473,28.8125,30.125,29.3125,32.875,35.375,36.5
0.04002012,-1.1913346,-1.2800335,-1.9235921,0.013933011,0.07062654,-0.19148076,-0.3895405,-0.368563,0.059835277,-3.078449,0.62499267,-0.00033375947,-0.017202243,0.006197842,-0.00066056923,-0.00028201283,-0.0011396613,-0.0054965783,0.50455654,-1.3811088,1.9039277,-2.0917585,-1.5708169,2.4796216,-0.026990442,0.01951627,-0.022411577,0.0037512125,0.0007495086,-0.021483388,-0.47884035,-0.05746084,-9.634268,0.78217715,47.675243,-0.8978632,-2.6213493,-3.338717,-0.08608145,0.10506134,-0.20307209,28.8125,30.125,29.3125,32.875,35.375,36.5
0.04201977,-1.5807508,-1.4122206,-2.0194366,-0.0058799945,0.056626543,-0.19050625,-0.38956377,-0.36855158,0.059826624,-3.0784569,0.624956,-0.00036117402,-0.017765135,0.006609055,-0.0007163899,-2.851715e-05,-0.0013837568,-0.005327468,0.5045084,-1.3810723,1.9039043,-2.0917585,-1.5708054,2.4795496,-0.02814171,0.02008092,-0.023044225,0.004155954,0.0006443048,-0.022803277,-0.3256114,-0.019153614,-9.634268,0.78888994,47.694946,-0.8867802,-2.7561407,-3.3557525,-0.0792235,0.09878266,-0.23027605,28.8125,30.125,29.3125,32.875,35.375,36.5
0.044019938,-1.8794545,-2.0066838,-2.164068,-0.0050126337,0.05514112,-0.18147919,-0.38964835,-0.36853063,0.059847,-3.0784369,0.62502646,-0.00025507057,-0.018693266,0.006753589,-0.0005773369,7.804089e-05,-0.0014140492,-0.00398308,0.5044241,-1.3810118,1.9037837,-2.091746,-1.5708536,2.479512,-0.0291978,0.021251548,-0.024923388,0.0049413885,0.0005635534,-0.025202708,-0.24899697,0.0,-9.615114,0.784413,47.66808,-0.9300038,-2.7000146,-3.3840923,-0.07402377,0.10704477,-0.22731677,28.8125,30.125,29.3125,32.875,35.375,36.5
0.046019815,-1.4703771,-1.5672745,-1.9367695,-0.007161628,0.04767919,-0.16132434,-0.38967103,-0.36853755,0.05986911,-3.0784888,0.6250174,-0.00022237186,-0.020037578,0.007080078,0.00027806987,-0.00022561893,-0.00073669216,-0.0034154798,0.50439966,-1.3810239,1.9037474,-2.0917456,-1.5708297,2.4794753,-0.030962572,0.02145009,-0.027468858,0.0065490957,0.0005007183,-0.027534038,-0.1340753,0.095768064,-9.5385,0.8179876,47.693153,-0.9049256,-2.6338553,-3.3144248,-0.08898259,0.11232666,-0.21942712,28.8125,30.125,29.3125,32.875,35.375,36.5
0.048019934,-1.0198406,-1.4285568,-1.8922304,-0.005515773,0.041033406,-0.1639353,-0.3896946,-0.36851192,0.059845954,-3.0784523,0.6250489,-0.00030707894,-0.021296825,0.008018273,0.00038255786,-0.00030336363,-0.000499552,-0.00413544,0.50432676,-1.3809637,1.9037236,-2.0917218,-1.5708174,2.4794266,-0.033684682,0.021792118,-0.028128758,0.006622104,0.00045050593,-0.029535813,-0.05746084,0.13407528,-9.653421,0.8090337,47.660015,-0.81956506,-2.6592653,-3.2457087,-0.07217649,0.11012226,-0.22602227,28.8125,30.125,29.3125,32.875,35.375,36.5
0.050020058,-0.99836534,-1.7149714,-1.9541644,-0.006554727,0.030594578,-0.16299903,-0.38975316,-0.36849254,0.059853137,-3.0784194,0.6251184,-0.00028231266,-0.022413984,0.008167061,0.00024669367,-0.0006169526,-1.4315185e-05,-0.0035845523,0.5042546,-1.3809031,1.9036278,-2.0916865,-1.5708417,2.479402,-0.034997076,0.02320596,-0.029307848,0.005809914,0.00048546676,-0.03139837,-0.076614454,0.15322891,-9.595961,0.784413,47.661808,-0.7992121,-2.6558545,-3.2735448,-0.09195781,0.119135134,-0.23958108,28.8125,30.125,29.3125,32.875,35.375,36.5
0.05202013,-0.8791436,-1.7213188,-1.7741123,-0.015139716,0.023091713,-0.15777005,-0.389811,-0.36847883,0.059858758,-3.078466,0.6250899,-0.00023840442,-0.023120955,0.00885678,-2.126088e-05,-0.00031405693,-0.00048857514,-0.003737953,0.50417,-1.3808668,1.9035801,-2.0917222,-1.5708297,2.4792938,-0.0367914,0.02396194,-0.029618878,0.0059268735,0.00044994598,-0.033038974,-0.05746084,0.21068975,-9.461885,0.8291774,47.698532,-0.7532345,-2.607428,-3.3844118,-0.061724786,0.12778671,-0.24500436,28.8125,30.125,29.3125,32.875,35.375,36.5
0.054019853,-0.6354619,-1.8932805,-1.8635416,-0.013130739,0.023746327,-0.15654878,-0.38988125,-0.36844903,0.059874788,-3.078454,0.62518257,-0.0001973442,-0.024314769,0.009184924,0.0001977894,-0.00055023935,-9.993093e-05,-0.003862522,0.5040617,-1.3808305,1.9034952,-2.091698,-1.5708417,2.479245,-0.03846341,0.024860939,-0.031241698,0.0061956914,0.00046646164,-0.03458566,0.019153614,0.21068975,-9.481039,0.7911258,47.672558,-0.693949,-2.5427108,-3.3417814,-0.07137957,0.13485469,-0.2649041,28.8125,30.125,29.3125,32.875,35.375,36.5
0.056019813,-0.43101442,-1.7368447,-1.8739934,-0.012716722,0.028671386,-0.15888417,-0.38991898,-0.3684329,0.059864644,-3.078444,0.62510145,-0.0001876302,-0.024596954,0.008513114,0.0006238135,-0.00079081324,0.00026786822,-0.0015379962,0.5040142,-1.3807702,1.903447,-2.091698,-1.5708655,2.4791481,-0.037612703,0.0255599,-0.033232063,0.00704769,0.0004962935,-0.036058705,-0.019153614,0.24899697,-9.385271,0.77545905,47.67614,-0.8189278,-2.55904,-3.2901742,-0.06328433,0.13728468,-0.25772244,28.8125,30.125,29.3125,32.875,35.375,36.5
0.058019765,-0.8480396,-1.9047754,-1.8132516,-0.014050516,0.031186005,-0.14929064,-0.38997564,-0.36841857,0.059891183,-3.0784874,0.62512946,-0.00012811918,-0.025538621,0.008871307,0.0011358135,-0.0009544024,0.000609843,-0.00168996,0.50392973,-1.3807702,1.9033865,-2.0916975,-1.5708536,2.4790757,-0.03907629,0.025691254,-0.034789816,0.008095983,0.00047536902,-0.037369717,-0.095768064,0.24899697,-9.461885,0.7150385,47.67614,-0.8184327,-2.5111325,-3.2611113,-0.07917863,0.13144179,-0.27742317,28.8125,30.125,29.3125,32.875,35.375,36.5
0.06001995,-1.3506073,-1.8565891,-1.7843301,-0.01089462,0.020380704,-0.14957836,-0.39002138,-0.36839104,0.059889276,-3.0784574,0.62516266,-0.00019901039,-0.026958143,0.009492119,0.0011561528,-0.001236831,0.0009112387,-0.002602884,0.50383323,-1.3807098,1.903303,-2.0916255,-1.5708417,2.4790037,-0.0415019,0.026771257,-0.03606861,0.0078944005,0.00057176,-0.038881883,-0.038307227,0.21068975,-9.404425,0.7016076,47.65643,-0.75104856,-2.4986117,-3.2965393,-0.06287278,0.14374709,-0.2974508,28.8125,30.125,29.3125,32.875,35.375,36.5
0.062019624,-1.0715814,-1.5032152,-1.6065361,-0.027015567,0.028569838,-0.15779495,-0.39006484,-0.36839017,0.05987953,-3.0784903,0.62518835,-0.00024860635,-0.02770461,0.009530969,0.0012503599,-0.002079977,0.00068680156,-0.0036231114,0.5037608,-1.3806375,1.9032425,-2.0916374,-1.570793,2.478943,-0.04278631,0.027532982,-0.037227713,0.0080801435,0.0014164449,-0.039146986,-0.095768064,0.24899697,-9.404425,0.7530795,47.687782,-0.72386456,-2.500484,-3.2845418,-0.05666347,0.14342661,-0.31374922,28.8125,30.125,29.3125,32.875,35.375,36.5
0.064019956,-1.1532211,-1.9681095,-1.5532426,-0.017428597,0.035890866,-0.15578236,-0.3901123,-0.3683667,0.059885096,-3.078475,0.62518364,-0.00027908655,-0.028243758,0.009324862,0.0012495749,-0.00344803,-4.0085495e-05,-0.0020278927,0.5036767,-1.3805891,1.903159,-2.0915773,-1.5707926,2.478858,-0.043902345,0.028434195,-0.03833238,0.008254138,0.0029617492,-0.04186046,-0.114921674,0.24899697,-9.346964,0.8224646,47.668976,-0.79149526,-2.501816,-3.268842,-0.07783196,0.116909906,-0.31729168,28.8125,30.125,29.3125,32.875,35.375,36.5
0.066020586,-1.605818,-1.6453922,-1.6116275,-0.015319271,0.033702195,-0.15264156,-0.39015138,-0.36835968,0.05986597,-3.078457,0.6251598,-0.00032091854,-0.029240811,0.009490672,0.0015045918,-0.003816327,0.00026920528,-0.001176478,0.50362843,-1.3804928,1.9030861,-2.0915658,-1.5707926,2.4787972,-0.04521301,0.029191196,-0.039890267,0.008605715,0.0031303428,-0.04402224,-0.21068975,0.15322891,-9.308656,0.7463667,47.652847,-0.8530615,-2.4808877,-3.3326063,-0.0862797,0.118340954,-0.30636424,28.8125,30.125,29.3125,32.875,35.375,36.5
0.06801981,-0.9853674,-1.5486346,-1.6021465,-0.0049692704,0.06429833,-0.15512869,-0.39025295,-0.36835605,0.05990647,-3.0785565,0.6251812,-0.00016268472,-0.030133335,0.009761372,0.0016296417,-0.0039887163,0.00056315394,-0.0026555348,0.50352013,-1.3804686,1.9029788,-2.0916255,-1.5707806,2.4786897,-0.04649876,0.029877743,-0.041007124,0.008696232,0.0031438235,-0.043827955,-0.19153613,0.11492168,-9.289502,0.7620334,47.652847,-0.7623565,-2.456511,-3.293766,-0.07189827,0.09694056,-0.3422109,28.8125,30.125,29.3125,32.875,35.375,36.5
0.07001998,-0.62620074,-1.4866589,-1.3733248,0.0024630802,0.08848433,-0.15395007,-0.3903282,-0.36833894,0.059929848,-3.078581,0.6251649,-6.6927234e-05,-0.031005643,0.009777486,0.0017081341,-0.004059048,0.0010874695,-0.0011241889,0.503436,-1.3804321,1.9028825,-2.0916255,-1.5708045,2.4785924,-0.047212105,0.030925423,-0.042389035,0.008536965,0.0029515934,-0.046071403,-0.22984336,0.1340753,-9.289502,0.7530795,47.675243,-0.68006444,-2.4238229,-3.2901416,-0.082149506,0.10719417,-0.34230366,28.8125,30.125,29.3125,32.875,35.375,36.5
0.072019964,-1.4517573,-0.8490959,-1.4510895,-0.008807022,0.07546744,-0.15678097,-0.3903588,-0.3683032,0.05991039,-3.0785291,0.62515295,-0.000194407,-0.031600457,0.010098024,0.0013539273,-0.003719468,0.00041599126,0.0010936877,0.5033399,-1.3803596,1.9028219,-2.091541,-1.5707926,2.4784954,-0.048315402,0.032272805,-0.043235756,0.008788746,0.0029717926,-0.04939237,-0.3256114,0.095768064,-9.3661175,0.8560339,47.70211,-0.8620405,-2.4610882,-3.2666872,-0.06862371,0.11178386,-0.35634977,28.8125,30.125,29.3125,32.875,35.375,36.5
0.07401974,-1.9071572,-0.89617354,-1.3524832,-0.00464825,0.06600824,-0.15127718,-0.3904228,-0.3683089,0.059910897,-3.0785904,0.62510693,-0.00018974494,-0.033142585,0.010847968,0.0012499643,-0.004321407,-0.00025124228,0.0028284288,0.50326693,-1.3802749,1.902726,-2.0915654,-1.5707558,2.478386,-0.0515357,0.033774886,-0.044875734,0.009219483,0.0038192042,-0.05434787,-0.3256114,0.11492168,-9.32781,0.7620334,47.64121,-0.74099475,-2.5051355,-3.3093781,-0.07800856,0.110918775,-0.31080416,28.8125,30.125,29.3125,32.875,35.375,36.5
0.07601967,-1.4666173,-1.0036346,-1.3490311,0.0010700739,0.077718146,-0.15884094,-0.39049467,-0.36827102,0.059909977,-3.0785797,0.62515926,-0.00019165999,-0.032553412,0.0098557705,0.0014604625,-0.0050778217,-0.0007862766,0.006689233,0.50313586,-1.3802147,1.902654,-2.0915525,-1.5707554,2.478289,-0.049883068,0.033978015,-0.045778476,0.010020141,0.004739492,-0.05655728,-0.30645782,0.0,-9.346964,0.83589023,47.690468,-0.78698,-2.4661884,-3.2626295,-0.07159025,0.08976552,-0.30752486,28.8125,30.125,29.3125,32.875,35.375,36.5
0.07801975,-1.4490217,-1.0188898,-1.2775869,0.0009962413,0.080774926,-0.15985563,-0.39058086,-0.36823627,0.059919048,-3.0785508,0.625115,-0.00014374933,-0.033900432,0.010463933,0.0018551176,-0.0055556265,-0.0005345119,0.0061466065,0.50302714,-1.3801304,1.9025229,-2.0915048,-1.5708035,2.4781563,-0.052335776,0.034436226,-0.047376435,0.010705494,0.0050346097,-0.058467217,-0.4213795,0.0,-9.3661175,0.74413085,47.65106,-0.849769,-2.482183,-3.2367194,-0.08017062,0.080331214,-0.3029766,28.8125,30.125,29.3125,32.875,35.375,36.5
0.08001993,-1.2403729,-0.7541881,-1.357361,-0.0014799637,0.086132355,-0.16276725,-0.3906286,-0.36823222,0.059921004,-3.0786173,0.6251062,-0.00020147268,-0.034607895,0.01072913,0.0015011927,-0.006219197,-0.001009567,0.008941453,0.50293094,-1.3800821,1.9024614,-2.0915048,-1.5707315,2.4780462,-0.053937897,0.035533357,-0.047722004,0.010051917,0.005842821,-0.062865086,-0.36391866,-0.019153614,-9.385271,0.81351066,47.677036,-0.8390856,-2.4543562,-3.282536,-0.09637187,0.06752868,-0.26858568,28.8125,30.125,29.3125,32.875,35.375,36.5
0.08201981,-0.997152,-0.90871644,-1.4522955,0.0032126328,0.09403714,-0.1510845,-0.3906906,-0.36819473,0.059915747,-3.0785863,0.62506163,-0.00027461885,-0.036392916,0.011677721,0.0009996294,-0.0058602924,-0.0013028135,0.009733229,0.50281006,-1.3799974,1.9023541,-2.0914214,-1.5707315,2.4779015,-0.05707537,0.03788803,-0.04928762,0.009694015,0.0056608077,-0.06679334,-0.30645782,-0.038307227,-9.404425,0.83589023,47.698532,-0.71748376,-2.483799,-3.33853,-0.08304212,0.06929254,-0.2390667,28.8125,30.125,29.3125,32.875,35.375,36.5
0.08401979,-1.6639203,-0.81640804,-1.4224371,-0.00091804325,0.0808709,-0.16264962,-0.39077634,-0.36817688,0.05991527,-3.078599,0.62502146,-0.00020913352,-0.03697524,0.010201037,0.0020548496,-0.006576074,0.00053346757,0.015526687,0.50271505,-1.3799008,1.9022464,-2.0914447,-1.5707554,2.4777799,-0.054959733,0.038705155,-0.0528343,0.010469326,0.005399032,-0.07046904,-0.4405331,-0.05746084,-9.423578,0.7620334,47.619713,-0.8681327,-2.4531822,-3.170447,-0.09700745,0.045920532,-0.1819498,28.8125,30.125,29.3125,32.875,35.375,36.5
0.086023495,-1.4457557,-1.1079334,-1.5499868,0.007276781,0.08561485,-0.14880134,-0.390839,-0.36815405,0.05991622,-3.0786064,0.6249452,-0.00022304355,-0.036901236,0.011513074,0.0007136625,-0.0047931615,-0.0012215714,0.016938299,0.50261855,-1.3798285,1.9021505,-2.0914094,-1.5707558,2.477635,-0.056644455,0.03976425,-0.050904445,0.009880184,0.004683674,-0.073564775,-0.45968673,-0.038307227,-9.308656,0.7463667,47.68599,-0.8821466,-2.496343,-3.261879,-0.099499986,0.07789067,-0.15799159,28.8125,30.125,29.3125,32.875,35.375,36.5
0.08801985,-1.6381469,-1.0016682,-1.6115404,0.0055109765,0.08236869,-0.15242292,-0.3909392,-0.36813417,0.059926014,-3.0786831,0.6249016,-0.00021614217,-0.03800833,0.012269835,0.0003735599,-0.004105589,-0.0018260162,0.017120343,0.50246215,-1.3797439,1.9020308,-2.091421,-1.5707082,2.4774415,-0.058740724,0.041390333,-0.052172277,0.010388185,0.004373775,-0.07584164,-0.40222588,-0.076614454,-9.32781,0.7978386,47.647476,-0.8222126,-2.4750278,-3.331539,-0.1061096,0.059335276,-0.09555994,28.8125,30.125,29.3125,32.875,35.375,36.5
0.09001992,-0.90237623,-1.0978396,-1.4915298,0.0063902033,0.08658845,-0.14346921,-0.39101776,-0.36809587,0.059934177,-3.0786626,0.62485826,-0.00015422577,-0.039069586,0.0121911345,0.00055246294,-0.003945192,-0.0011170848,0.018052153,0.5023544,-1.3796831,1.901935,-2.091397,-1.5707558,2.4773095,-0.059283588,0.042791262,-0.054274272,0.010543708,0.003888273,-0.077314414,-0.34476504,0.019153614,-9.3661175,0.7486078,47.661808,-0.90001714,-2.5317645,-3.2887459,-0.10336226,0.056785725,-0.09143171,28.8125,30.125,29.3125,32.875,35.375,36.5
0.09201971,-0.99839914,-1.4207246,-1.5022728,0.0023366804,0.07280137,-0.14964935,-0.39109662,-0.36808392,0.059927545,-3.078688,0.62478584,-0.00019210203,-0.040824205,0.012024435,0.0014248024,-0.0043956693,0.001086815,0.016889337,0.5022463,-1.379563,1.9018024,-2.0913732,-1.5707325,2.477153,-0.060203362,0.04369962,-0.057341874,0.010559099,0.00321476,-0.077068925,-0.3256114,0.038307227,-9.308656,0.8717007,47.72719,-0.94777566,-2.5188475,-3.132274,-0.10771492,0.06474072,-0.054696,28.8125,30.125,29.3125,32.875,35.375,36.5
0.09401981,-1.0455413,-1.0983486,-1.7294799,-0.010674747,0.06950785,-0.16052046,-0.39117223,-0.36805886,0.059931528,-3.0787003,0.6247317,-0.00021924557,-0.04033826,0.0129299285,0.0006032461,-0.0027361433,-0.00049699284,0.015649477,0.5021264,-1.3794786,1.9016827,-2.0913255,-1.5707206,2.4769979,-0.060834844,0.043944355,-0.05587383,0.011037212,0.0025261997,-0.07646005,-0.34476504,0.1340753,-9.308656,0.79560274,47.690468,-0.9437979,-2.4931536,-3.3140266,-0.103168294,0.057127275,-0.08424808,28.8125,30.125,29.3125,32.875,35.375,36.5
0.09601967,-1.6121776,-1.647329,-1.7499229,-6.241442e-05,0.05330065,-0.14585581,-0.3912558,-0.3680192,0.059924375,-3.0787067,0.62469494,-0.00022033828,-0.04136315,0.013131389,0.00061486714,-0.0023586187,-0.0003426813,0.01375006,0.5019823,-1.3793939,1.9015988,-2.091325,-1.570721,2.47683,-0.061860364,0.045396138,-0.057722658,0.011482505,0.002118222,-0.075584546,-0.2681506,0.21068975,-9.32781,0.7463667,47.693153,-1.0115341,-2.5129616,-3.3318768,-0.11954878,0.08373182,-0.06658624,28.8125,30.125,29.3125,32.875,35.375,36.5
0.09801987,-1.5758213,-1.9477817,-1.7172031,-0.009211839,0.046050407,-0.13929805,-0.39133254,-0.36797404,0.059913456,-3.0786612,0.62462914,-0.0002684416,-0.04230863,0.01354641,0.0006425392,-0.0019905223,-0.0005522239,0.010888132,0.5018501,-1.3792857,1.9014791,-2.091253,-1.5707453,2.4766626,-0.06328461,0.046521217,-0.05930759,0.012302499,0.0018906788,-0.074145876,-0.17238252,0.21068975,-9.32781,0.7463667,47.68599,-1.0038399,-2.4681673,-3.284129,-0.13707326,0.09179609,-0.10645904,28.8125,30.125,29.3125,32.875,35.375,36.5
0.10002014,-0.6592347,-1.3532183,-1.6799986,-0.032011926,0.06305273,-0.15360685,-0.39144418,-0.36795202,0.059941404,-3.0787327,0.62464386,-0.0001930138,-0.043104086,0.013352659,0.001225032,-0.0025237063,0.000922592,0.008945247,0.50169426,-1.3792255,1.901347,-2.091265,-1.570721,2.476507,-0.06353112,0.046550475,-0.06060689,0.012026101,0.0016520083,-0.072448395,-0.22984336,0.2681506,-9.404425,0.8090337,47.678825,-1.0342956,-2.4847672,-3.2984018,-0.12945105,0.07196185,-0.10313943,28.8125,30.125,29.3125,32.875,35.375,36.5
0.10201981,-0.9553887,-1.8773811,-1.8747114,-0.026681751,0.052311953,-0.14794123,-0.3915179,-0.3679256,0.059932653,-3.0787108,0.6246794,-0.00024939037,-0.043861374,0.014101173,-0.00014933273,-0.0013501322,-0.0012642867,0.0052941334,0.5015739,-1.3791163,1.9012269,-2.0912173,-1.5707091,2.4764116,-0.065495126,0.049778014,-0.061291553,0.011966034,0.001670759,-0.07076059,-0.1340753,0.24899697,-9.423578,0.800085,47.66987,-1.0188239,-2.4953127,-3.3237963,-0.12251119,0.10273868,-0.13502432,28.8125,30.125,29.3125,32.875,35.375,36.5
0.10401981,-0.69401747,-1.7585645,-1.7912773,-0.03115017,0.053016625,-0.14972857,-0.39159328,-0.36790293,0.05992219,-3.078721,0.6245853,-0.0002658083,-0.044635545,0.014205559,4.2365562e-05,-0.0016414382,-0.0011782598,0.0032283925,0.5014658,-1.3790079,1.9011196,-2.091205,-1.5707091,2.4762435,-0.066509396,0.050483875,-0.062672414,0.0124250045,0.001882142,-0.06970889,-0.11492168,0.24899697,-9.481039,0.90750587,47.68062,-1.0562334,-2.6572149,-3.288012,-0.14642793,0.09962123,-0.16967684,28.8125,30.125,29.3125,32.875,35.375,36.5
0.10601981,-1.1302854,-1.8553956,-1.8412658,-0.031436138,0.02939008,-0.14440668,-0.39168343,-0.36786264,0.059906483,-3.0787091,0.6245259,-0.0002810811,-0.045744292,0.014175577,0.001496265,-0.0031467609,0.0014117374,0.001610079,0.50132173,-1.3788885,1.9010113,-2.0911934,-1.570721,2.476064,-0.06751625,0.04880027,-0.063995406,0.012436093,0.001953201,-0.06909735,-0.05746084,0.28730422,-9.461885,0.7553206,47.689575,-1.0573206,-2.3544037,-3.304853,-0.15030074,0.103298485,-0.19803031,28.8125,30.125,29.3125,32.875,35.375,36.5
0.10801987,-0.3094309,-1.4562074,-1.7374673,-0.036525346,0.04473681,-0.15625253,-0.39176825,-0.36784682,0.059920866,-3.078723,0.62458646,-0.0002931607,-0.04697027,0.014841586,0.00082063494,-0.0027281898,0.00020714995,-0.00095811003,0.5012013,-1.3788034,1.9008669,-2.0911448,-1.5706967,2.4759796,-0.06989136,0.0513108,-0.0654889,0.01267777,0.0021633133,-0.06890364,-0.019153614,0.28730422,-9.423578,0.7777002,47.675243,-0.99730384,-2.500837,-3.2829144,-0.14434563,0.09832457,-0.2363834,28.8125,30.125,29.3125,32.875,35.375,36.5
0.110019945,-0.2512685,-1.4212897,-1.9141258,-0.03804478,0.048319638,-0.1573067,-0.39188313,-0.36783072,0.059928447,-3.0787575,0.6246308,-0.00030205783,-0.047492582,0.015056275,0.00013791403,-0.0020505309,-0.00063921633,0.00092665176,0.50104535,-1.3786707,1.9006871,-2.091121,-1.570661,2.475847,-0.07060044,0.053342253,-0.06631732,0.012546218,0.0019746372,-0.07149646,0.019153614,0.24899697,-9.32781,0.8247004,47.690468,-1.1142484,-2.491338,-3.3001943,-0.1718396,0.11339581,-0.24569958,28.8125,30.125,29.3125,32.875,35.375,36.5
0.11201987,-1.1108555,-1.7475051,-1.8942186,-0.025798038,0.03525663,-0.13911274,-0.3919848,-0.36778325,0.059931472,-3.0787504,0.6245533,-0.00022679064,-0.04810012,0.0154080875,-0.00036996027,-0.0015462345,-0.0015867887,-0.002002119,0.5009012,-1.3785859,1.9005798,-2.0911205,-1.5707091,2.4756556,-0.07174856,0.055052474,-0.067259856,0.012848708,0.0019879842,-0.06971517,0.0,0.21068975,-9.346964,0.80456203,47.692257,-1.0796219,-2.6488447,-3.33954,-0.17153373,0.11065465,-0.29391688,28.8125,30.125,29.3125,32.875,35.375,36.5
0.114019945,-0.9840011,-1.6947722,-1.7633824,-0.026362516,0.044012666,-0.14825656,-0.39207578,-0.3677434,0.059904303,-3.0787082,0.62460184,-0.0002574616,-0.04918912,0.015304163,0.0014711949,-0.0032225838,0.0016716195,-0.0021967902,0.5007573,-1.3784428,1.900472,-2.0911205,-1.570721,2.4755473,-0.0725036,0.05261705,-0.068596624,0.012957603,0.0018888252,-0.070275314,0.038307227,0.11492168,-9.385271,0.7172743,47.678825,-1.1472313,-2.3993163,-3.3333158,-0.15175492,0.117059514,-0.32996762,28.8125,30.125,29.3125,32.875,35.375,36.5
0.11601992,-0.714244,-1.3203591,-1.790011,-0.02961259,0.057363626,-0.14832427,-0.3921707,-0.3677305,0.059936326,-3.078781,0.6245373,-0.00023790778,-0.050035693,0.01549839,0.00080016605,-0.0031457813,0.00062869274,-0.000644081,0.5006251,-1.3783817,1.9003161,-2.0910728,-1.5706848,2.4753656,-0.07386786,0.055012714,-0.0698717,0.012790106,0.0023220258,-0.07319201,-0.038307227,0.22984336,-9.346964,0.7777002,47.660015,-1.2000241,-2.482725,-3.373357,-0.17139778,0.1135534,-0.3455184,28.8125,30.125,29.3125,32.875,35.375,36.5
0.11801984,-0.9002124,-1.4414644,-1.8151214,-0.016335413,0.056227364,-0.1448601,-0.39229566,-0.3677132,0.0599465,-3.0788143,0.6245845,-0.0002485328,-0.050319266,0.015027439,0.000516117,-0.0035273002,-0.0002461324,-0.003690911,0.5004577,-1.378237,1.9001135,-2.091037,-1.5706486,2.4752235,-0.073786125,0.056760147,-0.07138102,0.013136616,0.0030765058,-0.07006379,-0.05746084,0.22984336,-9.385271,0.779936,47.660015,-1.2547426,-2.4884477,-3.3744228,-0.1962173,0.113265194,-0.41442508,28.8125,30.125,29.3125,32.875,35.375,36.5
0.12002023,-0.73236823,-1.7212291,-1.7531012,-0.00030151138,0.05974669,-0.13706674,-0.39238527,-0.36765146,0.0599198,-3.078734,0.6246449,-0.0002571172,-0.052077603,0.01626323,0.000406688,-0.0043925964,-0.00037144934,-0.005900061,0.5003005,-1.3781167,1.9000291,-2.0910256,-1.5706962,2.4751143,-0.07798261,0.057563234,-0.07197187,0.012613464,0.0038898634,-0.07205224,-0.13407528,0.17238252,-9.32781,0.82022345,47.661808,-1.1152437,-2.5392096,-3.4276426,-0.18483603,0.09032369,-0.46256053,28.8125,30.125,29.3125,32.875,35.375,36.5
0.122019865,-0.41665956,-1.1888995,-1.6738174,-0.0051270584,0.071297,-0.1415466,-0.39248455,-0.36765757,0.05993436,-3.078822,0.624563,-0.00027423375,-0.053447597,0.014096968,0.0021693264,-0.0066204364,0.003233063,0.0005641842,0.50018156,-1.3779962,1.8998479,-2.0910017,-1.5706362,2.4749331,-0.075722344,0.05843614,-0.07700674,0.012548348,0.00410711,-0.07625428,-0.19153613,0.11492168,-9.385271,0.7866488,47.709274,-1.3188698,-2.5099404,-3.176124,-0.19588879,0.104083054,-0.46087208,28.8125,30.125,29.3125,32.875,35.375,36.5
0.12401976,-1.5160903,-1.421632,-1.9088796,0.009330114,0.057723597,-0.14329363,-0.3925962,-0.36759388,0.059927948,-3.078767,0.6246073,-0.00024112358,-0.053343493,0.015702054,0.00067597907,-0.0048316596,0.00063214335,0.0016198187,0.50000113,-1.3778878,1.8997287,-2.090978,-1.5706843,2.4747875,-0.07810756,0.05956172,-0.074936375,0.01249086,0.003788104,-0.079695314,-0.24899697,0.038307227,-9.404425,0.70608455,47.68599,-1.3189538,-2.4428608,-3.3152792,-0.20793158,0.08241768,-0.4712338,28.8125,30.125,29.3125,32.875,35.375,36.5
0.1260197,-1.447943,-1.2707621,-1.9514204,0.00642432,0.071260504,-0.1434872,-0.39267072,-0.3675756,0.059906077,-3.078775,0.62456673,-0.0004177812,-0.05525491,0.016091434,0.0008220551,-0.004812471,0.0009280416,0.007359651,0.49985656,-1.3777308,1.8995732,-2.0908935,-1.5706123,2.4746165,-0.08040611,0.061792962,-0.078071095,0.01315151,0.0036154962,-0.087732196,-0.24899697,0.038307227,-9.32781,0.7911258,47.64389,-1.1794374,-2.6290338,-3.3561249,-0.20642975,0.09833652,-0.4185819,28.8125,30.125,29.3125,32.875,35.375,36.5
0.12801993,-1.3165241,-1.0877979,-1.7629099,-0.0031457574,0.08761401,-0.13724758,-0.39282775,-0.36753485,0.05995318,-3.0788214,0.6245919,-0.00023721566,-0.05704448,0.015062952,0.0029574477,-0.007322603,0.0051543512,0.011287225,0.49966517,-1.3776591,1.899381,-2.0908935,-1.5706481,2.474435,-0.08041142,0.060783558,-0.08166444,0.012839131,0.0037957989,-0.091663636,-0.21068975,0.095768064,-9.423578,0.80679786,47.63404,-1.3901291,-2.4057775,-3.0841355,-0.22168395,0.08911545,-0.41448718,28.8125,30.125,29.3125,32.875,35.375,36.5
0.13001996,-1.4977587,-1.3070819,-1.9133656,-0.0046011275,0.0897908,-0.15352988,-0.39291134,-0.36752075,0.059938706,-3.0788383,0.6244751,-0.0002792175,-0.056606397,0.016100211,0.0018785837,-0.0064649773,0.0024104302,0.01787094,0.49955678,-1.3775147,1.8992375,-2.0908697,-1.5706362,2.4742517,-0.08208541,0.061365817,-0.080050185,0.013462083,0.004359548,-0.099923,-0.34476504,0.095768064,-9.481039,0.8112748,47.661808,-1.3288863,-2.4536166,-3.3009443,-0.2240641,0.08555217,-0.3568529,28.8125,30.125,29.3125,32.875,35.375,36.5
0.13201979,-1.214063,-1.8009598,-1.8581018,-0.005322872,0.10699402,-0.1463028,-0.39302084,-0.3674773,0.059922215,-3.078866,0.6244022,-0.00037518758,-0.057616495,0.016640315,0.00014590162,-0.005302724,-0.0008671596,0.021225527,0.4993523,-1.3773689,1.899094,-2.0908334,-1.5705875,2.4739983,-0.08424221,0.06623392,-0.08200684,0.013989016,0.0049016876,-0.105433986,-0.40222588,0.1340753,-9.481039,0.80456203,47.678825,-1.262987,-2.5904083,-3.2178469,-0.24152175,0.08142788,-0.26759934,28.8125,30.125,29.3125,32.875,35.375,36.5
0.13401997,-1.7186077,-1.8041967,-1.9590597,-0.014832842,0.10219099,-0.13749893,-0.39314774,-0.36743972,0.05991108,-3.0788863,0.6243464,-0.0003599033,-0.059537895,0.01700186,0.0021541286,-0.0076172883,0.0029269042,0.023178084,0.49917194,-1.3772136,1.8989381,-2.0908458,-1.5705875,2.4737806,-0.08672688,0.06374756,-0.083543025,0.013573151,0.0051140888,-0.10987127,-0.4213795,0.05746084,-9.481039,0.78888994,47.66271,-1.2599189,-2.5155342,-3.1834383,-0.24162328,0.074583896,-0.23647255,28.8125,30.125,29.3125,32.875,35.375,36.5
0.13601977,-1.6550425,-1.6359535,-1.806292,-0.017176982,0.10926952,-0.1391478,-0.39327562,-0.3674081,0.059944175,-3.0789242,0.6242164,-0.00027891874,-0.05956079,0.017156506,0.0015897293,-0.006923282,0.0021257699,0.026483499,0.49901623,-1.3771173,1.8987349,-2.0907857,-1.5706123,2.473539,-0.0868457,0.06490713,-0.08363021,0.013535587,0.0048934002,-0.1132947,-0.61291564,0.038307227,-9.672575,0.8179876,47.681515,-1.1746327,-2.4035394,-3.2604218,-0.25849694,0.07664396,-0.17204809,28.8125,30.125,29.3125,32.875,35.375,36.5
0.13801977,-0.8745134,-1.2414455,-1.7639202,-0.02007829,0.13356185,-0.14298,-0.39337346,-0.36735922,0.059904408,-3.0788836,0.6241884,-0.00039336775,-0.06066122,0.017388051,0.0016307584,-0.006755817,0.002594159,0.026328681,0.4988363,-1.3769366,1.8986028,-2.0907495,-1.5706004,2.473347,-0.08798993,0.06618998,-0.08526102,0.0135561405,0.0045098113,-0.11428304,-0.7278373,0.076614454,-9.595961,0.784413,47.664497,-1.4342403,-2.4531226,-3.3043365,-0.27025935,0.080106825,-0.13711941,28.8125,30.125,29.3125,32.875,35.375,36.5
0.14001985,-2.2603388,-0.86511475,-1.7496761,-0.0174485,0.10010774,-0.14509481,-0.39351988,-0.36732325,0.059936356,3.0789704,-0.62413305,0.00034427884,-0.06358297,0.019847538,0.0018918212,-0.006735188,0.0030016433,0.017564073,0.49861833,-1.3768404,1.8984107,-2.0907252,-1.5705642,2.4730835,-0.09465673,0.06675151,-0.08663104,0.014022289,0.004304659,-0.112183996,-0.6512228,0.019153614,-9.519346,0.8157518,47.63225,-1.0841818,-2.4315617,-3.3056784,-0.26876605,0.06712137,-0.1620824,28.8125,30.125,29.3125,32.875,35.375,36.5
0.14201967,-2.076051,-1.0595379,-1.9272491,0.0027923533,0.09323532,-0.14137289,-0.3936301,-0.3672931,0.05992522,3.0789826,-0.6240606,0.00039668218,-0.06409542,0.019069705,0.0022704725,-0.0075448346,0.0041272873,0.014314538,0.49845117,-1.3766841,1.8982428,-2.0906904,-1.5705403,2.4728696,-0.09389951,0.067495026,-0.0882771,0.013551268,0.004472095,-0.10817683,-0.61291564,0.038307227,-9.595961,0.84484416,47.66271,-1.2531632,-2.3817239,-3.2933602,-0.28037733,0.06970209,-0.17293176,28.8125,30.125,29.3125,32.875,35.375,36.5
0.1440198,-1.6551852,-0.7336858,-1.9619809,-0.0077043767,0.09702845,-0.14433487,-0.39374557,-0.36726502,0.05991886,3.0789795,-0.62402415,0.00043777263,-0.06524088,0.020017039,0.0022074212,-0.0077407355,0.003980891,0.0074745147,0.4982825,-1.3765277,1.8980635,-2.0906541,-1.570516,2.4726787,-0.096669935,0.06799724,-0.08873815,0.013546864,0.004713715,-0.104107454,-0.5554548,0.05746084,-9.557653,0.85155696,47.67614,-1.1794028,-2.3965893,-3.2409887,-0.2911653,0.059192076,-0.25881046,28.8125,30.125,29.3125,32.875,35.375,36.5
0.1460199,-1.5544671,-0.5329045,-1.6066357,-0.014904766,0.102293015,-0.14394812,-0.39390934,-0.36719564,0.059924945,3.07896,-0.62413716,0.0003866485,-0.06673061,0.021148782,0.001559293,-0.007835445,0.003434037,0.001840264,0.49802986,-1.376383,1.8978728,-2.0906308,-1.5705398,2.4724991,-0.10012168,0.06973006,-0.08912031,0.012628546,0.0050597535,-0.10192492,-0.68953013,0.038307227,-9.500193,0.78217715,47.67614,-1.1182365,-2.3932881,-3.367219,-0.27397898,0.066786505,-0.2839601,28.8125,30.125,29.3125,32.875,35.375,36.5
0.14802006,-1.348022,-0.5613501,-1.9815836,-0.00078173337,0.09752136,-0.15475126,-0.3940383,-0.36717936,0.059938718,3.0789025,-0.6240492,0.00033689092,-0.069728084,0.020736601,0.0036969786,-0.009629292,0.0078112376,0.00085580564,0.49786165,-1.3762627,1.897704,-2.0906541,-1.5705041,2.4722834,-0.10183187,0.06999731,-0.09437112,0.012916218,0.004543085,-0.10264739,-0.47884032,-0.019153614,-9.500193,0.7709874,47.687782,-0.999339,-2.3511496,-3.114335,-0.29920155,0.05054853,-0.31001848,28.8125,30.125,29.3125,32.875,35.375,36.5
0.15001988,-1.625299,-0.80689484,-2.076164,0.0073481267,0.091829136,-0.14671817,-0.39417854,-0.3671086,0.05993246,3.0789113,-0.62412685,0.00035372475,-0.070450045,0.022047836,0.0027120002,-0.008762245,0.006427174,-0.00068167254,0.49762112,-1.3761182,1.8975362,-2.090607,-1.570516,2.4720902,-0.10460327,0.07139442,-0.09369874,0.012477353,0.004442441,-0.103881285,-0.4405331,-0.05746084,-9.500193,0.81351066,47.690468,-0.9248165,-2.2987723,-3.2764044,-0.28529125,0.07714242,-0.32581425,28.8125,30.125,29.3125,32.875,35.375,36.5
0.15201965,-0.80814284,-0.80236346,-1.6936892,0.0068321177,0.10749489,-0.1450648,-0.39433536,-0.36708906,0.059948318,3.0788717,-0.6240421,0.00030908128,-0.071216576,0.022527652,0.0028278662,-0.008408873,0.0062741907,-0.0021920095,0.49742928,-1.3759497,1.8972973,-2.090594,-1.5704921,2.4718506,-0.10593181,0.07201844,-0.09491723,0.013379111,0.0042121983,-0.10369841,-0.6512228,-0.038307227,-9.461885,0.87617236,47.683304,-0.8917853,-2.2894084,-3.2493985,-0.31112647,0.071250044,-0.33796072,28.8125,30.125,29.3125,32.875,35.375,36.5
0.15401977,-1.4366693,-0.9580067,-1.8360182,0.017262891,0.097457215,-0.14139049,-0.39447337,-0.36703414,0.059945844,3.0789058,-0.62400824,0.00030124417,-0.07210877,0.023027565,0.0026523715,-0.008456998,0.006208049,-0.0013057296,0.497225,-1.3757933,1.8971065,-2.0905464,-1.570516,2.471621,-0.1076025,0.07296906,-0.09560483,0.013149947,0.004284345,-0.10625513,-0.47884035,-0.1340753,-9.461885,0.8537928,47.709274,-0.8792596,-2.3216221,-3.2408838,-0.28979644,0.05924262,-0.3654179,28.8125,30.125,29.3125,32.875,35.375,36.5
0.15601985,-1.8375541,-0.45088726,-1.700102,0.003134075,0.09145595,-0.14047515,-0.39459187,-0.3669962,0.05993834,3.0789304,-0.62391883,0.00034327433,-0.073103406,0.02351674,0.00249823,-0.00815698,0.0058157314,-0.003974937,0.49704492,-1.3756366,1.8969268,-2.0904987,-1.5705041,2.4713821,-0.1092582,0.07435958,-0.09703557,0.013680252,0.00420501,-0.10524089,-0.4405331,-0.076614454,-9.500193,0.80456203,47.723602,-0.8163555,-2.3057134,-3.2778165,-0.29457897,0.07516344,-0.40721983,28.8125,30.125,29.3125,32.875,35.375,36.5
0.15801969,-0.97526217,-0.70862764,-1.5804456,-0.0041882605,0.116812125,-0.15649974,-0.3947714,-0.36693904,0.059965145,3.0788498,-0.62395465,0.00026770553,-0.07305921,0.023910744,0.0016721832,-0.0071751387,0.003742167,0.0019142575,0.49676934,-1.375516,1.8967227,-2.0904982,-1.5704802,2.4711392,-0.10991908,0.07605323,-0.09739174,0.014638384,0.0043425485,-0.11179052,-0.40222588,-0.05746084,-9.404425,0.7642693,47.664497,-0.8812641,-2.2901115,-3.3166893,-0.3156217,0.06047089,-0.38161808,28.8125,30.125,29.3125,32.875,35.375,36.5
0.16001983,-1.5513886,-1.1173465,-1.5257643,-0.0110729,0.09505547,-0.14107811,-0.39491636,-0.36690164,0.059961263,3.0788152,-0.6240017,0.00025319538,-0.07379526,0.02359551,0.0017365081,-0.0072264653,0.00429864,0.0060551423,0.4965658,-1.3753471,1.896531,-2.0904982,-1.5704678,2.4709694,-0.10988992,0.07742533,-0.09915087,0.014515849,0.004122301,-0.11590093,-0.3256114,0.038307227,-9.385271,0.75084364,47.691364,-0.8855907,-2.4069624,-3.3141205,-0.33233953,0.057600934,-0.37349737,28.8125,30.125,29.3125,32.875,35.375,36.5
0.1620197,-0.77466077,-1.1705943,-1.5706552,-0.01747615,0.09804343,-0.14611793,-0.39508903,-0.36686048,0.059988696,3.078779,-0.6239502,0.00016813668,-0.07434943,0.023196287,0.0020891316,-0.00796095,0.005051119,0.013990109,0.49633834,-1.375203,1.8962921,-2.0904744,-1.5704678,2.4707146,-0.109864846,0.07790139,-0.10049499,0.014374306,0.0044169025,-0.12381035,-0.3256114,0.05746084,-9.423578,0.8403672,47.690468,-0.938271,-2.3221123,-3.2799847,-0.3032264,0.054109383,-0.2900189,28.8125,30.125,29.3125,32.875,35.375,36.5
0.16401978,-0.656321,-1.5719365,-1.7466656,-0.018319605,0.07860332,-0.14713392,-0.39522985,-0.36677325,0.05995624,3.0788631,-0.62394553,0.00023311995,-0.07635207,0.024605557,0.0022400527,-0.007797233,0.0052540307,0.017405123,0.49608517,-1.3750106,1.8961238,-2.0904143,-1.5705041,2.470448,-0.113874756,0.07887031,-0.10213223,0.014941254,0.0041655893,-0.13123456,-0.19153613,0.095768064,-9.519346,0.6971306,47.64479,-0.9092169,-2.279254,-3.309241,-0.33108163,0.05823385,-0.22348121,28.8125,30.125,29.3125,32.875,35.375,36.5
0.16601981,-1.115074,-1.6665037,-1.65057,-0.019214775,0.05458516,-0.13910747,-0.3953684,-0.3667325,0.05995553,3.0788713,-0.62382686,0.0002340756,-0.075713225,0.024084708,0.0007287021,-0.005888596,0.003071424,0.024106355,0.49588242,-1.3748531,1.895933,-2.0903904,-1.5704921,2.4701703,-0.11198302,0.082259245,-0.10274483,0.0149986595,0.003526999,-0.13604233,-0.11492168,0.17238252,-9.423578,0.83589023,47.68599,-1.133702,-2.3400495,-3.3272276,-0.33604342,0.06863472,-0.13335505,28.8125,30.125,29.3125,32.875,35.375,36.5
0.16801989,-0.619667,-1.4200008,-1.5534307,-0.030078575,0.059574604,-0.14436352,-0.3955372,-0.3666533,0.05995972,3.0788934,-0.6238502,0.00019550559,-0.0791166,0.02511361,0.0030062676,-0.008060091,0.007882283,0.022854716,0.4956173,-1.3746976,1.895728,-2.0903428,-1.5705284,2.469917,-0.116540305,0.08051976,-0.1057508,0.014477513,0.003143188,-0.13934647,-0.1340753,0.19153613,-9.346964,0.784413,47.637623,-0.830616,-2.420966,-3.3072371,-0.33545205,0.08541776,-0.07652207,28.8125,30.125,29.3125,32.875,35.375,36.5
0.17002,-0.56648344,-1.4894632,-1.7071799,-0.024130143,0.05178667,-0.13787958,-0.39569435,-0.36662114,0.05997737,3.0788355,-0.6237638,0.00017459982,-0.07840997,0.025570061,0.0023925786,-0.0073154136,0.006604204,0.018370284,0.49538994,-1.3745536,1.8955139,-2.0903304,-1.5704807,2.469643,-0.11659523,0.080333956,-0.10416346,0.014560987,0.0031094959,-0.13491742,0.0,0.24899697,-9.385271,0.7642693,47.67345,-0.95091844,-2.2643254,-3.392898,-0.34403533,0.09629334,-0.107396215,28.8125,30.125,29.3125,32.875,35.375,36.5
0.17201999,-0.67172295,-1.4147102,-1.808192,-0.027939819,0.04322947,-0.13242361,-0.3958597,-0.3665686,0.059987463,3.0788205,-0.62372476,0.00013418136,-0.07978025,0.025353855,0.001115335,-0.00672876,0.0045188214,0.012212055,0.49515024,-1.3743955,1.8952979,-2.0903065,-1.5704802,2.469381,-0.11773491,0.085643135,-0.1076419,0.014841929,0.0035836909,-0.12989727,0.0,0.28730422,-9.289502,0.8717007,47.694946,-0.97640777,-2.440373,-3.365869,-0.33322036,0.10049339,-0.14568675,28.8125,30.125,29.3125,32.875,35.375,36.5
0.17401989,-0.5523721,-1.8479908,-1.6808645,-0.026151715,0.03936549,-0.1382505,-0.39600542,-0.3665237,0.059965752,3.0788372,-0.6237109,0.00019143871,-0.08022507,0.026048537,0.0015703014,-0.00803096,0.00465224,0.0054009547,0.49493396,-1.3741798,1.8950828,-2.0902703,-1.5704678,2.4691541,-0.11993602,0.08417489,-0.10696023,0.014889977,0.004664415,-0.1252895,-0.019153614,0.24899697,-9.232041,0.800085,47.64121,-1.0060712,-2.337583,-3.3851123,-0.339676,0.100204065,-0.19398656,28.8125,30.125,29.3125,32.875,35.375,36.5
0.17601982,0.0012408542,-1.1116661,-1.6787384,-0.031902563,0.040088013,-0.1461363,-0.39619872,-0.36649194,0.06002509,3.078776,-0.6236026,-1.9626787e-05,-0.0803652,0.024831612,0.0014686072,-0.008284665,0.0044329446,0.0035357529,0.4947189,-1.3740711,1.8948187,-2.0902703,-1.5704917,2.4688795,-0.11818036,0.08638974,-0.109443635,0.01522714,0.0050076363,-0.12166707,0.05746084,0.28730422,-9.270349,0.8627467,47.67614,-1.0553906,-2.3620362,-3.4110994,-0.33932853,0.08369036,-0.29585654,28.8125,30.125,29.3125,32.875,35.375,36.5
0.17801978,-0.32968256,-1.6208135,-1.6457744,-0.020107932,0.036522787,-0.13749467,-0.39634162,-0.36642343,0.05999656,3.0788116,-0.6236124,7.998379e-05,-0.08299325,0.025868595,0.0020434777,-0.009702954,0.00568924,-0.003594555,0.49446598,-1.3738666,1.894627,-2.0902107,-1.5704798,2.4686282,-0.122673176,0.08730365,-0.11177088,0.014861422,0.0056467457,-0.11902975,0.05746084,0.2681506,-9.232041,0.86945957,47.63673,-1.1051028,-2.4047823,-3.2843652,-0.31566522,0.082029834,-0.33096623,28.8125,30.125,29.3125,32.875,35.375,36.5
0.18001997,-0.38588884,-1.6210451,-1.6418942,-0.024204569,0.03912514,-0.1358218,-0.39651072,-0.3663865,0.059993584,3.0787592,-0.6236575,8.972432e-05,-0.08279544,0.024848683,0.0024147641,-0.009798724,0.0064133587,-0.0027269367,0.49422726,-1.3736621,1.8943881,-2.0901988,-1.5704435,2.4684243,-0.1205694,0.08775489,-0.11324622,0.015208998,0.0053899265,-0.117792554,-0.019153614,0.24899697,-9.251195,0.8112748,47.66987,-1.1256256,-2.3120074,-3.283955,-0.3264774,0.08022017,-0.3852266,28.8125,30.125,29.3125,32.875,35.375,36.5
0.18201989,-0.7308049,-1.7563963,-1.9069283,-0.017087182,0.03294412,-0.12792954,-0.3966673,-0.36633456,0.05999409,3.0787108,-0.6236872,0.00010027861,-0.08328667,0.025768748,0.00014334737,-0.007588578,0.002724357,-0.006071329,0.49397513,-1.3735043,1.8941964,-2.0901864,-1.5704077,2.4681969,-0.12239838,0.09252135,-0.11377712,0.015275255,0.00519688,-0.11627585,0.095768064,0.22984336,-9.193734,0.83365434,47.703007,-1.1792252,-2.4813867,-3.2809544,-0.34566104,0.08498976,-0.46821845,28.8125,30.125,29.3125,32.875,35.375,36.5
0.18401982,-0.936062,-1.6865026,-1.868593,-0.031809926,0.036128845,-0.13973944,-0.396854,-0.36629722,0.060006462,3.078683,-0.62362266,5.50296e-05,-0.08491721,0.025904408,0.0019807513,-0.009581885,0.0054354267,-0.006387772,0.49373496,-1.3733007,1.8939208,-2.090162,-1.5703958,2.46792,-0.12434773,0.090754114,-0.1160239,0.015958829,0.00567133,-0.11790861,0.038307227,0.28730422,-9.193734,0.84708,47.687782,-1.085279,-2.3653514,-3.165269,-0.32873505,0.080554545,-0.49174976,28.8125,30.125,29.3125,32.875,35.375,36.5
0.18601969,-0.58529025,-1.403963,-1.7490472,-0.04307797,0.04904645,-0.1481331,-0.39700958,-0.36624622,0.059991755,3.0786996,-0.6236612,0.000102203165,-0.08525646,0.025813024,0.0007983501,-0.009171976,0.003226127,-0.002619494,0.49350736,-1.3730835,1.8936824,-2.0901024,-1.5703954,2.4677145,-0.124880254,0.094052255,-0.11730515,0.016082099,0.006352763,-0.12220954,-0.019153614,0.2681506,-9.251195,0.78888994,47.684196,-1.1418374,-2.3442605,-3.4080796,-0.34342718,0.08222082,-0.50822926,28.8125,30.125,29.3125,32.875,35.375,36.5
0.1880197,-0.67606837,-1.7106363,-1.7388165,-0.029935753,0.05109902,-0.14947684,-0.3971556,-0.3661638,0.059982304,3.0787508,-0.6236073,0.00014792154,-0.08592013,0.025944147,0.0018237695,-0.010796217,0.004260808,0.0065434817,0.4932434,-1.3729279,1.8935026,-2.0900304,-1.5704073,2.4674106,-0.12623905,0.09258668,-0.118020035,0.01658223,0.0072905603,-0.1327329,-0.038307227,0.2681506,-9.3661175,0.83589023,47.689575,-1.082356,-2.3877573,-3.2632613,-0.3558944,0.06225326,-0.43760574,28.8125,30.125,29.3125,32.875,35.375,36.5
0.1900199,-1.236412,-1.6631176,-1.6257484,-0.031815175,0.0524658,-0.14372563,-0.39732644,-0.3661338,0.060002055,3.078699,-0.623532,0.00011407156,-0.08750342,0.026325842,0.0013337145,-0.010318096,0.004207192,0.0161636,0.49301532,-1.3727585,1.8932508,-2.0900066,-1.570371,2.467142,-0.12802558,0.095475316,-0.12027716,0.016236162,0.006900949,-0.1441373,-0.11492168,0.22984336,-9.289502,0.7486078,47.629562,-1.0916207,-2.3718026,-3.3086655,-0.3358492,0.06501696,-0.35259777,28.8125,30.125,29.3125,32.875,35.375,36.5
0.19201976,-1.0640658,-1.0655503,-1.7282584,-0.029880797,0.06967957,-0.14447652,-0.39751357,-0.36608216,0.0599983,3.0786908,-0.6234495,9.8167475e-05,-0.089003734,0.026864152,0.00097350305,-0.009651993,0.004046919,0.021871958,0.49275112,-1.3725417,1.8929986,-2.0899947,-1.5703591,2.4668276,-0.12992017,0.09796337,-0.122477695,0.016413186,0.0063927574,-0.15173826,-0.1340753,0.11492168,-9.385271,0.85155696,47.684196,-1.1472043,-2.4942112,-3.2014136,-0.3515906,0.05673409,-0.26942402,28.8125,30.125,29.3125,32.875,35.375,36.5
0.1940214,-0.6703104,-0.89724153,-1.5476071,-0.01344122,0.091500476,-0.13934502,-0.3976963,-0.36602288,0.05999629,3.0786495,-0.6234381,0.000107483196,-0.09065524,0.026999645,0.0016740893,-0.011028607,0.00548429,0.024963317,0.49246326,-1.3723493,1.8927716,-2.0899827,-1.5703229,2.466538,-0.1319175,0.09845042,-0.124605425,0.016143924,0.0069278893,-0.15682659,-0.22984336,0.1340753,-9.442732,0.84708,47.703007,-1.062805,-2.4407384,-3.208701,-0.34208015,0.05538623,-0.19268677,28.8125,30.125,29.3125,32.875,35.375,36.5
0.19602026,-1.3367828,-0.6898408,-1.7193954,-0.015841013,0.094543554,-0.14436457,-0.39786795,-0.36597854,0.059997737,3.078702,-0.62327427,8.564824e-05,-0.09124716,0.026412271,0.0012371126,-0.011524253,0.0047400245,0.026670678,0.49224776,-1.3721322,1.8924965,-2.0899231,-1.5703467,2.4662137,-0.13190249,0.100982636,-0.12662353,0.016047064,0.0077141235,-0.15851876,-0.4213795,0.1340753,-9.346964,0.74413085,47.674347,-1.0772791,-2.6026545,-3.1693754,-0.34958702,0.041294508,-0.16479596,28.8125,30.125,29.3125,32.875,35.375,36.5
0.19801982,-1.8217397,-1.0896266,-1.6786991,-0.011883261,0.10360313,-0.14401248,-0.398045,-0.3659132,0.05998153,3.0786867,-0.62323654,0.00016262809,-0.09206102,0.026836295,0.0016546644,-0.01198386,0.005121562,0.019454695,0.49194768,-1.3719162,1.8922681,-2.0898874,-1.5702986,2.465892,-0.13342893,0.100856416,-0.12755948,0.016562738,0.007936108,-0.15282944,-0.6512228,0.11492168,-9.423578,0.75755644,47.65912,-0.9986799,-2.515151,-3.1906295,-0.32206157,0.033446282,-0.18224081,28.8125,30.125,29.3125,32.875,35.375,36.5
0.20002002,-1.6615824,-1.0104178,-1.8065397,-0.012962162,0.12469111,-0.12782253,-0.39823958,-0.36586928,0.059999198,3.0786357,-0.6232098,0.000116259325,-0.09407752,0.028093241,0.0017428515,-0.011807944,0.0056830826,0.011420869,0.49168316,-1.3717233,1.8919929,-2.089863,-1.5702752,2.4656174,-0.13704625,0.1020459,-0.12920372,0.016610913,0.0075227953,-0.1484112,-0.6703765,0.076614454,-9.385271,0.8873621,47.686886,-1.1539761,-2.5282822,-3.1793628,-0.32962686,0.039381936,-0.2349214,28.8125,30.125,29.3125,32.875,35.375,36.5
0.2020199,-2.0804799,-0.670495,-1.8582362,-0.018549591,0.1258991,-0.14241438,-0.39842692,-0.3658139,0.05999583,3.0786405,-0.62319046,0.00011867749,-0.09344767,0.027437504,0.0017442022,-0.011396334,0.005572705,0.010196999,0.49142054,-1.3714951,1.8917178,-2.0898144,-1.5702752,2.4653423,-0.13512243,0.10227229,-0.12960377,0.01707797,0.0072138547,-0.14526306,-0.82360536,0.076614454,-9.481039,0.8157518,47.684196,-1.2064925,-2.3826709,-3.1916656,-0.33478895,0.03233002,-0.29321963,28.8125,30.125,29.3125,32.875,35.375,36.5
0.20402001,-1.9485874,-0.78146553,-1.62259,-0.021328153,0.14667341,-0.14652546,-0.3986218,-0.36574042,0.05999776,3.0786405,-0.623113,9.185757e-05,-0.09539964,0.027205592,0.002329191,-0.012533617,0.0067651765,0.008408481,0.49112046,-1.3713022,1.8914784,-2.0897906,-1.5702747,2.464994,-0.13670516,0.10415929,-0.13323313,0.017233087,0.0076530846,-0.14505598,-0.9002198,-0.05746084,-9.557653,0.8537928,47.68062,-1.2037234,-2.495031,-3.1918564,-0.32967868,0.03790912,-0.3320771,28.8125,30.125,29.3125,32.875,35.375,36.5
0.20601982,-1.4427681,-1.0428494,-1.8057778,0.0015121266,0.15281932,-0.12642044,-0.3987823,-0.36571777,0.059998717,3.078592,-0.62308234,0.00016718582,-0.09390573,0.028548844,0.0005715906,-0.0104687195,0.0033821939,0.007260142,0.49089307,-1.371086,1.8912052,-2.089731,-1.5702032,2.4647536,-0.13742152,0.10422325,-0.12933843,0.017244145,0.0074374857,-0.14462532,-0.7661445,-0.076614454,-9.576807,0.83589023,47.71017,-1.1963215,-2.401,-3.312131,-0.33228874,0.009130941,-0.35668385,28.8125,30.125,29.3125,32.875,35.375,36.5
0.20801984,-1.8302519,-0.36420318,-1.9380817,0.000186966,0.12774353,-0.14766873,-0.3989802,-0.36564788,0.06000061,3.0785959,-0.62302643,0.00012486252,-0.09679447,0.028716508,0.0023782586,-0.012340704,0.0075051757,0.005952132,0.49060428,-1.3708819,1.8909525,-2.0897076,-1.5702151,2.4644296,-0.14006276,0.10398624,-0.13305247,0.01667882,0.0071429946,-0.14595664,-0.63206923,-0.1340753,-9.576807,0.78217715,47.67345,-0.99997014,-2.3872757,-3.1267524,-0.30715638,0.018364608,-0.37908196,28.8125,30.125,29.3125,32.875,35.375,36.5
0.21001992,-1.456016,-0.30984378,-1.6633111,-0.0023993272,0.12384529,-0.14689381,-0.39919588,-0.36557052,0.05999234,3.0785792,-0.62307817,0.000114564704,-0.09815552,0.03071551,-0.00024907338,-0.009787005,0.003983485,0.006951635,0.49027961,-1.3706398,1.8906773,-2.0896833,-1.5702151,2.4641395,-0.14421198,0.10910066,-0.13300918,0.015837641,0.0065534553,-0.15110381,-0.7086837,-0.17238252,-9.576807,0.800085,47.677036,-1.126045,-2.524265,-3.3662992,-0.29832563,0.023704777,-0.35319543,28.8125,30.125,29.3125,32.875,35.375,36.5
0.2120198,-1.8179209,-0.5860525,-1.6300071,0.01156572,0.10446495,-0.14331667,-0.39941692,-0.36550963,0.060011953,3.0785463,-0.6230639,-1.003812e-05,-0.09816202,0.030188395,0.00166012,-0.011704278,0.007135525,0.016130963,0.48999277,-1.370437,1.8903912,-2.0896833,-1.570239,2.463848,-0.14339586,0.10545912,-0.13302033,0.015808487,0.0067799482,-0.15946734,-0.7469909,-0.22984336,-9.557653,0.90527004,47.690468,-1.1685971,-2.416986,-3.4219537,-0.28088182,0.03166256,-0.29690027,28.8125,30.125,29.3125,32.875,35.375,36.5
0.21401979,-1.7432618,-0.19899186,-1.8491726,0.01019061,0.10486892,-0.14647587,-0.39958888,-0.3654595,0.060006354,3.078549,-0.6229031,8.119107e-05,-0.09813317,0.031049296,-0.00096822594,-0.008886075,0.0030884603,0.02584823,0.48971698,-1.3702191,1.890128,-2.0896118,-1.5701798,2.4634717,-0.14439723,0.11033387,-0.13285124,0.015681006,0.0061997646,-0.17018487,-0.5363012,-0.22984336,-9.5385,0.8247004,47.670765,-1.1296558,-2.5340858,-3.5436745,-0.27049804,0.007895729,-0.18848047,28.8125,30.125,29.3125,32.875,35.375,36.5
0.21601999,-0.9441554,0.032109067,-1.736641,0.0136241885,0.1121874,-0.15480521,-0.39978322,-0.36538798,0.059994973,3.0785697,-0.62284744,7.015149e-05,-0.09966254,0.031282675,0.00044825644,-0.009970198,0.0055841473,0.028508803,0.48942924,-1.3699915,1.8898772,-2.089588,-1.5701917,2.4631467,-0.14596407,0.109285094,-0.13493972,0.016108805,0.005983244,-0.1744115,-0.30645782,-0.19153613,-9.500193,0.8403672,47.651955,-1.1402931,-2.3851078,-3.4256978,-0.27589285,0.03647225,-0.11153487,28.8125,30.125,29.3125,32.875,35.375,36.5
0.2180198,-1.2066709,-0.7894651,-1.7851341,0.017774224,0.09041387,-0.14087729,-0.40000698,-0.3653168,0.060013473,3.0785115,-0.62281585,9.57621e-06,-0.10002433,0.031311873,0.00010317363,-0.009645116,0.0051078135,0.029100426,0.48909363,-1.3697987,1.8896025,-2.089576,-1.5701679,2.4627988,-0.14622909,0.11067035,-0.13584948,0.016213512,0.005934091,-0.17526717,-0.4213795,-0.15322891,-9.423578,0.8940802,47.64837,-1.1688668,-2.3963375,-3.6740673,-0.24480727,0.014494034,-0.06216164,28.8125,30.125,29.3125,32.875,35.375,36.5
0.22001997,-0.5693652,-0.67392385,-1.8267741,0.008250153,0.08780146,-0.139166,-0.40021607,-0.365253,0.059997074,3.078546,-0.6227287,1.2557243e-05,-0.10155524,0.03158138,0.0011210287,-0.010245048,0.0067573874,0.0223929,0.48880577,-1.3695223,1.8893021,-2.0895398,-1.5701798,2.4624524,-0.14782976,0.110626265,-0.13831165,0.016979583,0.0056838267,-0.17015933,-0.26815057,-0.15322891,-9.404425,0.8560339,47.67166,-1.1679271,-2.3635888,-3.4584632,-0.23970899,0.025153931,-0.088966966,28.8125,30.125,29.3125,32.875,35.375,36.5
0.22202007,-0.27022064,-0.81927913,-1.9396377,0.0026760797,0.07010076,-0.1375196,-0.40041524,-0.36519894,0.060007572,3.0784867,-0.62272084,1.8839253e-05,-0.10284047,0.031463675,0.001942344,-0.010754865,0.007975318,0.01337308,0.48850632,-1.3693182,1.8890265,-2.089503,-1.5701317,2.4621556,-0.14863846,0.11122686,-0.1411166,0.017874833,0.0055636284,-0.16194685,-0.24899697,0.05746084,-9.500193,0.89631605,47.661808,-1.2295815,-2.2202892,-3.4648943,-0.2229194,0.024810396,-0.17435825,28.8125,30.125,29.3125,32.875,35.375,36.5
0.22401993,-0.38043463,-1.1024178,-1.9789903,-0.006236177,0.045114808,-0.13158427,-0.40063432,-0.3651127,0.060006715,3.078531,-0.62269306,-2.6872547e-05,-0.103679195,0.031980585,0.0018876283,-0.010072564,0.007952679,0.006829198,0.48819453,-1.3690773,1.8887275,-2.089443,-1.5701798,2.461821,-0.14981702,0.11226308,-0.14238055,0.018435908,0.004971148,-0.1565804,-0.11492168,0.095768064,-9.500193,0.81351066,47.678825,-1.1622428,-2.4089339,-3.401001,-0.22037557,0.05311475,-0.24492583,28.8125,30.125,29.3125,32.875,35.375,36.5
0.22601989,-0.1625851,-1.4278562,-2.0301487,-0.02567216,0.05565571,-0.14599316,-0.40084252,-0.36501643,0.060001303,3.0785239,-0.6227307,-2.6709467e-05,-0.10504582,0.03291847,0.0016405905,-0.009300589,0.007540582,0.0019336517,0.48784646,-1.3688728,1.8884877,-2.0894072,-1.5701803,2.4614975,-0.15223937,0.11398435,-0.14404702,0.019109225,0.004483161,-0.15410592,-0.095768064,0.19153613,-9.481039,0.900793,47.666286,-1.0928752,-2.1924992,-3.4412737,-0.2068401,0.056694258,-0.34488362,28.8125,30.125,29.3125,32.875,35.375,36.5
0.22801983,-0.53769696,-1.9952917,-2.1904936,-0.03894333,0.05617263,-0.13794488,-0.40105182,-0.3649584,0.06001433,3.0784795,-0.6227439,-4.3665113e-05,-0.10629113,0.033852175,0.0018152106,-0.008955179,0.0077485605,-0.0062398734,0.48754638,-1.3686562,1.8881887,-2.089359,-1.570156,2.4612114,-0.1545985,0.1145428,-0.14528097,0.019766185,0.0040850327,-0.14829054,-0.095768064,0.3256114,-9.5385,0.86498255,47.67345,-1.1487098,-2.4466794,-3.48737,-0.21126813,0.06655313,-0.418333,28.8125,30.125,29.3125,32.875,35.375,36.5
0.23002033,-0.15445428,-2.0219471,-2.146589,-0.060712103,0.07919772,-0.14911506,-0.40125254,-0.36488867,0.059986345,3.078481,-0.62276274,2.6061482e-05,-0.1071207,0.03387122,0.001496009,-0.009261284,0.006875912,-0.0074897637,0.48723477,-1.3683791,1.8879136,-2.0893233,-1.5701321,2.4609115,-0.15571329,0.11657311,-0.14710547,0.02019054,0.0047588493,-0.14815536,-0.019153614,0.4213795,-9.576807,0.8918391,47.661808,-1.089338,-2.3206651,-3.4055147,-0.2171172,0.05827542,-0.49454716,28.8125,30.125,29.3125,32.875,35.375,36.5
0.23202029,-0.15336256,-2.0797012,-2.1330953,-0.077307,0.07684548,-0.15478222,-0.4014862,-0.36483535,0.060024366,3.0784652,-0.6227168,-0.00010834816,-0.10856384,0.034739353,0.0013809039,-0.009370298,0.0061103427,-0.002905197,0.4869582,-1.3681626,1.887555,-2.0892627,-1.5701679,2.4606085,-0.1586684,0.11813566,-0.14893205,0.021078775,0.00523059,-0.15569428,0.0,0.45968673,-9.691729,0.9231726,47.674347,-0.9843328,-2.3179703,-3.4042654,-0.2200205,0.07331857,-0.49676558,28.8125,30.125,29.3125,32.875,35.375,36.5
0.23401968,-0.5754978,-2.582722,-1.8037269,-0.08915628,0.06835252,-0.14161685,-0.40170503,-0.364731,0.060023155,3.078455,-0.6227632,-0.00010797501,-0.109517425,0.033591717,0.0017946041,-0.011097965,0.006649575,0.009456822,0.48658714,-1.3679576,1.8873023,-2.089215,-1.5701674,2.4602678,-0.1582987,0.120025784,-0.15216403,0.021140238,0.006508845,-0.16768631,-0.019153614,0.47884035,-9.634268,0.8314132,47.668976,-1.0247756,-2.1915774,-3.4067948,-0.2036722,0.054993734,-0.4023903,28.8125,30.125,29.3125,32.875,35.375,36.5
0.23601988,-0.5937874,-2.2807584,-1.7227527,-0.09169687,0.0716828,-0.15883525,-0.4019183,-0.36468464,0.0600284,3.0784483,-0.62263936,-0.00013591678,-0.11001168,0.034186833,0.00032836807,-0.009864861,0.004733388,0.020532468,0.48631105,-1.3677044,1.8869799,-2.0891793,-1.570155,2.4599154,-0.15954761,0.123156235,-0.15247896,0.020606799,0.006328093,-0.18000992,-0.095768064,0.4405331,-9.595961,0.85155696,47.666286,-0.95329416,-2.300829,-3.289759,-0.18935823,0.06547047,-0.28851736,28.8125,30.125,29.3125,32.875,35.375,36.5
0.23801984,-1.0274954,-2.4526067,-1.883181,-0.068229705,0.06484482,-0.13217793,-0.40216842,-0.36461097,0.06004257,3.0783775,-0.6226404,-0.0001185482,-0.112524785,0.034471225,0.0010801852,-0.011028758,0.0067693726,0.024706347,0.48592708,-1.3674515,1.8866323,-2.0891197,-1.570095,2.459541,-0.16221814,0.12466833,-0.1559324,0.020221692,0.0064117997,-0.18685268,-0.05746084,0.51714754,-9.557653,0.86945957,47.67166,-1.0418773,-2.3983593,-3.1450763,-0.18882272,0.050291985,-0.18942836,28.8125,30.125,29.3125,32.875,35.375,36.5
0.24002005,-1.2382321,-1.8319792,-1.5849767,-0.06278734,0.060875736,-0.14666866,-0.40239352,-0.3645783,0.06006608,3.078317,-0.62254906,-0.00023646899,-0.11252705,0.03379476,0.0008645439,-0.011087584,0.006312062,0.027071523,0.48566413,-1.3672229,1.8863086,-2.0891316,-1.570083,2.459229,-0.16117556,0.12617674,-0.15733066,0.020492403,0.0066987313,-0.18817414,-0.05746084,0.49799395,-9.481039,0.8537928,47.70032,-1.0990615,-2.3133895,-3.206367,-0.16884881,0.06800855,-0.14080215,28.8125,30.125,29.3125,32.875,35.375,36.5
0.24201979,-0.47270617,-1.670408,-1.3704082,-0.05342988,0.0713809,-0.14357282,-0.40262806,-0.36450016,0.06007317,3.0783157,-0.622474,-0.00023576642,-0.11379884,0.034146365,0.0009097737,-0.012003314,0.006196914,0.019579401,0.48531634,-1.3669703,1.8859743,-2.0890596,-1.5700706,2.4588346,-0.16333604,0.12742794,-0.15897085,0.020554217,0.0075606224,-0.18284233,-0.21068975,0.4405331,-9.308657,0.84708,47.66987,-1.0687823,-2.4277475,-3.1797519,-0.14550936,0.04759685,-0.1781902,28.8125,30.125,29.3125,32.875,35.375,36.5
0.24402021,-0.7167986,-1.397283,-1.5892522,-0.036144286,0.053718843,-0.14825733,-0.40284196,-0.36443472,0.06004988,3.0783155,-0.62244034,-0.00024812197,-0.115285136,0.034700405,0.00070819765,-0.012646684,0.0062186583,0.010596414,0.48501602,-1.3666935,1.8856992,-2.0890715,-1.5700706,2.4585135,-0.16584547,0.12907797,-0.16039318,0.02000345,0.0081156455,-0.17636834,-0.05746084,0.36391866,-9.212888,0.81351066,47.687782,-1.0322583,-2.3190243,-3.1100233,-0.13960071,0.034926895,-0.28430367,28.8125,30.125,29.3125,32.875,35.375,36.5
0.2460198,0.03132414,-0.6791343,-1.4406116,-0.033718597,0.059302013,-0.14901112,-0.40309024,-0.3643679,0.060068768,3.0782604,-0.6223897,-0.00031106532,-0.116935015,0.034702532,0.0016425434,-0.013874566,0.008158162,0.0072611496,0.48466834,-1.366453,1.8853635,-2.0890477,-1.5700468,2.4581413,-0.16733256,0.12937926,-0.1628793,0.019905299,0.008307814,-0.17451881,-0.038307227,0.21068975,-9.308656,0.8291774,47.668976,-1.0035748,-2.5279984,-3.0271997,-0.11461044,0.044943072,-0.32342297,28.8125,30.125,29.3125,32.875,35.375,36.5
0.24801987,-0.36352167,-0.7584242,-1.1449891,-0.033587396,0.059169497,-0.14112541,-0.40332767,-0.36431494,0.06009401,3.0782297,-0.62232435,-0.00039327846,-0.116677366,0.036039513,-0.0011632718,-0.01070297,0.0033237694,0.0069663967,0.4843684,-1.3662112,1.8850063,-2.089,-1.5700468,2.4578047,-0.16892384,0.13388781,-0.16201556,0.020293657,0.0077720103,-0.17581418,-0.22984336,0.2681506,-9.193734,0.8672237,47.684196,-0.9445997,-2.4118454,-3.2388277,-0.07689094,0.034033388,-0.3695612,28.8125,30.125,29.3125,32.875,35.375,36.5
0.25001997,-0.5492988,-0.9698752,-1.0280962,-0.016535243,0.07143227,-0.1482946,-0.40356216,-0.36422852,0.060084153,3.0781975,-0.62237304,-0.00031500577,-0.11626171,0.035751656,8.843219e-05,-0.011613305,0.0039746687,0.0088216625,0.4839855,-1.3659359,1.884683,-2.088927,-1.5699986,2.4574564,-0.16828232,0.13152376,-0.16248176,0.022134805,0.008277851,-0.17702885,-0.2681506,0.15322891,-9.097966,0.83365434,47.6636,-0.9702297,-2.4112275,-3.2545724,-0.08691037,0.051627226,-0.39507753,28.8125,30.125,29.3125,32.875,35.375,36.5
0.25202015,-0.90304005,-0.4558595,-1.120368,0.0020287293,0.08413176,-0.14434485,-0.40379068,-0.36417222,0.060091045,3.0781662,-0.6222844,-0.0003476956,-0.11669242,0.036053844,-0.00057883275,-0.010832351,0.0019215796,0.015243407,0.48367363,-1.3656828,1.8843592,-2.0889027,-1.5699748,2.4570932,-0.16925153,0.13388419,-0.1641635,0.023648392,0.008558724,-0.18441878,-0.2681506,-0.21068975,-9.193734,0.8873621,47.67614,-1.0026484,-2.4433484,-3.29067,-0.10200706,0.028631473,-0.34031942,28.8125,30.125,29.3125,32.875,35.375,36.5
0.2540199,-1.6310958,-0.32817566,-0.9557769,0.027618585,0.079881124,-0.1453365,-0.40402475,-0.36410892,0.06008185,3.0781379,-0.62217504,-0.00035233505,-0.117254816,0.036823448,-0.001207741,-0.01041909,0.00046700044,0.024400515,0.48333767,-1.3654059,1.8840488,-2.0889027,-1.5699385,2.4566927,-0.17114589,0.13531601,-0.16459583,0.024146196,0.008887731,-0.19546989,-0.21068975,-0.30645782,-9.11712,0.75755644,47.66987,-0.9781662,-2.5038216,-3.3358703,-0.07360999,0.02195802,-0.24385189,28.8125,30.125,29.3125,32.875,35.375,36.5
0.25601983,-1.36729,0.1570021,-0.6296236,0.044405118,0.09361259,-0.1491098,-0.40427494,-0.36404023,0.06007501,3.0781302,-0.6220714,-0.0003164306,-0.11803136,0.036446456,-0.0009415274,-0.010760737,0.0010318118,0.033291616,0.4829788,-1.3650937,1.8836774,-2.088843,-1.5699028,2.4562702,-0.17112525,0.13653168,-0.166764,0.024457373,0.008934031,-0.2043395,-0.24899697,-0.4405331,-9.059659,0.83589023,47.690468,-1.13434,-2.337238,-3.2529202,-0.06616459,0.015204897,-0.112919904,28.8125,30.125,29.3125,32.875,35.375,36.5
0.25801975,-0.47596037,0.6217656,-0.7714414,0.0671177,0.09234003,-0.14451647,-0.40451407,-0.36398253,0.06009061,3.0781105,-0.6218922,-0.00036131628,-0.11857565,0.03634333,-0.0003262949,-0.012002802,0.0018097254,0.033432283,0.48265547,-1.3648413,1.8833317,-2.0888064,-1.5698785,2.4558377,-0.17179565,0.1360507,-0.1676365,0.024551269,0.009685716,-0.20515028,-0.38307226,-0.36391866,-8.887277,0.87393653,47.685097,-1.203242,-2.4659693,-3.3218517,-0.034642123,-0.0041212626,-0.06263864,28.8125,30.125,29.3125,32.875,35.375,36.5
0.26001996,-0.91023695,0.77011925,-0.7151627,0.06787549,0.06955826,-0.15151246,-0.40473738,-0.36390886,0.060068037,3.0781066,-0.6218565,-0.00032220976,-0.12018849,0.03686627,-0.00047059532,-0.010912014,0.0021717346,0.025807446,0.48231977,-1.364552,1.8830312,-2.0887825,-1.5698546,2.4554803,-0.17330012,0.13849464,-0.17038438,0.02504757,0.008540364,-0.19902818,-0.47884035,-0.36391866,-8.925584,0.85155696,47.661808,-1.3866647,-2.4813776,-3.39343,-0.031464566,0.0030335463,-0.105782144,28.8125,30.125,29.3125,32.875,35.375,36.5
0.26202008,-0.91964877,0.3377812,-0.8743352,0.06445559,0.056774847,-0.14954524,-0.40500686,-0.3638204,0.060090154,3.0780988,-0.62183994,-0.0004031376,-0.11975114,0.03764486,2.3195196e-05,-0.010059954,0.00226701,0.016720003,0.48194838,-1.3642886,1.8826493,-2.0887105,-1.5698789,2.4550998,-0.17362113,0.13642773,-0.16937187,0.026406415,0.007749454,-0.19026189,-0.40222588,-0.4405331,-8.925584,0.89631605,47.71286,-1.2528582,-2.2282,-3.3944216,-0.015894357,0.004668298,-0.16224487,28.8125,30.125,29.3125,32.875,35.375,36.5
0.2640198,-0.898762,0.21489076,-1.3050505,0.05082597,0.052343972,-0.14753506,-0.4052397,-0.363724,0.06008482,3.0781271,-0.6218275,-0.0003849191,-0.12126422,0.03795973,0.0010914097,-0.009965901,0.0038042774,0.009467475,0.48158884,-1.3640244,1.882326,-2.0886261,-1.5698913,2.454729,-0.17488997,0.13661927,-0.17240389,0.027926516,0.0069425874,-0.18427703,-0.36391866,-0.30645782,-9.11712,0.8224646,47.695843,-1.3074622,-2.1721203,-3.3940983,-0.02886746,0.03688273,-0.28600168,28.8125,30.125,29.3125,32.875,35.375,36.5
0.26601976,-0.5127271,-0.39508787,-1.2972975,0.024996128,0.07663684,-0.13666418,-0.40544814,-0.36364648,0.060063805,3.0781183,-0.62188524,-0.00028966548,-0.12247004,0.038275424,0.0017022557,-0.009205058,0.0044652517,0.0031930085,0.48125306,-1.3637478,1.8820261,-2.0885537,-1.5698556,2.4544306,-0.17578015,0.13751163,-0.17529757,0.029702106,0.005948502,-0.17889155,-0.45968673,-0.19153613,-9.212888,0.800085,47.681515,-1.2568842,-2.1491818,-3.238161,-0.033017404,0.026990779,-0.38592106,28.8125,30.125,29.3125,32.875,35.375,36.5
0.26801974,-1.8857794,-1.6368501,-1.5308129,0.00892815,0.07085204,-0.13895161,-0.40570644,-0.3635614,0.060069304,3.0781732,-0.6217625,-0.00032242574,-0.12264205,0.03819399,0.0012790159,-0.008149552,0.0029183014,0.0020250585,0.4809051,-1.3634466,1.8816308,-2.0884569,-1.5698918,2.4539993,-0.17555451,0.13962899,-0.17730826,0.03145056,0.0057290522,-0.177497,-0.5363012,-0.019153614,-9.232041,0.8314132,47.677036,-1.4088984,-2.239794,-3.1051607,-0.029570632,0.04531104,-0.46925128,28.8125,30.125,29.3125,32.875,35.375,36.5
0.2700199,-1.5899941,-1.2685478,-1.7580724,-0.025586188,0.10459735,-0.15271926,-0.40591615,-0.3634856,0.060045302,3.0781631,-0.6217745,-0.0001866454,-0.123603925,0.03893968,0.0011606279,-0.0077508325,0.0016812684,0.008121187,0.4805565,-1.363158,1.8813204,-2.0883725,-1.5698317,2.4536595,-0.17768966,0.14104263,-0.1791672,0.03319654,0.0059456932,-0.18572806,-0.30645782,0.19153613,-9.442732,0.8627467,47.67166,-1.3926927,-2.1825786,-3.336989,-0.06938524,0.045630824,-0.46918952,28.8125,30.125,29.3125,32.875,35.375,36.5
0.27201986,-1.0531776,-1.505437,-2.0698595,-0.042386748,0.119694225,-0.1709706,-0.40615278,-0.36339295,0.06004195,3.0782022,-0.6217566,-0.00017780707,-0.12389225,0.040333148,-0.0002152416,-0.0062315348,-0.0012320046,0.01799579,0.48020765,-1.362881,1.8809742,-2.0882766,-1.5698556,2.4532948,-0.18018454,0.1431235,-0.17875716,0.033999957,0.0059542465,-0.19809768,-0.095768064,0.24899697,-9.672575,0.89631605,47.691364,-1.3234402,-2.265287,-3.3008215,-0.07906682,0.05500114,-0.3758281,28.8125,30.125,29.3125,32.875,35.375,36.5
0.27401975,-1.7171016,-2.586481,-2.3706543,-0.0582061,0.09169883,-0.15681985,-0.40639952,-0.363289,0.060034063,3.0781853,-0.6217669,-8.411268e-05,-0.12492366,0.041344646,-0.00032669035,-0.0062306104,-0.0023603356,0.027058002,0.47978678,-1.3626046,1.880639,-2.0881803,-1.5698069,2.4528825,-0.18299545,0.14406452,-0.17995957,0.035284124,0.0064776405,-0.20997095,-0.19153613,0.22984336,-9.864111,0.8851263,47.684196,-1.3516757,-2.1540093,-3.3612049,-0.092636764,0.06354494,-0.2291754,28.8125,30.125,29.3125,32.875,35.375,36.5
0.27601978,-1.1442451,-2.329104,-2.244415,-0.09789499,0.094842546,-0.15651469,-0.4066791,-0.3632001,0.060055584,3.078196,-0.62167114,-0.00019171074,-0.12521084,0.041353274,-0.00061128114,-0.0057406593,-0.0028456503,0.031996313,0.4794149,-1.3623276,1.8802446,-2.0881212,-1.5698436,2.4524498,-0.18302397,0.1453898,-0.18103008,0.03568602,0.0062822658,-0.21493681,-0.4213795,0.40222588,-9.844957,0.8493211,47.67166,-1.2834224,-2.4232168,-3.3126965,-0.13238606,0.046749853,-0.16706255,28.8125,30.125,29.3125,32.875,35.375,36.5
0.27801967,-0.6878095,-2.7749665,-2.5791142,-0.08368635,0.08817791,-0.16557932,-0.40694445,-0.3631165,0.060043875,3.0782192,-0.621601,-0.00017350982,-0.12640017,0.04238176,-0.0022811189,-0.0043389956,-0.0048830607,0.026221745,0.47904208,-1.3619899,1.8798498,-2.0880492,-1.5698436,2.4520304,-0.18548338,0.14943728,-0.18199989,0.03506321,0.005967834,-0.21162061,-0.40222588,0.4405331,-10.055647,0.8112748,47.701214,-1.1879039,-2.4611797,-3.3801074,-0.1306008,0.07277575,-0.16830213,28.8125,30.125,29.3125,32.875,35.375,36.5
0.2800199,-1.0450054,-2.7764478,-2.407151,-0.08824492,0.082923904,-0.1597699,-0.40718156,-0.36304525,0.060058005,3.0782466,-0.62143856,-0.00024156772,-0.12818919,0.042654745,-0.0016284154,-0.00567232,-0.0026905497,0.017505195,0.47872925,-1.3617375,1.8795017,-2.08799,-1.569867,2.451613,-0.18750711,0.14977668,-0.18363273,0.033787046,0.00613572,-0.20492701,-0.36391866,0.40222588,-10.055647,0.85155696,47.672558,-1.1227412,-2.4092126,-3.4133835,-0.11264119,0.07768342,-0.23876217,28.8125,30.125,29.3125,32.875,35.375,36.5
0.2820198,-1.0060005,-2.513881,-2.2930615,-0.079163946,0.079125404,-0.16020107,-0.4074247,-0.3629388,0.060020007,3.0782416,-0.6214399,-0.00013091404,-0.12852295,0.04341364,-0.0029810253,-0.005029391,-0.0056431885,0.011101058,0.4783088,-1.3614246,1.8792042,-2.0879533,-1.5698193,2.451194,-0.18943322,0.15250397,-0.18400985,0.034359634,0.0069100573,-0.20044935,-0.28730422,0.34476504,-10.01734,0.8179876,47.677036,-1.1272049,-2.4623117,-3.4872708,-0.117606595,0.09915236,-0.32399523,28.8125,30.125,29.3125,32.875,35.375,36.5
0.28401977,-0.7082198,-1.5244802,-2.198084,-0.06576919,0.0803178,-0.16578561,-0.40773767,-0.36284116,0.06005418,3.0781763,-0.6214863,-0.00020448006,-0.13053454,0.04371746,-0.0027952893,-0.0063389116,-0.0057413084,0.0064541674,0.47786367,-1.3611355,1.8787607,-2.0878694,-1.5698065,2.4507864,-0.19230248,0.15477045,-0.18730707,0.03487502,0.008123262,-0.19867048,-0.3256114,0.34476504,-9.825804,0.87617236,47.719128,-0.9889707,-2.4852571,-3.431888,-0.12801404,0.05762872,-0.37121406,28.8125,30.125,29.3125,32.875,35.375,36.5
0.28601977,-0.7976602,-1.3429046,-2.1276019,-0.036435924,0.08036032,-0.16584182,-0.4079738,-0.36277637,0.060031213,3.0781765,-0.62139004,-0.00015090762,-0.13141736,0.044742256,-0.003923046,-0.005393937,-0.00812295,0.005193334,0.47752693,-1.36081,1.878414,-2.0878332,-1.5697707,2.4503896,-0.19483623,0.15760767,-0.18838221,0.03567277,0.008375468,-0.19994298,-0.30645782,0.2873042,-9.595961,0.95897776,47.675243,-0.9627118,-2.608449,-3.528823,-0.13043648,0.08303881,-0.4189316,28.8125,30.125,29.3125,32.875,35.375,36.5
0.2880199,-1.0902625,-1.4265631,-1.8245499,-0.0009498158,0.07401567,-0.15352921,-0.40826806,-0.36272386,0.06007794,3.0781114,-0.6212735,-0.0002583696,-0.13061497,0.044705313,-0.0029860274,-0.0055817794,-0.007805499,0.016258461,0.47716734,-1.3605236,1.8779477,-2.0877607,-1.5697464,2.4499657,-0.19397333,0.1550842,-0.18790229,0.037366126,0.008431598,-0.21014515,-0.17238252,0.13407528,-9.615114,0.8403672,47.684196,-1.0399573,-2.388619,-3.5505655,-0.1665237,0.064764254,-0.3309495,28.8125,30.125,29.3125,32.875,35.375,36.5
0.29001996,-0.5162418,-0.94925994,-1.66417,-0.003592936,0.09105939,-0.16414836,-0.40851194,-0.36263588,0.06006016,3.0780942,-0.6212065,-0.00016749385,-0.1322246,0.044848267,-0.002902826,-0.0061872085,-0.0075470195,0.026459936,0.47677085,-1.3602229,1.8776134,-2.0877006,-1.5696868,2.4495296,-0.195755,0.1571836,-0.1907058,0.03758989,0.008849706,-0.2221275,-0.13407528,-0.038307227,-9.595961,0.9097417,47.65464,-1.0475994,-2.4696279,-3.612172,-0.17207685,0.07577872,-0.204558,28.8125,30.125,29.3125,32.875,35.375,36.5
0.29202005,-0.36693344,-0.1568858,-1.4466813,-0.0039052549,0.0847948,-0.16494715,-0.40876955,-0.36253342,0.060051095,3.078124,-0.62113166,-0.00013855881,-0.13283172,0.044924736,-0.0036704433,-0.0061462824,-0.00809504,0.032323223,0.47637486,-1.3599225,1.8772544,-2.087618,-1.5696868,2.4490833,-0.19642146,0.15937825,-0.19142714,0.036632154,0.009060211,-0.22865699,-0.21068975,-0.076614454,-9.481039,0.90750587,47.666286,-1.0510956,-2.5409098,-3.6083088,-0.16169855,0.057321116,-0.12746117,28.8125,30.125,29.3125,32.875,35.375,36.5
0.2940197,-1.166921,-0.4552084,-1.3241637,0.007958162,0.06602854,-0.15524577,-0.40909785,-0.36244738,0.060064334,3.078122,-0.62101716,-0.0002754947,-0.13382241,0.0438774,-0.0020801804,-0.006721909,-0.005669537,0.029865792,0.47596705,-1.3595629,1.8767866,-2.0875928,-1.5697225,2.4486046,-0.19501805,0.15944645,-0.1955355,0.038246654,0.008468429,-0.22479388,-0.3256114,-0.19153613,-9.289503,0.8179876,47.67793,-1.2058938,-2.559647,-3.5139995,-0.17364053,0.06600263,-0.09034546,28.8125,30.125,29.3125,32.875,35.375,36.5
0.2960199,-0.8442747,-0.11410343,-1.0490474,0.017801214,0.078547634,-0.15932523,-0.4093373,-0.36238027,0.06007486,3.0780718,-0.6208967,-0.00020758658,-0.13462108,0.043030936,-0.00077222683,-0.00705389,-0.003953332,0.021716986,0.47559524,-1.3592991,1.8764266,-2.0875084,-1.5696386,2.448164,-0.19386871,0.1596404,-0.19917758,0.040030777,0.007965997,-0.21549429,-0.34476507,-0.17238252,-9.174581,0.8985519,47.72002,-1.2498424,-2.4042246,-3.358276,-0.19563498,0.06279259,-0.18468952,28.8125,30.125,29.3125,32.875,35.375,36.5
0.29801974,-0.7755814,0.059447832,-1.2500654,0.04248326,0.07099137,-0.14708218,-0.40961024,-0.3622838,0.06006352,3.0781,-0.62088776,-0.0002147042,-0.13584487,0.043188155,-0.00023720518,-0.008262848,-0.0034865781,0.011474985,0.475211,-1.3589631,1.8760322,-2.087437,-1.569662,2.4477708,-0.19558488,0.1601811,-0.20120436,0.040534545,0.00881236,-0.20696823,-0.24899697,-0.22984336,-9.270349,0.83589023,47.683304,-1.465741,-2.3221383,-3.227746,-0.20831262,0.059731215,-0.308434,28.8125,30.125,29.3125,32.875,35.375,36.5
0.30002,-0.93991584,-0.19851999,-1.4479542,0.04862155,0.05599471,-0.15087572,-0.40986204,-0.36219662,0.060044955,3.0781155,-0.620836,-0.00017440083,-0.13619557,0.042793676,0.00051773456,-0.009098722,-0.002662533,0.0045396066,0.47483933,-1.3586396,1.8756717,-2.0873764,-1.56965,2.447365,-0.19532368,0.15981497,-0.20269062,0.04126863,0.009165502,-0.19977169,-0.30645782,-0.17238252,-9.270349,0.8224646,47.66987,-1.5368034,-2.2639353,-3.2058296,-0.21829805,0.059877858,-0.41018832,28.8125,30.125,29.3125,32.875,35.375,36.5
0.30201975,-0.37982032,-0.20290448,-1.351698,0.018660638,0.06851159,-0.16819388,-0.41014752,-0.36211988,0.06008325,3.0780668,-0.62082803,-0.00018154777,-0.13799699,0.044519693,0.00037992932,-0.007830866,-0.0028034488,8.696692e-05,0.47444198,-1.3583512,1.8752054,-2.0872324,-1.5696148,2.446969,-0.19898954,0.16115128,-0.20423613,0.042196292,0.008107451,-0.19898356,-0.19153613,0.019153614,-9.193734,0.8851263,47.681515,-1.4244212,-2.3443723,-3.2260642,-0.23989068,0.067937054,-0.4987804,28.8125,30.125,29.3125,32.875,35.375,36.5
0.30401984,-0.63125384,-0.84122264,-1.6266232,-0.0014936782,0.064332895,-0.16737483,-0.4104432,-0.36202002,0.060086206,3.0780754,-0.6207658,-0.00024852448,-0.13820034,0.0451424,-0.00017391986,-0.006757278,-0.0043475754,0.009164341,0.47403347,-1.3580269,1.8747977,-2.0871842,-1.5696386,2.4465208,-0.19992824,0.16248743,-0.2049107,0.04340937,0.007876803,-0.20899901,-0.19153613,0.038307227,-9.232042,0.8717007,47.677036,-1.3430705,-2.3042066,-3.2836475,-0.27471927,0.077610895,-0.45891994,28.8125,30.125,29.3125,32.875,35.375,36.5
0.30601978,-0.5022306,-2.0488813,-1.7154384,-0.0076939748,0.076535106,-0.15931553,-0.41072232,-0.36191997,0.06009087,3.0780845,-0.6207208,-0.0002493477,-0.13904423,0.04603429,0.0003662566,-0.006524412,-0.003344017,0.023032026,0.473625,-1.357716,1.8743914,-2.0870888,-1.5696391,2.4460833,-0.2016191,0.16171744,-0.20535813,0.04386288,0.0072284746,-0.22455743,-0.038307227,0.076614454,-9.404425,0.87393653,47.66808,-1.3026499,-2.0866313,-3.3604646,-0.29978225,0.10340421,-0.33692855,28.8125,30.125,29.3125,32.875,35.375,36.5
0.30801967,-0.6962905,-1.9266179,-1.781007,-0.036784213,0.07895747,-0.15780398,-0.41101497,-0.36180675,0.060077656,3.0781193,-0.6206073,-0.00016596145,-0.14060009,0.047002178,0.00046759233,-0.0066001317,-0.0026630491,0.03123147,0.47316816,-1.3573558,1.8739609,-2.0869691,-1.5696152,2.4455514,-0.20428701,0.1625747,-0.20662606,0.04365498,0.0069824457,-0.23542456,-0.17238253,0.11492168,-9.442732,0.90527004,47.645687,-1.2342254,-2.1156375,-3.2730386,-0.32260022,0.104356214,-0.21105334,28.8125,30.125,29.3125,32.875,35.375,36.5
0.3100199,-1.3870064,-2.2002091,-1.7066326,-0.057589926,0.07942501,-0.15482493,-0.41126424,-0.36173436,0.060075246,3.0781026,-0.6204506,-0.000107382875,-0.14208299,0.04823063,0.00022619322,-0.0066539766,-0.0031954618,0.029272417,0.47279528,-1.3570554,1.8735884,-2.0868971,-1.5695552,2.445083,-0.20767264,0.16385375,-0.20772845,0.04394537,0.007272743,-0.23685081,-0.40222588,0.21068975,-9.385271,0.87393653,47.657326,-1.2056231,-2.0327759,-3.2863302,-0.34955502,0.11058843,-0.14507276,28.8125,30.125,29.3125,32.875,35.375,36.5
0.31201977,-0.693639,-1.1770885,-1.7790699,-0.07149396,0.093798384,-0.17552994,-0.4115756,-0.361626,0.060110774,3.0780728,-0.6205266,-0.0002535532,-0.14261086,0.048974555,-0.0017836107,-0.0053417804,-0.0069905897,0.020135276,0.4723745,-1.3567784,1.8731579,-2.0868247,-1.5696024,2.4447136,-0.20957214,0.16839924,-0.20879322,0.044422925,0.007841022,-0.2296118,-0.28730422,0.19153613,-9.481039,0.8627467,47.68599,-1.1319652,-2.1536798,-3.3050637,-0.3652302,0.10981189,-0.21349584,28.8125,30.125,29.3125,32.875,35.375,36.5
0.31401983,-0.8413925,-1.7281129,-1.9008378,-0.04292309,0.08987051,-0.15467496,-0.4118508,-0.3615368,0.060079314,3.0780735,-0.6203973,-6.00642e-05,-0.1449836,0.049242634,-0.0008508997,-0.007881543,-0.0027045533,0.01028794,0.4719298,-1.3563832,1.8727268,-2.0867074,-1.5695065,2.444188,-0.21208277,0.16803691,-0.20969516,0.040730596,0.0081159705,-0.22227554,-0.2873042,0.2681506,-9.557653,0.84708,47.658226,-1.0280907,-2.0754118,-3.4009457,-0.3689344,0.10561855,-0.30381632,28.8125,30.125,29.3125,32.875,35.375,36.5
0.31601983,-0.75107247,-1.3731861,-1.7847574,-0.047189534,0.102089785,-0.15880601,-0.41211492,-0.36141914,0.060072627,3.0781136,-0.62040895,-3.8923754e-05,-0.14719768,0.050210375,-0.0012625348,-0.008523686,-0.0017912133,0.0032596444,0.47152063,-1.3560826,1.8723553,-2.0865996,-1.5695308,2.4437814,-0.21555634,0.17026854,-0.21104465,0.038736332,0.008254227,-0.21872033,-0.45968673,0.21068975,-9.461885,0.90750587,47.698532,-0.92683065,-2.1422737,-3.5220857,-0.33087537,0.100442044,-0.38374603,28.8125,30.125,29.3125,32.875,35.375,36.5
0.31801975,-0.45314655,-1.2836409,-1.9631582,-0.026918853,0.1023074,-0.16560654,-0.412429,-0.361338,0.060078494,3.0780814,-0.62036216,-5.7144985e-05,-0.14865947,0.050100114,-0.001501494,-0.009146173,-0.0010381833,0.0051023713,0.47110024,-1.3557099,1.8718766,-2.0865276,-1.5695065,2.443336,-0.21659793,0.17269841,-0.21321663,0.03753674,0.008470871,-0.22160341,-0.34476504,0.19153613,-9.461885,0.83813137,47.690468,-0.9405594,-2.3025556,-3.4666586,-0.33209705,0.124230534,-0.3965763,28.8125,30.125,29.3125,32.875,35.375,36.5
0.3200199,-1.8519589,-1.470939,-1.8076384,-0.02684179,0.086689614,-0.1520003,-0.41271648,-0.36122105,0.0600658,3.0781116,-0.6202814,-2.8230963e-05,-0.14819425,0.048063453,-0.0017762504,-0.010501139,-0.0006806805,0.01920561,0.47065765,-1.3553735,1.8714813,-2.086445,-1.569506,2.4428394,-0.2132808,0.17464699,-0.21467617,0.03612829,0.009516967,-0.23238944,-0.4213795,0.21068975,-9.500193,0.8605109,47.683304,-1.1569278,-2.2443268,-3.5093608,-0.31110284,0.099470824,-0.3024846,28.8125,30.125,29.3125,32.875,35.375,36.5
0.32201985,-1.9225154,-1.497721,-1.7464195,-0.026635723,0.10354595,-0.15754583,-0.41302368,-0.361132,0.060064822,3.0781124,-0.62012064,-5.9140817e-05,-0.14821823,0.04715007,-0.0022666093,-0.0101435995,-0.0013991364,0.03283737,0.47023815,-1.355013,1.8710378,-2.0863965,-1.5694941,2.4423196,-0.2116325,0.17720455,-0.21679293,0.036511987,0.00954221,-0.24437162,-0.51714754,0.2681506,-9.385271,0.89631605,47.68062,-1.3022864,-2.452569,-3.4559443,-0.32185557,0.104645446,-0.1575187,28.8125,30.125,29.3125,32.875,35.375,36.5
0.32401988,-1.7207912,-1.5950242,-1.7250973,-0.02138255,0.12721238,-0.14868617,-0.41330922,-0.36103988,0.060071707,3.0780878,-0.6200187,-5.5682045e-05,-0.15007275,0.046398968,-0.00080363394,-0.011872603,0.0029417411,0.035200305,0.46981788,-1.354701,1.8706301,-2.086326,-1.5694584,2.441839,-0.2115531,0.1771422,-0.2197083,0.034853887,0.009118313,-0.2466538,-0.51714754,0.19153613,-9.519346,0.9321212,47.690468,-1.3601298,-2.3288844,-3.541716,-0.30512488,0.09584412,-0.09750289,28.8125,30.125,29.3125,32.875,35.375,36.5
0.3260198,-0.7809429,-1.267112,-1.416396,-0.037883054,0.14562447,-0.15330529,-0.41360667,-0.36095527,0.0600696,3.0780942,-0.6199067,-8.584646e-05,-0.15162379,0.045654196,-0.00052230194,-0.013347448,0.0052905628,0.029074935,0.46942204,-1.3543404,1.8701867,-2.0862672,-1.5694584,2.4413726,-0.21162881,0.17895444,-0.22209275,0.03265928,0.009363185,-0.24060293,-0.47884035,0.19153613,-9.423578,0.8873621,47.66271,-1.4124866,-2.5308056,-3.4459772,-0.27274668,0.10384798,-0.13781905,28.8125,30.125,29.3125,32.875,35.375,36.5
0.32801974,-1.1880376,-1.3616322,-1.4861743,-0.03027959,0.100514054,-0.14869784,-0.4139359,-0.36086056,0.060072646,3.0780277,-0.61989963,-9.6837524e-05,-0.15264894,0.046701923,-0.0013353784,-0.012549321,0.0052875844,0.017534174,0.46895346,-1.3539687,1.8697203,-2.086219,-1.5694107,2.4409082,-0.21364973,0.18059823,-0.2219795,0.03127155,0.008654823,-0.2310823,-0.40222588,0.2681506,-9.3661175,0.8493211,47.655537,-1.3783699,-2.3676136,-3.4469552,-0.24001297,0.123615,-0.24070546,28.8125,30.125,29.3125,32.875,35.375,36.5
0.3300199,-1.2714298,-1.6738458,-1.7014366,-0.02546824,0.067421824,-0.13954416,-0.41426677,-0.36076623,0.06008351,3.077984,-0.61985743,-0.00022773391,-0.15423843,0.0472727,-0.00025058363,-0.013202555,0.007567175,0.0067021186,0.4685208,-1.3536212,1.8692764,-2.086219,-1.5694226,2.440455,-0.21552178,0.17997447,-0.22375609,0.0313339,0.008220205,-0.222121,-0.49799395,0.11492168,-9.270349,0.9231726,47.686886,-1.4192668,-2.269767,-3.4909358,-0.223729,0.13938141,-0.38168055,28.8125,30.125,29.3125,32.875,35.375,36.5
0.33201984,-1.0682127,-1.4826405,-1.6629273,-0.012333992,0.04790987,-0.14305438,-0.41458696,-0.36066914,0.060082965,3.0779874,-0.6198604,-0.000280617,-0.15533492,0.048023578,-0.0005443392,-0.012882229,0.007861119,0.0004381864,0.46810046,-1.3532374,1.8687981,-2.086148,-1.5694469,2.4400363,-0.21729074,0.18120477,-0.22450107,0.030724734,0.0078034946,-0.21762542,-0.40222588,0.15322891,-9.308657,0.91421866,47.683304,-1.4229794,-2.2034009,-3.5898921,-0.21349433,0.14572534,-0.47794563,28.8125,30.125,29.3125,32.875,35.375,36.5
0.3340198,-0.73840827,-1.3974233,-1.9252794,-0.004366712,0.04958637,-0.15770681,-0.41484857,-0.36057982,0.06006276,3.077982,-0.61979747,-0.00016327055,-0.15728554,0.047387794,0.00050712033,-0.014858372,0.010102457,0.0064831297,0.46769193,-1.3528893,1.8684019,-2.0860517,-1.5693868,2.4395893,-0.21819477,0.18244106,-0.22838445,0.030503511,0.008551038,-0.22457357,-0.11492168,0.11492168,-9.308656,0.92764956,47.688675,-1.3862166,-2.2140167,-3.430327,-0.17147878,0.16947766,-0.50092185,28.8125,30.125,29.3125,32.875,35.375,36.5
0.33602002,-0.8984393,-1.1234373,-1.7106442,-0.009013276,0.047610216,-0.16242911,-0.41521212,-0.36048177,0.060089786,3.077902,-0.61977243,-0.00029707467,-0.15851928,0.048229586,-0.0008065261,-0.013678711,0.008027242,0.019321637,0.46721154,-1.352528,1.8678988,-2.0860279,-1.5693744,2.4391036,-0.22041488,0.18642284,-0.23037015,0.030919872,0.008483094,-0.23963009,-0.11492168,0.1340753,-9.404425,0.9298854,47.716442,-1.3140961,-2.353744,-3.388523,-0.1636996,0.1568178,-0.37030298,28.8125,30.125,29.3125,32.875,35.375,36.5
0.3380199,-1.7607124,-1.0202824,-1.5920178,-0.017463883,0.052322067,-0.1469634,-0.41550082,-0.36037797,0.060075644,3.077927,-0.6196966,-0.00021561865,-0.16058101,0.04945279,0.0002189271,-0.014983686,0.00925518,0.02645325,0.46677816,-1.3521569,1.8674554,-2.0859082,-1.5693501,2.4386199,-0.22442275,0.18592027,-0.232332,0.031723622,0.00910212,-0.2507697,-0.24899697,0.05746084,-9.232041,0.8806493,47.66539,-1.1741908,-2.1384501,-3.3535867,-0.14109038,0.16351253,-0.24196789,28.8125,30.125,29.3125,32.875,35.375,36.5
0.34002033,-1.2509576,-0.7665941,-1.7091619,-0.009642007,0.086426176,-0.14944936,-0.41584808,-0.36029616,0.060100216,3.077872,-0.61957276,-0.00031136625,-0.16231924,0.05095908,0.0007794665,-0.015593625,0.0088295415,0.023150368,0.46633258,-1.3517851,1.8669394,-2.08586,-1.5693263,2.4381042,-0.22868805,0.18604502,-0.23424439,0.033626094,0.009870596,-0.25173092,-0.3256114,0.15322891,-9.3661175,0.86945957,47.677036,-1.0247115,-2.2352672,-3.339921,-0.13093609,0.15733784,-0.1744669,28.8125,30.125,29.3125,32.875,35.375,36.5
0.3420196,-1.3337728,-0.80892336,-1.8783357,-0.0015472667,0.09108997,-0.1467161,-0.4161705,-0.36019957,0.060101073,3.0778377,-0.6194943,-0.00031687616,-0.16353239,0.05156491,0.0008664688,-0.015655119,0.0080942605,0.014210689,0.4658761,-1.3514127,1.8664736,-2.085799,-1.56929,2.4376032,-0.23078066,0.18752931,-0.23665051,0.03517959,0.010259449,-0.24488273,-0.30645782,0.095768064,-9.3661175,0.9567419,47.692257,-0.9207327,-2.2011333,-3.338839,-0.12095805,0.15374339,-0.2787969,28.8125,30.125,29.3125,32.875,35.375,36.5
0.34401974,-1.754595,-1.1012053,-1.7930149,-0.0138669005,0.07873828,-0.14712143,-0.41647607,-0.3600754,0.060076788,3.0778553,-0.61946356,-0.00023335507,-0.16359223,0.05186186,3.591219e-05,-0.01439883,0.0060464595,0.0074693616,0.46539578,-1.3510284,1.866042,-2.0857022,-1.5692662,2.4371016,-0.2310207,0.18976538,-0.23784834,0.0365372,0.010042158,-0.23838137,-0.30645782,0.019153614,-9.442732,0.8806493,47.672558,-0.9617586,-2.2600594,-3.3042393,-0.12508303,0.1490571,-0.355266,28.8125,30.125,29.3125,32.875,35.375,36.5
0.3460198,-1.2052436,-1.3124512,-1.4625484,-0.023213021,0.089603886,-0.14841618,-0.41682997,-0.35997018,0.06009517,3.077814,-0.61945546,-0.0003475825,-0.16323546,0.051810194,0.00031217025,-0.014229299,0.006348222,0.0071612704,0.46492827,-1.3506571,1.8655404,-2.0856545,-1.5692781,2.4366345,-0.23027766,0.18900816,-0.23772037,0.03697427,0.009780319,-0.23732977,-0.45968673,0.0,-9.270349,0.8112748,47.694054,-1.075629,-2.2138085,-3.4065056,-0.120732024,0.1504465,-0.41716784,28.8125,30.125,29.3125,32.875,35.375,36.5
0.34801972,-1.4879866,-0.88384396,-1.7373343,-0.00664212,0.07107176,-0.14788131,-0.41715696,-0.35989293,0.060108744,3.0777714,-0.6193441,-0.00041411704,-0.16325636,0.051261332,-0.00011316473,-0.0132841375,0.005810573,0.01647348,0.46450892,-1.3502842,1.8650478,-2.0856068,-1.5692543,2.4361513,-0.22884957,0.1911189,-0.23951276,0.03758407,0.009207707,-0.24521251,-0.30645782,0.076614454,-9.232041,0.8247004,47.652847,-1.2659184,-2.2446358,-3.4888253,-0.10812275,0.17654033,-0.3741523,28.8125,30.125,29.3125,32.875,35.375,36.5
0.35001993,-1.3256221,-0.90056175,-2.1272209,0.011752278,0.051917706,-0.15078196,-0.41747603,-0.35977542,0.060086798,3.077777,-0.61933684,-0.00034378274,-0.16399327,0.051496554,-0.0005433644,-0.012663635,0.0048958273,0.02958916,0.46402904,-1.3498763,1.864582,-2.0855105,-1.56923,2.4356663,-0.22960202,0.19334942,-0.24151449,0.038483404,0.009076274,-0.2590802,-0.13407528,-0.019153614,-9.404425,0.90750587,47.66987,-1.285156,-2.2597528,-3.5220168,-0.08701019,0.18388315,-0.25385863,28.8125,30.125,29.3125,32.875,35.375,36.5
0.35201967,-1.232541,-1.0357803,-1.5733842,-0.005806323,0.054204248,-0.14891852,-0.41779795,-0.35967305,0.060077857,3.0777595,-0.61925286,-0.00035027723,-0.16409005,0.05165399,-0.0003149827,-0.013287687,0.0046671736,0.037761334,0.46357268,-1.3494923,1.8641266,-2.0854623,-1.5692061,2.43516,-0.23017846,0.19300684,-0.24181898,0.03907766,0.009761127,-0.26782876,-0.15322891,0.038307227,-9.308657,0.9097417,47.66271,-1.3481818,-2.1479464,-3.485961,-0.08791308,0.18219218,-0.12912786,28.8125,30.125,29.3125,32.875,35.375,36.5
0.35401973,-1.0606707,-1.1122433,-1.7257981,-0.006546092,0.04726345,-0.13671412,-0.41812468,-0.35956421,0.060082655,3.077796,-0.61907053,-0.00035039385,-0.16419604,0.05121015,-0.00076570566,-0.012754924,0.003618819,0.03694974,0.46311635,-1.3491083,1.8636235,-2.0853426,-1.5692061,2.4345853,-0.22933881,0.19519524,-0.24371704,0.039965395,0.009752664,-0.26617673,-0.24899697,0.11492168,-9.270349,0.8918391,47.681515,-1.2497473,-2.252523,-3.567819,-0.0694821,0.17496483,-0.110368505,28.8125,30.125,29.3125,32.875,35.375,36.5
0.35601974,-1.3615816,-0.803554,-1.8730882,-0.013056565,0.04605845,-0.14013226,-0.4184164,-0.35945362,0.060052086,3.0778232,-0.619024,-0.00025416838,-0.16604483,0.051818848,-0.00042113048,-0.01260647,0.004522016,0.02476599,0.46267232,-1.3487124,1.8631915,-2.0852468,-1.5691823,2.434109,-0.23139416,0.19680227,-0.24664809,0.040544335,0.009185031,-0.25604782,-0.19153613,0.21068975,-9.346964,0.95002913,47.666286,-1.3786578,-2.1991467,-3.5411084,-0.07071324,0.19612071,-0.19334254,28.8125,30.125,29.3125,32.875,35.375,36.5
0.3580198,-0.5669326,-1.6087657,-1.8547779,-0.004213287,0.067665786,-0.13818532,-0.41877556,-0.35936064,0.060071323,3.0777876,-0.61894685,-0.0003545857,-0.16715714,0.052674413,-0.0022671039,-0.010696761,0.00076401234,0.0111012915,0.46221596,-1.3483146,1.8626522,-2.0851858,-1.5691823,2.4336092,-0.23353879,0.20223358,-0.24948394,0.042150445,0.009156563,-0.24452543,-0.22984336,0.24899697,-9.385271,0.8806493,47.691364,-1.3896239,-2.3488193,-3.4071445,-0.06905764,0.20637465,-0.33490658,28.8125,30.125,29.3125,32.875,35.375,36.5
0.36001995,-0.73380107,-0.93954206,-1.9475938,-0.029321725,0.052812155,-0.14341307,-0.41911063,-0.35924205,0.06007791,3.0777533,-0.6189834,-0.00034530688,-0.16849159,0.05367168,-0.0023158276,-0.010768764,0.00041265294,0.0022681626,0.46172276,-1.3479426,1.862162,-2.0850785,-1.569158,2.4331434,-0.23625548,0.20338291,-0.25097647,0.04277618,0.009371657,-0.23840839,-0.24899697,0.2681506,-9.3661175,0.9030289,47.67614,-1.2648418,-2.3020542,-3.4474492,-0.059981592,0.20270298,-0.46587992,28.8125,30.125,29.3125,32.875,35.375,36.5
0.36201978,-0.72143626,-1.5669105,-1.8767006,-0.036163036,0.053750906,-0.15080386,-0.41945922,-0.35911942,0.060061853,3.077765,-0.61902213,-0.0003695262,-0.17048687,0.05438645,-0.0013463139,-0.011600688,0.0027142528,0.0056669,0.46124157,-1.3475112,1.8616589,-2.0850065,-1.5691828,2.4326851,-0.23875013,0.20335309,-0.25317222,0.04257963,0.009098396,-0.24430126,-0.13407528,0.22984336,-9.3661175,0.95226496,47.67614,-1.1229498,-2.4261708,-3.3828585,-0.049721062,0.21947032,-0.47404715,28.8125,30.125,29.3125,32.875,35.375,36.5
0.3640197,-0.58012444,-1.6742811,-1.816294,-0.048280995,0.0650883,-0.16023815,-0.41980085,-0.35903156,0.060086202,3.0777166,-0.6188316,-0.0003864571,-0.17266622,0.054792795,-0.0005836854,-0.012725141,0.003956354,0.019682327,0.460773,-1.3471392,1.8611311,-2.0849106,-1.5691222,2.4321039,-0.24134162,0.20467664,-0.2567191,0.043235335,0.009591592,-0.26090646,-0.1340753,0.36391866,-9.385271,0.88960326,47.66091,-1.0041785,-2.3604658,-3.348382,-0.046388656,0.22121489,-0.34793195,28.8125,30.125,29.3125,32.875,35.375,36.5
0.3660198,-0.6308019,-1.5875599,-1.7884672,-0.05909588,0.080187164,-0.1590433,-0.42015153,-0.35890052,0.060081072,3.077733,-0.6187905,-0.0003994155,-0.17368813,0.05481666,0.000544902,-0.013837052,0.005060729,0.0297376,0.46026877,-1.3467318,1.8606266,-2.0848143,-1.5691336,2.4315722,-0.24234326,0.20424096,-0.25913572,0.044622574,0.010117588,-0.27196282,-0.24899697,0.28730422,-9.423578,0.88960326,47.682407,-1.10095,-2.322353,-3.2086418,-0.047464386,0.223427,-0.20212969,28.8125,30.125,29.3125,32.875,35.375,36.5
0.36801967,-0.8833098,-1.491137,-1.5877851,-0.05362177,0.09533997,-0.15459403,-0.42049262,-0.3587889,0.06006627,3.0777328,-0.61869633,-0.00034647252,-0.17274757,0.055137817,-0.00126402,-0.011885627,0.0008357795,0.028556148,0.45977712,-1.3462989,1.860113,-2.0847175,-1.5690984,2.431022,-0.24197087,0.2071979,-0.25908595,0.046279754,0.010246009,-0.27040893,-0.51714754,0.38307226,-9.308656,0.8851263,47.677036,-1.2455549,-2.2776358,-3.2924156,-0.037432235,0.23996466,-0.16686296,28.8125,30.125,29.3125,32.875,35.375,36.5
0.3700201,-1.4235235,-1.3895941,-1.5282604,-0.05114778,0.09679555,-0.14669827,-0.42080098,-0.35866767,0.06002023,3.077772,-0.61869085,-0.00017664587,-0.17334881,0.05576809,-0.0005381267,-0.01308626,0.0007886082,0.018492421,0.4592961,-1.3458438,1.8596348,-2.0845854,-1.5690616,2.4305327,-0.24397413,0.20611662,-0.25979865,0.047581106,0.011306143,-0.26234972,-0.5554548,0.3256114,-9.308657,0.90750587,47.678825,-1.1000172,-2.2704391,-3.3800182,-0.062181674,0.23045248,-0.26382643,28.8125,30.125,29.3125,32.875,35.375,36.5
0.37202004,-0.666073,-1.1558331,-1.6253978,-0.05663138,0.13671155,-0.15828855,-0.42119128,-0.3585576,0.060047623,3.0777013,-0.6186976,-0.0002820174,-0.17260922,0.056168094,-0.001326674,-0.012193019,-0.001790377,0.012884386,0.45878085,-1.3454354,1.8590606,-2.0845134,-1.5690492,2.4300308,-0.2440187,0.20692937,-0.25941795,0.049093984,0.011671019,-0.25678542,-0.47884035,0.24899697,-9.481039,0.98807013,47.694946,-1.1272949,-2.1859026,-3.5457153,-0.0785218,0.21608871,-0.3651332,28.8125,30.125,29.3125,32.875,35.375,36.5
0.3740197,-0.91292053,-0.8931478,-1.5479114,-0.050374307,0.12213194,-0.15240407,-0.42153004,-0.3584886,0.06004839,3.0776517,-0.6185531,-0.00028383353,-0.17261088,0.05676589,-0.0014571724,-0.0115928175,-0.003452877,0.011467939,0.45834842,-1.3450041,1.8585213,-2.0844529,-1.5689892,2.4295146,-0.24494447,0.2073601,-0.26021108,0.051231954,0.011884591,-0.25629413,-0.49799395,0.11492168,-9.3661175,0.9186956,47.666286,-1.2405597,-2.1932094,-3.5769482,-0.10385017,0.22689039,-0.40578923,28.8125,30.125,29.3125,32.875,35.375,36.5
0.37601984,-1.8801985,-1.2336317,-1.2299799,-0.025523694,0.09058388,-0.14048477,-0.42189047,-0.35836405,0.060039748,3.0776289,-0.61852264,-0.00024948712,-0.17338783,0.05612818,-0.0009191553,-0.012041059,-0.0028915827,0.023356944,0.45782056,-1.3445722,1.8579944,-2.084357,-1.5689534,2.4289708,-0.24440908,0.20869325,-0.2634,0.05242189,0.012053383,-0.26764676,-0.5746084,0.05746084,-9.251195,1.005978,47.68062,-1.2999274,-2.1348314,-3.6304371,-0.09724677,0.22812751,-0.33198422,28.8125,30.125,29.3125,32.875,35.375,36.5
