Tylouw/Master_Thesis_Code/training_data/batch_1/rect_rod_t0.2/sample_52_session_2.csv
timestamp[s],tcp_force_x[N],tcp_force_y[N],tcp_force_z[N],tcp_force_rx[Nm?],tcp_force_ry[Nm?],tcp_force_rz[Nm?],tcp_pose_x[m],tcp_pose_y[m],tcp_pose_z[m],tcp_pose_rx[rot_vec_x],tcp_pose_ry[rot_vec_y],tcp_pose_rz[rot_vec_z],tcp_velo_x[m/s],tcp_velo_y[m/s],tcp_velo_z[m/s],tcp_velo_rx[rot_vec_x/s],tcp_velo_ry[rot_vec_y/s],tcp_velo_rz[rot_vec_z/s],q1[rad],q2[rad],q3[rad],q4[rad],q5[rad],q6[rad],qd1[rad/s],qd2[rad/s],qd3[rad/s],qd4[rad/s],qd5[rad/s],qd6[rad/s],tool_acc_x,tool_acc_y,tool_acc_z,current_of_whole_robot[A],voltage_of_whole_robot[V],current_J1[A],current_J2[A],current_J3[A],current_J4[A],current_J5[A],current_J6[A],temp_J1[C],temp_J2[C],temp_J3[C],temp_J4[C],temp_J5[C],temp_J6[C]
6.6400025e-07,0.008452379,-0.18152446,-0.046246707,-0.031228729,0.018489027,-0.00021913019,-0.3892986,-0.3687005,0.059982527,-3.078634,0.62491393,9.115631e-05,0.0013546217,0.0007829914,-0.00087620376,0.001393067,-0.002550661,7.2165196e-05,0.5050448,-1.381644,1.9042472,-2.0918558,-1.5708655,2.4800372,-6.372735e-05,-0.00063070987,0.0025045946,0.001032266,2.2838562e-05,-0.00013716404,0.11492168,0.17238252,-8.772355,0.800085,47.698532,-0.21538587,-3.118593,-2.4077868,-0.18931556,0.15094355,-0.043377496,28.875,30.3125,29.3125,32.9375,35.4375,36.5
0.002054252,-0.2376996,-0.09218164,-0.026585335,-0.039508574,0.017989308,-0.004476965,-0.3893311,-0.3687159,0.059987772,-3.0786867,0.62494373,0.00016800156,-0.0014809582,-0.0008501779,-0.00055581145,-0.0031861113,0.005371835,7.1830706e-05,0.5050329,-1.3816196,1.9042233,-2.091931,-1.5708536,2.4800372,-6.2618994e-05,0.00076047634,0.0025280197,-0.009531934,0.00017253283,-0.00013460428,0.095768064,0.15322891,-8.695741,0.7329411,47.64927,-0.16846403,-3.0743957,-2.2275465,-0.1675725,0.1544982,-0.0442096,28.875,30.3125,29.3125,32.9375,35.4375,36.5
0.004053885,-0.37622535,-0.38040605,-0.12787393,-0.036567803,0.023185123,-0.0054456415,-0.38934457,-0.36869857,0.05997659,-3.0786443,0.62493515,0.00020339753,-0.0020156025,-0.0011491791,-0.00053437176,-0.0041685,0.007132103,7.056425e-05,0.50502086,-1.3815955,1.9042233,-2.091944,-1.5709013,2.4800253,-6.154836e-05,0.0008946583,0.0028905163,-0.012044462,0.00017562282,-0.00013213434,0.076614454,0.1340753,-8.714894,0.75084364,47.675243,-0.15058127,-3.3474972,-2.5722656,-0.045292232,0.15223742,-0.048711944,28.875,30.3125,29.3125,32.9375,35.4375,36.5
0.006053526,-0.060932208,-0.02251647,-0.21519092,-0.03396444,0.018019293,0.004854095,-0.38931918,-0.3686977,0.0599653,-3.078638,0.6249722,0.00011955882,-0.0005523904,-0.00033423404,-0.0008981234,-0.0014123941,0.0021861405,6.886154e-05,0.50502086,-1.3816074,1.9042596,-2.0919287,-1.5708655,2.4800491,-6.0513856e-05,0.0009948799,0.0021763684,-0.005768488,0.00016964342,-0.00012975313,0.05746084,0.19153613,-8.714894,0.7620334,47.67793,-0.21644257,-3.3137321,-2.5529482,-0.076083064,0.15995443,-0.056196883,28.875,30.3125,29.3125,32.9375,35.4375,36.5
0.008053946,0.1712945,0.42635974,-0.6514095,0.009780188,-0.009954348,0.009631615,-0.38933972,-0.36872956,0.060001668,-3.078737,0.62493485,0.00019756428,4.218241e-05,-1.27665e-06,0.000113164606,-0.00090483564,0.0012961413,9.173822e-05,0.5050329,-1.3816322,1.9042114,-2.0919516,-1.5708297,2.4800253,-5.9513484e-05,-0.0011417571,0.001537748,-0.0019687344,0.0001635203,-0.00015208634,0.019153614,0.19153613,-8.734048,0.6926589,47.67614,-0.1868157,-3.2195864,-2.4766626,-0.110724345,0.14866275,-0.03563771,28.875,30.3125,29.3125,32.9375,35.4375,36.5
0.010053261,0.27084938,1.1754117,-0.9588029,0.019022295,-0.01451586,0.0010346351,-0.38930684,-0.36871395,0.059965044,-3.0786822,0.62492377,0.00012345065,0.00084010663,0.00044377107,-0.00025784245,0.0006907669,-0.0015640204,0.00012700049,0.5050448,-1.38162,1.9042829,-2.091963,-1.5708417,2.4800372,-5.863371e-05,-0.0007651439,0.0012038955,0.0012636305,0.00015778819,-0.00018661896,0.038307227,0.076614454,-9.021352,0.7642693,47.71465,-0.7499008,-2.7499301,-2.9188905,-0.14219445,0.15685308,-0.13193956,28.875,30.3125,29.3125,32.9375,35.4375,36.5
0.012053596,-0.30936185,0.5282392,-1.0368043,-0.009134136,-0.004778725,-0.0021618996,-0.38931614,-0.36872122,0.05997369,-3.0786684,0.62490255,0.00011965515,-0.00019961392,0.0023205627,-0.0023601092,0.0034029514,-0.00645359,-0.0025825065,0.5050558,-1.3815948,1.9042224,-2.0919144,-1.5708536,2.4800367,-0.0041889134,0.003875246,2.1773103e-05,0.0033965583,0.00015244265,-0.0016063898,0.15322891,0.038307227,-9.174581,0.7665104,47.694946,-0.9108616,-2.7817008,-3.0115066,-0.16411671,0.14880252,-0.192022,28.875,30.3125,29.3125,32.9375,35.4375,36.5
0.01405397,-0.63131255,-0.70434266,-1.2489351,-0.051180724,0.03544702,-0.011473324,-0.3893204,-0.36870039,0.059936546,-3.0786228,0.62489086,3.3088207e-05,-0.005012956,0.0040730983,-0.0036848858,0.003618319,-0.006866023,0.0004645456,0.50501674,-1.381532,1.9042329,-2.0919154,-1.5708536,2.4799962,-0.011642707,0.010888736,-0.004873918,0.0017422473,0.0001474468,-0.012103942,0.038307227,0.11492168,-9.32781,0.7463667,47.72808,-0.5035118,-3.270845,-3.0295944,-0.1508696,0.14093995,-0.12871525,28.875,30.3125,29.3125,32.9375,35.4375,36.5
0.01605367,-1.402833,-1.6088747,-1.1990317,-0.076337926,0.0577211,-0.019128472,-0.3893136,-0.36867946,0.0599275,-3.0785809,0.62495553,-4.743987e-05,-0.00645303,0.0039739823,-0.0018811489,0.0014315179,-0.0029446245,0.008926109,0.50498044,-1.3815329,1.9042438,-2.0918682,-1.5708417,2.4800055,-0.01282782,0.008539453,-0.005964311,0.0006907154,0.00015677189,-0.02175046,-0.114921674,0.15322891,-9.404425,0.7597976,47.684196,-0.49391094,-3.0498872,-2.9011488,-0.11670749,0.1723963,-0.024615798,28.875,30.3125,29.3125,32.9375,35.4375,36.5
0.01805423,-2.031696,-1.1303635,-1.3013598,-0.09341876,0.07565618,-0.03951569,-0.389321,-0.368682,0.059933648,-3.0786154,0.6247675,3.6402703e-06,-0.005749183,0.004081148,-0.0016440596,0.0014277699,-0.0029758806,0.013524773,0.50499266,-1.3815333,1.9042329,-2.0918791,-1.5708655,2.479896,-0.0123620955,0.0069528096,-0.0047103898,0.0010476774,0.00017867943,-0.025884233,-0.51714754,0.17238252,-9.500193,0.78217715,47.675243,-0.74943924,-2.8305018,-3.153635,-0.12428306,0.16523919,0.0055505456,28.875,30.3125,29.3125,32.9375,35.4375,36.5
0.020053307,-2.4733157,-1.3020523,-1.7452619,-0.033797733,0.07824064,-0.058040358,-0.3893159,-0.36866623,0.059904527,-3.0785556,0.6248749,-0.00012284212,-0.005539303,0.0053276713,-0.003099928,0.00360029,-0.0069563384,0.008148376,0.504956,-1.3814846,1.9042333,-2.091843,-1.5708417,2.479934,-0.0142825525,0.009122182,-0.004434043,0.0031376693,0.0002068522,-0.022428347,-0.53630114,0.15322891,-9.634268,0.80456203,47.717335,-0.829957,-2.8539755,-3.4143536,-0.13911411,0.1520327,-0.03458321,28.875,30.3125,29.3125,32.9375,35.4375,36.5
0.022053335,-2.0583057,-0.100380816,-1.8158048,-0.009180127,0.07292026,-0.0851912,-0.38933328,-0.36868715,0.059905335,-3.0785978,0.6248284,-9.285409e-05,-0.0062486823,0.0057505895,-0.0033484162,0.0040616035,-0.008526365,0.0032941352,0.50496745,-1.381448,1.9041961,-2.0918777,-1.5708297,2.479911,-0.015881527,0.01078578,-0.0062256637,0.0048623336,0.00056429394,-0.019172853,-0.47884035,0.038307227,-9.710882,0.73069996,47.690468,-0.8689119,-2.8314867,-3.3770866,-0.15436998,0.18571019,-0.08981077,28.875,30.3125,29.3125,32.9375,35.4375,36.5
0.024053507,-2.2641134,-0.11438995,-1.9030014,0.012430933,0.052990083,-0.0986449,-0.3893127,-0.3686609,0.05986643,-3.0785577,0.62478304,-0.00027285572,-0.008624819,0.0046613,-0.0019470477,-0.00025673312,-0.006214271,-0.00012230837,0.504919,-1.3814116,1.904231,-2.0918305,-1.5707921,2.4798393,-0.01792602,0.011707938,-0.010280672,0.003873822,0.0032118922,-0.017803777,-0.7086837,0.05746084,-9.653421,0.7620334,47.63315,-0.8525726,-2.7835236,-3.338735,-0.15324587,0.13883382,-0.101516515,28.875,30.3125,29.3125,32.9375,35.4375,36.5
0.026053453,-2.5500526,-0.09466695,-2.0300112,-0.0019755368,0.059006304,-0.10390617,-0.38936266,-0.36865833,0.059888422,-3.0785778,0.62482554,-0.00016355824,-0.009496647,0.0042805104,-0.002254435,-0.00097285927,-0.0058707646,-0.00080801145,0.5048828,-1.3813988,1.9041713,-2.0918548,-1.5708159,2.4798272,-0.018384973,0.013628414,-0.011557944,0.0025816204,0.0036678482,-0.017576613,-0.7086837,-0.038307227,-9.749189,0.82022345,47.64479,-0.899142,-2.8187468,-3.305171,-0.14474249,0.13867036,-0.1106548,28.875,30.3125,29.3125,32.9375,35.4375,36.5
0.028053308,-2.9139361,-0.49699643,-1.9964056,-0.025531555,0.08049005,-0.11978057,-0.38937876,-0.36864728,0.059893295,-3.0785916,0.6247715,-0.00021517328,-0.010567032,0.004494607,-0.0022126287,-0.00057340274,-0.0046637054,-0.002485564,0.5048346,-1.3813866,1.9041351,-2.0918076,-1.5707926,2.4797435,-0.019160757,0.014652732,-0.012693676,0.0018338667,0.0027297891,-0.016672596,-0.7852981,-0.11492168,-9.959879,0.7150385,47.64658,-0.88205135,-2.7762203,-3.3824756,-0.12765637,0.14549914,-0.13321136,28.875,30.3125,29.3125,32.9375,35.4375,36.5
0.030054137,-2.8007097,-0.5106462,-1.8035313,-0.049745377,0.11174055,-0.13767767,-0.38937184,-0.36861566,0.059838053,-3.0784883,0.6247506,-0.0003215355,-0.011736282,0.004632902,-0.0021231747,-0.00042283087,-0.003878881,-0.004312366,0.5048104,-1.3813019,1.904158,-2.0917952,-1.5708288,2.4797194,-0.020165581,0.015960637,-0.014393405,0.0016130478,0.002212427,-0.015849063,-0.80445176,-0.019153614,-9.9790325,0.75084364,47.691364,-0.8851097,-2.7871976,-3.2844431,-0.1324045,0.15636507,-0.1441774,28.875,30.3125,29.3125,32.9375,35.4375,36.5
0.032053586,-2.3220959,-0.765641,-1.750001,-0.038992822,0.1299565,-0.14817247,-0.389434,-0.36862057,0.059885006,-3.0785534,0.6248792,-0.00024363589,-0.0124336425,0.0048634335,-0.0020125078,-0.00037496275,-0.0033544907,-0.0044883327,0.5047382,-1.3813139,1.9040626,-2.0917838,-1.570793,2.4797192,-0.021017987,0.016402356,-0.015137288,0.0014811108,0.0019161057,-0.01652438,-0.7661445,-0.05746084,-9.9790325,0.78888994,47.692257,-0.98552424,-2.803474,-3.3748705,-0.1243224,0.17413774,-0.1791499,28.875,30.3125,29.3125,32.9375,35.4375,36.5
0.034053847,-2.5154822,-0.39556563,-1.9346833,-0.018367425,0.10646001,-0.1543138,-0.38945067,-0.36861107,0.0598555,-3.078514,0.6249095,-0.00027502983,-0.012414107,0.005428547,-0.0019490343,0.0007381334,-0.004997296,-0.004407441,0.504714,-1.3812418,1.9040498,-2.0918067,-1.570805,2.479719,-0.021840123,0.01659753,-0.016145624,0.004270893,0.0017395407,-0.017427014,-0.7086837,-0.019153614,-9.825804,0.74413085,47.688675,-1.0226232,-2.7761583,-3.3596292,-0.15320161,0.18114099,-0.19243674,28.875,30.3125,29.3125,32.9375,35.4375,36.5
0.036053743,-1.8553424,0.08008672,-1.7546288,-0.005208948,0.0876608,-0.17477131,-0.38947117,-0.36860517,0.05985358,-3.0785196,0.6249303,-0.00028771785,-0.013550316,0.0058786576,-0.0018691147,-0.00039317695,-0.0052851844,-0.005007215,0.5046772,-1.3812175,1.9040254,-2.0918067,-1.5707926,2.4796944,-0.024362555,0.01727422,-0.01712971,0.004279228,0.0028661,-0.019351184,-0.6512229,-0.11492168,-9.825804,0.83589023,47.70659,-0.9460296,-2.7329516,-3.372628,-0.14186186,0.16508609,-0.18962857,28.875,30.3125,29.3125,32.9375,35.4375,36.5
0.03805467,-1.8676841,-0.6518578,-1.7492089,0.014693095,0.059507314,-0.17030919,-0.38951725,-0.36857626,0.05985174,-3.0784814,0.6249997,-0.00030378017,-0.015266605,0.005763846,-0.0009238556,-0.0028918448,-0.0028906546,-0.0052888365,0.50459254,-1.3811696,1.9039649,-2.091771,-1.570804,2.479658,-0.026408909,0.016965874,-0.018562667,0.0027125212,0.003887521,-0.02111714,-0.61291564,-0.095768064,-9.825804,0.7239871,47.68599,-0.8601991,-2.7310085,-3.3352628,-0.1228044,0.14715213,-0.20250572,28.875,30.3125,29.3125,32.9375,35.4375,36.5
0.04005355,-1.5363954,-0.48383522,-1.7802274,-0.0024372267,0.05464096,-0.18688376,-0.38956362,-0.36857784,0.059872612,-3.0785406,0.6250307,-0.00021467677,-0.016764892,0.005528145,-0.0005980911,-0.003785439,-0.0014533813,-0.0060668713,0.50454444,-1.3811691,1.9039277,-2.091819,-1.5707921,2.4796216,-0.027462214,0.018358707,-0.020746216,0.0018131922,0.003969786,-0.021391014,-0.51714754,-0.038307227,-9.749189,0.78888994,47.674347,-0.93000734,-2.7245772,-3.3257933,-0.12474464,0.15767123,-0.20199318,28.875,30.3125,29.3125,32.9375,35.4375,36.5
0.042053647,-1.3929803,-0.89821374,-1.8954544,-0.013351273,0.062190816,-0.19705307,-0.3895873,-0.3685881,0.0598763,-3.0785673,0.6249406,-0.00022854561,-0.01789719,0.0056676627,-5.3300053e-05,-0.0043832166,5.279971e-05,-0.006179116,0.50453204,-1.381121,1.9038571,-2.0917952,-1.5707802,2.4795496,-0.028623393,0.018411856,-0.021945156,0.0013524868,0.003761009,-0.022439046,-0.30645782,0.05746084,-9.710882,0.74413085,47.690468,-0.9403714,-2.681108,-3.3196821,-0.10985971,0.16607308,-0.24372934,28.875,30.3125,29.3125,32.9375,35.4375,36.5
0.044053696,-1.4177152,-0.9180742,-1.8334361,-0.021384902,0.06337882,-0.20848945,-0.38963366,-0.36853063,0.059860647,-3.0784907,0.6251156,-0.00027271075,-0.018633641,0.0063553452,-4.755171e-05,-0.0041069738,0.0002776243,-0.0059452527,0.5043998,-1.3810849,1.9038447,-2.0917714,-1.5707926,2.4795363,-0.030245895,0.018575603,-0.022147048,0.0013286466,0.0034086606,-0.024294853,-0.21068975,0.076614454,-9.634268,0.7530795,47.639416,-0.901989,-2.66368,-3.383307,-0.114847064,0.16166979,-0.25104964,28.875,30.3125,29.3125,32.9375,35.4375,36.5
0.046053626,-0.75417304,-1.1839697,-1.7218516,-0.016215025,0.0630323,-0.19874422,-0.3896559,-0.36854422,0.059858024,-3.0785315,0.6250473,-0.00028232377,-0.02021964,0.0069248723,-4.9523795e-05,-0.0042672316,0.00073403073,-0.0061021964,0.50438696,-1.3810364,1.9037961,-2.0917838,-1.5707687,2.4794757,-0.032632347,0.02001304,-0.023778148,0.001046061,0.003323843,-0.026523247,-0.05746084,-0.019153614,-9.595961,0.79560274,47.68599,-0.8679302,-2.6576657,-3.3396502,-0.08876486,0.18100508,-0.2346655,28.875,30.3125,29.3125,32.9375,35.4375,36.5
0.048053842,0.031778943,-1.2062478,-1.7526711,-0.0036498415,0.05719986,-0.17060356,-0.38973376,-0.36851454,0.059861068,-3.0785036,0.6252138,-0.00021527059,-0.021878902,0.006836782,0.0010695184,-0.005706171,0.0027642609,-0.0051692696,0.5042788,-1.3809763,1.9037236,-2.0918076,-1.5707921,2.479475,-0.03419972,0.019972948,-0.026298072,0.0011318007,0.003598022,-0.02902289,-0.15322891,0.11492168,-9.5385,0.7150385,47.66987,-0.7727562,-2.6045134,-3.1972363,-0.09467921,0.16816097,-0.24563608,28.875,30.3125,29.3125,32.9375,35.4375,36.5
0.05005416,-0.7689347,-0.61656016,-1.8826783,-0.014235004,0.00883481,-0.1688773,-0.38975662,-0.3684929,0.059860926,-3.0785437,0.62510604,-0.00024045566,-0.02220401,0.007523162,0.0009081747,-0.0055232546,0.0010245248,-0.0046881046,0.5042062,-1.3809761,1.9037236,-2.0918071,-1.5707682,2.47933,-0.03608271,0.020457584,-0.026893895,0.0028528806,0.004280813,-0.031388093,0.0,0.19153613,-9.481039,0.7709874,47.684196,-0.81727767,-2.6008635,-3.2750914,-0.10742856,0.1666077,-0.23017108,28.875,30.3125,29.3125,32.9375,35.4375,36.5
0.052053344,-0.26217154,-0.45407012,-1.4211857,-0.026613018,0.014565589,-0.17917429,-0.38981202,-0.36847797,0.05986417,-3.0785341,0.6252011,-0.00025330778,-0.023491086,0.00830006,0.0006747176,-0.005529183,0.00031456433,-0.0065447427,0.50412154,-1.3809155,1.9036392,-2.0917833,-1.5707558,2.479306,-0.03880436,0.021939985,-0.028220806,0.0033156031,0.0046272045,-0.03225298,0.05746084,0.22984336,-9.615114,0.7732232,47.67614,-0.80772257,-2.6528897,-3.218412,-0.108586326,0.17181632,-0.2564967,28.875,30.3125,29.3125,32.9375,35.4375,36.5
0.05405399,0.1365536,-0.9154214,-1.4207563,-0.033224903,0.025772367,-0.17425916,-0.38987765,-0.36844674,0.059864275,-3.078506,0.6251941,-0.0001913718,-0.023674129,0.008139359,0.00033719468,-0.005918712,-7.2785246e-05,-0.005488524,0.5040374,-1.3808552,1.9035677,-2.0917833,-1.5708035,2.479221,-0.03902903,0.022898093,-0.02845648,0.0027410076,0.0051538097,-0.033534415,0.28730422,0.19153613,-9.595961,0.6948948,47.71286,-0.70273304,-2.572087,-3.2974243,-0.097390115,0.17054775,-0.25322062,28.875,30.3125,29.3125,32.9375,35.4375,36.5
0.05605379,-0.58817685,-1.3702825,-1.4656593,-0.037811697,0.02885186,-0.17365415,-0.38989756,-0.36844736,0.05986867,-3.0785575,0.6251647,-0.00022602006,-0.02427411,0.0076888874,0.0008120251,-0.0065194173,0.0011069028,-0.0035778028,0.5039898,-1.3808432,1.9035434,-2.0917833,-1.5707554,2.4791486,-0.03879951,0.023216669,-0.029860118,0.002504902,0.0051066503,-0.035214826,0.0,0.24899697,-9.557653,0.73741806,47.655537,-0.862813,-2.5485356,-3.3113499,-0.07905507,0.16749436,-0.26771858,28.875,30.3125,29.3125,32.9375,35.4375,36.5
0.05805448,-0.5677087,-1.2434254,-1.413561,-0.03677542,0.0366289,-0.1766446,-0.3899646,-0.3684383,0.059882097,-3.0785851,0.6252297,-0.00018028133,-0.026311984,0.008339286,0.0015373044,-0.0072284536,0.0028175293,-0.0055498607,0.5039048,-1.380795,1.9034585,-2.0917947,-1.5707439,2.4791007,-0.04166012,0.023601947,-0.03193226,0.002352972,0.004898585,-0.036101867,-0.038307227,0.28730422,-9.442732,0.80456203,47.682407,-0.79616046,-2.4978507,-3.230001,-0.0800302,0.17180172,-0.28724545,28.875,30.3125,29.3125,32.9375,35.4375,36.5
0.060053326,-0.30693933,-0.9339652,-1.309143,-0.029988786,0.04703797,-0.17258033,-0.39000943,-0.36842033,0.059885096,-3.078589,0.6251714,-0.00019479179,-0.026932862,0.00840724,0.0017304575,-0.007983739,0.0024448163,-0.0052266857,0.5038327,-1.3807467,1.9033865,-2.091759,-1.5707439,2.4789917,-0.042873967,0.02409355,-0.03309758,0.002985651,0.0057385834,-0.03763987,0.0,0.30645782,-9.442732,0.8291774,47.70211,-0.800479,-2.5335438,-3.2752848,-0.07806024,0.16322438,-0.30168602,28.875,30.3125,29.3125,32.9375,35.4375,36.5
0.06205315,-0.054427292,-0.79483956,-1.2627461,-0.02410215,0.047256246,-0.16346437,-0.39008257,-0.36842418,0.059925925,-3.0786612,0.6252636,-0.00011854623,-0.027516814,0.0090051675,0.0013637911,-0.0074045123,0.0014484506,-0.0060063642,0.50374836,-1.3807342,1.9032787,-2.0917585,-1.5707077,2.4789557,-0.044404015,0.025254592,-0.033790696,0.0036718568,0.005716344,-0.038389266,0.019153614,0.30645782,-9.404425,0.7463667,47.690468,-0.82049537,-2.4918215,-3.2862644,-0.08525024,0.17327857,-0.31520584,28.875,30.3125,29.3125,32.9375,35.4375,36.5
0.064054266,-0.28233504,-0.850413,-1.3058411,-0.018133113,0.045346215,-0.16067666,-0.39013696,-0.3683992,0.05991958,-3.0786645,0.62530094,-0.00015819719,-0.028190443,0.008566359,0.0014941149,-0.00857529,0.0015778873,-0.004644133,0.50364035,-1.3806738,1.9032191,-2.091747,-1.5706834,2.4788706,-0.044886976,0.026296314,-0.03526386,0.0034229583,0.00667532,-0.040235266,-0.15322891,0.22984336,-9.346964,0.7038487,47.666286,-0.8137704,-2.5272603,-3.3115034,-0.0964196,0.15448727,-0.32494584,28.875,30.3125,29.3125,32.9375,35.4375,36.5
0.06605417,-0.7667831,-0.9514531,-1.37276,-0.02100908,0.045685187,-0.15724169,-0.39022294,-0.36836925,0.059925243,-3.078653,0.625336,-7.966492e-05,-0.029351978,0.009080312,0.0014690832,-0.008578047,0.002029806,-0.003671892,0.50353205,-1.3806013,1.9031233,-2.091759,-1.5707191,2.4787858,-0.046691753,0.02724024,-0.03624236,0.0030604063,0.0064584785,-0.04301113,-0.19153613,0.17238252,-9.3661175,0.77545905,47.704796,-0.75805515,-2.5275135,-3.3081322,-0.084569044,0.16849706,-0.32990658,28.875,30.3125,29.3125,32.9375,35.4375,36.5
0.068053275,-0.6437979,-0.701567,-1.060212,-0.030171301,0.07126885,-0.15756081,-0.39025497,-0.36835825,0.059920136,-3.0786643,0.62524265,-9.416992e-05,-0.030390065,0.009554367,0.0015230314,-0.008705104,0.0023635444,-0.0045266743,0.50348365,-1.380553,1.9030751,-2.091747,-1.5707191,2.4786777,-0.04842147,0.027938142,-0.037161652,0.0029286598,0.006406117,-0.043885563,-0.21068975,0.24899697,-9.3661175,0.7553206,47.687782,-0.8455336,-2.523141,-3.291387,-0.06979083,0.15987447,-0.3275186,28.875,30.3125,29.3125,32.9375,35.4375,36.5
0.070054054,-1.2145592,-0.69930434,-1.1934009,-0.019263376,0.06823932,-0.1545653,-0.39029172,-0.3683456,0.059898734,-3.0786932,0.62530553,-0.00022245987,-0.0309266,0.009325175,0.0017907886,-0.009059888,0.0025975779,-0.004464525,0.5033757,-1.3804808,1.9030384,-2.091747,-1.5706352,2.4786053,-0.04865228,0.028578363,-0.038633928,0.0033882551,0.00660093,-0.044178415,-0.22984336,0.22984336,-9.32781,0.83365434,47.694946,-0.84577155,-2.5198452,-3.2675266,-0.06893501,0.16195078,-0.3528566,28.875,30.3125,29.3125,32.9375,35.4375,36.5
0.07205474,-1.8341961,-0.835608,-1.2533915,-0.006862838,0.057333715,-0.15950911,-0.39036778,-0.36833468,0.059916623,3.0787199,-0.62532926,0.00016543653,-0.03207791,0.010506385,0.0015180238,-0.009102285,0.00090835564,-0.00404047,0.5032787,-1.3804324,1.902943,-2.0917585,-1.5706228,2.4785197,-0.052238274,0.029670522,-0.039609686,0.004729541,0.0074567124,-0.048188973,-0.3256114,0.11492168,-9.346964,0.7911258,47.684196,-0.8237698,-2.45043,-3.3130803,-0.07438865,0.1609727,-0.3602426,28.875,30.3125,29.3125,32.9375,35.4375,36.5
0.07405565,-1.6317294,-0.2659786,-1.2620814,-0.008642912,0.067380615,-0.16301242,-0.39043328,-0.36830974,0.059906516,-3.078724,0.62527037,-0.00018200112,-0.03229258,0.009909809,0.0015871518,-0.00949608,0.0012775572,0.00022348564,0.50318307,-1.380336,1.9028467,-2.0917346,-1.5706347,2.4783869,-0.051529218,0.030525303,-0.040722765,0.00447428,0.007619637,-0.051743697,-0.28730422,0.11492168,-9.32781,0.72622824,47.67614,-0.8037721,-2.4658823,-3.3159606,-0.088550225,0.14270025,-0.34395462,28.875,30.3125,29.3125,32.9375,35.4375,36.5
0.07605505,-1.1049297,0.13465363,-1.3216994,-0.01072304,0.083763465,-0.17003341,-0.39049733,-0.36828974,0.059922032,3.0787237,-0.62526745,0.00017823558,-0.033413727,0.009949966,0.0017981798,-0.009769775,0.0023466432,0.003552383,0.5030752,-1.3802996,1.9027628,-2.0917103,-1.5706114,2.4782772,-0.052459784,0.031461157,-0.042188857,0.0039393627,0.0073410324,-0.056001756,-0.30645782,-0.038307227,-9.32781,0.8403672,47.711964,-0.9235929,-2.4866338,-3.3220577,-0.089476615,0.1444532,-0.29454535,28.875,30.3125,29.3125,32.9375,35.4375,36.5
0.07805487,-1.3859767,0.096163325,-1.1924167,-0.009871137,0.08424912,-0.164243,-0.39056987,-0.36826727,0.059929904,3.0786786,-0.6252784,0.00015976247,-0.034725454,0.010588377,0.0019769666,-0.010020782,0.0030343689,0.0013669147,0.5029546,-1.3802515,1.9026908,-2.0917227,-1.570587,2.4781692,-0.05467666,0.032001678,-0.04317293,0.0036620428,0.0072295074,-0.056032218,-0.4213795,-0.05746084,-9.308656,0.7217513,47.685097,-0.85724014,-2.4326968,-3.223681,-0.07140748,0.13263635,-0.32759768,28.875,30.3125,29.3125,32.9375,35.4375,36.5
0.08005627,-1.9293307,-0.16504805,-1.3862864,-0.0043582083,0.070890024,-0.1553376,-0.39064282,-0.36825466,0.059938602,3.0786583,-0.62525344,0.00014454471,-0.036397565,0.01128466,0.0021571873,-0.010584875,0.0033486825,0.0028075748,0.5028577,-1.380179,1.9025825,-2.0917103,-1.5705746,2.4780593,-0.057608634,0.033054955,-0.044847336,0.003736611,0.007570783,-0.060404357,-0.4213795,-0.095768064,-9.308656,0.78888994,47.695843,-0.8070624,-2.4420915,-3.240942,-0.06785347,0.13943687,-0.29234225,28.875,30.3125,29.3125,32.9375,35.4375,36.5
0.082055345,-1.500739,-0.3070926,-1.4368831,-0.005032253,0.07605766,-0.161694,-0.3906987,-0.3682217,0.059919816,3.0786781,-0.62527335,0.00018798899,-0.0361559,0.010685762,0.0018827457,-0.010841416,0.0025997898,0.008292545,0.5027502,-1.3800948,1.9025229,-2.091699,-1.5705746,2.4779618,-0.056732778,0.0341279,-0.04552623,0.0038744323,0.008153707,-0.065014206,-0.4213795,-0.076614454,-9.232041,0.7083204,47.64837,-0.7487496,-2.4618201,-3.262084,-0.055197794,0.13631387,-0.2441117,28.875,30.3125,29.3125,32.9375,35.4375,36.5
0.08405757,-1.2661339,-0.19523522,-1.4528246,-0.010836347,0.08511769,-0.16622679,-0.3907894,-0.3682095,0.05992976,3.0786493,-0.6251698,0.00015633137,-0.03644452,0.010968795,0.0013074529,-0.010083433,0.0018081648,0.010896894,0.5026304,-1.38001,1.9024028,-2.0917103,-1.5705508,2.477781,-0.05729162,0.035548493,-0.045904506,0.0038950243,0.007873969,-0.06817623,-0.4213795,0.038307227,-9.270349,0.78217715,47.661808,-0.9594157,-2.397534,-3.2453852,-0.056123715,0.12951407,-0.23176365,28.875,30.3125,29.3125,32.9375,35.4375,36.5
0.08605594,-1.76347,-0.4460139,-1.4711417,-0.008060723,0.07410715,-0.15848035,-0.3908715,-0.36817783,0.059944287,3.0786204,-0.6251431,0.00015216136,-0.0378956,0.01162515,0.0014123152,-0.009839671,0.001995321,0.011921991,0.5024858,-1.3799615,1.9023069,-2.091687,-1.570527,2.4776235,-0.05954534,0.036808345,-0.047759887,0.004448391,0.00757006,-0.07145353,-0.34476504,-0.019153614,-9.3661175,0.8403672,47.690468,-0.911657,-2.4518223,-3.2583377,-0.06732653,0.14167629,-0.17474183,28.875,30.3125,29.3125,32.9375,35.4375,36.5
0.08805592,-1.1263057,0.00401747,-1.331472,-0.016900152,0.078839764,-0.16288924,-0.3909451,-0.36816174,0.059947103,3.0786235,-0.6250853,0.0001382051,-0.038633928,0.011557108,0.0016971651,-0.010274885,0.00236682,0.01402338,0.5023899,-1.3798773,1.9021982,-2.0916746,-1.5705265,2.4774911,-0.0602334,0.037419215,-0.049200077,0.004743072,0.0077717397,-0.07424253,-0.34476504,-0.095768064,-9.442732,0.74413085,47.66539,-0.9034668,-2.4283767,-3.157613,-0.07565061,0.12533572,-0.14081264,28.875,30.3125,29.3125,32.9375,35.4375,36.5
0.09005711,-1.3215836,-0.61195,-1.4356502,-0.006475887,0.06957105,-0.15982665,-0.3910155,-0.36812806,0.059948046,3.078594,-0.6250584,0.00016058637,-0.03831247,0.012396575,0.00023762834,-0.008701919,-0.00021286253,0.014973037,0.50224584,-1.3798287,1.9021386,-2.091675,-1.5704912,2.477334,-0.061254784,0.039202906,-0.04800023,0.0047825156,0.007639512,-0.07621351,-0.36391866,-0.019153614,-9.404425,0.8023209,47.687782,-0.9583366,-2.441074,-3.3294992,-0.078138374,0.12395823,-0.10007283,28.875,30.3125,29.3125,32.9375,35.4375,36.5
0.09205382,-1.1925827,-0.5775275,-1.4863186,-0.012282089,0.06413394,-0.15700577,-0.39109832,-0.36808553,0.059930515,3.0785856,-0.6250954,0.00018847655,-0.03969791,0.012117583,0.0009857598,-0.009581224,0.001523568,0.014563026,0.5020898,-1.3797323,1.9020671,-2.091687,-1.5704793,2.4772022,-0.062017035,0.039850764,-0.050437428,0.0046290224,0.007568587,-0.07656465,-0.3256114,0.019153614,-9.32781,0.7620334,47.67345,-0.93678415,-2.4937835,-3.2864466,-0.07448566,0.1452468,-0.08841919,28.875,30.3125,29.3125,32.9375,35.4375,36.5
0.0940535,-0.89009756,-0.6255232,-1.4893726,-0.017177003,0.06174695,-0.15203983,-0.3912077,-0.36805707,0.05995068,3.0786133,-0.62502354,9.707378e-05,-0.04096856,0.012080091,0.0008598937,-0.009771084,0.0018152734,0.01325032,0.50196993,-1.3796356,1.9018987,-2.0916512,-1.570527,2.477034,-0.06313611,0.041931167,-0.052542046,0.004303326,0.0075927824,-0.07636957,-0.19153613,0.05746084,-9.289502,0.78888994,47.672558,-1.0165628,-2.5525866,-3.2752776,-0.059601266,0.14432321,-0.080709234,28.875,30.3125,29.3125,32.9375,35.4375,36.5
0.09605418,-0.779491,-1.0009886,-1.6643028,-0.013438349,0.0582724,-0.15863144,-0.39129373,-0.368035,0.05997169,3.0785613,-0.6250334,6.5594126e-05,-0.04247264,0.011868936,0.0017409687,-0.010992418,0.003482225,0.011404976,0.50183773,-1.3795873,1.901791,-2.0916388,-1.5705026,2.4769146,-0.064331345,0.042383704,-0.055094928,0.0043565193,0.007860565,-0.07571837,-0.17238252,0.21068975,-9.32781,0.71951014,47.71286,-1.0032098,-2.5150747,-3.0993097,-0.08235498,0.13588062,-0.066563115,28.875,30.3125,29.3125,32.9375,35.4375,36.5
0.09805332,-0.83976334,-1.2631958,-1.5391771,-0.021827834,0.048342347,-0.14675955,-0.39137018,-0.36801475,0.059970066,3.0785472,-0.6249724,7.5997785e-05,-0.0417471,0.012438715,0.00070181245,-0.010139969,0.0013393697,0.009796389,0.5017178,-1.3795031,1.9016951,-2.0916388,-1.5704788,2.4767585,-0.06478426,0.042904362,-0.053357814,0.0043889475,0.008149342,-0.07456363,-0.1340753,0.19153613,-9.385271,0.800085,47.658226,-1.1043469,-2.434587,-3.254348,-0.068161614,0.13699096,-0.09194358,28.875,30.3125,29.3125,32.9375,35.4375,36.5
0.100053824,-0.923337,-1.1755767,-1.6244546,-0.036720157,0.035856392,-0.14889409,-0.39145225,-0.36798313,0.059958607,3.0785522,-0.624936,0.00012982126,-0.042864494,0.012861864,0.00039531855,-0.009818693,0.00092906586,0.0067210593,0.5015735,-1.3793942,1.9015869,-2.091615,-1.570455,2.4765909,-0.06646604,0.04477543,-0.0549283,0.0046055624,0.008060893,-0.07316926,-0.11492168,0.22984336,-9.461885,0.7709874,47.683304,-1.0724891,-2.5452232,-3.3448172,-0.074050635,0.14343247,-0.09752955,28.875,30.3125,29.3125,32.9375,35.4375,36.5
0.10205334,-0.44643903,-1.0855542,-1.642368,-0.049995698,0.044961553,-0.1643499,-0.39151767,-0.36794972,0.059938986,3.0785606,-0.6249195,0.00019854461,-0.04400837,0.01314726,0.00075352646,-0.009848347,0.001511809,0.0033793633,0.50144136,-1.379298,1.9015149,-2.0916026,-1.5704306,2.4764473,-0.06783567,0.04550588,-0.056738194,0.005163033,0.0078020543,-0.07119635,-0.038307227,0.28730422,-9.385271,0.7284641,47.637623,-1.1274626,-2.4582748,-3.2351446,-0.08924846,0.15105549,-0.12591708,28.875,30.3125,29.3125,32.9375,35.4375,36.5
0.104053706,-0.4962856,-1.0902067,-1.7081453,-0.049667895,0.034050588,-0.15265338,-0.39162713,-0.3679271,0.059956357,3.0785425,-0.6248975,0.00012917678,-0.04487702,0.013112248,0.0013966968,-0.011259172,0.002128461,0.001168787,0.50130916,-1.3792019,1.901359,-2.0915906,-1.5704426,2.4763038,-0.06915255,0.04531294,-0.058037773,0.005433295,0.008744856,-0.0703031,-0.05746084,0.34476504,-9.385271,0.7597976,47.66271,-1.1267321,-2.4692183,-3.2169433,-0.10493338,0.12831299,-0.16191596,28.875,30.3125,29.3125,32.9375,35.4375,36.5
0.10605338,-0.31827757,-1.1176713,-1.8785326,-0.051965665,0.038841143,-0.16390626,-0.39169088,-0.36792,0.059944175,3.078516,-0.6247975,0.00019085067,-0.046141043,0.013951916,0.00020607006,-0.010479565,0.00089700584,-0.0024185413,0.5012006,-1.3791049,1.9012746,-2.091603,-1.5703825,2.4761362,-0.07166771,0.048424404,-0.05881873,0.004562572,0.00864972,-0.069229916,0.038307227,0.38307226,-9.404425,0.8291774,47.690468,-1.0539207,-2.53661,-3.300592,-0.09944014,0.12911269,-0.18338579,28.875,30.3125,29.3125,32.9375,35.4375,36.5
0.10805406,-0.80607605,-1.4643105,-1.8834316,-0.043778855,0.03025547,-0.15251923,-0.39183244,-0.3678777,0.059980128,3.0784602,-0.62490153,4.0201772e-05,-0.047123007,0.014115507,0.00045390162,-0.010391747,0.0022985977,-0.004375526,0.5010207,-1.3790325,1.9011072,-2.091603,-1.5704187,2.4760284,-0.07236552,0.048932917,-0.059832703,0.003882358,0.007903052,-0.06796843,0.05746084,0.22984336,-9.404425,0.83365434,47.67614,-1.096259,-2.5531201,-3.268217,-0.075604096,0.14577423,-0.2204046,28.875,30.3125,29.3125,32.9375,35.4375,36.5
0.11005374,-0.60491097,-1.2881532,-1.8417308,-0.04264,0.04303379,-0.15805551,-0.39192528,-0.3678495,0.059967004,3.0784447,-0.62491655,0.00010620076,-0.048516285,0.01399912,0.0020698067,-0.012820436,0.0052855173,-0.003923126,0.5008647,-1.3789011,1.9009761,-2.0915792,-1.5703825,2.4758837,-0.07387292,0.047078367,-0.061188128,0.0033078943,0.00859465,-0.06992901,-0.038307227,0.24899697,-9.442732,0.79560274,47.703903,-1.1004742,-2.479379,-3.2681477,-0.08604729,0.14533995,-0.2586566,28.875,30.3125,29.3125,32.9375,35.4375,36.5
0.11205327,-0.48820964,-1.0922092,-1.799354,-0.04036738,0.054298114,-0.15453605,-0.3920166,-0.36779556,0.05994952,3.0784464,-0.6249945,0.00010941845,-0.04869484,0.014076468,0.0010235527,-0.012265923,0.0032666712,-0.0046817856,0.5006967,-1.378804,1.9009036,-2.0915911,-1.5703944,2.4757643,-0.07445445,0.04964961,-0.061896496,0.0034810489,0.009077084,-0.069751956,-0.076614454,0.24899697,-9.404425,0.7284641,47.690468,-1.1644988,-2.389454,-3.2547371,-0.068862446,0.14583807,-0.26069295,28.875,30.3125,29.3125,32.9375,35.4375,36.5
0.11405395,-1.006991,-1.3456336,-1.6619174,-0.028328,0.04579288,-0.1519154,-0.39210308,-0.36779672,0.05996745,3.0784032,-0.62487024,0.00010254022,-0.049396414,0.0145047335,0.0006717514,-0.012009262,0.0021547053,-0.006978063,0.50058854,-1.3787196,1.90076,-2.0915787,-1.5703462,2.475584,-0.076003104,0.051161036,-0.063059814,0.004234615,0.009388849,-0.06900368,-0.095768064,0.28730422,-9.385271,0.8112748,47.675243,-1.2228409,-2.4618018,-3.2847424,-0.08531066,0.13841434,-0.316455,28.875,30.3125,29.3125,32.9375,35.4375,36.5
0.11605386,-0.50753844,-0.30690032,-1.5317019,-0.039638363,0.05999862,-0.158797,-0.39218992,-0.36775893,0.059953865,3.0784225,-0.62489164,0.00014615891,-0.04958642,0.014626968,-0.0003149793,-0.011463392,0.00013931798,-0.0049907095,0.50044453,-1.3785985,1.9006394,-2.091543,-1.5703462,2.475451,-0.07667323,0.053602267,-0.06378329,0.0045475527,0.00987516,-0.071661495,-0.1340753,0.22984336,-9.3661175,0.7777002,47.690468,-1.255944,-2.6452708,-3.2651637,-0.08707979,0.12775175,-0.34340325,28.875,30.3125,29.3125,32.9375,35.4375,36.5
0.11805331,-0.3661422,-0.6627921,-1.6935898,-0.021364996,0.06375655,-0.1531061,-0.39228457,-0.36774465,0.059943523,3.0783675,-0.6248826,0.00021924987,-0.051556587,0.014838836,0.0017254367,-0.014363643,0.003332249,-0.008762231,0.5002878,-1.3784671,1.9005073,-2.091543,-1.5702738,2.4752955,-0.07946004,0.0513691,-0.065798596,0.004605866,0.010884871,-0.070677646,-0.21068975,0.19153614,-9.346964,0.7351769,47.666286,-1.1466022,-2.495616,-3.3033302,-0.09813449,0.122134,-0.36029708,28.875,30.3125,29.3125,32.9375,35.4375,36.5
0.120053746,-0.14968495,-0.3581475,-1.6030693,-0.02124438,0.06990661,-0.15561773,-0.3924001,-0.36769566,0.0599652,3.0783496,-0.6249933,0.00014103415,-0.051477924,0.0143531235,0.0014206995,-0.014158693,0.003239024,-0.008194813,0.5001207,-1.3783947,1.9003643,-2.0915072,-1.5703095,2.4752,-0.07846746,0.052506335,-0.066367246,0.0042170156,0.010751604,-0.070251495,-0.19153613,0.095768064,-9.32781,0.7866488,47.627773,-1.3382454,-2.4334288,-3.3659997,-0.08032076,0.10818231,-0.4368798,28.875,30.3125,29.3125,32.9375,35.4375,36.5
0.12205423,-1.6543089,-0.5967938,-1.5138177,-0.018722095,0.042746667,-0.14388621,-0.3924982,-0.36767656,0.05995712,3.0783195,-0.62492865,0.00015033851,-0.05359504,0.01563533,0.0009748184,-0.014446097,0.0029981423,-0.009609579,0.49997556,-1.3782738,1.9002451,-2.0915315,-1.5702738,2.4750183,-0.08279126,0.054538764,-0.06760272,0.003497677,0.011118602,-0.073159866,-0.24899697,0.019153614,-9.385271,0.78217715,47.651955,-1.2975328,-2.404306,-3.259718,-0.08494454,0.099538505,-0.45147002,28.875,30.3125,29.3125,32.9375,35.4375,36.5
0.124053754,-1.063435,-0.12771331,-1.4445927,-0.017592795,0.07090282,-0.15479916,-0.39259627,-0.36766046,0.0599682,3.0782518,-0.6249504,0.00018262959,-0.053779725,0.014782501,0.0012702397,-0.015320308,0.0035669897,-0.0047040386,0.4998201,-1.3781778,1.9001006,-2.0915077,-1.5702132,2.474885,-0.08181538,0.05517137,-0.068992674,0.0033430853,0.01161413,-0.07708919,-0.24899697,-0.095768064,-9.385271,0.80456203,47.666286,-1.1819649,-2.4210095,-3.2917042,-0.07517809,0.10371463,-0.45169693,28.875,30.3125,29.3125,32.9375,35.4375,36.5
0.1260538,-1.4217167,-0.18292977,-1.5220762,-0.007326085,0.07019208,-0.15806442,-0.3927271,-0.36761966,0.059958708,3.07822,-0.6249409,0.00017873233,-0.055270813,0.0151765365,0.0015987814,-0.015464442,0.0043213638,-0.0012305555,0.49961597,-1.378033,1.8999561,-2.091531,-1.5701898,2.474679,-0.083684295,0.05623266,-0.07107079,0.003636513,0.011380812,-0.082430094,-0.36391866,-0.038307227,-9.385271,0.83589023,47.675243,-1.3026025,-2.4814796,-3.3490207,-0.07732135,0.09948894,-0.46075684,28.875,30.3125,29.3125,32.9375,35.4375,36.5
0.1280538,-1.166185,0.22805113,-1.4368659,-0.007834165,0.08429069,-0.1612637,-0.39282566,-0.36758822,0.059970345,3.078209,-0.624916,0.00015099149,-0.056443557,0.015244764,0.0021018018,-0.016337289,0.0049503287,0.0032396899,0.49947172,-1.3779489,1.8998245,-2.0915072,-1.5701894,2.4745207,-0.08515289,0.056788146,-0.072959684,0.0040027834,0.011847897,-0.08836841,-0.30645782,-0.038307227,-9.385271,0.800085,47.675243,-1.2939627,-2.4093919,-3.1578588,-0.083626986,0.09507051,-0.3992316,28.875,30.3125,29.3125,32.9375,35.4375,36.5
0.13005413,-1.2443327,-0.16467528,-1.5380756,0.0025659313,0.08472132,-0.14911506,-0.39294243,-0.36754712,0.059962753,3.0781815,-0.62496513,0.00017753457,-0.05609363,0.016155628,-9.6924385e-05,-0.0138643375,0.0006900565,0.006695462,0.49927995,-1.3778154,1.899681,-2.0914953,-1.5701655,2.474363,-0.0862619,0.06043941,-0.072472855,0.004796279,0.011723082,-0.09293278,-0.36391866,0.0,-9.423578,0.83589023,47.711964,-1.2576977,-2.5454376,-3.3135467,-0.07868832,0.09955424,-0.37753463,28.875,30.3125,29.3125,32.9375,35.4375,36.5
0.13205396,-1.9087512,-0.35820138,-1.7669668,-0.0005031473,0.078210525,-0.15400219,-0.39305037,-0.36752176,0.059957765,3.0781894,-0.62479025,0.00018722627,-0.05989703,0.016772777,0.0028597058,-0.016995534,0.0059813014,0.012130682,0.49912253,-1.377684,1.8995365,-2.0914948,-1.5701412,2.4740956,-0.09091637,0.058466826,-0.07693328,0.0050938358,0.011936069,-0.10302115,-0.45968673,-0.05746084,-9.461885,0.800085,47.68062,-1.2139102,-2.4134488,-3.2325256,-0.08607864,0.07876915,-0.30178326,28.875,30.3125,29.3125,32.9375,35.4375,36.5
0.13405344,-1.5060253,-0.20693345,-1.6428802,-0.01658796,0.096123986,-0.1544855,-0.39317057,-0.36748812,0.059966274,3.0781794,-0.6247657,0.00015902941,-0.059193984,0.016440645,0.0023504314,-0.015986038,0.0052336417,0.016998895,0.49895528,-1.3775636,1.8993691,-2.091471,-1.5701417,2.4739144,-0.08935956,0.059233136,-0.07672927,0.005268852,0.011414008,-0.10633168,-0.5554548,0.038307227,-9.423578,0.7597976,47.67614,-1.3179975,-2.4428954,-3.1332874,-0.09090487,0.077081665,-0.2574203,28.875,30.3125,29.3125,32.9375,35.4375,36.5
0.13605379,-1.7993339,-1.0196741,-1.8697963,-0.00849457,0.10172064,-0.14447875,-0.39328584,-0.3674313,0.059946492,3.0782008,-0.6247692,0.0002581415,-0.060521215,0.018582083,0.0007287523,-0.013681309,0.002615846,0.016891778,0.4987386,-1.3774064,1.8992141,-2.0914109,-1.5701178,2.4736972,-0.09367883,0.0622699,-0.07673698,0.0056514754,0.010640219,-0.11054321,-0.7278373,0.05746084,-9.500193,0.83813137,47.698532,-1.2804797,-2.4471383,-3.3801095,-0.089928254,0.09134953,-0.18946083,28.875,30.3125,29.3125,32.9375,35.4375,36.5
0.13805568,-1.9251693,-0.39131966,-1.6769592,-0.0343312,0.11529171,-0.15704656,-0.39340407,-0.36741415,0.05997068,3.0781305,-0.6246184,0.0001917126,-0.061417684,0.017932864,0.0012880847,-0.0146160135,0.0033955856,0.019281719,0.49857077,-1.3773341,1.8990816,-2.0914466,-1.5700697,2.4734442,-0.09366993,0.06331265,-0.07934801,0.0060949926,0.0110965995,-0.11292257,-0.63206923,0.019153614,-9.481039,0.77545905,47.688675,-1.2674245,-2.5080688,-3.233499,-0.102014974,0.0754866,-0.15572038,28.875,30.3125,29.3125,32.9375,35.4375,36.5
0.14005463,-2.523318,-1.1231662,-1.7974172,-0.02196747,0.10344473,-0.14155523,-0.39352062,-0.36738104,0.05996579,3.078102,-0.6246139,0.00025475046,-0.063178934,0.019105757,0.0022609446,-0.015365472,0.005205229,0.015488563,0.49837804,-1.3771904,1.8989142,-2.0914109,-1.570022,2.4732523,-0.09710616,0.062133104,-0.08018822,0.0061750836,0.01088863,-0.112565435,-0.6703765,0.15322891,-9.461885,0.7732232,47.64121,-1.2784914,-2.365604,-3.1575289,-0.10319625,0.08273771,-0.13019593,28.875,30.3125,29.3125,32.9375,35.4375,36.5
0.14205423,-1.4959514,-0.9145253,-1.7467736,-0.025749562,0.11805759,-0.14852357,-0.3936781,-0.36733037,0.059984628,3.0781243,-0.6245444,0.00012388779,-0.064463004,0.02093788,0.0010245873,-0.013665846,0.0035681,0.008697713,0.49818516,-1.3770574,1.8987111,-2.091399,-1.5700821,2.4730134,-0.10089937,0.06442089,-0.08005789,0.0060033603,0.010185357,-0.109566115,-0.7086837,0.1340753,-9.519346,0.84708,47.677036,-1.1962097,-2.3786635,-3.2087002,-0.104327336,0.0833205,-0.15364572,28.875,30.3125,29.3125,32.9375,35.4375,36.5
0.14405419,-1.1845081,-0.31540018,-1.649054,-0.030496377,0.121467546,-0.16225584,-0.3938023,-0.36729378,0.05997874,3.0780537,-0.6245326,0.00019561112,-0.06593301,0.021147242,0.0015908038,-0.014454341,0.00514367,0.002328497,0.4979571,-1.376925,1.8985676,-2.091399,-1.5699981,2.472787,-0.10253215,0.064821176,-0.081714496,0.0055072852,0.010122124,-0.10482875,-0.6512228,0.05746084,-9.595961,0.800085,47.698532,-1.039269,-2.4165206,-3.2330036,-0.11030475,0.07863116,-0.20985584,28.875,30.3125,29.3125,32.9375,35.4375,36.5
0.14605442,-1.1760015,-0.7325581,-1.9150194,-0.008490514,0.1123365,-0.14353453,-0.3939307,-0.3672511,0.05997508,3.078035,-0.624532,0.0002197569,-0.067979366,0.022289885,0.0018368012,-0.014204374,0.0062296847,-0.004611571,0.4977524,-1.3767806,1.8983992,-2.091375,-1.5699743,2.4725842,-0.10584306,0.06579301,-0.083410904,0.005401662,0.009380779,-0.10119801,-0.5746084,0.15322891,-9.653421,0.8157518,47.683304,-0.9971049,-2.34604,-3.2356837,-0.11670476,0.08477241,-0.25083172,28.875,30.3125,29.3125,32.9375,35.4375,36.5
0.1480545,-0.742822,-0.14279494,-1.6624732,-0.02131857,0.11263679,-0.16085415,-0.39406654,-0.3672083,0.059967507,3.0780108,-0.6245656,0.00021769828,-0.06945566,0.022945942,0.0019195048,-0.014622643,0.006738833,-0.0076677646,0.49754804,-1.3766241,1.8982309,-2.091375,-1.5699624,2.472404,-0.10834684,0.0667332,-0.0846433,0.005049134,0.009505268,-0.10064497,-0.59376204,-0.05746084,-9.576807,0.83365434,47.690468,-0.9268698,-2.32543,-3.3127072,-0.10276654,0.09483859,-0.3043417,28.875,30.3125,29.3125,32.9375,35.4375,36.5
0.15005352,-1.0229807,-0.1307107,-1.5877718,-0.012354295,0.10120576,-0.15217353,-0.39421293,-0.36715475,0.059967943,3.077967,-0.62457424,0.00020054511,-0.07040532,0.022999221,0.002475168,-0.0152148865,0.007978221,-0.0074701095,0.49730837,-1.376492,1.8980759,-2.091387,-1.5699381,2.4721754,-0.109229326,0.06677035,-0.085932426,0.004935174,0.00943852,-0.10172421,-0.61291564,-0.095768064,-9.5385,0.80456203,47.71286,-0.91171443,-2.3304868,-3.1100073,-0.11411005,0.08711974,-0.3239841,28.875,30.3125,29.3125,32.9375,35.4375,36.5
0.1520543,-0.9104279,0.20788771,-1.4792029,-0.012902252,0.10640609,-0.16226234,-0.3943703,-0.36710316,0.059968185,3.0779629,-0.6246117,0.00014826229,-0.07099694,0.023684535,0.0018368389,-0.014550368,0.0070995605,-0.007934049,0.4970922,-1.3763235,1.8978728,-2.0913756,-1.5699624,2.4719832,-0.110787466,0.06817518,-0.086131886,0.00482005,0.009278712,-0.10281775,-0.5746084,-0.19153613,-9.481039,0.80456203,47.681515,-0.8585695,-2.325007,-3.325409,-0.10498868,0.0967858,-0.32621425,28.875,30.3125,29.3125,32.9375,35.4375,36.5
0.15405385,-1.2253761,-0.35252085,-1.5540515,0.0028476848,0.10374252,-0.15313344,-0.39450535,-0.36707518,0.059977543,3.0778787,-0.6246328,0.00017797494,-0.07351315,0.02282067,0.0037554437,-0.016890045,0.010830138,-0.009346717,0.4968764,-1.376191,1.8976916,-2.0913627,-1.5698904,2.4717913,-0.11177618,0.06866226,-0.09109956,0.004914003,0.009552826,-0.102391705,-0.34476504,-0.05746084,-9.385271,0.7709874,47.642998,-0.8670112,-2.3172393,-3.103557,-0.08857864,0.0935538,-0.36303785,28.875,30.3125,29.3125,32.9375,35.4375,36.5
0.15605418,-1.1700673,0.13695179,-1.6243207,-0.0054492424,0.09475535,-0.15737005,-0.39464942,-0.36702543,0.059987683,3.0778577,-0.6245879,0.00012320797,-0.072714485,0.02351984,0.0022961835,-0.015982423,0.007850662,-0.008396784,0.4966606,-1.3760706,1.8975257,-2.0913627,-1.5698904,2.4715502,-0.11257689,0.069787286,-0.089109816,0.004852432,0.0101882275,-0.104143105,-0.2681506,-0.05746084,-9.346964,0.85155696,47.688675,-0.94815135,-2.2844055,-3.2464168,-0.09193444,0.09215914,-0.37777138,28.875,30.3125,29.3125,32.9375,35.4375,36.5
0.15805387,-0.53765184,0.41508162,-1.6609178,-0.0055446224,0.088902995,-0.15839946,-0.3948132,-0.3669694,0.059983924,3.077799,-0.62467146,7.6817756e-05,-0.073900685,0.023580775,0.0026460951,-0.015824255,0.008899116,-0.008887748,0.4964088,-1.3759142,1.8973569,-2.091399,-1.5698785,2.471358,-0.11332999,0.07086129,-0.09123795,0.0050664125,0.009554524,-0.10440326,-0.24899697,0.0,-9.442732,0.8023209,47.65912,-0.9436655,-2.3185394,-3.1999528,-0.102361605,0.10076411,-0.40207368,28.875,30.3125,29.3125,32.9375,35.4375,36.5
0.160054,-0.29625922,0.03733154,-1.654708,-0.0087039005,0.07555847,-0.1552174,-0.39493984,-0.3669089,0.05997187,3.0777845,-0.6247231,0.00015827491,-0.07530661,0.024752656,0.0025087052,-0.015294923,0.0089972885,-0.0048902445,0.49616846,-1.3757696,1.8972019,-2.0913513,-1.5698422,2.4711518,-0.11623612,0.07177428,-0.0920331,0.005128219,0.009044565,-0.11130638,-0.22984336,-0.05746084,-9.346964,0.8627467,47.677036,-1.0138637,-2.2988262,-3.2106845,-0.093345284,0.099385336,-0.3905341,28.875,30.3125,29.3125,32.9375,35.4375,36.5
0.16205414,-0.9725335,-0.34763446,-1.5987267,-0.015698912,0.041122217,-0.14930935,-0.3951338,-0.3668663,0.060008295,3.0777528,-0.6246342,-2.1161091e-05,-0.07437122,0.023794733,0.001870961,-0.014524977,0.007458057,0.0030306769,0.4959417,-1.375625,1.8969501,-2.0913627,-1.5698785,2.4708738,-0.113767825,0.07350988,-0.09282894,0.005910988,0.009120473,-0.116757505,-0.22984336,0.0,-9.385271,0.8224646,47.66808,-1.073045,-2.3184943,-3.2459137,-0.09693263,0.11250949,-0.3506812,28.875,30.3125,29.3125,32.9375,35.4375,36.5
0.16405392,-0.35851637,-0.357962,-1.6044366,-0.030325554,0.05164497,-0.14896458,-0.3952793,-0.36679643,0.060004763,3.0777254,-0.62468326,5.262518e-06,-0.076931946,0.026167935,0.0017053946,-0.013867064,0.007563943,0.0048476835,0.49567628,-1.3754923,1.8967952,-2.0913384,-1.5698546,2.4706426,-0.119673915,0.07458245,-0.09375463,0.005998037,0.00849836,-0.12447965,-0.11492168,0.0,-9.385271,0.8179876,47.679718,-0.93832994,-2.3500838,-3.296598,-0.09528212,0.11845083,-0.25979924,28.875,30.3125,29.3125,32.9375,35.4375,36.5
0.16605386,-0.32307133,-0.2946723,-1.5982839,-0.03766023,0.05103507,-0.15980347,-0.39541402,-0.3667526,0.059987307,3.0777092,-0.6246547,8.3292616e-05,-0.07661651,0.02575895,0.0014184647,-0.01329737,0.00673904,0.013874816,0.49544933,-1.375312,1.8966154,-2.0913146,-1.5698065,2.4703999,-0.11859513,0.07567332,-0.0945796,0.0067442525,0.008394677,-0.13242774,-0.05746084,0.19153613,-9.423578,0.8806493,47.695843,-0.99521434,-2.29784,-3.2926893,-0.11387381,0.13486221,-0.21362686,28.875,30.3125,29.3125,32.9375,35.4375,36.5
0.16805394,-0.7171088,-0.97924596,-1.7218232,-0.034096915,0.039132036,-0.14985497,-0.39554542,-0.36668256,0.05998811,3.0777547,-0.62460524,6.24322e-05,-0.07718068,0.02544145,0.0013587751,-0.014991103,0.0057130903,0.014522933,0.49523336,-1.3751913,1.8964595,-2.0912669,-1.5698417,2.4701474,-0.11976983,0.07688507,-0.09594556,0.006987738,0.010372331,-0.13425153,-0.019153614,0.22984336,-9.385271,0.8112748,47.689575,-0.9812368,-2.2992423,-3.2801547,-0.10667972,0.15387994,-0.10981149,28.875,30.3125,29.3125,32.9375,35.4375,36.5
0.17005382,-0.24115144,-0.9098611,-1.7154292,-0.041212026,0.048036717,-0.15045428,-0.39572513,-0.3666553,0.060002167,3.0776973,-0.6245144,3.9936273e-05,-0.078018785,0.025283346,0.0019974639,-0.015575174,0.0069676773,0.016510177,0.4949937,-1.3749992,1.8961967,-2.091255,-1.569794,2.4698584,-0.12017278,0.076964125,-0.09753539,0.0071284943,0.010299699,-0.13664049,-0.038307227,0.21068975,-9.346964,0.7709874,47.690468,-1.089425,-2.3426373,-3.2374997,-0.117332146,0.1441701,-0.08018406,28.875,30.3125,29.3125,32.9375,35.4375,36.5
0.17205372,-0.04644014,-1.2782341,-1.7989491,-0.04046576,0.0577324,-0.15135802,-0.39588138,-0.36660653,0.06000632,3.077668,-0.624415,9.085978e-06,-0.07794805,0.02580233,0.00029614323,-0.013971128,0.0038514917,0.011556502,0.49475393,-1.3748538,1.8960174,-2.0912669,-1.5697697,2.4695604,-0.12098443,0.080208465,-0.097607054,0.007461654,0.010374508,-0.13249756,0.0,0.24899697,-9.385271,0.800085,47.686886,-0.9750254,-2.3139257,-3.3263392,-0.12136145,0.15424371,-0.13154003,28.875,30.3125,29.3125,32.9375,35.4375,36.5
0.17405455,0.011661042,-0.9193766,-1.7068471,-0.052289758,0.05108514,-0.14914374,-0.3960395,-0.36654958,0.05999989,3.077663,-0.62443644,9.20575e-06,-0.07919483,0.026451223,0.0013269223,-0.016076839,0.004834241,0.0040037674,0.49451354,-1.3746743,1.8958133,-2.0912426,-1.5697693,2.4693341,-0.12402591,0.07870711,-0.09823851,0.0077233682,0.011759709,-0.12798731,-0.05746084,0.24899697,-9.3661175,0.7933669,47.647476,-1.1221317,-2.2928681,-3.3409128,-0.12347157,0.15534568,-0.14649016,28.875,30.3125,29.3125,32.9375,35.4375,36.5
0.17605363,0.05192953,-1.2176687,-1.6326314,-0.049869888,0.044705,-0.1554938,-0.39618373,-0.36650312,0.05999024,3.0776265,-0.6244299,5.6720794e-05,-0.080374286,0.025452226,0.0023709352,-0.017125264,0.007197513,-0.0001989559,0.4942743,-1.374506,1.8956326,-2.0912306,-1.5697216,2.4690955,-0.12325062,0.07944138,-0.10148039,0.0076579847,0.011553295,-0.12300778,-0.076614454,0.22984336,-9.346964,0.86945957,47.686886,-1.1397159,-2.2540162,-3.2510984,-0.13325654,0.14510302,-0.21842963,28.875,30.3125,29.3125,32.9375,35.4375,36.5
0.17805426,-0.4737811,-1.2295504,-1.6765248,-0.042927258,0.029949887,-0.14695708,-0.3963595,-0.36643863,0.060016774,3.077578,-0.62444043,1.0228059e-06,-0.07985086,0.026782354,-0.0011896429,-0.013813571,0.0014036477,-0.004900051,0.49399826,-1.3743836,1.895419,-2.0911953,-1.5697097,2.4688323,-0.12486416,0.08489207,-0.09975943,0.00715997,0.011395577,-0.11991928,-0.038307227,0.24899697,-9.3661175,0.7777002,47.66271,-1.1702542,-2.4594162,-3.446386,-0.12713751,0.14941773,-0.30693132,28.875,30.3125,29.3125,32.9375,35.4375,36.5
0.18005402,-0.06690706,-1.0198109,-1.6907059,-0.041299745,0.047962505,-0.15163268,-0.39653876,-0.36638755,0.060028106,3.077506,-0.62446535,-6.3429965e-05,-0.08251596,0.02643013,0.001782675,-0.016615346,0.006985995,-0.008615902,0.49373433,-1.3742285,1.8952144,-2.0912192,-1.5696858,2.4685931,-0.1265334,0.08259152,-0.1038186,0.0072807358,0.011217551,-0.117870554,-0.019153614,0.24899697,-9.404425,0.83589023,47.666286,-1.1582392,-2.209341,-3.2939496,-0.1348573,0.16644594,-0.33554113,28.875,30.3125,29.3125,32.9375,35.4375,36.5
0.18205385,-0.15930578,-0.8900561,-1.5903255,-0.034877423,0.0409284,-0.14887589,-0.3966966,-0.36632317,0.060012154,3.0775034,-0.6244841,-6.101074e-05,-0.08253214,0.027302016,-0.00020251048,-0.014687411,0.0037684075,-0.011373552,0.49348235,-1.3740472,1.8950351,-2.0912192,-1.5696858,2.4683533,-0.12786295,0.085982434,-0.10331956,0.0071397866,0.011046538,-0.116442055,-0.019153614,0.21068975,-9.308657,0.82022345,47.67614,-1.114841,-2.2994466,-3.4178889,-0.1318445,0.18472034,-0.40041572,28.875,30.3125,29.3125,32.9375,35.4375,36.5
0.18405417,-0.4851261,-0.94803137,-1.4832711,-0.029466359,0.03705197,-0.14002855,-0.39681405,-0.3663021,0.05999839,3.0774846,-0.6244227,3.0480125e-05,-0.0833256,0.02691293,-0.00028245538,-0.016057132,0.0032283864,-0.013257529,0.4933025,-1.3738664,1.8948435,-2.091183,-1.5696253,2.4681375,-0.12879634,0.08763204,-0.10510353,0.0071038776,0.012502737,-0.11549168,-0.038307227,0.2873042,-9.289503,0.83365434,47.66271,-1.197145,-2.420061,-3.3676405,-0.1405947,0.17687622,-0.45186135,28.875,30.3125,29.3125,32.9375,35.4375,36.5
0.18605377,-0.37446865,-0.8013067,-1.3504119,-0.035714544,0.049404863,-0.14688015,-0.39700812,-0.3662274,0.060001884,3.0774167,-0.62454283,3.8033006e-05,-0.085426584,0.027312804,0.00083478866,-0.0173337,0.0053295027,-0.013862713,0.49297827,-1.3736862,1.894616,-2.091159,-1.5695895,2.467897,-0.13139917,0.08770611,-0.10777957,0.007260797,0.01263534,-0.11748811,-0.15322891,0.22984336,-9.232041,0.9097417,47.690468,-1.1133833,-2.3740013,-3.223697,-0.12754339,0.17572479,-0.49035484,28.875,30.3125,29.3125,32.9375,35.4375,36.5
0.18805388,-0.553663,-0.77595353,-1.48766,-0.021373305,0.05979645,-0.13929358,-0.39719424,-0.3661741,0.06000615,3.0773964,-0.62453526,-2.851993e-05,-0.085764036,0.027587812,-0.0010224945,-0.016306566,0.0014327866,-0.010390462,0.49272636,-1.3734922,1.8943757,-2.0911586,-1.5696005,2.467643,-0.13270313,0.0922695,-0.10916964,0.008010338,0.0135855405,-0.122263074,-0.076614454,0.17238252,-9.346964,0.8179876,47.672558,-1.1520531,-2.4784307,-3.2521832,-0.134956,0.17708296,-0.50499225,28.875,30.3125,29.3125,32.9375,35.4375,36.5
0.19005525,-0.12588598,-0.9773805,-1.4504073,-0.021681707,0.08806032,-0.14941482,-0.3973489,-0.36612782,0.05999434,3.0773666,-0.62454295,7.3365295e-06,-0.08692368,0.028443452,0.0003027474,-0.017454503,0.003267426,-0.003213571,0.49248594,-1.3733011,1.8941725,-2.0911467,-1.5695647,2.4674113,-0.13523892,0.09002134,-0.10965929,0.008607089,0.013741281,-0.13197611,-0.21068975,0.21068975,-9.3661175,0.8157518,47.690468,-1.0931805,-2.2995777,-3.3352373,-0.13168457,0.1737072,-0.43025303,28.875,30.3125,29.3125,32.9375,35.4375,36.5
0.19205384,-0.88764435,-0.8010445,-1.2558637,-0.034852833,0.09312286,-0.14992955,-0.3974975,-0.3660808,0.059984967,3.077343,-0.6244726,8.621481e-05,-0.08712511,0.02828463,-0.001014208,-0.016860178,0.000760055,0.008972745,0.4922345,-1.3731196,1.8939699,-2.0911105,-1.5695041,2.467119,-0.13552313,0.09358038,-0.11097529,0.008878767,0.014412667,-0.14444621,-0.26815057,0.076614454,-9.404425,0.80679786,47.698532,-1.1204079,-2.3219075,-3.2550843,-0.14274254,0.15886565,-0.3423177,28.875,30.3125,29.3125,32.9375,35.4375,36.5
0.19405395,-1.5144918,-0.2923802,-1.2184781,-0.035171412,0.09912554,-0.1529924,-0.39769962,-0.36601296,0.060002178,3.0772943,-0.6244206,3.5556208e-05,-0.0885804,0.028297342,0.0008761425,-0.018624239,0.004026814,0.01432307,0.4919224,-1.3729522,1.8937291,-2.0910985,-1.5694803,2.4667807,-0.1368135,0.091535546,-0.11291744,0.009169281,0.0144392,-0.15108569,-0.49799395,0.15322891,-9.308656,0.8023209,47.719128,-1.0659437,-2.3878455,-3.3885825,-0.14975843,0.17437564,-0.25797427,28.875,30.3125,29.3125,32.9375,35.4375,36.5
0.19605374,-1.7581714,-0.035519626,-1.3218257,-0.024807526,0.10832662,-0.14764269,-0.39785033,-0.36595738,0.05996279,3.077318,-0.62436527,0.00014702164,-0.089663476,0.029393328,-0.00022161951,-0.018259339,0.0017039084,0.016176747,0.4916702,-1.3727113,1.8935264,-2.0910742,-1.5694445,2.466491,-0.14006601,0.09419764,-0.11368837,0.009510914,0.015211656,-0.15619256,-0.49799395,0.038307227,-9.346964,0.85826975,47.689575,-1.138089,-2.3128483,-3.2676387,-0.16383582,0.18347266,-0.1824829,28.875,30.3125,29.3125,32.9375,35.4375,36.5
0.19805449,-1.8736104,0.06968464,-1.2445487,-0.013458481,0.11171281,-0.15390164,-0.39807126,-0.36592162,0.06000931,3.077215,-0.6242837,-1.5548907e-05,-0.089932874,0.02847331,-0.0005269506,-0.017518243,0.0020151057,0.019573588,0.4913953,-1.3725541,1.8932394,-2.0910985,-1.5694207,2.4661784,-0.13821273,0.0966422,-0.1158767,0.009342868,0.014434751,-0.15773228,-0.6703765,-0.05746084,-9.32781,0.88960326,47.682407,-1.1747487,-2.479741,-3.2367086,-0.17136613,0.17944983,-0.1350255,28.875,30.3125,29.3125,32.9375,35.4375,36.5
0.20005445,-1.2248344,0.33231553,-1.2110761,-0.010226642,0.13223897,-0.15630388,-0.3982232,-0.36586154,0.059999052,3.0771906,-0.6242831,8.789594e-05,-0.091811456,0.028610827,0.0002747732,-0.01870324,0.0037169342,0.010430651,0.49111933,-1.3723736,1.8930343,-2.0910385,-1.5693601,2.4659052,-0.14022999,0.09734136,-0.11851975,0.009230318,0.014660686,-0.1506061,-0.78529817,-0.076614454,-9.289502,0.89631605,47.705692,-1.2395964,-2.4258447,-3.136129,-0.17466015,0.18227623,-0.18491378,28.875,30.3125,29.3125,32.9375,35.4375,36.5
0.20205408,-1.558742,0.11809849,-1.5114855,0.005279388,0.119177185,-0.14685722,-0.39842385,-0.36579093,0.05997915,3.077199,-0.6242093,7.528816e-05,-0.09280755,0.028975027,-0.00022321659,-0.018162651,0.0031115066,0.0047781616,0.49081942,-1.3721325,1.8927954,-2.0910504,-1.5693606,2.4655583,-0.14155722,0.09958,-0.1201055,0.009365453,0.014466629,-0.14627971,-0.82360536,-0.1340753,-9.212888,0.8112748,47.65912,-1.283585,-2.5385365,-3.1611073,-0.17540753,0.17477638,-0.23171723,28.875,30.3125,29.3125,32.9375,35.4375,36.5
0.20405458,-1.9153591,0.006243715,-1.5078005,0.0039156037,0.1028576,-0.14127403,-0.39859408,-0.3657331,0.059971664,3.0771496,-0.62429774,0.00016513992,-0.09393473,0.029391704,-0.0001427688,-0.018466841,0.0033002272,2.6642863e-05,0.49053118,-1.3719282,1.8925556,-2.0909903,-1.5693005,2.4653316,-0.14332272,0.10054383,-0.12147801,0.009472535,0.014639819,-0.1432935,-0.8236054,-0.21068975,-9.289503,0.800085,47.664497,-1.1372014,-2.4963045,-3.1234856,-0.19555926,0.18493438,-0.30196565,28.875,30.3125,29.3125,32.9375,35.4375,36.5
0.20605418,-1.6648366,0.17116868,-1.4297199,-0.009328485,0.10252436,-0.1524426,-0.3987889,-0.36567742,0.05998674,3.0770993,-0.6243073,0.0001046728,-0.09668295,0.030798228,0.00089445326,-0.018949775,0.005839739,-0.0047643953,0.49025428,-1.371748,1.8923043,-2.0909789,-1.5692886,2.4650671,-0.14762725,0.10042879,-0.123681284,0.009331027,0.0138762025,-0.14280504,-0.9002198,-0.15322891,-9.308657,0.85826975,47.698532,-1.0788946,-2.5191593,-3.1329002,-0.16616818,0.20268607,-0.3283237,28.875,30.3125,29.3125,32.9375,35.4375,36.5
0.2080549,-1.1741128,0.49883348,-1.2873647,-0.02223369,0.124836594,-0.15410873,-0.39900258,-0.36561325,0.059995748,3.0770514,-0.6242949,9.942861e-05,-0.09662079,0.030187722,0.0005852812,-0.018985918,0.005146662,-0.003871532,0.48993155,-1.3715314,1.8920177,-2.0909426,-1.5692528,2.464743,-0.14669652,0.10196885,-0.12489397,0.009606484,0.0142415045,-0.14276621,-0.9002198,-0.095768064,-9.3661175,0.74413085,47.67166,-1.1504129,-2.4164095,-3.0526485,-0.17249563,0.20704806,-0.3492791,28.875,30.3125,29.3125,32.9375,35.4375,36.5
0.21005343,-1.2571236,0.079854056,-1.266857,-0.014490464,0.13461013,-0.1594366,-0.39917442,-0.36554772,0.059974894,3.0770433,-0.6242725,0.00016550857,-0.096794784,0.03043726,0.00037280205,-0.018573243,0.0044568176,-0.0026347323,0.48964402,-1.3713148,1.8918017,-2.0909183,-1.5692166,2.4644425,-0.14718823,0.102667324,-0.12540688,0.010235874,0.0142043065,-0.14449486,-0.80445176,-0.095768064,-9.442732,0.8605109,47.66091,-1.1691741,-2.454465,-3.1186633,-0.2107333,0.2077911,-0.39071497,28.875,30.3125,29.3125,32.9375,35.4375,36.5
0.21205372,-1.3740144,0.05614013,-1.5040637,-0.012411497,0.13169922,-0.15831423,-0.39937624,-0.36546785,0.059967767,3.0770051,-0.62433714,0.00014998122,-0.09765374,0.030912599,0.00056070363,-0.018754339,0.004323289,0.0010331122,0.48932028,-1.3711106,1.8915747,-2.0909183,-1.5692042,2.464164,-0.14883478,0.10317846,-0.1266348,0.010999092,0.014439371,-0.14980859,-0.5363012,0.019153614,-9.442732,0.8090337,47.66271,-1.2519331,-2.4175572,-3.2501345,-0.2232875,0.22069126,-0.3513587,28.875,30.3125,29.3125,32.9375,35.4375,36.5
0.21405402,-1.1533517,0.20413038,-1.5107386,-0.023629548,0.1284994,-0.15649146,-0.3995707,-0.36542565,0.059970394,3.076944,-0.62429994,0.00014028582,-0.09764675,0.031274024,0.00021061109,-0.018194772,0.0035519465,0.008904472,0.48904476,-1.3708941,1.891311,-2.0909183,-1.5691565,2.4638731,-0.14929783,0.10368544,-0.12654871,0.011374484,0.01432912,-0.15814236,-0.4213795,0.05746084,-9.481039,0.8247004,47.65912,-1.2487975,-2.4558506,-3.154687,-0.22875828,0.22176063,-0.28799757,28.875,30.3125,29.3125,32.9375,35.4375,36.5
0.21605344,-1.0130944,-0.12066946,-1.5703448,-0.01956642,0.11111387,-0.15849648,-0.39977503,-0.36533082,0.059940428,3.0769966,-0.6242071,0.00017370787,-0.09910868,0.03120862,-0.000406795,-0.018361967,0.0030603232,0.018129738,0.48870894,-1.3706405,1.8910717,-2.0908945,-1.5691684,2.4634728,-0.15066841,0.10715153,-0.12920088,0.010934199,0.014710665,-0.16873734,-0.3256114,0.076614454,-9.519346,0.8985519,47.694946,-1.2388139,-2.4718099,-3.2268066,-0.22898051,0.22690119,-0.2002599,28.875,30.3125,29.3125,32.9375,35.4375,36.5
0.21805437,-0.55730385,0.28331393,-1.7684356,-0.033552166,0.09366878,-0.16277501,-0.3999842,-0.3652757,0.059965726,3.0769472,-0.6241375,8.4777465e-05,-0.09960096,0.03231607,0.00024583578,-0.018237997,0.0052185133,0.020997971,0.48842096,-1.3704612,1.890798,-2.090883,-1.5691565,2.4631479,-0.15221646,0.10470229,-0.12754694,0.009899144,0.013612294,-0.17315315,-0.22984336,-0.076614454,-9.576807,0.784413,47.661808,-1.2260978,-2.3954237,-3.2963567,-0.2360344,0.24724498,-0.11692835,28.875,30.3125,29.3125,32.9375,35.4375,36.5
0.22005403,-0.43860632,-0.13840337,-1.7696847,-0.030158747,0.06842429,-0.15189525,-0.40019423,-0.365193,0.059957538,3.076947,-0.6240976,9.883602e-05,-0.09917046,0.03256837,-0.002076572,-0.016010528,0.0012813371,0.021625165,0.48808596,-1.3702315,1.8905348,-2.0908473,-1.5691446,2.462788,-0.15210931,0.109168135,-0.12765716,0.010073471,0.013496005,-0.17367251,-0.17238252,-0.095768064,-9.519346,0.78217715,47.661808,-1.2958498,-2.5171895,-3.3376966,-0.21853763,0.28155574,-0.04375714,28.875,30.3125,29.3125,32.9375,35.4375,36.5
0.22205336,-0.2205932,-0.10340716,-1.5870552,-0.03690843,0.05191766,-0.14329918,-0.4003975,-0.36512598,0.0599624,3.0768766,-0.62410533,8.8286746e-05,-0.10087697,0.03337037,-0.0004304267,-0.017871434,0.004234324,0.013622087,0.48776144,-1.3700403,1.8902959,-2.0908473,-1.5690969,2.4624774,-0.15507218,0.106761165,-0.12849082,0.009836969,0.013758281,-0.16863182,-0.22984336,0.076614454,-9.557653,0.84484416,47.66987,-1.2330859,-2.3774657,-3.4499583,-0.2267516,0.28154892,-0.08934831,28.875,30.3125,29.3125,32.9375,35.4375,36.5
0.22405608,-0.08757397,-0.3778009,-1.6439037,-0.035344247,0.04210093,-0.14591868,-0.4006057,-0.3650382,0.0599497,3.0768647,-0.62410915,0.00012763815,-0.103424914,0.034911945,-0.00065600243,-0.018789453,0.0038521185,0.00022058813,0.4874122,-1.3698114,1.8900436,-2.090811,-1.5690726,2.4621322,-0.16047223,0.10875373,-0.13031457,0.009568095,0.014735808,-0.16062976,-0.038307227,0.11492168,-9.481039,0.800085,47.66808,-1.0892016,-2.3704724,-3.4836497,-0.21694249,0.29168308,-0.16595918,28.875,30.3125,29.3125,32.9375,35.4375,36.5
0.22605479,0.53548175,-0.33476967,-1.8706834,-0.033715483,0.041652888,-0.1526034,-0.40081608,-0.36497957,0.05994699,3.0768363,-0.6240665,5.9107024e-05,-0.10258343,0.035453085,-0.0017672338,-0.017916761,0.00090698065,-0.0060598697,0.48712516,-1.3695829,1.8897828,-2.0908349,-1.5690726,2.4618223,-0.16093199,0.10961271,-0.12903404,0.01043212,0.015352939,-0.15480882,-0.038307227,0.095768064,-9.5385,0.8873621,47.693153,-1.0881115,-2.3900557,-3.5409198,-0.23648018,0.2853376,-0.23381956,28.875,30.3125,29.3125,32.9375,35.4375,36.5
0.22805433,0.53612864,-0.7579176,-1.8954573,-0.026033934,0.029748796,-0.14943141,-0.40101358,-0.36491233,0.059943225,3.0768225,-0.62402666,0.00010872299,-0.105273955,0.035369407,0.0002947887,-0.020584399,0.0048941257,-0.011200241,0.4868127,-1.3693548,1.8895057,-2.0907748,-1.5690359,2.4614868,-0.16341974,0.10885624,-0.13277477,0.010161726,0.015834311,-0.15215518,0.05746084,0.1340753,-9.615114,0.8247004,47.675243,-0.9524535,-2.3192134,-3.457605,-0.24323902,0.29617614,-0.32597494,28.875,30.3125,29.3125,32.9375,35.4375,36.5
0.23005415,0.54126996,-0.5243069,-1.9475806,-0.03983717,0.025913268,-0.14412297,-0.40122104,-0.36484247,0.059929837,3.076735,-0.62418413,0.00018316046,-0.1061234,0.03556143,-0.00068786036,-0.020272136,0.0034882608,-0.017677205,0.48646528,-1.3691136,1.889243,-2.090751,-1.5689639,2.4612489,-0.16465208,0.11197539,-0.13422501,0.009887512,0.016209356,-0.14690965,0.038307227,0.24899697,-9.461885,0.8605109,47.678825,-1.0397772,-2.4872584,-3.4160995,-0.23857018,0.31019336,-0.42665768,28.875,30.3125,29.3125,32.9375,35.4375,36.5
0.23205487,0.5448834,-0.50764084,-1.9754555,-0.050401106,0.037841003,-0.15596274,-0.40145433,-0.36475167,0.059954565,3.0766895,-0.6242677,7.180216e-05,-0.10579267,0.034557626,0.00036851686,-0.021530133,0.0039025682,-0.016719656,0.48611864,-1.3689338,1.8889669,-2.0907266,-1.5689873,2.4609604,-0.16315843,0.111001156,-0.13585176,0.01153237,0.017142558,-0.1463722,0.0,0.2681506,-9.615114,0.8403672,47.687782,-1.1454511,-2.2648196,-3.4521441,-0.25042966,0.3082838,-0.48362017,28.875,30.3125,29.3125,32.9375,35.4375,36.5
0.23405392,0.051546223,-0.829654,-2.0421352,-0.047461484,0.044139706,-0.15622061,-0.40168807,-0.36469185,0.059967455,3.0766287,-0.62428933,2.5420848e-05,-0.10653018,0.035114896,-0.00089940923,-0.020793129,0.0016846951,-0.011620612,0.4857947,-1.3686923,1.8886441,-2.0907028,-1.5689634,2.4606578,-0.16491428,0.114276566,-0.13693456,0.011664907,0.017546816,-0.1532253,0.038307227,0.3256114,-9.615114,0.8291774,47.70211,-1.043993,-2.5529847,-3.4188862,-0.279853,0.3109525,-0.48266974,28.875,30.3125,29.3125,32.9375,35.4375,36.5
0.23605384,-0.6070822,-1.1678123,-2.0277429,-0.061558057,0.050443694,-0.16193996,-0.40188402,-0.36463502,0.059967186,3.0765905,-0.6242167,4.5777397e-05,-0.10771901,0.035535622,-0.00047022715,-0.021673089,0.0019751678,-0.0020532547,0.48549467,-1.3684762,1.8883814,-2.0906785,-1.5689152,2.4603174,-0.16701284,0.11465482,-0.13850878,0.012224759,0.018210998,-0.16489033,0.13407528,0.38307226,-9.634268,0.8023209,47.666286,-1.1155753,-2.380279,-3.4130192,-0.27685672,0.31372,-0.41472238,28.875,30.3125,29.3125,32.9375,35.4375,36.5
0.23805407,-0.39013022,-1.3804883,-1.8020475,-0.07898781,0.06346822,-0.15704997,-0.40213147,-0.3645468,0.05998316,3.0765212,-0.62427133,-3.2714545e-06,-0.10871675,0.03562375,-0.0004339084,-0.022563681,0.0014117449,0.008972646,0.48511088,-1.3682593,1.888081,-2.0906546,-1.5688909,2.4599767,-0.16861959,0.116080105,-0.14045765,0.0128617855,0.019292166,-0.17752105,0.076614454,0.40222588,-9.595961,0.8605109,47.699425,-1.0541037,-2.3172123,-3.400871,-0.28458932,0.30878156,-0.29501703,28.875,30.3125,29.3125,32.9375,35.4375,36.5
0.24005553,-0.41114494,-1.4406153,-2.0394905,-0.08241618,0.064609334,-0.1477983,-0.40231705,-0.36450282,0.059964936,3.0765073,-0.62411165,5.8579946e-05,-0.110193335,0.03624621,-0.00024311445,-0.023090852,0.001752053,0.013598923,0.4848346,-1.3680068,1.8878182,-2.0906422,-1.5688308,2.4596026,-0.17109986,0.11704647,-0.1421084,0.013027788,0.019610245,-0.18462697,-0.05746084,0.40222588,-9.634268,0.83365434,47.686886,-0.9832929,-2.3796704,-3.3656754,-0.29893082,0.3059929,-0.17931354,28.875,30.3125,29.3125,32.9375,35.4375,36.5
0.24205388,-0.7561562,-1.4010321,-1.888026,-0.087309405,0.05869846,-0.14400713,-0.40254626,-0.36440444,0.059985448,3.0764596,-0.62413895,3.827547e-05,-0.11179606,0.03654198,6.5228975e-05,-0.023741368,0.0027320962,0.013903627,0.48445067,-1.3678262,1.8875426,-2.0905826,-1.568807,2.4592419,-0.17300875,0.118265465,-0.14422278,0.012768732,0.019738894,-0.18683892,-0.076614454,0.38307226,-9.5385,0.8493211,47.704796,-0.9717119,-2.311438,-3.3547754,-0.30859423,0.32235152,-0.12770969,28.875,30.3125,29.3125,32.9375,35.4375,36.5
0.24405418,-1.0340313,-1.406076,-1.6486644,-0.0811176,0.06745654,-0.14472917,-0.402773,-0.36433712,0.059985496,3.0763924,-0.6241463,9.445222e-05,-0.11426816,0.0355103,0.001717265,-0.026281511,0.0066557634,0.009111618,0.48409128,-1.3675737,1.8872303,-2.0905354,-1.5687345,2.4588957,-0.17363031,0.119174324,-0.14887963,0.011872595,0.020149454,-0.1826663,-0.34476504,0.3256114,-9.576807,0.8806493,47.703903,-0.9754877,-2.4556484,-3.2700777,-0.30077046,0.32274032,-0.16255346,28.875,30.3125,29.3125,32.9375,35.4375,36.5
0.2460541,-0.21059594,-0.6401482,-1.5557367,-0.075598806,0.10291308,-0.16168664,-0.4029678,-0.364288,0.059961893,3.0763533,-0.62406456,0.00016815032,-0.11399146,0.036173616,0.00050151866,-0.025659246,0.004403337,0.00074455125,0.4837913,-1.3673087,1.8869675,-2.0905354,-1.5686625,2.4585497,-0.17471859,0.12051208,-0.14769173,0.0116327545,0.02064204,-0.17538781,-0.47884035,0.2681506,-9.461885,0.82694155,47.73883,-0.92641336,-2.3379693,-3.2404938,-0.32369286,0.32103682,-0.26198062,28.875,30.3125,29.3125,32.9375,35.4375,36.5
0.24805436,-1.0870346,-0.44013292,-1.2619947,-0.04949467,0.101901636,-0.16332252,-0.40322036,-0.36420023,0.059988648,3.0762982,-0.6240727,6.732319e-05,-0.11581344,0.03630603,0.00025058666,-0.0264433,0.004673212,-0.0036904295,0.48341975,-1.3671038,1.8866566,-2.0905116,-1.5686625,2.4581904,-0.17681094,0.12326686,-0.15025204,0.010835711,0.021219801,-0.173042,-0.4405331,0.28730422,-9.385271,0.8605109,47.704796,-1.1293299,-2.4554935,-3.1086967,-0.32507807,0.30941325,-0.30792448,28.875,30.3125,29.3125,32.9375,35.4375,36.5
0.25005332,-1.4960818,0.14272128,-1.2387353,-0.036580015,0.10578281,-0.14771019,-0.40344176,-0.36415592,0.059973843,3.0762239,-0.62403595,0.00012323287,-0.11591631,0.034866583,0.0005906064,-0.027795099,0.0054901126,-0.0018354297,0.48309696,-1.366815,1.8863453,-2.0905116,-1.5685781,2.4578543,-0.17489497,0.124314755,-0.15221018,0.010413005,0.022041183,-0.1729796,-0.4213795,0.22984336,-9.346964,0.8157518,47.698532,-1.1170077,-2.5042531,-3.126182,-0.3243208,0.2893116,-0.36451423,28.875,30.3125,29.3125,32.9375,35.4375,36.5
0.25205338,-1.621834,0.0058908123,-1.0614065,-0.017277185,0.10363667,-0.15153761,-0.40372851,-0.36413157,0.06001737,3.0760562,-0.6239623,-9.998406e-06,-0.11653168,0.03469406,-0.0002909389,-0.02793397,0.0041724406,-0.002769054,0.4827497,-1.3665498,1.885938,-2.0905478,-1.5684932,2.4574826,-0.17550202,0.1272583,-0.15366977,0.010050623,0.02280817,-0.17264792,-0.51714754,0.19153613,-9.346964,0.83589023,47.694946,-1.2529204,-2.5537581,-3.1442642,-0.3303689,0.29241514,-0.3914035,28.875,30.3125,29.3125,32.9375,35.4375,36.5
0.2540532,-1.5137615,0.2737028,-0.9584337,-0.021808032,0.10579211,-0.15790011,-0.40392524,-0.36404878,0.05999537,3.0760791,-0.6239412,0.000112359616,-0.117092766,0.034251627,0.0014277113,-0.029300904,0.00762302,0.005153574,0.48241475,-1.3662865,1.8856515,-2.090452,-1.568458,2.4571316,-0.17493069,0.12476895,-0.15456332,0.009774522,0.022421625,-0.18000114,-0.57460845,0.076614454,-9.289502,0.8403672,47.679718,-1.315742,-2.4463978,-3.063206,-0.3112584,0.29982013,-0.34901184,28.875,30.3125,29.3125,32.9375,35.4375,36.5
0.25605443,-1.6441736,0.39653406,-1.1145594,-0.010763864,0.1001809,-0.15742095,-0.4041517,-0.36396092,0.05998404,3.0760586,-0.6238909,5.3936114e-05,-0.11920173,0.0344952,0.0013904885,-0.029392302,0.008969427,0.013726685,0.48206693,-1.366057,1.8854111,-2.0904882,-1.568458,2.4567552,-0.17679113,0.12740998,-0.15744434,0.008812699,0.021904187,-0.19043237,-0.5554548,-0.038307227,-9.270349,0.842603,47.658226,-1.2268407,-2.6036446,-3.0847301,-0.3126645,0.28776717,-0.26643473,28.875,30.3125,29.3125,32.9375,35.4375,36.5
0.25805432,-0.97144353,0.39674327,-1.189974,-0.0066902535,0.10989842,-0.15868944,-0.40441832,-0.3639016,0.06002056,3.0759478,-0.6238252,-3.1351046e-05,-0.118825905,0.035840772,0.00027341078,-0.027864765,0.0063165366,0.021586416,0.4816948,-1.365829,1.885053,-2.0904763,-1.5683979,2.4563563,-0.17855875,0.12804855,-0.1559073,0.009738257,0.021833993,-0.2000579,-0.51714754,-0.17238252,-9.270349,0.81351066,47.65912,-1.1785662,-2.470192,-3.2366095,-0.30289865,0.29529637,-0.13897017,28.875,30.3125,29.3125,32.9375,35.4375,36.5
0.26005358,-1.1239842,0.51357,-0.9087871,-0.012152675,0.09525449,-0.16347215,-0.40466142,-0.363811,0.060017586,3.0759363,-0.6238204,-8.4761414e-05,-0.11898249,0.036153905,-0.00052128336,-0.027161505,0.004974003,0.024280418,0.4813354,-1.3655761,1.8847545,-2.0904639,-1.5684098,2.4559956,-0.1791316,0.12977988,-0.15623273,0.009861024,0.021851426,-0.20332372,-0.49799395,-0.15322891,-9.308657,0.86498255,47.64658,-1.3283844,-2.50407,-3.2615623,-0.31217727,0.3055327,-0.06884906,28.875,30.3125,29.3125,32.9375,35.4375,36.5
0.26205444,-0.82967556,0.33775157,-0.7859109,-0.016587451,0.104614146,-0.15749432,-0.40490273,-0.36373827,0.06001491,3.0758944,-0.62375546,-3.9995644e-05,-0.11984798,0.03609805,-4.8291404e-05,-0.027752545,0.006072187,0.01925938,0.48096353,-1.3652998,1.8844193,-2.0904162,-1.5683497,2.4555886,-0.17970161,0.1300808,-0.15767607,0.009766178,0.021863746,-0.19887196,-0.6512229,-0.19153613,-9.270349,0.85155696,47.67345,-1.4264636,-2.4793046,-3.3665748,-0.3101985,0.31061983,-0.07838026,28.875,30.3125,29.3125,32.9375,35.4375,36.5
0.2640542,-1.015976,0.51999635,-0.8352037,-0.005836665,0.09280379,-0.1532735,-0.40512484,-0.36367378,0.060012855,3.0758293,-0.6236892,-1.0067315e-05,-0.11996744,0.03695045,-0.002034612,-0.02564534,0.0026944238,0.010162256,0.48061526,-1.3650582,1.8841323,-2.0904038,-1.5682777,2.4552073,-0.18094975,0.13386068,-0.15779078,0.010074199,0.02155452,-0.19102187,-0.53630114,-0.17238252,-9.193734,0.85826975,47.661808,-1.565084,-2.5249128,-3.3375373,-0.30417114,0.3105946,-0.146168,28.875,30.3125,29.3125,32.9375,35.4375,36.5
0.26605335,-0.3091757,1.2143527,-0.83911103,-0.003111794,0.09397011,-0.16509472,-0.40537465,-0.36359748,0.060002528,3.07576,-0.62371826,1.8939765e-05,-0.12239802,0.03771543,0.00028427417,-0.027901866,0.0070228633,0.00045065946,0.4802303,-1.3647709,1.8838094,-2.0903924,-1.5682176,2.4548495,-0.18425441,0.13118619,-0.1598527,0.009933047,0.02154836,-0.18461417,-0.19153614,-0.22984336,-9.270349,0.93436235,47.68599,-1.4114999,-2.3886387,-3.390718,-0.30517784,0.3193903,-0.24431705,28.875,30.3125,29.3125,32.9375,35.4375,36.5
0.2680542,-0.6742158,0.98124653,-0.86410064,0.006772817,0.05206104,-0.1621906,-0.40564698,-0.36351246,0.06001463,3.0756857,-0.62376636,-4.386031e-05,-0.12392789,0.038621753,0.0005755637,-0.028388605,0.008033297,-0.00947114,0.47983348,-1.3645065,1.8834628,-2.09038,-1.5681938,2.4544923,-0.18697913,0.1314737,-0.16077633,0.009443018,0.021515902,-0.17741527,-0.15322891,-0.21068975,-9.155427,0.8090337,47.67345,-1.408489,-2.5148852,-3.359189,-0.30348063,0.3346718,-0.3691612,28.875,30.3125,29.3125,32.9375,35.4375,36.5
0.2700531,-0.5002521,0.540407,-0.750822,0.012819716,0.035842765,-0.1555222,-0.40590158,-0.36345696,0.06002053,3.0756369,-0.62373644,-0.00011862374,-0.12399282,0.03886361,0.00020654693,-0.027945131,0.0071568214,-0.012259421,0.47950926,-1.3642181,1.8831042,-2.09038,-1.5681819,2.454156,-0.187346,0.13232085,-0.16109006,0.009894753,0.02154091,-0.17499222,-0.28730422,-0.17238252,-9.040505,0.9231726,47.67614,-1.3449476,-2.272366,-3.4137182,-0.30015174,0.33275425,-0.43951464,28.875,30.3125,29.3125,32.9375,35.4375,36.5
0.27205414,-0.46501866,0.539021,-1.2543535,0.012033576,0.026260354,-0.15890564,-0.40614256,-0.36335692,0.060026187,3.0755703,-0.62383854,-8.620999e-05,-0.12587994,0.03969428,0.0011551838,-0.028929353,0.0085082995,-0.012144568,0.4791003,-1.3639901,1.8828048,-2.0903199,-1.5681337,2.4538193,-0.19044536,0.13216646,-0.16323552,0.010566273,0.021804977,-0.1782054,-0.22984336,-0.11492168,-9.193734,0.83589023,47.666286,-1.237261,-2.1805935,-3.3580022,-0.30203575,0.3428566,-0.48704633,28.875,30.3125,29.3125,32.9375,35.4375,36.5
0.27405408,0.01557165,0.16360609,-1.3288538,-0.00054900907,0.04755039,-0.16346438,-0.40637124,-0.3632716,0.060013212,3.0755432,-0.6237505,-5.3818843e-05,-0.12762256,0.039952915,0.0016542443,-0.02944024,0.008905399,-0.002576327,0.4787273,-1.3637372,1.8825287,-2.0903075,-1.568086,2.453395,-0.19248512,0.13377684,-0.16660208,0.011781034,0.022106005,-0.1898117,-0.038307227,-0.038307227,-9.2703495,0.86945957,47.661808,-1.274611,-2.2270312,-3.20427,-0.3022782,0.33779168,-0.4122215,28.875,30.3125,29.3125,32.9375,35.4375,36.5
0.2760544,-0.26712486,-0.56075794,-1.4724611,-0.006356973,0.05683977,-0.16643214,-0.40666044,-0.3631711,0.06002015,3.0754738,-0.6238054,-7.333052e-05,-0.12849872,0.04075422,0.0012911774,-0.029161211,0.007528976,0.009011412,0.47828278,-1.3634483,1.8821586,-2.0902708,-1.5680493,2.4529936,-0.19472925,0.13532916,-0.16794261,0.012972152,0.022540392,-0.20364182,-0.019153614,-0.019153614,-9.3661175,0.86945957,47.66271,-1.1306826,-2.1841326,-3.3223338,-0.32841736,0.3351112,-0.26653254,28.875,30.3125,29.3125,32.9375,35.4375,36.5
0.27805316,-0.69575834,-0.39213812,-1.4751772,-0.031078275,0.06554203,-0.16138127,-0.40688816,-0.36308932,0.05999638,3.0754619,-0.62370515,1.4428945e-05,-0.13031109,0.04136011,0.0023150286,-0.030308472,0.008758894,0.013904766,0.47790936,-1.36316,1.8818592,-2.090235,-1.5679892,2.4525592,-0.19750871,0.13527696,-0.17046286,0.013964926,0.023009598,-0.21131414,-0.2873042,0.095768064,-9.500193,0.8605109,47.66987,-0.9925997,-2.1747365,-3.251257,-0.34485286,0.3385548,-0.17222184,28.875,30.3125,29.3125,32.9375,35.4375,36.5
0.28005338,-0.7559949,-0.88389593,-1.6131922,-0.037896655,0.090061024,-0.16194665,-0.4071369,-0.36299565,0.059984945,3.0754545,-0.62364674,6.647458e-05,-0.13014868,0.04284068,0.0006848781,-0.028798267,0.0046309205,0.011055945,0.47751278,-1.3628708,1.8815249,-2.090175,-1.5679535,2.4521272,-0.20008023,0.13733073,-0.16959246,0.015414926,0.023575502,-0.21103698,-0.38307226,0.24899697,-9.500193,0.8918391,47.67614,-0.98258686,-2.2049105,-3.3247101,-0.36457282,0.33968014,-0.15094836,28.875,30.3125,29.3125,32.9375,35.4375,36.5
0.28205413,-1.4350468,-1.2235305,-1.9025568,-0.04705173,0.09589636,-0.15639152,-0.40741357,-0.3629116,0.06000383,3.0753415,-0.6237038,2.3501874e-05,-0.13038638,0.042649794,0.00046387338,-0.029097542,0.0036115139,0.0044850376,0.477093,-1.3626184,1.8811768,-2.090162,-1.5678929,2.4517577,-0.20029102,0.13869792,-0.17092544,0.016150774,0.02431853,-0.20467377,-0.49799395,0.30645782,-9.672575,0.85155696,47.699425,-1.1132988,-2.1847937,-3.2568996,-0.38099423,0.33039844,-0.18836908,28.875,30.3125,29.3125,32.9375,35.4375,36.5
0.28405395,-1.758888,-1.5775851,-2.016685,-0.055600397,0.09556959,-0.16079704,-0.40762854,-0.3628274,0.05998281,3.075377,-0.62359923,8.140161e-05,-0.13172698,0.042529944,0.00075322646,-0.03065545,0.004006292,-0.0026365356,0.47675648,-1.3623414,1.8808788,-2.0901024,-1.5678805,2.4513514,-0.20188302,0.14000078,-0.1731402,0.015987597,0.02550161,-0.19914323,-0.45968673,0.4213795,-9.825804,0.8537928,47.711964,-1.0561172,-2.2601347,-3.342432,-0.37972155,0.3273602,-0.29940936,28.875,30.3125,29.3125,32.9375,35.4375,36.5
0.28605393,-1.3016865,-1.1652913,-2.0085998,-0.095904745,0.106003895,-0.16970316,-0.4079167,-0.3627528,0.060006786,3.0752518,-0.6236725,5.037606e-05,-0.13197255,0.042494513,-0.0012768304,-0.029693145,0.000656615,-0.0070411316,0.476336,-1.3620636,1.8804835,-2.0900671,-1.5678085,2.4509928,-0.20232429,0.14489774,-0.17439169,0.015771134,0.026193634,-0.19517611,-0.5363012,0.40222588,-9.921572,0.8985519,47.68599,-1.0813295,-2.3529053,-3.3874722,-0.38755774,0.31379285,-0.37770396,28.875,30.3125,29.3125,32.9375,35.4375,36.5
0.28805405,-1.7964619,-1.8333044,-2.078111,-0.090647645,0.10456941,-0.17406398,-0.4082,-0.3626793,0.06003407,3.07517,-0.6236147,2.2236925e-05,-0.13182297,0.041151404,-0.0008958067,-0.030987479,0.0014779547,-0.0041472,0.47592893,-1.3617873,1.8800768,-2.090007,-1.567748,2.4505603,-0.20028962,0.14538482,-0.17578147,0.0153729925,0.026985336,-0.19603236,-0.51714754,0.47884035,-9.921572,0.9254084,47.689575,-1.2019856,-2.3466384,-3.3969886,-0.38970724,0.29427645,-0.38337842,28.875,30.3125,29.3125,32.9375,35.4375,36.5
0.2900547,-2.5108154,-1.6055119,-2.1181648,-0.08618106,0.08989008,-0.16654508,-0.40846643,-0.36258218,0.060004346,3.075126,-0.62360054,8.318855e-05,-0.1317332,0.03970562,-0.0014214931,-0.03234075,0.0006187227,0.0041876575,0.4754972,-1.3614619,1.879754,-2.090007,-1.5676874,2.4501255,-0.19864596,0.14793104,-0.17754865,0.014776461,0.028598608,-0.20272125,-0.38307226,0.38307226,-9.864111,0.8537928,47.70211,-1.428437,-2.4162638,-3.3826163,-0.40712816,0.28184342,-0.389953,28.875,30.3125,29.3125,32.9375,35.4375,36.5
0.29205427,-1.3170613,-1.0632079,-2.0580509,-0.0743363,0.11487488,-0.17931327,-0.40875465,-0.36250722,0.06003732,3.0750024,-0.6235863,2.085171e-05,-0.13303469,0.040380113,-0.0018895031,-0.03267934,0.0011155412,0.014357075,0.47507694,-1.3612093,1.879371,-2.0899842,-1.5676154,2.4497123,-0.20084532,0.1494513,-0.17797144,0.01314725,0.028726624,-0.21508661,-0.21068975,0.3256114,-9.825804,0.8940802,47.67614,-1.3246908,-2.5234277,-3.3875585,-0.39269412,0.26387414,-0.26094532,28.875,30.3125,29.3125,32.9375,35.4375,36.5
0.29405317,-1.6601876,-1.1615847,-1.7654616,-0.04975864,0.09053692,-0.16880971,-0.40899658,-0.3624365,0.060010493,3.074979,-0.623462,0.000107374646,-0.13409407,0.041363012,-0.0033684836,-0.03178272,-0.00028164385,0.021490589,0.4747042,-1.3608841,1.8790363,-2.0899603,-1.5675434,2.449265,-0.20321018,0.15266109,-0.1782343,0.01191002,0.028590556,-0.22458509,-0.22984336,0.28730422,-9.768343,0.86945957,47.66091,-1.4088056,-2.4903393,-3.452273,-0.38498324,0.24537796,-0.14076695,28.875,30.3125,29.3125,32.9375,35.4375,36.5
0.29605442,-0.86658,-0.94758874,-1.7194886,-0.03864558,0.08110916,-0.17039305,-0.40928942,-0.36235565,0.060018748,3.074932,-0.6233379,-1.9696633e-06,-0.13674311,0.041592576,-0.000288071,-0.03479911,0.006025264,0.019325217,0.47430745,-1.3605856,1.8786649,-2.0899847,-1.5675315,2.448797,-0.20563865,0.14909808,-0.18078373,0.01104974,0.028413994,-0.22484536,-0.2681506,0.28730422,-9.481039,0.90527004,47.67614,-1.2789829,-2.4011335,-3.319147,-0.3844743,0.26413667,-0.096034065,28.875,30.3125,29.3125,32.9375,35.4375,36.5
0.29805395,0.14675212,-0.59194785,-1.6414242,-0.033043437,0.064947195,-0.16469055,-0.40957087,-0.36225787,0.060011744,3.0748591,-0.6233477,1.1543243e-05,-0.13862616,0.041809224,-0.0006149816,-0.035913676,0.0064502177,0.009907091,0.47386295,-1.3602848,1.8783172,-2.0899732,-1.5674714,2.448368,-0.20797242,0.15177119,-0.18297982,0.009686069,0.029202698,-0.21775791,-0.24899697,0.22984336,-9.500193,0.8493211,47.66091,-1.3613322,-2.512349,-3.4051414,-0.35055238,0.22306077,-0.12904711,28.875,30.3125,29.3125,32.9375,35.4375,36.5
0.30005407,0.011805598,-0.5418719,-1.4105152,-0.024438158,0.02774997,-0.16579047,-0.4098686,-0.36217827,0.06002832,3.0747566,-0.6233324,-7.123458e-05,-0.13860913,0.042164057,-0.0017084889,-0.03591664,0.0042007924,-0.00032603342,0.47344247,-1.3599964,1.8779362,-2.0899851,-1.5674232,2.4479513,-0.20903713,0.15363497,-0.1827518,0.009583481,0.030238379,-0.20858504,-0.17238252,0.1340753,-9.442732,0.8537928,47.672558,-1.304028,-2.4616442,-3.4007263,-0.32153654,0.21403039,-0.25654846,28.875,30.3125,29.3125,32.9375,35.4375,36.5
0.30205402,0.49734053,-0.46489012,-1.2454438,-0.037162114,0.031277556,-0.16735005,-0.41015437,-0.36210635,0.060029868,3.074686,-0.6233039,-9.8231554e-05,-0.14056474,0.04267929,-0.0013506842,-0.036122516,0.004828636,-0.010248881,0.47304547,-1.3596722,1.8775405,-2.0899727,-1.5673751,2.4475458,-0.21137935,0.1554376,-0.18593815,0.010311453,0.03012956,-0.2010015,-0.1340753,0.1340753,-9.3661175,0.8605109,47.65912,-1.2275579,-2.4836063,-3.500414,-0.31513187,0.2016902,-0.37351692,28.875,30.3125,29.3125,32.9375,35.4375,36.5
0.30405402,0.28242576,-0.62950504,-1.1328131,-0.030042827,0.025619097,-0.16056372,-0.41044402,-0.36199623,0.060047828,3.074621,-0.62333065,-0.0001235365,-0.14235649,0.043221965,-0.00021724212,-0.037442368,0.006873665,-0.015570558,0.47258872,-1.3594085,1.8771695,-2.0899131,-1.5673388,2.4471142,-0.21383777,0.15493746,-0.18796709,0.010429267,0.030380638,-0.19813594,-0.114921674,0.038307227,-9.193734,0.87617236,47.64658,-1.1471726,-2.3829942,-3.4925842,-0.30606556,0.19678915,-0.45504302,28.875,30.3125,29.3125,32.9375,35.4375,36.5
0.30605406,0.6169427,-0.26779264,-1.1671289,-0.0029488434,0.036994275,-0.15771618,-0.41070923,-0.3619372,0.06004974,3.0744538,-0.6234093,-8.222613e-05,-0.14378558,0.0437145,0.0007773946,-0.03867702,0.007756905,-0.013385057,0.47218007,-1.3591207,1.8768224,-2.0899246,-1.5672063,2.4467762,-0.21619691,0.15460847,-0.19013363,0.011628797,0.031113042,-0.20267701,0.038307227,-0.11492168,-9.232041,0.9567419,47.684196,-1.0355736,-2.3537762,-3.4006329,-0.30052054,0.16414398,-0.5031923,28.875,30.3125,29.3125,32.9375,35.4375,36.5
0.30805418,0.10560624,0.49732724,-0.9549423,0.004042213,0.045097753,-0.18057102,-0.41098946,-0.361839,0.060038477,3.074436,-0.62336105,-7.577642e-05,-0.14490189,0.043677006,0.0010132026,-0.04007359,0.007564783,-0.0028579982,0.47175926,-1.3587968,1.8764504,-2.0898888,-1.567182,2.4463277,-0.21778964,0.15587512,-0.19235814,0.012179375,0.03248867,-0.21479374,0.076614454,-0.019153614,-9.11712,0.85826975,47.674347,-0.96010256,-2.2908688,-3.2635093,-0.28407702,0.14764506,-0.3956213,28.875,30.3125,29.3125,32.9375,35.4375,36.5
0.31005397,-0.28724086,0.24044286,-1.0734544,0.029884253,0.05003446,-0.16688012,-0.41130894,-0.36175588,0.060053814,3.0742936,-0.6233813,-7.2564995e-05,-0.14569212,0.043920647,0.00017002974,-0.040157862,0.0057032155,0.009142684,0.47127926,-1.3584719,1.8760198,-2.0898645,-1.5670742,2.4458787,-0.21930844,0.15879568,-0.1941248,0.012730723,0.03347601,-0.22830842,-0.019153614,-0.019153614,-9.097966,0.8717007,47.70838,-0.91573095,-2.3483057,-3.2321868,-0.27402848,0.110575244,-0.2503702,28.875,30.3125,29.3125,32.9375,35.4375,36.5
0.31205422,-1.3141518,0.67678684,-0.9239349,0.020304013,0.05697545,-0.1658365,-0.41161555,-0.36168185,0.060090832,3.074183,-0.6232597,-0.00015163801,-0.1463604,0.04359698,0.0023140423,-0.042085625,0.008405079,0.014596278,0.47084728,-1.3581976,1.8756007,-2.0898402,-1.5670012,2.4453852,-0.21950762,0.15594766,-0.19590838,0.014130321,0.0340227,-0.23395649,-0.22984336,-0.038307227,-9.251195,0.82694155,47.661808,-1.0046977,-2.1534786,-3.2411976,-0.28446037,0.07455617,-0.16326,28.875,30.3125,29.3125,32.9375,35.4375,36.5
0.3140534,-1.4890913,0.19988294,-1.1388123,0.0025103344,0.089544944,-0.1601153,-0.41186714,-0.3616077,0.060069792,3.074151,-0.6231408,-8.253642e-05,-0.14593363,0.043575,0.002325052,-0.04061027,0.007823218,0.011188381,0.47046366,-1.3578736,1.8752531,-2.089815,-1.5669302,2.4449315,-0.21832529,0.15622935,-0.19671424,0.01585796,0.032969162,-0.22936794,-0.4405331,0.038307227,-9.251195,0.84708,47.64927,-1.1767945,-2.1253161,-3.2309523,-0.29432705,0.08428563,-0.16993874,28.875,30.3125,29.3125,32.9375,35.4375,36.5
0.3160535,-1.4502612,-0.5238557,-1.215007,-0.015340329,0.12298462,-0.17204998,-0.41215843,-0.36152676,0.0600787,3.0740557,-0.6230851,-4.7684403e-05,-0.1452699,0.043944653,0.0016416771,-0.039135125,0.0058834297,0.0048237676,0.47001952,-1.3575615,1.8748468,-2.0897667,-1.5668339,2.444465,-0.21795414,0.15699477,-0.19644275,0.01723054,0.032536883,-0.2226316,-0.5554548,0.19153613,-9.232041,0.9925471,47.685097,-1.3250774,-2.03163,-3.2811155,-0.3009246,0.046621576,-0.26214373,28.875,30.3125,29.3125,32.9375,35.4375,36.5
0.31805316,-2.45604,-1.0566946,-1.4836283,-0.035652254,0.11771887,-0.16191444,-0.41243508,-0.3614158,0.060045436,3.0740492,-0.62312627,4.3395386e-05,-0.14604144,0.044896316,0.0012723361,-0.037196387,0.0053649945,-0.0014076019,0.46957517,-1.3572013,1.8744754,-2.0897071,-1.5667986,2.4440472,-0.21914056,0.158493,-0.19772425,0.018361377,0.03102621,-0.21759014,-0.49799395,0.095768064,-9.385271,0.8605109,47.66271,-1.3647959,-2.0398848,-3.257008,-0.31296465,0.03691984,-0.3408832,28.875,30.3125,29.3125,32.9375,35.4375,36.5
0.32005408,-1.53259,-0.43907484,-1.643381,-0.052341808,0.12951207,-0.16556314,-0.41272095,-0.36132205,0.06006849,3.0739655,-0.62307185,3.6799604e-05,-0.14774023,0.046147116,0.0013997467,-0.035811402,0.006513343,-0.005314834,0.46913025,-1.356937,1.8740915,-2.089647,-1.5667275,2.4435792,-0.22147208,0.15956037,-0.1993894,0.018590385,0.02928605,-0.21601498,-0.59376204,0.21068975,-9.481039,0.8985519,47.693153,-1.3177886,-2.088281,-3.3157644,-0.31585303,0.066619456,-0.39526188,28.875,30.3125,29.3125,32.9375,35.4375,36.5
0.32205397,-1.3294241,-0.932413,-1.6512773,-0.044510793,0.10876068,-0.15647613,-0.41301292,-0.36123085,0.06005478,3.073905,-0.6231112,5.4319255e-05,-0.14823894,0.045826077,0.00053594034,-0.034381248,0.0064418167,0.0021670146,0.4686989,-1.3565881,1.8736972,-2.0896232,-1.5666798,2.4431803,-0.220465,0.16267887,-0.2010933,0.017939482,0.028071808,-0.22249036,-0.47884035,0.22984336,-9.461885,0.8784135,47.677036,-1.4529907,-2.285831,-3.358697,-0.30406618,0.055333734,-0.38230765,28.875,30.3125,29.3125,32.9375,35.4375,36.5
0.32405382,-1.0101308,-1.3402213,-1.6107761,-0.035288922,0.098142594,-0.16453955,-0.4133332,-0.36113447,0.060067277,3.0738566,-0.6230176,1.1690271e-05,-0.14982875,0.046500202,-0.0008720547,-0.033354413,0.005679227,0.013147699,0.46824235,-1.3562514,1.8732527,-2.089576,-1.5666441,2.4426718,-0.22246808,0.16698235,-0.20283057,0.016593302,0.027557831,-0.23547235,-0.3256114,0.15322891,-9.461885,0.82694155,47.66808,-1.4267248,-2.2475903,-3.2868233,-0.269921,0.04417625,-0.2617377,28.875,30.3125,29.3125,32.9375,35.4375,36.5
0.32605395,-0.7051885,-0.81676817,-1.8259267,-0.021060018,0.08613717,-0.15619771,-0.41363654,-0.36103356,0.060076244,3.0738063,-0.6229258,-2.562591e-06,-0.15142897,0.047399465,-0.00048819065,-0.03346074,0.0077026105,0.019791184,0.46778548,-1.3559395,1.872846,-2.0895283,-1.5665959,2.4421642,-0.22470076,0.16711774,-0.20366095,0.01549807,0.02678534,-0.2443486,-0.2873042,0.076614454,-9.519346,0.9298854,47.698532,-1.3582227,-2.3091097,-3.362167,-0.25934935,0.052690856,-0.12298538,28.875,30.3125,29.3125,32.9375,35.4375,36.5
0.32805422,-1.267579,-0.35292804,-1.9544181,-0.00690061,0.05634015,-0.15517631,-0.41391662,-0.36095488,0.060052503,3.073757,-0.62280375,6.2743115e-05,-0.15199836,0.048443623,-0.0015237969,-0.031993173,0.00627056,0.017271604,0.46736437,-1.3555791,1.8724631,-2.0895164,-1.5665125,2.4416733,-0.22637871,0.16916464,-0.20386909,0.015629524,0.026129147,-0.24350773,-0.34476504,0.095768064,-9.615114,0.94331104,47.681515,-1.305085,-2.2668443,-3.4011693,-0.25161105,0.061763473,-0.10090348,28.875,30.3125,29.3125,32.9375,35.4375,36.5
0.33005404,-0.06556158,-0.22704321,-1.7343739,-0.026688328,0.09129692,-0.16867837,-0.41428903,-0.3608415,0.06011065,3.0736046,-0.622853,-0.0001262392,-0.15395726,0.049394958,-0.0017977376,-0.031847056,0.00681092,0.0055252216,0.46683615,-1.3553027,1.8719958,-2.0895045,-1.5664767,2.4411957,-0.22921719,0.1713695,-0.20577954,0.014904022,0.025772719,-0.23459497,-0.47884035,0.21068975,-9.500193,0.9030289,47.72002,-1.1338496,-2.3144414,-3.533734,-0.24503006,0.04594049,-0.16191378,28.875,30.3125,29.3125,32.9375,35.4375,36.5
0.33205426,-1.3489542,-0.86372274,-1.663986,-0.027339797,0.08503035,-0.1590987,-0.41460532,-0.36074463,0.060115453,3.0735302,-0.6229032,-0.00019284994,-0.15650037,0.050719254,-0.001202202,-0.031650733,0.008176027,-0.008579297,0.46639085,-1.3549665,1.8715771,-2.0894926,-1.5664529,2.4407916,-0.23292845,0.17258179,-0.20878892,0.015545358,0.024967188,-0.22420043,-0.57460845,0.17238252,-9.519346,0.842603,47.685097,-1.0785571,-2.3985615,-3.4247117,-0.23976918,0.07467577,-0.2722624,28.875,30.3125,29.3125,32.9375,35.4375,36.5
0.33405378,-1.0689771,-1.0542046,-1.654667,-0.020761048,0.10509992,-0.1535954,-0.41488227,-0.36063665,0.060068127,3.0735354,-0.6229098,-6.0046958e-05,-0.15781835,0.05213644,-0.0011311432,-0.031128954,0.008304371,-0.018983772,0.4659458,-1.354571,1.8711938,-2.0894325,-1.5664047,2.44035,-0.23592082,0.17292474,-0.20955044,0.016075358,0.024410514,-0.21679099,-0.4213795,0.15322891,-9.461885,0.8851263,47.672558,-0.94643587,-2.269636,-3.533113,-0.23594065,0.07259616,-0.41023555,28.875,30.3125,29.3125,32.9375,35.4375,36.5
0.33606103,-0.6179527,-0.32128972,-1.4283534,-0.042397857,0.11680355,-0.1745982,-0.41520512,-0.3605364,0.06010249,3.073403,-0.62290084,-0.000113554815,-0.1583595,0.05300814,-0.0011562149,-0.030482255,0.007960786,-0.021616403,0.46545374,-1.3542949,1.8707751,-2.0893962,-1.5663213,2.4398696,-0.23741221,0.17317611,-0.21003252,0.016929856,0.024017187,-0.21564808,-0.2681506,0.17238252,-9.500193,0.85155696,47.70211,-1.0305362,-2.429234,-3.477707,-0.23063734,0.07049459,-0.50999165,28.875,30.3125,29.3125,32.9375,35.4375,36.5
0.3380601,-1.8365052,-1.0748047,-1.1881117,-0.0435906,0.088627234,-0.16072999,-0.41550532,-0.36044496,0.060070746,3.0733533,-0.6229026,-5.884924e-05,-0.15918489,0.052279238,-0.0006678022,-0.030829709,0.009047564,-0.009911659,0.4650101,-1.3538988,1.8703665,-2.0893843,-1.5662612,2.4394336,-0.23663713,0.174567,-0.21299835,0.017450927,0.02388346,-0.22657719,-0.40222588,0.11492168,-9.346964,0.95226496,47.68062,-1.2285304,-2.3851595,-3.419067,-0.20515919,0.08236754,-0.46994102,28.875,30.3125,29.3125,32.9375,35.4375,36.5
0.3400569,-0.87473243,-0.48158664,-1.0055176,-0.041856363,0.10584853,-0.17648806,-0.41585708,-0.3603474,0.06010752,3.0732732,-0.62283814,-0.00021314756,-0.15955295,0.051253833,-0.00029742377,-0.03129057,0.010374237,0.006105729,0.46454236,-1.353575,1.8698872,-2.0893605,-1.5662493,2.4389362,-0.23497912,0.17564288,-0.21512267,0.017185891,0.023789117,-0.24093322,-0.47884035,0.0,-9.289502,0.91421866,47.668976,-1.2017177,-2.2554967,-3.3978963,-0.21234787,0.096103735,-0.33151722,28.875,30.3125,29.3125,32.9375,35.4375,36.5
0.34205517,-1.2387638,0.041106652,-1.5144964,-0.0026098194,0.07302055,-0.15980653,-0.41618288,-0.3602136,0.060087528,3.0732262,-0.62284386,-0.00018364741,-0.16073607,0.051392995,-4.979521e-05,-0.031184688,0.011645392,0.01439202,0.46401426,-1.3532147,1.8694924,-2.0893366,-1.5662011,2.438418,-0.23564431,0.17680088,-0.21709244,0.016975552,0.02316882,-0.24988535,-0.22984336,0.0,-9.3661175,0.9030289,47.66987,-1.2743089,-2.2181237,-3.4262695,-0.18856792,0.09530798,-0.2230409,28.875,30.3125,29.3125,32.9375,35.4375,36.5
0.34405553,-0.805479,-0.18557666,-1.4028698,0.0050131045,0.06906203,-0.15419938,-0.4165086,-0.36015707,0.06011305,3.0731142,-0.62268806,-0.0002541474,-0.16142583,0.051561035,-8.161973e-05,-0.031431474,0.012116294,0.010901732,0.4635941,-1.3528669,1.8690122,-2.0893247,-1.5661172,2.437915,-0.23634164,0.17758396,-0.21790767,0.016493756,0.023205535,-0.2470894,-0.26815057,0.095768064,-9.32781,0.8537928,47.65912,-1.3166986,-2.2044067,-3.3668203,-0.17151657,0.10224284,-0.2134318,28.875,30.3125,29.3125,32.9375,35.4375,36.5
0.3460543,-0.88609874,-0.24735269,-1.4015392,-0.0025391777,0.063746534,-0.15308475,-0.41680765,-0.36002314,0.06008766,3.0731494,-0.6226806,-0.00022336206,-0.16220313,0.050985944,-0.0005252472,-0.03067422,0.011872479,0.004729064,0.46312606,-1.3525059,1.8686174,-2.0892527,-1.56613,2.437438,-0.23550147,0.18080921,-0.22093903,0.016833598,0.022606667,-0.24007729,-0.5554548,0.095768064,-9.155427,0.8918391,47.691364,-1.3173121,-2.3276775,-3.3233643,-0.15918392,0.12532929,-0.29422325,28.875,30.3125,29.3125,32.9375,35.4375,36.5
0.3480554,-0.4599157,0.12915526,-1.5550756,-0.008576844,0.06602708,-0.16166615,-0.4171458,-0.35993636,0.06009686,3.0730188,-0.62269497,-0.00026286076,-0.16361892,0.05172106,-0.00034804142,-0.0302733,0.012171994,-0.00226431,0.46264565,-1.352146,1.868162,-2.0892522,-1.5660461,2.4369836,-0.23743156,0.18208747,-0.22313264,0.017668748,0.022126004,-0.23501235,-0.24899697,0.076614454,-9.289502,0.93436235,47.682407,-1.3259332,-2.1509793,-3.3625093,-0.14977124,0.12807359,-0.37036628,28.875,30.3125,29.3125,32.9375,35.4375,36.5
0.35005924,-1.2027644,-0.96962154,-1.5426735,0.004218957,0.05403248,-0.14811243,-0.41746897,-0.3598345,0.060104467,3.072974,-0.6227048,-0.00028729643,-0.16546,0.052095123,0.0012580686,-0.03186666,0.014493514,-0.002749424,0.46218914,-1.3517867,1.8676943,-2.0891798,-1.5660218,2.4365392,-0.23966536,0.18117833,-0.22594154,0.018620908,0.022539483,-0.2367587,-0.15322891,0.13407528,-9.289503,0.8985519,47.677036,-1.3885043,-2.1576877,-3.2588315,-0.13638389,0.15103312,-0.42923743,28.875,30.3125,29.3125,32.9375,35.4375,36.5
0.35206118,-0.16266635,-0.014111734,-1.5017793,-0.029662143,0.06630688,-0.16450067,-0.41781816,-0.3597381,0.06010661,3.0729136,-0.6226107,-0.00038432743,-0.16605313,0.053088542,0.00038568172,-0.031467665,0.012341816,0.0036150995,0.46172032,-1.3514024,1.8672279,-2.0891922,-1.5659975,2.4360197,-0.24203075,0.18307401,-0.22650883,0.019452158,0.023211725,-0.24548475,-0.095768064,0.095768064,-9.251195,0.91421866,47.642998,-1.2496248,-2.2728837,-3.3000436,-0.13999577,0.16411853,-0.35998893,28.875,30.3125,29.3125,32.9375,35.4375,36.5
0.35405728,-0.7530226,-0.84945166,-1.7803354,-0.016625863,0.0464766,-0.1565984,-0.41812995,-0.3595952,0.060082044,3.072899,-0.6226798,-0.00026598797,-0.16703804,0.05447438,-0.0004913949,-0.030290866,0.010902011,0.014570979,0.46119097,-1.35103,1.8668088,-2.089084,-1.5659493,2.4355354,-0.24476601,0.18510528,-0.2271667,0.019983165,0.022850793,-0.25917813,0.019153614,0.28730422,-9.251195,0.8806493,47.647476,-1.1200458,-2.2224495,-3.349564,-0.13581258,0.16761577,-0.23119763,28.875,30.3125,29.3125,32.9375,35.4375,36.5
0.35605553,-0.80126256,-0.65215564,-1.4767277,-0.0379957,0.052433897,-0.16393729,-0.4184699,-0.35948363,0.060087286,3.0728354,-0.6225884,-0.00034007008,-0.16854712,0.056032322,9.34861e-05,-0.029899359,0.011989726,0.017234083,0.4606984,-1.3506824,1.8663768,-2.089084,-1.5659136,2.4349942,-0.24795872,0.18455555,-0.22803761,0.020655353,0.02207317,-0.26503426,-0.11492168,0.2681506,-9.270349,0.9612189,47.675243,-1.0526776,-2.1606343,-3.2869456,-0.1387247,0.19266048,-0.11789676,28.875,30.3125,29.3125,32.9375,35.4375,36.5
0.3580548,-0.40348655,-0.8506172,-1.5163845,-0.05263202,0.079099484,-0.15482718,-0.4188201,-0.3593584,0.060086615,3.0727928,-0.6226014,-0.00036112635,-0.16883588,0.056582265,-0.0008456313,-0.02913754,0.009601008,0.011754226,0.460182,-1.3502979,1.8658994,-2.0890234,-1.5658897,2.4344916,-0.24914366,0.18691048,-0.22909346,0.02183007,0.022455258,-0.2607371,-0.21068975,0.28730422,-9.346964,0.8784135,47.64479,-1.0231175,-2.206774,-3.3828142,-0.114165485,0.20994884,-0.110439,28.875,30.3125,29.3125,32.9375,35.4375,36.5
0.36005446,-1.2860068,-0.6594796,-1.4102988,-0.05517816,0.074490294,-0.15125398,-0.41912866,-0.35927024,0.060078815,3.0727267,-0.6225186,-0.00031199367,-0.16918643,0.05648396,-0.000926071,-0.02948609,0.008562932,0.00050050585,0.45972607,-1.349926,1.8654565,-2.0889752,-1.5658053,2.4339926,-0.24953336,0.18818232,-0.23077525,0.022991125,0.023198342,-0.24986993,-0.34476504,0.28730422,-9.346964,0.92093146,47.66808,-1.1164899,-2.0957868,-3.4536831,-0.12114054,0.22134984,-0.23074812,28.875,30.3125,29.3125,32.9375,35.4375,36.5
0.36205626,-1.3718125,-0.41033998,-1.3854517,-0.047422793,0.07138539,-0.15297467,-0.41948885,-0.35913843,0.060057864,3.0726318,-0.62265754,-0.00026204283,-0.17064351,0.05621129,-1.6871585e-05,-0.031125551,0.009559411,-0.010245714,0.45916173,-1.3495061,1.8649877,-2.088939,-1.5657328,2.4335275,-0.25067362,0.18898709,-0.23406662,0.023836836,0.024196334,-0.2402599,-0.49799395,0.24899697,-9.32781,0.8940802,47.64479,-1.1394776,-2.1530905,-3.470291,-0.10949418,0.23343897,-0.35197932,28.875,30.3125,29.3125,32.9375,35.4375,36.5
0.36405474,-0.6098974,-0.3546569,-1.4473307,-0.034321643,0.084016584,-0.14760864,-0.41983154,-0.35904047,0.060086157,3.072561,-0.6226255,-0.00038713095,-0.17165841,0.05658369,-0.00025148323,-0.031854514,0.009034028,-0.01711784,0.4587057,-1.3491699,1.8645085,-2.0889032,-1.5657209,2.433061,-0.25248012,0.19052829,-0.23544765,0.023809902,0.025093967,-0.23518865,-0.40222588,0.22984336,-9.423578,0.9164598,47.66091,-1.1203415,-2.2089372,-3.4106383,-0.10348746,0.23904514,-0.4605934,28.875,30.3125,29.3125,32.9375,35.4375,36.5
0.36605495,-0.6320832,-0.35468978,-1.4163289,-0.03580947,0.072461024,-0.16766964,-0.4201734,-0.35892633,0.06008844,3.072485,-0.6226625,-0.0004017811,-0.17096013,0.056149013,-0.0011669954,-0.03216805,0.007131007,-0.0077390657,0.45820147,-1.3487979,1.8640422,-2.088855,-1.5656723,2.4325898,-0.25168106,0.19198872,-0.23518415,0.023717446,0.026275916,-0.24376419,-0.22984336,0.19153613,-9.232041,0.9947882,47.686886,-1.143063,-2.2549589,-3.4840608,-0.09217562,0.22792229,-0.46797982,28.875,30.3125,29.3125,32.9375,35.4375,36.5
0.3680549,-1.4064358,-0.24870197,-1.2244195,-0.040240552,0.06352069,-0.15667325,-0.42052805,-0.358824,0.06008701,3.0723934,-0.622635,-0.0003826234,-0.17146803,0.056522097,-0.0030528808,-0.030269464,0.0044201533,0.008455944,0.45768547,-1.3483887,1.8635391,-2.0888073,-1.5655884,2.4320686,-0.2522591,0.19676442,-0.23683959,0.023990465,0.025861735,-0.26053664,-0.36391866,0.095768064,-9.212888,0.8717007,47.65464,-1.229646,-2.2329085,-3.556779,-0.09746054,0.2624382,-0.32255006,28.875,30.3125,29.3125,32.9375,35.4375,36.5
0.37005433,-0.9056245,0.32472715,-1.340126,-0.023289321,0.077943645,-0.15929526,-0.42087552,-0.35869893,0.060081013,3.0723817,-0.6225702,-0.0004048447,-0.17313597,0.05558485,-0.0014471171,-0.03226764,0.0075573903,0.018049508,0.45718133,-1.3479929,1.8630594,-2.0887468,-1.5655764,2.4315257,-0.25213894,0.19698475,-0.24083884,0.024135916,0.026317293,-0.2700072,-0.19153614,0.05746084,-9.270349,0.8918391,47.65912,-1.278725,-2.295144,-3.498219,-0.09640829,0.25592765,-0.16591212,28.875,30.3125,29.3125,32.9375,35.4375,36.5
0.37205514,-0.5412149,0.06907376,-1.6470605,0.0030687347,0.08835691,-0.1458666,-0.42121834,-0.3585936,0.06008217,3.0723116,-0.62248117,-0.00039813432,-0.17335936,0.054760996,-0.0012417686,-0.03313174,0.0075920206,0.0153782,0.45667794,-1.3476088,1.8625807,-2.088699,-1.565504,2.430976,-0.2511965,0.1980961,-0.2428216,0.024606023,0.027081612,-0.2663894,-0.3256114,0.038307227,-9.308656,0.90527004,47.6636,-1.360811,-2.3708322,-3.433143,-0.065611094,0.26132444,-0.17645118,28.875,30.3125,29.3125,32.9375,35.4375,36.5
0.37405482,-0.9960316,0.41586784,-1.350183,-0.019775895,0.086189725,-0.15093724,-0.42154837,-0.3584663,0.060053572,3.0722613,-0.62251586,-0.0003031716,-0.17449367,0.05578276,-0.0017138281,-0.032881226,0.0063614654,0.004734701,0.456149,-1.3472004,1.8621367,-2.088639,-1.565432,2.4304752,-0.25380495,0.19991778,-0.24421322,0.02538038,0.027367158,-0.25835353,-0.5746084,0.1340753,-9.32781,0.9321212,47.690468,-1.4716629,-2.4079049,-3.4708138,-0.067264944,0.26902035,-0.28069583,28.875,30.3125,29.3125,32.9375,35.4375,36.5
