Tylouw/Master_Thesis_Code/training_data/batch_1/rect_rod_t0.2/sample_5_session_1.csv
timestamp[s],tcp_force_x[N],tcp_force_y[N],tcp_force_z[N],tcp_force_rx[Nm?],tcp_force_ry[Nm?],tcp_force_rz[Nm?],tcp_pose_x[m],tcp_pose_y[m],tcp_pose_z[m],tcp_pose_rx[rot_vec_x],tcp_pose_ry[rot_vec_y],tcp_pose_rz[rot_vec_z],tcp_velo_x[m/s],tcp_velo_y[m/s],tcp_velo_z[m/s],tcp_velo_rx[rot_vec_x/s],tcp_velo_ry[rot_vec_y/s],tcp_velo_rz[rot_vec_z/s],q1[rad],q2[rad],q3[rad],q4[rad],q5[rad],q6[rad],qd1[rad/s],qd2[rad/s],qd3[rad/s],qd4[rad/s],qd5[rad/s],qd6[rad/s],tool_acc_x,tool_acc_y,tool_acc_z,current_of_whole_robot[A],voltage_of_whole_robot[V],current_J1[A],current_J2[A],current_J3[A],current_J4[A],current_J5[A],current_J6[A],temp_J1[C],temp_J2[C],temp_J3[C],temp_J4[C],temp_J5[C],temp_J6[C]
9.699997e-07,-0.36568114,-0.10208043,0.15556091,-0.032817323,0.016109802,-0.0058594304,-0.38935342,-0.36872387,0.06003531,-3.0787215,0.6249509,0.0002624381,0.0002788188,0.00017677793,-7.8513214e-05,0.00037688017,-0.0009670395,2.5538606e-05,0.50503284,-1.3816679,1.9041632,-2.0918915,-1.5708655,2.4800372,-0.00012436236,-5.6966866e-05,-3.4270937e-07,0.0010854321,0.00014060293,-0.0001502218,0.05746084,0.095768064,-8.6574335,0.7038487,47.71017,-0.14929356,-3.117725,-2.2325187,-0.19444485,0.17767894,-0.055179313,28.6875,30.0,29.25,32.75,35.375,36.4375
0.002054994,-0.47855285,-0.013908938,0.17292255,-0.03206788,0.019285899,-0.009788672,-0.3893516,-0.36871567,0.060007814,-3.0787158,0.6249499,0.00025141492,-0.0011910325,-0.0006401889,-0.0005181892,-0.003095435,0.0052843317,4.851116e-05,0.5050208,-1.3816439,1.9042119,-2.091955,-1.5708655,2.4800253,-0.00012225083,-7.642833e-07,0.0033219468,-0.009444044,0.00013753313,-0.00017131238,0.019153614,0.22984336,-8.676587,0.69937176,47.690468,-0.20241714,-2.9548097,-2.3818243,-0.16030496,0.17101175,-0.040293813,28.6875,30.0,29.25,32.75,35.375,36.4375
0.004053936,-0.62247974,-0.4482414,0.20429347,-0.024654815,0.02046988,-0.0029078657,-0.38933113,-0.3687274,0.06000789,-3.0787032,0.6249854,0.00018395859,-0.0016504475,-0.00089711265,-0.0020147774,-0.002634854,0.004444609,5.2882653e-05,0.50504476,-1.3816426,1.9041995,-2.0919077,-1.5708417,2.480073,-0.00012020967,0.0035467402,0.003065386,-0.011777247,0.000134595,-0.00017272597,0.11492168,0.22984336,-8.619126,0.7530795,47.705692,-0.22331655,-3.4137168,-2.6106696,-0.043339692,0.17568181,-0.050378926,28.6875,30.0,29.25,32.75,35.375,36.4375
0.00605425,-0.5331393,-0.35950065,0.040446673,-0.00848806,0.007606701,-0.0040302924,-0.38934734,-0.368732,0.06000154,-3.0787308,0.6249146,0.00023676794,-0.0005179732,-0.00026729432,-0.0015514774,-0.00076171523,0.0010868752,4.8589445e-05,0.50504476,-1.381619,1.904199,-2.091965,-1.5708536,2.4800253,-0.00011823574,0.002390591,0.0020014853,-0.005712332,0.00013177945,-0.00016684338,0.095768064,0.21068975,-8.561666,0.76874626,47.688675,-0.21223411,-3.336597,-2.5036664,-0.06863505,0.19350186,-0.038603216,28.6875,30.0,29.25,32.75,35.375,36.4375
0.00805343,-0.26589647,0.5484366,-0.3923747,0.018244512,-0.022194125,-0.0018723401,-0.3893546,-0.36870754,0.060006548,-3.0787044,0.6250051,0.00022214846,-0.00011564715,-4.2964373e-05,-0.0002706481,-0.0005539408,0.00073035783,4.4203272e-05,0.50499684,-1.3816439,1.9042114,-2.0919402,-1.5708536,2.4800372,-0.000116325566,4.326971e-05,0.0010092,-0.0019601625,0.00012907936,-0.00016091038,0.05746084,0.24899697,-8.734048,0.7083204,47.694054,-0.17241436,-3.1902184,-2.4558945,-0.10206172,0.18027952,-0.047037672,28.6875,30.0,29.25,32.75,35.375,36.4375
0.010053564,-0.08227547,0.90575415,-0.8462628,0.027369903,-0.013000571,-0.009463302,-0.38932773,-0.368698,0.05997742,-3.0786555,0.6249185,0.00016023441,0.00063395087,0.00036791302,-0.00040994814,0.00080789643,-0.0017462005,5.5262026e-05,0.5050208,-1.3816198,1.9042462,-2.0919268,-1.5708774,2.4800134,-0.00011471035,5.8051836e-07,0.0006428264,0.0012751388,0.00014218765,-0.0001705834,0.05746084,0.17238253,-9.002198,0.73741806,47.703903,-0.7420671,-2.7763283,-2.9228463,-0.14435112,0.16755746,-0.135697,28.6875,30.0,29.25,32.75,35.375,36.4375
0.012054275,-0.8068062,-0.18942587,-0.90356857,-0.0023439864,-0.0038899276,-0.006575377,-0.38931262,-0.3687165,0.059969205,-3.078654,0.6249002,6.426977e-05,-0.0005833275,0.0020187502,-0.0007629834,0.0019687118,-0.003838663,-0.003289696,0.50504375,-1.3815835,1.9042109,-2.0918782,-1.5708417,2.480025,-0.0040317685,0.0012577618,-0.00057191437,0.003625504,0.00014155754,-0.0007422415,0.11492168,0.11492168,-9.078813,0.75084364,47.728977,-0.92050767,-2.5902877,-2.9821677,-0.14316976,0.17294034,-0.17177399,28.6875,30.0,29.25,32.75,35.375,36.4375
0.014054157,-1.2998772,-1.1218729,-1.032781,-0.037576173,0.018561784,-0.010895819,-0.38933575,-0.36872503,0.059977915,-3.078704,0.62488824,0.00012107867,-0.0039703967,0.0044094357,-0.0050780303,0.005370826,-0.010006591,-0.00017856724,0.50502896,-1.3815793,1.9041971,-2.0919263,-1.5708297,2.4799964,-0.011228381,0.01249117,-0.0038080101,0.0026707926,0.00013896663,-0.011046757,-0.038307227,0.095768064,-9.212888,0.779936,47.691364,-0.4941619,-3.090972,-2.9766765,-0.15747254,0.17222452,-0.12573539,28.6875,30.0,29.25,32.75,35.375,36.4375
0.016053598,-1.467993,-1.1456198,-1.235046,-0.07488067,0.052230306,-0.033564888,-0.38933843,-0.368705,0.05995113,-3.07866,0.62487584,3.6932666e-05,-0.0050566643,0.0042102328,-0.0039656945,0.003964487,-0.0074699405,0.007750964,0.5049927,-1.3815317,1.9041966,-2.091903,-1.5708297,2.479958,-0.01190737,0.011500729,-0.005007333,0.0019589963,0.00013634418,-0.019654874,-0.17238253,0.17238252,-9.289503,0.78888994,47.70032,-0.6411158,-3.2407794,-3.0115125,-0.13291097,0.18809879,-0.04277195,28.6875,30.0,29.25,32.75,35.375,36.4375
0.018053563,-2.241421,-1.2748417,-1.332997,-0.07113897,0.070288114,-0.032366388,-0.38932446,-0.36868384,0.059926122,-3.0785885,0.62486,-1.1436089e-05,-0.005685869,0.004274704,-0.0028640912,0.002740703,-0.005257849,0.010427356,0.50499254,-1.3815084,1.9042205,-2.0918791,-1.5708655,2.479957,-0.012602192,0.009594748,-0.005153973,0.0014823031,0.0001338108,-0.023026288,-0.3256114,0.19153613,-9.404425,0.6725152,47.694946,-0.7402204,-2.906042,-3.1735084,-0.11401337,0.18736818,-0.014031664,28.6875,30.0,29.25,32.75,35.375,36.4375
0.020054376,-2.766332,-0.44947252,-1.5212198,-0.036039658,0.059126478,-0.062346254,-0.3893123,-0.3686877,0.059911076,-3.0786116,0.624771,-0.00011879112,-0.005627856,0.0046733203,-0.0034391445,0.0036661911,-0.0069291187,0.0075433217,0.50498027,-1.381484,1.9042205,-2.0918548,-1.5708174,2.4798863,-0.013219463,0.010706362,-0.0053945244,0.002523041,0.00013355172,-0.020759365,-0.49799395,0.15322891,-9.557653,0.83365434,47.699425,-0.92802936,-2.8946204,-3.3055356,-0.117474176,0.18546575,-0.03047293,28.6875,30.0,29.25,32.75,35.375,36.4375
0.022053994,-2.1466024,-0.218844,-1.6176158,-0.00096731173,0.066346735,-0.08449354,-0.38934103,-0.36867282,0.059904214,-3.0785968,0.6247515,-9.3757386e-05,-0.0069468813,0.00548768,-0.0031870604,0.0039192885,-0.0074581485,0.002346993,0.50494355,-1.3814476,1.9041957,-2.0918667,-1.5708417,2.4798393,-0.015845299,0.011610673,-0.0074249,0.0042343056,0.00016777395,-0.018188136,-0.5363012,0.13407528,-9.653421,0.7083204,47.691364,-0.8778293,-2.8293138,-3.4056785,-0.1422475,0.17599115,-0.08215769,28.6875,30.0,29.25,32.75,35.375,36.4375
0.024053821,-2.1713724,-0.44532892,-1.67152,0.0060641007,0.0617983,-0.09226509,-0.3893357,-0.3686645,0.059893876,-3.0785925,0.6247907,-0.0001470805,-0.008733464,0.005172221,-0.0027470137,0.0026138504,-0.006751105,-0.0003950724,0.50491905,-1.381447,1.9042186,-2.0918667,-1.5708169,2.4798398,-0.0174826,0.013572586,-0.010775071,0.004369932,0.0009609281,-0.017083053,-0.6703765,0.076614454,-9.615114,0.76874626,47.689575,-0.8429719,-2.798669,-3.3129592,-0.13736562,0.20392208,-0.10613718,28.6875,30.0,29.25,32.75,35.375,36.4375
0.026053408,-2.1978228,-0.09085188,-1.6774722,-0.018706782,0.07080556,-0.115284204,-0.38936415,-0.36865625,0.05988199,-3.0785744,0.624844,-0.00018958452,-0.009618602,0.004445494,-0.0026258097,0.0010223651,-0.005978446,-0.0008377081,0.5048711,-1.3813864,1.9041713,-2.0918548,-1.570805,2.4798274,-0.017719474,0.014951038,-0.012410093,0.0031770028,0.0019730607,-0.016878046,-0.78529817,0.05746084,-9.864111,0.74413085,47.661808,-0.89156127,-2.8067632,-3.3802605,-0.13545395,0.18010508,-0.12112935,28.6875,30.0,29.25,32.75,35.375,36.4375
0.028054424,-3.1164455,-0.55103385,-1.7784321,-0.036213838,0.07531526,-0.12623405,-0.3893547,-0.36864817,0.05986681,-3.0785344,0.6248174,-0.00030162346,-0.010457152,0.004635177,-0.0032840574,0.0010787429,-0.006785203,-0.0030811043,0.50485855,-1.3813496,1.9041461,-2.0917833,-1.5707926,2.4798033,-0.019034786,0.017196573,-0.013460661,0.0027144982,0.002309401,-0.0159499,-0.80445176,0.0,-9.844957,0.7217513,47.67614,-0.8932178,-2.822637,-3.37642,-0.118388794,0.17286271,-0.13131227,28.6875,30.0,29.25,32.75,35.375,36.4375
0.030054022,-2.9598408,-1.0609933,-1.683991,-0.040653914,0.10561521,-0.12953432,-0.38939038,-0.36863285,0.059873488,-3.0785296,0.62481743,-0.00022140061,-0.011112019,0.004791405,-0.0028995674,0.0010435405,-0.0060491064,-0.00468722,0.5048223,-1.3813376,1.9041222,-2.0918071,-1.5708293,2.4797678,-0.019705525,0.01721744,-0.014424832,0.002997321,0.0019833734,-0.0150134945,-0.7278373,0.019153614,-9.730036,0.73069996,47.67614,-0.9380306,-2.799097,-3.3379066,-0.122238964,0.164306,-0.16416681,28.6875,30.0,29.25,32.75,35.375,36.4375
0.03205355,-3.086872,-0.6835732,-1.6377732,-0.030912641,0.102924615,-0.14200318,-0.3894202,-0.3686112,0.05985358,-3.0784779,0.6249225,-0.00030653062,-0.011809897,0.005067872,-0.0029678482,0.0016141491,-0.0064892806,-0.005449121,0.5047502,-1.3812652,1.9040736,-2.0917704,-1.5708169,2.4797678,-0.020642592,0.018442351,-0.015931718,0.003941889,0.001694313,-0.015187542,-0.842759,-0.019153614,-9.864111,0.7463667,47.666286,-0.9893087,-2.8360925,-3.3871968,-0.127904,0.18295102,-0.1711772,28.6875,30.0,29.25,32.75,35.375,36.4375
0.034053758,-2.5612688,-0.3997952,-1.5579848,-0.0049448307,0.10062235,-0.15378737,-0.38943744,-0.36862224,0.059868477,-3.0785372,0.6249155,-0.00026001252,-0.01242646,0.0057215597,-0.002588498,0.0018749592,-0.006235056,-0.0057904734,0.5047378,-1.3812773,1.9040622,-2.0918062,-1.570793,2.4797435,-0.02209958,0.017975137,-0.016443314,0.004825859,0.0013445179,-0.016302416,-0.7278373,0.0,-9.787497,0.78217715,47.686886,-1.0410348,-2.715044,-3.3623953,-0.13558209,0.19159293,-0.18392307,28.6875,30.0,29.25,32.75,35.375,36.4375
0.036053643,-1.9648076,-0.46737492,-1.7825679,0.021140406,0.088315174,-0.15448797,-0.38947278,-0.36861032,0.059846275,-3.0785127,0.62496793,-0.00031398374,-0.014205918,0.0059488313,-0.0019783315,0.0008973482,-0.00443276,-0.00658656,0.5046772,-1.3811929,1.904013,-2.0918067,-1.5707811,2.4797187,-0.024130149,0.018571172,-0.018375954,0.00411241,0.0013215507,-0.017535945,-0.68953013,0.019153614,-9.730036,0.7978386,47.711964,-0.9109479,-2.7572298,-3.3402085,-0.12486723,0.1932534,-0.18750432,28.6875,30.0,29.25,32.75,35.375,36.4375
0.03805355,-1.5542015,0.31733295,-1.5876755,0.0062882565,0.06837445,-0.17862876,-0.3895033,-0.36859393,0.05984813,-3.0785146,0.6249114,-0.0003025565,-0.015704043,0.006366994,-0.0019970417,-2.3509716e-05,-0.0037067065,-0.008065082,0.5046285,-1.3811685,1.9039773,-2.0917947,-1.570793,2.4796345,-0.026514165,0.019675106,-0.019367741,0.002917605,0.001771124,-0.018441547,-0.5746084,-0.038307227,-9.768343,0.6859408,47.698532,-0.9511218,-2.774902,-3.3562632,-0.10584834,0.19075419,-0.20416626,28.6875,30.0,29.25,32.75,35.375,36.4375
0.040054172,-1.6144301,-0.160832,-1.6241055,-0.00425812,0.053626027,-0.18921138,-0.38953242,-0.36855766,0.05980661,-3.0784295,0.62506753,-0.00042947443,-0.01677075,0.006224159,-0.001319417,-0.0012493978,-0.0021958835,-0.007995967,0.50453246,-1.3810725,1.903953,-2.091771,-1.5707806,2.4796467,-0.027478976,0.019615414,-0.020729054,0.002422518,0.0021072999,-0.019475687,-0.57460845,-0.11492168,-9.691729,0.73741806,47.677036,-0.90461373,-2.7146182,-3.3794901,-0.08665615,0.18504718,-0.21681029,28.6875,30.0,29.25,32.75,35.375,36.4375
0.04205369,-1.5587798,-0.3922642,-1.518025,-0.021299638,0.053699546,-0.19486383,-0.38957357,-0.36855727,0.05982151,-3.0784497,0.62503284,-0.00034801135,-0.017747363,0.006036468,-0.0008062058,-0.002427975,-0.0012320745,-0.008443107,0.5045082,-1.3810484,1.9038934,-2.0917833,-1.5708045,2.4795983,-0.02842514,0.019929858,-0.022213804,0.0021768631,0.0026700639,-0.019974973,-0.34476504,-0.1340753,-9.768343,0.7911258,47.6636,-0.9766104,-2.7271638,-3.3109965,-0.10109157,0.18684533,-0.23020205,28.6875,30.0,29.25,32.75,35.375,36.4375
0.04405324,-1.968872,-0.51824695,-1.5945134,-0.018846942,0.045588844,-0.19663236,-0.38962755,-0.36856735,0.059855696,-3.0785177,0.6251043,-0.000257359,-0.018558804,0.0063153775,-0.0008919405,-0.002274617,-0.0017265741,-0.00827336,0.5044598,-1.381048,1.9038204,-2.0918071,-1.5707806,2.479586,-0.029715305,0.021197664,-0.023675956,0.0028783374,0.0027747764,-0.021434085,-0.17238252,-0.05746084,-9.634268,0.779936,47.692257,-1.0004015,-2.757562,-3.3579578,-0.06656599,0.18946806,-0.2382766,28.6875,30.0,29.25,32.75,35.375,36.4375
0.0460537,-0.91965497,-0.6024811,-1.6109209,-0.015938926,0.06343028,-0.18918602,-0.38965985,-0.36853606,0.05983803,-3.078461,0.6250915,-0.0002783198,-0.019679524,0.0069091376,-0.0006092614,-0.0020922145,-0.001968455,-0.008174155,0.50439924,-1.3809875,1.9037837,-2.0917828,-1.5708164,2.4795246,-0.031732094,0.021933774,-0.025506476,0.0042719725,0.0027294874,-0.023549415,-0.15322891,0.038307227,-9.653421,0.82694155,47.67614,-0.9030191,-2.646574,-3.3024006,-0.10427401,0.19315818,-0.24926159,28.6875,30.0,29.25,32.75,35.375,36.4375
0.04805342,-1.2304025,-0.94522953,-1.7224162,-0.003529356,0.027996344,-0.16606358,-0.38969702,-0.36850172,0.059828583,-3.0784245,0.625142,-0.0002955339,-0.021131923,0.007452067,1.8146899e-05,-0.0026222027,-0.0012008882,-0.008109996,0.5043145,-1.3809516,1.9037598,-2.09177,-1.5708288,2.479476,-0.03405593,0.022125617,-0.027318753,0.004963599,0.0028187598,-0.025936946,-0.095768064,0.095768064,-9.557653,0.6971306,47.69763,-0.85450643,-2.6893392,-3.295876,-0.09540561,0.18211919,-0.24836805,28.6875,30.0,29.25,32.75,35.375,36.4375
0.0500536,-0.77613527,-0.9727717,-1.574034,-0.009960834,0.023302581,-0.17316824,-0.38977993,-0.36850044,0.05987262,-3.078462,0.625225,-0.00016901316,-0.022091039,0.0075024483,0.00019562441,-0.0033410452,-0.00043365665,-0.0073479423,0.5042423,-1.3809273,1.9036282,-2.0917585,-1.5708407,2.479451,-0.0351911,0.022751175,-0.028315175,0.0043140985,0.0030757664,-0.027833773,0.0,0.19153613,-9.481039,0.76874626,47.694946,-0.8445504,-2.701335,-3.2752745,-0.08546935,0.17768314,-0.25203073,28.6875,30.0,29.25,32.75,35.375,36.4375
0.05205413,-0.8561319,-1.1611811,-1.5935276,-0.020581232,0.014014457,-0.1672635,-0.38979954,-0.3684818,0.059849318,-3.0784545,0.6252054,-0.00027890044,-0.022861935,0.008124283,-0.0002718762,-0.003603709,-0.0010115715,-0.0075246254,0.5041697,-1.3808668,1.9036044,-2.0917346,-1.570804,2.479367,-0.037271284,0.023757659,-0.028295612,0.003666358,0.0035812466,-0.02973815,0.038307227,0.19153613,-9.461885,0.7016076,47.698532,-0.834761,-2.721133,-3.3086185,-0.06385834,0.19884974,-0.23755008,28.6875,30.0,29.25,32.75,35.375,36.4375
0.054053918,-0.58110034,-1.338005,-1.6162502,-0.028845116,0.018045366,-0.16568306,-0.3898609,-0.3684613,0.059873458,-3.0784614,0.62528354,-0.00020906911,-0.023796873,0.008527567,-0.00043361128,-0.0042098626,-0.0013004576,-0.0084943725,0.5040853,-1.3808546,1.9035324,-2.0917232,-1.5708159,2.4793305,-0.039236084,0.02471598,-0.028991576,0.0033615567,0.00425055,-0.030733733,-0.019153614,0.19153613,-9.423578,0.8247004,47.73077,-0.7869997,-2.6619015,-3.3795033,-0.059090346,0.17540362,-0.26624873,28.6875,30.0,29.25,32.75,35.375,36.4375
0.05605417,-0.75179124,-1.1739441,-1.4884653,-0.039904654,0.021242585,-0.16577733,-0.38989156,-0.36843926,0.059825446,-3.078448,0.6252988,-0.0003434524,-0.024458053,0.0074889124,0.0006401007,-0.0053619244,-0.00016616618,-0.0066752923,0.50398976,-1.3807464,1.903519,-2.0917466,-1.5707682,2.4792461,-0.038386334,0.025068458,-0.032136347,0.004604373,0.004705188,-0.03170299,-0.038307227,0.24899697,-9.481039,0.8179876,47.70211,-0.8314901,-2.6388843,-3.2933364,-0.07993061,0.17383903,-0.2741281,28.6875,30.0,29.25,32.75,35.375,36.4375
0.058053795,-0.620538,-0.78451174,-1.4054039,-0.035594117,0.02867209,-0.17184126,-0.38995805,-0.3684208,0.059844464,-3.0784853,0.625363,-0.00031184766,-0.02534414,0.007769444,0.00096612505,-0.00605916,-0.000308307,-0.0069471514,0.50388145,-1.3807222,1.903447,-2.091746,-1.5707439,2.4791732,-0.04010329,0.02542993,-0.03348035,0.0053734626,0.005384595,-0.033148546,0.019153614,0.24899697,-9.461885,0.7553206,47.70211,-0.87920666,-2.605844,-3.2747033,-0.07095221,0.17934114,-0.28206962,28.6875,30.0,29.25,32.75,35.375,36.4375
0.060054228,-0.6803125,-1.0511036,-1.375426,-0.015086088,0.03233618,-0.16524804,-0.39002153,-0.3684022,0.059857126,-3.0784497,0.62539494,-0.00024924264,-0.02634671,0.008551779,0.0009187716,-0.0060901297,-0.0007286253,-0.008171097,0.50382066,-1.380662,1.9033388,-2.0917099,-1.5707916,2.479137,-0.04249379,0.026081532,-0.034250937,0.0058433893,0.0056142737,-0.034315076,0.019153614,0.24899697,-9.519346,0.73741806,47.68062,-0.79188746,-2.5673347,-3.2416978,-0.09078234,0.15400328,-0.28546816,28.6875,30.0,29.25,32.75,35.375,36.4375
0.062054154,-0.9407606,-0.74438536,-1.228048,-0.031026863,0.028988654,-0.16437821,-0.39003965,-0.3684129,0.059869632,-3.0785213,0.6253136,-0.00029557565,-0.027234668,0.008766565,0.00097477064,-0.006473566,-0.00026164885,-0.0080210185,0.50378424,-1.3806498,1.9032906,-2.0916865,-1.5707315,2.4790406,-0.043748572,0.026761267,-0.035081964,0.005402442,0.005721924,-0.035719562,-0.019153614,0.2681506,-9.519346,0.7396539,47.68599,-0.7650188,-2.5749364,-3.3000298,-0.08368711,0.15963343,-0.30439356,28.6875,30.0,29.25,32.75,35.375,36.4375
0.0640537,-1.2121906,-1.0190636,-1.2266948,-0.02542713,0.033563975,-0.15756652,-0.3901085,-0.36841717,0.059889123,-3.0785844,0.625326,-0.00023491295,-0.028151914,0.008942073,0.0010974378,-0.0064333016,0.00054889667,-0.007853975,0.5037123,-1.3806013,1.9031943,-2.0917099,-1.5707077,2.4789684,-0.04462631,0.02751,-0.0361675,0.0050516357,0.005294773,-0.036762625,-0.15322891,0.24899697,-9.442732,0.7777002,47.67345,-0.80800307,-2.5028515,-3.2903776,-0.07338318,0.15343839,-0.31622964,28.6875,30.0,29.25,32.75,35.375,36.4375
0.06605378,-1.7278975,-1.1352272,-1.2284405,-0.01729713,0.040688984,-0.1577075,-0.39019105,-0.3683914,0.05989997,-3.0785923,0.6254039,-0.00019245497,-0.02944575,0.0092225745,0.0015139313,-0.0068848524,0.0014126715,-0.008729986,0.5035919,-1.3805411,1.9030985,-2.0917099,-1.5707077,2.4788957,-0.046282277,0.028109504,-0.03785015,0.0051610605,0.005271627,-0.037541587,-0.2681506,0.21068975,-9.404425,0.78888994,47.690468,-0.844115,-2.5816884,-3.2941394,-0.072615325,0.16569644,-0.33843726,28.6875,30.0,29.25,32.75,35.375,36.4375
0.06805369,-1.35057,-0.818085,-1.2166326,-0.009198726,0.05656905,-0.16299844,-0.39024955,-0.36834612,0.05989774,-3.0785508,0.62539405,-0.00018373219,-0.0304006,0.009430019,0.0016531404,-0.007096506,0.0015830742,-0.006970175,0.5034837,-1.3804928,1.9030384,-2.0916746,-1.5707439,2.4787867,-0.047578588,0.02900958,-0.039299954,0.0054581203,0.005371357,-0.0405973,-0.24899697,0.17238252,-9.404425,0.7351769,47.66987,-0.8193857,-2.494536,-3.2620907,-0.07226911,0.16964054,-0.32527006,28.6875,30.0,29.25,32.75,35.375,36.4375
0.070054255,-0.40904707,-0.55990195,-1.0591726,-0.0061243693,0.089198455,-0.1600351,-0.39029154,-0.36836225,0.059890717,-3.0786073,0.6254823,-0.0002829308,-0.03058637,0.009397761,0.0014164725,-0.0073097674,0.00056031306,-0.0062942766,0.5034116,-1.3804083,1.9029545,-2.0916746,-1.5706476,2.4787624,-0.048116017,0.0299915,-0.040052783,0.0060239034,0.006051316,-0.041811366,-0.38307226,0.095768064,-9.270349,0.7911258,47.68599,-0.832072,-2.525603,-3.2675228,-0.07070819,0.14077954,-0.34397948,28.6875,30.0,29.25,32.75,35.375,36.4375
0.07205411,-1.7098051,-0.25781175,-1.0781881,-0.00690212,0.06085328,-0.15476187,-0.3903647,-0.36834103,0.05990657,-3.0786245,0.6254673,-0.00022872063,-0.0323453,0.010087566,0.001797664,-0.00737387,0.001921126,-0.009077796,0.5033151,-1.3803601,1.9028586,-2.0916622,-1.5706595,2.4786544,-0.0505324,0.03072403,-0.041723255,0.005741164,0.0054487213,-0.04144221,-0.38307226,0.095768064,-9.385271,0.78217715,47.661808,-0.83962536,-2.4838197,-3.2437959,-0.065423466,0.14633507,-0.36193502,28.6875,30.0,29.25,32.75,35.375,36.4375
0.07405389,-1.4948527,0.40845874,-1.0493901,-0.015798055,0.07447612,-0.16530848,-0.3904161,-0.36829594,0.059881322,-3.0785534,0.6255287,-0.00027632157,-0.0333034,0.011047173,0.0011972404,-0.0063930037,0.001078023,-0.008358763,0.50320643,-1.3802754,1.9028105,-2.0916383,-1.5706838,2.478593,-0.052750442,0.032341592,-0.04231525,0.005928506,0.0049925847,-0.044378374,-0.51714754,0.05746084,-9.346964,0.7486078,47.687782,-0.7132175,-2.4890115,-3.2704053,-0.0699926,0.14534286,-0.38091853,28.6875,30.0,29.25,32.75,35.375,36.4375
0.076054186,-1.6133977,0.09861487,-1.0858103,-0.0034209688,0.07828166,-0.17416203,-0.3904993,-0.36827105,0.059898335,-3.0785728,0.62558734,-0.00021913619,-0.03341044,0.010096017,0.0015799464,-0.006561055,0.001934119,-0.003754258,0.50308734,-1.3802271,1.9027146,-2.0916383,-1.5706843,2.4785082,-0.05107401,0.03307175,-0.04410215,0.0061558117,0.004725781,-0.047304954,-0.51714754,0.095768064,-9.32781,0.7530795,47.681515,-0.92821205,-2.4995983,-3.2295947,-0.07283992,0.17133696,-0.35988742,28.6875,30.0,29.25,32.75,35.375,36.4375
0.07805378,-1.321084,-0.20424408,-1.0189404,0.0030565255,0.08883109,-0.15269393,-0.3905651,-0.36825624,0.059889134,-3.0785992,0.6255536,-0.00027179567,-0.03466279,0.011015166,0.0016536193,-0.006580318,0.0018545388,-0.0017762211,0.5029785,-1.3801308,1.9026188,-2.091626,-1.5706481,2.478375,-0.05381153,0.033637464,-0.0450405,0.0065911678,0.004779028,-0.052020244,-0.51714754,0.019153614,-9.385271,0.7172743,47.674347,-0.83819366,-2.509141,-3.2518487,-0.06385732,0.14578792,-0.34541306,28.6875,30.0,29.25,32.75,35.375,36.4375
0.08005435,-1.728858,0.002326038,-1.1038991,-8.539084e-05,0.075614974,-0.16259956,-0.39061543,-0.36824736,0.059886128,-3.078615,0.62557566,-0.00032339105,-0.03578141,0.011467757,0.0018892912,-0.0075528985,0.0017636229,-0.002772547,0.50289404,-1.3800585,1.9025348,-2.091602,-1.5706118,2.4783022,-0.05616493,0.034086462,-0.04617767,0.00688939,0.005672738,-0.05337837,-0.47884035,-0.076614454,-9.404425,0.73069996,47.670765,-0.7625158,-2.4491632,-3.2542195,-0.07185436,0.14760649,-0.2979868,28.6875,30.0,29.25,32.75,35.375,36.4375
0.08205389,-0.878718,0.31801304,-0.9931142,-0.009551298,0.08723765,-0.17307244,-0.3907289,-0.36822867,0.05992195,3.0786707,-0.62560606,0.00023599871,-0.036612898,0.012257628,0.0011944006,-0.006894072,0.00081227,-0.0036326132,0.5027495,-1.379998,1.9023789,-2.0915902,-1.5705999,2.4781697,-0.05818206,0.03578748,-0.046575762,0.006739563,0.0055576763,-0.054534335,-0.5554548,-0.019153614,-9.3661175,0.7351769,47.650166,-0.70933735,-2.468334,-3.3158798,-0.07091522,0.14545527,-0.32646567,28.6875,30.0,29.25,32.75,35.375,36.4375
0.084053576,-1.6119536,-0.20830363,-1.0960642,-0.007044379,0.07444906,-0.15264496,-0.3907694,-0.36819294,0.059908055,-3.0786445,0.62550014,-0.0002699035,-0.036500312,0.01110104,0.0011783136,-0.0068569765,0.0011676294,0.0028605508,0.50266653,-1.3799374,1.9023308,-2.091554,-1.5706238,2.478024,-0.05599622,0.037265368,-0.04827286,0.0066655017,0.005347087,-0.05884066,-0.38307226,-0.17238252,-9.270349,0.76874626,47.664497,-0.9962492,-2.5154579,-3.3468966,-0.06898932,0.15195313,-0.27988732,28.6875,30.0,29.25,32.75,35.375,36.4375
0.08605394,-1.3585879,-0.25748044,-1.0209298,-0.0066056787,0.081990674,-0.16029777,-0.3908422,-0.3681819,0.059909657,3.0786896,-0.6255088,0.00026429468,-0.03877426,0.011594479,0.0020421094,-0.007507484,0.0032890786,0.0041849846,0.50255793,-1.3798649,1.9022468,-2.0915778,-1.570588,2.477915,-0.058647454,0.037964426,-0.051046122,0.006572053,0.004891093,-0.06281417,-0.34476504,-0.076614454,-9.289502,0.8157518,47.684196,-0.8937832,-2.5161276,-3.1113355,-0.07851901,0.13249604,-0.25988102,28.6875,30.0,29.25,32.75,35.375,36.4375
0.08805368,-1.7107302,-0.0701895,-1.287749,-0.004959787,0.07355107,-0.16002354,-0.39092693,-0.36815017,0.05989944,-3.078679,0.6255432,-0.00027916787,-0.038143225,0.012906366,0.00050690095,-0.0055033057,2.0769852e-05,0.006067256,0.5024256,-1.3797565,1.9021391,-2.0915663,-1.570588,2.4778056,-0.060146283,0.03909336,-0.049053647,0.007281867,0.0047140764,-0.066195756,-0.2873042,-0.076614454,-9.423578,0.75755644,47.67614,-0.87410116,-2.5724306,-3.3118973,-0.0640557,0.12615608,-0.19348432,28.6875,30.0,29.25,32.75,35.375,36.4375
0.090054184,-1.2060877,-0.6436309,-1.2117842,0.0047972323,0.0747275,-0.15268615,-0.39103994,-0.3681166,0.059929464,3.0786767,-0.62548363,0.0001167393,-0.038918767,0.01268202,0.00066837604,-0.0059239254,0.00018379516,0.007958163,0.50229377,-1.3797082,1.9020189,-2.0915897,-1.5706357,2.477637,-0.060659092,0.040253475,-0.05086314,0.0075824237,0.005007574,-0.06859858,-0.30645782,0.019153614,-9.519346,0.78217715,47.67345,-0.87985843,-2.4741378,-3.3964524,-0.078061886,0.14211445,-0.19431409,28.6875,30.0,29.25,32.75,35.375,36.4375
0.09205401,-1.0931706,-0.5567931,-1.1384072,-0.008156761,0.06751135,-0.16074328,-0.39107367,-0.36809057,0.05989353,3.0786953,-0.6254668,0.000319478,-0.04005182,0.012609597,0.0006595473,-0.0066071902,0.00028174458,0.008994419,0.50217366,-1.3795992,1.9019583,-2.09153,-1.5705637,2.477504,-0.061921224,0.04188274,-0.052737642,0.0074168053,0.0055474574,-0.07089736,-0.34476504,0.019153614,-9.423578,0.77545905,47.66271,-0.95522404,-2.626809,-3.2616973,-0.06474511,0.14115325,-0.13433391,28.6875,30.0,29.25,32.75,35.375,36.4375
0.09405365,-1.0535666,-0.27924618,-1.3869648,-0.01751294,0.0562866,-0.16391586,-0.3911905,-0.36805364,0.059918255,3.07866,-0.6255351,0.00022328958,-0.04154624,0.01210137,0.0019198038,-0.007957686,0.0026647213,0.010258446,0.5020178,-1.3795273,1.9018143,-2.0915182,-1.5705875,2.4773953,-0.062460594,0.041948196,-0.055726327,0.007600506,0.005583198,-0.072699286,-0.2681506,0.11492168,-9.346964,0.7866488,47.689575,-1.047778,-2.4848657,-3.1486895,-0.08250051,0.14213362,-0.11377643,28.6875,30.0,29.25,32.75,35.375,36.4375
0.09605401,-0.6065903,-0.38435596,-1.4184525,-0.023113627,0.061780937,-0.159721,-0.39125347,-0.36803564,0.059911128,3.0786939,-0.62540805,0.00026738638,-0.04108635,0.013298944,0.0005143143,-0.0059131086,-0.00015120921,0.009308875,0.50192153,-1.3794308,1.901708,-2.091482,-1.5705756,2.4772155,-0.06376879,0.043194573,-0.054151125,0.008234276,0.005149101,-0.07305788,-0.22984336,0.24899697,-9.385271,0.76874626,47.694946,-1.0132873,-2.5876172,-3.2929852,-0.07760795,0.137741,-0.067197666,28.6875,30.0,29.25,32.75,35.375,36.4375
0.09805386,-0.86407244,-1.1427833,-1.5587206,-0.018365836,0.049274173,-0.14708279,-0.39133066,-0.36800423,0.059895635,3.0786967,-0.62542754,0.0003091805,-0.041879267,0.013300569,0.0004083587,-0.0057940325,0.00024503956,0.0083224205,0.5017895,-1.3793223,1.9016122,-2.09147,-1.5705637,2.4770954,-0.0643099,0.04450674,-0.05538437,0.007867845,0.004849185,-0.07261145,-0.17238252,0.19153613,-9.289502,0.7642693,47.71017,-1.0085223,-2.5365698,-3.3585024,-0.1006594,0.15130761,-0.081300795,28.6875,30.0,29.25,32.75,35.375,36.4375
0.100053824,-1.2676826,-1.4466076,-1.5671577,-0.031082178,0.038512874,-0.1520413,-0.39143366,-0.36796096,0.05991107,3.0786693,-0.62544185,0.0002641186,-0.043394405,0.013421768,0.00097360555,-0.006560529,0.001849407,0.0061047133,0.50162137,-1.3792619,1.901503,-2.0914586,-1.5705642,2.4769397,-0.06584164,0.045089558,-0.057251174,0.007377633,0.0047478676,-0.07192425,-0.19153613,0.21068975,-9.346964,0.7978386,47.733456,-1.0377609,-2.6191878,-3.2720246,-0.09932388,0.1547786,-0.0743461,28.6875,30.0,29.25,32.75,35.375,36.4375
0.10205371,-1.4789529,-1.5700231,-1.6580486,-0.031224009,0.028961157,-0.14514971,-0.3915254,-0.36794204,0.05991996,3.078632,-0.62541527,0.00024637286,-0.04447142,0.013603585,0.0012383496,-0.007203852,0.0022917045,0.0036931436,0.5014892,-1.3791778,1.9013833,-2.0914586,-1.5705398,2.4767957,-0.067351505,0.04577877,-0.058682904,0.0074240193,0.0050995895,-0.07102224,-0.019153614,0.28730422,-9.423578,0.7732232,47.716442,-1.0903108,-2.4747906,-3.2836466,-0.09306088,0.14101021,-0.07604393,28.6875,30.0,29.25,32.75,35.375,36.4375
0.104054086,-0.77124965,-0.89204305,-1.6153772,-0.04545497,0.040646903,-0.1643168,-0.39162078,-0.36792162,0.059933178,3.0786433,-0.6253032,0.00016795036,-0.044652894,0.013980313,-3.4048837e-05,-0.005962418,-0.00023873903,0.0013589113,0.50138116,-1.3790926,1.9012522,-2.091458,-1.5705637,2.4766164,-0.068222895,0.04868594,-0.059366774,0.008014601,0.0052309176,-0.069558695,-0.019153614,0.2681506,-9.461885,0.79560274,47.688675,-1.134875,-2.5955386,-3.3376164,-0.09788779,0.16228399,-0.09715694,28.6875,30.0,29.25,32.75,35.375,36.4375
0.10605375,-0.27071524,-0.7694538,-1.7554708,-0.045732893,0.036373712,-0.162341,-0.39170954,-0.36789986,0.05992272,3.0785828,-0.62540704,0.00024302394,-0.04618032,0.014234507,0.001083472,-0.007418168,0.001876746,-0.002544013,0.5012248,-1.3789729,1.9011315,-2.0914457,-1.5705036,2.4765325,-0.07020974,0.047887094,-0.06092451,0.007820138,0.005486937,-0.067642555,0.038307227,0.22984336,-9.461885,0.8023209,47.695843,-1.107318,-2.6187115,-3.268428,-0.10350381,0.14744118,-0.12891296,28.6875,30.0,29.25,32.75,35.375,36.4375
0.10805361,-0.34983099,-0.85214716,-1.4472873,-0.042998616,0.033686426,-0.16009048,-0.39179656,-0.36784,0.059902556,3.078669,-0.6254072,0.00025426157,-0.047136527,0.014155179,0.0015711377,-0.008301445,0.0031046863,-0.0047852737,0.50108075,-1.3788526,1.9010242,-2.0913985,-1.5705637,2.4763777,-0.07106034,0.04807084,-0.06215308,0.007359577,0.005664825,-0.06625194,-0.019153614,0.3256114,-9.481039,0.7911258,47.703903,-1.0372682,-2.347476,-3.273641,-0.10056467,0.17566124,-0.16531253,28.6875,30.0,29.25,32.75,35.375,36.4375
0.1100541,-0.8841683,-1.0434414,-1.645123,-0.03816471,0.022013258,-0.15378635,-0.39190665,-0.3678283,0.059920203,3.0785928,-0.6253723,0.0001914998,-0.047919083,0.014636781,0.0012003117,-0.008269159,0.0021039306,-0.00725531,0.50093645,-1.3787681,1.9008921,-2.0914342,-1.5705274,2.4762213,-0.072862096,0.0495148,-0.06311592,0.00777322,0.006122472,-0.0655833,-0.076614454,0.28730422,-9.500193,0.8224646,47.683304,-1.1058896,-2.5768888,-3.2820354,-0.095620416,0.16120481,-0.18421271,28.6875,30.0,29.25,32.75,35.375,36.4375
0.11205392,-0.62697226,-0.6011408,-1.5661801,-0.044972505,0.027975097,-0.1575714,-0.39198136,-0.36778668,0.059909124,3.0786364,-0.6254014,0.00025290536,-0.048436902,0.014666004,0.00035133612,-0.0077080377,0.00093766535,-0.008553069,0.50080454,-1.3786591,1.900772,-2.0913618,-1.5705394,2.476102,-0.073418215,0.05210836,-0.06421508,0.0075709773,0.006184158,-0.06484127,-0.05746084,0.3256114,-9.500193,0.78888994,47.71286,-1.0852945,-2.5218787,-3.3085666,-0.10766786,0.15567277,-0.22887456,28.6875,30.0,29.25,32.75,35.375,36.4375
0.114053816,-0.846955,-0.8206153,-1.464822,-0.04493533,0.03848207,-0.15209763,-0.39208958,-0.367757,0.059912812,3.0785625,-0.62546235,0.0002588469,-0.0491848,0.014758467,0.00037825407,-0.008663581,0.00082608045,-0.009971159,0.50062436,-1.3785627,1.9006523,-2.0913746,-1.5704912,2.4759693,-0.074802175,0.052798096,-0.06504836,0.007354768,0.007076825,-0.06480781,-0.076614454,0.24899697,-9.404425,0.800085,47.7254,-1.1629611,-2.68091,-3.2977715,-0.10739581,0.1459187,-0.24276775,28.6875,30.0,29.25,32.75,35.375,36.4375
0.11605407,-1.4663883,-1.0193049,-1.3428748,-0.028216988,0.033940252,-0.14882876,-0.39217964,-0.36774468,0.05991556,3.0785513,-0.6254205,0.00028401703,-0.050058216,0.013944309,0.0021371047,-0.011021109,0.0037255052,-0.007470771,0.50050473,-1.3784432,1.9004964,-2.0913384,-1.5704664,2.475825,-0.07464267,0.051050305,-0.06698799,0.007367663,0.0077501447,-0.06714922,-0.11492168,0.19153613,-9.3661175,0.7911258,47.666286,-1.1677847,-2.3927603,-3.3217313,-0.09631352,0.13702743,-0.25318918,28.6875,30.0,29.25,32.75,35.375,36.4375
0.11805392,-0.9057212,-0.5770431,-1.4487857,-0.019705834,0.050739095,-0.15606195,-0.3922744,-0.3677238,0.059915807,3.0785131,-0.62543404,0.00030695533,-0.051472507,0.015473452,0.0013203889,-0.010371958,0.0017622254,-0.013453566,0.5003596,-1.3783345,1.9003643,-2.0913265,-1.5704306,2.4756932,-0.07873952,0.05314998,-0.06778888,0.008104577,0.0081244605,-0.065263174,-0.15322891,0.24899697,-9.404425,0.78217715,47.690468,-1.1466211,-2.497236,-3.3196578,-0.10671015,0.143206,-0.29735482,28.6875,30.0,29.25,32.75,35.375,36.4375
0.12005458,-0.9957945,-0.4074536,-1.4890978,-0.018270694,0.051134065,-0.14095959,-0.3923817,-0.36770305,0.05991277,3.078521,-0.6254536,0.00027027357,-0.05115217,0.014565462,0.0010490058,-0.010366163,0.0012612508,-0.01179002,0.5002405,-1.3781897,1.9001969,-2.091314,-1.570455,2.4755855,-0.07704414,0.05457373,-0.068892665,0.008225529,0.008358982,-0.065230966,-0.076614454,0.1340753,-9.3661175,0.7777002,47.694946,-1.2892315,-2.5077615,-3.346188,-0.1137518,0.1507024,-0.34648287,28.6875,30.0,29.25,32.75,35.375,36.4375
0.12205427,-0.86236584,-0.57443196,-1.3913891,-0.008574244,0.06032529,-0.13141762,-0.39251027,-0.36766496,0.059937492,3.0784063,-0.625543,0.0002712868,-0.052366957,0.014919592,0.0011566892,-0.010793434,0.0017690061,-0.010174065,0.5000124,-1.3781174,1.9000524,-2.0913026,-1.5703825,2.4754276,-0.07882029,0.055502005,-0.07017391,0.007935331,0.0084925145,-0.068622075,-0.17238252,0.13407528,-9.385271,0.7553206,47.63315,-1.3068857,-2.472859,-3.3012466,-0.10690236,0.14240524,-0.35749692,28.6875,30.0,29.25,32.75,35.375,36.4375
0.12405412,-0.7953467,-0.5277507,-1.5393139,-0.0017809136,0.06795605,-0.14355229,-0.3925852,-0.36764145,0.059920948,3.0784316,-0.6254952,0.00030149246,-0.05505182,0.015339246,0.0020849903,-0.01272083,0.0039320993,-0.01653629,0.49990326,-1.3779969,1.8999447,-2.0912907,-1.570382,2.4752855,-0.08239521,0.056342587,-0.07312596,0.007222238,0.009138082,-0.065834545,-0.24899697,0.05746084,-9.442732,0.8224646,47.686886,-1.1286558,-2.487098,-3.3068728,-0.118686765,0.12509495,-0.4072066,28.6875,30.0,29.25,32.75,35.375,36.4375
0.12605344,-1.2784199,-0.17887881,-1.4291703,-0.006107094,0.06610762,-0.14817044,-0.3927102,-0.3675983,0.05993046,3.0783815,-0.62557715,0.00029803504,-0.054553986,0.014744824,0.0017629978,-0.01206124,0.0032054307,-0.014087863,0.49970055,-1.3778887,1.8997892,-2.0912664,-1.5703586,2.4751403,-0.08076921,0.057451,-0.07383979,0.007786081,0.008910557,-0.066656046,-0.3256114,0.05746084,-9.404425,0.74413085,47.701214,-1.3714368,-2.4133005,-3.178648,-0.12228242,0.1152868,-0.44935006,28.6875,30.0,29.25,32.75,35.375,36.4375
0.12805423,-1.2367831,-0.61878854,-1.4263706,-0.004212621,0.079434484,-0.14739038,-0.39280215,-0.3675515,0.059927117,3.0783832,-0.62561536,0.00028784756,-0.05498703,0.015630893,0.00056539656,-0.011226602,0.00051487185,-0.012948663,0.49954405,-1.3778036,1.8996934,-2.0912545,-1.5703701,2.4750075,-0.08299042,0.059798855,-0.07404197,0.008401726,0.009469166,-0.07001688,-0.36391866,0.019153614,-9.385271,0.7105615,47.690468,-1.3055555,-2.641285,-3.3272052,-0.11854271,0.10251306,-0.47700706,28.6875,30.0,29.25,32.75,35.375,36.4375
0.13005348,-0.83282125,-0.1940422,-1.3589467,-0.009400604,0.106700286,-0.15302627,-0.39293653,-0.36754987,0.05994089,3.0783062,-0.6256171,0.00026491395,-0.058049683,0.015703548,0.0030664045,-0.01320216,0.0051914793,-0.012226013,0.49938744,-1.3776479,1.8994774,-2.091254,-1.5703224,2.4748619,-0.08559458,0.058769383,-0.07865336,0.008999035,0.008960637,-0.073340826,-0.38307226,0.0,-9.423578,0.75084364,47.709274,-1.2929423,-2.4169612,-3.1762667,-0.119485065,0.0819021,-0.4809053,28.6875,30.0,29.25,32.75,35.375,36.4375
0.1320543,-1.386382,-0.2926262,-1.4999824,-0.0005435309,0.098162405,-0.15183818,-0.3930384,-0.36750326,0.05991774,3.0783324,-0.6256386,0.00035038087,-0.058167815,0.016518611,0.002503147,-0.0123110395,0.004349575,-0.008090829,0.49920756,-1.3774915,1.8993338,-2.0912058,-1.5703105,2.474692,-0.08681616,0.059180845,-0.07786224,0.008968252,0.008580652,-0.07869787,-0.45968673,0.076614454,-9.442732,0.75755644,47.68062,-1.3679972,-2.4475331,-3.1619425,-0.12325509,0.09865542,-0.4581675,28.6875,30.0,29.25,32.75,35.375,36.4375
0.13405398,-1.905644,-0.82618093,-1.7101822,0.0009915926,0.09884625,-0.14263797,-0.39313796,-0.36748526,0.059931837,3.0782993,-0.62559044,0.00035985766,-0.058477245,0.017205453,0.0005973572,-0.010290564,0.0007109429,-0.0032846946,0.49906316,-1.3773938,1.8991779,-2.09117,-1.5702747,2.4745219,-0.08821948,0.06342143,-0.07874167,0.009775803,0.008551581,-0.08490615,-0.5363012,-0.019153614,-9.595961,0.7732232,47.67166,-1.2161746,-2.526726,-3.248773,-0.14915152,0.11008719,-0.40113068,28.6875,30.0,29.25,32.75,35.375,36.4375
0.13605352,-1.6269164,-0.5906263,-1.4934413,-0.024548205,0.11331924,-0.1562334,-0.3932806,-0.36744973,0.059945595,3.0782542,-0.62557787,0.00027382481,-0.059056684,0.01672923,0.0020999797,-0.011766797,0.0027970108,0.0013648284,0.49887183,-1.3772744,1.8990105,-2.091194,-1.5702747,2.4743285,-0.08811118,0.061736852,-0.080337465,0.0105206,0.008855872,-0.08944689,-0.61291564,0.05746084,-9.557653,0.80679786,47.661808,-1.4255779,-2.487409,-3.1989136,-0.15528263,0.09931064,-0.3952608,28.6875,30.0,29.25,32.75,35.375,36.4375
0.13805434,-2.874997,-0.9459157,-1.5451062,-0.017497182,0.08549634,-0.1451788,-0.39339635,-0.36739793,0.05993424,3.0782812,-0.62556106,0.000317151,-0.061912447,0.01873225,0.0024185698,-0.012304529,0.0038830207,0.0049427,0.49867797,-1.3771303,1.8988546,-2.0911462,-1.5702747,2.4741209,-0.09405361,0.062281273,-0.081607185,0.010041013,0.0088041015,-0.09896682,-0.51714754,0.019153614,-9.500193,0.7597976,47.709274,-1.1870713,-2.3663676,-3.274302,-0.1641067,0.08066453,-0.31593823,28.6875,30.0,29.25,32.75,35.375,36.4375
0.14005403,-2.0901241,-0.52297974,-1.5850238,-0.019301254,0.09566138,-0.14256085,-0.39351037,-0.36735123,0.05992789,3.0782769,-0.6255385,0.00033087708,-0.061782695,0.018439442,0.0015507236,-0.011288442,0.0027203378,0.008411626,0.4984869,-1.3770093,1.898723,-2.0911343,-1.5702628,2.4739163,-0.093208134,0.06454234,-0.08231107,0.009996123,0.008467795,-0.101589195,-0.57460845,-0.038307227,-9.595961,0.83589023,47.67345,-1.3585515,-2.486373,-3.306417,-0.1671453,0.08162749,-0.2541433,28.6875,30.0,29.25,32.75,35.375,36.4375
0.14205377,-1.8370314,-0.4132694,-1.5880709,-0.02657303,0.10025477,-0.15134996,-0.3936405,-0.36732814,0.059932023,3.0782306,-0.6255092,0.00032445544,-0.064219214,0.0197841,0.002265133,-0.012143749,0.004434969,0.007767882,0.49830568,-1.3768653,1.8985428,-2.0911343,-1.5702266,2.4737227,-0.09764035,0.06451509,-0.08382937,0.009634103,0.008401011,-0.10537666,-0.61291564,0.038307227,-9.576807,0.7553206,47.67345,-1.2264609,-2.3862731,-3.2773814,-0.17574942,0.09957662,-0.22428453,28.6875,30.0,29.25,32.75,35.375,36.4375
0.14405432,-1.7644562,-0.55193406,-1.3812637,-0.009842384,0.093987375,-0.14433427,-0.39377558,-0.3672894,0.05993696,3.0782022,-0.6255218,0.00033630864,-0.0656035,0.020857994,0.002226965,-0.01207195,0.0046887887,0.0073701157,0.4981013,-1.3767207,1.898352,-2.0910985,-1.5702027,2.4735298,-0.10057439,0.065138474,-0.084447496,0.009446405,0.008218311,-0.107912265,-0.6895301,-0.038307227,-9.3661175,0.7665104,47.66271,-1.0950208,-2.4284754,-3.2620752,-0.1667178,0.09561317,-0.17006895,28.6875,30.0,29.25,32.75,35.375,36.4375
0.1460537,-1.6338346,-0.7668039,-1.6896362,0.0137440665,0.089195654,-0.13324663,-0.39392447,-0.36722603,0.05994989,3.0782197,-0.6254491,0.0002832325,-0.068342924,0.021199856,0.0034380718,-0.013245573,0.007174614,0.004180169,0.4978726,-1.3766003,1.8981718,-2.0910628,-1.5702266,2.4732537,-0.10353537,0.06605981,-0.08835594,0.009688832,0.008059201,-0.10768123,-0.49799395,-0.038307227,-9.481039,0.8247004,47.682407,-1.0229656,-2.4012852,-3.2077527,-0.16444162,0.08920937,-0.13110274,28.6875,30.0,29.25,32.75,35.375,36.4375
0.14805414,-1.316008,0.12671088,-1.5173624,-0.015077063,0.08750472,-0.15680604,-0.39405102,-0.36717373,0.059930515,3.0782123,-0.62544954,0.00027082406,-0.06856931,0.022717487,0.002013833,-0.011586282,0.004959131,-0.0006354355,0.4976682,-1.3764558,1.8980526,-2.0910985,-1.5702266,2.4730506,-0.106019914,0.06756529,-0.08685118,0.009419486,0.0076647466,-0.105349936,-0.57460845,-0.019153614,-9.576807,0.76874626,47.684196,-0.9338542,-2.3154187,-3.2601852,-0.18547203,0.09904495,-0.1681242,28.6875,30.0,29.25,32.75,35.375,36.4375
0.1500537,-1.4230032,-0.5161079,-1.633247,-0.0012142736,0.08900941,-0.13795729,-0.39420015,-0.36715582,0.059953503,3.0781333,-0.6254945,0.00028951833,-0.06998706,0.022426374,0.002863762,-0.013653463,0.006431155,-0.0063889273,0.49746394,-1.3762995,1.8978013,-2.0910385,-1.570167,2.4728844,-0.10748585,0.06778123,-0.08896094,0.009034748,0.008778191,-0.10106263,-0.7278373,-0.05746084,-9.423578,0.8537928,47.72002,-0.8503777,-2.3329866,-3.3427062,-0.16766056,0.08357401,-0.19009727,28.6875,30.0,29.25,32.75,35.375,36.4375
0.15205328,-1.4224757,-0.32932544,-1.6800563,-0.001189192,0.088014364,-0.14681359,-0.3943482,-0.36711,0.059960525,3.0780993,-0.6254897,0.0002849388,-0.071353376,0.022866733,0.003383773,-0.013703006,0.007091327,-0.012344901,0.49723577,-1.3761551,1.8976086,-2.0910146,-1.5701426,2.4726577,-0.10927528,0.06842937,-0.09112922,0.009954196,0.008508492,-0.09689469,-0.6703765,-0.05746084,-9.385271,0.82022345,47.688675,-0.9452514,-2.2137358,-3.0740783,-0.17660496,0.08782473,-0.23921774,28.6875,30.0,29.25,32.75,35.375,36.4375
0.15405384,-0.7389115,0.4373244,-1.4942719,-0.007887939,0.11187709,-0.15964414,-0.39450508,-0.3670558,0.059982326,3.0780528,-0.6255383,0.00018950932,-0.07152464,0.02350959,0.0025521554,-0.012819964,0.0051814406,-0.015537433,0.497008,-1.3760467,1.8974303,-2.0910141,-1.5701545,2.4724662,-0.11056458,0.06998345,-0.09123594,0.010605958,0.008653258,-0.09499083,-0.63206923,-0.038307227,-9.423578,0.8247004,47.67614,-0.8719741,-2.2821705,-3.2058578,-0.20559907,0.089111224,-0.30580756,28.6875,30.0,29.25,32.75,35.375,36.4375
0.15605418,-1.6184367,0.22060542,-1.3577536,-0.0062926407,0.09313942,-0.15367821,-0.39464027,-0.3670075,0.059969485,3.077996,-0.62567884,0.00022593766,-0.07250476,0.023285009,0.0031558617,-0.013597737,0.00616148,-0.015498414,0.49678048,-1.3758903,1.8972739,-2.0910141,-1.5701188,2.4723337,-0.11118367,0.070458815,-0.093254186,0.010921603,0.00886887,-0.09564837,-0.40222588,-0.05746084,-9.461885,0.80679786,47.682407,-0.9310699,-2.266012,-3.1784072,-0.18627101,0.07909419,-0.30003467,28.6875,30.0,29.25,32.75,35.375,36.4375
0.15805335,-1.1178885,0.40937886,-1.4385027,-0.01555085,0.098341614,-0.1495498,-0.39475894,-0.36696005,0.059958674,3.0779936,-0.625677,0.00028095485,-0.072736084,0.023162652,0.0023618538,-0.013000809,0.0052355737,-0.014024357,0.49657676,-1.3757454,1.8971184,-2.0909784,-1.5700945,2.472129,-0.11110604,0.072680764,-0.094014265,0.0105635505,0.008783053,-0.09704425,-0.38307226,0.019153614,-9.461885,0.7642693,47.683304,-0.9891484,-2.3044887,-3.2615926,-0.2044234,0.070316724,-0.31499562,28.6875,30.0,29.25,32.75,35.375,36.4375
0.1600539,-1.0166333,-0.038852163,-1.566112,-0.013624239,0.08813233,-0.15374392,-0.39492828,-0.36691707,0.059984956,3.077968,-0.62561244,0.00021043641,-0.072934076,0.023475453,0.0022061192,-0.011983015,0.005307716,-0.01340994,0.49634925,-1.3756009,1.8968791,-2.0909421,-1.5700945,2.4718647,-0.11119797,0.07316975,-0.09430027,0.010787713,0.007862003,-0.097748905,-0.3256114,0.0,-9.404425,0.8247004,47.694946,-1.0220002,-2.314149,-3.306911,-0.18787488,0.08085105,-0.3609779,28.6875,30.0,29.25,32.75,35.375,36.4375
0.16205375,-0.79087096,-0.34283552,-1.4760945,-0.025574362,0.071633674,-0.14755741,-0.39508817,-0.366858,0.059996795,3.0778956,-0.62573385,0.00015152199,-0.074706644,0.025155226,0.0016260479,-0.010749335,0.0043085413,-0.017189829,0.49609637,-1.3754803,1.8967117,-2.090954,-1.570083,2.4716969,-0.11522983,0.07522618,-0.09559002,0.011492531,0.007259925,-0.09799902,-0.22984336,0.019153614,-9.385271,0.779936,47.66987,-0.87314296,-2.286282,-3.2618666,-0.21272704,0.09936872,-0.38054848,28.6875,30.0,29.25,32.75,35.375,36.4375
0.16405448,-0.6626361,-0.44265404,-1.4105436,-0.036710605,0.061631523,-0.14511047,-0.39524478,-0.36679885,0.05999804,3.0778677,-0.62585986,0.00017828864,-0.0747164,0.023694217,0.00204722,-0.012047549,0.0050802007,-0.014997961,0.4958458,-1.3753117,1.8964952,-2.0908945,-1.5700706,2.4715285,-0.11321933,0.07608713,-0.09753203,0.011277583,0.008031058,-0.09818041,-0.19153613,0.11492168,-9.3661175,0.83365434,47.684196,-1.1753927,-2.3986268,-3.2878113,-0.2014184,0.09495214,-0.3754593,28.6875,30.0,29.25,32.75,35.375,36.4375
0.16605365,-0.6135234,-0.8867157,-1.5333463,-0.027617196,0.05375526,-0.1428576,-0.39538744,-0.3667428,0.059975244,3.0778997,-0.62582755,0.00019647856,-0.07641909,0.02539039,0.0018183299,-0.012013061,0.0046951617,-0.01686252,0.49562836,-1.3751193,1.8963159,-2.0908825,-1.5700825,2.471287,-0.117685094,0.07679181,-0.097857505,0.0112552075,0.008183774,-0.10078178,-0.11492168,0.17238252,-9.32781,0.7978386,47.655537,-0.87456393,-2.2665696,-3.3285499,-0.21822101,0.09920909,-0.4371614,28.75,30.0,29.25,32.75,35.375,36.4375
0.16805331,-0.52256024,-0.74184775,-1.6519318,-0.03103164,0.048159167,-0.1450676,-0.39552516,-0.36670285,0.059979673,3.0778441,-0.6258506,0.00019120857,-0.077363655,0.02527633,0.0022168166,-0.012090087,0.0054420796,-0.011135165,0.49541304,-1.3749869,1.8961486,-2.090882,-1.5700468,2.4710932,-0.11814261,0.0777011,-0.099969864,0.011775111,0.007901082,-0.10696517,-0.076614454,0.22984336,-9.346964,0.74413085,47.687782,-0.96332026,-2.279838,-3.2884898,-0.22283763,0.1049921,-0.36289263,28.75,30.0,29.25,32.75,35.375,36.4375
0.17005403,-0.5629766,-1.1862859,-1.5595886,-0.02951163,0.046572413,-0.14449191,-0.39570814,-0.3666437,0.06000312,3.0778298,-0.6258634,0.00011181862,-0.07783117,0.025902925,0.00024524576,-0.010348692,0.00260953,-0.006762854,0.4951611,-1.3748293,1.8958973,-2.0908344,-1.5700706,2.4708512,-0.11946565,0.08194183,-0.100431934,0.011320075,0.0077228085,-0.112659104,-0.019153614,0.28730422,-9.232041,0.7665104,47.70659,-1.015077,-2.4076269,-3.3777387,-0.22449017,0.112043805,-0.3469339,28.75,30.0,29.25,32.75,35.375,36.4375
0.17205371,-0.15489654,-0.71046156,-1.4751285,-0.039945778,0.055946365,-0.14425923,-0.39586988,-0.36660233,0.059994057,3.0777645,-0.6259611,0.00011912042,-0.07981473,0.02560759,0.0026953006,-0.013578292,0.00644086,-0.0018030977,0.49492103,-1.3746377,1.8956932,-2.0908468,-1.5700339,2.4706805,-0.12136711,0.07963274,-0.10334571,0.01164436,0.008747259,-0.11952045,0.0,0.3256114,-9.212888,0.7709874,47.703007,-1.1047775,-2.319006,-3.3267243,-0.23126715,0.10995693,-0.2784825,28.75,30.0,29.25,32.75,35.375,36.4375
0.17405349,-0.0004706775,-0.7032057,-1.5678704,-0.037221145,0.047757674,-0.15641312,-0.39603534,-0.36655396,0.060014218,3.0777478,-0.625856,7.657268e-05,-0.07848702,0.025584895,0.0014791366,-0.012200391,0.004290213,0.007500833,0.49468186,-1.3744935,1.8954676,-2.09081,-1.570023,2.470378,-0.11996195,0.080547616,-0.10167047,0.0116108,0.008571384,-0.1274192,0.19153613,0.36391866,-9.251195,0.8179876,47.657326,-1.0937244,-2.2789555,-3.3324327,-0.22596577,0.10831778,-0.19503827,28.75,30.0,29.25,32.75,35.375,36.4375
0.17605378,0.104652934,-0.9198167,-1.4048605,-0.034348734,0.04458398,-0.15062977,-0.39620715,-0.3664924,0.06002737,3.0777292,-0.62583435,6.7874244e-06,-0.08143064,0.02680861,0.0012229774,-0.012488861,0.0045649633,0.0038560003,0.49442872,-1.3743482,1.8952626,-2.0907986,-1.5700344,2.4701138,-0.12473382,0.0836241,-0.104644276,0.011130482,0.0086965235,-0.12854427,0.21068975,0.2873042,-9.3661175,0.8560339,47.703007,-1.0051897,-2.5391922,-3.380381,-0.24139696,0.12606007,-0.14080763,28.75,30.0,29.25,32.75,35.375,36.4375
0.17805354,-0.18804191,-0.97769994,-1.449624,-0.04186486,0.03115723,-0.14709324,-0.3963582,-0.36644477,0.06000943,3.0776772,-0.62585765,9.67204e-05,-0.07998241,0.025873305,0.0008059043,-0.013026332,0.002703996,0.007829751,0.49416628,-1.3741561,1.8950723,-2.0907862,-1.5699624,2.4698725,-0.12263859,0.08378392,-0.10404396,0.011761795,0.010056902,-0.13042448,0.076614454,0.21068975,-9.251195,0.7329411,47.674347,-1.1077385,-2.2940574,-3.3140302,-0.24165589,0.13091707,-0.09313532,28.75,30.0,29.25,32.75,35.375,36.4375
0.18005419,-0.17854984,-0.9222803,-1.6646672,-0.03206988,0.02471177,-0.13836414,-0.3965264,-0.36640483,0.06002647,3.077645,-0.62577707,3.8109312e-05,-0.08165145,0.026147962,0.0008538155,-0.012657527,0.003736642,0.0019123573,0.49393818,-1.3739991,1.8948444,-2.0907743,-1.56995,2.4695983,-0.12406845,0.08579745,-0.10648926,0.011462755,0.009243488,-0.12593438,0.05746084,0.28730422,-9.32781,0.78888994,47.678825,-1.116101,-2.3265097,-3.3681,-0.23674299,0.13476327,-0.11037512,28.75,30.0,29.25,32.75,35.375,36.4375
0.18205383,-0.42058328,-0.30662042,-1.5993007,-0.03874736,0.024950247,-0.14338562,-0.39664474,-0.36632127,0.059990663,3.0777063,-0.62583184,0.00014038889,-0.083597355,0.026601367,0.0011288157,-0.012799381,0.0046347925,-0.0049391165,0.49369785,-1.3738304,1.8947119,-2.0907147,-1.5699629,2.4693844,-0.12637003,0.08754888,-0.10924296,0.011605301,0.008924971,-0.12138374,0.095768064,0.24899697,-9.232041,0.7597976,47.675243,-1.0998406,-2.2116637,-3.2614408,-0.27407667,0.13977244,-0.15999016,28.75,30.0,29.25,32.75,35.375,36.4375
0.18405347,-0.3195415,-0.45719612,-1.5226737,-0.032749064,0.031532243,-0.15007421,-0.39683533,-0.36628553,0.0600086,3.0776358,-0.6257994,0.00011932533,-0.08413353,0.026693337,0.00077833526,-0.013308243,0.0033529405,-0.01033545,0.4934339,-1.3736378,1.8944367,-2.0906909,-1.5699137,2.4691093,-0.12761228,0.08908645,-0.110404536,0.012118424,0.009986365,-0.117229484,0.05746084,0.21068975,-9.346964,0.79560274,47.683304,-1.1190145,-2.3295207,-3.3037915,-0.26471275,0.13090909,-0.22721942,28.75,30.0,29.25,32.75,35.375,36.4375
0.18605366,-0.39064577,-1.279446,-1.6134856,-0.01721979,0.043891545,-0.13664445,-0.39699343,-0.3662357,0.059997194,3.0776377,-0.6258384,0.0001371513,-0.0842172,0.026930684,-0.0007958558,-0.011817454,0.0008618505,-0.014058392,0.49320656,-1.3734319,1.8942097,-2.0906546,-1.5699142,2.4689062,-0.12795752,0.09253848,-0.110946104,0.012108071,0.009849916,-0.11385109,-0.05746084,0.19153613,-9.289502,0.7978386,47.64927,-1.1711909,-2.5222263,-3.3010511,-0.28281075,0.102424785,-0.26251677,28.75,30.0,29.25,32.75,35.375,36.4375
0.1880533,-0.7590419,-1.0368705,-1.3557113,-0.034693174,0.06290312,-0.14153184,-0.3971787,-0.36617586,0.060009036,3.0775938,-0.62584996,9.0105736e-05,-0.08696099,0.027080225,0.001375503,-0.013645764,0.00518859,-0.018484626,0.4929302,-1.3732644,1.8939809,-2.0906422,-1.5699023,2.4686427,-0.13037196,0.09155483,-0.11475083,0.012223782,0.00941118,-0.11183715,-0.1340753,0.19153613,-9.32781,0.779936,47.68599,-1.1052536,-2.3636303,-3.1344972,-0.2749401,0.12884593,-0.33706403,28.75,30.0,29.25,32.75,35.375,36.4375
0.19005392,-1.5279161,-1.209708,-1.5266802,-0.031094065,0.06308519,-0.14155626,-0.39732733,-0.3661401,0.060002085,3.0775263,-0.6259523,0.00018258882,-0.085914,0.02833761,-0.002275565,-0.010897278,-0.0017640012,-0.021040311,0.49269015,-1.3730706,1.8937553,-2.0905945,-1.5698298,2.468475,-0.13202877,0.0966114,-0.11251498,0.012363507,0.010283652,-0.11093933,-0.17238252,0.22984336,-9.3661175,0.82694155,47.70211,-1.085675,-2.501824,-3.3790607,-0.29517728,0.14241639,-0.3857749,28.75,30.0,29.25,32.75,35.375,36.4375
0.19205353,-1.4579235,-0.6845428,-1.4153651,-0.039867558,0.07837632,-0.14549066,-0.39750892,-0.3660809,0.060007844,3.0775063,-0.62592983,0.0001365933,-0.08862432,0.028182307,0.001209687,-0.014167475,0.004445344,-0.025002643,0.49242613,-1.3728918,1.8935269,-2.0905826,-1.5698303,2.4681997,-0.13413256,0.09299867,-0.116222285,0.012667218,0.010226331,-0.10907955,-0.4213795,0.24899697,-9.32781,0.83365434,47.709274,-1.0594822,-2.299617,-3.103785,-0.3024609,0.11866773,-0.42672896,28.75,30.0,29.25,32.75,35.375,36.4375
0.19405349,-1.5944341,-0.52040964,-1.2388803,-0.034656256,0.086518385,-0.14237306,-0.3976922,-0.3660405,0.060007617,3.0774407,-0.625993,0.00015834358,-0.08967379,0.028779134,9.769463e-05,-0.013164351,0.0027689142,-0.026135363,0.49216205,-1.3726742,1.8932632,-2.0905588,-1.5697821,2.4679835,-0.13597353,0.09637502,-0.11775712,0.012786207,0.01013701,-0.10978642,-0.5554548,0.15322891,-9.385271,0.9164598,47.72002,-1.1793592,-2.388454,-3.311191,-0.32586712,0.12832582,-0.49183646,28.75,30.0,29.25,32.75,35.375,36.4375
0.19605407,-1.635974,-0.63003623,-1.4162458,-0.009150523,0.10401527,-0.14576432,-0.39786333,-0.3659647,0.060003195,3.0774207,-0.62617666,0.00016163923,-0.0901277,0.02771706,0.00035964145,-0.0142460605,0.00325993,-0.021776116,0.49188694,-1.3724936,1.8930477,-2.090511,-1.569794,2.4678257,-0.13499185,0.097773656,-0.120013,0.01270179,0.010856572,-0.11316366,-0.45968673,0.05746084,-9.346964,0.81351066,47.683304,-1.1336594,-2.466842,-3.1542633,-0.31450498,0.117027014,-0.49255216,28.75,30.0,29.25,32.75,35.375,36.4375
0.19805372,-1.6273173,0.6032971,-1.1656101,-0.01516597,0.1030037,-0.15191999,-0.39803576,-0.36591503,0.059982784,3.0773838,-0.62616473,0.00023688108,-0.09202465,0.028613035,0.00058777793,-0.01457265,0.0039241584,-0.015915647,0.49160996,-1.372265,1.8928193,-2.0904992,-1.569734,2.467546,-0.13814239,0.0988801,-0.12187699,0.012738445,0.010833766,-0.12217394,-0.51714754,0.05746084,-9.385271,0.78888994,47.698532,-0.9648465,-2.425682,-3.1679149,-0.32679766,0.10314342,-0.47541153,28.75,30.0,29.25,32.75,35.375,36.4375
0.20005427,-1.7474166,0.19459525,-1.3208423,-0.004367362,0.11881813,-0.15239932,-0.39820445,-0.36587298,0.059984736,3.0773594,-0.6261154,0.00023400327,-0.09225605,0.027582796,0.00037347185,-0.014747315,0.0043380586,-0.0077463393,0.4913715,-1.3720721,1.8925799,-2.0904753,-1.5697097,2.46728,-0.1365427,0.10087066,-0.123621725,0.012057665,0.010796489,-0.12874228,-0.63206923,-0.019153614,-9.346964,0.83589023,47.693153,-1.1686492,-2.5022388,-3.1327956,-0.31398344,0.11635974,-0.41886988,28.75,30.0,29.25,32.75,35.375,36.4375
0.20205398,-2.5193582,0.08881453,-1.252379,-0.006203407,0.11383706,-0.1487826,-0.3983837,-0.36581287,0.05997554,3.0773005,-0.62617546,0.00029548997,-0.09403735,0.028180903,0.0012057675,-0.015735142,0.0058424794,0.00052973646,0.49107113,-1.371868,1.8923525,-2.090451,-1.5696496,2.4670246,-0.13919927,0.1008623,-0.12556183,0.012235795,0.010964399,-0.13967441,-0.6512228,-0.05746084,-9.346964,0.82694155,47.67614,-1.2457929,-2.43833,-3.0997229,-0.34010178,0.10338184,-0.2945463,28.75,30.0,29.25,32.75,35.375,36.4375
0.20405324,-2.1898983,0.07529928,-1.334995,-0.008080987,0.122064166,-0.14247912,-0.39857015,-0.3657372,0.059972737,3.0773149,-0.6261935,0.00029917693,-0.095090754,0.029202301,0.0006927306,-0.014994521,0.0055090874,0.004265879,0.49078307,-1.3716633,1.8921016,-2.0903914,-1.569662,2.466746,-0.1415012,0.10220256,-0.12594144,0.011927963,0.010472295,-0.14571188,-0.7086837,-0.038307227,-9.308657,0.80456203,47.675243,-1.268501,-2.4857364,-3.1109922,-0.3196377,0.109383926,-0.23354274,28.75,30.0,29.25,32.75,35.375,36.4375
0.20605338,-1.9612557,-0.1396737,-1.4907496,-0.009736668,0.121038236,-0.14779273,-0.39877528,-0.36568815,0.059980564,3.07728,-0.62612605,0.00024034776,-0.09575418,0.029035157,0.0012946308,-0.015435433,0.0063257357,0.007880921,0.49050757,-1.3714471,1.8918265,-2.0903914,-1.5696496,2.466433,-0.14176024,0.102320775,-0.12761326,0.0125624,0.010488864,-0.14958481,-0.6512228,-0.038307227,-9.404425,0.8605109,47.678825,-1.1534847,-2.4209979,-3.145566,-0.32932103,0.1053228,-0.17626044,28.75,30.0,29.25,32.75,35.375,36.4375
0.20805413,-1.885948,-0.24299671,-1.4967314,-0.01656253,0.11311275,-0.14040305,-0.39897946,-0.36563715,0.059999015,3.0772429,-0.6260414,0.00016814057,-0.09739108,0.030945674,0.00045510766,-0.0137163205,0.00563357,0.004398465,0.49023053,-1.3712541,1.8915519,-2.090379,-1.5696381,2.466108,-0.14564964,0.104254544,-0.12800007,0.012444999,0.009311176,-0.14998978,-0.6895301,-0.11492168,-9.442732,0.779936,47.709274,-1.0184605,-2.4309926,-3.1724203,-0.34130162,0.11382422,-0.14836593,28.75,30.0,29.25,32.75,35.375,36.4375
0.21005401,-1.7243202,-0.095167086,-1.5312055,-0.013974195,0.10956104,-0.1475174,-0.39916655,-0.36554247,0.05997352,3.0772407,-0.6261994,0.0002525421,-0.09760655,0.031078,0.00035429813,-0.013346013,0.006020341,-0.0031086863,0.48989555,-1.3710258,1.8913244,-2.0903194,-1.5696267,2.465872,-0.14567822,0.10459044,-0.1281034,0.012044081,0.008790819,-0.1425113,-0.9002198,-0.11492168,-9.423578,0.8157518,47.67614,-1.1986954,-2.5122106,-3.1435337,-0.34798008,0.12740898,-0.19240507,28.75,30.0,29.25,32.75,35.375,36.4375
0.21205355,-1.3017188,-0.667125,-1.743079,0.010072177,0.11787407,-0.13268067,-0.39936674,-0.36547452,0.05997626,3.0772262,-0.6261974,0.0001974256,-0.09960014,0.030403875,0.002262113,-0.015719764,0.009583431,-0.008156534,0.489608,-1.370822,1.8910726,-2.0903075,-1.5696381,2.4655852,-0.1465297,0.104050554,-0.13180853,0.012023211,0.009207294,-0.13831362,-0.6703765,-0.076614454,-9.442732,0.8403672,47.67614,-1.2124074,-2.287044,-3.2627764,-0.35626245,0.14095223,-0.24079432,28.75,30.0,29.25,32.75,35.375,36.4375
0.2140542,-1.3855242,-0.11163359,-1.739158,0.00014623061,0.105860874,-0.14245111,-0.39956015,-0.36543146,0.05998666,3.0771582,-0.62620354,0.00019146556,-0.0984507,0.031562638,-0.0006758831,-0.013372261,0.0039192075,-0.011728084,0.48933196,-1.3706164,1.8907989,-2.0902836,-1.5695904,2.4653218,-0.14774741,0.10750731,-0.12930487,0.012170093,0.009812148,-0.13596028,-0.4405331,-0.11492168,-9.500193,0.7732232,47.667187,-1.1921558,-2.5569763,-3.3378582,-0.3457778,0.1437738,-0.30041143,28.75,30.0,29.25,32.75,35.375,36.4375
0.21605341,-0.8061024,-0.084336355,-1.6942052,0.0025439062,0.11318349,-0.1441588,-0.39975265,-0.3653581,0.059961,3.077121,-0.6263294,0.00023077095,-0.099485576,0.031673994,0.00027158696,-0.014226452,0.0059751156,-0.01305099,0.4890204,-1.3703767,1.8905715,-2.0902836,-1.5695661,2.4650936,-0.1486634,0.10669567,-0.13045916,0.011926606,0.009598359,-0.13555306,-0.5554548,-0.05746084,-9.442732,0.85155696,47.684196,-1.2217396,-2.3035386,-3.263562,-0.34835452,0.13677594,-0.33477968,28.75,30.0,29.25,32.75,35.375,36.4375
0.21805425,-0.9202224,0.0058269077,-1.77232,-0.001478783,0.092980444,-0.15125678,-0.39996067,-0.36528993,0.059940673,3.07711,-0.62628764,0.0002822384,-0.09985979,0.03209472,-0.00064308674,-0.012991933,0.0052755093,-0.013981883,0.48869693,-1.3701115,1.8902963,-2.0902603,-1.5695308,2.4647455,-0.14916158,0.10869404,-0.13065541,0.011332067,0.008836659,-0.13511956,-0.38307226,-0.095768064,-9.557653,0.800085,47.678825,-1.2204981,-2.5800126,-3.422782,-0.34524554,0.16126564,-0.35876137,28.75,30.0,29.25,32.75,35.375,36.4375
0.22005402,-0.716083,-0.25661445,-1.7775624,0.0033613227,0.07291233,-0.13713755,-0.40018487,-0.36522555,0.05997544,3.0770664,-0.62633425,0.00013243139,-0.10112946,0.032286394,0.00010316721,-0.013942498,0.0063046664,-0.014066025,0.4884091,-1.3699312,1.8899969,-2.0902355,-1.5695661,2.4644926,-0.1507757,0.10879382,-0.13259576,0.011816091,0.009207226,-0.13664827,-0.24899697,-0.038307227,-9.481039,0.86498255,47.670765,-1.2030557,-2.386824,-3.4602046,-0.36044854,0.17446175,-0.3925913,28.75,30.0,29.25,32.75,35.375,36.4375
0.22205353,0.012573866,-0.52660954,-1.8355792,-0.0017269668,0.06898668,-0.13305001,-0.40040362,-0.365146,0.05997166,3.0769727,-0.62650394,0.00014006656,-0.10063669,0.033140596,-0.0014099677,-0.012270327,0.0034366015,-0.010143086,0.48804963,-1.3697144,1.889747,-2.0902355,-1.5695184,2.464251,-0.15161654,0.11057673,-0.13138296,0.012153798,0.009091571,-0.14141196,-0.11492168,-0.095768064,-9.423578,0.88289046,47.675243,-1.2844543,-2.436863,-3.512432,-0.33312637,0.17759103,-0.37331277,28.75,30.0,29.25,32.75,35.375,36.4375
0.22405407,-0.70726806,-0.6690955,-1.7906144,-0.008029899,0.031897303,-0.1299987,-0.40060312,-0.36507133,0.05996114,3.0769825,-0.62648183,0.00018111138,-0.102891974,0.033046227,0.00021763472,-0.013972399,0.006850443,-0.004444369,0.48773748,-1.3694745,1.8894714,-2.0901759,-1.569506,2.463924,-0.15334652,0.11031053,-0.13474901,0.011986723,0.008993282,-0.14883962,-0.019153614,-0.076614454,-9.500193,0.900793,47.66987,-1.2290412,-2.331661,-3.450449,-0.34659714,0.1868259,-0.3078996,28.75,30.0,29.25,32.75,35.375,36.4375
0.22605349,0.089084946,-0.3368296,-1.7587899,-0.020691633,0.041618634,-0.1504661,-0.40082717,-0.36498845,0.059960674,3.07698,-0.62647843,0.00011592553,-0.10477212,0.034771774,-0.0009678429,-0.0137559,0.0044542546,-0.0007133538,0.48741245,-1.3692454,1.8891963,-2.0901635,-1.5695304,2.4635973,-0.1584337,0.11345949,-0.1358826,0.012196372,0.009939138,-0.15765722,0.11492168,0.11492168,-9.423578,0.8247004,47.66987,-1.0162973,-2.3482437,-3.444356,-0.33685493,0.1971631,-0.20760933,28.75,30.0,29.25,32.75,35.375,36.4375
0.22805415,0.07103069,-0.6799124,-1.9904906,-0.01821216,0.031926945,-0.14089368,-0.4010274,-0.3649258,0.059961155,3.0769696,-0.62635607,0.00011054953,-0.106353395,0.03448803,0.0010097832,-0.015645508,0.008151177,0.0055245417,0.48711282,-1.3690293,1.8889321,-2.0901396,-1.569506,2.4632227,-0.159263,0.111742504,-0.13836165,0.012256724,0.009886581,-0.16472355,0.11492168,0.22984336,-9.481039,0.7553206,47.704796,-1.0864329,-2.3227363,-3.3908038,-0.32283193,0.1865569,-0.11878939,28.75,30.0,29.25,32.75,35.375,36.4375
0.23005407,0.1958371,-0.9117567,-2.03603,-0.03632048,0.030521123,-0.1483203,-0.40122905,-0.3648316,0.05994887,3.0769851,-0.6264144,0.00010327858,-0.107044496,0.035285845,-0.0010156673,-0.014296577,0.004133406,0.005926442,0.4867888,-1.3688118,1.8886923,-2.0901034,-1.5695299,2.4629333,-0.16157481,0.11652957,-0.13965124,0.012941419,0.01057745,-0.16743664,0.095768064,0.17238252,-9.5385,0.8784135,47.675243,-0.970921,-2.3592703,-3.449143,-0.34506217,0.210659,-0.048339613,28.75,30.0,29.25,32.75,35.375,36.4375
0.23205367,-0.23611651,-1.0319258,-1.9260335,-0.059284683,0.026649402,-0.14657725,-0.4014821,-0.36478412,0.059991095,3.0768735,-0.6263949,6.8991835e-06,-0.107886925,0.035596322,0.00018426501,-0.01578534,0.005637407,-0.0008244053,0.48645306,-1.3685961,1.8883337,-2.0900795,-1.5694817,2.4625998,-0.16313869,0.114779234,-0.14042075,0.013438754,0.011207987,-0.1622488,-0.019153614,0.30645782,-9.557653,0.80679786,47.68062,-1.0743879,-2.3915215,-3.423655,-0.34772265,0.21237248,-0.06280208,28.75,30.0,29.25,32.75,35.375,36.4375
0.23405412,-0.16191946,-1.5881356,-2.0217311,-0.06452533,0.053472444,-0.1487458,-0.4016825,-0.3647279,0.05997717,3.0768254,-0.6264042,6.9134556e-05,-0.107514165,0.034689926,3.5303714e-05,-0.015246862,0.005009303,-0.0050590625,0.48614252,-1.3683434,1.8880581,-2.0900548,-1.5694216,2.4623013,-0.1610897,0.11626297,-0.1421118,0.014458819,0.011021151,-0.15596437,-0.038307227,0.36391866,-9.557653,0.7978386,47.694946,-1.1441083,-2.3124702,-3.4595692,-0.34939632,0.22122361,-0.13535295,28.75,30.0,29.25,32.75,35.375,36.4375
0.23605406,-0.7037983,-1.5173656,-2.063929,-0.07918034,0.06288563,-0.13932125,-0.4019165,-0.364615,0.059984718,3.076806,-0.62655693,3.138905e-05,-0.10845062,0.035016615,-0.00023818127,-0.015408435,0.004213897,-0.012573595,0.48575896,-1.3681386,1.8877829,-2.0899951,-1.569446,2.4620156,-0.16270137,0.118004516,-0.14369592,0.01492047,0.011533074,-0.15006082,0.0,0.45968673,-9.672575,0.8090337,47.67614,-1.1048787,-2.4243748,-3.4231958,-0.36695427,0.2156491,-0.22302447,28.75,30.0,29.25,32.75,35.375,36.4375
0.23805387,-0.8643936,-2.1662817,-2.1414368,-0.07841544,0.07511263,-0.13591675,-0.40211704,-0.36456764,0.05997376,3.0767689,-0.62655365,8.140013e-05,-0.10982173,0.035451256,-1.3740827e-05,-0.01613053,0.004315701,-0.021662971,0.48547056,-1.367874,1.887484,-2.0899594,-1.5693973,2.46173,-0.16493402,0.1190443,-0.14556679,0.01532405,0.012116989,-0.1432036,-0.17238252,0.53630114,-9.634268,0.7933669,47.675243,-1.1095031,-2.382283,-3.394959,-0.37666747,0.21555337,-0.27754694,28.75,30.0,29.25,32.75,35.375,36.4375
0.2400536,-1.4336461,-2.4897976,-1.8426598,-0.072828084,0.065271884,-0.13354455,-0.40235925,-0.36451223,0.060005628,3.0766828,-0.6265746,-1.1020393e-05,-0.11262685,0.034880463,0.0013193695,-0.018226255,0.0075509343,-0.025348892,0.48514667,-1.3676572,1.8871473,-2.0899355,-1.569373,2.4614303,-0.1665941,0.12067947,-0.15042925,0.014715615,0.012465234,-0.14117464,-0.19153613,0.47884035,-9.519346,0.92764956,47.707485,-1.0847757,-2.4360237,-3.234335,-0.3727817,0.24348083,-0.34769642,28.75,30.0,29.25,32.75,35.375,36.4375
0.24205342,-1.6059207,-1.8541712,-1.8259423,-0.07183392,0.04481747,-0.13101432,-0.40256712,-0.3644497,0.060001988,3.0766294,-0.62666184,1.1369357e-05,-0.11388773,0.035517298,0.0011837496,-0.018969124,0.007780808,-0.031215051,0.4848345,-1.3674167,1.8868603,-2.0898998,-1.5693372,2.4611795,-0.16903864,0.12162859,-0.15109132,0.013881237,0.013014317,-0.13775268,-0.11492168,0.47884035,-9.519346,0.87393653,47.694946,-0.9836764,-2.4215572,-3.2951622,-0.37507936,0.23351355,-0.44720116,28.75,30.0,29.25,32.75,35.375,36.4375
0.24405392,-1.1014979,-1.4956847,-1.6643076,-0.05732998,0.045862053,-0.13637888,-0.4027835,-0.3643792,0.059990954,3.0765703,-0.62664783,4.402411e-05,-0.11527299,0.03609466,0.00064341683,-0.01890721,0.007859753,-0.031629894,0.48448655,-1.3671756,1.8865975,-2.0899003,-1.5692772,2.4608305,-0.17109594,0.123785205,-0.15223074,0.012838642,0.012928185,-0.13939406,-0.15322891,0.40222588,-9.557653,0.8314132,47.719128,-0.9564333,-2.3657398,-3.1804404,-0.34555644,0.24927005,-0.5102051,28.75,30.0,29.25,32.75,35.375,36.4375
0.24605392,-0.9317924,-0.9982004,-1.4256473,-0.05999404,0.060030743,-0.14173996,-0.40303427,-0.3643195,0.06001835,3.0764818,-0.62673855,-8.526972e-05,-0.116190754,0.035704613,0.0008986828,-0.02044731,0.008153069,-0.023981178,0.4841631,-1.366947,1.8862623,-2.0899003,-1.5692767,2.460575,-0.1719272,0.12487075,-0.15408586,0.012643847,0.0141808465,-0.14787214,-0.15322891,0.38307226,-9.461885,0.8090337,47.67345,-0.95367706,-2.517363,-3.228806,-0.3492029,0.23552509,-0.46388724,28.75,30.0,29.25,32.75,35.375,36.4375
0.24805366,-0.9150612,-0.6776041,-1.5929899,-0.037495606,0.07191911,-0.1473979,-0.40326926,-0.36423814,0.06000631,3.0764465,-0.6268209,-6.059139e-05,-0.11761524,0.035915107,0.0007088068,-0.020824952,0.00849356,-0.014155111,0.4838031,-1.3666704,1.8859509,-2.0898645,-1.5692528,2.4602711,-0.17356446,0.12692273,-0.15600613,0.012060047,0.0143714305,-0.15933454,-0.22984336,0.24899697,-9.461885,0.800085,47.68599,-0.931682,-2.3398914,-3.231033,-0.3436017,0.23209691,-0.37348098,28.75,30.0,29.25,32.75,35.375,36.4375
0.25005436,-1.331683,-0.27177086,-1.3196973,-0.01580547,0.085348964,-0.14515024,-0.40348107,-0.36418253,0.05999586,3.076401,-0.62682354,-2.3949016e-05,-0.11798264,0.036070604,0.0010471033,-0.021845857,0.00884996,-0.0040678177,0.4834918,-1.3664056,1.8856529,-2.0898407,-1.5692042,2.4599674,-0.17452662,0.12637846,-0.15613218,0.011966648,0.015129941,-0.17038415,-0.21068975,0.21068975,-9.346964,0.82694155,47.693153,-1.0929837,-2.5375333,-3.1582384,-0.32219514,0.2285471,-0.2633663,28.75,30.0,29.25,32.75,35.375,36.4375
0.25205374,-1.0657349,0.37966394,-1.0274934,-0.019527432,0.11297253,-0.14781296,-0.40373874,-0.36412406,0.060014978,3.0762916,-0.6268153,-5.4245455e-05,-0.118270755,0.03516718,0.00032239148,-0.021191731,0.007834027,0.003249719,0.48312092,-1.3661525,1.8853043,-2.0898287,-1.5691322,2.4596055,-0.1731051,0.1298896,-0.1588002,0.01235482,0.01504649,-0.1762775,-0.2681506,0.15322891,-9.2703495,0.78217715,47.694946,-1.1497083,-2.5084672,-3.0602403,-0.3188479,0.23062792,-0.18581301,28.75,30.0,29.25,32.75,35.375,36.4375
0.25405404,-1.4524349,0.47912583,-1.1523231,-0.0024283777,0.10618646,-0.14780858,-0.40394676,-0.3640747,0.06001412,3.076242,-0.6267457,4.7903945e-06,-0.11829426,0.03535036,0.00048423716,-0.021933256,0.0077816546,0.0039707352,0.48280942,-1.3659008,1.8849944,-2.0897806,-1.5690602,2.459257,-0.17376639,0.12924287,-0.15841934,0.012340092,0.015737174,-0.17766008,-0.2681506,0.019153614,-9.289502,0.8717007,47.682407,-1.1509618,-2.429625,-3.1922917,-0.29318047,0.23365696,-0.13585314,28.75,30.0,29.25,32.75,35.375,36.4375
0.25605428,-1.3728421,0.24773878,-1.096688,0.00779157,0.100913845,-0.13362703,-0.40423235,-0.3639997,0.060041565,3.0761702,-0.6267317,-0.00016643439,-0.11786959,0.035225846,-5.049159e-06,-0.020815497,0.006540805,0.0010913806,0.48243845,-1.365648,1.8846353,-2.0898044,-1.5690726,2.4588866,-0.17282583,0.13042144,-0.15897222,0.013331095,0.015347542,-0.1738379,-0.45968673,-0.1340753,-9.32781,0.89631605,47.652847,-1.2274431,-2.4808419,-3.3220165,-0.30250305,0.22355914,-0.15797316,28.75,30.0,29.25,32.75,35.375,36.4375
0.25805354,-1.383969,1.0353112,-0.82082206,-0.01130524,0.097358935,-0.15536618,-0.40445447,-0.36394817,0.06004454,3.0761266,-0.6266881,-0.00014550192,-0.11919019,0.036088526,-0.00025897773,-0.020300457,0.00652412,-0.008371992,0.48212594,-1.3653833,1.8843011,-2.0897567,-1.5690244,2.4585526,-0.17506665,0.13192588,-0.16022892,0.013339567,0.014893863,-0.16661441,-0.49799395,-0.21068975,-9.308657,0.76874626,47.664497,-1.1939094,-2.5239472,-3.3404555,-0.2706493,0.2398695,-0.2647245,28.75,30.0,29.25,32.75,35.375,36.4375
0.26005402,-1.2895937,0.39115384,-0.96459,0.019439612,0.087072685,-0.14561695,-0.40470585,-0.36384562,0.060032263,3.0761256,-0.6267268,-0.0002223332,-0.12021691,0.037427496,-0.00091354124,-0.01885802,0.005543835,-0.0134764025,0.48175406,-1.3651186,1.884015,-2.0897682,-1.5690607,2.4582052,-0.1776138,0.13355346,-0.16084327,0.013861735,0.014076867,-0.16405635,-0.47884035,-0.40222588,-9.270349,0.8784135,47.674347,-1.1840665,-2.4180803,-3.4014668,-0.2649203,0.25303835,-0.31925467,28.75,30.0,29.25,32.75,35.375,36.4375
0.26205352,-1.1535138,0.6246832,-0.90419084,0.032889728,0.06358027,-0.13812862,-0.40496668,-0.36376235,0.060041472,3.0760238,-0.62687784,-0.0002068926,-0.12116412,0.03701804,0.00031105432,-0.020104963,0.0078412965,-0.015181327,0.48134723,-1.3648546,1.8836673,-2.0897205,-1.5690006,2.4579058,-0.1776749,0.13281453,-0.16278718,0.013943566,0.01412318,-0.16241153,-0.34476504,-0.3256114,-9.11712,0.83589023,47.691364,-1.2625607,-2.42505,-3.360099,-0.2646287,0.24556148,-0.36541325,28.75,30.0,29.25,32.75,35.375,36.4375
0.2640543,-0.862949,0.66076857,-0.6232311,0.034611527,0.06893353,-0.13741902,-0.40519103,-0.3636971,0.060007125,3.0760417,-0.62688047,-0.00020232309,-0.12126052,0.036857706,-0.00073596434,-0.018977767,0.0060313023,-0.014426245,0.48104754,-1.364529,1.8833555,-2.08972,-1.569013,2.4576056,-0.17729995,0.13581416,-0.16415723,0.014443707,0.01396272,-0.16279101,-0.4405331,-0.30645782,-8.944737,0.88289046,47.655537,-1.4365366,-2.5079446,-3.3809655,-0.22742265,0.26845062,-0.36700213,28.75,30.0,29.25,32.75,35.375,36.4375
0.2660536,-1.0281174,0.9968386,-0.82288134,0.036682475,0.058687385,-0.14748044,-0.40542054,-0.36362678,0.06002249,3.075963,-0.6268603,-0.00014787828,-0.123196945,0.03639216,0.0023452332,-0.022378346,0.011129579,-0.009484408,0.4806752,-1.364302,1.8830327,-2.089648,-1.5689281,2.4572308,-0.17852889,0.1324089,-0.16717912,0.014805759,0.014633737,-0.16896094,-0.36391866,-0.21068975,-8.925584,0.86945957,47.668976,-1.5018111,-2.2197652,-3.393426,-0.22367108,0.2550127,-0.3664528,28.75,30.0,29.25,32.75,35.375,36.4375
0.26805392,-0.7066834,0.8373752,-1.1278887,0.044999104,0.06182028,-0.15040155,-0.40567404,-0.36355188,0.060028657,3.0758975,-0.62691987,-0.00024861493,-0.12324296,0.037986066,0.0013017874,-0.020917932,0.0084632,-0.003441201,0.48032644,-1.3640496,1.8827218,-2.0896719,-1.5689281,2.4569278,-0.18111992,0.13325629,-0.16611814,0.015957823,0.014610994,-0.17759445,-0.11492168,-0.17238252,-9.174581,0.784413,47.67345,-1.4160199,-2.2285097,-3.3953352,-0.2288078,0.25772035,-0.2861299,28.75,30.0,29.25,32.75,35.375,36.4375
0.27005383,-0.85004103,0.12186289,-1.380945,0.03206213,0.041979235,-0.14633386,-0.40591434,-0.36345434,0.060029455,3.0758789,-0.62691194,-0.00019804406,-0.1251086,0.038360428,0.0019205762,-0.021719001,0.009334765,0.004521752,0.47992957,-1.363797,1.8823985,-2.089588,-1.5688924,2.4565284,-0.18347852,0.13442355,-0.1691121,0.016671631,0.014935799,-0.18791501,-0.11492168,-0.095768064,-9.270349,0.8851263,47.66808,-1.3975269,-2.2025723,-3.3324852,-0.23947525,0.2634004,-0.16822238,28.75,30.0,29.25,32.75,35.375,36.4375
0.2720534,-0.89598787,-0.56326514,-1.2329092,-0.0068498417,0.04773239,-0.14465562,-0.40615058,-0.36336598,0.06002371,3.0759008,-0.6268942,-0.00019321113,-0.126515,0.038769785,0.0024215586,-0.021522399,0.009659699,0.008378488,0.47958112,-1.3635204,1.8820637,-2.0895154,-1.5689043,2.4561663,-0.18510345,0.13556592,-0.17200893,0.018242808,0.0146214655,-0.1933959,-0.28730422,0.038307227,-9.270349,0.87393653,47.687782,-1.2655432,-2.150167,-3.2387056,-0.23938736,0.29003283,-0.08769508,28.75,30.0,29.25,32.75,35.375,36.4375
0.27405328,-0.7934746,-0.6905838,-1.8115346,-0.039549675,0.05400811,-0.14790086,-0.4063965,-0.36327806,0.060013823,3.0758765,-0.6269119,-0.00014477417,-0.12830386,0.039612956,0.002813537,-0.021545088,0.010097611,0.004200148,0.47919607,-1.3632315,1.8817266,-2.0894554,-1.568869,2.4557955,-0.18786184,0.1366974,-0.17451371,0.019227652,0.014439007,-0.19197522,-0.36391866,0.15322891,-9.500193,0.8672237,47.72002,-1.2041028,-2.2351449,-3.1989212,-0.2469617,0.27518907,-0.07035737,28.75,30.0,29.25,32.75,35.375,36.4375
0.27605343,-0.7702466,-0.715471,-2.0002341,-0.063982435,0.07052369,-0.16454265,-0.40668815,-0.36319587,0.060049698,3.0757704,-0.62700945,-0.00024759883,-0.12895548,0.040700868,0.0019863548,-0.020327285,0.008573374,-0.00440056,0.47878763,-1.3629788,1.8813342,-2.0894191,-1.5688447,2.4554617,-0.18990313,0.13845438,-0.1748942,0.019764675,0.0140769435,-0.18541412,-0.34476504,0.2681506,-9.710882,0.900793,47.66271,-1.2242867,-2.1397548,-3.3455234,-0.24082832,0.3074625,-0.108572096,28.75,30.0,29.25,32.75,35.375,36.4375
0.2780544,-1.1403772,-1.5167334,-2.0731785,-0.07856641,0.08321355,-0.15286453,-0.4069523,-0.36311927,0.060049403,3.0757055,-0.62702185,-0.00021497667,-0.12943637,0.04169375,0.0014771757,-0.020407861,0.006709467,-0.015923461,0.4783907,-1.3626782,1.8809637,-2.089371,-1.5687841,2.455081,-0.19243324,0.13927023,-0.17494667,0.020614808,0.015003315,-0.17642076,-0.30645782,0.36391866,-9.768343,0.79560274,47.66091,-1.1838917,-2.1679935,-3.3678422,-0.25438285,0.30223066,-0.21165772,28.75,30.0,29.25,32.75,35.375,36.4375
0.28005403,-1.9257618,-2.0371346,-2.1643238,-0.08270044,0.083185405,-0.1471551,-0.40716404,-0.36303172,0.06001103,3.0757134,-0.6270279,-7.88748e-05,-0.13100359,0.0430236,0.00027866685,-0.019923337,0.004452102,-0.02525967,0.47802928,-1.3623767,1.8806757,-2.089311,-1.5687364,2.4547224,-0.19629495,0.14262423,-0.1763524,0.020894546,0.015592443,-0.17094629,-0.36391866,0.49799395,-9.768343,0.8493211,47.687782,-1.0996082,-2.360968,-3.3294618,-0.2540961,0.31756264,-0.2953631,28.75,30.0,29.25,32.75,35.375,36.4375
0.28205362,-1.9787459,-1.6701534,-2.0929744,-0.09933359,0.09870062,-0.14687632,-0.40744367,-0.36294588,0.060034543,3.0756228,-0.6272037,-0.00015181256,-0.13170016,0.043187335,-0.00083181553,-0.019990826,0.0027670136,-0.031513646,0.47763333,-1.3621116,1.8802937,-2.0892632,-1.568724,2.454448,-0.19756418,0.14569491,-0.17742631,0.020358538,0.016431637,-0.1659594,-0.4405331,0.47884035,-9.749189,0.8314132,47.68062,-1.1330138,-2.1922097,-3.3349648,-0.2620484,0.2844143,-0.4041274,28.75,30.0,29.25,32.75,35.375,36.4375
0.2840542,-2.3126163,-1.858669,-1.9467679,-0.08656525,0.10447137,-0.1598817,-0.40771154,-0.362835,0.0600231,3.0756147,-0.6272779,-0.00013843724,-0.13192266,0.042383056,-0.0004433768,-0.021092106,0.0038338837,-0.03138129,0.4772134,-1.3618113,1.8799461,-2.089204,-1.568724,2.4540756,-0.19658211,0.14596803,-0.17853522,0.019744342,0.016917422,-0.16510935,-0.5363012,0.47884035,-9.844957,0.8537928,47.705692,-1.1560929,-2.3067527,-3.4070046,-0.25537184,0.31022584,-0.4540503,28.75,30.0,29.25,32.75,35.375,36.4375
0.2860542,-1.8684351,-1.4525036,-2.0965023,-0.08210389,0.1124712,-0.16821678,-0.40797132,-0.36276263,0.060021244,3.0755193,-0.6273708,-0.00013386828,-0.13355272,0.042856667,-0.0010361908,-0.021273514,0.003544858,-0.027160462,0.47682863,-1.3615218,1.8796004,-2.0891922,-1.568664,2.453761,-0.19886413,0.14885138,-0.18053183,0.019060057,0.017229153,-0.17161028,-0.40222588,0.36391866,-9.959879,0.9164598,47.696735,-1.0843465,-2.3852472,-3.3521407,-0.23024273,0.28792027,-0.48276648,28.75,30.0,29.25,32.75,35.375,36.4375
0.28805372,-1.6071457,-1.3062699,-2.0908349,-0.051693503,0.09363336,-0.16308248,-0.40825716,-0.36268228,0.060036123,3.0754616,-0.6273906,-0.00023482111,-0.13370608,0.04287984,-0.0020695035,-0.021671778,0.0022205948,-0.016743407,0.47644454,-1.3612326,1.879217,-2.0891802,-1.5686635,2.453397,-0.1995155,0.15085469,-0.18036935,0.017914578,0.01822778,-0.18267673,-0.24899697,0.22984336,-9.710882,0.85155696,47.68599,-1.1441185,-2.503696,-3.4871235,-0.22498488,0.2913536,-0.39330012,28.75,30.0,29.25,32.75,35.375,36.4375
0.29005384,-1.1741953,-0.36391425,-1.7045382,-0.05100256,0.09118532,-0.16596484,-0.4085293,-0.36260954,0.06004477,3.0753806,-0.62736595,-0.0002488178,-0.13510841,0.041772615,-0.0014087312,-0.02294752,0.0047376235,-0.0034175904,0.4760489,-1.3609443,1.878846,-2.0891569,-1.5686034,2.4529965,-0.19875383,0.15250477,-0.18361871,0.016737225,0.018237952,-0.19523847,-0.30645782,0.1340753,-9.634268,0.9567419,47.68599,-1.1926126,-2.429754,-3.474525,-0.20187272,0.30235755,-0.24317446,28.75,30.0,29.25,32.75,35.375,36.4375
0.29205436,-1.2398249,-0.11371746,-1.4570137,-0.03159571,0.088311344,-0.15999252,-0.40882343,-0.36252022,0.060063217,3.0753224,-0.6273311,-0.00031425655,-0.135427,0.041640528,-0.0010857229,-0.023377094,0.0061198897,0.0033793396,0.47562882,-1.3606565,1.8784508,-2.089121,-1.5685796,2.4525623,-0.19853269,0.15218571,-0.18380375,0.015843293,0.01801769,-0.20181316,-0.2681506,0.11492168,-9.442732,0.88289046,47.704796,-1.4478056,-2.4652948,-3.4560556,-0.15683216,0.30115736,-0.17794728,28.75,30.0,29.25,32.75,35.375,36.4375
0.29405388,-1.2537545,-0.47873643,-1.3317996,-0.0005527425,0.07720435,-0.14756201,-0.40905678,-0.36244312,0.060044263,3.075265,-0.6273204,-0.00021601397,-0.1360433,0.041332826,-0.0012473078,-0.023838047,0.0056611532,0.0016411737,0.47524494,-1.3603677,1.8781389,-2.0890853,-1.5684947,2.4521792,-0.19881213,0.15396197,-0.1856815,0.016160361,0.018634727,-0.20035353,-0.21068975,0.038307227,-9.423578,0.8605109,47.690468,-1.5384827,-2.551765,-3.387473,-0.1489296,0.29634792,-0.14089742,28.75,30.0,29.25,32.75,35.375,36.4375
0.29605368,-0.74005955,-0.22660264,-1.2008055,0.0056492514,0.07835269,-0.14664976,-0.4093978,-0.36236605,0.06007542,3.075157,-0.6273204,-0.00039377954,-0.13596003,0.04159954,-0.0018885434,-0.022689708,0.004205311,-0.004968957,0.47481287,-1.360044,1.877685,-2.0891087,-1.5684832,2.4517612,-0.19882351,0.15544027,-0.18625449,0.017071646,0.0183034,-0.19375192,-0.22984336,0.076614454,-9.3661175,0.9030289,47.69763,-1.533248,-2.5432518,-3.453195,-0.1284039,0.3010056,-0.1970383,28.75,30.0,29.25,32.75,35.375,36.4375
0.29805344,-0.22723883,-0.24655361,-0.84602696,0.0046719927,0.06866383,-0.1530787,-0.40964845,-0.36227474,0.06006184,3.0751169,-0.62739384,-0.0003821828,-0.13700911,0.042941198,-0.0030365798,-0.021640858,0.0023514803,-0.014045011,0.47442797,-1.3597553,1.8773636,-2.0890849,-1.5684594,2.4514275,-0.20180216,0.15794851,-0.18672769,0.017163001,0.018210465,-0.18765394,-0.17238252,0.0,-9.193734,0.83589023,47.68599,-1.3324103,-2.4840589,-3.4664235,-0.12831563,0.30077076,-0.30015478,28.75,30.0,29.25,32.75,35.375,36.4375
0.300054,-0.28598437,-0.071970716,-0.9276568,0.0026440735,0.042035125,-0.14724605,-0.40993294,-0.36219564,0.060050152,3.075053,-0.6274407,-0.00036596216,-0.13916163,0.042639747,-0.0006665388,-0.023672748,0.00680583,-0.018892769,0.47401962,-1.3594079,1.8769673,-2.0890605,-1.5684112,2.4510567,-0.20287597,0.1564157,-0.19037628,0.01746233,0.017979018,-0.1838788,-0.1340753,-0.019153614,-9.078813,0.91421866,47.66271,-1.4163232,-2.4656668,-3.363718,-0.103641436,0.3062213,-0.33449015,28.75,30.0,29.25,32.75,35.375,36.4375
0.30205333,0.11429603,0.37647474,-1.0930107,0.009819752,0.034259394,-0.16895689,-0.41022712,-0.36211187,0.060085036,3.0749724,-0.6274435,-0.0004610252,-0.1416673,0.042772572,0.00075390167,-0.024633948,0.0099543715,-0.020246414,0.47361058,-1.3591442,1.8765606,-2.0890129,-1.5683879,2.45066,-0.20477435,0.1570136,-0.19439426,0.017657164,0.01741563,-0.18442088,-0.05746084,-0.1340753,-9.174581,0.88289046,47.667187,-1.2219801,-2.3227065,-3.312061,-0.071070485,0.3212554,-0.38307354,28.75,30.0,29.25,32.75,35.375,36.4375
0.30405426,0.0906471,0.3991601,-0.98915803,0.011908392,0.018697409,-0.16082415,-0.410514,-0.36201623,0.060065277,3.074965,-0.6274768,-0.00046127202,-0.14293759,0.043489456,0.0012050506,-0.025025534,0.009423734,-0.017912418,0.47320217,-1.3587842,1.8761643,-2.0889761,-1.5683874,2.4502735,-0.20730165,0.15770751,-0.19675168,0.019631103,0.018024588,-0.18928102,0.019153614,-0.11492168,-9.193734,0.8873621,47.67345,-1.2178612,-2.3540294,-3.181109,-0.07338083,0.3270507,-0.39817935,28.75,30.0,29.25,32.75,35.375,36.4375
0.3060538,-0.025012951,0.27396303,-1.0183088,0.008579698,0.020627787,-0.15919344,-0.41080266,-0.361924,0.06006846,3.0748973,-0.6275159,-0.00045553266,-0.14353335,0.045181103,-0.00064388785,-0.023162756,0.004782967,-0.010510229,0.47276908,-1.3584714,1.87577,-2.0889275,-1.5683392,2.4498737,-0.21080647,0.16138661,-0.19750595,0.021727724,0.01852238,-0.2001865,0.019153614,0.076614454,-9.078813,0.8806493,47.704796,-1.2542981,-2.243571,-3.232317,-0.07156603,0.31681535,-0.29375467,28.75,30.0,29.25,32.75,35.375,36.4375
0.30805334,0.13543934,-0.14450958,-1.165319,0.0052433563,0.044691905,-0.16594796,-0.41108215,-0.36186463,0.060083024,3.0747879,-0.62750626,-0.00048814688,-0.14463612,0.045699164,0.0015155745,-0.024727609,0.007391658,-0.00038877537,0.47238442,-1.3581728,1.8753752,-2.088915,-1.5682667,2.4494972,-0.21263424,0.15818185,-0.19896938,0.023411386,0.018780462,-0.21213427,0.0,0.1340753,-9.174581,0.83813137,47.695843,-1.0902205,-2.2465293,-3.247964,-0.05122781,0.3239091,-0.17946395,28.75,30.0,29.25,32.75,35.375,36.4375
0.3100538,-1.0922688,-0.13573371,-1.4622117,-0.01638585,0.041806005,-0.16045232,-0.41138697,-0.3617315,0.06007732,3.0747824,-0.6275246,-0.0004626342,-0.14547566,0.04656823,0.0017463331,-0.024983697,0.006527949,0.00057043746,0.4718917,-1.357849,1.8749794,-2.0888302,-1.5682548,2.4490168,-0.21504223,0.15844215,-0.20023203,0.025084557,0.01941634,-0.21550089,-0.114921674,0.15322891,-9.289502,0.85155696,47.679718,-1.0757792,-2.1501727,-3.2603977,-0.077566184,0.32488096,-0.10983492,28.75,30.0,29.25,32.75,35.375,36.4375
0.31205338,-1.2546333,-0.7566829,-1.2677459,-0.050345387,0.077217385,-0.15620032,-0.4116351,-0.36164927,0.060076628,3.0747871,-0.6274336,-0.00039886736,-0.14677699,0.047637224,0.0019820118,-0.024621421,0.006158646,-0.007701494,0.47151843,-1.3575486,1.874595,-2.088722,-1.5682186,2.4485862,-0.21771885,0.15917519,-0.20205116,0.026665796,0.019249085,-0.20990561,-0.3256114,0.21068975,-9.289502,0.8179876,47.63852,-0.9414597,-2.1106288,-3.1706986,-0.068229154,0.32210553,-0.087349966,28.75,30.0,29.25,32.75,35.375,36.4375
0.31405398,-1.175236,-0.79509586,-1.6292986,-0.06306755,0.094608255,-0.16822472,-0.41193718,-0.36155754,0.060089123,3.0746725,-0.6274937,-0.00041699444,-0.14726087,0.048482403,0.0013550172,-0.024277298,0.004424158,-0.01857737,0.47106165,-1.3572489,1.8742007,-2.0886981,-1.5681471,2.4481819,-0.21968286,0.16053289,-0.20248103,0.027438633,0.019731343,-0.20099172,-0.45968673,0.22984336,-9.32781,0.8873621,47.655537,-0.914356,-2.0777168,-3.2618527,-0.09546131,0.3227987,-0.18931557,28.75,30.0,29.25,32.75,35.375,36.4375
0.31605396,-1.745186,-0.88522744,-1.5987206,-0.058852833,0.10517978,-0.16047888,-0.41223937,-0.3614646,0.06010399,3.0746205,-0.62754077,-0.00043696875,-0.14572065,0.046814915,0.0011091074,-0.024456728,0.0033289932,-0.022661813,0.4706315,-1.3569247,1.8737577,-2.0886142,-1.5681223,2.447788,-0.2158104,0.16122833,-0.20295767,0.028104816,0.02038229,-0.19303335,-0.5554548,0.17238252,-9.5385,0.90750587,47.67614,-1.1362741,-2.0609794,-3.4073224,-0.110338405,0.32548785,-0.31086314,28.75,30.0,29.25,32.75,35.375,36.4375
0.3180533,-1.7050802,-1.2178586,-1.8876613,-0.033813067,0.117355935,-0.16290134,-0.41248187,-0.361376,0.060056128,3.0745914,-0.6276537,-0.00023661605,-0.14692286,0.04550316,0.0010740036,-0.025755987,0.0038105824,-0.028653992,0.4702237,-1.3565516,1.8733982,-2.0885308,-1.5680379,2.4474545,-0.21506311,0.1645421,-0.20681635,0.02763476,0.021283848,-0.18629323,-0.49799395,0.15322891,-9.672575,0.8717007,47.683304,-1.3456562,-2.2497437,-3.359782,-0.108821735,0.30589455,-0.40713266,28.75,30.0,29.25,32.75,35.375,36.4375
0.32005414,-2.062541,-0.91373307,-1.5872407,-0.020252576,0.10754184,-0.15209384,-0.41282213,-0.3612677,0.060082793,3.0744991,-0.6277293,-0.000356731,-0.1469107,0.045445453,-0.0009737199,-0.024016855,0.0011497969,-0.028935654,0.4697441,-1.3562385,1.8729552,-2.0885065,-1.5680264,2.4470341,-0.21458521,0.16911818,-0.20759144,0.02700518,0.020959318,-0.18553089,-0.4213795,0.13407528,-9.595961,0.91421866,47.652847,-1.3996129,-2.3018193,-3.3693228,-0.10138397,0.3130557,-0.48082256,28.75,30.0,29.25,32.75,35.375,36.4375
0.3220539,-1.5049886,-0.5051793,-1.7079821,-0.0026280598,0.10159351,-0.15810156,-0.41310072,-0.3611749,0.06008142,3.0744443,-0.62782764,-0.00036454562,-0.14699495,0.045944255,-0.001621623,-0.023935413,0.00025544927,-0.021636706,0.46933594,-1.3559265,1.8725718,-2.0884593,-1.5680026,2.4466946,-0.21556753,0.16987452,-0.2069654,0.026491826,0.021321207,-0.19381155,-0.21068975,0.076614454,-9.557653,0.9791215,47.677036,-1.4827917,-2.258432,-3.4094748,-0.08344296,0.30278057,-0.46902847,28.75,30.0,29.25,32.75,35.375,36.4375
0.3240534,-1.1238683,-0.40236798,-2.0040321,0.0009890251,0.0779695,-0.1662346,-0.4134189,-0.36109358,0.0600956,3.0743299,-0.6278934,-0.00040860422,-0.1482052,0.04661392,-0.0021545712,-0.023497412,7.4745614e-05,-0.010607136,0.46889138,-1.3555903,1.8721293,-2.0884354,-1.5679425,2.446306,-0.21739663,0.17197552,-0.20825018,0.026093123,0.021062165,-0.20666824,-0.17238252,0.076614454,-9.519346,0.90750587,47.675243,-1.4322336,-2.4267635,-3.434701,-0.0737883,0.30226335,-0.35866085,28.75,30.0,29.25,32.75,35.375,36.4375
0.32605398,-1.0649875,-0.8968828,-1.7503335,-0.008904026,0.0542492,-0.15737516,-0.41372555,-0.36099598,0.060107697,3.0743074,-0.62780565,-0.00045685095,-0.14968844,0.047111273,-0.0023391384,-0.023004636,0.0005818397,-0.00024094556,0.4684588,-1.355266,1.8716973,-2.0883753,-1.5679301,2.4458218,-0.21895167,0.17408217,-0.21038842,0.025942538,0.020434001,-0.21858835,-0.21068975,0.15322891,-9.442732,0.8918391,47.67345,-1.4731512,-2.3351908,-3.4958706,-0.06738658,0.31655818,-0.22868012,28.75,30.0,29.25,32.75,35.375,36.4375
0.32805368,-0.55425847,-1.1094247,-1.6523019,-0.028446559,0.059665065,-0.15728575,-0.41402182,-0.36088958,0.06009339,3.0742974,-0.6278032,-0.00041904228,-0.15089524,0.048090786,-0.0022933197,-0.022809742,0.0007893486,0.0009842403,0.46801397,-1.354906,1.8712796,-2.0883038,-1.5679067,2.4453769,-0.22130345,0.17474663,-0.21141835,0.026236162,0.020175967,-0.22216561,-0.38307226,0.15322891,-9.404425,0.8179876,47.704796,-1.3898835,-2.4644141,-3.4594154,-0.058273435,0.33346987,-0.15131602,28.75,30.0,29.25,32.75,35.375,36.4375
0.33005428,-0.24480943,-0.6968048,-1.5829835,-0.050168745,0.0600827,-0.16334462,-0.4143129,-0.3607901,0.060066607,3.0742629,-0.6278191,-0.00035783317,-0.15158384,0.048070535,-0.0019705626,-0.023829604,0.00015952889,-0.0060495343,0.46757007,-1.3545344,1.8708838,-2.088267,-1.5678581,2.4449475,-0.22241524,0.17550887,-0.2134347,0.027591141,0.021355694,-0.21624193,-0.40222588,0.19153613,-9.404425,0.9097417,47.696735,-1.4165235,-2.290029,-3.418235,-0.034157556,0.3215076,-0.15795074,28.75,30.0,29.25,32.75,35.375,36.4375
0.3320538,-0.7822426,-1.1528529,-1.589807,-0.04886803,0.055513445,-0.15983678,-0.41464925,-0.3607069,0.060101137,3.074133,-0.62783605,-0.00042087163,-0.1528285,0.049270894,-0.0012819949,-0.024702115,-0.00013891983,-0.016385961,0.4671008,-1.3542105,1.8704041,-2.0882185,-1.5677856,2.4445057,-0.22585934,0.17491806,-0.21472903,0.029351776,0.022280084,-0.20934609,-0.2681506,0.21068975,-9.385271,0.8090337,47.693153,-1.398488,-2.4064438,-3.3620443,-0.05713368,0.31823933,-0.25743592,28.75,30.0,29.25,32.75,35.375,36.4375
0.3340536,-0.83584696,-0.82700247,-1.2983308,-0.055908926,0.0643481,-0.16403167,-0.41495347,-0.36059955,0.06010132,3.0740936,-0.6279083,-0.00043978868,-0.15484323,0.049892306,-0.00048723037,-0.02547212,0.0010373717,-0.02329587,0.46665558,-1.3538747,1.869985,-2.0881584,-1.5677737,2.4441109,-0.2285361,0.17572303,-0.21773592,0.030156031,0.022432072,-0.2051112,-0.30645782,0.19153613,-9.404425,0.96569055,47.674347,-1.1843946,-2.3294125,-3.3136,-0.07787459,0.3134734,-0.33853716,28.75,30.0,29.25,32.75,35.375,36.4375
0.3360538,-1.29351,-0.930136,-1.3049301,-0.029039422,0.069874406,-0.14849092,-0.4152489,-0.3605095,0.06010118,3.074027,-0.6278767,-0.00039953462,-0.15669894,0.051206786,-0.00095028314,-0.026259929,0.00027901205,-0.028796308,0.46621028,-1.3535383,1.8695658,-2.0880988,-1.5677012,2.4436545,-0.23277864,0.17762162,-0.21895131,0.029813366,0.023479933,-0.2038509,-0.40222588,0.34476504,-9.289503,0.96569055,47.677036,-1.0319725,-2.279016,-3.4358225,-0.0778658,0.29506817,-0.38269544,28.75,30.0,29.25,32.75,35.375,36.4375
0.33805373,-0.62539035,-0.16049905,-1.4095424,-0.0014566759,0.082170315,-0.16280904,-0.41554534,-0.3604044,0.060081065,3.0739856,-0.6279618,-0.00032515544,-0.15769522,0.05055711,-0.00045741632,-0.028422836,0.00021583601,-0.025065726,0.465754,-1.3531663,1.8691462,-2.0880272,-1.5676531,2.4432569,-0.23356462,0.17891291,-0.2218453,0.030528536,0.025448978,-0.20836458,-0.22984336,0.1340753,-9.251195,0.8605109,47.675243,-0.99595547,-2.2047284,-3.3611069,-0.054102905,0.26793227,-0.3642944,28.75,30.0,29.25,32.75,35.375,36.4375
0.34005353,-0.5933834,-0.03787259,-1.361446,0.010343382,0.0738479,-0.16339941,-0.4158673,-0.36031538,0.060075503,3.0739524,-0.6279092,-0.00031891826,-0.1571719,0.04983059,-3.5112243e-06,-0.028543646,-0.00020724135,-0.012805932,0.4653103,-1.3527704,1.868667,-2.0879662,-1.5676163,2.4427848,-0.2319328,0.17883348,-0.2232677,0.03240551,0.025787469,-0.21899146,-0.19153614,0.038307227,-9.270349,0.90750587,47.684196,-0.9947301,-2.1651764,-3.378428,-0.08264023,0.22013915,-0.27129912,28.75,30.0,29.25,32.75,35.375,36.4375
0.34205344,-1.4760312,-0.5780664,-1.051095,0.0038463185,0.06953013,-0.14465469,-0.41618928,-0.3602216,0.060084887,3.0738451,-0.62795776,-0.0002983125,-0.15804191,0.049732275,-5.530535e-05,-0.028225051,-4.1256302e-05,-0.0025238064,0.46483064,-1.3524216,1.8682112,-2.0879066,-1.5675329,2.4423494,-0.23212631,0.18072371,-0.22560409,0.03291186,0.02546983,-0.22946553,-0.38307226,0.076614454,-9.078813,0.86498255,47.651955,-1.1240573,-2.3368344,-3.3770962,-0.07859316,0.2255967,-0.14375266,28.75,30.0,29.25,32.75,35.375,36.4375
0.3440541,-0.89593256,-0.17849694,-1.537063,0.0113787325,0.07412659,-0.15304017,-0.41652367,-0.36013088,0.060114708,3.0737605,-0.6278999,-0.000396113,-0.15862036,0.049953803,-0.00034197225,-0.027203023,-0.0014955263,-0.0011246621,0.46437472,-1.3520976,1.8677438,-2.0878694,-1.5674967,2.4418685,-0.23266082,0.18292673,-0.22815329,0.035043225,0.025242375,-0.23139592,-0.2873042,-0.076614454,-9.193734,0.8605109,47.68062,-1.27702,-2.2611275,-3.2789085,-0.1008804,0.22982985,-0.09522066,28.75,30.0,29.25,32.75,35.375,36.4375
0.34605357,-1.1773514,0.034011815,-1.6019888,0.016034765,0.05514453,-0.14926387,-0.41682556,-0.36001328,0.06009065,3.0737405,-0.6279581,-0.00029113417,-0.15845028,0.050484337,-0.00015523218,-0.026706407,-0.0031953186,-0.007728783,0.46389434,-1.3517143,1.8673133,-2.087773,-1.5674485,2.4414272,-0.23341227,0.1827392,-0.22905949,0.037882116,0.025540631,-0.22554402,-0.17238252,-0.019153614,-9.346964,0.86945957,47.693153,-1.2777909,-2.151008,-3.276887,-0.13060702,0.21343276,-0.11445842,28.75,30.0,29.25,32.75,35.375,36.4375
0.34805417,-1.1781472,-0.7047778,-1.3588958,-0.0019208782,0.058571614,-0.14250872,-0.41713434,-0.3599221,0.06010347,3.0736594,-0.6279645,-0.00026572833,-0.15829185,0.050377194,-0.0011960219,-0.02625366,-0.005567066,-0.016451668,0.4634382,-1.3513776,1.8668584,-2.0876892,-1.5673765,2.4409857,-0.2333134,0.18524614,-0.22994584,0.038581174,0.026182007,-0.21671994,-0.34476504,0.095768064,-9.289502,0.8224646,47.691364,-1.3784622,-2.2188637,-3.2807505,-0.15604177,0.18979561,-0.23845889,28.75,30.0,29.25,32.75,35.375,36.4375
0.3500534,-0.70499206,-0.7661532,-1.3912787,-0.013082271,0.07145663,-0.15170254,-0.4174497,-0.35981238,0.060088806,3.0736296,-0.62805855,-0.00025711692,-0.15957552,0.050498057,-0.0011553521,-0.026523136,-0.0046997773,-0.026092187,0.4629823,-1.3509934,1.8664135,-2.087629,-1.5673646,2.4405925,-0.23431285,0.18682009,-0.23188198,0.038032852,0.026008565,-0.20807825,-0.4213795,0.038307227,-9.251195,0.95002913,47.65912,-1.5095284,-2.203597,-3.1994054,-0.16744694,0.18753219,-0.34111422,28.75,30.0,29.25,32.75,35.375,36.4375
0.35205412,-0.8164872,-0.9900631,-1.711207,-0.01224423,0.07294833,-0.14716084,-0.4178013,-0.35970908,0.0600906,3.0735428,-0.628141,-0.00024217623,-0.1598906,0.05116696,-0.0007209059,-0.026224535,-0.005384239,-0.03388754,0.46247792,-1.350586,1.8659004,-2.0875566,-1.5673045,2.440151,-0.2355138,0.18643594,-0.23297538,0.04025895,0.02604106,-0.20148289,-0.24899697,0.076614454,-9.3661175,0.8873621,47.655537,-1.4540212,-2.1903622,-3.2750645,-0.171487,0.18518782,-0.47274077,28.75,30.0,29.25,32.75,35.375,36.4375
0.3540539,-1.5942167,-1.7451725,-1.2958493,-0.012790792,0.06144474,-0.14186956,-0.41810146,-0.3596194,0.060095634,3.07347,-0.6281822,-0.00018684045,-0.16091758,0.05248954,-0.0007522202,-0.025779517,-0.006424684,-0.033075057,0.4620326,-1.3502374,1.8654455,-2.0874603,-1.5672325,2.439741,-0.23846106,0.18707842,-0.23411942,0.04192941,0.026123863,-0.20524207,-0.11492168,0.21068975,-9.270349,0.94331104,47.640312,-1.3347702,-2.117868,-3.3552191,-0.21474463,0.15588659,-0.49800944,28.75,30.0,29.25,32.75,35.375,36.4375
0.3560539,-1.4623246,-0.89655435,-1.5549809,-0.019601572,0.046460666,-0.15638275,-0.41839048,-0.35948834,0.060059812,3.073501,-0.6282384,-7.450862e-05,-0.16254371,0.05282476,-0.0009905883,-0.025470648,-0.0062704477,-0.02164486,0.46156412,-1.3498534,1.8650373,-2.0873525,-1.5672206,2.4393036,-0.2400176,0.189841,-0.23704143,0.042150326,0.025794992,-0.21823026,-0.019153614,0.17238252,-9.193734,0.89631605,47.661808,-1.3068445,-2.2532651,-3.410573,-0.25271237,0.14780354,-0.431052,28.75,30.0,29.25,32.75,35.375,36.4375
0.35805362,-0.8626291,-0.8252537,-1.7480417,-0.012674328,0.04111452,-0.14974311,-0.4187497,-0.35938936,0.060084764,3.0733683,-0.6282627,-0.000113351336,-0.16447067,0.054123875,-0.0007577428,-0.02627185,-0.00508156,-0.011743262,0.46104735,-1.3494936,1.8645347,-2.0873048,-1.5671366,2.4388194,-0.24373801,0.1902752,-0.2379567,0.04129053,0.026043078,-0.23184948,0.0,0.17238252,-9.232042,0.8179876,47.687782,-1.2573366,-2.172113,-3.4476533,-0.2595303,0.13466993,-0.28427044,28.75,30.0,29.25,32.75,35.375,36.4375
0.3600542,-0.107492335,-0.6586443,-1.6058551,-0.02550704,0.05333101,-0.148989,-0.41908213,-0.3592894,0.06007651,3.073326,-0.6282714,-4.1069594e-05,-0.16537046,0.055214617,-0.0018256298,-0.025374345,-0.0060092714,-0.007475453,0.46056616,-1.3490733,1.8640202,-2.087197,-1.5670766,2.4383492,-0.2458893,0.19245714,-0.23807813,0.04051161,0.025668234,-0.23826936,-0.15322891,0.24899697,-9.289502,0.8940802,47.689575,-1.0612558,-2.2278528,-3.5104713,-0.2661018,0.11162226,-0.19280417,28.75,30.0,29.25,32.75,35.375,36.4375
0.36205402,-0.38160923,-1.0879623,-1.5466511,-0.030084837,0.04696572,-0.14779212,-0.41938668,-0.35917312,0.060048003,3.0733297,-0.6283148,1.2675131e-05,-0.16598362,0.055045098,-0.00203952,-0.025137909,-0.005851104,-0.01374265,0.46011046,-1.3486772,1.8635887,-2.0871255,-1.5670646,2.4379203,-0.24575193,0.19416107,-0.239701,0.040385813,0.025357882,-0.23186542,-0.11492168,0.17238252,-9.3661175,0.90527004,47.67345,-1.1628547,-2.1438653,-3.5210965,-0.27903086,0.12639229,-0.20398927,28.75,30.0,29.25,32.75,35.375,36.4375
0.36405388,-1.1707218,-1.1219585,-1.5936652,-0.029198594,0.047126938,-0.13637786,-0.4197199,-0.35906795,0.060049217,3.073242,-0.6283775,7.8815654e-05,-0.16715391,0.0551202,-0.0029784034,-0.025146771,-0.007312651,-0.021345316,0.4596059,-1.3482918,1.8630975,-2.0870302,-1.5669802,2.4374664,-0.24703859,0.19794862,-0.24224664,0.040455963,0.025995769,-0.22554696,-0.40222588,0.1340753,-9.3661175,0.83813137,47.66539,-1.091439,-2.4049544,-3.5822177,-0.29904884,0.12044799,-0.29386458,28.75,30.0,29.25,32.75,35.375,36.4375
0.36605397,-0.9814895,-1.165983,-1.7706953,-0.018974,0.07189191,-0.1441046,-0.42008555,-0.35894206,0.060063183,3.073174,-0.62846375,3.9181567e-05,-0.16963999,0.055761322,-0.0022530644,-0.026453463,-0.0055138497,-0.029113455,0.4590769,-1.3479081,1.8625821,-2.0869467,-1.5669564,2.4370003,-0.25018188,0.19918609,-0.24538939,0.040169854,0.026362201,-0.22091922,-0.36391866,0.19153613,-9.346964,0.88289046,47.68062,-1.132133,-2.3356545,-3.4087145,-0.2954889,0.09771918,-0.38526407,28.75,30.0,29.25,32.75,35.375,36.4375
0.3680543,-1.2891747,-1.0023878,-1.7717987,-0.02235182,0.08070625,-0.14627846,-0.42039874,-0.35882694,0.060020674,3.0731149,-0.6286037,0.00019336076,-0.1699968,0.0552703,-0.001823782,-0.027207779,-0.0048645465,-0.02699073,0.4585732,-1.3474764,1.8621386,-2.0868742,-1.566872,2.4365916,-0.24969347,0.19955203,-0.24695532,0.04049068,0.026743049,-0.22255427,-0.3256114,0.24899697,-9.423578,0.8224646,47.687782,-1.1257774,-2.3322682,-3.4841986,-0.3233455,0.07021603,-0.41006234,28.75,30.0,29.25,32.75,35.375,36.4375
0.37005356,-1.5696701,-0.79817355,-1.5651256,-0.037709247,0.09169669,-0.15388076,-0.42073873,-0.35872188,0.060038194,3.0730665,-0.62858766,0.00018118636,-0.17058402,0.054573987,-0.0016464274,-0.026894342,-0.004073912,-0.01754189,0.45809394,-1.3471041,1.8616232,-2.0867665,-1.5668362,2.4361088,-0.24845104,0.20129195,-0.24962941,0.040909756,0.026142767,-0.23075977,-0.4213795,0.24899697,-9.3661175,0.9791215,47.70032,-1.1935079,-2.3233275,-3.390388,-0.35374734,0.07853755,-0.34709388,28.75,30.0,29.25,32.75,35.375,36.4375
0.37205413,-2.1033387,-0.9845106,-1.383191,-0.048628047,0.110296585,-0.16388258,-0.42108983,-0.35863158,0.06001835,3.0729651,-0.6286744,0.0002283276,-0.17319487,0.05361068,0.00040119677,-0.029461851,0.0024073727,-0.004782498,0.45760164,-1.3466488,1.8611082,-2.0867317,-1.5667528,2.435684,-0.24846913,0.20089962,-0.2532124,0.0380219,0.025615215,-0.24353662,-0.51714754,0.2681506,-9.32781,0.8605109,47.66808,-1.2937456,-2.2649226,-3.3356385,-0.35096636,0.064887315,-0.22427654,28.75,30.0,29.25,32.75,35.375,36.4375
0.37405363,-1.6316127,-0.6320506,-1.6746346,-0.045212317,0.1329959,-0.1567169,-0.4214391,-0.35850766,0.060025185,3.072945,-0.6286476,0.00020663081,-0.17358455,0.051914886,-0.00027906764,-0.029943602,0.0034791376,0.0047552763,0.4570984,-1.346264,1.8606042,-2.0866368,-1.5667409,2.4351668,-0.2457395,0.20432901,-0.25535384,0.035603005,0.02559772,-0.25034314,-0.59376204,0.15322891,-9.442732,0.85826975,47.66271,-1.4388392,-2.2499046,-3.1367786,-0.32036436,0.05810651,-0.10146074,28.75,30.0,29.25,32.75,35.375,36.4375
0.3760536,-2.3383276,-0.8759105,-1.7365893,-0.026477495,0.11311378,-0.14124711,-0.42179573,-0.35840097,0.06003099,3.072871,-0.62861556,0.00022937631,-0.17474888,0.05313405,0.00047843094,-0.030285314,0.004588669,-0.00020418936,0.45658198,-1.345857,1.8600782,-2.0865529,-1.5666689,2.4346402,-0.24841075,0.20318721,-0.25587875,0.036145758,0.025425628,-0.24805458,-0.61291564,0.17238252,-9.557653,0.8940802,47.675243,-1.4699647,-2.2430046,-3.2421238,-0.33382177,0.05160456,-0.121318385,28.75,30.0,29.25,32.75,35.375,36.4375
0.3780542,-2.551431,-1.1787078,-1.6999389,-0.028775506,0.110171996,-0.14106338,-0.42216474,-0.358307,0.06004529,3.0727408,-0.62871027,0.00019291039,-0.17609443,0.054489877,-0.0002071028,-0.02983043,0.0048317905,-0.012370386,0.45607707,-1.3454485,1.8595394,-2.0865057,-1.5665969,2.4342115,-0.25124317,0.20458761,-0.25574866,0.034591034,0.024907386,-0.23871952,-0.80445176,0.19153613,-9.461885,0.87393653,47.675243,-1.4786931,-2.283537,-3.4243248,-0.32148463,0.033525016,-0.19053231,28.75,30.0,29.25,32.75,35.375,36.4375
