Tylouw/Master_Thesis_Code/training_data/batch_1/rect_rod_t0.2/sample_72_session_3.csv
timestamp[s],tcp_force_x[N],tcp_force_y[N],tcp_force_z[N],tcp_force_rx[Nm?],tcp_force_ry[Nm?],tcp_force_rz[Nm?],tcp_pose_x[m],tcp_pose_y[m],tcp_pose_z[m],tcp_pose_rx[rot_vec_x],tcp_pose_ry[rot_vec_y],tcp_pose_rz[rot_vec_z],tcp_velo_x[m/s],tcp_velo_y[m/s],tcp_velo_z[m/s],tcp_velo_rx[rot_vec_x/s],tcp_velo_ry[rot_vec_y/s],tcp_velo_rz[rot_vec_z/s],q1[rad],q2[rad],q3[rad],q4[rad],q5[rad],q6[rad],qd1[rad/s],qd2[rad/s],qd3[rad/s],qd4[rad/s],qd5[rad/s],qd6[rad/s],tool_acc_x,tool_acc_y,tool_acc_z,current_of_whole_robot[A],voltage_of_whole_robot[V],current_J1[A],current_J2[A],current_J3[A],current_J4[A],current_J5[A],current_J6[A],temp_J1[C],temp_J2[C],temp_J3[C],temp_J4[C],temp_J5[C],temp_J6[C]
1.3039989e-06,-0.7332119,-1.1422546,-0.37233725,-0.014312896,0.0037755808,0.010477037,-0.38934535,-0.36872378,0.060005248,-3.0787034,0.62500453,0.00022040046,0.0016151773,0.00088307564,-0.0016376573,0.0022612659,-0.0044733738,1.6623195e-05,0.50503284,-1.3816315,1.9041995,-2.0919392,-1.5708536,2.480073,-9.667838e-05,0.0009204696,0.0022132588,0.0018745435,0.00019461676,-0.00011453798,0.1340753,0.13407528,-8.714894,0.7665104,47.737934,-0.19041905,-3.233072,-2.3657067,-0.19670588,0.16704473,-0.027555084,28.9375,30.375,29.375,32.9375,35.4375,36.5
0.002054179,0.056401603,-0.4492236,-0.2834652,-0.030654596,0.02901774,-0.002616071,-0.38933218,-0.36872798,0.06000504,-3.078733,0.624876,0.00019766642,-0.0010969563,-0.0006238277,-0.001488024,-0.0019040393,0.0030283988,1.8403136e-05,0.50504476,-1.381643,1.9042119,-2.091931,-1.5708417,2.480001,-9.4149975e-05,0.0024870539,0.00235633,-0.008415677,0.00018654775,-0.00011249503,0.076614454,0.21068975,-8.599973,0.7351769,47.71465,-0.20461254,-3.0408158,-2.335584,-0.17561206,0.15917395,-0.030801227,28.9375,30.375,29.375,32.9375,35.4375,36.5
0.00405438,-0.30676585,-0.48625252,-0.27353123,-0.031753164,0.023963958,-0.00014896467,-0.38934797,-0.36871642,0.06001044,-3.0786955,0.62496465,0.00024937774,-0.0020513455,-0.0011531771,-0.0012552023,-0.0034209876,0.005771337,1.9271192e-05,0.50503284,-1.3816429,1.9041995,-2.0919316,-1.5708774,2.4800491,-9.175027e-05,0.0027476635,0.0022690855,-0.011723486,0.00017912088,-0.00011052153,0.038307227,0.22984336,-8.734048,0.69937176,47.70659,-0.10985561,-3.3684192,-2.5792985,-0.044575285,0.1505902,-0.034246683,28.9375,30.375,29.375,32.9375,35.4375,36.5
0.006053901,-0.5781084,-0.6728753,-0.39199674,-0.015402117,0.007206023,0.000487425,-0.38933614,-0.36870983,0.05999323,-3.0786874,0.62496305,0.00023380759,-0.0008418335,-0.00048554037,-0.0010768011,-0.0014882333,0.002278486,1.9141931e-05,0.50503284,-1.3816432,1.9042467,-2.0919654,-1.5708774,2.4800491,-8.947003e-05,0.0018453657,0.0016869367,-0.006247127,0.00018913066,-0.000108616056,0.0,0.13407528,-8.695741,0.7530795,47.699425,-0.15346065,-3.297431,-2.5201268,-0.07096466,0.1655423,-0.029484797,28.9375,30.375,29.375,32.9375,35.4375,36.5
0.008054073,0.32650736,0.64598805,-0.6209945,0.00020229189,-0.002717624,-0.008145459,-0.38934788,-0.3687109,0.059993975,-3.0786924,0.62498355,0.00019272548,0.00028394524,0.00013633995,-0.00047697293,4.8520353e-05,-0.00049576996,1.8852532e-05,0.50500876,-1.3816197,1.9042114,-2.0919397,-1.5708536,2.4800372,-8.730042e-05,0.00015240365,0.0010813578,-0.00077714626,0.00019794438,-0.00010677517,-0.019153614,0.22984336,-8.714894,0.7530795,47.696735,-0.16231914,-3.1898599,-2.4639857,-0.1125519,0.16584672,-0.039879806,28.9375,30.375,29.375,32.9375,35.4375,36.5
0.010054362,0.050633688,0.6992373,-1.0387872,0.018272202,-0.01615234,-0.0034271677,-0.3893373,-0.36872646,0.059995756,-3.0786955,0.6249264,0.00017724706,0.0009282587,0.00049568445,-0.00053863414,0.0012048838,-0.0025626326,3.1838943e-05,0.5050448,-1.3816078,1.9041876,-2.091915,-1.5708536,2.4800372,-8.538589e-05,2.0446894e-06,0.00075370853,0.0020692053,0.00019193708,-0.000118032985,0.038307227,0.17238252,-9.097966,0.7016076,47.73256,-0.6261194,-2.6996245,-3.054037,-0.11419773,0.11900699,-0.10968189,28.9375,30.375,29.375,32.9375,35.4375,36.5
0.012053882,-0.21350703,0.19937602,-1.0789442,-0.002065522,0.0058418005,-0.0009660305,-0.38931638,-0.36871156,0.05998018,-3.0786662,0.62496036,0.00010830358,-0.0005430297,0.0018756958,-8.371954e-05,0.0014801052,-0.0029887357,-0.003526121,0.5050319,-1.3816198,1.9042343,-2.091902,-1.5708417,2.4800491,-0.0037632587,2.7432117e-08,-0.0007307204,0.0040618316,0.00015860698,-0.00023750898,0.1340753,0.15322891,-9.212888,0.7463667,47.72719,-0.8580854,-2.5970833,-3.16437,-0.12061781,0.11142798,-0.16536546,28.9375,30.375,29.375,32.9375,35.4375,36.5
0.014054062,-0.96757996,-0.7715161,-1.4750489,-0.0305171,0.020539848,-0.0021397246,-0.38931495,-0.36868906,0.059947446,-3.078612,0.62485045,5.6674464e-05,-0.0044577634,0.0029411295,-0.004290811,0.004569372,-0.008593398,0.00092114904,0.5050177,-1.381567,1.9042438,-2.0918906,-1.5708774,2.4799733,-0.009222226,0.0136127,-0.0070314966,0.0031478032,0.00014965226,-0.010138901,0.1340753,0.095768064,-9.385271,0.7351769,47.69763,-0.444471,-3.1781902,-3.0479476,-0.10704172,0.11894183,-0.107702464,28.9375,30.375,29.375,32.9375,35.4375,36.5
0.01605353,-1.3783047,-1.2267343,-1.5806895,-0.06119732,0.048995398,-0.022481244,-0.3893294,-0.36867988,0.059940897,-3.0785873,0.6248997,1.4085228e-06,-0.005439038,0.0031610434,-0.0039046642,0.004016745,-0.007592639,0.0068116942,0.5049812,-1.381531,1.9042081,-2.0918548,-1.5708655,2.4799707,-0.010507001,0.013724959,-0.007971161,0.0028309205,0.00014460216,-0.017313782,-0.21068975,0.19153613,-9.423578,0.7463667,47.698532,-0.44491357,-3.2606618,-3.0890245,-0.065787256,0.104553014,-0.06058337,28.9375,30.375,29.375,32.9375,35.4375,36.5
0.018053535,-1.9759854,-1.9077213,-1.51693,-0.06292276,0.06915401,-0.03444688,-0.38932747,-0.36869037,0.059940625,-3.0786085,0.62484384,-1.0077837e-05,-0.0050519407,0.0033410604,-0.0025369388,0.0034674858,-0.0065810224,0.012334696,0.50499326,-1.3815202,1.9041957,-2.0918539,-1.5708536,2.4799452,-0.010442875,0.010461051,-0.0076289126,0.0046008634,0.00014008458,-0.022773499,-0.38307226,0.24899697,-9.442732,0.7239871,47.690468,-0.58069295,-2.8339653,-3.295355,-0.07434726,0.097306415,-0.009069014,28.9375,30.375,29.375,32.9375,35.4375,36.5
0.02005362,-1.89757,-1.0114201,-1.9108883,-0.04540196,0.080560185,-0.0633668,-0.38930792,-0.36866963,0.05989521,-3.0785475,0.62479323,-0.00016737067,-0.004951635,0.0037263045,-0.0030445957,0.0054396545,-0.010136501,0.011833145,0.5049692,-1.3814592,1.9042186,-2.0918162,-1.5708417,2.4798973,-0.010996968,0.012683341,-0.0100702625,0.0088860225,0.00013585424,-0.022825152,-0.45968673,0.17238252,-9.595961,0.7105615,47.758533,-0.8130571,-2.8117611,-3.4549932,-0.09491332,0.073487885,0.011559209,28.9375,30.375,29.375,32.9375,35.4375,36.5
0.02205347,-2.247835,-0.8968149,-1.9472677,-0.0139409015,0.06810573,-0.07985169,-0.38930112,-0.36866093,0.059881404,-3.0785038,0.62473035,-0.00024043188,-0.006659789,0.0042282627,-0.0021990503,0.005082567,-0.009488405,0.005958741,0.5049683,-1.3814232,1.9041938,-2.091756,-1.5708536,2.4798627,-0.013438085,0.01320063,-0.012980289,0.010539086,0.00013187215,-0.01939077,-0.51714754,0.22984336,-9.749189,0.7732232,47.709274,-0.8727795,-2.712197,-3.3499227,-0.101793036,0.0671504,-0.05460405,28.9375,30.375,29.375,32.9375,35.4375,36.5
0.024053413,-2.0723226,-0.58649576,-1.9734302,-0.016981382,0.07189401,-0.09797903,-0.38935187,-0.3686747,0.059927303,-3.0785797,0.6247472,-9.7729644e-05,-0.007834996,0.0044060717,-0.003165615,0.005525576,-0.01023912,0.002918386,0.50494397,-1.3814459,1.9041218,-2.091781,-1.5708536,2.4798393,-0.01482013,0.016536688,-0.014511293,0.009605734,0.000104216175,-0.01773114,-0.6703765,0.21068975,-9.691729,0.7642693,47.686886,-0.82678926,-2.7684662,-3.3708482,-0.08926962,0.051170666,-0.07548494,28.9375,30.375,29.375,32.9375,35.4375,36.5
0.026054176,-1.3740419,-0.34762534,-1.9625541,-0.03029578,0.0950549,-0.124764346,-0.38937098,-0.36865819,0.059907947,-3.0785472,0.6247984,-0.00019515505,-0.009006474,0.004828783,-0.0034826165,0.005670268,-0.010463858,0.00047611698,0.5048834,-1.3813853,1.904086,-2.0917447,-1.5708297,2.4798148,-0.016613519,0.018336732,-0.015879884,0.009441566,8.1310216e-05,-0.017081363,-0.7278373,0.15322891,-9.844957,0.7351769,47.678825,-0.8438829,-2.777809,-3.3389537,-0.079243384,0.057519704,-0.10795377,28.9375,30.375,29.375,32.9375,35.4375,36.5
0.02805428,-2.4581828,-0.9562495,-2.032634,-0.03079052,0.08810056,-0.108155504,-0.3894048,-0.3686583,0.0599095,-3.0785422,0.62481743,-0.00016886787,-0.009311222,0.004806487,-0.0031474025,0.005826303,-0.010481289,-0.00076421007,0.5048594,-1.3813372,1.9040254,-2.0917442,-1.5708417,2.4798033,-0.016780308,0.018522883,-0.017124087,0.010590773,-4.6653386e-05,-0.016007185,-0.7661445,0.13407528,-9.730036,0.7284641,47.655537,-0.9000826,-2.8143184,-3.39437,-0.073890805,0.032195967,-0.108251065,28.9375,30.375,29.375,32.9375,35.4375,36.5
0.030053394,-2.3969936,-0.77341807,-1.7557732,-0.04563156,0.105900384,-0.13789363,-0.38937786,-0.36865655,0.05988665,-3.0785336,0.62472135,-0.00030679486,-0.00971404,0.005225462,-0.0033708045,0.0064271647,-0.011349202,-0.0024737166,0.504859,-1.3813127,1.9040378,-2.0916965,-1.5708054,2.479744,-0.017796881,0.019434927,-0.017900452,0.011506404,-0.00015342924,-0.015313689,-0.7852981,0.038307227,-9.730036,0.7732232,47.73256,-0.90592027,-2.7927184,-3.4094567,-0.08537136,0.019358646,-0.13853426,28.9375,30.375,29.375,32.9375,35.4375,36.5
0.032053422,-2.8062992,-0.81958914,-2.0032325,-0.024274765,0.099665366,-0.13829932,-0.38943207,-0.3686375,0.05989037,-3.0784736,0.62488145,-0.00026921963,-0.010917298,0.005129433,-0.002349181,0.0057066362,-0.009961977,-0.0032789358,0.5047988,-1.3812528,1.903953,-2.0916722,-1.5708417,2.4797914,-0.018731397,0.019367272,-0.020366715,0.012477231,-0.00019760472,-0.01544201,-0.7469909,0.019153614,-9.825804,0.69937176,47.70032,-0.88833606,-2.6406484,-3.4182901,-0.07978577,0.014831403,-0.15946311,28.9375,30.375,29.375,32.9375,35.4375,36.5
0.03405391,-2.276306,-0.18010767,-1.9389074,-0.008381022,0.101984434,-0.14438552,-0.389443,-0.36861923,0.05985934,-3.0784442,0.62487584,-0.00035225882,-0.012255497,0.005337814,-0.00205656,0.00634352,-0.00849714,-0.003386023,0.50475067,-1.3811922,1.903952,-2.0916722,-1.5708302,2.4797435,-0.019539578,0.020518066,-0.022365432,0.012355717,-0.0014698548,-0.016139688,-0.68953013,-0.15322891,-9.768343,0.7777002,47.72002,-0.94236016,-2.7174873,-3.3618221,-0.075567216,0.008188725,-0.15879293,28.9375,30.375,29.375,32.9375,35.4375,36.5
0.03605347,-2.1416266,-0.6478376,-2.0738003,0.029629102,0.080053784,-0.14818864,-0.38947484,-0.36861283,0.059857905,-3.0784528,0.62483925,-0.00038042504,-0.013375517,0.0053258105,-0.0020812135,0.006216428,-0.0081664,-0.003291947,0.5047023,-1.3811436,1.9038924,-2.0916483,-1.5708178,2.4796712,-0.02053242,0.0221869,-0.024252301,0.012222987,-0.0015241348,-0.017225435,-0.5554548,-0.11492168,-9.787497,0.82022345,47.698532,-0.8995368,-2.7482886,-3.3573031,-0.083767824,0.007917868,-0.17233008,28.9375,30.375,29.375,32.9375,35.4375,36.5
0.038053513,-2.0468173,-0.49899277,-2.1251976,0.029277842,0.059829045,-0.17378177,-0.38950586,-0.36859223,0.059856478,-3.0784242,0.6248908,-0.00035428588,-0.014206976,0.0058690654,-0.002254773,0.006187334,-0.008458568,-0.0035798755,0.5046539,-1.3811195,1.9038671,-2.0916483,-1.5708421,2.4796586,-0.022325726,0.023026636,-0.024849797,0.01222111,-0.0013598136,-0.018730748,-0.47884035,-0.21068975,-9.787497,0.7530795,47.681515,-0.9255929,-2.7757356,-3.4225683,-0.0571182,-0.021804646,-0.17097767,28.9375,30.375,29.375,32.9375,35.4375,36.5
0.040053498,-1.2960135,-0.71953666,-2.0698817,0.025740586,0.05442301,-0.18046524,-0.38954684,-0.36858886,0.059851263,-3.0783846,0.6249597,-0.00037210825,-0.015688425,0.00624012,-0.0014526309,0.005578329,-0.0074839117,-0.0043828036,0.5046172,-1.3810353,1.9037713,-2.0916116,-1.5708541,2.47967,-0.024369273,0.023187293,-0.027074542,0.013136905,-0.0013020464,-0.019970609,-0.4213795,-0.19153614,-9.691729,0.7351769,47.741516,-0.90307724,-2.675694,-3.3790658,-0.058499664,-0.032181192,-0.19429196,28.9375,30.375,29.375,32.9375,35.4375,36.5
0.042053655,-0.9792914,-0.77736974,-1.9651994,0.015728619,0.05097946,-0.19850497,-0.38956925,-0.36857003,0.05983877,-3.078363,0.62495536,-0.0004417601,-0.016745536,0.006171634,-0.0008304907,0.0054082135,-0.0069454988,-0.004675192,0.50455713,-1.3809868,1.9037341,-2.091575,-1.5708421,2.47961,-0.025169171,0.023932336,-0.029664667,0.014428939,-0.0014178052,-0.02047679,-0.3256114,-0.095768064,-9.634268,0.7463667,47.684196,-0.79538393,-2.716558,-3.3164163,-0.06357447,-0.052051015,-0.20292076,28.9375,30.375,29.375,32.9375,35.4375,36.5
0.044053387,-1.1452081,-0.2771699,-1.9020132,-0.009277726,0.041331302,-0.21613017,-0.38959512,-0.36855105,0.059833214,-3.0783265,0.62500507,-0.0004583767,-0.017673722,0.00694444,-0.00084525225,0.007527772,-0.0066769687,-0.0041361926,0.50450903,-1.3809506,1.9036983,-2.0915506,-1.570855,2.4795976,-0.026095938,0.025084557,-0.031277798,0.015686052,-0.0034053775,-0.021937856,-0.2681506,0.038307227,-9.634268,0.7217513,47.709274,-0.84366417,-2.7292814,-3.324691,-0.046882108,-0.05650036,-0.23019308,28.9375,30.375,29.375,32.9375,35.4375,36.5
0.046053354,-0.871336,-1.067072,-1.8830743,-0.007316311,0.052533984,-0.21374494,-0.38964087,-0.36853603,0.059846576,-3.0783327,0.6249283,-0.00044562772,-0.018132236,0.007873604,-0.00130249,0.009844108,-0.0072672646,-0.0030536898,0.5044487,-1.380914,1.9036139,-2.091503,-1.5708674,2.4794886,-0.026998255,0.02623243,-0.03183131,0.016733585,-0.00514826,-0.023918912,-0.17238252,0.13407528,-9.519346,0.73741806,47.647476,-0.85338664,-2.6772723,-3.3844748,-0.08367165,-0.050241973,-0.21964997,28.9375,30.375,29.375,32.9375,35.4375,36.5
0.048053376,-0.648687,-0.9885474,-2.0317395,-0.025180131,0.05499992,-0.20873615,-0.3896801,-0.36853182,0.05984571,-3.0783203,0.62494457,-0.00043386687,-0.019197382,0.008087926,-0.0011571815,0.009553364,-0.0069776718,-0.0029429076,0.50441235,-1.3808537,1.9035419,-2.091491,-1.5708793,2.479464,-0.028421411,0.027201142,-0.033341814,0.016880179,-0.0050378377,-0.025452316,-0.076614454,0.1340753,-9.595961,0.8314132,47.67614,-0.8792341,-2.7066402,-3.4174933,-0.08260974,-0.045654364,-0.24353999,28.9375,30.375,29.375,32.9375,35.4375,36.5
0.050054707,-0.4421148,-1.0465337,-1.9794743,-0.026145345,0.045416024,-0.18993829,-0.38975465,-0.36853257,0.059882697,-3.0783534,0.6249701,-0.00033490255,-0.02159502,0.008200951,-0.00014658285,0.008364747,-0.0042381203,-0.002996978,0.5043517,-1.3808173,1.9034094,-2.0914671,-1.5708917,2.4794152,-0.030665388,0.027994316,-0.03642618,0.016198557,-0.005329178,-0.027640574,0.0,0.19153613,-9.595961,0.784413,47.689575,-0.75515735,-2.733994,-3.3646178,-0.07666251,-0.051572952,-0.24068703,28.9375,30.375,29.375,32.9375,35.4375,36.5
0.052053377,-0.5189472,-0.99396735,-1.9758884,-0.034691032,0.025547627,-0.19434251,-0.38978472,-0.3685002,0.0598702,-3.0783007,0.6249389,-0.00035503064,-0.022518571,0.008500739,1.6650758e-05,0.008609137,-0.0036508455,-0.0014264453,0.5042914,-1.380769,1.9033726,-2.0914314,-1.5709275,2.4793422,-0.03171704,0.028691936,-0.037653353,0.016331958,-0.005832344,-0.030260922,-0.076614454,0.24899697,-9.557653,0.7463667,47.690468,-0.7676219,-2.659993,-3.2820392,-0.0961986,-0.042249896,-0.23642984,28.9375,30.375,29.375,32.9375,35.4375,36.5
0.05405418,-0.27277443,-1.4848596,-2.1083121,-0.03096559,0.030724213,-0.18513964,-0.3898278,-0.36847618,0.059871506,-3.0782633,0.62498945,-0.00037194663,-0.02403966,0.009774059,6.218421e-05,0.011149517,-0.00177618,-0.0016973852,0.5042191,-1.3807207,1.9033016,-2.0913832,-1.5709409,2.4793062,-0.03332129,0.029479424,-0.03864198,0.016129406,-0.00896692,-0.0315873,-0.05746084,0.24899697,-9.519346,0.76874626,47.69763,-0.8166548,-2.6273172,-3.3440683,-0.096299544,-0.039876763,-0.23194477,28.9375,30.375,29.375,32.9375,35.4375,36.5
0.056053545,-1.0451413,-1.54397,-1.9168377,-0.026837504,0.025488555,-0.1744735,-0.38988173,-0.3684583,0.0598604,-3.0782466,0.6249088,-0.0004013349,-0.025813198,0.011156099,0.00022854912,0.013583916,-8.20704e-05,-0.0026113049,0.5041466,-1.3806243,1.9032048,-2.0913475,-1.5709537,2.4791856,-0.03545535,0.030388186,-0.040168956,0.01644972,-0.011921706,-0.032800406,-0.076614454,0.34476504,-9.557653,0.78888994,47.690468,-0.71456075,-2.5864086,-3.3540921,-0.10988327,-0.031979207,-0.24301964,28.9375,30.375,29.375,32.9375,35.4375,36.5
0.05805368,-1.3452141,-1.6613485,-1.7967993,-0.027816646,0.04108832,-0.17321615,-0.38993886,-0.36843273,0.0598646,-3.0782278,0.62500006,-0.00040111592,-0.02656265,0.011552407,0.00037960566,0.014950751,0.00086808705,-0.0015561029,0.5040505,-1.380576,1.9031328,-2.0913236,-1.5709542,2.4791489,-0.03578234,0.031012502,-0.041336816,0.016826002,-0.013580542,-0.034178704,0.0,0.28730422,-9.519346,0.74413085,47.684196,-0.6982,-2.6118248,-3.31288,-0.09164983,0.0141032245,-0.2661388,28.9375,30.375,29.375,32.9375,35.4375,36.5
0.060053654,-1.2986072,-1.9577184,-1.8676904,-0.024567569,0.054261953,-0.17233422,-0.3899747,-0.36843157,0.059866972,-3.0782166,0.6250156,-0.00041563387,-0.027185077,0.010618494,0.0011024094,0.014134759,0.0020294522,0.0003344327,0.504015,-1.3805158,1.9030479,-2.091287,-1.5709542,2.4791245,-0.034881912,0.031711895,-0.043916594,0.017294079,-0.013432625,-0.03516784,-0.076614454,0.36391866,-9.461885,0.7351769,47.74241,-0.8037057,-2.55346,-3.392991,-0.10524684,0.032642897,-0.25869995,28.9375,30.375,29.375,32.9375,35.4375,36.5
0.06205352,-0.86377907,-1.1650419,-1.6075792,-0.04306392,0.05771915,-0.17775428,-0.39003652,-0.368385,0.05987883,-3.0781546,0.6249649,-0.00034695555,-0.027849179,0.010418644,0.0013036968,0.011608319,0.0004813198,-0.0006065137,0.5039304,-1.3804796,1.9029645,-2.0912268,-1.5710367,2.4790163,-0.037006613,0.0323922,-0.045386467,0.018204099,-0.010475308,-0.036356878,-0.17238252,0.28730422,-9.519346,0.7530795,47.70211,-0.7882772,-2.4678707,-3.3002253,-0.12128492,-0.0058315555,-0.29619935,28.9375,30.375,29.375,32.9375,35.4375,36.5
0.064053304,-0.77792835,-1.2944819,-1.6154538,-0.03847985,0.03848942,-0.17867038,-0.39009872,-0.3683742,0.059876323,-3.078165,0.6249664,-0.00035934025,-0.028546307,0.009771727,0.001513206,0.008809182,-0.00035745802,-0.0008725648,0.5038461,-1.380395,1.9028677,-2.0912154,-1.5710238,2.4789317,-0.038342535,0.033383224,-0.047048833,0.018247345,-0.0076235803,-0.03743178,-0.076614454,0.2681506,-9.442732,0.73069996,47.67793,-0.8079115,-2.5097275,-3.3281229,-0.12063334,-0.019851815,-0.2956262,28.9375,30.375,29.375,32.9375,35.4375,36.5
0.06605365,0.17419545,-1.0185117,-1.5707369,-0.042713244,0.05272365,-0.18412004,-0.39015278,-0.36835685,0.059888452,-3.0781596,0.6249456,-0.000348306,-0.029237922,0.009476987,0.0014179217,0.00790556,-0.0008252172,-0.00017475321,0.5037739,-1.3803467,1.9027718,-2.0911672,-1.5710357,2.4788473,-0.039119568,0.034877736,-0.048608463,0.018280694,-0.0066109407,-0.03890783,-0.21068975,0.24899697,-9.442732,0.69937176,47.70659,-0.8059006,-2.471777,-3.33073,-0.1289404,-0.03754752,-0.31431764,28.9375,30.375,29.375,32.9375,35.4375,36.5
0.06805377,-0.5873192,-1.0713514,-1.5305543,-0.029163318,0.036974844,-0.17258316,-0.39023772,-0.36835572,0.05990033,-3.078189,0.6250073,-0.00033102746,-0.030138712,0.009742484,0.0013757662,0.008307932,-0.0009311582,0.0012794449,0.50367785,-1.3802501,1.9026278,-2.0911548,-1.5710119,2.478786,-0.040209174,0.03620801,-0.050216883,0.018846452,-0.0069148587,-0.041450452,-0.21068975,0.22984336,-9.32781,0.78888994,47.689575,-0.81533563,-2.5095487,-3.2811747,-0.12677112,-0.08155001,-0.3081708,28.9375,30.375,29.375,32.9375,35.4375,36.5
0.07005367,-0.66871935,-0.5757031,-1.4612099,-0.01768113,0.054223128,-0.17699562,-0.39027658,-0.36833504,0.0598932,-3.0781577,0.6249435,-0.00032200967,-0.031335305,0.010021902,0.0020372255,0.008545818,0.0005682684,0.0011134221,0.5036297,-1.3801897,1.9025673,-2.091131,-1.5710486,2.478702,-0.04120766,0.036378015,-0.05202452,0.019286934,-0.007851443,-0.04228013,-0.22984336,0.11492168,-9.346964,0.6948948,47.72092,-0.87149274,-2.5072925,-3.2871337,-0.13582736,-0.046409838,-0.31445563,28.9375,30.375,29.375,32.9375,35.4375,36.5
0.072053425,-1.318766,-0.35996574,-1.4780403,0.0019892605,0.06330382,-0.16825046,-0.39035577,-0.36834946,0.059919395,-3.078215,0.6249547,-0.00030311308,-0.03211852,0.01049478,0.0020219197,0.009446196,0.0004997585,-0.00020388303,0.50355744,-1.3801056,1.9023999,-2.0910947,-1.5710124,2.4786296,-0.04225492,0.03736915,-0.053353727,0.020123322,-0.008606091,-0.042008344,-0.17238252,0.076614454,-9.289502,0.7933669,47.690468,-0.8244755,-2.435072,-3.3231192,-0.13235316,-0.07000355,-0.35087466,28.9375,30.375,29.375,32.9375,35.4375,36.5
0.07405504,-1.1029438,-0.02155603,-1.2062104,0.0009284537,0.083065964,-0.18455544,-0.3904037,-0.36829787,0.05990667,-3.0781496,0.62497884,-0.00032239643,-0.032899335,0.011726302,0.0011808651,0.012432655,-0.00046233044,0.0023223697,0.50344914,-1.3800569,1.9023632,-2.091059,-1.5710496,2.4785447,-0.04370629,0.039505936,-0.054191314,0.021111684,-0.010762086,-0.045980584,-0.22984336,0.05746084,-9.289502,0.7486078,47.71286,-0.83543444,-2.3867168,-3.371155,-0.1546143,-0.05417104,-0.33838865,28.9375,30.375,29.375,32.9375,35.4375,36.5
0.07605367,-1.5266497,-0.28412625,-1.2912755,0.010691043,0.07745081,-0.17256385,-0.39047027,-0.3682857,0.059907597,-3.0781224,0.6248947,-0.00031543203,-0.034576505,0.011518248,0.0020530722,0.012870119,0.0014741002,0.004298763,0.5033891,-1.3799481,1.9022187,-2.0909984,-1.5710858,2.4784358,-0.04408681,0.04084386,-0.057981055,0.022079961,-0.0120883435,-0.048332848,-0.24899697,-0.019153614,-9.251195,0.7553206,47.734352,-0.79155445,-2.4840758,-3.1665053,-0.16373272,-0.055703178,-0.34349912,28.9375,30.375,29.375,32.9375,35.4375,36.5
0.078053564,-1.7484968,-0.4270644,-1.4212418,0.012585754,0.06439517,-0.17112917,-0.39054084,-0.36825994,0.059906915,-3.0781093,0.6249089,-0.00033301237,-0.03481335,0.014052787,0.0005024041,0.016843507,-0.0016336472,0.0061283736,0.5032803,-1.3798636,1.9021119,-2.0909612,-1.5710863,2.4783375,-0.04732979,0.042316914,-0.056602146,0.023870753,-0.01406735,-0.05340166,-0.30645782,0.019153614,-9.308656,0.81351066,47.711964,-0.7464596,-2.432106,-3.3240733,-0.19312662,-0.018044055,-0.297351,28.9375,30.375,29.375,32.9375,35.4375,36.5
0.080053486,-0.96320534,-0.047013104,-1.3532504,0.006378704,0.07183545,-0.17081855,-0.39062095,-0.36823383,0.059924662,-3.0781014,0.62488824,-0.00026782908,-0.035710108,0.013779261,0.0008130828,0.016687937,-0.00095310324,0.006164456,0.5031843,-1.379803,1.9019917,-2.0909255,-1.5711225,2.4782298,-0.047575347,0.04345742,-0.058731522,0.024185743,-0.014262944,-0.053682223,-0.30645782,-0.15322891,-9.289502,0.7777002,47.734352,-0.7381396,-2.4887078,-3.3412986,-0.20223483,-0.006868574,-0.29936188,28.9375,30.375,29.375,32.9375,35.4375,36.5
0.08205416,-1.1850084,-0.3330575,-1.4860352,0.009617007,0.06904653,-0.16848773,-0.3906663,-0.36820695,0.059890598,-3.0780585,0.624877,-0.0003802425,-0.036638293,0.012440337,0.0016576907,0.015457044,0.0006229227,0.009919881,0.5030891,-1.3796827,1.9019188,-2.0908897,-1.5711101,2.478133,-0.046372402,0.04476808,-0.062265266,0.024431761,-0.013958564,-0.056232564,-0.38307226,-0.076614454,-9.289502,0.79560274,47.696735,-0.99017346,-2.4175107,-3.2523196,-0.21571955,-0.032229014,-0.31149316,28.9375,30.375,29.375,32.9375,35.4375,36.5
0.084053956,-1.1156517,-0.32364127,-1.3263338,0.0064593083,0.07631942,-0.17460795,-0.3907506,-0.36820242,0.059920218,-3.0780554,0.62470174,-0.0003061869,-0.03843395,0.0127745615,0.0016005969,0.014000982,0.00076019595,0.011172634,0.50304,-1.3795857,1.9017152,-2.0907943,-1.5711697,2.4779751,-0.049347952,0.046551224,-0.06406356,0.023614256,-0.012757337,-0.060462497,-0.49799395,-0.038307227,-9.289502,0.7530795,47.703903,-0.8009845,-2.4812388,-3.1684916,-0.19791915,-0.03184536,-0.2630462,28.9375,30.375,29.375,32.9375,35.4375,36.5
0.08605419,-1.3676182,-0.065168224,-1.3039109,-0.0037533862,0.073377736,-0.17818718,-0.3908188,-0.36815888,0.059915863,-3.0780413,0.62481296,-0.0003203142,-0.038217288,0.014050672,0.00054564327,0.015408164,-0.00200086,0.012805122,0.50289583,-1.3795376,1.901668,-2.0907938,-1.5711578,2.4779022,-0.051345937,0.04733738,-0.06284095,0.024699796,-0.012657719,-0.06409365,-0.4405331,-0.019153614,-9.32781,0.7866488,47.699425,-0.7869576,-2.465921,-3.2790666,-0.21505937,-0.05095939,-0.23694581,28.9375,30.375,29.375,32.9375,35.4375,36.5
0.08805404,-1.4002833,-0.31983253,-1.3780237,-0.0070163435,0.08825958,-0.18006596,-0.39090306,-0.3681319,0.05992161,-3.0780075,0.6247275,-0.000353509,-0.039763805,0.014707135,0.0010394288,0.016642528,-0.0015133278,0.014425156,0.5027874,-1.3794171,1.9014877,-2.0906856,-1.5711826,2.4777448,-0.053054027,0.0485717,-0.06587441,0.026666855,-0.013982733,-0.06741706,-0.45968673,0.0,-9.289502,0.85155696,47.69763,-0.68705356,-2.4265783,-3.273563,-0.23790795,-0.024124034,-0.1817253,28.9375,30.375,29.375,32.9375,35.4375,36.5
0.090053886,-2.084382,-0.7607857,-1.2960865,-0.0027849332,0.07397111,-0.16848703,-0.39096233,-0.36809945,0.05991124,-3.0779748,0.6246788,-0.00037316015,-0.039116304,0.01380917,0.0008224738,0.017358681,-0.0027655785,0.01901968,0.50269246,-1.3793324,1.9014028,-2.090649,-1.5712065,2.4776237,-0.050916836,0.050003808,-0.067433104,0.028231746,-0.014011883,-0.06987313,-0.4405331,0.038307227,-9.308657,0.72622824,47.684196,-0.93275785,-2.5628617,-3.277899,-0.27670193,-0.032712363,-0.16485186,28.9375,30.375,29.375,32.9375,35.4375,36.5
0.09205378,-1.0402393,-0.5764117,-1.4730427,-0.009731625,0.101073325,-0.173531,-0.39104697,-0.3680701,0.059911925,-3.077969,0.6245809,-0.00039145382,-0.040606864,0.014482714,0.0013180549,0.016858712,-0.0017405102,0.01909842,0.50257176,-1.3792243,1.9012598,-2.0905888,-1.5712184,2.4774427,-0.053385753,0.05014051,-0.068731636,0.028250843,-0.014075289,-0.07241976,-0.4213795,0.19153613,-9.442732,0.73069996,47.6636,-0.8940878,-2.3846695,-3.275116,-0.29108053,-0.02887519,-0.116047576,28.9375,30.375,29.375,32.9375,35.4375,36.5
0.09405387,-1.2089982,-0.66447586,-1.6992078,-0.02522756,0.08436402,-0.16871558,-0.39115614,-0.36805552,0.059930548,-3.0779598,0.6244833,-0.00032953385,-0.041063704,0.014765722,-0.0001149103,0.01747321,-0.005105457,0.018950494,0.5024754,-1.3790909,1.9010433,-2.0905173,-1.571266,2.4772868,-0.054948784,0.053909265,-0.07013427,0.029120136,-0.012995459,-0.07383637,-0.34476504,0.11492168,-9.461885,0.6971306,47.66539,-0.84454364,-2.4780102,-3.2578518,-0.28238264,-0.059098482,-0.07379332,28.9375,30.375,29.375,32.9375,35.4375,36.5
0.09605327,-0.7202284,-1.0731266,-1.5416753,-0.036881506,0.07718335,-0.1709644,-0.39122114,-0.3680211,0.059927884,-3.0779169,0.62443495,-0.00033774486,-0.04185594,0.014805417,0.0004202188,0.017851483,-0.0039320653,0.018387256,0.5023796,-1.3790066,1.900936,-2.0904567,-1.5713023,2.4771664,-0.05518152,0.054151803,-0.07176459,0.029661268,-0.013898023,-0.073502705,-0.40222588,0.15322891,-9.404425,0.78217715,47.70211,-0.878675,-2.5880673,-3.3276153,-0.31045276,-0.045405634,-0.062321052,28.9375,30.375,29.375,32.9375,35.4375,36.5
0.09805357,-0.35488683,-1.3119261,-1.5057504,-0.0495549,0.07319601,-0.17450383,-0.39129943,-0.36799034,0.059919976,-3.0779111,0.62439656,-0.00039187833,-0.04268842,0.014764283,0.001311011,0.016458299,-0.0024866895,0.01655634,0.5022476,-1.378899,1.9008158,-2.0904095,-1.5712904,2.4770112,-0.056197677,0.05325988,-0.07272079,0.029569486,-0.013378462,-0.072688416,-0.40222588,0.30645782,-9.308657,0.7642693,47.719128,-0.9095533,-2.3615592,-3.3253398,-0.33722478,-0.04082237,-0.06557912,28.9375,30.375,29.375,32.9375,35.4375,36.5
0.10005334,-0.9834953,-1.6064602,-1.72204,-0.036861822,0.059321046,-0.16044982,-0.39140692,-0.3679385,0.05992188,-3.0778122,0.6243563,-0.00032551104,-0.043954313,0.014655059,0.0012371595,0.01617282,-0.0013491642,0.015008424,0.5021275,-1.3787663,1.9006356,-2.090326,-1.5713981,2.476879,-0.056987017,0.05498192,-0.0743074,0.02829179,-0.01368529,-0.07192762,-0.21068975,0.28730422,-9.442732,0.8224646,47.74868,-0.90314496,-2.4725287,-3.3496785,-0.33012664,-0.029732011,-0.07168509,28.9375,30.375,29.375,32.9375,35.4375,36.5
0.10205427,-0.8977175,-1.209397,-1.90338,-0.04047696,0.05516874,-0.16396362,-0.39148965,-0.3679262,0.059918124,-3.0778418,0.62430567,-0.0003794536,-0.04467762,0.014531857,3.5511606e-05,0.016367503,-0.003193069,0.012718135,0.5020074,-1.3786447,1.9004921,-2.0902903,-1.5713619,2.4767234,-0.057884198,0.058698643,-0.07588297,0.027860027,-0.012973988,-0.070534736,-0.17238252,0.21068975,-9.500193,0.779936,47.689575,-0.9878609,-2.511945,-3.308137,-0.32393157,-0.028477293,-0.09091533,28.9375,30.375,29.375,32.9375,35.4375,36.5
0.10405328,-0.69574445,-1.3170896,-1.7285689,-0.03741853,0.048699446,-0.15995722,-0.3916006,-0.3679046,0.059930842,-3.0778587,0.6242523,-0.0003402917,-0.045354437,0.014691208,0.00048476236,0.016098235,-0.0025716994,0.010555425,0.5018754,-1.3785247,1.9003128,-2.090254,-1.5713738,2.476556,-0.05872547,0.058631655,-0.076931916,0.02830029,-0.013036766,-0.06921309,-0.076614454,0.28730422,-9.3661175,0.7396539,47.684196,-1.0068483,-2.6016445,-3.367589,-0.34237853,-0.025145847,-0.099676475,28.9375,30.375,29.375,32.9375,35.4375,36.5
0.10605412,-0.09127773,-0.76083827,-1.6793602,-0.03685383,0.04976547,-0.16481777,-0.39166844,-0.36786014,0.059894662,-3.077766,0.62425315,-0.00039211757,-0.046505503,0.014210906,0.0016960488,0.014404847,-0.0005736715,0.008656987,0.5017676,-1.3783808,1.9002165,-2.0902178,-1.571422,2.4764607,-0.05929611,0.05816489,-0.07917483,0.02843811,-0.012523316,-0.06788465,-0.038307227,0.24899697,-9.404425,0.76874626,47.694946,-0.98799247,-2.3145022,-3.392234,-0.35245666,-0.04228621,-0.112058915,28.9375,30.375,29.375,32.9375,35.4375,36.5
0.108053274,0.23559628,-0.90907246,-1.7680434,-0.025953652,0.047206953,-0.16603866,-0.39178896,-0.36781886,0.059921112,-3.07774,0.6242288,-0.00030428226,-0.047286764,0.014496514,0.0006294231,0.014977147,-0.0016997452,0.0061357007,0.5016234,-1.3782836,1.9000252,-2.0901468,-1.5714816,2.4763048,-0.060509447,0.0610546,-0.07998935,0.027620528,-0.012485618,-0.06657622,0.038307227,0.22984336,-9.442732,0.83589023,47.694946,-1.042021,-2.490373,-3.3829546,-0.32964468,-0.040127717,-0.1533496,28.9375,30.375,29.375,32.9375,35.4375,36.5
0.11005401,0.21721128,-1.261885,-1.8561683,-0.023891378,0.044782516,-0.16465436,-0.39187294,-0.36781698,0.059919596,-3.0777395,0.6242484,-0.00035689207,-0.05007004,0.013495997,0.002530305,0.01257242,0.0024807898,0.0042272736,0.50152737,-1.3781393,1.899844,-2.0900867,-1.5714577,2.476221,-0.061448384,0.061951395,-0.08529225,0.027205655,-0.0124009065,-0.065604344,0.11492168,0.24899697,-9.3661175,0.77545905,47.691364,-1.046694,-2.5211408,-3.1541228,-0.32789576,-0.021213662,-0.1694066,28.9375,30.375,29.375,32.9375,35.4375,36.5
0.11205411,-0.044324618,-1.2307435,-1.7732286,-0.029422667,0.029511156,-0.15872332,-0.39197564,-0.36777452,0.05990776,-3.0776927,0.6242197,-0.00036510607,-0.049718414,0.014383979,0.0013146569,0.013509,0.00020174784,0.002566742,0.50138324,-1.3779948,1.8996891,-2.090039,-1.571494,2.4760652,-0.06277075,0.062909655,-0.083628796,0.027027773,-0.012126264,-0.06526691,0.076614454,0.28730422,-9.404425,0.78217715,47.690468,-1.0543458,-2.4698389,-3.2855709,-0.33168745,-0.04163536,-0.21494266,28.9375,30.375,29.375,32.9375,35.4375,36.5
0.11405324,-0.3442025,-1.2651707,-2.0265145,-0.027622325,0.024837097,-0.15698792,-0.39209026,-0.36773676,0.059922576,-3.0776522,0.62419105,-0.0003032904,-0.052017536,0.014174726,0.002374897,0.013095341,0.0031784673,0.0032194215,0.5012511,-1.3778743,1.8994964,-2.0899675,-1.5715545,2.4759204,-0.063861564,0.06423289,-0.08757103,0.026834423,-0.013205413,-0.06700598,-0.019153614,0.24899697,-9.423578,0.7978386,47.721813,-1.0324798,-2.4962022,-3.3570385,-0.31473014,-0.034870546,-0.23918855,28.9375,30.375,29.375,32.9375,35.4375,36.5
0.11605369,-0.16691837,-1.2306688,-2.0223558,-0.025840849,0.043634526,-0.15623358,-0.39216658,-0.36773518,0.059914093,-3.0776787,0.62415856,-0.00035728695,-0.052911896,0.014192263,0.0017434097,0.013112925,0.0019742304,0.0023257276,0.5011548,-1.3777411,1.8993524,-2.0899432,-1.5715178,2.4758005,-0.06505508,0.0669598,-0.089414835,0.027014846,-0.012647418,-0.067305855,0.038307227,0.2681506,-9.404425,0.84484416,47.72629,-1.0284075,-2.5827103,-3.093288,-0.32068232,-0.04941215,-0.24667978,28.9375,30.375,29.375,32.9375,35.4375,36.5
0.11805377,0.019740423,-1.0066848,-2.020458,-0.03923325,0.058290374,-0.16651589,-0.3922754,-0.3677033,0.059913814,-3.077636,0.6241116,-0.00036504047,-0.0532596,0.01458576,0.0022277078,0.012960558,0.0025648386,0.00029723684,0.5010228,-1.3775852,1.8991493,-2.0898592,-1.5715541,2.4756448,-0.06592618,0.06602592,-0.08951974,0.027459905,-0.012798538,-0.0661478,0.05746084,0.24899697,-9.519346,0.78217715,47.68062,-1.0751859,-2.4442499,-3.2601783,-0.32550794,-0.061253272,-0.30996704,28.9375,30.375,29.375,32.9375,35.4375,36.5
0.120053634,-0.29072762,-1.228493,-1.964312,-0.038302366,0.06774591,-0.16086203,-0.39234346,-0.36765367,0.059896737,-3.0775588,0.6241325,-0.0004420248,-0.05444475,0.0140393935,0.0026384303,0.011646522,0.0031680574,0.0010598035,0.50089085,-1.3774766,1.8990406,-2.0897753,-1.5715774,2.4755359,-0.06662233,0.067460634,-0.092173785,0.027511502,-0.011948935,-0.067606375,-0.05746084,0.24899697,-9.576807,0.7396539,47.70211,-1.0882816,-2.374617,-3.1765323,-0.31510973,-0.060569942,-0.3285344,28.9375,30.375,29.375,32.9375,35.4375,36.5
0.1220533,-0.6725236,-1.509885,-2.0621355,-0.038016688,0.06966249,-0.16316485,-0.392484,-0.36763653,0.059918642,-3.077582,0.62411773,-0.00034763364,-0.054551266,0.014215402,0.0007982347,0.013396503,0.00019743317,0.0018450936,0.50074697,-1.3773313,1.8988131,-2.089752,-1.5716017,2.47538,-0.06692864,0.07166469,-0.09298974,0.02756555,-0.0120571535,-0.06869743,-0.11492168,0.24899697,-9.595961,0.779936,47.686886,-1.1411221,-2.6761568,-3.2431157,-0.31380716,-0.063471235,-0.34108827,28.9375,30.375,29.375,32.9375,35.4375,36.5
0.12405424,-0.4745361,-1.1096816,-1.93511,-0.0425483,0.09292873,-0.16650398,-0.39257765,-0.36760494,0.059915915,-3.0775597,0.6240569,-0.00038107403,-0.055773888,0.014617566,0.0023744593,0.012457352,0.0032890853,-0.0019033471,0.5006149,-1.3771999,1.8986472,-2.0896795,-1.5716141,2.4752128,-0.0683052,0.069397524,-0.09390096,0.027583105,-0.01271994,-0.066323414,-0.24899697,0.24899697,-9.557653,0.8023209,47.690468,-1.1863034,-2.4688222,-3.3156757,-0.2915712,-0.0754579,-0.417104,28.9375,30.375,29.375,32.9375,35.4375,36.5
0.12605353,-0.836133,-1.0235546,-2.1700892,-0.043257106,0.09153177,-0.16626854,-0.39266002,-0.36758283,0.05990502,-3.077494,0.6240025,-0.00040581395,-0.056372896,0.014241986,0.001931996,0.012409729,0.0027060185,0.0002420162,0.5005311,-1.3770429,1.898467,-2.0895956,-1.5716618,2.4751036,-0.06840941,0.07172046,-0.09563325,0.027473647,-0.012409241,-0.06857199,-0.21068975,0.24899697,-9.595961,0.8224646,47.70211,-1.2420173,-2.4057467,-3.2803779,-0.283265,-0.07795389,-0.45046753,28.9375,30.375,29.375,32.9375,35.4375,36.5
0.12805326,-1.4139988,-1.6555092,-2.1626387,-0.020289125,0.0779764,-0.14808822,-0.39282346,-0.3675579,0.059910666,-3.0775213,0.62402666,-0.0003475365,-0.05881761,0.015300269,0.0026514737,0.011941715,0.0049170507,0.00038998367,0.5003382,-1.3768505,1.8982261,-2.089596,-1.5716623,2.4749224,-0.07200987,0.07208011,-0.09757735,0.026890032,-0.013066344,-0.07231847,-0.30645782,0.17238252,-9.615114,0.82022345,47.672558,-1.1430714,-2.4680858,-3.3819761,-0.27489018,-0.09435705,-0.45828074,28.9375,30.375,29.375,32.9375,35.4375,36.5
0.13005365,-0.96179456,-0.5488832,-1.929982,-0.036777254,0.09581651,-0.17350943,-0.39293665,-0.36753625,0.05993998,-3.077517,0.62398255,-0.00028552246,-0.058159024,0.014084208,0.0025553114,0.011540265,0.004318758,0.00597702,0.50021935,-1.3767422,1.898012,-2.089512,-1.5716981,2.4747767,-0.06973345,0.07306798,-0.09862243,0.027269967,-0.01243066,-0.07563048,-0.47884035,0.076614454,-9.576807,0.7911258,47.690468,-1.3075086,-2.4269314,-3.254975,-0.258637,-0.10908603,-0.45001882,28.9375,30.375,29.375,32.9375,35.4375,36.5
0.13205363,-1.4969422,-0.81479645,-2.111854,-0.017508412,0.08282083,-0.15233275,-0.39305907,-0.36748904,0.05992188,-3.0775065,0.62399524,-0.00030027816,-0.059708387,0.014782896,0.0028097134,0.012181704,0.0054846588,0.012086547,0.5000271,-1.3765856,1.8978676,-2.089512,-1.5716985,2.4745939,-0.071609065,0.074013546,-0.10034543,0.027325649,-0.013566142,-0.083611764,-0.4405331,0.038307227,-9.634268,0.81351066,47.711964,-1.3577619,-2.4214425,-3.3714204,-0.24444112,-0.10400194,-0.43466753,28.9375,30.375,29.375,32.9375,35.4375,36.5
0.1340534,-1.3856893,-0.4481194,-2.055121,-0.011349038,0.0854979,-0.16520743,-0.39316735,-0.36746925,0.059920445,-3.0774875,0.6239723,-0.00034466333,-0.062372502,0.016020821,0.0033120736,0.011364542,0.0066866055,0.010642296,0.49989372,-1.3764172,1.897652,-2.0894287,-1.5716985,2.4744487,-0.07620914,0.07499514,-0.10263103,0.027177725,-0.013437179,-0.086766385,-0.4213795,0.076614454,-9.576807,0.76874626,47.65912,-1.1921794,-2.39542,-3.1650727,-0.21732317,-0.11308569,-0.39552563,28.9375,30.375,29.375,32.9375,35.4375,36.5
0.13605383,-1.0598524,0.09320305,-1.7985187,-0.015139359,0.101821564,-0.17750748,-0.39329073,-0.36745745,0.059934128,-3.077508,0.6238544,-0.0002926753,-0.0618859,0.015004248,0.0033047537,0.0124236075,0.006965216,0.020709157,0.499775,-1.3762606,1.8974246,-2.089381,-1.5717229,2.474254,-0.07336365,0.07611118,-0.10408073,0.027767312,-0.014507898,-0.09398464,-0.57460845,0.038307227,-9.519346,0.7284641,47.66271,-1.3394043,-2.304081,-3.3374548,-0.1972009,-0.118845806,-0.3674143,28.9375,30.375,29.375,32.9375,35.4375,36.5
0.13805376,-1.435479,-0.28172165,-1.8433088,0.00018660366,0.09745929,-0.17533435,-0.39340445,-0.36741364,0.059926663,-3.077474,0.6236922,-0.00032982585,-0.06361446,0.01580777,0.0038209402,0.011883092,0.007991305,0.023319442,0.4996183,-1.3760923,1.89722,-2.0892847,-1.5717582,2.4740005,-0.076266356,0.07641238,-0.10564494,0.027859485,-0.014540269,-0.09949606,-0.51714754,0.076614454,-9.461885,0.78888994,47.67793,-1.3583674,-2.324696,-3.2540212,-0.1958829,-0.12103668,-0.2757538,28.9375,30.375,29.375,32.9375,35.4375,36.5
0.14005385,-1.2551935,0.22032113,-1.8566512,-0.006551767,0.10140063,-0.17580052,-0.39356157,-0.36738625,0.059953313,-3.0775037,0.62371504,-0.00017940096,-0.064690135,0.016597679,0.0034161091,0.012630709,0.007940029,0.02609229,0.49945006,-1.3759598,1.897005,-2.089297,-1.5717949,2.4738429,-0.0781647,0.07782714,-0.1063355,0.027529575,-0.01516959,-0.10416652,-0.53630114,0.076614454,-9.500193,0.8537928,47.745995,-1.3875971,-2.2886796,-3.3840373,-0.17198482,-0.14008734,-0.24654847,28.9375,30.375,29.375,32.9375,35.4375,36.5
0.14205371,-0.77967423,-0.11752332,-1.9032807,-0.0034454716,0.11122263,-0.17498374,-0.39368773,-0.3673626,0.05996445,-3.0775294,0.623583,-0.0001825154,-0.06561955,0.016867777,0.0034955074,0.0123310285,0.00767041,0.028247936,0.4992939,-1.3758034,1.8967775,-2.089224,-1.5717949,2.473601,-0.079689525,0.07883111,-0.107854426,0.028130028,-0.014783301,-0.10784727,-0.5554548,-0.076614454,-9.442732,0.81351066,47.70211,-1.3222562,-2.2802026,-3.342392,-0.13727896,-0.13005787,-0.17855528,28.9375,30.375,29.375,32.9375,35.4375,36.5
0.14405374,-1.145235,0.017870363,-1.8891513,-0.017769083,0.099313416,-0.16510665,-0.39382508,-0.3673151,0.05996502,-3.0774765,0.623574,-0.00013881472,-0.0676199,0.019039137,0.0031912872,0.014060942,0.0062207095,0.024379408,0.49912447,-1.3756346,1.8965625,-2.0891645,-1.5718545,2.473433,-0.0846406,0.080544576,-0.10971252,0.030368475,-0.015609542,-0.10892675,-0.53630114,-0.038307227,-9.442732,0.784413,47.691364,-1.2328153,-2.3339365,-3.3435297,-0.119632125,-0.13213898,-0.13562958,28.9375,30.375,29.375,32.9375,35.4375,36.5
0.14605376,-0.86598754,-0.5955204,-1.7902672,-0.0018849659,0.09926488,-0.15738386,-0.39394477,-0.36727226,0.059964303,-3.077468,0.6233983,-0.00016016453,-0.06674425,0.018461589,0.0027550803,0.0155037,0.004399374,0.025461445,0.49895754,-1.3754778,1.8963588,-2.0890796,-1.5718793,2.4731576,-0.08259275,0.08194714,-0.11085333,0.032393742,-0.016005902,-0.10795886,-0.7469909,-0.095768064,-9.481039,0.8179876,47.675243,-1.2787063,-2.245162,-3.3415732,-0.13049786,-0.16234112,-0.13783558,28.9375,30.375,29.375,32.9375,35.4375,36.5
0.14805384,-1.5831409,-0.23751588,-1.7215589,-0.012131021,0.0832078,-0.16403016,-0.3940787,-0.36723208,0.059956234,-3.0774364,0.62337464,-0.00013942362,-0.068529874,0.019602658,0.003120609,0.016504081,0.0052423053,0.018992413,0.4987891,-1.3752973,1.8961548,-2.0890434,-1.5719155,2.4729786,-0.08532966,0.08277112,-0.11289098,0.033348434,-0.017287582,-0.10422238,-0.61291564,0.038307227,-9.519346,0.87393653,47.684196,-1.3187265,-2.3524632,-3.3205829,-0.12461366,-0.13802975,-0.15829508,28.9375,30.375,29.375,32.9375,35.4375,36.5
0.15005359,-1.9618564,-0.44293812,-1.6743237,-0.0050974838,0.08171894,-0.15588766,-0.39423993,-0.36718088,0.059980836,-3.0774107,0.6233538,-7.823072e-05,-0.06965276,0.020562664,0.0028419269,0.017108625,0.004679047,0.011709137,0.49858457,-1.3751409,1.8958915,-2.0889475,-1.5719637,2.4727645,-0.08778217,0.08401727,-0.113861,0.033854637,-0.01754422,-0.099390626,-0.57460845,-0.019153614,-9.461885,0.76874626,47.704796,-1.0379486,-2.2366085,-3.3447497,-0.10048241,-0.1634742,-0.22562508,28.9375,30.375,29.375,32.9375,35.4375,36.5
0.15205456,-0.6636885,0.088823825,-1.6122053,-0.018128088,0.10466696,-0.16995504,-0.39435273,-0.36716247,0.05998495,-3.0773926,0.62327474,-8.364722e-05,-0.0713704,0.019896485,0.004142332,0.01521052,0.006402084,0.0076893307,0.49846455,-1.3749725,1.8956631,-2.0888636,-1.5719875,2.4725976,-0.08873921,0.08468684,-0.11782453,0.034724213,-0.016706804,-0.09632807,-0.4213795,0.019153614,-9.385271,0.8157518,47.657326,-1.1480004,-2.249676,-3.3374953,-0.08493121,-0.15450495,-0.28012946,28.9375,30.375,29.375,32.9375,35.4375,36.5
0.15405375,-1.9160343,-0.5947932,-1.302562,-0.01546832,0.08165888,-0.1571098,-0.39451492,-0.36711612,0.059991024,-3.077378,0.6232719,-2.457267e-05,-0.070968054,0.022227446,0.0013892342,0.01894286,0.00083962095,0.004428463,0.49826,-1.374791,1.8954257,-2.088827,-1.5720237,2.4723933,-0.09187049,0.087884046,-0.11566728,0.036035206,-0.01731761,-0.09619772,-0.40222588,0.05746084,-9.32781,0.8112748,47.71017,-1.0929046,-2.3480935,-3.4206443,-0.08761677,-0.18375498,-0.28635803,28.9375,30.375,29.375,32.9375,35.4375,36.5
0.15605411,-1.0965619,-0.27593726,-1.4900852,-0.015936816,0.08600016,-0.15709585,-0.3946744,-0.36705694,0.06001343,-3.0773544,0.62324727,3.7862465e-05,-0.07406569,0.022022787,0.0043581813,0.015557885,0.0057983557,0.002588549,0.4980435,-1.3746476,1.8951854,-2.0887425,-1.5720714,2.4721646,-0.09470425,0.08605184,-0.12038333,0.0365983,-0.016723331,-0.09719183,-0.4405331,0.0,-9.32781,0.82022345,47.682407,-1.0335376,-2.1974359,-3.3521266,-0.0700355,-0.17367359,-0.33020008,28.9375,30.375,29.375,32.9375,35.4375,36.5
0.1580541,-0.57184863,0.047798473,-1.5771526,-0.016894197,0.08283652,-0.16915871,-0.39484376,-0.36701033,0.06002037,-3.0773182,0.6232395,8.444217e-05,-0.07366177,0.023401687,0.0019097418,0.018787734,0.0011331794,0.00188022,0.49783945,-1.3744421,1.8949093,-2.088671,-1.5721196,2.4719605,-0.09623534,0.08971914,-0.11940901,0.037591007,-0.017330414,-0.09801295,-0.26815057,-0.05746084,-9.289503,0.784413,47.652847,-0.9573122,-2.1992702,-3.4146678,-0.05447134,-0.18804938,-0.32932627,28.9375,30.375,29.375,32.9375,35.4375,36.5
0.16005409,-0.6433506,-0.5350381,-1.3891261,-0.011695243,0.067862965,-0.16034077,-0.39498118,-0.36696014,0.060008626,-3.077255,0.62324685,8.771002e-05,-0.07585721,0.023974495,0.0030828794,0.018122984,0.0030601998,-0.0014039632,0.4976588,-1.37425,1.8946942,-2.088611,-1.5721678,2.4717927,-0.09896631,0.08990711,-0.12252109,0.03849881,-0.017675305,-0.09745705,-0.30645782,0.076614454,-9.346964,0.784413,47.716442,-0.8151868,-2.306601,-3.4532251,-0.030945448,-0.18706024,-0.36351228,28.9375,30.375,29.375,32.9375,35.4375,36.5
0.16205385,-0.76135117,-0.7925544,-1.5496691,-0.004144447,0.067604885,-0.16018443,-0.3951317,-0.36694127,0.060035497,-3.0773191,0.6231806,9.215341e-05,-0.077045515,0.024258787,0.0027307854,0.018988168,0.0024626744,3.764564e-05,0.4974667,-1.3740929,1.89443,-2.0885384,-1.572132,2.4715512,-0.10019915,0.0925004,-0.12499936,0.0393199,-0.018154748,-0.10012958,-0.38307226,0.15322891,-9.193734,0.8023209,47.684196,-0.8116009,-2.2594006,-3.3240569,-0.026024394,-0.19517244,-0.38204435,28.9375,30.375,29.375,32.9375,35.4375,36.5
0.16405378,-0.6643696,-0.4342899,-1.5803605,-0.0050361776,0.07244122,-0.16852131,-0.39529473,-0.3668724,0.060044218,-3.0772512,0.6232436,0.00013595374,-0.07733919,0.025318196,0.0017992625,0.021181226,0.00061359897,-0.0016427606,0.49723879,-1.3739241,1.8941907,-2.0884545,-1.5721921,2.4713714,-0.10155981,0.09428882,-0.1252789,0.04047655,-0.019200671,-0.09980662,-0.4405331,0.15322891,-9.193734,0.78217715,47.66987,-0.7843656,-2.2477305,-3.3490667,-0.022734419,-0.18693444,-0.39846268,28.9375,30.375,29.375,32.9375,35.4375,36.5
0.1660536,-0.9428437,-0.9661277,-1.5247382,-0.008911563,0.08801561,-0.15407342,-0.39545476,-0.36680382,0.060035333,-3.077165,0.62329775,8.390021e-05,-0.078528196,0.02472982,0.00311324,0.019137513,0.0016521884,0.0043681543,0.49699903,-1.3737081,1.893927,-2.0883343,-1.5722278,2.4711766,-0.10241474,0.09420602,-0.1285046,0.04187448,-0.017920943,-0.10667344,-0.4213795,0.19153613,-9.136273,0.83589023,47.694946,-0.82427907,-2.235153,-3.2352839,-0.025240166,-0.20333308,-0.3785795,28.9375,30.375,29.375,32.9375,35.4375,36.5
0.1680535,-1.3975339,-1.0657096,-1.3596843,-0.026349992,0.087234505,-0.15844125,-0.39560172,-0.36679068,0.06004968,-3.0771744,0.6231243,0.00018078879,-0.07845854,0.024935212,0.0008837451,0.021480327,-0.003560195,0.0075712344,0.49687916,-1.3735138,1.8936523,-2.0882852,-1.5722874,2.4709475,-0.10292836,0.099755846,-0.13053676,0.044039834,-0.01749708,-0.11039039,-0.30645782,0.2681506,-9.174581,0.80456203,47.698532,-0.7940864,-2.2417064,-3.389946,-0.0061911736,-0.22035623,-0.34819663,28.9375,30.375,29.375,32.9375,35.4375,36.5
0.17005342,-1.3591683,-0.96553326,-1.5286407,-0.031892225,0.086911485,-0.15713267,-0.39573088,-0.36671665,0.06000971,-3.0770671,0.6231352,4.5981342e-05,-0.07821659,0.025490481,0.0010760921,0.022943748,-0.004840099,0.015137658,0.4966516,-1.3732858,1.8934478,-2.088177,-1.5723118,2.4707406,-0.10317123,0.09948434,-0.13131587,0.046896514,-0.018196609,-0.118195504,-0.2681506,0.22984336,-9.232041,0.79560274,47.723602,-0.82179034,-2.1799343,-3.3886213,-0.049377628,-0.2355746,-0.27525005,28.9375,30.375,29.375,32.9375,35.4375,36.5
0.17205325,-1.1507984,-1.2604678,-1.4355956,-0.023025366,0.08407351,-0.1644615,-0.3959191,-0.36665684,0.060036212,-3.0770583,0.6230521,0.00017311644,-0.0796375,0.025695965,-2.688482e-05,0.023990497,-0.0063436767,0.020259144,0.49642342,-1.373116,1.8931721,-2.0881174,-1.5723838,2.4704618,-0.104639076,0.10396752,-0.13419671,0.047092043,-0.01841296,-0.124783315,-0.24899697,0.24899697,-9.270349,0.8605109,47.70211,-0.87475646,-2.3061938,-3.2284813,-0.040893212,-0.24318965,-0.23344944,28.9375,30.375,29.375,32.9375,35.4375,36.5
0.1740538,-0.102595024,-1.1690736,-1.4307592,-0.019105222,0.08053433,-0.15698136,-0.39603382,-0.36660513,0.059997883,-3.0769866,0.6229389,-1.3702663e-06,-0.08122862,0.025411436,0.0023416455,0.022709837,-0.002774299,0.024479533,0.49623185,-1.3728766,1.8929447,-2.0879848,-1.5723842,2.470209,-0.105208896,0.102038816,-0.13768686,0.048753016,-0.01901795,-0.1295683,-0.11492168,0.24899697,-9.174581,0.7978386,47.657326,-0.9609649,-2.19898,-3.2179384,-0.033935495,-0.23425996,-0.10558072,28.9375,30.375,29.375,32.9375,35.4375,36.5
0.17605388,-0.11400077,-1.1250067,-1.5337381,-0.015060507,0.04718298,-0.15500855,-0.3962178,-0.36654785,0.059994444,-3.076945,0.6229071,5.5588716e-05,-0.08062285,0.02513958,0.001006091,0.025126005,-0.0062389863,0.028854702,0.49600464,-1.372647,1.8926686,-2.0879362,-1.5724443,2.4699674,-0.103856266,0.10564307,-0.13949525,0.051138785,-0.019499913,-0.1325884,-0.22984336,0.2681506,-9.193734,0.80456203,47.687782,-0.9818909,-2.345028,-3.1767964,-0.06272707,-0.24945307,-0.0847444,28.9375,30.375,29.375,32.9375,35.4375,36.5
0.17805396,-0.22296435,-1.2825154,-1.5224776,-0.008035468,0.032278348,-0.1564246,-0.39635667,-0.36649978,0.060005568,-3.076906,0.62280685,3.138666e-06,-0.08174326,0.027098406,0.0010044588,0.026885321,-0.009049784,0.020555343,0.49581173,-1.3724667,1.892393,-2.0877783,-1.5724682,2.469717,-0.10800209,0.10649836,-0.14154013,0.055638947,-0.019709684,-0.12843253,-0.21068975,0.34476504,-9.097966,0.74413085,47.678825,-0.9690184,-2.3529925,-3.1634016,-0.10852063,-0.23655435,-0.10808044,28.9375,30.375,29.375,32.9375,35.4375,36.5
0.18005401,-0.33187026,-1.4091198,-1.6971707,0.0038572887,0.02008162,-0.14851832,-0.3965662,-0.36644933,0.060014036,-3.0768821,0.6227635,8.786118e-05,-0.08152486,0.026629537,0.00012765404,0.028253078,-0.011110806,0.017578674,0.49557278,-1.3722131,1.8920587,-2.0877187,-1.5725282,2.4694543,-0.106828116,0.1094302,-0.1433633,0.05698986,-0.019929858,-0.12428065,-0.1340753,0.30645782,-9.136273,0.80679786,47.72271,-0.8604957,-2.3939447,-3.212956,-0.12857643,-0.26785436,-0.1230804,28.9375,30.375,29.375,32.9375,35.4375,36.5
0.18205377,0.21452975,-1.0649227,-1.5788971,-0.017129598,0.042975396,-0.15898621,-0.3966892,-0.36639294,0.060001463,-3.0768034,0.6226736,-3.3757024e-05,-0.08226453,0.026967542,-8.5112595e-05,0.028530572,-0.012304195,0.011736365,0.49538052,-1.3720087,1.891806,-2.0875504,-1.5725521,2.469216,-0.108230315,0.11104851,-0.14512283,0.05831325,-0.019619888,-0.11983831,-0.1340753,0.30645782,-9.155427,0.8112748,47.693153,-0.9624069,-2.465757,-3.1027393,-0.12417868,-0.26407593,-0.20846829,28.9375,30.375,29.375,32.9375,35.4375,36.5
0.18405342,-0.26795316,-1.1718658,-1.5636985,-0.037413534,0.049795434,-0.15151833,-0.39688867,-0.36634347,0.060032036,-3.0767832,0.62265134,6.5828965e-05,-0.0832574,0.02713757,0.00083838246,0.028731074,-0.012513119,0.006661789,0.49515268,-1.3718042,1.8914713,-2.0874536,-1.5726122,2.4689772,-0.10932551,0.111493155,-0.14849478,0.06151597,-0.019692348,-0.1158583,-0.17238252,0.2681506,-9.155427,0.8179876,47.71286,-0.99918133,-2.4417226,-3.1124892,-0.19938354,-0.2860079,-0.23974133,28.9375,30.375,29.375,32.9375,35.4375,36.5
0.18605363,-0.9111561,-1.5043697,-1.6360929,-0.030167555,0.046363465,-0.14921534,-0.39704454,-0.36629492,0.06001808,-3.0766966,0.622674,-5.7855097e-05,-0.0823907,0.029260404,-0.0012527738,0.03151854,-0.017260315,0.0019789427,0.49493635,-1.3715395,1.8911499,-2.0872853,-1.5726241,2.4687862,-0.11193022,0.11270068,-0.14549081,0.06280519,-0.019895807,-0.11377848,-0.095768064,0.28730422,-9.097966,0.7732232,47.667187,-1.0670727,-2.4223368,-3.2491946,-0.2250312,-0.27839065,-0.30625063,28.9375,30.375,29.375,32.9375,35.4375,36.5
0.1880535,0.09706415,-1.0730273,-1.702082,-0.025980493,0.070529714,-0.15489176,-0.39721987,-0.3662407,0.060015555,-3.0766783,0.6226494,-0.0001031136,-0.082385354,0.027845344,-0.00074001914,0.031008406,-0.016709628,0.0024677853,0.49468553,-1.371311,1.8908619,-2.0871894,-1.5726241,2.4685225,-0.109611794,0.113781504,-0.1481619,0.0636666,-0.01972073,-0.11194763,0.0,0.21068975,-9.32781,0.85826975,47.71286,-1.0836715,-2.366661,-3.106908,-0.2564364,-0.31329653,-0.3604174,28.9375,30.375,29.375,32.9375,35.4375,36.5
0.19005369,-0.56163883,-1.155462,-1.7745208,-0.015857207,0.045981675,-0.14049679,-0.39738107,-0.3661868,0.060002815,-3.0765896,0.62257457,-0.00011996914,-0.08378054,0.029397128,-0.0011100427,0.031231437,-0.017574392,-0.0027714458,0.49449274,-1.3710586,1.8905634,-2.0870702,-1.5726961,2.4682946,-0.11357036,0.11467546,-0.1484706,0.0639384,-0.01951828,-0.110666014,0.076614454,0.19153613,-9.308656,0.82694155,47.721813,-1.0976512,-2.2965236,-3.2113128,-0.27401662,-0.30517304,-0.40030152,28.9375,30.375,29.375,32.9375,35.4375,36.5
0.19205356,-0.26541626,-1.0697725,-1.7120488,-0.0020120137,0.04616923,-0.1470896,-0.39756984,-0.36612925,0.060028214,-3.0765502,0.6226211,-5.9025846e-05,-0.08347929,0.028442519,-0.0007303023,0.030789815,-0.015541345,-0.0003513877,0.4942541,-1.3708663,1.8902525,-2.086963,-1.5727443,2.4680903,-0.111281745,0.11414681,-0.14836515,0.06235442,-0.020103602,-0.11079583,0.019153614,0.1340753,-9.289502,0.7642693,47.723602,-1.1739064,-2.222545,-3.348527,-0.29262558,-0.31487325,-0.48046944,28.9375,30.375,29.375,32.9375,35.4375,36.5
0.19405329,0.040355302,-0.05160935,-1.9605306,-0.007715203,0.044375304,-0.16554289,-0.39774063,-0.36607528,0.060022827,-3.076487,0.62258667,-7.154026e-05,-0.084549785,0.028996184,-0.001841113,0.032347202,-0.01730708,0.0010588929,0.4940382,-1.3706248,1.8899525,-2.0868547,-1.5727929,2.4678612,-0.11279841,0.11787993,-0.15045224,0.06298783,-0.020657416,-0.113718696,-0.076614454,0.076614454,-9.270349,0.784413,47.72808,-1.1067759,-2.5273685,-3.4723866,-0.30893397,-0.3394935,-0.49034184,28.9375,30.375,29.375,32.9375,35.4375,36.5
0.19605406,-0.29498088,-0.3166155,-1.7941477,0.0038356078,0.03885533,-0.15831807,-0.3978981,-0.36601844,0.05999856,-3.0764232,0.62245417,-0.0001536266,-0.08557494,0.029685209,-0.0018803079,0.031027835,-0.015065567,0.005758556,0.49382168,-1.3703612,1.8896669,-2.086736,-1.5728287,2.4675703,-0.11488168,0.11708276,-0.14861377,0.059324436,-0.020593097,-0.12050049,0.019153614,-0.095768064,-9.289502,0.78888994,47.65106,-1.1415343,-2.2345726,-3.5682395,-0.2805183,-0.34936818,-0.4999832,28.9375,30.375,29.375,32.9375,35.4375,36.5
0.19805393,-0.24425161,-0.07713841,-1.751698,-0.0068556233,0.051858783,-0.1612016,-0.39805025,-0.36594194,0.05996836,-3.0763042,0.6224446,-0.00031917592,-0.08788622,0.028885106,-0.0009333933,0.02927769,-0.011830054,0.01266929,0.49357003,-1.3700961,1.8893794,-2.0865571,-1.572853,2.467328,-0.11556761,0.11881172,-0.15250888,0.057788018,-0.02063823,-0.128092,0.076614454,-0.17238252,-9.385271,0.7933669,47.66987,-1.0789905,-2.4317987,-3.4536853,-0.28555018,-0.36433774,-0.42465916,28.9375,30.375,29.375,32.9375,35.4375,36.5
0.20005389,-0.46498838,0.22974302,-1.9793923,-0.021148283,0.055173233,-0.16876984,-0.3982223,-0.3658916,0.05996494,-3.0762541,0.6223496,-0.00030352175,-0.08939116,0.02915673,-0.00051882566,0.029340299,-0.010365369,0.022941794,0.49336612,-1.3698555,1.889079,-2.0864618,-1.5729126,2.4670715,-0.1168557,0.11978616,-0.15459652,0.05760666,-0.021425512,-0.13964823,-0.05746084,0.0,-9.423578,0.83813137,47.71823,-1.1793708,-2.2765749,-3.4521399,-0.275828,-0.36437315,-0.32039014,28.9375,30.375,29.375,32.9375,35.4375,36.5
0.20205371,-1.0445503,-0.7764687,-1.9604646,-0.010462641,0.06797984,-0.15626991,-0.39838797,-0.3658337,0.05996866,-3.0762224,0.6222628,-0.00036634994,-0.09080055,0.029388582,-0.00028232695,0.029493183,-0.008817867,0.02797594,0.49312624,-1.369639,1.88878,-2.0863183,-1.572925,2.4667816,-0.117918156,0.12090007,-0.15632826,0.056916866,-0.022325227,-0.14573947,-0.1340753,0.05746084,-9.500193,0.8291774,47.71465,-1.1377072,-2.3355274,-3.4454918,-0.2837479,-0.38599917,-0.24522045,28.9375,30.375,29.375,32.9375,35.4375,36.5
0.20405371,-1.7880012,-1.0058969,-2.3860972,-0.018614559,0.07369124,-0.14993747,-0.3985799,-0.36575902,0.059951585,-3.0761092,0.62217927,-0.00037335945,-0.0929514,0.028937347,0.00086804037,0.02670318,-0.004332267,0.03117601,0.4928863,-1.3693508,1.8884457,-2.0861876,-1.5730213,2.4665043,-0.1192403,0.120619796,-0.15785414,0.05342046,-0.022028854,-0.15026021,-0.19153613,0.05746084,-9.634268,0.8717007,47.690468,-1.0622559,-2.252822,-3.4823394,-0.2598774,-0.39966688,-0.17498924,28.9375,30.375,29.375,32.9375,35.4375,36.5
0.20605367,-1.3877952,-1.2436306,-2.7614005,-0.03212124,0.10055096,-0.15768284,-0.39875993,-0.36573368,0.059976723,-3.0761702,0.6220953,-0.00038331997,-0.09423177,0.029596858,-0.00011014413,0.027855137,-0.005052339,0.030436242,0.4926582,-1.3691453,1.888122,-2.0860927,-1.572985,2.466216,-0.12103083,0.12376747,-0.15928417,0.052882846,-0.022710206,-0.15130793,-0.28730422,0.095768064,-9.749189,0.83365434,47.668976,-1.0771652,-2.4302716,-3.5178943,-0.24617404,-0.4101854,-0.15931459,28.9375,30.375,29.375,32.9375,35.4375,36.5
0.20805348,-1.8656496,-1.3790009,-2.6056414,-0.05835951,0.11072407,-0.14799339,-0.39895946,-0.3656412,0.05996297,-3.0760696,0.6219826,-0.00037680118,-0.09582046,0.029947365,0.0005945568,0.027194146,-0.002737975,0.022327613,0.4923821,-1.3688815,1.8878115,-2.0859725,-1.5730819,2.4658828,-0.12267802,0.12376672,-0.16070262,0.051946625,-0.023228377,-0.14484234,-0.53630114,0.15322891,-9.844957,0.84708,47.687782,-1.0256948,-2.1288912,-3.482173,-0.21367022,-0.4081301,-0.18480286,28.9375,30.375,29.375,32.9375,35.4375,36.5
0.21005505,-2.598918,-1.8336619,-2.7664936,-0.06694649,0.113357395,-0.1460384,-0.39913017,-0.36560035,0.059962764,-3.0760417,0.6219583,-0.0004109881,-0.09716471,0.030570798,-0.00014307433,0.02818883,-0.0031302602,0.016370917,0.49216628,-1.36864,1.8874997,-2.0858653,-1.5730938,2.4656556,-0.1244592,0.12657446,-0.16231722,0.05157517,-0.023923047,-0.1406623,-0.8619126,0.22984336,-10.036493,0.80456203,47.711063,-1.1081036,-2.45821,-3.5572412,-0.20510143,-0.40485954,-0.2208376,28.9375,30.375,29.375,32.9375,35.4375,36.5
0.21205415,-2.2159474,-1.6733427,-2.7131505,-0.083729975,0.14056116,-0.16815299,-0.39933497,-0.36552256,0.05996849,-3.075967,0.62192416,-0.0003571747,-0.09878288,0.029723493,0.0010809073,0.027029563,-5.7096204e-05,0.013342856,0.49190265,-1.3683999,1.8871759,-2.0857575,-1.5731782,2.4653804,-0.124169424,0.12724215,-0.16582957,0.051155318,-0.02436122,-0.13734081,-0.78529817,0.24899697,-10.151415,0.800085,47.70032,-1.072688,-2.2612615,-3.3977737,-0.19560829,-0.41988468,-0.28758046,28.9375,30.375,29.375,32.9375,35.4375,36.5
0.21405411,-2.1610882,-1.6018237,-2.7970579,-0.08244439,0.14830154,-0.16760924,-0.3995203,-0.3654871,0.059978507,-3.0759394,0.6218038,-0.0003672828,-0.101695865,0.030625513,0.0012243724,0.027462555,0.0014224153,0.009733084,0.49169794,-1.3681344,1.886804,-2.085614,-1.5732144,2.4651043,-0.12758145,0.13008134,-0.16951492,0.05089642,-0.02545733,-0.13713616,-0.7852981,0.2681506,-10.0748005,0.84484416,47.71465,-1.0613582,-2.3618171,-3.3906636,-0.15753153,-0.43075764,-0.32142943,28.9375,30.375,29.375,32.9375,35.4375,36.5
0.21605434,-2.2195096,-1.5733083,-2.5595095,-0.06439177,0.15223859,-0.1606406,-0.39975896,-0.36542428,0.05997986,-3.0759194,0.6218359,-0.00030643705,-0.10152098,0.030374665,0.0011125572,0.028503982,0.0018868748,0.010484214,0.49139926,-1.367846,1.8864459,-2.0855663,-1.5732507,2.4648285,-0.12622423,0.13061473,-0.16991636,0.0508398,-0.026594754,-0.13652612,-0.8619126,0.2681506,-10.055647,0.8560339,47.67345,-1.0836315,-2.3560708,-3.3486824,-0.15066773,-0.42797977,-0.34941864,28.9375,30.375,29.375,32.9375,35.4375,36.5
0.2180542,-2.1013482,-1.1284941,-2.2322474,-0.051276103,0.14867005,-0.15600115,-0.39994833,-0.365375,0.059980843,-3.075892,0.62169504,-0.00026403385,-0.10277276,0.030745605,0.0005108183,0.029792424,0.0016062026,0.010008273,0.49118304,-1.3675926,1.8861221,-2.0854824,-1.5733112,2.464528,-0.12729263,0.13355994,-0.172114,0.050935816,-0.027608862,-0.13711312,-0.8619126,0.30645782,-9.921572,0.8806493,47.677036,-1.113078,-2.3911798,-3.4049242,-0.12896526,-0.43829244,-0.37258273,28.9375,30.375,29.375,32.9375,35.4375,36.5
0.22005406,-1.4287417,-0.9937831,-2.2996736,-0.021752557,0.14661373,-0.14514911,-0.4001814,-0.36532462,0.060028687,-3.0759132,0.6217341,-0.00018384743,-0.10432656,0.030864445,0.0016203994,0.029189961,0.0037661456,0.012968434,0.4908956,-1.3673764,1.8857282,-2.0853627,-1.5733231,2.4642625,-0.1285094,0.13344698,-0.17461911,0.051346634,-0.028105568,-0.14128895,-0.7086837,0.22984336,-9.787497,0.88289046,47.717335,-1.1549332,-2.3643289,-3.285822,-0.11319569,-0.43473095,-0.35996094,28.9375,30.375,29.375,32.9375,35.4375,36.5
0.22205402,-1.0713079,-0.36671215,-2.3016694,-0.013381461,0.12909897,-0.15920277,-0.4003935,-0.36525244,0.060013495,-3.075845,0.62162095,-0.00012002146,-0.106484644,0.031903062,0.0011155419,0.029631315,0.0031883954,0.016885977,0.49064252,-1.3670874,1.885404,-2.0853026,-1.573419,2.4639478,-0.13203952,0.13652264,-0.17722678,0.051556222,-0.028251301,-0.14873406,-0.63206923,0.17238252,-9.768343,0.7597976,47.678825,-0.9234249,-2.3973494,-3.3106227,-0.07741104,-0.43156,-0.30872774,28.9375,30.375,29.375,32.9375,35.4375,36.5
0.22405411,-1.8748181,-1.0176442,-2.2061636,0.005088313,0.08722496,-0.14199467,-0.40061748,-0.3651978,0.060013212,-3.0758154,0.6216079,-6.190339e-05,-0.106138654,0.033073645,-0.0003520268,0.03275384,0.0010484136,0.025424797,0.4903794,-1.3667984,1.8850459,-2.0852425,-1.5734681,2.4636805,-0.13252796,0.13829358,-0.17614244,0.05202656,-0.030017033,-0.1577552,-0.7278373,0.17238252,-9.653421,0.8224646,47.684196,-1.1354016,-2.5129967,-3.421701,-0.051874064,-0.42584518,-0.22240536,28.9375,30.375,29.375,32.9375,35.4375,36.5
0.22605413,-1.0250257,-0.11246169,-1.6734428,-0.01749584,0.10396422,-0.16507179,-0.40082136,-0.3651046,0.05999415,-3.0757139,0.6214662,-9.831389e-05,-0.10636156,0.034124836,-0.0019343556,0.03655339,-0.0012919988,0.03281021,0.4900919,-1.3665086,1.8847107,-2.0850985,-1.573553,2.4633179,-0.13301383,0.14169689,-0.176906,0.05320461,-0.032305308,-0.16561407,-0.57460845,0.095768064,-9.442732,0.83365434,47.66987,-1.0361289,-2.6200047,-3.4322548,-0.04626382,-0.405443,-0.107628405,28.9375,30.375,29.375,32.9375,35.4375,36.5
0.2280539,-1.155534,-0.6528099,-1.580089,0.0044662696,0.10367353,-0.15086295,-0.4010745,-0.36503926,0.06001618,-3.0756915,0.62142026,-1.3040842e-05,-0.108131275,0.034725323,-0.0006257711,0.036453325,0.0012820741,0.034553166,0.48979175,-1.366221,1.8842925,-2.0849907,-1.573613,2.4629922,-0.13482629,0.14101948,-0.17926003,0.053892106,-0.033441722,-0.16916521,-0.47884035,-0.019153614,-9.461885,0.83365434,47.687782,-0.99528104,-2.3196816,-3.4351573,-0.011506559,-0.37580127,-0.051429898,28.9375,30.375,29.375,32.9375,35.4375,36.5
0.23005383,-1.2168481,0.2732299,-1.2852199,-0.008417967,0.09706734,-0.15097702,-0.40129787,-0.36498386,0.06002807,-3.0756912,0.6213076,6.102804e-05,-0.10889698,0.03533465,-0.0001838722,0.03740141,0.0020710947,0.029050011,0.48952806,-1.3659568,1.8839334,-2.0849187,-1.5736617,2.4626584,-0.13572222,0.14095517,-0.18044259,0.05488962,-0.03463914,-0.16455384,-0.34476504,-0.19153614,-9.346964,0.8717007,47.709274,-1.0471134,-2.464599,-3.4439793,0.020628432,-0.37523827,-0.05834607,28.9375,30.375,29.375,32.9375,35.4375,36.5
0.23205367,-0.20031548,0.5114112,-1.0055289,0.0058236886,0.10434437,-0.15827534,-0.4015046,-0.3649151,0.060026295,-3.0756545,0.62116706,8.596119e-05,-0.109849885,0.035433862,-0.00019372912,0.03862845,0.001505868,0.022063632,0.48926446,-1.3656918,1.8835987,-2.0848215,-1.5737222,2.462312,-0.13617486,0.1432095,-0.18359151,0.05686357,-0.03545185,-0.15801466,-0.21068975,-0.2681506,-9.097966,0.83589023,47.704796,-1.0867909,-2.378245,-3.3544374,0.026737908,-0.3531109,-0.10572267,28.9375,30.375,29.375,32.9375,35.4375,36.5
0.23405361,0.036319032,0.7905703,-0.9811978,0.03631294,0.06900588,-0.15540838,-0.4017659,-0.36485958,0.060071312,-3.0756311,0.6211862,0.00025322364,-0.11009942,0.03587355,-0.00011309871,0.039293114,0.00083229353,0.0146914935,0.48898864,-1.3654271,1.8831557,-2.0847137,-1.5738062,2.4620514,-0.13689785,0.14350694,-0.18450356,0.058383677,-0.03569863,-0.15136683,-0.22984336,-0.24899697,-8.983045,0.86945957,47.71554,-1.0549395,-2.4360514,-3.3458018,0.033998452,-0.32577533,-0.21074298,28.9375,30.375,29.375,32.9375,35.4375,36.5
0.2360538,0.5103943,1.2656741,-0.9749796,0.060844135,0.036482845,-0.16046372,-0.40199637,-0.36478218,0.060074717,-3.0755818,0.62115765,0.00029554538,-0.11094078,0.03588427,8.813438e-05,0.040076755,0.00011250358,0.0077859582,0.48868927,-1.3651508,1.8827957,-2.0846174,-1.5738662,2.4617407,-0.13737813,0.1453381,-0.18772514,0.060779504,-0.03604624,-0.14493853,-0.05746084,-0.30645782,-8.925584,0.8247004,47.686886,-1.0965657,-2.2510495,-3.2667594,0.036600076,-0.3319465,-0.27464032,28.9375,30.375,29.375,32.9375,35.4375,36.5
0.23805368,1.2783661,1.2085711,-1.0810182,0.06771828,0.022457067,-0.1676513,-0.4022184,-0.36470348,0.060083,-3.0755062,0.62106514,0.00038453992,-0.111747645,0.037049513,0.0011375083,0.04234837,0.0004157078,0.0042429157,0.4884254,-1.3648865,1.8824362,-2.0845077,-1.573975,2.461429,-0.13865732,0.14454745,-0.19007477,0.064708225,-0.038192116,-0.14266557,0.05746084,-0.15322891,-8.829816,0.87393653,47.684196,-1.1309966,-2.309295,-3.2140946,0.029683396,-0.2940086,-0.36274564,28.9375,30.375,29.375,32.9375,35.4375,36.5
0.24005361,0.90505135,0.32398474,-1.2034009,0.064707905,0.0027554766,-0.1505391,-0.40244713,-0.36460474,0.0600487,-3.0753615,0.621132,0.00037282013,-0.11191874,0.037191745,0.0014273582,0.044497762,-0.0010820413,0.0010562527,0.4881142,-1.3645494,1.882089,-2.084411,-1.5740708,2.4611785,-0.1382313,0.14588657,-0.1933292,0.06894561,-0.039394923,-0.13904387,0.038307227,0.0,-8.810662,0.85826975,47.723602,-1.1281338,-2.337434,-3.2662356,-0.00329618,-0.26767772,-0.4365278,28.9375,30.3125,29.375,32.9375,35.4375,36.5
0.24205346,0.3647525,0.15261096,-1.2842721,0.031695213,-0.0056548747,-0.15013216,-0.40268135,-0.3645107,0.060059313,-3.0752232,0.6211218,0.0003758855,-0.11351311,0.037840895,0.0034025651,0.044514813,-0.00010458952,0.00082685665,0.487814,-1.3642497,1.8816575,-2.084194,-1.5741795,2.46089,-0.14035955,0.14478318,-0.19752446,0.073357396,-0.039890092,-0.14093648,0.019153614,0.038307227,-8.772355,0.82694155,47.703903,-1.0954099,-2.040521,-3.0747695,-0.049417984,-0.219329,-0.5036366,28.9375,30.3125,29.375,32.9375,35.4375,36.5
0.24405332,-0.32442647,-0.9298418,-1.6523829,0.011000167,-0.002385518,-0.15490898,-0.40286544,-0.36441767,0.060032234,-3.0750964,0.6210316,0.00027932442,-0.11255963,0.040266477,0.0022851897,0.048545092,-0.007922189,0.006118433,0.4875379,-1.3639611,1.8813351,-2.0840232,-1.5742515,2.4605742,-0.14354955,0.14607644,-0.19844952,0.08173289,-0.039818663,-0.14941315,0.095768064,0.05746084,-9.002198,0.8403672,47.716442,-1.1789578,-2.055038,-3.1728392,-0.1328916,-0.19923721,-0.47159103,28.9375,30.3125,29.375,32.9375,35.4375,36.5
0.2460541,0.17375591,-0.79564434,-1.4519134,-0.033589635,0.030873032,-0.1608498,-0.40309972,-0.36435622,0.06007494,-3.0750704,0.62092304,0.0003338326,-0.11186194,0.04079505,0.0012832289,0.04995644,-0.011244721,0.017008005,0.48726234,-1.3637083,1.8808922,-2.083831,-1.5743111,2.4602344,-0.14390154,0.14743961,-0.19828498,0.08374091,-0.03954344,-0.16065598,0.17238252,0.21068975,-9.136273,0.8179876,47.68599,-1.0939137,-2.019541,-3.233562,-0.1816468,-0.1671946,-0.38765973,28.9375,30.3125,29.375,32.9375,35.4375,36.5
0.24805431,-0.15259129,-1.5526853,-1.62473,-0.056340743,0.038793217,-0.16600311,-0.4033251,-0.36425468,0.060062703,-3.0749037,0.6209008,0.00024690025,-0.111956365,0.042291295,0.0006133584,0.05164364,-0.015816292,0.024886316,0.48695,-1.3633715,1.8804625,-2.0835898,-1.574407,2.45993,-0.14677851,0.14891773,-0.1996077,0.08834599,-0.03895187,-0.17140783,0.21068975,0.2681506,-9.251195,0.8403672,47.66271,-0.95402026,-2.025671,-3.223781,-0.22975877,-0.17068112,-0.2714607,28.9375,30.3125,29.375,32.9375,35.4375,36.5
0.25005478,-0.0072077503,-1.7940733,-1.8172593,-0.07165347,0.055682585,-0.16324444,-0.40354472,-0.3641647,0.060056232,-3.074791,0.6208161,0.00023671424,-0.11206876,0.042404663,0.00038070173,0.051903084,-0.017242482,0.030325377,0.4866624,-1.3630706,1.8800792,-2.0834224,-1.5745028,2.4596043,-0.14723793,0.1499958,-0.20071249,0.08970359,-0.038555995,-0.17730449,0.038307227,0.38307226,-9.289502,0.80679786,47.704796,-0.93231493,-2.0851717,-3.2465348,-0.33352518,-0.14420348,-0.17497596,28.9375,30.3125,29.375,32.9375,35.4375,36.5
0.25205398,-0.4485078,-1.5890483,-2.0549746,-0.07420096,0.058094356,-0.17000806,-0.40375745,-0.36408988,0.060049146,-3.0747313,0.62074566,0.00015356425,-0.113467455,0.04269062,-4.9258968e-05,0.051108725,-0.017208382,0.029627258,0.48636207,-1.3627697,1.8796972,-2.0832555,-1.5745267,2.4592679,-0.14928587,0.152111,-0.20203793,0.08848938,-0.03790653,-0.17865315,-0.1340753,0.38307226,-9.442732,0.8090337,47.690468,-0.93926173,-2.0657706,-3.2886589,-0.35363328,-0.13194855,-0.13824037,28.9375,30.3125,29.375,32.9375,35.4375,36.5
0.2540538,-0.52702403,-1.9986267,-2.2520387,-0.06081083,0.072919205,-0.1530379,-0.40396014,-0.3639843,0.060025312,-3.0745833,0.6205996,5.3951197e-05,-0.1130929,0.04196407,-0.0022420192,0.051479068,-0.019464158,0.026835423,0.48606366,-1.362456,1.8793272,-2.083041,-1.5746225,2.4588976,-0.14809465,0.15644702,-0.20173056,0.08599832,-0.03721279,-0.17466675,-0.05746084,0.30645782,-9.481039,0.8537928,47.705692,-1.1959407,-2.2524505,-3.352741,-0.36775592,-0.12135156,-0.14473853,28.9375,30.3125,29.375,32.9375,35.4375,36.5
0.25605577,-1.0351157,-1.698411,-2.2090235,-0.0661535,0.0683324,-0.15944088,-0.4041986,-0.3639291,0.060037684,-3.074536,0.62053496,5.3959706e-05,-0.114540964,0.04063844,-0.0014817358,0.047499128,-0.015651217,0.019434176,0.485788,-1.3621316,1.8788728,-2.0828745,-1.5746697,2.458588,-0.14814411,0.15662004,-0.20272839,0.08159744,-0.03548045,-0.16732104,-0.11492168,0.34476504,-9.442732,0.88289046,47.70211,-1.0768652,-2.076632,-3.517457,-0.35064542,-0.10982905,-0.26692453,28.9375,30.3125,29.375,32.9375,35.4375,36.5
0.25805467,-0.6927171,-1.5906359,-1.812082,-0.077112384,0.08960411,-0.17367515,-0.4044192,-0.36383086,0.06001944,-3.0744426,0.6204199,-2.1862257e-05,-0.11622592,0.040401913,-0.0019756013,0.045384817,-0.014537744,0.01559997,0.48546392,-1.3618188,1.8785018,-2.0827076,-1.5747293,2.4582043,-0.14997518,0.15904716,-0.20381561,0.07826815,-0.03416344,-0.16531949,-0.19153613,0.36391866,-9.576807,0.8247004,47.686886,-1.1056149,-2.2350478,-3.4818153,-0.30990005,-0.12756011,-0.30502057,28.9375,30.3125,29.375,32.9375,35.4375,36.5
0.26005453,-1.2209464,-2.1996748,-2.315719,-0.060950898,0.0793683,-0.15529425,-0.4046787,-0.36376765,0.06003465,-3.0743973,0.6204106,3.3160966e-05,-0.1186422,0.039608207,-0.0021798075,0.042589813,-0.011414796,0.013059193,0.4851642,-1.3614931,1.8780473,-2.082578,-1.5747889,2.4579048,-0.15131013,0.16199595,-0.20580798,0.07322719,-0.033169955,-0.16411696,-0.2681506,0.36391866,-9.595961,0.78888994,47.72002,-1.0455705,-2.3821309,-3.4972873,-0.31302094,-0.13517635,-0.36557475,28.9375,30.3125,29.375,32.9375,35.4375,36.5
0.26205713,-1.1062768,-1.6065682,-2.3967726,-0.08151971,0.079370834,-0.16414218,-0.4049152,-0.36367875,0.060035314,-3.0743108,0.620316,6.665664e-05,-0.12100208,0.0399848,-0.00307802,0.040824126,-0.0092666205,0.010107531,0.48486397,-1.361192,1.877653,-2.0824368,-1.5748843,2.457557,-0.15427469,0.16482086,-0.20598942,0.06783287,-0.032638937,-0.16413015,-0.17238252,0.36391866,-9.883265,0.8224646,47.694946,-1.031178,-2.378249,-3.6416945,-0.2287869,-0.14174649,-0.3849334,28.9375,30.3125,29.375,32.9375,35.4375,36.5
0.26405475,-1.2566159,-1.9001063,-2.1493373,-0.089330144,0.081515715,-0.16036141,-0.40515268,-0.36360788,0.060041953,-3.074267,0.6202627,7.906115e-05,-0.12188966,0.03982998,-0.004505144,0.040954117,-0.01112913,0.015209844,0.48456424,-1.3608903,1.8772463,-2.0823052,-1.5749325,2.4572299,-0.15515298,0.16916254,-0.20781086,0.06697618,-0.03192495,-0.17011216,-0.24899697,0.22984336,-9.691729,0.8605109,47.70211,-0.95483047,-2.466711,-3.7117736,-0.1777404,-0.12540701,-0.3507382,28.9375,30.3125,29.375,32.9375,35.4375,36.5
0.26605436,-0.87367535,-1.746869,-1.9579657,-0.07006122,0.089819245,-0.16872011,-0.4053651,-0.36353642,0.060017027,-3.0741966,0.6200692,4.7513833e-05,-0.12483001,0.038960986,-0.00088904455,0.036049828,-0.0032555591,0.022687566,0.4843005,-1.3605559,1.8768748,-2.082186,-1.5750045,2.4568546,-0.15659459,0.1654738,-0.21114323,0.06468507,-0.031315446,-0.17903145,-0.4213795,0.22984336,-9.519346,0.8784135,47.682407,-0.9118742,-2.259245,-3.639452,-0.16111207,-0.13888621,-0.3032145,28.9375,30.3125,29.375,32.9375,35.4375,36.5
0.26805407,-1.3755397,-1.3995129,-2.1038888,-0.026905615,0.081339225,-0.1585684,-0.40565437,-0.36347768,0.06003481,-3.0742166,0.62004584,0.000100887235,-0.12695694,0.037281744,-0.00025165782,0.032842096,9.013391e-05,0.033247475,0.48395336,-1.3602074,1.8763946,-2.0820916,-1.5750164,2.4564905,-0.15630963,0.16794951,-0.21489833,0.061449364,-0.0300837,-0.18931189,-0.47884035,0.076614454,-9.653421,0.8537928,47.661808,-1.0474899,-2.3671985,-3.4264216,-0.10213864,-0.15063256,-0.17577878,28.9375,30.3125,29.375,32.9375,35.4375,36.5
0.2700547,-1.0113581,-0.45250392,-2.0621564,-0.0007227702,0.09073881,-0.17075787,-0.40588644,-0.36339548,0.060017813,-3.0741405,0.6199112,7.8181176e-05,-0.12696745,0.036697693,-0.00086542603,0.032640006,-0.0022604952,0.038513582,0.48365402,-1.3598708,1.8759993,-2.081959,-1.5750874,2.4561172,-0.15601005,0.17055687,-0.2170145,0.062896974,-0.028848713,-0.19428152,-0.30645782,0.076614454,-9.653421,0.8918391,47.71823,-1.0269221,-2.5063195,-3.4197803,-0.085637785,-0.17305626,-0.084194064,28.9375,30.3125,29.375,32.9375,35.4375,36.5
0.27205428,-1.2391886,-0.23217568,-1.6972377,-0.0002613112,0.09464307,-0.16656446,-0.40615276,-0.36332303,0.060031172,-3.0740852,0.6198629,0.00012950716,-0.12837352,0.037209902,-0.0003676915,0.032154102,-0.0018974466,0.03471298,0.48334152,-1.3595347,1.875533,-2.081815,-1.5751594,2.455782,-0.15816246,0.17123051,-0.21922538,0.06387072,-0.028592002,-0.19263352,-0.5554548,0.11492168,-9.576807,0.8157518,47.695843,-0.9598638,-2.480671,-3.40307,-0.08184554,-0.17247397,-0.05738736,28.9375,30.3125,29.375,32.9375,35.4375,36.5
0.27405366,-1.1450176,-0.5912112,-1.6702677,0.0071877455,0.104658596,-0.1618976,-0.40641308,-0.3632617,0.060038466,-3.0740886,0.6197112,0.00016200678,-0.12825531,0.036854565,6.237908e-05,0.03173859,-0.0020708388,0.029745808,0.48303092,-1.3591993,1.875089,-2.0817072,-1.5751952,2.4553764,-0.15764338,0.17101952,-0.22027893,0.06510327,-0.028128793,-0.18714938,-0.7469909,0.15322891,-9.423578,0.87617236,47.690468,-1.1440241,-2.3486478,-3.4263668,-0.04644301,-0.2087869,-0.1311809,28.9375,30.3125,29.375,32.9375,35.4375,36.5
0.2760544,-1.8023818,-0.39602894,-2.1341386,-0.01985609,0.097097844,-0.15955868,-0.40665874,-0.36318284,0.060050897,-3.0740123,0.6196992,0.0001597118,-0.12971506,0.036576338,0.0010537048,0.031454634,-0.0009364608,0.020186165,0.48271933,-1.3588871,1.8746451,-2.081527,-1.5752558,2.4550674,-0.15820691,0.17211959,-0.22430807,0.06691774,-0.028390823,-0.1781491,-0.63206923,0.0,-9.576807,0.8806493,47.67614,-1.2306259,-2.2972953,-3.362513,-0.033441443,-0.20876896,-0.2150113,28.9375,30.3125,29.375,32.9375,35.4375,36.5
0.27805352,-1.7493266,-0.880212,-1.8058903,-0.03678282,0.10463972,-0.16226557,-0.40693647,-0.36309806,0.060052652,-3.073944,0.61962765,0.00020829999,-0.12893358,0.03679376,-0.00045349146,0.034588028,-0.004159413,0.015675725,0.4823844,-1.3585267,1.8741783,-2.081395,-1.5753402,2.454697,-0.15699768,0.17514603,-0.22501937,0.06891829,-0.029657762,-0.1724218,-0.6512228,0.05746084,-9.557653,0.9231726,47.66539,-1.3036163,-2.2546768,-3.4009647,-0.023021463,-0.19133332,-0.31483108,28.9375,30.3125,29.375,32.9375,35.4375,36.5
0.28005376,-1.5330218,-0.9521879,-1.7423702,-0.04263614,0.11626356,-0.1625645,-0.40719533,-0.36302257,0.060065858,-3.0738876,0.6196385,0.00022064014,-0.12995614,0.038277656,0.00054770056,0.03458122,-0.0038991626,0.007784307,0.48205963,-1.3582034,1.8737243,-2.081238,-1.5753883,2.4543865,-0.16020791,0.17340903,-0.22575812,0.07116495,-0.02976285,-0.16773953,-0.6895301,0.019153614,-9.557653,0.88960326,47.693153,-1.1735449,-2.2386096,-3.4366004,-0.03915588,-0.2073443,-0.39832366,28.9375,30.3125,29.375,32.9375,35.4375,36.5
0.28205395,-1.2719452,-0.7553873,-1.6630615,-0.02439388,0.109513015,-0.16102226,-0.40748084,-0.36294973,0.06007304,-3.0738394,0.61960924,0.00026283666,-0.13192023,0.039101057,0.0017668222,0.034346122,-0.0030988841,0.004301305,0.48172334,-1.3578315,1.8732308,-2.0811055,-1.5754484,2.4540384,-0.16309173,0.17360108,-0.22940464,0.07378512,-0.029933348,-0.16713813,-0.4405331,-0.114921674,-9.615114,0.83813137,47.670765,-1.0584254,-2.213172,-3.331715,-0.04258215,-0.22149675,-0.4782948,28.9375,30.3125,29.375,32.9375,35.4375,36.5
0.2840536,-0.9240377,-0.15629691,-1.7166333,-0.006534995,0.095909774,-0.17549364,-0.40771222,-0.36287263,0.06004401,-3.0737793,0.61949265,0.00018878435,-0.1311163,0.039341368,0.0012426494,0.036485005,-0.006051273,0.01314461,0.4814129,-1.3574715,1.8728365,-2.0809844,-1.5754842,2.453663,-0.16234015,0.17478716,-0.23046267,0.077213116,-0.03050647,-0.17522426,-0.3256114,-0.2681506,-9.576807,0.88289046,47.704796,-1.244839,-2.1397822,-3.3652692,-0.056499913,-0.20983131,-0.46801367,28.9375,30.3125,29.375,32.9375,35.4375,36.5
0.28605434,-0.83941823,0.60151404,-1.6085961,0.014151528,0.06473169,-0.16878952,-0.40798908,-0.36280084,0.06004562,-3.0737202,0.61941516,0.00025065197,-0.1302579,0.039921388,9.804856e-05,0.038380694,-0.010420035,0.02409373,0.48110095,-1.3570992,1.8723577,-2.0808637,-1.5755681,2.4533107,-0.16262919,0.17664127,-0.23087369,0.08044097,-0.030209603,-0.18646367,-0.30645782,-0.1340753,-9.461885,0.92093146,47.691364,-1.3069813,-2.1376858,-3.4857585,-0.068389766,-0.23311894,-0.36878783,28.9375,30.3125,29.375,32.9375,35.4375,36.5
0.2880542,-0.07125771,0.9728661,-1.5908194,0.039086334,0.064399496,-0.17751145,-0.40827078,-0.3627069,0.060070835,-3.0736585,0.61935747,0.00028587825,-0.12996419,0.04063143,-0.00079494057,0.040986426,-0.014520825,0.035230424,0.48074082,-1.356775,1.8718671,-2.080671,-1.5756401,2.4529228,-0.16316004,0.17913157,-0.23283787,0.08467656,-0.030676015,-0.19812754,-0.19153613,-0.1340753,-9.289502,0.90750587,47.70659,-1.3823466,-2.1112096,-3.4369428,-0.098939784,-0.22906269,-0.2584927,28.9375,30.3125,29.375,32.9375,35.4375,36.5
0.29005378,0.15293196,1.0967225,-1.9034632,0.050132167,0.041976538,-0.17817959,-0.40852377,-0.36261433,0.060058944,-3.0735614,0.61923957,0.00026173214,-0.13113488,0.042207025,-0.00042743364,0.043205325,-0.015603966,0.038064074,0.48041585,-1.3564149,1.8714226,-2.0805018,-1.5757245,2.452537,-0.16579182,0.17978166,-0.235359,0.08848574,-0.03218771,-0.20358193,-0.05746084,-0.19153613,-9.3661175,0.90527004,47.721813,-1.3622825,-2.1301653,-3.3926456,-0.13292773,-0.22661777,-0.15501648,28.9375,30.3125,29.375,32.9375,35.4375,36.5
0.2920538,0.5584826,0.37078053,-1.730584,0.04366883,0.02816434,-0.16394746,-0.40880257,-0.36253405,0.060063936,-3.0735304,0.6191203,0.00027200478,-0.13147083,0.043711744,-0.0017919989,0.045492854,-0.020269515,0.032546338,0.48006693,-1.3560542,1.8709444,-2.0803573,-1.5757726,2.452118,-0.16856237,0.18285531,-0.23681782,0.09205843,-0.032063466,-0.20083384,0.019153614,-0.15322891,-9.404425,0.88289046,47.683304,-1.2004648,-2.314674,-3.439694,-0.20814203,-0.22643214,-0.16757938,28.9375,30.3125,29.375,32.9375,35.4375,36.5
0.29405364,0.12937304,-0.47166058,-1.6882447,0.012137223,0.003970688,-0.16085033,-0.40906942,-0.36244857,0.06007344,-3.0734475,0.61897343,0.000262092,-0.13332829,0.044760607,-0.0017611275,0.04593267,-0.021814361,0.02279199,0.47974184,-1.3556936,1.8704399,-2.0801408,-1.5758566,2.4517121,-0.1720264,0.18530561,-0.24053513,0.09490309,-0.031744704,-0.19454148,-0.076614454,-0.095768064,-9.308657,0.88289046,47.690468,-1.1629255,-2.2783298,-3.3529215,-0.24547623,-0.2333687,-0.23600909,28.9375,30.3125,29.375,32.9375,35.4375,36.5
0.29605404,0.36719546,-1.2189009,-1.4635836,-0.019350616,0.0126924645,-0.16740666,-0.40932065,-0.36234558,0.060076647,-3.0733252,0.61895055,0.00019509223,-0.13317563,0.045030072,-0.0026191464,0.047247097,-0.023787338,0.017925737,0.47939408,-1.3553572,1.8699735,-2.079901,-1.5759286,2.4513662,-0.17207287,0.18721078,-0.24117637,0.095997445,-0.032015864,-0.18971641,-0.095768064,-0.076614454,-9.308656,0.9455522,47.698532,-1.1719091,-2.400986,-3.3155417,-0.2681163,-0.2324517,-0.30127338,28.9375,30.3125,29.375,32.9375,35.4375,36.5
0.2980542,0.6229885,-1.0575019,-1.6095653,-0.03950687,0.033384107,-0.1786618,-0.40959555,-0.36223102,0.06006303,-3.073191,0.61888546,0.00015069447,-0.1335788,0.045722563,-0.0030107202,0.048801478,-0.025008764,0.013054029,0.47902173,-1.354973,1.8694957,-2.0796964,-1.5760254,2.450971,-0.17295717,0.1886305,-0.24241655,0.0976127,-0.032851763,-0.18572038,0.076614454,0.038307227,-9.385271,0.8403672,47.689575,-1.1436207,-2.3602505,-3.4441009,-0.34080356,-0.23718263,-0.3804393,28.9375,30.3125,29.375,32.9375,35.4375,36.5
0.30005407,-0.61003155,-1.7434355,-1.559352,-0.043302014,0.029883664,-0.17205188,-0.4098405,-0.36215442,0.060050137,-3.07311,0.61873436,5.214392e-05,-0.13677292,0.045048308,-0.0015484901,0.045282617,-0.018199334,0.012676382,0.47870907,-1.3545892,1.8690146,-2.0794833,-1.576073,2.4505746,-0.1744687,0.18879457,-0.2447716,0.092114344,-0.032923464,-0.18684922,0.0,0.19153613,-9.3661175,0.900793,47.690468,-1.1229857,-2.2201905,-3.3301046,-0.3156959,-0.2449655,-0.38458264,28.9375,30.3125,29.375,32.9375,35.4375,36.5
0.30205414,-0.564313,-1.5808631,-1.5038751,-0.06843639,0.066147916,-0.18356311,-0.41010144,-0.36205298,0.06007407,-3.0730288,0.61871386,3.317909e-05,-0.13832201,0.045092218,-0.0005392727,0.04281608,-0.01581905,0.017002122,0.47834846,-1.3542898,1.8685483,-2.0792563,-1.5761327,2.450212,-0.17641024,0.1880961,-0.24595529,0.09068786,-0.031886943,-0.19312052,-0.15322891,0.28730422,-9.270349,0.8224646,47.66091,-0.9819732,-2.374248,-3.431591,-0.28057286,-0.25769854,-0.37223417,28.9375,30.3125,29.375,32.9375,35.4375,36.5
0.3040542,-1.1516888,-2.1095073,-1.6464679,-0.06601581,0.07246524,-0.17839345,-0.41040614,-0.361968,0.060067143,-3.0729933,0.6186803,3.63862e-05,-0.14243929,0.045036443,0.0006631635,0.039450318,-0.009100635,0.025684142,0.47796327,-1.3538821,1.8680457,-2.079139,-1.5761689,2.4498107,-0.17964923,0.1892977,-0.24890043,0.0848351,-0.03207779,-0.2050387,0.0,0.36391866,-9.3661175,0.9030289,47.682407,-0.97480285,-2.2194524,-3.3920503,-0.22934611,-0.28124774,-0.2824772,28.9375,30.3125,29.375,32.9375,35.4375,36.5
0.30605325,-1.9473654,-2.0438168,-1.6448973,-0.083044246,0.07825688,-0.18248282,-0.4106855,-0.36189526,0.060072765,-3.0729604,0.6185141,2.1620226e-05,-0.14458047,0.043758694,0.0014612088,0.035995822,-0.0055184616,0.03574254,0.47762746,-1.3534979,1.8675293,-2.0789607,-1.5762161,2.4493756,-0.18007341,0.19081323,-0.25185123,0.08141892,-0.030735124,-0.21552673,-0.19153613,0.4405331,-9.308657,0.91198283,47.689575,-1.0720024,-2.1463048,-3.320116,-0.18559512,-0.30128288,-0.14477393,28.9375,30.3125,29.375,32.9375,35.4375,36.5
0.3080541,-1.911473,-1.6883037,-1.570177,-0.09044662,0.08353768,-0.17890517,-0.41094193,-0.36180153,0.060055304,-3.0728698,0.6183392,-4.4644887e-05,-0.14478874,0.04238431,0.0014625302,0.034170248,-0.0040508397,0.03986367,0.47729194,-1.3531139,1.8670629,-2.07877,-1.5762881,2.448943,-0.1783934,0.19184645,-0.25262403,0.07897415,-0.029836655,-0.21796973,-0.36391866,0.40222588,-9.3661175,0.9164598,47.71017,-1.0560913,-2.084197,-3.4252973,-0.13409607,-0.32802755,-0.10141368,28.9375,30.3125,29.375,32.9375,35.4375,36.5
0.31005377,-2.4086988,-1.7344812,-1.7964277,-0.08103116,0.07745593,-0.1751703,-0.41122672,-0.36171892,0.060069423,-3.0728128,0.61823624,-4.9056864e-05,-0.14673914,0.042816047,0.001631905,0.033604566,-0.0015234315,0.030205512,0.47694325,-1.3527417,1.866536,-2.0785673,-1.5763482,2.4485376,-0.18028302,0.19303305,-0.2539869,0.07666842,-0.030484742,-0.21019517,-0.4213795,0.4405331,-9.500193,0.89631605,47.719128,-1.0789723,-1.9985514,-3.5413752,-0.10549288,-0.34806567,-0.118356764,28.9375,30.3125,29.375,32.9375,35.4375,36.5
0.3120538,-1.8606896,-1.5155125,-1.4288529,-0.07857654,0.097848356,-0.17857614,-0.4115268,-0.3616343,0.06006469,-3.072782,0.61815846,-2.2623457e-05,-0.14704306,0.04338053,0.0021860022,0.035089757,-0.0020230017,0.0203035,0.47657132,-1.3523461,1.8660444,-2.078458,-1.5763968,2.4481213,-0.18070841,0.19300957,-0.2559954,0.0798622,-0.031538136,-0.2007112,-0.63206923,0.3256114,-9.500193,0.8672237,47.694946,-1.0932968,-2.0979388,-3.4965887,-0.09045598,-0.3517331,-0.21146736,28.9375,30.3125,29.375,32.9375,35.4375,36.5
0.3140538,-1.7739342,-1.4046097,-1.4116719,-0.05785413,0.101723984,-0.17267634,-0.41182938,-0.36154363,0.06009755,-3.0727217,0.6180334,7.7525874e-05,-0.14773801,0.043046072,0.0012350928,0.035422616,-0.001463578,0.013409673,0.47622338,-1.3519974,1.865506,-2.0782678,-1.5765046,2.4477034,-0.18029521,0.19581892,-0.25675103,0.07747595,-0.03207079,-0.1934002,-0.7086837,0.28730422,-9.3661175,0.8672237,47.681515,-1.1230896,-2.1624274,-3.491128,-0.060993403,-0.3464085,-0.3390403,28.9375,30.3125,29.375,32.9375,35.4375,36.5
0.3160539,-1.6678721,-0.6761473,-1.4315509,-0.03499771,0.11533827,-0.17453672,-0.41213125,-0.36147818,0.06007892,-3.0726957,0.6180099,1.1844932e-05,-0.14746825,0.04124945,0.0010779704,0.035548683,-0.0016492533,0.0101430025,0.4758527,-1.3515412,1.8649672,-2.0781357,-1.5765046,2.4473217,-0.17691459,0.19842327,-0.25977498,0.078145444,-0.03208843,-0.18674983,-0.78529817,0.15322891,-9.404425,0.9388393,47.693153,-1.3651478,-2.1302407,-3.5783188,-0.024975857,-0.37990898,-0.44041407,28.9375,30.3125,29.375,32.9375,35.4375,36.5
0.3180543,-0.87285954,-0.07718827,-1.3000789,-0.017724637,0.14261577,-0.1861273,-0.41241452,-0.3613786,0.060060907,-3.072606,0.61793214,1.4008102e-05,-0.1467782,0.041238565,8.8935914e-05,0.037681315,-0.005164771,0.0117432475,0.47549266,-1.3511446,1.864499,-2.0780027,-1.5765885,2.446925,-0.17598857,0.2009992,-0.26141042,0.08127732,-0.032392357,-0.1874197,-0.61291564,0.1340753,-9.32781,0.9388393,47.690468,-1.4658022,-2.1104286,-3.5853956,-0.03138429,-0.39588565,-0.48651677,28.9375,30.3125,29.375,32.9375,35.4375,36.5
0.3200543,-1.4939182,-0.042394478,-1.3452532,0.0018420634,0.11219905,-0.1816214,-0.41269568,-0.3612973,0.060052697,-3.0725343,0.61787313,-3.0967378e-05,-0.14956972,0.04224172,0.0007404977,0.037276994,-0.0018523947,0.018668238,0.47514364,-1.3507366,1.8639845,-2.0778244,-1.5766371,2.4465487,-0.17919171,0.20185281,-0.26356745,0.07937545,-0.033626236,-0.19753745,-0.47884035,0.019153614,-9.308657,0.95897776,47.689575,-1.3682358,-2.1511397,-3.603969,0.01532609,-0.41130903,-0.4606508,28.9375,30.3125,29.375,32.9375,35.4375,36.5
0.32205346,-1.3238424,0.06063143,-1.228052,0.0060520074,0.09654993,-0.17828952,-0.4130113,-0.36122832,0.06004798,-3.0724857,0.6177771,4.4823286e-05,-0.15089941,0.043158054,0.00048299963,0.03960504,-0.0025934114,0.031734914,0.4748077,-1.3502917,1.8634328,-2.0777156,-1.576722,2.4461594,-0.18062642,0.20439057,-0.26659644,0.08148277,-0.035434823,-0.21202688,-0.36391866,-0.095768064,-9.232041,0.9186956,47.677036,-1.4766688,-2.1399536,-3.5136619,0.036870707,-0.4144537,-0.33231217,28.9375,30.3125,29.375,32.9375,35.4375,36.5
0.32405436,-0.4396457,0.12913173,-1.2163855,0.009967062,0.08470346,-0.18284568,-0.4133307,-0.361145,0.06006127,-3.0724862,0.617618,9.890436e-05,-0.15283,0.044076495,0.0013858458,0.040954877,-0.0018229211,0.04092393,0.4744229,-1.3498961,1.8628939,-2.0775826,-1.5767707,2.4456754,-0.18269046,0.20548512,-0.27066875,0.084306836,-0.037048608,-0.22326936,-0.30645782,-0.17238252,-9.174581,0.8851263,47.675243,-1.4779695,-2.1987498,-3.3733106,0.050771084,-0.41169268,-0.19862717,28.9375,30.3125,29.375,32.9375,35.4375,36.5
0.32605395,-0.14069673,0.5295635,-1.3008507,0.021353941,0.057624172,-0.17823611,-0.4136643,-0.36102554,0.06006601,-3.0723882,0.61759764,0.00016863215,-0.15319099,0.04536744,0.001414545,0.044582736,-0.0037135608,0.041902844,0.4740025,-1.3494879,1.8623542,-2.0774257,-1.5768794,2.4452553,-0.18354961,0.20663184,-0.27323687,0.08902496,-0.039430883,-0.22509116,-0.28730422,-0.1340753,-9.251195,0.96569055,47.653748,-1.36948,-2.1920276,-3.3221798,0.025515854,-0.38603508,-0.13863513,28.9375,30.3125,29.375,32.9375,35.4375,36.5
0.32805344,0.065197386,0.52413255,-1.3817517,0.033997256,0.028066827,-0.17279609,-0.41398144,-0.3609417,0.060091734,-3.0723088,0.61737424,0.00028529426,-0.15232478,0.047884043,-0.00044661624,0.050449084,-0.010385088,0.03279932,0.4736777,-1.3490796,1.8617557,-2.0772197,-1.5770239,2.4448016,-0.18556003,0.20925614,-0.273683,0.0954676,-0.04157126,-0.21798389,-0.2681506,-0.17238252,-9.193734,0.9455522,47.675243,-1.2742751,-2.253831,-3.319831,0.0010459479,-0.37543136,-0.2138392,28.9375,30.3125,29.375,32.9375,35.4375,36.5
0.3300537,0.6943079,0.67926735,-1.260386,0.0338344,0.026028957,-0.18249404,-0.41425642,-0.36083657,0.06004557,-3.0722184,0.6172266,0.00010797749,-0.15315183,0.049453735,-0.00029393638,0.053453177,-0.013272795,0.0232015,0.47328082,-1.3486235,1.8612646,-2.0770257,-1.5770482,2.4443245,-0.18792358,0.21081261,-0.2773512,0.10154847,-0.042934574,-0.21073315,-0.24899697,-0.24899697,-9.174581,0.90750587,47.711964,-1.2140166,-2.2352111,-3.2991393,-0.07343349,-0.36555803,-0.298142,28.9375,30.3125,29.375,32.9375,35.4375,36.5
0.3320542,0.1336585,0.63619035,-1.2844709,0.03114902,0.017755851,-0.17819212,-0.41459844,-0.36073363,0.06007975,-3.0721085,0.61720556,0.00021562775,-0.15437798,0.050680537,-0.00042157416,0.056353427,-0.016437842,0.016955871,0.47289646,-1.3482144,1.8606404,-2.0767968,-1.5771812,2.4439416,-0.19017734,0.21394996,-0.28224123,0.1074259,-0.04406892,-0.20673168,-0.21068975,-0.22984336,-9.136273,0.8851263,47.677036,-1.3066244,-2.4792094,-3.2242002,-0.14381963,-0.3413185,-0.35396165,28.9375,30.3125,29.375,32.9375,35.4375,36.5
0.3340542,0.08989029,0.43149027,-1.5228426,0.04466784,0.02080968,-0.1766968,-0.41487077,-0.3606212,0.060041845,-3.0719862,0.61704516,5.9594502e-05,-0.1534875,0.052822027,-0.0023745818,0.060023997,-0.022762565,0.014532022,0.47251168,-1.3477705,1.8601373,-2.076568,-1.5772408,2.4434729,-0.19259083,0.21611737,-0.28147748,0.11177013,-0.044497408,-0.2067115,-0.038307227,-0.21068975,-9.193734,0.83589023,47.685097,-1.1697291,-2.433035,-3.1348047,-0.22361264,-0.32573146,-0.3904401,28.9375,30.3125,29.375,32.9375,35.4375,36.5
0.33605334,-0.013546232,-0.024255598,-1.6536369,0.03818706,0.032671828,-0.17565967,-0.41518885,-0.36050552,0.060048025,-3.071844,0.61699164,9.248284e-05,-0.15358084,0.054289993,-0.0030603043,0.062987246,-0.025187867,0.021505596,0.47212717,-1.3473502,1.8595632,-2.0763395,-1.5773739,2.4430737,-0.19399458,0.21736602,-0.28212738,0.11458567,-0.04610524,-0.21507518,-0.095768064,-0.095768064,-9.308656,0.90750587,47.684196,-1.1180774,-2.4457636,-3.3730915,-0.28556663,-0.31281498,-0.3656654,28.9375,30.3125,29.375,32.9375,35.4375,36.5
0.3380533,-0.6166188,-0.92168504,-1.4300494,-0.00069757877,0.06507111,-0.17304723,-0.41544122,-0.36038807,0.060014784,-3.071664,0.6167934,-0.00012709787,-0.15421298,0.05577608,-0.0039648106,0.065722875,-0.025704812,0.032025546,0.47176662,-1.3469063,1.8590258,-2.0760047,-1.5774583,2.4426131,-0.19547191,0.21880636,-0.28185946,0.11447537,-0.04844199,-0.22704606,-0.095768064,0.038307227,-9.270349,0.8672237,47.660015,-1.0128905,-2.4466825,-3.451029,-0.33008736,-0.282408,-0.2310694,28.9375,30.3125,29.375,32.9375,35.4375,36.5
0.34005418,-1.2852483,-1.4200474,-1.2446202,-0.03755966,0.09306823,-0.1720254,-0.4157735,-0.3603019,0.060033582,-3.0716226,0.61664635,-9.132403e-05,-0.15620418,0.05519678,-0.0025609676,0.06293595,-0.021056253,0.037965238,0.47138262,-1.3464749,1.8584145,-2.075802,-1.5775303,2.442143,-0.19623269,0.21818587,-0.28370792,0.11145648,-0.04814298,-0.23374744,-0.30645782,0.076614454,-9.270349,0.9186956,47.70032,-0.94627845,-2.369078,-3.5436172,-0.32462507,-0.2643366,-0.11502835,28.9375,30.3125,29.375,32.9375,35.4375,36.5
0.34205416,-1.378073,-1.7944093,-1.5628088,-0.06188766,0.1287308,-0.1750235,-0.41608337,-0.36017168,0.06003148,-3.071469,0.6165588,-0.00012634389,-0.15906505,0.054768927,-0.00090365164,0.06066927,-0.014856326,0.034737725,0.47097424,-1.3460548,1.8578514,-2.0755398,-1.5776509,2.4417002,-0.19730191,0.21806855,-0.28661048,0.10789395,-0.04898622,-0.23157683,-0.4405331,0.095768064,-9.32781,0.9612189,47.690468,-0.96392095,-2.3725126,-3.5130575,-0.29989275,-0.2697094,-0.10416658,28.9375,30.3125,29.375,32.9375,35.4375,36.5
0.3440542,-1.7757329,-1.8666543,-1.443343,-0.07223781,0.15090834,-0.17756069,-0.41642225,-0.36006567,0.060027342,-3.0713687,0.61642677,-0.00013935709,-0.16131085,0.05333557,-0.0004805562,0.058093827,-0.0076846336,0.026847443,0.4705667,-1.3455752,1.8572286,-2.0753157,-1.5777467,2.4412236,-0.19608411,0.21932565,-0.28740448,0.09989693,-0.04994687,-0.22245732,-0.59376204,0.1340753,-9.32781,0.9097417,47.70659,-1.2267007,-2.3649626,-3.5532522,-0.24288717,-0.23108259,-0.15697932,28.9375,30.3125,29.375,32.9375,35.4375,36.5
0.34605336,-2.6821291,-1.7456893,-1.5344766,-0.07336475,0.14579584,-0.16287456,-0.41671845,-0.35997054,0.05999658,-3.0712683,0.61633193,-0.00016443111,-0.1634524,0.05243752,0.00070515915,0.057373565,-0.0009464225,0.018679677,0.4702072,-1.3451196,1.8567137,-2.0751736,-1.5778316,2.4408183,-0.19481179,0.21966226,-0.28959727,0.09545955,-0.05234925,-0.2129949,-0.80445176,0.05746084,-9.481039,0.98135734,47.689575,-1.3934137,-2.1886497,-3.4788914,-0.17153946,-0.18467183,-0.29131597,28.9375,30.3125,29.375,32.9375,35.4375,36.5
0.34805414,-1.6085869,-1.6320121,-2.0136595,-0.04057352,0.1568338,-0.16763663,-0.41707733,-0.35984966,0.060015894,-3.0711517,0.6163099,-4.555572e-05,-0.16545069,0.05097044,0.0014738509,0.054509886,0.0038310825,0.012343989,0.4697875,-1.3446875,1.8561028,-2.0749834,-1.5779752,2.4404004,-0.19414084,0.22106385,-0.29214957,0.09105134,-0.05194807,-0.2059895,-0.6703765,0.22984336,-9.5385,0.9612189,47.703903,-1.4330928,-2.1031766,-3.5645604,-0.1461749,-0.17103724,-0.394417,28.9375,30.3125,29.375,32.9375,35.4375,36.5
0.35005403,-2.1334379,-1.4824343,-2.227501,-0.026073966,0.11100045,-0.16541609,-0.41739294,-0.35976556,0.06001087,-3.071095,0.6161646,-7.007908e-05,-0.16637656,0.05057462,1.8814404e-05,0.053614926,0.0018757846,0.009209453,0.4694152,-1.3442305,1.8555163,-2.0747921,-1.5780348,2.439945,-0.19512428,0.2255244,-0.29409972,0.08985848,-0.050280664,-0.20384625,-0.5363012,0.28730422,-9.615114,0.9231726,47.704796,-1.3517798,-2.231937,-3.497439,-0.09127066,-0.16873279,-0.47953564,28.9375,30.3125,29.375,32.9375,35.4375,36.5
0.35205394,-1.6967831,-1.9837766,-2.2460132,-0.03502802,0.09176614,-0.17023961,-0.41773754,-0.35965195,0.060000062,-3.0709527,0.6162057,-3.415588e-05,-0.16785048,0.05149199,0.00015872136,0.054430395,0.002089474,0.015789984,0.46900648,-1.3437505,1.8549174,-2.0746124,-1.5781554,2.439581,-0.19718799,0.22684146,-0.29632738,0.09084225,-0.051179413,-0.21248075,-0.36391866,0.34476504,-9.710882,0.9321212,47.68062,-1.3606877,-2.28165,-3.5003505,-0.07922889,-0.15128787,-0.49200636,28.9375,30.3125,29.375,32.9375,35.4375,36.5
0.35405403,-1.1063085,-1.8293635,-2.078735,-0.062260132,0.088487856,-0.17310135,-0.4180848,-0.35953557,0.060022783,-3.070872,0.61608523,8.605752e-05,-0.16941458,0.051940527,0.001314564,0.05381451,0.003658277,0.028537352,0.46859795,-1.3433429,1.8543304,-2.0744326,-1.578287,2.439108,-0.19893269,0.22656688,-0.29892746,0.09188299,-0.051435776,-0.2269712,-0.36391866,0.40222588,-9.672575,0.90527004,47.68062,-1.4548911,-2.249658,-3.501669,-0.0726047,-0.113696344,-0.35162842,28.9375,30.3125,29.375,32.9375,35.4375,36.5
0.3560548,-0.65557003,-1.6213709,-2.214839,-0.072099544,0.07715623,-0.1762126,-0.41841143,-0.3594216,0.05998861,-3.070741,0.61593676,6.103553e-06,-0.16932115,0.052769363,0.00011971411,0.05517808,-0.0011839377,0.03719106,0.46818948,-1.3428264,1.8537315,-2.0742157,-1.5783828,2.4386241,-0.20059565,0.2294258,-0.30060714,0.09551656,-0.050563436,-0.23728761,-0.40222588,0.28730422,-9.730036,0.96569055,47.66987,-1.4028227,-2.3786192,-3.477034,-0.055726457,-0.11386269,-0.22871998,28.9375,30.3125,29.375,32.9375,35.4375,36.5
0.35805374,-0.45232186,-1.8407811,-2.3112938,-0.06703352,0.07490264,-0.1776577,-0.4187159,-0.3593119,0.059949975,-3.0705848,0.6157328,-5.3628224e-05,-0.16799814,0.053851422,-0.002246532,0.056193206,-0.0077162376,0.036311734,0.46782884,-1.342322,1.8531579,-2.0739996,-1.5785145,2.4381568,-0.20233649,0.23188576,-0.2987615,0.0974364,-0.048564572,-0.23815793,-0.28730422,0.19153614,-9.80665,0.95226496,47.66091,-1.3750488,-2.4606502,-3.6163511,-0.08028735,-0.10053165,-0.15493707,28.9375,30.3125,29.375,32.9375,35.4375,36.5
0.36005378,-0.68706083,-1.8496115,-2.2333531,-0.061918575,0.055637836,-0.16435462,-0.4190904,-0.3592031,0.059963416,-3.0705116,0.61562735,2.27334e-05,-0.16732757,0.054991376,-0.003931146,0.057366766,-0.015085635,0.026489513,0.46739584,-1.3418415,1.8524994,-2.073806,-1.5786213,2.4376678,-0.20487678,0.23502575,-0.30003163,0.102677464,-0.046255216,-0.23089217,-0.21068975,0.095768064,-9.730036,0.9768804,47.709274,-1.1982025,-2.5036912,-3.7026834,-0.07952477,-0.11575321,-0.24884011,28.9375,30.3125,29.375,32.9375,35.4375,36.5
0.36205363,0.75479805,-1.1467429,-1.8663682,-0.053132985,0.063767165,-0.17563482,-0.41946152,-0.35911343,0.059995614,-3.0705175,0.6156342,0.0001488018,-0.16937521,0.055927295,-0.0027364565,0.05575744,-0.016025921,0.016254686,0.46696222,-1.3414214,1.8518876,-2.0736854,-1.578669,2.437238,-0.20911533,0.23558483,-0.3044029,0.10661502,-0.04435944,-0.22491199,-0.15322891,0.0,-9.519346,0.91421866,47.687782,-1.063202,-2.5518227,-3.6099658,-0.14852066,-0.12662254,-0.33599067,28.9375,30.3125,29.375,32.9375,35.4375,36.5
0.36405364,0.34576133,-0.25754285,-1.6306794,-0.015624128,0.016398903,-0.17194895,-0.4197969,-0.35900193,0.059984043,-3.070371,0.6155838,0.00013747485,-0.16997679,0.05588131,-0.0020513264,0.054944284,-0.01784326,0.01325206,0.46656626,-1.3409299,1.8512644,-2.073456,-1.5787886,2.43683,-0.21029428,0.23643407,-0.3079813,0.11056691,-0.042840533,-0.2230949,-0.17238252,-0.11492168,-9.3661175,0.90750587,47.68599,-1.0257812,-2.557204,-3.4851701,-0.16655129,-0.13573645,-0.39499313,28.9375,30.3125,29.375,32.9375,35.4375,36.5
0.36605355,1.0192453,0.70858854,-1.7480943,0.027592165,-0.0025653222,-0.1724044,-0.42015573,-0.35891056,0.059983417,-3.0703228,0.6155345,0.00010217413,-0.17178181,0.056429412,-0.0017682011,0.053723484,-0.01967502,0.015039232,0.46613315,-1.3404255,1.8506054,-2.073252,-1.5788234,2.4363728,-0.21365328,0.23875242,-0.3122214,0.113502614,-0.040989816,-0.22825219,0.0,-0.21068975,-9.346964,0.9365982,47.683304,-0.83979285,-2.5899363,-3.3329444,-0.20860648,-0.16941562,-0.4082694,28.9375,30.3125,29.375,32.9375,35.4375,36.5
0.36805338,1.000237,1.1993078,-1.7063847,0.049378894,-0.019526208,-0.17311786,-0.42047814,-0.35880232,0.0599883,-3.0702593,0.61534023,7.521633e-05,-0.17242958,0.055317108,-0.0010121113,0.052428182,-0.019751295,0.027333185,0.46572548,-1.3399931,1.8500165,-2.0730236,-1.5788954,2.4358523,-0.21283272,0.24011691,-0.3161196,0.11539331,-0.03990791,-0.23973067,0.095768064,-0.34476504,-9.308656,0.91421866,47.701214,-0.8345709,-2.6218715,-3.2631493,-0.24145254,-0.19292021,-0.29606098,28.9375,30.3125,29.375,32.9375,35.4375,36.5
0.3700534,1.4241333,1.5036291,-1.4970679,0.036609568,0.000992717,-0.18227114,-0.42085785,-0.3586763,0.05999502,-3.0701287,0.61532533,0.00010843494,-0.17175879,0.054726027,-0.00021855618,0.051508415,-0.018961165,0.04020955,0.46526957,-1.3394904,1.8493351,-2.0727842,-1.5790156,2.4354045,-0.21130854,0.23827873,-0.31585312,0.11570534,-0.039544493,-0.25108483,0.0,-0.2681506,-9.097966,0.9254084,47.72808,-0.94274366,-2.4469066,-3.2252145,-0.25644422,-0.20632425,-0.17793791,28.9375,30.3125,29.375,32.9375,35.4375,36.5
0.3720538,-0.0037063397,0.02748647,-1.5502832,0.034927305,0.022051087,-0.1674332,-0.42117757,-0.35858405,0.059996348,-3.0700762,0.6151611,-9.26258e-06,-0.17335647,0.05408821,0.00091049785,0.049607463,-0.01585504,0.04130069,0.46486196,-1.3390228,1.8487004,-2.07251,-1.579039,2.4349015,-0.21156403,0.23850067,-0.31851724,0.114485815,-0.039298408,-0.2524288,-0.22984336,-0.19153613,-9.212888,0.8717007,47.690468,-1.022457,-2.3531117,-3.2601597,-0.26520047,-0.2325795,-0.085389495,28.9375,30.3125,29.375,32.9375,35.4375,36.5
0.3740538,-0.7965237,-0.08773095,-1.994468,-0.0039596558,0.062270526,-0.1720205,-0.42147517,-0.3584639,0.059948172,-3.069899,0.61493677,-0.00017985981,-0.17415428,0.053584144,0.0008840724,0.048483867,-0.014708903,0.03315466,0.4644781,-1.3384949,1.848102,-2.072223,-1.5791472,2.434401,-0.21152268,0.23977499,-0.3197916,0.112983234,-0.038827576,-0.24423648,-0.2681506,-0.22984336,-9.423578,0.90750587,47.688675,-1.1586998,-2.3300195,-3.351817,-0.23620653,-0.25239807,-0.14633855,28.9375,30.3125,29.375,32.9375,35.4375,36.5
0.37605417,-1.7619091,-0.9431933,-1.9778148,-0.044757813,0.095179446,-0.16186304,-0.42185837,-0.35834894,0.059977133,-3.0698466,0.61491287,-0.000119612676,-0.1757075,0.05359773,0.001147822,0.046763375,-0.012069825,0.022676758,0.46400973,-1.338039,1.847432,-2.0720084,-1.5792192,2.433925,-0.2128763,0.24037023,-0.3205706,0.110078,-0.038434148,-0.23511486,-0.15322891,-0.21068975,-9.595961,0.9410752,47.661808,-1.1755419,-2.253451,-3.3580074,-0.22054389,-0.25102338,-0.24627525,28.9375,30.3125,29.375,32.9375,35.4375,36.5
