Tylouw/Master_Thesis_Code/training_data/batch_1/rect_rod_t0.2/sample_97_session_3.csv
timestamp[s],tcp_force_x[N],tcp_force_y[N],tcp_force_z[N],tcp_force_rx[Nm?],tcp_force_ry[Nm?],tcp_force_rz[Nm?],tcp_pose_x[m],tcp_pose_y[m],tcp_pose_z[m],tcp_pose_rx[rot_vec_x],tcp_pose_ry[rot_vec_y],tcp_pose_rz[rot_vec_z],tcp_velo_x[m/s],tcp_velo_y[m/s],tcp_velo_z[m/s],tcp_velo_rx[rot_vec_x/s],tcp_velo_ry[rot_vec_y/s],tcp_velo_rz[rot_vec_z/s],q1[rad],q2[rad],q3[rad],q4[rad],q5[rad],q6[rad],qd1[rad/s],qd2[rad/s],qd3[rad/s],qd4[rad/s],qd5[rad/s],qd6[rad/s],tool_acc_x,tool_acc_y,tool_acc_z,current_of_whole_robot[A],voltage_of_whole_robot[V],current_J1[A],current_J2[A],current_J3[A],current_J4[A],current_J5[A],current_J6[A],temp_J1[C],temp_J2[C],temp_J3[C],temp_J4[C],temp_J5[C],temp_J6[C]
9.380001e-07,-0.25911877,-0.62138736,-0.030865327,-0.029518519,0.024647549,-0.00907496,-0.3893271,-0.36871636,0.060005922,-3.0786796,0.6249231,0.00017630613,0.0011023178,0.0005827192,-0.0007954572,0.0014604016,-0.0029129046,9.8324585e-05,0.5050448,-1.3816439,1.904199,-2.0918791,-1.5708655,2.4800372,-3.5590238e-05,0.00016384578,0.0011834828,0.0019079959,0.00013835652,-0.00013477984,0.05746084,0.1340753,-8.6574335,0.7016076,47.716442,-0.1961062,-3.062765,-2.4264164,-0.20211905,0.18121111,-0.059574198,29.0,30.4375,29.375,33.0,35.5,36.5625
0.002055573,-0.6201648,-0.34476194,-0.086207695,-0.031619187,0.015915552,-0.009515192,-0.38933283,-0.3687382,0.059996966,-3.0787165,0.6248731,0.00019558509,-0.0012023163,-0.00069850706,-0.00086313335,-0.0026396506,0.0044633267,0.00010607849,0.5050688,-1.3816074,1.904188,-2.091931,-1.5708536,2.4800253,-3.4236367e-05,0.0010763967,0.0027315982,-0.008991814,0.00013538303,-0.00014050255,0.095768064,0.21068975,-8.619126,0.7709874,47.72629,-0.23925677,-3.0770543,-2.3507166,-0.14832324,0.15331301,-0.04603389,29.0,30.4375,29.375,33.0,35.5,36.5625
0.004055243,-0.60730714,-0.4830081,-0.26849806,-0.027964015,0.020113468,-0.0034131475,-0.38934168,-0.3687281,0.06000422,-3.07874,0.6249357,0.00017316236,-0.0017568708,-0.001006856,-0.001079162,-0.003109576,0.005310004,0.0001057002,0.50502086,-1.381631,1.9041995,-2.091931,-1.5708174,2.4800134,-3.2981676e-05,0.0021564804,0.0023181099,-0.010626736,0.00013253486,-0.00013834849,0.11492168,0.24899697,-8.6574335,0.78888994,47.723602,-0.15048103,-3.3398564,-2.5642328,-0.04704246,0.17465547,-0.0652532,29.0,30.4375,29.375,33.0,35.5,36.5625
0.006054877,-0.3108536,-0.05773115,-0.22840936,-0.02179283,0.010093347,-0.006713194,-0.38934508,-0.36871213,0.059978817,-3.078677,0.6249801,0.00019228265,-0.0006871708,-0.0004116149,-0.00073081796,-0.0012739653,0.0020181658,0.00010396122,0.50502086,-1.3815954,1.9042228,-2.091965,-1.5708655,2.4800491,-3.1815707e-05,0.0012538313,0.0013016821,-0.004938627,0.00012980413,-0.00013577506,0.038307227,0.19153614,-8.676587,0.80456203,47.73256,-0.21838586,-3.370156,-2.5327442,-0.06786856,0.1614913,-0.049146067,29.0,30.4375,29.375,33.0,35.5,36.5625
0.008054479,-0.05023388,0.67904687,-0.93466735,0.005803276,-0.005623105,-0.0065949415,-0.3893391,-0.36872575,0.060007706,-3.0787156,0.62489206,0.00025884146,0.0006056267,0.00030812804,-5.33589e-05,0.0004666379,-0.0010978491,0.00010182382,0.50505686,-1.3816441,1.9042114,-2.0919502,-1.5708774,2.4800253,-3.072933e-05,-0.0007243789,0.0007031762,0.0012072821,0.00012718367,-0.00013326421,0.019153614,0.17238252,-8.810662,0.71951014,47.695843,-0.20528919,-3.2709603,-2.4811742,-0.11317228,0.1740143,-0.043106318,29.0,30.4375,29.375,33.0,35.5,36.5625
0.010054407,0.21541698,0.2791927,-1.2073677,0.014984577,-0.0005924806,-0.004682923,-0.3893362,-0.36871603,0.059971623,-3.0786817,0.62496203,0.00013671203,0.0011937472,0.00065109605,-3.705945e-05,0.0014069295,-0.0027823902,7.401667e-05,0.50502086,-1.381584,1.9042224,-2.0919497,-1.5708417,2.4800372,-5.5929697e-05,-0.001109143,0.0005644761,0.003659959,0.0001246668,-0.0001309274,0.1340753,0.15322891,-8.963891,0.6546126,47.657326,-0.68885815,-2.6742857,-2.9855325,-0.15253368,0.12808287,-0.12204307,29.0,30.4375,29.375,33.0,35.5,36.5625
0.012054513,-0.27814528,-0.24196757,-1.0720155,-0.027611982,0.0151889045,-0.010669984,-0.38932693,-0.36871794,0.05999012,-3.0786924,0.6249069,0.00013597694,0.00065974257,0.00046937534,-0.002073667,0.002842203,-0.0053845756,1.6850407e-05,0.5050328,-1.3816186,1.9042104,-2.0919025,-1.5708417,2.4800134,-0.00025176888,0.004274907,-0.00096068747,0.0027728158,0.0001222477,-0.0002680217,0.1340753,0.095768064,-9.155427,0.74413085,47.71465,-0.8674128,-2.7036486,-3.0942912,-0.13589491,0.1465179,-0.1632568,29.0,30.4375,29.375,33.0,35.5,36.5625
0.014054807,-0.48599255,-0.87189865,-1.2460586,-0.06262295,0.043053642,-0.022686794,-0.3893277,-0.36869034,0.059947263,-3.0786066,0.6250051,4.582832e-05,-0.00468114,0.003767528,-0.004659557,0.004591911,-0.008571111,-0.0020593936,0.504993,-1.381555,1.9042329,-2.091903,-1.5708536,2.4800458,-0.010802391,0.013167527,-0.0053947465,0.0019482035,0.00011992057,-0.008739089,-0.038307227,0.076614454,-9.270349,0.7463667,47.696735,-0.49083382,-3.3158832,-3.1135893,-0.09912273,0.13191676,-0.11721146,29.0,30.4375,29.375,33.0,35.5,36.5625
0.016055046,-1.2935643,-1.4430387,-1.3911796,-0.06618137,0.049184594,-0.014845104,-0.38932183,-0.36870557,0.05996479,-3.0786664,0.62484103,6.4853724e-05,-0.0059173875,0.0036603299,-0.0026280063,0.0024883286,-0.0047682226,0.0038142733,0.5050167,-1.3815801,1.90422,-2.091891,-1.5708417,2.4799595,-0.01177543,0.010302291,-0.006560974,0.0016328464,0.00011768047,-0.015585733,-0.24899697,0.21068975,-9.346964,0.6725152,47.693153,-0.49056387,-3.0682073,-3.148539,-0.074069,0.13465053,-0.07102228,29.0,30.4375,29.375,33.0,35.5,36.5625
0.018054748,-1.6172812,-1.1656507,-1.5046761,-0.06031493,0.06706689,-0.03304467,-0.38932344,-0.3686783,0.059920676,-3.07859,0.62489927,-5.1900064e-05,-0.004974626,0.0034858196,-0.0023601535,0.0032036977,-0.0060524554,0.0096896,0.50496924,-1.3815082,1.9042324,-2.0918777,-1.5708417,2.479958,-0.010598256,0.009559948,-0.0068637156,0.004147289,0.00011552257,-0.020284155,-0.4405331,0.17238252,-9.404425,0.6926589,47.658226,-0.73169166,-2.8533106,-3.2924762,-0.080728374,0.12793213,-0.023886815,29.0,30.4375,29.375,33.0,35.5,36.5625
0.020055182,-1.7387457,-0.43082887,-1.6213082,-0.030037388,0.07549383,-0.050484773,-0.38932902,-0.36866245,0.059915397,-3.0785768,0.624878,-5.4790406e-05,-0.00499236,0.004181332,-0.002903054,0.0050343703,-0.009351377,0.009487086,0.5049448,-1.3815075,1.9042434,-2.0918767,-1.5708536,2.479922,-0.011785373,0.01137204,-0.00860915,0.007853074,0.00011344236,-0.021268146,-0.4405331,0.15322891,-9.423578,0.7463667,47.68599,-0.75386393,-2.8329182,-3.4473507,-0.10851315,0.11308582,-0.018882258,29.0,30.4375,29.375,33.0,35.5,36.5625
0.02205445,-1.8201588,-0.5575963,-1.9531708,0.0047650076,0.077979125,-0.07538706,-0.38933823,-0.36864415,0.059906784,-3.0785167,0.6248883,-0.00010154038,-0.0072205802,0.0042387755,-0.0019056806,0.003974057,-0.007444626,0.003955977,0.50492024,-1.3814714,1.9042066,-2.0918167,-1.5708774,2.4799116,-0.013966093,0.01239188,-0.012163791,0.008206255,0.00011143566,-0.01791618,-0.51714754,0.11492168,-9.557653,0.6926589,47.71823,-0.88213587,-2.719256,-3.4523253,-0.09997387,0.11438021,-0.05806657,29.0,30.4375,29.375,33.0,35.5,36.5625
0.024054378,-1.9845346,0.1455681,-1.8533622,-0.025843585,0.07898483,-0.09478928,-0.38933253,-0.3686495,0.059894744,-3.0785153,0.62483156,-0.00018280312,-0.008514177,0.004374217,-0.0026231075,0.004090515,-0.0076644686,0.0008151503,0.5049197,-1.3814343,1.9041823,-2.0917819,-1.5708536,2.4798758,-0.015404894,0.0153115485,-0.013730711,0.0071029486,0.00010949886,-0.016212935,-0.59376204,0.11492168,-9.672575,0.7463667,47.691364,-0.8952403,-2.7539506,-3.3408751,-0.077819236,0.1074657,-0.09632696,29.0,30.4375,29.375,33.0,35.5,36.5625
0.026054757,-1.839595,-0.85552704,-1.9144927,-0.035007626,0.09291633,-0.10592118,-0.38936523,-0.36864772,0.059888724,-3.0785213,0.6248532,-0.00022202608,-0.009521558,0.0048023406,-0.0028176582,0.004110252,-0.0077030547,-0.0008684001,0.5048712,-1.3813738,1.9041218,-2.0917695,-1.5708297,2.47984,-0.017066106,0.016552906,-0.014704816,0.0068794154,0.00010762822,-0.016189976,-0.63206923,0.076614454,-9.749189,0.7665104,47.719128,-0.84687567,-2.7965713,-3.3909912,-0.06373966,0.09466807,-0.12385207,29.0,30.4375,29.375,33.0,35.5,36.5625
0.0280548,-2.4378471,-0.8480198,-1.9501292,-0.057713486,0.094359346,-0.1137952,-0.3893595,-0.36863208,0.05986136,-3.0785007,0.6248869,-0.0003053964,-0.009598054,0.005126498,-0.0031494673,0.0053230817,-0.009796842,-0.001381809,0.504835,-1.3813492,1.9041575,-2.091781,-1.5708054,2.4798274,-0.01765484,0.01799559,-0.01621881,0.009370489,6.0158938e-05,-0.016264634,-0.68953013,0.19153613,-9.80665,0.683705,47.65643,-0.8523878,-2.8060927,-3.3293061,-0.07109657,0.089965865,-0.111685045,29.0,30.4375,29.375,33.0,35.5,36.5625
0.030055271,-2.3652704,-0.7388757,-2.027321,-0.053190127,0.10839911,-0.13536215,-0.38937673,-0.36861932,0.059860695,-3.0784397,0.62479806,-0.00030280248,-0.009840709,0.0052241664,-0.0030570985,0.0058340454,-0.0106876325,-0.002677114,0.5048349,-1.3813009,1.9040855,-2.091708,-1.5708655,2.4797797,-0.018036596,0.018718306,-0.017684255,0.011139259,4.4278302e-05,-0.015350533,-0.78529817,0.038307227,-9.864111,0.7463667,47.72002,-0.91504025,-2.8219972,-3.4491415,-0.10050484,0.07243751,-0.120240495,29.0,30.4375,29.375,33.0,35.5,36.5625
0.032055385,-2.4900734,-0.9632048,-1.9101927,-0.026587581,0.11331676,-0.12426757,-0.38939336,-0.36861315,0.059843265,-3.078414,0.6249092,-0.00039546634,-0.010536587,0.005592488,-0.0025303971,0.005422048,-0.009902624,-0.005295808,0.5047866,-1.3812412,1.9040493,-2.0916846,-1.5708297,2.479804,-0.019293435,0.01811934,-0.01823601,0.011404439,2.3958108e-05,-0.013988539,-0.7852981,0.038307227,-9.787497,0.7486078,47.74868,-0.96329117,-2.6901212,-3.469638,-0.09218004,0.08280891,-0.15374866,29.0,30.4375,29.375,33.0,35.5,36.5625
0.034054577,-1.8866512,-0.37410745,-1.8486011,-0.0063058143,0.1188589,-0.14157857,-0.3894248,-0.36860907,0.05986551,-3.0784485,0.624898,-0.00033702658,-0.012044062,0.0053086225,-0.0023534524,0.0046490286,-0.00851184,-0.00611705,0.5047503,-1.3812524,1.9040121,-2.091685,-1.5708297,2.4797564,-0.02022343,0.019856364,-0.020435914,0.010276142,2.0816055e-05,-0.014095989,-0.7469909,-0.05746084,-9.883265,0.8090337,47.705692,-0.9973752,-2.7852702,-3.4258757,-0.09316534,0.054275617,-0.16072884,29.0,30.4375,29.375,33.0,35.5,36.5625
0.03605486,-2.2113345,-0.3446153,-1.9027251,0.013318569,0.09081231,-0.14817256,-0.3894578,-0.36860594,0.05984799,-3.0784223,0.6249498,-0.00036611597,-0.013657967,0.005056772,-0.0017664927,0.0035065066,-0.0064287866,-0.0063032545,0.50471413,-1.3811681,1.9039525,-2.0916855,-1.5708297,2.4797559,-0.021298144,0.020757066,-0.022581479,0.009145138,5.2239666e-06,-0.014983333,-0.61291564,-0.038307227,-9.768343,0.7217513,47.694946,-0.9750552,-2.7097383,-3.4379323,-0.07923779,0.03500168,-0.1780766,29.0,30.4375,29.375,33.0,35.5,36.5625
0.038054254,-1.7664162,-0.09119278,-2.0203333,0.0029150622,0.08171609,-0.17055978,-0.3894805,-0.36858255,0.05981299,-3.0783951,0.62492526,-0.00042415882,-0.015364516,0.0053061345,-0.0011477773,0.0024606285,-0.004540594,-0.0069864155,0.5046535,-1.3810959,1.903952,-2.091709,-1.5708297,2.4796834,-0.023309354,0.021124816,-0.024225844,0.008263089,3.4108768e-07,-0.016310552,-0.47884035,0.019153614,-9.672575,0.683705,47.678825,-0.87501216,-2.701642,-3.4455075,-0.06788924,0.041631777,-0.18178034,29.0,30.4375,29.375,33.0,35.5,36.5625
0.04005474,-1.2517829,-0.29448423,-1.86535,-0.009368078,0.07419139,-0.17705958,-0.38952288,-0.3685656,0.05983354,-3.078375,0.62501806,-0.00039754817,-0.01625307,0.006038109,-0.0011925793,0.002629773,-0.0048482763,-0.008026627,0.5045928,-1.3810837,1.90388,-2.0916612,-1.5708417,2.4796832,-0.025369734,0.02170196,-0.02490986,0.0087207295,2.2270585e-08,-0.017330397,-0.36391866,-0.019153614,-9.710882,0.7351769,47.701214,-0.8745717,-2.773872,-3.4030387,-0.041369513,0.02506135,-0.19474772,29.0,30.4375,29.375,33.0,35.5,36.5625
0.04205494,-1.5120441,-0.96368265,-1.943266,-0.0037283788,0.055991627,-0.17967369,-0.38958713,-0.36856124,0.05984842,-3.0783815,0.6250573,-0.00034339455,-0.016855486,0.0063444106,-0.0012223009,0.0036655695,-0.0057434766,-0.007850818,0.5045328,-1.3810232,1.9037718,-2.0916488,-1.5708536,2.479647,-0.026149854,0.023072163,-0.026893042,0.010619459,-0.00047399203,-0.018284602,-0.38307226,0.05746084,-9.749189,0.8179876,47.721813,-0.9008093,-2.7054124,-3.4347215,-0.0663643,0.012640461,-0.19600861,29.0,30.4375,29.375,33.0,35.5,36.5625
0.044054605,-1.013632,-0.5262566,-1.8511362,-0.018077897,0.057484444,-0.19572434,-0.38961473,-0.36855018,0.059857126,-3.0783722,0.6250937,-0.00031584597,-0.018303774,0.0068580904,-0.00060568657,0.0049511674,-0.004139884,-0.008729214,0.50449646,-1.3810109,1.9037346,-2.091636,-1.5708665,2.4796345,-0.027178586,0.023756972,-0.02932585,0.011591767,-0.0023776845,-0.018430363,-0.2681506,0.05746084,-9.691729,0.7530795,47.73256,-0.9070883,-2.6636658,-3.3326926,-0.057029337,0.038519397,-0.22327091,29.0,30.4375,29.375,33.0,35.5,36.5625
0.04605499,-0.66645825,-0.6191794,-1.7869383,-0.019578675,0.054268524,-0.21302451,-0.38963395,-0.36851597,0.05982881,-3.0783043,0.62509954,-0.0003775612,-0.018948345,0.0073110578,-0.00025527805,0.005359294,-0.0045015668,-0.008675009,0.504436,-1.3809509,1.9037226,-2.0916116,-1.5708908,2.4795864,-0.028427582,0.024002094,-0.030811664,0.0133461775,-0.0025616412,-0.019732576,-0.22984336,0.17238252,-9.615114,0.7016076,47.74241,-0.87205863,-2.6387944,-3.3948154,-0.0516174,0.037075937,-0.24142623,29.0,30.4375,29.375,33.0,35.5,36.5625
0.048054572,-0.4899569,-0.6596171,-1.6839145,-0.027141998,0.044594802,-0.22698778,-0.38967767,-0.36849475,0.05982203,-3.0782678,0.62516874,-0.00044857705,-0.019493617,0.008009189,-0.00069084234,0.0055855117,-0.0058307783,-0.008758568,0.5043517,-1.3808784,1.9036387,-2.0915515,-1.5708784,2.47955,-0.030385608,0.025013838,-0.031153983,0.013947845,-0.0021192108,-0.021607568,-0.1340753,0.17238252,-9.595961,0.784413,47.704796,-0.87422943,-2.638793,-3.4320478,-0.049648337,0.026554778,-0.22266051,29.0,30.4375,29.375,33.0,35.5,36.5625
0.05005438,-0.693331,-1.047445,-1.6745468,-0.024918409,0.023395685,-0.22683688,-0.38973045,-0.368514,0.05985052,-3.0783374,0.6251055,-0.00037648165,-0.020678665,0.008380943,-0.00027040095,0.0050690086,-0.0054922705,-0.009111624,0.504327,-1.3808422,1.903531,-2.091551,-1.570866,2.479477,-0.032294057,0.02547486,-0.032802068,0.014587862,-0.001832053,-0.023162989,-0.038307227,0.24899697,-9.557653,0.73069996,47.66271,-0.79486346,-2.6495004,-3.459565,-0.072546944,0.009224536,-0.24681509,29.0,30.4375,29.375,33.0,35.5,36.5625
0.052055035,-0.4657943,-0.8306854,-1.7899928,-0.04254584,0.029100472,-0.21983941,-0.38979676,-0.36845005,0.059843637,-3.0782225,0.62533104,-0.00035601755,-0.022416463,0.007869519,0.00053112855,0.0036327075,-0.0036328328,-0.008517927,0.5041949,-1.3807937,1.9034814,-2.0915158,-1.5709261,2.4795003,-0.03327096,0.026678102,-0.035967667,0.014225003,-0.0014830418,-0.024732694,-0.019153614,0.17238252,-9.500193,0.7239871,47.716442,-0.801608,-2.6595361,-3.3326335,-0.059262156,0.0052596666,-0.23427925,29.0,30.4375,29.375,33.0,35.5,36.5625
0.054055087,-1.1397744,-2.0835404,-2.0402207,-0.007428453,0.009482509,-0.1782379,-0.38980776,-0.36847717,0.059831005,-3.0783005,0.6252316,-0.00048417295,-0.023407998,0.008317839,0.0007107617,0.003590093,-0.0034654145,-0.00801554,0.5041704,-1.3807213,1.9034218,-2.0915034,-1.5708302,2.4794037,-0.034920365,0.027285265,-0.037200592,0.014685812,-0.001530087,-0.026883807,0.019153614,0.24899697,-9.481039,0.7329411,47.677036,-0.8165678,-2.6856341,-3.2906458,-0.077291384,0.008647261,-0.25352246,29.0,30.4375,29.375,33.0,35.5,36.5625
0.056054484,-0.17006578,-1.6699282,-1.7900975,-0.0188452,0.038312554,-0.17675133,-0.3898741,-0.36846763,0.059861176,-3.0783103,0.62515646,-0.00037871764,-0.024224512,0.008903246,0.0005740242,0.0040386254,-0.0037472786,-0.008199733,0.50412214,-1.3806851,1.9033021,-2.0914676,-1.5708779,2.4793074,-0.03650322,0.028198231,-0.038062613,0.015097666,-0.0017871939,-0.028281594,0.038307227,0.28730422,-9.481039,0.7620334,47.684196,-0.7889289,-2.546365,-3.3465636,-0.06757839,-0.00871617,-0.24141887,29.0,30.4375,29.375,33.0,35.5,36.5625
0.05805467,-0.5504601,-1.3254,-1.7019495,-0.034435015,0.040428963,-0.19071269,-0.38991088,-0.36844537,0.059881568,-3.0782914,0.62524813,-0.0003791653,-0.024562342,0.008468283,0.00079489645,0.0039808317,-0.0037267492,-0.006753616,0.5040504,-1.3806847,1.9032415,-2.091407,-1.5708779,2.4792953,-0.036107916,0.029106583,-0.039820984,0.015901338,-0.00174934,-0.0293317,0.038307227,0.34476504,-9.461885,0.76874626,47.67793,-0.7977191,-2.5734735,-3.3135061,-0.078840904,-0.020428862,-0.24808672,29.0,30.4375,29.375,33.0,35.5,36.5625
0.06005432,-1.4683027,-2.0620716,-1.8521813,-0.025399314,0.027243005,-0.17440014,-0.38999045,-0.3684117,0.059876803,-3.07825,0.6252767,-0.0003555371,-0.025250003,0.0086710295,0.0008478534,0.0040828283,-0.0032085774,-0.0063008987,0.50394225,-1.3805884,1.9031333,-2.0913837,-1.5709146,2.4792104,-0.036870766,0.029678117,-0.04056762,0.015671676,-0.0020925167,-0.030546164,-0.019153614,0.30645782,-9.423578,0.76874626,47.690468,-0.8872243,-2.5456784,-3.3548532,-0.09428266,-0.03179477,-0.2854673,29.0,30.4375,29.375,33.0,35.5,36.5625
0.062054567,-0.5644877,-1.2859027,-1.5516279,-0.0416103,0.056641478,-0.18788645,-0.39003086,-0.36839107,0.05986305,-3.0782113,0.625346,-0.00039985738,-0.027000718,0.009109976,0.0013770739,0.003837413,-0.001777612,-0.0071855527,0.5038698,-1.3805162,1.9030737,-2.0913594,-1.5709146,2.479186,-0.038938705,0.030483134,-0.04272078,0.015649565,-0.002575336,-0.031727407,0.0,0.3256114,-9.442732,0.7620334,47.716442,-0.78841966,-2.5691676,-3.3567295,-0.09166543,-0.02818351,-0.25545523,29.0,30.4375,29.375,33.0,35.5,36.5625
0.064054616,0.011054399,-1.5501457,-1.6484479,-0.023427177,0.070003204,-0.1774787,-0.39010748,-0.36838514,0.05988547,-3.078256,0.62541324,-0.0003528669,-0.028187638,0.009601135,0.0014064203,0.0043011606,-0.0010605864,-0.008287362,0.5037734,-1.3804679,1.9029654,-2.0913594,-1.5708908,2.479126,-0.040395208,0.031526387,-0.043980356,0.015465026,-0.0033293806,-0.032080103,-0.05746084,0.21068975,-9.3661175,0.80456203,47.703903,-0.8382422,-2.4722643,-3.3055344,-0.095304504,-0.04653539,-0.29779595,29.0,30.4375,29.375,33.0,35.5,36.5625
0.06605434,-1.0216447,-1.0638891,-1.469502,-0.027611297,0.05406863,-0.1749477,-0.39014384,-0.36837035,0.059882183,-3.0782218,0.6253667,-0.0003443971,-0.029675836,0.009594315,0.0019356338,0.0041808914,0.0008130623,-0.007910339,0.5037372,-1.3804073,1.9028934,-2.091324,-1.570927,2.4790652,-0.041266583,0.03245729,-0.046192612,0.015048801,-0.0041357344,-0.033325758,-0.17238252,0.21068975,-9.3661175,0.70608455,47.660015,-0.8039056,-2.4579864,-3.3226697,-0.09933296,-0.03820297,-0.2855245,29.0,30.4375,29.375,33.0,35.5,36.5625
0.06805503,-1.1963145,-0.8434301,-1.4618353,-0.021509804,0.051394686,-0.1791038,-0.3902121,-0.36836264,0.059900094,-3.0782459,0.6253715,-0.00032833064,-0.030214652,0.00986762,0.0014997576,0.004485716,0.00018134572,-0.008106462,0.50365305,-1.3803468,1.9027728,-2.0912879,-1.5709151,2.478981,-0.042245675,0.033855584,-0.046845492,0.01500353,-0.0040990305,-0.034108408,-0.15322891,0.19153613,-9.308657,0.78888994,47.698532,-0.88533145,-2.4435408,-3.325901,-0.0895334,-0.039917804,-0.31774232,29.0,30.4375,29.375,33.0,35.5,36.5625
0.07005443,-1.0690244,-0.57052356,-1.4720368,-0.018885775,0.065962,-0.1835375,-0.39025944,-0.36834052,0.059890013,-3.0782363,0.6253882,-0.0003975157,-0.031232188,0.010060081,0.0013973225,0.004731513,0.00028530278,-0.008327218,0.5035568,-1.3802742,1.9027017,-2.091252,-1.5708913,2.4788964,-0.043344963,0.035405423,-0.04847119,0.015108191,-0.00436969,-0.034985363,-0.15322891,0.1340753,-9.32781,0.74413085,47.71554,-0.834664,-2.4679642,-3.3540745,-0.09520787,-0.06756385,-0.32396442,29.0,30.4375,29.375,33.0,35.5,36.5625
0.072054885,-1.2243974,-0.84805745,-1.5206611,-0.0039207563,0.072730966,-0.16721918,-0.39034966,-0.36832184,0.059897292,-3.0782475,0.6253704,-0.00035586828,-0.032667324,0.010720916,0.002076533,0.005471718,0.001963563,-0.0071531525,0.5034486,-1.380178,1.9025687,-2.0912402,-1.5709032,2.4787757,-0.044873916,0.035505634,-0.050271977,0.015699783,-0.0058309087,-0.03768497,-0.15322891,0.1340753,-9.385271,0.76874626,47.73614,-0.86136734,-2.5131521,-3.2969341,-0.09867187,-0.055905454,-0.30573887,29.0,30.4375,29.375,33.0,35.5,36.5625
0.07405511,-1.2064316,-0.42204973,-1.2505498,-0.006345385,0.08053438,-0.18385106,-0.39040157,-0.36831,0.059913803,-3.0782187,0.62546015,-0.0003429272,-0.03324383,0.011254915,0.0021972451,0.007551397,0.0027678094,-0.006350218,0.50338864,-1.3801298,1.9024605,-2.0911796,-1.5709165,2.4787755,-0.044925965,0.036049183,-0.051389176,0.016579265,-0.008041451,-0.038535208,-0.21068975,0.038307227,-9.289502,0.800085,47.73614,-0.9026494,-2.483163,-3.3562288,-0.120728806,-0.032400623,-0.3266747,29.0,30.4375,29.375,33.0,35.5,36.5625
0.07605439,-1.1209615,-0.43335027,-1.4007951,0.0020744212,0.09420494,-0.18746753,-0.390475,-0.36829817,0.059920575,-3.0782323,0.62536836,-0.00029244786,-0.034499504,0.013283927,0.0012978407,0.010640132,0.0016119977,-0.0098225335,0.5033157,-1.3800452,1.9023422,-2.0911672,-1.5709413,2.4786437,-0.04816475,0.037933785,-0.051810015,0.017624186,-0.010187316,-0.038297366,-0.47884035,-0.114921674,-9.346964,0.7553206,47.71286,-0.8363792,-2.3730597,-3.387665,-0.12985305,0.017624516,-0.33028322,29.0,30.4375,29.375,33.0,35.5,36.5625
0.078054905,-1.2701106,-0.3893731,-1.2864697,0.0038920112,0.09660962,-0.18105286,-0.39052564,-0.36826202,0.059900504,-3.0781736,0.6254699,-0.0003617704,-0.036511727,0.012821377,0.0021737274,0.010296135,0.0036673918,-0.008191047,0.5032076,-1.3799602,1.9022793,-2.0911314,-1.5709413,2.4786065,-0.048818644,0.039811045,-0.056136183,0.01810752,-0.010889238,-0.040578768,-0.34476504,-0.05746084,-9.385271,0.71951014,47.65912,-0.7583343,-2.4941285,-3.254943,-0.12666444,0.013332054,-0.3684485,29.0,30.4375,29.375,33.0,35.5,36.5625
0.08005456,-1.3493443,-0.20752323,-1.3361168,-0.0030000303,0.08757134,-0.17932574,-0.39061937,-0.3682388,0.059912663,-3.078168,0.62556267,-0.000310772,-0.035406966,0.012448812,0.0013644857,0.010767513,0.0013978763,-0.0040182313,0.5030884,-1.379876,1.9021491,-2.0911186,-1.5709528,2.478546,-0.04757913,0.040757027,-0.055576365,0.01881231,-0.010205392,-0.043513916,-0.38307226,0.0,-9.289502,0.74413085,47.66271,-0.9791908,-2.5050936,-3.2011433,-0.15158053,0.018123925,-0.32165146,29.0,30.4375,29.375,33.0,35.5,36.5625
0.08205451,-1.1661803,-0.3319322,-1.323811,-0.0060807406,0.08424179,-0.18557821,-0.39064744,-0.3682049,0.05990296,-3.0781064,0.62545323,-0.0003757526,-0.036074653,0.012982882,0.00040172142,0.009816993,-0.0011154177,-0.003641848,0.50302744,-1.3798151,1.9020776,-2.0910232,-1.5709885,2.4784245,-0.05036829,0.042858444,-0.05585324,0.018720927,-0.008167508,-0.04668229,-0.45968673,-0.076614454,-9.251195,0.83589023,47.711964,-0.8460948,-2.4530146,-3.4248676,-0.1584613,-0.0031413375,-0.34051305,29.0,30.4375,29.375,33.0,35.5,36.5625
0.08405427,-0.8432754,-0.10143806,-1.2288914,-0.01616495,0.080145404,-0.18583646,-0.39074388,-0.36818,0.059910692,-3.0781116,0.62543356,-0.0003764619,-0.0375387,0.0127146235,0.0013261138,0.0069753192,-0.0003614327,-0.0022152276,0.5028951,-1.379707,1.9019212,-2.0909755,-1.5709876,2.4782794,-0.05258922,0.042950097,-0.058095317,0.018831277,-0.0060484423,-0.050333247,-0.34476504,-0.095768064,-9.308657,0.78888994,47.71554,-0.87402236,-2.4854453,-3.378075,-0.16301149,-0.039384466,-0.29730234,29.0,30.4375,29.375,33.0,35.5,36.5625
0.08605465,-0.70238537,-0.9021401,-1.5398803,-0.00016383175,0.07153429,-0.1683386,-0.3908099,-0.3681502,0.059904832,-3.0780938,0.6254316,-0.00035237212,-0.03973983,0.012766461,0.0016468231,0.006408113,0.00014860662,-0.0051883175,0.5027984,-1.379634,1.9018482,-2.0909755,-1.5710114,2.4781837,-0.05487069,0.045586925,-0.062092416,0.019468855,-0.0058043995,-0.049640156,-0.4213795,-0.095768064,-9.289502,0.7709874,47.704796,-0.7869413,-2.4368632,-3.145855,-0.17270778,-0.052924916,-0.31120133,29.0,30.4375,29.375,33.0,35.5,36.5625
0.088054426,-1.1511285,-0.68286574,-1.4397783,-0.0031870129,0.06874672,-0.17021738,-0.39088327,-0.36814597,0.059907656,-3.0780985,0.62544805,-0.00036744055,-0.037772294,0.01239724,0.00080163614,0.0076223295,-0.0022136914,0.0002979972,0.50271547,-1.379526,1.9017056,-2.0909388,-1.5709995,2.4781106,-0.052457895,0.04553305,-0.06032203,0.020406317,-0.0057262564,-0.052714653,-0.5554548,0.038307227,-9.385271,0.7732232,47.694946,-0.91339815,-2.5323458,-3.285863,-0.18787631,-0.061323877,-0.3003857,29.0,30.4375,29.375,33.0,35.5,36.5625
0.09005483,-1.2624389,-0.6236382,-1.4476566,-0.004293554,0.08345349,-0.18796858,-0.39096057,-0.36810708,0.0599033,-3.078055,0.6255523,-0.00043623996,-0.03941602,0.013195388,0.0010044741,0.008173522,-0.0016710027,0.0019963298,0.5025709,-1.3794293,1.901585,-2.0908673,-1.570988,2.4780366,-0.054850098,0.046751443,-0.062369525,0.021026706,-0.00647953,-0.0568024,-0.4213795,0.11492168,-9.385271,0.8112748,47.694946,-0.90326667,-2.464709,-3.3701684,-0.19854733,-0.042321734,-0.2554599,29.0,30.4375,29.375,33.0,35.5,36.5625
0.092054695,-1.1868494,-0.22487096,-1.606817,-0.018749233,0.09776444,-0.18058,-0.3910474,-0.36808458,0.059914954,-3.078066,0.6254382,-0.00037187347,-0.040555015,0.013682825,0.00066200964,0.009015772,-0.0020317219,0.003319433,0.5024746,-1.3793447,1.9014529,-2.0908434,-1.5710238,2.4778678,-0.056365646,0.048804443,-0.06411684,0.021441309,-0.007047635,-0.05963905,-0.2681506,0.1340753,-9.404425,0.81351066,47.71017,-0.8663669,-2.4596586,-3.2951715,-0.22075972,-0.073252276,-0.2323358,29.0,30.4375,29.375,33.0,35.5,36.5625
0.09405458,-1.3558636,-0.591535,-1.5962049,-0.019648714,0.08579549,-0.17460088,-0.3911258,-0.36806095,0.059920847,-3.0780594,0.62543476,-0.00041378522,-0.04154928,0.013671449,0.0013178241,0.008642439,-0.00011021388,0.005879617,0.50235474,-1.3792486,1.9013094,-2.090771,-1.5710124,2.4777467,-0.056881864,0.048664503,-0.065332696,0.020934355,-0.0076535647,-0.062713504,-0.36391866,0.15322891,-9.442732,0.7284641,47.72002,-0.9245021,-2.4796064,-3.2921433,-0.2066963,-0.060432106,-0.18159822,29.0,30.4375,29.375,33.0,35.5,36.5625
0.096054755,-1.1630052,-1.0999794,-1.4311123,-0.027849542,0.09007326,-0.17591307,-0.39120924,-0.3680266,0.059927702,-3.078048,0.6254313,-0.00037713314,-0.042551704,0.01443321,0.00089443906,0.010655753,-0.00033302914,0.0069332984,0.5022345,-1.3791758,1.9012021,-2.0907466,-1.5710367,2.4776258,-0.058050144,0.050632566,-0.0668671,0.021668099,-0.009313844,-0.06493125,-0.38307226,0.22984336,-9.404425,0.77545905,47.660015,-0.9789684,-2.4267797,-3.3278475,-0.23488444,-0.0443061,-0.15457597,29.0,30.4375,29.375,33.0,35.5,36.5625
0.09805436,-1.5168147,-1.1801194,-1.6118695,-0.029884465,0.063857704,-0.17783464,-0.39130566,-0.36798772,0.059912767,-3.0779896,0.6253799,-0.00041248914,-0.04291398,0.015188621,-0.00014069305,0.013789913,-0.0018936063,0.008282255,0.5021026,-1.3790187,1.9010338,-2.0906746,-1.5710739,2.4774694,-0.05839902,0.0533792,-0.06807165,0.023005452,-0.011315407,-0.06662348,-0.2681506,0.2681506,-9.385271,0.7284641,47.71465,-0.99513334,-2.6434515,-3.3552783,-0.23917547,-0.020159489,-0.12844405,29.0,30.4375,29.375,33.0,35.5,36.5625
0.10005489,-0.49966604,-1.2619209,-1.7846919,-0.027561221,0.07481337,-0.16867551,-0.39142457,-0.36794475,0.05992513,-3.077973,0.6254911,-0.00034499617,-0.04405027,0.015500559,0.0014534862,0.013348659,0.0009423991,0.008515181,0.50193465,-1.3789234,1.9008902,-2.0906627,-1.5710977,2.4773731,-0.059351165,0.05140599,-0.06953427,0.02374247,-0.012294226,-0.06780671,-0.15322891,0.22984336,-9.3661175,0.7911258,47.668976,-1.001236,-2.4215622,-3.3337219,-0.28589717,-0.0107379,-0.08441752,29.0,30.4375,29.375,33.0,35.5,36.5625
0.102054454,-0.98209053,-1.0831237,-1.4810673,-0.036272243,0.053867966,-0.17108093,-0.39146835,-0.36794022,0.059903078,-3.0779572,0.625334,-0.00043087336,-0.045250077,0.015801048,0.0011789587,0.013999659,0.0016917757,0.0074246493,0.5018866,-1.3787905,1.9007696,-2.090603,-1.5710982,2.477229,-0.060379043,0.05320759,-0.070864655,0.022930343,-0.0132353585,-0.06774025,-0.21068975,0.22984336,-9.423578,0.7553206,47.66987,-0.99827766,-2.4784932,-3.3657303,-0.2682944,0.014501795,-0.08527681,29.0,30.4375,29.375,33.0,35.5,36.5625
0.10405434,-0.20588857,-0.76694643,-1.6409136,-0.042664375,0.06293384,-0.18044493,-0.39158207,-0.3679,0.059921138,-3.077936,0.62532914,-0.00035730147,-0.045333482,0.015530541,0.00054502423,0.013375566,-8.313014e-05,0.006090007,0.5017428,-1.3786939,1.9006032,-2.090555,-1.5711454,2.477085,-0.060859416,0.05502641,-0.071622215,0.02311524,-0.011834454,-0.066888705,-0.1340753,0.17238252,-9.32781,0.7418897,47.690468,-1.0534062,-2.4565463,-3.4015903,-0.27810386,-0.008433343,-0.06812071,29.0,30.4375,29.4375,33.0,35.5,36.5625
0.106055215,-0.73167753,-1.1441644,-1.5904642,-0.037257522,0.03960983,-0.16853547,-0.3916857,-0.36786428,0.059932925,-3.0779436,0.6253702,-0.00032887884,-0.046129204,0.015528223,-0.00016497394,0.013207979,-0.001988484,0.004411307,0.5015865,-1.3786087,1.9004701,-2.090531,-1.5711454,2.4769535,-0.062240742,0.057939615,-0.07361028,0.0237746,-0.010773385,-0.06659268,-0.076614454,0.24899697,-9.3661175,0.7620334,47.67345,-1.1062949,-2.6103663,-3.3689919,-0.27205175,0.017885882,-0.078426905,29.0,30.4375,29.4375,33.0,35.5,36.5625
0.10805501,-0.294583,-1.4388849,-1.6491163,-0.0369833,0.041265104,-0.1639807,-0.39177287,-0.3678091,0.059899874,-3.077851,0.62537116,-0.00038165672,-0.047272224,0.0155439265,0.0016067597,0.011484401,0.0008135615,0.0019696716,0.5014424,-1.3784535,1.9003505,-2.0904825,-1.5711931,2.476822,-0.06341048,0.05566427,-0.07505214,0.024201563,-0.010616896,-0.06532007,-0.019153614,0.22984336,-9.404425,0.7530795,47.667187,-1.0839791,-2.4719634,-3.383504,-0.31518224,0.007413111,-0.0706466,29.0,30.4375,29.4375,33.0,35.5,36.5625
0.110054515,0.32951847,-0.69688594,-1.5465094,-0.055104434,0.050044112,-0.16616856,-0.3918747,-0.36780623,0.059941202,-3.0778966,0.6252851,-0.00027224346,-0.048307814,0.015656428,0.0010767404,0.011479293,7.319972e-05,-0.0006877222,0.5013582,-1.3783804,1.9001592,-2.0904353,-1.5712174,2.4766784,-0.06477165,0.058148444,-0.07676177,0.024070697,-0.010255518,-0.06402428,0.0,0.24899697,-9.385271,0.7486078,47.675243,-1.0184256,-2.4027164,-3.3187485,-0.3207454,-0.0065790266,-0.11627336,29.0,30.4375,29.4375,33.0,35.5,36.5625
0.112055,-0.5373903,-1.428722,-1.7778474,-0.032792054,0.026591405,-0.1598938,-0.3919677,-0.36778772,0.059931207,-3.077888,0.62534165,-0.00032580725,-0.04947157,0.016567534,0.00061827525,0.013181591,0.0004227095,-0.003794138,0.50122595,-1.3782357,1.9000024,-2.090399,-1.5711936,2.4765825,-0.066331305,0.05982335,-0.07764852,0.023801064,-0.011920148,-0.062473036,0.05746084,0.21068975,-9.404425,0.7911258,47.71465,-1.0821514,-2.5460238,-3.3840737,-0.32092074,0.01593031,-0.105149746,29.0,30.4375,29.4375,33.0,35.5,36.5625
0.11405444,0.20424815,-1.1009636,-1.573081,-0.03352441,0.050734032,-0.16784236,-0.39207327,-0.36772928,0.059914943,-3.077792,0.6253415,-0.00029745593,-0.05205257,0.015140763,0.0024519968,0.010310739,0.0044528176,-0.0054218555,0.501082,-1.3780911,1.8998574,-2.0903513,-1.5712775,2.476451,-0.06666085,0.060991477,-0.08305895,0.023121359,-0.011354414,-0.061173145,-0.019153614,0.24899697,-9.423578,0.7866488,47.66271,-1.1228614,-2.473276,-3.197525,-0.30226383,0.023082823,-0.1373545,29.0,30.4375,29.4375,33.0,35.5,36.5625
0.116055004,-0.036078393,-1.0345484,-1.6967112,-0.023799617,0.043542482,-0.16187689,-0.3921488,-0.36770585,0.059901588,-3.0777802,0.6253394,-0.0004081781,-0.051526364,0.01593609,0.0013622743,0.010746701,0.0016644538,-0.007435719,0.50095,-1.3779588,1.8997148,-2.0902798,-1.5712413,2.476319,-0.06809305,0.06164632,-0.08145168,0.023511915,-0.010396684,-0.060593553,-0.019153614,0.24899697,-9.346964,0.83365434,47.704796,-1.1476138,-2.4415865,-3.2904878,-0.31561366,0.015642,-0.14548057,29.0,30.4375,29.4375,33.0,35.5,36.5625
0.11805462,-0.36122307,-0.55267733,-1.5575118,-0.039204583,0.04255344,-0.17271763,-0.3922851,-0.3676866,0.059933413,-3.0778039,0.62540215,-0.00028541053,-0.05279132,0.015128575,0.0017836217,0.009739628,0.0017880382,-0.0084335925,0.50080615,-1.3778497,1.8995103,-2.090267,-1.5712651,2.4762115,-0.06839798,0.06393368,-0.08535787,0.024533283,-0.009573774,-0.059901446,-0.15322891,0.19153613,-9.442732,0.8157518,47.691364,-1.1478295,-2.486406,-3.2603688,-0.3320428,0.011191951,-0.1929884,29.0,30.4375,29.4375,33.0,35.5,36.5625
0.120054245,-0.44746193,-0.943006,-1.6119597,-0.03195203,0.05817351,-0.16684318,-0.39237806,-0.3676435,0.059931025,-3.0777597,0.62537396,-0.0003197795,-0.05338984,0.014926679,0.0020253924,0.008665891,0.0016274108,-0.009388339,0.5006621,-1.3777295,1.8993543,-2.090183,-1.5712885,2.4760556,-0.069227576,0.064529054,-0.08670467,0.024903826,-0.0085600205,-0.059777524,-0.076614454,0.22984336,-9.461885,0.78888994,47.705692,-1.1745565,-2.5239933,-3.104455,-0.3335178,-0.01761813,-0.2058214,29.0,30.4375,29.4375,33.0,35.5,36.5625
0.12205434,-0.44433853,-0.55085313,-1.8520886,-0.04589194,0.07239824,-0.17960483,-0.39246544,-0.36760774,0.059897926,-3.077694,0.62547475,-0.00046112668,-0.053792357,0.015264722,0.0018763597,0.008728963,0.0017518642,-0.009748833,0.50050616,-1.3775493,1.8991998,-2.0901115,-1.5712646,2.475971,-0.070075214,0.0648418,-0.08664543,0.024453225,-0.008682676,-0.060263507,-0.19153613,0.28730422,-9.461885,0.85155696,47.71286,-1.2188134,-2.446656,-3.2699015,-0.34360495,-0.018006843,-0.23362052,29.0,30.4375,29.4375,33.0,35.5,36.5625
0.12405415,-1.3027989,-1.2546273,-1.8002882,-0.04037135,0.075219534,-0.16664629,-0.39257547,-0.36760208,0.05992522,-3.0777638,0.6253538,-0.0003219545,-0.055376604,0.015544027,0.0017958119,0.008425354,0.0016210281,-0.009630392,0.50040966,-1.3774644,1.8990425,-2.0901353,-1.5712885,2.4757903,-0.072197445,0.067023724,-0.08910859,0.024698824,-0.008354475,-0.06250445,-0.22984336,0.21068975,-9.481039,0.82694155,47.723602,-1.2633379,-2.385655,-3.2277021,-0.33805376,-0.019730516,-0.25133586,29.0,30.4375,29.4375,33.0,35.5,36.5625
0.12605432,-1.0857153,-1.2925279,-1.7311541,-0.043518145,0.09514568,-0.15603457,-0.39268968,-0.36756343,0.05992724,-3.077692,0.625455,-0.0003577674,-0.055945687,0.015465488,0.0013122482,0.009081755,0.0009513575,-0.011584776,0.5002538,-1.3773074,1.8988274,-2.0900276,-1.5713123,2.4757068,-0.07241073,0.06924946,-0.09072084,0.024987059,-0.00861418,-0.060761396,-0.3256114,0.21068975,-9.519346,0.8090337,47.716442,-1.2319325,-2.6247206,-3.231695,-0.3436581,-0.015726889,-0.2629316,29.0,30.4375,29.4375,33.0,35.5,36.5625
0.12805478,-1.3240038,-0.48544568,-1.723566,-0.0487825,0.10090841,-0.18365246,-0.3927938,-0.3675424,0.05992598,-3.0776892,0.6255114,-0.00034309365,-0.05653171,0.014919025,0.0025667422,0.0071636294,0.002973931,-0.011616644,0.5001221,-1.377176,1.898672,-2.0900161,-1.5713123,2.4756107,-0.07245554,0.06781217,-0.0918506,0.024855739,-0.007903345,-0.060775843,-0.30645782,0.13407528,-9.5385,0.80456203,47.658226,-1.398073,-2.417304,-3.335203,-0.3519874,-0.048522577,-0.32519948,29.0,30.4375,29.4375,33.0,35.5,36.5625
0.130055,-1.0620785,-0.13609342,-1.6798111,-0.047840323,0.11260075,-0.17701985,-0.39291757,-0.36752146,0.059930686,-3.077701,0.6254556,-0.00037216602,-0.05858782,0.016857276,0.0017629783,0.008296723,0.0024240694,-0.013268124,0.49996498,-1.377007,1.8984445,-2.0899441,-1.5713004,2.4754174,-0.07713267,0.06994072,-0.092439115,0.024341883,-0.008640064,-0.063799106,-0.38307226,0.095768064,-9.557653,0.8179876,47.694946,-1.3504982,-2.4568036,-3.330334,-0.33508074,-0.033426747,-0.3279602,29.0,30.4375,29.4375,33.0,35.5,36.5625
0.1320548,-1.4678296,-0.646855,-1.7212416,-0.021521956,0.108242415,-0.16866884,-0.39303258,-0.36748776,0.05992721,-3.0776615,0.62552494,-0.00038963842,-0.05839261,0.016522089,0.0015427263,0.009112587,0.0028152203,-0.013858265,0.49980974,-1.3768507,1.8982538,-2.089885,-1.5713128,2.4753106,-0.075804085,0.0706133,-0.09265228,0.023932591,-0.009545271,-0.061877865,-0.51714754,0.05746084,-9.653421,0.7911258,47.691364,-1.2887187,-2.3707964,-3.283128,-0.3460554,-0.030387865,-0.36685514,29.0,30.4375,29.4375,33.0,35.5,36.5625
0.13405472,-1.5842142,-0.51247036,-1.6915461,-0.020494623,0.105941206,-0.16971947,-0.39312676,-0.367442,0.05992948,-3.0776224,0.6255945,-0.0004055255,-0.060837664,0.015936522,0.0030812977,0.006720539,0.006410267,-0.015672645,0.49965352,-1.3767543,1.8981208,-2.089825,-1.5713252,2.4752028,-0.07728527,0.07104405,-0.09646038,0.023004947,-0.0091800485,-0.061543636,-0.57460845,0.038307227,-9.461885,0.88960326,47.67793,-1.3486798,-2.420991,-3.197257,-0.33435848,-0.036884777,-0.42465058,29.0,30.4375,29.4375,33.0,35.5,36.5625
0.13605508,-1.3073597,-0.034484733,-1.7274604,-0.023744078,0.109790616,-0.17381474,-0.39324775,-0.3673979,0.059916757,-3.0775526,0.6256745,-0.0003880064,-0.061349083,0.016786603,0.002269108,0.0073963394,0.0056440253,-0.014695383,0.49949726,-1.376586,1.897942,-2.0897892,-1.5713729,2.4751055,-0.07902033,0.0722213,-0.09583612,0.022194471,-0.009410382,-0.0642552,-0.47884035,0.05746084,-9.5385,0.81351066,47.68062,-1.3560101,-2.3438606,-3.3899667,-0.3153488,-0.05364003,-0.44479895,29.0,30.4375,29.4375,33.0,35.5,36.5625
0.13805461,-1.1248552,0.08810193,-1.6940091,-0.019036353,0.10910401,-0.17418295,-0.3934335,-0.3673791,0.05996983,-3.077606,0.62566406,-0.00020702876,-0.06407494,0.016629366,0.0037299911,0.006579425,0.00922547,-0.0129458,0.49931702,-1.3764412,1.8976415,-2.0897539,-1.5714096,2.4749122,-0.08061186,0.073251545,-0.1003845,0.022174604,-0.010412636,-0.06759325,-0.4405331,-0.038307227,-9.500193,0.80456203,47.705692,-1.3528575,-2.3954368,-3.2111752,-0.3130707,-0.030952217,-0.464947,29.0,30.4375,29.4375,33.0,35.5,36.5625
0.14005503,-1.4288603,0.05684811,-1.698069,-0.0181215,0.09567996,-0.1721405,-0.39353764,-0.36733887,0.059937887,-3.077536,0.62572527,-0.00028490575,-0.064918905,0.017823044,0.003057163,0.0067507722,0.0077931685,-0.012929709,0.49916038,-1.3762488,1.8974751,-2.0897057,-1.571421,2.4748027,-0.08370302,0.07433514,-0.100158855,0.022198398,-0.009883751,-0.070700906,-0.47884032,-0.095768064,-9.557653,0.82022345,47.652847,-1.2931457,-2.331633,-3.3290505,-0.29077804,-0.036402863,-0.44884017,29.0,30.4375,29.4375,33.0,35.5,36.5625
0.14205447,-1.2508098,-0.39394814,-1.7159038,-0.010478891,0.09620513,-0.1715341,-0.3936653,-0.36730906,0.05994729,-3.0775476,0.62570363,-0.0002717913,-0.065216735,0.017591251,0.003187076,0.006916647,0.008290324,-0.005530093,0.49899286,-1.3761045,1.8972715,-2.0896575,-1.5714215,2.4746203,-0.083318256,0.074893124,-0.101139255,0.022258434,-0.010273749,-0.077714525,-0.53630114,0.0,-9.500193,0.7866488,47.694946,-1.3599296,-2.3367376,-3.343906,-0.2644056,-0.0566051,-0.42591655,29.0,30.4375,29.4375,33.0,35.5,36.5625
0.14405432,-1.4496708,-0.37932783,-1.6752337,-0.009223198,0.091858335,-0.1624428,-0.3937894,-0.3672826,0.059954867,-3.0775266,0.6257172,-0.00024824377,-0.066727996,0.018049331,0.0035058034,0.007240497,0.009683367,-0.004252208,0.49884877,-1.375948,1.897055,-2.0895975,-1.5714453,2.4744875,-0.084860034,0.075835206,-0.10294519,0.022052102,-0.011230786,-0.08053113,-0.49799395,-0.038307227,-9.500193,0.9097417,47.703007,-1.4456197,-2.2949672,-3.3173723,-0.2623826,-0.04477744,-0.40316486,29.0,30.4375,29.4375,33.0,35.5,36.5625
0.1460546,-0.84748805,-0.032769654,-1.7602013,-0.02015054,0.108474165,-0.17863834,-0.39392838,-0.36724335,0.059961442,-3.0775418,0.6257208,-0.0002202776,-0.06890499,0.02031854,0.0030369535,0.007336248,0.008502516,-0.004684473,0.49865475,-1.3758035,1.8968633,-2.089574,-1.5714453,2.474294,-0.09094425,0.077075325,-0.10343344,0.02237503,-0.010752109,-0.08618411,-0.4213795,-0.019153614,-9.5385,0.7777002,47.686886,-1.1131309,-2.2105017,-3.3904524,-0.2475549,-0.047844827,-0.35542828,29.0,30.4375,29.4375,33.0,35.5,36.5625
0.1480549,-1.234941,-0.10728415,-1.8345468,-0.021818776,0.09441243,-0.1721758,-0.3940722,-0.3671819,0.05996826,-3.0774953,0.6257431,-0.00012248669,-0.06898749,0.01995126,0.002852045,0.008238406,0.007917446,0.0034190028,0.49846378,-1.3756706,1.8966845,-2.0895493,-1.5715173,2.474123,-0.090052016,0.07865578,-0.105135284,0.023429465,-0.011269097,-0.09339361,-0.36391866,0.019153614,-9.481039,0.8157518,47.658226,-1.2514712,-2.3662882,-3.4002786,-0.24261397,-0.048512064,-0.2807137,29.0,30.4375,29.4375,33.0,35.5,36.5625
0.15005556,-1.6328453,-0.72969544,-1.5383924,-0.021395737,0.090897895,-0.16338772,-0.39421418,-0.3671752,0.059990514,-3.077555,0.625658,-0.00010460244,-0.070607886,0.020710941,0.0030057386,0.008014989,0.007915408,0.0035967214,0.49830696,-1.3755021,1.8964204,-2.0894892,-1.5714935,2.4739056,-0.09290847,0.0798764,-0.107086465,0.024052463,-0.01107316,-0.09642774,-0.61291564,0.05746084,-9.404425,0.86498255,47.678825,-1.1491784,-2.2617254,-3.3980155,-0.22084731,-0.047776327,-0.23093756,29.0,30.4375,29.4375,33.0,35.5,36.5625
0.15205468,-1.7219836,-0.7189902,-1.605188,-0.02101895,0.08937064,-0.17326912,-0.39434117,-0.3671027,0.059966076,-3.077486,0.62566274,-0.00014265376,-0.07183358,0.021539224,0.0027122307,0.0081631895,0.0073129325,0.0041568163,0.49809054,-1.3753335,1.8962649,-2.089441,-1.5715293,2.473701,-0.095489606,0.08132293,-0.10820959,0.024320234,-0.0109251235,-0.09956802,-0.7086837,0.17238252,-9.3661175,0.7642693,47.687782,-1.0924242,-2.3233604,-3.3486333,-0.21983355,-0.050207227,-0.20076533,29.0,30.4375,29.4375,33.0,35.5,36.5625
0.15405422,-1.436641,-0.8603701,-1.7689424,-0.012327563,0.09159671,-0.16331068,-0.3944986,-0.36705813,0.05998101,-3.0774705,0.625678,-0.00010599286,-0.07321393,0.022570405,0.0024504913,0.009400567,0.0074829124,0.0036320146,0.49788624,-1.3751649,1.8960146,-2.0893695,-1.5715541,2.4735084,-0.09772739,0.08282488,-0.109448396,0.024496924,-0.012095588,-0.10127777,-0.4213795,0.17238252,-9.385271,0.8403672,47.72719,-1.0138096,-2.2897878,-3.3737037,-0.19348672,-0.044246074,-0.15455103,29.0,30.4375,29.4375,33.0,35.5,36.5625
0.1560542,-1.1971635,-1.0217319,-1.4894453,-0.021159772,0.09369396,-0.15867291,-0.39463452,-0.3670076,0.059964694,-3.0774312,0.6256515,-7.394533e-05,-0.07423441,0.023601038,0.0022338566,0.009419651,0.0065623485,7.1513045e-05,0.4977057,-1.3749845,1.8958348,-2.0893576,-1.5716013,2.4733164,-0.10062705,0.08361378,-0.110046715,0.02511649,-0.011673074,-0.100617476,-0.40222588,0.095768064,-9.461885,0.8537928,47.701214,-1.0129102,-2.266866,-3.4626446,-0.1893377,-0.05862073,-0.11907343,29.0,30.4375,29.4375,33.0,35.5,36.5625
0.15805477,-1.1535053,-0.36713368,-1.4420375,-0.039658356,0.09137236,-0.1642632,-0.39480728,-0.36696073,0.05998753,-3.0774674,0.6256793,-5.6850888e-05,-0.07562033,0.02385657,0.0013466763,0.010072689,0.0050449115,-0.004034407,0.49745348,-1.3748269,1.8955821,-2.0892975,-1.5715774,2.473077,-0.10238005,0.087538816,-0.11281209,0.025603028,-0.0115220975,-0.09826366,-0.61291564,0.11492168,-9.289502,0.8179876,47.674347,-0.8583059,-2.368467,-3.2839932,-0.1721142,-0.0638379,-0.1553258,29.0,30.4375,29.4375,33.0,35.5,36.5625
0.16005437,-0.9151378,-0.4541719,-1.5805122,-0.023256836,0.09839416,-0.16989487,-0.39497164,-0.36690977,0.05999244,-3.0774086,0.6257271,2.714149e-05,-0.07637275,0.024226123,0.0025708594,0.009027856,0.0071763713,-0.009077226,0.49726164,-1.3746355,1.8953327,-2.0892494,-1.5716494,2.4729228,-0.103591844,0.08537731,-0.11304828,0.025623756,-0.011617174,-0.09443282,-0.59376204,0.1340753,-9.346964,0.8090337,47.694054,-0.87714726,-2.2770112,-3.564651,-0.1608934,-0.0435233,-0.16854951,29.0,30.4375,29.4375,33.0,35.5,36.5625
0.16205508,-1.1593852,-0.022276623,-1.4751707,-0.028257845,0.09646728,-0.1662608,-0.3951045,-0.366874,0.059991624,-3.077435,0.62573457,-9.837337e-06,-0.07727202,0.024334243,0.002116085,0.008749823,0.0060809995,-0.015084823,0.49705744,-1.3744786,1.89514,-2.0892136,-1.5716137,2.47272,-0.10503962,0.08761212,-0.11474974,0.025923043,-0.01084959,-0.089873746,-0.5363012,0.095768064,-9.346964,0.7642693,47.72002,-0.82876813,-2.1822016,-3.2840245,-0.13820906,-0.058835078,-0.22454777,29.0,30.4375,29.4375,33.0,35.5,36.5625
0.16405442,-1.3227018,-0.914472,-1.4702734,-0.004953378,0.09308321,-0.16173624,-0.39526862,-0.36681777,0.060000535,-3.077376,0.62583816,3.5486206e-05,-0.0775995,0.024059156,0.0022517487,0.009298052,0.00583755,-0.016532963,0.49684203,-1.3742979,1.8948888,-2.0891411,-1.5716614,2.4725769,-0.104610644,0.08876895,-0.11674192,0.027230324,-0.011215253,-0.08799498,-0.38307226,0.076614454,-9.289502,0.8918391,47.691364,-0.90986973,-2.331141,-3.459843,-0.12979592,-0.07684474,-0.2731455,29.0,30.4375,29.4375,33.0,35.5,36.5625
0.1660551,-0.9398015,-0.31924784,-1.4265472,-0.010930515,0.090672344,-0.1612429,-0.39543617,-0.3667906,0.060007613,-3.0773976,0.6258025,8.970591e-05,-0.07869469,0.023849536,0.002698728,0.008794909,0.005663991,-0.01728559,0.49665016,-1.3740933,1.8946241,-2.0891168,-1.5716733,2.4723601,-0.10554571,0.09020399,-0.11983469,0.028795695,-0.010690143,-0.08817771,-0.3256114,0.1340753,-9.232041,0.85155696,47.696735,-0.95000947,-2.2692077,-3.3098114,-0.10980529,-0.0560783,-0.28273916,29.0,30.4375,29.4375,33.0,35.5,36.5625
0.16805476,-0.7967626,-0.24062282,-1.5232413,-0.004128786,0.07700082,-0.16374187,-0.3955777,-0.36674625,0.060023617,-3.0774007,0.62578356,8.7013424e-05,-0.07968367,0.024186784,0.0027188503,0.009170105,0.0051952987,-0.01772337,0.496446,-1.3739486,1.8943967,-2.0890324,-1.5716733,2.472144,-0.10691278,0.09167322,-0.12190728,0.02998728,-0.010799218,-0.08910583,-0.22984336,0.1340753,-9.232041,0.7911258,47.650166,-0.9218833,-2.2846713,-3.2892132,-0.10633954,-0.08858054,-0.3096497,29.0,30.4375,29.4375,33.0,35.5,36.5625
0.17005411,-0.32197812,-0.50347036,-1.5537021,-0.0082291765,0.067399785,-0.16944805,-0.39574862,-0.3666931,0.0600346,-3.0773447,0.6259446,0.00016208869,-0.080187164,0.024853447,0.002373373,0.010754077,0.0048099956,-0.01799611,0.49623045,-1.373768,1.8941463,-2.0889847,-1.5717219,2.4720361,-0.10770096,0.09279499,-0.12262303,0.030671587,-0.012007008,-0.08961851,-0.22984336,0.095768064,-9.289502,0.8157518,47.666286,-1.0639095,-2.290635,-3.3445754,-0.0996211,-0.06603421,-0.32959104,29.0,30.4375,29.4375,33.0,35.5,36.5625
0.17205474,-0.6301661,-0.73371816,-1.5430701,-0.028634582,0.048146892,-0.16664831,-0.39591932,-0.366626,0.0600222,-3.0772703,0.6259657,0.00014950476,-0.0796435,0.024227181,0.0009839145,0.0119878845,0.0019406067,-0.01733178,0.49599132,-1.3735385,1.8938826,-2.0889003,-1.5717701,2.4718199,-0.10628096,0.09634717,-0.123890996,0.031490874,-0.011731571,-0.08886192,-0.15322891,0.05746084,-9.270349,0.80679786,47.689575,-1.0681504,-2.3285544,-3.262676,-0.0880755,-0.0889807,-0.3383333,29.0,30.4375,29.4375,33.0,35.5,36.5625
0.1740545,-0.66736835,-1.2719722,-1.5594537,-0.037369654,0.044335496,-0.16165505,-0.39607328,-0.36657342,0.060025018,-3.0772598,0.62602067,0.00014928436,-0.08332811,0.02537066,0.0032693555,0.010892974,0.006091448,-0.01926612,0.49576223,-1.3733706,1.8936657,-2.0888517,-1.5717701,2.4716265,-0.11089187,0.09562385,-0.12850538,0.032654937,-0.012753325,-0.09153466,-0.15322891,0.095768064,-9.251195,0.8717007,47.687782,-1.0122635,-2.3242772,-3.3827457,-0.0757654,-0.06507836,-0.3621874,29.0,30.4375,29.4375,33.0,35.5,36.5625
0.17605445,-0.08496274,-1.5651294,-1.8163793,-0.036738638,0.05763547,-0.15363337,-0.39622134,-0.36650568,0.059996046,-3.0771832,0.6260616,0.000110211804,-0.08215311,0.02531487,0.0018698251,0.012366259,0.0027681475,-0.018918453,0.4955353,-1.3731538,1.893463,-2.088804,-1.5718058,2.471435,-0.109861165,0.097588755,-0.12792048,0.033722878,-0.012470436,-0.090851545,-0.076614454,0.19153613,-9.2703495,0.8157518,47.694946,-0.95430297,-2.3029737,-3.3394241,-0.061494842,-0.0752436,-0.4025721,29.0,30.4375,29.4375,33.0,35.5,36.5625
0.17805502,0.07753147,-1.525794,-1.7024196,-0.031547416,0.06201831,-0.16081794,-0.39641002,-0.3664895,0.06003262,-3.0772233,0.62608564,0.00022053586,-0.083457835,0.025493674,0.0021586753,0.012199188,0.00298986,-0.015061685,0.49534312,-1.372961,1.8931397,-2.0887558,-1.5718178,2.471253,-0.11132845,0.0989576,-0.1304111,0.034560766,-0.012429438,-0.09617564,0.019153614,0.22984336,-9.346964,0.82022345,47.684196,-0.94786465,-2.4688506,-3.3318253,-0.074486315,-0.061896443,-0.38153517,29.0,30.4375,29.4375,33.0,35.5,36.5625
0.18005463,0.2460579,-1.3295377,-1.5706619,-0.038169507,0.06832355,-0.16139828,-0.3965916,-0.3664252,0.06004533,-3.0771513,0.62622285,0.00022439352,-0.084438406,0.025212288,0.0025239694,0.011209774,0.0029288447,-0.012308746,0.49509123,-1.3727566,1.8928403,-2.0886352,-1.571853,2.471096,-0.112252824,0.10017242,-0.13289493,0.03539949,-0.011539384,-0.09985359,0.05746084,0.28730422,-9.346964,0.8314132,47.709274,-1.0290128,-2.357348,-3.1829767,-0.062929556,-0.07659436,-0.363178,29.0,30.4375,29.4375,33.0,35.5,36.5625
0.18205461,0.26852196,-1.0929792,-1.6041752,-0.034697935,0.068785526,-0.16324127,-0.39674702,-0.3663831,0.060036495,-3.0771422,0.6261421,0.00020630842,-0.08614852,0.026119294,0.0018390104,0.011291938,0.0015987717,-0.0100518335,0.49488643,-1.3725393,1.8925885,-2.088576,-1.5718654,2.4708421,-0.11563222,0.103066735,-0.13486283,0.035670567,-0.010991146,-0.10548971,0.038307227,0.24899697,-9.346964,0.85826975,47.71465,-0.935861,-2.4858665,-3.1618192,-0.044337332,-0.076237276,-0.31106696,29.0,30.4375,29.4375,33.0,35.5,36.5625
0.18405442,-0.20131947,-0.6997193,-1.866438,-0.03837803,0.05253513,-0.17111646,-0.39690354,-0.36632004,0.060015164,-3.077067,0.62617636,0.00016782657,-0.085418396,0.024847172,0.0020070698,0.011963201,0.0016765159,3.8050483e-05,0.4946602,-1.3723108,1.8923486,-2.0885031,-1.5719017,2.470647,-0.11239005,0.10387397,-0.1364588,0.03669757,-0.0116331745,-0.112334654,0.019153614,0.3256114,-9.346964,0.87393653,47.687782,-1.1740543,-2.4450176,-3.1924024,-0.04160133,-0.093514726,-0.26028094,29.0,30.4375,29.4375,33.0,35.5,36.5625
0.18605523,-0.8515396,-1.7476532,-1.7966696,-0.02440177,0.045696754,-0.15394484,-0.39710197,-0.3662799,0.060042705,-3.0770879,0.6261782,0.00023357673,-0.08683881,0.02644194,0.0012484707,0.012592269,-0.0006383805,0.002757378,0.4944191,-1.3721058,1.8920258,-2.0884311,-1.5719131,2.4704046,-0.11664269,0.106012166,-0.13759655,0.038018983,-0.011089325,-0.11930778,-0.038307227,0.30645782,-9.3661175,0.83365434,47.675243,-1.0448295,-2.4834518,-3.1708128,-0.048140913,-0.08056896,-0.19840465,29.0,30.4375,29.4375,33.0,35.5,36.5625
0.18805471,-0.5693286,-1.4902687,-1.8630093,-0.047915354,0.06248179,-0.15534186,-0.3972266,-0.36620632,0.060003884,-3.0769856,0.6261537,0.00012324715,-0.086720854,0.025395995,0.0013920254,0.012652698,-0.00021307825,0.0063870777,0.49420443,-1.3718891,1.8918346,-2.0883353,-1.5719494,2.470188,-0.11457347,0.107096925,-0.13929388,0.038278274,-0.011364677,-0.12086551,-0.1340753,0.3256114,-9.3661175,0.7933669,47.66987,-1.216423,-2.4722972,-3.1801991,-0.030999225,-0.109050505,-0.09762876,29.0,30.4375,29.4375,33.0,35.5,36.5625
0.19005501,-0.35747495,-1.5924532,-2.0332575,-0.04271717,0.06889903,-0.1578668,-0.39740908,-0.36614865,0.06000679,-3.0769656,0.6260329,0.00012962252,-0.087914534,0.02600874,0.0022436073,0.012960672,0.00038710918,0.0071044164,0.49396425,-1.3716611,1.8915347,-2.088239,-1.5719861,2.469875,-0.11628755,0.10699457,-0.14158148,0.040277746,-0.011927482,-0.123294644,-0.15322891,0.30645782,-9.3661175,0.78217715,47.666286,-1.1820217,-2.4703786,-3.226907,-0.04932695,-0.088175766,-0.08970762,29.0,30.4375,29.4375,33.0,35.5,36.5625
0.19205427,-0.5260064,-1.2894262,-1.8515532,-0.055133145,0.077740215,-0.16350481,-0.39759454,-0.36612526,0.060049135,-3.077014,0.6260269,0.00018340202,-0.086889245,0.0273384,0.0005496338,0.014988788,-0.004662164,0.00032564832,0.49374828,-1.3714802,1.8912014,-2.0881426,-1.5719732,2.4696493,-0.117922105,0.10845435,-0.1400265,0.0426737,-0.011301081,-0.118153185,-0.19153613,0.24899697,-9.442732,0.80456203,47.684196,-1.1677119,-2.4328277,-3.204416,-0.06229174,-0.08629262,-0.100140795,29.0,30.4375,29.4375,33.0,35.5,36.5625
0.19405481,-0.9487474,-1.4651262,-2.0679548,-0.039415397,0.061743107,-0.15099268,-0.3977614,-0.36603183,0.060006294,-3.076892,0.6260425,0.00014001744,-0.08873165,0.026871,0.001384104,0.013911647,-0.0025375616,-0.0051853536,0.49348456,-1.3712276,1.8909844,-2.0880826,-1.5720457,2.4694111,-0.11871787,0.10982463,-0.14352222,0.042412918,-0.0113766985,-0.11343516,-0.15322891,0.2681506,-9.404425,0.8493211,47.72808,-1.2252979,-2.4761317,-3.1678257,-0.06895378,-0.09500431,-0.13529047,29.0,30.4375,29.4375,33.0,35.5,36.5625
0.19605473,-0.852509,-1.1579629,-1.9224241,-0.027208967,0.06019741,-0.15784588,-0.39793462,-0.36601302,0.06001135,-3.076901,0.6260467,9.704565e-05,-0.08868174,0.027330255,0.0010442405,0.014029844,-0.004107899,-0.010693707,0.49328053,-1.3709753,1.8906506,-2.0879867,-1.5720214,2.4692087,-0.11978959,0.11022401,-0.14347653,0.043410942,-0.010733777,-0.10900004,-0.15322891,0.076614454,-9.385271,0.8314132,47.711964,-1.1748397,-2.3886354,-3.3212724,-0.04669568,-0.11885834,-0.20329529,29.0,30.4375,29.4375,33.0,35.5,36.5625
0.19805509,-0.72755516,-0.5148532,-1.7113205,-0.01954438,0.059318736,-0.16402926,-0.39813077,-0.3659574,0.06001947,-3.0768723,0.62621534,0.00013479013,-0.08903721,0.02858597,0.0006868204,0.015442044,-0.005585033,-0.016369468,0.49301648,-1.370759,1.8903636,-2.087938,-1.5720333,2.4690537,-0.12182863,0.11063872,-0.14354672,0.04503879,-0.011271756,-0.10536232,-0.21068975,0.05746084,-9.404425,0.8112748,47.68599,-1.1655397,-2.3056993,-3.4008465,-0.075738534,-0.13525854,-0.25338587,29.0,30.4375,29.4375,33.0,35.5,36.5625
0.20005454,-0.2632608,0.5169581,-1.8495517,-0.007985828,0.07086192,-0.16541547,-0.39829382,-0.36590955,0.059996206,-3.0768435,0.6261907,7.182878e-05,-0.08874764,0.029983534,-0.00041164132,0.017955247,-0.009474333,-0.020309621,0.49278843,-1.370506,1.8901013,-2.087877,-1.5720338,2.4688141,-0.12363258,0.11218156,-0.14362526,0.04819169,-0.0116447965,-0.103224635,-0.11492168,-0.019153614,-9.461885,0.8537928,47.65464,-1.1875553,-2.4696107,-3.5520463,-0.099837,-0.12787789,-0.29622388,29.0,30.4375,29.4375,33.0,35.5,36.5625
0.20205508,0.14142697,0.86742467,-1.5352145,0.004790681,0.08404114,-0.16920681,-0.39849934,-0.36586165,0.060039792,-3.0768404,0.626306,0.00016528048,-0.08911577,0.03082144,-0.0009258041,0.018802743,-0.012535401,-0.023793617,0.49253616,-1.3703254,1.8897651,-2.0877802,-1.5720571,2.4686344,-0.12575047,0.11386742,-0.14514491,0.05111746,-0.010937403,-0.10186037,-0.19153613,-0.15322891,-9.481039,0.8560339,47.716442,-1.1064206,-2.337624,-3.446649,-0.12748738,-0.15593237,-0.35504833,29.0,30.4375,29.4375,33.0,35.5,36.5625
0.2040549,-0.64292455,0.7097232,-1.4957817,0.01901117,0.06648235,-0.16485022,-0.39864945,-0.3657822,0.060013793,-3.0767264,0.62633884,8.345975e-05,-0.09128791,0.03013987,0.0007311184,0.01690718,-0.008351698,-0.024276953,0.49229655,-1.3700972,1.8895253,-2.0876615,-1.5721053,2.46843,-0.12632328,0.11386501,-0.14869833,0.050084125,-0.011270346,-0.101946436,-0.3256114,-0.15322891,-9.3661175,0.88960326,47.690468,-1.091575,-2.3955598,-3.4949117,-0.1332179,-0.1367881,-0.38386297,29.0,30.4375,29.4375,33.0,35.5,36.5625
0.2060546,-0.7383959,0.4853285,-1.5369291,0.024341797,0.08749259,-0.16003032,-0.39883053,-0.36572725,0.06001341,-3.0766757,0.6263701,5.9614656e-05,-0.09223075,0.032170054,-0.000118320626,0.018779557,-0.011522281,-0.029138684,0.49205533,-1.3698562,1.8892144,-2.0875523,-1.5721296,2.468215,-0.1304334,0.115598075,-0.14947031,0.052798625,-0.011424874,-0.10119368,-0.34476504,-0.28730422,-9.3661175,0.80456203,47.66987,-0.89826965,-2.33591,-3.414825,-0.15756826,-0.16802526,-0.44266176,29.0,30.4375,29.4375,33.0,35.5,36.5625
0.20805493,-0.7397573,1.139299,-1.4602007,0.010754227,0.09341942,-0.17521816,-0.39902607,-0.36567628,0.06002636,-3.0766685,0.62640196,5.7422927e-05,-0.091579504,0.031228116,0.0004037408,0.019502187,-0.012308575,-0.02489023,0.4917931,-1.3696281,1.8888911,-2.087456,-1.5721301,2.4679737,-0.12803635,0.11599616,-0.15183102,0.055791058,-0.011695929,-0.1030437,-0.36391866,-0.21068975,-9.3661175,0.8224646,47.639416,-1.1704117,-2.3137856,-3.4039917,-0.20661087,-0.1641374,-0.47380787,29.0,30.4375,29.4375,33.0,35.5,36.5625
0.21005404,-1.133568,0.7743888,-1.6665089,0.009251692,0.09858009,-0.16679694,-0.3991996,-0.3655964,0.060027704,-3.0765786,0.6264774,-2.3466468e-05,-0.09326456,0.03199622,0.0015755561,0.019541215,-0.010513687,-0.02384419,0.49151686,-1.369412,1.8885921,-2.0872872,-1.5721539,2.4677563,-0.13023604,0.11547148,-0.1541847,0.05709852,-0.01259788,-0.106285356,-0.51714754,-0.21068975,-9.404425,0.8224646,47.65464,-1.1235107,-2.1983879,-3.3469834,-0.25882107,-0.17000642,-0.4873634,29.0,30.4375,29.4375,33.0,35.5,36.5625
0.21205436,-1.7472421,-0.020275729,-1.697992,0.0029864968,0.102816984,-0.16439502,-0.3993725,-0.36553282,0.060004093,-3.076508,0.62655145,-0.00012787347,-0.092822,0.031840052,-8.005513e-05,0.021097826,-0.0137468595,-0.014678009,0.49125385,-1.3691461,1.8883046,-2.08718,-1.5721539,2.4675486,-0.12960052,0.119095966,-0.15492672,0.057785284,-0.012470251,-0.11481457,-0.53630114,-0.11492168,-9.404425,0.8717007,47.691364,-1.2499477,-2.4268746,-3.3740072,-0.27018756,-0.19531891,-0.44283444,29.0,30.4375,29.4375,33.0,35.5,36.5625
0.21405438,-2.1478872,-0.5244476,-2.0770772,0.0009495909,0.10839277,-0.15832713,-0.39954174,-0.36545563,0.059988134,-3.076401,0.6265477,-0.0002111549,-0.09475915,0.03309021,0.0009088372,0.021481054,-0.011588978,-0.011844586,0.4910012,-1.3688945,1.8880056,-2.0870245,-1.5722021,2.4673076,-0.1325389,0.11847636,-0.15658179,0.05832568,-0.013854114,-0.120580636,-0.57460845,-0.095768064,-9.5385,0.9097417,47.704796,-1.1297274,-2.1152003,-3.3902009,-0.3115315,-0.19217578,-0.39755785,29.0,30.4375,29.4375,33.0,35.5,36.5625
0.21605419,-1.5353833,-0.65952593,-2.1804764,-0.01994182,0.12769556,-0.17663424,-0.3997575,-0.36539203,0.060019918,-3.0763707,0.6265353,-0.00012650437,-0.096776605,0.033779606,0.0006744828,0.020751446,-0.011532476,-0.004499683,0.4907368,-1.3686773,1.887647,-2.0869043,-1.5722622,2.4670396,-0.13581653,0.12074969,-0.15864064,0.057688195,-0.013260718,-0.13120404,-0.51714754,0.019153614,-9.672575,0.80679786,47.704796,-1.1538509,-2.3963912,-3.4303815,-0.32356018,-0.18625179,-0.29371765,29.0,30.4375,29.4375,33.0,35.5,36.5625
0.21805452,-1.4777486,-1.6385368,-2.0498164,-0.035320435,0.13941835,-0.15685639,-0.39994124,-0.3653253,0.060015384,-3.0763083,0.62651837,-0.00019196782,-0.09655112,0.03324946,0.00023907147,0.022049244,-0.012567629,0.0019877974,0.49047384,-1.3684245,1.8873233,-2.0867603,-1.572286,2.4667742,-0.13424627,0.12275382,-0.16034114,0.05889735,-0.01394078,-0.13611752,-0.57460845,0.15322891,-9.672575,0.8605109,47.694946,-1.1290236,-2.1118615,-3.42964,-0.3527462,-0.20994654,-0.22275396,29.0,30.4375,29.4375,33.0,35.5,36.5625
0.22005488,-1.827062,-1.4295691,-1.9097935,-0.06752861,0.13525034,-0.16150886,-0.40014946,-0.36526918,0.060026743,-3.0763135,0.6265375,-0.00020554352,-0.09928152,0.033954315,-7.2671384e-05,0.021081442,-0.010876248,0.0017862697,0.4901849,-1.3681833,1.886988,-2.0866659,-1.5722746,2.4664967,-0.13784191,0.12547964,-0.16229893,0.05617378,-0.013905112,-0.1395104,-0.7469909,0.22984336,-9.730036,0.8403672,47.687782,-0.93047166,-2.2129138,-3.3212037,-0.38256145,-0.21166357,-0.15950479,29.0,30.4375,29.4375,33.0,35.5,36.5625
0.22205439,-1.50076,-1.6321561,-2.0667858,-0.07474037,0.15222892,-0.16737151,-0.4003645,-0.36519098,0.060036886,-3.0762491,0.62658066,-0.0001618034,-0.101560265,0.033681024,0.000385949,0.020599239,-0.007128771,0.0011720582,0.48989746,-1.3679423,1.8866533,-2.086559,-1.5723351,2.4662447,-0.13852783,0.12732363,-0.16495189,0.05344177,-0.015262661,-0.13957648,-0.9002198,0.28730422,-9.787497,0.8627467,47.711964,-1.0409759,-2.2537732,-3.1845937,-0.356446,-0.19426942,-0.1449385,29.0,30.4375,29.4375,33.0,35.5,36.5625
0.22405514,-2.6131997,-2.171315,-2.1088963,-0.06324932,0.13145326,-0.15511301,-0.40054306,-0.36512107,0.060017318,-3.0761855,0.6265316,-0.00024198418,-0.10270338,0.03309777,-0.0002090006,0.019732594,-0.0063447515,-0.0044835894,0.4896341,-1.3676771,1.8863543,-2.0864403,-1.572359,2.465959,-0.13875279,0.13015173,-0.16646266,0.05102526,-0.014883166,-0.13414451,-0.7086837,0.28730422,-9.730036,0.85155696,47.682407,-1.1101116,-2.300254,-3.2869685,-0.32672596,-0.21893027,-0.1578303,29.0,30.4375,29.4375,33.0,35.5,36.5625
0.22605434,-2.1841943,-1.8828497,-1.8564564,-0.074172646,0.13781472,-0.15940425,-0.40077698,-0.3650447,0.06003777,-3.0761673,0.6266428,-0.00017717536,-0.10397407,0.03312962,0.0006236355,0.01874801,-0.004218284,-0.008500115,0.4893104,-1.3674489,1.8860191,-2.0863683,-1.5723828,2.4657073,-0.13978715,0.12991248,-0.16795973,0.050419513,-0.015013867,-0.13116196,-0.6895301,0.2681506,-9.634268,0.8224646,47.67614,-1.1489422,-2.3324904,-3.2722168,-0.35246763,-0.21125682,-0.2123535,29.0,30.4375,29.4375,33.0,35.5,36.5625
0.22805494,-1.2328092,-1.4850539,-1.8971243,-0.07259425,0.13660777,-0.16567105,-0.40101677,-0.36500296,0.060053878,-3.076171,0.62664515,-8.4547035e-05,-0.10501679,0.032555886,-0.00041035665,0.01761259,-0.0034217625,-0.013776219,0.48904693,-1.3671596,1.8856238,-2.0863106,-1.5724186,2.465445,-0.14007063,0.1329831,-0.16845164,0.046601947,-0.014385384,-0.12617101,-0.57460845,0.38307226,-9.576807,0.8940802,47.672558,-1.1840358,-2.3024104,-3.2617044,-0.31122854,-0.23157728,-0.27917993,29.0,30.4375,29.4375,33.0,35.5,36.5625
0.23005497,-1.1765543,-1.8571715,-2.023739,-0.05550264,0.11261496,-0.15695272,-0.40119833,-0.364931,0.060034648,-3.0760863,0.6267425,-0.00017511386,-0.107351765,0.032273993,3.9671784e-05,0.016579362,0.0009105294,-0.015287384,0.48877108,-1.3668948,1.8853244,-2.0861914,-1.5724314,2.465241,-0.14092094,0.13445535,-0.17040011,0.04276793,-0.015533332,-0.12550429,-0.47884035,0.4213795,-9.557653,0.83365434,47.675243,-1.1656052,-2.367209,-3.2457325,-0.27855006,-0.22228375,-0.3147544,29.0,30.4375,29.4375,33.0,35.5,36.5625
0.23205478,-0.74329704,-1.4424316,-1.8660288,-0.06730845,0.09813248,-0.16248985,-0.40146127,-0.3648667,0.060063716,-3.0760686,0.6268155,-6.733995e-06,-0.108106755,0.032547757,-0.0013422137,0.017194828,-0.00016350545,-0.016490787,0.48847145,-1.3666295,1.8849305,-2.0861442,-1.572503,2.4649894,-0.14194773,0.13776572,-0.17088605,0.041167803,-0.015569229,-0.12532808,-0.30645782,0.3256114,-9.461885,0.8537928,47.693153,-1.247707,-2.3254156,-3.4461262,-0.23472549,-0.23265395,-0.31934312,29.0,30.4375,29.4375,33.0,35.5,36.5625
0.23405503,-0.43082,-1.5002127,-1.4674859,-0.07353679,0.08503694,-0.16482742,-0.40167087,-0.364784,0.060058784,-3.0760136,0.62688017,-2.7407377e-05,-0.10913975,0.03264797,0.00016515113,0.016161803,0.0032131516,-0.01776094,0.48815987,-1.366378,1.8846196,-2.0860488,-1.5725273,2.4647255,-0.14254445,0.13565348,-0.17169367,0.040616933,-0.016249636,-0.124652125,-0.1340753,0.34476504,-9.423578,0.87617236,47.70032,-1.1624433,-2.411452,-3.4793644,-0.21456282,-0.2197685,-0.36427182,29.0,30.4375,29.4375,33.0,35.5,36.5625
0.23605464,0.20070672,-1.1323255,-1.2514771,-0.07923814,0.08416896,-0.17814572,-0.40191647,-0.36473277,0.060064763,-3.0760064,0.6268771,7.299199e-05,-0.11091102,0.033121005,-0.00066336786,0.015982669,0.0023708472,-0.01814017,0.48788333,-1.3660762,1.8842372,-2.086013,-1.572575,2.4644482,-0.14517708,0.13921036,-0.17395456,0.039964605,-0.015702046,-0.1269065,-0.19153613,0.28730422,-9.270349,0.90750587,47.70211,-1.1004385,-2.4984946,-3.3834581,-0.15807708,-0.23455784,-0.36793476,29.0,30.4375,29.4375,33.0,35.5,36.5625
0.23805423,-0.093307234,-0.7235405,-1.2641939,-0.052689336,0.05222252,-0.16193569,-0.40216735,-0.3646692,0.06007795,-3.0759938,0.6270446,0.00013990609,-0.11247869,0.03392083,-0.00020455508,0.015328152,0.0031948178,-0.016274884,0.48755956,-1.3658001,1.8838662,-2.085965,-1.5725869,2.4642308,-0.14794278,0.13946818,-0.17536391,0.04006589,-0.01551503,-0.13153829,0.0,0.22984336,-9.212888,0.83365434,47.682407,-1.182408,-2.3600004,-3.4367123,-0.12569623,-0.22914927,-0.36054683,29.0,30.4375,29.4375,33.0,35.5,36.5625
0.2400547,0.55274576,-0.06553417,-1.1500616,-0.018175911,0.03882757,-0.17001289,-0.40238482,-0.36460212,0.06007556,-3.0759704,0.62703407,0.00011942576,-0.11340984,0.033848252,-0.00012398598,0.015200053,0.0031804226,-0.009571057,0.48725995,-1.3655235,1.883519,-2.085869,-1.5725988,2.4639277,-0.148635,0.14101698,-0.17756781,0.040653504,-0.015413867,-0.13893332,0.22984336,0.038307227,-9.193734,0.83589023,47.66987,-1.0639045,-2.414151,-3.4124398,-0.10174755,-0.2459068,-0.29302153,29.0,30.4375,29.4375,33.0,35.5,36.5625
0.24205504,0.7195963,0.0052488917,-1.1907289,0.021304252,0.01256665,-0.16835064,-0.40263203,-0.36451662,0.06006879,-3.0759187,0.6270386,0.00022918338,-0.11483124,0.03479475,-2.7150016e-05,0.014654614,0.0034345181,-0.0048500635,0.48694742,-1.3652349,1.8831838,-2.0858452,-1.5726827,2.463625,-0.15161796,0.14154732,-0.17841616,0.040459126,-0.015062132,-0.14663835,0.24899697,-0.076614454,-8.944737,0.8314132,47.698532,-1.0083117,-2.346572,-3.3592758,-0.06655764,-0.26398647,-0.2022101,29.0,30.4375,29.4375,33.0,35.5,36.5625
0.24405488,1.6741409,0.81642777,-0.9714387,0.031125598,0.020995842,-0.17628752,-0.4028548,-0.36444765,0.060058914,-3.075886,0.6269881,0.00020633989,-0.11549093,0.034751005,-0.00020503736,0.015227817,0.0027388681,0.0016951467,0.48664787,-1.3649336,1.8828243,-2.0857494,-1.572707,2.4632983,-0.15192693,0.14351411,-0.18066193,0.041600388,-0.015262325,-0.15349044,0.17238252,-0.05746084,-9.040505,0.87617236,47.70032,-1.0050198,-2.5339403,-3.3496075,-0.034474075,-0.25034666,-0.09256037,29.0,30.4375,29.4375,33.0,35.5,36.5625
0.24605465,0.7483848,0.9088612,-0.9598434,0.031906832,0.007662298,-0.16774383,-0.403108,-0.36440077,0.06009146,-3.0759394,0.6269976,0.00027638473,-0.116730966,0.034720656,0.00059738796,0.014844764,0.0030109093,0.0038919286,0.48633584,-1.3646694,1.8824176,-2.0856764,-1.5726947,2.4629855,-0.15301624,0.14440592,-0.18405455,0.043671835,-0.015048773,-0.15677701,0.21068975,0.0,-8.887277,0.86945957,47.66987,-0.9002791,-2.3140945,-3.1840677,-0.010495785,-0.2937762,-0.047064167,29.0,30.4375,29.4375,33.0,35.5,36.5625
0.2480551,0.94886476,0.6351292,-1.0492563,0.026354974,0.029416325,-0.16704085,-0.40332404,-0.36431694,0.060092364,-3.0758781,0.62700546,0.00025199197,-0.11738091,0.034534846,0.0023986327,0.014219343,0.004292037,-0.0015655531,0.48602507,-1.3644058,1.88207,-2.0855439,-1.5727309,2.4626877,-0.15317142,0.1428112,-0.18696792,0.046755683,-0.0150947,-0.15147331,0.11492168,-0.019153614,-8.925584,0.83365434,47.668976,-1.1726878,-2.2134771,-3.2563496,-0.022647224,-0.28052223,-0.049582608,29.0,30.4375,29.4375,33.0,35.5,36.5625
0.2500544,0.69322425,0.046817712,-1.1220927,0.0019208097,0.04991409,-0.16342567,-0.40355614,-0.36426008,0.06009404,-3.0758548,0.62702215,0.00027095948,-0.11823973,0.034071945,0.0034311984,0.013853542,0.004225464,-0.007655675,0.4857377,-1.3641051,1.881687,-2.085459,-1.5727547,2.462414,-0.15329412,0.14359163,-0.19099629,0.04989477,-0.01473422,-0.14550558,-0.019153614,0.019153614,-9.021352,0.8112748,47.65464,-1.1841764,-2.1460578,-3.1935067,-0.03627133,-0.31110036,-0.11397757,29.0,30.4375,29.4375,33.0,35.5,36.5625
0.2520552,0.2761372,-0.66741645,-1.4253327,-0.020710425,0.065419406,-0.15856558,-0.40377402,-0.364186,0.060101412,-3.0757978,0.62695634,0.00025705068,-0.1181472,0.03548834,0.002561435,0.016339656,0.0013329395,-0.016778585,0.4854496,-1.3638284,1.8813037,-2.085302,-1.5728034,2.4620924,-0.15498531,0.14476791,-0.19104864,0.052496623,-0.015574469,-0.13807069,-0.076614454,0.076614454,-9.097966,0.8918391,47.71465,-1.125621,-2.172666,-3.2526088,-0.051346045,-0.30027276,-0.18868658,29.0,30.4375,29.4375,33.0,35.5,36.5625
0.25405496,0.020776346,-0.7802459,-1.9364319,-0.036324732,0.08223833,-0.16486478,-0.40400222,-0.36410517,0.060095932,-3.075737,0.6270412,0.0002307407,-0.118195005,0.036514975,0.0016810197,0.017662656,-0.0018278876,-0.02285546,0.48512563,-1.3635396,1.8809456,-2.0851934,-1.5728267,2.4618294,-0.1568475,0.14638962,-0.19154471,0.054783728,-0.015267693,-0.13385612,-0.11492168,0.076614454,-9.289503,0.90527004,47.682407,-1.0672908,-2.1123543,-3.2889574,-0.06106174,-0.30169153,-0.2311083,29.0,30.4375,29.4375,33.0,35.5,36.5625
0.25605452,-0.9062581,-1.2520223,-2.0143692,-0.045066155,0.07597292,-0.16208436,-0.40421915,-0.3640365,0.0600862,-3.075641,0.6271579,0.00012384559,-0.11900106,0.037673738,0.0010674862,0.019255724,-0.003430695,-0.027939076,0.48482543,-1.3632147,1.8805379,-2.0850136,-1.5728391,2.4616146,-0.15900591,0.14818206,-0.19267915,0.056288898,-0.015940337,-0.13092685,-0.15322891,0.15322891,-9.595961,0.8627467,47.683304,-0.9535861,-2.1248446,-3.2712286,-0.06867987,-0.32774642,-0.32400602,29.0,30.4375,29.4375,33.0,35.5,36.5625
0.25805476,-1.1574382,-1.3114712,-1.9377826,-0.056103315,0.08427342,-0.15681794,-0.40445328,-0.36396542,0.06006684,-3.07558,0.62720484,8.4400024e-05,-0.1199573,0.03849564,0.00042231058,0.01982798,-0.0042633936,-0.033632915,0.4845134,-1.3628776,1.8801564,-2.0849183,-1.5728635,2.46134,-0.16106302,0.15000048,-0.19342211,0.056217134,-0.016065007,-0.12728845,-0.30645782,0.17238252,-9.710882,0.86498255,47.703903,-1.0069305,-2.0961816,-3.302991,-0.068168454,-0.336109,-0.4036531,29.0,30.4375,29.4375,33.0,35.5,36.5625
0.26005515,-0.8964318,-1.0035688,-1.9824094,-0.06304042,0.11187345,-0.1651099,-0.40468502,-0.363872,0.060065925,-3.0754983,0.6273592,4.684568e-05,-0.12076361,0.038740877,0.00047045964,0.020341787,-0.0038711657,-0.035354614,0.48416603,-1.3626012,1.8797973,-2.0847867,-1.5728873,2.4610996,-0.16169712,0.15104169,-0.19488582,0.056528017,-0.016713705,-0.1261974,-0.57460845,0.15322891,-9.730036,0.83589023,47.698532,-0.995374,-2.1214738,-3.3352752,-0.068269886,-0.34824014,-0.45986578,29.0,30.4375,29.4375,33.0,35.5,36.5625
0.26205063,-1.5101852,-1.1082243,-2.109226,-0.047496162,0.12402793,-0.15953742,-0.4049062,-0.36380118,0.06005565,-3.0754304,0.6273996,-8.642631e-06,-0.12139154,0.039580476,0.00021122409,0.020645706,-0.0052656606,-0.033483226,0.483866,-1.3622885,1.8794159,-2.084654,-1.5729111,2.4608338,-0.16379368,0.15194304,-0.1957091,0.057807952,-0.01635183,-0.13016523,-0.45968673,0.17238252,-9.710882,0.8918391,47.70211,-1.0603836,-2.2378378,-3.3647645,-0.06647194,-0.3501441,-0.50419545,29.0,30.4375,29.4375,33.0,35.5,36.5625
0.26405513,-1.492102,-0.66599154,-1.9721901,-0.04440039,0.13165398,-0.1727562,-0.4051603,-0.36372703,0.06008858,-3.0754156,0.6274841,5.340315e-05,-0.11961228,0.039178353,-0.0023413165,0.023150666,-0.010383913,-0.022626054,0.48353177,-1.3620346,1.8790096,-2.0845344,-1.5729355,2.4605544,-0.16153993,0.15605024,-0.19507903,0.058738887,-0.016202144,-0.13876942,-0.40222588,0.15322891,-9.768343,0.91198283,47.703007,-1.1534694,-2.4308028,-3.5190134,-0.0765906,-0.36771268,-0.46093768,29.0,30.4375,29.4375,33.0,35.5,36.5625
0.2660548,-2.2270389,-1.0152161,-2.0021136,-0.033915948,0.12774222,-0.15895186,-0.40538204,-0.36363333,0.060046922,-3.0753136,0.62745583,-3.3943845e-05,-0.11992181,0.039508715,-0.0026207434,0.023739783,-0.011723141,-0.012374335,0.48320794,-1.3616859,1.8786615,-2.0844257,-1.5729831,2.4602263,-0.1623165,0.15729882,-0.19630753,0.060141772,-0.016143171,-0.14979577,-0.5363012,0.095768064,-9.749189,0.85826975,47.682407,-1.1353976,-2.3297288,-3.4470868,-0.086668,-0.38087916,-0.35318702,29.0,30.4375,29.4375,33.0,35.5,36.5625
0.26805452,-0.81536764,-0.41591585,-1.9182988,-0.028877582,0.14494765,-0.16006106,-0.40566483,-0.36357602,0.060089633,-3.0753114,0.6275844,9.8043085e-05,-0.120443955,0.04031101,-0.0035426372,0.02578161,-0.014308172,-0.004152294,0.48288423,-1.3613969,1.8781961,-2.0843298,-1.5730194,2.4599833,-0.16363347,0.16014239,-0.19816554,0.062363893,-0.01676194,-0.15933318,-0.51714754,0.11492168,-9.749189,0.8157518,47.65464,-1.178621,-2.4317465,-3.4676192,-0.095852196,-0.4012878,-0.25790375,29.0,30.4375,29.4375,33.0,35.5,36.5625
0.2700548,-0.8087804,-0.39254302,-2.008903,-0.021244256,0.12587887,-0.16615568,-0.40590852,-0.36348814,0.060078904,-3.0752597,0.6275501,4.4599696e-05,-0.12025804,0.0412371,-0.003983342,0.028168634,-0.015982786,0.0007189851,0.4825368,-1.3610721,1.8778008,-2.0841973,-1.5730437,2.4596214,-0.16408746,0.16081196,-0.19852078,0.064623944,-0.018123118,-0.16465294,-0.59376204,-0.038307227,-9.730036,0.87617236,47.67345,-1.195412,-2.4674096,-3.6597452,-0.13280907,-0.3973065,-0.17076333,29.0,30.4375,29.4375,33.0,35.5,36.5625
0.27205426,-1.3367345,-0.18763815,-1.6729742,-0.025072278,0.10373055,-0.15748382,-0.4061412,-0.36342067,0.060078822,-3.0752144,0.6275411,7.248867e-05,-0.12140008,0.04276182,-0.004848427,0.029600687,-0.01834004,-0.0015231572,0.48224807,-1.3607711,1.8774179,-2.0841005,-1.5730919,2.4593332,-0.16744283,0.16318478,-0.19982262,0.066290714,-0.018309938,-0.16576464,-0.5554548,0.019153614,-9.576807,0.8985519,47.71286,-1.2360604,-2.6061978,-3.550389,-0.15894444,-0.40637276,-0.11920287,29.0,30.4375,29.4375,33.0,35.5,36.5625
0.27405414,0.07556252,0.58077365,-1.4241812,-0.032205068,0.11719123,-0.17502645,-0.4064383,-0.3633351,0.06010452,-3.0751972,0.62763345,0.00016213088,-0.12159423,0.043164928,-0.0050438223,0.032113098,-0.020826226,-0.004900678,0.48186517,-1.360459,1.876963,-2.0840037,-1.5731281,2.4590104,-0.16751675,0.16537622,-0.20304511,0.07068838,-0.01937868,-0.1624572,-0.59376204,-0.095768064,-9.500193,0.9612189,47.690468,-1.2503538,-2.4116554,-3.5543122,-0.21687533,-0.39872846,-0.17194887,29.0,30.4375,29.4375,33.0,35.5,36.5625
0.2760547,-0.3991535,0.23541468,-1.5533603,-0.0066316905,0.09085998,-0.1598822,-0.4066531,-0.36324874,0.0600643,-3.075073,0.62761146,7.801082e-06,-0.124170154,0.042159837,-0.0027592673,0.03001899,-0.014787545,-0.012625167,0.48155385,-1.3600873,1.8765677,-2.0838249,-1.5731648,2.4587016,-0.16741754,0.16493554,-0.20742248,0.06919543,-0.020352868,-0.15462565,-0.47884035,-0.21068975,-9.461885,0.9164598,47.719128,-1.2271245,-2.430622,-3.516018,-0.21361445,-0.3972928,-0.2386232,29.0,30.4375,29.4375,33.0,35.5,36.5625
0.278055,-0.34622756,0.109434836,-1.3961523,0.008734023,0.076553635,-0.16309108,-0.40693173,-0.36318597,0.060090277,-3.075077,0.6276504,8.634684e-05,-0.12573943,0.041935675,-0.002463899,0.030416634,-0.014259096,-0.016017312,0.48121825,-1.3597747,1.8761114,-2.083728,-1.5731887,2.45839,-0.16794404,0.16752659,-0.21152972,0.07042628,-0.020952357,-0.15175718,-0.32561144,-0.095768064,-9.308657,0.8314132,47.69763,-1.2579411,-2.4805348,-3.3252888,-0.23016463,-0.3970954,-0.3104014,29.0,30.4375,29.4375,33.0,35.5,36.5625
0.28005457,-0.5205206,0.17126644,-1.2191801,0.0014298597,0.0777151,-0.16062714,-0.4071922,-0.3631116,0.06009148,-3.0750208,0.62769634,0.00011423631,-0.12508467,0.04228681,-0.0021287254,0.03183867,-0.016774118,-0.01684282,0.48089427,-1.3594393,1.8756808,-2.0836184,-1.5732368,2.4581022,-0.1677913,0.16728318,-0.2131055,0.07512206,-0.021051133,-0.15077816,-0.3256114,-0.095768064,-9.232041,0.85826975,47.696735,-1.3252454,-2.4121234,-3.2939196,-0.29043669,-0.39359087,-0.32386315,29.0,30.4375,29.4375,33.0,35.5,36.5625
0.2820547,-0.20547539,0.64887667,-1.305339,-0.0027400078,0.08036183,-0.1738037,-0.40742716,-0.36301434,0.06009971,-3.0749266,0.62765723,9.8458564e-05,-0.12774402,0.042340077,-0.0007014531,0.030158782,-0.012073403,-0.01773115,0.4805696,-1.3591514,1.8752736,-2.0834286,-1.5733093,2.4577656,-0.16968043,0.16721915,-0.21581869,0.07293698,-0.021767871,-0.15177402,-0.28730422,0.076614454,-9.11712,0.8717007,47.696735,-1.3503876,-2.2533183,-3.3200479,-0.28421345,-0.39586592,-0.37626618,29.0,30.4375,29.4375,33.0,35.5,36.5625
0.2840544,-0.9606387,-0.09497948,-1.4737822,-6.0234157e-05,0.0589866,-0.15360202,-0.40768775,-0.3629106,0.060088947,-3.0748043,0.62780523,4.1029893e-05,-0.12877683,0.04384931,-0.00095939235,0.031797353,-0.012393876,-0.01995856,0.48019677,-1.3588036,1.874842,-2.0832603,-1.5733575,2.4575012,-0.17218938,0.16794495,-0.21633913,0.07376184,-0.02309491,-0.15204889,-0.038307227,0.05746084,-9.232041,0.9231726,47.686886,-1.254648,-2.2551825,-3.278095,-0.3125672,-0.3834744,-0.38029295,29.0,30.4375,29.4375,33.0,35.5,36.5625
0.28605503,-0.76563805,-1.2448622,-1.4552206,-0.018913621,0.060894605,-0.15696874,-0.40796176,-0.3627979,0.060091328,-3.0747163,0.6278031,5.0269307e-05,-0.13013898,0.044520143,-0.0018553606,0.032419585,-0.013105298,-0.015506512,0.47981235,-1.3584787,1.874411,-2.0831048,-1.57343,2.457127,-0.17423359,0.1709631,-0.21783717,0.07312398,-0.023354515,-0.15854219,-0.095768064,0.095768064,-9.308656,0.8918391,47.689575,-1.1746465,-2.270824,-3.207052,-0.32247096,-0.39571506,-0.3430251,29.0,30.4375,29.4375,33.0,35.5,36.5625
0.28805438,-0.76089644,-1.3999233,-1.1361346,-0.05133951,0.06586064,-0.1552642,-0.40821764,-0.36273226,0.060099915,-3.0746653,0.62784404,5.5490662e-05,-0.13178594,0.043820817,-0.00043284468,0.029969087,-0.008530254,-0.006564627,0.4795003,-1.3581433,1.8739561,-2.0829623,-1.5734657,2.4568474,-0.17441078,0.17005756,-0.2194127,0.07037784,-0.023332568,-0.16766042,-0.1340753,0.15322891,-9.174581,0.8179876,47.65464,-1.2360759,-2.1342852,-3.2223718,-0.31813604,-0.39465833,-0.2665559,29.0,30.4375,29.4375,33.0,35.5,36.5625
0.290055,-0.44732502,-1.1574607,-1.5284814,-0.0490788,0.074816905,-0.16717368,-0.40849206,-0.36264116,0.060110524,-3.074625,0.6278508,9.087538e-06,-0.13439146,0.044348426,0.00096238963,0.028355328,-0.0034536286,3.3247096e-07,0.47911537,-1.357808,1.8734883,-2.082784,-1.5734781,2.4564722,-0.17686604,0.16912623,-0.22085632,0.06747199,-0.024286676,-0.1766757,-0.11492168,0.22984336,-9.308657,0.89631605,47.66271,-1.1135309,-2.111093,-3.2941523,-0.30064213,-0.36747968,-0.13802981,29.0,30.4375,29.4375,33.0,35.5,36.5625
0.2920545,-0.5213005,-1.4216478,-1.6152861,-0.04737997,0.093067974,-0.17481652,-0.40874422,-0.36254078,0.060100935,-3.074528,0.6278486,3.0861313e-05,-0.13583201,0.04507127,0.0011719142,0.028574497,-0.0018935243,0.0015990329,0.47877866,-1.3574841,1.8730935,-2.0826643,-1.5735625,2.456147,-0.17865145,0.1697021,-0.22187637,0.06660363,-0.025225872,-0.18005481,-0.05746084,0.22984336,-9.3661175,0.87393653,47.711063,-1.1179202,-2.0143867,-3.296207,-0.29975122,-0.3500371,-0.08200835,29.0,30.4375,29.4375,33.0,35.5,36.5625
0.29405484,-1.4871227,-1.380589,-1.6358758,-0.049591437,0.07878185,-0.15798163,-0.40900853,-0.36245432,0.06008153,-3.074484,0.627785,-2.042175e-05,-0.13855997,0.0449794,0.0013364519,0.026595484,0.0028524331,-0.003180472,0.47841805,-1.3571118,1.8726629,-2.0825465,-1.5735868,2.4557526,-0.18048391,0.17137377,-0.2230566,0.06098496,-0.02567901,-0.1771037,-0.17238252,0.17238252,-9.385271,0.9791215,47.70211,-1.0528669,-2.018208,-3.4164937,-0.22912836,-0.33873987,-0.050310753,29.0,30.4375,29.4375,33.0,35.5,36.5625
0.29605457,-0.84526145,-0.8819229,-1.6245414,-0.043561075,0.09048239,-0.16085434,-0.4092721,-0.3623496,0.060079902,-3.0743804,0.6278649,-1.0229076e-05,-0.14076802,0.046283476,-9.039128e-05,0.026997747,0.0026800178,-0.013418179,0.47805697,-1.3567872,1.8722438,-2.082404,-1.5736588,2.455455,-0.18430139,0.17520194,-0.22387266,0.058309127,-0.025961746,-0.17068024,-0.30645782,0.15322891,-9.442732,0.8806493,47.70032,-1.0562887,-2.004665,-3.4493937,-0.19574901,-0.3210633,-0.12297447,29.0,30.4375,29.4375,33.0,35.5,36.5625
0.2980542,-0.8678493,-0.7440239,-1.7680094,-0.035796627,0.09186228,-0.1606714,-0.4095667,-0.36225882,0.060092837,-3.0743299,0.6279539,7.538937e-05,-0.14103276,0.04594087,0.00055248244,0.027288934,0.0032509246,-0.020869901,0.4776854,-1.3564514,1.8717884,-2.0823076,-1.5737194,2.4551458,-0.18352069,0.17535445,-0.22590868,0.059826292,-0.02646417,-0.16244592,-0.24899697,0.17238252,-9.481039,0.83589023,47.68062,-1.099555,-2.008025,-3.4740462,-0.20146653,-0.32517433,-0.1872113,29.0,30.4375,29.4375,33.0,35.5,36.5625
0.30005434,-0.7634505,-0.97902375,-1.6679602,-0.03320487,0.09325851,-0.15834124,-0.40983355,-0.36217642,0.060069855,-3.0742543,0.62795955,1.9420739e-05,-0.14204793,0.046184476,-0.00072112365,0.02804011,0.0028974675,-0.026196687,0.47733703,-1.3560545,1.871333,-2.0821764,-1.5737551,2.454811,-0.1843768,0.17879258,-0.22679591,0.057935156,-0.026979767,-0.15797052,-0.34476504,0.19153613,-9.500193,0.8247004,47.70211,-1.0171878,-2.2073886,-3.5258045,-0.16470774,-0.32816935,-0.26982078,29.0,30.4375,29.4375,33.0,35.5,36.5625
0.3020547,-0.63229865,-0.9103267,-1.7984352,-0.040615145,0.098535195,-0.16667643,-0.41013503,-0.36208838,0.060109433,-3.0742068,0.6280678,0.00011753296,-0.14359806,0.046614733,-0.0015237543,0.028210934,0.0028169048,-0.03315777,0.47696432,-1.3557414,1.8708309,-2.0820215,-1.5738152,2.4545124,-0.18624341,0.18192942,-0.22851649,0.05666577,-0.027087642,-0.15287547,-0.34476504,0.19153613,-9.653421,0.90750587,47.704796,-0.9449066,-2.2993896,-3.5511847,-0.12004494,-0.30444607,-0.3652557,29.0,30.4375,29.4375,33.0,35.5,36.5625
0.30405438,-0.9114025,-0.89959145,-1.7468385,-0.060045324,0.09420474,-0.16774459,-0.41040823,-0.3619904,0.06010551,-3.0741372,0.6281503,0.00013235502,-0.14348795,0.046706118,-0.0021031362,0.028678847,0.00046101565,-0.035586257,0.4765922,-1.3554052,1.8704103,-2.0819128,-1.5738629,2.454201,-0.18658099,0.18363537,-0.22971563,0.05845406,-0.026423628,-0.15078601,-0.40222588,0.11492168,-9.653421,0.91198283,47.71286,-1.0138642,-2.3215876,-3.4538798,-0.105703495,-0.32501978,-0.4508395,29.0,30.4375,29.4375,33.0,35.5,36.5625
0.30605432,-0.85258836,-1.1482196,-1.6830016,-0.05900311,0.103327215,-0.1751436,-0.41070563,-0.36190033,0.060092807,-3.0740469,0.628243,0.00014334233,-0.14428405,0.04630653,-0.0021698303,0.029289007,0.0003097318,-0.032449678,0.47622043,-1.3549967,1.8699197,-2.081793,-1.5739235,2.4538991,-0.18616855,0.18604048,-0.23276316,0.059485257,-0.02691787,-0.15350604,-0.45968673,0.11492168,-9.595961,0.93436235,47.709274,-1.109664,-2.4451401,-3.5013328,-0.08323364,-0.28824127,-0.49250704,29.0,30.4375,29.4375,33.0,35.5,36.5625
0.3080548,-0.92879623,-1.2608464,-1.4450235,-0.047718186,0.117636405,-0.17148754,-0.4110166,-0.36179078,0.06009042,-3.073984,0.62837493,0.0001599309,-0.14388035,0.044940334,-0.0013411673,0.029511236,0.001889962,-0.017798811,0.4757895,-1.3546249,1.8694524,-2.0816848,-1.5739592,2.453559,-0.18280539,0.18587612,-0.23466833,0.060202505,-0.027877042,-0.16478927,-0.4213795,0.2873042,-9.5385,0.87393653,47.64837,-1.33077,-2.2983289,-3.4970598,-0.08257125,-0.26640046,-0.40496436,29.0,30.4375,29.4375,33.0,35.5,36.5625
0.3100551,-1.4013101,-0.8741912,-1.4553845,-0.037547965,0.12120709,-0.17457421,-0.41127586,-0.3617212,0.060077976,-3.0739279,0.6283548,0.0001618571,-0.14381927,0.04453359,-0.0013774164,0.029908167,0.0016382413,-0.0037749275,0.4754779,-1.354253,1.869008,-2.081577,-1.5740074,2.4532423,-0.18178573,0.18675329,-0.2358536,0.060858496,-0.028157607,-0.17779118,-0.4405331,0.30645782,-9.481039,0.8403672,47.675243,-1.4091413,-2.4805436,-3.5124583,-0.065330856,-0.25303006,-0.3173067,29.0,30.4375,29.4375,33.0,35.5,36.5625
0.31205496,-0.8540081,-0.53610027,-1.6598624,-0.018180061,0.12345142,-0.18699282,-0.411581,-0.3616315,0.06008827,-3.0739026,0.6282899,0.00020295502,-0.14577053,0.04492483,-0.0004675032,0.028925374,0.0031351428,0.0011043967,0.47509307,-1.353881,1.8685058,-2.081445,-1.5740551,2.4528205,-0.18408555,0.1873564,-0.23883517,0.061413098,-0.027996564,-0.18497002,-0.34476504,0.24899697,-9.595961,0.8806493,47.704796,-1.4622089,-2.3879817,-3.5228705,-0.044804387,-0.2443529,-0.20796968,29.0,30.4375,29.4375,33.0,35.5,36.5625
0.31405506,-1.0931044,-0.5883861,-1.4244041,-0.026985409,0.10013716,-0.17579108,-0.4119002,-0.36155447,0.060121153,-3.0738857,0.6283241,0.00035975128,-0.14733365,0.045438517,-0.00045584634,0.028550945,0.0023894182,0.0015483906,0.47473234,-1.353533,1.8679899,-2.0813496,-1.5741271,2.4524837,-0.18656151,0.18945427,-0.24173643,0.062673286,-0.027323421,-0.18789352,-0.38307226,0.21068975,-9.481039,0.9567419,47.69763,-1.4239599,-2.2583897,-3.4336402,-0.032366153,-0.23150867,-0.14468373,29.0,30.4375,29.4375,33.0,35.5,36.5625
0.31605488,-0.9600542,-0.9160556,-1.4706149,-0.030138234,0.07303159,-0.15617631,-0.41220987,-0.36144635,0.06010848,-3.0737867,0.62836355,0.00039304118,-0.1495576,0.046231277,0.00038970695,0.028915472,0.0034900315,-0.005089255,0.47433573,-1.3531249,1.8674988,-2.0812285,-1.5742115,2.4521248,-0.18915394,0.19076289,-0.24572049,0.064527005,-0.028156336,-0.18384267,-0.28730422,0.19153613,-9.32781,0.8985519,47.70211,-1.3808444,-2.2685351,-3.3494396,-0.027267858,-0.22618064,-0.1677916,29.0,30.4375,29.4375,33.0,35.5,36.5625
0.31805444,-0.21575053,-0.55547494,-1.6869576,-0.020900771,0.058643892,-0.1732518,-0.41248876,-0.36134976,0.060097944,-3.0737042,0.62842727,0.00037694225,-0.14996195,0.04743251,0.0008084226,0.03036571,0.002723823,-0.013173937,0.4739631,-1.352753,1.8670439,-2.081096,-1.5742596,2.451803,-0.19080624,0.19023453,-0.24674626,0.06743193,-0.029089177,-0.17740518,-0.2681506,0.17238252,-9.346964,0.8985519,47.674347,-1.3801978,-2.1822712,-3.3145924,-0.030033533,-0.19684198,-0.21778779,29.0,30.4375,29.4375,33.0,35.5,36.5625
0.32005498,-0.6659261,-0.8481812,-1.394627,-0.013685663,0.039135613,-0.16720358,-0.41279638,-0.3612555,0.060105115,-3.0736701,0.6284233,0.00036534687,-0.14977226,0.047824893,0.00085861486,0.032216445,5.2553005e-05,-0.018906986,0.47355512,-1.3523692,1.8665284,-2.0809386,-1.5742835,2.4513972,-0.19089545,0.19134587,-0.24931997,0.07212151,-0.0295076,-0.17175817,-0.30645782,0.095768064,-9.193734,0.8806493,47.67345,-1.3343447,-2.3047025,-3.4229298,-0.065889135,-0.16765714,-0.30657887,29.0,30.4375,29.4375,33.0,35.5,36.5625
0.32205412,-0.09157157,-0.7356511,-1.3150961,-0.005373892,0.053345356,-0.1659169,-0.41310894,-0.36116534,0.060112182,-3.073602,0.6284498,0.00048213577,-0.15002795,0.04925838,-4.2187763e-05,0.033785224,-0.0042343577,-0.024208048,0.47319418,-1.3519849,1.8660263,-2.0808413,-1.5743798,2.451062,-0.19371186,0.19340055,-0.25068164,0.07593947,-0.028939812,-0.16927594,-0.21068975,0.05746084,-9.251195,0.9455522,47.716442,-1.2241234,-2.2262387,-3.4016805,-0.10271162,-0.15679988,-0.3430279,29.0,30.4375,29.4375,33.0,35.5,36.5625
0.32405484,-0.40155053,0.0009914051,-1.1410433,-0.00635179,0.049408324,-0.17063166,-0.41338974,-0.36107332,0.060110074,-3.0735185,0.62849003,0.00042321315,-0.15051909,0.051457506,-0.0010373032,0.035548106,-0.009170319,-0.027176075,0.4728208,-1.3516006,1.8655232,-2.0806482,-1.5744156,2.4507248,-0.1980734,0.19520943,-0.2516488,0.08027101,-0.028276723,-0.17066978,-0.21068975,-0.05746084,-9.136273,0.9612189,47.682407,-1.2096993,-2.2155998,-3.382601,-0.14164397,-0.15149577,-0.35109365,29.0,30.4375,29.4375,33.0,35.5,36.5625
0.32605472,-0.5938018,0.31749907,-1.1232922,0.026285298,0.043199785,-0.17428835,-0.4136885,-0.3609445,0.060071852,-3.0733593,0.6286089,0.00036947336,-0.15132236,0.052081484,-0.0013945037,0.036242116,-0.011745928,-0.025802314,0.4723999,-1.3511683,1.865055,-2.0805042,-1.574499,2.4503992,-0.19997689,0.19759461,-0.25447518,0.08328165,-0.027759386,-0.1739452,-0.15322891,-0.11492168,-9.193734,0.8873621,47.68599,-1.0618405,-2.2425246,-3.428689,-0.16727874,-0.15080528,-0.37661928,29.0,30.4375,29.4375,33.0,35.5,36.5625
0.3280543,-0.1984287,0.7153659,-1.0525401,0.027740726,0.049338438,-0.17788461,-0.41399398,-0.3608685,0.060078412,-3.0733502,0.6286602,0.00033646438,-0.15221044,0.05277069,-0.00083742314,0.03566137,-0.0128322495,-0.019395946,0.47200334,-1.3507727,1.864529,-2.0803597,-1.5744866,2.450036,-0.20232992,0.19773294,-0.25656697,0.08589394,-0.026783532,-0.1827079,-0.095768064,-0.15322891,-9.232041,0.9097417,47.686886,-0.99378675,-2.203773,-3.4150503,-0.21588624,-0.14553213,-0.32751906,29.0,30.4375,29.4375,33.0,35.5,36.5625
0.33005536,-0.11601359,0.78570765,-0.83758646,0.016319243,0.057220783,-0.1800454,-0.414278,-0.3607474,0.06008019,-3.0732462,0.6286341,0.0002729659,-0.15273441,0.054549016,-0.0025325168,0.03724659,-0.0168434,-0.012644578,0.47159427,-1.3504119,1.8640374,-2.0801318,-1.5745467,2.4496245,-0.20582366,0.20058823,-0.25653774,0.08724128,-0.026427928,-0.19295189,-0.095768064,-0.1340753,-9.212888,0.8560339,47.687782,-1.000967,-2.1014736,-3.419076,-0.25093794,-0.13435437,-0.19965383,29.0,30.4375,29.4375,33.0,35.5,36.5625
0.3320549,-0.2521886,0.27362213,-0.8575564,0.0057679475,0.055931237,-0.18062004,-0.41462588,-0.36063188,0.06010165,-3.0731585,0.62872684,0.00037748137,-0.1534491,0.053979665,-0.0016433957,0.03587596,-0.015277637,-0.007054126,0.47116223,-1.3500164,1.8634752,-2.0799763,-1.574643,2.4492621,-0.20560938,0.20040987,-0.25840622,0.08721867,-0.025948126,-0.19833007,-0.2681506,-0.15322891,-9.11712,0.8717007,47.703903,-1.0424513,-2.0762484,-3.4351225,-0.27905282,-0.13148268,-0.11843069,29.0,30.4375,29.4375,33.0,35.5,36.5625
0.33405435,-0.7651582,-0.7229403,-0.8505682,-0.0106193,0.066022836,-0.16677314,-0.4149149,-0.360532,0.060075674,-3.0730917,0.6286742,0.00025228638,-0.15325084,0.052585684,-0.0007295093,0.035558827,-0.014888958,-0.0057084146,0.47075528,-1.3495845,1.8629707,-2.0797956,-1.5746545,2.4488313,-0.20301433,0.2008189,-0.26155752,0.089462996,-0.025873424,-0.19707742,-0.30645782,-0.11492168,-9.097966,0.9186956,47.692257,-1.0418947,-2.0123315,-3.407794,-0.3040877,-0.12957233,-0.060744476,29.0,30.4375,29.4375,33.0,35.5,36.5625
0.33605444,-0.9754291,-0.5409548,-1.1051964,-0.027779227,0.076082334,-0.17269753,-0.4152195,-0.36043328,0.06006994,-3.0730038,0.62869716,0.00020815906,-0.15494357,0.050938826,-0.00038233135,0.033194352,-0.010978808,-0.011889032,0.47035962,-1.349164,1.8624319,-2.0796058,-1.5747026,2.4484618,-0.20175557,0.20305492,-0.26420212,0.08532341,-0.025556998,-0.18963635,-0.47884035,-0.019153614,-9.11712,0.91421866,47.684196,-1.2226982,-2.1534703,-3.3727288,-0.30744606,-0.11397056,-0.14783859,29.0,30.4375,29.4375,33.0,35.5,36.5625
0.33805493,-1.5162877,-1.6751581,-1.0747632,-0.02081358,0.09630149,-0.16027136,-0.41548645,-0.3603223,0.060067095,-3.0728981,0.62862134,8.959932e-05,-0.15605105,0.050253984,-4.6590234e-05,0.031386927,-0.008823188,-0.020253608,0.46997562,-1.3487923,1.8619293,-2.079343,-1.5747503,2.4480445,-0.20179899,0.20393294,-0.26560026,0.083115645,-0.024938716,-0.18131413,-0.4596867,0.076614454,-9.232041,0.8672237,47.66091,-1.3609502,-2.1554396,-3.3740473,-0.26438025,-0.10902892,-0.23835757,29.0,30.4375,29.4375,33.0,35.5,36.5625
0.34005466,-1.5560088,-1.635321,-1.2596573,-0.048333913,0.11481885,-0.16343816,-0.41578802,-0.36020967,0.06004788,-3.072782,0.6286972,4.2150074e-05,-0.15790547,0.05033217,-0.001309899,0.030730763,-0.009053971,-0.02844891,0.4695671,-1.3483711,1.8614253,-2.0791767,-1.5748104,2.4476988,-0.2037698,0.20839623,-0.2676632,0.08062635,-0.024263877,-0.17508939,-0.34476504,0.05746084,-9.270349,0.947788,47.66271,-1.3057158,-2.1391063,-3.2506049,-0.27394003,-0.12145871,-0.3159614,29.0,30.4375,29.4375,33.0,35.5,36.5625
0.342055,-0.92866313,-1.2655478,-1.2235382,-0.060287386,0.117095,-0.17329568,-0.41611817,-0.3600939,0.06004304,-3.0726633,0.6287909,0.00011607898,-0.16144189,0.04980908,-0.00034389706,0.027561251,-0.0033156928,-0.03636,0.46915826,-1.3479508,1.8608979,-2.079047,-1.5749182,2.4473643,-0.2058769,0.21020965,-0.27100903,0.07560251,-0.024044786,-0.16928448,-0.36391866,0.15322891,-9.346964,0.9186956,47.687782,-1.3399076,-2.1930878,-3.2913394,-0.20790467,-0.11851201,-0.42902982,29.0,30.4375,29.4375,33.0,35.5,36.5625
0.3440544,-1.449102,-1.9709347,-1.4815409,-0.05633473,0.08961225,-0.16716234,-0.41644308,-0.36001265,0.060050894,-3.07264,0.6289173,8.410528e-05,-0.1622728,0.048170518,0.00032705066,0.02547582,6.197924e-05,-0.03421758,0.46873894,-1.3475307,1.8603357,-2.078892,-1.5749058,2.4470272,-0.20387106,0.21094432,-0.27286825,0.072762415,-0.0237301,-0.16942157,-0.34476504,0.26815057,-9.423578,0.96569055,47.670765,-1.4022744,-2.2988858,-3.299354,-0.16799378,-0.11932524,-0.48329103,29.0,30.4375,29.4375,33.0,35.5,36.5625
0.3460542,-0.57266927,-1.6260669,-1.3924663,-0.08036666,0.100506835,-0.18338698,-0.41674894,-0.35989866,0.06003372,-3.0725102,0.628943,0.00011154874,-0.16258417,0.049081873,-0.00093708665,0.025820192,-0.00082048983,-0.026667792,0.46835464,-1.3471109,1.8598336,-2.078749,-1.575014,2.4466763,-0.20552896,0.21230417,-0.27125806,0.070668995,-0.023685295,-0.17862871,-0.40222588,0.4405331,-9.423578,0.94331104,47.672558,-1.3619153,-2.2698665,-3.3624334,-0.12532207,-0.10142946,-0.4751649,29.0,30.4375,29.4375,33.0,35.5,36.5625
0.3480549,-1.008061,-2.094451,-1.7266581,-0.076345004,0.08171574,-0.18376952,-0.41704434,-0.35978383,0.05999997,-3.0724003,0.62897015,-5.948067e-06,-0.16371137,0.049482066,-0.0005556492,0.02448018,0.0008300841,-0.016441336,0.46793416,-1.3466673,1.859332,-2.0785701,-1.5750498,2.4462874,-0.20722482,0.21197948,-0.2714528,0.069042586,-0.023305416,-0.19055043,-0.2681506,0.5363012,-9.5385,0.8851263,47.661808,-1.3967974,-2.316621,-3.6045485,-0.08512308,-0.11359018,-0.35683328,29.0,30.4375,29.4375,33.0,35.5,36.5625
0.3500544,-0.2641562,-1.4826463,-1.6913097,-0.10721272,0.0994274,-0.19695157,-0.4174086,-0.35970765,0.06002019,-3.0724142,0.6289883,8.2118684e-05,-0.163757,0.051437628,-0.0029947772,0.027667874,-0.0062231626,-0.008283942,0.46751285,-1.3462222,1.8587211,-2.078461,-1.5750736,2.445876,-0.21052381,0.21668477,-0.2726439,0.07319712,-0.02299713,-0.20200896,-0.22984336,0.47884035,-9.519346,0.8985519,47.66091,-1.3133681,-2.2324984,-3.7118363,-0.102041826,-0.11524079,-0.21762581,29.0,30.4375,29.4375,33.0,35.5,36.5625
0.35205498,-0.88058525,-1.7859197,-1.7354798,-0.1005107,0.080521435,-0.18830194,-0.41774845,-0.3596062,0.06002125,-3.072337,0.6290669,0.00010833371,-0.16598177,0.0521332,-0.0020992418,0.025604555,-0.0033130257,-0.007144518,0.4670922,-1.345779,1.8581461,-2.0783064,-1.5751332,2.4455147,-0.21368884,0.21632648,-0.27388975,0.07123204,-0.022499241,-0.20631522,-0.4405331,0.40222588,-9.481039,0.9545008,47.70211,-1.2338063,-2.2199652,-3.6751666,-0.08640237,-0.11879747,-0.13595349,29.0,30.4375,29.4375,33.0,35.5,36.5625
0.35405457,-0.55119514,-1.2743936,-1.510403,-0.09260516,0.107514635,-0.19238481,-0.41808736,-0.3594983,0.06002495,-3.0722942,0.6290981,0.00012241097,-0.1679808,0.0516911,-0.0004222907,0.02341357,-8.186389e-05,-0.012026541,0.46664745,-1.345359,1.8575953,-2.0781624,-1.575169,2.4450953,-0.21476084,0.21611963,-0.27752134,0.0711973,-0.022000557,-0.20250633,-0.47884035,0.40222588,-9.461885,0.9545008,47.694946,-1.0773886,-2.2505689,-3.6408057,-0.03747958,-0.13205466,-0.1250407,29.0,30.4375,29.4375,33.0,35.5,36.5625
0.3560545,-0.6229891,-1.1056328,-1.7539465,-0.05886154,0.11171729,-0.17584684,-0.4183847,-0.35938746,0.059965786,-3.0721676,0.6291362,-5.219936e-05,-0.16923155,0.052857302,0.00033072886,0.023385134,-0.0015116984,-0.02270785,0.46622628,-1.3448555,1.8570799,-2.0779927,-1.5751933,2.4447148,-0.2179952,0.21638405,-0.28056377,0.075256735,-0.02133964,-0.19505854,-0.45968673,0.36391866,-9.5385,0.9321212,47.698532,-0.9738412,-2.2011404,-3.6238399,-0.061531633,-0.12707296,-0.21442595,29.0,30.4375,29.4375,33.0,35.5,36.5625
0.35805508,-0.73969936,-0.6753469,-1.920339,-0.027834056,0.10011471,-0.179109,-0.41876507,-0.35928866,0.059998337,-3.072168,0.62917733,7.892153e-05,-0.17165035,0.052545268,0.00057646615,0.021770392,0.0007714486,-0.02986195,0.46576977,-1.3444347,1.8564681,-2.0778744,-1.575241,2.4442842,-0.21957257,0.21908313,-0.28404233,0.073276095,-0.0209065,-0.18948399,-0.30645782,0.24899697,-9.653421,0.8873621,47.661808,-0.91164505,-2.2782304,-3.5080128,-0.020934574,-0.13598402,-0.3061867,29.0,30.4375,29.4375,33.0,35.5,36.5625
0.36005464,-0.7973507,-0.7846797,-1.8715557,-0.019005356,0.09232078,-0.17158294,-0.41911873,-0.35918635,0.06000272,-3.0720885,0.62929577,0.000117630174,-0.17180839,0.051818002,0.0008003304,0.021108985,0.00021956088,-0.032031063,0.46533772,-1.3439783,1.8558682,-2.0777185,-1.575301,2.4439368,-0.21881236,0.22024135,-0.28635058,0.074612945,-0.020065822,-0.18655789,-0.40222588,0.15322891,-9.595961,0.9254084,47.675243,-0.8620954,-2.5044918,-3.4475055,0.0035687063,-0.15222852,-0.35225353,29.0,30.4375,29.4375,33.0,35.5,36.5625
0.36205474,-1.1221493,-1.0363003,-1.5012047,-0.022513086,0.0898735,-0.1675039,-0.41945523,-0.35910743,0.06000005,-3.07208,0.62929267,0.00012237945,-0.1726599,0.05132784,0.0015748657,0.021279646,0.0001419903,-0.030567814,0.4649301,-1.3435228,1.8552932,-2.0775974,-1.5753125,2.4435287,-0.21845035,0.22167388,-0.29060262,0.07756412,-0.020193897,-0.18765716,-0.40222588,0.05746084,-9.423578,0.9679317,47.70211,-1.0019808,-2.3979483,-3.3419538,0.014545046,-0.18166673,-0.3908461,29.0,30.4375,29.4375,33.0,35.5,36.5625
0.36405513,-0.32342628,0.110187374,-1.7105713,-0.020060617,0.091643885,-0.1883109,-0.41981277,-0.35899982,0.06000954,-3.072022,0.6293305,0.00017183475,-0.17194262,0.051401764,0.00010629264,0.02443069,-0.0041992674,-0.022004228,0.46448705,-1.3430779,1.8546952,-2.0774405,-1.575373,2.4431171,-0.21723576,0.2254647,-0.29277906,0.08119247,-0.021093084,-0.19500077,-0.17238252,-0.17238252,-9.519346,0.9545008,47.67614,-1.190012,-2.5274553,-3.31746,-0.009866722,-0.1757805,-0.3518231,29.0,30.4375,29.4375,33.0,35.5,36.5625
0.36605477,-0.5636637,-0.032584675,-2.0054197,0.014192409,0.052527424,-0.17841867,-0.42015606,-0.35889417,0.05999581,-3.071927,0.62936294,0.00017725813,-0.171719,0.052237377,-0.00059611193,0.026846264,-0.008298423,-0.0120932385,0.46406683,-1.3425977,1.8541068,-2.0772831,-1.5754455,2.44273,-0.21803072,0.22764406,-0.29498613,0.08589601,-0.02146577,-0.20570336,-0.095768064,-0.11492168,-9.634268,0.91198283,47.683304,-1.207972,-2.5115237,-3.2994854,-0.040212628,-0.17471424,-0.24340451,29.0,30.4375,29.4375,33.0,35.5,36.5625
0.36805436,-0.5550608,-0.36498237,-1.4941351,0.009237674,0.04760612,-0.16854069,-0.42050362,-0.3587835,0.059985638,-3.0718837,0.6293692,0.00011889417,-0.16948244,0.05395503,-0.0023619926,0.030579131,-0.015018245,-0.005317785,0.4635985,-1.3421298,1.8535222,-2.0771139,-1.5754575,2.4422715,-0.21860333,0.22818099,-0.29283166,0.090839535,-0.02182963,-0.21304956,-0.24899697,-0.1340753,-9.5385,0.8403672,47.661808,-1.2371705,-2.6101546,-3.349621,-0.09011842,-0.17805806,-0.109493606,29.0,30.4375,29.4375,33.0,35.5,36.5625
0.37005502,-0.042173456,0.33233795,-1.7917106,0.021291338,0.040762868,-0.17123525,-0.42086044,-0.35869324,0.060008716,-3.0718532,0.62936246,0.0001712802,-0.16839083,0.05431316,-0.0022101554,0.03213809,-0.0178458,-0.005325673,0.46317828,-1.341686,1.852889,-2.0769331,-1.5755051,2.4418514,-0.2180177,0.22768633,-0.29368082,0.0953942,-0.021959523,-0.2124557,-0.22984336,-0.26815057,-9.461885,0.9254084,47.64658,-1.2559743,-2.6643891,-3.5368319,-0.14602903,-0.17718992,-0.08352463,29.0,30.4375,29.4375,33.0,35.5,36.5625
0.37205455,0.27691326,0.76756334,-1.8257865,0.022794845,0.035896085,-0.17874041,-0.4211717,-0.35856944,0.05996632,-3.0717108,0.6294323,8.099367e-06,-0.16859189,0.055807877,-0.0032795523,0.035417844,-0.021977538,-0.013908357,0.46273416,-1.3411938,1.8523368,-2.0767157,-1.5755419,2.44147,-0.2198354,0.23048994,-0.29576337,0.09985397,-0.023065733,-0.20568071,-0.11492168,-0.3256114,-9.442732,0.9612189,47.68062,-1.288654,-2.569256,-3.6000924,-0.20144834,-0.16942158,-0.119809896,29.0,30.4375,29.4375,33.0,35.5,36.5625
0.37405515,0.339652,0.29813564,-1.2538959,0.010717783,0.04531728,-0.16861099,-0.42151606,-0.35846245,0.059972707,-3.071649,0.6294813,-8.269091e-06,-0.16920854,0.055912312,-0.0034106094,0.03648133,-0.02325823,-0.022161383,0.46229014,-1.3407496,1.8517379,-2.0765235,-1.5755776,2.4410648,-0.22011234,0.23269874,-0.2988007,0.10232591,-0.023440653,-0.19770062,0.038307227,-0.34476504,-9.3661175,0.9835985,47.67614,-1.3194388,-2.5925837,-3.4594545,-0.2425716,-0.18257895,-0.22628993,29.0,30.4375,29.4375,33.0,35.5,36.5625
0.3760548,0.5741376,0.3526112,-1.1497687,0.011826198,0.045349613,-0.18309672,-0.42186746,-0.3583451,0.059959028,-3.071531,0.6295583,-3.2269745e-05,-0.17125018,0.056854792,-0.0023933572,0.03594111,-0.021840837,-0.03407544,0.4618452,-1.3402579,1.8511266,-2.0763319,-1.5756496,2.4406838,-0.22310328,0.23288825,-0.30171806,0.10356422,-0.023588601,-0.18877426,0.05746084,-0.28730422,-9.251195,0.90750587,47.67614,-1.2976978,-2.5710936,-3.4167242,-0.28298223,-0.18977737,-0.347659,29.0,30.4375,29.4375,33.0,35.5,36.5625
0.3780543,0.028166959,0.05926385,-1.4190701,0.020582657,0.019580716,-0.16262013,-0.422232,-0.35824656,0.05999293,-3.0714805,0.629629,-1.5875585e-05,-0.17535986,0.05769045,0.0003158653,0.0334985,-0.015141963,-0.043250337,0.4613998,-1.3398148,1.8504556,-2.0760925,-1.5756863,2.4402895,-0.22722529,0.23158054,-0.30603322,0.10211232,-0.024395244,-0.18371573,-0.095768064,-0.21068975,-9.232041,0.8806493,47.655537,-1.205426,-2.6409361,-3.2947311,-0.29599863,-0.19076473,-0.43523708,29.0,30.4375,29.4375,33.0,35.5,36.5625
