Tylouw/Master_Thesis_Code/training_data/batch_1/rect_rod_t0.2/sample_87_session_3.csv
timestamp[s],tcp_force_x[N],tcp_force_y[N],tcp_force_z[N],tcp_force_rx[Nm?],tcp_force_ry[Nm?],tcp_force_rz[Nm?],tcp_pose_x[m],tcp_pose_y[m],tcp_pose_z[m],tcp_pose_rx[rot_vec_x],tcp_pose_ry[rot_vec_y],tcp_pose_rz[rot_vec_z],tcp_velo_x[m/s],tcp_velo_y[m/s],tcp_velo_z[m/s],tcp_velo_rx[rot_vec_x/s],tcp_velo_ry[rot_vec_y/s],tcp_velo_rz[rot_vec_z/s],q1[rad],q2[rad],q3[rad],q4[rad],q5[rad],q6[rad],qd1[rad/s],qd2[rad/s],qd3[rad/s],qd4[rad/s],qd5[rad/s],qd6[rad/s],tool_acc_x,tool_acc_y,tool_acc_z,current_of_whole_robot[A],voltage_of_whole_robot[V],current_J1[A],current_J2[A],current_J3[A],current_J4[A],current_J5[A],current_J6[A],temp_J1[C],temp_J2[C],temp_J3[C],temp_J4[C],temp_J5[C],temp_J6[C]
1.0780004e-06,0.353122,-0.3850146,1.0359589,-0.009561564,0.0075009735,-0.014426804,-0.389337,-0.36872357,0.060020987,-3.078717,0.6249882,0.00021016352,0.00026998387,0.00017689608,-7.471542e-05,0.000389152,-0.0009266407,-2.4395324e-05,0.50503284,-1.3816679,1.9041985,-2.0919034,-1.5708417,2.480061,-0.000113877184,-5.9022797e-05,-3.4985524e-07,0.0010582012,0.00011024635,-8.976028e-05,0.0,0.114921674,-8.734048,0.7620334,47.696735,-0.20830393,-3.1321635,-2.2503798,-0.18513787,0.16253975,-0.0042788256,29.0,30.375,29.375,33.0,35.4375,36.5625
0.002052738,0.14264885,-0.16353045,1.0361654,-0.008913832,0.012136334,-0.018169207,-0.38932225,-0.36872247,0.060000997,-3.0787106,0.6249487,0.00018394718,-0.0011319297,-0.0006032723,-0.0005493573,-0.0029789368,0.005134023,-2.3606144e-05,0.50504476,-1.3816559,1.9042362,-2.091931,-1.5708417,2.4800491,-0.000111066576,-7.9186617e-07,0.0033583627,-0.009292402,0.000108583714,-8.800495e-05,0.095768064,0.17238252,-8.63828,0.68146914,47.688675,-0.22806469,-3.0064006,-2.3678906,-0.14885455,0.15018263,0.00937252,29.0,30.375,29.375,33.0,35.4375,36.5625
0.004052069,-0.09528474,-0.1333742,1.1646932,-0.017389074,0.013069844,-0.015513615,-0.38933086,-0.3687113,0.059999857,-3.0787115,0.6249297,0.00023630842,-0.001522488,-0.00082222396,-0.0015490634,-0.0029103206,0.005003021,-2.2040713e-05,0.50503284,-1.3816669,1.90426,-2.0919673,-1.5708655,2.4800253,-0.00010839112,0.002293675,0.003424568,-0.0115052285,0.000106970496,-8.6316744e-05,0.038307227,0.21068975,-8.6574335,0.7329411,47.705692,-0.16263771,-3.3013706,-2.5929837,-0.033758834,0.1668494,0.017131012,29.0,30.375,29.375,33.0,35.4375,36.5625
0.006052185,0.09951965,0.15793906,1.0933363,0.006623546,-0.0038432747,-0.014895595,-0.38933006,-0.3687153,0.059971306,-3.078708,0.62487096,0.00017957728,-0.0005602649,-0.00028790903,-0.0010763488,-0.0013146185,0.0021412678,-2.1440455e-05,0.50503284,-1.3816073,1.9042596,-2.0919893,-1.5708536,2.479989,-0.00010584184,0.0012197054,0.0023979913,-0.0061281165,0.00010540453,-8.469214e-05,0.05746084,0.22984336,-8.561666,0.7150385,47.707485,-0.20325899,-3.3509905,-2.5530262,-0.06736767,0.16002312,0.026112264,29.0,30.375,29.375,33.0,35.4375,36.5625
0.008052102,0.8309798,1.0332041,0.6546183,0.03348109,-0.01616773,-0.012461657,-0.3893335,-0.3687012,0.059999686,-3.0786793,0.6249998,0.00023318971,-0.00051530765,-0.00026296402,0.0008050897,-0.001545918,0.0025743125,-2.0626896e-05,0.5050208,-1.3816684,1.9042586,-2.0919516,-1.5708774,2.480061,-0.000103409584,-0.0015114587,0.00037711085,-0.0018669543,0.00010388376,-8.3127736e-05,-0.038307227,0.24899697,-8.7532015,0.7172743,47.704796,-0.17338678,-3.1613407,-2.4198425,-0.084390685,0.16151837,0.010036975,29.0,30.375,29.375,33.0,35.4375,36.5625
0.010052908,1.2173318,1.0350884,0.15741129,0.045731947,-0.013091772,-0.02062488,-0.38933975,-0.36869928,0.059980072,-3.0786815,0.6249623,0.00016541497,-0.00017008762,-6.4103595e-05,0.0006565366,-0.00074875145,0.0011422192,-3.3101296e-05,0.50499684,-1.3816202,1.9042462,-2.0919511,-1.5708536,2.4800134,-0.00011438377,-0.001245442,5.059423e-06,-0.00012189877,0.00010240616,-8.162001e-05,0.05746084,0.15322891,-8.887277,0.7038487,47.72719,-0.6770783,-2.6006074,-3.0295892,-0.076058835,0.12841976,-0.011600032,29.0,30.375,29.375,33.0,35.4375,36.5625
0.012052068,0.40455052,-0.08676106,0.024933172,0.020522635,-0.0050971517,-0.013015099,-0.389338,-0.3687027,0.05996817,-3.0786538,0.62501407,0.00010531283,0.0017305756,0.0011609249,-0.003542009,0.0050660702,-0.009325968,-0.00028671438,0.5049968,-1.381582,1.9042224,-2.0919254,-1.5708417,2.4800491,-0.00039405597,0.0059215776,6.787862e-08,0.004690876,8.918452e-05,-0.000107032385,0.15322891,0.095768064,-9.11712,0.7172743,47.717335,-0.7897893,-2.5552428,-3.181974,-0.10431334,0.12934428,-0.0638431,29.0,30.375,29.375,33.0,35.4375,36.5625
0.014052187,0.13862722,-0.69380623,-0.062439244,-0.021516481,0.022421744,-0.01825872,-0.38931185,-0.3687149,0.059955306,-3.0786443,0.6248625,3.2681262e-05,-0.003973313,0.0029569124,-0.0045895916,0.005559406,-0.010154721,-0.008293353,0.5050417,-1.3815546,1.9042085,-2.0918782,-1.5708417,2.4800007,-0.008729252,0.014259022,-0.0074923174,0.0048099025,4.2817832e-05,-0.00043114016,0.019153614,0.11492168,-9.232041,0.7463667,47.693153,-0.5050024,-3.2641907,-3.0858223,-0.09441973,0.10796588,-0.11287047,29.0,30.375,29.375,33.0,35.4375,36.5625
0.016052155,-0.6273985,-1.2603067,-0.16498405,-0.044341214,0.03940176,-0.02469416,-0.3893075,-0.3686907,0.05993654,-3.078601,0.62496483,-8.000348e-06,-0.0056486633,0.0031188906,-0.002177184,0.0033569697,-0.0061319317,-0.00037399502,0.50500506,-1.3815558,1.9042553,-2.0918896,-1.5708417,2.4800334,-0.010552874,0.011084598,-0.009326733,0.0052311975,1.9318366e-05,-0.010173882,-0.2681506,0.2873042,-9.385271,0.7172743,47.66091,-0.38673794,-2.994544,-3.104422,-0.08083785,0.08241302,-0.046437226,29.0,30.375,29.375,33.0,35.4375,36.5625
0.018051876,-1.1121076,-1.2525408,-0.37078768,-0.044971865,0.05706654,-0.03551084,-0.38929632,-0.3686803,0.059921253,-3.0785613,0.6248389,-9.6590265e-05,-0.0048621097,0.0030603015,-0.00208903,0.0039471155,-0.007157055,0.0043693976,0.5050054,-1.3815202,1.9042314,-2.0918171,-1.5708536,2.4799602,-0.009707097,0.010477361,-0.009182852,0.006876561,1.2613513e-06,-0.0140718,-0.4213795,0.30645782,-9.423578,0.7150385,47.672558,-0.61908615,-2.7484365,-3.2892942,-0.06224497,0.08002144,0.006121796,29.0,30.375,29.375,33.0,35.4375,36.5625
0.020052,-1.683062,-1.1356457,-0.6487867,-0.028713072,0.064294994,-0.041258913,-0.38931343,-0.36866564,0.05991916,-3.0785475,0.6249124,-0.0001235984,-0.004991399,0.0030242435,-0.0023965472,0.0053030197,-0.009606164,0.0061167288,0.5049573,-1.3815073,1.9042181,-2.0918043,-1.5708417,2.4799597,-0.0097681815,0.012736863,-0.011888075,0.010121584,8.2357225e-08,-0.01587909,-0.36391866,0.24899697,-9.595961,0.7351769,47.72092,-0.7655647,-2.669804,-3.4088683,-0.08551255,0.060635667,0.009234693,29.0,30.375,29.375,33.0,35.4375,36.5625
0.022052117,-1.0811447,-0.61541075,-0.64228797,-0.015775656,0.078534,-0.06994555,-0.3892923,-0.36866763,0.059886225,-3.0784893,0.62484413,-0.00025343936,-0.006267888,0.004009722,-0.0023589812,0.0058467635,-0.010592724,0.0039581154,0.5049804,-1.3814349,1.9041938,-2.0917437,-1.5708417,2.4799476,-0.012622088,0.013893975,-0.013757326,0.0119601,5.3773377e-09,-0.01657363,-0.49799395,0.24899697,-9.710882,0.66132545,47.705692,-0.7852453,-2.6958716,-3.3752599,-0.08969501,0.041382708,0.0070908563,29.0,30.375,29.375,33.0,35.4375,36.5625
0.024052557,-0.73034453,-0.5441426,-0.8250281,-0.011937667,0.076000795,-0.07573855,-0.38933653,-0.368661,0.05989329,-3.0785015,0.62490565,-0.00023846331,-0.007077587,0.004018821,-0.0031464116,0.006641746,-0.012037575,0.0014763995,0.50492036,-1.3813976,1.9041337,-2.0917437,-1.5708297,2.4799244,-0.013396008,0.017118594,-0.015905919,0.012533617,3.5110176e-10,-0.0148645025,-0.5554548,0.24899697,-9.749189,0.73069996,47.717335,-0.9054004,-2.7251863,-3.2917976,-0.088050425,0.011963706,-0.033654094,29.0,30.375,29.375,33.0,35.4375,36.5625
0.026052339,-0.91438854,-0.670733,-0.795861,-0.01903893,0.0736011,-0.08428462,-0.38932896,-0.36865616,0.05987613,-3.078481,0.62480724,-0.00031021642,-0.008165851,0.0054332823,-0.0038456286,0.009055192,-0.012476815,-0.0020530971,0.5049196,-1.381361,1.9041213,-2.0917075,-1.5708302,2.4798648,-0.015609069,0.01881912,-0.01640408,0.012890299,-0.0019004864,-0.013544123,-0.6703765,0.22984336,-9.825804,0.76874626,47.66091,-0.9139452,-2.7261868,-3.4361205,-0.09911935,0.0030889134,-0.064449854,29.0,30.375,29.375,33.0,35.4375,36.5625
0.028052578,-1.1956084,-0.7559773,-0.819284,-0.031141182,0.07528508,-0.10455963,-0.38937393,-0.36864796,0.059881896,-3.0784574,0.62491775,-0.00028260247,-0.009222726,0.005529629,-0.0029684398,0.009061476,-0.0109197525,-0.0028865847,0.5048714,-1.3813131,1.9040488,-2.0916955,-1.5708426,2.4798887,-0.016283033,0.0186454,-0.018374309,0.0136770485,-0.0026621001,-0.013382533,-0.7086837,0.1340753,-9.883265,0.7105615,47.704796,-0.8403334,-2.7571788,-3.3982985,-0.07456474,0.029036935,-0.084098324,29.0,30.375,29.375,33.0,35.4375,36.5625
0.030052584,-1.4607868,-0.75051504,-0.657892,-0.028655719,0.08330327,-0.10858273,-0.38937786,-0.36862487,0.059864506,-3.07839,0.62486625,-0.00030668787,-0.010262277,0.005731804,-0.002890638,0.009251601,-0.011134314,-0.0034452076,0.5048589,-1.3812765,1.9040369,-2.0916588,-1.5708908,2.4798527,-0.017555445,0.020093804,-0.020473532,0.014607045,-0.0027284257,-0.014095043,-0.6895301,0.11492168,-9.883265,0.72622824,47.690468,-0.8176726,-2.7611046,-3.4475284,-0.06049913,0.006524163,-0.09856296,29.0,30.375,29.375,33.0,35.4375,36.5625
0.03205172,-1.4141436,-0.08201902,-0.5629171,-0.020162817,0.09260666,-0.13382849,-0.38942164,-0.36861998,0.059875343,-3.07841,0.62494653,-0.00032899177,-0.010614545,0.005582064,-0.0026872957,0.009233736,-0.011672304,-0.0037921877,0.5047871,-1.3812404,1.9039639,-2.0916345,-1.5708545,2.4798284,-0.017803242,0.020858014,-0.022152131,0.01598301,-0.0024538573,-0.013995748,-0.7661445,0.019153614,-9.80665,0.7777002,47.703903,-0.9083444,-2.7067227,-3.4233756,-0.07702041,-0.004369513,-0.074589096,29.0,30.375,29.375,33.0,35.4375,36.5625
0.034052618,-1.70379,0.11651586,-0.5366668,0.0021540062,0.08395616,-0.13478906,-0.38943735,-0.36860085,0.05984821,-3.07833,0.6249305,-0.00039161608,-0.011690031,0.005471777,-0.0021140429,0.008555575,-0.011023103,-0.005376597,0.50476277,-1.3811561,1.9039153,-2.0915868,-1.5708908,2.4798043,-0.018795392,0.021488428,-0.024355847,0.01665865,-0.0021786764,-0.013402896,-0.6703765,0.095768064,-9.844957,0.7172743,47.68062,-0.9129385,-2.6600137,-3.4003143,-0.080764376,-0.032928444,-0.098766506,29.0,30.375,29.375,33.0,35.4375,36.5625
0.03605282,-1.5943269,-0.06115311,-0.76626617,0.033077024,0.073093556,-0.14046602,-0.38948387,-0.36860698,0.059879556,-3.0783894,0.6249631,-0.0003316677,-0.012588341,0.005719016,-0.0020912604,0.0088500315,-0.011095196,-0.00757216,0.5047144,-1.3811556,1.9038433,-2.0915864,-1.5708665,2.4797688,-0.019910203,0.022694387,-0.025973622,0.017277187,-0.0024028963,-0.012321087,-0.5554548,-0.095768064,-9.691729,0.78888994,47.699425,-0.904631,-2.7697773,-3.3471477,-0.07753541,-0.058305025,-0.112346515,29.0,30.375,29.375,33.0,35.4375,36.5625
0.038051948,-1.2038888,0.23324911,-0.60711485,0.037707552,0.059130903,-0.14728339,-0.38948572,-0.36860916,0.05986045,-3.0783756,0.6249229,-0.00042699373,-0.014213222,0.0064894594,-0.0018853911,0.010952938,-0.00900708,-0.008649454,0.50470203,-1.3810949,1.903807,-2.0915506,-1.5708436,2.479733,-0.02094382,0.023935568,-0.027877996,0.017140202,-0.005258697,-0.012270695,-0.4213795,-0.11492168,-9.730036,0.7172743,47.709274,-0.88572824,-2.6723807,-3.3686366,-0.08086428,-0.068194754,-0.14437638,29.0,30.375,29.375,33.0,35.4375,36.5625
0.04005179,-0.3139361,0.10254032,-0.59107655,0.031603653,0.06830122,-0.15565027,-0.38952458,-0.3685697,0.059843812,-3.0782683,0.6250357,-0.0004615607,-0.016798371,0.007020732,-0.0010844878,0.011436055,-0.005353054,-0.009482698,0.5046296,-1.3810226,1.903746,-2.0914915,-1.5708922,2.4797447,-0.022879874,0.024999673,-0.03068318,0.01592317,-0.0074596535,-0.0133672375,-0.4405331,-0.076614454,-9.615114,0.74413085,47.704796,-0.84568393,-2.724443,-3.324428,-0.07719542,-0.05484291,-0.14613166,29.0,30.375,29.375,33.0,35.4375,36.5625
0.04205174,-0.4474093,-0.43255064,-0.59994674,0.024267405,0.05343897,-0.1710191,-0.3895854,-0.36855862,0.05986173,-3.0782766,0.6250561,-0.00038067953,-0.017798202,0.007513561,-0.0010772037,0.0124189425,-0.0047107073,-0.009788408,0.50456923,-1.3809862,1.9036621,-2.091491,-1.5709165,2.479696,-0.023908732,0.02601756,-0.031938143,0.01607648,-0.008633325,-0.014087758,-0.45968673,-0.05746084,-9.730036,0.6725152,47.68599,-0.82169485,-2.6811504,-3.3128467,-0.0685008,-0.040570308,-0.15366793,29.0,30.375,29.375,33.0,35.4375,36.5625
0.04405228,-0.37364838,-0.28916192,-0.44148585,-0.00024522806,0.05237468,-0.17595103,-0.38961053,-0.36855343,0.059856586,-3.0782483,0.62510777,-0.00038211278,-0.018808804,0.008427585,-0.0011329314,0.014734006,-0.0037828465,-0.009364105,0.50454503,-1.3809378,1.9036139,-2.091479,-1.5709294,2.4797077,-0.024844214,0.026947517,-0.03301544,0.016539084,-0.011110863,-0.01544197,-0.1340753,0.038307227,-9.749189,0.75084364,47.685097,-0.8125533,-2.6725845,-3.3449423,-0.073328815,-0.012324028,-0.16863386,29.0,30.375,29.375,33.0,35.4375,36.5625
0.046052422,-0.37007308,-0.72596186,-0.66448873,0.0003954338,0.04351327,-0.1890483,-0.38965467,-0.3685445,0.05987182,-3.0782268,0.62512296,-0.0003841183,-0.019645374,0.009441127,-0.0013727254,0.01742459,-0.0036128627,-0.009631175,0.50449675,-1.3808895,1.9035057,-2.0914066,-1.5709423,2.4796717,-0.025807787,0.028153785,-0.034139574,0.017616728,-0.013549434,-0.016132914,-0.1340753,0.019153614,-9.634268,0.7933669,47.70659,-0.8574929,-2.6407633,-3.433814,-0.07821399,0.01817844,-0.17756765,29.0,30.375,29.375,33.0,35.4375,36.5625
0.04805262,-0.14951506,-0.20039055,-0.4438553,-0.0133387605,0.04411344,-0.20529264,-0.38970134,-0.36853883,0.05986586,-3.078228,0.625161,-0.00039647805,-0.021678867,0.009395375,-0.00025066195,0.017159497,-0.0010450248,-0.009797352,0.50443643,-1.380817,1.9034337,-2.0914066,-1.5709308,2.479635,-0.026993757,0.028935373,-0.0377142,0.018036494,-0.014566497,-0.017149128,-0.095768064,0.05746084,-9.595961,0.7016076,47.694054,-0.89148843,-2.5800123,-3.4080448,-0.09945305,0.013783645,-0.19549212,29.0,30.375,29.375,33.0,35.4375,36.5625
0.05005204,-0.5632908,-0.9190021,-0.41249707,0.0008738972,0.02031162,-0.20855477,-0.38972312,-0.3684914,0.05984351,-3.0781016,0.6251549,-0.00042600418,-0.022616856,0.009283128,2.0587415e-06,0.015450989,-0.0013462515,-0.010917779,0.50438803,-1.3807567,1.903397,-2.0913346,-1.5710138,2.479599,-0.02870199,0.029693933,-0.03922928,0.018222736,-0.01293048,-0.01773826,-0.15322891,0.21068975,-9.557653,0.8291774,47.672558,-0.7676176,-2.6026273,-3.292169,-0.0783056,-0.008024038,-0.183302,29.0,30.375,29.375,33.0,35.4375,36.5625
0.052052215,0.28787693,-0.9685933,-0.62939787,-0.0033975013,0.01674672,-0.21355039,-0.38979524,-0.3684823,0.059884157,-3.078113,0.6251565,-0.00031832344,-0.023192905,0.009391086,-1.5920537e-05,0.014547241,-0.0023258934,-0.01142737,0.5043276,-1.3807325,1.9032649,-2.0912864,-1.5710496,2.4795382,-0.030206397,0.030501606,-0.040296715,0.018897064,-0.011666635,-0.018735932,-0.21068975,0.22984336,-9.500193,0.7239871,47.70659,-0.7648369,-2.5891423,-3.3502495,-0.10623619,-0.021971852,-0.20358464,29.0,30.375,29.375,33.0,35.4375,36.5625
0.05405168,0.8684213,-1.0203443,-0.46341527,-0.029404432,0.021400891,-0.23007253,-0.38980985,-0.3684521,0.059836905,-3.0780382,0.6252176,-0.00046021404,-0.023960123,0.00946603,6.279965e-05,0.014970152,-0.0022731912,-0.010631597,0.50425565,-1.380636,1.903253,-2.0912626,-1.5710377,2.479514,-0.030797882,0.031695236,-0.042052742,0.019618036,-0.012068143,-0.020120239,-0.076614454,0.28730422,-9.481039,0.6702794,47.704796,-0.81752384,-2.5668862,-3.3619063,-0.110543214,-0.017975684,-0.20992482,29.0,30.375,29.375,33.0,35.4375,36.5625
0.056052767,0.13345031,-1.4398531,-0.5439355,-0.038872372,0.012984808,-0.21817529,-0.3898806,-0.36843917,0.05986929,-3.0780356,0.62533224,-0.000364565,-0.025060661,0.009893667,6.7518624e-05,0.015083734,-0.0023335337,-0.010782372,0.504183,-1.3806114,1.9031447,-2.0912383,-1.571062,2.4795132,-0.032495297,0.032895632,-0.043581627,0.02005257,-0.012141185,-0.021666676,-0.095768064,0.2681506,-9.461885,0.8112748,47.694946,-0.7617656,-2.5514,-3.3914614,-0.1226601,-0.044026054,-0.20649815,29.0,30.375,29.375,33.0,35.4375,36.5625
0.05805173,-0.89220214,-2.0337007,-0.6187635,-0.027899945,0.0009645072,-0.19412608,-0.38989788,-0.36844113,0.059868068,-3.0780158,0.6252706,-0.00042090233,-0.026471907,0.010592716,0.0008003369,0.01673203,-0.00064217177,-0.010112437,0.5041707,-1.3805512,1.9030598,-2.0911658,-1.5710629,2.479465,-0.0335752,0.03321454,-0.04593431,0.021409191,-0.01440575,-0.02341023,-0.095768064,0.30645782,-9.461885,0.7172743,47.695843,-0.749424,-2.5411005,-3.3547873,-0.12830764,-0.014232735,-0.21853118,29.0,30.375,29.375,33.0,35.4375,36.5625
0.060051654,-0.11982996,-1.2512597,-0.29896602,-0.027484614,0.032631267,-0.19693561,-0.3899871,-0.36839625,0.05987457,-3.0779717,0.62539476,-0.00039643428,-0.02697658,0.010810929,0.0012007882,0.018184733,9.7194315e-05,-0.008379437,0.504027,-1.3804791,1.9029516,-2.0911295,-1.5710872,2.4794044,-0.03338829,0.033533398,-0.047524646,0.022737598,-0.01603753,-0.02495228,-0.05746084,0.30645782,-9.481039,0.78217715,47.72629,-0.77364993,-2.4785213,-3.366128,-0.13701588,-0.021001754,-0.2141513,29.0,30.375,29.375,33.0,35.4375,36.5625
0.06205181,-0.60064536,-1.2453763,-0.104370184,-0.01152154,0.039304245,-0.19206089,-0.3900476,-0.36840513,0.059896406,-3.0779703,0.62533534,-0.00030582567,-0.027677309,0.010928335,0.001155685,0.01901933,0.00016358403,-0.007626076,0.50401515,-1.3804066,1.9028081,-2.0910938,-1.5711349,2.4793558,-0.03375959,0.034882545,-0.049162082,0.023371758,-0.016802428,-0.026075087,-0.076614454,0.36391866,-9.423578,0.7463667,47.729877,-0.8570074,-2.4576864,-3.3575163,-0.13723543,0.017950254,-0.2223206,29.0,30.375,29.375,33.0,35.4375,36.5625
0.06405195,-0.2883429,-0.7501756,-0.08654763,-0.009702958,0.046038188,-0.19726907,-0.3901004,-0.3683654,0.059890274,-3.0779274,0.6254242,-0.00032246317,-0.029169261,0.010945218,0.0014682359,0.017448425,0.00029435195,-0.009674432,0.5039065,-1.3803583,1.9027594,-2.0910695,-1.5711468,2.4793081,-0.03599106,0.036149956,-0.051393133,0.023455363,-0.015496308,-0.026259478,-0.05746084,0.24899697,-9.385271,0.7911258,47.67793,-0.8061125,-2.4653835,-3.3852322,-0.16213183,-0.007010716,-0.23047063,29.0,30.375,29.375,33.0,35.4375,36.5625
0.066051684,0.25218177,-0.8120472,-0.09878992,0.0012116878,0.042842284,-0.19061886,-0.39015412,-0.36836952,0.059890896,-3.0779033,0.625419,-0.00034072011,-0.02992739,0.010600157,0.0014841713,0.016391128,-0.00031415815,-0.009332775,0.5038703,-1.3802495,1.9026159,-2.0910099,-1.5711583,2.479272,-0.03687221,0.0376801,-0.053341236,0.023889843,-0.01428161,-0.027483528,-0.11492168,0.13407528,-9.346964,0.7038487,47.683304,-0.82032096,-2.4371288,-3.2896438,-0.1650736,-0.0037801415,-0.24901518,29.0,30.375,29.375,33.0,35.4375,36.5625
0.06805272,0.25796947,-0.8017076,-0.094847076,0.000474807,0.030208586,-0.18133079,-0.39021933,-0.36833948,0.05989419,-3.0778737,0.6254697,-0.00031693085,-0.030523783,0.010685471,0.0019508315,0.016290296,-0.00030778997,-0.009086058,0.5037741,-1.3801893,1.9025315,-2.090985,-1.5711826,2.479211,-0.037618306,0.03789505,-0.054965515,0.025242101,-0.01419824,-0.028475959,-0.21068975,0.21068975,-9.346964,0.75755644,47.70211,-0.82508254,-2.4357119,-3.3137498,-0.17305532,0.0042585223,-0.24049821,29.0,30.375,29.375,33.0,35.4375,36.5625
0.07005176,0.115941964,-0.0032009615,0.00024878338,-0.014325316,0.0249128,-0.19500208,-0.39025477,-0.3683145,0.05987328,-3.0778136,0.6254758,-0.00036472242,-0.030588677,0.011361787,0.001230369,0.01814274,-0.002515346,-0.009049539,0.50371414,-1.3801048,1.902471,-2.0909483,-1.5712069,2.4791627,-0.038467195,0.03959328,-0.055775512,0.027181437,-0.014755164,-0.029358882,-0.28730422,0.19153614,-9.270349,0.779936,47.6636,-0.81719637,-2.4813428,-3.392114,-0.17445034,-0.0035852809,-0.2508534,29.0,30.375,29.375,33.0,35.4375,36.5625
0.072051734,-1.1400572,-0.34967965,0.11385216,0.006465031,0.009988972,-0.17496966,-0.39033422,-0.36830148,0.059888534,-3.0778062,0.6254743,-0.0003804596,-0.032206006,0.010995533,0.0019531634,0.017307563,-0.002001686,-0.009325926,0.50361776,-1.380008,1.9023026,-2.0908644,-1.5712065,2.4790664,-0.03964965,0.041302465,-0.05976889,0.02860908,-0.014279043,-0.030264085,-0.2681506,0.095768064,-9.2703495,0.76874626,47.70211,-0.79588795,-2.3969297,-3.304338,-0.20261595,-0.015387689,-0.2538553,29.0,30.375,29.375,33.0,35.4375,36.5625
0.074052274,-0.5527534,-0.12111284,-0.07303414,0.0129561145,0.043425057,-0.19212146,-0.3904033,-0.36827925,0.059889853,-3.0777674,0.62548584,-0.00033162336,-0.033074483,0.010847432,0.0017605698,0.016778892,-0.0020630166,-0.009515805,0.50354564,-1.3799235,1.9021944,-2.090841,-1.5712541,2.4790065,-0.04050884,0.04297452,-0.061213247,0.028175373,-0.013791772,-0.030933594,-0.19153613,-0.019153614,-9.270349,0.7016076,47.678825,-0.80602276,-2.4712174,-3.165041,-0.21001738,-0.0032178094,-0.271008,29.0,30.375,29.375,33.0,35.4375,36.5625
0.07605247,-1.0073888,-0.00375003,0.14921737,0.01653059,0.05101523,-0.1877078,-0.39044526,-0.36828002,0.05991751,-3.0777738,0.62554455,-0.0003850997,-0.032998927,0.011521983,0.000813477,0.017499182,-0.004291663,-0.010588076,0.5034855,-1.3798869,1.9020637,-2.0907328,-1.5712184,2.4789822,-0.04184668,0.044246785,-0.060674064,0.028662048,-0.013346322,-0.031200036,-0.3256114,-0.019153614,-9.232041,0.7239871,47.72092,-0.820712,-2.4234884,-3.353052,-0.21952516,-0.01905021,-0.28292066,29.0,30.375,29.375,33.0,35.4375,36.5625
0.07805242,-0.64249456,0.05121205,0.12960489,0.01802957,0.06411823,-0.1940738,-0.39051947,-0.36825603,0.059895027,-3.0776877,0.6255454,-0.00039564454,-0.03383037,0.01130308,0.0011633314,0.01780964,-0.004364141,-0.009606797,0.5034133,-1.3797303,1.9019188,-2.0906847,-1.5712785,2.4789217,-0.042096034,0.045663644,-0.0635241,0.030305833,-0.013589435,-0.032428112,-0.36391866,0.11492168,-9.193734,0.7418897,47.691364,-0.8224024,-2.4693487,-3.332954,-0.24386524,-0.04399474,-0.29498166,29.0,30.375,29.375,33.0,35.4375,36.5625
0.08005242,-0.6946284,-0.2275182,0.03846518,0.027004559,0.057080116,-0.1848407,-0.390586,-0.36822653,0.059913836,-3.077674,0.62556183,-0.00035731393,-0.03637175,0.011643893,0.0018779169,0.017064422,-0.003115718,-0.010582732,0.5033166,-1.3796936,1.9018215,-2.090636,-1.5713023,2.478837,-0.04505682,0.047534045,-0.067514785,0.030969638,-0.013548362,-0.034411374,-0.34476504,0.076614454,-9.346964,0.78217715,47.70211,-0.80013776,-2.4964037,-3.1661963,-0.25825354,-0.059598137,-0.31931928,29.0,30.375,29.375,33.0,35.4375,36.5625
0.08205201,-0.24515244,0.13912433,-0.008120572,0.019287461,0.056055263,-0.19178905,-0.3906792,-0.36821124,0.059937954,-3.0776706,0.6256186,-0.00037172472,-0.0357845,0.012814793,0.0005775767,0.019403815,-0.005602041,-0.010902387,0.50319654,-1.3795971,1.9016308,-2.0905402,-1.5712904,2.4787529,-0.04594074,0.04847586,-0.06582597,0.031646844,-0.014395377,-0.034974292,-0.4405331,-0.019153614,-9.385271,0.7217513,47.66987,-0.68452024,-2.445819,-3.2985501,-0.28172588,-0.04669697,-0.31045282,29.0,30.375,29.375,33.0,35.4375,36.5625
0.08405181,-1.0986413,-0.16693625,-0.037929352,0.014810082,0.043122064,-0.17683677,-0.39074153,-0.36818972,0.05991414,-3.077609,0.62562394,-0.0003929639,-0.036312368,0.011797194,0.001308403,0.019117543,-0.004882978,-0.009485564,0.50312513,-1.3794649,1.901523,-2.0905159,-1.5713271,2.4786928,-0.044651248,0.049557175,-0.06909512,0.03306469,-0.014497938,-0.035099342,-0.47884035,0.0,-9.251195,0.7172743,47.692257,-0.8505983,-2.4233518,-3.28376,-0.2845979,-0.062405933,-0.32001525,29.0,30.375,29.375,33.0,35.4375,36.5625
0.08605194,-0.77287483,-0.5926062,-0.26306465,0.008339288,0.057123855,-0.18727677,-0.3908124,-0.3681509,0.059918538,-3.0775397,0.62566745,-0.00041485904,-0.037624937,0.013096579,0.0010097785,0.020714687,-0.005522771,-0.011293411,0.50301635,-1.3793801,1.9013909,-2.0904195,-1.5713633,2.47862,-0.04736906,0.05104293,-0.07044643,0.03426131,-0.015592996,-0.036005333,-0.51714754,0.15322891,-9.346964,0.7530795,47.661808,-0.7815275,-2.439806,-3.2457318,-0.30804318,-0.049804833,-0.33787137,29.0,30.375,29.375,33.0,35.4375,36.5625
0.08805194,-1.5912409,-1.0264996,-0.37554428,0.013817037,0.04993439,-0.17628628,-0.39090773,-0.36812642,0.059912555,-3.0774877,0.6257127,-0.000408,-0.03839996,0.013046906,0.00087357865,0.02037449,-0.005406185,-0.008534962,0.50290835,-1.3792355,1.9012226,-2.0903718,-1.5713986,2.478547,-0.048141845,0.052354038,-0.07159655,0.033827934,-0.015360395,-0.03953605,-0.5554548,0.11492168,-9.3661175,0.7620334,47.689575,-0.8182918,-2.4624186,-3.3333514,-0.32058614,-0.0475264,-0.3247218,29.0,30.375,29.375,33.0,35.4375,36.5625
0.09005176,-0.80020535,-1.000596,-0.16799986,-0.0041188165,0.07325433,-0.18295164,-0.39095306,-0.36809465,0.059917517,-3.0774252,0.6256812,-0.0004437151,-0.04016881,0.01414418,0.0007932966,0.021109663,-0.004800743,-0.009982156,0.5028356,-1.379175,1.9011153,-2.090264,-1.5714353,2.4784627,-0.05104029,0.053719804,-0.07299991,0.033689152,-0.016304642,-0.04098325,-0.4405331,0.05746084,-9.404425,0.79560274,47.731667,-0.7190525,-2.399891,-3.3373513,-0.3204143,-0.039917856,-0.31779754,29.0,30.375,29.375,33.0,35.4375,36.5625
0.09205202,0.050941434,-0.83585924,0.11876342,-0.014751878,0.0994033,-0.19103563,-0.39104125,-0.36805296,0.059911508,-3.0773335,0.62573606,-0.00041601874,-0.040122606,0.013596009,-0.00019772662,0.022710767,-0.006745097,-0.0051233247,0.50272816,-1.3790536,1.9009718,-2.090204,-1.5715073,2.4784014,-0.049771734,0.057228833,-0.075154595,0.034804188,-0.016779717,-0.044570412,-0.4213795,0.095768064,-9.32781,0.7553206,47.691364,-0.79827285,-2.639041,-3.2716725,-0.34284765,-0.0551652,-0.29695606,29.0,30.375,29.375,33.0,35.4375,36.5625
0.09405191,-1.4165785,-1.0857701,-0.34670642,-0.012184898,0.066456154,-0.17543268,-0.3911305,-0.36802667,0.059921473,-3.0773034,0.6257671,-0.00043086134,-0.041120652,0.013485019,0.0014727239,0.021234496,-0.0034608638,-0.0047393185,0.5026083,-1.3789464,1.9008034,-2.0901206,-1.5715193,2.4783049,-0.050316393,0.05493837,-0.076189846,0.034538496,-0.017074946,-0.04549789,-0.4213795,0.17238252,-9.385271,0.7620334,47.677036,-0.9213694,-2.4382818,-3.3139944,-0.3409091,-0.036273114,-0.30524272,29.0,30.375,29.375,33.0,35.4375,36.5625
0.09605193,-1.0511894,-1.1274549,-0.29538196,-0.0048029777,0.0665313,-0.18309616,-0.39121318,-0.36802465,0.059931714,-3.0773087,0.62569225,-0.00041940517,-0.042727996,0.014193424,0.0012605642,0.021622438,-0.0028161714,-0.006461166,0.5025357,-1.3788257,1.9006237,-2.090061,-1.5715317,2.478185,-0.052583754,0.05663225,-0.07755859,0.0338354,-0.017731639,-0.04604085,-0.28730422,0.22984336,-9.519346,0.78217715,47.689575,-0.800545,-2.3693826,-3.371347,-0.34064108,-0.046463132,-0.29115295,29.0,30.375,29.375,33.0,35.4375,36.5625
0.09805237,-0.59290963,-1.0147942,-0.4058372,-0.011446544,0.06018119,-0.18342447,-0.3912999,-0.36797726,0.059909754,-3.0771973,0.6257251,-0.00040636078,-0.043898534,0.013794828,0.0009296132,0.020828534,-0.0030722015,-0.0039820145,0.5024276,-1.3786806,1.9004911,-2.0900133,-1.5716156,2.4781117,-0.053494368,0.059317295,-0.07986853,0.03329055,-0.016926799,-0.049430244,-0.24899697,0.2681506,-9.500193,0.7418897,47.67166,-0.76970434,-2.4497333,-3.3561783,-0.3467564,-0.047602035,-0.27737576,29.0,30.375,29.375,33.0,35.4375,36.5625
0.10005239,-0.52816594,-1.1058512,-0.5023996,-0.022674065,0.05111825,-0.18664522,-0.39139867,-0.36793298,0.05991388,-3.0771434,0.6257689,-0.00040092884,-0.04457791,0.013884522,0.00023793898,0.021850936,-0.0030252156,-0.0005753142,0.5022838,-1.3785716,1.9003366,-2.0899417,-1.5716518,2.4780023,-0.05368491,0.061576415,-0.08076713,0.032376852,-0.017856855,-0.05302382,-0.2873042,0.2681506,-9.481039,0.78217715,47.703903,-0.86121976,-2.5702472,-3.3933446,-0.33169237,-0.076464504,-0.2335454,29.0,30.375,29.375,33.0,35.4375,36.5625
0.10205224,-0.108282246,-0.83212805,-0.27996334,-0.030463157,0.051271595,-0.18740787,-0.39146727,-0.36792773,0.05990885,-3.0771246,0.62566805,-0.0004717341,-0.04629,0.013878854,0.0017335674,0.020575168,0.00060895307,0.00043831574,0.50221145,-1.3784281,1.9001564,-2.089846,-1.5716523,2.4778695,-0.0548545,0.06043711,-0.082654275,0.03160275,-0.018500626,-0.055203628,-0.21068975,0.2681506,-9.3661175,0.73741806,47.707485,-0.8526404,-2.42498,-3.3635855,-0.32210833,-0.05179461,-0.2081995,29.0,30.375,29.375,33.0,35.4375,36.5625
0.104051866,0.23287275,-0.7737292,-0.37729302,-0.024025803,0.05404973,-0.18903765,-0.39157984,-0.3678824,0.059911188,-3.077062,0.62574965,-0.0004115905,-0.04681054,0.013588813,0.0008744284,0.020684754,-0.00044865374,0.0024012083,0.50206774,-1.378307,1.8999995,-2.0898101,-1.5717119,2.4777849,-0.05508869,0.06329017,-0.083952025,0.031017639,-0.0180959,-0.057400778,-0.1340753,0.22984336,-9.500193,0.6859408,47.707485,-0.89674693,-2.3920832,-3.4183927,-0.3129303,-0.07924898,-0.168189,29.0,30.375,29.375,33.0,35.4375,36.5625
0.10605219,0.10174399,-0.936945,-0.34626567,-0.018759951,0.03712757,-0.17874147,-0.39168492,-0.36785567,0.059919592,-3.0770168,0.62579614,-0.00038932444,-0.049507923,0.013067316,0.0023521404,0.019647887,0.0033420862,0.0034484954,0.5019477,-1.3781744,1.8998073,-2.0897386,-1.5717481,2.4776998,-0.056122467,0.06460099,-0.08881218,0.030741975,-0.019026473,-0.059476957,-0.11492168,0.30645782,-9.461885,0.77545905,47.67614,-0.921255,-2.5032744,-3.1491227,-0.30683598,-0.04736083,-0.1416671,29.0,30.375,29.375,33.0,35.4375,36.5625
0.108052045,0.29104027,-1.3664527,-0.51212263,-0.009979858,0.03791085,-0.17742676,-0.39179698,-0.367814,0.05993471,-3.0769842,0.62577033,-0.00034196477,-0.04947123,0.01362095,0.0014949191,0.020254185,0.0019104879,0.003861316,0.5018036,-1.3780658,1.899628,-2.089667,-1.5717963,2.4775438,-0.057100043,0.06563698,-0.08803086,0.030463748,-0.018871035,-0.060867894,-0.038307227,0.22984336,-9.461885,0.78217715,47.694946,-0.91768134,-2.4450161,-3.3729005,-0.2807874,-0.06182222,-0.115774095,29.0,30.375,29.375,33.0,35.4375,36.5625
0.110052116,0.09662867,-1.2031069,-0.58057755,-0.012080776,0.025585158,-0.17784926,-0.39189392,-0.36779907,0.05992562,-3.0769534,0.6257614,-0.00037357688,-0.052154616,0.012276554,0.0035435078,0.018314268,0.0065029548,0.005179741,0.5016959,-1.3778971,1.8994354,-2.089607,-1.5718082,2.4774346,-0.056988064,0.06674133,-0.09398702,0.030353954,-0.019396575,-0.062069677,-0.019153614,0.2681506,-9.404425,0.7866488,47.70211,-0.9416956,-2.4386163,-3.1691098,-0.2591131,-0.062758856,-0.05893437,29.0,30.375,29.375,33.0,35.4375,36.5625
0.11205211,0.08405092,-0.8553253,-0.4733225,-0.021203745,0.021603525,-0.17562644,-0.39198506,-0.36779138,0.059922274,-3.0769446,0.6256071,-0.00030148376,-0.051843066,0.013260415,0.0011455612,0.020877145,0.002395384,0.0035867386,0.5016357,-1.3777518,1.899268,-2.0895946,-1.5718683,2.4772794,-0.058176078,0.07054798,-0.09307234,0.03046312,-0.019665362,-0.06166394,-0.076614454,0.34476504,-9.500193,0.80456203,47.66987,-1.0069335,-2.608304,-3.2505655,-0.246651,-0.09876245,-0.06384294,29.0,30.375,29.375,33.0,35.4375,36.5625
0.11405248,-0.2141802,-1.5936189,-0.68945074,-0.020816267,0.014067177,-0.17683528,-0.39209554,-0.36774898,0.05993221,-3.0768788,0.62563175,-0.000297156,-0.053056106,0.013213258,0.0025517135,0.01977275,0.0045973025,0.0015949042,0.50149155,-1.37762,1.8990649,-2.0894868,-1.571916,2.4771593,-0.05914434,0.06945936,-0.095147654,0.031161213,-0.019760467,-0.060638823,-0.11492168,0.22984336,-9.461885,0.7530795,47.675243,-1.0217944,-2.4174407,-3.2346873,-0.23243794,-0.102290615,-0.047370866,29.0,30.375,29.375,33.0,35.4375,36.5625
0.11605241,0.5424325,-0.922469,-0.41697067,-0.04322562,0.038412854,-0.19113584,-0.39217427,-0.36772832,0.0599073,-3.0768561,0.62551206,-0.00038363607,-0.054152623,0.013155424,0.002803778,0.019713711,0.0050930874,0.00015913311,0.5013837,-1.3774515,1.8989085,-2.0894272,-1.571916,2.4769797,-0.059929896,0.0707895,-0.097416036,0.03163572,-0.019954894,-0.059985597,-0.038307227,0.2681506,-9.423578,0.7620334,47.689575,-1.0592983,-2.4007523,-3.1940293,-0.22877857,-0.07787197,-0.058084667,29.0,30.375,29.375,33.0,35.4375,36.5625
0.11805239,0.20715845,-0.8152992,-0.65182304,-0.047181863,0.037010696,-0.1888624,-0.3922742,-0.36769387,0.059903126,-3.0767808,0.62557334,-0.00038052615,-0.054748528,0.013740558,0.0014595779,0.02148333,0.0029956943,-0.001925557,0.50126344,-1.377306,1.8987292,-2.0893552,-1.5719646,2.4769075,-0.06111139,0.0741906,-0.09847375,0.031979937,-0.020502089,-0.059079167,-0.1340753,0.24899697,-9.519346,0.7597976,47.683304,-1.0504975,-2.6421995,-3.3735976,-0.2037467,-0.0906052,-0.04970451,29.0,30.375,29.375,33.0,35.4375,36.5625
0.12005238,-0.04868363,-1.3582047,-0.57336545,-0.030877745,0.042567223,-0.18367599,-0.39240238,-0.3676682,0.059916873,-3.0767412,0.62554723,-0.00034650948,-0.055676773,0.0138350595,0.0025263326,0.020564359,0.0052706013,-0.0038629442,0.5011314,-1.3771386,1.8984779,-2.0892594,-1.5720128,2.4767644,-0.061928637,0.07289511,-0.099305145,0.03166718,-0.020791715,-0.05795782,-0.11492168,0.2681506,-9.557653,0.7530795,47.698532,-1.0207691,-2.430955,-3.340335,-0.1646041,-0.08351388,-0.07419514,29.0,30.375,29.375,33.0,35.4375,36.5625
0.12205244,0.019697204,-0.6390931,-0.5534932,-0.03747962,0.04957205,-0.18569972,-0.39253676,-0.36766934,0.05993222,-3.0767837,0.62551814,-0.00022462367,-0.055938687,0.01369816,0.0017818746,0.020283919,0.003083593,-0.0059729726,0.5010233,-1.3769814,1.8982619,-2.0892832,-1.5720361,2.4766328,-0.06273112,0.07525582,-0.10057704,0.032355286,-0.019490492,-0.05665482,-0.11492168,0.2681506,-9.576807,0.81351066,47.690468,-1.0883467,-2.5174353,-3.3297868,-0.1722102,-0.13901024,-0.07942171,29.0,30.375,29.375,33.0,35.4375,36.5625
0.124052025,-0.08976028,-0.5434273,-0.4214497,-0.020595372,0.045550276,-0.18078434,-0.39265028,-0.36764705,0.05993863,-3.0767376,0.6255667,-0.00020341549,-0.057509683,0.013292914,0.0032552702,0.019115234,0.004998018,-0.008209,0.50090325,-1.3768252,1.8980459,-2.0892107,-1.5720724,2.4765491,-0.0635487,0.07530224,-0.104325056,0.033813637,-0.01938916,-0.055235073,-0.1340753,0.19153613,-9.576807,0.7709874,47.678825,-1.0679172,-2.4194336,-3.1513214,-0.14372131,-0.12264408,-0.09051549,29.0,30.375,29.375,33.0,35.4375,36.5625
0.12605202,0.051035408,-0.49001524,-0.51190525,-0.013947063,0.05339493,-0.17203225,-0.39274168,-0.36759862,0.05992545,-3.0766535,0.6256464,-0.00024080058,-0.056961335,0.013868738,0.0020125997,0.02069994,0.0021936875,-0.010080855,0.5007594,-1.3766927,1.8979024,-2.0891387,-1.5721081,2.476466,-0.06396711,0.07695298,-0.1036688,0.034724943,-0.019431444,-0.053780433,-0.19153613,0.17238252,-9.576807,0.8605109,47.66091,-1.15157,-2.3964841,-3.403022,-0.12689905,-0.15982175,-0.11849312,29.0,30.375,29.375,33.0,35.4375,36.5625
0.12805197,0.090445966,0.09080787,-0.3126597,-0.0060626185,0.058048263,-0.18180105,-0.39288136,-0.3675731,0.059942566,-3.0766063,0.6256364,-0.00012788914,-0.05943954,0.013072642,0.004294364,0.018681053,0.0059218225,-0.011818732,0.50063944,-1.3765246,1.8976506,-2.0890787,-1.5721921,2.476346,-0.06488377,0.07693919,-0.10913482,0.03595963,-0.019457374,-0.052957572,-0.21068975,0.15322891,-9.576807,0.72622824,47.70032,-1.1534872,-2.4011757,-3.1510549,-0.10300796,-0.16309011,-0.12937437,29.0,30.375,29.375,33.0,35.4375,36.5625
0.13005237,0.2954629,-0.26598126,-0.32184967,0.015735293,0.06396104,-0.168632,-0.39297926,-0.36756548,0.059944775,-3.0765843,0.62557393,-0.00016163342,-0.058633927,0.013779301,0.0029938617,0.021178536,0.0028183702,-0.012439953,0.50054365,-1.3763558,1.8974236,-2.0889823,-1.5722045,2.4762142,-0.064876325,0.07856229,-0.10848272,0.037606735,-0.020155352,-0.052326344,-0.21068975,0.038307227,-9.519346,0.85826975,47.699425,-1.2340331,-2.3954644,-3.3653488,-0.097784095,-0.17521495,-0.18077539,29.0,30.375,29.375,33.0,35.4375,36.5625
0.13205238,-0.115798935,0.06557667,-0.2910403,0.015830005,0.060901154,-0.17825285,-0.3931064,-0.36754,0.05996228,-3.0765464,0.62570155,-0.0001243527,-0.060709108,0.015335903,0.0032667264,0.022533298,0.0035839172,-0.015872931,0.5003987,-1.3762114,1.8971962,-2.0889099,-1.5722293,2.4761539,-0.06841814,0.07951493,-0.11047053,0.038621604,-0.021713983,-0.0524301,-0.22984336,-0.019153614,-9.481039,0.76874626,47.698532,-1.1959894,-2.3553212,-3.300377,-0.09498275,-0.18024139,-0.17821878,29.0,30.375,29.375,33.0,35.4375,36.5625
0.1340516,0.14857665,-0.33893427,-0.40194154,0.017317846,0.06779076,-0.16870227,-0.39323977,-0.36750257,0.059954576,-3.0765038,0.6257488,-0.00015835423,-0.06013934,0.014519466,0.0029888873,0.02292311,0.0020672618,-0.014265296,0.5002196,-1.3760186,1.8969687,-2.0888379,-1.5722407,2.4760098,-0.06673369,0.08099617,-0.11195148,0.040133383,-0.021331541,-0.05235294,-0.24899697,-0.095768064,-9.481039,0.7620334,47.67166,-1.2426717,-2.3030686,-3.3671093,-0.05995775,-0.18678649,-0.213758,29.0,30.375,29.375,33.0,35.4375,36.5625
0.13605261,-0.2048058,0.41183716,-0.37652543,-0.002276563,0.068307884,-0.18482979,-0.39331558,-0.36747363,0.059938136,-3.0763936,0.6258019,-0.00025177683,-0.06063909,0.015137282,0.0029995705,0.023507357,0.0010308335,-0.013847162,0.5001233,-1.3758503,1.8967766,-2.0887058,-1.572277,2.475961,-0.06820531,0.08155435,-0.113035224,0.0418418,-0.02135506,-0.05424,-0.3256114,-0.019153614,-9.442732,0.8314132,47.704796,-1.351453,-2.315116,-3.3031993,-0.056667916,-0.20980218,-0.23521084,29.0,30.375,29.375,33.0,35.4375,36.5625
0.13805257,-0.53635323,-0.15731376,-0.4401225,0.0003887489,0.06946471,-0.18740647,-0.3934744,-0.36745405,0.059976842,-3.0764182,0.6258471,-0.00010354393,-0.06271457,0.016894558,0.0028547777,0.024989929,0.0008476732,-0.017128043,0.49996626,-1.3757174,1.8965253,-2.088681,-1.5723132,2.4758291,-0.07229191,0.083178625,-0.114888795,0.042940486,-0.022567546,-0.055043306,-0.36391866,-0.038307227,-9.500193,0.7978386,47.696735,-1.1513995,-2.3446698,-3.3260133,-0.04343891,-0.21606578,-0.23200026,29.0,30.375,29.375,33.0,35.4375,36.5625
0.14005251,-1.1226064,-0.6439054,-0.33712116,0.0081027355,0.05823573,-0.1665526,-0.393602,-0.3673917,0.059979625,-3.0762997,0.6258595,-5.139848e-05,-0.06234692,0.016436502,0.0029341069,0.026064526,0.00025835744,-0.017270287,0.49981126,-1.3755611,1.8963093,-2.0885732,-1.5724219,2.4756973,-0.07075051,0.08391352,-0.11634502,0.04468995,-0.023229208,-0.05335612,-0.34476504,0.0,-9.519346,0.83589023,47.705692,-1.2697058,-2.2505164,-3.3572352,-0.041288145,-0.23327807,-0.2846006,29.0,30.375,29.375,33.0,35.4375,36.5625
0.14205246,-0.30667266,-0.3389441,-0.13773394,-0.0025153237,0.084203005,-0.177471,-0.39370835,-0.36737135,0.05998091,-3.0762534,0.6259271,-0.00011161726,-0.06356568,0.016954608,0.0027544661,0.026770446,-0.00024193853,-0.018492136,0.49967888,-1.3753923,1.8960813,-2.0884645,-1.5724219,2.475613,-0.0724845,0.08586127,-0.118476644,0.045648705,-0.023616588,-0.053864904,-0.34476504,0.076614454,-9.500193,0.7620334,47.670765,-1.300142,-2.3496594,-3.36252,-0.04195667,-0.2362574,-0.30426225,29.0,30.375,29.375,33.0,35.4375,36.5625
0.14405183,-0.2230066,0.114021495,-0.13215356,-0.015091272,0.08832738,-0.18733473,-0.39382803,-0.36734247,0.059969675,-3.076197,0.6259148,-0.00016249291,-0.06407629,0.017826974,0.002304275,0.027816653,-0.0014265636,-0.01768845,0.49953467,-1.3751879,1.8958424,-2.0883682,-1.5724458,2.4754686,-0.07417485,0.08689002,-0.11889701,0.046573695,-0.023975471,-0.056356177,-0.34476504,-0.019153614,-9.423578,0.78888994,47.66271,-1.2714179,-2.2175465,-3.400667,-0.01966426,-0.2612592,-0.3172068,29.0,30.375,29.375,33.0,35.4375,36.5625
0.14605214,-0.33868676,0.16463956,-0.16194664,-0.009191695,0.08103453,-0.18874101,-0.39397874,-0.36730093,0.059983276,-3.0761077,0.62603134,-7.887677e-05,-0.06610823,0.018096967,0.0033116455,0.026938906,-6.9757574e-05,-0.020578785,0.49937803,-1.3750074,1.8955783,-2.0882838,-1.5725297,2.4753964,-0.07654488,0.08761144,-0.12229806,0.04763398,-0.023861079,-0.055834882,-0.4213795,0.095768064,-9.32781,0.88289046,47.684196,-1.2831261,-2.3160114,-3.3051043,-0.0061590364,-0.25876036,-0.33003932,29.0,30.375,29.375,33.0,35.4375,36.5625
0.14805213,-0.068201356,-0.15719023,-0.15150386,-0.0063937907,0.08021302,-0.17657354,-0.39411598,-0.36727238,0.059990954,-3.0760798,0.6259696,-3.6059682e-05,-0.06535437,0.019968899,0.00058059505,0.031166585,-0.0070412164,-0.024525428,0.49923372,-1.3748258,1.8953289,-2.0882113,-1.5725783,2.4752173,-0.078743994,0.09170283,-0.12174442,0.05113207,-0.024225095,-0.054086037,-0.51714754,0.019153614,-9.32781,0.79560274,47.686886,-1.2705597,-2.343703,-3.4766824,-0.0310998,-0.26486695,-0.4133528,29.0,30.375,29.375,33.0,35.4375,36.5625
0.15005216,-0.19249119,0.26360324,0.055329937,-0.004678595,0.07078872,-0.17958485,-0.39426383,-0.36723542,0.060001057,-3.0760226,0.6260724,1.2581542e-05,-0.06698254,0.020664362,0.0022361795,0.030523038,-0.0046136393,-0.024698775,0.499065,-1.3746461,1.8950762,-2.0881393,-1.572626,2.4751203,-0.08100491,0.08997522,-0.12376638,0.05243376,-0.024830123,-0.0561714,-0.49799395,0.076614454,-9.289502,0.83589023,47.67793,-1.1018535,-2.205457,-3.386479,-0.044429056,-0.27846,-0.4252382,29.0,30.375,29.375,33.0,35.4375,36.5625
0.15205221,0.23365186,0.42539617,0.111989155,0.006691396,0.07827768,-0.1882027,-0.39438775,-0.36718872,0.05999378,-3.0759249,0.62608725,-1.5463153e-05,-0.067401916,0.019824494,0.002196133,0.030897025,-0.005176811,-0.020743022,0.4989097,-1.3744534,1.8948368,-2.0880191,-1.5726861,2.474987,-0.07991168,0.092396125,-0.12686774,0.053775117,-0.024904525,-0.05903043,-0.4213795,0.13407528,-9.270349,0.8179876,47.70659,-1.2856063,-2.1556318,-3.413928,-0.02515901,-0.3201509,-0.4204272,29.0,30.375,29.375,33.0,35.4375,36.5625
0.15405169,-0.36077318,-0.014949005,-0.016223103,0.02262616,0.06713544,-0.17668237,-0.39452413,-0.36714914,0.059996374,-3.075866,0.626152,-1.071564e-05,-0.06946509,0.022087678,0.0025893792,0.032308932,-0.0062365625,-0.023317285,0.49874046,-1.3742731,1.8945974,-2.0879338,-1.5727228,2.474866,-0.08512225,0.09291798,-0.12915368,0.0571363,-0.025643995,-0.061663095,-0.40222588,0.17238252,-9.289502,0.78217715,47.699425,-1.1657062,-2.2331676,-3.3786936,-0.037729103,-0.3092501,-0.43184775,29.0,30.375,29.375,33.0,35.4375,36.5625
0.15605257,-0.16043322,0.59108925,0.13014354,0.01701895,0.06946419,-0.1868389,-0.39465314,-0.36710253,0.06001793,-3.0757766,0.6262077,-3.72453e-05,-0.0683256,0.021978414,0.0020953307,0.03540098,-0.010537289,-0.018462643,0.49857336,-1.3741161,1.8943208,-2.087752,-1.572771,2.4747453,-0.08345347,0.09501078,-0.13184279,0.06297701,-0.026308317,-0.06484439,-0.47884035,0.17238252,-9.289502,0.8806493,47.678825,-1.1163468,-2.2480102,-3.3321393,-0.09646997,-0.3442072,-0.4285506,29.0,30.375,29.375,33.0,35.4375,36.5625
0.15805249,-0.106796056,0.17690329,-0.0326852,0.019719014,0.06820738,-0.18946634,-0.39478242,-0.3670437,0.059994087,-3.0756602,0.6262385,-9.41058e-05,-0.07069242,0.02261333,0.0023007693,0.035681546,-0.010301078,-0.01476588,0.4983926,-1.373899,1.8940929,-2.0876443,-1.5728306,2.474599,-0.08642815,0.09768805,-0.13576862,0.06413092,-0.026696986,-0.0715102,-0.4213795,0.1340753,-9.32781,0.8023209,47.661808,-1.1443229,-2.3344057,-3.420458,-0.12952755,-0.3451844,-0.3872891,29.0,30.375,29.375,33.0,35.4375,36.5625
0.16005257,-0.1762338,-0.025083806,0.032490868,0.007263014,0.076082416,-0.18707956,-0.39493126,-0.36700147,0.059990846,-3.0755951,0.6263004,-0.00013153435,-0.06996758,0.024695652,0.0010867621,0.038376577,-0.014332989,-0.015164467,0.49820024,-1.3736827,1.8938187,-2.0875351,-1.5728554,2.4744537,-0.088950254,0.09774444,-0.13369618,0.066821955,-0.027139729,-0.07363195,-0.36391866,0.1340753,-9.212888,0.78217715,47.67345,-1.0120195,-2.2354376,-3.3456438,-0.16387056,-0.3675158,-0.37233144,29.0,30.375,29.375,33.0,35.4375,36.5625
0.16205262,-0.61632,-0.19642487,-0.026099917,0.0037897087,0.05963354,-0.17709488,-0.39509055,-0.36695293,0.060005967,-3.0754924,0.6263161,-8.145044e-05,-0.07138431,0.02558205,-0.0001461142,0.041234612,-0.017642975,-0.0127561875,0.4980318,-1.3734766,1.8935069,-2.0873911,-1.5729512,2.4743085,-0.091122106,0.102884196,-0.13772295,0.06996382,-0.028087819,-0.07820574,-0.22984336,0.038307227,-9.251195,0.7486078,47.64479,-0.9776671,-2.4352822,-3.1874757,-0.20793983,-0.3612726,-0.34780413,29.0,30.375,29.375,33.0,35.4375,36.5625
0.16405179,-0.4853746,-0.10625991,0.076058514,-0.0077364147,0.062950626,-0.19405176,-0.39518964,-0.36688527,0.059987057,-3.0753796,0.6263271,-0.00028326118,-0.073027566,0.026192648,0.0018009576,0.0402583,-0.014998983,-0.007947637,0.49782744,-1.3732976,1.8932909,-2.0871866,-1.5729517,2.4741256,-0.09335556,0.10072504,-0.13995524,0.0715461,-0.028528988,-0.08524115,-0.38307226,0.095768064,-9.251195,0.86498255,47.642998,-0.87913084,-2.1881487,-3.3184876,-0.24780631,-0.38161144,-0.2646489,29.0,30.375,29.375,33.0,35.4375,36.5625
0.16605183,-0.40698797,-0.5537871,0.180583,-0.0055489643,0.065325305,-0.17927459,-0.39538187,-0.36685187,0.060013447,-3.0753498,0.62630135,-0.00014410143,-0.07451279,0.026816655,0.00025800924,0.042806204,-0.017144311,-0.008240371,0.49764723,-1.3730792,1.8929552,-2.087115,-1.5730361,2.4739335,-0.09496847,0.106136136,-0.14307594,0.0723463,-0.029753352,-0.086556315,-0.40222588,0.11492168,-9.308656,0.79560274,47.711063,-0.83354235,-2.3940382,-3.1853156,-0.28076068,-0.38851407,-0.25231564,29.0,30.375,29.375,33.0,35.4375,36.5625
0.16805169,-0.37651566,-0.11023697,-0.015252997,-0.003603768,0.06242084,-0.19001241,-0.39552686,-0.36677757,0.060007453,-3.0752132,0.62636715,-0.00025349593,-0.076698504,0.026693797,0.0027113007,0.040571768,-0.011741818,-0.006504524,0.4974193,-1.3728641,1.8926672,-2.0869114,-1.5730842,2.4737644,-0.09632835,0.103650756,-0.1455136,0.07143952,-0.030401215,-0.089645214,-0.40222588,0.095768064,-9.32781,0.72622824,47.681515,-0.7708607,-2.1991808,-3.1659608,-0.291933,-0.39933783,-0.19454956,29.0,30.375,29.375,33.0,35.4375,36.5625
0.17005166,-0.41001654,-0.15546836,-0.07967432,0.0028998547,0.067227386,-0.18154539,-0.3956729,-0.36673334,0.060001325,-3.0751073,0.62636286,-0.00024598237,-0.07741244,0.027349487,0.0013056623,0.04244277,-0.015001206,-0.006631468,0.4972631,-1.372634,1.8923806,-2.0867913,-1.5731682,2.4736195,-0.097989,0.10776233,-0.14761437,0.07317032,-0.030505156,-0.091175355,-0.47884035,0.15322891,-9.270349,0.8627467,47.717335,-0.7895055,-2.3639777,-3.1114008,-0.3269055,-0.39823276,-0.15233974,29.0,30.375,29.375,33.0,35.4375,36.5625
0.17205174,-0.2164482,-0.55160403,0.0065837638,0.0014338213,0.087244354,-0.17507969,-0.39583275,-0.3666725,0.06001262,-3.0750468,0.62631166,-0.00020115073,-0.07952839,0.026917897,0.0018787803,0.04114945,-0.010495191,-0.007680363,0.49705935,-1.3724537,1.8921164,-2.086685,-1.5732406,2.4733918,-0.09852571,0.10873173,-0.14918895,0.06919042,-0.031537432,-0.090657525,-0.4213795,0.19153613,-9.193734,0.74413085,47.704796,-0.8037089,-2.3206353,-3.1173527,-0.3101534,-0.3927022,-0.13663064,29.0,30.375,29.375,33.0,35.4375,36.5625
0.17405178,-0.52589834,-0.25358126,-0.09321782,-0.02614005,0.10264893,-0.18821608,-0.39598367,-0.36662564,0.059999432,-3.0749366,0.6262701,-0.00027225504,-0.080891676,0.026757594,0.0015556671,0.041754518,-0.008391345,-0.009074941,0.4968799,-1.3721887,1.8917936,-2.086518,-1.5733012,2.4732008,-0.09850614,0.1109983,-0.15063405,0.06680629,-0.033092607,-0.08923285,-0.47884035,0.22984336,-9.232041,0.75084364,47.692257,-0.8089868,-2.3597353,-3.108463,-0.29988694,-0.41119367,-0.123426154,29.0,30.375,29.375,33.0,35.4375,36.5625
0.1760517,-1.0570887,-0.9150685,-0.37067083,-0.035454776,0.099749506,-0.17935927,-0.39613888,-0.3665524,0.05998934,-3.0748005,0.62635785,-0.0003441281,-0.08212144,0.02689248,0.0019609,0.04283523,-0.0071484256,-0.01263202,0.49665213,-1.3719603,1.891507,-2.0863507,-1.5733613,2.4730456,-0.09885644,0.112283565,-0.15327905,0.06758967,-0.034646846,-0.08601515,-0.49799395,0.24899697,-9.385271,0.89631605,47.683304,-0.87657017,-2.3800573,-3.245195,-0.29947856,-0.40562743,-0.13349429,29.0,30.375,29.375,33.0,35.4375,36.5625
0.17805167,-0.6686604,-1.2481499,-0.3493303,-0.03875607,0.10418152,-0.1765108,-0.39632803,-0.36651194,0.06000756,-3.074748,0.62642527,-0.0002707171,-0.082189225,0.027376097,0.0008307636,0.042925827,-0.0065196976,-0.017084647,0.4964483,-1.3717316,1.8911723,-2.0862563,-1.5734214,2.4728909,-0.09945056,0.11286908,-0.15056735,0.06378253,-0.035023745,-0.08215621,-0.36391866,0.22984336,-9.481039,0.7777002,47.650166,-0.94413614,-2.312689,-3.2683604,-0.28078914,-0.40125686,-0.20016906,29.0,30.375,29.375,33.0,35.4375,36.5625
0.18005164,-0.7721086,-1.6972129,-0.6002053,-0.035117857,0.08464974,-0.17314301,-0.3964652,-0.36646268,0.05999634,-3.074605,0.626454,-0.00031665096,-0.08427916,0.027106863,0.0012808811,0.04274638,-0.0027781988,-0.020905402,0.49629268,-1.3714908,1.8908738,-2.0860898,-1.5735062,2.472772,-0.09986208,0.114502594,-0.15296833,0.061177682,-0.036662992,-0.07873512,-0.2681506,0.30645782,-9.500193,0.77545905,47.690468,-1.05417,-2.3410652,-3.2045841,-0.25218245,-0.40080792,-0.23995921,29.0,30.375,29.375,33.0,35.4375,36.5625
0.18205164,-0.70521396,-1.3540651,-0.5419173,-0.041335333,0.06564589,-0.17159392,-0.39666596,-0.36638457,0.06001361,-3.0744922,0.6265072,-0.00021025445,-0.08544903,0.02743638,0.0011064196,0.044446483,-3.5096276e-05,-0.022066232,0.4960531,-1.3712744,1.89055,-2.0859706,-1.5736274,2.4725804,-0.09969488,0.11574943,-0.15355895,0.058914218,-0.03947328,-0.07739458,-0.30645782,0.30645782,-9.5385,0.81351066,47.709274,-0.8984152,-2.3964977,-3.358247,-0.21181104,-0.39197722,-0.2583114,29.0,30.375,29.375,33.0,35.4375,36.5625
0.18405169,-0.30826756,-1.1977977,-0.49338228,-0.036485072,0.07003447,-0.1816973,-0.396843,-0.36631566,0.060000084,-3.0743864,0.62663776,-0.00021019907,-0.08693357,0.028301813,0.0008817035,0.045697134,0.0017278158,-0.023402281,0.49581322,-1.3710335,1.8902754,-2.0858872,-1.5736879,2.472436,-0.1012469,0.11697677,-0.1541741,0.05733894,-0.041426558,-0.07760001,-0.2681506,0.24899697,-9.461885,0.82022345,47.674347,-1.0892888,-2.3035624,-3.4715466,-0.17315333,-0.34158304,-0.31312323,29.0,30.375,29.375,33.0,35.4375,36.5625
0.18605192,0.4502878,-0.6105073,-0.59156156,-0.015176875,0.06943804,-0.17942038,-0.39703545,-0.36627352,0.060018986,-3.0743399,0.6267238,-0.00014698012,-0.089793794,0.028824361,0.0021188085,0.0455134,0.006071947,-0.024295544,0.4955969,-1.3708054,1.8899392,-2.0857923,-1.5737365,2.4722795,-0.10349389,0.11745636,-0.15729092,0.056057703,-0.04334757,-0.07894502,-0.11492168,0.19153613,-9.404425,0.7978386,47.674347,-0.80523556,-2.2561185,-3.546784,-0.13566017,-0.3225813,-0.30573437,29.0,30.375,29.375,33.0,35.4375,36.5625
0.1880519,0.6263109,-0.19519234,-0.6689045,-0.0037898323,0.059055224,-0.18209988,-0.39718756,-0.36623687,0.06000099,-3.0742571,0.62664723,-0.0001538607,-0.08903448,0.029430173,0.00038522936,0.04718155,0.003000987,-0.023511393,0.49544108,-1.3705401,1.8896426,-2.085696,-1.5738086,2.472087,-0.10377136,0.1194789,-0.15576608,0.05598955,-0.043362524,-0.08000412,0.0,0.15322891,-9.423578,0.81351066,47.640312,-1.0293533,-2.4355254,-3.6684308,-0.09009606,-0.30092543,-0.30153185,29.0,30.375,29.375,33.0,35.4375,36.5625
0.1900519,0.09498924,-0.42055586,-0.7402463,0.017499544,0.030722521,-0.16990344,-0.3973646,-0.36616722,0.059990257,-3.0741112,0.6267125,-0.000105824925,-0.090461865,0.029215991,0.00056592503,0.046911065,0.0032196166,-0.024198307,0.49523714,-1.3702873,1.8893417,-2.0855882,-1.5739287,2.471943,-0.10474408,0.1217351,-0.15904365,0.056670327,-0.043243587,-0.080286376,-0.038307227,0.21068975,-9.461885,0.8717007,47.655537,-1.0082166,-2.2812812,-3.5000901,-0.06920932,-0.3172183,-0.3409267,29.0,30.375,29.375,33.0,35.4375,36.5625
0.19205183,1.0400939,0.24496554,-0.5496608,0.011358021,0.04763015,-0.18740903,-0.39756182,-0.36610335,0.059994698,-3.073997,0.62682176,-4.0533592e-05,-0.09142826,0.02913045,0.0019071101,0.04838543,0.005858826,-0.02380848,0.4950101,-1.3700352,1.889007,-2.08548,-1.5740255,2.4717991,-0.10384648,0.12135422,-0.16205703,0.05843624,-0.045802202,-0.07976567,0.0,0.095768064,-9.404425,0.779936,47.690468,-1.0861465,-2.3208232,-3.483854,-0.044632673,-0.27268803,-0.3704444,29.0,30.375,29.375,33.0,35.4375,36.5625
0.19405203,0.4854894,0.17445447,-0.76324815,0.018724278,0.030351192,-0.17891805,-0.39775512,-0.3660579,0.060014546,-3.0739012,0.6269161,5.3037482e-05,-0.09248449,0.030366788,0.0012145169,0.05109284,0.0040611513,-0.023300955,0.49481764,-1.3697941,1.8886474,-2.0853593,-1.5741223,2.4716783,-0.1058817,0.12403214,-0.16421613,0.060765766,-0.047341194,-0.08230075,-0.076614454,0.038307227,-9.442732,0.84484416,47.678825,-0.9267331,-2.3705115,-3.4456968,-0.04881382,-0.2291711,-0.34764034,29.0,30.375,29.375,33.0,35.4375,36.5625
0.19605218,0.58818346,-0.38253042,-0.90139234,0.01678556,0.037595406,-0.17498818,-0.39792505,-0.36599708,0.060002893,-3.0738127,0.6268582,-1.7085775e-05,-0.0927738,0.030287638,0.0018265161,0.051944185,0.004602337,-0.023318922,0.49459037,-1.3695297,1.8883237,-2.0852034,-1.57417,2.4714265,-0.105335966,0.12404927,-0.16604212,0.062493578,-0.04835837,-0.08172755,-0.05746084,0.05746084,-9.519346,0.90527004,47.66091,-1.1380241,-2.3218746,-3.4295955,-0.04816601,-0.21498305,-0.3996538,29.0,30.375,29.375,33.0,35.4375,36.5625
0.19805224,0.30509263,-0.8140792,-0.87351793,0.0061774887,0.038645,-0.18687876,-0.39810166,-0.36593372,0.059997324,-3.0736618,0.6268995,1.3513416e-05,-0.093834855,0.031268593,0.0018124379,0.053440366,0.0034044613,-0.019998318,0.49439803,-1.3692654,1.8879889,-2.0850585,-1.5742906,2.4712799,-0.10742296,0.12550649,-0.16835065,0.065073766,-0.049132112,-0.087127365,-0.076614454,0.11492168,-9.576807,0.9321212,47.70659,-0.9739784,-2.1802847,-3.4451313,-0.030611973,-0.18357903,-0.38610223,29.0,30.375,29.375,33.0,35.4375,36.5625
0.20005226,0.10167251,-0.72192305,-1.0511007,-0.00651552,0.038839567,-0.18048327,-0.39832345,-0.3658713,0.06003889,-3.0735953,0.62692153,0.00016130079,-0.09472745,0.030850776,0.002276495,0.05313669,0.004134993,-0.017101357,0.49415863,-1.3690485,1.887606,-2.0849264,-1.5743989,2.4710631,-0.10741782,0.12662688,-0.17090008,0.065684296,-0.04922627,-0.090019435,-0.038307227,0.15322891,-9.557653,0.8403672,47.667187,-1.1677365,-2.2936058,-3.4235926,-0.023169186,-0.16764146,-0.3231621,29.0,30.375,29.375,33.0,35.4375,36.5625
0.2020523,-0.023705816,-0.83087075,-1.0495696,-0.029359043,0.05210772,-0.181296,-0.39848718,-0.3657843,0.06001777,-3.0733936,0.62703115,9.308194e-05,-0.09576682,0.031391058,0.0011041723,0.054701243,0.0012910689,-0.014567279,0.49393046,-1.3687828,1.8872942,-2.0847347,-1.5745066,2.4709299,-0.109186605,0.13086604,-0.17371722,0.06747118,-0.0492888,-0.09431342,-0.076614454,0.11492168,-9.844957,0.7933669,47.64837,-1.1388291,-2.3740072,-3.3707252,-0.019874776,-0.13163134,-0.32234102,29.0,30.375,29.375,33.0,35.4375,36.5625
0.20405228,0.20756999,-1.0290086,-1.007045,-0.037726093,0.0693275,-0.1923805,-0.39869162,-0.36572203,0.060031798,-3.0733044,0.6269697,0.0001956936,-0.09626742,0.03182867,0.0017212919,0.0545222,0.0005780961,-0.010186802,0.49371442,-1.3685306,1.8869346,-2.084614,-1.5746263,2.4706874,-0.11061276,0.13052917,-0.1752853,0.069872886,-0.048815623,-0.100121394,-0.11492168,0.17238252,-9.730036,0.8560339,47.677036,-1.1041421,-2.26456,-3.3266206,-0.02339103,-0.12309881,-0.25568983,29.0,30.375,29.375,33.0,35.4375,36.5625
0.20605241,0.4739156,-1.0406187,-1.2213045,-0.034987934,0.067637004,-0.18023543,-0.39885563,-0.36568356,0.06003186,-3.0732431,0.62693477,0.00015344264,-0.096601345,0.031349998,0.0020415399,0.053696744,-0.00080770307,-0.006273451,0.49352276,-1.3682779,1.8866004,-2.0844696,-1.5746616,2.470482,-0.11090717,0.13165961,-0.1779094,0.072161585,-0.047457006,-0.10433154,-0.1340753,0.17238252,-9.844957,0.8873621,47.674347,-1.1686491,-2.3092573,-3.298709,-0.03682813,-0.10667139,-0.1866209,29.0,30.375,29.375,33.0,35.4375,36.5625
0.2080524,-0.07181947,-0.88929343,-1.081945,-0.035760578,0.05044128,-0.18201838,-0.39906973,-0.36562195,0.060037266,-3.0731175,0.6269633,0.00025326046,-0.09644049,0.031679783,0.0013634921,0.054839674,-0.00494356,-0.0026544686,0.49330688,-1.3679888,1.886216,-2.0843484,-1.5747937,2.4703007,-0.11183607,0.1340128,-0.18010145,0.07613859,-0.046523444,-0.108881846,-0.21068975,0.2681506,-9.691729,0.80679786,47.682407,-1.2076195,-2.4285228,-3.293282,-0.06838975,-0.097284675,-0.117966905,29.0,30.375,29.375,33.0,35.4375,36.5625
0.21005225,-0.3099847,-1.3706123,-0.87252307,-0.017135598,0.04269727,-0.16840367,-0.3992833,-0.36556622,0.060082354,-3.0730448,0.6269476,0.00034389546,-0.09692064,0.031847782,0.0013913466,0.0545804,-0.00742562,-0.004629976,0.49307877,-1.3677602,1.8857974,-2.0841558,-1.5748891,2.4700725,-0.11335937,0.13550353,-0.18267235,0.079258345,-0.045124233,-0.10843518,-0.36391866,0.22984336,-9.595961,0.84708,47.675243,-1.1736584,-2.3047256,-3.307107,-0.110048756,-0.0969871,-0.09570236,29.0,30.375,29.375,33.0,35.4375,36.5625
0.21205218,0.94911563,-0.9016969,-0.8532193,-0.013444638,0.0689826,-0.17042352,-0.3994712,-0.3654924,0.06005811,-3.0729177,0.6269211,0.00035945748,-0.09586405,0.032646038,0.0007061511,0.05547268,-0.012433324,-0.006287041,0.492851,-1.3674717,1.8854865,-2.0840585,-1.5749964,2.469845,-0.1146639,0.13596964,-0.18268324,0.08361099,-0.043545116,-0.10808715,-0.2681506,0.28730422,-9.653421,0.800085,47.696735,-1.0735463,-2.3519201,-3.3942156,-0.11701641,-0.105899274,-0.04683438,29.0,30.375,29.375,33.0,35.4375,36.5625
0.21405227,-0.31458175,-0.9193554,-0.7743203,-0.008028604,0.04154742,-0.16767788,-0.39965567,-0.36541525,0.060046673,-3.072775,0.62698936,0.00029429476,-0.09579514,0.033446323,-0.0008159412,0.05658154,-0.017553404,-0.012780674,0.4925988,-1.3671943,1.8851408,-2.0838783,-1.5750679,2.4696543,-0.11678141,0.13923016,-0.18379605,0.08649421,-0.042103145,-0.103712514,-0.4405331,0.2873042,-9.519346,0.78217715,47.66987,-1.0629253,-2.1781523,-3.4009833,-0.20381713,-0.13057752,-0.11060128,29.0,30.375,29.375,33.0,35.4375,36.5625
0.21605219,-0.7104902,-0.9734465,-0.57083666,-0.018043557,0.051999263,-0.16993433,-0.3998499,-0.36535457,0.06005465,-3.072672,0.6269896,0.00024845047,-0.09570961,0.034084268,-0.002569017,0.057514593,-0.021998707,-0.018667042,0.49235845,-1.3669168,1.8847455,-2.0836742,-1.575128,2.4694278,-0.11850707,0.14262795,-0.18420877,0.08786496,-0.040826425,-0.09955395,-0.51714754,0.24899697,-9.385271,0.9186956,47.71554,-0.99144626,-2.3772843,-3.4623837,-0.22326891,-0.13626081,-0.13680224,29.0,30.375,29.375,33.0,35.4375,36.5625
0.21805212,-0.5758712,-0.8661929,-0.23701169,-0.024359185,0.07243697,-0.17389804,-0.40006283,-0.36528686,0.060052272,-3.0725284,0.6270378,0.00026166425,-0.095113404,0.03537703,-0.0041015963,0.060197655,-0.029283283,-0.024913259,0.4921186,-1.3666037,1.8843387,-2.083504,-1.5752352,2.469237,-0.12074576,0.14589855,-0.18607768,0.094144985,-0.039743148,-0.095548056,-0.49799395,0.21068975,-9.3661175,0.800085,47.687782,-1.155548,-2.2907627,-3.4763422,-0.29127464,-0.13104774,-0.1677405,29.0,30.375,29.375,33.0,35.4375,36.5625
0.22005215,-0.30287504,-0.5246258,0.2010858,-0.025441699,0.097357884,-0.1757898,-0.40024933,-0.36522534,0.06007301,-3.0724418,0.627038,0.0002752569,-0.095883906,0.033926364,-0.0019353825,0.05690115,-0.024590755,-0.026680676,0.4918914,-1.3663762,1.8839797,-2.0833256,-1.5753073,2.4690216,-0.11937453,0.143323,-0.1875968,0.092542686,-0.039066337,-0.092410736,-0.49799395,0.11492168,-9.251195,0.8403672,47.684196,-1.0484712,-2.3436348,-3.4758492,-0.31646496,-0.15359652,-0.25251734,29.0,30.375,29.375,33.0,35.4375,36.5625
0.22205234,-0.41034243,0.10086117,0.38544628,-0.012753738,0.08686794,-0.17961264,-0.40047958,-0.36518198,0.06010454,-3.0723588,0.62711936,0.00035522686,-0.09864225,0.034481764,-0.0015852894,0.055254657,-0.023166269,-0.03192582,0.4916626,-1.3660868,1.8835248,-2.0831583,-1.5753912,2.4688547,-0.12320077,0.14532262,-0.19058456,0.09148506,-0.03830253,-0.090994194,-0.53630114,-0.076614454,-9.232041,0.8537928,47.67345,-1.0471973,-2.4882884,-3.4456813,-0.31451356,-0.16193032,-0.27835292,29.0,30.375,29.375,33.0,35.4375,36.5625
0.22405238,-0.05143518,0.26171008,0.4781798,0.015675051,0.09037255,-0.17760018,-0.4006676,-0.3651249,0.06008933,-3.072256,0.62723017,0.00026143863,-0.099336565,0.032807462,-0.0011923866,0.052651823,-0.020286404,-0.031334292,0.4914117,-1.3657866,1.8831657,-2.0830042,-1.5754145,2.4686866,-0.12152568,0.14618799,-0.19178137,0.08803939,-0.03739367,-0.08991094,-0.40222588,-0.11492168,-9.059659,0.8605109,47.687782,-1.0784694,-2.2669687,-3.3805313,-0.29485554,-0.18299222,-0.31387913,29.0,30.375,29.375,33.0,35.4375,36.5625
0.22605236,-0.43124676,0.5693535,0.43244565,0.04483251,0.063158944,-0.17591956,-0.40087253,-0.36504772,0.06008823,-3.072103,0.6273327,0.000308989,-0.1024017,0.032196954,-0.00030645385,0.050200146,-0.015060182,-0.033376563,0.4911717,-1.3655099,1.8828057,-2.0828621,-1.5755347,2.468531,-0.123001285,0.1478151,-0.1947892,0.08363974,-0.037727114,-0.08933875,-0.4213795,-0.1340753,-8.925584,0.8918391,47.694054,-1.1011353,-2.310237,-3.2586987,-0.23100299,-0.1985698,-0.37373888,29.0,30.375,29.375,33.0,35.4375,36.5625
0.22805233,0.3901905,1.309025,0.60571665,0.044274464,0.07300044,-0.18939757,-0.40106523,-0.364988,0.06007448,-3.0719824,0.6274409,0.00021131746,-0.10494841,0.03119209,0.0012978854,0.04729877,-0.009893891,-0.034644376,0.49091998,-1.3651975,1.8824233,-2.0826833,-1.5755705,2.4683628,-0.12360766,0.14813386,-0.19823185,0.08083002,-0.037634566,-0.08867228,-0.36391866,-0.15322891,-8.810662,0.80456203,47.686886,-1.0327724,-2.1720083,-3.170212,-0.20942873,-0.2040112,-0.40505487,29.0,30.375,29.375,33.0,35.4375,36.5625
0.23005217,0.21382456,1.1326059,0.47146523,0.04344794,0.060456827,-0.18489663,-0.40130186,-0.36493465,0.060097285,-3.0719254,0.6275653,0.000298077,-0.10943893,0.03152068,0.0023868443,0.044714008,-0.0037437852,-0.03876889,0.4906549,-1.3649204,1.8820161,-2.082577,-1.575631,2.468183,-0.1277275,0.1500038,-0.20189142,0.07596442,-0.03827819,-0.08866316,-0.30645782,-0.11492168,-8.676587,0.8224646,47.72002,-1.0152919,-2.2174094,-3.2794805,-0.14296278,-0.22492501,-0.44871044,29.0,30.375,29.375,33.0,35.4375,36.5625
0.23205216,0.16682799,0.37843236,0.46366677,0.031941816,0.06255895,-0.18697472,-0.40152523,-0.36486247,0.060114905,-3.0718048,0.6275935,0.00031809724,-0.10983539,0.03107833,0.0021884516,0.04707733,-0.0035099087,-0.03443868,0.4903923,-1.3646313,1.8815845,-2.0823734,-1.5757273,2.4679542,-0.12590593,0.15252264,-0.20475735,0.07719556,-0.040498078,-0.09115635,-0.47884035,-0.095768064,-8.829816,0.8672237,47.67614,-1.0778625,-2.198052,-3.0823421,-0.10600521,-0.19844818,-0.48642826,29.0,30.375,29.375,33.0,35.4375,36.5625
0.23405226,-0.43691048,-0.28856012,0.18541516,0.009358875,0.06517328,-0.17840515,-0.40173307,-0.36478096,0.06009014,-3.0716243,0.6277253,0.00026708745,-0.11118221,0.03143145,0.0035919012,0.0451758,-0.0005819443,-0.03262252,0.49012822,-1.3642955,1.8812016,-2.082206,-1.5758237,2.4677963,-0.12780018,0.15047549,-0.20534572,0.07631355,-0.040234555,-0.094863646,-0.53630114,0.076614454,-8.944737,0.8717007,47.67614,-0.9838827,-2.0223088,-3.1804028,-0.1122628,-0.21855275,-0.47009838,29.0,30.375,29.375,33.0,35.4375,36.5625
0.23605223,0.44195053,-0.9939156,-0.10200923,-0.009790077,0.10663897,-0.17709759,-0.40193355,-0.36471364,0.060088605,-3.07151,0.627831,0.00020779892,-0.11147361,0.03162812,0.0032719148,0.044462267,-0.0022026368,-0.026339997,0.48986438,-1.3640072,1.8808197,-2.0820262,-1.5758709,2.4676137,-0.12915273,0.15147494,-0.20601377,0.07701736,-0.03888735,-0.10250271,-0.53630114,0.21068975,-9.097966,0.92764956,47.711964,-1.0495152,-1.975711,-3.2570357,-0.06751871,-0.24375354,-0.4396181,29.0,30.375,29.375,33.0,35.4375,36.5625
0.2380523,-0.69659925,-1.0042789,-0.34658644,-0.04020068,0.1041601,-0.1776182,-0.40215757,-0.3646296,0.060098883,-3.0713456,0.6278682,0.0001791622,-0.11139401,0.032015145,0.0026119095,0.04693862,-0.0042810743,-0.020534253,0.48958915,-1.3636943,1.8803653,-2.0817735,-1.5759791,2.4673836,-0.12888956,0.15357111,-0.2076021,0.07946229,-0.040134076,-0.10803343,-0.34476504,0.17238252,-9.385271,0.85155696,47.707485,-1.0890882,-1.9639319,-3.217271,-0.09167078,-0.24419728,-0.3890463,29.0,30.375,29.375,33.0,35.4375,36.5625
0.24005228,-0.96609706,-1.5493568,-0.42614353,-0.053440053,0.11356416,-0.17964867,-0.4023775,-0.364557,0.060084336,-3.0712268,0.6278378,0.00020974253,-0.11193121,0.03282834,0.0018430115,0.048047233,-0.006799203,-0.012524899,0.4893369,-1.3633692,1.8799824,-2.0816538,-1.5760874,2.4671283,-0.13075551,0.15575947,-0.2089194,0.08125987,-0.039982907,-0.117906824,-0.36391866,0.24899697,-9.461885,0.81351066,47.65643,-1.038271,-2.0065424,-3.277986,-0.09139347,-0.26141602,-0.30991217,29.0,30.375,29.375,33.0,35.4375,36.5625
0.24205233,-0.7308202,-1.564309,-0.8174498,-0.0546727,0.11230038,-0.18359339,-0.40262255,-0.36449274,0.060109634,-3.0711215,0.6279071,0.0002449971,-0.11245565,0.03269718,0.0016531736,0.04908424,-0.006548493,-0.008208709,0.48906183,-1.3630564,1.8795046,-2.0814502,-1.5761722,2.4669106,-0.13027085,0.15743762,-0.21058133,0.081471875,-0.041048143,-0.12173003,-0.4405331,0.3256114,-9.557653,0.84708,47.666286,-1.0799899,-2.0598707,-3.3037112,-0.07321046,-0.27818432,-0.22442466,29.0,30.375,29.375,33.0,35.4375,36.5625
0.2440524,-0.7347154,-1.6281866,-1.0264058,-0.036101297,0.07561925,-0.17327158,-0.4028263,-0.36443368,0.060083043,-3.071021,0.62794185,0.0001852427,-0.11243556,0.033589814,0.00025263228,0.05005593,-0.009296935,-0.0065594823,0.4888097,-1.362719,1.879134,-2.0813305,-1.5762199,2.4666936,-0.13192536,0.1594162,-0.20984337,0.081602685,-0.040645815,-0.1250328,-0.21068975,0.24899697,-9.672575,0.8806493,47.66987,-1.0854917,-2.0997581,-3.4633002,-0.045639955,-0.27920565,-0.17364053,29.0,30.375,29.375,33.0,35.4375,36.5625
0.2460526,0.14038,-1.3228582,-1.0470065,-0.030245678,0.06234996,-0.17970844,-0.40307796,-0.36436695,0.060097694,-3.0709267,0.6279007,0.00028412382,-0.11296635,0.032697868,-0.00027901464,0.04936994,-0.010931492,-0.0052786465,0.48854634,-1.3623937,1.8786787,-2.081186,-1.5763396,2.4664173,-0.13166228,0.16272093,-0.21281369,0.08235355,-0.039292242,-0.12605658,-0.17238252,0.24899697,-9.691729,0.8806493,47.698532,-1.1892303,-2.3009076,-3.392426,-0.034139782,-0.31685144,-0.118224956,29.0,30.375,29.375,33.0,35.4375,36.5625
0.2480519,0.3434379,-1.0005194,-0.892704,-0.020082725,0.032565515,-0.17117658,-0.40326607,-0.3642905,0.060076922,-3.0707731,0.6278681,0.00016075405,-0.11295275,0.033935126,-0.0019340964,0.05323316,-0.014760823,-0.0074149687,0.48829466,-1.3620683,1.8782848,-2.0809581,-1.5764121,2.4661658,-0.13265243,0.16622214,-0.21390352,0.08513016,-0.040926576,-0.12489368,-0.21068975,0.2681506,-9.576807,0.9097417,47.690468,-1.0996224,-2.1628883,-3.476038,-0.03595417,-0.32650325,-0.13538894,29.0,30.375,29.375,33.0,35.4375,36.5625
0.25005192,0.7085697,-0.70362824,-0.8607743,-0.0113570215,0.020676658,-0.16486925,-0.40351632,-0.3641881,0.060048517,-3.0706198,0.6279741,0.00014817163,-0.11240066,0.035847735,-0.0028893712,0.056531962,-0.018858133,-0.017341042,0.48795885,-1.3617076,1.87789,-2.080837,-1.5765084,2.4659166,-0.13467722,0.16689074,-0.21349739,0.089245014,-0.04189581,-0.11698319,-0.15322891,0.22984336,-9.5385,0.84708,47.691364,-1.2473624,-2.3044279,-3.640767,-0.072300665,-0.325063,-0.17548347,29.0,30.375,29.375,33.0,35.4375,36.5625
0.25205192,1.0356385,-0.099065125,-0.9464976,-0.0034761713,0.01958417,-0.17712453,-0.4037534,-0.36414242,0.060081307,-3.0705578,0.6279988,0.00018610626,-0.111694545,0.036181167,-0.004040467,0.060058877,-0.023642415,-0.018932052,0.48770753,-1.3614064,1.8774108,-2.0806434,-1.5765685,2.4656892,-0.13399413,0.17025292,-0.21609369,0.094357595,-0.042765338,-0.114702,-0.05746084,0.05746084,-9.557653,0.8314132,47.66808,-1.1927786,-2.4223318,-3.513628,-0.09783225,-0.32026392,-0.20771052,29.0,30.375,29.375,33.0,35.4375,36.5625
0.25405186,1.0670434,0.22178848,-0.7962616,0.014219597,0.009441819,-0.17746039,-0.40398088,-0.36407244,0.06008335,-3.0704217,0.62797487,0.00018473678,-0.113197334,0.038748823,-0.0043112226,0.061754882,-0.027192565,-0.028664919,0.48745364,-1.3610696,1.8769563,-2.0804384,-1.5766762,2.4654386,-0.13965756,0.17156002,-0.21813571,0.099024214,-0.042597644,-0.1106293,0.1340753,0.038307227,-9.500193,0.8224646,47.661808,-0.9050075,-2.4932444,-3.5059838,-0.16395198,-0.33831894,-0.27009845,29.0,30.375,29.375,33.0,35.4375,36.5625
0.25605196,0.7981703,0.10052712,-0.7237571,0.027076285,-0.001958366,-0.16802654,-0.40421963,-0.3639829,0.0600815,-3.0702744,0.6281723,0.00018906436,-0.114201434,0.03841391,-0.0036338985,0.06315067,-0.027644468,-0.029033385,0.4871428,-1.3607563,1.8765496,-2.0802815,-1.5767606,2.4652708,-0.13927098,0.1737437,-0.22321944,0.10296316,-0.043641232,-0.10986316,0.076614454,-0.095768064,-9.442732,0.9186956,47.70032,-1.0625842,-2.6211128,-3.4859304,-0.22030652,-0.3484646,-0.29561958,29.0,30.375,29.375,33.0,35.4375,36.5625
0.25805196,1.2818115,0.2592539,-0.37402895,0.03536675,0.011921363,-0.17988163,-0.40446836,-0.36391744,0.060101394,-3.0701373,0.6282004,0.0002078432,-0.11607324,0.039402697,-0.0034306264,0.0642222,-0.02752323,-0.031467985,0.4868784,-1.3604082,1.8760332,-2.0800416,-1.5768694,2.4650424,-0.14187685,0.17558254,-0.22629322,0.10457188,-0.04467086,-0.11002365,0.076614454,-0.05746084,-9.442732,0.7933669,47.666286,-0.99335194,-2.4538746,-3.3160305,-0.25480676,-0.32975388,-0.32163894,29.0,30.375,29.375,33.0,35.4375,36.5625
0.26005197,0.7428804,0.116226636,-0.5883207,0.035192147,0.014965822,-0.17204566,-0.40466803,-0.36386347,0.060083568,-3.070031,0.6281567,0.0001077934,-0.11617555,0.038838975,-0.003104336,0.06529294,-0.026642587,-0.030224716,0.48663983,-1.3600607,1.8756136,-2.07985,-1.5769175,2.4647908,-0.14010654,0.17632294,-0.22815612,0.10540945,-0.04605474,-0.109481715,0.038307227,0.019153614,-9.461885,0.83365434,47.674347,-1.0073634,-2.430334,-3.3401327,-0.26191756,-0.35994124,-0.35531875,29.0,30.375,29.375,33.0,35.4375,36.5625
0.26205194,0.6525105,0.0853198,-0.52209336,0.0140394,0.047122907,-0.17842181,-0.40491992,-0.36376646,0.06009302,-3.0698466,0.6282889,0.00010722484,-0.11806414,0.03937845,-0.0030307064,0.06631949,-0.024815144,-0.030716408,0.48632753,-1.3597243,1.8751348,-2.0796106,-1.5770382,2.4645858,-0.14149679,0.1782733,-0.2305428,0.10468377,-0.047855366,-0.11036297,-0.076614454,0.076614454,-9.500193,0.9254084,47.684196,-1.0054655,-2.448661,-3.3629458,-0.2945976,-0.34574577,-0.3618731,29.0,30.375,29.375,33.0,35.4375,36.5625
0.26405227,0.3193948,-0.49902046,-0.26814777,-0.016284289,0.08846424,-0.18246062,-0.4051531,-0.36366177,0.060078036,-3.0696347,0.6284328,-2.850711e-07,-0.12092199,0.03928002,-0.0010602693,0.06503772,-0.018320037,-0.028692968,0.48600426,-1.359365,1.874679,-2.0793488,-1.5771345,2.4643807,-0.1425808,0.1774672,-0.2335193,0.10208634,-0.049820162,-0.11344851,-0.05746084,0.095768064,-9.461885,0.92093146,47.66271,-1.2484009,-2.4205923,-3.3561113,-0.26430166,-0.33839196,-0.36357403,29.0,30.375,29.375,33.0,35.4375,36.5625
0.26605254,-1.0631523,-1.456038,-0.49934885,-0.03549536,0.0992376,-0.17588039,-0.40535572,-0.36359265,0.06004625,-3.069485,0.62839603,-0.00011809497,-0.12213896,0.03849051,-0.00039352907,0.06463484,-0.014261726,-0.022304634,0.48575342,-1.358993,1.8742594,-2.0791466,-1.5772074,2.464127,-0.14128433,0.1779576,-0.23505266,0.0993049,-0.051425282,-0.11852122,-0.11492168,0.17238252,-9.423578,0.87617236,47.691364,-1.243623,-2.2571537,-3.3830595,-0.25632474,-0.3185588,-0.32063478,29.0,30.375,29.375,33.0,35.4375,36.5625
0.26805264,-0.6782733,-1.3473005,-0.31216675,-0.07257098,0.14282607,-0.19492063,-0.4055859,-0.36350125,0.06006092,-3.0693083,0.62841225,-0.0001205784,-0.12429868,0.03896322,0.00032949616,0.063493915,-0.009172116,-0.017139893,0.4854773,-1.3586817,1.8737935,-2.0788844,-1.5773395,2.4638848,-0.14302574,0.17732261,-0.23494887,0.0947324,-0.052864373,-0.12541212,-0.24899697,0.22984336,-9.442732,0.84708,47.682407,-1.1835648,-2.1943855,-3.4528012,-0.20039275,-0.31306884,-0.27356482,29.0,30.375,29.375,33.0,35.4375,36.5625
0.27005255,-1.1287346,-1.5340785,-0.54434836,-0.08051566,0.14134851,-0.18778263,-0.40584934,-0.36344007,0.06007169,-3.0692105,0.6284448,-5.4766322e-05,-0.1281402,0.03928273,0.0018273634,0.06374076,-0.0019726527,-0.012700256,0.48520127,-1.3583213,1.8733014,-2.0787299,-1.5774373,2.4636424,-0.14463884,0.17842461,-0.23896329,0.09133794,-0.05650402,-0.13143665,-0.3256114,0.21068975,-9.500193,0.8560339,47.696735,-1.1741211,-2.2255766,-3.3204165,-0.15652946,-0.2685268,-0.18189934,29.0,30.375,29.375,33.0,35.4375,36.5625
0.2720526,-0.9476821,-1.7833623,-0.66989064,-0.058873143,0.12707208,-0.18450451,-0.40611717,-0.3633682,0.060109247,-3.0690975,0.6284949,7.3975505e-05,-0.13000858,0.04009459,0.0014584353,0.063365325,2.7191483e-05,-0.009311073,0.4849248,-1.3580093,1.8727988,-2.07854,-1.5775694,2.4634125,-0.14715634,0.17979312,-0.2390821,0.08807339,-0.057153307,-0.13733882,-0.2681506,0.28730422,-9.461885,0.83365434,47.698532,-1.1112938,-2.1802125,-3.3260038,-0.08930563,-0.25028732,-0.07120725,29.0,30.375,29.375,33.0,35.4375,36.5625
0.27405164,-1.045598,-1.5595452,-0.6643807,-0.028679995,0.09583995,-0.17238966,-0.4063423,-0.36329436,0.06006737,-3.0689645,0.62834865,2.682998e-06,-0.1301252,0.04125475,0.0012228634,0.06524695,-0.000650484,-0.008031091,0.48466128,-1.3576019,1.8723692,-2.0783832,-1.5776662,2.4630756,-0.14826395,0.17970507,-0.23876281,0.08927914,-0.058538776,-0.13970938,-0.53630114,0.22984336,-9.519346,0.8940802,47.70659,-1.0763757,-1.9972669,-3.5227227,-0.08783541,-0.24797955,-0.046637498,29.0,30.375,29.375,33.0,35.4375,36.5625
0.27605158,-0.923925,-0.5742164,-0.55364525,-0.0085577,0.078690715,-0.16559815,-0.40663695,-0.3631978,0.060099877,-3.0688512,0.62844205,0.00011960026,-0.13265042,0.041812688,0.0017519813,0.065850005,0.003890521,-0.013824422,0.48431346,-1.3572778,1.8718656,-2.0782049,-1.5777873,2.4628015,-0.14969708,0.18081412,-0.24068345,0.08635659,-0.061183646,-0.13532929,-0.59376204,0.17238252,-9.500193,0.91421866,47.677036,-1.0156374,-2.0491707,-3.5866039,-0.02998376,-0.20491162,-0.02909192,29.0,30.375,29.375,33.0,35.4375,36.5625
0.27805233,-0.53679454,0.49254048,-0.40617278,0.0040387497,0.08080381,-0.1768294,-0.40693775,-0.36311328,0.06010814,-3.0687177,0.6284522,0.00025482092,-0.13291621,0.04228863,0.0016839668,0.06934535,0.0034638648,-0.017940616,0.48400244,-1.3568815,1.8713382,-2.0780604,-1.5779442,2.4625149,-0.1488564,0.18239905,-0.24311614,0.089215174,-0.06405956,-0.13035005,-0.59376204,0.095768064,-9.500193,0.8873621,47.691364,-1.0528798,-1.9106379,-3.5010252,0.0014619491,-0.14429149,-0.08465645,29.0,30.375,29.375,33.0,35.4375,36.5625
0.28005236,-0.44828597,0.3758865,-0.66360027,0.018613188,0.09025277,-0.16735147,-0.40716708,-0.3630417,0.06010146,-3.0685673,0.62848014,0.00021316762,-0.13330655,0.04212516,0.0010156977,0.06795893,0.0014093847,-0.02530063,0.4837384,-1.3565212,1.8708719,-2.0778453,-1.578039,2.4622886,-0.15018588,0.18447424,-0.24420355,0.08940831,-0.061865564,-0.124327876,-0.68953013,0.17238252,-9.481039,0.94331104,47.695843,-1.028022,-2.1177664,-3.6131244,0.015396598,-0.16211665,-0.12862031,29.0,30.375,29.375,33.0,35.4375,36.5625
0.2820525,-0.81233984,-0.040900994,-0.3565937,0.013048884,0.096068025,-0.16107847,-0.4074516,-0.36294496,0.060091875,-3.0684087,0.6285834,0.00030606976,-0.13457376,0.04391201,-0.0005427157,0.07061697,-0.0025540607,-0.033976287,0.48341388,-1.356136,1.8704032,-2.0777242,-1.578183,2.46205,-0.15387848,0.18875745,-0.24648516,0.09215292,-0.06236075,-0.11933757,-0.7086837,0.019153614,-9.5385,0.87393653,47.674347,-1.0818293,-2.2022574,-3.43237,0.029438935,-0.1390607,-0.22374332,29.0,30.375,29.375,33.0,35.4375,36.5625
0.28405246,-0.29077083,0.09913295,-0.23608981,-0.0050649485,0.11118215,-0.18258688,-0.4077258,-0.3628536,0.060085274,-3.068207,0.6287324,0.00036638547,-0.13445222,0.04268324,-0.0006143835,0.07110917,-0.0051099467,-0.036025528,0.48311523,-1.3557394,1.8699006,-2.077543,-1.5783395,2.4618716,-0.15208223,0.19184944,-0.25097835,0.09603572,-0.061606713,-0.115491256,-0.53630114,-0.19153613,-9.500193,0.842603,47.65912,-1.173143,-2.2463672,-3.4795246,0.028472517,-0.119707465,-0.2608357,29.0,30.375,29.375,33.0,35.4375,36.5625
0.28605264,0.6526168,0.33767176,-0.3628531,0.0022429125,0.10519353,-0.19277146,-0.4079871,-0.3627628,0.060088847,-3.068074,0.62874115,0.00035027802,-0.13285252,0.043409,-0.0023473492,0.07380123,-0.012130298,-0.036986824,0.4827918,-1.355379,1.8694099,-2.0773256,-1.5784348,2.4615717,-0.15231639,0.19449298,-0.2514555,0.10130892,-0.060738355,-0.11476517,-0.53630114,-0.15322891,-9.557653,0.8873621,47.71823,-1.232929,-2.2937357,-3.4747462,0.0008033627,-0.11742434,-0.34575886,29.0,30.375,29.375,33.0,35.4375,36.5625
0.28805166,0.008625202,0.24665272,-0.3115957,0.017195351,0.060806368,-0.16846746,-0.40828273,-0.3627029,0.060136553,-3.067986,0.6288578,0.0005193723,-0.13158967,0.043713138,-0.0033531028,0.07520774,-0.018817525,-0.04140337,0.48250452,-1.3550425,1.8688582,-2.0771558,-1.578554,2.4613693,-0.15275797,0.19675012,-0.2533299,0.10749588,-0.058855027,-0.11080628,-0.5363012,-0.1340753,-9.404425,0.8493211,47.704796,-1.2393595,-2.362431,-3.4822135,-0.0475005,-0.14025202,-0.37451005,29.0,30.375,29.375,33.0,35.4375,36.5625
0.29005173,0.5310959,0.2901988,-0.18608448,0.027975803,0.04269375,-0.17283617,-0.4085188,-0.3626059,0.060103808,-3.0677593,0.62892544,0.000440398,-0.13296255,0.045160197,-0.0023344066,0.075138785,-0.02153466,-0.04665496,0.4822154,-1.3546346,1.8683904,-2.0769265,-1.5786856,2.461153,-0.15708387,0.19688365,-0.2572429,0.11362199,-0.057556067,-0.10987974,-0.34476504,-0.11492168,-9.251195,0.9701675,47.67614,-1.101822,-2.323519,-3.4683735,-0.11192599,-0.12761925,-0.44708773,29.0,30.375,29.375,33.0,35.4375,36.5625
0.29205194,1.1416568,0.76881677,-0.18416266,0.037795708,0.019844277,-0.1799765,-0.40877765,-0.3625234,0.06008955,-3.0675852,0.62894267,0.00038057528,-0.13323519,0.04500379,-0.0011423408,0.07448036,-0.023400094,-0.04484663,0.48191613,-1.3542151,1.8678635,-2.0766857,-1.5787934,2.4608881,-0.15782198,0.19671877,-0.2609889,0.11882628,-0.05615076,-0.112428814,-0.2681506,-0.17238252,-9.174581,0.8940802,47.67345,-1.213681,-2.2876515,-3.3252316,-0.1635775,-0.13810354,-0.48807812,29.0,30.375,29.375,33.0,35.4375,36.5625
0.29405183,0.35972416,0.3324942,-0.35651767,0.06702859,-0.026447494,-0.16401082,-0.40908828,-0.36241183,0.060101073,-3.0673764,0.6292188,0.00044389133,-0.13233295,0.04472675,-0.001347375,0.07463869,-0.027055815,-0.03733648,0.48154494,-1.3538191,1.8673118,-2.0764687,-1.5789369,2.4607177,-0.15735823,0.19760396,-0.26251888,0.122684576,-0.054664094,-0.11948358,-0.17238252,-0.076614454,-9.11712,0.89631605,47.685097,-1.1672862,-2.3293884,-3.315684,-0.2321354,-0.15926635,-0.46135107,29.0,30.375,29.375,33.0,35.4375,36.5625
0.29605156,0.9398538,0.2831866,0.07211267,0.0429733,0.0044724797,-0.1729597,-0.40932727,-0.36234626,0.06010736,-3.0672715,0.62915087,0.00039049936,-0.13245617,0.044497907,-0.0017251364,0.074251615,-0.028692983,-0.028313503,0.4812693,-1.3534591,1.8668097,-2.0762289,-1.579008,2.460414,-0.15761119,0.19918422,-0.26383042,0.123584226,-0.053651225,-0.12876229,-0.22984336,0.019153614,-9.174581,0.86498255,47.709274,-1.2091019,-2.2146802,-3.3074222,-0.26349127,-0.16877702,-0.37969697,29.0,30.375,29.375,33.0,35.4375,36.5625
0.2980517,0.7234991,-0.43522632,0.08130444,0.008891941,0.037269693,-0.17959028,-0.40960625,-0.3622157,0.06008419,-3.0669909,0.62923855,0.00030579805,-0.13291822,0.043816324,-0.0019054043,0.072440356,-0.028532807,-0.019466847,0.4809095,-1.353015,1.866258,-2.075919,-1.5791758,2.460147,-0.15764011,0.20039508,-0.26461962,0.12206213,-0.052231085,-0.137639,-0.15322891,0.05746084,-9.174581,0.88960326,47.698532,-1.3250588,-2.206014,-3.2943153,-0.27813888,-0.19108498,-0.29273778,29.0,30.375,29.375,33.0,35.4375,36.5625
0.30005154,0.20219964,-0.57237875,0.028024858,-0.031595685,0.06824028,-0.18973915,-0.40986973,-0.3621273,0.06009675,-3.0668404,0.6292218,0.0002753306,-0.13557114,0.042902507,-0.0012385462,0.06966962,-0.025530936,-0.013573377,0.48059687,-1.3526427,1.8657192,-2.0756443,-1.5792831,2.4598444,-0.1589295,0.20290582,-0.26868543,0.119578846,-0.051258296,-0.14482306,0.038307227,0.05746084,-9.11712,0.9545008,47.701214,-1.3063099,-2.0723248,-3.407097,-0.2685679,-0.2094652,-0.19376922,29.0,30.375,29.375,33.0,35.4375,36.5625
0.3020525,-0.09943296,-1.1307931,0.18985535,-0.06372584,0.08652966,-0.18243791,-0.41013086,-0.36205631,0.060093753,-3.0667076,0.62928903,0.0001346211,-0.1385423,0.042850744,-0.000103118444,0.06580433,-0.019441037,-0.013975783,0.48027208,-1.3522234,1.865156,-2.0753596,-1.5793194,2.4595797,-0.16166261,0.2023387,-0.26932034,0.11355071,-0.050713755,-0.14715117,0.019153614,0.095768064,-9.232041,0.8985519,47.692257,-1.2017353,-1.9999794,-3.3514774,-0.22536725,-0.24378446,-0.15336712,29.0,30.375,29.375,33.0,35.4375,36.5625
0.3040526,-0.5314621,-1.5955913,-0.09675637,-0.0709275,0.06634864,-0.18993658,-0.41043437,-0.36193922,0.06010197,-3.0665114,0.6294161,0.00022323198,-0.14094052,0.041751992,0.00044525665,0.06219946,-0.015311321,-0.014665061,0.479914,-1.351839,1.8646287,-2.0751574,-1.5794872,2.4593277,-0.16256586,0.2040406,-0.2716418,0.108793855,-0.049466293,-0.1473718,-0.019153614,0.17238252,-9.289503,0.8784135,47.67166,-1.0850916,-2.0637305,-3.3561563,-0.1332807,-0.26380947,-0.101097316,29.0,30.375,29.375,33.0,35.4375,36.5625
0.3060524,-0.06356138,-1.4771903,-0.14755958,-0.07921914,0.058232423,-0.16881663,-0.41069642,-0.36186567,0.060102705,-3.0663981,0.6294751,0.00017381101,-0.14295982,0.0417271,6.045866e-05,0.060483932,-0.012539925,-0.020479716,0.4795989,-1.3514544,1.8641146,-2.0749433,-1.5795468,2.459065,-0.16431804,0.20606047,-0.27224407,0.104137026,-0.04923271,-0.14330645,-0.15322891,0.28730422,-9.308656,0.9164598,47.704796,-1.0268384,-2.1280196,-3.494176,-0.11841814,-0.2791009,-0.16658875,29.0,30.375,29.375,33.0,35.4375,36.5625
0.30805248,-0.05256972,-1.3023599,-0.30823374,-0.054407086,0.031473584,-0.17728938,-0.41099134,-0.36177528,0.060096618,-3.066235,0.6294456,0.000234039,-0.14484206,0.04288745,-0.0008584818,0.060506646,-0.012771007,-0.03157783,0.47928604,-1.351022,1.8635639,-2.0747526,-1.5797027,2.458756,-0.16784263,0.2088199,-0.27322602,0.102605335,-0.049120992,-0.13572942,-0.095768064,0.24899697,-9.3661175,0.8537928,47.70211,-1.0403894,-2.1246533,-3.5392046,-0.054283597,-0.31032455,-0.2120863,29.0,30.375,29.375,33.0,35.4375,36.5625
0.31005248,0.5779672,-1.1367159,-0.33927858,-0.03666105,0.02825829,-0.17987679,-0.41125578,-0.36169317,0.060076818,-3.0660768,0.6295262,0.00013848612,-0.1456896,0.042020638,0.00090379646,0.05934158,-0.009419466,-0.03351244,0.47896254,-1.350591,1.863037,-2.0745242,-1.5797747,2.4585044,-0.16670135,0.20751905,-0.27582306,0.10299654,-0.049644887,-0.13264196,-0.15322891,0.34476504,-9.481039,0.9030289,47.709274,-1.0761402,-2.0324974,-3.5871186,-0.02742042,-0.3280986,-0.2853772,29.0,30.375,29.375,33.0,35.4375,36.5625
0.3120525,0.07490327,-0.9011383,-0.39473873,-0.03562383,0.024725087,-0.181531,-0.41153604,-0.3615909,0.060048096,-3.0658808,0.6296578,8.092742e-05,-0.14750658,0.041903395,0.0020692567,0.057845082,-0.0076783546,-0.0358799,0.47861397,-1.350147,1.8625206,-2.074321,-1.579883,2.4582648,-0.16826835,0.20800643,-0.27931303,0.10373886,-0.04914821,-0.13183855,-0.24899697,0.5554548,-9.423578,0.91198283,47.66987,-1.0331447,-2.0208714,-3.5415647,-0.0037027667,-0.33942077,-0.30212975,29.0,30.375,29.375,33.0,35.4375,36.5625
0.31405264,-0.03190131,-1.4197098,-0.39667615,-0.027774695,0.04775658,-0.17563562,-0.4118477,-0.36153406,0.06008028,-3.065797,0.6296794,0.00019142427,-0.14721029,0.043029666,0.0009104525,0.060985774,-0.012364411,-0.03803005,0.47831377,-1.3497385,1.8619102,-2.0741274,-1.5799907,2.4579897,-0.16937813,0.2107224,-0.28105322,0.108352385,-0.049773768,-0.13079241,-0.38307226,0.5746084,-9.423578,0.8873621,47.651955,-0.99551654,-2.1072683,-3.6390266,-0.0062810155,-0.3865406,-0.33564943,29.0,30.375,29.375,33.0,35.4375,36.5625
0.31605166,-0.56234753,-1.3239866,-0.42429408,-0.040262822,0.06125841,-0.17783856,-0.41213456,-0.36144045,0.06006236,-3.06565,0.629836,5.7779645e-05,-0.14843687,0.04443763,0.00021322578,0.06405394,-0.015583388,-0.038977657,0.4779309,-1.3492938,1.861359,-2.0738866,-1.5800275,2.4577248,-0.17187598,0.21433213,-0.28490347,0.112829655,-0.051059593,-0.13232318,-0.28730422,0.36391866,-9.404425,0.9254084,47.675243,-0.8938842,-2.0912774,-3.515687,-0.015828785,-0.39444908,-0.33859563,29.0,30.375,29.375,33.0,35.4375,36.5625
0.31805167,-0.4769473,-1.0599517,-0.28693044,-0.043744154,0.0781264,-0.18692872,-0.41241246,-0.36135542,0.060047034,-3.065466,0.62990886,-3.0915806e-05,-0.14951308,0.04533876,0.0010592252,0.065422714,-0.01887323,-0.03763052,0.47760627,-1.3488375,1.8607825,-2.0736206,-1.5801233,2.457471,-0.17433593,0.21587084,-0.2904331,0.120306216,-0.050819878,-0.13612387,-0.40222588,0.28730422,-9.461885,0.947788,47.683304,-0.98275447,-2.1535876,-3.377606,-0.13666876,-0.41669706,-0.3542729,29.0,30.375,29.375,33.0,35.4375,36.5625
0.32005167,-0.054192875,-0.7092416,-0.216657,-0.03721605,0.09247906,-0.18703324,-0.41269636,-0.3612579,0.0600513,-3.0653043,0.6298879,-5.3170785e-05,-0.14758168,0.045712903,-0.0010627704,0.070268415,-0.026215134,-0.030310314,0.47727105,-1.3484288,1.8602194,-2.0733554,-1.580244,2.4571447,-0.17256007,0.21998306,-0.2920072,0.12643375,-0.051814083,-0.14165328,-0.4405331,0.17238252,-9.346964,0.9030289,47.693153,-1.013487,-2.1249595,-3.25037,-0.19583906,-0.44385403,-0.30118558,29.0,30.375,29.375,33.0,35.4375,36.5625
0.3220517,-0.13096872,-0.15268867,-0.5078179,-0.00035764658,0.08313365,-0.18883118,-0.412981,-0.36116716,0.060029417,-3.0651407,0.6298517,-0.00014456487,-0.14683092,0.048034105,-0.0031993242,0.07606849,-0.031850558,-0.02350131,0.47693214,-1.3479601,1.8596452,-2.0731022,-1.5803407,2.4568057,-0.17403446,0.22288842,-0.291694,0.13078426,-0.05447389,-0.14990498,-0.36391866,0.11492168,-9.481039,0.9254084,47.661808,-0.94991994,-2.2683163,-3.4394002,-0.25543058,-0.4550088,-0.21323839,29.0,30.375,29.375,33.0,35.4375,36.5625
0.32405177,-0.27033612,0.15596312,-0.52524763,0.02264576,0.07363165,-0.18372808,-0.41330528,-0.36109236,0.060049366,-3.0650272,0.62991416,-0.00010085961,-0.14699331,0.050042033,-0.003713132,0.081703186,-0.032078173,-0.016605292,0.47658628,-1.3475162,1.8590115,-2.0728748,-1.5804385,2.4565146,-0.17434941,0.223406,-0.2916775,0.13295352,-0.059455514,-0.15706791,-0.40222588,-0.05746084,-9.557653,0.90527004,47.675243,-0.96744853,-2.3513892,-3.5427747,-0.30083686,-0.41951877,-0.11903878,29.0,30.375,29.375,33.0,35.4375,36.5625
0.32605168,-0.26193672,0.5890351,0.009780436,0.020000344,0.08803304,-0.1844291,-0.41358823,-0.3610026,0.06003011,-3.0648692,0.62989795,-0.00017529087,-0.14774801,0.049740046,-0.003963707,0.08289315,-0.031313095,-0.013749298,0.47625068,-1.3470601,1.8584493,-2.0726354,-1.5805348,2.4561906,-0.17348282,0.2256533,-0.2938504,0.13269645,-0.060928214,-0.15903486,-0.4405331,-0.28730422,-9.251195,0.9567419,47.678825,-1.116007,-2.4488795,-3.6513457,-0.3227508,-0.416712,-0.042100854,29.0,30.375,29.375,33.0,35.4375,36.5625
0.32805267,-0.7733806,0.59096444,0.1505005,0.02992244,0.09189265,-0.18182044,-0.4139011,-0.36090225,0.060019348,-3.0646608,0.6299893,-0.00018150429,-0.1501301,0.047805827,-0.0020488885,0.08202868,-0.0225873,-0.012683273,0.47590175,-1.3465803,1.8578371,-2.0723855,-1.5806803,2.4559274,-0.17019984,0.22606447,-0.2977372,0.12801065,-0.06420043,-0.156778,-0.6512228,-0.21068975,-9.11712,0.84484416,47.691364,-1.3075895,-2.2897868,-3.5744834,-0.27719465,-0.39443237,-0.05542297,29.0,30.375,29.375,33.0,35.4375,36.5625
0.3300517,-1.1566322,0.76470745,0.16105372,0.042053692,0.100538716,-0.18089573,-0.41423842,-0.3608048,0.060044277,-3.0645185,0.6300568,-0.00010160282,-0.1522369,0.047866583,-0.0029158755,0.084109075,-0.017993767,-0.017624838,0.47552958,-1.3461474,1.8572029,-2.072148,-1.5808138,2.455617,-0.16957581,0.22952731,-0.29880324,0.12250929,-0.06814965,-0.15117064,-0.6703765,-0.22984336,-9.174581,0.9254084,47.696735,-1.4077201,-2.3639529,-3.47328,-0.2260415,-0.3587265,-0.079521984,29.0,30.375,29.375,33.0,35.4375,36.5625
0.3320517,-0.96145785,1.3134763,-0.059057355,0.037829526,0.11421048,-0.19634493,-0.41452262,-0.36070254,0.060027745,-3.064305,0.63010675,-0.00016510047,-0.1569223,0.04874309,-0.0009135627,0.08328488,-0.008787142,-0.026123105,0.4751949,-1.3456917,1.8566273,-2.0718744,-1.5809463,2.4553428,-0.17282167,0.22940944,-0.3021569,0.11744187,-0.07164574,-0.14587218,-0.2873042,-0.28730422,-9.32781,0.9321212,47.719128,-1.4140639,-2.3457038,-3.494927,-0.16331327,-0.32768288,-0.137236,29.0,30.375,29.375,33.0,35.4375,36.5625
0.33405194,-0.78181994,0.5861757,-0.05462518,0.022620501,0.12131192,-0.1843486,-0.4148391,-0.36058277,0.060007576,-3.0640626,0.63024986,-0.00021772464,-0.16042052,0.048344992,0.0014437307,0.081938855,0.00027999593,-0.033849653,0.47481105,-1.3452007,1.856017,-2.0716007,-1.5810913,2.4550817,-0.17323911,0.2286035,-0.30565605,0.113106415,-0.07458965,-0.13852134,-0.49799395,-0.21068975,-9.308657,0.9321212,47.688675,-1.4234477,-2.2525625,-3.4624224,-0.08653718,-0.2911335,-0.23596413,29.0,30.375,29.375,33.0,35.4375,36.5625
0.3360519,-1.1092076,-0.14085223,-0.1852907,0.0021543796,0.11185642,-0.17640932,-0.4151759,-0.36052567,0.060028188,-3.0639503,0.6301895,-7.036175e-05,-0.16258563,0.050031397,0.0021158105,0.08457963,0.001915727,-0.039423753,0.47452205,-1.3447208,1.8553451,-2.071408,-1.5812491,2.4547706,-0.17589055,0.22946408,-0.30873165,0.11507263,-0.077674024,-0.13556683,-0.6512228,-0.21068975,-9.404425,0.9455522,47.707485,-1.357969,-2.1864457,-3.3326728,-0.08483149,-0.24883544,-0.27628487,29.0,30.375,29.375,33.0,35.4375,36.5625
0.338052,-1.0104495,-0.17896473,-0.32836187,-0.011016554,0.097277634,-0.1903239,-0.41549096,-0.36038145,0.060019106,-3.0636845,0.6304215,-7.382108e-05,-0.16386893,0.050640747,0.0013739874,0.08602931,0.0030874615,-0.044283833,0.4741136,-1.3442886,1.8547834,-2.0711458,-1.5814174,2.4545436,-0.1767506,0.23185065,-0.3095842,0.11315389,-0.07950362,-0.13153742,-0.59376204,-0.019153614,-9.500193,0.88289046,47.661808,-1.3333821,-2.2719088,-3.349722,-0.020754483,-0.18727818,-0.367697,29.0,30.375,29.375,33.0,35.4375,36.5625
0.34005207,-0.490492,-0.1947372,-0.4033936,-0.024235312,0.09067126,-0.19217025,-0.41579932,-0.36027902,0.059989374,-3.0634317,0.6305032,-7.945045e-05,-0.16523665,0.053221885,0.0012533858,0.09090026,0.0014841508,-0.04884432,0.47378838,-1.3437728,1.8541716,-2.0709045,-1.5815986,2.4543042,-0.17988628,0.23339689,-0.31232044,0.1179733,-0.083119474,-0.13006335,-0.61291564,0.019153614,-9.595961,0.9186956,47.713753,-1.195643,-2.2667625,-3.3582048,-0.04351884,-0.1376232,-0.42555577,29.0,30.375,29.375,33.0,35.4375,36.5625
0.3420521,-0.010060192,-0.56862265,-0.7015288,-0.014948279,0.076853305,-0.18651211,-0.41612017,-0.36019206,0.05999753,-3.0632792,0.63052464,-7.47124e-05,-0.16391261,0.05370889,-0.0005520895,0.08995032,-0.003172825,-0.047712546,0.47344056,-1.3433046,1.853526,-2.0706418,-1.5817174,2.453991,-0.18118985,0.23438999,-0.3094853,0.11777519,-0.080191635,-0.13252345,-0.51714754,0.11492168,-9.576807,0.8918391,47.70211,-1.3694234,-2.3385205,-3.440495,0.0023253285,-0.12464145,-0.45624992,29.0,30.375,29.375,33.0,35.4375,36.5625
0.34405202,-0.5759489,-1.1656034,-1.0411737,-0.00867239,0.04896337,-0.17786743,-0.41647235,-0.36005372,0.059994627,-3.0630233,0.63075227,2.5797752e-05,-0.16283599,0.054209758,-0.002073881,0.0914495,-0.009198783,-0.04047521,0.4730323,-1.3428359,1.8529156,-2.0704248,-1.581921,2.4537601,-0.18174432,0.23705174,-0.31023592,0.12176043,-0.07887057,-0.14032383,-0.49799395,0.15322891,-9.710882,1.0015011,47.67793,-1.2595768,-2.4925828,-3.7364757,-0.009061797,-0.11802684,-0.44039834,29.0,30.375,29.375,33.0,35.4375,36.5625
0.34605208,-0.569974,-1.2766145,-0.8099094,-0.033712547,0.04786838,-0.18256117,-0.41681007,-0.35993484,0.05999115,-3.0627756,0.6307703,0.00011905653,-0.16320848,0.055356026,-0.0023781427,0.09220419,-0.013790956,-0.033828553,0.47268352,-1.3423438,1.85227,-2.070171,-1.5821484,2.4534569,-0.18461406,0.23878011,-0.31289205,0.12694842,-0.077562794,-0.1498468,-0.40222588,0.15322891,-9.595961,0.9298854,47.67166,-1.1022375,-2.3940616,-3.7237217,-0.06607436,-0.09052567,-0.31951857,29.0,30.375,29.375,33.0,35.4375,36.5625
0.34805194,-0.23427154,-1.6052073,-0.7241694,-0.025668722,0.02455941,-0.1783183,-0.41713014,-0.35983223,0.05997071,-3.0625997,0.63084465,3.8138664e-05,-0.16119333,0.05579765,-0.003666805,0.09249296,-0.024037374,-0.024972582,0.4722965,-1.3418397,1.8516468,-2.069917,-1.5822428,2.4531407,-0.18607236,0.24099638,-0.31470564,0.13562378,-0.073278025,-0.16019729,-0.095768064,0.095768064,-9.595961,0.8672237,47.688675,-0.97910726,-2.4096737,-3.5739832,-0.14244124,-0.116592094,-0.21865836,29.0,30.375,29.375,33.0,35.4375,36.5625
0.35005197,0.73646,-0.974627,-0.4525487,-0.016545093,0.0019850233,-0.18526724,-0.41746476,-0.35971555,0.05997813,-3.0624049,0.6307976,8.6158805e-05,-0.1626,0.05628797,-0.0026939076,0.091253586,-0.025777299,-0.023170527,0.47192577,-1.3413715,1.8509997,-2.0696404,-1.5824226,2.4527676,-0.18903409,0.24181804,-0.31897724,0.1399425,-0.07146566,-0.16497323,-0.11492168,0.05746084,-9.442732,0.9097417,47.72629,-0.9118498,-2.428098,-3.577448,-0.18081808,-0.13183099,-0.16241544,29.0,30.375,29.375,33.0,35.4375,36.5625
0.35205197,0.79392946,-0.42716318,-0.237856,-0.00032217396,-0.032689385,-0.17464463,-0.4177822,-0.3596224,0.059984703,-3.062239,0.6308583,5.063309e-05,-0.16406716,0.056958415,-0.0022749433,0.09005526,-0.028426971,-0.026340984,0.47156483,-1.3409034,1.8503512,-2.069352,-1.5825294,2.4524677,-0.19259761,0.24357906,-0.32309648,0.14406121,-0.06923859,-0.16538191,-0.17238252,0.0,-9.442732,0.95226496,47.703007,-0.8218335,-2.5418847,-3.4112241,-0.25508994,-0.13647565,-0.10687877,29.0,30.375,29.375,33.0,35.4375,36.5625
0.3540518,1.7683214,0.13407227,-0.5418195,0.020661931,-0.033605587,-0.19201778,-0.41813123,-0.3595121,0.05999594,-3.0620663,0.6309755,5.5233286e-05,-0.1651327,0.055876628,-0.0012295919,0.08740071,-0.027207376,-0.031618718,0.4711567,-1.3404238,1.8496808,-2.0690763,-1.5826491,2.4521568,-0.1926399,0.24418263,-0.32641998,0.14449774,-0.0674247,-0.1601593,-0.019153614,0.05746084,-9.442732,0.85826975,47.660015,-0.8687148,-2.4819126,-3.382012,-0.26601246,-0.16678534,-0.1596393,29.0,30.375,29.375,33.0,35.4375,36.5625
0.35605186,1.266623,-0.12977833,-0.45698887,0.017323306,-0.022500629,-0.19269355,-0.41844064,-0.35939535,0.059968345,-3.061822,0.63101923,-4.749078e-05,-0.16527988,0.05344328,-0.0008676738,0.0840039,-0.025095668,-0.034973115,0.47078595,-1.3399069,1.8490456,-2.0687664,-1.5827922,2.4518473,-0.18982796,0.2452967,-0.3280979,0.14165822,-0.0653606,-0.15400237,-0.19153614,-0.038307227,-9.461885,0.9097417,47.64479,-0.95422745,-2.5491397,-3.369616,-0.2698493,-0.17891929,-0.22575215,29.0,30.375,29.375,33.0,35.4375,36.5625
0.35805202,0.42282346,-1.1037337,-0.46677917,-0.012395872,0.020739678,-0.18188669,-0.4187809,-0.3593021,0.059988506,-3.0616586,0.63109887,-3.923053e-05,-0.16670653,0.051446002,0.0011196546,0.0790512,-0.01851922,-0.037631612,0.4704142,-1.3394291,1.8483518,-2.0684683,-1.5829118,2.451548,-0.18842348,0.2433688,-0.3292779,0.13666122,-0.063936636,-0.14994995,-0.2681506,0.038307227,-9.3661175,0.95002913,47.705692,-1.0701983,-2.3741693,-3.3822699,-0.21995918,-0.21658778,-0.25837272,29.0,30.375,29.375,33.0,35.4375,36.5625
0.3600521,-0.7463083,-1.2746876,-0.2663794,-0.058862038,0.069529206,-0.19061801,-0.41910878,-0.35918796,0.059965696,-3.061436,0.6312028,-0.00013697642,-0.16862303,0.050193053,0.00076777756,0.07614252,-0.015400507,-0.03872037,0.47001827,-1.3389007,1.8476938,-2.0681708,-1.583031,2.4512482,-0.18849449,0.24633083,-0.331039,0.13132839,-0.06280818,-0.1489338,-0.076614454,-0.019153614,-9.481039,0.9701675,47.683304,-1.2210557,-2.3041651,-3.5346823,-0.16574971,-0.25134036,-0.30975187,29.0,30.375,29.375,33.0,35.4375,36.5625
0.36205214,-1.1571529,-2.0308049,-0.28364447,-0.082329154,0.117471606,-0.19634916,-0.41942403,-0.3590854,0.05995043,-3.0612516,0.6312798,-0.00020030346,-0.17051566,0.049662985,0.0015432703,0.07227987,-0.012238081,-0.042959504,0.4696457,-1.338409,1.847071,-2.067909,-1.5831388,2.4509494,-0.19026613,0.24646005,-0.3323306,0.127907,-0.06081864,-0.14648089,-0.1340753,0.076614454,-9.5385,0.9679317,47.661808,-1.2113612,-2.282271,-3.4942684,-0.090323865,-0.26929545,-0.37997466,29.0,30.375,29.375,33.0,35.4375,36.5625
0.36405215,-1.2503463,-1.8088553,-0.5181354,-0.085923836,0.11754809,-0.20682321,-0.41978678,-0.3590017,0.05997072,-3.0611258,0.631423,-0.00018607447,-0.17053102,0.049350183,0.0013714802,0.07199399,-0.012379227,-0.041196585,0.46925005,-1.3379053,1.846352,-2.0676458,-1.5832227,2.450661,-0.1897516,0.24720523,-0.33290792,0.12768368,-0.060538482,-0.14772992,-0.095768064,0.11492168,-9.557653,0.9388393,47.661808,-1.3156264,-2.2120013,-3.572217,-0.0654583,-0.31744325,-0.36446857,29.0,30.375,29.375,33.0,35.4375,36.5625
0.36605227,-1.0497653,-1.5514207,-0.4721147,-0.064034805,0.09776812,-0.20284173,-0.42010444,-0.3588971,0.05995274,-3.0609417,0.6313785,-0.0001771942,-0.17134048,0.049445033,0.0006611828,0.07195654,-0.012376723,-0.036535326,0.46890172,-1.3374127,1.8457421,-2.0674188,-1.5833787,2.4503105,-0.19040766,0.24933489,-0.33366507,0.12618193,-0.06059692,-0.1530407,-0.11492168,0.095768064,-9.710882,0.91198283,47.666286,-1.2285948,-2.368433,-3.6118488,-0.04666327,-0.34289262,-0.356924,29.0,30.375,29.375,33.0,35.4375,36.5625
0.3680522,-0.56373155,-1.0894479,-0.7163989,-0.023823315,0.057680584,-0.19090253,-0.420483,-0.35881013,0.05997132,-3.0608127,0.6314601,-7.207108e-05,-0.17289503,0.049599253,0.0012601608,0.07303207,-0.011569733,-0.028463041,0.46851742,-1.3368973,1.845023,-2.0672033,-1.5835112,2.4499953,-0.19093028,0.25117293,-0.33779132,0.12808914,-0.062031645,-0.16161817,-0.15322891,0.17238252,-9.576807,0.87617236,47.67166,-1.214251,-2.1893682,-3.6170764,-0.034036383,-0.37403014,-0.2879684,29.0,30.375,29.375,33.0,35.4375,36.5625
0.37005213,0.79993343,0.09787562,-0.6211407,-0.006060165,0.046785466,-0.20107192,-0.4208388,-0.3587171,0.05997289,-3.0606523,0.63147825,7.956352e-06,-0.17379788,0.05070367,0.0009852805,0.074993744,-0.013443588,-0.021597363,0.46815702,-1.3363808,1.8443412,-2.0669863,-1.5836676,2.4496686,-0.19274125,0.25314525,-0.34032878,0.13105702,-0.06304802,-0.17028041,-0.05746084,0.19153613,-9.519346,0.9612189,47.667187,-1.1945982,-2.384553,-3.5473752,0.02577473,-0.37445638,-0.15503493,29.0,30.375,29.375,33.0,35.4375,36.5625
0.3720522,1.4340419,0.29351792,-0.8064175,0.030731693,0.025972933,-0.20221241,-0.42120454,-0.3586,0.059982494,-3.060511,0.6315592,-1.4235296e-06,-0.17258929,0.052624267,-0.001513082,0.08130245,-0.021189377,-0.017368825,0.46771276,-1.3358874,1.8436579,-2.0667207,-1.5837644,2.4492948,-0.19339101,0.25750577,-0.34147492,0.13750263,-0.0652578,-0.17512803,-0.1340753,0.28730422,-9.5385,0.9701675,47.668976,-1.2052152,-2.418757,-3.5838056,-0.025429145,-0.3805728,-0.09360545,29.0,30.375,29.375,33.0,35.4375,36.5625
0.3740522,1.0854235,0.31737816,-0.97333336,0.044005245,-0.0043442,-0.18724239,-0.4215489,-0.35850155,0.059987877,-3.0603173,0.63154155,3.079355e-05,-0.17179547,0.055220492,-0.0024705308,0.087504186,-0.027569251,-0.019929014,0.46736118,-1.3353714,1.8429512,-2.0664299,-1.5839332,2.4489594,-0.19525109,0.2591318,-0.34325492,0.14611448,-0.06793332,-0.17438938,-0.24899697,0.2681506,-9.519346,0.88289046,47.668976,-1.0647353,-2.5143616,-3.6337533,-0.117396496,-0.37612742,-0.058206055,29.0,30.375,29.375,33.0,35.4375,36.5625
0.37605214,0.95968354,0.03938207,-0.5627252,0.010728499,0.019312078,-0.1972782,-0.4218833,-0.35837954,0.059977766,-3.060108,0.6316109,-8.366544e-05,-0.17255393,0.05796983,-0.0017055605,0.091930754,-0.03052308,-0.03140104,0.46694306,-1.3348557,1.8422693,-2.0660923,-1.584042,2.448614,-0.19871944,0.25891173,-0.34662604,0.15440603,-0.070515886,-0.16634145,-0.3256114,0.38307226,-9.557653,0.98807013,47.683304,-0.99868846,-2.4684885,-3.6143184,-0.18833548,-0.37309524,-0.09133014,29.0,30.375,29.375,33.0,35.4375,36.5625
0.37805218,0.6234154,-0.57765275,-0.3027462,-0.014917886,0.054500412,-0.20409663,-0.4222575,-0.35826817,0.05999829,-3.059906,0.63170487,-1.8695851e-05,-0.17283057,0.060687885,-0.0021351357,0.099989615,-0.033220515,-0.04001271,0.46654677,-1.3343401,1.8415259,-2.06579,-1.5842127,2.4483047,-0.19970407,0.26074603,-0.34950918,0.16155915,-0.07644746,-0.15863532,-0.2681506,0.11492168,-9.519346,0.8605109,47.691364,-1.003562,-2.4536371,-3.5201635,-0.2746809,-0.34160966,-0.18325683,29.0,30.375,29.375,33.0,35.4375,36.5625
