Tylouw/Master_Thesis_Code/training_data/batch_1/rect_rod_t0.2/sample_99_session_3.csv
timestamp[s],tcp_force_x[N],tcp_force_y[N],tcp_force_z[N],tcp_force_rx[Nm?],tcp_force_ry[Nm?],tcp_force_rz[Nm?],tcp_pose_x[m],tcp_pose_y[m],tcp_pose_z[m],tcp_pose_rx[rot_vec_x],tcp_pose_ry[rot_vec_y],tcp_pose_rz[rot_vec_z],tcp_velo_x[m/s],tcp_velo_y[m/s],tcp_velo_z[m/s],tcp_velo_rx[rot_vec_x/s],tcp_velo_ry[rot_vec_y/s],tcp_velo_rz[rot_vec_z/s],q1[rad],q2[rad],q3[rad],q4[rad],q5[rad],q6[rad],qd1[rad/s],qd2[rad/s],qd3[rad/s],qd4[rad/s],qd5[rad/s],qd6[rad/s],tool_acc_x,tool_acc_y,tool_acc_z,current_of_whole_robot[A],voltage_of_whole_robot[V],current_J1[A],current_J2[A],current_J3[A],current_J4[A],current_J5[A],current_J6[A],temp_J1[C],temp_J2[C],temp_J3[C],temp_J4[C],temp_J5[C],temp_J6[C]
1.2649998e-06,-1.1137565,-0.9620758,-0.4549504,-0.009854104,-0.0016095097,0.010390735,-0.38933,-0.36872774,0.06004449,-3.0787277,0.62491363,0.0002888274,0.0010224578,0.00055646885,-0.00066267763,0.0013210357,-0.0026152295,6.271303e-05,0.5050688,-1.3817159,1.904199,-2.091891,-1.5708774,2.4800491,-5.2039824e-05,-1.6858367e-05,0.0011117363,0.0018325844,0.00011604106,-0.000115567156,0.038307227,0.19153613,-8.599973,0.7665104,47.64121,-0.24490452,-3.0353556,-2.4064178,-0.19935772,0.09352342,-0.036084253,29.0625,30.375,29.375,33.0,35.5,36.5625
0.002054377,-1.1635927,-0.99280304,-0.4407127,-0.013715624,0.0056866887,0.019272044,-0.38934618,-0.3687287,0.06002688,-3.0787446,0.6249364,0.0002408089,-0.0006481099,-0.000376062,-0.0017283156,-0.0014680823,0.0023766086,6.179741e-05,0.5050329,-1.3816673,1.904188,-2.0919192,-1.5708417,2.4800253,-5.1055817e-05,0.0021418002,0.0032603268,-0.00819283,0.00012291149,-0.00011314835,0.038307227,0.21068975,-8.6574335,0.7351769,47.664497,-0.20242241,-2.9784918,-2.407732,-0.17999214,0.12469171,-0.017211607,29.0625,30.375,29.375,33.0,35.5,36.5625
0.00405405,-1.1913172,-0.90735376,-0.36831757,-0.023679126,0.006921955,0.009910661,-0.38932323,-0.36871862,0.060003694,-3.0787017,0.62490857,0.00018215444,-0.0017796608,-0.0010085682,-0.0019466435,-0.0029425472,0.005009574,6.111503e-05,0.5050448,-1.3816546,1.9042233,-2.0919077,-1.5708536,2.4800253,-5.0108312e-05,0.0034722185,0.0031456237,-0.012426244,0.00012917421,-0.000110826186,0.095768064,0.24899697,-8.599973,0.7620334,47.675243,-0.16749969,-3.4065003,-2.5778458,-0.043517783,0.116225004,-0.036808927,29.0625,30.375,29.375,33.0,35.5,36.5625
0.006054366,-0.9968217,-0.88034207,-0.47451463,-0.0042690644,-0.001884998,0.018279335,-0.38933462,-0.36871344,0.05999049,-3.0786912,0.6249446,0.00020534982,-0.0005064945,-0.00030013674,-0.0014960304,-0.0008830071,0.0013154707,5.932129e-05,0.5050329,-1.381631,1.9042357,-2.091953,-1.5708655,2.4800372,-4.919524e-05,0.00220535,0.0021429406,-0.005927263,0.00012714107,-0.00010859734,0.0,0.22984336,-8.619126,0.7463667,47.713753,-0.21135587,-3.3129537,-2.5810208,-0.05509661,0.12786452,-0.03766389,29.0625,30.375,29.375,33.0,35.5,36.5625
0.00805346,-0.55422795,0.030309135,-0.8445351,0.028750105,-0.025065746,0.011174315,-0.38933986,-0.368719,0.060009077,-3.078713,0.6249108,0.00026093004,0.0003814433,0.00019456503,-0.00039986146,0.00035146825,-0.0008895317,5.7660047e-05,0.5050448,-1.3816559,1.9042224,-2.0919511,-1.5708774,2.4800253,-4.8315123e-05,0.00010586344,0.00076772954,7.446508e-05,0.00012466256,-0.00010645642,-0.019153614,0.11492168,-8.695741,0.7866488,47.70211,-0.1858769,-3.1925979,-2.473507,-0.10735298,0.12835947,-0.020564912,29.0625,30.375,29.375,33.0,35.5,36.5625
0.010053753,0.14736293,0.3821123,-1.2178091,0.03649943,-0.01017679,0.0069888392,-0.38931483,-0.36871395,0.059994932,-3.0786958,0.6248883,0.00016425925,0.0011878979,0.00064949313,-0.00048652868,0.0018622722,-0.003601559,5.874586e-05,0.5050448,-1.3816559,1.9042462,-2.0919144,-1.5708536,2.4800134,-5.787896e-05,1.4202932e-06,0.00024115502,0.003809937,0.00012224607,-0.00011730821,-0.095768064,0.076614454,-8.963891,0.7351769,47.70211,-0.7842841,-2.7167106,-2.8705335,-0.17494893,0.10023864,-0.102788955,29.0625,30.375,29.375,33.0,35.5,36.5625
0.012053594,-1.0874118,-0.79737,-1.5645719,0.010781006,-0.011336656,0.009527529,-0.3893236,-0.368711,0.05998574,-3.0786572,0.6249206,0.000106219355,-0.0007053569,0.0023782125,-0.001419693,0.0023635065,-0.004508913,-0.004460672,0.50503165,-1.3816069,1.9041985,-2.0918672,-1.5708536,2.4800253,-0.0047377064,0.0021723998,3.2354026e-06,0.002913453,0.00011991921,-0.0002771819,0.095768064,0.1340753,-9.212888,0.7530795,47.699425,-0.9181613,-2.7599547,-3.0245633,-0.16563152,0.110749155,-0.14080504,29.0625,30.375,29.375,33.0,35.5,36.5625
0.01405383,-2.0684664,-1.5544333,-1.7396958,-0.041944586,0.0023624944,0.011655838,-0.38933054,-0.36868736,0.059962913,-3.0786133,0.62496823,7.324695e-05,-0.0046346164,0.0043697422,-0.0045579085,0.004318558,-0.00806799,-0.0033846868,0.5049928,-1.3815796,1.9042209,-2.0918791,-1.5708655,2.4800217,-0.011769623,0.011714406,-0.0037319565,0.0011659315,0.00011767916,-0.008381851,0.05746084,0.11492168,-9.385271,0.7866488,47.679718,-0.48371714,-3.1846318,-3.0832224,-0.1326076,0.10876635,-0.10803789,29.0625,30.375,29.375,33.0,35.5,36.5625
0.016053665,-2.2994509,-1.6113907,-1.7483386,-0.067138135,0.02853925,-0.0017060395,-0.38933674,-0.36870223,0.05996238,-3.078646,0.6248941,7.618989e-05,-0.00591095,0.003971235,-0.0036116638,0.0030930543,-0.005859127,0.003850248,0.5050046,-1.3815556,1.9041966,-2.0918915,-1.5708536,2.479983,-0.012291696,0.011756971,-0.0058282893,0.0006925213,0.00011552125,-0.016137939,-0.22984336,0.19153613,-9.385271,0.85826975,47.754948,-0.5433278,-3.244223,-2.9791245,-0.1295892,0.11367177,-0.056809783,29.0625,30.375,29.375,33.0,35.5,36.5625
0.018054174,-2.5939379,-1.6085242,-1.6513593,-0.05355685,0.053261112,-0.021680465,-0.38929904,-0.3686734,0.059906706,-3.0785782,0.62485886,-0.00014646117,-0.00578775,0.003986595,-0.0025607464,0.0023138395,-0.0044658277,0.009193248,0.5049687,-1.3815085,1.9042567,-2.0918434,-1.5708174,2.4799337,-0.012205386,0.009308547,-0.0054294793,0.001145686,0.000121417615,-0.021395259,-0.4405331,0.19153613,-9.672575,0.7530795,47.719128,-0.7426732,-2.9232764,-3.1305547,-0.11048567,0.13025922,0.024564082,29.0625,30.375,29.375,33.0,35.5,36.5625
0.020054024,-2.2814562,-0.94679713,-1.9042404,-0.017484747,0.07003869,-0.04857786,-0.38931346,-0.3686624,0.059914462,-3.0785675,0.62485737,-0.00013642295,-0.0052884566,0.0051133083,-0.0033680832,0.0044035255,-0.00824235,0.008454496,0.5049444,-1.3815082,1.9042329,-2.0918176,-1.5708297,2.47991,-0.013638285,0.010264764,-0.0054993015,0.004575046,0.00012696953,-0.022089599,-0.36391866,0.13407528,-9.672575,0.7620334,47.711063,-0.85326624,-2.8168688,-3.347711,-0.16531056,0.12034207,0.017777484,29.0625,30.375,29.375,33.0,35.5,36.5625
0.022053825,-2.4819496,-0.5160215,-2.195861,0.005497617,0.061292414,-0.057915114,-0.38933167,-0.36866048,0.059915885,-3.078566,0.6248993,-9.5181094e-05,-0.0066255564,0.005746053,-0.0038513462,0.004909663,-0.009213341,0.0020845537,0.50493157,-1.3814954,1.90422,-2.091842,-1.5708417,2.4799235,-0.015970865,0.012684862,-0.007386409,0.005136955,0.00015215449,-0.018051177,-0.38307226,0.11492168,-9.653421,0.7866488,47.71823,-0.82854927,-2.8821592,-3.3978605,-0.16888382,0.1411539,-0.0385144,29.0625,30.375,29.375,33.0,35.5,36.5625
0.02405338,-2.4349682,-0.6300197,-1.9587538,-0.0037882703,0.060335603,-0.07580936,-0.3893469,-0.36866778,0.059915923,-3.0786078,0.6247937,-0.00014640481,-0.009207032,0.005412278,-0.002275731,0.002606012,-0.005160557,-0.0020251893,0.50490695,-1.3814592,1.9041718,-2.091818,-1.5708054,2.4798276,-0.017851865,0.012719237,-0.010699788,0.003755275,0.00019748545,-0.015821004,-0.63206923,0.038307227,-9.595961,0.7150385,47.699425,-0.8799209,-2.790409,-3.3565488,-0.15161642,0.13598016,-0.088243045,29.0625,30.375,29.375,33.0,35.5,36.5625
0.026053553,-2.8200264,-0.7254782,-1.9656451,-0.020269187,0.068628676,-0.09553718,-0.38936907,-0.36865008,0.059889294,-3.0785418,0.6248773,-0.00017836211,-0.009972678,0.0045234393,-0.0027175313,0.0005821095,-0.0055286903,-0.0027602387,0.50487095,-1.3813864,1.9041466,-2.091819,-1.5708288,2.4798522,-0.018285487,0.015138987,-0.0121942945,0.0021658305,0.002139128,-0.01552179,-0.7278373,-0.019153614,-9.710882,0.73741806,47.681515,-0.84520257,-2.7912755,-3.3214118,-0.10439676,0.09856109,-0.094249904,29.0625,30.375,29.375,33.0,35.5,36.5625
0.028053874,-3.250762,-1.1851915,-2.1770227,-0.024583109,0.07618951,-0.09989886,-0.38936356,-0.36865315,0.05985567,-3.0785382,0.62479895,-0.0003017629,-0.010717158,0.0042323903,-0.002926613,-1.4926951e-05,-0.005805259,-0.0030741554,0.5048586,-1.3813137,1.9041346,-2.0918076,-1.5707926,2.4797914,-0.018899757,0.01690375,-0.013745004,0.0019032314,0.0027901786,-0.015822534,-0.6895301,-0.038307227,-9.80665,0.7709874,47.704796,-0.9448879,-2.7615097,-3.3387878,-0.08989115,0.093530074,-0.08389893,29.0625,30.375,29.375,33.0,35.5,36.5625
0.030053768,-2.515782,-1.4624512,-2.1578803,-0.019833202,0.113009416,-0.10958366,-0.38940638,-0.3686278,0.05988266,-3.0785186,0.62491065,-0.00020838078,-0.011116909,0.004643137,-0.003106665,0.0005448147,-0.0060406267,-0.004557506,0.50479853,-1.3813375,1.9040984,-2.0917947,-1.5708288,2.4798036,-0.019729197,0.017489221,-0.014077917,0.0021284553,0.0024145124,-0.015167624,-0.7278373,0.038307227,-9.825804,0.68146914,47.72002,-0.96404654,-2.8969781,-3.354858,-0.10208027,0.093554094,-0.11599624,29.0625,30.375,29.375,33.0,35.5,36.5625
0.03205384,-3.4990904,-1.3533833,-1.9365907,-0.0080979895,0.08521511,-0.114761874,-0.38941535,-0.36862457,0.05985381,-3.0785177,0.6249311,-0.00028924967,-0.01161241,0.0051187463,-0.003028093,0.001670289,-0.007119929,-0.0066715614,0.50476235,-1.3812772,1.9040979,-2.0918176,-1.570793,2.4797802,-0.020704782,0.0184066,-0.015879815,0.0045043966,0.0019525674,-0.014027782,-0.7278373,0.095768064,-9.864111,0.7665104,47.694946,-0.99970317,-2.7706077,-3.3452146,-0.12877172,0.120199114,-0.12301989,29.0625,30.375,29.375,33.0,35.5,36.5625
0.034053613,-2.4218392,-0.51756376,-2.207921,0.010034777,0.09544628,-0.13549186,-0.38946718,-0.36860597,0.05986383,-3.0785172,0.6250083,-0.00023330156,-0.0121141225,0.0055735447,-0.0024872643,0.0016299976,-0.0067533557,-0.007420632,0.50469,-1.3812534,1.9040498,-2.09183,-1.570805,2.479756,-0.021848584,0.017681079,-0.016476633,0.0054868357,0.0018114672,-0.014422169,-0.5746084,0.038307227,-9.825804,0.7329411,47.683304,-0.9799639,-2.7819428,-3.3828278,-0.131872,0.11507235,-0.14310794,29.0625,30.375,29.375,33.0,35.5,36.5625
0.036053877,-2.5749066,-0.8996409,-2.2670453,0.034735143,0.06941954,-0.13014229,-0.3894735,-0.36859488,0.059852693,-3.078464,0.6250364,-0.00031919402,-0.014115167,0.005802254,-0.0021306167,0.0007338097,-0.0049731117,-0.008838337,0.50466543,-1.3812048,1.9040016,-2.0917585,-1.570805,2.4797559,-0.024051772,0.018992513,-0.018562881,0.0042702793,0.0017262897,-0.0152064385,-0.51714754,-0.05746084,-9.730036,0.67475104,47.72092,-0.92887527,-2.7888305,-3.365912,-0.12253926,0.116297185,-0.15316212,29.0625,30.375,29.375,33.0,35.5,36.5625
0.03805343,-2.1190417,-0.76690704,-2.0723088,0.01549465,0.05379635,-0.1449335,-0.38953456,-0.36859068,0.05987163,-3.0784962,0.6250625,-0.00019282447,-0.015991732,0.006289008,-0.0016630482,-0.00031834084,-0.0032797868,-0.0101148505,0.50461644,-1.3811808,1.903941,-2.0918071,-1.5708293,2.4797192,-0.026683122,0.019538958,-0.02003099,0.0032001652,0.0018236216,-0.016560499,-0.47884035,0.0,-9.749189,0.7933669,47.660015,-0.84269845,-2.7122545,-3.3649168,-0.105698794,0.11159458,-0.15749653,29.0625,30.375,29.375,33.0,35.5,36.5625
0.04005424,-2.2208104,-1.0617318,-2.1507442,0.0038533963,0.04368846,-0.15117449,-0.3895537,-0.36854988,0.05985275,-3.0784445,0.62507105,-0.00022660238,-0.016884958,0.0059868633,-0.0009698104,-0.0019172495,-0.0017972847,-0.009733256,0.50454444,-1.3811568,1.903953,-2.0917947,-1.5708526,2.479659,-0.027431518,0.019271744,-0.021134192,0.0024969564,0.0025012458,-0.017691312,-0.59376204,0.11492168,-9.787497,0.78217715,47.67345,-0.93997836,-2.7835507,-3.334044,-0.07012148,0.09421924,-0.17509913,29.0625,30.375,29.375,33.0,35.5,36.5625
0.042054992,-1.8966602,-1.0499264,-2.1629305,-0.009086859,0.044401262,-0.16178358,-0.38959002,-0.36855212,0.0598486,-3.0784616,0.6250932,-0.00030454993,-0.017769838,0.006140329,-0.0009871204,-0.0020774037,-0.0017238304,-0.009709807,0.5044842,-1.3810843,1.9038686,-2.091759,-1.5708045,2.4796104,-0.028577913,0.020391412,-0.022426412,0.0025282984,0.0026023302,-0.0188607,-0.36391866,0.05746084,-9.749189,0.6971306,47.66271,-0.9698935,-2.733886,-3.2944913,-0.061616153,0.10247504,-0.16866903,29.0625,30.375,29.375,33.0,35.5,36.5625
0.044053644,-1.752769,-1.0819561,-1.9287765,-0.0014083406,0.040016133,-0.17620163,-0.38964427,-0.3685562,0.05985805,-3.078483,0.625214,-0.00019284626,-0.01854256,0.006518725,-0.0008733197,-0.001705095,-0.0022947486,-0.01082751,0.50444776,-1.381048,1.9038204,-2.0918305,-1.5708164,2.4796467,-0.02990362,0.021323098,-0.024112286,0.003962269,0.0025535068,-0.019067718,-0.22984336,0.076614454,-9.691729,0.70608455,47.637623,-0.9148456,-2.7602541,-3.35807,-0.085180156,0.10372699,-0.20723446,29.0625,30.375,29.375,33.0,35.5,36.5625
0.046054203,-1.6918381,-1.1672411,-2.1393502,0.005587142,0.021525254,-0.18638538,-0.3896861,-0.36853373,0.05985689,-3.0784616,0.62521,-0.00026220284,-0.01973094,0.006945795,-0.00014937484,-0.00220774,-0.0017681521,-0.011691787,0.50436336,-1.3809879,1.9037355,-2.091758,-1.5708045,2.4795625,-0.031843856,0.02125711,-0.025956333,0.0051680314,0.0027365356,-0.02014351,-0.11492168,0.11492168,-9.691729,0.7732232,47.684196,-0.92753375,-2.655469,-3.3645113,-0.10180476,0.11381343,-0.20334452,29.0625,30.375,29.375,33.0,35.5,36.5625
0.0480539,-1.4767971,-1.4942979,-2.1918507,0.0117267715,0.007355519,-0.18294053,-0.38973492,-0.36852917,0.059871677,-3.0784972,0.6252354,-0.0002179971,-0.021172144,0.007390184,0.00021331506,-0.0028129278,-0.00092765805,-0.012002518,0.5043026,-1.3809636,1.9036759,-2.09177,-1.5707926,2.4795132,-0.034009878,0.021846991,-0.027451424,0.0050447406,0.0028571468,-0.021998165,-0.019153614,0.17238252,-9.519346,0.80456203,47.717335,-0.84341645,-2.703423,-3.307579,-0.080191895,0.105093524,-0.23075071,29.0625,30.375,29.375,33.0,35.5,36.5625
0.050054144,-0.92082036,-0.77590275,-2.0157743,-0.019961223,0.010853439,-0.19450033,-0.3897748,-0.36849496,0.059864137,-3.0784402,0.6252619,-0.00022364566,-0.022105807,0.007575681,6.285292e-05,-0.0029897687,-0.0008526112,-0.011419791,0.5042304,-1.3809152,1.9036278,-2.0917346,-1.5708288,2.4794648,-0.035263393,0.023156326,-0.028582908,0.004714492,0.0029711935,-0.02383401,0.095768064,0.19153613,-9.442732,0.80456203,47.711964,-0.84148765,-2.702887,-3.2921896,-0.07582557,0.106661044,-0.20757928,29.0625,30.375,29.375,33.0,35.5,36.5625
0.052053805,-0.5510684,-1.6590735,-1.9608443,-0.0132307485,0.022062,-0.1584793,-0.38980255,-0.3684851,0.05984428,-3.0784416,0.625358,-0.0003028572,-0.02280853,0.008445182,-0.00048474307,-0.002982741,-0.0016716367,-0.0122072045,0.5041578,-1.3808548,1.9036044,-2.0917466,-1.5707806,2.479452,-0.03762251,0.0239912,-0.028215753,0.0042327936,0.0033593047,-0.025406456,-0.019153614,0.21068975,-9.519346,0.78888994,47.691364,-0.83004475,-2.692823,-3.4049897,-0.0650341,0.09729452,-0.2303037,29.0625,30.375,29.375,33.0,35.5,36.5625
0.05405374,-1.4329045,-1.8800803,-1.9921147,-0.015973246,0.004834633,-0.15046376,-0.38985765,-0.36847556,0.05985446,-3.07846,0.6253809,-0.00023371118,-0.023891918,0.008611077,-0.00014364826,-0.0037356198,-0.0011885188,-0.011747295,0.5040974,-1.3808186,1.9035438,-2.0917704,-1.5707921,2.4794035,-0.039173506,0.024540598,-0.029668357,0.004347492,0.003782951,-0.027417272,0.05746084,0.24899697,-9.442732,0.8090337,47.704796,-0.705271,-2.607205,-3.3667743,-0.07577084,0.113622665,-0.23269288,29.0625,30.375,29.375,33.0,35.5,36.5625
0.056054067,-1.456288,-1.2965485,-1.8374547,-0.031459164,0.005342063,-0.16549431,-0.3899029,-0.36846167,0.05986016,-3.0784962,0.6253868,-0.00028166707,-0.024409885,0.0075189783,0.00095022103,-0.004869057,0.00030846623,-0.009170464,0.50400203,-1.3807826,1.9034828,-2.091746,-1.5707444,2.4793072,-0.037980527,0.024576217,-0.032387823,0.0051737493,0.0040482176,-0.028800558,0.019153614,0.22984336,-9.442732,0.7620334,47.707485,-0.83478737,-2.6001549,-3.3179255,-0.0607854,0.091465876,-0.231994,29.0625,30.375,29.375,33.0,35.5,36.5625
0.05805381,-0.93768865,-1.4749658,-1.8364424,-0.011663899,0.016256526,-0.15981469,-0.38996497,-0.36842114,0.059860747,-3.0784118,0.62554324,-0.00026291926,-0.02546491,0.0081316605,0.0010230397,-0.0055365823,-0.00026964044,-0.010837402,0.5039053,-1.3807223,1.9033993,-2.0916984,-1.5707916,2.4793189,-0.040529553,0.025212104,-0.033442687,0.005772454,0.004910301,-0.029683808,0.0,0.24899697,-9.3661175,0.78888994,47.686886,-0.8679136,-2.6078582,-3.2872126,-0.05570125,0.09903634,-0.232825,29.0625,30.375,29.375,33.0,35.5,36.5625
0.060053162,-1.1870071,-1.0385317,-1.8533994,-0.014560481,0.011850891,-0.15707451,-0.38999876,-0.3684154,0.05986541,-3.0784469,0.6254919,-0.00024615624,-0.026275054,0.00869925,0.0008872957,-0.0052139023,-0.00048311992,-0.011438611,0.5038569,-1.3806981,1.9033626,-2.0917099,-1.5707802,2.479234,-0.04212555,0.026056804,-0.03418825,0.0060172165,0.0047302856,-0.030677753,0.0,0.22984336,-9.423578,0.7038487,47.716442,-0.797333,-2.6083379,-3.2931113,-0.067269064,0.08975583,-0.25836325,29.0625,30.375,29.375,33.0,35.5,36.5625
0.062054265,-0.9095514,-1.5560682,-1.7617847,-0.012446973,0.025805287,-0.15655018,-0.3900527,-0.36838543,0.05986503,-3.078422,0.625544,-0.0003010053,-0.027205465,0.009083446,0.0009867863,-0.005220875,-0.00017122553,-0.011361431,0.5037487,-1.3806376,1.9032787,-2.0916507,-1.5707682,2.4791615,-0.04354288,0.026725149,-0.03522801,0.006113436,0.00458246,-0.03217165,-0.038307227,0.30645782,-9.3661175,0.78217715,47.684196,-0.7537015,-2.5842085,-3.3370886,-0.07316754,0.07990669,-0.24498156,29.0625,30.375,29.375,33.0,35.5,36.5625
0.06405406,-1.4007801,-1.6477282,-1.9012963,-0.013143058,0.02777569,-0.15674503,-0.3901369,-0.36838922,0.059900865,-3.078486,0.6255767,-0.00017418772,-0.028068596,0.008983754,0.0013094853,-0.005487317,0.00054482435,-0.0112572955,0.50367653,-1.3806013,1.9031595,-2.091674,-1.5707682,2.4791017,-0.04410262,0.027465044,-0.03687103,0.0062615434,0.004470428,-0.032834083,-0.15322891,0.22984336,-9.32781,0.7933669,47.677036,-0.87539995,-2.50175,-3.3036523,-0.06909986,0.079759866,-0.26249272,29.0625,30.375,29.375,33.0,35.5,36.5625
0.06605412,-1.6223476,-0.9724328,-1.5820996,-0.027476922,0.037996594,-0.16541418,-0.39019468,-0.36836863,0.059900433,-3.0784843,0.625634,-0.00018652219,-0.029229602,0.009448936,0.0015778781,-0.005660545,0.0009979405,-0.011837238,0.5035802,-1.3805412,1.9030865,-2.0916617,-1.5707558,2.4790413,-0.04591912,0.028041748,-0.038234793,0.006569167,0.004401296,-0.03406991,-0.24899697,0.11492168,-9.3661175,0.78888994,47.690468,-0.81274974,-2.5437257,-3.2981973,-0.064851984,0.06937973,-0.2774305,29.0625,30.375,29.375,33.0,35.5,36.5625
0.06805382,-1.9887062,-1.5060449,-1.7115823,-0.0022348824,0.041344307,-0.15232033,-0.3902313,-0.36835223,0.059885222,-3.0785074,0.6255806,-0.00025140884,-0.030118985,0.009616099,0.0018109402,-0.005753698,0.0014349328,-0.012265945,0.5034961,-1.3804809,1.9030498,-2.0916617,-1.5707201,2.478921,-0.046943035,0.028718403,-0.039634172,0.006866251,0.0042690434,-0.034664355,-0.19153613,0.15322891,-9.423578,0.7620334,47.698532,-0.8725766,-2.555701,-3.2831516,-0.06472645,0.0960293,-0.27768567,29.0625,30.375,29.375,33.0,35.5,36.5625
0.07005357,-1.5230651,-0.83554435,-1.6113172,-0.01138659,0.062312875,-0.16211854,-0.3903107,-0.36831334,0.059898455,-3.078476,0.6257269,-0.00022589782,-0.03083031,0.009573905,0.0018575765,-0.006165796,0.0017752252,-0.011453147,0.5033641,-1.3804325,1.9029545,-2.091626,-1.570732,2.4788842,-0.047648363,0.029564792,-0.0406731,0.0065613138,0.0044634957,-0.036182176,-0.30645782,0.17238252,-9.385271,0.7911258,47.72719,-0.81099087,-2.4740553,-3.263843,-0.07147952,0.0845111,-0.31247854,29.0625,30.375,29.375,33.0,35.5,36.5625
0.07205352,-1.9202588,-0.88308483,-1.6021446,0.0010876335,0.052615196,-0.15387733,-0.39036044,-0.36831194,0.059906125,-3.0785098,0.6256758,-0.00018358338,-0.032049976,0.010296281,0.0017144287,-0.0062722787,0.001508185,-0.011833205,0.5033153,-1.3803841,1.9028825,-2.0916378,-1.570732,2.4787993,-0.050133616,0.030682888,-0.041688643,0.0066406666,0.0046846685,-0.038287,-0.30645782,0.19153613,-9.270349,0.7709874,47.67166,-0.8189404,-2.4956625,-3.2738588,-0.07894626,0.0909586,-0.2930599,29.0625,30.375,29.375,33.0,35.5,36.5625
0.07405325,-1.9875866,-0.8250087,-1.7349818,0.0034014974,0.058712132,-0.15307853,-0.3904218,-0.36830202,0.0598969,-3.0785136,0.62575406,-0.00023537024,-0.033040643,0.010701883,0.0015129227,-0.006205378,0.0013165014,-0.012635143,0.50321907,-1.3802875,1.9027866,-2.091626,-1.5706962,2.4787514,-0.05175154,0.03203333,-0.042827692,0.006631174,0.004715766,-0.039102424,-0.4213795,0.095768064,-9.289502,0.8023209,47.707485,-0.74330366,-2.4322808,-3.3130145,-0.06634811,0.086055726,-0.31432644,29.0625,30.375,29.375,33.0,35.5,36.5625
0.07605347,-1.6435349,-0.8598228,-1.6528412,0.012431741,0.06830661,-0.15421037,-0.39048967,-0.3682645,0.059892196,-3.0785058,0.6257505,-0.00022349041,-0.03300065,0.009800976,0.0018121799,-0.006480945,0.0017370278,-0.011155859,0.50309986,-1.3802273,1.902726,-2.091626,-1.5707077,2.478631,-0.05021397,0.032686096,-0.04437062,0.00702005,0.0047524963,-0.039043512,-0.4213795,0.038307227,-9.385271,0.71951014,47.696735,-0.9126407,-2.4961894,-3.19559,-0.060750183,0.07193209,-0.33975202,29.0625,30.375,29.375,33.0,35.5,36.5625
0.07805334,-2.1302774,-0.5970638,-1.5458097,0.0108210305,0.06502854,-0.15622142,-0.39057356,-0.3682578,0.059919603,-3.0785487,0.62581664,-0.0001506455,-0.03465977,0.010559696,0.0018740189,-0.006710041,0.0020932006,-0.01110615,0.50300294,-1.3801788,1.9026064,-2.091626,-1.5706958,2.47857,-0.05304377,0.0338979,-0.045928072,0.006944045,0.0047808182,-0.0419219,-0.53630114,0.038307227,-9.32781,0.86945957,47.667187,-0.8914912,-2.40888,-3.27786,-0.055539653,0.06620903,-0.3422016,29.0625,30.375,29.375,33.0,35.5,36.5625
0.080054104,-2.1628082,-0.9691162,-1.5731857,0.021111805,0.06036263,-0.1538534,-0.3906414,-0.36824495,0.05992581,-3.0785372,0.6257949,-0.00017900301,-0.035720006,0.011597962,0.0017366462,-0.006058979,0.0017327449,-0.010858116,0.5029184,-1.3800824,1.9024619,-2.091554,-1.5706962,2.4784734,-0.055521607,0.034641404,-0.046631914,0.0075358697,0.0043829684,-0.044646904,-0.45968673,0.038307227,-9.346964,0.86498255,47.713753,-0.89281994,-2.4339333,-3.2700348,-0.064810626,0.07965353,-0.34134814,29.0625,30.375,29.375,33.0,35.5,36.5625
0.08205372,-1.6077472,-0.5984936,-1.7609507,0.012410173,0.06990915,-0.15790932,-0.39070016,-0.36822367,0.059911337,-3.0785577,0.6258747,-0.00022975019,-0.036747035,0.012414271,0.0013228864,-0.005396068,0.0012156643,-0.009020301,0.50279784,-1.3800097,1.9024142,-2.0915778,-1.5706481,2.4784,-0.05763536,0.03608555,-0.047430746,0.0076672,0.0040497156,-0.048597403,-0.45968673,-0.019153614,-9.423578,0.7016076,47.67345,-0.71875644,-2.5216985,-3.319905,-0.07374312,0.07784037,-0.303293,29.0625,30.375,29.375,33.0,35.5,36.5625
0.08405333,-1.8957083,-0.54130274,-1.6266503,0.0004481493,0.063882224,-0.15471806,-0.39079088,-0.36820933,0.05994419,3.0786042,-0.6258611,0.00017959684,-0.036904078,0.010988448,0.0018551231,-0.0060142404,0.0024473362,-0.0044364776,0.502667,-1.3799735,1.902294,-2.0915663,-1.5706123,2.4782548,-0.055337768,0.03708463,-0.049829587,0.007692507,0.0039966954,-0.05088213,-0.47884035,-0.05746084,-9.385271,0.74413085,47.653748,-0.9477686,-2.5289774,-3.1760912,-0.053437933,0.082234375,-0.29564685,29.0625,30.375,29.375,33.0,35.5,36.5625
0.08605443,-1.5301354,-0.9203455,-1.765201,0.00789944,0.07357031,-0.15176871,-0.39085257,-0.36816573,0.05991699,-3.0785623,0.62589186,-0.00021611524,-0.038131647,0.011743231,0.0016745484,-0.005990905,0.0021963897,-0.006863119,0.50255847,-1.3798649,1.902222,-2.091542,-1.5706481,2.4781709,-0.057802327,0.03826855,-0.050835222,0.007743657,0.0040924973,-0.050919864,-0.51714754,-0.095768064,-9.32781,0.75084364,47.691364,-0.93842196,-2.4465625,-3.1304762,-0.060359843,0.07979202,-0.2991426,29.0625,30.375,29.375,33.0,35.5,36.5625
0.088054195,-1.8986932,-0.9303525,-1.7446432,0.008068396,0.06247733,-0.14905839,-0.39093375,-0.36813372,0.059913237,-3.0785637,0.62596744,-0.00024378345,-0.037699267,0.013027724,6.526738e-05,-0.0038476575,-0.0006642059,-0.0040972005,0.5024142,-1.3797803,1.9021276,-2.0915296,-1.5706242,2.4780736,-0.059241064,0.039744236,-0.048967827,0.007943701,0.0035961017,-0.055124283,-0.38307226,0.019153614,-9.385271,0.8179876,47.690468,-0.88988745,-2.5110023,-3.332767,-0.05506497,0.09477934,-0.2770403,29.0625,30.375,29.375,33.0,35.5,36.5625
0.090053864,-1.5011362,-0.5741978,-1.7015285,-0.0020848718,0.06240128,-0.15517616,-0.39101353,-0.36811194,0.059928603,-3.078581,0.6259111,-0.00017566772,-0.038978495,0.012527614,0.00097203575,-0.0047578416,0.0010123154,-0.0007825135,0.5023182,-1.3797202,1.9020189,-2.0915177,-1.5706481,2.4779403,-0.05957099,0.04036797,-0.05185021,0.008293996,0.0035829807,-0.058767516,-0.3256114,0.076614454,-9.404425,0.7150385,47.657326,-0.95665526,-2.4987717,-3.2705703,-0.07993753,0.09035956,-0.22736266,29.0625,30.375,29.375,33.0,35.5,36.5625
0.09205376,-1.508456,-1.0610433,-1.7642053,0.0046486673,0.05505593,-0.14456356,-0.3910907,-0.36808318,0.059917353,-3.078566,0.62590724,-0.00020471874,-0.040416844,0.012370839,0.0009746822,-0.0054033305,0.0010794913,0.0005401435,0.50219804,-1.3796113,1.9019102,-2.0914938,-1.5706481,2.4778197,-0.060962725,0.04263655,-0.05456077,0.008365034,0.0041093123,-0.061481394,-0.3256114,0.05746084,-9.308657,0.8023209,47.670765,-1.0016907,-2.535476,-3.2953138,-0.09213662,0.08550732,-0.19311199,29.0625,30.375,29.375,33.0,35.5,36.5625
0.094053745,-1.657257,-1.2707801,-1.9539113,0.010046951,0.04075198,-0.15030932,-0.39117414,-0.36804563,0.05991296,-3.0785813,0.6259645,-0.00021434586,-0.041326594,0.012081139,0.0018803597,-0.0065035783,0.002493084,0.003052517,0.5020424,-1.3795394,1.9018377,-2.0915058,-1.5706242,2.4776978,-0.061483335,0.042373132,-0.05638505,0.008685442,0.0043912777,-0.064514115,-0.28730422,0.17238252,-9.308656,0.7418897,47.684196,-1.0450068,-2.5716932,-3.1534266,-0.09011389,0.089715436,-0.15605298,29.0625,30.375,29.375,33.0,35.5,36.5625
0.09605403,-1.4997609,-1.0354944,-1.8842756,-0.0029383614,0.04122818,-0.14560585,-0.39125344,-0.36801967,0.05992094,-3.078575,0.62596345,-0.000284571,-0.040799357,0.013077246,0.0001408249,-0.00486455,-0.00055114005,0.0037129975,0.50191015,-1.3794425,1.9016832,-2.09141,-1.5706004,2.4775658,-0.06267644,0.0441551,-0.054490544,0.008468491,0.004420547,-0.066368386,-0.1340753,0.24899697,-9.32781,0.73069996,47.71286,-1.0771787,-2.4242635,-3.353778,-0.09935993,0.09591971,-0.12356728,29.0625,30.375,29.375,33.0,35.5,36.5625
0.098054215,-1.4261298,-1.2584891,-1.7755506,-0.02251771,0.04146581,-0.15620968,-0.39134434,-0.36798257,0.059914358,-3.0785692,0.625941,-0.00024624303,-0.042354967,0.0127524845,0.0007400859,-0.0058119427,0.0010686843,0.004462416,0.5017781,-1.3793461,1.9015869,-2.0914218,-1.5706242,2.4774206,-0.06359075,0.04535183,-0.057189282,0.008093651,0.004466086,-0.06803083,-0.095768064,0.2681506,-9.270349,0.81351066,47.666286,-1.1062992,-2.5466952,-3.2863986,-0.09903416,0.10201849,-0.10676153,29.0625,30.375,29.375,33.0,35.5,36.5625
0.10005382,-0.86071724,-1.3567762,-1.749003,-0.03982004,0.04603236,-0.15667515,-0.39142954,-0.36796802,0.059938647,-3.078598,0.6259091,-0.00017691014,-0.04336699,0.012824836,0.0010278639,-0.006442543,0.0018964587,0.0039541726,0.5016819,-1.3792858,1.9014548,-2.091398,-1.5706362,2.477301,-0.0647362,0.04591545,-0.05843407,0.0077449023,0.004620935,-0.06866744,-0.15322891,0.2681506,-9.3661175,0.7709874,47.675243,-1.1007199,-2.5488973,-3.2506626,-0.08805725,0.109019056,-0.060348026,29.0625,30.375,29.375,33.0,35.5,36.5625
0.102053486,-1.5770313,-2.119334,-2.004357,-0.02395214,0.025503332,-0.13802737,-0.3915224,-0.36792907,0.059916712,-3.078601,0.62585205,-0.00016477205,-0.0442553,0.013455028,0.00095980894,-0.0061045876,0.0012977987,0.0018992142,0.50153756,-1.3791654,1.9013704,-2.0914342,-1.5706481,2.4771206,-0.0666019,0.046889327,-0.05964753,0.0086718025,0.004612659,-0.06847763,0.0,0.22984336,-9.3661175,0.7217513,47.625084,-1.1225507,-2.4301782,-3.2426243,-0.08814502,0.11235893,-0.06340626,29.0625,30.375,29.375,33.0,35.5,36.5625
0.104053274,-0.8565335,-1.7901018,-1.9702011,-0.028766217,0.030750258,-0.14773937,-0.3916014,-0.36791718,0.059924446,-3.0786211,0.62583804,-0.00019143076,-0.044944525,0.013933518,-7.661232e-05,-0.005278153,-0.0003615133,-0.00025942017,0.5014294,-1.3790681,1.9012269,-2.091386,-1.5706242,2.4770012,-0.06807936,0.049627427,-0.060535733,0.008676042,0.004684006,-0.06779579,0.0,0.2681506,-9.404425,0.73741806,47.660015,-1.1091757,-2.7042065,-3.2990408,-0.10137594,0.10247631,-0.049970634,29.0625,30.375,29.375,33.0,35.5,36.5625
0.10605401,-0.68220025,-1.7063601,-1.8836212,-0.030270057,0.019200947,-0.14377181,-0.3917051,-0.3678773,0.059938446,3.0786066,-0.62587357,0.0001371115,-0.045984924,0.013939364,0.0009964089,-0.006944757,0.0014920534,-0.0024489157,0.5012732,-1.3789966,1.9011077,-2.0913742,-1.5706357,2.476869,-0.06939223,0.048491582,-0.061578676,0.008426265,0.005254824,-0.06691961,-0.038307227,0.34476504,-9.385271,0.8090337,47.71017,-1.1057898,-2.5439255,-3.3094838,-0.11461802,0.10269892,-0.08047384,29.0625,30.375,29.375,33.0,35.5,36.5625
0.10805345,-0.47522467,-1.8654023,-1.8706887,-0.025637543,0.021694519,-0.13766104,-0.39179444,-0.36785868,0.059910916,3.078567,-0.6259626,0.0002160511,-0.04712765,0.014270686,0.0012526921,-0.00730855,0.0022215452,-0.0052885683,0.501129,-1.3788403,1.900988,-2.091386,-1.5705875,2.4767854,-0.070971124,0.0490722,-0.0628231,0.008279509,0.0052194786,-0.06565834,-0.095768064,0.36391866,-9.423578,0.83813137,47.685097,-1.0487757,-2.5378656,-3.2932715,-0.11331756,0.10798703,-0.060970426,29.0625,30.375,29.375,33.0,35.5,36.5625
0.11005331,-0.6111392,-1.8435316,-2.019304,-0.021363579,0.02086617,-0.14253081,-0.39188537,-0.3678151,0.05991391,3.0785513,-0.6259794,0.00028100747,-0.047874633,0.014249001,0.0010716124,-0.007802765,0.0015686793,-0.007676844,0.5009491,-1.3787557,1.9008673,-2.0913265,-1.5705518,2.476618,-0.07207451,0.05061802,-0.064307205,0.008553479,0.0059634764,-0.06437394,-0.05746084,0.36391866,-9.442732,0.7933669,47.684196,-1.0304081,-2.4567037,-3.2609954,-0.09919435,0.10917194,-0.08951765,29.0625,30.375,29.375,33.0,35.5,36.5625
0.112053975,-0.6071487,-1.5868865,-1.8143222,-0.025945026,0.028038613,-0.14380737,-0.3919833,-0.3678077,0.059925262,3.0785418,-0.6259205,0.00021461862,-0.048221648,0.014401823,8.011473e-05,-0.0073813586,-0.00029339257,-0.009898047,0.50085294,-1.3786466,1.9007124,-2.0913265,-1.5705632,2.4764864,-0.07296639,0.053150702,-0.06506991,0.008616957,0.006489966,-0.06304446,-0.05746084,0.2873042,-9.385271,0.7978386,47.674347,-1.1614612,-2.5806518,-3.3332324,-0.10127069,0.09540929,-0.09807693,29.0625,30.375,29.375,33.0,35.5,36.5625
0.11405383,-1.1372373,-1.452192,-1.8050983,-0.028158013,0.03245025,-0.15046139,-0.3920832,-0.367795,0.059935126,3.0784864,-0.62592906,0.00023520901,-0.04882201,0.014307237,0.00034781094,-0.008149541,-0.00012504075,-0.011868102,0.500709,-1.3785384,1.9005564,-2.0913026,-1.570515,2.4763548,-0.073714264,0.053547766,-0.066204414,0.0088395495,0.007083095,-0.061822534,-0.095768064,0.28730422,-9.500193,0.7866488,47.689575,-1.146745,-2.6112623,-3.2989223,-0.09833704,0.08907047,-0.13627309,29.0625,30.375,29.375,33.0,35.5,36.5625
0.1160541,-0.96777505,-1.2975205,-1.7323892,-0.019165492,0.047320087,-0.15059209,-0.39218763,-0.3677499,0.05992424,3.078459,-0.6260583,0.00026278695,-0.04990936,0.014296734,0.0018062105,-0.009590642,0.0022727358,-0.014101106,0.500529,-1.3784189,1.9004368,-2.0912898,-1.5705031,2.476259,-0.07475222,0.051909115,-0.06765402,0.009134,0.0071942285,-0.060627464,-0.11492168,0.21068975,-9.423578,0.800085,47.660015,-1.204793,-2.4351497,-3.3186507,-0.12886685,0.08250197,-0.17375147,29.0625,30.375,29.375,33.0,35.5,36.5625
0.11805371,-1.7609185,-1.04499,-1.7291155,-0.0027923058,0.037353687,-0.13941799,-0.39227882,-0.36771232,0.059926752,3.0784721,-0.6260436,0.00022372695,-0.05114471,0.015523724,0.00092656905,-0.0084388135,0.0006115514,-0.017362831,0.5003962,-1.3783342,1.900328,-2.0912783,-1.570527,2.4761155,-0.07781236,0.054347698,-0.06868113,0.0097329365,0.006981415,-0.060424738,-0.019153614,0.19153613,-9.461885,0.8627467,47.672558,-1.202274,-2.5010295,-3.3042629,-0.11628735,0.08327201,-0.19602546,29.0625,30.375,29.375,33.0,35.5,36.5625
0.12005359,-0.7971715,-0.46401685,-1.736317,-0.011007471,0.061190825,-0.14591995,-0.39240316,-0.36768857,0.059941493,3.078424,-0.6261286,0.00016910252,-0.051378783,0.014404591,0.0010987894,-0.009837693,0.0009566954,-0.016644342,0.50024086,-1.3782134,1.9001487,-2.091266,-1.5705265,2.4760194,-0.07678494,0.055483572,-0.0703156,0.009254927,0.008042166,-0.060116164,-0.22984336,0.076614454,-9.385271,0.82022345,47.690468,-1.2055261,-2.5185924,-3.3530154,-0.12299203,0.08342619,-0.2446944,29.0625,30.375,29.375,33.0,35.5,36.5625
0.12205415,-1.09276,-0.67933035,-1.896923,0.00020834274,0.05551813,-0.14440498,-0.39250866,-0.36767632,0.059952237,3.0783527,-0.62613136,0.00018870515,-0.05177338,0.014564303,0.00082806434,-0.010346888,2.0366644e-05,-0.015116889,0.50008494,-1.378105,1.8999933,-2.091254,-1.5704659,2.4758742,-0.07795678,0.05640505,-0.070837036,0.009434668,0.008940346,-0.062816136,-0.34476504,-0.019153614,-9.404425,0.7642693,47.661808,-1.3743787,-2.5180054,-3.3693419,-0.12032963,0.07399253,-0.22422363,29.0625,30.375,29.375,33.0,35.5,36.5625
0.124054,-1.6811401,-0.65724826,-1.9327048,0.01145122,0.048080035,-0.13870783,-0.39259836,-0.3676336,0.059938397,3.0783527,-0.6261918,0.00026839855,-0.05575699,0.015611001,0.0024843393,-0.011450853,0.0036212457,-0.020628015,0.4999156,-1.3779846,1.8998712,-2.0912058,-1.5704426,2.4757426,-0.08290254,0.05726073,-0.07569704,0.009755271,0.008171184,-0.062248014,-0.3256114,-0.038307227,-9.385271,0.8403672,47.66987,-1.1782342,-2.4527774,-3.1130981,-0.1153582,0.052734636,-0.26858124,29.0625,30.375,29.375,33.0,35.5,36.5625
0.1260542,-1.4379895,-0.57680047,-1.8808006,0.013772665,0.05995702,-0.14867981,-0.39267403,-0.3676091,0.059894696,3.078399,-0.6261605,0.0003706175,-0.0537165,0.015163279,0.00081363716,-0.009632321,0.00047787616,-0.018544093,0.4997969,-1.3778039,1.8997539,-2.0911944,-1.5704306,2.4755986,-0.080194786,0.058813903,-0.07378584,0.009923198,0.008082516,-0.061625216,-0.34476504,-0.1340753,-9.3661175,0.7351769,47.71017,-1.3498628,-2.4912221,-3.2469444,-0.128788,0.055610277,-0.30535686,29.0625,30.375,29.375,33.0,35.5,36.5625
0.12805408,-1.586505,-0.4116667,-1.9363596,0.0036644062,0.07211315,-0.14997417,-0.3928155,-0.36757225,0.059928436,3.0783203,-0.62627935,0.00027197332,-0.05522902,0.015861388,0.0008635749,-0.009731177,0.00023920134,-0.019536054,0.4996042,-1.3777195,1.8995742,-2.0911815,-1.5704306,2.47549,-0.08286653,0.060229067,-0.07573909,0.010624739,0.008287063,-0.0633037,-0.45968673,-0.11492168,-9.461885,0.800085,47.63315,-1.2919405,-2.629672,-3.2991529,-0.14248383,0.053994644,-0.3364315,29.0625,30.375,29.375,33.0,35.5,36.5625
0.13005377,-2.0330195,-0.49352834,-1.9284979,-0.0035867125,0.07895058,-0.15159784,-0.3929284,-0.36751726,0.059938535,3.0782914,-0.6263687,0.00028220908,-0.057658724,0.015877493,0.0025561429,-0.011071599,0.0036441842,-0.020531127,0.49940005,-1.3776354,1.8994406,-2.0911338,-1.5704187,2.4753454,-0.08482644,0.0600718,-0.07946481,0.0108811045,0.0078267045,-0.06426642,-0.6512228,-0.019153614,-9.5385,0.7866488,47.694054,-1.3003412,-2.40917,-3.1046066,-0.13638836,0.046187706,-0.33689904,29.0625,30.375,29.375,33.0,35.5,36.5625
0.13205333,-2.7421038,-1.0287024,-2.2701564,0.0073962263,0.0722577,-0.13403957,-0.39302966,-0.36750075,0.059920825,3.0782688,-0.62634706,0.00032192122,-0.0569893,0.016746543,0.0015882936,-0.010100441,0.0014705173,-0.023965416,0.49925616,-1.3774792,1.8992985,-2.0911458,-1.5703825,2.4751909,-0.08576923,0.060209453,-0.07749656,0.011150503,0.008020766,-0.06177604,-0.6703765,-0.05746084,-9.5385,0.7933669,47.652847,-1.3041236,-2.3883328,-3.2866287,-0.16216135,0.039636824,-0.41326922,29.0625,30.375,29.375,33.0,35.5,36.5625
0.13405412,-2.5116582,-1.0162458,-2.159828,-0.01120696,0.09359688,-0.1427324,-0.39316183,-0.36744228,0.059933804,3.0782614,-0.62651753,0.00031283338,-0.05894609,0.017897574,0.00034894233,-0.009172325,-0.0011734397,-0.025755646,0.49905097,-1.3773576,1.8991059,-2.0910618,-1.5704068,2.4750931,-0.08976407,0.06471352,-0.08025363,0.012168381,0.008468033,-0.063979715,-0.61291564,-0.038307227,-9.576807,0.74413085,47.67345,-1.1495368,-2.588489,-3.2656584,-0.1753698,0.05404196,-0.44490325,29.0625,30.375,29.375,33.0,35.5,36.5625
0.13605338,-2.3470378,-1.3711493,-2.0519402,-0.009613432,0.09900784,-0.1448594,-0.39327013,-0.36744595,0.05995329,3.0781827,-0.6265183,0.00031697695,-0.059348095,0.016940527,0.0023019507,-0.010765939,0.0024929584,-0.021093974,0.49891984,-1.3772383,1.8989147,-2.0910375,-1.5703467,2.4749725,-0.088278726,0.06219166,-0.08171396,0.012176029,0.008113513,-0.06715497,-0.6703765,0.11492168,-9.557653,0.7866488,47.67345,-1.3397855,-2.4877114,-3.2399168,-0.18187994,0.043879874,-0.44214353,29.0625,30.375,29.375,33.0,35.5,36.5625
0.13805388,-2.5466344,-0.9531704,-2.0801747,-0.018459413,0.09981682,-0.14891225,-0.39338568,-0.36736834,0.059922874,3.0782073,-0.6266387,0.00037801283,-0.061607536,0.019491335,0.0015090415,-0.009848657,0.0015345607,-0.024003584,0.4986902,-1.3770936,1.8988069,-2.0910137,-1.5703586,2.474815,-0.094408095,0.06380042,-0.08176501,0.0119022215,0.0077630966,-0.070374414,-0.7469909,0.114921674,-9.615114,0.87393653,47.657326,-1.2088369,-2.4462795,-3.2323782,-0.18641603,0.044162013,-0.46396512,29.0625,30.375,29.375,33.0,35.5,36.5625
0.14005339,-1.8548074,-0.75214493,-2.0654042,-0.012213473,0.11318252,-0.1592826,-0.39349288,-0.36735064,0.05991423,3.0782065,-0.62663406,0.00043276188,-0.061719015,0.01902321,0.0013159394,-0.009508632,0.0016447878,-0.016881943,0.49854702,-1.3769249,1.8986157,-2.0909655,-1.5703353,2.474669,-0.09347925,0.06505203,-0.082783334,0.01174109,0.0074079037,-0.07656628,-0.6512228,0.095768064,-9.615114,0.82022345,47.686886,-1.2164266,-2.461935,-3.2556915,-0.21108967,0.045842245,-0.41435048,29.0625,30.375,29.375,33.0,35.5,36.5625
0.14205325,-1.8531393,-1.0343796,-2.0253754,-0.011434757,0.09939056,-0.14073086,-0.3936344,-0.36731738,0.05992685,3.0781167,-0.6266911,0.0004091569,-0.06346524,0.019853996,0.0015962285,-0.010275725,0.0025883708,-0.015913768,0.49833047,-1.3768047,1.8984474,-2.0909784,-1.5702866,2.4744995,-0.09659079,0.065585636,-0.083929166,0.011164122,0.0076328577,-0.080645286,-0.5363012,0.095768064,-9.672575,0.80456203,47.66539,-1.2725403,-2.435431,-3.3411784,-0.19868457,0.044376917,-0.3859588,29.0625,30.375,29.375,33.0,35.5,36.5625
0.14405474,-1.9628739,-0.8503911,-2.0316277,-0.009520465,0.091657385,-0.14728978,-0.3937735,-0.3672512,0.05993588,3.0781145,-0.6267668,0.00034675992,-0.06508902,0.021476172,0.0012581092,-0.010138272,0.0021883217,-0.015596379,0.49811333,-1.3766963,1.8982929,-2.090954,-1.5703224,2.47433,-0.100827605,0.06644359,-0.08412968,0.010924096,0.007705723,-0.08519921,-0.61291564,0.038307227,-9.576807,0.7866488,47.65912,-1.056767,-2.3677363,-3.38122,-0.21722767,0.03803387,-0.3576988,29.0625,30.375,29.375,33.0,35.5,36.5625
0.14605334,-1.275974,-0.6011075,-2.0559828,-0.008036599,0.09253473,-0.15398078,-0.39390796,-0.36721644,0.059924304,3.0780847,-0.62681305,0.00039631745,-0.067710534,0.021469679,0.0028988367,-0.011281933,0.00598875,-0.008785557,0.4979092,-1.3765159,1.8980998,-2.0909302,-1.5702871,2.4741585,-0.102686,0.06662701,-0.08806115,0.010798216,0.006887202,-0.09386575,-0.49799395,0.0,-9.576807,0.8023209,47.67614,-1.0263091,-2.451303,-3.17979,-0.2279348,0.030178513,-0.27812916,29.0625,30.375,29.375,33.0,35.5,36.5625
0.14805417,-1.5524621,-1.2248371,-2.3122592,0.009070985,0.08327757,-0.14219096,-0.3940239,-0.36717412,0.059919063,3.078071,-0.626753,0.00040802857,-0.06838703,0.02304136,0.0016153227,-0.010288863,0.0037605097,-0.010038762,0.49771655,-1.3763953,1.8979686,-2.0909302,-1.5702633,2.4739301,-0.10604418,0.06832599,-0.087118074,0.010592014,0.007083096,-0.09597104,-0.38307226,0.0,-9.519346,0.84484416,47.650166,-0.8831415,-2.413722,-3.3614836,-0.20248812,0.042222537,-0.2616402,29.0625,30.375,29.375,33.0,35.5,36.5625
0.15005395,-1.8089156,-0.9185382,-1.9729234,0.0029659406,0.06877283,-0.13993597,-0.39416373,-0.36712846,0.059931614,3.077998,-0.62681353,0.00038693266,-0.07080095,0.022439905,0.0032314262,-0.012571865,0.006918784,-0.00797737,0.49748844,-1.3762871,1.8978118,-2.0909302,-1.5702266,2.4737492,-0.107523225,0.068887755,-0.091443695,0.010496007,0.007579327,-0.09951002,-0.47884035,0.0,-9.5385,0.8224646,47.683304,-0.8661262,-2.3458667,-3.1991475,-0.21164185,0.03119925,-0.20277646,29.0625,30.375,29.375,33.0,35.5,36.5625
0.1520536,-1.7817806,-0.66827303,-2.010555,0.003860546,0.070579454,-0.14034194,-0.3943356,-0.36708507,0.05995861,3.0779757,-0.62678707,0.00027811862,-0.07104444,0.023143249,0.0026748858,-0.012119065,0.0063731084,-0.006625936,0.4972726,-1.3761427,1.8975738,-2.0909069,-1.5702509,2.4735198,-0.10880835,0.069368385,-0.09061827,0.009886505,0.007452042,-0.102146104,-0.51714754,-0.038307227,-9.519346,0.8090337,47.647476,-0.8721422,-2.339853,-3.2421207,-0.19838466,0.029984392,-0.16357237,29.0625,30.375,29.375,33.0,35.5,36.5625
0.15405342,-1.536607,-0.39350796,-1.9613103,-0.0004845356,0.08402068,-0.14521818,-0.39449054,-0.3670445,0.059976824,3.07788,-0.62692183,0.00026979952,-0.07250247,0.023321748,0.003055046,-0.012028539,0.0069347504,-0.008251853,0.49703252,-1.3760103,1.8973697,-2.0908825,-1.5702032,2.473376,-0.11019242,0.07084205,-0.09344496,0.010796884,0.007108116,-0.10190222,-0.38307226,-0.038307227,-9.442732,0.7642693,47.699425,-0.86876774,-2.2944322,-3.2760987,-0.18504381,0.036806393,-0.12017601,29.0625,30.375,29.375,33.0,35.5,36.5625
0.15605323,-1.8197451,-0.883697,-1.9995973,0.012793656,0.083302915,-0.13607395,-0.39461812,-0.36698866,0.059959073,3.0779264,-0.6268552,0.00030190274,-0.072629236,0.02344343,0.0031230436,-0.012167049,0.0063665207,-0.010586609,0.49682888,-1.375842,1.8972024,-2.0908468,-1.5702151,2.473125,-0.11072395,0.07098897,-0.093968846,0.011605332,0.0074998513,-0.10009964,-0.47884035,0.019153614,-9.423578,0.8537928,47.691364,-0.9192194,-2.2688172,-3.273193,-0.24091555,0.028725717,-0.15101717,29.0625,30.375,29.375,33.0,35.5,36.5625
0.15805398,-1.6648114,-0.8073415,-1.8471372,0.0061253007,0.07741334,-0.13475317,-0.39477128,-0.36691207,0.05994341,3.0779552,-0.62693924,0.0002701648,-0.07283838,0.023420434,0.0021320467,-0.011902674,0.005009311,-0.0148358485,0.4965892,-1.3756729,1.8970345,-2.0908344,-1.5702628,2.4729342,-0.11109658,0.07331081,-0.094337806,0.010965536,0.007912529,-0.09622313,-0.4213795,0.1340753,-9.32781,0.8224646,47.72271,-0.9482751,-2.3167667,-3.2822058,-0.23155484,0.03723933,-0.1646677,29.0625,30.375,29.375,33.0,35.5,36.5625
0.16005358,-1.3391138,-1.1403575,-1.7727696,-0.0052652285,0.066916555,-0.13686647,-0.3949403,-0.36691117,0.059980564,3.077815,-0.6269511,0.0002530518,-0.07386203,0.023557585,0.0027147364,-0.0123164095,0.0064217844,-0.020189514,0.49637327,-1.3755169,1.8967594,-2.0908105,-1.570167,2.4727435,-0.112030216,0.07331234,-0.09564475,0.010841627,0.0076107294,-0.09180148,-0.34476504,0.11492168,-9.385271,0.8247004,47.704796,-0.93001467,-2.3193069,-3.3177557,-0.2348186,0.027574018,-0.21490271,29.0625,30.375,29.375,33.0,35.5,36.5625
0.16205357,-1.3299991,-1.1968178,-1.9044346,-0.014354259,0.045806404,-0.14190914,-0.39507258,-0.3668454,0.05998453,3.0778067,-0.62704813,0.00021490062,-0.07585323,0.0247255,0.0022066103,-0.011862432,0.006252937,-0.026273288,0.49615654,-1.375408,1.8966159,-2.0907872,-1.5701913,2.4725885,-0.115584895,0.07571912,-0.09725591,0.01040995,0.0072902357,-0.08927087,-0.24899697,0.11492168,-9.3661175,0.75084364,47.668976,-0.88201046,-2.290173,-3.3463306,-0.22079048,0.031491943,-0.27304012,29.0625,30.375,29.375,33.0,35.5,36.5625
0.16405345,-0.9922867,-1.6903582,-1.9325476,-0.011608911,0.04229518,-0.13829176,-0.39525512,-0.36680037,0.05999532,3.0777504,-0.62708986,0.00015753177,-0.07492228,0.023548232,0.0021195114,-0.01162434,0.005961309,-0.02293909,0.4959063,-1.3752275,1.896377,-2.0907867,-1.5701793,2.4723716,-0.112665914,0.07635727,-0.09791731,0.010806419,0.007227149,-0.0896853,-0.11492168,0.1340753,-9.385271,0.8224646,47.664497,-1.0911804,-2.3317773,-3.280383,-0.22029582,0.049419813,-0.27469414,29.0625,30.375,29.375,33.0,35.5,36.5625
0.16605331,-1.1245941,-1.0468514,-2.0148683,-0.025755564,0.03292441,-0.140833,-0.39536408,-0.36673018,0.059965845,3.0777876,-0.627177,0.00025892814,-0.07779288,0.02545273,0.0027761157,-0.012053525,0.0071156058,-0.027672991,0.49568853,-1.3750713,1.8962449,-2.0907266,-1.5701793,2.4722035,-0.11835137,0.076706335,-0.099940434,0.011263754,0.0070473086,-0.090636455,-0.095768064,0.19153613,-9.404425,0.79560274,47.711964,-0.8206624,-2.2761085,-3.3077006,-0.24508451,0.05039745,-0.31801382,29.0625,30.375,29.375,33.0,35.5,36.5625
0.16805325,-0.5541783,-1.0845675,-2.0241952,-0.021119319,0.039039914,-0.13718465,-0.39553595,-0.36668614,0.059982628,3.0777304,-0.62722063,0.00020103804,-0.077217035,0.024910362,0.0015968825,-0.011745662,0.0049544857,-0.02590231,0.49544957,-1.3749144,1.8960179,-2.0907152,-1.570167,2.4719992,-0.11734115,0.07912841,-0.10009644,0.011045808,0.007811467,-0.09139697,0.0,0.22984336,-9.346964,0.8717007,47.67166,-1.05358,-2.2512395,-3.360948,-0.25737634,0.039400455,-0.3180741,29.0625,30.375,29.375,33.0,35.5,36.5625
0.17005406,-1.1469084,-1.6744399,-1.9886395,-0.012266126,0.025192289,-0.13112463,-0.39570528,-0.36663198,0.05998943,3.077638,-0.62737423,0.00020745068,-0.07798251,0.025139874,0.0013237922,-0.011736035,0.004725781,-0.027809147,0.49517384,-1.3747575,1.8958133,-2.0907028,-1.5701188,2.471831,-0.11844214,0.08051231,-0.10108926,0.010866315,0.007914769,-0.09059037,0.076614454,0.21068975,-9.251195,0.8090337,47.653748,-1.0558147,-2.4734614,-3.3217022,-0.25922003,0.036417644,-0.34374678,29.0625,30.375,29.375,33.0,35.5,36.5625
0.17205378,-1.1458821,-1.6289986,-1.799791,-0.013201032,0.027782004,-0.14051703,-0.39586973,-0.36659315,0.060009234,3.0775816,-0.6274179,0.00012099955,-0.07962289,0.024851471,0.0032264304,-0.013294551,0.00811751,-0.02695738,0.49495834,-1.374614,1.8955978,-2.0907028,-1.5701188,2.4716501,-0.11926239,0.07921173,-0.1039871,0.011343394,0.0076792464,-0.0922607,-0.038307227,0.30645782,-9.289502,0.7105615,47.684196,-1.0903226,-2.1917596,-3.2053413,-0.28122336,0.048359014,-0.37476736,29.0625,30.375,29.375,33.0,35.5,36.5625
0.17405342,-0.91827726,-1.5112109,-1.8001145,-0.01371632,0.029056491,-0.13412075,-0.39601743,-0.3665319,0.059998218,3.0775864,-0.6275351,8.7965425e-05,-0.07860461,0.0250841,0.00081392954,-0.012063335,0.0035284017,-0.027131775,0.4947424,-1.3744446,1.895419,-2.0906913,-1.5701541,2.4715068,-0.11936879,0.08267872,-0.10257561,0.011082725,0.008779769,-0.092193924,0.038307227,0.30645782,-9.251195,0.8247004,47.670765,-0.9926686,-2.3498812,-3.4216132,-0.247962,0.04202784,-0.37764537,29.0625,30.375,29.375,33.0,35.5,36.5625
0.17605408,0.5508023,-1.1315178,-1.5984844,-0.025444668,0.058304034,-0.140246,-0.39617243,-0.3664906,0.059990503,3.0775511,-0.62752503,0.00013711723,-0.081733465,0.025240306,0.0029542027,-0.014509394,0.007162869,-0.025656201,0.49450192,-1.3742527,1.895203,-2.0906665,-1.5701064,2.4712646,-0.1227007,0.08235999,-0.107212916,0.011686728,0.009203121,-0.09700019,0.095768064,0.19153613,-9.32781,0.7866488,47.72719,-1.1532389,-2.3913765,-3.2534351,-0.26531106,0.055254407,-0.4083994,29.0625,30.375,29.375,33.0,35.5,36.5625
0.17805395,-0.8883287,-1.0539864,-1.7131215,-0.03235432,0.019303516,-0.14381799,-0.39633447,-0.36643103,0.059991032,3.0774937,-0.62764424,0.00013497754,-0.080487914,0.025426583,0.001147918,-0.011914458,0.004307433,-0.020238196,0.4942392,-1.3740958,1.8950127,-2.090655,-1.5700825,2.4710836,-0.12126182,0.084643,-0.10585891,0.011805075,0.008283672,-0.10097836,0.019153614,0.15322891,-9.212888,0.77545905,47.703007,-1.1226966,-2.3120177,-3.4260497,-0.2558966,0.054875694,-0.36269552,29.0625,30.375,29.375,33.0,35.5,36.5625
0.18005367,-0.69228554,-1.4579984,-1.8953902,-0.0098783225,0.018958578,-0.13816002,-0.39650694,-0.3663978,0.060021542,3.0774457,-0.627669,0.00011649161,-0.08187951,0.025270265,0.0014248957,-0.012890462,0.0048062904,-0.015800659,0.4940111,-1.3739271,1.8947238,-2.0905707,-1.5700582,2.4708772,-0.122605085,0.08622116,-0.10838806,0.011859972,0.008909407,-0.106758304,-0.038307227,0.19153613,-9.136273,0.84708,47.68599,-1.1183119,-2.339725,-3.3537195,-0.2532277,0.044825934,-0.31814888,29.0625,30.375,29.375,33.0,35.5,36.5625
0.18205334,-0.33388373,-1.7593371,-1.8239764,-0.005789133,0.03123349,-0.12203451,-0.3966815,-0.36633962,0.060026802,3.077408,-0.6276955,8.703444e-05,-0.08341939,0.025723942,0.0017034444,-0.013408573,0.005035606,-0.011149805,0.49374694,-1.3737584,1.8945087,-2.0905588,-1.5700463,2.4706345,-0.12493733,0.087435536,-0.11060471,0.012421837,0.009263214,-0.113740474,0.038307227,0.28730422,-9.212888,0.82022345,47.637623,-1.1225584,-2.1955934,-3.3006754,-0.27862513,0.04834739,-0.26080692,29.0625,30.375,29.375,33.0,35.5,36.5625
0.18405402,-0.6225529,-1.5375674,-2.0381267,-0.005603738,0.03248915,-0.13950296,-0.39680722,-0.36628795,0.05998459,3.0774555,-0.6276052,0.00019962376,-0.083780326,0.026283592,0.0002669856,-0.011850041,0.0026465778,-0.0052227513,0.49353078,-1.3735411,1.8943409,-2.090535,-1.5700225,2.470356,-0.12601772,0.09066801,-0.11126538,0.012702831,0.009018493,-0.12074763,-0.019153614,0.28730422,-9.212888,0.8179876,47.67345,-1.1130545,-2.2096448,-3.3170824,-0.28747028,0.05731491,-0.15695173,29.0625,30.375,29.375,33.0,35.5,36.5625
0.18605328,-1.0626583,-1.327922,-1.93668,-0.013230774,0.035840224,-0.14327233,-0.39699626,-0.36622217,0.05998401,3.0774124,-0.62774837,0.0001464981,-0.0848831,0.025964232,0.0010870054,-0.012561236,0.0037162805,-0.0042025563,0.49325535,-1.3733487,1.8941134,-2.0905344,-1.5700339,2.4701755,-0.12650412,0.09123031,-0.114021465,0.013619445,0.009141571,-0.122253,-0.114921674,0.30645782,-9.308657,0.80679786,47.691364,-1.1799455,-2.439211,-3.3532143,-0.29561174,0.04751356,-0.11963238,29.0625,30.375,29.375,33.0,35.5,36.5625
0.18805422,-1.6337202,-1.5251987,-1.6744401,-0.033544924,0.050015587,-0.14109325,-0.3971667,-0.36617577,0.060004268,3.0773892,-0.6277434,0.00013181592,-0.08494233,0.026799817,6.211899e-05,-0.012969627,0.0012677178,-0.004431517,0.49301502,-1.3731802,1.8938507,-2.0904624,-1.570022,2.4699352,-0.12885651,0.09223624,-0.1128537,0.013409029,0.010668171,-0.12437807,-0.24899697,0.28730422,-9.289502,0.91421866,47.67345,-1.1552544,-2.2891705,-3.4180462,-0.31092554,0.050697826,-0.065296106,29.0625,30.375,29.375,33.0,35.5,36.5625
0.19005412,-2.3388062,-1.6737807,-1.9840271,-0.025910709,0.046933915,-0.13807723,-0.39731398,-0.36609754,0.059978098,3.0773692,-0.62781835,0.00021251982,-0.0872921,0.026481817,0.00022201496,-0.013314519,0.002102251,-0.010512998,0.49272728,-1.3730105,1.8937057,-2.0904505,-1.5699857,2.4696968,-0.13034484,0.09590367,-0.11764585,0.013640032,0.010562883,-0.1197828,-0.30645782,0.24899697,-9.32781,0.8247004,47.704796,-1.1413357,-2.4562378,-3.2791529,-0.31765842,0.038643442,-0.08564675,29.0625,30.375,29.375,33.0,35.5,36.5625
0.19205377,-1.3222989,-1.1905575,-1.9411261,-0.029291335,0.0830039,-0.14207202,-0.39748204,-0.36607018,0.05998095,3.0773258,-0.6278122,0.00024917047,-0.08777743,0.027716815,0.00041232063,-0.013679006,0.0021858846,-0.01736602,0.4924988,-1.372795,1.893432,-2.0904024,-1.5699376,2.46947,-0.13298212,0.09445187,-0.11635056,0.013554469,0.010848314,-0.11556803,-0.4213795,0.21068975,-9.404425,0.8537928,47.71017,-1.1099292,-2.3125494,-3.3568375,-0.31873277,0.03080652,-0.13760562,29.0625,30.375,29.375,33.0,35.5,36.5625
0.19405343,-2.5884423,-1.4160746,-1.7525859,-0.013380393,0.061640933,-0.12715247,-0.3976874,-0.36601904,0.060005054,3.0772393,-0.627834,0.00015698005,-0.088153675,0.026924448,-0.00013498258,-0.013524004,0.001234814,-0.021074545,0.49221176,-1.3726258,1.8931788,-2.0904148,-1.5699137,2.4692078,-0.13212638,0.09745533,-0.11876704,0.013880046,0.011167733,-0.11100166,-0.6512229,0.1340753,-9.423578,0.7978386,47.684196,-1.1135812,-2.4365427,-3.2508018,-0.33818382,0.0327428,-0.18468958,29.0625,30.375,29.375,33.0,35.5,36.5625
0.19605345,-1.4258467,-0.8829391,-1.8383267,-0.00716565,0.1026374,-0.14623287,-0.39785272,-0.36595947,0.059966337,3.0772326,-0.62793136,0.00024067801,-0.09057024,0.027519582,0.00060492696,-0.014358853,0.0035763811,-0.0278155,0.49194697,-1.3723733,1.8929638,-2.0904028,-1.5698899,2.4690046,-0.13502547,0.098295346,-0.121298686,0.013117372,0.010784852,-0.10715885,-0.63206923,0.15322891,-9.346964,0.8179876,47.71017,-0.93540835,-2.379322,-3.216147,-0.32353026,0.025381874,-0.25066876,29.0625,30.375,29.375,33.0,35.5,36.5625
0.19805412,-2.060694,-0.4007384,-1.8554465,0.007935255,0.09566856,-0.13527516,-0.39802033,-0.36592937,0.059994012,3.0771384,-0.6280093,0.00024552946,-0.09222625,0.028169435,0.0003009499,-0.014907889,0.0029752958,-0.032818783,0.491707,-1.3722163,1.8927006,-2.0903432,-1.5698293,2.4688253,-0.13803774,0.10046542,-0.12320526,0.0131290965,0.011554785,-0.10516701,-0.68953013,0.17238252,-9.3661175,0.8537928,47.72002,-1.1633422,-2.4923534,-3.1659222,-0.31386912,0.028084457,-0.3085619,29.0625,30.375,29.375,33.0,35.5,36.5625
0.20005387,-2.0041263,-0.124020346,-1.768894,0.007227086,0.10590568,-0.14269446,-0.3982093,-0.36584872,0.05997844,3.0771408,-0.6280852,0.0002487616,-0.09253124,0.027206436,0.0005376101,-0.015090429,0.0037008615,-0.03256225,0.49140802,-1.3719997,1.8924726,-2.090319,-1.5698417,2.4685736,-0.13652009,0.10179093,-0.12536672,0.013241022,0.011369748,-0.10390487,-0.82360536,0.1340753,-9.3661175,0.80456203,47.705692,-1.1464119,-2.4799538,-3.162056,-0.32982033,0.022226771,-0.33812672,29.0625,30.375,29.375,33.0,35.5,36.5625
0.20205352,-2.5650244,-0.71477324,-1.7456957,0.008693706,0.11094563,-0.1356311,-0.3983904,-0.3658139,0.059973527,3.0770714,-0.628167,0.00026915243,-0.09322666,0.02783018,0.00069206086,-0.014449389,0.004150394,-0.034733772,0.49115613,-1.3717715,1.8922094,-2.090307,-1.569794,2.4683816,-0.1376569,0.101932324,-0.12599985,0.013648519,0.010596443,-0.10286901,-0.7852981,-0.076614454,-9.346964,0.8605109,47.668976,-1.2053748,-2.425786,-3.1108246,-0.3280765,0.0013707278,-0.39403054,29.0625,30.375,29.375,33.0,35.5,36.5625
0.20405392,-2.1120005,-0.9582277,-1.8975888,0.003968806,0.12805462,-0.13506334,-0.39857695,-0.36574596,0.05997846,3.0770576,-0.628241,0.00024432348,-0.094074756,0.028071458,0.0005635383,-0.014460101,0.0038889449,-0.03627693,0.49088037,-1.3715789,1.8919581,-2.0902593,-1.5698055,2.468154,-0.13885096,0.10327636,-0.12738706,0.013918248,0.010730561,-0.10251924,-0.7469909,-0.076614454,-9.289503,0.7620334,47.67345,-1.2632656,-2.4557414,-3.1504645,-0.344056,0.017639201,-0.42601866,29.0625,30.4375,29.375,33.0,35.5,36.5625
0.20605403,-2.8528247,-0.7595116,-2.0246096,-0.003168154,0.10427837,-0.13267893,-0.398774,-0.36568335,0.059986424,3.07697,-0.62845373,0.00027955187,-0.09524266,0.029433724,0.00039313897,-0.01288227,0.003935398,-0.036882617,0.49056786,-1.3713745,1.891683,-2.0901988,-1.5697583,2.4679854,-0.14125466,0.10407045,-0.12811212,0.014566802,0.00932208,-0.10431558,-0.63206923,-0.076614454,-9.32781,0.842603,47.687782,-1.0069925,-2.414307,-3.106716,-0.3469549,0.021157108,-0.48322603,29.0625,30.4375,29.375,33.0,35.5,36.5625
0.20805381,-2.1639488,-0.93348867,-1.7719785,-0.0060750884,0.11250037,-0.14056535,-0.39897066,-0.3656315,0.059982646,3.0769484,-0.6284471,0.00023643067,-0.09844331,0.030449914,0.0017498471,-0.0140559655,0.007115622,-0.037750904,0.49030343,-1.3711462,1.8914198,-2.0901992,-1.5697588,2.4677198,-0.14549755,0.104320586,-0.13145605,0.014309792,0.008860265,-0.10768815,-0.6512228,-0.1340753,-9.557653,0.9298854,47.71823,-1.1410819,-2.4135919,-3.077476,-0.36227822,0.041262515,-0.47975555,29.0625,30.4375,29.375,33.0,35.5,36.5625
0.21005368,-2.01074,-0.5874361,-1.8587914,-0.013227551,0.108023115,-0.14034963,-0.39916423,-0.36554778,0.05996655,3.0769224,-0.628568,0.0002652972,-0.096801415,0.030761294,-0.00011078154,-0.01242059,0.0040879217,-0.026926288,0.4899805,-1.3709295,1.8911928,-2.0901754,-1.5697464,2.4674757,-0.14446945,0.105506964,-0.12850964,0.013631955,0.00885544,-0.11748575,-0.7278373,-0.076614454,-9.423578,0.86498255,47.67345,-1.1290022,-2.376258,-3.2862892,-0.35841006,0.059113137,-0.42884824,29.0625,30.4375,29.375,33.0,35.5,36.5625
0.21205336,-1.4315429,-0.36124903,-1.8313297,-0.0010379853,0.115813784,-0.15547481,-0.39936665,-0.3655011,0.05997722,3.076841,-0.628722,0.00023226775,-0.098148696,0.030543523,-0.00016626,-0.012455616,0.004784503,-0.021537315,0.48970482,-1.3707125,1.8909048,-2.0901515,-1.5697225,2.4673066,-0.14506845,0.10785796,-0.13112448,0.013277005,0.00856408,-0.12347171,-0.53630114,-0.038307227,-9.385271,0.87393653,47.66808,-1.1749449,-2.3544774,-3.1540208,-0.36139476,0.05959267,-0.38363963,29.0625,30.4375,29.375,33.0,35.5,36.5625
0.21405324,-1.687146,-0.12849507,-1.9936186,0.01356438,0.098306574,-0.14805426,-0.39955404,-0.36542025,0.059966665,3.0768368,-0.62873465,0.0002593506,-0.099393584,0.031029081,0.001155843,-0.013752976,0.0075138607,-0.014121484,0.4893928,-1.3705088,1.8906778,-2.0901158,-1.5697106,2.467003,-0.14685445,0.10589853,-0.13170937,0.012816488,0.008431034,-0.13267364,-0.38307226,-0.076614454,-9.519346,0.8179876,47.68062,-1.177313,-2.414452,-3.2388377,-0.35145614,0.0447637,-0.2637645,29.0625,30.4375,29.375,33.0,35.5,36.5625
0.21605389,-1.4144251,-0.19798543,-1.9974322,0.01963699,0.08922742,-0.13977772,-0.39974448,-0.36535406,0.059942566,3.0768597,-0.6287157,0.00026602147,-0.09931699,0.03129854,-0.0008516044,-0.012318548,0.0041511967,-0.009064602,0.48911747,-1.3702554,1.890428,-2.0901039,-1.5697225,2.4667132,-0.14737082,0.10993601,-0.131953,0.01267024,0.008748784,-0.13824661,-0.3256114,-0.15322891,-9.519346,0.8157518,47.65464,-1.2109942,-2.3647327,-3.3988533,-0.35237998,0.06532388,-0.20109764,29.0625,30.4375,29.375,33.0,35.5,36.5625
0.21805371,-0.9788686,0.039918207,-1.9549167,0.013097745,0.07830819,-0.14906135,-0.3999939,-0.36530104,0.05997863,3.076736,-0.62876517,0.00014498163,-0.099354275,0.03204311,-0.0006828623,-0.012541228,0.0044926526,-0.0071807876,0.4887817,-1.3700517,1.8901061,-2.0901158,-1.5696863,2.4664242,-0.1486033,0.10850921,-0.13057622,0.012325331,0.008810689,-0.14136262,-0.15322891,-0.21068975,-9.500193,0.80456203,47.698532,-1.2356234,-2.429748,-3.463294,-0.3372687,0.03953443,-0.17012379,29.0625,30.4375,29.375,33.0,35.5,36.5625
0.22005352,-0.50879055,-0.32210973,-2.0320458,0.011359077,0.062107693,-0.14694797,-0.40018806,-0.36522195,0.059953824,3.0767634,-0.62878895,0.00017531215,-0.100892715,0.032124486,-0.00028836034,-0.012604819,0.0054642293,-0.008105919,0.48848197,-1.3697989,1.8898529,-2.09008,-1.5696987,2.466136,-0.14980312,0.11004575,-0.13342838,0.012755927,0.008403795,-0.14163606,-0.21068975,0.0,-9.500193,0.8717007,47.685097,-1.2656331,-2.347087,-3.3792253,-0.33272213,0.065278865,-0.1412184,29.0625,30.4375,29.375,33.0,35.5,36.5625
0.2220534,-0.45256197,-0.6027274,-2.1953166,0.0025516076,0.044376444,-0.14222711,-0.40041435,-0.365159,0.05997502,3.0766551,-0.62892455,8.5109205e-05,-0.10222042,0.032454584,0.00032640845,-0.012663237,0.0070608677,-0.01722467,0.48815832,-1.3696066,1.8895782,-2.090092,-1.5696748,2.465911,-0.15104082,0.11033741,-0.13520107,0.012799928,0.0077133384,-0.13375309,-0.1340753,-0.05746084,-9.500193,0.83365434,47.653748,-1.2098389,-2.3844595,-3.6159072,-0.31290776,0.07379698,-0.1718704,29.0625,30.4375,29.375,33.0,35.5,36.5625
0.2240541,-0.66215646,-1.0946016,-2.3357143,-0.0005630233,0.026576402,-0.12635499,-0.4006223,-0.36507383,0.05998052,3.076684,-0.6289704,3.9010363e-05,-0.10297319,0.033174757,0.0007003271,-0.01308422,0.0071170228,-0.022792656,0.48785806,-1.3693905,1.8892916,-2.09002,-1.5697225,2.4656358,-0.15306623,0.10989673,-0.13570243,0.013486267,0.00806005,-0.13021074,-0.1340753,0.038307227,-9.442732,0.8023209,47.668976,-1.1335211,-2.2883508,-3.4765112,-0.32018125,0.09125164,-0.23021218,29.0625,30.4375,29.375,33.0,35.5,36.5625
0.22605397,-0.43050987,-1.0934565,-2.2217805,-0.010023671,0.028376324,-0.14031437,-0.4008301,-0.36502102,0.059977926,3.0766091,-0.6290333,7.277627e-05,-0.10491733,0.034101363,-0.00040375715,-0.012401698,0.0053573893,-0.028998382,0.48754597,-1.3691487,1.8890036,-2.0899956,-1.5696625,2.4653726,-0.15642367,0.114161424,-0.13837008,0.013770186,0.00828056,-0.12736082,0.0,0.11492168,-9.500193,0.8940802,47.698532,-1.241615,-2.434602,-3.387067,-0.3276081,0.09405893,-0.28475615,29.0625,30.4375,29.375,33.0,35.5,36.5625
0.22805369,-0.18034726,-1.3028764,-2.5151138,-0.021263944,0.032419566,-0.14531113,-0.40105435,-0.3649409,0.059987903,3.0765524,-0.62919384,2.8931863e-05,-0.10574619,0.03398203,0.0013658454,-0.014249829,0.007667681,-0.03006592,0.48721048,-1.3689336,1.8887161,-2.0899594,-1.5696625,2.4651446,-0.1572249,0.11183089,-0.13983142,0.01465593,0.008838836,-0.12709449,0.038307227,0.17238252,-9.615114,0.87393653,47.687782,-1.1136173,-2.2788315,-3.4130278,-0.32705164,0.08829822,-0.3153149,29.0625,30.4375,29.375,33.0,35.5,36.5625
0.23005418,-0.50434077,-1.8536437,-2.776168,-0.027845746,0.023645105,-0.13806514,-0.40124905,-0.36487195,0.059977263,3.0765154,-0.62920576,5.450574e-05,-0.1069844,0.035095036,-0.0007031595,-0.012528122,0.0039239526,-0.03375906,0.48689803,-1.3687153,1.8884772,-2.0899475,-1.5696262,2.4648445,-0.16027248,0.1171346,-0.14162096,0.015261901,0.009071084,-0.12644759,0.05746084,0.21068975,-9.691729,0.8179876,47.711063,-1.022191,-2.470387,-3.414612,-0.32932115,0.10358865,-0.33733314,29.0625,30.4375,29.375,33.0,35.5,36.5625
0.23205405,-0.33235204,-2.121986,-2.4046693,-0.045671586,0.03161919,-0.14382643,-0.40146327,-0.3647947,0.059983652,3.076501,-0.6293738,3.979111e-06,-0.10721937,0.034664486,0.00034064517,-0.013290458,0.0054491814,-0.03256055,0.48659876,-1.3684876,1.8881773,-2.0898874,-1.569662,2.464652,-0.1596581,0.11597764,-0.14277191,0.015864193,0.009035429,-0.12703145,-0.076614454,0.3256114,-9.672575,0.84708,47.691364,-1.0537816,-2.3407028,-3.4701376,-0.33933842,0.116905645,-0.36470744,29.0625,30.4375,29.375,33.0,35.5,36.5625
0.23405376,-0.965093,-2.3049557,-2.590669,-0.06303729,0.04028344,-0.13932863,-0.4016761,-0.36470786,0.059964787,3.0765135,-0.62943214,4.902618e-05,-0.108380444,0.034881048,0.00038120084,-0.013383425,0.0060393214,-0.03127142,0.48626295,-1.3682228,1.8878907,-2.0898278,-1.5696625,2.4643512,-0.16085672,0.1172966,-0.14441407,0.015628658,0.008838659,-0.12951863,-0.1340753,0.49799395,-9.576807,0.84484416,47.719128,-1.0312423,-2.3180559,-3.4122734,-0.34462494,0.109567374,-0.36584246,29.0625,30.4375,29.375,33.0,35.5,36.5625
0.23605366,-0.515962,-2.2315748,-2.55729,-0.071502954,0.06906181,-0.14627914,-0.40191135,-0.364648,0.060000874,3.0763595,-0.62960947,-1.9562078e-05,-0.10962846,0.03498604,0.0005619674,-0.015013007,0.005458064,-0.027422838,0.4859148,-1.3680422,1.8875903,-2.089815,-1.5696014,2.4641335,-0.16312206,0.11860594,-0.14653435,0.016204156,0.010571388,-0.13563162,-0.076614454,0.57460845,-9.710882,0.87617236,47.703007,-0.9702455,-2.3628263,-3.41518,-0.35501912,0.11976993,-0.3286336,29.0625,30.4375,29.375,33.0,35.5,36.5625
0.23805329,-1.5651621,-2.9851313,-2.587202,-0.06459151,0.058675412,-0.13189173,-0.40210596,-0.3645894,0.05997454,3.0763807,-0.6295683,6.41857e-05,-0.11085269,0.03423877,0.0011798455,-0.015836628,0.0069380477,-0.019247154,0.48562795,-1.3677534,1.8872918,-2.0897558,-1.5695776,2.4638183,-0.1629043,0.12005946,-0.14971697,0.016255338,0.010605879,-0.14358875,0.019153614,0.61291564,-9.653421,0.8627467,47.690468,-1.1752365,-2.3352845,-3.3747687,-0.33475658,0.12780015,-0.2670851,29.0625,30.4375,29.375,33.0,35.5,36.5625
0.24005364,-1.5692648,-1.9275261,-2.1827736,-0.08580984,0.06119124,-0.15472367,-0.40235272,-0.36451197,0.060004245,3.0762646,-0.629693,-1.6139142e-05,-0.111823015,0.034910265,0.0008634288,-0.015807452,0.0067894785,-0.01243647,0.48525596,-1.367561,1.8869919,-2.0897439,-1.5695418,2.4635391,-0.16483979,0.121211536,-0.15030217,0.01585283,0.010674491,-0.15233359,-0.076614454,0.61291564,-9.5385,0.82694155,47.699425,-1.1101801,-2.3371577,-3.2383568,-0.3181785,0.12309463,-0.17961411,29.0625,30.4375,29.375,33.0,35.5,36.5625
0.24205351,-1.3510231,-1.8645633,-2.3024921,-0.061839756,0.05171349,-0.13965845,-0.40255818,-0.36444238,0.059999358,3.07628,-0.6296172,-1.4468564e-05,-0.114032544,0.035008166,0.0016432946,-0.018183552,0.008410414,-0.011994206,0.4849558,-1.3673204,1.8867048,-2.0896962,-1.5695413,2.4631898,-0.16771883,0.12211379,-0.15300977,0.015118859,0.012020439,-0.1556544,-0.076614454,0.45968673,-9.576807,0.8157518,47.674347,-1.0354283,-2.3218293,-3.164174,-0.31924108,0.12654504,-0.08608799,29.0625,30.4375,29.375,33.0,35.5,36.5625
0.24405336,-0.61540514,-1.4705867,-2.1247745,-0.04248189,0.05714526,-0.1405514,-0.4028406,-0.36439377,0.060037088,3.0761433,-0.6297035,-0.0001766145,-0.115466245,0.03528237,0.0009753296,-0.017816164,0.008435712,-0.012516073,0.48460788,-1.3670673,1.8863224,-2.0897205,-1.569517,2.4629135,-0.16914949,0.12511696,-0.1548874,0.01415247,0.011707649,-0.1565601,-0.21068975,0.34476504,-9.595961,0.83365434,47.66987,-0.9903399,-2.343489,-3.194427,-0.29347783,0.13248934,-0.030909952,29.0625,30.4375,29.375,33.0,35.5,36.5625
0.2460534,-0.8245769,-1.1512494,-1.7908678,-0.03553369,0.04912859,-0.14042917,-0.40307966,-0.36432457,0.060044013,3.0761049,-0.6296977,-0.00022192509,-0.11677143,0.035700653,0.0011369262,-0.018024473,0.009405528,-0.019005712,0.48427215,-1.3668144,1.8859991,-2.0896966,-1.5695056,2.4625793,-0.17075068,0.12602189,-0.15625148,0.013657187,0.0114431055,-0.15167041,-0.34476504,0.30645782,-9.3661175,0.8672237,47.698532,-0.9658545,-2.4588363,-3.1063447,-0.2745183,0.1315619,-0.0759319,29.0625,30.4375,29.375,33.0,35.5,36.5625
0.2480541,-0.79853076,-1.1312233,-1.7091459,-0.014793456,0.07018733,-0.14064476,-0.40329626,-0.36426437,0.06003369,3.0760653,-0.6296731,-0.00018604894,-0.117286116,0.035353404,0.00012790531,-0.017867621,0.007778158,-0.025848713,0.48394898,-1.3665491,1.8857001,-2.0896728,-1.5694574,2.462246,-0.17091219,0.12945446,-0.15807119,0.013558171,0.0120561,-0.14498782,-0.47884035,0.21068975,-9.251195,0.81351066,47.661808,-1.0391443,-2.4672709,-3.054213,-0.2685793,0.13338213,-0.11031912,29.0625,30.4375,29.375,33.0,35.5,36.5625
0.25005358,-1.3716952,-0.6700067,-1.7704495,-0.0019035105,0.07401296,-0.13074219,-0.40352604,-0.36419955,0.060036276,3.0759883,-0.6297926,-0.0001939363,-0.11829203,0.034273967,0.0022566677,-0.0202389,0.011255832,-0.03085343,0.4836139,-1.3662977,1.8853883,-2.0896485,-1.5694212,2.4619954,-0.17019032,0.12769352,-0.16092508,0.0139917005,0.0125364065,-0.13926023,-0.45968673,0.17238252,-9.308657,0.82022345,47.687782,-1.1349719,-2.3869114,-3.1755962,-0.25238222,0.13974905,-0.23518248,29.0625,30.4375,29.375,33.0,35.5,36.5625
0.2520531,-1.3561982,-0.35195446,-1.4479922,0.005964256,0.0986824,-0.1333467,-0.40375754,-0.3641493,0.060047947,3.0758982,-0.6299118,-0.00022723424,-0.11753604,0.03499706,0.0010657408,-0.019877909,0.0076124906,-0.03781502,0.48330203,-1.3660448,1.885054,-2.0896242,-1.5693849,2.4617696,-0.17148945,0.12861364,-0.15961236,0.015149053,0.013922096,-0.13359782,-0.57460845,0.15322891,-9.308656,0.8627467,47.694946,-1.0537559,-2.5611305,-3.2586977,-0.25768104,0.12835449,-0.28543502,29.0625,30.4375,29.375,33.0,35.5,36.5625
0.25405407,-1.4740311,0.24623811,-1.3123058,0.0028726638,0.10621317,-0.1414638,-0.40399048,-0.36406705,0.060055297,3.0758362,-0.6300132,-0.00024398298,-0.1175506,0.035800353,-0.00017960212,-0.017929241,0.005216367,-0.03989675,0.48294264,-1.365816,1.8847555,-2.089588,-1.5693606,2.4614816,-0.17238216,0.1309052,-0.15975457,0.016035696,0.013319391,-0.13240798,-0.5554548,-0.038307227,-9.270349,0.8717007,47.703007,-1.2564638,-2.3579357,-3.2482276,-0.23132248,0.12553734,-0.34640378,29.0625,30.4375,29.375,33.0,35.5,36.5625
0.25605378,-1.6761568,-0.17758027,-1.276618,0.024140764,0.10102079,-0.13680983,-0.40423504,-0.36398184,0.06007244,3.0757878,-0.6301003,-0.00030125075,-0.11836937,0.0359558,3.4591023e-05,-0.018010192,0.0055603497,-0.04472744,0.48258317,-1.3655876,1.8844327,-2.0895402,-1.5693606,2.4611828,-0.17321368,0.13166764,-0.16127306,0.016449207,0.013234468,-0.12840758,-0.53630114,-0.1340753,-9.193734,0.8090337,47.668976,-1.2587371,-2.4572244,-3.3223734,-0.23352434,0.12586415,-0.42397988,29.0625,30.4375,29.375,33.0,35.5,36.5625
0.2580541,-1.0778558,0.30275646,-1.0992684,0.017088974,0.11217065,-0.15417172,-0.40445504,-0.3639493,0.060042668,3.0757098,-0.63016164,-0.00021624527,-0.119861566,0.037370186,-0.00014439214,-0.017654717,0.005782125,-0.04734791,0.48228258,-1.3652508,1.8840975,-2.0895402,-1.5692772,2.4609306,-0.17655413,0.13237241,-0.16168074,0.016137913,0.012819762,-0.12912738,-0.59376204,-0.22984336,-9.174581,0.9254084,47.71017,-1.2970641,-2.4079769,-3.3220434,-0.19466549,0.13198283,-0.48611546,29.0625,30.4375,29.375,33.0,35.5,36.5625
0.26005384,-1.1021031,0.60701466,-1.28115,0.028967073,0.09239298,-0.14520301,-0.4047132,-0.36385518,0.060045805,3.0756598,-0.63031775,-0.00031005262,-0.12054744,0.03740493,-0.0011070117,-0.016741816,0.0047286446,-0.040659618,0.4819115,-1.3649973,1.883787,-2.0895402,-1.5693015,2.4606636,-0.17692642,0.13556467,-0.16330102,0.01593551,0.0125173945,-0.1361862,-0.4213795,-0.36391866,-9.193734,0.85826975,47.70032,-1.3802423,-2.4971845,-3.3559852,-0.19369349,0.13810748,-0.45545018,29.0625,30.4375,29.375,33.0,35.5,36.5625
0.26205376,-1.1536771,0.32974258,-1.2503645,0.051101852,0.06687875,-0.13803989,-0.40495667,-0.36379296,0.060048714,3.075529,-0.6304756,-0.00028543884,-0.12119276,0.037086498,0.00088177854,-0.017920943,0.00822263,-0.030155368,0.48154035,-1.3647345,1.8834633,-2.0895278,-1.5692171,2.4604077,-0.17651351,0.13277104,-0.16461562,0.016434574,0.011968339,-0.14627706,-0.2681506,-0.34476504,-9.155427,0.87617236,47.682407,-1.3500379,-2.2896342,-3.3733528,-0.17464627,0.15511289,-0.3951054,29.0625,30.4375,29.375,33.0,35.5,36.5625
0.2640537,-1.4159112,0.3517631,-1.2195746,0.05566032,0.04232527,-0.1386247,-0.40520623,-0.3637198,0.060064506,3.0754955,-0.6305006,-0.00036819585,-0.12163125,0.037296858,0.0010111231,-0.017721662,0.008762559,-0.019670073,0.4812048,-1.364482,1.8831171,-2.089492,-1.569229,2.4600923,-0.17690378,0.13297187,-0.1651787,0.016430708,0.011570854,-0.15715183,-0.40222588,-0.17238253,-9.097966,0.88960326,47.677036,-1.3553718,-2.3935437,-3.3948426,-0.1562606,0.16316894,-0.29809564,29.0625,30.4375,29.375,33.0,35.5,36.5625
0.2660535,-0.46498847,0.8741088,-1.1683147,0.0354051,0.07074618,-0.15085179,-0.4054297,-0.36363563,0.060028188,3.075496,-0.63059247,-0.00024257688,-0.12196883,0.03737872,0.00081518316,-0.017823672,0.007705042,-0.012234862,0.48084468,-1.3641573,1.8827943,-2.0894196,-1.5691932,2.4597895,-0.17759961,0.1341458,-0.16639762,0.017386401,0.012155842,-0.16528328,-0.34476504,-0.19153613,-9.040505,0.842603,47.691364,-1.4534268,-2.1393595,-3.2732177,-0.1662266,0.16474018,-0.20541899,29.0625,30.4375,29.375,33.0,35.5,36.5625
0.26805404,-0.8438289,0.36890087,-1.5104051,0.03287173,0.06619033,-0.14256449,-0.4056889,-0.36353782,0.060056232,3.0754528,-0.63065976,-0.00032796033,-0.123805426,0.038085245,0.0015771036,-0.018212227,0.008574812,-0.011287138,0.48045978,-1.3639411,1.8824581,-2.0893595,-1.5692052,2.4594524,-0.18026495,0.13476604,-0.16916853,0.018594699,0.012116334,-0.16889466,-0.34476504,-0.038307227,-9.155427,0.86498255,47.681515,-1.4920199,-2.1533554,-3.2170966,-0.16133349,0.18571596,-0.16816044,29.0625,30.4375,29.375,33.0,35.5,36.5625
0.2700536,-0.6291437,-0.02877381,-1.6873901,0.012003587,0.06357238,-0.14079057,-0.40594998,-0.36344522,0.060064226,3.0754125,-0.63075066,-0.00036862757,-0.12547264,0.03878687,0.0017559433,-0.018199053,0.008225615,-0.01794219,0.48007488,-1.363676,1.8821114,-2.089311,-1.5692052,2.4591296,-0.18288697,0.1365138,-0.17202207,0.020014348,0.012268472,-0.16486007,-0.22984336,-0.038307227,-9.385271,0.8605109,47.71286,-1.410339,-2.2088556,-3.279447,-0.15865844,0.18487334,-0.15217996,29.0625,30.4375,29.375,33.0,35.5,36.5625
0.27205414,-0.6918015,-0.74671423,-1.7246364,-0.024298552,0.062781736,-0.13449115,-0.40619248,-0.36337104,0.06005102,3.0753932,-0.6308097,-0.0003825813,-0.12795931,0.040053613,0.002301858,-0.017538676,0.009031662,-0.02758598,0.47973764,-1.3633753,1.8817757,-2.0892866,-1.5692056,2.4588318,-0.18649645,0.13809657,-0.1755422,0.021539938,0.011304114,-0.15882435,-0.24899697,0.1340753,-9.346964,0.800085,47.698532,-1.2595301,-2.140283,-3.256612,-0.17197785,0.19892764,-0.18647902,29.0625,30.4375,29.375,33.0,35.5,36.5625
0.2740539,-0.8346593,-1.153958,-1.8410107,-0.047593158,0.07211046,-0.14802155,-0.4064325,-0.36328045,0.060032338,3.0753736,-0.6308854,-0.00030129097,-0.12770085,0.041844167,0.0008971414,-0.015543265,0.0058891987,-0.03468423,0.479353,-1.3630745,1.8814415,-2.089215,-1.5691699,2.458497,-0.18896404,0.13902542,-0.17372826,0.022509802,0.010982226,-0.15419482,-0.34476504,0.24899697,-9.404425,0.8717007,47.690468,-1.2825774,-2.121251,-3.3139896,-0.16171597,0.2177777,-0.27469763,29.0625,30.4375,29.375,33.0,35.5,36.5625
0.27605373,-1.1557403,-1.3733308,-2.2679195,-0.053472113,0.06702019,-0.14738859,-0.4066767,-0.3631968,0.060052644,3.0753078,-0.63098735,-0.00026645436,-0.12799901,0.04152973,0.00059481675,-0.0155677805,0.0051141055,-0.03543321,0.478969,-1.3628339,1.8810824,-2.0891068,-1.5691217,2.4581852,-0.18881993,0.14077647,-0.1752806,0.022996577,0.011363846,-0.15330087,-0.21068975,0.2681506,-9.691729,0.8224646,47.682407,-1.2227123,-2.1281328,-3.318215,-0.17941645,0.23167503,-0.33419037,29.0625,30.4375,29.375,33.0,35.5,36.5625
0.27805358,-1.4315146,-1.9615991,-2.2825217,-0.06681784,0.08090936,-0.15083656,-0.40693814,-0.3631101,0.06004913,3.0752318,-0.6311464,-0.00025671383,-0.12945177,0.042296715,-0.0003177238,-0.014995684,0.003463552,-0.03854339,0.47857207,-1.3625444,1.8807353,-2.0890706,-1.569085,2.4578974,-0.19141592,0.14421336,-0.1774814,0.023497539,0.011619577,-0.1527852,-0.22984336,0.38307226,-9.768343,0.900793,47.687782,-1.1891629,-2.2296903,-3.2996378,-0.18887213,0.24855202,-0.34479183,29.0625,30.4375,29.375,33.0,35.5,36.5625
0.28005403,-1.2027962,-1.7236975,-2.1882448,-0.090195306,0.09604338,-0.14757727,-0.40718812,-0.36301434,0.060033876,3.0752215,-0.6312779,-0.00025459554,-0.13027565,0.041732334,0.0015753477,-0.018004887,0.0063667824,-0.03877348,0.47820002,-1.362245,1.8804001,-2.0890229,-1.5690969,2.457609,-0.19189355,0.14168416,-0.17874198,0.023323102,0.012954307,-0.1530328,-0.49799395,0.38307226,-9.787497,0.8224646,47.699425,-1.1929173,-2.1580043,-3.3241138,-0.1810181,0.22708586,-0.3694579,29.0625,30.4375,29.375,33.0,35.5,36.5625
0.28205353,-2.475384,-2.326311,-2.3319554,-0.07329119,0.07609099,-0.13642924,-0.40746292,-0.362937,0.0600634,3.0751388,-0.63133466,-0.00032984934,-0.13093379,0.04256776,-0.00012593472,-0.017003447,0.003481872,-0.03468995,0.47781545,-1.3619913,1.8800181,-2.0889752,-1.5690731,2.4572706,-0.19402848,0.14539073,-0.17934437,0.023258667,0.013417888,-0.15924945,-0.4213795,0.4405331,-9.787497,0.8784135,47.667187,-1.0044289,-2.414415,-3.296734,-0.17362899,0.2298286,-0.33077317,29.0625,30.4375,29.375,33.0,35.5,36.5625
0.28405342,-2.1126828,-1.4300745,-2.3118367,-0.082433894,0.099428006,-0.15420021,-0.4077116,-0.36284772,0.060032442,3.0751133,-0.63142216,-0.0002224233,-0.13243257,0.04279729,-0.00067838427,-0.017639311,0.0030238735,-0.028982611,0.4774187,-1.3616542,1.8796705,-2.0889156,-1.5690244,2.4569318,-0.19608061,0.14824513,-0.18141359,0.02261176,0.014195693,-0.16700839,-0.45968673,0.34476504,-9.902418,0.90527004,47.668976,-1.0269766,-2.332749,-3.3599257,-0.16881001,0.2379696,-0.28180057,29.0625,30.4375,29.375,33.0,35.5,36.5625
0.28605327,-1.851311,-1.8819584,-2.3361967,-0.04882,0.104180425,-0.15420283,-0.4080105,-0.36274517,0.060063086,3.0750306,-0.63153505,-0.00033548707,-0.13284265,0.043807,-0.002261543,-0.01705608,0.00016564912,-0.021803394,0.47698596,-1.361401,1.879289,-2.0888793,-1.5690244,2.4565804,-0.19850147,0.15097341,-0.18107392,0.022370499,0.015025942,-0.1766068,-0.2873042,0.3256114,-9.825804,0.8851263,47.71286,-1.1134094,-2.4480505,-3.4244323,-0.16447048,0.22830957,-0.15864035,29.0625,30.4375,29.375,33.0,35.5,36.5625
0.28805402,-1.4682062,-1.0481566,-2.0675633,-0.041197285,0.09688512,-0.14662851,-0.40827814,-0.36267275,0.060049355,3.074965,-0.63155746,-0.00032961994,-0.13392997,0.043834984,-0.0021986186,-0.018204521,0.0008054309,-0.01816147,0.47660148,-1.3610761,1.8789304,-2.0888798,-1.5689758,2.4562185,-0.19982034,0.15200756,-0.18230161,0.021489248,0.015765592,-0.1815664,-0.4405331,0.28730422,-9.825804,0.8112748,47.681515,-1.0399171,-2.4471645,-3.5326688,-0.15971568,0.23499927,-0.087080106,29.0625,30.4375,29.375,33.0,35.5,36.5625
0.29005462,-1.5130062,-0.6675639,-2.0434372,-0.02968468,0.07759947,-0.14532699,-0.40855613,-0.36260557,0.060074184,3.0748844,-0.6315796,-0.00035492223,-0.13434935,0.043698944,-0.002744667,-0.017763406,0.0009397547,-0.018824767,0.4762176,-1.3607873,1.8785113,-2.0888083,-1.5689281,2.455859,-0.1995521,0.1538065,-0.1830441,0.020530453,0.015320566,-0.18063359,-0.59376204,0.21068975,-9.595961,0.91421866,47.705692,-1.0814865,-2.622852,-3.4565086,-0.12028304,0.23938863,-0.0478651,29.0625,30.4375,29.375,33.0,35.5,36.5625
0.29205373,-0.70163393,-0.7955128,-1.7208544,-0.010784895,0.09491355,-0.1423384,-0.40881056,-0.36252972,0.060075767,3.0748222,-0.6316645,-0.00034946724,-0.1341526,0.041803654,-0.0023334294,-0.018711384,0.0020543125,-0.021713603,0.47584698,-1.3604997,1.8781518,-2.0887606,-1.5688919,2.4555495,-0.19628114,0.1549859,-0.18536858,0.020250268,0.015643623,-0.17447236,-0.47884035,0.19153613,-9.481039,0.8717007,47.707485,-1.3085759,-2.3897355,-3.48462,-0.1060941,0.24210647,-0.06987373,29.0625,30.4375,29.375,33.0,35.5,36.5625
0.29405355,-1.0281984,-0.018406415,-1.5611603,-0.016696174,0.08927949,-0.15343216,-0.4090975,-0.3624412,0.06006044,3.074728,-0.6318013,-0.0003859783,-0.13379727,0.04120209,-0.0022291,-0.018534595,0.0021301245,-0.027532412,0.47542742,-1.3601756,1.8778056,-2.0887969,-1.5688561,2.4552276,-0.19471022,0.1553022,-0.18613721,0.020715835,0.015452045,-0.16708162,-0.38307226,0.05746084,-9.500193,0.8717007,47.734352,-1.4488082,-2.4038846,-3.4843698,-0.08093718,0.24379125,-0.15894538,29.0625,30.4375,29.375,33.0,35.5,36.5625
0.29605356,-0.99760544,-0.11929742,-1.439748,0.001440214,0.0762604,-0.15370072,-0.4093632,-0.36235255,0.060052536,3.0746727,-0.63188875,-0.0003368535,-0.13479169,0.041944005,-0.0029236255,-0.018328665,0.0003486486,-0.034180067,0.4750187,-1.3598632,1.8774346,-2.0887363,-1.568808,2.4548807,-0.19707134,0.15766688,-0.18763117,0.021527413,0.016078303,-0.16279413,-0.2873042,-0.05746084,-9.442732,0.86945957,47.67166,-1.4393973,-2.4870577,-3.4118357,-0.065708406,0.22759795,-0.23230578,29.0625,30.4375,29.375,33.0,35.5,36.5625
0.29805347,-0.9074237,-0.08034464,-1.3904673,0.008126046,0.05997119,-0.15064906,-0.40970477,-0.3622806,0.060092717,3.0745463,-0.6320607,-0.00054065004,-0.13751562,0.04283809,-0.0015160242,-0.01902871,0.0029569298,-0.04446406,0.47460964,-1.3595394,1.8769544,-2.0887363,-1.5688204,2.4545956,-0.20042767,0.15785667,-0.19128059,0.02234058,0.015518096,-0.15586308,-0.1340753,-0.19153613,-9.289503,0.90750587,47.68062,-1.4654078,-2.4593067,-3.3796482,-0.061336093,0.26170528,-0.34439123,29.0625,30.4375,29.375,33.0,35.5,36.5625
0.30005318,-0.69493717,-0.2005298,-1.1636947,0.023523238,0.03621061,-0.1439119,-0.40995714,-0.36218598,0.060089283,3.0745032,-0.6321885,-0.00054215465,-0.13948482,0.042991064,-0.00014028966,-0.021060204,0.0051611513,-0.049785055,0.47422495,-1.3592638,1.8766202,-2.0886881,-1.568808,2.4542964,-0.20275003,0.15752997,-0.1941045,0.022601798,0.016313246,-0.152863,-0.17238252,-0.1340753,-9.097966,0.8851263,47.698532,-1.337677,-2.3944612,-3.3029652,-0.04668726,0.2577486,-0.42110562,29.0625,30.4375,29.375,33.0,35.5,36.5625
0.3020543,-0.013236317,0.27720743,-1.2824596,0.024625542,0.024587737,-0.15828437,-0.41024688,-0.36209306,0.060099814,3.0744326,-0.63228965,-0.0005764127,-0.14200288,0.043871544,0.00042809758,-0.02145785,0.0064700283,-0.051428616,0.47380373,-1.3589635,1.8762244,-2.0886395,-1.5687836,2.4539475,-0.20611581,0.15911964,-0.19744033,0.023016797,0.016080175,-0.1545833,0.0,-0.114921674,-9.136273,0.8806493,47.675243,-1.313759,-2.3147082,-3.2461495,-0.018816605,0.2512458,-0.47680348,29.0625,30.4375,29.375,33.0,35.5,36.5625
0.30405414,0.09539478,0.28989872,-1.4757415,0.026590707,0.018494168,-0.15693773,-0.41051388,-0.36200437,0.06009004,3.074359,-0.632499,-0.0005153781,-0.1430005,0.0443856,0.0012490362,-0.021947263,0.007546896,-0.04271379,0.47339526,-1.3586401,1.8758415,-2.088568,-1.568736,2.4536793,-0.20768172,0.15847962,-0.19876435,0.023834152,0.016049188,-0.1648641,-0.019153614,-0.05746084,-9.136273,0.91198283,47.675243,-1.2692039,-2.1975307,-3.1765194,-0.008601859,0.26198894,-0.4447947,29.0625,30.4375,29.375,33.0,35.5,36.5625
0.3060541,0.11529495,-0.18790056,-1.4558648,0.016256703,0.023064211,-0.1608385,-0.4107946,-0.36191136,0.06008847,3.0743072,-0.6325396,-0.00050815777,-0.14342058,0.04469938,0.0011863547,-0.021682544,0.0065181297,-0.032296762,0.47297496,-1.3583277,1.8754586,-2.0885198,-1.5686997,2.4532912,-0.20858988,0.15947938,-0.20021512,0.025356652,0.016316557,-0.17618836,0.0,0.0,-9.251195,0.83589023,47.684196,-1.2319721,-2.3407485,-3.2075431,-0.020716745,0.28582442,-0.35144147,29.0625,30.4375,29.375,33.0,35.5,36.5625
0.3080537,-0.033069406,-0.75048333,-1.5710607,-0.0048118075,0.050019152,-0.15775637,-0.4111225,-0.36182195,0.060118847,3.07417,-0.6326804,-0.00056562957,-0.14460237,0.046119917,0.0008118658,-0.020620208,0.0049833106,-0.025536258,0.47250605,-1.3580155,1.8750032,-2.0884707,-1.5686401,2.452928,-0.21169601,0.16107595,-0.20174429,0.027179271,0.016115172,-0.18605313,0.0,0.11492168,-9.212888,0.8672237,47.698532,-1.121825,-2.2926779,-3.235383,-0.023565715,0.27752548,-0.21312335,29.0625,30.4375,29.375,33.0,35.5,36.5625
0.31005362,-0.45643672,-0.86867225,-1.67514,-0.02912671,0.063599564,-0.15738562,-0.41135958,-0.36172864,0.060092457,3.0742178,-0.63263047,-0.00049453374,-0.14585334,0.0463264,0.002299263,-0.022017185,0.0065849675,-0.023126736,0.47214556,-1.3576924,1.8746551,-2.0883868,-1.5686401,2.4525304,-0.21331179,0.15987736,-0.20405269,0.028636988,0.016631644,-0.19007862,-0.076614454,0.22984336,-9.289503,0.8940802,47.72002,-1.1062543,-2.1412659,-3.201743,-0.0386445,0.27794173,-0.1505409,29.0625,30.4375,29.375,33.0,35.5,36.5625
0.3120536,-1.5833312,-1.4076838,-1.8316913,-0.04523191,0.06722083,-0.14656901,-0.41166708,-0.36161992,0.060105037,3.074156,-0.63275504,-0.00047322406,-0.14648007,0.0477234,0.0015770881,-0.020695787,0.0044560735,-0.028407082,0.47167677,-1.3573682,1.8742121,-2.0882785,-1.5686039,2.4521475,-0.21590565,0.16136838,-0.20461586,0.030215783,0.0164281,-0.18739186,-0.24899697,0.24899697,-9.3661175,0.80679786,47.63136,-0.9781412,-2.0167475,-3.3245094,-0.049338385,0.29354858,-0.13872427,29.0625,30.4375,29.375,33.0,35.5,36.5625
0.31405336,-1.578769,-1.5870389,-1.8660346,-0.05082438,0.079393625,-0.15132082,-0.41193527,-0.36153162,0.060089044,3.074119,-0.63278985,-0.0004085258,-0.14540927,0.048374888,0.0004835752,-0.019645775,0.0007357773,-0.035609122,0.47126868,-1.3570322,1.8738302,-2.088218,-1.5685552,2.451766,-0.21639308,0.16212574,-0.20354435,0.032176834,0.017177196,-0.1806775,-0.4213795,0.2681506,-9.404425,0.8851263,47.677036,-1.0364355,-2.0780835,-3.369104,-0.08181466,0.27705878,-0.19325235,29.0625,30.4375,29.375,33.0,35.5,36.5625
0.31605345,-2.2080483,-2.3265398,-2.1202292,-0.02282781,0.075360954,-0.13784474,-0.4122425,-0.3614325,0.060105495,3.0740187,-0.632964,-0.00047273064,-0.14633326,0.04843398,-0.0007521856,-0.018773409,-0.0017977911,-0.04253815,0.47082448,-1.3567309,1.873422,-2.0881817,-1.5685314,2.4514437,-0.2173556,0.16666749,-0.20649704,0.03323884,0.017549135,-0.17470792,-0.40222588,0.22984336,-9.519346,0.86945957,47.72271,-1.0168148,-2.1642392,-3.4246783,-0.09799084,0.28773257,-0.29959175,29.0625,30.4375,29.375,33.0,35.5,36.5625
0.3180533,-1.682562,-1.2483888,-1.8508034,-0.031029494,0.09963925,-0.14634165,-0.41254002,-0.36136067,0.060107507,3.0739114,-0.6330568,-0.00046152587,-0.14591968,0.047215275,-0.00055763347,-0.019304574,-0.0011920674,-0.04267402,0.47040516,-1.3563834,1.872991,-2.088146,-1.5684594,2.4510963,-0.21492738,0.16716208,-0.2075338,0.033013787,0.017750768,-0.17214255,-0.38307226,0.1340753,-9.557653,0.8784135,47.689575,-1.1924596,-2.0677729,-3.414412,-0.0884562,0.2822508,-0.33106664,29.0625,30.4375,29.375,33.0,35.5,36.5625
0.32005385,-1.8196025,-1.2040322,-1.7812369,-0.007863449,0.09479833,-0.14533088,-0.41281283,-0.36123663,0.060093123,3.073949,-0.6331602,-0.0004374087,-0.14600602,0.0470516,-0.0013686644,-0.019459257,-0.0021739965,-0.0420738,0.46998534,-1.3560587,1.8726081,-2.0880387,-1.5684947,2.4507363,-0.21494143,0.1690194,-0.20780669,0.032235496,0.01832705,-0.17275696,-0.47884035,0.19153613,-9.519346,0.88960326,47.667187,-1.3513129,-2.238159,-3.415538,-0.06345085,0.2764727,-0.36214912,29.0625,30.4375,29.375,33.0,35.5,36.5625
0.3220537,-1.8331724,-0.91300905,-1.986907,0.004727148,0.08258435,-0.15219717,-0.41313255,-0.36117485,0.06012397,3.0737882,-0.63329875,-0.00051209953,-0.14644153,0.047927525,-0.0025312877,-0.017654177,-0.0043874546,-0.04085762,0.46956477,-1.3557341,1.8721417,-2.0880144,-1.5684232,2.4504232,-0.21626171,0.17172143,-0.20870924,0.033254974,0.017748212,-0.17529126,-0.34476504,0.17238252,-9.5385,0.90527004,47.650166,-1.3673315,-2.248879,-3.5266285,-0.09028506,0.278336,-0.39260665,29.0625,30.4375,29.375,33.0,35.5,36.5625
0.32405338,-1.0062456,-0.36855415,-1.9401139,-0.0058386023,0.08074188,-0.16314965,-0.4134389,-0.36106694,0.06010889,3.0737405,-0.6333992,-0.0005043853,-0.14779624,0.048790473,-0.0027651102,-0.017493967,-0.0047891806,-0.034100484,0.46910787,-1.3553739,1.8717335,-2.0879781,-1.5683993,2.4500353,-0.21874084,0.17339264,-0.21034941,0.033688653,0.017809335,-0.18452664,-0.26815057,0.15322891,-9.557653,0.89631605,47.691364,-1.3595121,-2.4215965,-3.4288645,-0.101584755,0.29442877,-0.29730403,29.0625,30.4375,29.375,33.0,35.5,36.5625
0.3260532,-0.5751636,-0.63302076,-1.8583864,-0.0072439015,0.06171129,-0.16173263,-0.4137254,-0.36095688,0.060106147,3.0737095,-0.63350075,-0.00046474184,-0.14759907,0.048535645,-0.0033624172,-0.016112244,-0.006199837,-0.022537777,0.46866456,-1.3550496,1.8713268,-2.0878813,-1.5683755,2.4496596,-0.21764761,0.17548978,-0.21188666,0.03505087,0.017236315,-0.19499622,-0.22984336,0.19153613,-9.5385,0.8940802,47.68062,-1.4449458,-2.3691506,-3.392381,-0.11167537,0.28819025,-0.20362633,29.0625,30.4375,29.375,33.0,35.5,36.5625
0.328054,-1.0663248,-1.4303919,-1.6585308,-0.012476195,0.038139414,-0.14578004,-0.4140356,-0.3608651,0.060105275,3.0736737,-0.6334714,-0.000485554,-0.14883333,0.049479153,-0.0028040889,-0.0152692385,-0.006044252,-0.018828237,0.46823195,-1.3546896,1.8708838,-2.0878332,-1.5683516,2.4492135,-0.21962814,0.1759185,-0.21422257,0.037228562,0.01643444,-0.20068578,-0.30645782,0.17238252,-9.3661175,0.95897776,47.677036,-1.3848002,-2.402112,-3.4688482,-0.15123011,0.32001823,-0.10006375,29.0625,30.4375,29.375,33.0,35.5,36.5625
0.33005372,-0.77588516,-1.211155,-1.5523062,-0.023653036,0.048254848,-0.15446249,-0.41432768,-0.36075258,0.0601076,3.073644,-0.6336019,-0.00046073814,-0.14999093,0.04948648,-0.0027924008,-0.016051253,-0.0065284357,-0.021608159,0.4677874,-1.3543648,1.8704623,-2.087725,-1.5683392,2.4488544,-0.22102468,0.17784621,-0.21678866,0.037949692,0.017341983,-0.19930078,-0.2681506,0.095768064,-9.251195,0.86498255,47.70211,-1.3821814,-2.4977407,-3.2869687,-0.16015975,0.30464277,-0.06489998,29.0625,30.4375,29.375,33.0,35.5,36.5625
0.33205342,-0.7794336,-0.94567627,-1.6052343,-0.017843168,0.04232196,-0.15124917,-0.4146051,-0.36069828,0.06010793,3.0735621,-0.63359153,-0.0003813152,-0.15172422,0.050062347,-0.0030078683,-0.016501075,-0.006019978,-0.031542126,0.4674022,-1.3540046,1.8700083,-2.087642,-1.5682434,2.4484735,-0.22340247,0.17986777,-0.21860138,0.03709057,0.017493628,-0.19174345,-0.15322891,0.05746084,-9.423578,0.9612189,47.719128,-1.2964493,-2.4319508,-3.3826075,-0.17441022,0.31326315,-0.1538305,29.0625,30.4375,29.375,33.0,35.5,36.5625
0.3340538,-1.0514693,-0.86918235,-1.2332227,-0.026039688,0.048040338,-0.14991008,-0.41493452,-0.36055627,0.060104918,3.0735073,-0.6338558,-0.00038248644,-0.15318145,0.051457047,-0.0021095301,-0.01728818,-0.0053616758,-0.04343966,0.46688476,-1.3536576,1.8695773,-2.0875576,-1.5682434,2.4481282,-0.22703129,0.17873213,-0.21958713,0.038256764,0.017882667,-0.18347439,-0.36391866,0.1340753,-9.346964,0.8873621,47.67614,-1.1073084,-2.3150048,-3.3335853,-0.18169177,0.31175667,-0.21638888,29.0625,30.4375,29.375,33.0,35.5,36.5625
0.3360537,-1.5056814,-1.1252769,-1.294715,-0.0037744725,0.053112276,-0.14934856,-0.41520837,-0.36046186,0.060078226,3.0734951,-0.63387436,-0.0002763671,-0.15469621,0.052441556,-0.0015378234,-0.01768271,-0.0057229144,-0.052357756,0.46646476,-1.353286,1.8691701,-2.0874732,-1.5681947,2.4477215,-0.23011108,0.17925645,-0.22204873,0.04033899,0.018376058,-0.17763583,-0.5363012,0.15322891,-9.155427,0.9254084,47.721813,-1.1370584,-2.1852384,-3.4450636,-0.21103871,0.32622796,-0.3192262,29.0625,30.4375,29.375,33.0,35.5,36.5625
0.3380534,-0.955421,-0.26470795,-1.4316485,0.008988569,0.08256995,-0.16080365,-0.41552782,-0.3603535,0.060087513,3.0733979,-0.6340511,-0.00027468763,-0.1562164,0.053152476,-0.0013389101,-0.018819101,-0.005549622,-0.06123569,0.4659838,-1.3529499,1.8687271,-2.0874016,-1.5681471,2.4473636,-0.23297414,0.18012972,-0.22361083,0.04036071,0.019303849,-0.171619,-0.3256114,0.1340753,-9.212888,0.8672237,47.72002,-0.95429635,-2.2606187,-3.4723942,-0.23370671,0.31081954,-0.4175424,29.0625,30.4375,29.375,33.0,35.5,36.5625
0.3400532,-1.2102793,-0.46570152,-1.455147,0.012097172,0.074463174,-0.16466475,-0.41582915,-0.3602456,0.06006701,3.0733151,-0.63424397,-0.00017401396,-0.1570967,0.052670263,-0.0023137718,-0.01918883,-0.0072639245,-0.06118068,0.4655038,-1.3525767,1.8683065,-2.0873291,-1.5680741,2.4470148,-0.23340628,0.18422207,-0.22643098,0.040473625,0.020396218,-0.1721043,-0.24899697,0.019153614,-9.3661175,0.88960326,47.696735,-1.0790147,-2.2231202,-3.3390217,-0.24919641,0.2934452,-0.47188097,29.0625,30.4375,29.375,33.0,35.5,36.5625
0.342054,-1.6945184,-0.7827753,-1.0960685,-0.017877543,0.07913871,-0.1550671,-0.4161559,-0.36015847,0.0600778,3.0732183,-0.63435185,-0.00022832447,-0.1581171,0.05178165,-0.00093624904,-0.021079142,-0.004349347,-0.05176349,0.4650601,-1.3522176,1.8678402,-2.0872934,-1.5680383,2.4466512,-0.23284921,0.18365577,-0.22882031,0.04001445,0.020806221,-0.1809621,-0.4213795,-0.019153614,-9.212888,0.87393653,47.66271,-1.1840214,-2.1352465,-3.2483242,-0.25447962,0.2789862,-0.46926212,29.0625,30.4375,29.375,33.0,35.5,36.5625
0.34405383,-1.7401395,-1.125002,-1.448806,-0.0016619647,0.07916857,-0.15543345,-0.41649252,-0.36005566,0.06010525,3.0731754,-0.63445026,-0.00027396277,-0.15806901,0.05135766,-0.0004770877,-0.020641483,-0.0029471458,-0.037774768,0.46460423,-1.3518577,1.8673133,-2.0871618,-1.5680388,2.4462626,-0.23131792,0.18337686,-0.22959258,0.040055275,0.019823551,-0.19341972,-0.45968673,0.038307227,-9.232041,0.87617236,47.650166,-1.2513125,-2.1491196,-3.2404318,-0.27646917,0.30524495,-0.34040052,29.0625,30.4375,29.375,33.0,35.5,36.5625
0.3460541,-1.5636991,-0.18334495,-1.8554349,0.001367836,0.07720388,-0.1540325,-0.41678265,-0.3599398,0.060071476,3.0731378,-0.6346283,-0.00015322948,-0.15853557,0.05178288,-0.0014300952,-0.019717593,-0.0046336716,-0.027298037,0.46413624,-1.3514731,1.866906,-2.0870783,-1.5679902,2.4459107,-0.23222424,0.1859718,-0.23076119,0.04060122,0.019768683,-0.20480347,-0.24899697,0.038307227,-9.308657,0.9231726,47.73077,-1.199132,-2.287245,-3.3062496,-0.30294168,0.28875786,-0.2246935,29.0625,30.4375,29.375,33.0,35.5,36.5625
0.348054,-1.264162,-0.7035116,-1.5357023,-0.0069365036,0.08685782,-0.15979286,-0.41711724,-0.35985422,0.060091827,3.0730922,-0.6345404,-0.00024740113,-0.15974692,0.051551696,-0.0011527173,-0.020443521,-0.003345085,-0.023942132,0.46370405,-1.3511127,1.8664135,-2.0870306,-1.5679783,2.4454298,-0.23273155,0.1872883,-0.23289566,0.03996355,0.019863978,-0.20866418,-0.19153613,0.17238252,-9.289502,0.91198283,47.693153,-1.3373909,-2.2718937,-3.298986,-0.32106525,0.29797336,-0.13901253,29.0625,30.4375,29.375,33.0,35.5,36.5625
0.3500538,-1.6050286,-1.4186289,-1.2523857,-0.015093925,0.07471612,-0.1418074,-0.41744366,-0.35972846,0.060069233,3.0730278,-0.63472235,-0.00011885729,-0.16064802,0.05200423,-0.000997639,-0.020716855,-0.0023944105,-0.030057663,0.46317577,-1.3507054,1.8659476,-2.086923,-1.5679067,2.4450235,-0.23393291,0.18759571,-0.23354879,0.03934886,0.019662214,-0.20375103,-0.47884032,0.15322891,-9.232041,0.9388393,47.694946,-1.2975092,-2.2138638,-3.3205507,-0.30994403,0.32408935,-0.13747248,29.0625,30.4375,29.375,33.0,35.5,36.5625
0.35205337,-1.524226,-1.3118427,-1.4602708,-0.0111386115,0.06152213,-0.1489151,-0.4177532,-0.3596315,0.060063705,3.07297,-0.6348295,-9.730018e-05,-0.16104539,0.052002337,-0.0015678506,-0.02063484,-0.003262974,-0.037141424,0.46273163,-1.3503329,1.8654932,-2.086851,-1.5678705,2.444654,-0.2342711,0.18950407,-0.23462424,0.039325375,0.019963335,-0.19700445,-0.47884035,0.22984336,-9.232041,0.90750587,47.693153,-1.3723974,-2.168398,-3.4109392,-0.33619118,0.3031224,-0.22000453,29.0625,30.4375,29.375,33.0,35.5,36.5625
0.35405377,-0.82474613,-1.0836843,-1.6524162,-0.017630974,0.07107058,-0.15592113,-0.4180951,-0.3595418,0.060076233,3.0728924,-0.634931,-0.00017605504,-0.16268553,0.05139277,-0.0011893293,-0.022394272,-0.0016303596,-0.04309226,0.46228722,-1.349949,1.8649896,-2.0868037,-1.5678581,2.4442832,-0.23494755,0.19138072,-0.23753984,0.038111392,0.0208049,-0.19172664,-0.21068975,0.24899697,-9.442732,0.8403672,47.701214,-1.4196577,-2.0900245,-3.4618971,-0.330747,0.29819834,-0.3189603,29.0625,30.4375,29.375,33.0,35.5,36.5625
0.35605413,-0.7215666,-2.0657685,-1.9460998,-0.0071667098,0.057167426,-0.14196362,-0.4184117,-0.35941723,0.06004955,3.0728993,-0.63499326,-0.00010684466,-0.16498944,0.052126095,-0.0004345654,-0.02426092,0.0014459756,-0.04914198,0.46180615,-1.3495411,1.8645347,-2.0867088,-1.5678457,2.4438403,-0.23808913,0.19132112,-0.23871386,0.035762183,0.02108514,-0.1888189,-0.095768064,0.2681506,-9.442732,0.86498255,47.72002,-1.2741137,-2.2032938,-3.4475198,-0.31726402,0.3078859,-0.36870316,29.0625,30.4375,29.375,33.0,35.5,36.5625
0.35805383,-0.248225,-1.7601562,-1.8478667,-0.01896046,0.0520156,-0.14082013,-0.4187408,-0.35930395,0.06003655,3.0728328,-0.635134,-6.075386e-05,-0.16643006,0.05438213,-0.001856313,-0.022792947,-0.00024661934,-0.0515112,0.46131277,-1.3491447,1.8640679,-2.0866368,-1.5677985,2.4434435,-0.24253696,0.19371879,-0.2383381,0.035185527,0.020534039,-0.190898,-0.05746084,0.3256114,-9.385271,0.9298854,47.68062,-1.1437349,-2.248435,-3.498219,-0.3207152,0.30987257,-0.3881213,29.0625,30.4375,29.375,33.0,35.5,36.5625
0.3600537,-1.2117873,-1.9044266,-1.9425136,-0.031324632,0.021814112,-0.14370105,-0.41907668,-0.35921368,0.060054526,3.0727253,-0.63520116,-9.066806e-05,-0.16768193,0.054880157,-0.0020337407,-0.02348563,-0.00017118489,-0.043666754,0.46084446,-1.3487846,1.8635777,-2.0865772,-1.5677379,2.4430313,-0.24459508,0.19517559,-0.2396553,0.034719393,0.021159219,-0.20079811,-0.22984336,0.30645782,-9.3661175,0.9410752,47.63225,-1.0014137,-2.292149,-3.543587,-0.32600123,0.2933578,-0.35077408,29.0625,30.4375,29.375,33.0,35.5,36.5625
0.36205336,-0.78857696,-1.6242851,-2.1353743,-0.034560487,0.04029013,-0.14701906,-0.41942224,-0.35909656,0.06005362,3.0726097,-0.6354017,-5.22753e-05,-0.1690943,0.053876717,-0.0030990334,-0.02513408,-0.0014410885,-0.033324394,0.46031642,-1.3483994,1.8630971,-2.0865061,-1.5676655,2.4426436,-0.24514219,0.20034352,-0.24333432,0.033687964,0.023226889,-0.21168318,-0.15322891,0.19153613,-9.423578,0.9298854,47.64837,-1.0762224,-2.2584808,-3.5259717,-0.32432264,0.28314054,-0.2223291,29.0625,30.4375,29.375,33.0,35.5,36.5625
0.36405382,-0.4010534,-1.3887173,-2.2147813,-0.016413966,0.05567139,-0.15186489,-0.41973487,-0.35898688,0.060026813,3.0726316,-0.6354029,-8.11896e-06,-0.16925856,0.053458907,-0.002847757,-0.02586038,-0.0016742714,-0.027763663,0.45987225,-1.3479795,1.8626298,-2.0864217,-1.567665,2.4421976,-0.24485892,0.20087808,-0.24482459,0.03455441,0.02398938,-0.21696042,-0.15322891,0.15322891,-9.576807,0.88960326,47.668976,-1.139314,-2.3390048,-3.3973336,-0.30845988,0.2662186,-0.10598856,29.0625,30.4375,29.375,33.0,35.5,36.5625
0.36605388,-1.1777003,-1.7545129,-1.958389,-0.017577238,0.06533768,-0.14279449,-0.4200728,-0.35888508,0.06003007,3.072506,-0.63551414,6.500917e-05,-0.17187847,0.053666018,-0.0017093503,-0.027831594,0.0014840064,-0.031906057,0.4593553,-1.3475955,1.8621382,-2.0863383,-1.5675567,2.4417665,-0.24739394,0.20159318,-0.2480762,0.033415575,0.024352452,-0.2153511,-0.40222588,0.30645782,-9.5385,0.8605109,47.690468,-1.0602477,-2.4085937,-3.4623907,-0.29323292,0.25804043,-0.081203535,29.0625,30.4375,29.375,33.0,35.5,36.5625
0.3680536,-1.9636396,-1.624167,-1.9671981,-0.027692672,0.06749947,-0.14370908,-0.4204155,-0.35875437,0.06001768,3.0724754,-0.6356262,4.9930084e-05,-0.1727507,0.052887473,-0.0016513072,-0.028481733,0.0032340542,-0.038929403,0.45885202,-1.3471992,1.8616723,-2.0862792,-1.5675567,2.4413373,-0.24648559,0.20323867,-0.24989015,0.0317147,0.024141707,-0.20741858,-0.36391866,0.2681506,-9.423578,0.91198283,47.69763,-1.0522864,-2.47045,-3.4710817,-0.26903155,0.24267462,-0.14966072,29.0625,30.4375,29.375,33.0,35.5,36.5625
0.3700534,-1.4990376,-1.1455952,-2.0460424,-0.04101151,0.08690379,-0.15184082,-0.4207627,-0.3586624,0.060008246,3.072345,-0.63577694,6.8462105e-05,-0.17486265,0.05285788,-0.00019329433,-0.030503288,0.006390117,-0.04900841,0.45835933,-1.3467798,1.8611797,-2.0862553,-1.5674728,2.4409559,-0.24821775,0.20302044,-0.25288343,0.031201838,0.024547048,-0.19906934,-0.36391866,0.28730422,-9.461885,0.88960326,47.67614,-1.1228874,-2.382529,-3.345307,-0.24943033,0.23748812,-0.24322143,29.0625,30.4375,29.375,33.0,35.5,36.5625
0.3720533,-1.9224268,-2.2650833,-1.9228334,-0.03404055,0.094218455,-0.13157159,-0.42110172,-0.35854223,0.05998552,3.0722842,-0.63599855,0.00013205913,-0.17551409,0.05210147,0.00030117237,-0.03167775,0.006648388,-0.055773415,0.45785534,-1.3463479,1.8606881,-2.0861714,-1.5674361,2.4405982,-0.24784258,0.20417036,-0.2556777,0.03208795,0.025469292,-0.19192788,-0.63206923,0.3256114,-9.404425,0.8403672,47.682407,-1.2621436,-2.304564,-3.1616783,-0.23665598,0.20122574,-0.3521157,29.0625,30.4375,29.375,33.0,35.5,36.5625
0.37405396,-2.2453604,-1.701279,-1.9257467,-0.04148182,0.098836124,-0.14900434,-0.42146504,-0.35844997,0.059993707,3.0721793,-0.6361307,0.0001312312,-0.17530757,0.051708147,0.00052449503,-0.032463662,0.006956979,-0.06028132,0.45736438,-1.3459164,1.8601269,-2.0860875,-1.5673765,2.4402037,-0.24713762,0.20382932,-0.255813,0.031944662,0.026042769,-0.18671346,-0.7278373,0.2681506,-9.3661175,1.0686398,47.694946,-1.4484307,-2.3460088,-3.2915828,-0.23456416,0.1758076,-0.44141388,29.0625,30.4375,29.375,33.0,35.5,36.5625
0.37605372,-1.8624882,-1.0929348,-2.0869606,-0.02995411,0.11041183,-0.15315127,-0.42181048,-0.35833606,0.059989236,3.072096,-0.6363044,0.00016069108,-0.17620632,0.05201973,0.0007221205,-0.03287143,0.008031729,-0.05759366,0.45685947,-1.3455089,1.8596233,-2.0860035,-1.5673283,2.4398181,-0.24813159,0.2042046,-0.25664142,0.031288728,0.025953228,-0.19039479,-0.59376204,0.21068975,-9.519346,0.9030289,47.707485,-1.4949398,-2.2675302,-3.4799483,-0.22254132,0.17180401,-0.48378563,29.0625,30.4375,29.375,33.0,35.5,36.5625
0.37805358,-1.4970591,-0.73892015,-1.7494354,-0.039028488,0.12885033,-0.16355076,-0.4221624,-0.35823998,0.059992574,3.0720022,-0.63639224,0.00013230531,-0.17613538,0.05197063,0.00031596413,-0.032746814,0.007677416,-0.04577446,0.45637965,-1.3451005,1.8591093,-2.0859563,-1.5672807,2.4394057,-0.247832,0.20504104,-0.2567442,0.030989727,0.02604815,-0.20191297,-0.63206923,0.1340753,-9.576807,0.95002913,47.696735,-1.4940041,-2.1741087,-3.4969192,-0.19991153,0.14725235,-0.4124053,29.0625,30.4375,29.375,33.0,35.5,36.5625
