Tylouw/Master_Thesis_Code/training_data/batch_1/rect_rod_t0.2/sample_56_session_2.csv
timestamp[s],tcp_force_x[N],tcp_force_y[N],tcp_force_z[N],tcp_force_rx[Nm?],tcp_force_ry[Nm?],tcp_force_rz[Nm?],tcp_pose_x[m],tcp_pose_y[m],tcp_pose_z[m],tcp_pose_rx[rot_vec_x],tcp_pose_ry[rot_vec_y],tcp_pose_rz[rot_vec_z],tcp_velo_x[m/s],tcp_velo_y[m/s],tcp_velo_z[m/s],tcp_velo_rx[rot_vec_x/s],tcp_velo_ry[rot_vec_y/s],tcp_velo_rz[rot_vec_z/s],q1[rad],q2[rad],q3[rad],q4[rad],q5[rad],q6[rad],qd1[rad/s],qd2[rad/s],qd3[rad/s],qd4[rad/s],qd5[rad/s],qd6[rad/s],tool_acc_x,tool_acc_y,tool_acc_z,current_of_whole_robot[A],voltage_of_whole_robot[V],current_J1[A],current_J2[A],current_J3[A],current_J4[A],current_J5[A],current_J6[A],temp_J1[C],temp_J2[C],temp_J3[C],temp_J4[C],temp_J5[C],temp_J6[C]
8.5600004e-07,-0.0053337812,-0.14516926,1.0506334,-0.0059022596,-0.001570678,-0.0038899754,-0.38934782,-0.3687136,0.06001302,-3.0786943,0.6249646,0.00021808596,0.0016006696,0.00092307257,-0.0016799237,0.0020680826,-0.004023184,-5.934033e-05,0.5050208,-1.3816435,1.904188,-2.0919034,-1.5708655,2.4800372,-0.00014647462,0.0006633477,0.0027980031,0.0010596497,0.00014518017,-8.849611e-05,0.076614454,0.076614454,-8.734048,0.7351769,47.666286,-0.23936975,-3.1362872,-2.390314,-0.20453876,0.17663702,0.023292752,28.875,30.25,29.375,32.9375,35.4375,36.5
0.002054785,0.5134376,0.1733021,1.2321228,-0.013091687,0.0104162255,-0.005988685,-0.38933998,-0.3687164,0.060005885,-3.0786965,0.62488765,0.000193829,-0.0012271921,-0.0006505585,-0.0009550539,-0.0026409454,0.0044532353,-5.481263e-05,0.50503284,-1.3816314,1.904188,-2.0918953,-1.5708655,2.480001,-0.00014185718,0.001160957,0.0028952025,-0.009231783,0.0001413789,-8.727026e-05,0.0,0.2681506,-8.63828,0.7150385,47.71465,-0.16989066,-3.0865722,-2.391073,-0.1688591,0.18797314,0.011980905,28.875,30.25,29.375,32.9375,35.4375,36.5
0.004054534,0.1829929,0.3557351,1.1946716,-0.016310241,0.0061461907,-0.009668835,-0.38933873,-0.36872455,0.059985116,-3.0787077,0.6249672,0.00018518377,-0.0023112465,-0.0012549481,-0.00085267297,-0.0039010243,0.006722567,-5.085055e-05,0.50503284,-1.3816069,1.9042228,-2.0919678,-1.5708417,2.4800491,-0.00013752184,0.0022180185,0.0020506529,-0.012039986,0.0001377717,-8.6077875e-05,0.0,0.2681506,-8.714894,0.78888994,47.746887,-0.16059151,-3.339779,-2.50555,-0.038123354,0.15941998,0.0145449005,28.875,30.25,29.375,32.9375,35.4375,36.5
0.006054116,0.15614489,-0.039580744,1.0168447,0.009436612,-0.0060938336,-0.0022296277,-0.38934252,-0.36870965,0.059990883,-3.0787108,0.62498736,0.00016977277,-0.00093932543,-0.0005002336,-0.0006560108,-0.0017209115,0.0027732325,-4.8512666e-05,0.50499684,-1.3816314,1.9042352,-2.091953,-1.5708297,2.4800253,-0.00013344361,0.0011948525,0.0014117053,-0.0058667976,0.00015378749,-8.491767e-05,0.019153614,0.28730422,-8.772355,0.74413085,47.72629,-0.19890425,-3.3139472,-2.5151439,-0.0700801,0.1725232,-0.0015848726,28.875,30.25,29.375,32.9375,35.4375,36.5
0.00805392,0.41370797,0.9437326,0.5306586,0.02952009,-0.026117664,-0.005153449,-0.3893398,-0.368718,0.05998097,-3.0787165,0.6249111,0.00018073314,0.00027145256,0.000156393,-3.280056e-05,-0.00010889295,-0.00011568294,-2.0908778e-05,0.5050208,-1.381608,1.9042352,-2.0919755,-1.5708417,2.480001,-0.00010403852,-0.00063722936,0.00086902035,-0.00018380575,0.00015273757,-8.3788254e-05,-0.019153614,0.2681506,-8.810662,0.7486078,47.679718,-0.17402759,-3.177767,-2.5288064,-0.11058174,0.17533055,-0.004441576,28.875,30.25,29.375,32.9375,35.4375,36.5
0.010053823,0.2292216,0.8046111,0.23933624,0.03675406,-0.029143116,-0.0031935268,-0.38931432,-0.3686817,0.059970476,-3.078614,0.62491006,0.00014020887,0.0012541412,0.0007426579,-0.0001591885,0.0016046168,-0.0031895277,-7.706024e-05,0.5050208,-1.3816321,1.904271,-2.091902,-1.5709013,2.4800134,-0.00016898704,-0.0009393071,0.00058174564,0.0039247223,0.00014929264,-9.296016e-05,-0.019153614,0.095768064,-9.002198,0.7418897,47.67614,-0.7693112,-2.763918,-2.9075522,-0.15515421,0.1599038,-0.048470616,28.875,30.25,29.375,32.9375,35.4375,36.5
0.012054132,0.021393806,0.036235023,0.063820794,0.005402361,-0.0057099117,-0.007493721,-0.3893356,-0.36869416,0.05997861,-3.0786502,0.6249006,0.00014385597,-0.00073539215,0.002342045,-0.0023641384,0.0032010793,-0.0060801487,-0.004583357,0.50500697,-1.3816066,1.9042224,-2.0919025,-1.5708774,2.479989,-0.004722697,0.004470728,-0.00057701836,0.0029756327,0.00014584782,-0.0001389287,0.05746084,0.05746084,-9.155427,0.69041777,47.719128,-0.6303028,-2.6468158,-3.0401068,-0.16101944,0.16883588,-0.10266726,28.875,30.25,29.375,32.9375,35.4375,36.5
0.014053518,-0.4638502,-0.6427991,-0.015494716,-0.029075122,0.014633175,-0.0029261902,-0.3893096,-0.36868915,0.059944957,-3.0786247,0.6248934,-2.004757e-05,-0.0043112277,0.00395511,-0.004703653,0.0044198316,-0.008304078,-0.0029329895,0.504993,-1.3815674,1.9042448,-2.0918677,-1.5708297,2.4799738,-0.010785611,0.012150571,-0.0039161574,0.0011698632,0.00014254822,-0.007849438,0.038307227,0.13407528,-9.308656,0.8112748,47.7245,-0.46017292,-3.348443,-3.061915,-0.13189912,0.17853126,-0.084205605,28.875,30.25,29.375,32.9375,35.4375,36.5
0.016053896,-1.2167988,-1.11855,0.033017416,-0.04485336,0.032250598,-0.013102647,-0.38931572,-0.3686764,0.059924472,-3.0785584,0.6249745,-5.2190197e-05,-0.00556553,0.0037171557,-0.003077017,0.0026079973,-0.005031978,0.0019143149,0.50498074,-1.3815202,1.9042329,-2.0918558,-1.5708536,2.4800205,-0.01155565,0.010367766,-0.005405209,0.00070041034,0.0001393943,-0.013466408,-0.22984336,0.21068975,-9.442732,0.7732232,47.723602,-0.58108544,-3.1777706,-3.054252,-0.13212654,0.16424471,-0.02539083,28.875,30.25,29.375,32.9375,35.4375,36.5
0.018053832,-1.4352096,-0.87929046,-0.29818717,-0.039672043,0.046999514,-0.027073016,-0.38933313,-0.3686737,0.059925348,-3.078589,0.62495923,-6.081479e-05,-0.005469897,0.0037142546,-0.001936075,0.0016797124,-0.0033438199,0.004653097,0.50494504,-1.3815091,1.9042205,-2.0918677,-1.5708297,2.4799714,-0.011457262,0.0076909224,-0.0048932782,0.0009387627,0.00013637678,-0.016107455,-0.36391866,0.17238252,-9.481039,0.72622824,47.67614,-0.7311044,-2.8062828,-3.2574787,-0.12599309,0.18409203,-0.020564787,28.875,30.25,29.375,32.9375,35.4375,36.5
0.020053402,-1.3949091,-0.02593411,-0.40335542,-0.008938647,0.052678294,-0.04012958,-0.38932148,-0.3686693,0.059910044,-3.0785627,0.6248779,-0.00010871777,-0.005427246,0.0051767677,-0.003042504,0.0039094174,-0.007394356,0.0042698504,0.50495595,-1.3814845,1.9042205,-2.091842,-1.5708417,2.479935,-0.013888453,0.009418161,-0.0051250113,0.0040663937,0.00015005373,-0.018155392,-0.4405331,0.15322891,-9.557653,0.75755644,47.693153,-0.8828365,-2.7455301,-3.3675785,-0.12746187,0.18003038,-0.017683925,28.875,30.25,29.375,32.9375,35.4375,36.5
0.022053758,-1.2009518,0.6826991,-0.45171005,0.011365132,0.05367123,-0.07093144,-0.38934857,-0.3686556,0.05989869,-3.0785663,0.6248604,-0.00010919887,-0.0065614865,0.005595184,-0.0036400775,0.004672362,-0.008969413,0.0026290566,0.5049075,-1.3814474,1.9042081,-2.0918663,-1.5708417,2.479875,-0.015712138,0.012345061,-0.0074928068,0.005254511,0.00024137004,-0.018337129,-0.40222588,0.11492168,-9.634268,0.7150385,47.723602,-0.8573041,-2.8701239,-3.3526616,-0.16668604,0.16491917,-0.039535142,28.875,30.25,29.375,32.9375,35.4375,36.5
0.024053942,-1.3863713,0.44570956,-0.2941455,0.012470665,0.051127993,-0.07701451,-0.38935825,-0.36864626,0.05989914,-3.0785556,0.62491775,-0.000107529224,-0.009213998,0.005396808,-0.002132999,0.0023986928,-0.0049962574,-0.0014048963,0.50488275,-1.3814474,1.9042071,-2.0918667,-1.5708417,2.4798875,-0.017895618,0.012418439,-0.010676764,0.003787929,0.00029933616,-0.016485283,-0.5746084,0.05746084,-9.653421,0.7418897,47.73077,-0.7790153,-2.7750163,-3.4269657,-0.11730012,0.17839697,-0.08147635,28.875,30.25,29.375,32.9375,35.4375,36.5
0.02605399,-1.5347222,-0.24823877,-0.68597335,0.007987358,0.06332662,-0.08757906,-0.38936186,-0.36864784,0.059879664,-3.0785556,0.6248604,-0.00021842764,-0.009812773,0.0044535967,-0.0025143018,0.0005124647,-0.0056354543,-0.0020302483,0.50485873,-1.3813865,1.9041713,-2.091831,-1.5708045,2.4798276,-0.01808906,0.014748944,-0.012328139,0.002749407,0.0022523864,-0.016055647,-0.7278373,0.038307227,-9.653421,0.7486078,47.704796,-0.8471097,-2.805462,-3.3273423,-0.11631223,0.14482036,-0.101270184,28.875,30.25,29.375,32.9375,35.4375,36.5
0.028053652,-2.07584,-0.15384191,-0.81944346,-0.014368559,0.07958697,-0.10338076,-0.389388,-0.36863184,0.059887096,-3.0785308,0.62489337,-0.00019231752,-0.010617017,0.004179202,-0.0023489925,-0.00035084703,-0.0046832375,-0.0029263976,0.50482255,-1.3813742,1.9041346,-2.0918076,-1.5708288,2.4798152,-0.018560562,0.015491874,-0.013365352,0.0017913878,0.002542922,-0.015630862,-0.7852981,0.038307227,-9.844957,0.72622824,47.695843,-0.9175895,-2.7961924,-3.4105291,-0.108098164,0.15461431,-0.102260225,28.875,30.25,29.375,32.9375,35.4375,36.5
0.030054187,-2.3257985,-0.17270389,-0.5686754,-0.027633924,0.092137784,-0.1137944,-0.38941163,-0.3686394,0.059880927,-3.0785327,0.62493306,-0.00023232591,-0.011443725,0.0045502223,-0.0025782273,0.00037281387,-0.005161868,-0.004293729,0.5047983,-1.3813136,1.9040741,-2.0917947,-1.570805,2.4798155,-0.019705975,0.017061813,-0.014856204,0.0024831595,0.002139129,-0.015407481,-0.7852981,-0.038307227,-9.883265,0.7463667,47.650166,-0.95581293,-2.820291,-3.3533883,-0.10063331,0.16462965,-0.099672325,28.875,30.25,29.375,32.9375,35.4375,36.5
0.0320535,-2.4430377,0.15414926,-0.5862256,-0.016543716,0.09030929,-0.13122526,-0.38942188,-0.36862093,0.05985798,-3.078507,0.6249863,-0.00028860365,-0.01139576,0.0051716375,-0.0024833258,0.0015100779,-0.0065314304,-0.0057204417,0.50475013,-1.3812777,1.9040865,-2.0918062,-1.570793,2.4798038,-0.02050087,0.016983008,-0.015551482,0.005007546,0.0018097755,-0.014775147,-0.842759,-0.038307227,-9.902418,0.7642693,47.690468,-0.9366298,-2.754338,-3.4159894,-0.12278832,0.15587264,-0.13692881,28.875,30.25,29.375,32.9375,35.4375,36.5
0.03405355,-1.2768774,0.6138292,-0.6534267,0.0056012855,0.10293472,-0.14903116,-0.3894364,-0.36860475,0.05985245,-3.078485,0.62502104,-0.00034406903,-0.012040218,0.0055033932,-0.0023080579,0.0018054622,-0.0063583422,-0.007152683,0.50470185,-1.3812534,1.9040622,-2.09177,-1.5707811,2.47978,-0.021446908,0.017357804,-0.016528195,0.0056023537,0.0014661097,-0.014287983,-0.63206923,-0.038307227,-9.787497,0.7620334,47.703007,-1.0268531,-2.7917175,-3.4126024,-0.13785478,0.16374308,-0.16047472,28.875,30.25,29.375,32.9375,35.4375,36.5
0.036053743,-1.2436285,0.8466927,-0.6923398,0.019000793,0.07773108,-0.15710682,-0.389504,-0.36858848,0.05986566,-3.0784764,0.62503934,-0.00023668718,-0.014008602,0.0059316447,-0.0019579483,0.0012809072,-0.004568321,-0.008851071,0.5046413,-1.381205,1.9039778,-2.0917828,-1.5708293,2.479732,-0.023748117,0.018478446,-0.018410496,0.0045443354,0.0010533627,-0.0148889385,-0.49799395,0.0,-9.80665,0.75755644,47.72002,-1.00093,-2.730467,-3.4289043,-0.13755551,0.17283568,-0.17124717,28.875,30.25,29.375,32.9375,35.4375,36.5
0.038053896,-1.6672124,-0.15660462,-0.48413423,0.033119086,0.049926095,-0.15229431,-0.3895286,-0.36859632,0.059868608,-3.0784955,0.62508297,-0.00024536977,-0.015766725,0.0064741746,-0.0014408292,0.00036627837,-0.0026799135,-0.010326854,0.50461626,-1.381169,1.9039286,-2.0917833,-1.570805,2.4797318,-0.026229639,0.018663853,-0.01954826,0.003402164,0.00093564094,-0.015893841,-0.4405331,-0.05746084,-9.730036,0.7709874,47.67614,-0.8899045,-2.7116938,-3.421236,-0.10234834,0.1719003,-0.16970694,28.875,30.25,29.375,32.9375,35.4375,36.5
0.040053707,-0.774072,0.2099204,-0.39881006,-0.00078181236,0.05457128,-0.17041987,-0.38952878,-0.3685722,0.059850283,-3.0784698,0.6250961,-0.00031617258,-0.016958771,0.0062864935,-0.001126029,-0.0003771081,-0.0013615722,-0.009869115,0.5045681,-1.3811567,1.903953,-2.091771,-1.570793,2.479695,-0.027032748,0.019615948,-0.02120729,0.0025957515,0.00094222726,-0.017153833,-0.4405331,-0.17238252,-9.749189,0.800085,47.68062,-0.95054567,-2.7009969,-3.3517408,-0.07541713,0.17655477,-0.18497664,28.875,30.25,29.375,32.9375,35.4375,36.5
0.042060096,-1.1250479,0.07838232,-0.5182585,-0.00867263,0.04695872,-0.17675091,-0.38955575,-0.36855856,0.0598404,-3.0784514,0.6251116,-0.0003436991,-0.018013509,0.0063513503,-0.0008125394,-0.0009409847,-0.00069004536,-0.009456772,0.5045199,-1.3811084,1.9039158,-2.091759,-1.570793,2.4796588,-0.028229302,0.020309094,-0.022734853,0.0025690217,0.0011068126,-0.01876232,-0.34476504,-0.019153614,-9.672575,0.800085,47.684196,-0.97943324,-2.7556758,-3.3812256,-0.07444315,0.18730721,-0.19874713,28.875,30.25,29.375,32.9375,35.4375,36.5
0.04405823,-0.6708366,0.3069161,-0.51419085,-0.01437126,0.042926803,-0.19658913,-0.3896192,-0.36856946,0.059863504,-3.0785127,0.62508535,-0.00027221043,-0.01873791,0.006715811,-0.00052824046,-0.0010998364,-0.0008240709,-0.009513094,0.5044715,-1.3810604,1.903809,-2.0917704,-1.5707811,2.4795864,-0.029643225,0.02055859,-0.023892544,0.003517185,0.0013112488,-0.020119794,-0.24899697,0.038307227,-9.691729,0.7911258,47.72629,-0.9238063,-2.657662,-3.3965764,-0.070686385,0.17674662,-0.18933588,28.875,30.25,29.375,32.9375,35.4375,36.5
0.04605496,-0.52501845,0.003590636,-0.5396964,-0.003031799,0.028629124,-0.191797,-0.38966236,-0.36851114,0.05985611,-3.0784202,0.62527806,-0.00025193268,-0.019720197,0.00716334,-0.00019562333,-0.0013515183,-0.0010957938,-0.010696791,0.50436306,-1.3810481,1.9038085,-2.091758,-1.5708293,2.47961,-0.0315307,0.02105778,-0.025521902,0.0047614137,0.0016615255,-0.02082362,-0.095768064,0.095768064,-9.595961,0.7866488,47.709274,-0.92200303,-2.7012448,-3.340271,-0.08296854,0.19734281,-0.22386637,28.875,30.25,29.375,32.9375,35.4375,36.5
0.04805405,-0.013028834,0.23722419,-0.4241429,-0.0013747043,0.01707859,-0.21893515,-0.38971433,-0.36850873,0.059840698,-3.0784345,0.6252617,-0.00026380955,-0.021022134,0.0075970627,-1.5670204e-05,-0.0018155015,-0.00112355,-0.012128511,0.5043023,-1.3809516,1.903735,-2.0917823,-1.5708164,2.4795372,-0.033733785,0.022088617,-0.027268596,0.0052761277,0.0020783148,-0.021594912,-0.019153614,0.076614454,-9.576807,0.8090337,47.684196,-0.7916019,-2.634222,-3.3599858,-0.093828276,0.1811356,-0.22433421,28.875,30.25,29.375,32.9375,35.4375,36.5
0.05005389,-0.35689843,-0.32523355,-0.48256728,0.0015460016,0.0027735895,-0.20969717,-0.38974452,-0.36848974,0.05984829,-3.0784154,0.62527657,-0.00029299533,-0.021958442,0.0076429,5.514755e-05,-0.0022636533,-0.00062457117,-0.011248878,0.5042422,-1.3809272,1.9036754,-2.0917227,-1.5708164,2.4794888,-0.034775227,0.023045158,-0.02846759,0.0048645367,0.0022248386,-0.023515621,-0.019153614,0.17238252,-9.595961,0.80456203,47.691364,-0.8252835,-2.6524887,-3.3376532,-0.10280836,0.17803597,-0.24078257,28.875,30.25,29.375,32.9375,35.4375,36.5
0.052054264,0.040080663,-0.2573049,-0.5047776,-0.021013046,0.008618361,-0.20368323,-0.3898149,-0.3684739,0.059861396,-3.0784178,0.6253735,-0.00022338655,-0.023151305,0.008492566,8.2608014e-05,-0.002594951,-0.00011644358,-0.012075209,0.5041574,-1.3808792,1.9035915,-2.0917346,-1.5708288,2.4794643,-0.037340574,0.023289949,-0.02867465,0.0042213723,0.002268153,-0.02525442,0.019153614,0.15322891,-9.595961,0.7038487,47.67793,-0.8702878,-2.6080956,-3.3649461,-0.074360505,0.19304165,-0.2369051,28.875,30.25,29.375,32.9375,35.4375,36.5
0.054053586,-0.55206263,-0.87130064,-0.4906709,-0.016701035,-0.003634798,-0.1867934,-0.3898534,-0.36844516,0.05986236,-3.0783877,0.62548107,-0.0002380537,-0.024048125,0.008750257,0.0002865463,-0.0030927523,0.000329283,-0.010868445,0.50407314,-1.3808551,1.9035553,-2.0917103,-1.5708288,2.479451,-0.038744163,0.023695162,-0.029591022,0.004100858,0.0024854522,-0.027864737,-0.019153614,0.22984336,-9.481039,0.78217715,47.705692,-0.7527324,-2.5754724,-3.4131866,-0.064897,0.19031456,-0.23735176,28.875,30.25,29.375,32.9375,35.4375,36.5
0.056053896,-0.015822956,-0.9634635,-0.45307532,-0.013761365,0.014360506,-0.18217629,-0.38990605,-0.36843815,0.059871074,-3.078438,0.6254907,-0.00023212377,-0.024824433,0.007812503,0.0010757201,-0.004062477,0.0016292656,-0.008344983,0.5039896,-1.3808186,1.9034952,-2.0917227,-1.5707926,2.479367,-0.038021818,0.024444656,-0.032369383,0.004523326,0.0027023985,-0.029664937,-0.038307227,0.28730422,-9.423578,0.7553206,47.71465,-0.820786,-2.6253495,-3.3177035,-0.064077795,0.18905805,-0.24153388,28.875,30.25,29.375,32.9375,35.4375,36.5
0.05805365,-0.07553215,-0.33508417,-0.2062302,-0.017504707,0.010994362,-0.191418,-0.38996574,-0.36842826,0.05987691,-3.0784533,0.62549406,-0.00020369787,-0.025954846,0.0081069805,0.0012284233,-0.004456572,0.001578883,-0.009485607,0.50391716,-1.3807582,1.9034103,-2.0917222,-1.5707926,2.4792948,-0.039797224,0.025487673,-0.03406594,0.005029487,0.0030701153,-0.030299487,0.019153614,0.24899697,-9.442732,0.7642693,47.67166,-0.8884167,-2.6302612,-3.262371,-0.06645753,0.20284992,-0.23376572,28.875,30.25,29.375,32.9375,35.4375,36.5
0.06005462,-0.43276092,-0.27455187,-0.32521927,-0.008142956,0.0032016672,-0.18470447,-0.39000544,-0.36842328,0.059889063,-3.0784743,0.6255565,-0.00020174359,-0.026696576,0.0086083645,0.0011361612,-0.004827463,0.00052999856,-0.010227079,0.50385654,-1.3807338,1.9033512,-2.0917099,-1.5707682,2.4792705,-0.04184849,0.026315568,-0.03503412,0.0059070233,0.003901859,-0.03161019,-0.038307227,0.2681506,-9.3661175,0.779936,47.651955,-0.80915236,-2.5699143,-3.2625978,-0.06462163,0.18870768,-0.26034302,28.875,30.25,29.375,32.9375,35.4375,36.5
0.0620544,-0.15196194,-0.5401131,-0.3876699,-0.0034735175,0.01135963,-0.18219112,-0.39007023,-0.36837643,0.05988393,-3.0784476,0.6256069,-0.00020419124,-0.027262846,0.008603858,0.0009264328,-0.005830753,-0.00014921692,-0.010213155,0.5037244,-1.3806854,1.903303,-2.0916984,-1.5707797,2.4791732,-0.043114904,0.027353348,-0.035732396,0.005673728,0.005106016,-0.032892168,-0.05746084,0.21068975,-9.423578,0.75084364,47.704796,-0.8297099,-2.5134053,-3.3025782,-0.08537235,0.17953844,-0.26811525,28.875,30.25,29.375,32.9375,35.4375,36.5
0.064054064,-0.31977093,-0.69801503,-0.23571183,-0.008792647,0.015850574,-0.17864838,-0.39012957,-0.36836556,0.05988849,-3.078478,0.6256333,-0.0002263481,-0.027794875,0.008357399,0.0010047994,-0.0069389264,-0.00036521052,-0.010471998,0.5036284,-1.3806251,1.9032186,-2.0916865,-1.5707439,2.4790897,-0.04385984,0.028106898,-0.036794152,0.0056340126,0.006178978,-0.03337947,-0.1340753,0.21068975,-9.404425,0.784413,47.70211,-0.783707,-2.5242686,-3.3337812,-0.056842033,0.15681352,-0.28477687,28.875,30.25,29.375,32.9375,35.4375,36.5
0.06605417,-0.21582922,-0.54453605,-0.1954119,-0.013743296,0.03546865,-0.18621314,-0.3901955,-0.36836466,0.059894007,-3.0784643,0.62564874,-0.00018964031,-0.02878166,0.008640275,0.0012606848,-0.007028427,-0.00038987066,-0.010209433,0.5035799,-1.3805288,1.9030865,-2.0916617,-1.5707673,2.4790528,-0.04530577,0.028929284,-0.03856006,0.006555025,0.00626771,-0.0350873,-0.15322891,0.22984336,-9.346964,0.68818194,47.688675,-0.84018576,-2.5465517,-3.339862,-0.057970215,0.15131477,-0.274135,28.875,30.25,29.375,32.9375,35.4375,36.5
0.068053745,-0.15759856,-0.40568927,-0.09644586,-0.009723015,0.049624972,-0.18438534,-0.3902572,-0.36832014,0.05990017,-3.0784452,0.62574095,-0.0001892171,-0.029748354,0.008799773,0.0015741927,-0.0072319023,0.00015902036,-0.010617963,0.5034477,-1.3805045,1.9030384,-2.0916378,-1.5707678,2.4789805,-0.04641371,0.029552283,-0.04008378,0.006877892,0.0061788103,-0.035785872,-0.24899697,0.22984336,-9.346964,0.77545905,47.668976,-0.81403077,-2.5481668,-3.223258,-0.071230106,0.1448059,-0.29933542,28.875,30.25,29.375,32.9375,35.4375,36.5
0.070054,-1.0061922,-0.67033553,-0.104640596,0.0013346069,0.03874175,-0.17910975,-0.39028677,-0.36835617,0.05990717,-3.0785413,0.62566465,-0.00021972206,-0.03058358,0.008751105,0.0016918737,-0.0077206744,0.00064898405,-0.011104686,0.50343555,-1.3804442,1.902954,-2.0916502,-1.5706953,2.4789085,-0.047225,0.030416314,-0.04130506,0.0065721436,0.006368471,-0.036109865,-0.21068975,0.17238252,-9.270349,0.7665104,47.71017,-0.8487897,-2.53117,-3.2646995,-0.06700155,0.14922161,-0.3226943,28.875,30.25,29.375,32.9375,35.4375,36.5
0.07205343,-0.79454607,0.11013088,0.011263356,-0.0020682577,0.04515932,-0.18401168,-0.39037737,-0.36831152,0.05991043,-3.078508,0.62577194,-0.00018187576,-0.031849716,0.009476855,0.001725892,-0.007421108,0.0012472349,-0.010194306,0.50329113,-1.3803718,1.9028581,-2.0916378,-1.5707196,2.4788353,-0.04927174,0.03120659,-0.04227375,0.006372992,0.005815442,-0.039065473,-0.36391866,0.095768064,-9.289502,0.80679786,47.719128,-0.85017717,-2.5136423,-3.2355664,-0.0618048,0.14505729,-0.3248825,28.875,30.25,29.375,32.9375,35.4375,36.5
0.07405406,-1.1517723,0.18880594,-0.14482811,0.011372964,0.04926658,-0.17500721,-0.390413,-0.36829683,0.05989021,-3.078502,0.62573344,-0.00026504925,-0.03316833,0.010488139,0.0016359343,-0.006963538,0.0012573584,-0.011632852,0.5032183,-1.3802875,1.902799,-2.091614,-1.5706958,2.4787393,-0.051942647,0.0321081,-0.043189682,0.006602075,0.005406396,-0.040296942,-0.40222588,0.076614454,-9.251195,0.8179876,47.690468,-0.776775,-2.515151,-3.312366,-0.056999654,0.12857625,-0.325259,28.875,30.25,29.375,32.9375,35.4375,36.5
0.07605405,-1.3138238,0.09238695,0.085878916,0.018085945,0.04993256,-0.17116015,-0.39049703,-0.36827528,0.05990949,-3.078498,0.62582743,-0.00020945919,-0.03311382,0.009520457,0.0018332638,-0.007209692,0.001624373,-0.010227547,0.5031111,-1.3802271,1.9026784,-2.0915902,-1.5707077,2.4786913,-0.05027822,0.033001482,-0.044747494,0.006826259,0.0054442137,-0.04003694,-0.30645782,0.05746084,-9.232041,0.70608455,47.65643,-0.91423047,-2.4686747,-3.2425735,-0.066695765,0.14552999,-0.34374785,28.875,30.25,29.375,32.9375,35.4375,36.5
0.078053325,-0.7401342,0.3570017,0.09968741,0.014867621,0.071299575,-0.18161786,-0.39057922,-0.36826685,0.059931315,-3.0785725,0.62591815,-0.00015836989,-0.03471349,0.0102872085,0.0022465996,-0.007620122,0.002175468,-0.010684206,0.50299037,-1.3801908,1.902594,-2.091626,-1.5706595,2.4786177,-0.05310673,0.033508845,-0.046392437,0.0072854995,0.00553935,-0.04240778,-0.40222588,0.11492168,-9.270349,0.7463667,47.677036,-0.8504468,-2.4782438,-3.2432191,-0.06755902,0.13841277,-0.34391183,28.875,30.25,29.375,32.9375,35.4375,36.5
0.08005337,-1.5566558,0.5015218,0.010458138,0.014857598,0.05133578,-0.17822468,-0.39060605,-0.36825642,0.05991273,-3.0785804,0.6258233,-0.00029490615,-0.035564195,0.011220925,0.0018410124,-0.006635744,0.0015420283,-0.0099203,0.502918,-1.3801066,1.9025229,-2.0915658,-1.5706118,2.478485,-0.055116445,0.034662016,-0.0469315,0.00770558,0.0049787713,-0.045180537,-0.49799395,0.019153614,-9.3661175,0.7866488,47.71823,-0.860591,-2.4462433,-3.2313964,-0.05270174,0.1480893,-0.33025113,28.875,30.25,29.375,32.9375,35.4375,36.5
0.082053676,-0.7671461,0.59681475,-0.18224184,0.0065229884,0.06818061,-0.17843509,-0.39071444,-0.36823562,0.059935007,-3.0786111,0.62584794,-0.0001716616,-0.03647353,0.01220551,0.0010321247,-0.0055736504,0.0003486757,-0.008540278,0.50279725,-1.3800336,1.9023913,-2.0915897,-1.5706362,2.478376,-0.05738738,0.036607772,-0.04741662,0.007803451,0.004626289,-0.048830044,-0.45968673,0.0,-9.442732,0.75755644,47.716442,-0.70958495,-2.4359002,-3.2401133,-0.07668138,0.12913023,-0.32779163,28.875,30.25,29.375,32.9375,35.4375,36.5
0.08405407,-1.1528951,0.42178038,-0.15867291,0.0024049333,0.05581737,-0.17475049,-0.39079115,-0.36821023,0.059936944,-3.0786004,0.6258611,-0.0001580094,-0.03635482,0.010966821,0.0012776246,-0.0056860223,0.00084355235,-0.0033814337,0.50269055,-1.3799492,1.9022816,-2.0915658,-1.5706481,2.4782789,-0.05509477,0.03775533,-0.049418632,0.008170707,0.0044829594,-0.051695097,-0.4405331,-0.11492168,-9.423578,0.75084364,47.711964,-0.9360324,-2.5197225,-3.2699885,-0.07591375,0.13803269,-0.30579448,28.875,30.25,29.375,32.9375,35.4375,36.5
0.086054005,-1.4789296,-0.01687279,-0.031205643,0.013763697,0.051735457,-0.16887295,-0.39086553,-0.3681884,0.059948634,3.0785866,-0.6259178,0.00014011345,-0.037903357,0.011736718,0.0015970005,-0.0057507125,0.0016851368,-0.006162181,0.50256974,-1.3799012,1.9021982,-2.0915658,-1.5706242,2.4781952,-0.057602707,0.038323164,-0.050837602,0.008256216,0.0041336394,-0.051420942,-0.51714754,-0.05746084,-9.404425,0.7530795,47.687782,-0.9367048,-2.5071316,-3.1278152,-0.07418277,0.13213848,-0.28511763,28.875,30.25,29.375,32.9375,35.4375,36.5
0.08805337,-0.8603944,0.3588635,-0.18261665,0.0108700115,0.06453786,-0.18150584,-0.390938,-0.3681587,0.05994684,3.0785816,-0.625934,0.00019545975,-0.03760131,0.012841299,-0.00020415487,-0.0042829453,-0.001617941,-0.00427396,0.5024374,-1.3798162,1.9020909,-2.0915177,-1.5706004,2.4780736,-0.05936194,0.04041248,-0.049182426,0.008114431,0.004440129,-0.05506931,-0.36391866,-0.076614454,-9.3661175,0.78888994,47.689575,-0.92240274,-2.5059083,-3.3046722,-0.080479026,0.13308461,-0.29847205,28.875,30.25,29.375,32.9375,35.4375,36.5
0.09005355,-0.87554544,0.28394628,-0.13665129,0.011720732,0.054292638,-0.17537874,-0.39099777,-0.36813477,0.05992049,-3.0786054,0.6258976,-0.00025215623,-0.03893015,0.012093492,0.00097125233,-0.005957134,0.00069536595,-0.00047001409,0.5023415,-1.379696,1.902006,-2.0915058,-1.5706004,2.477952,-0.05954568,0.040561214,-0.051999923,0.007949155,0.004784105,-0.059056584,-0.1340753,-0.095768064,-9.3661175,0.78217715,47.66808,-1.0018005,-2.541186,-3.2834067,-0.07718801,0.13611585,-0.2556736,28.875,30.25,29.375,32.9375,35.4375,36.5
0.092053875,-0.6803692,0.17441782,0.046082564,0.006931664,0.046336304,-0.17996371,-0.39109486,-0.36810562,0.0599288,3.0785875,-0.62598836,0.00019947784,-0.040383045,0.01216342,0.0008846881,-0.006159253,0.0005869814,0.0012780067,0.5022093,-1.3796113,1.9018868,-2.0915058,-1.5706118,2.4778788,-0.061142996,0.042886242,-0.05462413,0.008245481,0.0050105955,-0.062400714,-0.4213795,-0.076614454,-9.346964,0.7553206,47.72002,-0.9799675,-2.5678134,-3.2752724,-0.07146479,0.12818807,-0.19904244,28.875,30.25,29.375,32.9375,35.4375,36.5
0.09405406,-0.9788803,-0.09291729,-0.19120893,0.0132173775,0.033226553,-0.16537546,-0.39116195,-0.36807308,0.059915863,3.078596,-0.6259303,0.0002517458,-0.041566905,0.012053013,0.0016720276,-0.006709632,0.0027458153,0.0038391284,0.50207734,-1.3795271,1.9018139,-2.0914938,-1.570588,2.4777095,-0.06169607,0.04286628,-0.056289136,0.0077777593,0.004448032,-0.065513425,-0.34476504,0.05746084,-9.423578,0.7642693,47.679718,-0.9767395,-2.5108438,-3.121731,-0.073764026,0.14186126,-0.17497203,28.875,30.25,29.375,32.9375,35.4375,36.5
0.09605403,-0.4540097,-0.07872621,-0.14665726,0.0018032453,0.042839162,-0.17405576,-0.3912597,-0.36802354,0.059918337,-3.078556,0.6259979,-0.00021954458,-0.041050553,0.013399488,1.6267766e-05,-0.004498994,-0.00026024022,0.0045760656,0.50193316,-1.3794307,1.9016832,-2.0914457,-1.5706362,2.4776127,-0.06316556,0.044261012,-0.054232467,0.008024658,0.0039610215,-0.06771978,-0.2873042,0.038307227,-9.519346,0.79560274,47.711063,-1.0370221,-2.534143,-3.368657,-0.06398115,0.1486153,-0.12924457,28.875,30.25,29.375,32.9375,35.4375,36.5
0.09805442,-0.38302934,-0.2351574,-0.23110025,-0.022529887,0.038783915,-0.17985094,-0.39135596,-0.3680098,0.059929583,3.0785902,-0.6259464,0.00016020601,-0.042348802,0.013197443,0.000595245,-0.0049263174,0.00090918655,0.00587685,0.5018132,-1.379346,1.901563,-2.09147,-1.5706242,2.4774563,-0.06389997,0.045292366,-0.05685572,0.008387914,0.0037724173,-0.06975327,-0.15322891,0.15322891,-9.461885,0.74413085,47.647476,-1.0203426,-2.568139,-3.2971263,-0.07906067,0.14443249,-0.11961174,28.875,30.25,29.375,32.9375,35.4375,36.5
0.10005375,-0.82751733,-0.81252015,-0.24392001,-0.020468878,0.021736959,-0.17449374,-0.39142033,-0.3679713,0.059923727,-3.078611,0.62589276,-0.00021755642,-0.042763636,0.013552298,0.00039635226,-0.0042862664,-0.00029005887,0.0056136046,0.50168115,-1.3792735,1.9014796,-2.0914214,-1.5706123,2.4772882,-0.06488125,0.046462055,-0.058120716,0.009843852,0.003786306,-0.07047092,-0.17238252,0.19153613,-9.385271,0.7709874,47.70211,-1.1286819,-2.4588008,-3.311935,-0.10053876,0.15239272,-0.06398995,28.875,30.25,29.375,32.9375,35.4375,36.5
0.102053925,-0.34859908,-0.48858687,-0.45137614,-0.028181093,0.02141526,-0.17148432,-0.39153093,-0.3679556,0.059944406,3.0785484,-0.6258995,0.00015629278,-0.044008754,0.013562933,0.0011577024,-0.0058216667,0.0013421167,0.0030851455,0.5015369,-1.3791897,1.9013361,-2.0914338,-1.570588,2.4771562,-0.066387415,0.046184942,-0.05938576,0.009216781,0.004349053,-0.06944868,-0.1340753,0.24899697,-9.442732,0.8112748,47.711964,-1.113518,-2.535798,-3.2869935,-0.1106429,0.15770951,-0.06433521,28.875,30.25,29.375,32.9375,35.4375,36.5
0.10405409,-0.79464835,-0.21106167,-0.42030886,-0.031781606,0.0023527518,-0.17053497,-0.39161602,-0.36791706,0.0599333,3.078568,-0.62596166,0.00021619997,-0.04451491,0.013965038,-0.00014240947,-0.004864714,-0.0011090974,0.0011284822,0.5013928,-1.3790683,1.901204,-2.0913737,-1.5705875,2.4770484,-0.06773046,0.049459986,-0.060385883,0.009550705,0.004683848,-0.068834916,-0.019153614,0.22984336,-9.500193,0.80679786,47.687782,-1.1271935,-2.5576031,-3.2951622,-0.103996895,0.15126121,-0.056023546,28.875,30.25,29.375,32.9375,35.4375,36.5
0.10605389,-0.4497457,-0.35600457,-0.44602606,-0.03169034,0.0047481493,-0.17066029,-0.39169046,-0.36789092,0.059934083,3.078577,-0.6259062,0.00024055409,-0.045809668,0.014112078,0.0005903795,-0.005682609,0.0010506355,-0.0010472046,0.50127256,-1.3789843,1.9010948,-2.091338,-1.5705761,2.4768925,-0.06896312,0.049180336,-0.061530586,0.0086904485,0.0043582986,-0.067890935,0.0,0.2681506,-9.519346,0.82022345,47.67614,-1.1205146,-2.6105638,-3.3272972,-0.10189071,0.1714479,-0.061193738,28.875,30.25,29.375,32.9375,35.4375,36.5
0.108054206,-0.43869203,-0.3139921,-0.3803295,-0.034681343,0.008308364,-0.17089573,-0.39179444,-0.36785096,0.059921063,3.078571,-0.62594515,0.00021570358,-0.04703929,0.014462313,0.0012952853,-0.0065490995,0.0025298118,-0.00410232,0.5011163,-1.3788645,1.900988,-2.0913618,-1.570588,2.4767613,-0.07070475,0.048786882,-0.062622115,0.008461441,0.0044061504,-0.06657709,-0.05746084,0.24899697,-9.442732,0.7486078,47.65643,-1.0397012,-2.4354665,-3.2461166,-0.10697064,0.15419728,-0.084286764,28.875,30.25,29.375,32.9375,35.4375,36.5
0.11005339,-0.25036567,-0.42534325,-0.4072262,-0.029072106,0.01547198,-0.17748998,-0.39189416,-0.36784792,0.059950642,3.0785058,-0.6258943,0.00016675425,-0.04784567,0.014577531,0.0011957102,-0.0069210795,0.0018803879,-0.006946402,0.5009962,-1.3787918,1.900832,-2.0913503,-1.5705518,2.4766178,-0.072028786,0.05016663,-0.06415508,0.009006002,0.0050477013,-0.065056905,-0.076614454,0.19153613,-9.461885,0.7732232,47.67345,-1.1392369,-2.4564638,-3.3378143,-0.109470636,0.16308245,-0.0785528,28.875,30.25,29.375,32.9375,35.4375,36.5
0.11205382,0.30677506,-0.1939603,-0.41171554,-0.027984552,0.026876638,-0.17634322,-0.3920039,-0.36781836,0.059975162,3.0784814,-0.6259478,0.000113854454,-0.048257954,0.014665495,0.00013777161,-0.0064800754,-4.1500538e-05,-0.009678451,0.5008521,-1.3787068,1.9006647,-2.0913022,-1.5705637,2.4765103,-0.07287639,0.053025197,-0.0651422,0.009029895,0.00558451,-0.06317222,-0.019153614,0.21068975,-9.404425,0.7709874,47.689575,-1.1198666,-2.608164,-3.2944221,-0.10615017,0.1372539,-0.120621696,28.875,30.25,29.375,32.9375,35.4375,36.5
0.11405369,-0.414776,-0.4650403,-0.3022791,-0.02149303,0.018351603,-0.170482,-0.39209548,-0.3677734,0.05994004,3.0785105,-0.62595445,0.0001989681,-0.048731122,0.014711968,5.2516047e-05,-0.0067962627,-0.00062291045,-0.011802608,0.5006842,-1.3785503,1.9005564,-2.0912898,-1.5705518,2.476343,-0.07372057,0.053949285,-0.066151135,0.009472513,0.0061365436,-0.061892927,-0.1340753,0.24899697,-9.3661175,0.77545905,47.70211,-1.1834681,-2.5994983,-3.3385968,-0.117791556,0.15238464,-0.12982076,28.875,30.25,29.375,32.9375,35.4375,36.5
0.11605337,-0.2457459,-0.21164103,-0.40388528,-0.017085075,0.030833418,-0.17375164,-0.39219612,-0.36774963,0.05993555,3.0784605,-0.62602097,0.00022247413,-0.049890265,0.014604988,0.0016049715,-0.008839005,0.0021231845,-0.013507686,0.5005281,-1.378431,1.9004253,-2.0912898,-1.570515,2.4762347,-0.07488754,0.052048333,-0.06737807,0.009212308,0.0066087563,-0.06135525,-0.1340753,0.21068975,-9.346964,0.70608455,47.723602,-1.1854708,-2.484293,-3.3027787,-0.11428909,0.14983842,-0.19175413,28.875,30.25,29.375,32.9375,35.4375,36.5
0.11805347,-0.5722023,-0.2613166,-0.53394896,0.0010303624,0.03462,-0.16073863,-0.3922966,-0.36771008,0.059934497,3.0784748,-0.6260447,0.00019883394,-0.05118633,0.015065252,0.0011121691,-0.00907203,0.0011790433,-0.01612313,0.5003837,-1.378322,1.9002932,-2.091266,-1.5705394,2.4761033,-0.077252515,0.054372728,-0.06902324,0.00924672,0.0072635184,-0.061104756,-0.15322891,0.17238252,-9.404425,0.7866488,47.690468,-1.2364833,-2.3946495,-3.3996446,-0.112606406,0.14253071,-0.19862637,28.875,30.25,29.375,32.9375,35.4375,36.5
0.1200537,0.037168868,-0.20458765,-0.33332843,2.0535776e-05,0.054108635,-0.1666932,-0.39237684,-0.36770797,0.059942156,3.0784497,-0.6259808,0.00024734312,-0.051630612,0.014756656,0.0010432518,-0.009279706,0.0010422438,-0.016579162,0.50027585,-1.3782134,1.9001364,-2.0912182,-1.5704912,2.4759588,-0.07728231,0.055627793,-0.070388265,0.009379861,0.0075093117,-0.06067816,-0.15322891,0.15322891,-9.385271,0.8224646,47.719128,-1.1851805,-2.5507135,-3.299183,-0.13027394,0.123355895,-0.2317537,28.875,30.25,29.375,32.9375,35.4375,36.5
0.12205406,0.2641254,0.03696283,-0.28562045,0.001668728,0.06179701,-0.16283475,-0.3924786,-0.3676588,0.05994255,3.078387,-0.6261206,0.00024454485,-0.05208407,0.0149758,0.0007419799,-0.0091443295,0.00069424376,-0.015059766,0.50008386,-1.378141,1.9000524,-2.0912297,-1.5704669,2.475862,-0.07808132,0.056629285,-0.07085666,0.009220381,0.007558396,-0.06299611,-0.28730422,0.095768064,-9.289502,0.7620334,47.688675,-1.336143,-2.4388623,-3.347363,-0.13349475,0.116920695,-0.22618152,28.9375,30.25,29.375,32.9375,35.4375,36.5
0.12405339,-1.0766035,0.29748437,-0.29781464,0.0029577357,0.034485612,-0.16503967,-0.39259487,-0.36761934,0.05993366,3.078366,-0.62621546,0.00027130137,-0.05567175,0.015543679,0.0021951487,-0.011311289,0.0032097397,-0.020934993,0.49990252,-1.3779966,1.899896,-2.0912058,-1.570455,2.4757426,-0.08275763,0.057817183,-0.07566046,0.009589233,0.00824496,-0.061796244,-0.22984336,0.038307227,-9.32781,0.7351769,47.70211,-1.2278607,-2.5119746,-3.1426706,-0.14448643,0.111518465,-0.2621585,28.9375,30.25,29.375,32.9375,35.4375,36.5
0.12605399,-1.0976592,-0.16523497,-0.53209984,0.018815218,0.04278316,-0.15593289,-0.39270297,-0.36761117,0.059948098,3.078357,-0.6261534,0.00020443318,-0.05382665,0.015162743,0.00071998464,-0.009379233,0.0005514725,-0.018834997,0.49979594,-1.3778759,1.8997177,-2.0911944,-1.5704664,2.4755986,-0.08013531,0.059192635,-0.07398947,0.009803444,0.007831058,-0.061273433,-0.28730422,0.019153614,-9.404425,0.81351066,47.72002,-1.3095295,-2.4890847,-3.2988987,-0.12486033,0.10408324,-0.3250283,28.9375,30.25,29.375,32.9375,35.4375,36.5
0.12805325,-0.47907543,0.39033392,-0.36175343,0.0034682897,0.07268516,-0.17074418,-0.39281154,-0.3675595,0.059929814,3.0783103,-0.6263169,0.0002956607,-0.05571805,0.015929624,0.0008435152,-0.009325282,0.0011692097,-0.019159503,0.4995793,-1.3777432,1.8995966,-2.09117,-1.5704192,2.4754899,-0.08293243,0.0607338,-0.07612257,0.009885589,0.0074821557,-0.06374474,-0.4213795,0.038307227,-9.404425,0.7911258,47.668976,-1.2807287,-2.5857759,-3.3460083,-0.12633929,0.10836209,-0.33853614,28.9375,30.25,29.375,32.9375,35.4375,36.5
0.13005425,-1.2200292,0.12542872,-0.41770175,0.004383819,0.067499176,-0.16213946,-0.39293376,-0.367524,0.059932683,3.0782862,-0.6263501,0.0002934821,-0.058053352,0.015746444,0.0028145667,-0.011274191,0.0044615115,-0.021171633,0.49939927,-1.3776114,1.8994282,-2.0911458,-1.5704073,2.4753337,-0.084834866,0.060161136,-0.080099,0.01061278,0.007611147,-0.06363373,-0.5554548,-0.019153614,-9.423578,0.80679786,47.661808,-1.3252784,-2.4542513,-3.063899,-0.13140953,0.11924513,-0.34767193,28.9375,30.25,29.375,32.9375,35.4375,36.5
0.13205333,-1.1142429,0.37301943,-0.547212,-0.005362,0.0773483,-0.16695897,-0.3930292,-0.36751673,0.05993189,3.0782855,-0.6263131,0.00030963885,-0.057272635,0.016646009,0.0016536467,-0.01002524,0.0017428289,-0.023424955,0.49929112,-1.377467,1.8992509,-2.09111,-1.5703949,2.4752026,-0.08573954,0.060657274,-0.07818489,0.0111877825,0.00782272,-0.06228618,-0.7661445,0.076614454,-9.461885,0.78217715,47.686886,-1.3598784,-2.345958,-3.2778032,-0.1434829,0.09995683,-0.42073283,28.9375,30.25,29.375,32.9375,35.4375,36.5
0.1340535,-0.93600166,0.21390304,-0.40967292,-0.014805568,0.09515004,-0.17398652,-0.39314035,-0.36746892,0.05993567,3.078237,-0.62641805,0.00034772875,-0.059427302,0.017978534,0.00039990502,-0.008645415,-0.00025365117,-0.02490264,0.49908593,-1.3773693,1.8991183,-2.0910738,-1.5703591,2.475069,-0.08978482,0.065147154,-0.08077879,0.011710879,0.007563536,-0.06485172,-0.68953013,0.038307227,-9.576807,0.8605109,47.704796,-1.1930816,-2.5769362,-3.282035,-0.1709396,0.10014725,-0.44375205,28.9375,30.25,29.375,32.9375,35.4375,36.5
0.13605349,-0.9034376,0.22141276,-0.26750293,-0.024543954,0.10400487,-0.17821589,-0.39326912,-0.36741284,0.05992476,3.0782483,-0.6264941,0.0003100391,-0.059715264,0.016837057,0.0023896592,-0.010575205,0.00308276,-0.020075686,0.49889505,-1.3772262,1.8989733,-2.0910733,-1.5703949,2.4749243,-0.088162564,0.06267413,-0.08244701,0.011998869,0.0076596625,-0.06805632,-0.5554548,0.019153614,-9.557653,0.7620334,47.687782,-1.3645064,-2.472398,-3.24516,-0.18361284,0.100733005,-0.45170444,28.9375,30.25,29.375,32.9375,35.4375,36.5
0.13805367,-1.5915368,-0.04150907,-0.27396524,-0.016402693,0.090527885,-0.16835113,-0.39339757,-0.3673859,0.059953593,3.0781634,-0.6265733,0.00030274922,-0.06173161,0.019032558,0.0017187285,-0.010139834,0.0022113782,-0.02301968,0.49870133,-1.3771297,1.8987826,-2.091026,-1.5703467,2.4747908,-0.093707874,0.06402975,-0.08244729,0.011622609,0.007698021,-0.0706571,-0.7278373,0.0,-9.500193,0.7978386,47.70211,-1.3398173,-2.4275758,-3.182124,-0.19605303,0.087515,-0.45051694,28.9375,30.25,29.375,32.9375,35.4375,36.5
0.14005394,-1.1356328,0.25525594,-0.36740732,-0.01169781,0.098985024,-0.17730825,-0.39349705,-0.3673674,0.059922505,3.0781262,-0.62660015,0.0004207893,-0.062302362,0.018769199,0.0016458567,-0.010541663,0.0021482946,-0.01627646,0.49853373,-1.376949,1.8986391,-2.091026,-1.5702747,2.4746447,-0.09400229,0.06532044,-0.083809994,0.01156596,0.00807657,-0.07769485,-0.5554548,0.0,-9.634268,0.8179876,47.64837,-1.273803,-2.4601176,-3.2244349,-0.18847466,0.09102745,-0.43337926,28.9375,30.25,29.375,32.9375,35.4375,36.5
0.14205375,-1.2564015,0.12618256,-0.34627825,-0.0016960787,0.081485696,-0.16744055,-0.3936556,-0.36732453,0.05995638,3.0781298,-0.62658,0.00027432558,-0.063926294,0.019959264,0.0017168436,-0.010345295,0.0026204258,-0.015895026,0.49835294,-1.3768286,1.8984112,-2.0909898,-1.5703348,2.474451,-0.09722121,0.06598299,-0.084754795,0.011526991,0.0076833703,-0.08129361,-0.5746084,0.095768064,-9.557653,0.83589023,47.67614,-1.2144338,-2.4006922,-3.265103,-0.19592237,0.08148871,-0.3822149,28.9375,30.25,29.375,32.9375,35.4375,36.5
0.1440541,-1.0869801,0.6124686,-0.2807908,-0.004737917,0.081818685,-0.16605045,-0.3937881,-0.3672843,0.059959847,3.078082,-0.62664574,0.00027037266,-0.06522087,0.021070147,0.0015190976,-0.00987821,0.0027900683,-0.013045131,0.49814847,-1.3766962,1.8982438,-2.0909784,-1.570311,2.4742937,-0.09994535,0.06680814,-0.08523076,0.011259513,0.007194313,-0.086866476,-0.6703765,0.019153614,-9.5385,0.79560274,47.705692,-1.0321,-2.3368208,-3.27918,-0.20246664,0.07587154,-0.35920423,28.9375,30.25,29.375,32.9375,35.4375,36.5
0.14605415,-0.7407636,0.5129157,-0.32597053,0.0064838734,0.081161566,-0.17270435,-0.3939131,-0.36724707,0.059970967,3.0780385,-0.62665135,0.00025171213,-0.067756064,0.021258766,0.0029273995,-0.01141254,0.0058334162,-0.007780197,0.49795604,-1.3765881,1.8980874,-2.090966,-1.5702871,2.4741104,-0.10249675,0.0669915,-0.088610604,0.011056561,0.0070864633,-0.09468103,-0.47884035,-0.019153614,-9.653421,0.83365434,47.67345,-1.023205,-2.415741,-3.1717353,-0.20156702,0.09720985,-0.27180156,28.9375,30.25,29.375,32.9375,35.4375,36.5
0.1480542,-1.176542,0.13747413,-0.42461017,0.015148851,0.06333616,-0.163898,-0.3940416,-0.36717707,0.059934545,3.0780902,-0.6266808,0.00032993415,-0.06831386,0.02265467,0.0016154163,-0.010886639,0.0033336955,-0.008945362,0.4977272,-1.3763952,1.8979334,-2.0909302,-1.5702986,2.4738934,-0.105778985,0.0687142,-0.087624066,0.010793619,0.007814852,-0.096799776,-0.38307226,-0.038307227,-9.557653,0.7597976,47.67614,-0.90405875,-2.348629,-3.2693508,-0.221454,0.07410373,-0.23475805,28.9375,30.25,29.375,32.9375,35.4375,36.5
0.15005337,-0.56027997,0.95366627,-0.27617493,-0.005313815,0.073233575,-0.18313567,-0.39420173,-0.36712068,0.059958987,3.0779986,-0.62675613,0.00027755124,-0.0710539,0.022323135,0.0034377694,-0.012322058,0.006882719,-0.006848122,0.49746326,-1.376299,1.8977636,-2.0909302,-1.5702633,2.4736881,-0.10742968,0.06935102,-0.09266672,0.011404405,0.007382899,-0.100544535,-0.40222588,-0.076614454,-9.461885,0.7777002,47.71286,-0.8591923,-2.3888693,-3.1838803,-0.22729196,0.0678449,-0.21046597,28.9375,30.25,29.375,32.9375,35.4375,36.5
0.15205379,-0.86180866,0.39285406,-0.32783824,0.009593609,0.06702677,-0.16677037,-0.39434758,-0.36709332,0.059971027,3.0779996,-0.62667936,0.00025150605,-0.07105424,0.023397885,0.0025902386,-0.011063208,0.005720244,-0.006485929,0.49728322,-1.3761306,1.8975257,-2.0908825,-1.5702633,2.4734602,-0.10886228,0.06983348,-0.09126351,0.011145129,0.0068381494,-0.10233894,-0.45968673,-0.11492168,-9.385271,0.80456203,47.734352,-0.85628486,-2.3202152,-3.303162,-0.21575144,0.090356894,-0.13794008,28.9375,30.25,29.375,32.9375,35.4375,36.5
0.15405373,-0.65529066,0.35542932,-0.203061,0.011699787,0.0783573,-0.16962053,-0.39448693,-0.36704296,0.059962407,3.077962,-0.6267674,0.00027641546,-0.07240988,0.023360595,0.0027165194,-0.011941074,0.006093575,-0.008075981,0.4970551,-1.375974,1.8973569,-2.0908706,-1.5702385,2.4732919,-0.11037491,0.07143855,-0.09342159,0.01095334,0.007428972,-0.102261186,-0.53630114,-0.076614454,-9.423578,0.7866488,47.70838,-0.8522579,-2.3184083,-3.2176666,-0.21132442,0.07942026,-0.14769715,28.9375,30.25,29.375,32.9375,35.4375,36.5
0.15605332,-0.5906054,1.1107398,-0.30658507,-0.0011047845,0.081491426,-0.17973274,-0.39462578,-0.3669842,0.05996128,3.0779674,-0.62680787,0.00021370464,-0.0724435,0.023450373,0.0027580885,-0.01202218,0.0053522075,-0.011297892,0.49685135,-1.3758419,1.8972024,-2.0908701,-1.5702747,2.4731128,-0.11078923,0.0716138,-0.093951,0.011915646,0.00785871,-0.09945386,-0.51714754,0.0,-9.404425,0.83813137,47.681515,-0.87733245,-2.3240862,-3.1909142,-0.22533931,0.06893724,-0.13990559,28.9375,30.25,29.375,32.9375,35.4375,36.5
0.15805341,-1.0489975,0.41419673,-0.33147645,0.008775975,0.06388698,-0.17077866,-0.39477018,-0.3669553,0.05996776,3.0779252,-0.62676233,0.00020880614,-0.072958,0.023382474,0.0020042523,-0.011564838,0.0047211545,-0.015613655,0.49664786,-1.3756849,1.8969988,-2.0908582,-1.5702385,2.4728863,-0.111047246,0.07398069,-0.09491337,0.0112875905,0.0077584083,-0.095394924,-0.28730422,-0.05746084,-9.461885,0.83589023,47.699425,-0.9347667,-2.3170948,-3.3200784,-0.22608846,0.07696324,-0.17584395,28.9375,30.25,29.375,32.9375,35.4375,36.5
0.16005357,-0.43131,-0.028440362,-0.31166148,0.0065100836,0.06714587,-0.15993778,-0.39492053,-0.36689618,0.059969578,3.0778775,-0.6269467,0.00024798664,-0.07377544,0.023497606,0.0024321273,-0.011608052,0.0060040434,-0.020231785,0.49639606,-1.3755286,1.8967956,-2.0907986,-1.5702151,2.4727557,-0.111592,0.074089095,-0.095984146,0.01110568,0.007183008,-0.09132049,-0.34476504,0.0,-9.385271,0.800085,47.690468,-0.97084534,-2.3424902,-3.330513,-0.24767041,0.07521045,-0.24763067,28.9375,30.25,29.375,32.9375,35.4375,36.5
0.16205393,-0.24502704,-0.5389895,-0.4036118,0.00062289735,0.051585224,-0.15985003,-0.39507812,-0.3668317,0.05997429,3.0778282,-0.62707347,0.00020539403,-0.07546398,0.024958778,0.0017682329,-0.011033855,0.0052343486,-0.026000248,0.49614322,-1.3753959,1.8966273,-2.0907986,-1.5702151,2.4725883,-0.1154698,0.076061636,-0.09677225,0.010872926,0.0070476956,-0.08942878,-0.22984336,0.15322891,-9.3661175,0.84708,47.72002,-0.94592214,-2.290256,-3.3235254,-0.25369143,0.09255112,-0.27591595,28.9375,30.25,29.375,32.9375,35.4375,36.5
0.16405413,0.42775613,0.072930716,-0.30302414,-0.019801648,0.049525395,-0.16795284,-0.3952553,-0.3667926,0.059997026,3.077754,-0.62715083,0.00018649758,-0.07507992,0.023257677,0.0018188051,-0.011489019,0.0057449983,-0.022339746,0.49589303,-1.3752272,1.8963646,-2.0907505,-1.5701793,2.472396,-0.11230971,0.07757686,-0.09862296,0.010547414,0.007206959,-0.08992809,-0.17238252,0.15322891,-9.251195,0.7709874,47.690468,-1.136147,-2.363698,-3.2359395,-0.25657865,0.099650115,-0.32112533,28.9375,30.25,29.375,32.9375,35.4375,36.5
0.1660535,0.0433015,-0.19964674,-0.21242547,-0.017105365,0.030733285,-0.166369,-0.3954047,-0.36673546,0.059999462,3.0777562,-0.62715304,0.00013390402,-0.07756412,0.025723461,0.0019270196,-0.0111483745,0.0056023872,-0.027412115,0.49567506,-1.3750827,1.8961848,-2.090739,-1.5702032,2.4721792,-0.11854652,0.07800696,-0.09957332,0.011356059,0.0069797505,-0.09109176,-0.05746084,0.095768064,-9.289502,0.7777002,47.6636,-0.8606569,-2.3542051,-3.2505069,-0.25833684,0.09937236,-0.31418246,28.9375,30.25,29.375,32.9375,35.4375,36.5
0.16805378,0.16418348,-0.51158565,-0.35167283,-0.018190885,0.03130949,-0.16631858,-0.3955581,-0.3666972,0.05999708,3.0776925,-0.62721467,0.00012816669,-0.07735821,0.025070524,0.0013797514,-0.0108653065,0.004566197,-0.025629634,0.4954482,-1.374914,1.8959926,-2.0907505,-1.5701674,2.471999,-0.1173718,0.07992938,-0.10067629,0.011587116,0.007227187,-0.09169886,-0.038307227,0.15322891,-9.32781,0.8179876,47.67166,-0.9728443,-2.3290584,-3.364974,-0.2585011,0.11533952,-0.31766218,28.9375,30.25,29.375,32.9375,35.4375,36.5
0.17005418,0.312649,-0.44739923,-0.2796634,-0.016972706,0.033392075,-0.16333784,-0.39571202,-0.3666526,0.06000421,3.0776699,-0.627287,0.00011570082,-0.07768046,0.025366005,0.0011411551,-0.011180457,0.004062311,-0.027228873,0.49523225,-1.3747457,1.8957657,-2.0907028,-1.570167,2.471831,-0.118442796,0.08041599,-0.10068107,0.011398343,0.0077462774,-0.091171056,-0.038307227,0.21068975,-9.32781,0.7978386,47.678825,-1.0362964,-2.420834,-3.3782763,-0.2577902,0.11086988,-0.36001855,28.9375,30.25,29.375,32.9375,35.4375,36.5
0.17205366,-0.22299765,-0.2791269,-0.24195261,-0.024632955,0.018313546,-0.16785721,-0.3958513,-0.3666036,0.060003646,3.077612,-0.62731093,0.00013668332,-0.07904913,0.024684004,0.002665831,-0.013093251,0.0062582255,-0.024896845,0.49499273,-1.3746139,1.8956102,-2.0907023,-1.5701188,2.471614,-0.1189017,0.08008498,-0.103932016,0.01214494,0.008386297,-0.09396137,0.0,0.22984336,-9.308657,0.8090337,47.684196,-1.1139992,-2.2345629,-3.1984754,-0.2684834,0.08080503,-0.36128885,28.9375,30.25,29.375,32.9375,35.4375,36.5
0.1740536,0.5120773,-0.027287288,-0.24297507,-0.024212379,0.032595802,-0.17437601,-0.39599523,-0.36655775,0.060001086,3.0776083,-0.6273684,0.00018134127,-0.078024715,0.025744013,-0.0007132372,-0.009956304,0.00046563253,-0.026396116,0.4947768,-1.374432,1.8953837,-2.0906308,-1.5701069,2.4714344,-0.11970672,0.0848136,-0.10182703,0.011901387,0.008379842,-0.09326743,0.11492168,0.21068975,-9.270349,0.8224646,47.71465,-0.97005004,-2.3927207,-3.447546,-0.27509338,0.10346385,-0.40039706,28.9375,30.25,29.375,32.9375,35.4375,36.5
0.17605412,-0.041917652,-0.83556396,-0.33863038,-0.005706651,0.014588032,-0.1663359,-0.39618513,-0.36649632,0.059998877,3.0775516,-0.6274876,0.00012158512,-0.08155086,0.025837557,0.0024354826,-0.012435612,0.0066830777,-0.023386678,0.49450052,-1.3742405,1.8951668,-2.0906546,-1.5701073,2.4712398,-0.12254694,0.082898095,-0.10677309,0.012122379,0.007609485,-0.09911428,0.019153614,0.21068975,-9.385271,0.7239871,47.679718,-1.1267954,-2.3210175,-3.2525454,-0.28455633,0.095414,-0.38506413,28.9375,30.25,29.375,32.9375,35.4375,36.5
0.17805423,0.4424628,-0.20368727,-0.1406128,-0.023974558,0.025805648,-0.16844864,-0.39633784,-0.36644423,0.06000046,3.0775375,-0.6275585,0.00012390414,-0.08034385,0.02557891,0.00059391046,-0.01166606,0.0028853393,-0.019536756,0.4942734,-1.3740712,1.8949512,-2.090607,-1.5701069,2.4710588,-0.12167051,0.08556443,-0.10577912,0.012169841,0.008739667,-0.10208899,0.019153614,0.22984336,-9.32781,0.8157518,47.687782,-1.1174139,-2.3461046,-3.4247966,-0.27883464,0.103818886,-0.348657,28.9375,30.25,29.375,32.9375,35.4375,36.5
0.18005341,0.22679296,-0.46350121,-0.27442515,-0.0067201224,0.011859381,-0.16278861,-0.3965334,-0.366386,0.060008522,3.077467,-0.6276754,3.8869253e-05,-0.08195962,0.025782013,0.00091931055,-0.012123142,0.003788862,-0.014741805,0.49399728,-1.3738908,1.8947238,-2.0906308,-1.5701069,2.4708648,-0.1234165,0.08696587,-0.10820131,0.012184903,0.00872098,-0.10862816,0.05746084,0.2681506,-9.232041,0.80456203,47.68599,-1.1544862,-2.3787599,-3.38233,-0.27076656,0.08943322,-0.31851152,28.9375,30.25,29.375,32.9375,35.4375,36.5
0.18205346,0.042055354,-0.5112745,-0.28199232,-0.01035381,0.014267813,-0.16115268,-0.39667106,-0.36635965,0.060011588,3.0774598,-0.6275359,6.2653984e-05,-0.08334,0.026015071,0.0014257297,-0.01249633,0.004649699,-0.010167024,0.49380514,-1.3737221,1.8945082,-2.0905945,-1.5700706,2.4705865,-0.12497552,0.08775422,-0.11041611,0.012686367,0.008643754,-0.11476088,0.11492168,0.2681506,-9.155427,0.8112748,47.72719,-1.1302984,-2.359903,-3.2730098,-0.3022834,0.09011548,-0.23550788,28.9375,30.25,29.375,32.9375,35.4375,36.5
0.18405367,0.553618,-0.03802814,-0.29311496,-0.012089315,0.022295082,-0.16912028,-0.39681664,-0.36628485,0.060001303,3.0774405,-0.62760377,0.00016983903,-0.08399453,0.02630918,0.00029476205,-0.01154568,0.002750147,-0.0042783637,0.49351734,-1.3735648,1.8943285,-2.090523,-1.570023,2.4703436,-0.12605827,0.09103608,-0.111817926,0.012942173,0.008704205,-0.121731766,0.038307227,0.22984336,-9.232041,0.78888994,47.696735,-1.1649069,-2.431547,-3.2368388,-0.30243352,0.09899375,-0.15434422,28.9375,30.25,29.375,32.9375,35.4375,36.5
0.18605344,0.41002464,-0.2590563,-0.3144052,-0.010512021,0.03601783,-0.17066798,-0.39699155,-0.36624148,0.059996255,3.0773966,-0.627653,0.00013987206,-0.08570409,0.02601818,0.0022952536,-0.013853627,0.0056579695,-0.0056322482,0.4932773,-1.3733613,1.8941005,-2.0905344,-1.5700101,2.47014,-0.12747695,0.08962108,-0.11488735,0.013773961,0.009361628,-0.12179605,-0.076614454,0.21068975,-9.308656,0.8605109,47.67614,-1.0752711,-2.335755,-3.3511577,-0.2993384,0.0973205,-0.11495491,28.9375,30.25,29.375,32.9375,35.4375,36.5
0.18805379,-0.6840558,-0.11971178,-0.10517224,-0.035705354,0.035766393,-0.1668195,-0.3971635,-0.36619967,0.05998949,3.0773528,-0.6276419,0.00020315069,-0.085408494,0.027083192,0.0006059385,-0.012461462,0.0029494397,-0.005209802,0.49301347,-1.3731446,1.8938502,-2.0904987,-1.56995,2.4698749,-0.12898234,0.09140669,-0.11306371,0.013220709,0.009423496,-0.1237244,-0.30645782,0.15322891,-9.270349,0.8179876,47.689575,-1.1712754,-2.2697718,-3.3233604,-0.29893,0.080984555,-0.066435434,28.9375,30.25,29.375,32.9375,35.4375,36.5
0.19005382,-0.9609247,-0.9383264,-0.45531422,-0.013246726,0.051366206,-0.15615766,-0.3973129,-0.3661356,0.059999608,3.0773706,-0.6276109,0.00016539093,-0.08797366,0.026879832,0.0016918248,-0.013780718,0.004744195,-0.011852785,0.49278513,-1.3730116,1.893658,-2.0904505,-1.5699743,2.469625,-0.13111517,0.09328087,-0.117953725,0.014025963,0.009729064,-0.11921234,-0.2681506,0.17238252,-9.3661175,0.8090337,47.688675,-1.1034074,-2.5312595,-3.3049297,-0.31739163,0.09220031,-0.11690739,28.9375,30.25,29.375,32.9375,35.4375,36.5
0.19205399,-0.73272395,-0.26832676,-0.33208853,-0.019388627,0.07407779,-0.17018533,-0.39750844,-0.36608344,0.06000371,3.0773091,-0.6276971,0.00017528946,-0.08813671,0.027983554,0.0008871696,-0.013564507,0.0027741313,-0.018527532,0.49249715,-1.3727952,1.8933834,-2.0904148,-1.5699376,2.4693987,-0.13351798,0.09385488,-0.11686608,0.01420369,0.010476451,-0.11494131,-0.4213795,0.1340753,-9.385271,0.784413,47.72719,-1.0756984,-2.195348,-3.3312912,-0.3428479,0.08966949,-0.14906806,28.9375,30.25,29.375,32.9375,35.4375,36.5
0.19405338,-1.2956922,-0.091090344,-0.36335757,-0.009876433,0.06713859,-0.16788577,-0.39764556,-0.36602372,0.05999013,3.077333,-0.62768394,0.00027322347,-0.088451944,0.027374033,-0.000636059,-0.012535014,0.00031396374,-0.022183442,0.49225754,-1.3726133,1.8931788,-2.0903308,-1.5699137,2.469148,-0.13288894,0.098687865,-0.11920712,0.01436735,0.0107203545,-0.11065562,-0.6512229,0.05746084,-9.404425,0.8090337,47.686886,-1.0863078,-2.4188063,-3.3076265,-0.3550489,0.06940742,-0.19293506,28.9375,30.25,29.375,32.9375,35.4375,36.5
0.19605389,-1.1523092,0.015589125,-0.33158723,0.004554896,0.08382196,-0.16638304,-0.39785576,-0.36596537,0.06001122,3.077235,-0.62781966,0.00014284384,-0.09123823,0.027837379,0.00076809013,-0.01379522,0.004464409,-0.028541619,0.49196923,-1.3724455,1.8929394,-2.090367,-1.5699142,2.468957,-0.13560098,0.098576024,-0.121966526,0.012988435,0.009873036,-0.107006416,-0.6703765,0.05746084,-9.32781,0.80679786,47.687782,-0.9580449,-2.4542937,-3.1894763,-0.34698856,0.08797104,-0.26328042,28.9375,30.25,29.375,32.9375,35.4375,36.5
0.1980541,-1.2993883,0.30870172,-0.30668598,0.01164059,0.09311631,-0.16870211,-0.3980432,-0.3659388,0.060021084,3.0771492,-0.62786007,0.00014942331,-0.09237208,0.02833742,-4.8269467e-05,-0.013735679,0.0028846203,-0.032611214,0.49171725,-1.372228,1.8926529,-2.0903432,-1.5698537,2.4687412,-0.13783747,0.101424605,-0.12355807,0.013157054,0.010569705,-0.10517247,-0.6512229,0.019153614,-9.3661175,0.8090337,47.689575,-1.1860589,-2.5192375,-3.116056,-0.33873922,0.08220254,-0.2891418,28.9375,30.25,29.375,32.9375,35.4375,36.5
0.20005444,-1.4910846,0.4690526,-0.26222026,0.007811829,0.09852937,-0.17059927,-0.3981925,-0.3658698,0.059989456,3.0772023,-0.62787056,0.00025100273,-0.092400685,0.027523434,0.00055054965,-0.01427659,0.0041379966,-0.032561317,0.4914663,-1.372,1.8924369,-2.0902708,-1.5698541,2.4684901,-0.13636893,0.10123999,-0.12471859,0.01314381,0.010445175,-0.10375423,-0.7661445,0.019153614,-9.423578,0.76874626,47.705692,-1.2270515,-2.4754567,-3.1435413,-0.33877254,0.059365373,-0.35126418,28.9375,30.25,29.375,32.9375,35.4375,36.5
0.2020538,-1.60847,0.49878383,-0.14405227,-0.0059651844,0.10753225,-0.16992293,-0.39839306,-0.36580557,0.05999402,3.0770965,-0.62809867,0.00023090772,-0.09334617,0.027608808,0.0008113694,-0.01479475,0.0040406417,-0.034905136,0.4911545,-1.3718075,1.8921975,-2.0902708,-1.5698179,2.4683342,-0.13761419,0.102214605,-0.12667644,0.013972771,0.0109531395,-0.10265485,-0.8236054,0.038307227,-9.500193,0.86498255,47.71823,-1.2150578,-2.4272575,-3.0939803,-0.3509041,0.076544546,-0.40959603,28.9375,30.25,29.375,32.9375,35.4375,36.5
0.20405418,-1.4866626,0.2883666,-0.26180303,-0.0011503331,0.114195675,-0.1694646,-0.3985885,-0.36575818,0.059996545,3.077039,-0.62818235,0.00018637827,-0.094278485,0.028184976,0.0010374843,-0.014417507,0.004830011,-0.036672063,0.4908907,-1.3715912,1.8919343,-2.0902708,-1.569806,2.46813,-0.13892718,0.10247556,-0.1275422,0.014065627,0.010253951,-0.10219948,-0.8619126,0.019153614,-9.32781,0.800085,47.696735,-1.1539509,-2.3716035,-3.104487,-0.34389454,0.08114842,-0.43994054,28.9375,30.25,29.375,32.9375,35.4375,36.5
0.20605348,-1.1202536,0.13338766,-0.2541892,0.003247895,0.11658048,-0.17192459,-0.39877164,-0.36568275,0.059979025,3.077077,-0.62824774,0.00022131533,-0.09520183,0.029753562,0.00031281984,-0.012698796,0.0038523441,-0.037192646,0.4906138,-1.3713504,1.8916711,-2.0901988,-1.5698308,2.4678893,-0.14168374,0.103729285,-0.12749952,0.014447632,0.009198823,-0.10443491,-0.7278373,0.05746084,-9.346964,0.8717007,47.705692,-1.0327619,-2.4104733,-3.1760387,-0.35482454,0.078398176,-0.510164,28.9375,30.25,29.375,32.9375,35.4375,36.5
0.20805377,-1.3323627,0.13993195,-0.23761927,-0.0002518099,0.09981537,-0.16688068,-0.39898205,-0.3656367,0.05999406,3.0769548,-0.6284127,0.00023662078,-0.09841596,0.03049383,0.001629479,-0.014195897,0.007017916,-0.03692507,0.4903016,-1.371134,1.8913711,-2.090163,-1.5697583,2.4676957,-0.1456481,0.10434204,-0.13113603,0.013989002,0.009030304,-0.10866479,-0.6703764,-0.038307227,-9.385271,0.8090337,47.72002,-1.129145,-2.3684802,-3.0555778,-0.36412704,0.10116626,-0.4787494,28.9375,30.25,29.375,32.9375,35.4375,36.5
0.21005397,-0.892986,0.40593225,-0.25224307,-0.004834418,0.10547657,-0.17721444,-0.39917776,-0.3655612,0.059988637,3.0769026,-0.62851,0.00020803799,-0.096973196,0.0308239,0.00045012645,-0.013191377,0.004954607,-0.02670664,0.4899905,-1.370942,1.8911575,-2.0901754,-1.5697459,2.467452,-0.14489663,0.10430768,-0.1283282,0.013521927,0.009133727,-0.11813263,-0.7469909,-0.11492168,-9.423578,0.83589023,47.70032,-1.1800587,-2.3023703,-3.3480272,-0.3770636,0.0877825,-0.4132979,28.9375,30.25,29.375,32.9375,35.4375,36.5
0.21205409,-0.7191383,0.17927402,-0.37960997,0.017779162,0.106724456,-0.1660033,-0.39937603,-0.3654889,0.05999224,3.0768666,-0.6286518,0.00019427984,-0.098175354,0.03104713,-0.00079392194,-0.011898316,0.0038234943,-0.019652892,0.48969057,-1.3707365,1.8908938,-2.0901282,-1.5697464,2.4672453,-0.14591466,0.10857111,-0.13049212,0.013041654,0.008528456,-0.12620232,-0.5554548,-0.095768064,-9.481039,0.8112748,47.696735,-1.1295278,-2.3708172,-3.175479,-0.36337286,0.08895712,-0.38176924,28.9375,30.25,29.375,32.9375,35.4375,36.5
0.21405432,-0.88257444,0.69407016,-0.30498624,0.025163263,0.09569569,-0.17092569,-0.39959338,-0.36544454,0.059998147,3.0767982,-0.6286125,0.00017056399,-0.09958949,0.031353187,0.0010042653,-0.013478447,0.007385064,-0.012969695,0.4893908,-1.3704967,1.8905948,-2.0901282,-1.5696987,2.46693,-0.14745745,0.106097125,-0.13158372,0.012739019,0.008261684,-0.13442762,-0.38307226,-0.15322891,-9.519346,0.8179876,47.689575,-1.099534,-2.4118106,-3.3427925,-0.35558313,0.092043474,-0.2561833,28.9375,30.25,29.375,32.9375,35.4375,36.5
0.21605386,-0.9395617,0.5162659,-0.36904827,0.035709664,0.073614314,-0.16645557,-0.39978108,-0.36537692,0.059990242,3.0767899,-0.6286268,0.00013310286,-0.099153526,0.03138317,-0.0010965865,-0.012365603,0.0034095426,-0.0078318585,0.48911533,-1.3702912,1.8903679,-2.0901282,-1.5697101,2.4666646,-0.14760624,0.110142305,-0.13166936,0.012814624,0.009157445,-0.13971412,-0.34476504,-0.19153614,-9.442732,0.8090337,47.719128,-1.2158303,-2.4179466,-3.3530183,-0.3449275,0.07320555,-0.20283136,28.9375,30.25,29.375,32.9375,35.4375,36.5
0.21805422,-0.40389127,1.1230365,-0.22283699,0.01932321,0.06337913,-0.16964431,-0.39999872,-0.365305,0.059991162,3.0767596,-0.6286948,0.00013147187,-0.10000083,0.032120563,-0.000414951,-0.012328151,0.0052076657,-0.0071495133,0.48879164,-1.3700517,1.8900694,-2.09008,-1.5696987,2.4663873,-0.1489893,0.10891101,-0.13170917,0.012525766,0.008285146,-0.14177902,-0.22984336,-0.11492168,-9.461885,0.77545905,47.67345,-1.2486726,-2.3512583,-3.4524307,-0.33405417,0.09963092,-0.15109351,28.9375,30.25,29.375,32.9375,35.4375,36.5
0.2200538,0.19070315,0.18928143,-0.3514958,0.03160127,0.05155819,-0.1625239,-0.40019634,-0.3652395,0.05996938,3.076756,-0.6287127,0.00013251408,-0.10060056,0.03278825,-0.0010714722,-0.011129395,0.0042076097,-0.008951148,0.488504,-1.3697985,1.8898171,-2.09008,-1.5696987,2.4661114,-0.15021767,0.110696755,-0.13246965,0.012950243,0.0076976875,-0.14120485,-0.15322891,-0.15322891,-9.519346,0.83589023,47.668976,-1.2731708,-2.391532,-3.40239,-0.34173054,0.1290502,-0.12970272,28.9375,30.25,29.375,32.9375,35.4375,36.5
0.22205342,0.19762313,0.39180526,-0.6117135,0.018986244,0.027870437,-0.15892677,-0.4004031,-0.36517045,0.05996943,3.0766907,-0.6288203,0.00014070996,-0.102676384,0.03256198,0.00034690602,-0.01227587,0.007544133,-0.017462969,0.48818022,-1.3695825,1.8895539,-2.0900557,-1.5696629,2.4658632,-0.15127881,0.110854425,-0.13584006,0.012680301,0.00713778,-0.13375232,-0.038307227,0.019153614,-9.423578,0.8560339,47.71554,-1.2120221,-2.3845413,-3.520895,-0.3185249,0.12884189,-0.19995242,28.9375,30.25,29.375,32.9375,35.4375,36.5
0.2240534,0.2698141,-0.032690585,-0.43314803,0.0085148085,0.014763275,-0.15785359,-0.40062815,-0.3650716,0.0599744,3.0766544,-0.62896943,0.00010036175,-0.10354305,0.033360846,0.0009475795,-0.012556251,0.007976406,-0.02425066,0.4878199,-1.3693784,1.8892912,-2.09002,-1.5696753,2.4656007,-0.15334582,0.110115394,-0.13655646,0.01361838,0.007187326,-0.12903148,0.019153614,0.019153614,-9.461885,0.87617236,47.687782,-1.0664215,-2.2813516,-3.4809833,-0.3132252,0.15740614,-0.2534007,28.9375,30.25,29.375,32.9375,35.4375,36.5
0.226054,0.756551,-0.48062375,-0.66518503,0.0075103682,0.019714946,-0.16122319,-0.4007999,-0.36499014,0.05994581,3.0767107,-0.62901944,0.0001659186,-0.105144076,0.034597825,-0.00039895801,-0.011477823,0.00564711,-0.029464485,0.4875438,-1.3691366,1.8890513,-2.089948,-1.5696992,2.4653487,-0.1568769,0.11405479,-0.13830712,0.0139895445,0.007315598,-0.12734815,0.05746084,0.095768064,-9.500193,0.842603,47.70659,-1.2005141,-2.461915,-3.4284034,-0.31228867,0.14957798,-0.29548854,28.9375,30.25,29.375,32.9375,35.4375,36.5
0.22805421,0.2421504,-0.34326622,-0.82730025,-0.012700136,0.01451441,-0.1613591,-0.40104645,-0.36493978,0.059985325,3.0765767,-0.62910604,7.010993e-05,-0.105659194,0.03456909,0.0007011459,-0.012750535,0.0067210747,-0.03022969,0.4872083,-1.3689332,1.8887161,-2.0899355,-1.5696505,2.4650846,-0.15759051,0.11266916,-0.13938032,0.014909921,0.007955846,-0.12729605,0.095768064,0.15322891,-9.5385,0.842603,47.709274,-1.0554972,-2.225187,-3.3992128,-0.32507592,0.15987378,-0.32606548,28.9375,30.25,29.375,32.9375,35.4375,36.5
0.23005351,0.025835773,-1.0683854,-0.9556265,-0.01985395,0.010886943,-0.15561822,-0.40125322,-0.3648578,0.059981,3.076597,-0.62914973,3.6944824e-05,-0.10697583,0.03529906,-0.0005247808,-0.012657102,0.004184297,-0.033671383,0.4869076,-1.3687034,1.888441,-2.0898879,-1.5696863,2.4648087,-0.16060199,0.11643208,-0.14118174,0.015227542,0.009059964,-0.12686536,0.1340753,0.2681506,-9.595961,0.8247004,47.677036,-0.9488087,-2.4502535,-3.3813472,-0.32908815,0.1606577,-0.3540957,28.9375,30.25,29.375,32.9375,35.4375,36.5
0.23205346,0.13625115,-0.89914966,-0.77571577,-0.048558,0.01828798,-0.17004588,-0.40146294,-0.3647921,0.05998459,3.0765035,-0.62922406,3.982266e-05,-0.10705342,0.034782235,-5.5653447e-05,-0.012939937,0.004631067,-0.031856827,0.48657265,-1.3684993,1.8881892,-2.0898874,-1.5696262,2.4645321,-0.15975142,0.11651806,-0.14254336,0.01598767,0.009109873,-0.12782854,0.019153614,0.36391866,-9.576807,0.8314132,47.71554,-1.0240905,-2.3945382,-3.398274,-0.34403902,0.16504478,-0.3649094,28.9375,30.25,29.375,32.9375,35.4375,36.5
0.23405363,0.12662892,-1.4460615,-0.8491218,-0.05802938,0.043314684,-0.17085376,-0.4016806,-0.36472943,0.05997888,3.0764709,-0.6293491,2.7396e-05,-0.10818297,0.035063043,-0.00023500052,-0.012971675,0.004398382,-0.029769048,0.48627284,-1.3682344,1.8878778,-2.0898511,-1.5696262,2.4643147,-0.16123748,0.1183292,-0.14437598,0.016206292,0.009250664,-0.13140148,-0.114921674,0.5746084,-9.615114,0.8314132,47.689575,-1.0287461,-2.2914612,-3.4167004,-0.34840524,0.155559,-0.36767316,28.9375,30.25,29.375,32.9375,35.4375,36.5
0.23605397,-0.41955242,-1.795145,-1.0623721,-0.053347435,0.042209797,-0.16314648,-0.40190408,-0.36462292,0.0599784,3.0764318,-0.62950987,0.0001350709,-0.109371245,0.0355609,-0.00019390912,-0.013114219,0.004250395,-0.025203135,0.4858647,-1.3680058,1.8875788,-2.0897315,-1.569578,2.464012,-0.16316487,0.119585246,-0.1461234,0.016778905,0.009446276,-0.13789462,-0.05746084,0.4213795,-9.710882,0.842603,47.698532,-1.0074009,-2.3574543,-3.3602161,-0.34587178,0.17459862,-0.3202797,28.9375,30.25,29.375,32.9375,35.4375,36.5
0.23805434,0.17380774,-1.5122429,-0.88958293,-0.06862102,0.07008147,-0.17716673,-0.40213832,-0.36457676,0.059995413,3.0763772,-0.6294727,2.0927146e-05,-0.11087283,0.034299824,0.0007236537,-0.015614645,0.005973248,-0.017046444,0.4855779,-1.3677651,1.8872555,-2.0897434,-1.5695776,2.463709,-0.16317411,0.12108142,-0.14993398,0.016409684,0.010867803,-0.1460588,0.0,0.4405331,-9.80665,0.8560339,47.679718,-1.1441907,-2.3388834,-3.4152186,-0.3524178,0.15240873,-0.24410844,28.9375,30.25,29.375,32.9375,35.4375,36.5
0.24005349,-0.034040593,-1.4008005,-0.65032923,-0.07729699,0.066753134,-0.17265326,-0.40236643,-0.36450914,0.059999175,3.076325,-0.62953347,-2.354508e-05,-0.111749545,0.03522981,4.8682323e-05,-0.0150931,0.00550835,-0.010308997,0.4852537,-1.3675245,1.886957,-2.089732,-1.5695657,2.4634297,-0.16528732,0.12246587,-0.14991507,0.015677335,0.010641072,-0.15490866,-0.095768064,0.6512228,-9.5385,0.80679786,47.692257,-1.0824826,-2.4022932,-3.3103907,-0.33718947,0.16242608,-0.13178954,28.9375,30.25,29.375,32.9375,35.4375,36.5
0.2420538,-0.16355978,-1.0938534,-0.6979654,-0.057991385,0.05623116,-0.16789536,-0.40257797,-0.36443424,0.05998219,3.076309,-0.6295493,4.1525924e-05,-0.11428885,0.035346977,0.000994193,-0.016693829,0.007907639,-0.010788581,0.48491743,-1.3672597,1.8866686,-2.0896838,-1.5695299,2.4631054,-0.1678372,0.1236822,-0.15341404,0.01510178,0.010932021,-0.15697789,-0.1340753,0.49799395,-9.615114,0.83589023,47.709274,-1.0477844,-2.376262,-3.194281,-0.32971078,0.18088031,-0.06512416,28.9375,30.25,29.375,32.9375,35.4375,36.5
0.24405396,0.15390916,-0.66467017,-0.4413035,-0.046230868,0.054460935,-0.17127158,-0.40281993,-0.36436984,0.06000284,3.0762455,-0.62959427,-5.9249443e-05,-0.115392625,0.035611704,0.000623953,-0.016738916,0.007935275,-0.0139146065,0.48459402,-1.3670309,1.8863457,-2.0896728,-1.5695299,2.4628184,-0.169191,0.1256062,-0.15475412,0.014473823,0.0109705925,-0.155204,-0.15322891,0.38307226,-9.595961,0.7620334,47.704796,-0.996344,-2.4653387,-3.150063,-0.31792378,0.1738885,-0.04260033,28.9375,30.25,29.375,32.9375,35.4375,36.5
0.24605401,-0.56989324,-0.5430496,-0.1961425,-0.038916167,0.038312364,-0.15900232,-0.4030558,-0.36431518,0.060014833,3.0761702,-0.6296386,-9.3044364e-05,-0.11675384,0.035671156,0.0012406992,-0.017651748,0.009760541,-0.020150762,0.48427022,-1.3667785,1.8860115,-2.0896485,-1.5694937,2.462532,-0.1703786,0.12591222,-0.15638636,0.013762898,0.010931647,-0.15015416,-0.28730422,0.30645782,-9.385271,0.8940802,47.703903,-0.9503705,-2.4997277,-3.1051726,-0.28150502,0.19393551,-0.07784493,28.9375,30.25,29.375,32.9375,35.4375,36.5
0.24805336,-0.09493844,0.15282534,-0.19569834,-0.025394518,0.061848365,-0.1615114,-0.40329427,-0.36426038,0.06002211,3.0761192,-0.6296503,-0.00015254249,-0.11711627,0.03538881,6.6538974e-05,-0.017873263,0.007682259,-0.027615773,0.4839587,-1.3665129,1.8856748,-2.0896366,-1.5694813,2.4622345,-0.17084843,0.12923239,-0.15764207,0.013427364,0.012097265,-0.14315777,-0.36391866,0.28730422,-9.346964,0.7329411,47.691364,-1.0656731,-2.6342669,-3.0912995,-0.2711845,0.1842756,-0.15368553,28.9375,30.3125,29.375,32.9375,35.4375,36.5
0.25005344,-0.3072084,0.28205603,-0.10206874,0.0027571404,0.07173184,-0.16170079,-0.40354568,-0.3641944,0.06003223,3.0760062,-0.62974125,-0.00018022554,-0.11839604,0.034376357,0.0022810677,-0.019992806,0.011678524,-0.030976428,0.48358786,-1.3662615,1.8853515,-2.0896366,-1.5694212,2.461935,-0.17019011,0.12761298,-0.16082624,0.01371531,0.012120334,-0.1391371,-0.36391866,0.19153613,-9.385271,0.87617236,47.72002,-1.1371988,-2.4054542,-3.1227777,-0.26370093,0.17215054,-0.2197297,28.9375,30.3125,29.375,32.9375,35.4375,36.5
0.2520539,-0.96238536,0.92513365,0.07811186,0.0048188926,0.07998892,-0.1635844,-0.403754,-0.3641206,0.06002,3.0759776,-0.62983423,-0.00013775499,-0.11756984,0.035103526,0.0006438089,-0.019149622,0.007789349,-0.03765815,0.4832643,-1.3660089,1.8850664,-2.0895889,-1.5693969,2.4616733,-0.1712445,0.12926786,-0.15925568,0.014321492,0.0131831905,-0.13351068,-0.4213795,0.038307227,-9.251195,0.8157518,47.688675,-1.1138045,-2.5806127,-3.199936,-0.24015701,0.17491916,-0.3068693,28.9375,30.3125,29.375,32.9375,35.4375,36.5
0.254054,-0.2631886,0.9701175,0.07841201,0.011752732,0.10509794,-0.16222289,-0.40399283,-0.36406416,0.06002364,3.0758927,-0.6299527,-0.00013124222,-0.117686234,0.035387427,0.00017512,-0.018758722,0.0060675037,-0.040695477,0.4829283,-1.365732,1.8847188,-2.0895522,-1.5693487,2.4614222,-0.17200723,0.13059114,-0.16008224,0.015537376,0.013644608,-0.1312354,-0.4213795,-0.038307227,-9.251195,0.8179876,47.67614,-1.2527373,-2.4160771,-3.286954,-0.23763901,0.17832655,-0.3484879,28.9375,30.3125,29.375,32.9375,35.4375,36.5
0.25605407,-0.5376112,1.1475741,0.328132,0.018252177,0.09525681,-0.16721019,-0.40421963,-0.36399537,0.060020965,3.0758393,-0.63005733,-0.00016120859,-0.118231624,0.035846546,-0.00038268874,-0.017987017,0.004961082,-0.044589274,0.48260474,-1.3654791,1.8844198,-2.0895402,-1.5693368,2.461171,-0.17306449,0.13236709,-0.16110408,0.016124224,0.013479073,-0.12839782,-0.49799395,-0.19153613,-9.212888,0.7239871,47.681515,-1.2460952,-2.5329857,-3.3042254,-0.23777418,0.16960366,-0.45406505,28.9375,30.3125,29.375,32.9375,35.4375,36.5
0.25805497,-0.5384352,0.94804025,0.25942442,0.033137344,0.08755596,-0.16817324,-0.40446126,-0.36394244,0.060038082,3.075762,-0.63007784,-0.0002108316,-0.11979238,0.037349362,-0.0002149693,-0.017287916,0.005700217,-0.04545957,0.48228052,-1.3652269,1.8840736,-2.089516,-1.5693015,2.4608696,-0.17628025,0.13256788,-0.16179487,0.016299512,0.012531959,-0.13074206,-0.47884035,-0.34476504,-9.174581,0.8672237,47.65912,-1.2929144,-2.4497683,-3.334793,-0.21110973,0.17353565,-0.48803744,28.9375,30.3125,29.375,32.9375,35.4375,36.5
0.26005405,-0.42933893,1.5781527,0.3400539,0.03936868,0.07664005,-0.17298415,-0.40472367,-0.36386824,0.060044106,3.0756624,-0.6302823,-0.00025834815,-0.120790176,0.037455015,-0.000263938,-0.016993007,0.006255333,-0.03803173,0.48190922,-1.36495,1.883726,-2.089504,-1.5692772,2.4606388,-0.17692062,0.13410144,-0.1635198,0.016157238,0.012033047,-0.13880873,-0.2873042,-0.38307226,-9.11712,0.9321212,47.674347,-1.3707558,-2.5914977,-3.3781648,-0.1999491,0.19005382,-0.46453696,28.9375,30.3125,29.375,32.9375,35.4375,36.5
0.2620533,0.52313226,1.7984431,0.45303023,0.05291526,0.07392086,-0.17286588,-0.40497208,-0.36378548,0.06006125,3.0755627,-0.63038844,-0.00025608312,-0.1209644,0.0370719,-0.00027186834,-0.017232357,0.0062904707,-0.026820967,0.48151416,-1.3647217,1.8834032,-2.0894563,-1.5692171,2.4603229,-0.17645796,0.13495505,-0.1645684,0.016238946,0.012254115,-0.14955586,-0.15322891,-0.36391866,-9.059659,0.9231726,47.704796,-1.310077,-2.3648057,-3.3409252,-0.1854853,0.19613427,-0.3795315,28.9375,30.3125,29.375,32.9375,35.4375,36.5
0.26405358,-0.450983,1.2859011,0.320427,0.068087846,0.03499974,-0.16755082,-0.40522948,-0.36370006,0.060053006,3.0755587,-0.63039964,-0.0003499764,-0.12192406,0.036988113,0.0014055038,-0.01819281,0.009674555,-0.016451715,0.48116642,-1.3644342,1.8830804,-2.0894678,-1.5692538,2.4599829,-0.17663088,0.13285117,-0.16589229,0.016239438,0.011563867,-0.16009745,-0.4213795,-0.24899697,-9.040505,0.7709874,47.703007,-1.368979,-2.268474,-3.3652997,-0.16813165,0.1962405,-0.2660768,28.9375,30.3125,29.375,32.9375,35.4375,36.5
0.26605392,0.24006169,1.6334604,0.31336552,0.04767605,0.057628512,-0.17722258,-0.4054904,-0.3636402,0.060076725,3.0754645,-0.6304532,-0.00038561705,-0.12180289,0.037207298,0.0010292358,-0.017935902,0.008145856,-0.00985763,0.48080626,-1.3641696,1.8826989,-2.0894196,-1.5692052,2.4596684,-0.17709117,0.13364561,-0.16626315,0.017311078,0.012072896,-0.16715091,-0.38307226,-0.22984336,-8.983045,0.8560339,47.71465,-1.4131868,-2.2184954,-3.3835206,-0.15833426,0.21649194,-0.17598906,28.9375,30.3125,29.375,32.9375,35.4375,36.5
0.2680542,0.04560384,0.91657585,-0.13962513,0.05320385,0.05994659,-0.17061017,-0.40568003,-0.36355472,0.060030892,3.0755103,-0.6304821,-0.00022979871,-0.1233546,0.037977785,0.0010650569,-0.01722409,0.007939837,-0.009900198,0.48048154,-1.3638685,1.8824233,-2.0893357,-1.5691818,2.4593558,-0.17932793,0.13548762,-0.16888717,0.018618127,0.01152412,-0.16934533,-0.21068975,-0.1340753,-9.193734,0.8627467,47.684196,-1.5219694,-2.1812265,-3.1917691,-0.15129438,0.22221708,-0.12276086,28.9375,30.3125,29.375,32.9375,35.4375,36.5
0.2700542,-0.2037872,0.61981004,-0.34814152,0.022884965,0.046002112,-0.16291073,-0.40592948,-0.36346513,0.06004231,3.0754423,-0.63060576,-0.00024976497,-0.12559538,0.038790938,0.0019886896,-0.017492026,0.009073989,-0.017383935,0.48009697,-1.3636281,1.8820986,-2.089287,-1.5691575,2.4590573,-0.18237554,0.13635164,-0.17239007,0.020130035,0.011239007,-0.16490754,-0.095768064,-0.076614454,-9.423578,0.900793,47.67614,-1.3969657,-2.1897802,-3.3057232,-0.15375805,0.2169996,-0.17743157,28.9375,30.3125,29.375,32.9375,35.4375,36.5
0.27205336,-0.17284958,-0.16878414,-0.29642603,-0.009641764,0.04145095,-0.16213588,-0.40619603,-0.36336604,0.06003925,3.0754225,-0.63072395,-0.00030150363,-0.12810844,0.03999774,0.0028507586,-0.017769957,0.009993355,-0.028478172,0.47971147,-1.3633395,1.8817514,-2.0892508,-1.5691818,2.4587483,-0.18637747,0.13724898,-0.17581451,0.021703366,0.011056603,-0.15781377,-0.21068975,0.05746084,-9.404425,0.9097417,47.719128,-1.2653315,-2.141142,-3.25589,-0.16047841,0.2479419,-0.20470843,28.9375,30.3125,29.375,32.9375,35.4375,36.5
0.27405372,-0.44427308,-0.5405331,-0.63801533,-0.031286415,0.04283693,-0.16303368,-0.40643048,-0.36328685,0.060039565,3.0753882,-0.6307578,-0.0002630678,-0.1278635,0.041777793,0.0013108923,-0.015605336,0.0067642434,-0.034435265,0.4793506,-1.3630748,1.8814172,-2.0891788,-1.5691456,2.4584131,-0.18877906,0.13848642,-0.17403008,0.022550745,0.010631472,-0.15425892,-0.4405331,0.19153613,-9.461885,0.8247004,47.693153,-1.2450478,-2.2425354,-3.3815742,-0.17089325,0.23537451,-0.31522423,28.9375,30.3125,29.375,32.9375,35.4375,36.5
0.27605402,-0.17016599,-0.62655264,-1.0143801,-0.040718846,0.058994964,-0.17334852,-0.40668836,-0.3631945,0.060019765,3.075356,-0.63090485,-0.00020715302,-0.12761168,0.041451424,0.0006861394,-0.015149816,0.0048184404,-0.034751326,0.4789549,-1.3627498,1.881059,-2.0891187,-1.5691217,2.4581134,-0.18819681,0.1404423,-0.17527921,0.023785535,0.0111238025,-0.1533603,-0.22984336,0.3256114,-9.634268,0.8627467,47.689575,-1.2667571,-2.2097917,-3.4325786,-0.1577732,0.25906783,-0.32380566,28.9375,30.3125,29.375,32.9375,35.4375,36.5
0.27805424,-0.7368436,-0.940711,-0.789101,-0.06290252,0.06845325,-0.15951079,-0.40692365,-0.36312088,0.060043227,3.0753257,-0.6308983,-0.00023737007,-0.12860015,0.042064223,-0.00081094255,-0.014259674,0.0020860047,-0.035695817,0.47861803,-1.3625201,1.8807114,-2.0890348,-1.5691098,2.4577765,-0.190278,0.14464046,-0.17703436,0.024183664,0.011599909,-0.1544954,-0.26815057,0.3256114,-9.768343,0.86945957,47.675243,-1.2051597,-2.3063483,-3.374259,-0.1866512,0.25829342,-0.36126208,28.9375,30.3125,29.375,32.9375,35.4375,36.5
0.2800533,-0.90208364,-1.5800053,-0.92886966,-0.062553324,0.078134574,-0.16013318,-0.40718132,-0.36302832,0.060035538,3.0752723,-0.63102233,-0.00022806131,-0.12956674,0.041853372,0.0010165406,-0.016427113,0.005191203,-0.036846522,0.47822204,-1.3622327,1.8803762,-2.088999,-1.569085,2.457465,-0.19095406,0.1421787,-0.17824902,0.024111724,0.012096784,-0.15402064,-0.2681506,0.40222588,-9.883265,0.90750587,47.71017,-1.1739097,-2.2164104,-3.3710666,-0.17895594,0.25972238,-0.38046667,28.9375,30.3125,29.375,32.9375,35.4375,36.5
0.2820536,-0.9379227,-1.4961939,-0.9433227,-0.06715337,0.08912922,-0.17359602,-0.40745547,-0.3629349,0.060032748,3.0752323,-0.63118374,-0.00023985676,-0.13059495,0.042323805,5.3028485e-05,-0.01707432,0.0034351347,-0.032278564,0.47782534,-1.3619195,1.8799933,-2.088939,-1.5690845,2.4571743,-0.19337331,0.14495632,-0.17934051,0.023698809,0.013492699,-0.16100688,-0.3256114,0.4213795,-9.883265,0.8605109,47.675243,-1.1100793,-2.3555427,-3.3601146,-0.1807172,0.26266453,-0.324574,28.9375,30.3125,29.375,32.9375,35.4375,36.5
0.2840536,-1.1406599,-1.7956064,-1.0177138,-0.05898804,0.09294847,-0.17178234,-0.40772846,-0.3628626,0.060043328,3.0751028,-0.6313024,-0.00020009645,-0.13199137,0.042792756,-0.0009232797,-0.016808454,0.0025554514,-0.025022445,0.47740695,-1.3616301,1.8796114,-2.0888913,-1.5689887,2.4568467,-0.19536345,0.14837724,-0.18110359,0.022981182,0.013681518,-0.17025144,-0.3256114,0.38307226,-9.959879,0.800085,47.675243,-1.0245908,-2.346867,-3.3533764,-0.17757016,0.2711447,-0.26047957,28.9375,30.3125,29.375,32.9375,35.4375,36.5
0.28605375,-1.2614552,-0.7664541,-0.8925285,-0.058179315,0.07789798,-0.17125112,-0.40800554,-0.36276707,0.06003475,3.0750806,-0.63139355,-0.000265612,-0.13246477,0.043501537,-0.0019362966,-0.017037835,0.0008157495,-0.017901672,0.47701967,-1.3613173,1.8792528,-2.0888793,-1.5690125,2.4565194,-0.19746715,0.15011871,-0.18080443,0.022394305,0.014707848,-0.17947523,-0.2681506,0.28730422,-9.921572,0.8537928,47.691364,-1.1321193,-2.4687123,-3.4300687,-0.15783806,0.27077758,-0.11177478,28.9375,30.3125,29.375,32.9375,35.4375,36.5
0.28805414,-0.34431112,-0.38487703,-0.7684364,-0.040440783,0.08450906,-0.1747589,-0.40826544,-0.36269784,0.06005603,3.0750074,-0.631338,-0.00030631834,-0.1341949,0.04338359,-0.0011132131,-0.018271036,0.0033229352,-0.015504592,0.47664756,-1.3610648,1.8788937,-2.0888445,-1.5689644,2.4561222,-0.19862755,0.15066622,-0.1831367,0.02140626,0.014667874,-0.1830308,-0.36391866,0.24899697,-9.959879,0.84484416,47.68599,-1.0369495,-2.4494405,-3.561489,-0.15349081,0.2624406,-0.070147485,28.9375,30.3125,29.375,32.9375,35.4375,36.5
0.2900542,-0.1747672,0.15330023,-0.44948238,-0.029870655,0.0791002,-0.16825029,-0.40854406,-0.36260527,0.060040865,3.074947,-0.6314233,-0.00029694647,-0.13418822,0.042916782,-0.0020718253,-0.018420827,0.0022899904,-0.017951045,0.47622758,-1.3607397,1.8785352,-2.0888321,-1.5689281,2.4557633,-0.19807799,0.15300535,-0.18357828,0.020363325,0.015274568,-0.18003386,-0.51714754,0.11492168,-9.749189,0.89631605,47.678825,-1.1357828,-2.5516562,-3.5462308,-0.119632214,0.2639587,-0.04208143,28.9375,30.3125,29.375,32.9375,35.4375,36.5
0.2920533,-0.9721152,0.08475051,-0.29969367,-0.00794218,0.059653323,-0.16484194,-0.40880936,-0.36252022,0.06003766,3.0749118,-0.63145685,-0.0002628221,-0.13377553,0.041743312,-0.0023186922,-0.017609095,0.0023129396,-0.021758847,0.47583264,-1.3604277,1.8781518,-2.0887606,-1.5688928,2.455394,-0.19517197,0.15478161,-0.18525322,0.020616256,0.014532037,-0.17331944,-0.51714754,0.19153613,-9.557653,0.9097417,47.703903,-1.3571975,-2.3813353,-3.4906173,-0.10998009,0.26611766,-0.11403395,28.9375,30.3125,29.375,32.9375,35.4375,36.5
0.2940535,-0.16601971,0.73915696,-0.033074774,-0.0060035,0.08447795,-0.1739385,-0.4091203,-0.36245733,0.060087718,3.074768,-0.6315843,-0.00045388262,-0.13343318,0.041217163,-0.0021062314,-0.018170897,0.002096022,-0.02917021,0.4754492,-1.360164,1.8777217,-2.0887606,-1.56888,2.455109,-0.19422595,0.15469122,-0.18578508,0.021164339,0.015147974,-0.16495937,-0.49799395,0.11492168,-9.5385,0.8179876,47.68062,-1.4978509,-2.3662736,-3.5194626,-0.07976596,0.26952013,-0.18372348,28.9375,30.3125,29.375,32.9375,35.4375,36.5
0.29605353,-0.2139431,0.79622906,0.018842692,0.008224966,0.07736268,-0.1735497,-0.4093989,-0.36235926,0.060069535,3.0747046,-0.6318055,-0.00042865906,-0.13450463,0.042022433,-0.002969498,-0.017468521,0.00043647215,-0.03628403,0.47502843,-1.3598274,1.8773502,-2.088724,-1.5688561,2.4548345,-0.19645089,0.15745431,-0.18732622,0.021740163,0.015275126,-0.16006961,-0.26815057,0.0,-9.481039,0.90527004,47.674347,-1.4588954,-2.4885514,-3.4175706,-0.079594836,0.27005285,-0.27208254,28.9375,30.3125,29.375,32.9375,35.4375,36.5
0.29805437,-0.14244546,0.67723644,0.340479,0.008941959,0.05719188,-0.17354733,-0.40966186,-0.36226997,0.060061347,3.0746799,-0.63180417,-0.0004453371,-0.13704245,0.042716354,-0.0012078376,-0.01953088,0.0028246953,-0.045293543,0.47464323,-1.359528,1.8770036,-2.0886996,-1.5688437,2.4544518,-0.20013504,0.1567075,-0.19070457,0.022793718,0.01600988,-0.15474264,-0.1340753,-0.076614454,-9.212888,0.90750587,47.690468,-1.4708753,-2.421206,-3.3748553,-0.06511118,0.25542507,-0.37417626,28.9375,30.3125,29.375,32.9375,35.4375,36.5
0.30005357,0.116688974,0.74415845,0.41973084,0.02062748,0.0368126,-0.16606198,-0.40994033,-0.36221328,0.060073525,3.0745633,-0.631915,-0.00047507902,-0.13947174,0.04289497,0.00021799984,-0.02055342,0.0055983667,-0.048734844,0.4742706,-1.3592161,1.8765959,-2.0886757,-1.5687841,2.4541636,-0.20218462,0.1572202,-0.19473127,0.02338709,0.015658017,-0.1533486,-0.21068975,-0.15322891,-9.097966,0.87393653,47.684196,-1.4197917,-2.3136663,-3.35299,-0.05974824,0.27308902,-0.44176948,28.9375,30.3125,29.375,32.9375,35.4375,36.5
0.30205435,0.47509125,0.97622967,0.304904,0.034882706,0.017621662,-0.18126439,-0.4102486,-0.3621099,0.06009178,3.0744371,-0.63211954,-0.0005163981,-0.14225945,0.04360357,0.0015014058,-0.021782454,0.008348616,-0.049046803,0.47380155,-1.3589281,1.8762001,-2.0886395,-1.5687364,2.4538386,-0.20553732,0.15768477,-0.19825462,0.023459256,0.015513085,-0.15638712,-0.05746084,-0.095768064,-9.078813,0.94331104,47.68062,-1.3753529,-2.3434572,-3.2057014,-0.02206949,0.2795017,-0.48955175,28.9375,30.3125,29.375,32.9375,35.4375,36.5
0.3040533,0.63900095,1.1398273,0.13096459,0.034900006,0.0036664966,-0.18218859,-0.41049668,-0.36203057,0.06007049,3.074411,-0.6322174,-0.00043733444,-0.14286332,0.043993514,0.0017237572,-0.021796348,0.008405904,-0.038489748,0.47343206,-1.3585925,1.8758286,-2.0885675,-1.5687002,2.4535336,-0.20659149,0.15792823,-0.1992713,0.024210446,0.0155228255,-0.16799872,0.05746084,-0.05746084,-9.097966,0.87617236,47.709274,-1.4251139,-2.2076752,-3.1255267,-0.032503836,0.2897008,-0.39028454,28.9375,30.3125,29.375,32.9375,35.4375,36.5
0.30605367,1.2225177,0.8800038,0.15628113,0.029292956,0.020003492,-0.18480393,-0.41080374,-0.36195493,0.060099382,3.074336,-0.6321991,-0.0005579508,-0.14336248,0.04420028,0.0023080616,-0.021822125,0.008727577,-0.025822468,0.473033,-1.3582927,1.8753971,-2.0885432,-1.5686883,2.453133,-0.20717262,0.15772676,-0.2007066,0.025585042,0.015452194,-0.18124531,0.05746084,0.038307227,-9.136273,0.83589023,47.703903,-1.3390677,-2.2106342,-3.1579747,-0.009605944,0.29326165,-0.29391205,28.9375,30.3125,29.375,32.9375,35.4375,36.5
0.30805388,0.5568671,0.643351,0.32128116,0.004359933,0.031436082,-0.1880895,-0.41108963,-0.36184058,0.060094684,3.074306,-0.63230723,-0.0005434282,-0.14425224,0.045598887,0.0014215915,-0.02063939,0.0062510087,-0.021933436,0.47258767,-1.3579799,1.8750151,-2.0884707,-1.5686764,2.4527593,-0.21019644,0.15993528,-0.20176744,0.027204003,0.015549696,-0.18815766,-0.05746084,0.095768064,-9.193734,0.88960326,47.66091,-1.1640643,-2.2892308,-3.2091274,-0.022809813,0.30062822,-0.18818289,28.9375,30.3125,29.375,32.9375,35.4375,36.5
0.31005332,-0.05907656,-0.20580637,-0.0569452,-1.5560403e-05,0.042941574,-0.18128736,-0.41136405,-0.36173645,0.060081605,3.0742812,-0.63241243,-0.0005199875,-0.14563975,0.046544936,0.0024468533,-0.020998033,0.0069810147,-0.022310855,0.4721696,-1.3576567,1.8746423,-2.0884106,-1.5686644,2.4524102,-0.21283148,0.15927058,-0.20376156,0.029063154,0.015546053,-0.19041508,-0.1340753,0.15322891,-9.289502,0.83365434,47.66987,-1.1449981,-2.0254488,-3.1316328,-0.027945245,0.29642034,-0.12425968,28.9375,30.3125,29.375,32.9375,35.4375,36.5
0.31205356,-0.7393725,-0.4413344,-0.18153201,-0.02897202,0.049732808,-0.17832722,-0.41162983,-0.36164522,0.060091976,3.074232,-0.632468,-0.00047084052,-0.14565733,0.047153037,0.001851607,-0.02026842,0.0044342894,-0.028103039,0.47175843,-1.3573686,1.8742474,-2.088302,-1.5686158,2.4520402,-0.21403527,0.16065922,-0.20458817,0.031105343,0.016052928,-0.18582611,-0.22984336,0.17238252,-9.32781,0.8493211,47.719128,-1.0670835,-2.038879,-3.216435,-0.038086604,0.2912744,-0.16477858,28.9375,30.3125,29.375,32.9375,35.4375,36.5
0.3140539,-0.7077638,-0.26474836,-0.31603923,-0.04174281,0.06614269,-0.18473037,-0.4119526,-0.36154422,0.06009506,3.0741415,-0.6326646,-0.0004771866,-0.1452979,0.048380386,0.0010614838,-0.018663032,0.0012009266,-0.036143463,0.47129005,-1.3570087,1.8737935,-2.0882409,-1.56858,2.4517064,-0.21564117,0.1614322,-0.20437747,0.033731617,0.016095817,-0.17939125,-0.4596867,0.17238252,-9.385271,0.8537928,47.70032,-0.99820745,-1.9666766,-3.3515828,-0.080262065,0.32143164,-0.23010282,28.9375,30.3125,29.375,32.9375,35.4375,36.5
0.31605414,-0.8761842,-0.13409269,-0.24996859,-0.04162299,0.07351899,-0.18637437,-0.41221002,-0.36147085,0.060088642,3.0741036,-0.63265365,-0.00040267856,-0.14617439,0.047720734,-5.0990643e-06,-0.01890229,-0.0010195625,-0.039727442,0.4709092,-1.3566833,1.8733972,-2.088157,-1.5685195,2.4513237,-0.21589322,0.16611744,-0.2077834,0.034327757,0.017304573,-0.17605695,-0.59376204,0.11492168,-9.500193,0.83589023,47.694946,-1.0296917,-2.135823,-3.3069477,-0.087690786,0.2849109,-0.30953762,28.9375,30.3125,29.375,32.9375,35.4375,36.5
0.3180541,-1.1998821,-0.29675063,-0.370989,-0.022918044,0.08269526,-0.17656615,-0.4125206,-0.36138502,0.06008272,3.0740235,-0.63279134,-0.00041207377,-0.1464623,0.047407664,-0.00012696395,-0.018891888,-7.4108735e-05,-0.043219958,0.4704773,-1.3563116,1.8729552,-2.0881221,-1.5684837,2.4509883,-0.21518631,0.16692576,-0.20827681,0.033180844,0.016863426,-0.171857,-0.4405331,0.076614454,-9.519346,0.91198283,47.67345,-1.2192833,-1.9990922,-3.426343,-0.09732026,0.30388576,-0.37830517,28.9375,30.3125,29.375,32.9375,35.4375,36.5
0.32005408,-1.4084532,0.39291742,-0.053687643,-0.011004962,0.08199418,-0.17277075,-0.41280046,-0.3612605,0.060083546,3.073984,-0.6329745,-0.0003850301,-0.14554392,0.047115747,-0.0014871261,-0.018209279,-0.0024502813,-0.040900405,0.47002158,-1.3560233,1.8725842,-2.0880263,-1.5684713,2.4506521,-0.21405488,0.16892725,-0.20759337,0.032934453,0.017336048,-0.17304505,-0.6512229,0.1340753,-9.5385,0.79560274,47.688675,-1.4172621,-2.2702632,-3.4698784,-0.09616351,0.2869161,-0.3642156,28.9375,30.3125,29.375,32.9375,35.4375,36.5
0.3220544,-0.5091332,0.41283625,-0.09984145,0.0047512935,0.104343615,-0.17993972,-0.41311103,-0.36118242,0.060096372,3.0738726,-0.63306427,-0.00041292564,-0.14616247,0.04831914,-0.0026678713,-0.017125908,-0.005674053,-0.038356505,0.46958855,-1.3556864,1.8721412,-2.08799,-1.5684112,2.4502897,-0.2167548,0.17161897,-0.20860048,0.034643337,0.01785679,-0.17828678,-0.45968673,0.17238252,-9.5385,0.9365982,47.690468,-1.4521849,-2.288691,-3.5131974,-0.0938672,0.2926578,-0.3739171,28.9375,30.3125,29.375,32.9375,35.4375,36.5
0.32405376,-0.376236,0.40836608,-0.31473053,0.009098044,0.08381456,-0.1949785,-0.4133913,-0.3610976,0.060088914,3.0738597,-0.63303655,-0.00038905718,-0.14760293,0.048701752,-0.0024602378,-0.016944682,-0.0051038684,-0.029749349,0.4691925,-1.3553379,1.8717216,-2.0879176,-1.5683874,2.4498782,-0.21823664,0.17316768,-0.21112648,0.035230827,0.017456153,-0.18837519,-0.15322891,0.05746084,-9.519346,0.87617236,47.687782,-1.451847,-2.3144639,-3.4512918,-0.10775388,0.29056048,-0.29634923,28.9375,30.3125,29.375,32.9375,35.4375,36.5
0.3260541,0.06068405,0.69886917,-0.12041831,-0.011086846,0.05919856,-0.19022799,-0.4137017,-0.36097607,0.060096912,3.0738316,-0.63314027,-0.00040371704,-0.1468184,0.048711896,-0.0035431879,-0.015234788,-0.007971531,-0.018350856,0.46872437,-1.3550135,1.8712906,-2.0878212,-1.5683879,2.4494786,-0.2173029,0.17526732,-0.21166655,0.037035804,0.017255729,-0.19883966,-0.22984336,0.1340753,-9.461885,0.8537928,47.711063,-1.4707541,-2.4594333,-3.5038073,-0.12865788,0.29880914,-0.15557672,28.9375,30.3125,29.375,32.9375,35.4375,36.5
0.32805437,0.16538155,0.026243493,0.007421467,-0.026547264,0.04907425,-0.18626873,-0.41400942,-0.36090794,0.06011142,3.073718,-0.6331537,-0.0004362317,-0.14809285,0.04924903,-0.0028013259,-0.014885416,-0.006854568,-0.016844755,0.46830416,-1.3546778,1.8708476,-2.087797,-1.5683159,2.4490817,-0.21864083,0.17550379,-0.21397316,0.038298532,0.016460558,-0.20168236,-0.34476504,0.1340753,-9.423578,0.90750587,47.66808,-1.4840496,-2.360865,-3.4559896,-0.17424145,0.30301347,-0.10948298,28.9375,30.3125,29.375,32.9375,35.4375,36.5
0.33005401,-0.36009526,-0.44652975,0.045536686,-0.029892007,0.037831612,-0.17573959,-0.414316,-0.36079395,0.060123973,3.073696,-0.63326776,-0.00046465464,-0.14986849,0.049910586,-0.0029814963,-0.014918689,-0.006412188,-0.023210606,0.46785957,-1.3543532,1.8704032,-2.0876896,-1.5683278,2.4487114,-0.22099033,0.17765419,-0.21611466,0.037875693,0.016278546,-0.19766495,-0.34476504,0.17238252,-9.32781,0.9164598,47.65464,-1.3841281,-2.5386875,-3.367509,-0.16168132,0.32240677,-0.080078535,28.9375,30.3125,29.375,32.9375,35.4375,36.5
0.33205366,-0.21663116,-0.24443768,-0.1843811,-0.01790365,0.034513872,-0.17897354,-0.41460103,-0.3606947,0.060089085,3.0736592,-0.6333242,-0.00036210823,-0.15177716,0.0506093,-0.0026827643,-0.015579606,-0.0052350196,-0.034512587,0.46741444,-1.3539693,1.8700083,-2.087642,-1.5682677,2.4483063,-0.22364335,0.17880216,-0.21812926,0.037391208,0.016306063,-0.18901576,-0.17238252,0.076614454,-9.3661175,0.9455522,47.7254,-1.2993758,-2.3683643,-3.3396254,-0.16208681,0.3232467,-0.16847593,28.9375,30.3125,29.375,32.9375,35.4375,36.5
0.33405432,-0.42365828,-0.46131727,0.11864919,-0.01262261,0.036336042,-0.1730582,-0.4149096,-0.36058843,0.060077958,3.073576,-0.6335051,-0.00032981494,-0.15314011,0.052109804,-0.0018451392,-0.016067917,-0.005175651,-0.045994706,0.46694514,-1.3536103,1.8695892,-2.0875928,-1.5682195,2.4479609,-0.22738259,0.17779393,-0.2193001,0.0392932,0.016702715,-0.18127234,-0.2873042,0.11492168,-9.3661175,0.8224646,47.691364,-1.1558614,-2.2669153,-3.4011831,-0.18865573,0.32116196,-0.28497198,28.9375,30.3125,29.375,32.9375,35.4375,36.5
0.33605364,-0.37967274,0.30503938,0.4487226,-0.007177772,0.049047,-0.17886981,-0.41524526,-0.36049482,0.0601091,3.0734897,-0.6336437,-0.00038022763,-0.15502743,0.05215612,-0.00082280615,-0.017829651,-0.004040007,-0.054050118,0.4664889,-1.3532623,1.8690742,-2.087485,-1.5681952,2.4476025,-0.22952124,0.17856105,-0.2228041,0.040216517,0.01775797,-0.17535251,-0.61291564,0.15322891,-9.174581,0.83813137,47.675243,-1.1761237,-2.148588,-3.373143,-0.22007778,0.33329248,-0.36487037,28.9375,30.3125,29.375,32.9375,35.4375,36.5
0.33805397,0.0733047,0.70711464,0.0053832717,0.019387245,0.06591768,-0.19149908,-0.41552016,-0.3603741,0.060070667,3.073466,-0.63387316,-0.00024242827,-0.15636867,0.05330378,-0.0011644765,-0.018518029,-0.00484991,-0.060703363,0.46603164,-1.3528903,1.8686904,-2.0873892,-1.5681585,2.4472916,-0.23300451,0.1797584,-0.2235224,0.040154546,0.01871522,-0.17218293,-0.21068975,0.076614454,-9.289503,0.9768804,47.687782,-0.9958359,-2.1609812,-3.4998813,-0.22922537,0.32283673,-0.47582668,28.9375,30.3125,29.375,32.9375,35.4375,36.5
0.34005332,-0.37065285,0.74425256,-0.0012836636,0.017636443,0.055407472,-0.18710561,-0.41585967,-0.3602819,0.060104296,3.0733602,-0.63394856,-0.0002973478,-0.15679318,0.05267373,-0.0023225718,-0.018297218,-0.006936138,-0.057979804,0.46556106,-1.3525529,1.8681878,-2.0873053,-1.5681108,2.446882,-0.2325831,0.18394037,-0.22608578,0.040519763,0.019470893,-0.17448157,-0.15322891,0.038307227,-9.385271,0.84484416,47.661808,-1.0068283,-2.2200522,-3.3786402,-0.2504434,0.29654497,-0.47914934,28.9375,30.3125,29.375,32.9375,35.4375,36.5
0.34205368,-0.9660623,-0.21722788,0.3158483,0.0013420465,0.058399476,-0.18578297,-0.41616204,-0.36016545,0.060087007,3.0733197,-0.63408273,-0.00026265296,-0.15802208,0.051905002,-0.0007569253,-0.020171147,-0.003872622,-0.04647925,0.46509615,-1.3521937,1.8677796,-2.0872457,-1.568087,2.4465063,-0.23236026,0.18326788,-0.22885776,0.040427983,0.019790754,-0.18575858,-0.36391866,0.019153614,-9.212888,0.947788,47.7245,-1.1842929,-2.0312276,-3.3189425,-0.27478138,0.2965343,-0.43528348,28.9375,30.3125,29.375,32.9375,35.4375,36.5
0.34405363,-0.9113705,0.31247428,0.19440345,-0.0014278498,0.06830538,-0.17877942,-0.4164634,-0.3600693,0.0600799,3.0732768,-0.6341426,-0.00020195251,-0.15861356,0.051970784,-8.9194364e-05,-0.02003656,-0.0019952871,-0.033202384,0.46465185,-1.3518219,1.8673247,-2.0871499,-1.5680393,2.446105,-0.23223156,0.18275459,-0.22978547,0.04030805,0.018857332,-0.19890781,-0.40222588,-0.019153614,-9.059659,0.8224646,47.70032,-1.2118475,-2.136129,-3.2838519,-0.267152,0.3296417,-0.2940141,28.9375,30.3125,29.375,32.9375,35.4375,36.5
0.34605438,-0.0916532,0.97573996,-0.2541151,0.00039560365,0.08104508,-0.190447,-0.4167943,-0.35998687,0.060100853,3.073166,-0.6341722,-0.00019227165,-0.15887968,0.052244905,-0.0011720391,-0.019285986,-0.0039043566,-0.024821559,0.4641837,-1.3514614,1.8668226,-2.087066,-1.5679549,2.44567,-0.2328595,0.18542123,-0.23068973,0.040639043,0.019075759,-0.20791486,-0.17238252,-0.095768064,-9.385271,1.0015011,47.719128,-1.2933465,-2.199363,-3.2471418,-0.30306116,0.30059898,-0.18535611,28.9375,30.3125,29.375,32.9375,35.4375,36.5
0.34805378,-0.23159796,0.5104709,-0.07436974,-0.013560228,0.077936016,-0.18501343,-0.41708794,-0.35987642,0.060083453,3.0731828,-0.63419574,-0.00015057066,-0.1597316,0.051876616,-0.0012609963,-0.019854829,-0.0034517192,-0.024752913,0.46375164,-1.351089,1.8663901,-2.0869706,-1.5679549,2.4452505,-0.2329781,0.18719643,-0.23257491,0.040097516,0.019371934,-0.2081017,-0.13407528,0.095768064,-9.3661175,0.8605109,47.66987,-1.3605778,-2.1960661,-3.2988975,-0.30184487,0.30206287,-0.13663821,28.9375,30.3125,29.375,32.9375,35.4375,36.5
0.35005397,-0.6779839,-0.4145024,0.059059266,-0.021545874,0.06552519,-0.1717808,-0.41743377,-0.3597703,0.060099527,3.0731192,-0.63432133,-0.00022473572,-0.16081445,0.052888997,-0.0012513028,-0.01945385,-0.003195337,-0.034049973,0.46328324,-1.3507174,1.865888,-2.086899,-1.5679549,2.444869,-0.23509991,0.18774204,-0.23336147,0.040279113,0.018895093,-0.20092554,-0.47884035,0.17238252,-9.270349,0.94331104,47.695843,-1.3555489,-2.158934,-3.3459938,-0.32659453,0.3267327,-0.19217265,28.9375,30.3125,29.375,32.9375,35.4375,36.5
0.35205424,-0.38667503,-0.4613669,-0.047689922,-0.006700249,0.05823855,-0.17900267,-0.41774836,-0.35966018,0.060082983,3.0730553,-0.6344646,-0.000109458175,-0.16109985,0.052789036,-0.0018978895,-0.019537013,-0.0044086166,-0.040759318,0.4627911,-1.3503207,1.8654212,-2.0867908,-1.5678829,2.4444747,-0.23535036,0.18979244,-0.23446986,0.040388692,0.019488906,-0.19446628,-0.47884035,0.17238252,-9.212888,0.91421866,47.734352,-1.357635,-2.1969414,-3.3888652,-0.35490373,0.29505578,-0.26925775,28.9375,30.3125,29.375,32.9375,35.4375,36.5
0.35405368,-0.3729134,-0.13136308,-0.28081608,-0.017826427,0.05618128,-0.1824847,-0.41803953,-0.3595567,0.060053844,3.0730412,-0.6345789,-2.9814782e-05,-0.16298836,0.051744882,-0.0012856434,-0.022124754,-0.0012453517,-0.0448247,0.462359,-1.349925,1.8649896,-2.0867083,-1.5678586,2.4441159,-0.23555431,0.19141258,-0.23723942,0.037551478,0.020365195,-0.19060384,-0.19153613,0.21068975,-9.289503,0.90750587,47.684196,-1.4240136,-2.1093283,-3.5129864,-0.3485469,0.30363685,-0.3318755,28.9375,30.3125,29.375,32.9375,35.4375,36.5
0.35605404,-0.13647248,-0.3663912,-0.3339132,-0.024099,0.049942456,-0.17837445,-0.41838425,-0.35942036,0.060049858,3.0729878,-0.63476145,-6.065963e-05,-0.16493647,0.052454192,-0.0005854305,-0.02399472,0.0014583855,-0.048867177,0.46184215,-1.3495532,1.8645352,-2.0866492,-1.5678586,2.44372,-0.23845725,0.19103695,-0.23794004,0.035379626,0.020834131,-0.18946332,-0.21068975,0.22984336,-9.385271,0.900793,47.70211,-1.2567532,-2.1481795,-3.532847,-0.30700722,0.31141293,-0.39072055,28.9375,30.3125,29.375,32.9375,35.4375,36.5
0.35805362,0.079401314,-0.7830431,-0.24271491,-0.032229584,0.04417737,-0.1850376,-0.41869164,-0.35933098,0.06005397,3.0729015,-0.634819,6.0640423e-06,-0.166539,0.054586995,-0.0015958543,-0.022555484,0.00011221162,-0.04861814,0.4613846,-1.349193,1.8640679,-2.0865529,-1.5677747,2.4433098,-0.24277157,0.19321457,-0.23838814,0.03553798,0.020162182,-0.1940268,-0.11492168,0.34476504,-9.404425,0.95002913,47.691364,-1.2231472,-2.1810675,-3.5990322,-0.32374442,0.29114097,-0.3658187,28.9375,30.3125,29.375,32.9375,35.4375,36.5
0.36005506,-0.19562003,-0.8408315,-0.28829315,-0.043568186,0.03767572,-0.18201496,-0.41905338,-0.3592173,0.060054038,3.0728393,-0.6349344,-6.810825e-05,-0.16895996,0.055089112,-0.0011919955,-0.024317859,0.0017127498,-0.04106155,0.46089193,-1.3487847,1.8635653,-2.0865176,-1.5677742,2.4428976,-0.24596933,0.19482803,-0.2410753,0.034433443,0.021062588,-0.2047782,-0.095768064,0.2681506,-9.3661175,0.8627467,47.666286,-1.0472951,-2.1855938,-3.635936,-0.3058395,0.28863937,-0.2714242,28.9375,30.3125,29.375,32.9375,35.4375,36.5
0.36205345,-0.7674406,-0.9113418,-0.56005406,-0.032535516,0.02217415,-0.1763724,-0.41938898,-0.3591044,0.06004855,3.0727534,-0.6350067,3.8533854e-05,-0.1693539,0.05386861,-0.0022950724,-0.024951994,-0.00042653133,-0.030049222,0.46036446,-1.348388,1.8630728,-2.0864098,-1.5676774,2.4424264,-0.24498713,0.1994389,-0.2443009,0.03473942,0.0226027,-0.21480565,-0.095768064,0.24899697,-9.442732,0.93436235,47.7245,-1.0274277,-2.2483156,-3.4744546,-0.30472195,0.2782178,-0.15965429,28.9375,30.3125,29.375,32.9375,35.4375,36.5
0.36405388,-0.23526251,-0.4532512,-0.64762515,-0.025215628,0.0447189,-0.18121748,-0.4197143,-0.3590095,0.060039055,3.0726945,-0.6350905,1.7095621e-05,-0.17065111,0.05354385,-0.0017147065,-0.026417356,0.0014241487,-0.028318567,0.45992023,-1.3479916,1.8626059,-2.086374,-1.5676535,2.4420424,-0.24563709,0.2001296,-0.24629974,0.033759642,0.023105558,-0.21718441,-0.11492168,0.21068975,-9.557653,0.8985519,47.705692,-1.1369811,-2.3128238,-3.408053,-0.3038479,0.26083434,-0.079097554,28.9375,30.3125,29.375,32.9375,35.4375,36.5
0.36605412,-0.32836378,-0.43030727,-0.45838258,-0.03308562,0.07041688,-0.1748062,-0.42005584,-0.35889062,0.060028978,3.0726428,-0.6351981,5.0716095e-05,-0.17243513,0.053881273,-0.0014253632,-0.027382504,0.0033978107,-0.03389744,0.4594153,-1.3475835,1.8621153,-2.086291,-1.5676173,2.4416115,-0.24746606,0.20120458,-0.24796975,0.032165594,0.023085348,-0.21343394,-0.4405331,0.26815057,-9.442732,0.88289046,47.71823,-1.1064849,-2.4221973,-3.509184,-0.275064,0.24095997,-0.087880135,28.9375,30.3125,29.375,32.9375,35.4375,36.5
0.3680536,-1.0826857,-0.5886433,-0.47220358,-0.03192239,0.08005452,-0.17664792,-0.42041835,-0.35877907,0.060037207,3.0725064,-0.6353529,2.851769e-05,-0.17355959,0.053076766,-0.0011742148,-0.028653765,0.005112433,-0.04304383,0.458884,-1.3471996,1.8616232,-2.0862558,-1.5675453,2.4411948,-0.24705838,0.20284687,-0.2502675,0.030716296,0.023456786,-0.20387691,-0.4213795,0.21068975,-9.404425,0.8627467,47.690468,-1.0227354,-2.4227211,-3.426125,-0.2681922,0.2475662,-0.17800334,28.9375,30.3125,29.375,32.9375,35.4375,36.5
0.37005395,-1.6726222,-1.0193695,-0.61182225,-0.016430566,0.072484106,-0.16263154,-0.42077023,-0.35868755,0.060041606,3.0723765,-0.635517,2.3147944e-05,-0.17556638,0.052548006,0.0005975043,-0.030848056,0.008476074,-0.05291609,0.45839542,-1.346792,1.8611082,-2.0862076,-1.5674733,2.4408257,-0.24790597,0.20262761,-0.2540948,0.030770246,0.02392518,-0.1948493,-0.38307226,0.17238252,-9.423578,0.85826975,47.67345,-1.1372691,-2.4427855,-3.3496175,-0.24960431,0.22267082,-0.28076386,28.9375,30.3125,29.3125,32.9375,35.4375,36.5
0.37205335,-1.480976,-0.7183271,-0.24685723,-0.031842574,0.08221113,-0.17257927,-0.42109495,-0.35856602,0.060013242,3.072386,-0.63563657,0.000121589816,-0.17640987,0.052552253,0.0006117614,-0.031305738,0.008270025,-0.059850544,0.45791563,-1.346348,1.8606037,-2.0860755,-1.5674609,2.4404194,-0.24870265,0.20408107,-0.25609124,0.03128762,0.02440457,-0.188712,-0.63206923,0.24899697,-9.251195,0.91421866,47.68599,-1.2652097,-2.2868505,-3.1981273,-0.24829352,0.20499614,-0.39964396,28.9375,30.3125,29.3125,32.9375,35.4375,36.5
0.37405357,-1.0814011,-0.26749513,-0.24925435,-0.035757873,0.099275485,-0.17830822,-0.42146668,-0.35847595,0.06002261,3.0722115,-0.6358511,0.000109380606,-0.17663763,0.052013192,0.001074998,-0.03244319,0.009235507,-0.06116291,0.4573995,-1.3459283,1.8600653,-2.0860403,-1.567365,2.4400601,-0.248128,0.20397039,-0.25700486,0.030965557,0.025017705,-0.18682227,-0.78529817,0.15322891,-9.423578,0.9545008,47.70211,-1.3756058,-2.3705022,-3.3086195,-0.23704731,0.17783996,-0.49955863,28.9375,30.3125,29.3125,32.9375,35.4375,36.5
0.37605375,-0.7606587,-0.3407574,-0.550072,-0.00758367,0.106852904,-0.17020167,-0.4218235,-0.35835415,0.060009383,3.0721116,-0.6360735,0.00012587765,-0.17653587,0.051794175,0.0005455568,-0.032432094,0.008848227,-0.053158026,0.456872,-1.3455085,1.8595747,-2.085992,-1.5673169,2.4396846,-0.24757348,0.20512126,-0.2571418,0.030351525,0.025212219,-0.19427192,-0.53630114,0.15322891,-9.5385,0.8806493,47.729877,-1.4952521,-2.3151522,-3.4668078,-0.21100332,0.16015616,-0.49284744,28.9375,30.3125,29.3125,32.9375,35.4375,36.5
