Tylouw/Master_Thesis_Code/test_recorded_data/devi_test/insertion_1_2026-01-26_14-36-54.csv
num_insertion,tcp_force_x[N],tcp_force_y[N],tcp_force_z[N],tcp_force_rx[Nm?],tcp_force_ry[Nm?],tcp_force_rz[Nm?],tcp_pose_x[m],tcp_pose_y[m],tcp_pose_z[m],tcp_pose_rx[rot_vec_x],tcp_pose_ry[rot_vec_y],tcp_pose_rz[rot_vec_z],tcp_velo_x[m/s],tcp_velo_y[m/s],tcp_velo_z[m/s],tcp_velo_rx[rot_vec_x/s],tcp_velo_ry[rot_vec_y/s],tcp_velo_rz[rot_vec_z/s],q1[rad],q2[rad],q3[rad],q4[rad],q5[rad],q6[rad],qd1[rad/s],qd2[rad/s],qd3[rad/s],qd4[rad/s],qd5[rad/s],qd6[rad/s],tool_acc_x,tool_acc_y,tool_acc_z,current_of_whole_robot[A],voltage_of_whole_robot[V],current_J1[A],current_J2[A],current_J3[A],current_J4[A],current_J5[A],current_J6[A],temp_J1[C],temp_J2[C],temp_J3[C],temp_J4[C],temp_J5[C],temp_J6[C]
1.0,1.5825020908321763,1.303987315172494,-0.204699859840238,0.04101692213424364,-0.05592298975000623,-0.106334030614843,-0.5384178453557844,-0.32446435447413086,0.059962984912974526,-3.0785669826814965,0.624955792016998,-0.00014188742516962855,0.0017498266990608365,-0.0013251503137757252,-0.00030774215411222733,-0.0006764577278450982,0.0023886588859969187,0.0032213201926576816,0.32678961753845215,-1.1525379580310364,1.6634205023394983,-2.080008169213766,-1.571357552205221,2.3018932342529297,0.00302417972125113,-0.0025900639593601227,0.005516850855201483,-0.005405736621469259,-0.00012675569450948387,-0.00019896037701983005,0.6320692300796509,-0.3064578175544739,-9.327810287475586,0.7530794739723206,47.671661376953125,-0.18995392322540283,-4.402514457702637,-2.8814077377319336,-0.43165159225463867,-0.027652233839035034,-0.2564713656902313,27.6875,28.875,28.125,32.0625,34.625,35.875
1.0,2.1065163217413287,1.613058423788677,-0.15451009868175353,0.05974817974617978,-0.06763564339647074,-0.11176990855133814,-0.538423742421678,-0.3244777682423942,0.05998782657119939,-3.078614636182801,0.624926789692489,-6.884229740026505e-05,-0.00010862417872500713,-0.001504529853707947,0.0007471598030101544,-0.0015737310331602786,0.005001988696579094,0.0024985555147790024,0.3268013894557953,-1.152573512201645,1.6634190718280237,-2.080032011071676,-1.571345631276266,2.3018808364868164,0.00232151267118752,-0.0016438813181594014,0.0018151204567402601,-0.005413256119936705,-0.00012425563181750476,-0.00017909669259097427,0.5746084451675415,-0.28730422258377075,-9.21288776397705,0.8112748265266418,47.68240737915039,-0.19588226079940796,-4.471415042877197,-2.6467714309692383,-0.4200204014778137,-0.014839708805084229,-0.2976491451263428,27.6875,28.875,28.125,32.0625,34.625,35.875
1.0,0.49896072650316536,0.36269147559796633,-0.5227094917003068,0.01896330468475495,-0.04479420389959937,-0.10338477891693486,-0.5384322203496643,-0.3244728807901063,0.06001428574598225,-3.0785968495692977,0.6249435463989438,-3.233864048921599e-05,-0.001789525096679792,-0.00143511177130586,0.00228839240661663,-0.0021502732924617647,0.006726129261547942,0.0015561700398288808,0.32680103182792664,-1.1525973838618775,1.6633814016925257,-2.0799833736815394,-1.571369473134176,2.3018932342529297,0.001336422050371766,-0.0013742110459133983,-0.002565758302807808,-0.0031199867371469736,-0.00013603993284050375,-0.00022125837858766317,-0.09576806426048279,0.13407529890537262,-9.327810287475586,0.7172743082046509,47.660911560058594,-0.20246116816997528,-3.9981460571289062,-2.0791916847229004,-0.4654073119163513,-0.020635703578591347,-0.2840159833431244,27.6875,28.875,28.125,32.0625,34.625,35.875
1.0,-1.215969183966426,-1.6218607202062825,-0.4723622541387873,-0.04226051528293197,0.024233257736658933,-0.09284279470654307,-0.5383974956678496,-0.3244840942384166,0.059974248750783915,-3.0785967456683268,0.6248280553627751,-0.0001686959382992108,0.0006466288180072405,-0.00045203717639382107,-2.0444380405466167e-05,-0.0001212139000380558,0.0007759258487741577,0.001308386341282698,0.32682493329048157,-1.1525613826564332,1.6634190718280237,-2.079970499078268,-1.571345631276266,2.301845073699951,0.0011021175887435675,-0.0010225479491055012,0.0018228319240733981,-0.001573579153046012,-0.00013403552293311805,-0.00020665601186919957,-0.2298433631658554,0.19153612852096558,-9.404424667358398,0.7150384783744812,47.65911865234375,-0.19627472758293152,-3.989887237548828,-2.235656499862671,-0.5132521390914917,-0.026916593313217163,-0.31026554107666016,27.6875,28.875,28.125,32.0625,34.625,35.875
1.0,-2.3936613032156275,-2.7682630644154154,-0.21711106047692913,-0.09425509610123929,0.09705566544689968,-0.09587691313663337,-0.5383837929186469,-0.32446026354727964,0.05996671309804075,-3.0785383188167033,0.6248927614870838,-0.0001764524070692817,0.0036194101308930993,0.0005764972496811132,-0.002951195099489918,0.0021674347527379126,-0.005936465056695435,0.0012723828231867482,0.32681286334991455,-1.152585194712021,1.663469139729635,-2.0799700222411097,-1.5713813940631312,2.3018808364868164,0.0010796916903927922,-0.000566408853046596,0.007638575043529272,-0.0007536372868344188,-0.00013161968672648072,-0.0001920965441968292,-0.26815059781074524,0.28730422258377075,-9.366117477416992,0.7195101380348206,47.617923736572266,-0.1847306787967682,-4.00085973739624,-2.6279497146606445,-0.5571443438529968,-0.038093648850917816,-0.29277801513671875,27.6875,28.875,28.125,32.0625,34.625,35.875
1.0,-3.1795338107327122,-2.4966956392987045,0.09138505436332431,-0.09049415266277049,0.0941076939081262,-0.08794185024732486,-0.5383911399970586,-0.3244858971825978,0.05999338630811224,-3.07859619365973,0.6248660973342192,-0.00011241920816254674,0.0026861929763711406,0.0003694972767860003,-0.00281691904717803,0.00184824798394084,-0.005017573905620168,0.0011414896301356113,0.32683688402175903,-1.1526087087443848,1.6634443441974085,-2.079982896844381,-1.571357552205221,2.3018808364868164,0.0009060599259100854,0.000700141245033592,0.005624073091894388,-0.0009784206049516797,-0.00012925907503813505,-0.0002349372225580737,-0.26815059781074524,0.2106897532939911,-9.28950309753418,0.8023208975791931,47.685096740722656,-0.18595510721206665,-3.9599313735961914,-2.529651641845703,-0.6034433841705322,-0.026553209871053696,-0.2945181727409363,27.6875,28.875,28.125,32.0625,34.625,35.875
1.0,-1.1588707317915081,-0.8031212843658875,0.03748931632070913,-0.03470985931183538,0.07206658256018164,-0.10457781631075444,-0.5383784929668571,-0.32449715353175146,0.059988376108686015,-3.0785951096185515,0.6248472953681857,-0.00012530157460170516,4.23269837019492e-05,-0.0005710766443404017,-0.0013135295830103322,-0.0008047194425088406,0.0027409275054095282,0.0011828425361076038,0.32686087489128113,-1.1526087385467072,1.6634562651263636,-2.079985281030172,-1.571357552205221,2.3018932342529297,0.0009630810818634927,0.0006463413592427969,0.0036984561011195183,-0.007198549807071686,-0.00012697948841378093,-0.00022196880308911204,-0.3447650372982025,0.24899697303771973,-9.155426979064941,0.7530794739723206,47.674346923828125,-0.23872488737106323,-3.960108757019043,-2.236945152282715,-0.609063982963562,-0.02864786610007286,-0.3161155581474304,27.6875,28.875,28.125,32.0625,34.625,35.875
1.0,-0.20080551934278765,0.5971094874771496,-0.055355462218429116,0.03259907163632593,0.0036603478652522028,-0.10309331841902436,-0.5383965541689353,-0.3245075947887724,0.059975037394773195,-3.0786213524713326,0.6247934639815349,-4.822380213148499e-05,-0.0020713243388801495,-0.0021360066806056393,0.0001447387152121045,-0.003455023890662978,0.010492471693753835,0.002597641722437095,0.326873242855072,-1.15257282674823,1.6634557882892054,-2.0800706348814906,-1.571369473134176,2.3018686771392822,0.0022606360726058483,0.0003706705756485462,0.0022366694174706936,-0.013653220608830452,-0.00012477878772187978,-0.00034200429217889905,-0.26815056800842285,0.2298433631658554,-9.136273384094238,0.8247004151344299,47.702110290527344,-0.25105392932891846,-3.77608585357666,-2.114579677581787,-0.5560793280601501,-0.04191442206501961,-0.3089616298675537,27.6875,28.875,28.125,32.0625,34.625,35.875
1.0,0.3100145662377086,0.7726316703620061,-0.0523376694774255,0.042760630117621684,-0.02598772434042659,-0.10828186717489784,-0.538406972749919,-0.32450687913859233,0.0599910609852945,-3.0786700664352407,0.6248029315901646,-2.6082458832161405e-05,-0.0028702162609881947,-0.0022868638979095333,0.00023929083227820628,-0.004390286184868134,0.013222925180216843,0.0035573176556593813,0.3268492519855499,-1.1525967580131073,1.6634557882892054,-2.0800839863219203,-1.5713337103473108,2.301844358444214,0.0020716944709420204,0.0004195914079900831,0.0027277935296297073,-0.01707959920167923,-0.00012265324767213315,-0.0014919476816430688,-0.24899697303771973,0.15322890877723694,-9.193734169006348,0.6792280077934265,47.69584274291992,-0.24460822343826294,-3.8222527503967285,-2.0981884002685547,-0.5031579732894897,-0.022952772676944733,-0.326688289642334,27.6875,28.875,28.125,32.0625,34.625,35.875
1.0,0.03549244276676347,0.4955803896026705,-0.023557214074444704,0.014021487355244432,-0.03035652856560144,-0.10504755101343649,-0.5383979050134499,-0.32449991260575073,0.059987629664241704,-3.078646137630805,0.6248364945308206,-3.39525255081577e-05,-0.0021124103147170882,-0.0018067825236701594,-0.0005745990052024031,-0.0036781340847988615,0.011130166645320464,0.004035640473754724,0.326849102973938,-1.1526087385467072,1.6634801069842737,-2.080083509484762,-1.571345631276266,2.301868200302124,0.0017297131707891822,0.0005775656318292022,0.004225242882966995,-0.016524551436305046,-0.00012059888103976846,-0.002311855787411332,-0.24899697303771973,0.019153613597154617,-9.059659004211426,0.7441308498382568,47.685096740722656,-0.30386412143707275,-3.6578121185302734,-2.040297031402588,-0.5032220482826233,-0.041209474205970764,-0.3037266135215759,27.6875,28.875,28.125,32.0625,34.625,35.875
1.0,0.17126836702882306,0.22843436604279682,0.40439626565744685,-0.025125370777110006,0.005688712634244836,-0.10384405187873404,-0.53842815026616,-0.32448701828090853,0.0599840314159949,-3.078656928822069,0.6248005980345476,4.922876102476086e-05,-0.001521084922642967,-0.0012098971144621988,-0.0014235402076181887,-0.002915598918799498,0.008931867324957656,0.003804930938199006,0.32682493329048157,-1.1525846284678956,1.6634681860553187,-2.0801431141295375,-1.571369473134176,2.3018202781677246,0.0011268091620877385,0.0010100235231220722,0.005379049573093653,-0.01578414812684059,-0.0001322822499787435,-0.0026835575699806213,-0.1149216815829277,-0.05746084079146385,-9.078812599182129,0.7866488099098206,47.657325744628906,-0.2529502511024475,-3.6971538066864014,-2.168287992477417,-0.5243297815322876,-0.03198089823126793,-0.27341771125793457,27.6875,28.875,28.125,32.0625,34.625,35.875
1.0,-0.058515622714985685,-0.14485349408326512,0.3484260024516257,-0.019140895731841995,0.0199491680703081,-0.10092845949166694,-0.5384069021609399,-0.3245183423212901,0.05997200637089206,-3.0786855526833796,0.624730232131469,1.2717240449707949e-05,-0.0015736517192079498,-0.0009937307083209312,-0.002653306223733665,-0.0022302163343006615,0.006935291564891923,0.0029142715506104704,0.32687273621559143,-1.1525716942599793,1.6634801069842737,-2.0801550350584925,-1.571345631276266,2.3018205165863037,0.0007692140061408281,0.0033507724292576313,0.004838363733142614,-0.015473108738660812,-0.00014122080756351352,-0.002150034997612238,0.019153613597154617,-0.17238251864910126,-9.002198219299316,0.6881819367408752,47.643890380859375,-0.19943448901176453,-3.7086853981018066,-2.0820343494415283,-0.5729777812957764,-0.04712244123220444,-0.31468290090560913,27.6875,28.875,28.125,32.0625,34.625,35.875
1.0,0.04482324202610441,0.4285912383105709,0.34692627096827366,0.02115564686052894,0.008498178208797098,-0.10467287103497581,-0.5384223045883604,-0.3245000000285487,0.059955239108753694,-3.0786905447305304,0.624808220035295,-6.8596807310218274e-06,-0.0022551808508608833,-0.001111925769663067,-0.00276644091529579,-0.002492881304998306,0.007686853552380751,0.002572784755356135,0.32682475447654724,-1.1525474351695557,1.663492504750387,-2.080191274682516,-1.5713217894183558,2.3018205165863037,0.0005907220765948296,0.004441135097295046,0.003761156927794218,-0.016282321885228157,-0.00013775282423011959,-0.001987305236980319,0.07661445438861847,-0.19153612852096558,-9.002198219299316,0.7195101380348206,47.64657974243164,-0.23955224454402924,-3.7472786903381348,-1.9590426683425903,-0.5624763369560242,-0.03497089445590973,-0.30111807584762573,27.6875,28.875,28.125,32.0625,34.625,35.875
1.0,0.20549531297873314,0.8512178495004117,0.21235168407287802,0.059256522800530786,-0.02432809411530809,-0.09796145591444465,-0.538431974988399,-0.3245074964866086,0.05995017059105176,-3.0786844645839175,0.6248072815953082,8.777676761579549e-05,-0.0029869142837777494,-0.001236428044835925,-0.002090650993298059,-0.003341802219339512,0.01016339878897269,0.002149382118203213,0.3268486261367798,-1.1525357228568573,1.6635039488421839,-2.0802632770934046,-1.571357552205221,2.301844596862793,0.0003958413435611874,0.0038034904282540083,0.0035079247318208218,-0.0180094875395298,-0.00013371500244829804,-0.001759616774506867,0.13407529890537262,-0.24899697303771973,-8.983044624328613,0.7575564384460449,47.693153381347656,-0.22057552635669708,-3.687788963317871,-1.847534418106079,-0.5363582968711853,-0.02800225093960762,-0.2965470254421234,27.6875,28.875,28.125,32.0625,34.625,35.875
1.0,0.9865944130049974,1.631506421511061,0.14198691262358404,0.06642904080216495,-0.039522396673743465,-0.10992388213832895,-0.5384455452221911,-0.3245158971477752,0.05996220172796707,-3.078731745026013,0.6247787336479776,0.0001599311018271423,-0.0023671228566319934,-0.001032172943373983,-0.0026792398445458594,-0.0030939923298002677,0.00942764528737867,0.001965627908220179,0.3268486261367798,-1.152547762995102,1.663504425679342,-2.0803119144835414,-1.571345631276266,2.301820755004883,0.0004053737793583423,0.003531125606968999,0.005412402097135782,-0.018865199759602547,-0.00012985983630642295,-0.0015665398677811027,0.2106897532939911,-0.13407529890537262,-8.983044624328613,0.7239871025085449,47.66628646850586,-0.21854837238788605,-3.5167880058288574,-1.882275104522705,-0.5150930881500244,-0.0383106954395771,-0.3195304274559021,27.6875,28.875,28.125,32.0625,34.625,35.875
1.0,0.9667500600434027,1.189438756201481,-0.023052397569435595,0.052251826963441175,-0.05496848430025402,-0.0995484477781585,-0.5384348986454986,-0.32450111012508637,0.05993350413211457,-3.078651191833237,0.624761978952659,0.0001256595607747174,-0.0013206278137903988,-0.0006655130869865732,-0.004005097405285552,-0.0021295146554718863,0.006625145641597756,0.0020007622007980255,0.3268606960773468,-1.1525116127780457,1.6635163466082972,-2.080299516717428,-1.5714057127581995,2.301832675933838,0.00039482515421696007,0.004262247122824192,0.00732459407299757,-0.018544789403676987,-0.00013860943727195263,-0.0016117668710649014,0.26815059781074524,-0.13407529890537262,-9.059659004211426,0.7888899445533752,47.6949462890625,-0.20117205381393433,-3.5125961303710938,-1.9963113069534302,-0.5155844688415527,-0.057039111852645874,-0.31901058554649353,27.6875,28.875,28.125,32.0625,34.625,35.875
1.0,1.0250088406610989,0.05398636073849272,-0.27035239643139775,0.02165291588725314,-0.04679074777048745,-0.09836589528261261,-0.538421363317436,-0.3245001186579884,0.05990756994373267,-3.0786766407503703,0.624727736346498,6.149670701447588e-05,-0.00010234110045217668,-0.00014421716053266036,-0.006363706321827899,-5.0355734783677806e-05,0.0006000653785614479,0.0031875030520057274,0.326860636472702,-1.15249855936084,1.663565460835592,-2.080322404901022,-1.571369473134176,2.3018441200256348,0.00024428428150713444,0.007422138471156359,0.007610075641423464,-0.015616575255990028,-0.00016565938130952418,-0.0029472948517650366,0.19153612852096558,-0.09576806426048279,-9.193734169006348,0.7127973437309265,47.658226013183594,-0.21071738004684448,-3.6071619987487793,-1.9357380867004395,-0.5551422834396362,-0.03589971363544464,-0.30150920152664185,27.6875,28.875,28.125,32.0625,34.625,35.875
1.0,0.27277028358129,-0.8091964344840424,-0.2586980328832687,-0.022449190537313164,-0.026865709037995143,-0.10454264380762622,-0.5384051594785177,-0.3244792381755875,0.05987569459570441,-3.078605620613966,0.6247902320059401,-1.801047047671745e-05,0.000611589879372042,0.0002860102955700273,-0.0072311040172580564,0.0006649306345083248,-0.0014432877505924373,0.003393782639394218,0.32683658599853516,-1.1524744790843506,1.6636007467852991,-2.080322404901022,-1.5713933149920862,2.3018319606781006,-3.462340100668371e-05,0.0077563198283314705,0.009012888185679913,-0.015188840217888355,-0.00018309731967747211,-0.0034320796839892864,0.13407529890537262,0.038307227194309235,-9.289502143859863,0.7530794739723206,47.681514739990234,-0.2319982349872589,-3.5774552822113037,-1.9091057777404785,-0.5727002024650574,-0.020172584801912308,-0.29717153310775757,27.6875,28.875,28.125,32.0625,34.625,35.875
1.0,0.3348549740932489,-0.7368930444322968,-0.4227221051127627,-0.016765784678940916,-0.004942559640729274,-0.10248792091626481,-0.5384122625858051,-0.32449311986691914,0.059872729677432734,-3.0786366489725094,0.624778010430827,1.9919720578346876e-05,0.001004300605777228,0.000627014430253501,-0.008077519166710083,0.0013870421476504273,-0.0027494953282352287,0.002709854191854372,0.32684841752052307,-1.1524622601321717,1.6636012236224573,-2.080370088616842,-1.5713813940631312,2.3018321990966797,-0.0002258092863485217,0.00842668954282999,0.010050809010863304,-0.015427117235958576,-0.0004456657625269145,-0.0029388191178441048,0.28730422258377075,0.24899697303771973,-9.289502143859863,0.7150384783744812,47.700321197509766,-0.20343807339668274,-3.6119492053985596,-1.9785571098327637,-0.5772260427474976,-0.025507284328341484,-0.2878044843673706,27.6875,28.875,28.125,32.0625,34.625,35.875
1.0,0.26299787359874655,-0.6939048417482635,-0.5926155125006143,-0.010349225664450004,-0.0006869824359837045,-0.1003605036019645,-0.5384089645017675,-0.32446874868749476,0.05985770643404842,-3.078604200088741,0.624771555705,6.720317497877291e-06,0.0009672148702698647,0.0006330863362261936,-0.008496236477396349,0.001376105675534995,-0.0024858786284738307,0.0023582079171139236,0.32682445645332336,-1.1524621111205597,1.663637940083639,-2.0803829632201136,-1.5714057127581995,2.3018083572387695,-0.00021793249470647424,0.008854752406477928,0.010705222375690937,-0.016762493178248405,-0.0005217859870754182,-0.0025795677211135626,0.26815056800842285,0.2106897532939911,-9.21288776397705,0.6948947906494141,47.702110290527344,-0.2067941278219223,-3.4896209239959717,-1.9472448825836182,-0.5914646983146667,-0.021545996889472008,-0.2978692352771759,27.6875,28.875,28.125,32.0625,34.625,35.875
1.0,-0.11482152694885972,-0.8751744384416174,-0.42975302074462457,-0.010124570158849776,-0.01055235968432093,-0.09819306043165768,-0.5383987436522059,-0.3244883388760949,0.05982909821461646,-3.078642056962288,0.624760409785417,-4.970230710119788e-05,0.001220241881643444,0.0006964539246417777,-0.009309794390297195,0.0014445096549056617,-0.0028110906728892188,0.0019481033678602426,0.3268365263938904,-1.1524259012988587,1.6636632124530237,-2.080431123773092,-1.571357552205221,2.3018085956573486,-0.00020178034901618958,0.00943058542907238,0.012121747247874737,-0.01842484436929226,-0.0004829225945286453,-0.002153801266103983,0.2106897532939911,0.19153612852096558,-9.289502143859863,0.7217512726783752,47.67703628540039,-0.16571420431137085,-3.5147368907928467,-1.9552726745605469,-0.6108534336090088,-0.034177567809820175,-0.28189489245414734,27.6875,28.875,28.125,32.0625,34.625,35.875
1.0,-0.3231672027467863,-1.3781458720086481,-0.5424006790215193,-0.016066209166061704,-0.02120340370719352,-0.09748980083563746,-0.5384111574413466,-0.3244809802191429,0.059821205385900494,-3.0786327718898154,0.6247579748689238,-3.8535350441938566e-05,0.0011302691082268293,0.000683671957824943,-0.01029469574966349,0.0015774088794153957,-0.003333307103176266,0.0017532274916931513,0.32682445645332336,-1.1524014335921784,1.663649861012594,-2.0804435215392054,-1.571369473134176,2.3017961978912354,-0.0002494275395292789,0.011009595356881618,0.012469423934817314,-0.019814448431134224,-0.0004437173483893275,-0.0020069086458534002,0.24899697303771973,0.26815059781074524,-9.346963882446289,0.7195101380348206,47.687782287597656,-0.20525604486465454,-3.517369270324707,-2.0039448738098145,-0.5894917249679565,-0.018023358657956123,-0.28786441683769226,27.6875,28.875,28.125,32.0625,34.625,35.875
1.0,0.28868194838199174,-1.7314393679664892,-0.5382923689696538,-0.026747650328010728,-0.010842742002499026,-0.09497099095369517,-0.5383845806243243,-0.3244797407258934,0.05976827424806691,-3.0786044427837287,0.6247138156264795,-0.00013701058145429158,0.0007929885841322552,0.0005477590477495366,-0.010359283532398067,0.001139277025431325,-0.0021572827626709884,0.001995049650064092,0.326836496591568,-1.1523531836322327,1.663710896168844,-2.080480238000387,-1.571369473134176,2.3017842769622803,-0.0002340390346944332,0.011209641583263874,0.01272382028400898,-0.021523484960198402,-0.00041003001388162374,-0.002233997220173478,0.1149216815829277,0.3064578175544739,-9.289502143859863,0.7127973437309265,47.679718017578125,-0.2247028350830078,-3.5529541969299316,-1.9166268110275269,-0.5819875597953796,-0.023370638489723206,-0.2904869318008423,27.6875,28.875,28.125,32.0625,34.625,35.875
1.0,-0.14511441603758657,-1.8128792001451925,-0.5807042920665871,-0.03449034661225836,-0.02175697924868547,-0.09535770442397669,-0.538424319462726,-0.32446620922120517,0.05979544478348908,-3.0786122569228738,0.6247929513331932,3.866724973294165e-05,0.0007223006281872221,0.0005197342979382152,-0.010796962245521388,0.0010352288006641507,-0.0018012345050565637,0.0020262845043629877,0.32681241631507874,-1.1523770850947876,1.663698975239889,-2.080552717248434,-1.5714057127581995,2.3018085956573486,-0.00021976213611196727,0.011689145117998123,0.013389776460826397,-0.023039579391479492,-0.0004277605621609837,-0.002251437632367015,0.1149216815829277,0.3447650372982025,-9.27034854888916,0.7306999564170837,47.660911560058594,-0.21541565656661987,-3.4863169193267822,-1.953110694885254,-0.5644747614860535,-0.02924899384379387,-0.2962583899497986,27.6875,28.875,28.125,32.0625,34.625,35.875
1.0,-0.32340484751683274,-1.407856819978595,-0.574800192072194,-0.03268513672181538,-0.016225438581340866,-0.09592200654595016,-0.5383814139525555,-0.3244746413770273,0.05973569825807329,-3.078615565425836,0.6247740094428655,-0.00011282730859235526,1.4882308707226241e-05,0.00026541072393599616,-0.010784686842963112,0.0005021141562056428,-0.0002887007249000412,0.002187901885573272,0.32682448625564575,-1.1523408454707642,1.6637948195086878,-2.0806013546385707,-1.571357552205221,2.3018083572387695,-0.0002071162743959576,0.012425710447132587,0.012714472599327564,-0.024704428389668465,-0.00041416450403630733,-0.0024010171182453632,0.1149216815829277,0.28730422258377075,-9.366117477416992,0.7709873914718628,47.6895751953125,-0.2555813193321228,-3.495265483856201,-1.8587367534637451,-0.5571227073669434,-0.03079819492995739,-0.2885383367538452,27.6875,28.875,28.125,32.0625,34.625,35.875
1.0,-0.06440173676643407,-0.8248222565694379,-0.3983778362175249,-0.0263387400786708,-0.007252803129269151,-0.09931358623054759,-0.5383661417908118,-0.3244852782089346,0.05969884231302669,-3.0785847400515807,0.624671379422932,-0.00017498314574311747,-9.176940539493571e-05,0.00021389390017020963,-0.010827564552332912,0.00016465131357640562,0.0006234192496660422,0.002014657448038684,0.3268604874610901,-1.1522810918143769,1.663795296345846,-2.080601831475729,-1.5713813940631312,2.3017842769622803,-0.00019584833353292197,0.012234189547598362,0.013411207124590874,-0.02618192508816719,-0.0003894992114510387,-0.0022170785814523697,0.07661445438861847,0.26815059781074524,-9.366117477416992,0.6971306204795837,47.66001510620117,-0.25352635979652405,-3.4699814319610596,-1.905051827430725,-0.5678021907806396,-0.027193056419491768,-0.2891487181186676,27.6875,28.875,28.125,32.0625,34.625,35.875
1.0,-0.12892496375761558,-0.8996086769233322,-0.3086732651379911,-0.005113629597193182,-0.00985313765648782,-0.09545329949079404,-0.5384160025703139,-0.32447487926021706,0.05972849809488667,-3.078645179350204,0.6247607570695533,-5.207322581633123e-06,-0.0005509289964862596,4.2932928312229125e-05,-0.011333102402325101,-2.214265188481097e-05,0.001091334280263251,0.0019858828371025735,0.3268124461174011,-1.1523045760444184,1.6637824217425745,-2.0806976757445277,-1.571369473134176,2.3017842769622803,-0.00018574220302980393,0.013577449135482311,0.013015059754252434,-0.027632225304841995,-0.0003668678691610694,-0.0021786934230476618,0.13407529890537262,0.3064578175544739,-9.327810287475586,0.7172743082046509,47.6734504699707,-0.2601059675216675,-3.516838550567627,-1.8459465503692627,-0.5594343543052673,-0.028622476384043694,-0.28341689705848694,27.6875,28.875,28.125,32.0625,34.625,35.875
1.0,0.3948199766036685,-0.8214698297935483,-0.27747951273829685,0.00025521019381455584,-0.005055697529842296,-0.09709308393235462,-0.5384112109223228,-0.32447730786017004,0.05969333198073537,-3.0786200135918245,0.6247753122046169,-2.6926228065550538e-05,-0.0007889584060812167,-5.056013319159601e-05,-0.011197993521033988,-0.0005622550909461432,0.0026124159601111697,0.001915170078595293,0.32682448625564575,-1.1522568327239533,1.6638067404376429,-2.0807467899718226,-1.5713813940631312,2.3018085956573486,-0.00017662858590483665,0.013142113573849201,0.013745542615652084,-0.029541421681642532,-0.0003466759517323226,-0.0020996564999222755,0.2106897532939911,0.3447650372982025,-9.289502143859863,0.6792280077934265,47.674346923828125,-0.22380602359771729,-3.5125234127044678,-1.843597650527954,-0.5234529972076416,-0.035287436097860336,-0.28578510880470276,27.6875,28.875,28.125,32.0625,34.625,35.875
1.0,0.45882159012233936,-0.8744825050667043,-0.5350942191359398,0.009293336232651921,-0.014716977795687574,-0.1075946155461509,-0.538399873291821,-0.3244735739478863,0.05965896087837019,-3.078604877817267,0.6247139376128985,-2.4089946250666807e-05,-0.0012464862610937378,-0.00019140432594194314,-0.011711416656113386,-0.0007846548157551097,0.0031979321627183957,0.0018503759219773883,0.3268365263938904,-1.1522323054126282,1.6638668219195765,-2.0808192692198695,-1.5714057127581995,2.3017842769622803,-0.00020986569870729,0.014400712214410305,0.013536610640585423,-0.031217124313116074,-0.00032858786289580166,-0.002068620640784502,0.2298433631658554,0.2298433631658554,-9.251194953918457,0.7195101380348206,47.68867492675781,-0.26537516713142395,-3.5051798820495605,-1.8841956853866577,-0.5085544586181641,-0.01822577603161335,-0.2881569266319275,27.6875,28.875,28.125,32.0625,34.625,35.875
1.0,0.10379341396131211,-0.6239932645222969,-0.3994925647285759,-0.003442517058483939,-0.02967146168347521,-0.08821846549460263,-0.5384211200293049,-0.32446111289484497,0.05964494536732412,-3.078606021671243,0.6248684508376167,-5.155672181874047e-05,-0.0014496969348164882,-0.00027142424240492744,-0.011457028146305235,-0.0013193834946039378,0.004717855909706701,0.001628038870363441,0.3267884850502014,-1.1521966320327302,1.6638544241534632,-2.080843587914938,-1.571369473134176,2.301832437515259,-0.000201046685106121,0.013750839978456497,0.014239700511097908,-0.032881442457437515,-0.0003122938796877861,-0.0018381949048489332,0.17238251864910126,0.13407529890537262,-9.289502143859863,0.6926589012145996,47.657325744628906,-0.26336389780044556,-3.467851161956787,-1.8939015865325928,-0.49357783794403076,-0.0121568962931633,-0.2849317789077759,27.6875,28.875,28.125,32.0625,34.625,35.875
1.0,-0.3416526227380627,-1.0618391214416736,-0.6185564296462187,0.008317711120073217,-0.0401641097132036,-0.08141843282946908,-0.5384019092052895,-0.32450508228517533,0.05961874720383073,-3.0786626443508682,0.6246686952487371,-4.660210738698359e-05,-0.001905268268419903,-0.0004378340940192644,-0.01195853253023086,-0.0014769752939711286,0.0051224977479556325,0.0014954804494524878,0.3268604874610901,-1.1521601241878052,1.6638792196856897,-2.0809155903258265,-1.571357552205221,2.3017725944519043,-0.00019245580187998712,0.015116283670067787,0.01377863809466362,-0.034219637513160706,-0.00029754071147181094,-0.0016974422615021467,0.19153612852096558,0.05746084079146385,-9.27034854888916,0.6769921779632568,47.633148193359375,-0.2565305829048157,-3.4905529022216797,-1.7741032838821411,-0.4855896830558777,-0.017870888113975525,-0.289272278547287,27.6875,28.875,28.125,32.0625,34.625,35.875
1.0,0.5763344226691215,-0.20842074547811112,-0.39440904774071206,0.0019150262092465713,-0.014742341696936402,-0.09887984247826836,-0.5383878675608177,-0.324472877031446,0.0595754269432662,-3.0786345532720434,0.6247396534433345,-0.00011983514238928902,-0.0017566509655232193,-0.0004173657166840891,-0.011921662964972234,-0.0015727796781824436,0.005365057390925534,0.0015519239748717961,0.3268124461174011,-1.1521484118751069,1.6639745871173304,-2.08097567180776,-1.571345631276266,2.301772356033325,-0.00015201434143818915,0.014653444290161133,0.014444457367062569,-0.03468313813209534,-0.0002841184032149613,-0.001713646575808525,0.15322890877723694,0.0,-9.28950309753418,0.7172743082046509,47.68061828613281,-0.24776342511177063,-3.45222806930542,-1.7513878345489502,-0.4798087775707245,-0.041225384920835495,-0.29420530796051025,27.6875,28.875,28.125,32.0625,34.625,35.875
1.0,0.34939405847254124,-0.11390528123412186,-0.48076071051426383,0.010224510933153134,-0.012977114077921986,-0.10018880767045288,-0.5384254203196498,-0.32447420694312007,0.05956882603100791,-3.0786578698309164,0.6247252967313549,-2.9445126690019437e-05,-0.001842141371579888,-0.00045743744559503704,-0.0126372295444145,-0.0014092929587518337,0.004839416898703566,0.001624405260795163,0.32680052518844604,-1.152099923496582,1.663938347493307,-2.081047674218649,-1.571357552205221,2.301748514175415,-0.00014189080684445798,0.015953898429870605,0.014419680461287498,-0.03540859371423721,-0.0002718553878366947,-0.001776130753569305,0.13407529890537262,0.019153613597154617,-9.232041358947754,0.7239871025085449,47.64836883544922,-0.3066507875919342,-3.4238009452819824,-1.8463643789291382,-0.47941040992736816,-0.01875762641429901,-0.2840859293937683,27.6875,28.875,28.125,32.0625,34.625,35.875
1.0,-0.22246684139789707,-0.19693924249974726,-0.4461543017787609,0.017506135972162308,-0.020974719023733105,-0.09622458600503818,-0.5383945759285215,-0.3244947854426855,0.059550395121055505,-3.07866169062179,0.6247066142955535,-2.929760960100542e-05,-0.0019336378888128107,-0.0005026518304210733,-0.013164543231361105,-0.0014704807717549086,0.004945037909026037,0.0017301575184907403,0.3268365263938904,-1.1520276230624695,1.6640227476703089,-2.081179758111471,-1.571357552205221,2.3017842769622803,-0.00013147278514225036,0.01671971008181572,0.014845697209239006,-0.03672018647193909,-0.0002502529532648623,-0.0018718608189374208,0.019153613597154617,-0.05746084079146385,-9.308655738830566,0.7463666796684265,47.6680793762207,-0.3051918148994446,-3.4995765686035156,-1.735539436340332,-0.4718632996082306,-0.020990580320358276,-0.29589027166366577,27.6875,28.875,28.125,32.0625,34.625,35.875
1.0,-0.2535980717839404,0.0008759158634754488,-0.39017561745185925,0.009439795802342204,-0.01794634041992322,-0.09960474758002849,-0.5384004539994826,-0.32446971698506033,0.05945476780557135,-3.0786200010859393,0.6247367207247148,-8.676920064858811e-05,-0.00108861511755438,-0.00022021449960051763,-0.013974004765419582,-0.0007690830964166149,0.002860522452194684,0.0017246479233698087,0.3268124759197235,-1.15199168146167,1.6640947500811976,-2.0812632046141566,-1.571369473134176,2.301772356033325,-0.00012683990644291043,0.016928596422076225,0.016259213909506798,-0.03614329546689987,-0.00024069008941296488,-0.0018613215070217848,0.07661445438861847,-0.05746084079146385,-9.346963882446289,0.7553206086158752,47.681514739990234,-0.32504016160964966,-3.4764764308929443,-1.7982243299484253,-0.4555303454399109,-0.03197440505027771,-0.2658969759941101,27.6875,28.875,28.125,32.0625,34.625,35.875
1.0,-0.24122900582088752,-0.18404216887441305,-0.46099805582510495,0.00015334289000905853,-0.01725440569561333,-0.09214092277861613,-0.5384134503348207,-0.32448575043846384,0.05944722500203753,-3.0786726938112414,0.624651004862879,-3.117138042468664e-05,-0.0008340853631781865,-0.00013890941692569278,-0.014101692425281512,-0.0005268812472808782,0.0021244158768439136,0.0017385818164390345,0.32682451605796814,-1.1519677203944703,1.6640947500811976,-2.0813352070250453,-1.571357552205221,2.3017241954803467,-0.00012252294982317835,0.016916602849960327,0.016425002366304398,-0.03552220016717911,-0.00023183145094662905,-0.0018707000417634845,0.13407529890537262,0.038307227194309235,-9.366117477416992,0.7172743082046509,47.71196365356445,-0.26303359866142273,-3.453676700592041,-1.7728512287139893,-0.4697803258895874,-0.01955854520201683,-0.26634106040000916,27.6875,28.875,28.125,32.0625,34.625,35.875
1.0,-0.19782647531063266,0.035461683784882014,-0.4405406377750766,-0.0061249106365338845,-0.011122881469794354,-0.09564680875801027,-0.5384186709807967,-0.32448378674572353,0.05940356439863079,-3.0786468739886783,0.6247233460924274,-2.3865742895607663e-05,-0.00030658201411921406,3.575799676498528e-05,-0.014876775299260783,7.972124939123426e-06,0.0005286916917402545,0.001597046180793372,0.32682451605796814,-1.1519075495055695,1.6641314665423792,-2.081430574456686,-1.571369473134176,2.3017725944519043,-0.00011849040311062708,0.017517266795039177,0.017298348248004913,-0.03531327098608017,-0.00022360232833307236,-0.0017248793737962842,0.07661445438861847,-0.019153613597154617,-9.385271072387695,0.6747510433197021,47.635833740234375,-0.30151450634002686,-3.440704822540283,-1.8184003829956055,-0.48043951392173767,-0.05131395161151886,-0.26332715153694153,27.6875,28.875,28.125,32.0625,34.625,35.875
1.0,-0.013480354788982019,0.40680291650619815,-0.4296293008456125,-0.004165810075203103,-0.004428090141521514,-0.09963453940969465,-0.5384264909438626,-0.324494277822777,0.0594044237383726,-3.078674540493113,0.6246515996830891,1.053206208360162e-05,-0.0006489795427314922,-8.581888517294663e-05,-0.01427297652630877,-0.00041902638876890717,0.001759612235036875,0.001280245659031699,0.32683655619621277,-1.151895747785904,1.6641185919391077,-2.0814548931517542,-1.571369473134176,2.301736354827881,-0.00011471470497781411,0.01691436767578125,0.016819056123495102,-0.03553390130400658,-0.0002159373980248347,-0.0014045546995475888,-0.038307227194309235,-0.07661445438861847,-9.366117477416992,0.7665104269981384,47.674346923828125,-0.33338525891304016,-3.392441987991333,-1.7636761665344238,-0.48792338371276855,-0.03301110491156578,-0.2542992830276489,27.6875,28.875,28.125,32.0625,34.625,35.875
1.0,-0.3799968459210361,-0.07539523315394052,-0.39658568139839107,0.009172355775980554,-0.0055103249458655175,-0.0958332482125512,-0.5384030596133852,-0.32448628962226533,0.059355197949213595,-3.0786524493297587,0.6246670147686351,-3.958275973667289e-05,-0.0004103262680994411,-9.418871562825424e-06,-0.015261331122850753,0.00014266122090779578,8.215848418820614e-05,0.001030315883622166,0.32683655619621277,-1.151871220474579,1.6642149130450647,-2.081538816491598,-1.571369473134176,2.301748752593994,-0.00011117183021269739,0.01843436434864998,0.016908690333366394,-0.035374533385038376,-0.0002087798056891188,-0.0011507720919325948,-0.038307227194309235,-0.05746084079146385,-9.385271072387695,0.6948947906494141,47.6976318359375,-0.29710859060287476,-3.4468822479248047,-1.7945103645324707,-0.5122326016426086,-0.01611611247062683,-0.25367802381515503,27.6875,28.875,28.125,32.0625,34.625,35.875
1.0,-0.1718357713983807,-0.3437395700201859,-0.5555117711992458,0.01775277568958387,-0.0021409731209540723,-0.09742347323526541,-0.5383744946945307,-0.32448785998849944,0.05930858660139543,-3.0786539589297988,0.6246288040206605,-0.00016752579574084785,0.0003597580721332727,0.00024904533848932976,-0.016198971842537435,0.0008392405592262479,-0.001981830511816218,0.0008557718487257518,0.32683655619621277,-1.1518350702575226,1.6642754713641565,-2.08156218151235,-1.5713337103473108,2.301724672317505,-0.00010784172627609223,0.018943507224321365,0.018251722678542137,-0.03504830226302147,-0.00020208241767250001,-0.0009725469280965626,-0.05746084079146385,0.05746084079146385,-9.404424667358398,0.7060845494270325,47.69673538208008,-0.355481892824173,-3.422649383544922,-1.7811847925186157,-0.5222721695899963,-0.03337761387228966,-0.263358473777771,27.6875,28.875,28.125,32.0625,34.625,35.875
1.0,-0.4399705213250967,-0.1060451327890706,-0.3364586948443419,0.0044812247756584956,-0.010843195574808314,-0.09449678481199784,-0.5384127186624477,-0.32448150847088403,0.05929119164605179,-3.078672054147062,0.6246711600620963,-6.061274621351807e-05,0.00019404982591072285,0.0002053629352271623,-0.015823159685778736,0.0005765360704549522,-0.001228532730995689,0.0007024768668506242,0.3268124461174011,-1.1517873269370575,1.6642754713641565,-2.081681867639059,-1.571345631276266,2.301724672317505,-0.00013051960559096187,0.018455632030963898,0.018119020387530327,-0.035225506871938705,-0.00019580092339310795,-0.0008421190432272851,-0.09576806426048279,0.0,-9.346963882446289,0.7575564384460449,47.64657974243164,-0.3335379660129547,-3.4065654277801514,-1.7394092082977295,-0.5404532551765442,-0.033696722239255905,-0.25426751375198364,27.6875,28.875,28.125,32.0625,34.625,35.875
1.0,-0.47927025348976643,-0.24194463302695807,-0.498952888224849,0.00126520342559894,-0.014889289508348474,-0.09180162877286337,-0.5384022982384327,-0.32449758699224573,0.059260069370506374,-3.078676959245472,0.6245953048849643,-5.140707617353001e-05,0.00018514503137350837,0.00019788265441009388,-0.016551618894218342,0.0007273070933760766,-0.0016963031545482014,0.0006061252061705384,0.32684847712516785,-1.1517509383014222,1.66431171098818,-2.081754346887106,-1.571357552205221,2.30171275138855,-0.00012717746722046286,0.01957150362432003,0.018428031355142593,-0.03615899011492729,-0.00018989868112839758,-0.0007426042575389147,0.019153613597154617,-0.019153613597154617,-9.27034854888916,0.7262282371520996,47.6394157409668,-0.34408241510391235,-3.4190561771392822,-1.7645771503448486,-0.5605515837669373,-0.04280754178762436,-0.25366759300231934,27.6875,28.875,28.125,32.0625,34.625,35.875
1.0,-0.09057851680019441,-0.2220096967940571,-0.2713790218661466,-0.007817182562340937,-0.012374712275426657,-0.0957649341848958,-0.5384042093532413,-0.3244829870531323,0.059210336871794084,-3.0786261570152997,0.6246231526265716,-9.65871662372823e-05,0.0002134450695028478,0.00020336827635420736,-0.016888744574564983,0.0007278718289324615,-0.0017180799408094472,0.0005309599924328229,0.32683655619621277,-1.1516789358905335,1.664335076008932,-2.0818025074400843,-1.5713813940631312,2.301724672317505,-0.0001236863317899406,0.019918018952012062,0.01888723485171795,-0.03694393113255501,-0.00018434137746226043,-0.0006641665240749717,0.0,-0.019153613597154617,-9.27034854888916,0.7217512726783752,47.65284729003906,-0.3601929843425751,-3.3737659454345703,-1.7655748128890991,-0.5687823295593262,-0.02873651310801506,-0.2546606957912445,27.6875,28.875,28.125,32.0625,34.625,35.875
1.0,0.5102546384989294,0.1389270601951702,-0.34248811829786846,-0.017462514954353248,-8.516892318139336e-05,-0.10424698578580047,-0.53841661175761,-0.32446780198028674,0.059201596767885833,-3.0786073546064676,0.6247542861096903,-3.898878834466857e-05,0.0002439418735783485,0.00023557430031699502,-0.016648095491594527,0.0005859791332533887,-0.0013148228039461217,0.00043156119783819343,0.3268124461174011,-1.1516791445067902,1.6643713156329554,-2.081874033013815,-1.5713933149920862,2.3017847537994385,-0.0001595261273905635,0.0193355493247509,0.019185347482562065,-0.037087056785821915,-0.00017910056340042502,-0.0006007427582517266,0.07661445438861847,0.1149216815829277,-9.346963882446289,0.7508436441421509,47.679718017578125,-0.3219098150730133,-3.3628311157226562,-1.7297857999801636,-0.5809812545776367,-0.030849814414978027,-0.2510685920715332,27.6875,28.875,28.125,32.0625,34.625,35.875
1.0,0.045208300113805944,-0.580751404882514,-0.4350837007331299,-0.00033715131810926023,-0.011523875731698437,-0.09395109035797167,-0.5384099718859694,-0.32450777089700117,0.05918064097852327,-3.078676474056105,0.6247299033100089,-5.582098973465678e-05,0.0005699891194367743,0.00034455239309691074,-0.01758873682219474,0.0010170929127626498,-0.002599895462196671,0.0003798738844331016,0.32684844732284546,-1.151642606859543,1.6643841902362269,-2.0819460354247035,-1.5713337103473108,2.3017966747283936,-0.00015889559290371835,0.02039881981909275,0.019941972568631172,-0.03755147010087967,-0.00017414924514014274,-0.0005483798449859023,0.1149216815829277,0.13407529890537262,-9.308656692504883,0.7351769208908081,47.674346923828125,-0.32066091895103455,-3.4012808799743652,-1.7759754657745361,-0.5989769101142883,-0.035901471972465515,-0.2743273377418518,27.6875,28.875,28.125,32.0625,34.625,35.875
1.0,0.31610523371323984,0.12699380864731208,-0.29155382399604257,-0.016869181903822222,-0.006511547455241632,-0.10663454908951564,-0.5384046409534534,-0.3244791136814956,0.059113106974879925,-3.0786318343227883,0.6246437781313153,-0.00010859234823702597,0.0005844152678134646,0.00036376771585250366,-0.018355679034894372,0.001108577903712973,-0.002890186139634853,0.00031067807816893486,0.32682448625564575,-1.15157042563472,1.6644557158099573,-2.082029958764547,-1.571369473134176,2.301724672317505,-0.00018382346024736762,0.02139795944094658,0.020594973117113113,-0.03889935091137886,-0.00016946440155152231,-0.0005044318968430161,0.09576806426048279,0.13407529890537262,-9.27034854888916,0.7329410910606384,47.69853210449219,-0.3851604461669922,-3.3894970417022705,-1.7747235298156738,-0.6243718862533569,-0.04407818615436554,-0.2584529519081116,27.6875,28.875,28.125,32.0625,34.625,35.875
1.0,-0.3193141331027365,-0.5002759695906223,-0.3531904868341745,-0.0009675432690879494,-0.024894492185624173,-0.0935386473531777,-0.5384214317730054,-0.3244730841462171,0.059075210583417276,-3.078629559323421,0.6247398748570367,-0.00010081259206535957,-0.00020276710163346436,0.00011401850947482823,-0.017826009278086058,0.0001913136796854676,-0.00016243414004225265,0.0002494078423192257,0.32680052518844604,-1.1515107613852997,1.6644805113421839,-2.0821272335448207,-1.571357552205221,2.3017609119415283,-0.00020666029013227671,0.021039089187979698,0.020424872636795044,-0.04124816879630089,-0.0001824958890210837,-0.00046700614620931447,0.19153612852096558,0.13407529890537262,-9.27034854888916,0.6702793836593628,47.645687103271484,-0.3163120150566101,-3.312382698059082,-1.7141536474227905,-0.5952401757240295,-0.032054778188467026,-0.2652941346168518,27.6875,28.875,28.125,32.0625,34.625,35.875
1.0,0.11963395350424823,-0.6250165354458631,-0.38485724236282065,0.002187850903991001,-0.019475744356150935,-0.09077524358098596,-0.5384011700332237,-0.32449754152443894,0.05905377271514323,-3.0786376245167633,0.6246263300724344,-6.616096740697368e-05,0.00012814924085365634,0.00024006869492164767,-0.01832289349378167,0.0005597865216515132,-0.0012412655618015806,0.00019745068778752615,0.3268604576587677,-1.1514985126307984,1.6645281950580042,-2.082198759118551,-1.5713813940631312,2.3017489910125732,-0.00022657350928056985,0.02145449072122574,0.0209222212433815,-0.041020892560482025,-0.00018338729569222778,-0.0004347550275269896,0.24899697303771973,0.1149216815829277,-9.232041358947754,0.7060845494270325,47.67524337768555,-0.31643983721733093,-3.349886894226074,-1.7600513696670532,-0.6205065250396729,-0.014397576451301575,-0.24883908033370972,27.6875,28.875,28.125,32.0625,34.625,35.875
1.0,0.3540568480072013,0.03850525449967496,-0.32175555019366797,-0.011796006963594903,-0.020376745422725464,-0.11123895588938587,-0.5384218025143227,-0.3244462911493028,0.059013516004898126,-3.078591323872881,0.6247706899478244,-7.414522758380159e-05,0.0009434178793807216,0.0007578610647898021,-0.019256555727853595,0.001591123309480127,-0.004278925637812126,-0.0002010258920915504,0.3267764449119568,-1.1514623326114197,1.6645877997027796,-2.0822817287840785,-1.5713933149920862,2.3017609119415283,-0.0005978531553409994,0.022113226354122162,0.021728835999965668,-0.0392782986164093,-0.0001791850372683257,-0.0004066729743499309,0.17238251864910126,0.07661445438861847,-9.097966194152832,0.7575564384460449,47.6895751953125,-0.349762499332428,-3.399962902069092,-1.7272791862487793,-0.6649003028869629,-0.033203329890966415,-0.2428760677576065,27.6875,28.875,28.125,32.0625,34.625,35.875
1.0,0.18261025866795397,-0.47221741217116314,-0.3822753404594327,-0.0008390062365784458,-0.028029357604950223,-0.09497456609576922,-0.538425180374474,-0.3244705078161119,0.058976293965743526,-3.07861539610209,0.6247565095808495,-9.307099004794895e-05,0.0008817442772922235,0.0008482344511288988,-0.019990337834639053,0.0016204904180208948,-0.004385138858222423,-0.0004003692494937392,0.32680031657218933,-1.1513899725726624,1.6645877997027796,-2.0823542080321253,-1.571369473134176,2.3017728328704834,-0.0007721151923760772,0.02303451858460903,0.02245696634054184,-0.04081770405173302,-0.0001748567883623764,-0.00038200351991690695,0.17238251864910126,0.1149216815829277,-9.193734169006348,0.6613254547119141,47.6707649230957,-0.2875215411186218,-3.393676996231079,-1.7287287712097168,-0.6904188394546509,-0.039652373641729355,-0.25317758321762085,27.6875,28.875,28.125,32.0625,34.625,35.875
1.0,0.563771606566395,-0.3973174600384435,-0.2674476359348877,-0.007262771346107648,-0.014437231067441672,-0.1011498291394857,-0.5383879748587491,-0.32445807490426315,0.05887862688610801,-3.0785710077016004,0.6246904597163968,-0.0001715582777204508,0.00031895758390402753,0.0005618295201165074,-0.019818815857410407,0.0007325485161614507,-0.0018097260938534738,-0.00030174036154842227,0.3268122971057892,-1.1513182085803528,1.6647446791278284,-2.082511087457174,-1.5713933149920862,2.3017492294311523,-0.0006309091113507748,0.022806579247117043,0.023096779361367226,-0.04395376518368721,-0.00016675834194757044,-0.0003406716859899461,0.19153612852096558,0.09576806426048279,-9.136273384094238,0.7239871025085449,47.65911865234375,-0.3565419316291809,-3.2789127826690674,-1.7670187950134277,-0.71465003490448,-0.02937301993370056,-0.2413322627544403,27.6875,28.875,28.125,32.0625,34.625,35.875
1.0,0.009690921311309691,-0.2400116738052312,-0.3645403817283246,-0.009817009564270488,-0.027309985924900124,-0.09364729546095904,-0.5384331959614412,-0.32446579763736216,0.05886827892020838,-3.078604866601029,0.6247356139301423,-5.882935701418469e-05,0.0006741435297353106,0.000638800863081965,-0.02049416197472957,0.0011372258568562096,-0.0030113335003317575,-0.0002530389055549442,0.3268003761768341,-1.1512579184821625,1.664708439503805,-2.08261837581777,-1.5713933149920862,2.3017611503601074,-0.0005648752558045089,0.023500919342041016,0.023657018318772316,-0.04394043609499931,-0.00016298337141051888,-0.00032318884041160345,0.07661445438861847,0.09576806426048279,-9.193734169006348,0.7060845494270325,47.6680793762207,-0.3845866918563843,-3.3376095294952393,-1.7863261699676514,-0.7433019876480103,-0.02755075693130493,-0.2562824487686157,27.6875,28.875,28.125,32.0625,34.625,35.875
1.0,0.7112284237216019,-0.5978478648600587,-0.205500846047873,0.005767214521101843,-0.012302141188462509,-0.09448161937312456,-0.5384156385322388,-0.3244598447092755,0.0588043529708806,-3.078592882434962,0.6247331856464723,-9.206376324713015e-05,0.0015779106039060403,0.0009111280498047787,-0.021592855230438922,0.0022019997344059866,-0.006147049200901569,-0.00021442927563857634,0.3268004059791565,-1.1512096387198945,1.6648157278644007,-2.0827495060362757,-1.5713933149920862,2.3017611503601074,-0.0005113573861308396,0.024513961747288704,0.024384602904319763,-0.042369503527879715,-0.00015937532589305192,-0.0003074136620853096,0.15322890877723694,0.1149216815829277,-9.193734169006348,0.6971306204795837,47.68061828613281,-0.3666543960571289,-3.326000213623047,-1.7703137397766113,-0.7728966474533081,-0.03194909915328026,-0.25555047392845154,27.6875,28.875,28.125,32.0625,34.625,35.875
1.0,0.12672894081816677,-0.5895361639999304,-0.33355264966263365,0.012484380827625064,-0.0347213028296918,-0.09190572105632126,-0.5384076782756787,-0.32447272428094376,0.05876248495205211,-3.0786036519300413,0.6246197521007176,-0.00012474983948411518,0.0014523388274314125,0.0008380982390533442,-0.02232565550511645,0.002003389803317534,-0.005582863038885928,-0.0001852503508842426,0.3268243968486786,-1.1511493784240265,1.6648405233966272,-2.0828105411925257,-1.5713933149920862,2.301712989807129,-0.0004671028582379222,0.025374403223395348,0.025409094989299774,-0.04485253244638443,-0.00015592394629493356,-0.00029310642275959253,0.2106897532939911,0.15322890877723694,-9.232041358947754,0.6971306204795837,47.66449737548828,-0.3542114496231079,-3.353353977203369,-1.7687857151031494,-0.7776663303375244,-0.03514139726758003,-0.24344733357429504,27.6875,28.875,28.125,32.0625,34.625,35.875
1.0,0.12396686049451014,-0.6573208560026689,-0.19887154304122645,0.00828650617527737,-0.031777812026304066,-0.0919504383263139,-0.5383878967271991,-0.32446170931406154,0.05872747088867458,-3.078611130107773,0.6246789428285437,-0.0001847511781902314,0.0009749130780517956,0.0006943706670329345,-0.022251587201546314,0.0013671431120012936,-0.003731083407026701,-0.00023065139496719324,0.3268004059791565,-1.1511494678309937,1.664936367665426,-2.0828830204405726,-1.571357552205221,2.301724910736084,-0.0004985568812116981,0.02532975748181343,0.025833413004875183,-0.04719023033976555,-0.00015261863882187754,-0.0002800724469125271,0.19153612852096558,0.15322890877723694,-9.251194953918457,0.7351769208908081,47.705692291259766,-0.4021502137184143,-3.2734904289245605,-1.7879307270050049,-0.7817738652229309,-0.021749377250671387,-0.25288939476013184,27.6875,28.875,28.125,32.0625,34.625,35.875
1.0,0.0369536744801232,-0.3139715057741474,-0.09329755729841745,-0.009437668612432793,-0.028546322909823573,-0.09053320852398912,-0.5383982184206086,-0.32446547961370814,0.05868292340384512,-3.0785851449902326,0.6247316912302194,-0.00015133898856799468,0.0011407291146605745,0.0007275881734440423,-0.022954647422501598,0.0015857254456945022,-0.004386976817393315,-0.00020865695239944158,0.32681235671043396,-1.1510772568038483,1.6649611631976526,-2.0829907856383265,-1.5713813940631312,2.3017730712890625,-0.00046452158130705357,0.026160981506109238,0.02643875777721405,-0.04793546721339226,-0.00014945065777283162,-0.0002681500918697566,0.19153612852096558,0.05746084079146385,-9.251194953918457,0.7217512726783752,47.6734504699707,-0.3716898560523987,-3.2843856811523438,-1.8071072101593018,-0.8267700672149658,-0.026529159396886826,-0.2602536678314209,27.6875,28.875,28.125,32.0625,34.625,35.875
1.0,0.049361339626915135,-0.7018638530676597,-0.1957022833684993,-0.00366591262918526,-0.0205346129461786,-0.09410851957422602,-0.5383949901505607,-0.32446845277122377,0.05862442032403731,-3.078584932952438,0.6246542899018294,-0.0001567168755787216,0.0009956282127919415,0.0006821582491199884,-0.023741974103776948,0.0015873982154025938,-0.0044105598192137364,-0.0002285714352498062,0.3268243968486786,-1.151004896765091,1.6650202910052698,-2.083111425439352,-1.5713933149920862,2.301736831665039,-0.00047305107000283897,0.027403714135289192,0.026867009699344635,-0.049583595246076584,-0.00014641156303696334,-0.0002571994555182755,0.24899697303771973,0.07661445438861847,-9.232041358947754,0.6344689130783081,47.674346923828125,-0.35412395000457764,-3.3178484439849854,-1.862773060798645,-0.824462890625,-0.02222699671983719,-0.24179592728614807,27.6875,28.875,28.125,32.0625,34.625,35.875
1.0,0.40787034798232946,-0.5317827284452932,-0.11297647694472916,-0.00286986402141623,-0.007400246455006478,-0.10253902013800119,-0.538421699375779,-0.3244658057849387,0.05860015730457757,-3.0786074694094805,0.6247172275352282,-0.00010128530511165379,0.0005082663358458309,0.0005078504604837614,-0.023646116288333213,0.0009604336272405338,-0.002584824353978016,-0.0002288869592178231,0.3268004357814789,-1.150957004433014,1.6650331656085413,-2.083220144311422,-1.5713813940631312,2.3017492294311523,-0.0004623925487976521,0.02739717997610569,0.027159497141838074,-0.05179993435740471,-0.00014349333650898188,-0.0002471098559908569,0.09576806426048279,0.09576806426048279,-9.097966194152832,0.7306999564170837,47.674346923828125,-0.3761192560195923,-3.3031864166259766,-1.8268675804138184,-0.8471156358718872,-0.020972387865185738,-0.25892430543899536,27.6875,28.875,28.125,32.0625,34.625,35.875
1.0,-0.2064446956066714,-0.6731125609341229,-0.2957008592346205,0.0033824597914828497,-0.015064122374297328,-0.09536207897613494,-0.5383897737078038,-0.3244315740521884,0.05849273848793746,-3.0785351220605213,0.6247403723572265,-0.0002800255872218624,0.00037450487067765834,0.0004432815913070246,-0.0237439117956003,0.0005838683563489077,-0.0014908776641024473,-0.00021124074677836857,0.32676443457603455,-1.150861070757248,1.6651647726642054,-2.083315988580221,-1.5713813940631312,2.301736831665039,-0.00043473506229929626,0.027254469692707062,0.028002727776765823,-0.053657401353120804,-0.00014068947348278016,-0.0002377809287281707,0.07661445438861847,0.05746084079146385,-9.174580574035645,0.7463666796684265,47.66986846923828,-0.37312841415405273,-3.333772659301758,-1.809619426727295,-0.8524240851402283,-0.043699003756046295,-0.2424040138721466,27.6875,28.875,28.125,32.0625,34.625,35.875
1.0,0.02338423444031955,-0.37750275386204557,-0.22349652812248574,-0.011718763215331274,-0.000598674367582409,-0.09736599766651902,-0.5383913320110614,-0.32448208293033776,0.05847292898207307,-3.0786213559820568,0.6247011487921547,-0.00025982522215784365,-0.0007215638610954686,5.213781711636697e-05,-0.023379278053750865,-0.000872346284108041,0.002765012837846066,-0.00019710491738430207,0.32681235671043396,-1.1508132380298157,1.6651652495013636,-2.083414217034811,-1.5713217894183558,2.3017492294311523,-0.0004099797806702554,0.026983652263879776,0.028655024245381355,-0.05853699520230293,-0.00013799294538330287,-0.00022913259454071522,0.05746084079146385,0.15322890877723694,-9.232041358947754,0.7374180555343628,47.67524337768555,-0.36192411184310913,-3.175696849822998,-1.9011207818984985,-0.8140423893928528,-0.01848340965807438,-0.23230081796646118,27.6875,28.875,28.125,32.0625,34.625,35.875
1.0,-0.0516432221112105,-0.45835050313235165,-0.2455742276430512,-0.015668819079669563,0.005709257477443866,-0.10015063635699101,-0.5383591599504476,-0.32445209201068576,0.058394338445229926,-3.078545248944543,0.6247046884751947,-0.0003473267774993012,-0.0009774523106660159,-5.070465752431751e-05,-0.023740097401536518,-0.0009996936915912568,0.003123787325409236,-0.0001833944701514063,0.32680046558380127,-1.15076498806987,1.665297810231344,-2.0835095844664515,-1.571357552205221,2.3017492294311523,-0.0003878892748616636,0.02779444120824337,0.028605017811059952,-0.059678465127944946,-0.0001353979459963739,-0.00022109015844762325,-0.019153613597154617,0.09576806426048279,-9.251194953918457,0.7060845494270325,47.66628646850586,-0.3803654909133911,-3.263974666595459,-1.8104584217071533,-0.7850344181060791,-0.03497704118490219,-0.2574858069419861,27.6875,28.875,28.125,32.0625,34.625,35.875
1.0,-0.38197347647368207,-0.670954491543671,-0.27832418487528504,-0.011854273832522768,-0.00012696741191248802,-0.08963505345522135,-0.5383947310634514,-0.324472275485349,0.05837721330735729,-3.0785922626769264,0.6246177788695222,-0.00019637889277220798,-0.0011716745847725426,-0.00013123417274249816,-0.02473018988680938,-0.001188576572071035,0.0036584456201819624,-0.00017196808703666245,0.326824426651001,-1.1507046085647126,1.6652854124652308,-2.0836550197997035,-1.5713813940631312,2.301712989807129,-0.00036805879790335894,0.02910180203616619,0.029700109735131264,-0.06264793127775192,-0.00013289862545207143,-0.00021359261882025748,0.019153613597154617,0.09576806426048279,-9.232041358947754,0.6948947906494141,47.69136428833008,-0.3960076868534088,-3.3158159255981445,-1.833771824836731,-0.7955184578895569,-0.03077177330851555,-0.24289023876190186,27.6875,28.875,28.125,32.0625,34.625,35.875
1.0,-0.35779050350853236,-0.5503183916774617,-0.42123873466363737,-0.012600451023941299,0.0030754406314050468,-0.10342406153578276,-0.5383760287583896,-0.3244696690811286,0.05833388227656128,-3.0785837232393742,0.6247124249561661,-0.00020551762542105712,-0.0018570069695185007,-0.00037790467650856746,-0.025172370738933917,-0.0022826609764969416,0.006849827854519989,-0.0001630674674859313,0.326824426651001,-1.1506924790195008,1.665394131337301,-2.083776136437887,-1.571369473134176,2.3017730712890625,-0.00035015703178942204,0.029438646510243416,0.031475722789764404,-0.06813409924507141,-0.00013049010885879397,-0.0002065882581518963,-0.019153613597154617,0.13407529890537262,-9.27034854888916,0.7888899445533752,47.694053649902344,-0.4352337121963501,-3.3176612854003906,-1.8922094106674194,-0.7629156112670898,-0.03385043516755104,-0.23704499006271362,27.6875,28.875,28.125,32.0625,34.625,35.875
1.0,-0.3014605375075383,-0.6683169461208331,-0.2937115182046718,-0.01863060480700599,0.009747371788271165,-0.09878295116023895,-0.5384085156949414,-0.3244961595317575,0.05828166864983514,-3.078659277674024,0.6246314379619129,-0.0001249800026278723,-0.0024600715045758597,-0.0005955096062783188,-0.025725447613200086,-0.003044870571925885,0.009066696381935193,-0.0001548936657546952,0.3268364667892456,-1.1505843561938782,1.665405575429098,-2.0839692554869593,-1.571345631276266,2.301724910736084,-0.0003339166578371078,0.030239803716540337,0.03257353603839874,-0.07237730175256729,-0.00012816721573472023,-0.00020002838573418558,-0.038307227194309235,0.019153613597154617,-9.308656692504883,0.6590895652770996,47.67882537841797,-0.41961899399757385,-3.2776834964752197,-1.9596973657608032,-0.6898636817932129,-0.03986635059118271,-0.248737633228302,27.6875,28.875,28.125,32.0625,34.625,35.875
1.0,-0.0142044096140643,-0.52714035971578,-0.2541212112358227,-0.019626676400855532,0.01968541241857604,-0.10522636029734876,-0.5384306787567933,-0.3244769227882762,0.058258487664178016,-3.078630247183139,0.6246638808293847,2.610371837953765e-06,-0.0025810169393246487,-0.0006527818347120151,-0.02648508791039231,-0.0028940974037659573,0.008557556907064773,-0.0001464028438465603,0.326824426651001,-1.1505598288825531,1.6654537359820765,-2.0841008625426234,-1.5714057127581995,2.301736831665039,-0.00031911637051962316,0.03167087212204933,0.032489217817783356,-0.07319354265928268,-0.0001095328843803145,-0.0001938721106853336,0.0,0.09576806426048279,-9.27034854888916,0.7284641265869141,47.705692291259766,-0.4390709400177002,-3.425715923309326,-2.010342597961426,-0.6791946887969971,-0.032186489552259445,-0.2433481216430664,27.6875,28.875,28.125,32.0625,34.625,35.875
1.0,0.018906992427072705,-0.12467550750859749,-0.3441778152700271,-0.017585278934601906,0.016762136330959056,-0.09601974647679087,-0.5384177442633201,-0.3244764761040489,0.058189371113638394,-3.078616157557548,0.6247000211812355,-5.4296512355153776e-05,-0.004024628342887309,-0.0011851780837417558,-0.02607778990387709,-0.004200440226487132,0.012321085262829072,-0.00010200924313351814,0.32682445645332336,-1.150487558250763,1.665537182484762,-2.084221979180807,-1.5713933149920862,2.3017611503601074,-0.00026743815396912396,0.03239225223660469,0.03137413412332535,-0.07678361237049103,-9.172954014502466e-05,-0.0001880832714959979,-0.019153613597154617,0.1149216815829277,-9.251194953918457,0.7172743082046509,47.687782287597656,-0.45938238501548767,-3.3283684253692627,-1.8141165971755981,-0.6354449391365051,-0.03483126685023308,-0.23594655096530914,27.6875,28.875,28.125,32.0625,34.625,35.875
1.0,-0.7168237460793614,-0.7882047306221036,-0.47657521695273264,-0.003012039451118068,-0.002151339046205988,-0.08816912235437509,-0.5384281104798779,-0.32449540588212833,0.058133121826804274,-3.0786614221741844,0.6246709469825618,-2.5543111598806018e-05,-0.003728229028034365,-0.001105948065546148,-0.026717091369110286,-0.004332540058803004,0.01269798945992098,-7.59902610287365e-05,0.326836496591568,-1.1504036647132416,1.6655858198748987,-2.0843898258604945,-1.571369473134176,2.3017492294311523,-0.00023516989313066006,0.03232409805059433,0.033468812704086304,-0.07920950651168823,-8.889993478078395e-05,-0.00018263065430801362,-0.05746084079146385,0.09576806426048279,-9.308656692504883,0.7486078143119812,47.68867492675781,-0.44039326906204224,-3.408324718475342,-1.8948110342025757,-0.5940269827842712,-0.03020624816417694,-0.24894803762435913,27.6875,28.875,28.125,32.0625,34.625,35.875
1.0,-0.7874388549394995,-0.4654152855935998,-0.4882582330790623,-0.005947945999782466,-0.0178196202305026,-0.09021061974743445,-0.5384497233872387,-0.32446410817524196,0.05802126679268027,-3.078647776902847,0.624725397719482,4.0787672618908054e-05,-0.0038464397986727786,-0.0011360572510338406,-0.027914849217554934,-0.0040666353173835065,0.011895465590974291,-0.00010456652860103423,0.32678845524787903,-1.1502828759006043,1.6657417456256312,-2.0847016773619593,-1.5713933149920862,2.301736831665039,-0.00025349995121359825,0.0344032421708107,0.03360328450798988,-0.08057773113250732,-8.545378659619018e-05,-0.000172621279489249,-0.019153613597154617,0.05746084079146385,-9.404424667358398,0.6792280077934265,47.6734504699707,-0.4504677653312683,-3.4413607120513916,-1.9178895950317383,-0.507177472114563,-0.04283434897661209,-0.23880906403064728,27.6875,28.875,28.125,32.0625,34.625,35.875
1.0,-0.06031942600120982,-0.5570726674365652,-0.5025753067852596,0.0024096906082317353,-0.008049769722921315,-0.08932334626160823,-0.5384152841144474,-0.32450261822318066,0.05794886752888681,-3.078676789920508,0.6246743008299968,-2.1962923165884588e-05,-0.002538053527839332,-0.0006965182067189561,-0.029016259671152546,-0.00290797124030065,0.00849451192392748,-9.85177357076191e-05,0.32684841752052307,-1.1502109330943604,1.6658380667315882,-2.0848447285094203,-1.571357552205221,2.3017611503601074,-0.00024369428865611553,0.03465612977743149,0.03540404886007309,-0.07903847098350525,-8.386098488699645e-05,-0.0001680175628280267,0.038307227194309235,0.1149216815829277,-9.308656692504883,0.7038487195968628,47.649269104003906,-0.43951714038848877,-3.418865203857422,-1.9961063861846924,-0.5263084173202515,-0.024034341797232628,-0.23918095231056213,27.6875,28.875,28.125,32.0625,34.625,35.875
1.0,0.4694275280064075,-0.13206425960977985,-0.37795263534774526,0.00704481440244043,-0.010515133267887578,-0.10143007146500868,-0.5384296679551486,-0.32447644878550874,0.05788023212641555,-3.0786824509360313,0.6246751509483769,-7.217018118923179e-06,-0.002054423993437433,-0.0005137845886070042,-0.02930402082194209,-0.0021619824512467754,0.006304585355865808,-0.00012973380968441482,0.32680049538612366,-1.1501389604857941,1.665933911000387,-2.0850235424437464,-1.571357552205221,2.301712989807129,-0.0002715140290092677,0.035087596625089645,0.034924961626529694,-0.0766773521900177,-8.232675463659689e-05,-0.00016365290503017604,0.05746084079146385,0.07661445438861847,-9.327810287475586,0.6881819367408752,47.66628646850586,-0.4556620419025421,-3.372025966644287,-1.8937900066375732,-0.5205262899398804,-0.03367370367050171,-0.23445075750350952,27.6875,28.875,28.125,32.0625,34.625,35.875
1.0,-0.013088195571694414,-0.0008393762088216832,-0.40345256320757833,0.023655666392670797,-0.04142002368472097,-0.09025378719764922,-0.5384653294131458,-0.3245079882578738,0.05784035383302105,-3.0787432715729763,0.6246683336544302,0.00011136666948180218,-0.0018554574803519616,-0.00043761073341166783,-0.029399736368368474,-0.0014872076166414084,0.004319927656338758,-0.0001465094678793215,0.32682445645332336,-1.1500428181937714,1.6659334341632288,-2.0852138004698695,-1.571345631276266,2.301724910736084,-0.00028523060609586537,0.035810526460409164,0.033503178507089615,-0.07388226687908173,-8.084758883342147e-05,-0.00015950886881910264,0.15322890877723694,0.07661445438861847,-9.27034854888916,0.6680382490158081,47.66001510620117,-0.4457685351371765,-3.3634886741638184,-1.89786696434021,-0.5603638887405396,-0.04164167493581772,-0.22955289483070374,27.6875,28.875,28.125,32.0625,34.625,35.875
1.0,0.7629955338855282,0.7538349753406653,-0.379580009588961,0.014023712167452214,-0.03207800481428685,-0.09807986780567791,-0.5384385887108921,-0.32448757035294606,0.05776865899450384,-3.078686876939241,0.624637730515288,5.747034545549997e-05,-0.0010471695463833196,-0.0001593179888877328,-0.03023379725309552,-0.0005395290803887442,0.0015606359727353223,-0.00015039225410250846,0.32682445645332336,-1.1499945682338257,1.6660531202899378,-2.085321088830465,-1.5713813940631312,2.301712989807129,-0.0002860316599253565,0.03649255633354187,0.034071534872055054,-0.07221515476703644,-8.723961946088821e-05,-0.00015556994185317308,0.17238251864910126,0.07661445438861847,-9.27034854888916,0.7463666796684265,47.68330383300781,-0.5059407949447632,-3.525801658630371,-1.8654565811157227,-0.5617362260818481,-0.02396499365568161,-0.23835024237632751,27.6875,28.875,28.125,32.0625,34.625,35.875
1.0,0.9088349341414294,0.3089308095084702,-0.16413155443694427,0.018121506992107957,-0.021471107755006377,-0.1051476047737082,-0.538471762274428,-0.3244870866270506,0.05771588442422787,-3.078717040370734,0.6247207499918006,0.00014342126779843205,-0.0003398349684643935,0.0002500892169527871,-0.03074813776040971,0.00012843705027203652,-0.00037602477770340095,-0.0004092736263618613,0.3268004059791565,-1.1499105852893372,1.6661017576800745,-2.0855242214598597,-1.571369473134176,2.301736831665039,-0.0005417003412730992,0.03640563413500786,0.035113800317049026,-0.07112187892198563,-9.312534530181438e-05,-0.00015182064089458436,0.09576806426048279,0.0,-9.232041358947754,0.6680382490158081,47.65553665161133,-0.49951839447021484,-3.4182944297790527,-1.919236660003662,-0.5787543058395386,-0.021963458508253098,-0.2222798764705658,27.6875,28.875,28.125,32.0625,34.625,35.875
1.0,0.33641308696566125,0.038989902470173685,-0.16806919420898403,0.01208047047692782,-0.028071958929160548,-0.0963680993848252,-0.5384589637714555,-0.3244593639991528,0.057618672853769815,-3.0786666296947316,0.6247881788004078,4.6009515578420444e-05,-2.4830582805503704e-05,0.00038707119261966594,-0.031311641860004735,0.0006957555792564954,-0.0020464383330137583,-0.000458630416521824,0.32676437497138977,-1.149814562206604,1.6662209669696253,-2.085667749444479,-1.571369473134176,2.3017492294311523,-0.0005880276439711452,0.03724110871553421,0.03499489650130272,-0.07007432729005814,-9.202113142237067e-05,-0.00014824811660218984,0.2298433631658554,0.0,-9.155426979064941,0.7060845494270325,47.69673538208008,-0.42949455976486206,-3.455352306365967,-1.8605782985687256,-0.5843080282211304,-0.04028843343257904,-0.23322811722755432,27.6875,28.875,28.125,32.0625,34.625,35.875
1.0,0.09404098168319891,0.17486123421807317,-0.07049741903209508,0.004514894604454964,-0.031569709091844575,-0.10208000723980419,-0.5384806064833164,-0.3244860862194194,0.05761904735360199,-3.0787372600145226,0.6247642307878125,0.00018188273990368738,0.00033330181554444853,0.0005109068326061307,-0.03207280928993486,0.0013176715613925716,-0.0038793878124912915,-0.00046521102599885854,0.3267883360385895,-1.149802104835846,1.6662324110614222,-2.0857988796629847,-1.571357552205221,2.3017492294311523,-0.0005916953668929636,0.038316622376441956,0.03503861278295517,-0.06925797462463379,-9.051020606420934e-05,-0.00014483925770036876,0.17238251864910126,0.05746084079146385,-9.21288776397705,0.6859408020973206,47.686885833740234,-0.473808616399765,-3.466154098510742,-1.816694736480713,-0.6071527004241943,-0.046006783843040466,-0.23104111850261688,27.6875,28.875,28.125,32.0625,34.625,35.875
1.0,0.31254555179865806,0.06220774289520735,-0.0659940510933042,0.004540754718200425,-0.027915030440362476,-0.09852127209783933,-0.5384574210086188,-0.32447471986257037,0.05752522920832237,-3.07867476473202,0.6246740936465767,7.971219194499073e-05,0.0008607858939604284,0.0006775849813931727,-0.03223329650057476,0.001893589127758402,-0.005535164917089059,-0.0004423825269969242,0.3268003761768341,-1.1496940118125458,1.666316334401266,-2.0858947239317835,-1.5713933149920862,2.301712989807129,-0.0005663417396135628,0.038261886686086655,0.035083092749118805,-0.06749466061592102,-0.00010003398347180337,-0.00014158443082123995,0.15322890877723694,-0.019153613597154617,-9.155426979064941,0.7172743082046509,47.702110290527344,-0.46923309564590454,-3.506922721862793,-1.7385311126708984,-0.6508674621582031,-0.04576323553919792,-0.22423359751701355,27.6875,28.875,28.125,32.0625,34.625,35.875
1.0,-0.23777004659052198,-0.7325163623144637,-0.17171820824847464,0.02342285566107382,-0.042043697673823925,-0.0897690865419833,-0.5384591233398373,-0.3244675260261991,0.057445075188668565,-3.0786485476608765,0.6247072186320545,2.7581017468800416e-05,0.0012180271256460149,0.000817259670812049,-0.03283844913074046,0.002486934805377611,-0.0072726055833415475,-0.00047176122309650667,0.3267883360385895,-1.14958609760318,1.666377369557516,-2.086025377313131,-1.5713933149920862,2.301724910736084,-0.0005931543419137597,0.039100755006074905,0.035057950764894485,-0.06647241860628128,-0.00010192311310674995,-0.00013847227091901004,0.2298433631658554,0.0,-9.059659004211426,0.7060845494270325,47.6680793762207,-0.4604969918727875,-3.4659671783447266,-1.786586046218872,-0.6687986254692078,-0.04125615209341049,-0.22574381530284882,27.6875,28.875,28.125,32.0625,34.625,35.875
1.0,0.5037527524585133,-0.08902457213004195,-0.15926025630473895,0.014121866375553202,-0.03256180808393146,-0.09530920787905357,-0.5384405795130978,-0.32446871417620526,0.05738877769070733,-3.078659417253372,0.6247287410811923,-6.8073936974317875e-06,0.0019185183418452215,0.0011741340829605849,-0.03351359531984558,0.003150681325947689,-0.009221679872911538,-0.0006564389507931377,0.3267882764339447,-1.149549977188446,1.6664846579181116,-2.0861574612059535,-1.571369473134176,2.301736831665039,-0.0007753095705993474,0.03927719220519066,0.03617461770772934,-0.0657065287232399,-0.0001005257508950308,-0.00013549425057135522,0.09576806426048279,0.019153613597154617,-9.097966194152832,0.6814691424369812,47.64657974243164,-0.5107951164245605,-3.5300352573394775,-1.837937831878662,-0.724994957447052,-0.03233589604496956,-0.23197266459465027,27.6875,28.875,28.125,32.0625,34.625,35.875
1.0,0.5270692685994172,-0.06629010049934189,-0.008768609717352212,0.0015385783587283583,-0.032989968168369764,-0.10002984684176408,-0.5384494545526667,-0.3244602992067444,0.05732192239072059,-3.078634536214972,0.6247237296747766,3.710718511333535e-05,0.001608346241389324,0.0011435679889574219,-0.03358422337157014,0.002796733770205182,-0.00817004653966615,-0.0007734156585572703,0.3267882466316223,-1.149465875034668,1.6665571371661585,-2.086325307885641,-1.5714057127581995,2.301736831665039,-0.0008888445445336401,0.039409250020980835,0.03650969639420509,-0.0672832503914833,-0.0001059241549228318,-0.00013264117296785116,0.1149216815829277,0.07661445438861847,-9.155426979064941,0.7016075849533081,47.66360092163086,-0.47688794136047363,-3.5023317337036133,-1.7937920093536377,-0.7439967393875122,-0.03177841752767563,-0.2242433726787567,27.6875,28.875,28.125,32.0625,34.625,35.875
1.0,0.4374085570557298,-0.43139493045496324,-0.09993514042389344,-0.0020948535048614884,-0.02726618463405752,-0.09622029692434675,-0.5384434179628713,-0.3244775666994242,0.05726378217114858,-3.078652575149686,0.6247280349065881,-2.648991152967677e-05,0.0024443267922138953,0.0013833411190913806,-0.03399107220828555,0.00367054964851309,-0.010712699093944109,-0.0007023804624793499,0.32680031657218933,-1.149382160311081,1.6665938536273401,-2.0864201984801234,-1.571369473134176,2.3017492294311523,-0.0008160675643011928,0.03946899622678757,0.036828719079494476,-0.06497339904308319,-0.0001108826108975336,-0.00012990605318918824,0.05746084079146385,0.0,-9.136273384094238,0.6456586718559265,47.66718673706055,-0.46855250000953674,-3.440680742263794,-1.8007543087005615,-0.7964107990264893,-0.03618021309375763,-0.22896327078342438,27.6875,28.875,28.125,32.0625,34.625,35.875
1.0,0.06637504875174416,-0.4830572444509925,-0.13115970285353784,-0.010641822044143535,-0.02739914784322629,-0.10131869150053985,-0.5384259488264165,-0.3244756101256886,0.05717953808019752,-3.078616618163388,0.6247016353294716,-9.88560364647511e-05,0.002350239565960694,0.0013559735767979281,-0.03469890321564455,0.003710985764209195,-0.010842959238331357,-0.0007139143840995364,0.3268122375011444,-1.149285690193512,1.6666777769671839,-2.0865403614439906,-1.5713813940631312,2.3017492294311523,-0.0008246397483162582,0.04057575762271881,0.03719889372587204,-0.06631399691104889,-0.00010962467058561742,-0.00012728138244710863,0.13407529890537262,0.17238251864910126,-9.136273384094238,0.6881819367408752,47.65553665161133,-0.5333744287490845,-3.543609380722046,-1.824113368988037,-0.8202930688858032,-0.04325477406382561,-0.21554648876190186,27.6875,28.875,28.125,32.0625,34.625,35.875
1.0,0.10671645044634306,-0.8482359244936255,-0.3051833516410418,-0.010676024177396135,-0.013157561418678704,-0.10403357168498495,-0.5384355532419658,-0.32446709423423103,0.05712217027110056,-3.0786164610195508,0.6247592958441901,-0.0001061388171604381,0.001464285772844194,0.001154918506216793,-0.03580528290458468,0.00311358378926553,-0.008799616539005344,-0.0008264946132342675,0.3267882168292999,-1.1492130321315308,1.666736904774801,-2.0866738758482875,-1.571369473134176,2.3017611503601074,-0.00093324069166556,0.04264408349990845,0.03794669732451439,-0.07125673443078995,-0.00021024553279858083,-0.00012476072879508138,0.15322890877723694,0.15322890877723694,-9.193734169006348,0.7150384783744812,47.681514739990234,-0.49644529819488525,-3.564108371734619,-1.780200481414795,-0.8209754228591919,-0.05113246291875839,-0.20932963490486145,27.6875,28.875,28.125,32.0625,34.625,35.875
1.0,-0.16851001185439124,-0.9109985113902196,-0.15205044918573762,-0.021412329650674092,-0.008272237604057008,-0.09457471242512687,-0.5384209370981392,-0.3244428045806345,0.05705293672636447,-3.0785732874174587,0.6247698243330123,-0.00017751473982952613,0.0015587615709652424,0.0011924184028176033,-0.03539977738464887,0.0029220752737762487,-0.008164815962323652,-0.0008260846988545694,0.3267642557621002,-1.1491534870914002,1.6668327490436,-2.0867697201170863,-1.5713813940631312,2.3017492294311523,-0.0009302739053964615,0.04164360836148262,0.03846573084592819,-0.07143789529800415,-0.00023212391533888876,-0.00012233792222104967,0.13407528400421143,0.19153612852096558,-9.232041358947754,0.6904177665710449,47.67882537841797,-0.46892428398132324,-3.627225875854492,-1.8000025749206543,-0.8267965316772461,-0.03707326948642731,-0.22830866277217865,27.6875,28.875,28.125,32.0625,34.625,35.875
1.0,0.0523023379320017,-0.753189520537904,-0.3630242186544805,-0.030949879585526252,0.00253380787135022,-0.0960858905541893,-0.5384261512352057,-0.3244484182295519,0.05694143135100682,-3.07856423002051,0.6247482065879658,-0.0002512366199768268,0.0006283127011066385,0.0008758361853692874,-0.03502765292749705,0.0015643135443393975,-0.004148304266401166,-0.0008672208503261922,0.3267642557621002,-1.1489857000163575,1.6668928305255335,-2.0869504414000453,-1.571369473134176,2.301736831665039,-0.0009257642086595297,0.04113136604428291,0.03938920050859451,-0.07608887553215027,-0.000244533468503505,-7.856605225242674e-05,0.1149216815829277,0.24899697303771973,-9.136273384094238,0.7486078143119812,47.693153381347656,-0.45998215675354004,-3.3778371810913086,-1.6795533895492554,-0.8261971473693848,-0.038135722279548645,-0.22235757112503052,27.6875,28.875,28.125,32.0625,34.625,35.875
1.0,0.1971983350303584,-1.003705183100811,-0.41119425400593657,-0.030637594076415395,0.013247625559498762,-0.09736171553570014,-0.5384156313001632,-0.3244486507084244,0.05681518606390992,-3.078581459174231,0.6247518865688665,-0.00024202013737934322,-0.0006794403630667309,0.00044309986220721255,-0.03651699084387437,-3.177659695825479e-05,0.0005031611186722397,-0.0009379066482287371,0.3267642557621002,-1.148865209226944,1.6670854727374476,-2.0872775516905726,-1.571357552205221,2.301736831665039,-0.0009490610100328922,0.04326947405934334,0.041977930814027786,-0.08573338389396667,-0.0002432953187962994,-3.453948374954052e-05,0.15322890877723694,0.26815059781074524,-9.21288776397705,0.7150384783744812,47.700321197509766,-0.4542631506919861,-3.5407772064208984,-1.8197340965270996,-0.7665056586265564,-0.055915385484695435,-0.21848617494106293,27.6875,28.875,28.125,32.0625,34.625,35.875
1.0,-0.006707155952267951,-0.9232482474017898,-0.38222229997467994,-0.034622704431954254,0.010762491345909921,-0.09460421886614195,-0.5384004112132458,-0.3244516319055887,0.05673320728957948,-3.078534308091458,0.6247426525348163,-0.00022186539946031727,-0.001454798392041952,0.00017913339846346385,-0.037610067397478346,-0.00037034607134553215,0.0015479358054769764,-0.000931022044622618,0.32680025696754456,-1.148780421619751,1.6671941916095179,-2.0874577961363734,-1.5714057127581995,2.3017730712890625,-0.0009403721778653562,0.045701272785663605,0.04183993116021156,-0.08912526816129684,-0.00026652094675228,-3.3725205867085606e-05,0.1149216815829277,0.2106897532939911,-9.27034854888916,0.7150384783744812,47.649269104003906,-0.5258610248565674,-3.7349772453308105,-1.7431905269622803,-0.722050130367279,-0.031897127628326416,-0.2117464691400528,27.6875,28.875,28.125,32.0625,34.625,35.875
1.0,-0.31676304224760493,-0.8989788093528612,-0.4671362773441746,-0.01798448552726205,-0.0004989037304844977,-0.09149052164202605,-0.5384218361581502,-0.3244474229870809,0.05666033525934444,-3.078549138336808,0.6246877894363055,-0.00017593060317240021,-0.0031342468456755606,-0.0004198834138750721,-0.036285301998318975,-0.0028666823701645064,0.008847750916457597,-0.0008976106331616883,0.3267882466316223,-1.1486730140498658,1.6672537962542933,-2.087651868859762,-1.5714176336871546,2.301724910736084,-0.0009032667730934918,0.04399102181196213,0.04279297590255737,-0.09608293324708939,-0.0002601339656393975,-3.3094303944380954e-05,0.038307227194309235,0.19153612852096558,-9.308656692504883,0.7418897151947021,47.674346923828125,-0.4682319164276123,-3.5674633979797363,-1.7792192697525024,-0.6622294187545776,-0.03267709165811539,-0.21602016687393188,27.6875,28.875,28.125,32.0625,34.625,35.875
1.0,0.01435791527167618,-0.3071303756581458,-0.5103349444602223,-0.022353184462694926,0.007791987536629862,-0.10454965637986346,-0.5384076111042424,-0.3244578238508724,0.05659215475347418,-3.078581824893617,0.6247335967206817,-0.00021575753445359926,-0.0025340103233608057,-0.00025848080279859963,-0.036913863806697145,-0.0027674243019253043,0.0086237195690278,-0.0008214276197708885,0.3267882466316223,-1.1486133199981232,1.66736346880068,-2.0878201923766078,-1.571369473134176,2.3017492294311523,-0.0008259958704002202,0.04361043497920036,0.04514742270112038,-0.09781267493963242,-0.00028108275728300214,-3.249612564104609e-05,0.019153613597154617,0.19153612852096558,-9.366117477416992,0.6948947906494141,47.693153381347656,-0.5653782486915588,-3.513899803161621,-1.985196590423584,-0.6183607578277588,-0.03953665867447853,-0.22270579636096954,27.6875,28.875,28.125,32.0625,34.625,35.875
1.0,-0.2403803489192483,-0.7424756700304517,-0.3654469029322589,-0.0111444045290464,-0.002859988670877441,-0.09776556889388109,-0.5384324259797892,-0.32446633565653094,0.056528659622321564,-3.0786093221018804,0.6247583990547042,-0.00013094384406306132,-0.005312890824584854,-0.0012053213386595079,-0.03664743576231799,-0.0047911454964670004,0.01450943868778187,-0.000831868641686557,0.3267882466316223,-1.1485162836364289,1.6674216429339808,-2.0880381069579066,-1.571369473134176,2.3017611503601074,-0.0008334771846421063,0.04623628780245781,0.042222052812576294,-0.10373706370592117,-0.0002746321843005717,-3.191978976246901e-05,0.13407529890537262,0.15322890877723694,-9.327810287475586,0.6590895652770996,47.658226013183594,-0.5215001702308655,-3.568449020385742,-1.7801895141601562,-0.5549893975257874,-0.05475272238254547,-0.21451210975646973,27.6875,28.875,28.125,32.0625,34.625,35.875
1.0,-0.09273612306451426,-0.4043333259728332,-0.4810184524617433,-0.0055723888142011685,-0.008930129881491779,-0.09202053809579198,-0.5384304547197487,-0.32445422279635633,0.05642382194491555,-3.0785948747355896,0.6247165011282787,-0.0001552112966444187,-0.004602967892602219,-0.001015858822319377,-0.037417775857448564,-0.004016054927696971,0.012205611583118984,-0.0007553552759587262,0.3267763555049896,-1.1483962100795289,1.6675408522235315,-2.088252683679098,-1.5713813940631312,2.301724910736084,-0.0007570403395220637,0.04688452184200287,0.042799148708581924,-0.10253171622753143,-0.00026480891392566264,-3.13636010105256e-05,0.038307227194309235,0.17238251864910126,-9.404424667358398,0.7217512726783752,47.6707649230957,-0.559848427772522,-3.705440044403076,-1.6923768520355225,-0.5200026035308838,-0.03760813921689987,-0.2232269048690796,27.6875,28.875,28.125,32.0625,34.625,35.875
1.0,-0.20411124065561517,-0.673799874078927,-0.6143091927124131,0.003021425922929778,-0.012241721085233193,-0.09265631673706852,-0.5384580967050983,-0.3244404723218098,0.05635473953745054,-3.0785902442549515,0.6247539662270992,-7.252118444262398e-05,-0.0034349410179702394,-0.0006535289759985993,-0.038129687045898995,-0.0030644437233794054,0.0093922465808507,-0.0007033578402026428,0.3267524242401123,-1.148300514822342,1.6676128546344202,-2.0884672604002894,-1.5714057127581995,2.301724910736084,-0.0007052815635688603,0.046716656535863876,0.04427867755293846,-0.10087346285581589,-0.000255431339610368,-3.082640978391282e-05,0.019153613597154617,0.2106897532939911,-9.442731857299805,0.6635612845420837,47.693153381347656,-0.5685243606567383,-3.6643662452697754,-1.7691020965576172,-0.5206024646759033,-0.028818972408771515,-0.22026707231998444,27.6875,28.875,28.125,32.0625,34.625,35.875
1.0,-0.1337263362035794,-0.2518097682709652,-0.5041186534617057,-0.003029951933943169,-0.014989092501609628,-0.09837634551262171,-0.5384514518078165,-0.3244654553052792,0.056285069074448246,-3.078619339320147,0.6247215918915986,-5.248040818079997e-05,-0.002203728971927416,-0.00022837983144880566,-0.038972547982061005,-0.0016908413057223869,0.005339665092865473,-0.0007144702251737388,0.3267883062362671,-1.1482163530639191,1.667696777974264,-2.0886575184264125,-1.5713933149920862,2.301736831665039,-0.0007173283956944942,0.04717202112078667,0.04481830820441246,-0.09758943319320679,-0.0002466797595843673,-3.0307372071547434e-05,0.038307227194309235,0.2106897532939911,-9.289502143859863,0.6478998064994812,47.67882537841797,-0.5383285284042358,-3.6481456756591797,-1.8005778789520264,-0.5265028476715088,-0.04129822552204132,-0.21781611442565918,27.6875,28.875,28.125,32.0625,34.625,35.875
1.0,0.21153846769037649,-0.4118258850853106,-0.5804862142868942,0.015126284175904336,-0.013948040924115094,-0.0941163124034632,-0.5384550430424034,-0.3244434502320554,0.056189565639674977,-3.078594967230576,0.6247741812712161,-8.939150268124e-05,-0.001000853794206116,0.00015187538442828325,-0.03963386246725985,-0.0002686303723243596,0.001337910784561075,-0.0006407103521182023,0.3267524540424347,-1.1481082302382966,1.6678059736834925,-2.0888477764525355,-1.5713933149920862,2.301736831665039,-0.0006447529303841293,0.04751044511795044,0.04501206427812576,-0.09387490153312683,-0.00029962044209241867,-2.9805531085003167e-05,0.038307227194309235,0.05746084079146385,-9.289502143859863,0.6568484306335449,47.68598937988281,-0.5495149493217468,-3.692904233932495,-1.821720838546753,-0.5753504633903503,-0.023844311013817787,-0.21422907710075378,27.6875,28.875,28.125,32.0625,34.625,35.875
1.0,0.3440716626604302,0.3516981161360274,-0.4569526904523351,0.011673576859441785,-0.021711430535244387,-0.09767398064525247,-0.5384413015918404,-0.32445435549514084,0.056102209430652666,-3.0785922085507824,0.6247551695756699,-0.00010755988939341089,-0.0006233649535971511,0.0002471480055288854,-0.03998865743762241,0.0006209692583916595,-0.0011628316852122823,-0.0005712810352836079,0.3267764151096344,-1.1480119985393067,1.6679132620440882,-2.0890380344786585,-1.5713933149920862,2.3017492294311523,-0.0005761008942499757,0.048486411571502686,0.04380776733160019,-0.09099246561527252,-0.0003352284838911146,-2.9320050089154392e-05,0.019153613597154617,0.019153613597154617,-9.366117477416992,0.7553206086158752,47.692256927490234,-0.5812775492668152,-3.607713222503662,-1.6891310214996338,-0.6101409196853638,-0.029340185225009918,-0.212617889046669,27.6875,28.875,28.125,32.0625,34.625,35.875
1.0,0.2763159572702757,0.5177973849453148,-0.5655914327800057,0.021252690619457396,-0.036850941608542284,-0.09795536066123899,-0.5384282823026417,-0.32447701839904164,0.05602003647075715,-3.0785905956937945,0.6247547403499063,-0.00014992298016734676,-0.00011572854749493489,0.0004335397868041545,-0.04027618274557676,0.001363938747307333,-0.003401107676191373,-0.0006006888192195249,0.3268122971057892,-1.1479039651206513,1.6679843107806605,-2.0891930065550746,-1.5713813940631312,2.3017849922180176,-0.0006060098530724645,0.04889420419931412,0.043349288403987885,-0.08858352154493332,-0.0003155128797516227,-2.8850132366642356e-05,0.1149216815829277,0.0,-9.327810287475586,0.6904177665710449,47.694053649902344,-0.5527088046073914,-3.671276569366455,-1.605940818786621,-0.6428655385971069,-0.027574673295021057,-0.20872262120246887,27.6875,28.875,28.125,32.0625,34.625,35.875
1.0,0.28817548141518723,0.4663715037876696,-0.4221508834321479,0.03226750505975533,-0.03938959517683447,-0.09948919342008847,-0.5384653441543832,-0.324454857021048,0.055941118033204396,-3.0785938482899677,0.6247749160070039,-9.447824840339055e-05,0.0011130326732733673,0.0008126923001987717,-0.04106819306057263,0.002432246529642455,-0.006592898736781023,-0.0005480730959473262,0.32676440477371216,-1.1477840405753632,1.6680448690997522,-2.089407583276266,-1.5713933149920862,2.3017492294311523,-0.0005538639961741865,0.04889039695262909,0.04469979926943779,-0.08656449615955353,-0.000295060221105814,-2.839497392415069e-05,0.13407529890537262,-0.05746084079146385,-9.346963882446289,0.6993717551231384,47.687782287597656,-0.5665274262428284,-3.636988639831543,-1.6582303047180176,-0.6790199279785156,-0.041382428258657455,-0.22770509123802185,27.6875,28.875,28.125,32.0625,34.625,35.875
1.0,0.3653954541465713,0.41026861522673264,-0.301229131048962,0.027380693812218124,-0.038634448621397116,-0.09767310241992817,-0.5384557066128345,-0.3244515829967496,0.05586254911768582,-3.078589025883047,0.624735070433301,-0.00012911767776093168,0.0014661219410628187,0.0009448191705760207,-0.041404332621617926,0.0029391607915316624,-0.008136166846475121,-0.0005748511383794478,0.32676437497138977,-1.1476999682239075,1.6681411902057093,-2.089562555352682,-1.5713933149920862,2.301724910736084,-0.0005807724082842469,0.049327801913022995,0.04455581679940224,-0.0852336660027504,-0.000276910635875538,-2.795403815980535e-05,0.13407529890537262,-0.1149216815829277,-9.193734169006348,0.6613254547119141,47.6627082824707,-0.591773509979248,-3.6440114974975586,-1.6093437671661377,-0.7213624715805054,-0.019496193155646324,-0.2091062366962433,27.6875,28.875,28.125,32.0625,34.625,35.875
1.0,0.23471411205791742,0.7617458666775754,-0.3100861547067054,0.016631515350082397,-0.03897229905642047,-0.09247580238840111,-0.5384599964039006,-0.3244644103410207,0.05580050370207784,-3.078610320582772,0.6248166933015742,-0.0001413868847838703,0.0020559447293336404,0.0011249211723202712,-0.04174746782411235,0.003566398960485062,-0.010023199462972945,-0.0005497294217760837,0.32676440477371216,-1.1476161640933533,1.6682003180133265,-2.089717527429098,-1.571357552205221,2.3017730712890625,-0.0005559067940339446,0.04947395622730255,0.04476393386721611,-0.08359947800636292,-0.00026085329591296613,-2.752654290816281e-05,0.05746084079146385,-0.17238251864910126,-9.21288776397705,0.7262282371520996,47.70390319824219,-0.5370023846626282,-3.658383846282959,-1.5620073080062866,-0.7625818252563477,-0.05576185882091522,-0.20090541243553162,27.6875,28.875,28.125,32.0625,34.625,35.875
1.0,0.6024944177945246,0.3964309432978445,-0.3916831042333205,0.023454431315053717,-0.02421489904242918,-0.1025481989897259,-0.5384303164949402,-0.32446245055479805,0.05568670653687896,-3.0785456629712686,0.6247458543101456,-0.00020045625724691445,0.0020840730123803442,0.0011540114195948544,-0.04201648718595726,0.003681644837416414,-0.010406934317079926,-0.0005872492469563407,0.3268003761768341,-1.1474958819201966,1.6683319250689905,-2.089897771874899,-1.5714057127581995,2.3017730712890625,-0.0005930436891503632,0.04992708936333656,0.044759608805179596,-0.08364791423082352,-0.0002465546131134033,-2.7111927920486778e-05,0.05746084079146385,-0.13407529890537262,-9.21288776397705,0.6568484306335449,47.68419647216797,-0.5538270473480225,-3.6947546005249023,-1.5446196794509888,-0.80232834815979,-0.045231036841869354,-0.22064237296581268,27.6875,28.875,28.125,32.0625,34.625,35.875
1.0,0.0888474717106355,0.2615631055399075,-0.33012751329238144,0.021307125163096824,-0.024559062132583537,-0.09801058551504743,-0.5384309459358622,-0.32446235139366925,0.055620940491491966,-3.0785864422564755,0.6247545626534947,-0.00023890630490158382,0.0018432480295147381,0.001126895776113896,-0.042137985384148674,0.0034022335675858322,-0.00963113381643306,-0.0006795494930427689,0.326776385307312,-1.147423879509308,1.6684163252459925,-2.0900541744627894,-1.571357552205221,2.3017492294311523,-0.0006844284944236279,0.050134170800447464,0.04504935443401337,-0.08496922999620438,-0.00023374274314846843,-2.6709603844210505e-05,0.1149216815829277,-0.09576806426048279,-9.289502143859863,0.7195101380348206,47.70838165283203,-0.5825247764587402,-3.6588969230651855,-1.52176833152771,-0.8405922651290894,-0.03097548708319664,-0.20174738764762878,27.6875,28.875,28.125,32.0625,34.625,35.875
1.0,-0.49243005212387203,-0.6268562620133592,-0.4678071823757182,0.012293258642835363,-0.007488001175630697,-0.09384300241821154,-0.5384210214746532,-0.32446289437165227,0.05546434696490132,-3.07856108054072,0.6247108146505935,-0.0002934032063580879,-0.00019386591096776272,0.0007599847461691301,-0.04183581196136866,0.0011891455025964393,-0.003109878454613411,-0.001182841533871571,0.32678812742233276,-1.147232012157776,1.668572727833883,-2.090355535546774,-1.571369473134176,2.301736831665039,-0.00118382612708956,0.050447653979063034,0.045711636543273926,-0.09283150732517242,-0.0002484164433553815,-2.5939763872884214e-05,0.07661445438861847,-0.1149216815829277,-9.308656692504883,0.6590895652770996,47.66986846923828,-0.5560944676399231,-3.6677675247192383,-1.5087412595748901,-0.8188802599906921,-0.04556770622730255,-0.20197716355323792,27.6875,28.875,28.125,32.0625,34.625,35.875
1.0,-0.27594954167065,-0.494845470095798,-0.5269023599068472,-0.014601679907151256,0.01915582303661038,-0.10241035738337434,-0.5384199283309838,-0.3244280200386082,0.055349976228798003,-3.078459142430918,0.6248056198572799,-0.000325115388750681,-0.0007060153275916211,0.0006223739053950358,-0.04196457441014688,0.0003529147283115296,-0.0006813677957850092,-0.0012451663377583688,0.32676416635513306,-1.1471001368812104,1.668692413960592,-2.090548654595846,-1.5714295546161097,2.3017849922180176,-0.001244349405169487,0.05041419714689255,0.04689953476190567,-0.09655440598726273,-0.000242295500356704,-2.5571282094460912e-05,0.05746084079146385,0.07661445438861847,-9.366117477416992,0.7284641265869141,47.6895751953125,-0.5359195470809937,-3.5855798721313477,-1.5211513042449951,-0.8139619827270508,-0.04658876359462738,-0.2010420858860016,27.6875,28.875,28.125,32.0625,34.625,35.875
1.0,-0.8185628501554606,-0.9977673628698145,-0.6500481023334215,-0.02652279808410759,0.01970922876062805,-0.09598189894558422,-0.538408126285007,-0.3244315429493643,0.055257422556868635,-3.078493069218444,0.6247935611786982,-0.0003928641243511773,-0.0027922650874333535,-0.00018440609545369673,-0.041568164513688756,-0.002292718781653159,0.0070311555013005365,-0.0011088798847425686,0.32675227522850037,-1.147004173403122,1.6688130537616175,-2.090743680993551,-1.5713813940631312,2.3017611503601074,-0.0011039403034374118,0.05053792521357536,0.04794071614742279,-0.1058729961514473,-0.0002322033978998661,-2.5213124899892136e-05,0.0,0.1149216815829277,-9.442731857299805,0.7217512726783752,47.687782287597656,-0.6017786264419556,-3.577305316925049,-1.5890918970108032,-0.7303166389465332,-0.034071989357471466,-0.20531713962554932,27.6875,28.875,28.125,32.0625,34.625,35.875
1.0,-0.6972167823233522,-1.2423734937698554,-0.7499636678974624,-0.03916956929042542,0.030548670634753822,-0.09805694388891482,-0.5384248006040251,-0.32442569513975344,0.05520719146771516,-3.0785150900696596,0.6247592665826794,-0.00031670052883050743,-0.0037575488099102308,-0.0005518647754407254,-0.04125785481473229,-0.0035109278264181458,0.010568823093275035,-0.0010570960023984736,0.3267402648925781,-1.1469442707351227,1.668884579335348,-2.09092440227651,-1.5713933149920862,2.301724910736084,-0.0010501403594389558,0.050457440316677094,0.048250019550323486,-0.10984335839748383,-0.0002226484357379377,-2.486483208485879e-05,0.019153613597154617,0.19153612852096558,-9.423578262329102,0.7172743082046509,47.6895751953125,-0.5781519412994385,-3.567530632019043,-1.5289400815963745,-0.685692548751831,-0.042734645307064056,-0.20475053787231445,27.6875,28.875,28.125,32.0625,34.625,35.875
1.0,-1.1106150542018711,-1.3153456807975508,-0.6780625250820201,-0.046423592884622986,0.02897974571821128,-0.0951546865645461,-0.5384029004614379,-0.3244375902959079,0.05510104585938305,-3.078518571479928,0.6247408050195097,-0.00035531834746953934,-0.0049909248084041,-0.0009898982954552355,-0.040504425561700835,-0.005185849060525646,0.015503339632286232,-0.0010291155129272909,0.32676422595977783,-1.1468366247466584,1.6690276304828089,-2.091153760949606,-1.5713813940631312,2.301736831665039,-0.0010197069495916367,0.049696024507284164,0.048720426857471466,-0.11476335674524307,-0.0002312736032763496,-2.452601256663911e-05,-0.05746084079146385,0.2298433631658554,-9.500192642211914,0.7105615139007568,47.674346923828125,-0.5708993077278137,-3.458686351776123,-1.5580418109893799,-0.6351823806762695,-0.03365977108478546,-0.20096509158611298,27.6875,28.875,28.125,32.0625,34.625,35.875
1.0,-0.8507805640182045,-1.4078207272681724,-0.8917984721133962,-0.043454529061786165,0.02155272291309808,-0.08794704419276311,-0.538449526266723,-0.3244573174352072,0.055051676945162664,-3.0785971393205163,0.6247378359289397,-0.00018807425919817157,-0.005479263728036074,-0.0011650708881247617,-0.04214212823971415,-0.005359453289956594,0.016013975722303526,-0.0010155424052246346,0.32676422595977783,-1.1467396777919312,1.6690643469439905,-2.0914179287352503,-1.571369473134176,2.301724910736084,-0.00100458855740726,0.052439507097005844,0.04954739287495613,-0.11887312680482864,-0.00023877846251707524,-2.4196340746129863e-05,-0.019153613597154617,0.24899697303771973,-9.519346237182617,0.6837049722671509,47.67255783081055,-0.5673485398292542,-3.631077289581299,-1.6648166179656982,-0.5690712332725525,-0.04249574616551399,-0.22146070003509521,27.6875,28.875,28.125,32.0625,34.625,35.875
1.0,-0.7610001141104936,-1.4295285409498455,-0.9515674264848399,-0.030543749911194545,0.009144772762304857,-0.09343683998755455,-0.5384450040639436,-0.32444055469708655,0.05492563254389496,-3.078556116710447,0.6247486564549947,-0.0002172061398110841,-0.0059816449792522795,-0.0013375128609378671,-0.04049293583448691,-0.00650787805349878,0.019372106184305782,-0.0010234727102092082,0.32675230503082275,-1.1465966564467927,1.6692083517657679,-2.0916696987547816,-1.5713933149920862,2.301724910736084,-0.0010054341983050108,0.049847956746816635,0.04966644570231438,-0.11994972079992294,-0.00023108218738343567,-1.799156416382175e-05,0.019153613597154617,0.28730422258377075,-9.53849983215332,0.7239871025085449,47.6734504699707,-0.5585645437240601,-3.458127737045288,-1.6164401769638062,-0.5519254803657532,-0.04091212898492813,-0.20069384574890137,27.6875,28.875,28.125,32.0625,34.625,35.875
1.0,0.11829947429406279,-0.7675394808612381,-0.7667698411533984,-0.037995806118207846,0.01410862661045007,-0.09641116756343111,-0.5384484633700326,-0.3244300131166213,0.05484726662068801,-3.078551528270468,0.624806134704649,-0.00016063435766775142,-0.004540697951501569,-0.0007598402554895583,-0.04111935213729288,-0.005238085224377263,0.015706415722971233,-0.0011522256722128685,0.32674023509025574,-1.146524892454483,1.6693404356585901,-2.091908117333883,-1.5714057127581995,2.3017492294311523,-0.0011296696029603481,0.04931988939642906,0.05118056386709213,-0.11705639958381653,-0.00024653904256410897,-1.217668796016369e-05,0.0,0.26815059781074524,-9.576807022094727,0.7172743082046509,47.66001510620117,-0.5577265024185181,-3.321946859359741,-1.592270851135254,-0.5379744172096252,-0.027686115354299545,-0.2093474268913269,27.6875,28.875,28.125,32.0625,34.625,35.875
1.0,0.19452846708105773,-0.5394061082148841,-0.7790816624935938,-0.01777461345493048,-0.012207282410998341,-0.09328263765404084,-0.5384744085481089,-0.32444281954614457,0.054770852079931986,-3.07859104256467,0.6248143595068232,-9.178230339112002e-05,-0.00369408527212756,-0.00040429339387164213,-0.042079304153469665,-0.004079573995397018,0.012304001246203946,-0.001255064636845309,0.32674020528793335,-1.1464047890952607,1.6694005171405237,-2.0921465359129847,-1.5713933149920862,2.3017492294311523,-0.0012331174220889807,0.05034679174423218,0.0514012835919857,-0.1147097796201706,-0.00024557800497859716,-1.165501817013137e-05,0.038307227194309235,0.2298433631658554,-9.461885452270508,0.7441308498382568,47.70121383666992,-0.5363326072692871,-3.289459466934204,-1.6240582466125488,-0.5685556530952454,-0.03215990960597992,-0.2078002691268921,27.6875,28.875,28.125,32.0625,34.625,35.875
1.0,0.5046957451751035,-0.3397098145789355,-0.7263209652677081,0.0020835526143208674,-0.030428206808477794,-0.09705169498988246,-0.5384759837281945,-0.3244393206624772,0.054685690606955606,-3.078593176872905,0.6248343756172253,-3.761881516127095e-05,-0.002908448470978985,0.00029441977822456674,-0.04364413162660185,-0.00232777295956977,0.007134157990258521,-0.0019214886128444439,0.32673996686935425,-1.1463198226741333,1.6695321241961878,-2.092395921746725,-1.5714057127581995,2.3017611503601074,-0.0019011810654774308,0.05275272950530052,0.050770606845617294,-0.11102648079395294,-0.00023794783919584006,-1.1482536137918942e-05,0.13407529890537262,0.24899697303771973,-9.442731857299805,0.7754590511322021,47.70927429199219,-0.5173654556274414,-3.467266082763672,-1.5732755661010742,-0.5818812251091003,-0.038677506148815155,-0.18926069140434265,27.6875,28.875,28.125,32.0625,34.625,35.875
1.0,0.7894669484732466,-0.09726412553461916,-0.7292053942998015,0.013849101467924414,-0.039087332192591535,-0.09653972760614908,-0.5384834433703805,-0.3244458638648971,0.0545856672530349,-3.0786048898446947,0.6247978440570799,-6.598356021117089e-05,-0.0015799713445405384,0.0006809751381313765,-0.044325546467306624,-0.001207979656498171,0.0038335724614633323,-0.0018210300087659866,0.32673999667167664,-1.146176205282547,1.6696050802813929,-2.0925990543761195,-1.5713933149920862,2.301736831665039,-0.0018016498070210218,0.05250133201479912,0.05213935300707817,-0.10865847766399384,-0.00023036565107759088,-1.1336353054502979e-05,0.19153612852096558,0.17238251864910126,-9.500192642211914,0.6568484306335449,47.702110290527344,-0.522942066192627,-3.407576084136963,-1.589586615562439,-0.6249879598617554,-0.05023207515478134,-0.19611676037311554,27.6875,28.875,28.125,32.0625,34.625,35.875
