Tylouw/Master_Thesis_Code/training_data/batch_1/big_rod_t0.1/sample_39_session_3.csv
timestamp[s],tcp_force_x[N],tcp_force_y[N],tcp_force_z[N],tcp_force_rx[Nm?],tcp_force_ry[Nm?],tcp_force_rz[Nm?],tcp_pose_x[m],tcp_pose_y[m],tcp_pose_z[m],tcp_pose_rx[rot_vec_x],tcp_pose_ry[rot_vec_y],tcp_pose_rz[rot_vec_z],tcp_velo_x[m/s],tcp_velo_y[m/s],tcp_velo_z[m/s],tcp_velo_rx[rot_vec_x/s],tcp_velo_ry[rot_vec_y/s],tcp_velo_rz[rot_vec_z/s],q1[rad],q2[rad],q3[rad],q4[rad],q5[rad],q6[rad],qd1[rad/s],qd2[rad/s],qd3[rad/s],qd4[rad/s],qd5[rad/s],qd6[rad/s],tool_acc_x,tool_acc_y,tool_acc_z,current_of_whole_robot[A],voltage_of_whole_robot[V],current_J1[A],current_J2[A],current_J3[A],current_J4[A],current_J5[A],current_J6[A],temp_J1[C],temp_J2[C],temp_J3[C],temp_J4[C],temp_J5[C],temp_J6[C]
6.0902676e-07,-0.06571863,-0.6256521,0.41801867,-0.006818639,0.016024943,-0.017865062,-0.37290937,-0.32821938,0.059955157,-3.0785005,0.62488955,-0.00023631952,0.0034694436,0.0016869981,-0.0047645033,0.0046033696,-0.009767794,1.6230239e-05,0.44812617,-1.470861,2.009549,-2.107703,-1.5706614,2.4230556,-8.3911465e-05,0.004102026,0.0063432846,0.00035220216,9.7540884e-05,-0.000103583116,0.019153614,0.24899697,-8.868123,0.67475104,47.701214,-0.071423575,-2.8842492,-2.477958,-0.5274242,0.0564973,-0.117569715,24.9375,25.4375,24.75,26.9375,27.3125,27.625
0.002052966,-0.2870031,-0.25413817,0.20962968,-0.008178379,0.0057047717,-0.018923823,-0.37289792,-0.32821387,0.059947908,-3.0784783,0.62490416,-0.00027549802,-0.0005241696,-0.00024466377,-0.003077028,-0.0012673651,0.0023786284,1.9880827e-05,0.44812617,-1.4708611,2.0095613,-2.107684,-1.5706614,2.4230676,-8.2627615e-05,0.0037766441,0.0056874175,-0.012157327,9.605379e-05,-0.00010190764,0.095768064,0.19153613,-8.714894,0.779936,47.705692,-0.124381095,-2.7596958,-2.3978539,-0.46579018,0.06536175,-0.12959674,24.9375,25.4375,24.75,26.9375,27.3125,27.625
0.004052313,0.1583811,-0.26569328,0.2349882,0.00064123893,0.015163768,-0.029103985,-0.37290436,-0.32822767,0.05994882,-3.0785165,0.6249117,-0.00022585093,-0.0018825652,-0.0009018373,-0.0021967597,-0.0031503926,0.0062782164,2.0907559e-05,0.4481382,-1.4708613,2.0095732,-2.1077445,-1.5706495,2.4230795,-8.138236e-05,0.0034108832,0.0047653625,-0.015199934,9.461131e-05,-0.00010028549,0.076614454,0.11492168,-8.90643,0.7083204,47.690468,-0.038806073,-2.967207,-2.5828059,-0.36173904,0.06865265,-0.124852486,24.9375,25.4375,24.75,26.9375,27.3125,27.625
0.006052607,0.20516843,0.3470622,0.047826856,0.010525691,-0.0052620433,-0.023025975,-0.3729246,-0.32820943,0.059941083,-3.0784795,0.62488514,-0.00015579884,-0.0009791385,-0.00046953623,-0.0016236684,-0.0017094,0.003307516,2.8354641e-05,0.44812617,-1.4708377,2.0095727,-2.1077778,-1.5707096,2.4230556,-7.137624e-05,0.0023668094,0.003261071,-0.009349831,9.32115e-05,-9.871463e-05,-0.019153614,0.095768064,-8.848969,0.7172743,47.70211,-0.13371116,-2.938754,-2.512672,-0.37409055,0.068529025,-0.11432685,24.9375,25.4375,24.75,26.9375,27.3125,27.625
0.008052622,-0.15422964,0.5185086,-0.19962902,0.051351443,-0.040997777,-0.01783552,-0.37288204,-0.32823187,0.059913028,-3.0785058,0.62487125,-0.00032619387,-0.00011903919,-5.593825e-05,-0.0013877664,-0.0003107508,0.00042129433,3.1427397e-05,0.44815025,-1.470814,2.009608,-2.1077645,-1.5706257,2.4230676,-6.589555e-05,0.0018203402,0.0022264388,-0.004561468,9.18524e-05,-9.719155e-05,0.076614454,0.19153613,-9.059659,0.7642693,47.703903,-0.065839544,-2.9050913,-2.4096332,-0.4421103,0.056463208,-0.11909197,24.9375,25.4375,24.75,26.9375,27.3125,27.625
0.010051722,0.7107921,1.2256105,-0.69732463,0.050056025,-0.02087111,-0.02396225,-0.37287626,-0.3282226,0.05990203,-3.0784824,0.6247699,-0.00032266538,0.0001845798,9.0802365e-05,-0.0012903891,0.0002732974,-0.0007827652,3.7437196e-05,0.4481623,-1.470802,2.00962,-2.107764,-1.5706614,2.4230194,-6.488588e-05,0.0017294589,0.0016436483,-0.0025495666,9.0532485e-05,-0.00010245022,0.038307227,0.15322891,-9.289503,0.7463667,47.704796,-0.34331787,-2.1104174,-3.2244945,-0.44442618,0.032308392,-0.14902815,24.9375,25.4375,24.75,26.9375,27.3125,27.625
0.012051966,0.14406039,0.13151197,-0.8147465,0.03170653,-0.012341659,-0.024183651,-0.37287307,-0.32822105,0.05990849,-3.0784664,0.62480485,-0.00034052486,-0.0017480337,-0.0008153305,-0.00352312,0.0024218592,-0.0051719965,1.6436787e-05,0.4481623,-1.47081,2.0096056,-2.1077273,-1.5706614,2.4230433,-9.630434e-05,0.012347818,-0.005117258,-0.0015201005,4.405161e-05,-0.000107331754,0.11492168,0.095768064,-9.404425,0.7530795,47.71554,-0.34448016,-2.2876744,-3.4345496,-0.4345079,0.008297615,-0.14123195,24.9375,25.4375,24.75,26.9375,27.3125,27.625
0.01405221,-0.6188592,-0.85837346,-0.93253034,0.0011979786,0.010896086,-0.023063429,-0.37287194,-0.32821628,0.059882887,-3.0784276,0.62487465,-0.00045264943,-0.004395594,-0.0020433813,-0.0037480295,0.002617973,-0.0055566397,-5.3109437e-05,0.44813818,-1.4707477,2.0095904,-2.107703,-1.5706376,2.4230676,-0.00018538033,0.019387053,-0.012498594,-0.000746291,1.9922461e-05,-0.00012148902,-0.095768064,0.22984336,-9.5385,0.75084364,47.705692,-0.422114,-2.7061815,-3.0484324,-0.42147255,0.01365259,-0.14562023,24.9375,25.4375,24.75,26.9375,27.3125,27.625
0.016052004,-1.3415087,-1.7443644,-1.1978644,-0.026294084,0.035574466,-0.01192031,-0.37287655,-0.32818967,0.05987467,-3.078366,0.62482566,-0.0004414488,-0.004418891,0.00024894258,-0.0045643975,0.004728381,-0.009883873,-0.004335949,0.4481246,-1.4707357,2.0095904,-2.1076782,-1.5706977,2.4230313,-0.0045068567,0.019858582,-0.01202739,0.0031253935,2.4553744e-06,-0.00016144445,-0.3256114,0.34476504,-9.653421,0.73069996,47.668976,-0.2188918,-2.5519214,-3.3489444,-0.42229044,0.003311319,-0.1688422,24.9375,25.4375,24.75,26.9375,27.3125,27.625
0.018052032,-1.3419381,-1.7366002,-1.2250681,-0.07008512,0.07423202,-0.03145251,-0.372872,-0.32821116,0.05987035,-3.0783997,0.624773,-0.0005197624,-0.004414824,0.00054997485,-0.004667636,0.005787862,-0.0120772235,-0.0026782458,0.4481365,-1.4706993,2.0095546,-2.107653,-1.5706495,2.423006,-0.005069101,0.020967996,-0.013689846,0.0061139627,1.6031838e-07,-0.002381096,-0.40222588,0.47884035,-9.864111,0.7083204,47.694946,-0.20999473,-2.3113685,-3.445109,-0.47483283,-0.023208167,-0.15778601,24.9375,25.4375,24.75,26.9375,27.3125,27.625
0.02005219,-1.7401124,-2.3391163,-1.0309913,-0.07466837,0.08602214,-0.02646309,-0.3728842,-0.3282171,0.059851047,-3.0783582,0.62472445,-0.00053004053,-0.0048821983,-0.0003711581,-0.0043279226,0.005371898,-0.011223888,0.000306267,0.448161,-1.4706149,2.0095065,-2.1076534,-1.5706857,2.4230056,-0.0037630154,0.022174517,-0.015777895,0.0060457913,1.04676445e-08,-0.004058057,-0.51714754,0.45968673,-9.883265,0.74413085,47.674347,-0.35715723,-2.3392055,-3.535074,-0.4787959,-0.04325043,-0.14563587,24.9375,25.4375,24.75,26.9375,27.3125,27.625
0.022052053,-1.7202895,-1.6327617,-0.9387239,-0.077095166,0.0920059,-0.028172046,-0.37288958,-0.3282006,0.05983293,-3.0783114,0.62481177,-0.0005891482,-0.0061468976,-0.0013447317,-0.003681364,0.004235087,-0.008879441,0.00049505726,0.44812512,-1.4705787,2.0095055,-2.1076415,-1.5706857,2.4230301,-0.0030835771,0.023459675,-0.018375516,0.0047528218,6.834624e-10,-0.0035652625,-0.57460845,0.61291564,-9.710882,0.7530795,47.687782,-0.45646036,-2.3517952,-3.4541316,-0.4523238,-0.044850178,-0.14236389,24.9375,25.4375,24.75,26.9375,27.3125,27.625
0.02405216,-2.076859,-1.5261331,-1.1076552,-0.053286646,0.07445835,-0.03357952,-0.3729114,-0.32821763,0.059839174,-3.0783358,0.6248365,-0.00062259607,-0.0074531264,-0.0012795479,-0.002990255,0.004788544,-0.0062298477,-0.00030890811,0.44811302,-1.4705306,2.009433,-2.1076176,-1.57065,2.4230304,-0.0032756636,0.023772769,-0.02014891,0.0040710936,-0.0016518527,-0.002948635,-0.53630114,0.59376204,-9.768343,0.7665104,47.686886,-0.5142022,-2.2650545,-3.5386353,-0.41484883,-0.062164437,-0.14743713,24.9375,25.4375,24.75,26.9375,27.3125,27.625
0.026051719,-1.3761778,-1.1700959,-1.1278021,-0.03747832,0.06575898,-0.030572388,-0.37292314,-0.32818827,0.059818096,-3.0782635,0.624842,-0.00060854695,-0.009419399,-0.00012830953,-0.002826769,0.0069428957,-0.004806204,-0.0025061476,0.4480884,-1.470494,2.009444,-2.10763,-1.570711,2.4230185,-0.00549461,0.025523564,-0.022504251,0.0043349136,-0.0042150235,-0.0029632514,-0.5554548,0.51714754,-9.730036,0.65684843,47.63046,-0.5058177,-2.1600404,-3.5273967,-0.4007632,-0.052676275,-0.17739399,24.9375,25.4375,24.75,26.9375,27.3125,27.625
0.028051578,-1.4077018,-1.2837296,-1.0249788,-0.012509075,0.03435968,-0.022322318,-0.37296528,-0.32822755,0.059837196,-3.0783064,0.62481207,-0.0005345317,-0.010458663,0.00022965974,-0.0030908806,0.00789757,-0.0059917998,-0.0028721264,0.44812387,-1.4704212,2.009323,-2.107641,-1.570711,2.42303,-0.006879147,0.028078884,-0.025037397,0.0057961033,-0.0045639593,-0.0039798487,-0.51714754,0.4405331,-9.481039,0.75084364,47.675243,-0.4985476,-2.1735406,-3.4951825,-0.3951843,-0.056808613,-0.17728677,24.9375,25.4375,24.75,26.9375,27.3125,27.625
0.030052548,-0.6167898,-0.6714933,-0.9158655,-0.017776422,0.04219467,-0.035754047,-0.37296924,-0.32822534,0.059800785,-3.0782723,0.62482363,-0.0006611492,-0.011492233,-0.00067401555,-0.0025480676,0.0066851866,-0.005200452,-0.0012534314,0.44809994,-1.4703249,2.009298,-2.1076295,-1.5706872,2.4230175,-0.006624095,0.029649952,-0.028055016,0.00600122,-0.0038215031,-0.005342703,-0.5363012,0.3256114,-9.500193,0.7597976,47.658226,-0.45778295,-2.1897194,-3.49894,-0.38429517,-0.05513312,-0.17225593,24.9375,25.4375,24.75,26.9375,27.3125,27.625
0.032052603,-0.50411063,0.024275733,-0.66285396,-0.017277904,0.04214503,-0.050077002,-0.37300375,-0.3282187,0.059809327,-3.0782483,0.6248568,-0.00066689984,-0.012861301,-0.0012393197,-0.0019365171,0.0055929786,-0.004032298,-0.0012968264,0.44806373,-1.4702764,2.0092142,-2.107581,-1.5706986,2.423005,-0.007126047,0.031080376,-0.031032827,0.006020604,-0.0033501002,-0.0058002155,-0.34476507,0.26815057,-9.576807,0.73069996,47.672558,-0.50369895,-2.1898403,-3.4760628,-0.374944,-0.082099915,-0.16791058,24.9375,25.4375,24.75,26.9375,27.3125,27.625
0.034052297,-0.49498358,0.12026138,-0.70298207,-0.001375552,0.044644084,-0.052022785,-0.3730406,-0.32822144,0.05981295,-3.0782344,0.6248731,-0.0006266687,-0.014498804,-0.0014835383,-0.00059365836,0.0042580306,-0.0017327081,-0.002304895,0.44805148,-1.4702166,2.0091403,-2.107581,-1.5707225,2.4230049,-0.008292444,0.030900754,-0.03403885,0.0065543866,-0.0031483832,-0.005957407,-0.21068975,0.11492168,-9.576807,0.7016076,47.66539,-0.54867005,-2.076168,-3.473957,-0.34510088,-0.11625397,-0.16415861,24.9375,25.4375,24.75,26.9375,27.3125,27.625
0.036051787,0.011721197,0.8095984,-0.5028475,0.010042713,0.051064976,-0.058795013,-0.3730728,-0.32823032,0.05980567,-3.0782502,0.624935,-0.00066100986,-0.01627001,-0.001331631,-4.3541655e-05,0.005014791,-0.00042990744,-0.0032659313,0.44801491,-1.4701442,2.0090802,-2.1075928,-1.5706872,2.4230049,-0.00934108,0.032765493,-0.037526738,0.007335714,-0.0044006184,-0.0060401736,-0.15322891,0.0,-9.519346,0.72622824,47.651955,-0.46491072,-2.0504475,-3.4141006,-0.33042067,-0.10224211,-0.1755229,24.9375,25.4375,24.75,26.9375,27.3125,27.625
0.038051855,-0.0008037414,1.1473845,-0.47213584,0.024120571,0.047131058,-0.066608556,-0.37308794,-0.32822686,0.059781197,-3.078223,0.6248721,-0.00071012,-0.016932227,-0.0010176466,-0.00051908626,0.0070239175,-0.0016974878,-0.0032274064,0.44800296,-1.4700593,2.009043,-2.1075919,-1.5706996,2.4229572,-0.0096795615,0.035514057,-0.03980827,0.008885812,-0.0056643216,-0.00641286,-0.15322891,0.15322891,-9.461885,0.69937176,47.651955,-0.5411012,-2.1702604,-3.4188957,-0.3400487,-0.10037449,-0.17455386,24.9375,25.4375,24.75,26.9375,27.3125,27.625
0.04005182,-0.8970581,0.374308,-0.69086313,0.049997225,0.013819023,-0.056282863,-0.37314597,-0.32824385,0.059802927,-3.078238,0.62489414,-0.000639328,-0.018035972,-0.00058365264,-0.00036955264,0.0081307385,-0.0016686162,-0.0037662897,0.4479905,-1.4699869,2.008911,-2.1075795,-1.570712,2.4229567,-0.010813439,0.03704137,-0.04211048,0.010117491,-0.0066766697,-0.007004701,-0.095768064,0.05746084,-9.385271,0.72622824,47.67345,-0.5406125,-2.0666811,-3.4227746,-0.32926273,-0.12569414,-0.16004863,24.9375,25.4375,24.75,26.9375,27.3125,27.625
0.042051725,-0.121511556,0.34975716,-0.5652417,0.044047438,0.012534529,-0.06788264,-0.37319955,-0.32824618,0.059808705,-3.0782356,0.62489355,-0.0006128342,-0.019023616,-0.00034554422,-0.00016957604,0.009458211,-0.0013887417,-0.004205536,0.44795445,-1.4699025,2.0088022,-2.107567,-1.5707244,2.4229207,-0.011264231,0.038584534,-0.044542715,0.011333692,-0.0079969,-0.007012178,-0.076614454,0.0,-9.519346,0.75084364,47.627773,-0.52343553,-2.057904,-3.3995833,-0.3441891,-0.13424924,-0.18740821,24.9375,25.4375,24.75,26.9375,27.3125,27.625
0.044051666,0.29490513,-0.10098481,-0.72037643,0.024301982,0.0064690933,-0.07788257,-0.37323493,-0.32824394,0.05981019,-3.0781722,0.6249578,-0.00062197045,-0.02011902,-0.00024872963,0.0005405243,0.0098639345,-0.00015756823,-0.004335061,0.44794223,-1.469819,2.0086935,-2.1075075,-1.5707601,2.4229567,-0.011830626,0.039023563,-0.046874788,0.012295546,-0.008899206,-0.0074456437,-0.05746084,0.076614454,-9.404425,0.78888994,47.687782,-0.52063876,-2.0313516,-3.427339,-0.3402403,-0.13126166,-0.17599681,24.9375,25.4375,24.75,26.9375,27.3125,27.625
0.04605205,-0.13307892,-0.4296897,-0.68488103,0.003493627,0.002440756,-0.073743306,-0.3732639,-0.32824245,0.05981032,-3.0781493,0.62493396,-0.0006142156,-0.021371396,0.00011973447,0.0006790587,0.010735527,0.0005821478,-0.00535782,0.4479298,-1.4697586,2.0086215,-2.1074831,-1.5707849,2.4229324,-0.012910414,0.040505297,-0.04887334,0.0125268,-0.010009093,-0.0074987873,-0.11492168,0.095768064,-9.404425,0.74413085,47.65464,-0.5156485,-1.962785,-3.5274076,-0.36592317,-0.11768806,-0.17823052,24.9375,25.4375,24.75,26.9375,27.3125,27.625
0.04805203,-0.55710936,-0.8388289,-0.8457502,-0.010986607,0.0020582147,-0.086255126,-0.37331095,-0.32823527,0.059812542,-3.078118,0.6249661,-0.0006323998,-0.02228087,9.2086404e-05,0.00093290623,0.011834249,0.0012310141,-0.005310825,0.44788185,-1.4696742,2.0085127,-2.107435,-1.5707973,2.4229085,-0.01282045,0.041983288,-0.051264957,0.0133354105,-0.011284033,-0.007451354,-0.019153614,0.19153613,-9.519346,0.7553206,47.64927,-0.6072425,-1.9257207,-3.4907799,-0.3380077,-0.115948275,-0.18769407,24.9375,25.4375,24.75,26.9375,27.3125,27.625
0.05005231,-0.3100728,-1.0144545,-0.7593232,-0.023478296,0.030809566,-0.0953493,-0.3733294,-0.32823968,0.059784357,-3.0780668,0.62495625,-0.0007103001,-0.02354266,0.00018782108,0.001163645,0.011811096,0.0016178824,-0.0066280463,0.44788137,-1.4695535,2.0084393,-2.1074111,-1.5708092,2.4229085,-0.01404571,0.04353809,-0.05360278,0.013760173,-0.011435157,-0.007356734,-0.114921674,0.30645782,-9.557653,0.76874626,47.68062,-0.6125486,-1.9041345,-3.465838,-0.35624424,-0.1038558,-0.20503108,24.9375,25.4375,24.75,26.9375,27.3125,27.625
0.052052327,-0.806056,-1.2240618,-0.79644907,-0.02638147,0.037599597,-0.09956879,-0.37339652,-0.32823592,0.059816383,-3.0780845,0.62499833,-0.000626303,-0.024427488,-3.886459e-05,0.0012401518,0.011820965,0.0016102705,-0.006321388,0.44782132,-1.4695172,2.0083206,-2.1073868,-1.5708212,2.4228725,-0.014414574,0.045330536,-0.055854484,0.014229616,-0.011444754,-0.008031408,-0.11492168,0.47884035,-9.5385,0.7933669,47.67345,-0.58943325,-1.8845805,-3.5126173,-0.34953064,-0.12647924,-0.19034356,24.9375,25.4375,24.75,26.9375,27.3125,27.625
0.054052316,-0.713849,-1.0055087,-0.81892675,-0.03369187,0.0456998,-0.108130194,-0.37343216,-0.32824194,0.059811383,-3.0780427,0.62500954,-0.0006733,-0.025657082,0.0002166986,0.0012179187,0.012565351,0.002022953,-0.0069398973,0.44780892,-1.469409,2.0081995,-2.1073267,-1.570834,2.4228725,-0.015433555,0.047248453,-0.05794139,0.014351629,-0.012299326,-0.008427901,-0.13407528,0.4213795,-9.557653,0.7866488,47.694054,-0.60514224,-1.8320025,-3.5465035,-0.36626276,-0.13289744,-0.17980048,24.9375,25.4375,24.75,26.9375,27.3125,27.625
0.05605173,-0.56538504,-1.2053583,-0.82514006,-0.034809005,0.046072204,-0.11830279,-0.37349325,-0.32824823,0.05982606,-3.0780404,0.6250462,-0.0006326929,-0.026161958,-0.0002624959,0.0009818238,0.0129162455,0.0016302896,-0.0061223228,0.44777322,-1.4693242,2.0080674,-2.107303,-1.570846,2.4228601,-0.014888522,0.04950153,-0.05993351,0.014596459,-0.012449429,-0.008698927,-0.21068975,0.38307226,-9.634268,0.8224646,47.701214,-0.59069777,-1.8365486,-3.5811946,-0.3616947,-0.1287807,-0.19151148,24.9375,25.4375,24.75,26.9375,27.3125,27.625
0.05805184,-0.78594875,-1.4915699,-0.8981796,-0.036265455,0.03636553,-0.10727491,-0.37352568,-0.32824868,0.059812568,-3.0779855,0.6250737,-0.0006700978,-0.027568717,-0.0003131292,0.0012147621,0.013237164,0.0028276755,-0.006375748,0.44776094,-1.4692159,2.007971,-2.1072667,-1.5708703,2.422872,-0.015520048,0.05132023,-0.06240445,0.01431073,-0.013263792,-0.009072728,-0.30645782,0.47884032,-9.576807,0.7866488,47.687782,-0.58874494,-1.8287567,-3.6539183,-0.3628595,-0.12277615,-0.19701236,24.9375,25.4375,24.75,26.9375,27.3125,27.625
0.06005187,-0.8304499,-1.4936162,-0.74720263,-0.03685878,0.038810156,-0.12622271,-0.3735971,-0.3282512,0.059808556,-3.0779622,0.625087,-0.0006196091,-0.028722974,-0.00091304776,0.0015684073,0.013074827,0.003663401,-0.005165139,0.44772494,-1.4690834,2.0078375,-2.107279,-1.570906,2.4228475,-0.015288688,0.053327706,-0.06548287,0.014557654,-0.013486,-0.010049577,-0.34476504,0.47884035,-9.519346,0.779936,47.70032,-0.65470237,-1.7600076,-3.5577884,-0.35315555,-0.104547694,-0.18653306,24.9375,25.4375,24.75,26.9375,27.3125,27.5625
0.062051896,-1.1230178,-1.606863,-0.7159581,-0.033527233,0.03234175,-0.1275456,-0.37365147,-0.32826462,0.059834942,-3.077966,0.6251074,-0.00060424395,-0.029833533,-0.00095286715,0.0014122439,0.013244814,0.004103025,-0.0054550595,0.44770068,-1.469011,2.0076811,-2.1072075,-1.570906,2.4228356,-0.01598472,0.05540649,-0.06727181,0.013945867,-0.013834981,-0.010453498,-0.2681506,0.57460845,-9.5385,0.7642693,47.64837,-0.53479654,-1.7679389,-3.6883824,-0.34150702,-0.12273039,-0.19042578,24.9375,25.4375,24.75,26.9375,27.3125,27.5625
0.06405194,-0.7416373,-1.4859011,-0.6048818,-0.03215532,0.04801154,-0.14103812,-0.37370852,-0.32827094,0.059829276,-3.0779576,0.62516266,-0.00062879606,-0.032060314,-0.002298102,0.0031378705,0.011352091,0.0074556028,-0.0046684183,0.4476529,-1.4688905,2.007559,-2.1071951,-1.5708946,2.4228234,-0.015641252,0.056711245,-0.07274263,0.014268844,-0.013591356,-0.010893707,-0.24899697,0.5554548,-9.442732,0.7866488,47.70659,-0.6678916,-1.6940798,-3.4190526,-0.32794428,-0.13446379,-0.19496414,24.9375,25.4375,24.75,26.9375,27.3125,27.5625
0.06605249,-0.898416,-1.3669952,-0.50542504,-0.02549294,0.048550293,-0.13164711,-0.37376854,-0.32828894,0.059840225,-3.0779483,0.6250453,-0.0005714089,-0.031895556,-0.0015370406,0.0008670991,0.014304958,0.0037008852,-0.004613586,0.4476647,-1.4687693,2.0073926,-2.1071594,-1.5709428,2.4227633,-0.016221577,0.06124892,-0.07250016,0.014154712,-0.014628149,-0.011526058,-0.22984336,0.45968673,-9.442732,0.7597976,47.639416,-0.5774623,-1.8577721,-3.6449084,-0.32570684,-0.1427703,-0.1728938,24.9375,25.4375,24.75,26.9375,27.3125,27.5625
0.06805251,-0.7327702,-1.1647707,-0.5271121,-0.0130942045,0.053908523,-0.13937648,-0.37385803,-0.32828957,0.05985716,-3.0779533,0.6251233,-0.0004990151,-0.03374969,-0.0021030037,0.003028225,0.012779886,0.008172326,-0.005236992,0.44759268,-1.468662,2.0072358,-2.107159,-1.5709547,2.4227395,-0.016450519,0.059801884,-0.075909354,0.014320965,-0.015194742,-0.011129316,-0.22984336,0.4213795,-9.32781,0.6971306,47.672558,-0.58871126,-1.6959195,-3.6078463,-0.30880922,-0.114426345,-0.18499409,24.9375,25.4375,24.75,26.9375,27.3125,27.5625
0.0700523,-0.9425774,-0.8082401,-0.65335494,-0.0016211715,0.03900921,-0.11698661,-0.3739364,-0.3282974,0.059875727,-3.0779378,0.625196,-0.00037625522,-0.03624847,-0.0032610304,0.0043980842,0.011719254,0.011211898,-0.0043720994,0.44756877,-1.4685653,2.0070899,-2.1071713,-1.5710028,2.422763,-0.016290559,0.062272772,-0.081825994,0.014567609,-0.015565768,-0.01183055,-0.13407528,0.36391866,-9.346964,0.7978386,47.672558,-0.6267203,-1.7025871,-3.3130841,-0.3140043,-0.10925192,-0.17682597,24.9375,25.4375,24.75,26.9375,27.3125,27.5625
0.07205223,-1.533736,-0.93588483,-0.47832102,0.013983183,0.019877167,-0.119214244,-0.37398106,-0.32832557,0.059870023,-3.0779443,0.62512106,-0.00048893504,-0.035796538,-0.0026926943,0.0017575165,0.014057471,0.005864492,-0.0044151866,0.44755647,-1.4684078,2.0069106,-2.1070874,-1.5709666,2.4227033,-0.017088234,0.06753412,-0.081654765,0.01496681,-0.015359494,-0.01258403,-0.24899697,0.30645782,-9.308657,0.80679786,47.664497,-0.60885507,-1.7741163,-3.500001,-0.2944756,-0.089302205,-0.17050399,24.9375,25.4375,24.75,26.9375,27.3125,27.5625
0.07405223,-0.8039073,-0.45049885,-0.38381845,0.004494947,0.032506593,-0.12926982,-0.37404773,-0.3283299,0.05985881,-3.0778916,0.6251095,-0.00044540732,-0.037780225,-0.0035750405,0.0037709924,0.012510852,0.009835742,-0.003806979,0.4475446,-1.4682521,2.0067651,-2.107087,-1.5710267,2.422691,-0.017003104,0.06720108,-0.08601637,0.015412014,-0.01569255,-0.013103808,-0.19153613,0.28730422,-9.308657,0.8023209,47.690468,-0.6308174,-1.819458,-3.4212928,-0.2833432,-0.087950006,-0.166533,24.9375,25.4375,24.75,26.9375,27.3125,27.5625
0.07605239,-0.5684187,-0.50462496,-0.3407821,-0.004275658,0.026833411,-0.1221916,-0.3741548,-0.32833648,0.05988028,-3.077887,0.62520504,-0.000321756,-0.038990315,-0.0041080066,0.0039338847,0.011914855,0.009362902,-0.0042642388,0.44748425,-1.4681195,2.006573,-2.1070988,-1.5710629,2.422691,-0.017593294,0.06985111,-0.08954983,0.016459696,-0.014954696,-0.0132372435,-0.19153613,0.3256114,-9.270349,0.75084364,47.63046,-0.61392176,-1.609835,-3.2843497,-0.26409233,-0.118573725,-0.16695014,24.9375,25.4375,24.75,26.9375,27.3125,27.5625
0.078052424,-0.60477686,-0.53076816,-0.4823205,-0.007158257,0.01556833,-0.12121107,-0.37423116,-0.32834753,0.05989861,-3.0778663,0.6251618,-0.00028848313,-0.039874088,-0.003959634,0.003422234,0.013456582,0.008548568,-0.0046010283,0.4474602,-1.4679867,2.0063684,-2.1070263,-1.5710992,2.422643,-0.0179674,0.07287794,-0.0918711,0.017158259,-0.015995601,-0.013270671,-0.22984336,0.30645782,-9.346964,0.7083204,47.707485,-0.63163406,-1.8046257,-3.3287187,-0.2745325,-0.1099054,-0.17437193,24.9375,25.4375,24.75,26.9375,27.3125,27.5625
0.08005254,-0.04181487,-0.97937286,-0.72588843,-0.004738737,0.03457014,-0.12063727,-0.37431479,-0.32836005,0.059899207,-3.07784,0.62519455,-0.00026604973,-0.0409864,-0.004622251,0.0036537615,0.013310522,0.008684849,-0.0036794061,0.44742414,-1.4678181,2.0061762,-2.1070025,-1.5711235,2.4226308,-0.017773692,0.07538655,-0.09535029,0.017941209,-0.015928918,-0.013996508,-0.17238252,0.30645782,-9.346964,0.8179876,47.67166,-0.62126994,-1.7542455,-3.1351674,-0.25201112,-0.098843165,-0.16310553,24.9375,25.4375,24.75,26.9375,27.3125,27.5625
0.08205226,-0.5611238,-0.5021761,-0.33355302,-0.020366076,0.030486178,-0.12322325,-0.37441072,-0.32837024,0.05992793,-3.0778341,0.6252509,-0.00022614692,-0.040546324,-0.0038995242,0.002301403,0.015028978,0.005247527,-0.0039005978,0.44736397,-1.4676856,2.0059483,-2.1069305,-1.5711349,2.4226067,-0.018684937,0.07760017,-0.09497945,0.019197872,-0.015987672,-0.014687064,-0.22984336,0.30645782,-9.289502,0.74413085,47.692257,-0.63371444,-1.8129692,-3.325529,-0.2512997,-0.08318885,-0.14954832,24.9375,25.4375,24.75,26.9375,27.3125,27.5625
0.08405211,-0.5315892,-1.1816909,-0.56145006,-0.0020754053,0.03780191,-0.12648386,-0.37446433,-0.32838967,0.0599202,-3.077797,0.62514645,-0.0002520842,-0.042908665,-0.0053066495,0.0039555496,0.012837837,0.007835051,-0.003609924,0.44737586,-1.4675173,2.005767,-2.10687,-1.5711707,2.4225583,-0.018756486,0.07953671,-0.10112511,0.020122604,-0.015143411,-0.015046693,-0.17238252,0.24899697,-9.32781,0.7553206,47.693153,-0.6582584,-1.8542213,-3.1457744,-0.23892191,-0.10138866,-0.12851653,24.9375,25.4375,24.75,26.9375,27.3125,27.5625
0.086052455,-1.0927513,-0.6063839,-0.46364677,-0.015273707,0.02907392,-0.1153557,-0.37459856,-0.3283988,0.059970506,-3.0778143,0.6252272,-5.9778642e-05,-0.042327095,-0.004909045,0.0025861945,0.014772397,0.004064376,-0.0040013804,0.44730383,-1.4673967,2.0055163,-2.106857,-1.5712188,2.4225347,-0.018894214,0.082267255,-0.10140364,0.021905838,-0.015251207,-0.014794456,-0.21068975,0.2681506,-9.32781,0.7620334,47.655537,-0.65216535,-1.763977,-3.3716636,-0.25357866,-0.096117884,-0.13580242,24.9375,25.4375,24.75,26.9375,27.3125,27.5625
0.088052355,-0.79930776,-0.7874579,-0.75071937,-0.005631854,0.02993583,-0.11777517,-0.3746518,-0.32842228,0.059942603,-3.0777707,0.62527627,-0.00015992619,-0.04391788,-0.0049858503,0.002520251,0.014890475,0.004469578,-0.0054328106,0.4472914,-1.467192,2.005347,-2.1068218,-1.5712069,2.4225585,-0.019994203,0.08510158,-0.10433872,0.02169359,-0.01554052,-0.014459101,-0.17238252,0.30645782,-9.289502,0.842603,47.71286,-0.63880736,-1.8678807,-3.2561748,-0.23656002,-0.10589909,-0.12534231,24.9375,25.4375,24.75,26.9375,27.3125,27.5625
0.09005218,-0.48323843,-0.670989,-0.6646424,-0.008679289,0.038105592,-0.12058106,-0.37473053,-0.3284155,0.05993819,-3.077703,0.62532043,-0.00018691258,-0.045261525,-0.0054534646,0.0028434945,0.014322728,0.0056769364,-0.0060496484,0.44723147,-1.4670238,2.0051558,-2.1067502,-1.5712427,2.422535,-0.020315506,0.086932845,-0.10699054,0.02117884,-0.015558204,-0.0141607905,-0.17238252,0.28730422,-9.289502,0.7732232,47.670765,-0.62026083,-1.7509923,-3.2136106,-0.21827585,-0.112638235,-0.12281704,24.9375,25.4375,24.75,26.9375,27.3125,27.5625
0.092052236,-0.8370971,-1.0606897,-0.61100775,-0.0033467137,0.023012387,-0.110334866,-0.37483,-0.32841405,0.059942815,-3.0776458,0.6252693,-0.00010566555,-0.04606803,-0.006037599,0.002847826,0.0142461695,0.006052279,-0.005386798,0.4471955,-1.4668432,2.0049384,-2.1067145,-1.5713271,2.4224746,-0.019878434,0.08901562,-0.10926505,0.020997468,-0.015656915,-0.014384673,-0.19153613,0.3256114,-9.251195,0.8157518,47.679718,-0.60764456,-1.8399658,-3.3116488,-0.1942294,-0.1288627,-0.12364904,24.9375,25.4375,24.75,26.9375,27.3125,27.5625
0.09405215,-0.47036904,-0.9824385,-0.67840916,-0.010853856,0.03145365,-0.11737879,-0.37493756,-0.3284231,0.059967786,-3.0776114,0.6253584,-1.59766e-05,-0.047035817,-0.006007465,0.0033297902,0.013991727,0.006559593,-0.006392697,0.44714722,-1.4666873,2.0046985,-2.1066663,-1.5713748,2.4224865,-0.020808402,0.089674,-0.11128809,0.021793276,-0.015648808,-0.014308273,-0.21068975,0.28730422,-9.3661175,0.7709874,47.67166,-0.6625816,-1.7205518,-3.2188897,-0.18722409,-0.118197635,-0.10620592,24.9375,25.4375,24.75,26.9375,27.3125,27.5625
0.096052594,-0.83036983,-0.9862258,-0.67244375,-0.0091347955,0.026794454,-0.1184677,-0.37501323,-0.32842964,0.059936445,-3.0775676,0.62540764,-0.00014661886,-0.04742496,-0.0055945646,0.0015466692,0.016493615,0.0030325204,-0.006612669,0.44707504,-1.466458,2.0045068,-2.1066177,-1.5713514,2.4224508,-0.02143315,0.09474777,-0.113014884,0.022709899,-0.016383095,-0.014708542,-0.19153613,0.34476504,-9.442732,0.8537928,47.70032,-0.61236227,-1.9527087,-3.2482865,-0.16795847,-0.118161865,-0.11322783,24.9375,25.4375,24.75,26.9375,27.3125,27.5625
0.098052025,-0.55953646,-0.75760645,-0.41225564,-0.02117417,0.041969437,-0.11798662,-0.3751325,-0.328449,0.059983674,-3.0775867,0.62542945,-7.967253e-06,-0.04806688,-0.0061561107,0.0030931928,0.0150545295,0.004744967,-0.0063400976,0.44702718,-1.4663267,2.0042431,-2.1065695,-1.5713867,2.4224143,-0.021327099,0.093273856,-0.11531375,0.024312964,-0.015826005,-0.014876993,-0.24899697,0.34476504,-9.481039,0.7284641,47.6636,-0.6340014,-1.7705069,-3.3296278,-0.17052755,-0.097894445,-0.09570519,24.9375,25.4375,24.75,26.9375,27.3125,27.5625
0.10005186,-1.0561283,-1.5034187,-0.5328726,-0.0071256277,0.03262248,-0.10859149,-0.37523305,-0.32848445,0.059997946,-3.077569,0.6253673,2.4941035e-05,-0.047963865,-0.0059494413,0.0005015763,0.018547414,-2.538294e-05,-0.00562727,0.44702727,-1.4661089,2.0039542,-2.106497,-1.5714234,2.422378,-0.020886486,0.09986414,-0.1168134,0.025037,-0.016915265,-0.0151451705,-0.24899697,0.40222588,-9.308657,0.74413085,47.672558,-0.5945006,-1.8579266,-3.3241842,-0.1687125,-0.121984124,-0.08476967,24.9375,25.4375,24.75,26.9375,27.3125,27.5625
0.1020519,-1.4457991,-1.1685703,-0.5618549,-0.013359577,0.021737728,-0.10860197,-0.37532938,-0.3284773,0.059991304,-3.0775049,0.62537456,5.1315536e-05,-0.048959658,-0.006035263,0.0015372308,0.017272877,0.0018622442,-0.007133456,0.44696686,-1.4659177,2.0037506,-2.1064608,-1.571483,2.4223306,-0.021838788,0.0989508,-0.11821197,0.025093257,-0.016585141,-0.014590969,-0.17238252,0.26815057,-9.289502,0.7709874,47.666286,-0.63852745,-1.8438263,-3.4379559,-0.14823143,-0.14181839,-0.07704884,24.9375,25.4375,24.75,26.9375,27.3125,27.5625
0.10405172,-0.8576809,-0.9486268,-0.6126343,-0.014791138,0.03216808,-0.11342071,-0.3754317,-0.32851383,0.0599897,-3.0775154,0.6253572,6.42341e-05,-0.049916394,-0.0059905224,0.0005432781,0.018285083,3.369496e-05,-0.008252635,0.44694263,-1.4656886,2.0034993,-2.1064494,-1.571483,2.4222944,-0.02269766,0.10311377,-0.120616175,0.025421238,-0.016711785,-0.014328624,-0.076614454,0.2681506,-9.32781,0.7709874,47.625084,-0.6206768,-1.8951664,-3.4253693,-0.1250762,-0.14610718,-0.08140195,24.9375,25.4375,24.75,26.9375,27.3125,27.5625
0.106052555,-0.34628692,-0.39227596,-0.54830205,-0.013589837,0.027612329,-0.11965377,-0.37555698,-0.32852066,0.060018152,-3.0774608,0.6255003,0.00016743223,-0.052044503,-0.0071112285,0.0019787971,0.016708199,0.002877267,-0.0084105935,0.44688258,-1.4655083,2.0032218,-2.1063893,-1.5715431,2.4223309,-0.022635207,0.10465695,-0.12568717,0.025700973,-0.016528556,-0.014106099,-0.05746084,0.2681506,-9.270349,0.7239871,47.67345,-0.5789813,-1.9177346,-3.3325782,-0.10232994,-0.1422015,-0.09456756,24.9375,25.4375,24.75,26.9375,27.3125,27.5625
0.10805174,-0.46777582,-0.39587736,-0.51453227,-0.008772695,0.008799499,-0.116754375,-0.37564147,-0.32854226,0.060009252,-3.077432,0.6254552,8.898396e-05,-0.050724402,-0.006184685,3.924611e-05,0.019344086,-0.0017872814,-0.008109591,0.44684657,-1.46528,2.0029714,-2.106305,-1.5715431,2.4222705,-0.022932038,0.106746435,-0.12390203,0.027172036,-0.016884329,-0.014703315,-0.05746084,0.30645782,-9.270349,0.8605109,47.687782,-0.6109803,-1.8685755,-3.478682,-0.09571415,-0.13437024,-0.06745749,24.9375,25.4375,24.75,26.9375,27.3125,27.5625
0.110051714,-0.031320732,-0.59484345,-0.62408334,0.008373385,0.010166902,-0.11213905,-0.37575662,-0.32854182,0.06000368,-3.0773718,0.62555796,0.00013484458,-0.052286103,-0.0062453314,0.00038411163,0.020251835,-0.001284023,-0.00829907,0.44677433,-1.4650637,2.002743,-2.106293,-1.5715917,2.4222703,-0.02351623,0.10926302,-0.12778455,0.02847774,-0.017926708,-0.015093485,-0.076614454,0.24899697,-9.346964,0.78217715,47.701214,-0.5891653,-1.8493754,-3.3903437,-0.085264295,-0.12926356,-0.07192053,24.9375,25.4375,24.75,26.9375,27.3125,27.5625
0.1120517,-0.29103357,-0.40422714,-0.52613866,0.010731304,-0.0017202451,-0.11579494,-0.37587863,-0.32856438,0.060023423,-3.0773582,0.62561285,0.00015943803,-0.052674748,-0.0062699737,0.0006889849,0.020341156,-0.001662545,-0.008533314,0.44671428,-1.4648477,2.002443,-2.10622,-1.5716037,2.4222465,-0.023865286,0.109774806,-0.12940964,0.029969353,-0.017844323,-0.015208103,0.0,0.22984336,-9.232041,0.78888994,47.703007,-0.57997334,-1.8744785,-3.500248,-0.059581686,-0.14730972,-0.07147714,24.9375,25.4375,24.75,26.9375,27.3125,27.5625
0.11405195,0.20362628,-0.25247076,-0.24426669,0.0016995727,0.017601835,-0.12022966,-0.37598422,-0.32857656,0.060019717,-3.0773137,0.6255075,0.00021144874,-0.052620914,-0.0058908868,-0.0005740449,0.022521097,-0.004366498,-0.008533307,0.44669017,-1.4646189,2.0021913,-2.1061842,-1.5716757,2.4221625,-0.023983652,0.11292748,-0.13025926,0.031047877,-0.018642208,-0.015323861,0.0,0.22984336,-9.212888,0.78888994,47.694946,-0.58271873,-1.9713051,-3.5721083,-0.07025596,-0.13507068,-0.056195017,24.9375,25.4375,24.75,26.9375,27.3125,27.5625
0.116052374,-0.13960874,-0.24081066,-0.16969405,-0.00034588238,0.012621948,-0.11520989,-0.37608233,-0.32858732,0.06002434,-3.0772693,0.62557584,0.0001805857,-0.05503181,-0.0064651202,0.0019793953,0.020822588,0.00025048837,-0.009739509,0.44662997,-1.4644159,2.0019376,-2.1060998,-1.571688,2.4221509,-0.024755469,0.11180439,-0.13514772,0.032162614,-0.019113401,-0.014885466,-0.019153614,0.30645782,-9.174581,0.8806493,47.705692,-0.6052226,-1.6901945,-3.4992037,-0.06507118,-0.14942154,-0.07408118,24.9375,25.4375,24.75,26.9375,27.3125,27.5625
0.11805242,-0.36024255,-0.38977566,-0.38894734,0.0061305114,0.00739771,-0.11255574,-0.37620282,-0.3285918,0.06001015,-3.0771778,0.6256338,0.00017352565,-0.05542519,-0.0065893536,0.0011629199,0.021802926,-0.0021625035,-0.010046983,0.44656995,-1.4641391,2.001651,-2.1060393,-1.5717481,2.422139,-0.024973102,0.11525348,-0.1374377,0.03360078,-0.018958315,-0.014793579,-0.05746084,0.22984336,-9.193734,0.8314132,47.64389,-0.5598567,-1.8839166,-3.6447463,-0.06692574,-0.16456015,-0.06272623,24.9375,25.4375,24.75,26.9375,27.3125,27.5625
0.12005261,-0.37443748,-0.36115175,-0.44397077,0.0051814476,0.012303221,-0.11321157,-0.37630892,-0.3286108,0.059996706,-3.07714,0.62560654,0.00017739813,-0.05594075,-0.006728241,0.0009976572,0.022049475,-0.0033515105,-0.010655277,0.44653377,-1.4638871,2.0013983,-2.106015,-1.5717839,2.4220908,-0.02536519,0.117207564,-0.13954605,0.034931973,-0.018669277,-0.01457647,-0.038307227,0.22984336,-9.232041,0.8784135,47.686886,-0.5616519,-1.6949881,-3.5267901,-0.06167817,-0.18331689,-0.07182189,24.9375,25.4375,24.75,26.9375,27.3125,27.5625
0.12205252,-0.032835834,-0.3846112,-0.57429063,0.0059914533,0.019201232,-0.111792855,-0.37643647,-0.32864225,0.060031466,-3.0771482,0.62562716,0.00023328698,-0.057283398,-0.0073235603,0.0013622064,0.022191422,-0.002982556,-0.009981791,0.44648573,-1.4636824,2.0010736,-2.1059306,-1.5717963,2.4220548,-0.025254436,0.11985514,-0.14357865,0.03604478,-0.018963195,-0.015136777,-0.095768064,0.28730422,-9.232041,0.842603,47.687782,-0.58719957,-1.7296143,-3.4331098,-0.053223595,-0.1863107,-0.070962265,24.9375,25.4375,24.75,26.9375,27.3125,27.5625
0.124052405,-0.6235175,-0.54834163,-0.752984,0.013982556,0.0078112017,-0.11442827,-0.37650156,-0.32864586,0.060015056,-3.0770307,0.62564135,0.00015436158,-0.05828822,-0.0077915126,0.0021458177,0.022155553,-0.001964067,-0.010099936,0.44647378,-1.4634665,2.0008457,-2.1058104,-1.5718559,2.422067,-0.02500361,0.12079643,-0.14672627,0.03731784,-0.01937588,-0.014763196,-0.15322891,0.3256114,-9.32781,0.82694155,47.66808,-0.60004497,-1.7558092,-3.3595567,-0.05347857,-0.17627585,-0.0734434,24.9375,25.4375,24.75,26.9375,27.3125,27.5625
0.12605175,-0.3670879,-0.33532268,-0.88170356,-0.008458911,0.026437815,-0.11978899,-0.3766349,-0.32865843,0.060004774,-3.07697,0.6256475,0.00012799022,-0.058982085,-0.007586839,0.0018963242,0.023459101,-0.0026470928,-0.0099950675,0.44640166,-1.4631664,2.0005214,-2.105738,-1.5718926,2.4220066,-0.025403103,0.122885466,-0.1487467,0.038428694,-0.02026061,-0.015263354,-0.1340753,0.30645782,-9.404425,0.78217715,47.66808,-0.668448,-1.6213284,-3.350503,-0.053904757,-0.17250757,-0.057488643,24.9375,25.4375,24.75,26.9375,27.3125,27.5625
0.12805167,-1.250595,-1.1794838,-1.0061276,-0.014557475,0.020347701,-0.110008925,-0.37673795,-0.32866517,0.060013093,-3.0769143,0.6256943,6.362262e-05,-0.05996325,-0.007202934,0.0021807759,0.02404172,-0.0028433679,-0.0110048875,0.44632933,-1.4629503,2.000234,-2.1056063,-1.5719045,2.4219708,-0.02669322,0.123969354,-0.15097797,0.040004212,-0.020704709,-0.015540352,-0.076614454,0.34476504,-9.481039,0.80456203,47.694054,-0.5859487,-1.6222869,-3.449624,-0.051964577,-0.1832378,-0.051783327,24.9375,25.4375,24.75,26.9375,27.3125,27.5625
0.13005203,-1.2827615,-1.326625,-1.0478638,-0.026965143,0.03349851,-0.10624898,-0.37685427,-0.32868695,0.060014892,-3.0768774,0.6257051,5.3752636e-05,-0.06012222,-0.0073073884,0.0014674424,0.024465565,-0.0053928536,-0.010792267,0.44628114,-1.4626979,1.9999346,-2.1055338,-1.5719284,2.4219344,-0.027113227,0.12666075,-0.15268596,0.041498702,-0.019988557,-0.016173292,-0.19153613,0.36391866,-9.557653,0.87393653,47.672558,-0.55744004,-1.6319351,-3.4308772,-0.055026192,-0.21605858,-0.045581385,24.9375,25.4375,24.75,26.9375,27.3125,27.5625
0.13205206,-1.455376,-1.869207,-0.96639377,-0.036119226,0.043524224,-0.10971853,-0.37697983,-0.32867008,0.06001454,-3.0767248,0.62576944,5.0325143e-05,-0.06080746,-0.0074822167,0.0013215048,0.025213838,-0.006123003,-0.011156605,0.44620922,-1.4624336,1.9996108,-2.1053898,-1.5720366,2.4219224,-0.027145773,0.12895674,-0.15518636,0.042683356,-0.020353219,-0.01583744,-0.34476504,0.3256114,-9.615114,0.800085,47.694946,-0.66453683,-1.5820264,-3.4795508,-0.092758715,-0.21873586,-0.044654116,24.9375,25.4375,24.75,26.9375,27.3125,27.5625
0.13405193,-1.492455,-1.9059265,-1.154035,-0.043498863,0.0531718,-0.10464736,-0.37712467,-0.32870963,0.06003239,-3.0767071,0.62576604,0.00013654071,-0.061345242,-0.007199391,0.0005886238,0.02619242,-0.0072895777,-0.011970556,0.44618496,-1.4621555,1.9992517,-2.1053417,-1.5720848,2.4218986,-0.027892118,0.13136862,-0.15622872,0.042788733,-0.02073439,-0.015768636,-0.28730422,0.3256114,-9.653421,0.80456203,47.71823,-0.64949405,-1.7910684,-3.5113864,-0.0905764,-0.2192154,-0.06402162,24.9375,25.4375,24.75,26.9375,27.3125,27.5625
0.13605244,-1.1615804,-1.7329497,-0.99655575,-0.034774728,0.06355963,-0.11604764,-0.3772157,-0.3287493,0.060033463,-3.0766954,0.6257832,5.5340166e-05,-0.062495146,-0.007290176,-0.00020527311,0.02738852,-0.008800769,-0.012515898,0.44616067,-1.4619163,1.9989632,-2.1052463,-1.5720605,2.4218867,-0.028460063,0.13573882,-0.15943052,0.043501146,-0.021167714,-0.015786856,-0.24899697,0.40222588,-9.730036,0.7911258,47.698532,-0.5890124,-1.6873,-3.436872,-0.08147609,-0.22666755,-0.053443354,24.9375,25.4375,24.75,26.9375,27.3125,27.5625
0.13805266,-0.9316853,-1.3750337,-0.9764326,-0.02639193,0.054613426,-0.11127716,-0.37737095,-0.32875934,0.0600625,-3.0766528,0.62581104,0.00016874388,-0.063731305,-0.0078026988,0.0006497693,0.027002048,-0.0073099337,-0.01196716,0.44608867,-1.4616765,1.9986151,-2.1051738,-1.5721334,2.4218378,-0.028395964,0.13669577,-0.16264713,0.044246778,-0.021468805,-0.016269725,-0.34476504,0.36391866,-9.710882,0.8784135,47.694054,-0.6313181,-1.6110684,-3.4319272,-0.08931534,-0.22487858,-0.056036852,24.9375,25.4375,24.75,26.9375,27.3125,27.5625
0.14005251,-0.89850557,-1.2558626,-0.88473827,-0.015836336,0.0379262,-0.10373218,-0.3775012,-0.32876664,0.06005859,-3.0765648,0.62586904,0.0001360378,-0.06404831,-0.008092268,0.00039694857,0.028097937,-0.0077525643,-0.011148899,0.4460171,-1.4613882,1.9982809,-2.105066,-1.5721811,2.421814,-0.027587272,0.13868521,-0.16446115,0.044944037,-0.022271167,-0.016274761,-0.36391866,0.3256114,-9.557653,0.80456203,47.70032,-0.70705473,-1.6882961,-3.531417,-0.10163519,-0.21390538,-0.06753521,24.9375,25.4375,24.75,26.9375,27.3125,27.5625
0.14205246,-0.5780186,-0.85799056,-0.8823977,-0.005478522,0.03041815,-0.11151089,-0.37763703,-0.3287889,0.06006616,-3.0765033,0.6258376,0.00021479552,-0.06446408,-0.008015008,-2.4914934e-05,0.028936034,-0.009962919,-0.01136204,0.44599274,-1.4611118,1.9979442,-2.1050055,-1.572265,2.4217782,-0.0282284,0.14118673,-0.16679321,0.0471269,-0.022074806,-0.016702179,-0.19153613,0.36391866,-9.500193,0.83365434,47.661808,-0.66146743,-1.7212634,-3.5450482,-0.115938954,-0.23161718,-0.06892442,24.9375,25.4375,24.75,26.9375,27.3125,27.5625
0.14405236,-0.37590072,-0.5293965,-0.82357174,-0.005766754,0.022780675,-0.113150455,-0.37776336,-0.3287897,0.060047846,-3.0764272,0.62586,0.00012988232,-0.06537104,-0.008036198,0.00024552073,0.029323036,-0.010701352,-0.011448986,0.44589657,-1.460812,1.9976324,-2.1049082,-1.5722889,2.421706,-0.028961932,0.14292578,-0.16986905,0.049293328,-0.022111425,-0.017345397,-0.17238252,0.2873042,-9.481039,0.8537928,47.679718,-0.6653086,-1.7077234,-3.375681,-0.13282944,-0.23461522,-0.065966025,24.9375,25.4375,24.75,26.9375,27.3125,27.5625
0.14605196,-0.50524724,-0.801402,-0.99865013,-0.001481977,0.011104553,-0.11239808,-0.37793565,-0.32883805,0.06010438,-3.0764427,0.6259405,0.00025649703,-0.06723843,-0.008162045,-0.00031444774,0.029958868,-0.010758172,-0.012837882,0.44584826,-1.4605585,1.9972008,-2.1048133,-1.5723132,2.4217062,-0.030015558,0.14739719,-0.17343494,0.048714414,-0.02266877,-0.017007632,-0.2681506,0.22984336,-9.404425,0.90750587,47.713753,-0.627359,-1.8691148,-3.418305,-0.12720034,-0.2593705,-0.07025923,24.9375,25.4375,24.75,26.9375,27.3125,27.5625
0.14805204,-0.5807767,-0.7071365,-0.55917054,-0.001102273,0.017775409,-0.11059663,-0.37805238,-0.32885587,0.06008378,-3.0763788,0.6259259,0.00021176274,-0.06658488,-0.00809287,-0.0023192118,0.032406725,-0.016040767,-0.012304018,0.4458005,-1.4602578,1.9969014,-2.1047523,-1.572349,2.4216578,-0.029595563,0.15220937,-0.1747329,0.05101984,-0.022599451,-0.017119471,-0.21068975,0.19153613,-9.289502,0.7732232,47.709274,-0.67638326,-1.7868248,-3.5064473,-0.16499016,-0.27706626,-0.055570714,24.9375,25.4375,24.75,26.9375,27.3125,27.5625
0.15005207,-0.62651753,-0.40705025,-0.40990573,-0.0078808665,0.023319295,-0.10905497,-0.3782055,-0.32883888,0.060087156,-3.076222,0.6260478,0.00022469243,-0.067242235,-0.008079911,-0.0018582661,0.032691326,-0.016342647,-0.0131781055,0.44570422,-1.4599582,1.9965295,-2.1046083,-1.5724577,2.421658,-0.03010249,0.15297607,-0.17714058,0.0530531,-0.02273012,-0.016749455,-0.095768064,0.1340753,-9.289503,0.7732232,47.681515,-0.6700443,-1.644245,-3.5325136,-0.18008858,-0.29346052,-0.07934612,24.9375,25.4375,24.75,26.9375,27.3125,27.5625
0.15205204,-0.56925285,-0.58304864,-0.37900212,0.011100937,0.027268548,-0.10724847,-0.37833226,-0.32888496,0.0600924,-3.0762272,0.62602973,0.0001950394,-0.06731674,-0.0079469485,-0.0025435253,0.034986906,-0.020021465,-0.013243014,0.44566825,-1.4596695,1.9961809,-2.1045344,-1.5724458,2.4216104,-0.030082542,0.15643178,-0.18036656,0.057133712,-0.023214439,-0.016661711,-0.11492168,0.095768064,-9.174581,0.83365434,47.691364,-0.6722164,-1.7880931,-3.491765,-0.24794176,-0.30555746,-0.0872678,24.9375,25.4375,24.75,26.9375,27.3125,27.5625
0.15405247,-0.39762527,-0.46727234,-0.29175925,0.019284366,0.027370766,-0.10535955,-0.37849897,-0.32892862,0.06012545,-3.0762115,0.6260257,0.00028347265,-0.06941002,-0.008659155,-0.002286304,0.03356629,-0.017777437,-0.013663476,0.44563195,-1.4593688,1.9957508,-2.10444,-1.5724934,2.4215739,-0.030819984,0.1591767,-0.18353745,0.054919142,-0.022912625,-0.016977543,-0.095768064,0.24899697,-9.193734,0.77545905,47.71465,-0.64238846,-1.8369925,-3.40468,-0.23720959,-0.3119633,-0.08228698,24.9375,25.4375,24.75,26.9375,27.3125,27.5625
0.15605254,-0.89718395,-0.34530714,-0.06888169,0.018285293,0.005055386,-0.10320001,-0.37865525,-0.32892227,0.06011406,-3.0761027,0.62611806,0.0002241587,-0.07015678,-0.009028705,-0.0015023232,0.033259913,-0.01653613,-0.012466304,0.44551212,-1.4590334,1.9953779,-2.1043193,-1.5725416,2.421526,-0.03059686,0.15930244,-0.18569867,0.055697955,-0.023180291,-0.017947974,-0.1340753,0.2873042,-9.059659,0.83589023,47.67166,-0.70910287,-1.7057478,-3.3750668,-0.24691084,-0.31394094,-0.09203748,24.9375,25.4375,24.75,26.9375,27.3125,27.5625
0.15805244,-0.25038558,-0.15822572,-0.16371354,0.021369917,0.011378398,-0.104097195,-0.37876153,-0.32893896,0.060081564,-3.075981,0.626112,0.00012852153,-0.07059079,-0.009042085,-0.00158227,0.034457244,-0.017686836,-0.012350874,0.44548807,-1.4586973,1.9950556,-2.1042116,-1.5726017,2.421514,-0.03055843,0.16119744,-0.1881411,0.057800066,-0.023768364,-0.018019387,-0.1340753,0.30645782,-9.097966,0.91198283,47.691364,-0.7184738,-1.6920722,-3.4983966,-0.27361947,-0.31374854,-0.083147615,24.9375,25.4375,24.75,26.9375,27.3125,27.5625
0.16005242,-0.037860766,-0.33405194,-0.22697894,0.018935123,0.0068090726,-0.105540074,-0.3789042,-0.32895607,0.0601014,-3.0759213,0.6261567,0.00011718861,-0.07140534,-0.009131859,-0.0009439208,0.034103774,-0.01658371,-0.012932993,0.44541597,-1.458422,1.9946722,-2.104068,-1.5726374,2.4214778,-0.030994125,0.16125417,-0.18981281,0.058265842,-0.02392981,-0.017870871,-0.11492168,0.3256114,-8.944737,0.86945957,47.675243,-0.7285414,-1.6510599,-3.4872909,-0.28705224,-0.33791217,-0.101197995,24.9375,25.4375,24.75,26.9375,27.3125,27.5625
0.1620524,-0.4541756,-0.7876372,-0.06472142,0.014042643,0.0057089985,-0.10552187,-0.37906897,-0.3289662,0.06009922,-3.0758183,0.6261739,0.00013396858,-0.07290512,-0.009707022,-0.0006824527,0.034384932,-0.015071603,-0.0122930175,0.44534397,-1.4580712,1.994264,-2.1039603,-1.5727223,2.42143,-0.03063337,0.16381806,-0.19321227,0.05785741,-0.024846578,-0.018143749,-0.076614454,0.24899697,-9.002198,0.8560339,47.67166,-0.73510444,-1.7602246,-3.4474452,-0.3013584,-0.34767038,-0.10173057,24.9375,25.4375,24.75,26.9375,27.3125,27.5625
0.16405216,-0.6508455,-0.9689623,-0.13792002,-0.0026863334,0.009353801,-0.10480869,-0.379192,-0.32897803,0.060070377,-3.075681,0.62622166,2.8941797e-05,-0.07459885,-0.009988169,-0.00021535928,0.034488447,-0.013242718,-0.012045035,0.44529593,-1.457714,1.993904,-2.1038287,-1.5727824,2.4214299,-0.031013796,0.1657816,-0.19643292,0.057508133,-0.025740193,-0.018763993,-0.019153614,0.28730422,-9.002198,0.8023209,47.687782,-0.7472861,-1.548716,-3.46655,-0.29876813,-0.3510455,-0.10013463,24.9375,25.4375,24.75,26.9375,27.3125,27.5625
0.16605215,-0.89338946,-1.0260792,-0.56105024,-0.0024706135,0.007892226,-0.10600631,-0.379357,-0.32901236,0.060104724,-3.0756538,0.62621486,6.320907e-05,-0.07648343,-0.01130859,0.0013787302,0.03278314,-0.009260058,-0.010892157,0.4452363,-1.457414,1.99346,-2.1036851,-1.5728186,2.4213698,-0.030096497,0.16642106,-0.2006758,0.05678071,-0.025929054,-0.018996356,-0.038307227,0.24899697,-9.232041,0.8537928,47.672558,-0.8344032,-1.4220941,-3.3856363,-0.30328882,-0.37184626,-0.10150605,24.9375,25.4375,24.75,26.9375,27.3125,27.5625
0.16805218,-0.6347749,-1.1465516,-0.5164253,-0.005810428,0.024713146,-0.10810143,-0.37949902,-0.32903743,0.060094323,-3.0756133,0.6261871,-1.9536608e-06,-0.07755048,-0.010908149,0.0009146722,0.033195492,-0.0089740185,-0.012348915,0.44516373,-1.4570781,1.9930896,-2.1035903,-1.5728306,2.4212854,-0.031440716,0.16832031,-0.20151182,0.05563688,-0.026431395,-0.018879658,-0.076614454,0.24899697,-9.136273,0.87393653,47.672558,-0.7697251,-1.4204803,-3.5274477,-0.29991528,-0.3916586,-0.10798156,24.9375,25.4375,24.75,26.9375,27.3125,27.5625
0.17005232,-1.2128745,-1.3128229,-0.4878414,-0.014307977,0.024265878,-0.10246997,-0.37963814,-0.32904595,0.060078662,-3.0754654,0.62615633,-3.401618e-05,-0.07915549,-0.011301362,0.0015134799,0.032523848,-0.0062759705,-0.0124546,0.4451278,-1.4567184,1.9926938,-2.1034467,-1.5729393,2.4212496,-0.031750478,0.1694018,-0.20379122,0.05410906,-0.02699849,-0.01907725,-0.1340753,0.40222588,-9.251195,0.8112748,47.685097,-0.7964401,-1.4056783,-3.4324594,-0.28853092,-0.38863486,-0.12523736,24.9375,25.4375,24.75,26.9375,27.3125,27.5625
0.17205231,-0.6071021,-1.068398,-0.6960494,-0.031731647,0.037374154,-0.1183362,-0.3797717,-0.32907596,0.060065694,-3.0753834,0.6262151,-0.000116599804,-0.08001173,-0.01199734,0.0015163835,0.031978227,-0.004927414,-0.011861585,0.44508,-1.4563704,1.9923099,-2.1033275,-1.5729631,2.4212494,-0.031140657,0.1710789,-0.20536077,0.052548107,-0.027096061,-0.019056398,-0.095768064,0.4213795,-9.3661175,0.8940802,47.70659,-0.8571073,-1.4276433,-3.5172362,-0.28989643,-0.38764495,-0.1349845,24.9375,25.4375,24.75,26.9375,27.3125,27.5625
0.17405216,-1.1770558,-1.9974301,-0.840193,-0.033908855,0.034454845,-0.1010581,-0.37997574,-0.32907307,0.06010521,-3.0753095,0.6263139,-9.5291225e-06,-0.08114399,-0.0127176875,0.00038018258,0.032969054,-0.0050490866,-0.010885839,0.44494838,-1.4560694,1.9918555,-2.1031969,-1.573047,2.4211893,-0.030212564,0.17610703,-0.20795554,0.050648905,-0.027949983,-0.0190991,-0.15322891,0.4405331,-9.442732,0.7978386,47.660015,-1.0044063,-1.5775706,-3.5226455,-0.2655371,-0.402397,-0.13670903,24.9375,25.4375,24.75,26.9375,27.3125,27.5625
0.17605239,-1.0859357,-2.2631052,-0.9358735,-0.035831217,0.034645297,-0.10454199,-0.38013086,-0.32911068,0.060091466,-3.0752153,0.62625635,-7.4769805e-06,-0.082482144,-0.012626576,-0.0005163183,0.03401571,-0.005157583,-0.011483585,0.44493604,-1.4556725,1.9914244,-2.103101,-1.5731314,2.4211535,-0.030960117,0.17995213,-0.20993839,0.049336046,-0.028857004,-0.019242112,-0.095768064,0.45968673,-9.5385,0.8157518,47.67345,-1.0011085,-1.5059431,-3.5688546,-0.2243303,-0.4215998,-0.15761058,24.9375,25.4375,24.75,26.9375,27.3125,27.5625
0.17805229,-1.3477187,-1.7708601,-0.95389,-0.04292426,0.021044556,-0.10343788,-0.3802606,-0.32914063,0.060062323,-3.0751445,0.6262796,-0.00014385671,-0.083503135,-0.012322443,-0.0018359518,0.0352146,-0.0068189837,-0.012087128,0.44487566,-1.4553001,1.991053,-2.1029937,-1.5731314,2.421117,-0.03216903,0.18424322,-0.21160844,0.048728727,-0.029233715,-0.019841364,-0.076614454,0.38307226,-9.634268,0.82694155,47.685097,-1.0030525,-1.7952644,-3.552721,-0.20623511,-0.41352305,-0.15459414,24.9375,25.4375,24.75,26.9375,27.3125,27.5625
0.18005219,-1.0391493,-2.1445067,-1.1374441,-0.031161413,0.02703036,-0.10093787,-0.38045287,-0.32916403,0.060072124,-3.075076,0.6262843,-6.418618e-05,-0.085424066,-0.01326165,-0.0018017117,0.03473197,-0.0037295534,-0.01140347,0.44480386,-1.4549277,1.9905981,-2.1029117,-1.5732158,2.4210575,-0.031507734,0.18734333,-0.21445926,0.045482457,-0.030142454,-0.019857686,-0.17238252,0.38307226,-9.595961,0.8717007,47.694946,-1.0263629,-1.7290475,-3.5983262,-0.16394195,-0.41993815,-0.15947983,24.9375,25.4375,24.75,26.9375,27.3125,27.5625
0.18205214,-1.1720978,-1.9429133,-1.1310076,-0.019963719,0.025942408,-0.099637486,-0.38061565,-0.32918358,0.0600717,-3.0749907,0.6263046,-4.159423e-05,-0.08737043,-0.013321846,-0.0013479283,0.035228785,-0.0018168702,-0.0119787175,0.44474357,-1.4545794,1.9901899,-2.1028154,-1.5732888,2.4210212,-0.032255687,0.18956228,-0.2179768,0.045269124,-0.031424046,-0.02002242,-0.22984336,0.45968673,-9.634268,0.89631605,47.65106,-1.0410701,-1.8279253,-3.5324464,-0.121055126,-0.41263103,-0.15903571,24.9375,25.4375,24.75,26.9375,27.3125,27.5625
0.18405215,-0.768635,-1.3324283,-1.1059271,-0.02202645,0.03389371,-0.1140306,-0.38077533,-0.32920194,0.060054157,-3.0748782,0.6263584,-6.29731e-05,-0.08815744,-0.012813907,-0.0012142329,0.03654454,-0.0012440792,-0.012481197,0.44468322,-1.4541956,1.9897817,-2.10272,-1.5733608,2.4210093,-0.0329196,0.19028294,-0.2192969,0.04591896,-0.032862406,-0.02017582,-0.22984336,0.45968673,-9.691729,0.8537928,47.67793,-1.0673933,-1.766371,-3.6384668,-0.110769235,-0.41463214,-0.17562464,24.9375,25.4375,24.75,26.9375,27.3125,27.5625
0.18605228,-0.5839423,-1.5516202,-0.9210936,-0.023116585,0.049461577,-0.111031905,-0.3809997,-0.32924297,0.060072586,-3.07484,0.6264077,3.3310498e-05,-0.08898907,-0.0133132,-0.00042900076,0.03679108,-0.0017293266,-0.012032277,0.44459945,-1.453776,1.9892558,-2.102646,-1.5734209,2.4209616,-0.032694798,0.19174808,-0.22355965,0.049256187,-0.03287903,-0.020399325,-0.30645782,0.4213795,-9.672575,0.8985519,47.66539,-1.1478655,-1.8332465,-3.6216516,-0.104755044,-0.41277626,-0.18064842,24.9375,25.4375,24.75,26.9375,27.3125,27.5625
0.18805219,-1.531489,-1.6690286,-1.020438,-0.029749045,0.025080599,-0.09927764,-0.38114405,-0.32927775,0.06005525,-3.0747874,0.62635756,-3.4418787e-05,-0.089554794,-0.013127885,-0.0010820723,0.037759002,-0.0030620971,-0.011980164,0.44455117,-1.4534037,1.9888595,-2.1025507,-1.5734447,2.4208891,-0.033321377,0.19430034,-0.22511077,0.049871653,-0.03318546,-0.021073563,-0.26815057,0.40222588,-9.595961,0.87617236,47.703903,-1.1608397,-1.9001439,-3.68746,-0.10927339,-0.40787265,-0.18577418,24.9375,25.4375,24.75,26.9375,27.3125,27.5625
0.19005208,-0.9968046,-1.361409,-0.98497427,-0.024792671,0.036209445,-0.10475723,-0.3813332,-0.32927513,0.060051374,-3.0746367,0.62642187,3.0474419e-05,-0.09124924,-0.012185366,-0.0015477826,0.03994615,-0.0018089428,-0.01354825,0.4444668,-1.4530196,1.9884166,-2.1024435,-1.5735782,2.4208648,-0.03486964,0.19681053,-0.22663443,0.04869781,-0.035707492,-0.021041276,-0.2681506,0.34476504,-9.653421,0.84484416,47.67614,-1.1105334,-1.7683595,-3.6537757,-0.041458324,-0.40415102,-0.1943047,24.9375,25.4375,24.75,26.9375,27.3125,27.5625
0.19205193,-0.74979717,-0.42322072,-0.68152136,-0.029527662,0.054942075,-0.11158726,-0.38152316,-0.32932088,0.060059723,-3.0746045,0.62643415,6.187773e-05,-0.092546135,-0.011844836,-0.0007947594,0.041564804,-0.0007658029,-0.013184872,0.4444067,-1.4526242,1.9879378,-2.1023586,-1.5736145,2.420817,-0.03535364,0.19777411,-0.22998963,0.050845005,-0.037622776,-0.021880088,-0.34476504,0.24899697,-9.557653,0.9186956,47.66808,-1.1470832,-1.763552,-3.672308,-0.02501548,-0.3671198,-0.19986108,24.9375,25.4375,24.75,26.9375,27.3125,27.5625
0.19405183,-1.1176642,-0.23778649,-0.544878,-0.0011185135,0.03365777,-0.11324955,-0.3817091,-0.3293559,0.06006791,-3.0745432,0.6264597,0.000103257946,-0.0942641,-0.012103765,0.0005251943,0.041962,0.0017841489,-0.012517506,0.44434646,-1.4522408,1.98747,-2.1022623,-1.573675,2.420781,-0.035401333,0.19842629,-0.23411219,0.05218333,-0.03908634,-0.022587275,-0.2681506,0.11492168,-9.346964,0.85155696,47.658226,-1.1410658,-1.6181145,-3.5814345,-0.029284123,-0.37212753,-0.1974114,24.9375,25.4375,24.75,26.9375,27.3125,27.5625
0.19605178,-1.4111806,-0.0011719537,-0.5724992,0.037187595,0.025132045,-0.09940653,-0.38188362,-0.32937276,0.06005594,-3.0744421,0.62657315,9.866696e-05,-0.095398195,-0.012110585,0.0008054522,0.042677112,0.0024282099,-0.012893471,0.44426247,-1.4518567,1.9870504,-2.1021783,-1.5737351,2.4207811,-0.035751212,0.20004088,-0.23680553,0.05298678,-0.040015217,-0.022554355,-0.28730422,0.1340753,-9.308657,0.8179876,47.70211,-1.1502049,-1.5876021,-3.4405415,-0.008585354,-0.35153168,-0.215815,24.9375,25.4375,24.75,26.9375,27.3125,27.5625
0.19805199,-1.1681393,0.27191225,-0.67356163,0.055184964,0.024939438,-0.09850521,-0.382094,-0.32938942,0.060053177,-3.0743337,0.62652963,0.0001387749,-0.09624768,-0.012078737,0.0009184073,0.043182734,0.0018851325,-0.013593488,0.44417837,-1.4514132,1.986535,-2.1020577,-1.5738434,2.4206843,-0.036384482,0.20176041,-0.23942652,0.05459121,-0.040242683,-0.022483628,-0.3256114,0.11492168,-9.32781,0.85826975,47.70211,-1.1413575,-1.5152655,-3.5119038,0.014650562,-0.34652942,-0.21402387,24.9375,25.4375,24.75,26.9375,27.3125,27.5625
0.20005196,-0.7697666,1.0289686,-0.6668695,0.045066305,0.031029724,-0.114481315,-0.38231033,-0.3294088,0.060070794,-3.074249,0.62655056,0.00025436134,-0.097523056,-0.012258268,0.0016155917,0.04328167,0.0018280004,-0.014034841,0.4440941,-1.4510173,1.9860314,-2.1019614,-1.5739516,2.4206245,-0.037108004,0.20338205,-0.2434765,0.05710718,-0.04031224,-0.022764271,-0.28730422,0.038307227,-9.3661175,0.87617236,47.685097,-1.1865222,-1.5135309,-3.4803958,0.0095829945,-0.33362818,-0.22691417,24.9375,25.4375,24.75,26.9375,27.3125,27.5625
0.20205192,-0.81467175,0.78353935,-0.8563841,0.046496183,0.02892445,-0.109703004,-0.38250038,-0.32944763,0.060081664,-3.0741699,0.6266113,0.00030575402,-0.09858189,-0.011378769,0.0019623528,0.04638049,0.0018664695,-0.015164928,0.44404575,-1.4506214,1.9855403,-2.1018527,-1.5740246,2.4206247,-0.03777965,0.20474866,-0.24654408,0.060112923,-0.043126836,-0.022293419,-0.38307226,0.05746084,-9.346964,0.8985519,47.683304,-1.152805,-1.3998666,-3.414628,0.0039248443,-0.3149086,-0.2552147,24.9375,25.4375,24.75,26.9375,27.3125,27.5625
0.20405205,-0.932423,0.38715738,-0.60472006,0.031403776,0.039984684,-0.11564817,-0.38266635,-0.3294685,0.060076676,-3.074053,0.6266054,0.00025315475,-0.09988143,-0.0109205535,0.001615514,0.049386427,-0.0004907481,-0.015588701,0.44398552,-1.4502246,1.9850706,-2.1016834,-1.5740975,2.4205763,-0.038623262,0.20910138,-0.25161627,0.064252816,-0.04483452,-0.022700042,-0.4405331,0.019153614,-9.423578,0.87393653,47.71465,-1.1005833,-1.577152,-3.2529736,-0.0037575522,-0.28027073,-0.24580508,24.9375,25.4375,24.75,26.9375,27.3125,27.5625
0.20605218,-1.0589377,0.30036232,-0.7988653,0.010466936,0.04601337,-0.116222605,-0.38283986,-0.32946536,0.060047973,-3.0738792,0.62666446,0.0001705991,-0.09812649,-0.009419327,-0.0019196022,0.05549267,-0.010650992,-0.0151176425,0.44388947,-1.4497911,1.9846166,-2.1015255,-1.5741934,2.42054,-0.039059136,0.21558481,-0.25215945,0.070104994,-0.045981042,-0.023596453,-0.2873042,0.019153614,-9.442732,0.8806493,47.675243,-1.1444598,-1.7637458,-3.315252,-0.053255916,-0.2533193,-0.25556472,24.9375,25.4375,24.75,26.9375,27.3125,27.5625
0.20805202,-1.1399479,-0.7232583,-0.8707844,0.012043073,0.0499986,-0.10934692,-0.38305703,-0.32949987,0.060065325,-3.073791,0.62660784,0.00027899363,-0.097234435,-0.00818873,-0.0030246759,0.058529563,-0.015575147,-0.015681438,0.44384092,-1.4493597,1.9840678,-2.1014044,-1.574314,2.420468,-0.040108047,0.21712662,-0.25244957,0.074599855,-0.04660257,-0.024079757,-0.32561144,0.15322891,-9.500193,0.94331104,47.704796,-1.1444895,-1.6744817,-3.6036947,-0.10844846,-0.2178002,-0.25806463,24.9375,25.4375,24.75,26.9375,27.3125,27.5625
0.21005166,-1.3172704,-1.3231931,-0.7203714,-0.0044025816,0.048622034,-0.10295304,-0.38326555,-0.3295199,0.060076676,-3.0736759,0.6267188,0.00024304003,-0.09715893,-0.0073579424,-0.002934141,0.060257047,-0.017601341,-0.017002346,0.44373268,-1.4489282,1.9835161,-2.1012113,-1.5743736,2.4204445,-0.04108404,0.2172688,-0.25374043,0.07831759,-0.047292266,-0.023728933,-0.36391866,0.15322891,-9.385271,0.9254084,47.695843,-1.0246285,-1.6370062,-3.5557158,-0.15216477,-0.192783,-0.26488665,24.9375,25.4375,24.75,26.9375,27.3125,27.5625
0.21205164,-1.5655043,-1.0217371,-0.87141156,-0.007955877,0.025823979,-0.10329825,-0.38345,-0.32953027,0.060075544,-3.073546,0.62667257,0.00023829074,-0.09769235,-0.0070545855,-0.0032389425,0.061423104,-0.019318338,-0.017923748,0.44366032,-1.4485203,1.983025,-2.1010435,-1.5744818,2.4203606,-0.041877944,0.2193923,-0.255984,0.08048472,-0.047612973,-0.023595195,-0.2873042,0.17238252,-9.500193,0.84484416,47.694054,-1.0990673,-1.5562835,-3.654533,-0.20451413,-0.15474954,-0.311823,24.9375,25.4375,24.75,26.9375,27.3125,27.5625
0.21405251,-0.77896947,-1.2582153,-0.73535967,-0.0044977646,0.024953598,-0.10270341,-0.38366717,-0.32954592,0.06007688,-3.0734162,0.6267208,0.00030315158,-0.09751444,-0.0070939595,-0.003921586,0.062146634,-0.02166159,-0.017367365,0.44357646,-1.4480764,1.9824985,-2.1009233,-1.5746015,2.420324,-0.04184802,0.22137183,-0.25706628,0.08200432,-0.047265742,-0.024121001,-0.3256114,0.22984336,-9.404425,0.90527004,47.65643,-1.0343926,-1.5294222,-3.6158738,-0.2453044,-0.14409754,-0.28888726,24.9375,25.4375,24.75,26.9375,27.3125,27.5625
0.21605279,-1.0649437,-1.2833191,-0.63600874,-0.017157586,0.0129112555,-0.10299483,-0.38385424,-0.32952946,0.06007729,-3.0732243,0.6267775,0.00027719617,-0.099223986,-0.007540384,-0.0027090956,0.060727496,-0.020092467,-0.018833179,0.44346818,-1.4476807,1.9820064,-2.1007073,-1.5747336,2.4202766,-0.04289697,0.22210059,-0.26100305,0.08317745,-0.046669584,-0.023699282,-0.24899697,0.2681506,-9.346964,0.842603,47.67166,-1.0756054,-1.5505332,-3.6422076,-0.27573317,-0.12534314,-0.30097562,24.9375,25.4375,24.75,26.9375,27.3125,27.5625
0.21805175,-0.6107976,-0.8082928,-0.68255156,-0.020530825,0.005634151,-0.11201403,-0.3840956,-0.32956925,0.060085267,-3.0731547,0.6268588,0.0002898309,-0.101103276,-0.008317428,-0.002055455,0.058894202,-0.01822318,-0.019723644,0.44335982,-1.4471892,1.9814085,-2.1005762,-1.5747813,2.4202285,-0.04363941,0.22402239,-0.26456633,0.082335405,-0.045829948,-0.023551544,-0.30645782,0.3256114,-9.251195,0.77545905,47.679718,-1.0901885,-1.5361524,-3.6533017,-0.31036127,-0.112977386,-0.3096271,24.9375,25.4375,24.75,26.9375,27.3125,27.5625
0.22005276,-1.0694671,-1.5707022,-0.7070658,-0.016313482,-0.011005623,-0.091855444,-0.3842614,-0.32960328,0.06008116,-3.0730476,0.62677985,0.00022293635,-0.10398946,-0.009620674,-0.001000134,0.055586904,-0.0143162,-0.021459993,0.44332346,-1.4467689,1.9809045,-2.100386,-1.5748528,2.4201572,-0.044618618,0.22640842,-0.26911455,0.07954491,-0.044536095,-0.022792,-0.17238252,0.34476504,-9.289502,0.8493211,47.64927,-1.0015806,-1.5164233,-3.6133053,-0.28814694,-0.114734575,-0.34167203,24.9375,25.4375,24.75,26.9375,27.3125,27.5625
0.22205208,-1.056618,-2.3269465,-0.6357131,-0.030451339,0.00046848747,-0.10562159,-0.38448456,-0.32959563,0.06007388,-3.0728765,0.62685794,0.000308486,-0.10531292,-0.010421602,-0.00070803746,0.054048855,-0.0150691895,-0.022089226,0.44321525,-1.4463251,1.9804,-2.1002772,-1.5750083,2.4201205,-0.04539944,0.22917683,-0.27330396,0.080971405,-0.042835012,-0.022947067,-0.17238252,0.30645782,-9.251195,0.8985519,47.70659,-0.9959191,-1.594446,-3.4744253,-0.3215435,-0.10148163,-0.36641937,24.9375,25.4375,24.75,26.9375,27.3125,27.5625
0.224052,-0.42825696,-1.5672375,-0.4325626,-0.04935998,0.020409273,-0.107801974,-0.38469484,-0.32962924,0.060075775,-3.0727642,0.62689143,0.0002455693,-0.10869909,-0.012421028,0.0015902466,0.04842101,-0.007268572,-0.02136688,0.4431311,-1.4458457,1.979813,-2.1000755,-1.5750679,2.4200723,-0.045793034,0.22910471,-0.2773961,0.07565928,-0.041125193,-0.024063691,-0.22984336,0.36391866,-9.251195,0.9254084,47.667187,-0.93520045,-1.5558584,-3.4008822,-0.29256886,-0.10875392,-0.37480998,24.9375,25.4375,24.75,26.9375,27.3125,27.5625
0.22605209,-0.92247164,-2.0069873,-0.7185599,-0.029189521,0.010149327,-0.10730149,-0.38491908,-0.32963294,0.060069516,-3.0725994,0.62699056,0.0002260294,-0.11040694,-0.013325786,0.0018453095,0.04550226,-0.00570496,-0.021526895,0.44301078,-1.4453663,1.9792498,-2.0998967,-1.5751747,2.4200358,-0.046877336,0.23111196,-0.2798272,0.07340052,-0.039177503,-0.024991423,-0.22984336,0.57460845,-9.270349,0.8314132,47.67793,-0.9913612,-1.3850563,-3.29974,-0.24170087,-0.11577916,-0.36486834,24.9375,25.4375,24.75,26.9375,27.3125,27.5625
0.22805202,-0.8523165,-2.0328476,-0.64980924,-0.03821699,0.032924708,-0.11264643,-0.3851374,-0.3296574,0.060068708,-3.0724955,0.6271216,0.00022117786,-0.11170222,-0.014193136,0.0018794058,0.0438316,-0.004208297,-0.021155724,0.44290283,-1.4449103,1.978711,-2.099766,-1.5752343,2.4200237,-0.04694322,0.23319943,-0.28186688,0.0712737,-0.03832406,-0.02542899,-0.17238252,0.6703765,-9.3661175,0.81351066,47.681515,-0.9753203,-1.4408233,-3.4597898,-0.21475953,-0.13548899,-0.38528508,24.9375,25.4375,24.75,26.9375,27.3125,27.5625
0.23005192,-1.2552234,-2.3087382,-0.605237,-0.04834995,0.044840563,-0.10430768,-0.38535818,-0.3296935,0.060060415,-3.0724232,0.6271064,0.00018947202,-0.11311302,-0.015027681,0.0014876458,0.042149004,-0.0033118834,-0.021239547,0.4428066,-1.4444181,1.9781483,-2.0996354,-1.5752825,2.4199278,-0.047350023,0.23625104,-0.28393376,0.068747625,-0.03720291,-0.02575316,-0.24899697,0.5554548,-9.232041,0.9231726,47.672558,-0.9224809,-1.3564827,-3.477644,-0.18478982,-0.15144113,-0.39027303,24.9375,25.4375,24.75,26.9375,27.3125,27.5625
0.23205186,-1.0361938,-2.176814,-0.5704888,-0.058045007,0.060918566,-0.11023664,-0.38556907,-0.32972088,0.06004239,-3.072295,0.6271369,0.00018594466,-0.11338171,-0.01515504,0.0004544027,0.04133072,-0.0041267006,-0.021631805,0.4427344,-1.4439261,1.977611,-2.0995162,-1.5753778,2.4198918,-0.048032865,0.23823774,-0.28342912,0.06663158,-0.03612271,-0.026046064,-0.3256114,0.47884035,-9.289502,0.9298854,47.723602,-0.9547309,-1.4013717,-3.6056054,-0.14286856,-0.15508614,-0.3970389,24.9375,25.4375,24.75,26.9375,27.3125,27.5625
0.23405173,-1.5037885,-1.9118232,-0.56917524,-0.042910513,0.046964478,-0.10574926,-0.38578403,-0.32974538,0.060036886,-3.0721788,0.62716943,0.00014874445,-0.114449926,-0.015348638,0.0008829289,0.04041435,-0.0027097506,-0.021423632,0.44263816,-1.4434468,1.9770478,-2.0993493,-1.5754503,2.4198315,-0.04871305,0.23876923,-0.2849604,0.065948084,-0.035913862,-0.02693165,-0.17238252,0.40222588,-9.270349,0.9388393,47.705692,-0.9644551,-1.2819756,-3.6460006,-0.100914165,-0.17598096,-0.4038027,24.9375,25.4375,24.75,26.9375,27.3125,27.5625
0.23605177,-1.0237759,-0.9163249,-0.65608823,-0.01821716,0.03159654,-0.10488625,-0.38601267,-0.32978523,0.06003506,-3.0721374,0.6271795,0.00018878482,-0.115654655,-0.015425386,-0.0008443631,0.041868962,-0.005601173,-0.021248706,0.44254187,-1.4429778,1.976509,-2.0992768,-1.575498,2.4197474,-0.0495329,0.24511276,-0.28827894,0.06614967,-0.03600234,-0.027923372,-0.095768064,0.30645782,-9.308656,0.88960326,47.709274,-0.8985926,-1.6222144,-3.6774766,-0.06795728,-0.18132624,-0.41381872,24.9375,25.4375,24.75,26.9375,27.3125,27.5625
0.23805167,-1.1378736,-0.73066044,-0.75593555,0.012004021,0.0044046985,-0.09708117,-0.38627237,-0.32980323,0.060043596,-3.07203,0.6272903,0.00026233753,-0.11683197,-0.015925754,-0.00080694945,0.041584983,-0.004954025,-0.020312179,0.44241005,-1.4424859,1.9759101,-2.0991576,-1.5755938,2.4196992,-0.049571846,0.24741626,-0.29099697,0.06584569,-0.036036186,-0.02889659,-0.11492168,0.2681506,-9.270349,0.8806493,47.69763,-0.95991164,-1.7010119,-3.6936665,-0.04396279,-0.1892893,-0.40654218,24.9375,25.4375,24.75,26.9375,27.3125,27.5625
0.24005248,0.07853254,0.10189712,-0.35153013,0.020940475,0.011800929,-0.1124672,-0.38650355,-0.32986122,0.06004723,-3.071963,0.6272951,0.00031217257,-0.118611775,-0.015437271,-0.0009354169,0.041981112,-0.006132717,-0.021585494,0.44236115,-1.4419818,1.9753107,-2.0990489,-1.5756658,2.4196625,-0.052089307,0.25060925,-0.2948317,0.067711614,-0.03589955,-0.030139087,-0.11492168,0.22984336,-9.193734,0.8717007,47.694946,-0.8309282,-1.7366679,-3.6017423,-0.012105901,-0.19239402,-0.4139302,24.9375,25.4375,24.75,26.9375,27.3125,27.5625
0.24205248,-0.3414256,0.112004526,-0.65797615,0.032536574,-0.012239579,-0.107739486,-0.38676074,-0.32987332,0.06002874,-3.0718272,0.6274188,0.00027272967,-0.11944406,-0.016312998,-0.00085911935,0.04335985,-0.0058868537,-0.0186735,0.4422058,-1.4414296,1.9746999,-2.0989053,-1.5757388,2.4196026,-0.050249174,0.25370294,-0.29891583,0.06906168,-0.03726675,-0.031198781,-0.22984336,0.26815057,-9.232041,0.9298854,47.65106,-0.9301129,-1.6495957,-3.5383072,0.0073473454,-0.20917866,-0.41050643,24.9375,25.4375,24.75,26.9375,27.3125,27.5625
0.24405237,-0.5955822,-0.65850496,-0.62395316,0.024582576,-0.001073299,-0.104025975,-0.3869563,-0.32993424,0.06001136,-3.0717473,0.6273806,0.0001843529,-0.12090342,-0.01673879,-0.00010065043,0.04316952,-0.0043037897,-0.017719958,0.44216964,-1.440914,1.9741243,-2.098749,-1.5757746,2.4195535,-0.05037419,0.2550483,-0.30243805,0.06972017,-0.037786163,-0.032269355,-0.28730422,0.24899697,-9.212888,0.9365982,47.711063,-0.9698447,-1.6334805,-3.4743805,0.045874435,-0.2106522,-0.38789856,24.9375,25.4375,24.75,26.9375,27.3125,27.5625
0.2460523,-1.2291238,-1.5004865,-0.71554726,-0.0073293927,0.0048661497,-0.10393193,-0.3872029,-0.32993242,0.06001502,-3.0715692,0.62743884,0.00018586556,-0.12150019,-0.01664483,0.001156626,0.042397335,-0.0049927165,-0.018087938,0.4420372,-1.4404113,1.9735016,-2.098532,-1.5759066,2.4194813,-0.05166713,0.25426775,-0.3054879,0.073825285,-0.036800332,-0.033195674,-0.22984336,0.36391866,-9.385271,0.8940802,47.72092,-0.91966695,-1.6991359,-3.418396,0.055156663,-0.2128087,-0.38501897,24.9375,25.4375,24.75,26.9375,27.3125,27.5625
0.24805212,-1.6291021,-1.9993494,-0.63792044,-0.03565104,0.017411044,-0.09612421,-0.38743952,-0.32997572,0.060016368,-3.071523,0.62737185,0.00018254659,-0.12216429,-0.015862795,0.0011825096,0.042843416,-0.0074132597,-0.019070607,0.44194046,-1.439908,1.9729017,-2.098399,-1.5759538,2.4193492,-0.054051965,0.25547314,-0.30781344,0.07730935,-0.036174238,-0.03459953,-0.2873042,0.38307226,-9.32781,0.95226496,47.72002,-0.8360661,-1.6728675,-3.4304128,0.019935736,-0.2368932,-0.3728311,24.9375,25.4375,24.75,26.9375,27.3125,27.5625
0.25005206,-1.7147297,-2.3020954,-0.6241348,-0.051194847,0.037231654,-0.10161635,-0.38768712,-0.33001128,0.059992228,-3.0713832,0.627532,8.7377484e-05,-0.12155665,-0.015702762,-0.0003222981,0.046333753,-0.011023786,-0.015693046,0.44182092,-1.4393198,1.9722565,-2.0982306,-1.5760025,2.4193485,-0.052694008,0.2592035,-0.3092561,0.079767,-0.037798084,-0.036605738,-0.38307226,0.36391866,-9.289502,0.8605109,47.694946,-0.82728887,-1.7376987,-3.4818559,0.03078314,-0.24657416,-0.3362116,24.9375,25.4375,24.75,26.9375,27.3125,27.5625
0.2520523,-1.5124756,-1.5009569,-0.68655425,-0.04127377,0.045966845,-0.10717465,-0.3879162,-0.3300446,0.0599926,-3.071301,0.62745535,0.00010346677,-0.12078785,-0.015531943,-0.0004610099,0.04789946,-0.014084722,-0.014441236,0.44173712,-1.4388287,1.9716696,-2.0980856,-1.5760869,2.419228,-0.05222352,0.25980538,-0.31069526,0.08403068,-0.037905753,-0.037384998,-0.38307226,0.3256114,-9.3661175,0.9298854,47.658226,-0.9297867,-1.6474773,-3.6903915,0.006816866,-0.25208113,-0.3236198,24.9375,25.4375,24.75,26.9375,27.3125,27.5625
0.25405252,-1.2229934,-0.72060466,-0.57913357,-0.019034484,0.04941423,-0.11796483,-0.38818762,-0.33007377,0.06001037,-3.0712066,0.62757003,0.00020527402,-0.12157373,-0.014932636,0.00037505064,0.04823552,-0.015424733,-0.015380293,0.44161645,-1.4383256,1.9710344,-2.097964,-1.5761827,2.4191918,-0.05412936,0.25991818,-0.31384924,0.08841252,-0.037641145,-0.03835323,-0.4213795,0.21068975,-9.404425,0.9410752,47.679718,-0.85615444,-1.5170174,-3.6910715,-0.031841274,-0.2749706,-0.3099168,24.9375,25.4375,24.75,26.9375,27.3125,27.5625
0.25605223,-1.060416,0.06924805,-0.71169144,0.025636382,0.028294181,-0.10862292,-0.3884279,-0.33010766,0.059977736,-3.0710688,0.6277135,4.1590738e-05,-0.12182615,-0.014646605,-0.00053252367,0.049710087,-0.019580357,-0.015352309,0.44148415,-1.4377255,1.9703888,-2.0977714,-1.5762066,2.4191678,-0.055105172,0.2635645,-0.31687787,0.09216911,-0.03721109,-0.039352942,-0.34476504,0.05746084,-9.289502,0.94331104,47.694946,-0.7633856,-1.5204598,-3.7077916,-0.083833486,-0.30312285,-0.28198385,24.9375,25.4375,24.75,26.9375,27.3125,27.5625
0.25805217,-1.1468489,0.5526545,-0.6488415,0.058909126,-0.004622197,-0.101764396,-0.38868806,-0.33013412,0.05997967,-3.0709891,0.6276376,0.00012294014,-0.12180525,-0.014995111,-0.0013999416,0.05046515,-0.024468593,-0.014609491,0.44137612,-1.4372089,1.969777,-2.0976622,-1.5763139,2.4190233,-0.055320542,0.2676483,-0.32062054,0.09655155,-0.03581243,-0.040317234,-0.22984336,0.0,-9.289502,0.947788,47.713753,-0.8219185,-1.5940644,-3.6021855,-0.122796856,-0.3382241,-0.26295763,24.9375,25.4375,24.75,26.9375,27.3125,27.5625
0.26005208,-0.35076463,1.294315,-0.62006015,0.063098244,-0.0013732617,-0.11086784,-0.38892564,-0.3301926,0.05997275,-3.0709107,0.6276008,7.1225377e-06,-0.12250775,-0.014822603,-0.0012023391,0.05170353,-0.026319293,-0.014377081,0.4412918,-1.436633,1.9690937,-2.0974457,-1.5763382,2.4189267,-0.055980805,0.26967525,-0.32439163,0.100490265,-0.036152788,-0.041202914,-0.38307226,-0.076614454,-9.270349,0.7642693,47.67345,-0.7672572,-1.6729989,-3.583851,-0.15406868,-0.37446117,-0.23674473,24.9375,25.4375,24.75,26.9375,27.3125,27.5625
0.26205194,-0.23715088,0.7128426,-1.0061252,0.086411364,-0.005532749,-0.108334035,-0.38917977,-0.33020037,0.059965946,-3.070738,0.6276977,-5.6591634e-05,-0.12342699,-0.014503379,-0.00029307997,0.05380838,-0.026245898,-0.014013444,0.44114798,-1.4360818,1.9684352,-2.0972164,-1.576435,2.4188666,-0.05602766,0.27046236,-0.3284045,0.10454408,-0.038100272,-0.041596424,-0.34476504,-0.095768064,-9.289502,0.86945957,47.67166,-0.75251615,-1.7780639,-3.4893007,-0.21404994,-0.3743778,-0.22166038,24.9375,25.4375,24.75,26.9375,27.3125,27.5625
0.26405212,-0.5705403,0.9478928,-0.8903856,0.049808476,0.007930529,-0.1141998,-0.38941026,-0.33020496,0.059929483,-3.0705328,0.62769395,-0.00019829918,-0.124190375,-0.012631627,-0.001960726,0.057359125,-0.03000414,-0.016678175,0.44102687,-1.4354938,1.9678005,-2.0969765,-1.5765437,2.4187708,-0.059005473,0.27435598,-0.32962158,0.106777005,-0.039719686,-0.04189182,-0.21068975,-0.076614454,-9.346964,0.8672237,47.67345,-0.65367174,-1.7482071,-3.4317036,-0.26366478,-0.35804665,-0.1895403,24.9375,25.4375,24.75,26.9375,27.3125,27.5625
0.26605204,-0.83305657,-0.46568754,-0.7682759,0.02842749,0.036295567,-0.11414515,-0.38967595,-0.33022726,0.0599126,-3.070382,0.627681,-0.00023527759,-0.12517707,-0.013120836,-0.0021167244,0.05793466,-0.02936491,-0.016882336,0.440907,-1.434894,1.9671181,-2.0967853,-1.5766515,2.4186633,-0.058383375,0.27691928,-0.33224943,0.10650795,-0.040526126,-0.041054685,-0.2681506,-0.05746084,-9.251195,0.9835985,47.71017,-0.6172261,-1.8127353,-3.5750794,-0.2984519,-0.37109536,-0.17693584,24.9375,25.4375,24.75,26.9375,27.3125,27.5625
0.26805204,-1.6299026,-0.9947918,-0.5972855,-0.0121485945,0.05255856,-0.10844139,-0.38990957,-0.33027297,0.059941456,-3.0702753,0.62769645,-0.0002599912,-0.12654778,-0.013217741,-0.0020749397,0.05892071,-0.027768644,-0.01730696,0.44083515,-1.434402,1.9664363,-2.096522,-1.5767244,2.4186156,-0.058314532,0.27906823,-0.33473936,0.10582907,-0.042110298,-0.04054672,-0.22984336,0.095768064,-9.289502,0.8403672,47.666286,-0.7092215,-1.8937899,-3.5343943,-0.31547847,-0.3897478,-0.16430566,24.9375,25.4375,24.75,26.9375,27.3125,27.5625
0.27005222,-1.7950457,-1.6714823,-0.7810342,-0.021299345,0.06201178,-0.10758334,-0.39016527,-0.330257,0.059895694,-3.070061,0.6277473,-0.00039822358,-0.12956314,-0.013548729,-0.0016264974,0.057428252,-0.02171989,-0.019164875,0.44065484,-1.4337906,1.9658016,-2.096309,-1.5768331,2.418496,-0.059431784,0.28083825,-0.33655685,0.099766515,-0.043371353,-0.03978766,-0.24899697,0.15322891,-9.385271,0.8940802,47.687782,-0.609608,-1.8479911,-3.6225586,-0.2900508,-0.37991035,-0.14806724,24.9375,25.4375,24.75,26.9375,27.3125,27.5625
0.27205214,-1.6831977,-1.7664582,-0.8822546,-0.02851868,0.0656942,-0.108073495,-0.39041802,-0.33028743,0.059884835,-3.069915,0.62781346,-0.0004526027,-0.13283327,-0.013310666,-0.00030648315,0.05602658,-0.01473872,-0.021733476,0.44054607,-1.4332156,1.9651302,-2.0961072,-1.5769175,2.4184482,-0.061512485,0.28070194,-0.33847764,0.094912834,-0.04510236,-0.039282057,-0.2681506,0.22984336,-9.442732,0.95002913,47.67345,-0.4968989,-1.8330214,-3.6400752,-0.23284365,-0.38736176,-0.12965435,24.9375,25.4375,24.75,26.9375,27.3125,27.5625
0.27405223,-1.6751728,-1.6844696,-0.90835506,-0.040090818,0.061362606,-0.112170026,-0.3907013,-0.33031595,0.059909247,-3.0698228,0.627849,-0.0003793868,-0.13427225,-0.015363044,0.00025558943,0.055056892,-0.0096794665,-0.019632274,0.44041538,-1.4326886,1.9644374,-2.0959294,-1.5770139,2.4183524,-0.058098137,0.28278822,-0.3413064,0.090669125,-0.04639654,-0.03795735,-0.3256114,0.28730422,-9.557653,0.95002913,47.658226,-0.61725307,-1.6565008,-3.765249,-0.20635992,-0.36943483,-0.13398142,24.9375,25.4375,24.75,26.9375,27.3125,27.5625
0.2760521,-1.3302168,-1.5036777,-0.9149959,-0.033654273,0.050241005,-0.111285426,-0.39095882,-0.33034235,0.05987357,-3.0696375,0.6279245,-0.00041582092,-0.13707112,-0.01535136,0.0012792111,0.055002794,-0.0033681968,-0.02106279,0.4403191,-1.4320648,1.9637779,-2.0957754,-1.5771345,2.4183283,-0.058748756,0.28341326,-0.34360033,0.0866117,-0.049055476,-0.03715227,-0.2681506,0.30645782,-9.557653,0.9030289,47.69763,-0.68643,-1.7122258,-3.6735108,-0.12870704,-0.3348047,-0.13216934,24.9375,25.4375,24.75,26.9375,27.3125,27.5625
0.2780522,-1.5901237,-1.6259154,-1.2861406,-0.009973617,0.022363663,-0.100715846,-0.39124507,-0.330382,0.0598996,-3.0695536,0.6279267,-0.00036942246,-0.13860045,-0.015114075,0.0011729213,0.05593022,-0.0016831527,-0.022785313,0.44019884,-1.4315131,1.9630469,-2.0955713,-1.5772194,2.418221,-0.05942034,0.28547382,-0.34555206,0.08537749,-0.050618187,-0.03608825,-0.2681506,0.38307226,-9.519346,0.95226496,47.655537,-0.6122335,-1.590647,-3.7282534,-0.07863028,-0.33341107,-0.14466053,24.9375,25.4375,24.75,26.9375,27.3125,27.5625
0.28005204,-1.4560975,-1.1819279,-1.3993613,-0.010327599,0.013238115,-0.10504632,-0.39154524,-0.33040464,0.059906673,-3.069449,0.62805796,-0.00028198172,-0.1394527,-0.0153900655,0.0014023802,0.05703472,-0.00070087984,-0.022772592,0.44004318,-1.4309498,1.962365,-2.095452,-1.5773157,2.4181616,-0.05865124,0.2870676,-0.34816313,0.08597575,-0.052040186,-0.035321068,-0.22984336,0.4213795,-9.576807,0.9858343,47.66271,-0.6693666,-1.6703305,-3.679628,-0.05492821,-0.31698427,-0.13134977,24.9375,25.4375,24.75,26.9375,27.3125,27.5625
0.282052,-0.8899545,-1.4436927,-1.241552,-0.015130934,0.02591068,-0.11121201,-0.39180374,-0.33043787,0.05989072,-3.0692952,0.6279677,-0.00032291873,-0.14036877,-0.01497302,0.001244372,0.059624083,-0.0004823646,-0.024541682,0.43995914,-1.4303379,1.9616588,-2.095236,-1.5774368,2.4180422,-0.05856116,0.2892167,-0.35067746,0.08725932,-0.054474942,-0.033437777,-0.24899697,0.47884035,-9.672575,0.95226496,47.64121,-0.73641646,-1.6234334,-3.7528095,-0.036988452,-0.30862853,-0.14344195,24.9375,25.4375,24.75,26.9375,27.3125,27.5625
0.28405198,-1.1343961,-1.671314,-1.3005836,-0.022784436,0.024705032,-0.10535253,-0.39210507,-0.3304848,0.059902366,-3.0691886,0.6281167,-0.00026126704,-0.14167026,-0.014971562,0.0010942915,0.06243324,0.00014677084,-0.023810584,0.4398395,-1.4297379,1.9609159,-2.0950801,-1.5775217,2.4180303,-0.05778168,0.29254216,-0.35451305,0.088397846,-0.057293553,-0.033367366,-0.2873042,0.47884035,-9.615114,0.8717007,47.655537,-0.71428,-1.7471421,-3.6908274,-0.018901128,-0.25224337,-0.15355313,24.9375,25.4375,24.75,26.9375,27.3125,27.5625
0.2860521,-1.1544948,-1.4925694,-1.3336515,-0.030252973,0.02690545,-0.11396059,-0.39237636,-0.33048528,0.059901666,-3.0690022,0.62815386,-0.00022553664,-0.14119965,-0.014823321,0.00014100893,0.064317875,-0.0046812925,-0.024650237,0.43970743,-1.4291857,1.9602445,-2.0948746,-1.5776771,2.4179466,-0.057816636,0.29568118,-0.35707083,0.092979506,-0.05694073,-0.032559663,-0.11492168,0.4405331,-9.691729,0.947788,47.670765,-0.8024921,-1.7329906,-3.7210515,-0.016401421,-0.24809664,-0.15956903,24.9375,25.4375,24.75,26.9375,27.3125,27.5625
0.28805184,-1.6894865,-2.0094092,-1.2015903,-0.032676104,0.02417083,-0.10139281,-0.39269283,-0.33051094,0.05989963,-3.0688164,0.628269,-0.00018361708,-0.14177029,-0.014402089,-0.0005606948,0.06728852,-0.0064856955,-0.02717921,0.43957546,-1.4285262,1.9594539,-2.09467,-1.5778221,2.4179118,-0.057759993,0.29900002,-0.35996044,0.09546104,-0.058853872,-0.029955192,0.0,0.3256114,-9.672575,0.90750587,47.688675,-0.7861579,-1.8925067,-3.7238393,-0.04830955,-0.21427464,-0.18263935,24.9375,25.4375,24.75,26.9375,27.3125,27.5625
0.29005188,-1.0286814,-1.3752834,-0.8641019,-0.038714986,0.024052592,-0.11304982,-0.39298975,-0.33056438,0.059929196,-3.0687826,0.62822235,-2.4520006e-05,-0.14110757,-0.013243025,-0.001274018,0.073138535,-0.011119964,-0.028664576,0.43947974,-1.4279859,1.9587473,-2.09456,-1.5779189,2.4177918,-0.05708678,0.30160722,-0.36303043,0.10262633,-0.06215615,-0.027776549,0.019153614,0.3256114,-9.557653,0.88289046,47.65464,-0.83349884,-1.9525993,-3.6680727,-0.058944292,-0.15333378,-0.19486117,24.9375,25.4375,24.75,26.9375,27.3125,27.5625
0.2920518,-0.39750198,-0.9427943,-0.7463437,-0.014207688,0.0023144812,-0.10936809,-0.39327088,-0.33060172,0.059915736,-3.0686064,0.6282803,-5.1774907e-05,-0.14108896,-0.012924757,-0.0010851969,0.074260786,-0.013868475,-0.028987324,0.43938357,-1.4273392,1.9579939,-2.094343,-1.578039,2.4177558,-0.05769327,0.30253422,-0.36576435,0.107386276,-0.06200628,-0.028054351,0.0,0.34476504,-9.3661175,0.83589023,47.640312,-0.8716501,-1.8396883,-3.6757603,-0.1551224,-0.11484847,-0.2100893,24.9375,25.4375,24.75,26.9375,27.3125,27.5625
0.29405168,0.38760188,-0.39419267,-0.89348876,0.03219262,-0.027874913,-0.11419823,-0.39356542,-0.3306127,0.05989764,-3.0684292,0.6284145,-5.0128743e-05,-0.1404355,-0.013057707,-0.0013503502,0.074639484,-0.017049573,-0.027789157,0.43922773,-1.4267159,1.9572881,-2.0941741,-1.5781587,2.417708,-0.057471924,0.3034895,-0.3672081,0.11089102,-0.061006304,-0.02903326,0.076614454,0.24899697,-9.289502,0.95897776,47.64389,-0.8780627,-1.8757029,-3.7164063,-0.18143442,-0.124991365,-0.21695703,24.9375,25.4375,24.75,26.9375,27.3125,27.5625
0.29605252,1.009615,0.9891877,-0.78057677,0.025728947,-0.05028151,-0.11938477,-0.3938774,-0.330656,0.05993815,-3.0682952,0.62846255,6.759768e-05,-0.14084643,-0.013192395,9.346199e-05,0.07409689,-0.01620016,-0.02882231,0.4391317,-1.4261293,1.9564737,-2.0939338,-1.5783027,2.4176602,-0.057606455,0.30191016,-0.3695266,0.11378591,-0.060874484,-0.028134808,0.17238252,0.076614454,-9.289502,0.90750587,47.674347,-0.8808557,-1.6620246,-3.8132408,-0.21777242,-0.103768915,-0.21793766,24.9375,25.4375,24.75,26.9375,27.3125,27.5625
0.298052,0.9110961,0.20007692,-0.56091267,0.02976934,-0.06922948,-0.10618029,-0.3941287,-0.33068135,0.059902776,-3.0681074,0.62849814,-5.7849185e-05,-0.14268045,-0.014263,0.0011679401,0.07240852,-0.015379753,-0.029148838,0.43902355,-1.4254937,1.9557794,-2.0937054,-1.5783981,2.4176,-0.057940453,0.30415034,-0.37515488,0.11570036,-0.05971257,-0.0281381,0.21068975,-0.019153614,-9.232041,0.92764956,47.687782,-0.9284066,-1.5565466,-3.603321,-0.23384209,-0.10141439,-0.25663757,24.9375,25.4375,24.75,26.9375,27.3125,27.5625
0.3000521,0.7978861,0.2764057,-0.52356404,0.013335816,-0.06344764,-0.10984433,-0.39443684,-0.33069414,0.059917863,-3.0679243,0.62855494,2.4528183e-05,-0.14451729,-0.015215954,0.0023235513,0.06964158,-0.013308379,-0.028437238,0.43889114,-1.4248943,1.9550112,-2.0934784,-1.578566,2.417528,-0.058761086,0.30511522,-0.37904063,0.11553981,-0.05811354,-0.029677065,0.19153613,-0.038307227,-9.078813,0.8784135,47.639416,-0.9078807,-1.5901449,-3.5765166,-0.2636926,-0.06766881,-0.24808061,24.9375,25.4375,24.75,26.9375,27.3125,27.5625
0.30205205,0.25523403,-0.1895215,-0.60317785,0.014751189,-0.05420233,-0.1076784,-0.39471024,-0.33074313,0.05991899,-3.0678117,0.62858737,-4.3998072e-05,-0.14574218,-0.016843937,0.0019460015,0.06676812,-0.013535251,-0.028160844,0.43878332,-1.4242827,1.9542574,-2.0932395,-1.5786246,2.417456,-0.05854303,0.30894828,-0.38239947,0.114032015,-0.05543443,-0.029747745,0.28730422,0.038307227,-9.155427,0.9925471,47.66539,-0.9180095,-1.6072831,-3.4702706,-0.24656129,-0.0895773,-0.2513242,24.9375,25.4375,24.75,26.9375,27.3125,27.5625
0.30405194,0.23381294,-0.28884676,-0.68882024,-0.00023657177,-0.01731555,-0.121134005,-0.39502788,-0.33077797,0.059957277,-3.0676868,0.62865615,3.5787136e-05,-0.14831693,-0.018758165,0.0023520272,0.06301006,-0.010928728,-0.029073143,0.4386514,-1.423694,1.953442,-2.0929892,-1.5787438,2.4173841,-0.058688987,0.31290403,-0.38736174,0.1110698,-0.053158224,-0.028993925,0.28730422,-0.038307227,-9.32781,0.90750587,47.677036,-0.9238863,-1.7043827,-3.3573835,-0.22625314,-0.11450526,-0.26964855,24.9375,25.4375,24.75,26.9375,27.3125,27.5625
0.30605248,-0.6699809,-0.9213495,-0.65104735,-0.013956857,0.0016773078,-0.112839736,-0.39530158,-0.33079383,0.059939336,-3.0674858,0.62882346,-6.1121194e-05,-0.1483816,-0.019338904,0.00017262388,0.06235398,-0.01331414,-0.028326422,0.43850735,-1.4230694,1.9527138,-2.0927389,-1.5788392,2.417372,-0.058656625,0.31741342,-0.38703984,0.1080977,-0.051571656,-0.029712014,0.095768064,0.095768064,-9.442732,0.9410752,47.651955,-0.944172,-1.9030217,-3.4061933,-0.18194333,-0.13015756,-0.27924618,24.9375,25.4375,24.75,26.9375,27.3125,27.5625
0.30805188,-1.5150713,-1.7464734,-0.6081477,-0.04231,0.026598314,-0.10649706,-0.3955902,-0.33084112,0.05995422,-3.0673664,0.6287955,-9.879268e-06,-0.14920199,-0.02044732,0.0010100674,0.05837787,-0.009642999,-0.026999831,0.43842345,-1.4224693,1.9519466,-2.0925248,-1.5789589,2.417287,-0.058605123,0.31600842,-0.38663486,0.10405997,-0.04955119,-0.031000448,-0.076614454,0.21068975,-9.461885,0.99702406,47.68599,-0.98414373,-1.8196111,-3.7241523,-0.14351556,-0.15657635,-0.28288645,24.9375,25.4375,24.75,26.9375,27.3125,27.5625
0.31005177,-1.3156052,-2.2651987,-1.2981601,-0.048390783,0.04556303,-0.117194496,-0.39587864,-0.33086172,0.05993708,-3.067164,0.6288653,-8.763443e-05,-0.14832097,-0.020251406,-0.0011328032,0.059544165,-0.014149514,-0.02544775,0.4382914,-1.4218072,1.9511703,-2.092261,-1.5790786,2.4172263,-0.05868671,0.31941193,-0.38590315,0.10447326,-0.048711818,-0.032633793,-0.076614454,0.36391866,-9.576807,0.9164598,47.67793,-0.97897875,-1.8339579,-3.9039314,-0.091085106,-0.17998642,-0.2863354,24.9375,25.4375,24.75,26.9375,27.3125,27.5625
0.31205273,-1.9004527,-2.6141374,-1.2623624,-0.07325074,0.0348482,-0.10934632,-0.39616764,-0.33092865,0.059955306,-3.0670888,0.628791,-5.8138743e-05,-0.14974701,-0.021514999,-9.942112e-06,0.057658713,-0.0109888045,-0.024620945,0.43821973,-1.4211948,1.9503802,-2.092046,-1.5791625,2.4171188,-0.05779268,0.3200258,-0.38912436,0.10341168,-0.0483587,-0.032566056,-0.30645782,0.51714754,-9.653421,0.93436235,47.701214,-1.0876067,-1.6556532,-3.910455,-0.10559918,-0.19525999,-0.275054,24.9375,25.4375,24.75,26.9375,27.3125,27.5625
0.31405172,-2.2164302,-3.175948,-1.1657068,-0.08278466,0.0305054,-0.10194578,-0.39647958,-0.3309488,0.05995505,-3.0669155,0.628966,-6.3170495e-07,-0.15130346,-0.02103593,0.0010151482,0.056581493,-0.009762499,-0.026854295,0.4380748,-1.4205699,1.9496258,-2.0918658,-1.5792941,2.4171069,-0.060203034,0.31968454,-0.39153036,0.104577206,-0.047913786,-0.03274369,-0.45968673,0.7278373,-9.672575,0.95226496,47.664497,-0.9874228,-1.6291144,-3.9150262,-0.046543196,-0.2175109,-0.29311958,24.9375,25.4375,24.75,26.9375,27.3125,27.5625
0.3160517,-2.0167487,-3.047412,-1.3531989,-0.074035354,0.030047199,-0.10597119,-0.3967818,-0.33101115,0.05997598,-3.0668237,0.62900084,7.305734e-05,-0.1538269,-0.023673862,0.0037713319,0.053520635,-0.0033433132,-0.024126235,0.43799183,-1.4199575,1.9488343,-2.091675,-1.5793904,2.4170585,-0.05754344,0.32014775,-0.3984002,0.10386469,-0.04788445,-0.032808658,-0.51714754,0.6703765,-9.730036,0.94331104,47.64837,-1.1197546,-1.4473243,-3.7512572,-0.052904047,-0.23293582,-0.29353732,24.9375,25.4375,24.75,26.9375,27.3125,27.5625
0.31805176,-1.9619406,-2.7457747,-1.4070045,-0.06379584,0.02410723,-0.10299363,-0.39707875,-0.33105496,0.059976336,-3.0667121,0.6289965,5.5086257e-05,-0.15521401,-0.02432243,0.004864651,0.05184166,-0.0020396628,-0.024651943,0.43787152,-1.4193205,1.9480556,-2.091459,-1.5794739,2.416951,-0.058106054,0.32076743,-0.40206617,0.10500625,-0.046927802,-0.032848485,-0.47884035,0.68953013,-9.825804,0.95897776,47.709274,-1.2029032,-1.3412119,-3.6742659,-0.02474254,-0.2517047,-0.2955298,24.9375,25.4375,24.75,26.9375,27.3125,27.5625
0.32005164,-1.690324,-1.9632618,-1.4552753,-0.056532692,0.03165281,-0.10980938,-0.39738977,-0.33112466,0.059985254,-3.066629,0.6290938,4.5261815e-05,-0.15443073,-0.02344331,0.00225048,0.053664424,-0.009267777,-0.026389342,0.43776304,-1.4186586,1.9472307,-2.0912545,-1.5795215,2.416915,-0.059880387,0.32544965,-0.40228587,0.10785089,-0.045512818,-0.032895073,-0.49799395,0.63206923,-9.844957,0.9612189,47.68062,-1.1009824,-1.4414008,-3.723956,-0.018533535,-0.27523854,-0.31348073,24.9375,25.4375,24.75,26.9375,27.3125,27.5625
0.32205194,-2.2149143,-1.7355318,-1.4524052,-0.028865868,0.025672749,-0.10259593,-0.39770603,-0.33119285,0.060014077,-3.0665443,0.6290759,0.00010940114,-0.15389004,-0.022650393,9.165228e-05,0.057013348,-0.016933005,-0.027562318,0.43767866,-1.4180198,1.946381,-2.091025,-1.5796174,2.4168313,-0.060937457,0.33093578,-0.4050935,0.11352786,-0.04529277,-0.03277935,-0.4213795,0.30645782,-9.921572,0.90750587,47.693153,-0.99216175,-1.5861331,-3.804985,-0.04093166,-0.3108738,-0.31091622,24.9375,25.4375,24.75,26.9375,27.3125,27.5625
0.32405174,-1.6835519,-0.8286469,-1.0247766,-0.027413331,0.041153975,-0.11231508,-0.3979992,-0.33121535,0.059976026,-3.0663736,0.6291715,1.21769135e-05,-0.15092579,-0.022518827,-0.0017684092,0.060920414,-0.02647756,-0.025872068,0.43752345,-1.4173344,1.9456385,-2.0908306,-1.5797008,2.4167593,-0.05891339,0.33386654,-0.40632957,0.1221257,-0.044779122,-0.032444526,-0.4213795,0.24899697,-9.595961,1.005978,47.672558,-1.1812551,-1.636362,-3.9215183,-0.11202359,-0.34980035,-0.337182,24.9375,25.4375,24.75,26.9375,27.3125,27.5625
0.32605165,-1.0905545,-0.34184408,-0.45942247,0.003019875,0.04369468,-0.10996512,-0.39833602,-0.33128574,0.060015008,-3.066296,0.62919253,0.00010972482,-0.1524014,-0.02136478,-0.0022680727,0.06276246,-0.028342402,-0.027595349,0.43742645,-1.4166849,1.9447526,-2.0906017,-1.5797976,2.4166863,-0.06160869,0.33696666,-0.40950367,0.12465628,-0.04567,-0.03340844,-0.34476504,0.095768064,-9.346964,0.9410752,47.66808,-1.1089604,-1.6652932,-3.8924813,-0.17233525,-0.38138145,-0.32058364,24.9375,25.4375,24.75,26.9375,27.3125,27.5625
0.32805258,-0.59720176,1.0265311,-0.56387645,0.047827125,0.008895421,-0.11657875,-0.3986593,-0.33132124,0.06003945,-3.0662022,0.6293441,0.00010024853,-0.15355548,-0.021808172,-0.00054330454,0.06297231,-0.028696911,-0.0265928,0.4372464,-1.4160717,1.9439381,-2.09036,-1.5798453,2.416614,-0.061664402,0.33763203,-0.4157435,0.13062163,-0.04572771,-0.03446279,-0.11492168,0.0,-9.346964,0.9947882,47.666286,-1.0831715,-1.7602445,-3.8666346,-0.21477476,-0.40976685,-0.3169559,24.9375,25.4375,24.75,26.9375,27.3125,27.5625
0.3300527,-0.07918871,1.4321916,-0.40549195,0.06665694,-0.006996562,-0.11008856,-0.39899746,-0.33138373,0.060052346,-3.0660753,0.62941295,0.00018056133,-0.15547039,-0.02132379,5.2794905e-05,0.06436635,-0.026958996,-0.027714435,0.43715003,-1.4153748,1.9430627,-2.0901568,-1.5799664,2.4165783,-0.06279577,0.33925334,-0.419413,0.1316845,-0.047737934,-0.034453306,-0.038307227,-0.038307227,-9.308657,0.99031126,47.691364,-1.0910554,-1.6335287,-3.6046755,-0.24589884,-0.42597884,-0.31775182,24.9375,25.4375,24.75,26.9375,27.3125,27.5625
0.3320526,-0.23115142,1.4712754,-0.32118157,0.06326052,-0.026855865,-0.1070138,-0.39934388,-0.3314284,0.060073357,-3.0659645,0.6294465,0.00024423085,-0.15772285,-0.021724207,0.00067677465,0.06533698,-0.023689978,-0.028232865,0.43700635,-1.4147003,1.9421886,-2.0899298,-1.5800747,2.416471,-0.062432453,0.341849,-0.42386943,0.13100071,-0.050014477,-0.03354896,-0.2681506,-0.038307227,-9.059659,0.900793,47.696735,-1.1042954,-1.6770599,-3.5970411,-0.24567832,-0.41989565,-0.3497199,24.9375,25.4375,24.75,26.9375,27.3125,27.5625
0.3340526,-0.42283592,0.49674186,-0.5054815,0.0626419,-0.026191067,-0.115127556,-0.39963952,-0.3314575,0.060078263,-3.0657713,0.6295196,0.00018775271,-0.16114765,-0.02168285,0.001964811,0.06325423,-0.018520314,-0.029750697,0.43688545,-1.4140521,1.9413627,-2.0896194,-1.5801948,2.4164224,-0.065120935,0.3428575,-0.427521,0.12805858,-0.05034808,-0.034708273,-0.1340753,-0.17238252,-9.021352,0.9097417,47.64837,-0.9872509,-1.5955083,-3.417037,-0.22501607,-0.44069046,-0.3453293,24.9375,25.4375,24.75,26.9375,27.3125,27.5625
0.33605248,-0.82218367,-0.4402086,-0.25393978,0.018279612,0.018916545,-0.109798335,-0.3999728,-0.33150893,0.060086552,-3.065641,0.6295459,0.00021115784,-0.16207907,-0.022530468,0.0013746995,0.064035125,-0.015333362,-0.025131991,0.43676603,-1.4133551,1.9404887,-2.089382,-1.580304,2.4163375,-0.06295901,0.34528193,-0.428197,0.123727106,-0.052439924,-0.03714335,-0.19153613,-0.095768064,-9.11712,1.0082139,47.629562,-1.039915,-1.4327207,-3.5484042,-0.16914877,-0.45535988,-0.3358292,24.9375,25.4375,24.75,26.9375,27.3125,27.5625
0.33805245,-1.862265,-1.2016824,0.032708686,-0.027149512,0.046267625,-0.1110057,-0.40027437,-0.33154938,0.060086112,-3.0654647,0.6295841,0.00011426949,-0.16381586,-0.021987434,0.0011563605,0.06589605,-0.011988037,-0.024756143,0.436646,-1.4126692,1.939628,-2.0890596,-1.5804013,2.4162657,-0.06331795,0.34701985,-0.42923117,0.12077371,-0.055565804,-0.037842527,-0.34476504,0.05746084,-9.059659,1.0015011,47.698532,-1.105768,-1.4425166,-3.6840274,-0.13174303,-0.4513406,-0.3431658,24.9375,25.4375,24.75,26.9375,27.3125,27.5625
0.3400526,-2.3013282,-1.6324495,-0.051456854,-0.029590033,0.07695583,-0.11648335,-0.4006056,-0.3316004,0.060100973,-3.0653589,0.62961906,0.00012926695,-0.16775529,-0.019839294,0.001972228,0.06823639,-0.0066631283,-0.026283912,0.43651256,-1.4119959,1.9387649,-2.0888207,-1.5804867,2.416169,-0.067585066,0.3482636,-0.43225127,0.118692935,-0.059976175,-0.040539306,-0.4213795,0.11492168,-9.002198,0.90750587,47.645687,-1.005568,-1.4676713,-3.745051,-0.07801907,-0.404986,-0.3092237,24.9375,25.4375,24.75,26.9375,27.3125,27.5625
0.3420538,-2.4776702,-1.3129262,-0.28771707,-0.013778176,0.07425323,-0.1149633,-0.4009638,-0.33164603,0.060124848,-3.0652454,0.62972647,0.00025011876,-0.16930558,-0.021160178,0.0022296093,0.06814694,-0.004768776,-0.024670746,0.43636912,-1.4113227,1.9378918,-2.08863,-1.5806068,2.4161084,-0.06595918,0.35160005,-0.4367688,0.11810899,-0.06071149,-0.04051844,-0.34476504,0.21068975,-9.11712,0.98807013,47.652847,-0.9321356,-1.4068742,-3.6282883,-0.04972286,-0.40458578,-0.3023021,24.9375,25.4375,24.75,26.9375,27.3125,27.5625
0.3440527,-2.0934825,-0.7357673,-0.17554516,0.0044628587,0.068087004,-0.11106277,-0.4012755,-0.33168036,0.060107898,-3.0650594,0.62968653,0.00022580601,-0.17055361,-0.020532483,0.000951139,0.071565546,-0.0045675724,-0.025572008,0.43626106,-1.4106114,1.9370545,-2.0883787,-1.5807523,2.416001,-0.066015445,0.35577714,-0.43863168,0.11706528,-0.063903876,-0.03963636,-0.38307226,0.2681506,-9.174581,1.048496,47.65912,-1.107742,-1.5304961,-3.553534,-0.0054763574,-0.38537493,-0.3057429,24.9375,25.4375,24.75,26.9375,27.3125,27.5625
0.34605187,-1.5490812,-0.14522001,-0.4092708,0.02504776,0.056096155,-0.117246024,-0.4016293,-0.3317294,0.060124658,-3.0649128,0.62980664,0.00028680178,-0.17226891,-0.01912834,0.0010886454,0.0750277,-0.004216558,-0.025214782,0.43612847,-1.4099034,1.9361457,-2.0881383,-1.5808734,2.415964,-0.067768194,0.3578042,-0.44205198,0.1195806,-0.06721356,-0.041713573,-0.51714754,0.40222588,-9.059659,0.9634547,47.70211,-0.9251288,-1.5376517,-3.5976377,0.025740858,-0.3609348,-0.30128884,24.9375,25.4375,24.75,26.9375,27.3125,27.5625
0.34805214,-2.0645905,-0.8735577,-0.42557085,0.02978084,0.030696519,-0.10829319,-0.40196878,-0.33175656,0.060117975,-3.0647194,0.6298784,0.00029402156,-0.17314735,-0.017944844,0.0007655584,0.07869257,-0.0038282555,-0.02366903,0.4359844,-1.409182,1.9352721,-2.087886,-1.5810188,2.4158914,-0.06828795,0.35934585,-0.44355053,0.12070943,-0.070725024,-0.04374076,-0.5554548,0.49799395,-9.078813,1.0037369,47.63315,-0.926095,-1.5779829,-3.6923022,0.01401357,-0.31176627,-0.24796227,24.9375,25.4375,24.75,26.9375,27.3125,27.5625
0.35005227,-1.3913702,-0.95674115,-0.22275844,-0.007476062,0.047913216,-0.11966233,-0.40231586,-0.33179408,0.060114954,-3.0645633,0.62982494,0.00032209785,-0.17095658,-0.015280909,-0.0010365003,0.08624485,-0.01259727,-0.023207683,0.4358521,-1.4084479,1.9343771,-2.087643,-1.5811633,2.4157474,-0.069122575,0.3610654,-0.44376513,0.13032487,-0.073865645,-0.045004327,-0.49799395,0.49799395,-9.059659,0.9791215,47.66987,-0.93044686,-1.5162275,-3.8382936,-0.032160427,-0.2617725,-0.22295655,24.9375,25.4375,24.75,26.9375,27.3125,27.5625
0.35205224,-1.9106914,-1.5962063,-0.06711461,-0.017985784,0.02539716,-0.1021799,-0.40268067,-0.33183748,0.060136702,-3.0644295,0.62987185,0.00040747892,-0.17094754,-0.014200588,-0.00032260388,0.090239316,-0.015564666,-0.022759313,0.43570805,-1.4077401,1.9334553,-2.0874012,-1.5812958,2.4156513,-0.06943774,0.3615682,-0.4479945,0.13841186,-0.07623894,-0.045744073,-0.78529817,0.40222588,-9.040505,1.0216395,47.686886,-0.89913344,-1.3348219,-3.7552683,-0.11052331,-0.22211981,-0.19236693,24.9375,25.4375,24.75,26.9375,27.3125,27.5625
0.35405225,-2.0863788,-1.4094833,-0.096722804,-0.025057787,0.017788919,-0.103624955,-0.40302742,-0.3318591,0.06012957,-3.0642107,0.62989986,0.00040482543,-0.17103006,-0.012894412,-0.00042827916,0.093367025,-0.019851837,-0.023237934,0.43556347,-1.4069947,1.9325455,-2.0871117,-1.5814646,2.4155545,-0.07109251,0.36317298,-0.45139354,0.14538544,-0.07727941,-0.0469011,-0.6895301,0.2873042,-9.040505,1.0104496,47.672558,-0.81891847,-1.305507,-3.7499666,-0.19956043,-0.17391483,-0.16058075,24.9375,25.4375,24.75,26.9375,27.3125,27.5625
0.3560523,-2.2156749,-1.4199212,-0.004506314,-0.01583753,0.024707122,-0.09926768,-0.40337828,-0.33187804,0.060121637,-3.0640068,0.62995094,0.00037843268,-0.17160517,-0.01174535,-0.000706111,0.097164415,-0.022017764,-0.023048822,0.43539527,-1.4062494,1.9316372,-2.0868232,-1.5816091,2.4154465,-0.071902975,0.36540076,-0.45455435,0.14986314,-0.079828896,-0.04786673,-0.49799395,0.24899697,-8.983045,1.061927,47.694054,-0.7555931,-1.3396808,-3.7776203,-0.26585656,-0.12104344,-0.12616089,24.9375,25.4375,24.75,26.9375,27.3125,27.5625
0.35805234,-1.4028873,-0.4147658,-0.051978987,0.009263169,0.019518914,-0.11062681,-0.40371713,-0.33190927,0.060095448,-3.0637863,0.6300368,0.00029815454,-0.17403634,-0.013567289,-0.00048786306,0.09175173,-0.020434279,-0.023951437,0.43525073,-1.4054672,1.9307278,-2.0865371,-1.5817403,2.4153862,-0.073284745,0.36893222,-0.4587529,0.14677365,-0.07562525,-0.04837091,-0.3256114,0.038307227,-9.002198,1.0082139,47.734352,-0.6848217,-1.3757819,-3.667944,-0.26747495,-0.1359649,-0.10615802,24.9375,25.4375,24.75,26.9375,27.3125,27.5625
0.36005238,-1.103604,0.19232471,-0.033376966,0.029371887,0.02515488,-0.11153098,-0.40406623,-0.3319389,0.060080066,-3.0635989,0.6300333,0.00024584023,-0.17667146,-0.015385961,-0.00040749816,0.08822701,-0.017688345,-0.023950629,0.43509465,-1.4046971,1.9298071,-2.086251,-1.5818709,2.415254,-0.07342717,0.37325078,-0.46340358,0.14310314,-0.07362172,-0.048520494,-0.34476504,-0.05746084,-8.829816,0.9947882,47.692257,-0.66778773,-1.6047168,-3.5958667,-0.24385132,-0.15505177,-0.07867037,24.9375,25.4375,24.75,26.9375,27.3125,27.5625
0.36205238,-1.0230336,0.37123287,-0.13744432,0.042204324,0.014744381,-0.10708115,-0.40444437,-0.3319821,0.0600936,-3.0634313,0.63011235,0.00036778479,-0.17935494,-0.016404213,-0.00073149183,0.08540205,-0.0127164945,-0.025124505,0.4349626,-1.4039513,1.928862,-2.0860264,-1.5820388,2.4151947,-0.07404152,0.37631088,-0.46483582,0.13576312,-0.07317874,-0.047961697,-0.30645782,-0.076614454,-8.848969,1.0328293,47.71554,-0.6429393,-1.7476381,-3.5022364,-0.14836273,-0.13415757,-0.06823556,24.9375,25.4375,24.75,26.9375,27.3125,27.5625
0.36405176,-0.93881094,0.15690528,-0.44732568,0.039335944,0.0074354345,-0.106979184,-0.40480536,-0.33201706,0.060070448,-3.0632505,0.6301501,0.00034672784,-0.18187243,-0.019158997,0.00024648322,0.07825456,-0.00835871,-0.026719702,0.4348065,-1.4031578,1.9279417,-2.085789,-1.5821694,2.4150875,-0.07408259,0.37839538,-0.4686416,0.13050453,-0.06855252,-0.046442408,-0.15322891,-0.05746084,-8.925584,0.9186956,47.693153,-0.5809903,-1.6587814,-3.616542,-0.0768296,-0.16247469,-0.048417218,24.9375,25.4375,24.75,26.9375,27.3125,27.5625
0.36605185,-1.1388637,-0.6782551,-0.21609081,0.013795894,-0.0050465385,-0.10359863,-0.40516523,-0.3320366,0.060075145,-3.0630372,0.63010234,0.00038128774,-0.18289389,-0.020359164,-5.751721e-05,0.07619436,-0.007921653,-0.027773803,0.4346627,-1.4024118,1.9269966,-2.0854785,-1.5823606,2.4149435,-0.07376954,0.38117823,-0.47108808,0.1288955,-0.066876665,-0.04508297,-0.15322891,-0.095768064,-9.002198,0.9791215,47.701214,-0.62732387,-1.821455,-3.5835795,-0.012375283,-0.18007204,-0.046848875,24.9375,25.4375,24.75,26.9375,27.3125,27.5625
0.36805186,-0.41336715,-0.8197519,-0.47181782,-0.0038505238,-0.015515106,-0.111782126,-0.40551528,-0.3320749,0.06004213,-3.0628045,0.6302249,0.0003248716,-0.1826342,-0.020407502,-0.00026507015,0.07640174,-0.009302233,-0.029215934,0.43453056,-1.4015951,1.9260648,-2.085214,-1.5825046,2.4149203,-0.073628984,0.38172075,-0.47188464,0.13049145,-0.06648019,-0.043494627,-0.2681506,-0.05746084,-9.11712,0.8157518,47.672558,-0.6896105,-1.815624,-3.658318,0.022126148,-0.16145876,-0.051395264,24.9375,25.4375,24.75,26.9375,27.3125,27.5625
0.3700519,0.020773804,-0.47425848,-0.8793628,-0.0045258286,-0.025699157,-0.11678962,-0.40584096,-0.33209953,0.06000629,-3.0626023,0.6301798,0.00022811492,-0.18229754,-0.020688273,-0.0009294401,0.07688849,-0.011653403,-0.03026907,0.43438694,-1.400826,1.9251918,-2.0849383,-1.5826367,2.4147768,-0.07310912,0.38359508,-0.4732136,0.13228565,-0.06593072,-0.041915722,-0.05746084,0.019153614,-9.270349,1.0328293,47.67793,-0.7117243,-1.6478648,-3.8359156,0.02167458,-0.16464376,-0.043124545,24.9375,25.4375,24.75,26.9375,27.3125,27.5625
