Tylouw/Master_Thesis_Code/training_data/batch_1/big_rod_t0.1/sample_62_session_3.csv
timestamp[s],tcp_force_x[N],tcp_force_y[N],tcp_force_z[N],tcp_force_rx[Nm?],tcp_force_ry[Nm?],tcp_force_rz[Nm?],tcp_pose_x[m],tcp_pose_y[m],tcp_pose_z[m],tcp_pose_rx[rot_vec_x],tcp_pose_ry[rot_vec_y],tcp_pose_rz[rot_vec_z],tcp_velo_x[m/s],tcp_velo_y[m/s],tcp_velo_z[m/s],tcp_velo_rx[rot_vec_x/s],tcp_velo_ry[rot_vec_y/s],tcp_velo_rz[rot_vec_z/s],q1[rad],q2[rad],q3[rad],q4[rad],q5[rad],q6[rad],qd1[rad/s],qd2[rad/s],qd3[rad/s],qd4[rad/s],qd5[rad/s],qd6[rad/s],tool_acc_x,tool_acc_y,tool_acc_z,current_of_whole_robot[A],voltage_of_whole_robot[V],current_J1[A],current_J2[A],current_J3[A],current_J4[A],current_J5[A],current_J6[A],temp_J1[C],temp_J2[C],temp_J3[C],temp_J4[C],temp_J5[C],temp_J6[C]
7.6001743e-07,-0.7887549,-0.9907812,0.15413876,-0.031815585,0.012590245,0.0030826214,-0.37289888,-0.3282271,0.05996678,-3.078507,0.6249287,-0.0002072242,0.0031154074,0.0014891912,-0.0047052307,0.004598736,-0.00988025,1.9765657e-06,0.44815025,-1.4708966,2.0095613,-2.107703,-1.5706614,2.4231033,-6.962063e-05,0.004988839,0.0051398845,0.0007679472,0.00014910792,-7.438524e-05,0.076614454,0.1340753,-8.925584,0.7553206,47.694946,-0.24554767,-2.9433768,-2.4695835,-0.51604724,0.16624111,-0.109669864,25.3125,25.875,25.125,27.625,28.25,28.5625
0.0020551109,0.06316881,-0.4187761,0.16880155,-0.03513482,0.030575272,-0.009858291,-0.3728703,-0.32821968,0.05993793,-3.0784788,0.62482727,-0.00030589,-0.00026775428,-0.00014633073,-0.003643481,-0.00034020658,0.00034105708,5.3505805e-06,0.4481623,-1.4708725,2.0095966,-2.1076834,-1.5706614,2.4230556,-6.873448e-05,0.005248571,0.0050521465,-0.010756059,0.0001451011,-7.337459e-05,0.019153614,0.15322891,-8.868123,0.7597976,47.69763,-0.28364217,-2.8713613,-2.3301895,-0.46796232,0.15118633,-0.10498502,25.3125,25.875,25.125,27.625,28.25,28.5625
0.004054027,-0.15634948,-0.1621956,-0.051623616,-0.028937064,0.028858205,-0.0008244309,-0.37288246,-0.32823622,0.059928097,-3.078506,0.62485194,-0.00027175344,-0.001421333,-0.0007031107,-0.0026706483,-0.0022651472,0.004335854,6.1896535e-06,0.4481742,-1.470837,2.0095966,-2.1077554,-1.5706495,2.4230795,-6.7870606e-05,0.0041888496,0.0046663545,-0.013744928,0.0001413037,-7.239084e-05,0.05746084,0.19153613,-8.887277,0.6635613,47.70032,-0.2179228,-3.0577912,-2.578957,-0.379075,0.16670792,-0.11907733,25.3125,25.875,25.125,27.625,28.25,28.5625
0.006053694,0.45319828,0.15354079,0.010426268,-0.009391801,0.020421116,-0.013767149,-0.3729109,-0.32823083,0.059943967,-3.0785117,0.62492985,-0.00022819742,-0.0004909054,-0.00025187866,-0.0020575963,-0.00095213397,0.00163667,4.947982e-06,0.4481382,-1.4708375,2.0095603,-2.1077535,-1.5706495,2.4230914,-6.702816e-05,0.0028383895,0.0034768514,-0.008203367,0.0001377004,-7.143324e-05,0.019153614,0.19153613,-8.963891,0.82694155,47.694054,-0.23313975,-3.014895,-2.4690266,-0.4044137,0.18694846,-0.11436628,25.3125,25.875,25.125,27.625,28.25,28.5625
0.008054298,0.9761401,0.9349826,-0.30568203,0.017897185,0.006635943,-0.004735653,-0.37289047,-0.32822096,0.0599188,-3.078487,0.62490577,-0.0002883791,-0.0001586904,-9.000023e-05,-0.0011296861,-0.00062445377,0.0009757502,4.2297243e-06,0.4481382,-1.470826,2.009608,-2.1077645,-1.5706495,2.4230795,-6.620644e-05,0.0012130488,0.0023311628,-0.004694681,0.00013427617,-7.050063e-05,0.019153614,0.095768064,-8.944737,0.7486078,47.675243,-0.2280941,-2.8957686,-2.449962,-0.4316223,0.14911193,-0.1248524,25.3125,25.875,25.125,27.625,28.25,28.5625
0.010054031,1.0884451,1.5747658,-0.75708926,0.022340978,0.002860909,-0.013916457,-0.37288055,-0.3282031,0.05989246,-3.0784087,0.62488973,-0.0003595041,0.00026410428,0.000113233546,-0.0010073351,6.540169e-05,-0.00047905077,2.1975013e-06,0.4481382,-1.4707783,2.0096076,-2.1077273,-1.5706857,2.4230795,-7.258394e-05,0.0009531172,0.001784013,-0.0022775913,0.00014720566,-7.53087e-05,0.019153614,0.0,-9.232041,0.75084364,47.668976,-0.57155454,-2.1489942,-3.1654255,-0.47660327,0.16158265,-0.16152266,25.3125,25.875,25.125,27.625,28.25,28.5625
0.012054549,0.41538808,0.32803842,-1.0870647,0.01363213,0.007383456,-0.0059049344,-0.37287688,-0.3282272,0.059897408,-3.0784607,0.6248427,-0.00036742954,0.00065486477,0.0003276947,-0.0054608607,0.0043022134,-0.009299308,-3.8920185e-05,0.4481623,-1.4707744,2.0095947,-2.1077397,-1.5706495,2.4230676,-0.00012917667,0.01166576,6.538249e-05,-0.001486549,0.00014886464,-8.8279994e-05,0.076614454,0.038307227,-9.346964,0.7486078,47.687782,-0.67120683,-2.4242904,-3.284398,-0.47562203,0.14484778,-0.16576691,25.3125,25.875,25.125,27.625,28.25,28.5625
0.014053763,-0.2593196,-0.68089664,-1.1637744,-0.016403344,0.021942746,-0.009616305,-0.3729023,-0.32822135,0.059896413,-3.0784554,0.6248253,-0.00035440235,-0.0057360297,-0.0001276175,-0.0036782033,0.0023531355,-0.00529354,-0.0049197753,0.4481362,-1.4707361,2.009555,-2.1077397,-1.5706614,2.4230313,-0.005092589,0.01845917,-0.011558427,-0.0011109065,0.0001457561,-0.00016287206,0.0,0.076614454,-9.423578,0.6926589,47.70032,-0.53406656,-2.7855804,-2.9318094,-0.46628982,0.16125439,-0.18414219,25.3125,25.875,25.125,27.625,28.25,28.5625
0.016054701,-1.089296,-1.1373053,-1.3521564,-0.059426535,0.051972814,-0.0038724751,-0.37287202,-0.32821503,0.059867658,-3.0784097,0.62481385,-0.0005136688,-0.0059481873,0.00088471465,-0.00378775,0.002644617,-0.005891987,-0.0017587923,0.44813567,-1.4707004,2.009568,-2.1076791,-1.5706376,2.4230294,-0.0071872855,0.017819343,-0.010709536,-0.0006550016,0.0001424813,-0.0054193093,-0.24899697,0.2681506,-9.634268,0.7530795,47.71554,-0.36383945,-2.6304088,-3.1990159,-0.47539154,0.16966327,-0.15695599,25.3125,25.875,25.125,27.625,28.25,28.5625
0.018054008,-1.6041361,-2.7157226,-1.6004298,-0.07419793,0.08752258,-0.0031794545,-0.37288842,-0.32819945,0.05985661,-3.0783577,0.62484014,-0.00048360619,-0.0048852586,0.0008451658,-0.004824499,0.003962371,-0.00861927,0.0005512587,0.44812405,-1.4706639,2.009556,-2.107691,-1.5706857,2.4230409,-0.0061442717,0.019205794,-0.010085857,0.00036334104,0.00013933165,-0.0066867983,-0.3256114,0.36391866,-9.844957,0.7284641,47.664497,-0.5073696,-2.4285843,-3.4461715,-0.48472464,0.15444183,-0.14458829,25.3125,25.875,25.125,27.625,28.25,28.5625
0.020054528,-2.264065,-3.26821,-1.5367594,-0.07940685,0.10277033,-0.012777198,-0.3728541,-0.32820028,0.05980032,-3.0783215,0.6248144,-0.0006927353,-0.005672002,0.00027960437,-0.0043377187,0.003941162,-0.008576075,-4.947065e-05,0.44812414,-1.4705797,2.00959,-2.1076787,-1.5706376,2.4230294,-0.005796453,0.020761756,-0.0132695185,0.0019433759,0.00013631658,-0.0057365694,-0.49799395,0.34476504,-9.825804,0.7642693,47.70032,-0.6570209,-2.4209313,-3.4441662,-0.49053448,0.14712942,-0.17526335,25.3125,25.875,25.125,27.625,28.25,28.5625
0.022053672,-1.8152215,-2.5868556,-1.4116923,-0.07428979,0.11000016,-0.010697642,-0.37289295,-0.32820377,0.059843075,-3.0783625,0.62480426,-0.00055215106,-0.0068843076,0.00047740192,-0.0041965568,0.0039092763,-0.008509001,-0.0022808046,0.44811153,-1.4706149,2.0095303,-2.1076782,-1.5706614,2.4230053,-0.00727054,0.022333616,-0.015436439,0.002464161,0.00013342932,-0.004977904,-0.61291564,0.53630114,-9.80665,0.800085,47.682407,-0.64573085,-2.4531808,-3.5076454,-0.51336133,0.16145718,-0.19049487,25.3125,25.875,25.125,27.625,28.25,28.5625
0.024054157,-1.379366,-1.5331717,-1.6841319,-0.06563106,0.095530964,-0.024385083,-0.3729025,-0.32817805,0.05980722,-3.0782685,0.62482387,-0.0006096605,-0.008755907,0.00059188844,-0.0031607922,0.002376411,-0.0053533847,-0.0034620897,0.44808704,-1.4705313,2.0095184,-2.1076672,-1.5707096,2.423005,-0.009192825,0.021955386,-0.017052352,0.0009496994,0.00013984277,-0.0057175737,-0.63206923,0.47884035,-9.864111,0.68146914,47.683304,-0.6380571,-2.3406785,-3.4811943,-0.5175092,0.15858278,-0.2049931,25.3125,25.875,25.125,27.625,28.25,28.5625
0.026054064,-1.3641979,-1.5738007,-1.6067696,-0.049815238,0.076105535,-0.020366076,-0.37291676,-0.32822144,0.05980838,-3.0783381,0.6248182,-0.0006891427,-0.010204872,0.00015906127,-0.0026785578,0.0015351911,-0.0036358444,-0.002228939,0.44809875,-1.4704589,2.0094335,-2.1076553,-1.5706257,2.4230044,-0.0097018955,0.023359384,-0.019502455,8.3610066e-05,0.00014567471,-0.007457859,-0.59376204,0.4405331,-9.883265,0.73741806,47.703903,-0.665938,-2.262567,-3.5035152,-0.47878698,0.15749282,-0.20438641,25.3125,25.875,25.125,27.625,28.25,28.5625
0.028054437,-1.4318857,-1.3950043,-1.6220686,-0.043492608,0.053562205,-0.022346167,-0.37296456,-0.32822472,0.05983486,-3.0783288,0.6247962,-0.0005302384,-0.011446294,0.0002423322,-0.0025682019,0.0013293932,-0.0032143567,-0.0011009219,0.4481102,-1.4704343,2.0093486,-2.1076672,-1.5706977,2.4230034,-0.01098703,0.0249646,-0.021499557,5.4591396e-06,0.0001433399,-0.009869519,-0.49799395,0.4213795,-9.730036,0.7150385,47.650166,-0.683077,-2.2697613,-3.4603245,-0.46784195,0.16945645,-0.18080679,25.3125,25.875,25.125,27.625,28.25,28.5625
0.03005382,-0.72502595,-0.83930933,-1.2967491,-0.04142339,0.07373331,-0.047913063,-0.37297964,-0.32820463,0.059799824,-3.0783198,0.62489116,-0.0006348925,-0.012720589,0.00021649682,-0.0023748847,0.0010513384,-0.0026737363,-0.001954145,0.44802603,-1.4703741,2.009371,-2.107703,-1.5706495,2.4229796,-0.0121046975,0.0266003,-0.023737457,3.564428e-07,0.00015408678,-0.010132389,-0.5554548,0.26815057,-9.634268,0.7866488,47.675243,-0.68748397,-2.2653322,-3.488651,-0.4770599,0.16793028,-0.18072855,25.3125,25.9375,25.125,27.625,28.25,28.5625
0.03205424,-1.23986,-0.96185726,-1.4014158,-0.025289198,0.06822435,-0.05147742,-0.37300918,-0.328221,0.059795227,-3.0783353,0.62487584,-0.00067220116,-0.014139968,-8.413982e-05,-0.001849985,0.0004524999,-0.001469162,-0.0023254834,0.4480137,-1.4702896,2.0092862,-2.107691,-1.5706257,2.4229558,-0.012838558,0.02802846,-0.026510227,2.3273167e-08,0.00016577296,-0.01049305,-0.5363012,0.17238252,-9.653421,0.7553206,47.672558,-0.7918532,-2.2969677,-3.4374871,-0.44405407,0.1647929,-0.19096547,25.3125,25.9375,25.125,27.625,28.25,28.5625
0.034054533,-0.56698114,-0.39857924,-1.1003209,-0.017464764,0.08354116,-0.073023655,-0.37309048,-0.32821757,0.059833128,-3.0783715,0.62497866,-0.000525918,-0.015728015,-0.000234848,-0.000821129,-0.0006032743,0.00066408375,-0.003054219,0.4479414,-1.4702656,2.0091784,-2.1077154,-1.5706376,2.422943,-0.014011695,0.028237348,-0.029099395,1.5195714e-09,0.00018875777,-0.010935892,-0.3256114,0.076614454,-9.595961,0.7486078,47.664497,-0.7101145,-2.2308624,-3.3992913,-0.45753515,0.17251655,-0.20466249,25.3125,25.9375,25.125,27.625,28.25,28.5625
0.036054384,-0.5757085,0.08398412,-1.068359,-0.004681148,0.07201832,-0.077895634,-0.37308395,-0.3282142,0.059800006,-3.0783334,0.6248757,-0.0006457472,-0.017044527,-0.00012976187,-0.0004200862,-0.0010693668,0.0015692473,-0.003731661,0.44794092,-1.4701813,2.0091536,-2.1076791,-1.5706376,2.4228833,-0.015422733,0.029222397,-0.031102356,9.921715e-11,0.00021108487,-0.0116682,-0.30645782,0.11492168,-9.500193,0.77545905,47.660015,-0.7460171,-2.1827772,-3.424767,-0.44094968,0.17701712,-0.19876528,25.3125,25.9375,25.125,27.625,28.25,28.5625
0.038054466,-0.6725241,0.078634135,-1.1665581,0.016172115,0.047648594,-0.08913177,-0.37310287,-0.32822108,0.059786666,-3.078325,0.62489384,-0.0006866561,-0.018313313,-0.00035236054,-0.00045094514,-0.0014593662,0.001565659,-0.0046220277,0.44792852,-1.4701086,2.0091045,-2.1076791,-1.5706257,2.4228833,-0.016394118,0.0316396,-0.033686355,6.4781704e-12,0.0005583837,-0.011748026,-0.21068975,-0.038307227,-9.442732,0.8112748,47.66987,-0.7166742,-2.2073357,-3.4027712,-0.44558948,0.17353123,-0.21289678,25.3125,25.9375,25.125,27.625,28.25,28.5625
0.040053796,-0.26708177,0.47931597,-1.1216348,0.01756159,0.038089182,-0.10287107,-0.37317058,-0.32823262,0.059805516,-3.0783627,0.62493956,-0.00062427536,-0.01967432,-0.0006569028,-0.0001288884,-0.0021669748,0.0022399805,-0.004780194,0.44788018,-1.470036,2.0089843,-2.107691,-1.5706133,2.4228587,-0.017287226,0.033432532,-0.036394667,4.2297825e-13,0.00089881103,-0.012481729,-0.24899697,-0.076614454,-9.557653,0.78217715,47.672558,-0.70243263,-2.1953073,-3.3254561,-0.42645842,0.14273684,-0.2115494,25.3125,25.9375,25.125,27.625,28.25,28.5625
0.04205408,0.058450807,0.14932656,-1.280327,0.014755465,0.029587358,-0.110790856,-0.37320808,-0.3282486,0.05982223,-3.0783765,0.6249615,-0.0005258538,-0.020670902,-0.0010970731,0.0005704549,-0.0028010365,0.00377098,-0.004077392,0.44789222,-1.4699999,2.0089118,-2.1077154,-1.5706371,2.4228828,-0.017300373,0.033946406,-0.038563177,2.7617458e-14,0.00080305705,-0.013196052,-0.11492168,-0.05746084,-9.481039,0.7172743,47.672558,-0.7254088,-2.167831,-3.3923924,-0.40923157,0.16623396,-0.21365885,25.3125,25.9375,25.125,27.625,28.25,28.5625
0.044054177,0.41055807,-0.47874007,-1.1823661,0.0041724406,0.04404989,-0.11804778,-0.37322757,-0.32823023,0.059789818,-3.0783212,0.6250271,-0.00064207416,-0.021729091,-0.00096124073,0.0008225484,-0.0030042252,0.004418583,-0.00432664,0.44783184,-1.4699038,2.0088751,-2.107691,-1.5706252,2.4228704,-0.018446844,0.03486496,-0.040152986,1.8032228e-15,0.0007010475,-0.01409204,-0.076614454,0.038307227,-9.500193,0.7463667,47.672558,-0.6616974,-2.1054757,-3.3529193,-0.39840704,0.15975633,-0.20894732,25.3125,25.9375,25.125,27.625,28.25,28.5625
0.04605413,-0.6328641,-1.0275857,-1.1876557,-0.008325737,0.023851743,-0.1277446,-0.37328386,-0.32822537,0.059801865,-3.0783467,0.62497437,-0.00061142497,-0.022681035,-0.0013027256,0.0013863075,-0.0035228515,0.0056752907,-0.003819827,0.44777185,-1.4698436,2.0087788,-2.1076791,-1.5706257,2.4227743,-0.01861202,0.035505492,-0.042150628,1.1773757e-16,0.0006204761,-0.014762552,-0.1340753,0.11492168,-9.461885,0.75084364,47.675243,-0.7203504,-2.0364583,-3.4172287,-0.3807934,0.1647957,-0.20338723,25.3125,25.9375,25.125,27.625,28.25,28.5625
0.048054494,-0.33681652,-1.0758815,-1.3512125,-0.02501005,0.0374011,-0.13500205,-0.37334532,-0.32822302,0.059823185,-3.0783293,0.62502813,-0.00053201616,-0.02330187,-0.0014350181,0.0012768569,-0.0033733316,0.005322444,-0.003389726,0.44773573,-1.4697833,2.0086582,-2.1076553,-1.5706614,2.422774,-0.018935934,0.037156682,-0.043800827,0.00038113157,0.00063618587,-0.015515442,-0.05746084,0.21068975,-9.442732,0.73741806,47.64927,-0.6839454,-2.021371,-3.3358083,-0.3781826,0.16133538,-0.20016815,25.3125,25.9375,25.125,27.625,28.25,28.5625
0.0500546,-0.27590993,-1.423049,-1.3492976,-0.02976104,0.031189324,-0.15368643,-0.37337884,-0.32824332,0.059811894,-3.0783558,0.62497604,-0.00053153257,-0.023170702,-0.00073679665,0.0011591816,-0.0018040588,0.0021815058,-0.0045100814,0.44773528,-1.469687,2.0085862,-2.1076891,-1.5706495,2.4227378,-0.020095976,0.038100917,-0.045557532,0.0047046808,0.0005876036,-0.0155551,-0.05746084,0.30645782,-9.481039,0.8090337,47.64927,-0.6720635,-1.9742808,-3.4916553,-0.40804607,0.15648142,-0.19680129,25.3125,25.9375,25.125,27.625,28.25,28.5625
0.052053776,-0.64530957,-1.77993,-1.4390932,-0.033066943,0.013162721,-0.15952125,-0.3734288,-0.32821843,0.059806563,-3.0783062,0.6251011,-0.00054980704,-0.024082795,-0.00096617255,0.0015450586,-0.0021540062,0.0030163801,-0.005450934,0.44765115,-1.4696149,2.0085137,-2.1076653,-1.5706614,2.422738,-0.02045595,0.03899996,-0.047453213,0.004797371,0.0005380717,-0.01497289,-0.05746084,0.38307226,-9.5385,0.7597976,47.707485,-0.69994366,-1.9247127,-3.4876404,-0.41557643,0.1660762,-0.1929678,25.3125,25.9375,25.125,27.625,28.25,28.5625
0.05405411,-0.28836456,-2.0703294,-1.4858752,-0.03790948,0.024533423,-0.1701314,-0.37347043,-0.32823014,0.059804507,-3.0783303,0.6251071,-0.000623107,-0.0251347,-0.0012529095,0.0013672728,-0.0024429844,0.0037017101,-0.005981668,0.447603,-1.4695183,2.0084045,-2.1076305,-1.5706137,2.4226906,-0.020841403,0.041072812,-0.04904629,0.0035756154,0.000495739,-0.014825901,-0.1340753,0.36391866,-9.595961,0.7530795,47.699425,-0.67556465,-1.8895674,-3.4922514,-0.401483,0.1961859,-0.18955106,25.3125,25.9375,25.125,27.625,28.25,28.5625
0.05605415,-0.009279353,-2.0030386,-1.3892239,-0.054990318,0.04097508,-0.16619271,-0.3735484,-0.32823572,0.059830856,-3.0783432,0.6251863,-0.0004717306,-0.026575468,-0.0015051137,0.0017416532,-0.003063863,0.0050671017,-0.0066374177,0.44756678,-1.4694577,2.0082858,-2.1076663,-1.5706495,2.4227023,-0.021647668,0.042586572,-0.051423367,0.0029389272,0.00045955143,-0.0149744535,-0.076614454,0.49799395,-9.576807,0.7530795,47.66271,-0.67559665,-1.9307969,-3.4838238,-0.37790668,0.17738007,-0.18726695,25.3125,25.9375,25.125,27.625,28.25,28.5625
0.058054473,-0.27265227,-2.0560906,-1.3752506,-0.065036654,0.043261264,-0.17182559,-0.37357503,-0.32822475,0.059804738,-3.0782938,0.6250608,-0.00049919955,-0.027548686,-0.0016008139,0.0013446824,-0.0028412498,0.0046621487,-0.006662261,0.4475545,-1.4693493,2.0082238,-2.1076543,-1.5706977,2.4226182,-0.022330865,0.045229934,-0.05336594,0.0026988133,0.00042828624,-0.01563113,0.019153614,0.5554548,-9.576807,0.7463667,47.70032,-0.6497625,-1.8947717,-3.550258,-0.37140626,0.18375447,-0.17575589,25.3125,25.9375,25.125,27.625,28.25,28.5625
0.060053818,-0.5207923,-2.1129777,-1.3080177,-0.054719508,0.0391644,-0.14682746,-0.37364453,-0.32823092,0.059825175,-3.0783222,0.62522054,-0.0005011976,-0.028200043,-0.0016915881,0.001527501,-0.0027936252,0.0046231663,-0.0067074,0.44747037,-1.4692767,2.0080917,-2.10763,-1.5706495,2.42263,-0.022727057,0.04629815,-0.05513345,0.0034547094,0.0004010098,-0.015981115,-0.076614454,0.47884035,-9.519346,0.7933669,47.68062,-0.6548554,-1.8929602,-3.576214,-0.3776877,0.19050995,-0.17242226,25.3125,25.9375,25.125,27.625,28.25,28.5625
0.062054377,-1.2889367,-2.066323,-1.4396961,-0.038042966,0.017925795,-0.13376321,-0.3737061,-0.32822847,0.059829205,-3.0783267,0.62516314,-0.0004224763,-0.028647717,-0.001752633,0.0015656579,-0.002215895,0.0033593362,-0.006186797,0.44743437,-1.4691925,2.0079954,-2.1076534,-1.5706857,2.4225578,-0.023033591,0.047934353,-0.057506494,0.0055801277,0.00042711556,-0.01680724,-0.15322891,0.45968673,-9.442732,0.7933669,47.679718,-0.67499495,-1.8436508,-3.5095572,-0.37809092,0.18076712,-0.15746236,25.3125,25.9375,25.125,27.625,28.25,28.5625
0.0640547,-0.8840457,-1.3448771,-1.1281363,-0.04294979,0.02488419,-0.14363939,-0.37377128,-0.32826883,0.059857875,-3.078383,0.6252709,-0.0004207553,-0.029836172,-0.0022890477,0.0017416442,-0.002445625,0.004003185,-0.0058541615,0.44741026,-1.4690958,2.0078151,-2.1076171,-1.5706257,2.4225938,-0.023049146,0.05019861,-0.06038643,0.0055172006,0.00035016873,-0.017153174,-0.11492168,0.4405331,-9.519346,0.6769922,47.687782,-0.67050934,-1.8812233,-3.490479,-0.37762606,0.17805572,-0.15905254,25.3125,25.9375,25.125,27.625,28.25,28.5625
0.066054806,-0.49930984,-1.2421812,-0.9604628,-0.032771714,0.032053594,-0.1391591,-0.37382305,-0.32825962,0.05984593,-3.0783687,0.62524843,-0.00039767206,-0.030562494,-0.0022679784,0.0016728934,-0.0026444313,0.0042382544,-0.006125146,0.44736204,-1.4689995,2.0077422,-2.107641,-1.5706495,2.4225335,-0.023794288,0.051329523,-0.061375268,0.0050764657,0.00042465507,-0.017626584,-0.11492168,0.36391866,-9.423578,0.7284641,47.657326,-0.64730376,-1.8691269,-3.5473905,-0.36496496,0.16726196,-0.13890004,25.3125,25.9375,25.125,27.625,28.25,28.5625
0.06805447,-0.31320938,-1.0706003,-0.9266964,-0.03540837,0.039569363,-0.14942463,-0.3739176,-0.3282624,0.05986411,-3.0783417,0.6253011,-0.00030714725,-0.03299663,-0.0032591773,0.0028074593,-0.0044816225,0.006626326,-0.0063686273,0.44731364,-1.4688671,2.0075495,-2.1076171,-1.5706972,2.4225216,-0.024549952,0.053698264,-0.06655226,0.0049338066,0.0010375219,-0.018136395,-0.11492168,0.4405331,-9.289502,0.81351066,47.709274,-0.6987332,-1.8419383,-3.398129,-0.35655853,0.18885511,-0.13364062,25.3125,25.9375,25.125,27.625,28.25,28.5625
0.07005383,-0.6163549,-1.6696583,-0.8960956,-0.022830183,0.037344985,-0.1360508,-0.37397936,-0.32827765,0.059868075,-3.0783825,0.62532794,-0.00033945733,-0.033098705,-0.0033167775,0.0013684046,-0.0038750197,0.003577082,-0.006629252,0.44725364,-1.4687579,2.007418,-2.1076057,-1.570649,2.4224732,-0.025051644,0.057503022,-0.06746618,0.005052765,0.0018082692,-0.018377773,-0.19153613,0.28730422,-9.32781,0.7486078,47.701214,-0.6665144,-1.9363443,-3.3946571,-0.33746177,0.1784572,-0.13975811,25.3125,25.9375,25.125,27.625,28.25,28.5625
0.07205438,-0.719214,-1.1795287,-0.8406813,-0.020890813,0.03972545,-0.13800278,-0.37402275,-0.32829666,0.059872642,-3.0784042,0.62527454,-0.00035008727,-0.033673547,-0.0036627462,0.0028279815,-0.005566299,0.0054590483,-0.0064707045,0.44724151,-1.4686626,2.0072973,-2.1075814,-1.5706366,2.422425,-0.025398944,0.05550823,-0.06883979,0.00599049,0.0025183933,-0.018884713,-0.21068975,0.24899697,-9.251195,0.7463667,47.63852,-0.73221374,-1.7442636,-3.415743,-0.33521,0.15999857,-0.12602615,25.3125,25.9375,25.125,27.625,28.25,28.5625
0.074053824,-0.27812564,-0.42088255,-0.6654943,-0.027464692,0.052474406,-0.1549997,-0.37409133,-0.3282894,0.059850417,-3.0783815,0.6253264,-0.00040662204,-0.035847045,-0.0046398174,0.0041015786,-0.0063393484,0.0074044066,-0.0055195848,0.44715756,-1.4685062,2.0071762,-2.107581,-1.5706247,2.4223764,-0.025424402,0.05787814,-0.074690595,0.007383911,0.0023645363,-0.01985765,-0.22984336,0.24899697,-9.193734,0.7463667,47.696735,-0.73963606,-1.7432334,-3.4177437,-0.34528017,0.17508164,-0.12383951,25.3125,25.9375,25.125,27.625,28.25,28.5625
0.07605381,-0.47006285,-0.931509,-0.86545265,0.0029451614,0.045326013,-0.13954233,-0.37418258,-0.3283142,0.059890576,-3.0784478,0.6253591,-0.00025955745,-0.035381943,-0.004070009,0.0017860299,-0.0039669843,0.0025644633,-0.00541121,0.44712135,-1.4684327,2.0070088,-2.1076047,-1.5706247,2.4223523,-0.026040219,0.062476717,-0.07459869,0.0080835,0.0023222854,-0.020581026,-0.1340753,0.1340753,-9.289502,0.75755644,47.678825,-0.7055906,-1.7693505,-3.2455432,-0.3625418,0.15907554,-0.110684626,25.3125,25.9375,25.125,27.625,28.25,28.5625
0.078053765,-0.58078223,-0.51767886,-0.6669222,-0.0025940186,0.041640837,-0.13557523,-0.374237,-0.32832116,0.05987839,-3.078413,0.6253528,-0.00033346462,-0.037188523,-0.0045759943,0.0028502478,-0.005131157,0.0050265123,-0.0057389583,0.447085,-1.4682766,2.0068514,-2.1075447,-1.5706247,2.4223166,-0.026706854,0.06336653,-0.07797087,0.007842619,0.002298702,-0.020917807,-0.22984336,0.19153613,-9.193734,0.7866488,47.703007,-0.71248895,-2.026258,-3.364681,-0.3479728,0.18723717,-0.09696728,25.3125,25.9375,25.125,27.625,28.25,28.5625
0.080054276,-0.8342067,-0.78448486,-0.826406,-0.008313845,0.045195818,-0.14283767,-0.37431386,-0.32833302,0.059891075,-3.0784345,0.62543344,-0.00035152282,-0.03855365,-0.005357824,0.004093555,-0.006432309,0.0077459123,-0.0057495255,0.44701302,-1.4681569,2.0066826,-2.107509,-1.5705885,2.4222922,-0.026461603,0.0635004,-0.08093243,0.007656645,0.002290618,-0.020660121,-0.26815057,0.24899697,-9.232041,0.70608455,47.677036,-0.7346128,-1.6293876,-3.2454686,-0.3331006,0.16535243,-0.10119377,25.3125,25.9375,25.125,27.625,28.25,28.5625
0.08205371,0.042771563,-0.66887814,-0.74232626,-0.020145772,0.06544716,-0.15837072,-0.37440386,-0.32833365,0.059896205,-3.0784338,0.6254913,-0.0002977334,-0.039284658,-0.005519832,0.003476042,-0.005914769,0.0057791173,-0.0060820733,0.44694096,-1.4680238,2.0065272,-2.1075203,-1.5706009,2.4222565,-0.02707066,0.06694293,-0.08358454,0.008862032,0.002672406,-0.020935474,-0.24899697,0.21068975,-9.193734,0.8157518,47.686886,-0.7639837,-1.8279411,-3.2384193,-0.3421861,0.14512034,-0.09350826,25.3125,25.9375,25.125,27.625,28.25,28.5625
0.08405389,-0.9289399,-1.3814715,-0.8286022,-0.017754396,0.047825158,-0.1313388,-0.37446114,-0.32834616,0.059900116,-3.0784273,0.62535554,-0.00030564587,-0.03971796,-0.0052858912,0.0027891772,-0.0051885494,0.004094672,-0.006500559,0.44692862,-1.4678913,2.0063589,-2.1074603,-1.5706247,2.4221604,-0.027948018,0.06931874,-0.08477942,0.009513197,0.002743906,-0.02139366,-0.40222588,0.22984336,-9.212888,0.7642693,47.692257,-0.76333845,-1.782007,-3.2005653,-0.33856696,0.15505642,-0.07387306,25.3125,25.9375,25.125,27.625,28.25,28.5625
0.08605399,-0.7685299,-1.561841,-1.0028288,-0.022557845,0.059578694,-0.13729241,-0.37457564,-0.32837796,0.059939045,-3.0784981,0.6254654,-0.00017940646,-0.040666748,-0.005472008,0.0029797652,-0.005204579,0.004098073,-0.0058284956,0.44686845,-1.4677707,2.0061424,-2.1074836,-1.5706009,2.42216,-0.028456023,0.07099249,-0.08724124,0.010291815,0.002756088,-0.022571934,-0.30645782,0.2681506,-9.289502,0.6926589,47.66987,-0.7063956,-1.8580582,-3.1485722,-0.35621637,0.14763683,-0.0574738,25.3125,25.9375,25.125,27.625,28.25,28.5625
0.08805405,-1.1919439,-1.0639635,-0.93222076,-0.04081726,0.050278123,-0.13577093,-0.37464875,-0.32836202,0.05993313,-3.0784461,0.6256092,-0.00022616157,-0.04053624,-0.005132504,0.0017737423,-0.0041959207,0.0016851536,-0.0069070677,0.44677228,-1.4676383,2.0059993,-2.107436,-1.5706009,2.4221601,-0.029056037,0.07336866,-0.087127194,0.010413328,0.0028893151,-0.022093454,-0.38307226,0.28730422,-9.3661175,0.7597976,47.666286,-0.7580215,-1.8688983,-3.2450323,-0.34117246,0.13512953,-0.06183159,25.3125,25.9375,25.125,27.625,28.25,28.5625
0.090054244,-1.1003796,-1.3480366,-0.9341653,-0.039808095,0.05008935,-0.13842753,-0.3747485,-0.32839322,0.05995598,-3.0785172,0.6255086,-0.00018761323,-0.043392923,-0.0063016964,0.0036079157,-0.0062368014,0.0053764544,-0.008030465,0.44672403,-1.4674819,2.0057695,-2.107412,-1.5705765,2.4220402,-0.029596947,0.0751441,-0.0933473,0.010647122,0.0031239225,-0.021507328,-0.34476504,0.3256114,-9.32781,0.75755644,47.687782,-0.7889731,-1.841437,-3.194261,-0.36748275,0.13958642,-0.06841726,25.3125,25.9375,25.125,27.625,28.25,28.5625
0.09205443,-0.76673084,-1.2655193,-0.964341,-0.038272496,0.056416925,-0.13451682,-0.37480772,-0.32838333,0.059944574,-3.0784612,0.6256331,-0.00025050982,-0.04252999,-0.0054443544,0.0015603133,-0.0042672902,0.001352878,-0.009340781,0.4466518,-1.4673493,2.0056388,-2.107364,-1.5705765,2.4220529,-0.03039436,0.07771132,-0.091504276,0.010716858,0.0030892568,-0.020995254,-0.3256114,0.24899697,-9.289502,0.79560274,47.691364,-0.74242914,-1.856067,-3.3198519,-0.34674838,0.14720832,-0.063274406,25.3125,25.9375,25.125,27.625,28.25,28.5625
0.094054505,-0.80913824,-1.1110835,-0.83358383,-0.028255483,0.043667883,-0.1323483,-0.37491181,-0.3283926,0.05993891,-3.0784614,0.625614,-0.00019598714,-0.04462585,-0.0057297577,0.0020322439,-0.0049482025,0.0029657301,-0.010164113,0.44659135,-1.4671568,2.0054457,-2.1073887,-1.5706009,2.4219806,-0.031683486,0.08014644,-0.09515843,0.010187113,0.0029984536,-0.021458138,-0.24899697,0.28730422,-9.346964,0.7329411,47.71286,-0.7169541,-1.8104726,-3.199157,-0.34244853,0.130263,-0.078356236,25.3125,25.9375,25.125,27.625,28.25,28.5625
0.0960544,-0.91388583,-1.4090506,-0.7640729,-0.023805102,0.04117039,-0.14001994,-0.37501255,-0.32841548,0.059963513,-3.0784714,0.6256736,-0.0001521846,-0.04611052,-0.005958809,0.0024287316,-0.0053214934,0.004447981,-0.010283573,0.44654307,-1.4670004,2.0052063,-2.107341,-1.5706009,2.4219685,-0.032377698,0.081727535,-0.09769437,0.009645062,0.0026892866,-0.022030387,-0.19153613,0.28730422,-9.346964,0.7732232,47.677036,-0.69815946,-1.9424636,-3.1924474,-0.3409723,0.13479218,-0.07341867,25.3125,25.9375,25.125,27.625,28.25,28.5625
0.09805399,-0.49535027,-1.2329819,-0.7790814,-0.030879552,0.047846697,-0.13791923,-0.37510312,-0.3284316,0.05995268,-3.0785081,0.62571937,-0.00018468517,-0.04683847,-0.00575997,0.002027794,-0.004796617,0.0035717797,-0.01032068,0.44645882,-1.4668201,2.005038,-2.107364,-1.5705527,2.4219081,-0.033331517,0.08384182,-0.09921306,0.010068038,0.0025925108,-0.022945829,-0.22984336,0.3256114,-9.3661175,0.72622824,47.67614,-0.6749625,-1.8620198,-3.2426996,-0.3285817,0.13764471,-0.06843121,25.3125,25.9375,25.125,27.625,28.25,28.5625
0.1000545,-0.6631408,-1.1799264,-0.92236525,-0.030775266,0.04073966,-0.13615154,-0.37518,-0.32842186,0.05994931,-3.0784507,0.62576514,-0.00022143574,-0.047668,-0.006389976,0.0027323174,-0.0051470846,0.0048760083,-0.009738376,0.44638705,-1.4666641,2.0048578,-2.1072924,-1.5705765,2.4218724,-0.03271981,0.08457361,-0.10175628,0.0105523,0.0023405838,-0.022914665,-0.076614454,0.24899697,-9.442732,0.7620334,47.65912,-0.8150873,-1.8709844,-3.16809,-0.33751577,0.14262156,-0.067414604,25.3125,25.9375,25.125,27.625,28.25,28.5625
0.10205379,-0.7057707,-1.3758793,-0.8464073,-0.028175103,0.033533063,-0.13622233,-0.37528396,-0.3284483,0.059952866,-3.0784645,0.6258247,-0.00023191427,-0.04839376,-0.0059101353,0.0011551275,-0.0037109843,0.0019633044,-0.010866238,0.4463265,-1.4664587,2.004618,-2.107268,-1.5705527,2.4218473,-0.03423823,0.089122534,-0.103198215,0.010693421,0.0023002396,-0.023303635,-0.05746084,0.3256114,-9.3661175,0.7553206,47.657326,-0.73422813,-2.0230355,-3.2495074,-0.3355258,0.122575656,-0.07124094,25.3125,25.9375,25.125,27.625,28.25,28.5625
0.10405417,-0.29163232,-1.0901145,-1.0467817,-0.039323773,0.037066046,-0.13923375,-0.3753886,-0.32848373,0.059969876,-3.0785291,0.6257807,-0.00015071554,-0.049568847,-0.0061592837,0.002793891,-0.004896291,0.0048954333,-0.010725662,0.44629025,-1.4662917,2.0044005,-2.107292,-1.5705408,2.4217756,-0.034686636,0.08754351,-0.1053631,0.01128186,0.0021023767,-0.023891298,-0.038307227,0.34476504,-9.461885,0.73069996,47.672558,-0.6701615,-1.7850907,-3.1748471,-0.3495077,0.12115504,-0.07444726,25.3125,25.9375,25.125,27.625,28.25,28.5625
0.10605444,-0.49037278,-1.6353134,-0.8984967,-0.030630935,0.029590614,-0.13536388,-0.37549075,-0.32847092,0.059969198,-3.0784795,0.6258276,-0.0001091735,-0.050364833,-0.005904806,0.00032945382,-0.0029767076,0.0010201819,-0.011283616,0.44620606,-1.4661214,2.0042093,-2.107268,-1.5705885,2.4217272,-0.035829403,0.094378054,-0.10707336,0.010481038,0.0020380283,-0.02447372,-0.1340753,0.36391866,-9.423578,0.8112748,47.694946,-0.6856818,-2.0739546,-3.2165523,-0.3333727,0.13958266,-0.06904797,25.3125,25.9375,25.125,27.625,28.25,28.5625
0.10805391,-0.7328537,-1.2445664,-0.88143677,-0.0457244,0.027658924,-0.13256353,-0.37562305,-0.3284913,0.060000807,-3.078505,0.62587243,-6.570878e-06,-0.051535793,-0.005633763,0.0015136958,-0.004179147,0.0038531197,-0.013495674,0.44613346,-1.4659426,2.0039346,-2.1072447,-1.5706013,2.4216795,-0.03728256,0.09264509,-0.10773978,0.00980636,0.0018994443,-0.023714183,-0.17238252,0.30645782,-9.385271,0.7978386,47.707485,-0.656865,-1.7799625,-3.3217506,-0.3255204,0.13749012,-0.09096933,25.3125,25.9375,25.125,27.625,28.25,28.5625
0.11005405,-0.7154227,-1.2121155,-0.8945289,-0.037644997,0.0355607,-0.13116872,-0.37571296,-0.32850495,0.05998342,-3.0784912,0.6259277,-7.594347e-05,-0.051767457,-0.0057536988,0.0005245744,-0.0031515767,0.0016971172,-0.013839615,0.44606137,-1.4657258,2.00373,-2.1072204,-1.570577,2.4216437,-0.037256483,0.09594851,-0.10927325,0.010425517,0.0019002368,-0.023343027,-0.095768064,0.2681506,-9.346964,0.73741806,47.672558,-0.6455309,-1.9582797,-3.3073914,-0.32757807,0.1453309,-0.08797853,25.3125,25.9375,25.125,27.625,28.25,28.5625
0.112054504,0.010200357,-0.7575252,-0.70806736,-0.02767609,0.0454785,-0.14273855,-0.3757941,-0.32852745,0.059989713,-3.0785248,0.6259338,-0.00016252908,-0.0524898,-0.006505068,0.0004199823,-0.003366466,0.0021923974,-0.012936162,0.44598973,-1.4655571,2.0035136,-2.1071494,-1.570517,2.4215717,-0.036471277,0.09817107,-0.1113389,0.009730729,0.0018741323,-0.02345954,-0.076614454,0.19153613,-9.270349,0.800085,47.684196,-0.69872814,-1.9599745,-3.2885056,-0.33194092,0.1376712,-0.10226344,25.3125,25.9375,25.125,27.625,28.25,28.5625
0.114054576,-0.092546575,-0.47745436,-0.58639175,-0.02331064,0.03953423,-0.14393552,-0.37590864,-0.32855016,0.060007103,-3.078543,0.62595683,-2.3063829e-05,-0.054713193,-0.007040312,0.0014784224,-0.0047824304,0.0049629738,-0.013289249,0.44595337,-1.465389,2.0032966,-2.1071846,-1.5705532,2.4215477,-0.037512112,0.09959415,-0.115191825,0.0090491595,0.0019489423,-0.024144588,-0.095768064,0.24899697,-9.251195,0.7530795,47.70211,-0.7339064,-1.9522884,-3.3593721,-0.30956438,0.13966973,-0.10620135,25.3125,25.9375,25.125,27.625,28.25,28.5625
0.11605426,-0.47796163,-0.8515433,-0.83841276,-0.011729992,0.023893733,-0.13030888,-0.37601992,-0.3285482,0.059978526,-3.078511,0.6260654,-0.000107506545,-0.0544377,-0.0061089075,0.00011565644,-0.0034566324,0.002222135,-0.013783087,0.44583285,-1.4651369,2.0030816,-2.1071732,-1.5705289,2.421499,-0.038981378,0.10130455,-0.114015505,0.009207957,0.0019369742,-0.025120614,-0.15322891,0.28730422,-9.289502,0.8090337,47.687782,-0.6550269,-1.9836994,-3.4092224,-0.30221224,0.15206255,-0.09444667,25.3125,25.9375,25.125,27.625,28.25,28.5625
0.11805444,-0.24373391,-0.5885522,-0.83278614,-0.016505297,0.01991327,-0.13308035,-0.37614632,-0.32856417,0.060005087,-3.0785081,0.6261224,2.2917288e-06,-0.056200303,-0.007086041,0.0012437289,-0.004867553,0.004621128,-0.013524532,0.44577283,-1.4649569,2.002817,-2.1071494,-1.5705646,2.4214752,-0.0388809,0.102674805,-0.118117735,0.009165443,0.0021685923,-0.025276314,-0.15322891,0.15322891,-9.308657,0.800085,47.658226,-0.64898705,-1.8921672,-3.3816237,-0.29897666,0.13089451,-0.10148424,25.3125,25.9375,25.125,27.625,28.25,28.5625
0.12005368,-0.9855783,-1.2205578,-0.7477507,-0.007986788,0.00969323,-0.12329106,-0.37624362,-0.32856834,0.060005248,-3.0784798,0.6261365,-1.9604468e-05,-0.055877153,-0.0068224855,-0.00062766095,-0.0031149779,0.00097176497,-0.013911922,0.44570094,-1.4647638,2.00259,-2.1070893,-1.5705765,2.4214158,-0.039066203,0.106582314,-0.118210614,0.009399104,0.0021605527,-0.025073707,-0.15322891,0.21068975,-9.251195,0.7284641,47.63136,-0.73070055,-1.909916,-3.4968524,-0.2741743,0.12682676,-0.13173307,25.3125,25.9375,25.125,27.625,28.25,28.5625
0.12205383,-0.32014674,-0.7645142,-0.7351636,-0.022527706,0.03330001,-0.139289,-0.3763635,-0.32859826,0.060002692,-3.0785346,0.6261666,-2.1013917e-05,-0.056553204,-0.0067887944,0.0010425277,-0.0040136715,0.0033049127,-0.014047255,0.44561675,-1.464537,2.002351,-2.1071126,-1.5705289,2.4213436,-0.039587602,0.10405785,-0.11960192,0.010824326,0.0019671922,-0.025459446,-0.095768064,0.17238252,-9.212888,0.84484416,47.686886,-0.7707705,-1.7785122,-3.49546,-0.2964962,0.123561576,-0.12531367,25.3125,25.9375,25.125,27.625,28.25,28.5625
0.12405396,-0.61132467,-0.4200895,-0.74671715,-0.023730256,0.03798502,-0.13376549,-0.37647155,-0.32861608,0.05999543,-3.0785227,0.62624,-4.720597e-05,-0.057298895,-0.007212133,0.00020750644,-0.0031647314,0.0018915097,-0.01323201,0.44554472,-1.464308,2.0021098,-2.1070888,-1.570517,2.421319,-0.03934424,0.10810053,-0.122220315,0.011042361,0.0018051723,-0.02602904,-0.13407528,0.19153613,-9.251195,0.7150385,47.688675,-0.78687596,-1.7424519,-3.541201,-0.28993335,0.12477638,-0.12752312,25.3125,25.9375,25.125,27.625,28.25,28.5625
0.12605374,-0.5485026,-0.6993071,-0.9079465,-0.017431758,0.040919766,-0.12740134,-0.37663195,-0.32861817,0.060020965,-3.078509,0.62633294,8.76391e-05,-0.05815627,-0.0071712513,0.0005009496,-0.003688763,0.0029588167,-0.014048403,0.4454366,-1.4640925,2.0018108,-2.107077,-1.5705651,2.4212708,-0.040176712,0.10843954,-0.123152,0.010445033,0.001817061,-0.026044289,-0.17238252,0.22984336,-9.346964,0.7620334,47.647476,-0.84269214,-1.8415098,-3.5143087,-0.2890089,0.13227482,-0.15689094,25.3125,25.9375,25.125,27.625,28.25,28.5625
0.12805405,0.11912126,-0.4548391,-0.7166051,-0.02251796,0.061739802,-0.1419091,-0.3767269,-0.32862982,0.060011387,3.0784993,-0.6263695,-2.7372924e-05,-0.06010404,-0.0082604755,0.0015910175,-0.0048739812,0.0049013277,-0.013600162,0.44534048,-1.4639,2.0016177,-2.107065,-1.570517,2.4211988,-0.040024586,0.11065267,-0.12825394,0.011070887,0.0020405995,-0.026337624,-0.11492168,0.1340753,-9.3661175,0.7709874,47.66539,-0.83971655,-1.8069255,-3.4790473,-0.28695935,0.15044016,-0.16014844,25.3125,25.9375,25.125,27.625,28.25,28.5625
0.13005444,-1.0023636,-0.9681635,-1.0197622,-0.011162958,0.023084741,-0.12496802,-0.37684843,-0.32864344,0.06000695,-3.0784943,0.6263872,4.530814e-05,-0.06046662,-0.008571335,0.0012487161,-0.004562011,0.004072771,-0.013028996,0.44528064,-1.4636477,2.001341,-2.1070282,-1.5705527,2.421151,-0.039803527,0.112708405,-0.12986496,0.01150724,0.002113537,-0.026686776,-0.17238252,0.21068975,-9.423578,0.83813137,47.711964,-0.84126925,-1.7766355,-3.5069199,-0.28498253,0.14084268,-0.1702061,25.3125,25.9375,25.125,27.625,28.25,28.5625
0.13205461,-0.38827434,-0.8748016,-1.0354879,-0.018738693,0.036993027,-0.13044156,-0.37697026,-0.3286678,0.060028195,3.0785031,-0.6264079,-6.34079e-05,-0.061377726,-0.008712045,0.0016610286,-0.004926652,0.004568746,-0.013212155,0.44520855,-1.4634436,2.0010536,-2.1069686,-1.5705408,2.4210908,-0.040417925,0.11357933,-0.13192588,0.012092652,0.0022270354,-0.027116997,-0.17238252,0.28730422,-9.423578,0.8090337,47.64927,-0.95895445,-1.7552958,-3.4920232,-0.2862711,0.12751174,-0.18622553,25.3125,25.9375,25.125,27.625,28.25,28.5625
0.13405395,-0.6292595,-1.1617453,-1.2350667,-0.028857244,0.033599123,-0.126894,-0.37709495,-0.32869986,0.060025934,3.0784469,-0.62645435,-3.1912576e-05,-0.06305104,-0.0086702565,0.002146292,-0.005285869,0.0055261254,-0.0142392,0.44512394,-1.4631917,2.000778,-2.1069567,-1.5704926,2.4210424,-0.04191711,0.11519673,-0.13493617,0.01246866,0.0021343308,-0.02758713,-0.15322891,0.34476504,-9.461885,0.7463667,47.66808,-0.83155394,-1.7463286,-3.3363142,-0.29135424,0.13635564,-0.18663676,25.3125,25.9375,25.125,27.625,28.25,28.5625
0.13605364,-0.45110482,-1.5060171,-1.3904204,-0.038808048,0.044143446,-0.13164735,-0.37721294,-0.3287095,0.060039796,3.0784402,-0.62651014,-8.443029e-05,-0.063594885,-0.009343629,0.0024656155,-0.005428083,0.0062979143,-0.013095229,0.44505233,-1.4629995,2.0005257,-2.1069205,-1.570517,2.4210067,-0.04099071,0.11633424,-0.13697778,0.012615182,0.0019276015,-0.027803076,-0.17238252,0.40222588,-9.461885,0.7911258,47.688675,-0.9418467,-1.6499575,-3.3803034,-0.26792994,0.14264861,-0.20399114,25.3125,25.9375,25.125,27.625,28.25,28.5625
0.13805409,-1.3729353,-2.3187082,-1.3202626,-0.039541982,0.033169236,-0.12294175,-0.37731746,-0.3287129,0.060020756,3.0784626,-0.62657106,1.861199e-05,-0.063376725,-0.009971671,0.0016674062,-0.0043273536,0.00445405,-0.0108646955,0.4449567,-1.4627469,2.000274,-2.1068485,-1.570505,2.4209464,-0.03946805,0.119259186,-0.1385994,0.013451247,0.0017248554,-0.028509678,-0.19153613,0.4405331,-9.5385,0.7665104,47.682407,-1.0215282,-1.7181727,-3.4318123,-0.27799523,0.14760159,-0.20948303,25.3125,25.9375,25.125,27.625,28.25,28.5625
0.14005446,-0.91965544,-1.9703965,-1.1571445,-0.060543466,0.058090653,-0.13213958,-0.37744617,-0.32873815,0.060012206,3.0784714,-0.6265735,7.813785e-06,-0.0650348,-0.009612802,0.0024058302,-0.0050264653,0.00617033,-0.012658945,0.4448962,-1.4624714,1.9999865,-2.1068366,-1.570517,2.4208865,-0.04153304,0.1195461,-0.14061087,0.013325925,0.0016130564,-0.028779075,-0.17238252,0.45968673,-9.5385,0.8247004,47.683304,-1.0768758,-1.6454484,-3.3573332,-0.2656874,0.15168144,-0.22918707,25.3125,25.9375,25.125,27.625,28.25,28.5625
0.14205392,-0.6398364,-2.009485,-1.1783912,-0.06255467,0.06290908,-0.13535345,-0.37760428,-0.32876703,0.060042985,3.0784125,-0.62663704,-5.334113e-05,-0.065385565,-0.010003099,0.0012397096,-0.0038219802,0.0036441358,-0.010636929,0.44480023,-1.4622301,1.9996384,-2.106788,-1.570505,2.4208379,-0.041096177,0.12393954,-0.14300291,0.014123749,0.0016119507,-0.030362323,-0.19153613,0.47884035,-9.653421,0.8179876,47.666286,-1.0520666,-1.8885287,-3.3821678,-0.29056668,0.16151917,-0.24601984,25.3125,25.9375,25.125,27.625,28.25,28.5625
0.14405409,-0.9133332,-1.9874474,-1.2458899,-0.06114985,0.04542903,-0.12694351,-0.37773463,-0.32877368,0.060028218,3.0784032,-0.6266933,-7.840826e-05,-0.06674189,-0.009636348,0.0011793812,-0.00411665,0.0043474673,-0.0110442415,0.44470367,-1.4619783,1.9993995,-2.1068122,-1.570517,2.4207778,-0.042948145,0.1253784,-0.14427257,0.013192838,0.0015714726,-0.031805746,-0.1340753,0.47884035,-9.634268,0.7105615,47.691364,-1.0445504,-1.6854321,-3.4424896,-0.280538,0.15153089,-0.22363327,25.3125,25.9375,25.125,27.625,28.25,28.5625
0.14605401,-0.5454778,-1.912576,-1.1083025,-0.06192171,0.043771446,-0.1356517,-0.37790465,-0.32879108,0.060057376,3.0783594,-0.62668306,-0.00017062292,-0.0689058,-0.010747674,0.0027491325,-0.0061917864,0.00786139,-0.0113050295,0.44458365,-1.4617385,1.9990624,-2.1067889,-1.570517,2.4206572,-0.04302057,0.12628263,-0.14879215,0.012742324,0.001925963,-0.031614903,-0.1340753,0.40222588,-9.5385,0.88289046,47.691364,-1.0943499,-1.7718408,-3.334659,-0.2574794,0.14394689,-0.23012324,25.3125,25.9375,25.125,27.625,28.25,28.5625
0.14805403,-0.66062963,-1.453507,-0.96396804,-0.057424862,0.034644466,-0.13660471,-0.37800926,-0.32881808,0.0600424,3.078344,-0.626738,-0.00011445083,-0.06852035,-0.011101575,0.0010261491,-0.00521632,0.005009173,-0.011327942,0.4445239,-1.4614855,1.9988116,-2.106765,-1.5704926,2.4206338,-0.04223117,0.13011444,-0.14896095,0.012073469,0.002269589,-0.030802287,-0.095768064,0.40222588,-9.5385,0.7866488,47.690468,-1.1814272,-1.5639035,-3.5124297,-0.24364403,0.160173,-0.26788893,25.3125,25.9375,25.125,27.625,28.25,28.5625
0.1500543,-0.52107257,-1.546079,-0.9194446,-0.037363946,0.031750824,-0.12940755,-0.3781563,-0.32884118,0.060058463,3.078337,-0.626756,-0.00018203026,-0.07024235,-0.010946676,0.0007568579,-0.0054403995,0.0051828907,-0.012774153,0.4444512,-1.4612328,1.9984874,-2.1067297,-1.5705165,2.4205735,-0.04412351,0.13305323,-0.15146862,0.011388186,0.0023919677,-0.03124646,-0.038307227,0.34476504,-9.557653,0.8023209,47.70838,-1.094318,-1.6816213,-3.460019,-0.22312883,0.14086352,-0.28146437,25.3125,25.9375,25.125,27.625,28.25,28.5625
0.15205458,-0.7717321,-1.1942401,-1.0110637,-0.034296125,0.022281986,-0.12670077,-0.37832546,-0.32888365,0.060094807,3.078271,-0.6267226,-0.00032887715,-0.071110815,-0.01095448,-0.00029779278,-0.0046831663,0.0031967661,-0.01231514,0.44437903,-1.4609919,1.9981402,-2.1067412,-1.5705165,2.420489,-0.04497803,0.13718107,-0.15369941,0.011609505,0.002562378,-0.032558095,-0.05746084,0.28730422,-9.5385,0.8403672,47.66271,-1.1266114,-1.773757,-3.414949,-0.21192028,0.1490482,-0.28396904,25.3125,25.9375,25.125,27.625,28.25,28.5625
0.15405425,-1.3593028,-1.213915,-0.8316314,-0.027630182,0.010197291,-0.11695638,-0.37845498,-0.3289051,0.060083635,3.0782354,-0.626774,-0.00025329142,-0.07282826,-0.011543282,-0.00043714212,-0.004870906,0.0034071477,-0.012692155,0.44427073,-1.4607152,1.9978517,-2.106706,-1.5704683,2.4204175,-0.045438785,0.14106259,-0.15767004,0.0114296,0.0026323688,-0.032639094,-0.076614454,0.28730422,-9.442732,0.71951014,47.690468,-1.140488,-1.7735119,-3.3767114,-0.21347791,0.15696718,-0.30258203,25.3125,25.9375,25.125,27.625,28.25,28.5625
0.156054,-0.8491274,-1.1486827,-0.86944956,-0.022742344,0.02287742,-0.12175941,-0.37863392,-0.3289413,0.060095575,3.0781922,-0.6268225,-0.00035133457,-0.07302006,-0.0108670015,-0.00067767344,-0.0043406426,0.0024513581,-0.013557545,0.4441864,-1.4604036,1.9974822,-2.1067173,-1.5704807,2.4203691,-0.046801183,0.1413407,-0.15765008,0.012222563,0.0025689588,-0.03313613,-0.1340753,0.22984336,-9.3661175,0.75084364,47.64837,-1.138497,-1.8185465,-3.3704054,-0.186277,0.14489555,-0.30413204,25.3125,25.9375,25.125,27.625,28.25,28.5625
0.15805386,-1.0173695,-1.1643232,-0.8442871,-0.011324004,0.0231824,-0.12696162,-0.3787723,-0.32896063,0.060093474,3.0781782,-0.62687653,-0.0003239884,-0.073761985,-0.011275118,-0.001527265,-0.0039006094,0.00066865014,-0.013194689,0.44409034,-1.4601264,1.9971694,-2.1066697,-1.5704683,2.4203088,-0.046924114,0.14535011,-0.160275,0.012636322,0.0029329944,-0.033620413,-0.11492168,0.21068975,-9.346964,0.77545905,47.666286,-1.1476043,-1.9817157,-3.2955232,-0.18280803,0.15004084,-0.30783325,25.3125,25.9375,25.125,27.625,28.25,28.5625
0.16005437,-0.6066717,-0.6262814,-0.63381183,-0.020163814,0.038974315,-0.13505879,-0.3789306,-0.32898247,0.06010041,3.0781362,-0.6269276,-0.00035706116,-0.074543916,-0.010931009,-0.001542757,-0.0036858725,-0.00015494143,-0.015584354,0.44398186,-1.4598505,1.9968451,-2.1066568,-1.5704569,2.4202378,-0.04834255,0.1466668,-0.1620259,0.01390663,0.0030930892,-0.03264847,-0.15322891,0.24899697,-9.251195,0.7463667,47.677036,-1.13116,-1.8702662,-3.4000678,-0.17618993,0.13798752,-0.3458759,25.3125,25.9375,25.125,27.625,28.25,28.5625
0.16205373,-0.45471275,-0.26521865,-0.20266676,-0.029462915,0.04374607,-0.1405672,-0.3790773,-0.32899714,0.060103394,3.0781453,-0.62692887,-0.00036649403,-0.07562372,-0.011139173,-0.0010536971,-0.0041301535,0.00065153156,-0.017560517,0.44388568,-1.4595746,1.9965218,-2.1066086,-1.5704683,2.4201415,-0.048925713,0.14765678,-0.16438301,0.014354335,0.0031435927,-0.03125422,-0.2681506,0.24899697,-9.155427,0.8179876,47.685097,-1.2792718,-1.8099931,-3.3955874,-0.16412306,0.12934591,-0.38749546,25.3125,25.9375,25.125,27.625,28.25,28.5625
0.16405417,-0.5554612,-0.51207113,-0.22607085,-0.018363286,0.045134496,-0.14017835,-0.37922797,-0.32904536,0.060100827,3.0781116,-0.62688446,-0.00038946205,-0.077041335,-0.010940393,-0.000597755,-0.0044492763,0.0011334664,-0.017771142,0.44382498,-1.459263,1.9961852,-2.1066206,-1.5704445,2.4200575,-0.050590284,0.1488564,-0.16699108,0.015191331,0.0032230162,-0.03270677,-0.2681506,0.19153614,-9.097966,0.73069996,47.692257,-1.1917315,-1.8622372,-3.3948383,-0.15143591,0.12150216,-0.39258903,25.3125,25.9375,25.125,27.625,28.25,28.5625
0.16605452,-0.66325104,-0.32816064,-0.23730083,-0.0077653374,0.044075742,-0.13344355,-0.37938538,-0.32903054,0.060076818,3.0781024,-0.62707394,-0.00032709385,-0.07883485,-0.011022597,0.00033120747,-0.005792229,0.0031890254,-0.017818421,0.44365647,-1.4589512,1.9958867,-2.1065848,-1.570444,2.4200087,-0.05221507,0.14937544,-0.16967729,0.014925072,0.0035466687,-0.034283202,-0.2681506,0.076614454,-9.11712,0.7933669,47.672558,-1.1481116,-1.7968771,-3.322156,-0.13810812,0.12550807,-0.40348756,25.3125,25.9375,25.125,27.625,28.25,28.5625
0.16805384,-0.62296546,0.079113655,-0.0965229,-0.0044365167,0.04502942,-0.13547948,-0.37952617,-0.32907006,0.06007846,3.0780857,-0.62710875,-0.0003140623,-0.07918042,-0.01121776,-5.8767913e-05,-0.0055953357,0.0021318798,-0.016801003,0.44359642,-1.4586508,1.9955391,-2.1065366,-1.5704321,2.4199727,-0.05232069,0.15133259,-0.17111532,0.015445072,0.003821295,-0.03540566,-0.30645782,0.076614454,-9.059659,0.7732232,47.668976,-1.1276937,-1.7130809,-3.3957574,-0.14211974,0.14171493,-0.42044353,25.3125,25.9375,25.125,27.625,28.25,28.5625
0.1700542,-1.0683974,-0.027018039,-0.14379773,0.005588939,0.034104165,-0.12430196,-0.37971956,-0.32910463,0.060116358,3.0780108,-0.6271501,-0.0004477358,-0.079600215,-0.011094063,1.6158727e-05,-0.0056905393,0.0020811865,-0.016256047,0.4434884,-1.4583755,1.9951442,-2.1065242,-1.5704321,2.4199002,-0.05296389,0.15175834,-0.17187521,0.015784329,0.0039329366,-0.036593203,-0.4213795,0.076614454,-9.040505,0.83813137,47.658226,-1.2122471,-1.6029102,-3.394956,-0.119145975,0.100847855,-0.41984773,25.3125,25.9375,25.125,27.625,28.25,28.5625
0.1720548,-0.65851814,0.052984014,-0.19106571,0.0069120573,0.05548669,-0.13760711,-0.37987983,-0.3291145,0.060093414,3.0780046,-0.6272069,-0.00040383937,-0.08071203,-0.011034439,1.5208998e-05,-0.0056657596,0.0014122261,-0.016450463,0.44335586,-1.458039,1.994821,-2.1065118,-1.5704201,2.419804,-0.054205652,0.15390638,-0.17456995,0.016946143,0.0041944557,-0.03763946,-0.28730422,0.076614454,-8.983045,0.83589023,47.69763,-1.167205,-1.8208519,-3.3438945,-0.12591809,0.10874043,-0.42697263,25.3125,25.9375,25.125,27.625,28.25,28.5625
0.1740603,-1.0183402,0.01606933,-0.2948895,0.0057317712,0.04680782,-0.1326547,-0.38002345,-0.3291552,0.060099553,3.0779946,-0.62720394,-0.00039295506,-0.082005456,-0.011358009,0.00022420072,-0.0059143947,0.0017318045,-0.015650064,0.44329566,-1.457739,1.9944605,-2.1064522,-1.5704082,2.4197435,-0.05478589,0.15610881,-0.17764428,0.017423317,0.0042773057,-0.039018296,-0.19153613,0.1340753,-9.11712,0.7978386,47.682407,-1.1500899,-1.5808101,-3.3404212,-0.11271462,0.10459185,-0.44828522,25.3125,25.9375,25.125,27.625,28.25,28.5625
0.1760573,-0.8829245,-0.040850196,-0.448249,-0.0015078869,0.05289966,-0.13179268,-0.38019016,-0.32915536,0.060105674,3.0779989,-0.6272803,-0.00041340917,-0.08290338,-0.010948396,0.000662726,-0.0055177566,0.0023929414,-0.014745626,0.4431634,-1.4574516,1.9941138,-2.1063917,-1.5704321,2.4196587,-0.05588085,0.15635145,-0.17915203,0.018263457,0.003635461,-0.041016437,-0.30645782,0.076614454,-9.232041,0.84484416,47.66987,-1.112751,-1.5243882,-3.3835573,-0.109785065,0.10625471,-0.4285167,25.3125,25.9375,25.125,27.625,28.25,28.5625
0.1780557,-0.84223574,0.018649178,-0.38413912,-0.017974375,0.050140228,-0.13344353,-0.38033435,-0.32917225,0.060085453,3.0779994,-0.6272792,-0.00031928634,-0.08376117,-0.010506946,0.0006883659,-0.004845856,0.0018328528,-0.013348533,0.44304284,-1.4571276,1.9937896,-2.1063435,-1.5703968,2.4195375,-0.057185408,0.15767825,-0.18104334,0.019625675,0.003267115,-0.043717034,-0.28730422,0.038307227,-9.212888,0.8985519,47.66987,-1.1683635,-1.5481136,-3.4139254,-0.12777375,0.119244635,-0.40953082,25.3125,25.9375,25.125,27.625,28.25,28.5625
0.18005408,-0.7671936,-0.49591112,-1.010454,-0.004672555,0.04613941,-0.12424439,-0.38052922,-0.32919875,0.060087033,3.0779593,-0.62734795,-0.0003379107,-0.084744304,-0.010361853,0.0007512455,-0.004637257,0.0017050036,-0.013250151,0.44291046,-1.4567679,1.9933814,-2.1063197,-1.5703844,2.4194534,-0.05819776,0.15922941,-0.18313381,0.020371594,0.0031326406,-0.044826422,-0.38307226,0.1340753,-9.346964,0.8717007,47.684196,-1.1521453,-1.5116243,-3.3799942,-0.11338492,0.121662356,-0.41583377,25.3125,25.9375,25.125,27.625,28.25,28.5625
0.18205431,-0.64882916,-0.406406,-1.1577396,-0.011110481,0.042828772,-0.12758291,-0.38068384,-0.32921,0.060081586,3.0779915,-0.6273917,-0.00028476675,-0.08579145,-0.010298676,0.00019603278,-0.004000321,0.00044505,-0.011673801,0.44280213,-1.4564425,1.9930104,-2.1062229,-1.5703968,2.4193685,-0.059186276,0.16251859,-0.18572894,0.021089233,0.0030919951,-0.0473897,-0.30645782,0.22984336,-9.461885,0.90527004,47.66987,-1.0968581,-1.698488,-3.4295328,-0.12711509,0.114380196,-0.4078879,25.3125,25.9375,25.125,27.625,28.25,28.5625
0.18405396,-0.9316558,-1.2593257,-1.3232048,-0.014839235,0.03884255,-0.12742057,-0.38088387,-0.32924104,0.060095955,3.077884,-0.62748396,-0.00036948075,-0.08653752,-0.010232756,-0.0008619275,-0.0028756664,-0.0019169315,-0.010227408,0.44265795,-1.4561301,1.992639,-2.106259,-1.5703605,2.4192958,-0.05992674,0.16664863,-0.18815096,0.021999922,0.003090107,-0.049574576,-0.2681506,0.2681506,-9.595961,0.8717007,47.688675,-1.0960519,-1.5396435,-3.491371,-0.119739346,0.11523635,-0.3718528,25.3125,25.9375,25.125,27.625,28.25,28.5625
0.18605913,-1.4941663,-1.9202099,-1.4294924,-0.022801165,0.033618286,-0.1174244,-0.38102177,-0.32923138,0.060069498,3.0780075,-0.6274699,-0.00024752304,-0.08701509,-0.009766249,-0.0010691183,-0.0024037554,-0.0026861047,-0.008966443,0.4425496,-1.4557825,1.9922804,-2.106115,-1.5704087,2.4191632,-0.06111761,0.16758968,-0.18895051,0.02275428,0.0029871033,-0.052026417,-0.34476504,0.24899697,-9.595961,0.8873621,47.67345,-1.0912421,-1.6224442,-3.4847202,-0.13195872,0.1095094,-0.34230268,25.3125,25.9375,25.125,27.625,28.25,28.5625
0.1880822,-1.3946506,-1.7692345,-1.617864,-0.045797627,0.045990847,-0.119725056,-0.38120747,-0.32924473,0.06008227,3.0779638,-0.6274795,-0.00026754176,-0.08782292,-0.009655969,-0.0020230382,-0.0011432205,-0.0048202584,-0.007756547,0.44239333,-1.4554815,1.9919084,-2.1060789,-1.5703844,2.4190187,-0.061844267,0.17158195,-0.19148284,0.02376561,0.0027606522,-0.053960904,-0.2681506,0.3256114,-9.768343,0.8493211,47.670765,-1.0284529,-1.7124102,-3.5035791,-0.13231835,0.12625633,-0.31170875,25.3125,25.9375,25.125,27.625,28.25,28.5625
0.19005807,-1.1739004,-1.7461455,-1.3774587,-0.059388857,0.054742053,-0.1313835,-0.38136482,-0.32926756,0.06005486,3.077992,-0.6274852,-0.00020564132,-0.0897888,-0.0086253695,-0.0026256957,-0.00060351746,-0.0055665798,-0.009335403,0.44229606,-1.455109,1.9915489,-2.106043,-1.5703844,2.4189217,-0.0653502,0.17480096,-0.19372848,0.023699008,0.0025848665,-0.05588623,-0.22984336,0.30645782,-9.80665,0.7911258,47.67166,-0.88231605,-1.8581952,-3.5368762,-0.13189329,0.1356024,-0.2799062,25.3125,25.9375,25.125,27.625,28.25,28.5625
0.1920579,-1.5297544,-2.1591458,-1.4743831,-0.050471537,0.043912016,-0.124186225,-0.3815549,-0.3293027,0.0600769,3.077952,-0.62751293,-0.0002116306,-0.08958119,-0.009771872,-0.0028678896,-0.00095775473,-0.005541123,-0.005445634,0.44217688,-1.4547732,1.9911059,-2.1059592,-1.5703605,2.4188251,-0.06319922,0.17631277,-0.19476232,0.023047369,0.002891664,-0.057624448,-0.24899697,0.3256114,-9.653421,0.8605109,47.682407,-0.98941875,-1.8822969,-3.490189,-0.13973165,0.118423104,-0.23901051,25.3125,25.9375,25.125,27.625,28.25,28.5625
0.19405796,-1.0469612,-1.5171193,-1.4526105,-0.05550674,0.0417549,-0.12586991,-0.3817561,-0.32932726,0.060084708,3.0779154,-0.62754494,-0.0002713388,-0.09161846,-0.009655435,-0.0026048666,-0.001612029,-0.0043960176,-0.0067500942,0.44204423,-1.454425,1.9906982,-2.1059477,-1.5703605,2.4187174,-0.06523714,0.1785392,-0.19778039,0.022524333,0.0029879347,-0.058355805,-0.28730422,0.3256114,-9.749189,0.7709874,47.69763,-0.95675766,-1.804677,-3.4317694,-0.12959734,0.11562675,-0.21250436,25.3125,25.9375,25.125,27.625,28.25,28.5625
0.19605784,-0.8817565,-1.6858605,-1.331781,-0.03967854,0.040371075,-0.12977391,-0.38193145,-0.32934126,0.060079034,3.0778954,-0.62758064,-0.00023312769,-0.0938868,-0.009127978,-0.0021110193,-0.0023681922,-0.002910707,-0.009763777,0.44189903,-1.4540893,1.9903268,-2.1059,-1.5703367,2.4185972,-0.0682037,0.18005383,-0.20056294,0.022127997,0.0030281811,-0.05830697,-0.24899697,0.36391866,-9.595961,0.84484416,47.67345,-0.87455195,-1.7792845,-3.395997,-0.112033434,0.121045,-0.19490743,25.3125,25.9375,25.125,27.625,28.25,28.5625
0.19805747,-0.771313,-1.5161641,-1.4382238,-0.037700858,0.03049233,-0.12788777,-0.38214582,-0.3293556,0.060078662,3.0778904,-0.62757874,-0.00027337106,-0.09416017,-0.010114213,-0.0013985377,-0.0032665785,-0.0013345922,-0.008392856,0.44174382,-1.4537061,1.9898957,-2.1058757,-1.5703486,2.4184418,-0.06665213,0.17997882,-0.20214044,0.021970961,0.0031638066,-0.05812562,-0.2681506,0.38307226,-9.634268,0.81351066,47.668976,-0.8763226,-1.722801,-3.5190105,-0.093864456,0.12817731,-0.17918397,25.3125,25.9375,25.125,27.625,28.25,28.5625
0.20005517,-0.842929,-1.3438993,-1.1167548,-0.054519318,0.03417174,-0.12698705,-0.38232332,-0.3293602,0.060072403,3.0778863,-0.62773186,-0.00027845716,-0.09477978,-0.009759567,-0.0018903085,-0.0027771632,-0.002483489,-0.010822469,0.44161123,-1.4533699,1.9895247,-2.1058276,-1.5703725,2.4184055,-0.06784493,0.18189128,-0.20331967,0.022484327,0.0032098098,-0.056888193,-0.19153613,0.45968673,-9.615114,0.88289046,47.679718,-0.8947577,-1.8198671,-3.5995243,-0.098438255,0.11655002,-0.14232258,25.3125,25.9375,25.125,27.625,28.25,28.5625
0.20205595,-0.8833482,-1.7306112,-0.9903977,-0.05712613,0.044933725,-0.13937798,-0.3825108,-0.32938656,0.060082674,3.077879,-0.62767506,-0.00025315591,-0.09578884,-0.009072764,-0.0025749684,-0.0019609956,-0.0039012707,-0.014299333,0.44147858,-1.4530215,1.9890941,-2.1057436,-1.5703486,2.4182386,-0.06987377,0.18449757,-0.20484081,0.023031829,0.0030748944,-0.055439033,-0.21068975,0.34476504,-9.442732,0.8851263,47.684196,-0.7992685,-1.7305535,-3.5530443,-0.09667595,0.12602076,-0.15455282,25.3125,25.9375,25.125,27.625,28.25,28.5625
0.2040543,-1.248932,-1.9622847,-0.9842931,-0.041267928,0.04593032,-0.12200981,-0.38271964,-0.32941267,0.060081977,3.0778282,-0.6277224,-0.00030429143,-0.098000474,-0.00983339,-0.0006893437,-0.0037549427,1.4607217e-05,-0.015980635,0.44133455,-1.4526503,1.988685,-2.105756,-1.5703367,2.4181309,-0.070322454,0.18448408,-0.20922847,0.023127178,0.0030170118,-0.054203898,-0.21068975,0.36391866,-9.442732,0.784413,47.67793,-0.7866919,-1.681859,-3.5738654,-0.08575999,0.13063711,-0.15715925,25.3125,25.9375,25.125,27.625,28.25,28.5625
0.20605372,-1.3408647,-1.0133463,-0.6562888,-0.03963823,0.041331153,-0.12643987,-0.3829312,-0.32942912,0.060091544,3.077799,-0.6277566,-0.00034757223,-0.09934329,-0.010230335,0.0003058189,-0.0049376674,0.0020620655,-0.018347736,0.44117832,-1.4522909,1.9882544,-2.1057198,-1.5703367,2.418,-0.07084183,0.18468559,-0.21179532,0.023135561,0.0032080596,-0.05235493,-0.2681506,0.2681506,-9.404425,0.800085,47.67166,-0.7868957,-1.6208727,-3.5705767,-0.077542715,0.12129344,-0.16335657,25.3125,25.9375,25.125,27.625,28.25,28.5625
0.20805378,-0.9065799,-0.39973173,-0.5788716,-0.022246024,0.044493377,-0.13824704,-0.38313428,-0.32946327,0.06008891,3.0777497,-0.62786156,-0.00033814536,-0.10086193,-0.010583856,0.0007905369,-0.006422755,0.0027975007,-0.01966904,0.44104597,-1.4518949,1.987811,-2.105684,-1.5703119,2.4179397,-0.072154514,0.18624802,-0.21473314,0.023210034,0.0042320737,-0.05234561,-0.22984336,0.19153613,-9.270349,0.8090337,47.667187,-0.7877742,-1.5794542,-3.4595075,-0.056039236,0.113417365,-0.14762016,25.3125,25.9375,25.125,27.625,28.25,28.5625
0.21005346,-0.64265335,0.11016461,-0.55758566,0.003980366,0.033403922,-0.13254741,-0.38332722,-0.3294812,0.060068652,3.0777566,-0.62788606,-0.00028020752,-0.10278253,-0.010864756,0.0009885302,-0.0071850284,0.0034826258,-0.025356684,0.44090113,-1.4514868,1.9873914,-2.105636,-1.5703,2.4178095,-0.07353037,0.18910958,-0.21842398,0.023093265,0.00461796,-0.048031997,-0.2681506,0.05746084,-9.251195,0.90750587,47.657326,-0.59721124,-1.5079398,-3.4552226,-0.052389376,0.10807963,-0.18842545,25.3125,25.9375,25.125,27.625,28.25,28.5625
0.21205409,-0.63276005,0.17055131,-0.6951492,0.031608745,0.020389918,-0.1301287,-0.38352323,-0.3295164,0.060078178,3.0777235,-0.6279369,-0.00032482523,-0.103472024,-0.011454445,0.0013899899,-0.0076694316,0.0043282285,-0.027458811,0.44079363,-1.4511272,1.9869603,-2.1056006,-1.5703,2.4177382,-0.07304659,0.19007261,-0.22051768,0.023252148,0.0046923757,-0.045444865,-0.21068975,0.076614454,-9.212888,0.9186956,47.672558,-0.805853,-1.4928255,-3.3562987,-0.031508625,0.100622594,-0.2383118,25.3125,25.9375,25.125,27.625,28.25,28.5625
0.21405452,-0.34513193,0.8152894,-0.72603804,0.02324783,0.020745635,-0.1340486,-0.38373312,-0.3295273,0.060078602,3.0777178,-0.62801373,-0.0003337209,-0.104652755,-0.010832317,0.0013381751,-0.0073424783,0.0037214481,-0.029998813,0.44063687,-1.4507434,1.9865173,-2.10554,-1.5703119,2.4176304,-0.07515449,0.19167463,-0.22250076,0.024321796,0.0046544867,-0.045011804,-0.2681506,0.0,-9.270349,0.779936,47.682407,-0.7253114,-1.4102949,-3.4004788,-0.021619087,0.09397897,-0.23123972,25.3125,25.9375,25.125,27.625,28.25,28.5625
0.2160541,-1.0460513,0.27139696,-0.78673214,0.015401945,0.015513723,-0.12932442,-0.3839524,-0.32956,0.06010518,3.077643,-0.62809426,-0.00035803477,-0.10540589,-0.010896237,0.0005671453,-0.005967767,0.0019658844,-0.029593484,0.44048077,-1.4503825,1.9860371,-2.1054676,-1.5702761,2.4175344,-0.07531047,0.1954661,-0.22530593,0.025514012,0.0041595916,-0.045570694,-0.19153613,0.05746084,-9.251195,0.91421866,47.66539,-0.5399388,-1.4592216,-3.3926618,-0.01711722,0.103299454,-0.25779536,25.3125,25.9375,25.125,27.625,28.25,28.5625
0.21805416,-0.91071767,-0.38172764,-0.80764216,0.006487016,0.03637352,-0.1285351,-0.3841746,-0.32957503,0.060091633,3.0775733,-0.62829006,-0.00032197553,-0.10587824,-0.011621206,0.00043620841,-0.0051502143,0.0009307049,-0.0276002,0.44028917,-1.4499625,1.9855937,-2.1054432,-1.5702399,2.417474,-0.074119225,0.19835177,-0.22872318,0.027334388,0.0038591807,-0.04637072,-0.2873042,0.019153614,-9.3661175,0.8940802,47.711063,-0.7590528,-1.5915356,-3.2915816,-0.052223198,0.08996005,-0.24941781,25.3125,25.9375,25.125,27.625,28.25,28.5625
0.22005403,-1.5492371,-0.92772263,-0.9609022,-0.0093539655,0.04186878,-0.12036033,-0.3843809,-0.32960567,0.06010563,3.0775776,-0.6283304,-0.00035947637,-0.10757998,-0.011876053,0.0013674418,-0.0052026166,0.002170025,-0.029976467,0.440181,-1.4495784,1.9851135,-2.1053588,-1.5702647,2.4173908,-0.07476847,0.19988868,-0.23300943,0.028940825,0.0033729845,-0.04464112,-0.4213795,0.17238252,-9.404425,0.88960326,47.672558,-0.7507876,-1.6954508,-3.2701085,-0.055060335,0.11648622,-0.29006743,25.3125,25.9375,25.125,27.625,28.25,28.5625
0.22205466,-1.9800535,-1.4231479,-0.8631302,-0.03013581,0.048349176,-0.119700946,-0.3845448,-0.32961467,0.060079876,3.0776076,-0.62837327,-0.00021305626,-0.10698009,-0.011724464,-9.08374e-05,-0.0033727943,-0.0019048274,-0.02898865,0.44003722,-1.449194,1.9847182,-2.1052506,-1.5702399,2.4172702,-0.07452798,0.20312448,-0.2338321,0.030995445,0.003452691,-0.04538857,-0.30645782,0.3256114,-9.404425,0.88960326,47.685097,-0.8216039,-1.7449753,-3.327516,-0.07487801,0.09487307,-0.30365688,25.3125,25.9375,25.125,27.625,28.25,28.5625
0.22405383,-1.5306636,-1.8776275,-0.95608103,-0.045251496,0.059493046,-0.13097581,-0.38477263,-0.32963622,0.060093302,3.077559,-0.6284965,-0.00022790422,-0.105927564,-0.01140041,-0.0013667454,-0.0020065787,-0.0052725407,-0.026550578,0.4398692,-1.4487981,1.9842285,-2.105178,-1.570228,2.4171855,-0.0742776,0.20456915,-0.23288761,0.032236382,0.0036572162,-0.04757718,-0.2681506,0.28730422,-9.461885,0.8493211,47.685097,-0.81888163,-1.7161069,-3.5053632,-0.10427356,0.0916218,-0.288914,25.3125,25.9375,25.125,27.625,28.25,28.5625
0.22605346,-1.0388592,-2.0404296,-1.0207486,-0.04947723,0.054377504,-0.12771055,-0.3849968,-0.32964528,0.060086805,3.077566,-0.6286121,-0.00025785444,-0.106316224,-0.011687465,-0.0018900654,-0.0014031301,-0.006481511,-0.025626723,0.43971345,-1.4483775,1.9837621,-2.1051295,-1.5702642,2.4171014,-0.07400602,0.20715076,-0.2348195,0.032936763,0.003622758,-0.0482283,-0.21068975,0.4405331,-9.442732,0.8605109,47.694946,-0.8809713,-1.6846485,-3.4597228,-0.11879265,0.10027012,-0.2896276,25.3125,25.9375,25.125,27.625,28.25,28.5625
0.22805353,-1.1690593,-1.8030142,-0.8422467,-0.06575379,0.033989534,-0.1291209,-0.38522542,-0.32967773,0.06008464,3.077534,-0.6286636,-0.00023690477,-0.10644522,-0.011484363,-0.0025319401,-0.0006746272,-0.007358157,-0.025622724,0.43955725,-1.4479345,1.9832581,-2.1050704,-1.5702404,2.4169817,-0.0742418,0.2086079,-0.23503876,0.032805137,0.0033350822,-0.04846758,-0.28730422,0.36391866,-9.5385,0.8314132,47.67345,-0.92518866,-1.6373405,-3.643351,-0.120807074,0.11366581,-0.29938734,25.3125,25.9375,25.125,27.625,28.25,28.5625
0.23005345,-0.90399325,-1.8116325,-0.84601223,-0.058818586,0.023368215,-0.1276821,-0.38540545,-0.3296853,0.060067736,3.0775566,-0.62872505,-0.00016305344,-0.10703092,-0.011833613,-0.0018365154,-0.0007512323,-0.006308026,-0.02560163,0.43941355,-1.4475539,1.9828519,-2.1049864,-1.5702404,2.4168737,-0.0738027,0.20872787,-0.23704708,0.033712354,0.002951511,-0.048048604,-0.15322891,0.51714754,-9.423578,0.94331104,47.65643,-1.0399036,-1.5311482,-3.6961088,-0.1219473,0.109844506,-0.32130593,25.3125,25.9375,25.125,27.625,28.25,28.5625
0.23205474,-0.40321642,-1.8370622,-1.2166595,-0.043643426,0.011660351,-0.12918901,-0.3856701,-0.32971734,0.060108323,3.0774956,-0.62880844,-0.0003145967,-0.10886276,-0.012144215,-0.0016476802,-0.00071476353,-0.0060287425,-0.026151108,0.43925726,-1.4471546,1.9823011,-2.1049378,-1.5702647,2.4167776,-0.0746613,0.21202031,-0.24144037,0.034575995,0.0027965119,-0.048354708,-0.038307227,0.45968673,-9.423578,0.92093146,47.658226,-0.9948478,-1.5951538,-3.645581,-0.13319626,0.12634088,-0.32931358,25.3125,25.9375,25.125,27.625,28.25,28.5625
0.23405394,-0.22649154,-1.7051355,-0.9236577,-0.041018408,-0.0035379601,-0.12745439,-0.38588035,-0.32972383,0.06007405,3.0775316,-0.62892985,-0.0002497693,-0.10990103,-0.01241007,-0.0019308556,-0.0007918939,-0.0055038054,-0.025980102,0.43910116,-1.4466896,1.9818453,-2.1048782,-1.5702885,2.416693,-0.07491063,0.21431392,-0.24322347,0.03355764,0.00263299,-0.048773672,-0.038307227,0.4213795,-9.404425,0.7933669,47.63673,-1.0021113,-1.5697657,-3.5783153,-0.13913852,0.120266184,-0.34269524,25.3125,25.9375,25.125,27.625,28.25,28.5625
0.23605426,-0.5174729,-1.7753007,-0.83094853,-0.04415657,-0.012275181,-0.12494544,-0.38607955,-0.32976365,0.06007987,3.077497,-0.62894213,-0.00018759487,-0.11159909,-0.0124885375,-0.0018505062,-0.0016155485,-0.0044593923,-0.02572646,0.43896866,-1.4462935,1.9813665,-2.1047828,-1.5702404,2.4165728,-0.076386675,0.21645452,-0.24565741,0.0325578,0.0029265457,-0.050501965,0.019153614,0.45968673,-9.32781,0.94331104,47.658226,-0.9984811,-1.6366258,-3.5565958,-0.14251551,0.13290703,-0.33945304,25.3125,25.9375,25.125,27.625,28.25,28.5625
0.23805423,-0.28764498,-1.6901932,-1.1495991,-0.034208026,-0.005618368,-0.117609024,-0.38632122,-0.32977828,0.060066942,3.077454,-0.6291068,-0.00017161728,-0.113224186,-0.0132085215,-7.0998794e-05,-0.0032233065,-0.0021496196,-0.026855124,0.43877646,-1.4458354,1.9808744,-2.104746,-1.570228,2.4164891,-0.07671164,0.21630216,-0.25005823,0.034336336,0.0033942414,-0.049697034,0.11492168,0.36391866,-9.212888,0.8717007,47.64121,-0.9672582,-1.6355597,-3.4492466,-0.15701684,0.13349009,-0.35790637,25.3125,25.9375,25.125,27.625,28.25,28.5625
0.24005415,-0.40746057,-1.66392,-0.95288247,-0.03216927,-0.01297708,-0.12731443,-0.3865341,-0.32982686,0.06007856,3.0774386,-0.6291411,-0.00018702063,-0.11442846,-0.01374236,0.00036568,-0.003963457,-0.002008091,-0.026033903,0.4386803,-1.4454157,1.9803585,-2.1046627,-1.570228,2.4164166,-0.07712581,0.21822783,-0.25356022,0.035468757,0.0040003136,-0.05093128,0.038307227,0.4405331,-9.346964,0.842603,47.642998,-0.9775661,-1.6260375,-3.3844283,-0.17918646,0.14107648,-0.37525415,25.3125,25.9375,25.125,27.625,28.25,28.5625
0.24205458,-0.119828664,-1.5205119,-0.72255903,-0.028091727,0.0051445374,-0.12599905,-0.38678896,-0.32985193,0.06008707,3.0773609,-0.6292387,-0.00024110203,-0.11589378,-0.014502835,0.0012918571,-0.0051612942,-0.0007033373,-0.02362747,0.4384885,-1.4449869,1.9798554,-2.1046498,-1.5702041,2.416296,-0.07727278,0.21960245,-0.25751156,0.036356702,0.0045286557,-0.05348301,0.019153614,0.40222588,-9.212888,0.93436235,47.666286,-0.9812476,-1.5197344,-3.331698,-0.19416042,0.1133814,-0.36167723,25.3125,25.9375,25.125,27.625,28.25,28.5625
0.24405347,-0.03585193,-0.75683403,-0.7687569,-0.025413167,0.010937622,-0.1327353,-0.3870114,-0.32988957,0.060057037,3.0773873,-0.62924254,-0.00015112878,-0.11607045,-0.014234998,0.000753703,-0.0041809296,-0.0031016406,-0.02002074,0.43835613,-1.4444711,1.979329,-2.1045773,-1.5701922,2.416163,-0.0779463,0.22168477,-0.25923535,0.0385883,0.0046588765,-0.057763185,-0.038307227,0.38307226,-9.174581,0.80456203,47.675243,-1.0128484,-1.4906595,-3.2751477,-0.23961684,0.10096173,-0.33457065,25.3125,25.9375,25.125,27.625,28.25,28.5625
0.2460536,-0.7732767,-1.1467874,-0.94644386,-0.01647911,0.0070620948,-0.11739933,-0.38722783,-0.32991377,0.060067438,3.0774002,-0.629282,-0.00010545419,-0.116484225,-0.014527967,0.0002702535,-0.003718595,-0.003643228,-0.019509126,0.43821225,-1.4440515,1.9788016,-2.1044338,-1.5701922,2.4160423,-0.077577055,0.2239036,-0.2606904,0.038512636,0.00446452,-0.05790454,0.019153614,0.4213795,-9.385271,0.87617236,47.658226,-1.1205608,-1.4013436,-3.3351064,-0.2551696,0.121785976,-0.30231935,25.3125,25.9375,25.125,27.625,28.25,28.5625
0.24805368,-0.78512424,-1.24702,-0.97058064,-0.04097731,0.021780076,-0.12589814,-0.3874699,-0.32992348,0.06005904,3.0773902,-0.6294339,-5.9883605e-05,-0.118449755,-0.014415544,0.0012758593,-0.0050345208,-0.00096021866,-0.019923,0.43801957,-1.4435844,1.9782747,-2.1043384,-1.5701922,2.415946,-0.07944535,0.22408208,-0.26312348,0.037780747,0.0045093494,-0.059357867,0.038307227,0.3256114,-9.289502,0.8537928,47.67793,-0.90743876,-1.3340561,-3.4494815,-0.25780717,0.12571773,-0.30365905,25.3125,25.9375,25.125,27.625,28.25,28.5625
0.25005355,-0.95814216,-1.437463,-0.8735874,-0.049559973,0.02986254,-0.12932216,-0.38771057,-0.32998314,0.060078997,3.0773299,-0.629399,-7.0125476e-05,-0.11711911,-0.01452347,-0.0014910555,-0.001956919,-0.006920239,-0.014748143,0.43788835,-1.4431391,1.9777125,-2.1042664,-1.570144,2.415801,-0.07786234,0.22949913,-0.2633117,0.039260607,0.0042563924,-0.06294884,-0.095768064,0.21068975,-9.346964,0.86945957,47.63225,-1.1921072,-1.6082363,-3.4528859,-0.26146597,0.1262344,-0.2726295,25.3125,25.9375,25.125,27.625,28.25,28.5625
0.25205448,-0.8729805,-1.8858559,-0.7921237,-0.03520306,0.03831329,-0.12449465,-0.38790748,-0.32999313,0.060039338,3.0773842,-0.62946767,4.3258322e-05,-0.11782795,-0.013413266,-0.0031353722,-0.0007254517,-0.010874492,-0.01504634,0.4377432,-1.4426706,1.9772576,-2.104182,-1.5701555,2.415692,-0.08083009,0.23350954,-0.26443887,0.04047987,0.0048113093,-0.06561874,-0.11492168,0.22984336,-9.251195,0.90750587,47.634937,-1.070531,-1.7244556,-3.5436664,-0.30916026,0.122385636,-0.2171848,25.3125,25.9375,25.125,27.625,28.25,28.5625
0.25405362,-0.36117396,-0.9627292,-0.8095565,-0.018954227,0.036630526,-0.12914911,-0.38815412,-0.33002925,0.060034487,3.077364,-0.62948036,4.0849587e-05,-0.11875867,-0.014632631,-0.0028970563,-0.002002299,-0.009609402,-0.011662989,0.43758765,-1.4421909,1.9767188,-2.1041343,-1.5701436,2.4155474,-0.0797269,0.23550345,-0.26709962,0.039460152,0.0054235677,-0.067897804,-0.095768064,0.13407528,-9.212888,0.784413,47.65912,-1.0051407,-1.7735635,-3.5553188,-0.31105512,0.11939025,-0.19061172,25.3125,25.9375,25.125,27.625,28.25,28.5625
0.2560538,-0.7993526,-0.4302966,-0.8349683,-0.006514934,0.017019834,-0.12412022,-0.38839927,-0.33006856,0.060038414,3.0773416,-0.62945527,4.911234e-05,-0.11993889,-0.014904958,-0.002790404,-0.0026256153,-0.007719781,-0.010073743,0.43743154,-1.4417231,1.9761676,-2.1040628,-1.5701197,2.4153788,-0.08001692,0.23670174,-0.26836047,0.03755128,0.0051807025,-0.06977563,-0.05746084,0.22984336,-9.212888,0.91198283,47.66539,-1.2064574,-1.6472491,-3.5030532,-0.3056305,0.100812644,-0.14815815,25.3125,25.9375,25.125,27.625,28.25,28.5625
0.258054,-0.574389,-0.39509967,-0.6317302,-0.009897084,0.024079403,-0.12355767,-0.3886366,-0.33008453,0.060020484,3.0773306,-0.6294907,0.000107841865,-0.122118235,-0.015378345,-0.0018783823,-0.003895388,-0.00457325,-0.009319844,0.4372392,-1.4412518,1.975665,-2.1040037,-1.5700954,2.4152102,-0.08082731,0.23805286,-0.2717708,0.036226593,0.0049855732,-0.07133771,-0.19153613,0.19153613,-9.174581,0.9254084,47.66539,-1.1727228,-1.852537,-3.570887,-0.3029361,0.09110351,-0.106034756,25.3125,25.9375,25.125,27.625,28.25,28.5625
0.2600546,-0.79220665,-0.5087756,-0.65863246,-0.00999268,0.018780302,-0.13039462,-0.38887018,-0.33010748,0.060006827,3.0773556,-0.6295922,0.00014086043,-0.12412122,-0.015783507,-0.0010799003,-0.0048669237,-0.0022105635,-0.009792548,0.43709502,-1.4407637,1.9751252,-2.1039083,-1.5701197,2.4151266,-0.08166056,0.23961352,-0.27534074,0.035683796,0.004853261,-0.07169626,-0.24899697,0.19153613,-9.174581,0.90750587,47.67166,-1.114135,-1.7915871,-3.5115614,-0.3008074,0.111645594,-0.075911224,25.3125,25.9375,25.125,27.625,28.25,28.5625
0.26205528,-0.9110961,-0.5695907,-0.9149786,-0.021376861,0.027613211,-0.12546997,-0.38908732,-0.33013082,0.059991557,3.07739,-0.6296004,0.00021648586,-0.12656556,-0.0155605925,0.00012346492,-0.0057777474,0.00014742439,-0.013367082,0.4369502,-1.4402966,1.9746097,-2.1038,-1.5701202,2.4149828,-0.08399486,0.2405161,-0.27934963,0.03626912,0.004668859,-0.07045415,-0.34476504,0.3256114,-9.212888,0.88960326,47.6636,-1.0900097,-1.6099715,-3.391552,-0.3094861,0.1173399,-0.06000475,25.3125,25.9375,25.125,27.625,28.25,28.5625
0.26405406,-1.2988521,-1.6301192,-0.7734444,-0.03706747,0.04947363,-0.12250165,-0.389358,-0.33018446,0.060004346,3.0773563,-0.6295743,0.00017015335,-0.12657775,-0.01648094,-0.00022688128,-0.0054927757,-0.00028038444,-0.013770411,0.43680683,-1.4397928,1.9739994,-2.10374,-1.5701083,2.4148278,-0.08218796,0.24265014,-0.28109428,0.03638885,0.004591255,-0.068242624,-0.6703765,0.36391866,-9.232041,0.85826975,47.67345,-1.1421078,-1.495336,-3.4734013,-0.30955246,0.11322613,-0.076981135,25.3125,25.9375,25.125,27.625,28.25,28.5625
0.2660533,-1.9787674,-1.7812053,-0.7478174,-0.068514965,0.06664122,-0.12782408,-0.38961017,-0.33020073,0.059993852,3.0773306,-0.6297042,0.00023834362,-0.12797308,-0.017085312,8.6491615e-05,-0.0061206557,0.0005829108,-0.016098231,0.43660277,-1.4393007,1.9734472,-2.1036446,-1.570084,2.4147084,-0.08232619,0.24490334,-0.28448442,0.03647894,0.004785668,-0.06605156,-0.68953013,0.3256114,-9.174581,0.88960326,47.675243,-1.1856976,-1.7236806,-3.4078376,-0.3179295,0.10972905,-0.067247584,25.3125,25.9375,25.125,27.625,28.25,28.5625
0.2680532,-2.3430371,-1.9558637,-0.8327011,-0.06474423,0.086465016,-0.122138746,-0.3898579,-0.33024433,0.059988357,3.0773082,-0.62970424,0.00029018498,-0.13032955,-0.015697595,0.0007169655,-0.0068492386,0.0020360088,-0.023250476,0.43644506,-1.4387976,1.9728736,-2.1035607,-1.5700477,2.4145539,-0.08685409,0.24516523,-0.28632966,0.036439184,0.0048267464,-0.06342657,-0.7086837,0.38307226,-9.308656,0.91421866,47.66539,-0.995648,-1.5043311,-3.3961062,-0.34023705,0.09378635,-0.09443099,25.3125,25.9375,25.125,27.625,28.25,28.5625
0.27005407,-2.7089162,-2.0111163,-0.856487,-0.051228233,0.10607567,-0.122911535,-0.3900994,-0.3302649,0.05996303,3.0773425,-0.6297677,0.0003279173,-0.13044728,-0.016787471,0.0010510636,-0.0074630794,0.0034265285,-0.023341788,0.43629003,-1.4382823,1.9723343,-2.1034896,-1.5700716,2.4144344,-0.0848556,0.24564391,-0.2875854,0.03569505,0.0047885147,-0.0613363,-0.8619126,0.34476504,-9.346964,0.85826975,47.66808,-1.1778414,-1.5660615,-3.4379647,-0.33389166,0.09633669,-0.11642669,25.3125,25.9375,25.125,27.625,28.25,28.5625
0.27205384,-2.6215336,-1.6063997,-0.7835352,-0.03875488,0.10837358,-0.13455495,-0.39037073,-0.33030233,0.05996723,3.0772505,-0.62994313,0.00037298712,-0.13154435,-0.016187234,-0.000115501105,-0.007149972,0.0024980295,-0.027621465,0.43608534,-1.437778,1.9717368,-2.1034062,-1.5700115,2.4143512,-0.08687877,0.24872872,-0.28816792,0.034169793,0.004893658,-0.059079017,-0.7852981,0.2873042,-9.385271,0.89631605,47.66271,-1.0561613,-1.4870404,-3.644382,-0.31160492,0.096671626,-0.14486817,25.3125,25.9375,25.125,27.625,28.25,28.5625
0.27405348,-2.2816403,-0.9934964,-0.78274524,-0.025700029,0.1009083,-0.12884913,-0.39066377,-0.3303219,0.059948325,3.0772562,-0.63002247,0.00032584326,-0.1331803,-0.01599253,-0.0007897698,-0.0076360162,0.0026264403,-0.03126568,0.4358926,-1.4372146,1.9711388,-2.1033828,-1.5700477,2.4142077,-0.08880033,0.25189048,-0.2899383,0.032453466,0.005273662,-0.0573553,-0.6703765,0.21068975,-9.481039,0.842603,47.67166,-1.0126841,-1.6446484,-3.699899,-0.28902078,0.053723086,-0.16388488,25.3125,25.9375,25.125,27.625,28.25,28.5625
0.27605355,-2.5135305,-1.2472901,-0.8254314,-0.007451655,0.08190623,-0.11654617,-0.39092126,-0.33037466,0.05993884,3.0772092,-0.6300523,0.00037099473,-0.13491279,-0.015965914,-0.0006549539,-0.008323872,0.004618764,-0.033719253,0.43573606,-1.4366866,1.9705509,-2.1033237,-1.5699996,2.414076,-0.09010763,0.2534928,-0.29175472,0.030574955,0.0050487877,-0.056207374,-0.6512228,0.15322891,-9.461885,0.8940802,47.65912,-0.9276693,-1.6780951,-3.7244492,-0.27833742,0.07019657,-0.17990732,25.3125,25.9375,25.125,27.5625,28.25,28.5625
0.27805355,-1.4247489,-0.21444224,-0.9723622,-0.0046348316,0.07165799,-0.12982953,-0.39118502,-0.33039525,0.05992926,3.077162,-0.630217,0.0004087572,-0.13798504,-0.016235016,0.00028654322,-0.009905071,0.00794389,-0.036773805,0.43553138,-1.436183,1.9699878,-2.1032526,-1.5699757,2.4139805,-0.092170715,0.25585115,-0.29636925,0.029151194,0.0050670784,-0.055213146,-0.5363012,0.076614454,-9.442732,0.9164598,47.66271,-0.9023609,-1.7660444,-3.674611,-0.24314183,0.08253577,-0.19682461,25.3125,25.9375,25.125,27.5625,28.25,28.5625
0.28005347,-0.99694204,0.18478297,-0.8374057,-0.004526305,0.054147903,-0.12599127,-0.39148664,-0.33042353,0.059930462,3.077153,-0.63033074,0.00028431136,-0.1401466,-0.01633041,0.0009822802,-0.0108087305,0.010287954,-0.038894136,0.43536314,-1.4356391,1.969365,-2.1032288,-1.5700353,2.4138849,-0.09364262,0.2574094,-0.29968163,0.028396808,0.0048937723,-0.05456237,-0.49799395,0.076614454,-9.346964,0.8985519,47.67166,-0.83913606,-1.8658495,-3.4946427,-0.20037693,0.080368906,-0.22544888,25.3125,25.9375,25.125,27.5625,28.25,28.5625
0.2820546,-0.8361413,0.031539075,-0.92252326,0.0050598197,0.03650962,-0.13040061,-0.39177102,-0.33045122,0.05992715,3.0770857,-0.6304708,0.00030005063,-0.14145839,-0.016137637,0.00047100737,-0.00995709,0.009964323,-0.039735004,0.4351467,-1.4351149,1.9687661,-2.1031687,-1.57,2.4137647,-0.09459926,0.26057306,-0.30222806,0.02843759,0.0042562643,-0.05467573,-0.40222588,0.076614454,-9.404425,0.9164598,47.67793,-0.7449883,-1.8446355,-3.4800313,-0.20229942,0.095169656,-0.25062406,25.3125,25.9375,25.125,27.5625,28.25,28.5625
0.28405368,-0.72674,0.0037009334,-1.0551213,-0.0042976197,0.036460552,-0.13084438,-0.39205846,-0.33051115,0.05992272,3.0770144,-0.6305135,0.00030073908,-0.14309771,-0.015809564,0.0004077713,-0.009284475,0.010284425,-0.03950002,0.43497828,-1.4345516,1.968131,-2.103133,-1.5699519,2.4136324,-0.096019246,0.2631511,-0.30523863,0.028870512,0.0035103895,-0.056328062,-0.36391866,0.1340753,-9.461885,0.87617236,47.686886,-0.7028084,-1.8801968,-3.506668,-0.16545896,0.08921906,-0.2560061,25.3125,25.9375,25.125,27.5625,28.25,28.5625
0.28605416,-1.0651549,-0.5557017,-1.3388096,-0.011771009,0.036294263,-0.12909347,-0.39232904,-0.33049354,0.059898697,3.0770793,-0.63073975,0.00034177495,-0.14367338,-0.015574328,3.0090061e-05,-0.008489909,0.009512613,-0.04239834,0.434762,-1.4340115,1.9675444,-2.1030004,-1.5700248,2.4135494,-0.09658126,0.26497284,-0.30673546,0.029577255,0.0031108242,-0.053990927,-0.38307226,0.095768064,-9.576807,0.87393653,47.67166,-0.6963889,-1.912045,-3.5114064,-0.14539751,0.10046281,-0.28868848,25.3125,25.9375,25.125,27.5625,28.25,28.5625
0.28805402,-1.0409783,-1.2861017,-1.1783378,-0.027345847,0.039194334,-0.12239771,-0.39263442,-0.33053374,0.05990252,3.0769918,-0.6308556,0.00027671517,-0.14396743,-0.015853308,-0.0001129087,-0.008055607,0.008686629,-0.04256779,0.43455824,-1.433472,1.9669222,-2.102988,-1.5700005,2.4134295,-0.09618836,0.2666255,-0.30869934,0.030822495,0.0030693442,-0.05342761,-0.21068975,0.05746084,-9.576807,0.83813137,47.66808,-0.7419388,-1.9736857,-3.5877771,-0.13697736,0.10742052,-0.32220358,25.3125,25.9375,25.125,27.5625,28.25,28.5625
0.29005334,-0.85968274,-1.1969086,-0.9762123,-0.045107402,0.04128838,-0.1323833,-0.39289093,-0.33058345,0.059907284,3.0769725,-0.63088953,0.00031690643,-0.14508851,-0.016230984,0.00019994134,-0.008167579,0.008522645,-0.04189334,0.43441412,-1.4329561,1.9662994,-2.1028678,-1.5699767,2.4133093,-0.09648089,0.26873598,-0.31229898,0.032415114,0.0032368659,-0.054393288,-0.21068975,0.1340753,-9.500193,0.8717007,47.66808,-0.7221347,-1.8651434,-3.592615,-0.12481505,0.12012014,-0.33863413,25.3125,25.9375,25.125,27.5625,28.25,28.5625
0.29205367,-0.11432546,-0.22998235,-1.277366,-0.04951708,0.04927031,-0.14134614,-0.39321223,-0.33061984,0.059923362,3.0768776,-0.6309837,0.00019551822,-0.14483899,-0.015975853,0.0006313095,-0.008021024,0.0076560527,-0.040968873,0.43419805,-1.4324291,1.9656652,-2.102867,-1.5699643,2.4131646,-0.096779004,0.26781934,-0.31292465,0.0348067,0.0034810866,-0.055616464,-0.17238252,0.17238252,-9.500193,0.9231726,47.642998,-0.76715934,-1.9589288,-3.619478,-0.13160957,0.1057675,-0.344671,25.3125,25.9375,25.125,27.5625,28.25,28.5625
0.2940537,-0.23509681,-0.62507176,-1.4948624,-0.026282826,0.035565857,-0.12625438,-0.39352548,-0.3306306,0.059905015,3.0768404,-0.6312083,0.00018570718,-0.1453947,-0.01598696,0.00086830754,-0.008421672,0.007986038,-0.044571817,0.43395814,-1.4318422,1.965031,-2.1028192,-1.5699762,2.41307,-0.09726209,0.26817492,-0.31409934,0.03515561,0.00370553,-0.052496627,-0.095768064,0.24899697,-9.595961,0.8224646,47.67166,-0.8447436,-1.7594395,-3.6290793,-0.10963577,0.09870358,-0.4029593,25.3125,25.9375,25.125,27.5625,28.25,28.5625
0.29605383,-0.5413505,-0.9831511,-1.1869762,-0.026653938,0.01870477,-0.121683255,-0.3938238,-0.33066055,0.05991026,3.0768118,-0.63135463,0.00016035985,-0.14592408,-0.016946198,0.0014579323,-0.009020806,0.00835481,-0.042272188,0.43376622,-1.4312911,1.964372,-2.1027234,-1.5699881,2.4129734,-0.09611245,0.26931256,-0.31718853,0.036520258,0.0040936554,-0.05364586,-0.05746084,0.2681506,-9.615114,0.90750587,47.65464,-0.7039207,-1.7963617,-3.67878,-0.11024113,0.11294788,-0.42317212,25.3125,25.9375,25.125,27.5625,28.25,28.5625
0.29805386,0.049926028,-1.1786966,-1.3353153,-0.025188943,0.023675157,-0.13042462,-0.3940939,-0.33068994,0.059910573,3.07677,-0.63149863,0.00020088788,-0.14692783,-0.016818117,0.0008734918,-0.0082937945,0.007149487,-0.041102316,0.43357417,-1.4307752,1.9637612,-2.1026146,-1.5699643,2.4128768,-0.097001724,0.27246797,-0.31975052,0.03733014,0.003938619,-0.05570354,0.0,0.24899697,-9.557653,0.9858343,47.658226,-0.8474047,-1.8390715,-3.5611067,-0.08283433,0.12617259,-0.44278988,25.3125,25.9375,25.125,27.5625,28.25,28.5625
0.30005342,-0.4030873,-1.0740625,-1.5576911,-0.02583655,0.0055544646,-0.11982722,-0.39440703,-0.33074147,0.059912585,3.076713,-0.63158274,0.00015392611,-0.14818881,-0.016699929,0.0007294527,-0.008346545,0.0076796724,-0.040066604,0.43339354,-1.4301878,1.9630789,-2.102567,-1.5699519,2.4127564,-0.09806927,0.27440476,-0.32164967,0.036792737,0.0037635772,-0.05780538,0.05746084,0.24899697,-9.595961,0.93436235,47.685097,-0.66907346,-1.7489625,-3.6777115,-0.07140194,0.11605079,-0.44082558,25.3125,25.9375,25.125,27.5625,28.25,28.5625
0.3020547,-0.5469133,-1.431715,-1.6647093,-0.02258168,0.0052904347,-0.1195199,-0.39467633,-0.33074886,0.059896927,3.0767517,-0.6316458,0.00016832934,-0.14922212,-0.017128592,0.00075935014,-0.008532306,0.008049134,-0.038166963,0.43320164,-1.4296595,1.9624928,-2.1024716,-1.5699881,2.4125993,-0.09807347,0.27653995,-0.32430705,0.036901534,0.003771963,-0.059708007,0.15322891,0.2681506,-9.595961,0.9768804,47.67793,-0.82509744,-1.9004664,-3.590506,-0.04075928,0.11878509,-0.43912882,25.3125,25.9375,25.125,27.5625,28.25,28.5625
0.30405405,-0.08360629,-1.2934774,-1.1911618,-0.037827272,0.022937214,-0.12701952,-0.39500523,-0.33077058,0.059893563,3.076678,-0.6318963,0.00012529966,-0.1485063,-0.01707004,-0.000379176,-0.0069874683,0.0044489084,-0.033147883,0.43296185,-1.4290717,1.9618214,-2.102423,-1.5699881,2.4125257,-0.09752905,0.27893725,-0.32511607,0.03923284,0.0038899516,-0.06418273,0.076614454,0.24899697,-9.557653,0.90750587,47.67793,-0.7848332,-1.8780379,-3.576233,-0.044112906,0.13438237,-0.42142278,25.3125,25.9375,25.125,27.5625,28.25,28.5625
0.30605352,0.029972184,-0.92956334,-0.9939683,-0.05339237,0.033243757,-0.13413407,-0.39531773,-0.33085218,0.059941176,3.0765758,-0.6318342,4.7900776e-05,-0.14981823,-0.018214216,-0.00035832598,-0.0072440277,0.0039647575,-0.028489886,0.43280613,-1.428544,1.9610909,-2.1023266,-1.569928,2.4123447,-0.096742235,0.2829634,-0.33019522,0.040623367,0.0043277727,-0.068051316,0.095768064,0.28730422,-9.461885,0.98807013,47.655537,-0.85960495,-1.9238257,-3.591737,-0.042858295,0.13275078,-0.3937871,25.3125,25.9375,25.125,27.5625,28.25,28.5625
0.30805323,-0.58430403,-1.3731819,-1.457288,-0.03302785,0.014129688,-0.11826669,-0.3955789,-0.3308506,0.059876088,3.0766618,-0.63189065,0.00022362688,-0.15011811,-0.017149406,-0.0009409328,-0.006944274,0.0021318938,-0.028650375,0.4325892,-1.4279202,1.9605054,-2.102218,-1.5699395,2.4121523,-0.09915135,0.2836143,-0.32998812,0.0415551,0.004818618,-0.07030173,0.076614454,0.49799395,-9.595961,0.97240865,47.66539,-0.7845719,-1.9717349,-3.5923152,-0.042749614,0.1157521,-0.3925689,25.3125,25.9375,25.125,27.5625,28.25,28.5625
0.31005394,-0.20491159,-1.7334453,-1.1842318,-0.055162836,0.018354662,-0.12660386,-0.39591312,-0.33090138,0.059922487,3.0765598,-0.63209474,0.00010191943,-0.15078722,-0.019154714,0.00051547505,-0.008501473,0.004425155,-0.020876134,0.43239853,-1.4273813,1.9597615,-2.1021101,-1.5699395,2.4121025,-0.096251145,0.28414008,-0.33429515,0.042604286,0.0052742874,-0.075174056,0.11492168,0.53630114,-9.519346,0.85155696,47.664497,-1.0093641,-1.8122262,-3.6034732,-0.030962642,0.13439201,-0.32721055,25.3125,25.9375,25.125,27.5625,28.25,28.5625
0.31205413,-0.52733845,-2.1540666,-0.93274397,-0.071896866,0.007669438,-0.11977281,-0.3962024,-0.33091632,0.059899736,3.0765767,-0.6321171,0.0001495559,-0.15325648,-0.01779451,0.0009565291,-0.008590391,0.0051755933,-0.02125412,0.43218088,-1.4268055,1.9591388,-2.1020262,-1.5699395,2.411897,-0.10054702,0.2855094,-0.33720765,0.043433573,0.0050365455,-0.079090714,0.05746084,0.47884035,-9.404425,0.91198283,47.666286,-0.89525735,-1.8829395,-3.5267186,-0.024256816,0.12891278,-0.24854773,25.3125,25.9375,25.125,27.5625,28.25,28.5625
0.31405392,-0.10718961,-1.5922956,-1.2387124,-0.05696383,0.003229383,-0.121865444,-0.3965366,-0.3309907,0.059945773,3.0764558,-0.63208914,1.4771388e-05,-0.15278517,-0.019692976,0.002638523,-0.009554505,0.0080900015,-0.016533637,0.4320026,-1.4262673,1.9584097,-2.101978,-1.5698918,2.4117172,-0.096365325,0.2835683,-0.3391783,0.044301495,0.0047025364,-0.079628296,0.11492168,0.4405331,-9.346964,0.87617236,47.66808,-1.0262518,-1.6323446,-3.5919437,-0.011150921,0.1260919,-0.23417106,25.3125,25.9375,25.125,27.5625,28.25,28.5625
0.31605327,0.2520868,-0.9882611,-1.101898,-0.045838807,0.012505077,-0.12038572,-0.39684495,-0.33103454,0.059935864,3.0764337,-0.6321226,-1.3862415e-05,-0.15415351,-0.019231884,0.0028127772,-0.009544042,0.0079932725,-0.016968675,0.43182182,-1.425668,1.9577383,-2.1019294,-1.5698918,2.4115605,-0.09827253,0.285088,-0.34172556,0.04542326,0.0047352067,-0.081099465,0.019153614,0.49799395,-9.423578,0.9030289,47.658226,-1.0363086,-1.5531135,-3.5456443,-0.01749867,0.14398848,-0.2019617,25.3125,25.9375,25.125,27.5625,28.25,28.5625
0.31805423,-0.35130996,-1.3242896,-1.2151029,-0.028706182,0.006396914,-0.12445134,-0.39713663,-0.33107316,0.059943806,3.07645,-0.632126,-6.8035442e-06,-0.15348631,-0.018497806,0.0016677389,-0.008189013,0.0045675454,-0.01708021,0.43165356,-1.4251045,1.957045,-2.101786,-1.5699037,2.4113927,-0.09907959,0.28642508,-0.34120032,0.04723911,0.0049440525,-0.08179602,0.11492168,0.3256114,-9.3661175,0.9388393,47.668976,-0.95731866,-1.5609617,-3.6629038,-0.028435001,0.14496513,-0.16333055,25.3125,25.9375,25.125,27.5625,28.25,28.5625
0.32005343,-0.16088451,-0.63592416,-1.0563109,-0.021748018,0.0062825,-0.11114203,-0.3974687,-0.33109328,0.059939496,3.076446,-0.6322028,-4.102161e-05,-0.1539344,-0.018820459,0.0020261966,-0.009016082,0.003591904,-0.018962042,0.43142533,-1.4244937,1.9563388,-2.101701,-1.5699271,2.4112134,-0.09950199,0.2872984,-0.34366566,0.049365755,0.0061046244,-0.080337055,0.11492168,0.19153613,-9.289503,0.94331104,47.658226,-0.9733336,-1.6529319,-3.6486335,-0.040298887,0.12755573,-0.15150803,25.3125,25.9375,25.125,27.5625,28.25,28.5625
0.3220543,-0.04888499,-0.05931561,-0.76612467,-0.015553299,0.016589925,-0.124277644,-0.3977591,-0.33114332,0.05993653,3.076348,-0.63229835,5.217259e-05,-0.1553689,-0.019476026,0.0016319092,-0.008876603,0.0013819339,-0.020825285,0.4312094,-1.4239289,1.9556788,-2.1016037,-1.5698313,2.4110699,-0.09992037,0.29229492,-0.34922084,0.051995628,0.006896165,-0.07889025,-0.095768064,0.1340753,-9.3661175,0.9768804,47.666286,-1.0539483,-1.633165,-3.5910676,-0.059329763,0.12631899,-0.15807474,25.3125,25.9375,25.125,27.5625,28.25,28.5625
0.32405448,-0.059821527,0.42496347,-1.0412611,0.0021849114,0.013033444,-0.1267966,-0.39807805,-0.3311896,0.05996652,3.0762775,-0.63238126,-2.5126226e-05,-0.15606768,-0.019559093,0.0011772071,-0.007859992,-0.00078622706,-0.023731502,0.43101728,-1.4233887,1.9549717,-2.1015074,-1.5698193,2.410939,-0.10023561,0.29560813,-0.3526963,0.054552957,0.0068816585,-0.07629736,-0.05746084,0.038307227,-9.3661175,0.86498255,47.692257,-0.959182,-1.7915186,-3.555466,-0.06825265,0.13588323,-0.16216025,25.3125,25.9375,25.125,27.5625,28.25,28.5625
0.32605377,-1.059495,0.23227449,-0.8245228,0.018183654,0.010599422,-0.11574546,-0.39837602,-0.33124998,0.059959378,3.0762632,-0.6323613,3.0086744e-06,-0.15681905,-0.019066492,0.000732012,-0.006428555,-0.002739177,-0.028657205,0.43086085,-1.4227759,1.954266,-2.1014106,-1.5697955,2.4107723,-0.1013432,0.29822204,-0.35539964,0.057016455,0.0063942643,-0.07247795,-0.11492168,0.095768064,-9.212888,0.9321212,47.685097,-1.0391247,-1.7353842,-3.501752,-0.11418611,0.10607365,-0.17687984,25.3125,25.9375,25.125,27.5625,28.25,28.5625
0.32805392,-0.6156375,0.4762216,-0.94194365,0.019758645,0.026236579,-0.11567089,-0.3986816,-0.33124405,0.05994083,3.076293,-0.63256055,9.030879e-05,-0.15755445,-0.019233655,0.0012826843,-0.00618353,-0.0030871567,-0.031771947,0.43060884,-1.4221745,1.9535826,-2.1012428,-1.5698193,2.4106412,-0.101477176,0.2992908,-0.3586388,0.059603397,0.0063080383,-0.06949675,-0.21068975,0.095768064,-9.251195,0.87617236,47.657326,-0.9521051,-1.7280762,-3.4422436,-0.15757759,0.11651139,-0.21218786,25.3125,25.9375,25.125,27.5625,28.25,28.5625
0.330054,-0.8128868,-0.15436807,-1.1021935,0.0070814164,0.035596967,-0.12610468,-0.39900216,-0.33130184,0.05996366,3.0762758,-0.63255954,2.5628055e-05,-0.15742357,-0.01850775,0.00014900228,-0.004762451,-0.0066307713,-0.035647374,0.43045232,-1.4215852,1.9528292,-2.1011217,-1.5698313,2.4104867,-0.10270148,0.30163428,-0.35940462,0.06183668,0.006500169,-0.06684559,-0.30645782,0.15322891,-9.346964,0.9097417,47.650166,-1.0262127,-1.7563188,-3.3687558,-0.1823424,0.12688042,-0.2443846,25.3125,25.9375,25.125,27.5625,28.25,28.5625
0.33205432,-1.4511043,-0.7441747,-0.97254074,-0.021370921,0.0499832,-0.117259495,-0.39934266,-0.33135274,0.06000668,3.0761766,-0.6326921,-2.6424197e-05,-0.15700431,-0.017587762,0.00011344255,-0.0037849688,-0.008217347,-0.0374971,0.43023607,-1.4210207,1.9520525,-2.1009777,-1.5697955,2.4103663,-0.10374838,0.30074018,-0.35899052,0.06417051,0.0062828567,-0.066043295,-0.47884035,0.11492168,-9.346964,0.98135734,47.650166,-0.92233384,-1.7276678,-3.7157261,-0.2307864,0.109982155,-0.28415495,25.3125,25.9375,25.125,27.5625,28.25,28.5625
0.33405393,-1.4178594,-1.2007123,-1.140343,-0.036623783,0.07634037,-0.12813872,-0.39963418,-0.3313746,0.059999883,3.0761533,-0.63284045,8.5918145e-05,-0.15673368,-0.01763675,-0.0008313482,-0.0024235551,-0.0099853715,-0.036247965,0.43000838,-1.420444,1.9513696,-2.1008098,-1.5697597,2.4102345,-0.10298987,0.30290622,-0.35962468,0.06481951,0.005777295,-0.06653368,-0.4213795,0.17238252,-9.3661175,0.8806493,47.66808,-0.9757247,-1.5439054,-3.7351165,-0.26364863,0.123938896,-0.2726398,25.3125,25.9375,25.125,27.5625,28.25,28.5625
0.33605462,-1.7418722,-1.4868001,-1.0778209,-0.036244173,0.084361896,-0.12069326,-0.39994174,-0.3314098,0.059996862,3.0761554,-0.6329392,0.00013594142,-0.15901622,-0.01625754,0.0008846009,-0.0028067755,-0.007823903,-0.03977463,0.4298148,-1.4198315,1.9506396,-2.1006534,-1.5697597,2.4101026,-0.10691587,0.30154917,-0.36268616,0.067117155,0.0052196165,-0.06693224,-0.45968673,0.24899697,-9.461885,0.9455522,47.658226,-0.86299014,-1.4732165,-3.7706761,-0.3049976,0.11400989,-0.29934543,25.3125,25.9375,25.125,27.5625,28.25,28.5625
0.3380542,-1.5003135,-0.855769,-0.9339448,-0.04348479,0.09585344,-0.12784809,-0.4002481,-0.33142588,0.059967343,3.0761492,-0.63306975,0.00027831018,-0.15999573,-0.018701736,0.0020219868,-0.004907015,-0.003742959,-0.03618683,0.4295644,-1.4191947,1.9499449,-2.1005104,-1.5697235,2.4099348,-0.103307545,0.30261427,-0.36619884,0.064983085,0.005409612,-0.06691047,-0.7278373,0.17238252,-9.423578,1.005978,47.66808,-1.0537608,-1.301687,-3.6626945,-0.34027615,0.12293642,-0.32543075,25.3125,25.9375,25.125,27.5625,28.25,28.5625
0.3400543,-1.4473093,-0.8271114,-1.2410452,-0.022220632,0.097376995,-0.11858676,-0.40056306,-0.33148846,0.059991024,3.076092,-0.6331557,0.00023056366,-0.16339748,-0.018228712,0.0010604084,-0.005518447,-0.0030587066,-0.03989997,0.4294069,-1.4186164,1.949201,-2.100392,-1.5697116,2.4098387,-0.107058905,0.30851704,-0.37033135,0.06233704,0.0056684944,-0.06694561,-0.63206923,0.17238252,-9.519346,1.0328293,47.687782,-0.9016919,-1.459643,-3.6743217,-0.33509797,0.12829868,-0.32617342,25.3125,25.9375,25.125,27.5625,28.25,28.5625
0.3420548,-1.8593991,-0.6239792,-1.2696253,-0.02540661,0.083904095,-0.11970994,-0.40092456,-0.33153644,0.060032587,3.0759938,-0.6332868,8.610947e-05,-0.16466701,-0.020050073,0.0011436446,-0.007047064,-0.0012000501,-0.03810507,0.42919186,-1.4180384,1.9484242,-2.1003087,-1.5697111,2.4097185,-0.10508711,0.31178218,-0.3739912,0.060404625,0.0062800576,-0.06676632,-0.47884035,0.15322891,-9.634268,0.92764956,47.666286,-1.0096784,-1.5827558,-3.5582933,-0.3188154,0.11299084,-0.36128914,25.3125,25.9375,25.125,27.5625,28.25,28.5625
0.344054,-2.1959136,-1.0997353,-1.3163897,-0.023795782,0.07696365,-0.11980869,-0.4012451,-0.33153585,0.060007386,3.0760212,-0.63346624,0.000158103,-0.16543968,-0.01997607,0.00034366982,-0.006249465,-0.0016916711,-0.039076045,0.42893973,-1.4174012,1.947718,-2.1001651,-1.5697359,2.4095752,-0.105389945,0.31458962,-0.37544593,0.059832238,0.0057497416,-0.06609732,-0.49799395,0.24899697,-9.500193,0.87393653,47.68062,-1.0251107,-1.7251024,-3.5100164,-0.32968187,0.11604597,-0.39321512,25.3125,25.9375,25.125,27.5625,28.25,28.5625
0.34605452,-1.3879516,-1.3729221,-1.3473699,-0.03877112,0.08537204,-0.120644376,-0.40157086,-0.33157924,0.060018558,3.075984,-0.63357234,0.00012885821,-0.16791208,-0.019836482,-0.00014420012,-0.0073120124,0.001843333,-0.038028214,0.42874697,-1.4167999,1.9469756,-2.1000478,-1.5697359,2.4094539,-0.10724342,0.3172853,-0.37636963,0.054409217,0.0052352245,-0.06899656,-0.59376204,0.30645782,-9.557653,0.99031126,47.67345,-0.95217466,-1.5631993,-3.6586564,-0.2988086,0.12357856,-0.38797092,25.3125,25.9375,25.125,27.5625,28.25,28.5625
0.3480546,-2.0080278,-2.0447383,-1.480101,-0.064603366,0.0735476,-0.117931984,-0.40192983,-0.3316225,0.06003121,3.075931,-0.6336775,9.9772435e-05,-0.16946955,-0.019652177,4.509529e-05,-0.0078074997,0.003919382,-0.040316783,0.42851865,-1.4161505,1.9461735,-2.0999281,-1.5697235,2.4092984,-0.10846026,0.31834796,-0.37782982,0.05271537,0.004818785,-0.06792357,-0.4213795,0.3256114,-9.634268,0.9388393,47.683304,-0.93547547,-1.7755554,-3.7420182,-0.26892412,0.13310637,-0.4096136,25.3125,25.9375,25.125,27.5625,28.25,28.5625
0.3500539,-1.7349715,-3.0538962,-1.2270968,-0.07260398,0.0870787,-0.12154142,-0.40228593,-0.33167475,0.0600722,3.0758314,-0.6337514,-1.2018977e-05,-0.17057042,-0.019309416,0.00016863586,-0.008025565,0.005834316,-0.038343802,0.42830217,-1.4155738,1.9453958,-2.0998333,-1.5697001,2.4091413,-0.10947193,0.31867006,-0.378261,0.05099969,0.004227539,-0.07090709,-0.30645782,0.30645782,-9.500193,1.0015011,47.655537,-0.75597215,-1.6457047,-3.8092184,-0.24518393,0.13478047,-0.3913749,25.3125,25.9375,25.125,27.5625,28.25,28.5625
0.35205427,-1.6427783,-2.2792327,-1.1655892,-0.06899103,0.06397233,-0.11657905,-0.40260723,-0.3317075,0.060036924,3.0758796,-0.633758,3.1944037e-05,-0.17230318,-0.019356357,-0.0008348688,-0.008060379,0.005822289,-0.03343378,0.42810994,-1.4148881,1.9446663,-2.099738,-1.569724,2.4089475,-0.11071982,0.32300705,-0.38074577,0.04914874,0.0042563374,-0.077063516,-0.24899697,0.34476504,-9.3661175,1.0305934,47.642998,-0.88711816,-1.5340405,-3.8397343,-0.21707077,0.14385708,-0.32400703,25.3125,25.9375,25.125,27.5625,28.25,28.5625
0.35405397,-0.9292806,-1.6575159,-1.1867001,-0.03666614,0.05097614,-0.116966225,-0.40298897,-0.33175823,0.060084462,3.0757432,-0.63390243,-0.00012497626,-0.17539346,-0.020658467,0.00088932185,-0.010754184,0.011076478,-0.03307742,0.42786977,-1.4142984,1.9438633,-2.0996668,-1.5697001,2.4088154,-0.110950604,0.32459602,-0.3862256,0.04714401,0.004524054,-0.07764743,-0.22984336,0.34476504,-9.385271,0.95226496,47.66808,-0.80169,-1.6079752,-3.8016987,-0.16890036,0.14396124,-0.32203785,25.3125,25.9375,25.125,27.5625,28.25,28.5625
0.3560542,-0.33776245,-0.9819847,-1.1453758,-0.023830403,0.048869174,-0.12119518,-0.40333351,-0.3317831,0.060069237,3.0756764,-0.6340777,-8.82374e-05,-0.17734653,-0.021469777,0.0018570182,-0.0129220495,0.014316869,-0.029920291,0.42760575,-1.4136496,1.9431323,-2.0995834,-1.5696634,2.4086697,-0.111353375,0.32557702,-0.38938093,0.04547617,0.0051486376,-0.08120629,-0.22984336,0.36391866,-9.32781,0.9612189,47.65464,-0.83149445,-1.4927883,-3.5800567,-0.12297571,0.16436994,-0.27979562,25.3125,25.9375,25.125,27.5625,28.25,28.5625
0.35805455,-0.48370585,-0.4164938,-1.1364176,-0.016423654,0.03257975,-0.12370792,-0.4036762,-0.33182067,0.060052637,3.0756726,-0.6340929,-8.6651125e-05,-0.17884816,-0.022408701,0.0034953237,-0.014510527,0.017894229,-0.025697313,0.42739004,-1.4129776,1.9423774,-2.0995,-1.5696634,2.4084644,-0.110739544,0.32517472,-0.39285368,0.045442205,0.005110418,-0.08481432,-0.19153613,0.45968673,-9.308657,0.97464454,47.668976,-0.885111,-1.5115564,-3.5492868,-0.095356464,0.14401752,-0.21696171,25.3125,25.9375,25.125,27.5625,28.25,28.5625
0.36005396,-0.4057313,-1.0586255,-1.1082656,-0.027509794,0.03949606,-0.11689317,-0.4040778,-0.33188894,0.060093686,3.0755553,-0.6342031,-0.0002497701,-0.17983572,-0.022214698,0.0025513973,-0.013896081,0.015789477,-0.025028568,0.4271736,-1.4123154,1.9415044,-2.0994275,-1.5696515,2.4083323,-0.11196112,0.32901877,-0.3955655,0.04648323,0.005437871,-0.0867029,-0.2681506,0.47884035,-9.385271,0.947788,47.653748,-0.78907025,-1.396177,-3.5877948,-0.07367119,0.1561727,-0.17373584,25.3125,25.9375,25.125,27.5625,28.25,28.5625
0.36205497,-0.8938616,-1.7024459,-0.95136744,-0.039829,0.038313158,-0.11503157,-0.404426,-0.33192673,0.06009619,3.0755467,-0.6342748,-0.0002980125,-0.17909135,-0.022098761,0.001296145,-0.011961556,0.012073253,-0.020533392,0.42696995,-1.4116659,1.9407252,-2.0993187,-1.5696758,2.408175,-0.111287676,0.33161035,-0.39645952,0.048973054,0.0052291355,-0.09052449,-0.17238252,0.47884035,-9.3661175,1.0216395,47.67345,-0.8829586,-1.4609416,-3.6318536,-0.054494005,0.15605588,-0.12226173,25.3125,25.9375,25.125,27.5625,28.25,28.5625
0.36405417,-0.4186543,-1.6504124,-0.97377855,-0.053759366,0.056716096,-0.121957,-0.4048118,-0.33196756,0.06011644,3.0754757,-0.63430005,-0.0003999271,-0.1786253,-0.021312444,-0.0006691194,-0.00958017,0.007291787,-0.023601972,0.42671755,-1.411016,1.9399132,-2.0992467,-1.5696634,2.407948,-0.112047784,0.33530343,-0.39692008,0.051080026,0.0050538257,-0.088215515,-0.15322891,0.45968673,-9.385271,0.8940802,47.68599,-0.8702699,-1.6755518,-3.7486162,-0.03363587,0.15788233,-0.12224433,25.3125,25.9375,25.125,27.5625,28.25,28.5625
0.36605382,-1.1822288,-2.1703298,-1.0235364,-0.060632765,0.048959687,-0.10989866,-0.40515715,-0.33200315,0.060122117,3.0754335,-0.63442606,-0.00039948602,-0.17914182,-0.021883264,-0.0012837024,-0.009404135,0.005319371,-0.024060203,0.42648956,-1.4103786,1.9391345,-2.0991147,-1.5696515,2.4078045,-0.11172555,0.33875322,-0.4000549,0.05263291,0.0057085943,-0.087433994,-0.11492168,0.36391866,-9.32781,0.95226496,47.672558,-0.9162997,-1.6508088,-3.796455,-0.037486985,0.1607725,-0.120877385,25.3125,25.9375,25.125,27.5625,28.25,28.5625
0.36805403,-0.7388241,-1.9364352,-0.6951213,-0.05532642,0.038915172,-0.1085185,-0.40552837,-0.3320657,0.060117647,3.0753636,-0.63448924,-0.0004199083,-0.18051259,-0.022304382,-0.0007823765,-0.009344819,0.005523122,-0.026810965,0.4262738,-1.4096687,1.9383086,-2.0990417,-1.5696157,2.4076376,-0.11185904,0.34101784,-0.40450063,0.0546555,0.005568083,-0.08481485,-0.095768064,0.40222588,-9.193734,0.9321212,47.629562,-0.9244983,-1.6641538,-3.7045271,-0.025366068,0.17486736,-0.0942013,25.3125,25.9375,25.125,27.5625,28.25,28.5625
0.37005433,-0.13431107,-1.3225325,-0.4958846,-0.04229594,0.023590501,-0.10581584,-0.4059045,-0.33209515,0.060111433,3.0753162,-0.63463354,-0.00042107856,-0.18241179,-0.023181137,0.0008985483,-0.010710712,0.008618898,-0.029756468,0.4260098,-1.4089723,1.9374937,-2.098934,-1.5696033,2.4074702,-0.11165421,0.3414824,-0.40931225,0.05561874,0.005524097,-0.08166279,-0.019153614,0.45968673,-8.983045,0.92764956,47.635834,-0.9953147,-1.7111261,-3.548573,-0.040615153,0.16935557,-0.13534743,25.3125,25.9375,25.125,27.5625,28.25,28.5625
0.37205452,0.34388277,-0.3931939,-0.62910414,-0.029611643,0.0020526375,-0.117446065,-0.40628076,-0.33214337,0.06012109,3.0752983,-0.63466895,-0.0005679485,-0.18398194,-0.024254274,0.0015372244,-0.01201178,0.011909753,-0.03168085,0.42581844,-1.4082989,1.9366797,-2.0988748,-1.5696515,2.4073038,-0.11076111,0.34290877,-0.412146,0.05348695,0.005344139,-0.07884343,-0.038307227,0.45968673,-9.021352,0.95897776,47.642998,-1.0547967,-1.7013388,-3.460519,0.031640954,0.16651306,-0.15904234,25.3125,25.9375,25.125,27.5625,28.25,28.5625
