Tylouw/Master_Thesis_Code/training_data/batch_1/big_rod_t0.1/sample_77_session_3.csv
timestamp[s],tcp_force_x[N],tcp_force_y[N],tcp_force_z[N],tcp_force_rx[Nm?],tcp_force_ry[Nm?],tcp_force_rz[Nm?],tcp_pose_x[m],tcp_pose_y[m],tcp_pose_z[m],tcp_pose_rx[rot_vec_x],tcp_pose_ry[rot_vec_y],tcp_pose_rz[rot_vec_z],tcp_velo_x[m/s],tcp_velo_y[m/s],tcp_velo_z[m/s],tcp_velo_rx[rot_vec_x/s],tcp_velo_ry[rot_vec_y/s],tcp_velo_rz[rot_vec_z/s],q1[rad],q2[rad],q3[rad],q4[rad],q5[rad],q6[rad],qd1[rad/s],qd2[rad/s],qd3[rad/s],qd4[rad/s],qd5[rad/s],qd6[rad/s],tool_acc_x,tool_acc_y,tool_acc_z,current_of_whole_robot[A],voltage_of_whole_robot[V],current_J1[A],current_J2[A],current_J3[A],current_J4[A],current_J5[A],current_J6[A],temp_J1[C],temp_J2[C],temp_J3[C],temp_J4[C],temp_J5[C],temp_J6[C]
6.5600034e-07,-0.7889609,-1.473676,-0.3652713,-0.027812187,0.020550415,-0.0024770407,-0.37290218,-0.32821566,0.059964392,-3.0784879,0.6248093,-0.00020068654,0.002179354,0.0010368174,-0.0039640306,0.0034530605,-0.0075366073,-2.307209e-06,0.44815025,-1.4708847,2.0095484,-2.1076796,-1.5706977,2.4230313,-7.8516285e-05,0.004775836,0.003949659,-0.00043750496,0.00016088928,-7.798243e-05,0.0,0.22984336,-8.925584,0.63671005,47.705692,-0.19176596,-2.8924484,-2.41297,-0.5075732,0.16723418,-0.13810492,25.5,26.25,25.375,28.0,28.75,29.0625
0.002052847,-0.64723384,-1.2952198,-0.4654816,-0.025025172,0.02377097,-0.00790181,-0.37288865,-0.3282134,0.059948266,-3.0784738,0.6248256,-0.00025361858,-0.00072511955,-0.00036668323,-0.0026804362,-0.0010118862,0.0017104081,1.1504255e-05,0.44815025,-1.4708729,2.0095732,-2.107683,-1.5706857,2.4230433,-7.754574e-05,0.0041928836,0.0038302364,-0.010003671,0.0001562336,-8.801157e-05,0.0,0.21068975,-8.963891,0.7978386,47.677036,-0.15056145,-2.7182598,-2.238815,-0.48617417,0.16836393,-0.13374206,25.5,26.25,25.375,28.0,28.75,29.0625
0.004052489,-0.92549765,-0.80944556,-0.4986388,-0.02616362,0.016552648,-0.00082223164,-0.37290105,-0.32823887,0.059948314,-3.07852,0.62489295,-0.00022629568,-0.0013483064,-0.0006668854,-0.0025663155,-0.0021634623,0.004102478,1.3273271e-05,0.4481623,-1.470849,2.0095608,-2.107744,-1.5706495,2.4230914,-7.6603326e-05,0.0040153293,0.0044764117,-0.013127112,0.00015184068,-8.831631e-05,-0.038307227,0.17238252,-9.021352,0.69937176,47.66987,-0.21118294,-3.0113764,-2.5570464,-0.37049156,0.17516382,-0.13846202,25.5,26.25,25.375,28.0,28.75,29.0625
0.006052503,-0.4856723,-0.7497625,-0.49039432,-0.0033323034,0.0080197165,-0.000784909,-0.37287724,-0.32823798,0.059911314,-3.0784934,0.6248494,-0.00032928854,-0.00040796248,-0.00021093269,-0.0022653553,-0.00070171064,0.0010935335,1.20516615e-05,0.4481742,-1.4708015,2.0095956,-2.107753,-1.5706376,2.4230795,-7.568263e-05,0.0032602623,0.0034424618,-0.007992882,0.00014768729,-8.719448e-05,0.05746084,0.15322891,-9.059659,0.7709874,47.71554,-0.19588292,-2.9693594,-2.5543077,-0.40165648,0.1799218,-0.13454469,25.5,26.25,25.375,28.0,28.75,29.0625
0.008052129,-0.21059187,0.05648767,-0.8242316,0.02167847,-0.015870243,0.0011188192,-0.3728725,-0.32819062,0.05989774,-3.0784016,0.6248302,-0.00033647724,0.00030965768,0.00013724106,-0.0018767352,0.0004128176,-0.0011977156,1.0958619e-05,0.4481382,-1.4708138,2.0096319,-2.1077163,-1.5707096,2.4230433,-7.4788484e-05,0.002468879,0.0024250979,-0.0036361997,0.0001437555,-8.601063e-05,0.05746084,0.17238252,-9.097966,0.7016076,47.74062,-0.1529986,-2.9981117,-2.4913037,-0.4541644,0.17262265,-0.13255033,25.5,26.25,25.375,28.0,28.75,29.0625
0.010051756,-0.0076944856,0.2654083,-1.175386,0.04286305,-0.021981398,-0.0004340725,-0.37289444,-0.32820982,0.05992184,-3.0784552,0.62488014,-0.0002690265,0.0004513111,0.00019937776,-0.0016094841,0.00064624124,-0.0017163132,1.0496852e-05,0.4481382,-1.4708259,2.0095952,-2.1077397,-1.5706857,2.4230676,-7.3907e-05,0.002103622,0.0018738622,-0.0021512334,0.0001602914,-8.485267e-05,0.0,0.11492168,-9.232041,0.75755644,47.741516,-0.5266953,-2.2955563,-3.0286903,-0.47983646,0.16669059,-0.20036893,25.5,26.25,25.375,28.0,28.75,29.0625
0.0120522175,0.22181281,-0.07142462,-1.3800687,0.019532254,0.007602467,-0.010764942,-0.37287295,-0.32821888,0.059888504,-3.0784464,0.6248782,-0.0003819928,-0.0015186138,-0.0007087864,-0.0029051488,0.0017567072,-0.004049838,4.577665e-06,0.44815022,-1.4707751,2.0096185,-2.1077511,-1.5706495,2.4230795,-0.00016411622,0.01017122,-0.004119575,-0.0016411588,0.00015903538,-0.00016441339,0.076614454,0.17238252,-9.308657,0.75755644,47.728977,-0.67295706,-2.4005663,-3.1816206,-0.49091434,0.18634138,-0.24137327,25.5,26.25,25.375,28.0,28.75,29.0625
0.014051913,-1.1112682,-1.0219243,-1.5966321,-0.01823581,0.011052079,-0.006463805,-0.372879,-0.3282185,0.059893683,-3.0784416,0.624877,-0.0004227819,-0.005299527,0.0010968908,-0.0042781834,0.0028524932,-0.0063978885,-0.00030109176,0.44813588,-1.4707606,2.00958,-2.1077034,-1.5706376,2.423065,-0.0070181517,0.017337132,-0.008870662,-0.0014659385,0.00017621968,-0.0067088716,-0.038307227,0.11492168,-9.5385,0.72622824,47.71017,-0.41773915,-2.8015482,-2.9429355,-0.49333322,0.18886873,-0.22800156,25.5,26.25,25.375,28.0,28.75,29.0625
0.016052237,-1.8943679,-2.1780362,-1.531148,-0.049317595,0.03873799,-0.007047598,-0.37287694,-0.32821304,0.059868585,-3.0784006,0.62484735,-0.00048771023,-0.0051265657,0.0015965884,-0.0047299764,0.0032698011,-0.0074790986,0.0039846674,0.44813552,-1.4707006,2.009569,-2.1076915,-1.5706495,2.4230514,-0.007862676,0.017538628,-0.008097144,-0.0012868416,0.00026766412,-0.011839834,-0.2873042,0.17238252,-9.576807,0.72622824,47.69763,-0.3551135,-2.7166626,-3.1998324,-0.5115768,0.20964809,-0.17945792,25.5,26.25,25.375,28.0,28.75,29.0625
0.01805207,-1.9395418,-2.3807354,-1.642415,-0.089314185,0.07782104,-0.023957005,-0.3728795,-0.32819736,0.059866276,-3.0783813,0.6248239,-0.0005064575,-0.0051937923,0.0009732563,-0.004327849,0.0018909879,-0.007303123,0.0050912164,0.44811147,-1.4707007,2.009569,-2.1076677,-1.570661,2.423015,-0.0075402553,0.017390288,-0.00890029,-0.0010957981,0.0014319523,-0.012625888,-0.4213795,0.2681506,-9.634268,0.7351769,47.693153,-0.44262278,-2.4166203,-3.4455657,-0.53032947,0.22444116,-0.18339561,25.5,26.25,25.375,28.0,28.75,29.0625
0.020052627,-2.0532095,-2.6292305,-1.6723858,-0.08088888,0.09316533,-0.03373331,-0.37287974,-0.3282021,0.059848953,-3.0783746,0.62480205,-0.000562557,-0.006237239,-7.826828e-05,-0.004085132,-0.00021510325,-0.0075819194,0.005999177,0.44811141,-1.470652,2.009555,-2.1076677,-1.5706481,2.4230022,-0.007876905,0.01968988,-0.012013216,-0.00095096295,0.0034435042,-0.013872437,-0.45968673,0.38307226,-9.691729,0.7463667,47.694946,-0.53579,-2.4473107,-3.4571176,-0.5256615,0.21329695,-0.2057794,25.5,26.25,25.375,28.0,28.75,29.0625
0.022052193,-2.4886167,-2.1972947,-1.6521999,-0.059368826,0.07821413,-0.034837626,-0.37286186,-0.32820404,0.05980901,-3.0783567,0.62468266,-0.00068021106,-0.0075365137,-0.00025057612,-0.004188229,-0.0016104194,-0.008358128,0.0056537953,0.44812286,-1.4705793,2.009567,-2.1076677,-1.5706357,2.4229414,-0.009812771,0.022083292,-0.014428581,-0.00083979906,0.0050303875,-0.015464771,-0.5554548,0.40222588,-9.768343,0.65684843,47.716442,-0.65672386,-2.485075,-3.4038095,-0.54314375,0.17504781,-0.21358252,25.5,26.25,25.375,28.0,28.75,29.0625
0.024051903,-2.0267599,-1.5842886,-1.6153584,-0.036234036,0.06793984,-0.05718952,-0.37288862,-0.32818052,0.05979306,-3.0783153,0.62477034,-0.00069784635,-0.008569975,-0.00029003088,-0.0035593933,-0.0031375517,-0.007718724,0.0058108214,0.44806233,-1.4705315,2.0095537,-2.1076791,-1.5706476,2.422941,-0.011419941,0.022147998,-0.016004186,-0.00057085126,0.006125105,-0.017230546,-0.51714754,0.38307226,-9.730036,0.78217715,47.684196,-0.61007804,-2.4126182,-3.417523,-0.5490221,0.17039996,-0.20504117,25.5,26.25,25.375,28.0,28.75,29.0625
0.026051994,-2.326981,-1.9718785,-1.6261299,-0.022135664,0.050788622,-0.07215401,-0.3729482,-0.3282115,0.05982462,-3.078383,0.62482303,-0.0006014336,-0.009361045,-0.00027951458,-0.0026506027,-0.0038092374,-0.005802571,0.0059596905,0.44805017,-1.4704838,2.0094345,-2.107703,-1.5706238,2.4229531,-0.012004151,0.021147342,-0.016983455,-0.00060770847,0.00589939,-0.017962141,-0.63206923,0.4213795,-9.691729,0.75755644,47.66808,-0.6807414,-2.276154,-3.41365,-0.56791,0.1857046,-0.22403921,25.5,26.25,25.375,28.0,28.75,29.0625
0.028052406,-1.7922976,-1.355608,-1.5724177,-0.048290174,0.06673542,-0.09577668,-0.37295747,-0.32822472,0.059819628,-3.0784185,0.6247524,-0.0006216755,-0.010814753,-0.001073838,-0.0023191327,-0.0053004064,-0.004296251,0.0067498316,0.4480501,-1.4704471,2.0094087,-2.1077163,-1.5705994,2.4229045,-0.012296192,0.023123775,-0.019601276,-0.0019720763,0.0065816073,-0.019043412,-0.59376204,0.3256114,-9.672575,0.73741806,47.63225,-0.7106073,-2.3505366,-3.4784763,-0.55716336,0.16519792,-0.21153596,25.5,26.25,25.375,28.0,28.75,29.0625
0.030051896,-1.6899471,-1.7424108,-1.5010481,-0.04558638,0.07506893,-0.109164424,-0.3729786,-0.32822004,0.059823275,-3.0784175,0.62473357,-0.00066512375,-0.012427951,-0.0012130061,-0.0024133283,-0.006571474,-0.0036608384,0.005689781,0.44801334,-1.4704103,2.009349,-2.1076686,-1.5705866,2.422856,-0.014086431,0.025427429,-0.021583254,-0.0034197385,0.007443542,-0.019773562,-0.59376204,0.28730422,-9.672575,0.784413,47.66987,-0.7222232,-2.3399577,-3.4637446,-0.53053427,0.15847155,-0.19645819,25.5,26.25,25.375,28.0,28.75,29.0625
0.032052226,-1.8705149,-1.8576407,-1.3588964,-0.04286684,0.07242072,-0.12594238,-0.37302765,-0.32819894,0.059808534,-3.0784066,0.62479085,-0.00066431204,-0.013758574,-0.0014266121,-0.0019887076,-0.007997227,-0.0030489592,0.0034475105,0.44792897,-1.4703381,2.009312,-2.1077044,-1.5705866,2.422809,-0.01558109,0.02660498,-0.02382667,-0.003525851,0.008459065,-0.019026477,-0.61291564,0.19153613,-9.615114,0.7172743,47.686886,-0.76909477,-2.3296616,-3.4134598,-0.52783424,0.14630078,-0.19157767,25.5,26.25,25.375,28.0,28.75,29.0625
0.03405239,-1.4731439,-1.4067105,-1.4723653,-0.018935679,0.067367904,-0.14276563,-0.37302542,-0.32821256,0.059793416,-3.0784042,0.62475294,-0.00074659084,-0.014974053,-0.0012239732,-0.0017416104,-0.008192611,-0.002751543,0.0016727655,0.4479404,-1.4702777,2.0092747,-2.10768,-1.5705627,2.422797,-0.017098164,0.027859703,-0.025871191,-0.003088537,0.008502267,-0.018768005,-0.51714754,0.11492168,-9.576807,0.779936,47.672558,-0.63554704,-2.3222451,-3.3552847,-0.5343102,0.12069897,-0.21144235,25.5,26.25,25.375,28.0,28.75,29.0625
0.03605223,-1.42237,-0.7065482,-1.3966923,0.011592466,0.05715364,-0.15265955,-0.37307718,-0.32823333,0.059807874,-3.0784767,0.62474793,-0.00066419935,-0.016057165,-0.0014295146,-0.0008898614,-0.008633391,-0.0010235442,0.0017519179,0.44791624,-1.4702299,2.0092027,-2.1077402,-1.5705389,2.4227605,-0.017454838,0.027959447,-0.02799905,-0.0028069373,0.008148676,-0.019201191,-0.45968673,-0.038307227,-9.634268,0.72622824,47.686886,-0.7056736,-2.172465,-3.3520067,-0.54146874,0.13401106,-0.20697953,25.5,26.25,25.375,28.0,28.75,29.0625
0.03805194,-1.0622668,0.116702795,-1.3943702,0.029844387,0.04998513,-0.17120302,-0.373109,-0.32822984,0.05979279,-3.0784724,0.6248052,-0.000743885,-0.01702485,-0.0015746338,-0.0007492248,-0.008788761,-0.00024056358,0.0014857219,0.44785613,-1.4701457,2.0091422,-2.1077278,-1.5705026,2.4227366,-0.017921979,0.029260594,-0.029656895,-0.0032213593,0.007944565,-0.01940069,-0.30645782,-0.1340753,-9.442732,0.7284641,47.68599,-0.70457804,-2.2063537,-3.3581493,-0.53052866,0.12750359,-0.20129046,25.5,26.25,25.375,28.0,28.75,29.0625
0.040052544,-1.0031106,-0.07177741,-1.3053164,0.043548465,0.045735378,-0.1829412,-0.37315232,-0.32823142,0.059782144,-3.078476,0.62482566,-0.00072886865,-0.018812776,-0.0016813241,-0.00043635778,-0.009343418,0.0014042223,0.0007107332,0.44781965,-1.4700611,2.009082,-2.1077645,-1.5705026,2.4227126,-0.019196684,0.031140333,-0.03219751,-0.0042821676,0.0077246157,-0.01989773,-0.1340753,-0.095768064,-9.461885,0.8023209,47.694946,-0.6767552,-2.205987,-3.3607059,-0.5420827,0.12934896,-0.20796752,25.5,26.25,25.375,28.0,28.75,29.0625
0.042052086,-0.8818454,-0.35072383,-1.360465,0.029606985,0.04692495,-0.17339474,-0.373201,-0.32823992,0.059799157,-3.0785291,0.6247971,-0.0006632028,-0.020307004,-0.0020884385,0.00016147444,-0.0099308565,0.0038247544,0.001833239,0.4477836,-1.4700247,2.0090086,-2.1077888,-1.5704912,2.422652,-0.019431377,0.03223056,-0.03448285,-0.0055208644,0.0071991696,-0.021251503,-0.095768064,0.0,-9.423578,0.7642693,47.678825,-0.7153988,-2.2434053,-3.3173351,-0.5297536,0.12784459,-0.21757314,25.5,26.25,25.375,28.0,28.75,29.0625
0.04405172,-0.96827596,-1.0059133,-1.3898702,0.00724366,0.034347743,-0.14475939,-0.37322035,-0.32823437,0.059790883,-3.0785203,0.6248143,-0.0007049495,-0.02122186,-0.0019363754,0.0006608188,-0.009615331,0.004721647,0.0028754403,0.44774747,-1.4699765,2.008972,-2.107776,-1.5704793,2.4226277,-0.02008957,0.03266248,-0.036257062,-0.004847456,0.006523053,-0.022949781,-0.05746084,0.038307227,-9.404425,0.683705,47.655537,-0.6371813,-2.1857338,-3.412708,-0.5132869,0.14535142,-0.18572626,25.5,26.25,25.375,28.0,28.75,29.0625
0.04605264,-0.6109755,-1.4767071,-1.4395411,-0.008353638,0.031202987,-0.15593052,-0.3732687,-0.32824236,0.059786014,-3.0785127,0.62475425,-0.0006828152,-0.021883737,-0.0014544353,0.00076125795,-0.009175608,0.004383444,0.0030756406,0.44773495,-1.4698687,2.0088646,-2.107776,-1.5705036,2.4225788,-0.021425452,0.03328478,-0.03740752,-0.0038236238,0.0062722275,-0.024484884,0.0,0.05746084,-9.500193,0.7463667,47.65912,-0.68045396,-2.1351156,-3.3524415,-0.5137593,0.15775807,-0.18842845,25.5,26.25,25.375,28.0,28.75,29.0625
0.048052028,-0.83382434,-1.3160598,-1.3839074,-0.027449844,0.018477151,-0.14857997,-0.37332228,-0.32822794,0.059799325,-3.0785296,0.6247967,-0.00066365825,-0.022525325,-0.001728196,0.0010268713,-0.00987046,0.004058222,0.0033175494,0.44765073,-1.4698324,2.0087917,-2.107764,-1.5704912,2.422519,-0.02200835,0.03430748,-0.03934722,-0.002916122,0.007038185,-0.025310002,-0.05746084,0.15322891,-9.576807,0.84484416,47.672558,-0.67888176,-1.9895977,-3.4138737,-0.5357429,0.15303892,-0.16565363,25.5,26.25,25.375,28.0,28.75,29.0625
0.050052054,-1.0961611,-1.9718051,-1.604794,-0.013477709,-0.002763942,-0.14237861,-0.37336296,-0.32824758,0.059808504,-3.078586,0.6247692,-0.00065357855,-0.023333587,-0.0016097011,0.0011356067,-0.0095055625,0.00390515,0.003755116,0.4476264,-1.4697721,2.0087068,-2.107775,-1.5704554,2.4224703,-0.022784634,0.035615176,-0.04123355,-0.0020394637,0.006773978,-0.02652201,-0.038307227,0.11492168,-9.595961,0.75755644,47.72092,-0.65823174,-2.016131,-3.4077623,-0.5478325,0.15789485,-0.16345297,25.5,26.25,25.375,28.0,28.75,29.0625
0.052052565,-0.22750634,-1.4945276,-1.4435319,-0.024093414,0.019959047,-0.15085633,-0.3734145,-0.32821697,0.059808318,-3.0785227,0.62485224,-0.0006244957,-0.023972249,-0.0017357691,0.0012215597,-0.009828096,0.0039626686,0.0041624065,0.4475543,-1.4697119,2.0086358,-2.1077511,-1.5705031,2.4224582,-0.02330226,0.036638696,-0.042588063,-0.0019016201,0.0070370473,-0.027446605,-0.05746084,0.24899697,-9.500193,0.8090337,47.693153,-0.6388018,-2.047696,-3.4133458,-0.54552484,0.1663309,-0.16702396,25.5,26.25,25.375,28.0,28.75,29.0625
0.054052103,-0.35740846,-1.7641816,-1.4474863,-0.028033584,0.02590463,-0.15345383,-0.3734571,-0.32823125,0.059789974,-3.0785592,0.624782,-0.0006741703,-0.02502095,-0.0019349194,0.0018084338,-0.010783045,0.0050372756,0.004675695,0.44751784,-1.4695917,2.0085514,-2.107775,-1.5704669,2.4223733,-0.02414194,0.037087422,-0.044434194,-0.001886333,0.00742833,-0.02879927,0.0,0.36391866,-9.557653,0.8179876,47.7451,-0.6366801,-1.9601793,-3.4493556,-0.5626734,0.1715515,-0.14516705,25.5,26.25,25.375,28.0,28.75,29.0625
0.056051966,-0.8970928,-2.061413,-1.6802366,-0.03998511,0.022481326,-0.1452024,-0.37351906,-0.3282508,0.05983177,-3.0786638,0.6248035,-0.0006096327,-0.025888786,-0.002267565,0.0017786756,-0.01227032,0.004854444,0.0047381017,0.44745764,-1.4695795,2.0084422,-2.1077754,-1.5704068,2.4223132,-0.025260089,0.038578343,-0.045882408,-0.0024105255,0.008846907,-0.029980512,0.05746084,0.38307226,-9.653421,0.7463667,47.688675,-0.61870325,-1.9001101,-3.4357362,-0.57226896,0.15517606,-0.13101505,25.5,26.25,25.375,28.0,28.75,29.0625
0.058052517,-1.202265,-2.895229,-1.7906748,-0.0375173,0.025471043,-0.13739462,-0.37354365,-0.32826474,0.059806857,-3.0786488,0.62472343,-0.00064367504,-0.027306862,-0.0023610455,0.0018255068,-0.012761282,0.0054349243,0.004299781,0.44746915,-1.4694588,2.0083697,-2.1077878,-1.5704182,2.4222767,-0.026496815,0.04064864,-0.048143305,-0.0029567261,0.009030792,-0.030777756,-0.095768064,0.40222588,-9.653421,0.784413,47.70032,-0.592769,-1.8608629,-3.454824,-0.5492733,0.17758319,-0.12382224,25.5,26.25,25.375,28.0,28.75,29.0625
0.06005204,-0.54467154,-2.2933104,-1.4566382,-0.05801953,0.041230373,-0.14393507,-0.37360537,-0.3282668,0.059836127,-3.0786865,0.62469137,-0.0006108567,-0.028029576,-0.0026778935,0.0019283297,-0.012892324,0.005805065,0.0065745246,0.4474092,-1.4694104,2.0082386,-2.1077402,-1.5704068,2.422192,-0.026522132,0.04203353,-0.04989612,-0.0029779074,0.008985789,-0.033076145,-0.095768064,0.4405331,-9.653421,0.75084364,47.70659,-0.634482,-1.8380582,-3.4907837,-0.54998577,0.1510393,-0.11635728,25.5,26.25,25.375,28.0,28.75,29.0625
0.062051687,-1.0990224,-2.3432665,-1.5136312,-0.0509026,0.028424991,-0.14144565,-0.37366325,-0.32825652,0.059805363,-3.0786877,0.6246533,-0.00062601396,-0.028546777,-0.0027442202,0.0014751833,-0.012870607,0.004305689,0.006682064,0.44733697,-1.4692779,2.008177,-2.1077998,-1.5704063,2.422096,-0.027286941,0.044315044,-0.051531233,-0.002264567,0.009612971,-0.033948667,-0.11492168,0.47884035,-9.5385,0.7553206,47.701214,-0.6645176,-1.8665555,-3.47688,-0.56900287,0.1483605,-0.08452436,25.5,26.25,25.375,28.0,28.75,29.0625
0.06405211,-1.0408431,-2.0128853,-1.3744817,-0.043054406,0.02596037,-0.13901421,-0.3737165,-0.32826537,0.05981669,-3.0787132,0.6246979,-0.00061951135,-0.02948879,-0.0030254656,0.0020043447,-0.013712293,0.0052157664,0.005588315,0.44728872,-1.4692059,2.0080693,-2.1077878,-1.570382,2.4220724,-0.027854009,0.04490556,-0.053422008,-0.002148979,0.00997595,-0.033421252,-0.17238252,0.4213795,-9.519346,0.7597976,47.678825,-0.6519599,-1.8439794,-3.4860148,-0.57004285,0.15060687,-0.09904486,25.5,26.25,25.375,28.0,28.75,29.0625
0.06605279,-0.90896744,-1.7598288,-1.2298388,-0.031715676,0.02918996,-0.1357487,-0.37377372,-0.3282846,0.05982305,-3.0787723,0.6246716,-0.0006349966,-0.03063475,-0.00340698,0.002127219,-0.014299336,0.0056752306,0.004656978,0.44724062,-1.4691093,2.0079486,-2.1077878,-1.5703343,2.4220004,-0.028393151,0.04685699,-0.05579432,-0.0023954178,0.010302411,-0.03302763,-0.19153613,0.36391866,-9.557653,0.78217715,47.698532,-0.63597906,-1.8522744,-3.478876,-0.5774076,0.14861944,-0.10435647,25.5,26.25,25.375,28.0,28.75,29.0625
0.068052284,-1.5097617,-2.006329,-1.1070834,-0.014312556,0.027220974,-0.1363324,-0.37387088,-0.328287,0.059859324,-3.078833,0.6247025,-0.0005006562,-0.031902965,-0.0042699613,0.002295827,-0.015739981,0.0068253013,0.0055112485,0.44715667,-1.4690489,2.0078046,-2.1078122,-1.5703338,2.4219282,-0.02845337,0.04901827,-0.058242287,-0.0037704937,0.011100072,-0.033940192,-0.21068975,0.36391866,-9.557653,0.7642693,47.684196,-0.6964172,-1.818955,-3.4282088,-0.55729425,0.13531677,-0.09967811,25.5,26.25,25.375,28.0,28.75,29.0625
0.07005176,-1.3532186,-1.655384,-1.1838931,-0.01284283,0.03994953,-0.14194414,-0.37395033,-0.32829568,0.059850276,3.0788064,-0.6247749,0.00054284383,-0.033118084,-0.0043663383,0.0025155651,-0.016816415,0.008124064,0.005035497,0.4470602,-1.4689046,2.0076725,-2.1078365,-1.5702738,2.4218802,-0.029638406,0.04993961,-0.059458487,-0.005110283,0.011505092,-0.034648795,-0.22984336,0.3256114,-9.442732,0.74413085,47.698532,-0.6332375,-1.7909737,-3.4975853,-0.5375853,0.12578729,-0.101882,25.5,26.25,25.375,28.0,28.75,29.0625
0.07205248,-1.6758524,-1.4924386,-0.964344,-0.010707649,0.041741785,-0.13888054,-0.3740083,-0.32827252,0.05984573,-3.0788348,0.6247985,-0.00052348385,-0.03515801,-0.0051942933,0.0028797647,-0.017747328,0.008956695,0.005664679,0.44698793,-1.4688195,2.0075867,-2.1078246,-1.570309,2.4218192,-0.0302458,0.053489927,-0.06420842,-0.00506572,0.011975007,-0.03588294,-0.22984336,0.2873042,-9.32781,0.7709874,47.707485,-0.66568065,-1.9039382,-3.3589983,-0.53158545,0.12070739,-0.10298386,25.5,26.25,25.375,28.0,28.75,29.0625
0.07405207,-1.6037033,-1.3817669,-0.92492074,-0.0050143246,0.038579457,-0.13583587,-0.37407637,-0.32832053,0.059868164,3.0787747,-0.6246509,0.0004916984,-0.034753837,-0.005066741,0.0026242647,-0.01740617,0.007748938,0.007262038,0.44697604,-1.4687116,2.0074193,-2.107836,-1.5702494,2.421723,-0.030261654,0.05361997,-0.06396771,-0.004197974,0.012194289,-0.03749606,-0.22984336,0.24899697,-9.251195,0.7978386,47.70032,-0.73461366,-1.9189181,-3.373547,-0.5474312,0.12232743,-0.0865166,25.5,26.25,25.375,28.0,28.75,29.0625
0.07605183,-1.8533677,-1.2437675,-0.9437749,-0.001003905,0.03298779,-0.1318828,-0.3741329,-0.32833305,0.05987527,3.0787225,-0.62464106,0.0005073857,-0.035583273,-0.004921824,0.0028897403,-0.017321765,0.007907738,0.005372121,0.44691572,-1.4686276,2.0073106,-2.1078355,-1.5702013,2.421663,-0.031180875,0.054455813,-0.06567296,-0.0034325204,0.012049603,-0.036523916,-0.2681506,0.19153613,-9.289502,0.7418897,47.709274,-0.74751544,-1.715583,-3.411137,-0.5549911,0.13087556,-0.0840988,25.5,26.25,25.375,28.0,28.75,29.0625
0.07805241,-1.2814342,-1.0818952,-0.9216357,0.0023287965,0.040500056,-0.13603115,-0.37423328,-0.32835588,0.059894916,3.0786784,-0.6245955,0.00039993494,-0.03796272,-0.0060064844,0.004416201,-0.018985378,0.010807022,0.0034996993,0.44686756,-1.4684952,2.0071285,-2.1078718,-1.5702013,2.4215922,-0.03145402,0.056200005,-0.07119531,-0.0029886377,0.012290224,-0.03492055,-0.3256114,0.19153613,-9.251195,0.75084364,47.652847,-0.75849843,-1.740041,-3.3218741,-0.55358785,0.11963703,-0.12317209,25.5,26.25,25.375,28.0,28.75,29.0625
0.0800518,-1.4304436,-0.5498964,-0.8639612,-0.007863189,0.03430997,-0.1390031,-0.37430063,-0.32834572,0.05988309,3.0786724,-0.62457395,0.0004417139,-0.037753332,-0.0053225467,0.0020964302,-0.016592043,0.006691597,0.004229885,0.4467713,-1.4683738,2.0070221,-2.1078718,-1.5701774,2.4214833,-0.03228534,0.060761366,-0.0708658,-0.003130044,0.011911305,-0.036481097,-0.34476507,0.24899697,-9.289502,0.8179876,47.71465,-0.73319006,-1.8862135,-3.193554,-0.5522387,0.09771125,-0.13834707,25.5,26.25,25.375,28.0,28.75,29.0625
0.08205206,-1.7287768,-1.1517146,-1.027973,0.001079934,0.031350706,-0.13361186,-0.37437165,-0.32836923,0.059896875,3.0786529,-0.6245316,0.00035426396,-0.03948589,-0.0060524405,0.003988813,-0.018919967,0.01068135,0.0047608595,0.44675907,-1.4682665,2.0068781,-2.107896,-1.5701894,2.4214473,-0.032727502,0.059575487,-0.07379254,-0.0036226723,0.012282014,-0.037452385,-0.38307226,0.22984336,-9.212888,0.7597976,47.703007,-0.70018613,-1.7858088,-3.383706,-0.5311105,0.114056505,-0.13050832,25.5,26.25,25.375,28.0,28.75,29.0625
0.08405164,-1.4572009,-1.2468714,-1.1156707,-0.008818638,0.0433544,-0.12905537,-0.3744262,-0.32837653,0.05988745,3.0786533,-0.62449366,0.00043452095,-0.040633593,-0.0061800894,0.0036828981,-0.018424677,0.010606114,0.0041811466,0.44669887,-1.4681337,2.0067456,-2.1078598,-1.5701531,2.4213634,-0.03323712,0.062423646,-0.07619295,-0.0037850088,0.011862061,-0.037380178,-0.28730422,0.21068975,-9.193734,0.7665104,47.711964,-0.76559484,-1.6967465,-3.2152338,-0.5411484,0.11125459,-0.15568501,25.5,26.25,25.375,28.0,28.75,29.0625
0.08605235,-1.5934983,-1.2611737,-1.198329,-0.015069868,0.044787858,-0.13218266,-0.37452346,-0.32839125,0.05989977,3.0785751,-0.6245552,0.00039346557,-0.042079303,-0.005673179,0.003368547,-0.017416373,0.010313178,0.0028478606,0.4466145,-1.4680009,2.0065768,-2.1078837,-1.5701178,2.4213274,-0.034956574,0.065157495,-0.078562655,-0.0034441317,0.011078615,-0.03776275,-0.38307226,0.22984336,-9.270349,0.7866488,47.694946,-0.698509,-1.8733146,-3.2705555,-0.54435796,0.115692176,-0.1745014,25.5,26.25,25.375,28.0,28.75,29.0625
0.08805192,-2.145971,-1.9567333,-1.2113396,-0.005933285,0.035154667,-0.12574597,-0.3746067,-0.32842326,0.059917506,3.078496,-0.6245003,0.00043009777,-0.042498358,-0.0055099423,0.003014378,-0.017146956,0.009331318,0.0029044652,0.44654214,-1.4678686,2.006385,-2.1078594,-1.5700334,2.4212308,-0.035754524,0.06666639,-0.07952075,-0.0029892356,0.011261167,-0.038616527,-0.28730422,0.24899697,-9.232041,0.7418897,47.696735,-0.71595603,-1.8176248,-3.277289,-0.5461114,0.119800985,-0.18662262,25.5,26.25,25.375,28.0,28.75,29.0625
0.090052456,-1.4140663,-1.6749259,-1.2630649,-0.020113131,0.05036404,-0.13178647,-0.37467906,-0.32842368,0.059908815,3.0785356,-0.6244698,0.0004357311,-0.044352293,-0.005909809,0.0037925122,-0.01722541,0.011106711,0.0029796767,0.4464938,-1.4677123,2.0062277,-2.1078355,-1.5700577,2.4211586,-0.036198564,0.068639554,-0.08359027,-0.0025257168,0.0105575975,-0.039132424,-0.30645782,0.3256114,-9.289503,0.7329411,47.687782,-0.72027236,-1.8169484,-3.1599603,-0.5677385,0.109343454,-0.19901513,25.5,26.25,25.375,28.0,28.75,29.0625
0.092051975,-1.4333801,-1.6387566,-1.3081585,-0.02689381,0.050571833,-0.13255775,-0.37477595,-0.32844505,0.059943683,3.0784519,-0.62441397,0.00033628146,-0.043385573,-0.0054986975,0.002217064,-0.01575749,0.007796719,0.0035138265,0.4464221,-1.4676278,2.0060604,-2.1078594,-1.570022,2.4210627,-0.036161482,0.07054686,-0.08214178,-0.0022601234,0.010671739,-0.039629173,-0.21068975,0.30645782,-9.32781,0.8157518,47.693153,-0.7820771,-1.8711164,-3.3268204,-0.57910866,0.11517903,-0.21132424,25.5,26.25,25.375,28.0,28.75,29.0625
0.09405254,-2.1292763,-2.1998765,-1.3062794,-0.025111264,0.03472722,-0.11997929,-0.37486273,-0.32841814,0.059916865,3.0784667,-0.62449455,0.00036911198,-0.045663424,-0.0050351084,0.0026107496,-0.015789468,0.009120024,0.0020027005,0.4463011,-1.4674592,2.0059392,-2.1078718,-1.5700339,2.4209902,-0.038706087,0.072678104,-0.08537755,-0.002359769,0.010122651,-0.040659994,-0.28730422,0.24899697,-9.423578,0.7866488,47.666286,-0.74086773,-1.9015138,-3.3051455,-0.56359136,0.10888277,-0.21156919,25.5,26.25,25.375,28.0,28.75,29.0625
0.09605232,-1.7528056,-2.0591285,-1.2864499,-0.030841148,0.036178585,-0.12870222,-0.3749657,-0.32843152,0.059928413,3.0784125,-0.6244837,0.00031780463,-0.04652707,-0.0049269325,0.002281699,-0.015241761,0.009339727,0.0018555741,0.446217,-1.4673148,2.0057595,-2.1078956,-1.5700101,2.4209063,-0.039277975,0.07459783,-0.08659331,-0.0030213771,0.009533385,-0.041082174,-0.21068975,0.30645782,-9.442732,0.7933669,47.698532,-0.67027915,-1.8546042,-3.1395369,-0.5712241,0.13106403,-0.2534253,25.5,26.25,25.375,28.0,28.75,29.0625
0.09805197,-1.0861598,-1.7100236,-1.3491616,-0.032891307,0.04040372,-0.1250946,-0.37506422,-0.3284574,0.05995364,3.0783646,-0.62445426,0.00023993268,-0.047960807,-0.0049488316,0.0020898394,-0.015791735,0.009411259,0.0020529823,0.44616836,-1.4671823,2.0055559,-2.107896,-1.5699981,2.4208455,-0.040833917,0.07711068,-0.08878375,-0.003645432,0.009996589,-0.042833578,-0.17238252,0.2681506,-9.385271,0.82022345,47.698532,-0.6539295,-1.8821206,-3.2908988,-0.55307317,0.12295261,-0.27065477,25.5,26.25,25.375,28.0,28.75,29.0625
0.10005238,-0.5413093,-1.5207881,-1.2438583,-0.024818137,0.054859098,-0.13425276,-0.37516797,-0.32845417,0.059944324,3.0783653,-0.62443423,0.0002661513,-0.04929676,-0.0052739563,0.0026818553,-0.017045515,0.010644208,0.0034563604,0.44606015,-1.4669902,2.0053632,-2.1078842,-1.5699857,2.4207249,-0.04181579,0.078049615,-0.09113196,-0.0038886091,0.010591848,-0.045218132,-0.21068975,0.24899697,-9.32781,0.7866488,47.682407,-0.64920735,-1.9212046,-3.1977155,-0.5533488,0.11413403,-0.25438294,25.5,26.25,25.375,28.0,28.75,29.0625
0.10205201,-1.1354121,-1.233904,-1.2179031,-0.016912019,0.032408714,-0.13649052,-0.37525466,-0.3284835,0.059943356,3.0782988,-0.62440073,0.00030450904,-0.049839623,-0.0059592878,0.002582181,-0.016405698,0.010991054,0.00453061,0.44598848,-1.4668219,2.005183,-2.107896,-1.5699142,2.4206407,-0.04051613,0.08029567,-0.093380995,-0.0039160494,0.009862384,-0.044989888,-0.15322891,0.24899697,-9.289502,0.8023209,47.668976,-0.720682,-1.8292421,-3.2469962,-0.5396558,0.13818684,-0.26982352,25.5,26.25,25.375,28.0,28.75,29.0625
0.10405165,-1.3958912,-1.551532,-1.1522954,-0.006344877,0.028060693,-0.1208767,-0.37535563,-0.32848722,0.059959386,3.0782986,-0.6243626,0.00019706474,-0.050748825,-0.0059019625,0.0027048378,-0.017419785,0.01123413,0.0029799563,0.4459281,-1.46669,2.0050037,-2.107908,-1.5699495,2.4205568,-0.041978117,0.08107851,-0.094446495,-0.0042940085,0.0106730135,-0.04490077,-0.17238252,0.24899697,-9.308657,0.784413,47.694054,-0.774346,-1.9025565,-3.1827688,-0.56036264,0.12472001,-0.2969665,25.5,26.25,25.375,28.0,28.75,29.0625
0.10605268,-0.73528117,-1.6320484,-1.0810301,-0.011514569,0.04152137,-0.1374552,-0.3754616,-0.3284952,0.059949633,3.0782847,-0.62434083,0.00022162446,-0.05185514,-0.005581442,0.0011458852,-0.015878139,0.008529631,0.0030301292,0.44583157,-1.4664842,2.0047996,-2.107908,-1.5699261,2.4204485,-0.043409757,0.08646478,-0.096848585,-0.004169475,0.0104454495,-0.04638013,-0.095768064,0.30645782,-9.404425,0.79560274,47.709274,-0.6470326,-2.0098038,-3.1632283,-0.5392985,0.14155793,-0.32107925,25.5,26.25,25.375,28.0,28.75,29.0625
0.10805225,-1.2397884,-1.2396985,-1.157402,-0.028272295,0.022554977,-0.12603839,-0.37559366,-0.328531,0.059997074,3.0781543,-0.62431383,6.9962334e-05,-0.053282313,-0.0057252273,0.0031265167,-0.017312616,0.012442891,0.0036363855,0.44574735,-1.4663655,2.0045712,-2.1079557,-1.5698785,2.4203641,-0.044144068,0.08417352,-0.09892064,-0.0039501195,0.010057802,-0.047717877,-0.15322891,0.2681506,-9.3661175,0.8224646,47.7254,-0.72973156,-1.8850918,-3.1598747,-0.5402256,0.14976174,-0.33805266,25.5,26.25,25.375,28.0,28.75,29.0625
0.1100519,-1.0518543,-1.4214122,-1.1411016,-0.0300519,0.024960969,-0.1274796,-0.37567806,-0.32852906,0.05997436,3.0782037,-0.6242654,0.00012156974,-0.052955907,-0.0058057494,0.00090245093,-0.015923852,0.007692284,0.005208763,0.44567522,-1.4661599,2.0043914,-2.1079319,-1.5698899,2.4202557,-0.044224348,0.089402094,-0.09969977,-0.0035159658,0.010851446,-0.049370777,-0.19153613,0.30645782,-9.461885,0.8112748,47.729877,-0.6930873,-1.8842039,-3.18947,-0.54781616,0.12897174,-0.33945423,25.5,26.25,25.375,28.0,28.75,29.0625
0.11205234,-1.0494605,-1.499485,-1.0609714,-0.029358946,0.026067935,-0.12858805,-0.37580344,-0.32855335,0.059982687,3.0781236,-0.6242705,0.00011823317,-0.054329112,-0.006093995,0.0023527318,-0.017216116,0.010525787,0.0018848168,0.44556713,-1.4659566,2.004151,-2.1079433,-1.5698298,2.420161,-0.044860926,0.08848043,-0.10206292,-0.0033423996,0.010794484,-0.04668167,-0.17238252,0.30645782,-9.423578,0.7978386,47.684196,-0.753852,-1.9221683,-3.1707287,-0.5505172,0.15024132,-0.3948195,25.5,26.25,25.375,28.0,28.75,29.0625
0.114051946,-0.95731616,-1.2771789,-1.1319813,-0.029743062,0.03145429,-0.13137144,-0.37593937,-0.32856542,0.06002032,3.0780332,-0.624308,-1.812023e-05,-0.05403367,-0.006143661,0.0010778904,-0.016473673,0.007654889,0.0026779564,0.44545916,-1.4658238,2.0039241,-2.1079671,-1.5698179,2.420088,-0.044869293,0.09134387,-0.10239206,-0.0029658135,0.011369401,-0.047481924,-0.17238252,0.24899697,-9.289502,0.6702794,47.703903,-0.773624,-1.9928672,-3.2290268,-0.5462145,0.1602075,-0.453265,25.5,26.25,25.375,28.0,28.75,29.0625
0.116051674,-1.6725043,-2.0025802,-1.3937714,-0.0059326002,0.012603527,-0.12196487,-0.37603763,-0.3285743,0.06000135,3.0780623,-0.62419724,-2.4609772e-06,-0.0544555,-0.0063085947,0.00050016626,-0.016892752,0.0063046166,0.0046299817,0.44538686,-1.4656073,2.003732,-2.1079795,-1.5698174,2.419943,-0.045572575,0.09351345,-0.10346419,-0.0030259865,0.012328731,-0.050137322,-0.095768064,0.15322891,-9.289502,0.80679786,47.694946,-0.82152915,-2.0045419,-3.3247685,-0.52974856,0.15763317,-0.45142013,25.5,26.25,25.375,28.0,28.75,29.0625
0.11805223,-1.1017994,-1.044097,-1.0959017,-0.0148103,0.019622475,-0.13190256,-0.37612212,-0.3285875,0.059986144,3.0780394,-0.6241912,7.465618e-05,-0.05537563,-0.006792853,0.0005352495,-0.017029505,0.006629539,0.0069959303,0.445303,-1.4654151,2.0035522,-2.1079671,-1.5697693,2.4198585,-0.045465413,0.095600225,-0.10585007,-0.0030737827,0.0123079745,-0.052394688,-0.11492168,0.13407528,-9.270349,0.8291774,47.694054,-0.8227289,-2.066903,-3.2410145,-0.5409078,0.16246486,-0.45910162,25.5,26.25,25.375,28.0,28.75,29.0625
0.12005181,-1.279423,-1.0977639,-1.0579448,0.002107561,0.011370985,-0.1259529,-0.3762516,-0.3286138,0.060021464,3.07797,-0.6241378,-2.3322355e-05,-0.056576896,-0.0075224224,0.0011474189,-0.018691033,0.007856908,0.0085532265,0.4452189,-1.4652591,2.0032995,-2.1079676,-1.5697445,2.41975,-0.04581504,0.096721,-0.10841217,-0.003455391,0.013279993,-0.0542995,-0.19153613,0.19153613,-9.270349,0.80679786,47.701214,-0.96625435,-1.9102186,-3.3176112,-0.5366472,0.14859867,-0.47799402,25.5,26.25,25.375,28.0,28.75,29.0625
0.122052446,-0.9912598,-1.0795996,-1.0728477,0.0060140947,0.014295362,-0.1332776,-0.3763694,-0.32862082,0.06002886,3.077942,-0.6240744,-4.5215977e-05,-0.056861397,-0.0065618944,0.00032935882,-0.01785557,0.006516553,0.009472659,0.4451103,-1.4650788,2.003084,-2.1079676,-1.5697211,2.4196055,-0.047733497,0.09780756,-0.107701614,-0.0036773928,0.013109383,-0.05713701,-0.05746084,0.22984336,-9.212888,0.81351066,47.672558,-0.7864034,-1.9157395,-3.295208,-0.53129274,0.15414962,-0.48655716,25.5,26.25,25.375,28.0,28.75,29.0625
0.124052286,-0.8961207,-0.66596544,-1.0507821,-0.013856478,0.01362522,-0.13422798,-0.37648878,-0.3286425,0.060011033,3.0779119,-0.6240831,-3.786993e-05,-0.05783562,-0.008278892,0.0015815943,-0.019334389,0.009115103,0.015496621,0.445027,-1.4648271,2.0028555,-2.1080039,-1.5696968,2.4195316,-0.045519076,0.0986475,-0.11151866,-0.003677459,0.01332174,-0.060944237,-0.05746084,0.24899697,-9.212888,0.7866488,47.682407,-0.98410296,-1.8885651,-3.3703377,-0.53388697,0.1563816,-0.46427992,25.5,26.25,25.375,28.0,28.75,29.0625
0.12605213,-0.8682797,-1.3975105,-1.1179739,-0.010901529,0.020037547,-0.13165219,-0.3766387,-0.3286566,0.06005715,3.0778437,-0.6240285,-0.00020017434,-0.0575991,-0.007611156,-2.1109221e-05,-0.017264962,0.0061075664,0.018691203,0.4449189,-1.4646821,2.0025928,-2.1080153,-1.5696973,2.4193983,-0.046157215,0.10159536,-0.11118669,-0.0033452576,0.01276227,-0.064774714,-0.038307227,0.22984336,-9.251195,0.8179876,47.701214,-1.0389066,-2.0262892,-3.3779738,-0.5250955,0.18310548,-0.459909,25.5,26.25,25.375,28.0,28.75,29.0625
0.12805164,-1.0243425,-1.3637067,-1.1068776,-0.020310706,0.022095652,-0.1325616,-0.37673667,-0.32865018,0.060020167,3.0779128,-0.62392503,-6.9787035e-05,-0.058474895,-0.007798535,0.0010818841,-0.018328268,0.0079283025,0.02252128,0.44481072,-1.464419,2.0023763,-2.1079671,-1.5696853,2.4192169,-0.04668907,0.10066697,-0.11282265,-0.0028767872,0.012934477,-0.06913737,0.019153614,0.21068975,-9.346964,0.7665104,47.70659,-1.0422049,-1.7606798,-3.3716393,-0.52741283,0.19209278,-0.4276952,25.5,26.25,25.375,28.0,28.75,29.0625
0.13005249,-0.94686353,-1.8723159,-1.277435,-0.010269321,0.019694414,-0.1316248,-0.37682033,-0.3286627,0.060006138,3.0779088,-0.62378913,-6.6038842e-06,-0.05872155,-0.0073369467,-0.00076758716,-0.017111756,0.0039528147,0.02563619,0.44472614,-1.4642377,2.0022085,-2.1079671,-1.5696367,2.419048,-0.048174437,0.10515069,-0.11365708,-0.0024075953,0.013549285,-0.07373729,-0.019153614,0.21068975,-9.32781,0.8560339,47.695843,-1.0361513,-1.9574151,-3.4770968,-0.52880824,0.18859154,-0.37961665,25.5,26.25,25.375,28.0,28.75,29.0625
0.13205212,-0.8467594,-1.3284293,-1.0230368,-0.023294916,0.01636018,-0.13129066,-0.37696186,-0.32869652,0.060035866,3.0778177,-0.6237481,-8.267682e-05,-0.0605876,-0.008281868,0.0012720848,-0.020114502,0.0073791575,0.028944146,0.4446299,-1.4640465,2.0019324,-2.1079795,-1.5695885,2.418938,-0.048891213,0.104300216,-0.11747139,-0.0021233803,0.014790155,-0.07775961,-0.019153614,0.19153613,-9.385271,0.84708,47.696735,-1.0329478,-1.7638668,-3.2723618,-0.53736836,0.19075471,-0.32333386,25.5,26.25,25.375,28.0,28.75,29.0625
0.13405189,-0.5365087,-1.2470108,-1.243539,-0.018927827,0.021662273,-0.14632854,-0.37705442,-0.3287136,0.06001224,3.0778105,-0.62362957,-2.0028696e-05,-0.05985387,-0.008756038,-7.724633e-05,-0.01960006,0.0045270897,0.03344862,0.44454625,-1.4638299,2.001753,-2.1080034,-1.5695404,2.4187813,-0.04784467,0.107026726,-0.11741565,-0.0021038675,0.015555222,-0.08121795,-0.038307227,0.22984336,-9.346964,0.842603,47.71465,-1.19609,-1.8583206,-3.5777106,-0.5331217,0.1891136,-0.2839639,25.5,26.25,25.375,28.0,28.75,29.0625
0.13605168,-0.9256856,-1.1406858,-1.3316547,-0.018737266,0.019368412,-0.13101438,-0.37719846,-0.32872462,0.060016874,3.077808,-0.6235332,-6.424663e-05,-0.062035333,-0.008497561,0.00044202997,-0.020147078,0.0063723316,0.03326181,0.44443753,-1.4635898,2.0014775,-2.1080034,-1.5695404,2.418613,-0.05005706,0.108684406,-0.12030675,-0.0027667957,0.015253896,-0.083240695,-0.038307227,0.22984336,-9.346964,0.8157518,47.71554,-1.1201994,-1.790998,-3.3396947,-0.5425695,0.19823077,-0.2414389,25.5,26.25,25.375,28.0,28.75,29.0625
0.13805223,-1.2661419,-1.6539023,-1.3111376,-0.0074254735,0.016822392,-0.12753353,-0.37732384,-0.32873777,0.06001464,3.077773,-0.6234296,-5.158518e-05,-0.06427712,-0.008955099,0.0017892817,-0.021308184,0.0095801,0.033987965,0.4443172,-1.4633739,2.0012472,-2.1080153,-1.5694922,2.4184325,-0.050960645,0.10956426,-0.12432852,-0.0030115028,0.014919552,-0.08486731,-0.05746084,0.21068975,-9.346964,0.8179876,47.705692,-1.096408,-1.7495172,-3.3652937,-0.54010034,0.2112051,-0.19992557,25.5,26.25,25.375,28.0,28.75,29.0625
0.14005171,-1.5006089,-1.4920022,-1.4936725,-0.028395105,0.024529707,-0.1287544,-0.37744606,-0.32875353,0.060012847,3.0777667,-0.6233319,-4.1804997e-05,-0.065072015,-0.009143511,0.0019114742,-0.021935085,0.00961634,0.03324522,0.44422102,-1.4631459,2.0009968,-2.1080034,-1.5694684,2.4182763,-0.051667515,0.1107836,-0.12601599,-0.0028440147,0.015469367,-0.08483057,-0.21068975,0.30645782,-9.404425,0.800085,47.695843,-1.1265701,-1.6946883,-3.3602164,-0.5410234,0.21285173,-0.17341068,25.5,26.25,25.375,28.0,28.75,29.0625
0.14205235,-1.5906193,-1.8423898,-1.4401252,-0.04326502,0.03319302,-0.13679063,-0.37758294,-0.32878903,0.06005097,3.0777245,-0.6231518,-0.00013956556,-0.06582555,-0.008924431,0.001974065,-0.021744242,0.009323065,0.03047171,0.44414863,-1.4629658,2.0007079,-2.1079905,-1.5694445,2.418097,-0.052702386,0.11189522,-0.12758893,-0.0020344062,0.015429386,-0.083089605,-0.21068975,0.30645782,-9.481039,0.73741806,47.691364,-1.0754771,-1.6943462,-3.3682914,-0.54042435,0.21250108,-0.16113487,25.5,26.25,25.375,28.0,28.75,29.0625
0.14405173,-1.7761754,-1.7831697,-1.4726425,-0.052699793,0.040134944,-0.1296567,-0.3777198,-0.32878402,0.060043633,3.0777276,-0.6231335,-0.00013823048,-0.06673074,-0.009017388,0.0016164616,-0.022100804,0.008253325,0.02919065,0.44401628,-1.4627254,2.0004566,-2.107979,-1.5694441,2.417953,-0.05383597,0.11440965,-0.129656,-0.0016697529,0.016209487,-0.08294112,-0.22984336,0.3256114,-9.481039,0.79560274,47.667187,-1.1534446,-1.7118263,-3.379263,-0.54974496,0.22347522,-0.1873877,25.5,26.25,25.375,28.0,28.75,29.0625
0.14605236,-2.12474,-2.1915982,-1.5039407,-0.05198534,0.033782363,-0.12395083,-0.37786356,-0.32881874,0.060059488,3.077655,-0.6230071,-0.00021231428,-0.06773418,-0.009035371,0.0022503159,-0.02251357,0.009389012,0.023066707,0.44392005,-1.4625096,2.0001929,-2.1080267,-1.5693959,2.4177873,-0.05459609,0.11465886,-0.13149188,-0.0012859979,0.016095525,-0.07757476,-0.24899697,0.36391866,-9.634268,0.85826975,47.64479,-1.0614283,-1.6734269,-3.3794947,-0.5580019,0.23859848,-0.20891714,25.5,26.25,25.375,28.0,28.75,29.0625
0.14805183,-2.2995474,-2.4289682,-1.4898468,-0.03626311,0.03216234,-0.12011164,-0.37797427,-0.3288269,0.060026843,3.0776525,-0.6229515,-5.1550018e-05,-0.068485595,-0.008998865,0.00087367767,-0.021729017,0.0066353255,0.018267693,0.44378772,-1.4622324,1.9999532,-2.1079905,-1.5693239,2.4176207,-0.055622812,0.11930039,-0.13355613,-0.0010379176,0.016558561,-0.0738021,-0.3256114,0.36391866,-9.595961,0.8493211,47.692257,-1.1962942,-1.9006357,-3.3329804,-0.55905503,0.24238831,-0.2667294,25.5,26.25,25.375,28.0,28.75,29.0625
0.15005267,-2.1249788,-1.8362771,-1.4817239,-0.036823507,0.03863056,-0.12794887,-0.3781168,-0.32886496,0.06004485,3.0776103,-0.6228081,-0.0001339358,-0.069773205,-0.008996496,0.0013450976,-0.022631984,0.0075541986,0.017692994,0.44371527,-1.4620048,1.9996661,-2.1080148,-1.5693,2.4174643,-0.057038233,0.12011278,-0.13554943,-0.0010720335,0.016983433,-0.07464039,-0.38307226,0.28730422,-9.615114,0.7777002,47.71286,-1.1889738,-1.5159715,-3.324479,-0.5699284,0.23558474,-0.27707538,25.5,26.25,25.375,28.0,28.75,29.0625
0.15205236,-2.00335,-1.8036634,-1.5172689,-0.027183777,0.048273236,-0.13267878,-0.37823942,-0.32888097,0.06004435,3.077605,-0.6227716,-9.3996816e-05,-0.07026984,-0.008830381,0.000179753,-0.022381052,0.0050865114,0.0136339795,0.44361874,-1.4617639,1.99939,-2.1079667,-1.5692753,2.4173458,-0.05832452,0.12347567,-0.13663977,-0.0010109728,0.017811561,-0.071867175,-0.3256114,0.28730422,-9.576807,0.8179876,47.66987,-1.154093,-1.7722957,-3.350351,-0.565683,0.24185655,-0.3166381,25.5,26.25,25.375,28.0,28.75,29.0625
0.15405203,-2.2334445,-1.5590452,-1.3655114,-0.02077285,0.049837403,-0.13177991,-0.3783945,-0.32890597,0.06003676,3.0775323,-0.62273633,-9.915416e-05,-0.07291216,-0.009575824,0.00069883995,-0.024149297,0.0076208296,0.013150528,0.44348642,-1.4614873,1.999113,-2.1080158,-1.5692152,2.4172008,-0.059596572,0.12662299,-0.14089611,-0.0029438944,0.018314078,-0.07265168,-0.34476504,0.24899697,-9.595961,0.7284641,47.64837,-1.1741445,-1.7115059,-3.2902794,-0.55663645,0.2482613,-0.34516975,25.5,26.25,25.375,28.0,28.75,29.0625
0.15605167,-1.9124097,-1.5319033,-1.3423711,-0.010716854,0.056940615,-0.124634646,-0.37857687,-0.32891804,0.060061563,3.077451,-0.62268096,-0.00022506519,-0.073164955,-0.008938497,-0.00061052013,-0.023160955,0.0063608387,0.013785585,0.44333,-1.461259,1.998815,-2.1080644,-1.5691913,2.4170203,-0.060743444,0.12883176,-0.14002113,-0.0044572195,0.017973535,-0.074431166,-0.45968673,0.21068975,-9.442732,0.80456203,47.70211,-1.108682,-1.7877045,-3.4174345,-0.54078275,0.26733005,-0.34709466,25.5,26.25,25.375,28.0,28.75,29.0625
0.15805233,-2.2158422,-1.2805154,-1.2615193,-0.003957592,0.043009605,-0.12214661,-0.3787056,-0.32893687,0.060071062,3.077411,-0.6226356,-0.00016665866,-0.07432845,-0.009208894,-0.00050291314,-0.023993129,0.006444752,0.013439026,0.4432096,-1.4610307,1.9985269,-2.1080039,-1.5691308,2.4168768,-0.06172523,0.13072994,-0.14240721,-0.004396969,0.018686917,-0.07506502,-0.40222588,0.095768064,-9.346964,0.83365434,47.694054,-1.1782401,-1.7862989,-3.2492886,-0.5296333,0.25868878,-0.35765004,25.5,26.25,25.375,28.0,28.75,29.0625
0.16005166,-1.9391266,-0.90642303,-1.2381023,-0.004461133,0.04596514,-0.12766613,-0.37885174,-0.3289727,0.060058273,3.0773525,-0.6225851,-0.00018006963,-0.0751723,-0.009491563,-0.00056539977,-0.024098994,0.005876961,0.012516761,0.4431136,-1.4607427,1.9982513,-2.1080635,-1.5690826,2.4167569,-0.062148392,0.13291276,-0.14489055,-0.0036253557,0.019026909,-0.07456364,-0.38307226,0.17238252,-9.289502,0.82022345,47.72719,-1.1873025,-1.7731252,-3.3311229,-0.5366178,0.27465868,-0.38738543,25.5,26.25,25.375,28.0,28.75,29.0625
0.16205218,-2.0400703,-0.66032934,-0.95617825,0.0030573404,0.03128683,-0.13041055,-0.37904397,-0.32900003,0.060098454,3.0773013,-0.6224765,-0.0003290762,-0.07614459,-0.009165755,-0.0009425627,-0.02352426,0.005149981,0.013792283,0.44299313,-1.4604901,1.9978799,-2.1080635,-1.5690826,2.4165754,-0.0634526,0.13518995,-0.14667284,-0.0032102799,0.018830601,-0.0771399,-0.34476504,0.21068975,-9.270349,0.8627467,47.691364,-1.1422538,-1.925432,-3.3540263,-0.52995396,0.26512074,-0.38322243,25.5,26.25,25.375,28.0,28.75,29.0625
0.16405162,-1.8072319,-0.83058953,-0.9755185,0.0045806533,0.037712127,-0.13376817,-0.37921077,-0.32900017,0.060091488,3.0772462,-0.62248635,-0.00031206326,-0.07723191,-0.009338996,-0.0020552573,-0.023508765,0.0029719109,0.0114055695,0.44281274,-1.4602131,1.9975919,-2.108075,-1.5690349,2.4164083,-0.06467114,0.13979933,-0.14924976,-0.0032660142,0.019747002,-0.07596924,-0.4405331,0.17238252,-9.232041,0.84708,47.699425,-1.1402322,-1.9144685,-3.2645,-0.534803,0.26761556,-0.4160974,25.5,26.25,25.375,28.0,28.75,29.0625
0.16605231,-2.2282734,-0.8816918,-1.029299,0.0012315622,0.021752693,-0.13049595,-0.3793694,-0.3290482,0.060105436,3.0771694,-0.6223738,-0.00038782103,-0.07959898,-0.010045568,-5.9820453e-05,-0.026069107,0.007312166,0.01316152,0.44272828,-1.4599496,1.9972795,-2.108123,-1.5689863,2.4162636,-0.065732524,0.13930862,-0.15316722,-0.0038683892,0.02020393,-0.07878242,-0.34476504,0.1340753,-9.174581,0.7978386,47.698532,-1.088564,-1.8962779,-3.2150142,-0.5286656,0.29873136,-0.4298545,25.5,26.25,25.375,28.0,28.75,29.0625
0.16805187,-1.9884018,-1.0840894,-0.85185975,-0.005980831,0.02926993,-0.13322175,-0.37951517,-0.32902735,0.06009371,3.0771601,-0.62238723,-0.00030865066,-0.07966824,-0.00943859,-0.001177142,-0.024937559,0.0055636363,0.018507462,0.44253597,-1.4596975,1.9970163,-2.1080754,-1.568951,2.416081,-0.06670659,0.14127204,-0.15275063,-0.0041660573,0.019939888,-0.0851031,-0.2681506,0.22984336,-9.193734,0.86498255,47.70032,-1.0912673,-1.8678727,-3.3764305,-0.5206071,0.2940849,-0.36808816,25.5,26.25,25.375,28.0,28.75,29.0625
0.1700525,-1.6258346,-1.6267294,-0.92922086,-0.00491946,0.04113798,-0.12386948,-0.37968814,-0.3290608,0.06011553,3.077129,-0.6222263,-0.0003735271,-0.08023165,-0.009199271,-0.0016296301,-0.024589214,0.0043423264,0.019189974,0.44242766,-1.4594213,1.9966577,-2.1080635,-1.5689262,2.4158764,-0.06776154,0.14318669,-0.15401018,-0.00356195,0.020156916,-0.086838394,-0.30645782,0.15322891,-9.212888,0.7597976,47.72002,-1.1513218,-1.8708229,-3.3937695,-0.5203217,0.2939384,-0.365973,25.5,26.25,25.375,28.0,28.75,29.0625
0.17205194,-1.5756412,-1.3699465,-0.89795053,-0.013187443,0.041707627,-0.13112172,-0.37984473,-0.32905552,0.060084864,3.0771363,-0.62224627,-0.00031774322,-0.08205682,-0.008469918,-0.00093151676,-0.02578783,0.005052755,0.02094087,0.44227052,-1.4590979,1.9963697,-2.1080635,-1.5689143,2.415731,-0.07122478,0.14351258,-0.15617068,-0.002872512,0.020939907,-0.09205225,-0.2873042,0.19153613,-9.212888,0.7866488,47.66808,-0.9714253,-1.7815521,-3.411459,-0.52539814,0.3021361,-0.32372344,25.5,26.25,25.375,28.0,28.75,29.0625
0.17405203,-1.9114457,-1.5110748,-0.94684935,-0.006059702,0.0246848,-0.12507473,-0.38000885,-0.32908067,0.060091186,3.0770798,-0.62211525,-0.0003608214,-0.0820497,-0.009656584,-0.0009674349,-0.026206125,0.0045336983,0.027745653,0.4421392,-1.4588336,1.9960707,-2.1080992,-1.5688661,2.4155252,-0.069377735,0.14539532,-0.15834534,-0.0022771158,0.021552889,-0.0970072,-0.1340753,0.21068975,-9.212888,0.842603,47.723602,-1.0725704,-1.7685714,-3.3221679,-0.5158875,0.31058198,-0.258412,25.5,26.25,25.375,28.0,28.75,29.0625
0.17605169,-0.7319004,-0.9311792,-0.8663332,-0.009356903,0.038494315,-0.14456716,-0.38019767,-0.32909736,0.06010741,3.077022,-0.62202513,-0.00038960238,-0.083342955,-0.008888767,-0.0011930474,-0.026491178,0.003982526,0.029483879,0.4419703,-1.4585456,1.9957117,-2.1080873,-1.568818,2.4153075,-0.072245434,0.14692196,-0.1595825,-0.0021758308,0.02205949,-0.10161099,-0.15322891,0.21068975,-9.078813,0.75755644,47.723602,-1.0031254,-1.7526085,-3.3843677,-0.5185946,0.29806477,-0.20870078,25.5,26.25,25.375,28.0,28.75,29.0625
0.17805228,-1.4955239,-1.0877084,-0.9447109,0.003114196,0.007444511,-0.13197245,-0.38034058,-0.32912406,0.060071286,3.0770159,-0.6219675,-0.00029903222,-0.08524976,-0.008000863,-0.001777167,-0.026677195,0.003073911,0.02934282,0.44186082,-1.4581975,1.9954113,-2.1080992,-1.5687698,2.415163,-0.07592621,0.1499987,-0.16164647,-0.0024351568,0.022614654,-0.10514983,-0.095768064,0.22984336,-9.11712,0.80456203,47.705692,-0.7957056,-1.7311327,-3.3980932,-0.5150641,0.32222003,-0.15557097,25.5,26.25,25.375,28.0,28.75,29.0625
0.18005171,-1.332286,-1.0635574,-0.85003245,-0.002650861,0.013171328,-0.12254147,-0.38052627,-0.3291424,0.06009367,3.0769324,-0.6217946,-0.000352009,-0.08574565,-0.009377711,0.0005166248,-0.029408101,0.0077001634,0.031825613,0.44168168,-1.4579471,1.995088,-2.1081226,-1.5686973,2.4148867,-0.07408139,0.14668258,-0.16312435,-0.0029796674,0.023115229,-0.10578518,-0.19153613,0.24899697,-9.155427,0.83365434,47.71554,-0.96624476,-1.7073888,-3.453196,-0.5130805,0.3182374,-0.117912464,25.5,26.25,25.375,28.0,28.75,29.0625
0.18205233,-1.6551523,-1.3919915,-1.127396,0.0012919564,0.009390738,-0.12760583,-0.380671,-0.32915285,0.060061045,3.0769145,-0.6217357,-0.00022366598,-0.08702872,-0.0086441,9.887446e-05,-0.029419258,0.006724632,0.02756534,0.44152462,-1.4576224,1.9948,-2.1081111,-1.5686253,2.4146953,-0.0768214,0.14879616,-0.16461915,-0.002714336,0.023535073,-0.10426497,-0.15322891,0.17238252,-9.232041,0.8224646,47.707485,-0.8628457,-1.6927278,-3.4511728,-0.5153362,0.3271702,-0.1071858,25.5,26.25,25.375,28.0,28.75,29.0625
0.18405178,-1.5041867,-1.3991656,-1.3506864,-0.011429406,0.02256418,-0.12365705,-0.3808824,-0.3291804,0.0600852,3.076867,-0.6215936,-0.00034783984,-0.087975584,-0.008828354,-7.420286e-05,-0.029369667,0.0061901337,0.023810858,0.4413805,-1.4573106,1.9944042,-2.108135,-1.5686134,2.4144688,-0.07739038,0.15121348,-0.16707055,-0.0021778722,0.023722988,-0.10107536,-0.13407528,0.15322891,-9.308656,0.842603,47.691364,-0.8165256,-1.6222141,-3.3673706,-0.50800985,0.3261668,-0.11212067,25.5,26.25,25.375,28.0,28.75,29.0625
0.18605264,-1.6443766,-1.5111768,-1.3153224,-0.01365119,0.022590233,-0.13028957,-0.3810565,-0.32918358,0.06009571,3.076812,-0.62156564,-0.00034562903,-0.089297324,-0.008630667,1.3859016e-05,-0.029404808,0.0061648297,0.018490715,0.44120005,-1.4570463,1.9940814,-2.1081107,-1.5685652,2.414278,-0.078901984,0.15310661,-0.16954513,-0.0015869755,0.023761673,-0.097264536,-0.1340753,0.19153613,-9.346964,0.800085,47.70211,-0.8302902,-1.573509,-3.4162283,-0.5248379,0.3447801,-0.14002119,25.5,26.25,25.375,28.0,28.75,29.0625
0.18805203,-1.900243,-1.5053535,-1.35212,-0.013864585,0.018823147,-0.12551768,-0.38121253,-0.32919985,0.06006555,3.0767682,-0.6215587,-0.00024788137,-0.09043131,-0.008591869,0.0009085262,-0.030815655,0.0074548735,0.013928789,0.4410437,-1.4567109,1.993781,-2.108122,-1.5684928,2.414123,-0.08040759,0.15266122,-0.1712277,-0.0012258767,0.024479285,-0.09420791,-0.11492168,0.17238252,-9.32781,0.8918391,47.70211,-0.84019464,-1.5934794,-3.3858812,-0.51160914,0.33755803,-0.18786645,25.5,26.25,25.375,28.0,28.75,29.0625
0.19005257,-1.3723568,-1.0206041,-1.5461062,-0.015920887,0.028694974,-0.12843923,-0.3814162,-0.32919934,0.060068406,3.0768046,-0.6214156,-0.00032601287,-0.091200165,-0.008299257,-9.248976e-05,-0.030527223,0.005313156,0.009402365,0.4408868,-1.4563744,1.9933981,-2.1081107,-1.568529,2.4138725,-0.08201369,0.15596262,-0.17270492,-0.0009977587,0.025131013,-0.09128535,-0.24899697,0.21068975,-9.423578,0.81351066,47.694054,-0.6029894,-1.6697133,-3.3777509,-0.51279604,0.32679498,-0.2291035,25.5,26.25,25.375,28.0,28.75,29.0625
0.1920521,-1.5476925,-1.6545511,-1.9844273,0.004663154,0.024526225,-0.11526982,-0.3815706,-0.32924315,0.06008022,3.0766692,-0.62140703,-0.00026023266,-0.09172868,-0.008979744,-0.0010791317,-0.030093513,0.0034626946,0.008332234,0.44074324,-1.456109,1.9930738,-2.1080987,-1.5683964,2.4137409,-0.08143355,0.16022499,-0.1752541,-0.00084148673,0.025526896,-0.089631796,-0.22984336,0.17238252,-9.5385,0.8806493,47.690468,-0.73582065,-1.7568073,-3.4501,-0.5311919,0.34349728,-0.2714604,25.5,26.25,25.375,28.0,28.75,29.0625
0.19405168,-1.1866351,-1.1850019,-1.9240631,-0.023848573,0.045873217,-0.13099042,-0.38176537,-0.32924902,0.06007577,3.0766063,-0.62141603,-0.00025881125,-0.09347596,-0.007967637,-0.0013586198,-0.030340659,0.002855763,0.0040256116,0.44054988,-1.4557853,1.9927272,-2.1081107,-1.5683483,2.4135613,-0.085120276,0.16229036,-0.17698346,-0.00072768214,0.026010847,-0.08900968,-0.19153613,0.21068975,-9.653421,0.85155696,47.70032,-0.5927943,-1.6519966,-3.4742897,-0.5184667,0.32565242,-0.28628382,25.5,26.25,25.375,28.0,28.75,29.0625
0.19605228,-2.1656203,-1.8065386,-1.8859228,-0.03272523,0.037162382,-0.11808085,-0.3819328,-0.32926458,0.060047198,3.0766153,-0.6213016,-0.00019290438,-0.09269908,-0.009279156,-0.0025546304,-0.029596323,0.0006035424,0.0044825496,0.440407,-1.4554248,1.992392,-2.1081102,-1.5683125,2.413346,-0.08213714,0.16580506,-0.1782298,-0.0006410766,0.026290512,-0.086482935,-0.3256114,0.22984336,-9.730036,0.8627467,47.66808,-0.6180293,-1.9015789,-3.5296373,-0.5275828,0.3463521,-0.36101007,25.5,26.25,25.375,28.0,28.75,29.0625
0.1980517,-1.9671272,-2.0624306,-1.9179962,-0.04647352,0.059802666,-0.12516053,-0.38212618,-0.32927436,0.06006118,3.0765574,-0.6213465,-0.00022969533,-0.093860075,-0.009388747,-0.0028418994,-0.02984369,9.6952615e-05,0.00553562,0.44023862,-1.4551243,1.9920205,-2.1080863,-1.5682887,2.4132133,-0.08319813,0.16850035,-0.18063064,-0.00057292613,0.026735382,-0.088593945,-0.40222588,0.21068975,-9.825804,0.8493211,47.682407,-0.7572725,-1.8148029,-3.474506,-0.5413295,0.36129767,-0.3735848,25.5,26.25,25.375,28.0,28.75,29.0625
0.20005208,-1.967922,-2.350612,-1.6686441,-0.05285017,0.06495313,-0.12365606,-0.3823304,-0.32928744,0.06005745,3.0765078,-0.6213767,-0.00022340778,-0.094517626,-0.0096038645,-0.0029402813,-0.029577216,0.00019826733,0.0019827003,0.44005868,-1.4547644,1.9916261,-2.108074,-1.5682524,2.4130588,-0.08312387,0.1701696,-0.18233222,-0.00051789364,0.02644501,-0.084965214,-0.36391866,0.30645782,-9.787497,0.81351066,47.68599,-0.7304287,-1.9651756,-3.5420203,-0.5393651,0.36456066,-0.4403941,25.5,26.25,25.375,28.0,28.75,29.0625
0.20205173,-2.3721237,-2.0669196,-1.6615733,-0.050938502,0.0392115,-0.12456346,-0.3825275,-0.32930794,0.06007428,3.0764456,-0.62126744,-0.00026853365,-0.095433176,-0.01006908,-0.0026578761,-0.030792482,0.00051753665,0.002584463,0.43989062,-1.4544644,1.9912542,-2.108074,-1.5682038,2.4128306,-0.08365347,0.17143616,-0.18444273,-0.00047251774,0.027414648,-0.08609296,-0.2681506,0.24899697,-9.672575,0.9612189,47.658226,-0.7789322,-1.8509356,-3.488675,-0.5557813,0.3594399,-0.50026846,25.5,26.25,25.375,28.0,28.75,29.0625
0.20405227,-2.02974,-1.7335323,-1.4451528,-0.044995096,0.02589046,-0.122421,-0.38270947,-0.32933837,0.0600484,3.0764008,-0.62123626,-0.0002151705,-0.09741818,-0.011764613,-0.0008552862,-0.03373656,0.0038978613,0.005905933,0.4397468,-1.4540813,1.9908928,-2.1080983,-1.5681437,2.4126732,-0.08301141,0.17229164,-0.18956983,-0.00050172955,0.028635932,-0.088768825,-0.21068975,0.3256114,-9.5385,0.84708,47.679718,-0.9022126,-1.7845682,-3.4368322,-0.54247355,0.3523024,-0.49229798,25.5,26.25,25.375,28.0,28.75,29.0625
0.20605193,-1.0575649,-1.0481945,-1.4658105,-0.03681163,0.025024783,-0.13589047,-0.38293484,-0.32934403,0.060062885,3.0763402,-0.6212203,-0.00028177578,-0.097946554,-0.012334354,-0.00048346128,-0.034665253,0.0045779254,0.012176978,0.43954283,-1.4537458,1.9904865,-2.1080983,-1.5681194,2.4124672,-0.08272847,0.17289317,-0.19113651,-0.0005266108,0.029205581,-0.09475377,-0.11492168,0.3256114,-9.519346,0.8291774,47.696735,-0.9748988,-1.853114,-3.5151045,-0.5466968,0.35744813,-0.5011565,25.5,26.25,25.375,28.0,28.75,29.0625
0.20805244,-0.9987326,-1.3085238,-1.4623445,-0.021506796,0.017683422,-0.13348752,-0.38313878,-0.3293868,0.060072478,3.0762405,-0.6211591,-0.00029158645,-0.09843387,-0.012465895,-0.00090963586,-0.03437603,0.0039226934,0.016840132,0.43938693,-1.4533972,1.9900793,-2.1081102,-1.5680355,2.412286,-0.082875274,0.17492613,-0.1924954,-0.000460092,0.029239425,-0.09956078,0.019153614,0.38307226,-9.5385,0.85826975,47.72719,-1.0179415,-1.8933265,-3.4298296,-0.53714967,0.36441123,-0.45233646,25.5,26.25,25.375,28.0,28.75,29.0625
0.2100519,-0.7822028,-1.4043458,-1.3981394,-0.03483965,0.021880923,-0.13198674,-0.38332215,-0.3294153,0.060069207,3.0761862,-0.62098974,-0.00028454736,-0.099180885,-0.012616005,-0.0017143133,-0.034340974,0.0033293623,0.023878276,0.4392307,-1.453073,1.9897317,-2.1081345,-1.5679635,2.4120312,-0.08335625,0.1778044,-0.19365108,-0.0016003685,0.029478587,-0.10707714,-0.038307227,0.40222588,-9.519346,0.87617236,47.733456,-0.9897224,-1.8291066,-3.4025524,-0.53613585,0.36623883,-0.4179507,25.5,26.25,25.375,28.0,28.75,29.0625
0.21205242,-1.0228113,-1.9626012,-1.258694,-0.044378027,0.023625419,-0.12265497,-0.38353342,-0.32944193,0.060085602,3.076138,-0.6208804,-0.0003022049,-0.10134747,-0.013725198,0.0001292286,-0.037393417,0.007910324,0.030389419,0.43906254,-1.4527255,1.9892992,-2.1080992,-1.5679153,2.411801,-0.08368545,0.17747808,-0.19720432,-0.0031396125,0.030306306,-0.113913275,0.0,0.36391866,-9.346964,0.9254084,47.71554,-1.0144532,-1.7871648,-3.437729,-0.5052249,0.34866464,-0.3296402,25.5,26.25,25.375,28.0,28.75,29.0625
0.21405192,-0.78777254,-2.0408077,-1.1805109,-0.051158577,0.020905504,-0.12452253,-0.38374373,-0.3294683,0.0600745,3.0760949,-0.6207536,-0.00031410242,-0.10185255,-0.013919501,0.00012730398,-0.039185334,0.007087812,0.034193385,0.4388942,-1.4523418,1.9889053,-2.108135,-1.5678662,2.4115593,-0.085027374,0.17826085,-0.19817562,-0.0029505678,0.03229682,-0.11905583,0.05746084,0.3256114,-9.251195,0.8672237,47.70032,-0.97513974,-1.8097159,-3.5609941,-0.5008674,0.32159263,-0.27084967,25.5,26.25,25.375,28.0,28.75,29.0625
0.21605246,-0.110559836,-1.3101183,-1.0093665,-0.045766354,0.013284813,-0.13354428,-0.38392544,-0.32949588,0.06006484,3.07604,-0.62062615,-0.00029039313,-0.10245789,-0.013955377,-1.2226311e-05,-0.039325997,0.006352032,0.03625972,0.43873802,-1.4520059,1.9885587,-2.1081588,-1.5677942,2.4113307,-0.08573399,0.17982857,-0.1998197,-0.0022481484,0.03274876,-0.12182649,0.038307227,0.34476504,-9.232041,0.8314132,47.71286,-1.0243702,-1.7484384,-3.47834,-0.500774,0.3324878,-0.22614847,25.5,26.25,25.375,28.0,28.75,29.0625
0.21805207,-0.06959846,-0.8144646,-1.0288668,-0.023762705,-0.0060209124,-0.12809496,-0.38414487,-0.32953504,0.060078535,3.0759451,-0.62043446,-0.00027908958,-0.10307836,-0.014587843,0.00037834226,-0.041217197,0.0061781253,0.036223035,0.43854576,-1.4516467,1.9881271,-2.1081583,-1.567685,2.411031,-0.0862275,0.1806233,-0.20177397,-0.0017196799,0.03454593,-0.122278504,0.019153614,0.28730422,-9.097966,0.85826975,47.699425,-0.986061,-1.5140073,-3.4812493,-0.5057174,0.31703484,-0.1861524,25.5,26.25,25.375,28.0,28.75,29.0625
0.22005263,0.022093771,-0.252251,-1.1097267,-0.006253931,-0.014546962,-0.12035831,-0.38436732,-0.32954937,0.060063224,3.0758808,-0.620423,-0.00022681509,-0.10406842,-0.014999482,0.00055865815,-0.042347554,0.006004716,0.03268764,0.4383297,-1.4512389,1.9877075,-2.1081583,-1.567613,2.4108162,-0.08698185,0.18232654,-0.2042586,-0.001256775,0.035638567,-0.119494714,0.0,0.24899697,-9.136273,0.7732232,47.70032,-1.045902,-1.5509505,-3.5136561,-0.4986711,0.28193468,-0.20853485,25.5,26.25,25.375,28.0,28.75,29.0625
0.22205245,0.2679252,-0.40722165,-1.3461328,0.01551991,-0.009199786,-0.11927517,-0.38457632,-0.32956815,0.060075775,3.0758324,-0.6203574,-0.0003222552,-0.10552008,-0.015552868,0.0014768059,-0.043235052,0.007878461,0.027668154,0.43817368,-1.4509151,1.9873232,-2.1081822,-1.5676011,2.4106257,-0.08716506,0.18326086,-0.2075074,-0.0010227883,0.03564269,-0.114653654,0.095768064,0.22984336,-9.232041,0.90750587,47.678825,-1.0861871,-1.5583367,-3.3673587,-0.4956025,0.26617563,-0.24477401,25.5,26.25,25.375,28.0,28.75,29.0625
0.22405204,-0.4261991,-0.63776815,-1.1307708,0.0084598735,-0.0067102658,-0.12096645,-0.3847532,-0.32961655,0.06006443,3.0757785,-0.62013847,-0.00020829016,-0.10690267,-0.015308921,0.0011316544,-0.044038765,0.0070134364,0.020827604,0.43802878,-1.4505427,1.9869283,-2.1081583,-1.5674809,2.410351,-0.089484826,0.1857983,-0.20961307,-0.0010108837,0.036725357,-0.11013046,0.095768064,0.22984336,-9.32781,0.82694155,47.694946,-0.92096806,-1.4689101,-3.3798652,-0.49478036,0.24963449,-0.31131676,25.5,26.25,25.375,28.0,28.75,29.0625
0.22605173,-1.0663064,-1.4563646,-1.3558366,-0.010769344,0.004146364,-0.1226833,-0.3849626,-0.329649,0.0600633,3.0757086,-0.620067,-0.00015872566,-0.106360756,-0.016544102,0.00019012883,-0.04453136,0.0047543314,0.021026343,0.43784952,-1.4501585,1.9864968,-2.1081345,-1.567396,2.4101362,-0.0875893,0.18873641,-0.21083222,-0.0008871112,0.038129814,-0.10843048,0.019153614,0.2681506,-9.308656,0.83589023,47.694946,-1.1725053,-1.6522267,-3.3871622,-0.4870508,0.2253136,-0.35944965,25.5,26.25,25.375,28.0,28.75,29.0625
0.22805215,-1.2358756,-1.9226714,-1.4960197,-0.033858214,0.028547268,-0.1214744,-0.38516614,-0.3296684,0.060070846,3.0756555,-0.6200203,-0.00012947578,-0.108003505,-0.0151823135,-0.0018205357,-0.043649107,0.0008037616,0.016755154,0.43766788,-1.4498091,1.9860786,-2.1080868,-1.567336,2.4099324,-0.092058994,0.19435573,-0.21259588,-0.0007796574,0.039008472,-0.10862562,-0.038307227,0.30645782,-9.3661175,0.83589023,47.711063,-1.0167384,-1.7788221,-3.4683785,-0.48401374,0.20434424,-0.37224883,25.5,26.25,25.375,28.0,28.75,29.0625
0.2300517,-1.2991409,-2.1526108,-1.4615562,-0.050377138,0.040838033,-0.12885718,-0.3853971,-0.32971966,0.060080558,3.075554,-0.61993927,-0.00018167449,-0.10809599,-0.01705927,-0.0016325631,-0.044483244,0.000826149,0.019467952,0.43751308,-1.4494131,1.9856223,-2.1081216,-1.5672635,2.4097402,-0.08909631,0.19670446,-0.21583953,-0.00024796775,0.039761413,-0.108369365,-0.1340753,0.40222588,-9.423578,0.84484416,47.709274,-1.1945912,-1.6959829,-3.329795,-0.48356178,0.18723682,-0.41717595,25.5,26.25,25.375,28.0,28.75,29.0625
0.23205219,-1.4688715,-2.5754626,-1.7026458,-0.05429178,0.05165723,-0.11827305,-0.38558596,-0.32974744,0.060054325,3.0754797,-0.6198866,-4.1432962e-05,-0.110319674,-0.017105939,0.00042352016,-0.0460375,0.0050348667,0.018033521,0.43732044,-1.4490184,1.9852389,-2.1081102,-1.5671438,2.4095242,-0.090622865,0.1954148,-0.21921994,-2.6358935e-05,0.039381664,-0.10846142,-0.3256114,0.49799395,-9.404425,0.8605109,47.711964,-1.1588827,-1.7500403,-3.3908567,-0.49559638,0.1657308,-0.44125003,25.5,26.25,25.375,28.0,28.75,29.0625
0.23405172,-2.228541,-2.4495032,-1.8233867,-0.05191901,0.040590215,-0.11507938,-0.38582647,-0.329774,0.06007594,3.075411,-0.6197758,-0.00010262779,-0.11152612,-0.017069051,0.00100196,-0.047111668,0.0061035207,0.01707891,0.43712813,-1.4486467,1.9847716,-2.1080983,-1.5670956,2.4092717,-0.09201297,0.1957807,-0.22102089,-1.7210502e-06,0.039913412,-0.10889216,-0.2681506,0.51714754,-9.519346,0.8627467,47.698532,-1.162726,-1.6557696,-3.3662524,-0.5004167,0.14290744,-0.43913516,25.5,26.25,25.375,28.0,28.75,29.0625
0.2360524,-1.8274355,-2.4447155,-1.7560239,-0.050421923,0.054555997,-0.12345166,-0.386017,-0.32980925,0.060047526,3.075378,-0.619671,6.7616807e-06,-0.11111167,-0.016235743,-0.00041161437,-0.04601354,0.003377521,0.02083836,0.43697175,-1.448227,1.9843649,-2.1080863,-1.5670117,2.4090543,-0.09324448,0.19736254,-0.2196372,-1.12372284e-07,0.04008929,-0.11388469,-0.3256114,0.47884035,-9.5385,0.85826975,47.670765,-1.1577519,-1.7364038,-3.4587135,-0.49365875,0.11523506,-0.4627086,25.5,26.25,25.375,28.0,28.75,29.0625
0.23805198,-1.9424434,-2.27294,-1.3615773,-0.06072979,0.06684938,-0.12522127,-0.38627312,-0.3298517,0.06008596,3.0752432,-0.6195449,-0.00013529877,-0.11164377,-0.016565608,-0.0007728498,-0.0455268,0.0030923404,0.02591088,0.43677977,-1.4478791,1.983899,-2.108134,-1.5669397,2.408801,-0.09282311,0.19961041,-0.22138697,-7.337107e-09,0.039801143,-0.11852855,-0.40222588,0.4405331,-9.481039,0.8537928,47.670765,-1.0800318,-1.7068838,-3.5729785,-0.4999126,0.105319455,-0.398902,25.5,26.25,25.375,28.0,28.75,29.0625
0.24005255,-1.9757738,-1.7380087,-1.4346267,-0.04685352,0.06725873,-0.12642331,-0.38650373,-0.32989928,0.06009081,3.0751219,-0.6194772,-9.814435e-05,-0.11183026,-0.01637592,-0.0015635749,-0.04515077,0.0016565111,0.032405667,0.43658775,-1.4474709,1.9834317,-2.108134,-1.5668195,2.4085824,-0.09345206,0.2015108,-0.22177963,-4.790606e-10,0.04009803,-0.12564935,-0.4405331,0.4213795,-9.461885,0.86945957,47.652847,-1.2639294,-1.607507,-3.6067762,-0.48735213,0.08493929,-0.3504085,25.5,26.25,25.375,28.0,28.75,29.0625
0.2420522,-1.9045942,-1.6704459,-1.4560755,-0.018435486,0.07397739,-0.12561223,-0.38670394,-0.32992962,0.060055364,3.0750976,-0.6193185,3.8509857e-05,-0.11366365,-0.014981096,-0.002030978,-0.044179406,0.0013738984,0.03417021,0.4364064,-1.4470272,1.9830135,-2.1081216,-1.5667237,2.4083052,-0.0970496,0.20379291,-0.2233523,-3.1279236e-11,0.039347652,-0.13101304,-0.5554548,0.2681506,-9.576807,0.91421866,47.66539,-0.9964044,-1.6140697,-3.6839366,-0.47416043,0.066318065,-0.26881403,25.5,26.25,25.375,28.0,28.75,29.0625
0.24405174,-2.125631,-0.64527166,-1.2944794,-0.024154386,0.072370805,-0.121277235,-0.3869618,-0.3299791,0.06007842,3.0749938,-0.6191776,-4.6684447e-05,-0.11402501,-0.015362009,-0.0027514396,-0.04330329,0.00048167098,0.040517565,0.4362267,-1.4466188,1.9825095,-2.108146,-1.5666522,2.408051,-0.096321344,0.20672011,-0.2250607,-2.0423108e-12,0.038962502,-0.13662691,-0.4213795,0.22984336,-9.481039,0.84484416,47.672558,-1.1178294,-1.6903603,-3.620007,-0.47605902,0.050824746,-0.17997265,25.5,26.25,25.375,28.0,28.75,29.0625
0.24605244,-2.1542945,-0.60305,-1.2258563,0.004682957,0.06662941,-0.122399375,-0.38717183,-0.32998842,0.060057294,3.0749836,-0.6189834,9.408192e-06,-0.11617147,-0.014939256,-0.0025062487,-0.043333393,0.001507793,0.03997808,0.436022,-1.4462225,1.9821142,-2.108146,-1.5665921,2.4077265,-0.09861509,0.20905174,-0.22831044,-1.333483e-13,0.038558196,-0.13837989,-0.61291564,0.19153613,-9.2703495,0.90527004,47.65464,-1.1244456,-1.7040293,-3.4992185,-0.46066636,0.04562454,-0.15007398,25.5,26.25,25.375,28.0,28.75,29.0625
0.24805185,-2.0039349,0.03846423,-1.048358,0.014773485,0.070259325,-0.115975544,-0.38743812,-0.33001727,0.060063414,3.0748658,-0.61892426,-8.3889045e-06,-0.11850588,-0.01469873,-0.0009987764,-0.043366086,0.005400275,0.035031702,0.4357816,-1.4457915,1.981623,-2.1081698,-1.5664967,2.4074645,-0.09991085,0.20904614,-0.23183371,-8.706691e-15,0.03694246,-0.13472685,-0.63206923,0.076614454,-9.289502,0.86498255,47.687782,-1.0063065,-1.5857551,-3.5525808,-0.4686704,0.047404304,-0.14741741,25.5,26.25,25.375,28.0,28.75,29.0625
0.25005263,-1.8638268,0.23562013,-1.2461058,0.020861533,0.077183984,-0.13201213,-0.38764173,-0.33005756,0.06005256,3.0748355,-0.6187681,8.287098e-05,-0.12056409,-0.013957557,-0.00020440266,-0.042790845,0.007849743,0.02894802,0.4356248,-1.4453722,1.9811672,-2.1081216,-1.5664138,2.4072142,-0.10194617,0.2096372,-0.23439676,-5.684847e-16,0.035371706,-0.13068002,-0.53630114,0.05746084,-9.251195,0.8112748,47.72719,-0.93749857,-1.5807936,-3.4465332,-0.45641583,0.040891916,-0.18126151,25.5,26.25,25.375,28.0,28.75,29.0625
0.25205213,-2.0086768,-0.11820601,-0.9551544,0.01377634,0.07823968,-0.11938264,-0.38788816,-0.33008564,0.060043577,3.0747375,-0.6187313,8.490979e-05,-0.12224706,-0.013335155,-5.3906206e-05,-0.041636363,0.009101082,0.022693623,0.4354083,-1.4449406,1.9807123,-2.1081579,-1.5663303,2.4069874,-0.103410445,0.21138248,-0.23678555,-3.711799e-17,0.033790532,-0.12588896,-0.61291564,-0.05746084,-9.212888,0.85155696,47.660015,-0.869154,-1.5860858,-3.4417021,-0.44944307,0.062907904,-0.23298953,25.5,26.25,25.375,28.0,28.75,29.0625
0.25405172,-1.6452334,-0.033145342,-0.8476909,0.005282227,0.08359677,-0.124868214,-0.38816288,-0.33011,0.060067512,3.0746706,-0.618624,-4.0270907e-06,-0.12557587,-0.013791553,0.0018834111,-0.042748425,0.013743515,0.01765895,0.435192,-1.4445205,1.980184,-2.108146,-1.5662941,2.406713,-0.10471123,0.21278997,-0.24287207,-2.4235395e-18,0.03283461,-0.1221501,-0.6703765,-0.038307227,-9.11712,0.86498255,47.68062,-0.82571995,-1.4527824,-3.3062491,-0.43541718,0.066051394,-0.30208805,25.5,26.25,25.375,28.0,28.75,29.0625
0.25605232,-1.9385651,0.19014347,-1.0887902,0.015779298,0.071451254,-0.12088735,-0.38840535,-0.33012313,0.060038254,3.0746553,-0.6186048,8.332161e-05,-0.1281302,-0.013513123,0.0029739884,-0.042861782,0.016723545,0.013133694,0.4349753,-1.4440295,1.9796919,-2.1081102,-1.5662464,2.4064865,-0.10656177,0.21402402,-0.24685068,-1.5823982e-19,0.031667095,-0.119476326,-0.61291564,0.0,-9.097966,0.9231726,47.681515,-0.7924991,-1.4589329,-3.164662,-0.43419018,0.06938079,-0.34661758,25.5,26.25,25.375,28.0,28.75,29.0625
0.258052,-1.4980366,-0.38825783,-1.5691808,0.034797084,0.07965189,-0.12759745,-0.38864192,-0.33015093,0.06004224,3.0745573,-0.6185271,9.882377e-05,-0.12805615,-0.012849768,0.0018990501,-0.040373754,0.015534235,0.0107656075,0.43475956,-1.4436333,1.9792384,-2.1081102,-1.566151,2.406235,-0.10647178,0.21591309,-0.24659929,-1.033193e-20,0.029918099,-0.117019504,-0.47884035,0.05746084,-9.251196,0.8537928,47.709274,-0.7963582,-1.4032822,-3.2452602,-0.4251501,0.09994316,-0.39007503,25.5,26.25,25.375,28.0,28.75,29.0625
0.26005247,-1.481212,-0.16250744,-1.5014544,0.002917427,0.08994981,-0.119484775,-0.38890526,-0.33017612,0.060061485,3.074481,-0.61847436,1.2497813e-05,-0.12842536,-0.012677987,0.00038401992,-0.038778313,0.013113215,0.008050658,0.4345554,-1.4432242,1.9787353,-2.1081102,-1.5661153,2.406008,-0.10673243,0.2200481,-0.24786559,-6.746012e-22,0.02949675,-0.11456204,-0.4405331,0.076614454,-9.481039,0.8784135,47.691364,-0.8299623,-1.6375179,-3.3848758,-0.41627562,0.11831069,-0.46929926,25.5,26.25,25.375,28.0,28.75,29.0625
0.26205197,-2.4154212,-1.7141434,-1.461884,-0.0072533926,0.080542535,-0.11331744,-0.38917688,-0.33019212,0.060056027,3.0743928,-0.61855155,-4.3795517e-05,-0.12857713,-0.012366206,-0.00065480155,-0.03646208,0.010733391,0.008087365,0.43432745,-1.4427681,1.9782437,-2.108145,-1.5660795,2.40584,-0.10661956,0.22326122,-0.24958012,0.0016495094,0.02841125,-0.11448508,-0.6512229,0.095768064,-9.423578,0.8918391,47.672558,-0.9092765,-1.6495582,-3.4792771,-0.41788602,0.13469677,-0.51675993,25.5,26.25,25.375,28.0,28.75,29.0625
0.26405254,-2.1394353,-1.6024331,-1.5436577,-0.031012269,0.08391915,-0.11876871,-0.38943395,-0.33020568,0.06004875,3.0743504,-0.6185019,-2.6872702e-05,-0.12725523,-0.0120000485,-0.0026298037,-0.03387351,0.006753549,0.012148992,0.43409982,-1.4423121,1.9777426,-2.1081207,-1.5660318,2.405587,-0.105629615,0.22588314,-0.24830788,0.0024831982,0.02775959,-0.117558196,-0.47884035,0.21068975,-9.346964,0.84484416,47.67166,-0.9044429,-1.8165777,-3.5205247,-0.44017977,0.15082496,-0.5379181,25.5,26.25,25.375,28.0,28.75,29.0625
0.2660524,-1.7171377,-1.9311875,-1.5605087,-0.025409753,0.06379349,-0.1156111,-0.38969088,-0.33023116,0.060039207,3.0743065,-0.61841214,-2.9030025e-05,-0.12927243,-0.010954409,-0.002351643,-0.034402937,0.0074324547,0.018004874,0.43389443,-1.4418446,1.977239,-2.1081207,-1.5659841,2.4053314,-0.10933992,0.22698991,-0.25031206,0.0025965448,0.027991218,-0.12712215,-0.17238252,0.19153613,-9.404425,0.97240865,47.694946,-0.76330745,-1.7305131,-3.548255,-0.43198884,0.17152579,-0.4909367,25.5,26.25,25.375,28.0,28.75,29.0625
0.2680518,-0.9450144,-1.7083844,-1.4273669,-0.03137192,0.039458394,-0.12027247,-0.3899556,-0.3302486,0.060034707,3.0742495,-0.6183556,-4.441415e-05,-0.12978943,-0.012387665,-0.0027433464,-0.033937268,0.007819505,0.028399382,0.43366748,-1.4413882,1.9767364,-2.1081212,-1.565936,2.4050767,-0.106680475,0.23056975,-0.25340748,0.0020070872,0.027435232,-0.13485505,0.0,0.21068975,-9.289502,0.86945957,47.683304,-1.0248226,-1.8398015,-3.7928648,-0.42125666,0.19642383,-0.4103599,25.5,26.25,25.375,28.0,28.75,29.0625
0.27005246,-0.46021652,-1.928218,-1.2780676,-0.024716115,0.010131253,-0.123136245,-0.39021116,-0.3302603,0.060005207,3.0742583,-0.61822003,-5.0603332e-05,-0.13263746,-0.011265121,-0.0016628038,-0.035261612,0.010580752,0.034652647,0.43346187,-1.4408969,1.9762567,-2.1081455,-1.565924,2.4047856,-0.11113756,0.23070033,-0.25600538,0.0014692155,0.027513448,-0.14556381,0.019153614,0.4405331,-9.212888,0.8493211,47.703903,-0.7365755,-1.79336,-3.641158,-0.39339554,0.21514179,-0.30648905,25.5,26.25,25.375,28.0,28.75,29.0625
0.27205193,-0.21306083,-1.8136405,-1.2980299,-0.020851443,-0.01283106,-0.11305838,-0.3904643,-0.33025897,0.06000795,3.0742357,-0.6180945,-2.3613535e-05,-0.13359837,-0.012717327,-4.749535e-05,-0.036678173,0.014304965,0.042759508,0.4332108,-1.4404781,1.9757656,-2.1080859,-1.5658759,2.4044592,-0.10901484,0.23018228,-0.25913563,0.0011857997,0.027256986,-0.15154682,0.019153614,0.47884035,-9.232041,0.87393653,47.695843,-0.8867507,-1.6900806,-3.559599,-0.3807134,0.24219069,-0.23378602,25.5,26.25,25.375,28.0,28.75,29.0625
0.27405253,-0.1193782,-2.228643,-1.4187472,-0.027735109,-0.012518072,-0.11464765,-0.3907492,-0.33030206,0.05999574,3.074177,-0.6178899,-7.408326e-05,-0.13554114,-0.013347851,0.0013517448,-0.03783757,0.01757204,0.04452223,0.43300676,-1.4399618,1.9752263,-2.1081455,-1.5658163,2.4041352,-0.109212145,0.23073378,-0.26304653,0.0011183472,0.026955104,-0.15350343,0.0,0.5554548,-9.232041,0.900793,47.685097,-1.002866,-1.7091866,-3.494204,-0.37981597,0.27553874,-0.1712398,25.5,26.25,25.375,28.0,28.75,29.0625
0.27605224,-0.44318125,-2.483119,-1.308439,-0.049002003,0.00674736,-0.11112078,-0.3910059,-0.3303084,0.05997643,3.074159,-0.6178107,-1.6056947e-05,-0.1369032,-0.014700182,0.0016331774,-0.039873987,0.018058041,0.042892907,0.43276682,-1.4394827,1.9747227,-2.1081097,-1.5657676,2.4038484,-0.10886018,0.23366842,-0.26703924,0.0008797602,0.028589645,-0.15151666,-0.05746084,0.5746084,-9.193734,0.86498255,47.68599,-1.020771,-1.6742697,-3.4611487,-0.34989795,0.28453925,-0.15834406,25.5,26.25,25.375,28.0,28.75,29.0625
0.27805173,-0.5984552,-3.0969532,-1.6429703,-0.04569762,0.020644272,-0.112717934,-0.39129093,-0.33034486,0.05999711,3.0740767,-0.6176815,-8.203754e-05,-0.1374341,-0.014856309,0.0012452407,-0.041214608,0.015897768,0.03534492,0.43255034,-1.4390266,1.9741591,-2.1080978,-1.5657071,2.403562,-0.11030896,0.23573348,-0.26882333,0.0019761964,0.030710466,-0.14540933,-0.019153614,0.7086837,-9.251195,0.89631605,47.666286,-0.8604432,-1.7150432,-3.3448129,-0.35730964,0.3002438,-0.23760979,25.5,26.25,25.375,28.0,28.75,29.0625
0.28005213,-1.0471686,-2.8229415,-1.402635,-0.08355008,0.035223387,-0.110482454,-0.39155215,-0.33036643,0.05997338,3.0740504,-0.61758316,-4.9011247e-05,-0.13685326,-0.015419545,0.0013288266,-0.04109005,0.01402433,0.030106112,0.43233496,-1.438523,1.9736456,-2.1080964,-1.5656585,2.4032888,-0.10910821,0.2363203,-0.27041647,0.0047155092,0.031369753,-0.13896796,-0.1340753,0.68953013,-9.289502,0.87393653,47.687782,-1.0923424,-1.6597227,-3.3954773,-0.37524754,0.31037953,-0.30171555,25.5,26.25,25.375,28.0,28.75,29.0625
0.28205255,-0.7672249,-2.612895,-1.2788036,-0.07734706,0.042323362,-0.1137551,-0.3918325,-0.33040658,0.059968416,3.0739675,-0.61749154,-5.5954006e-06,-0.13775186,-0.015501071,0.0015707228,-0.042754777,0.013403532,0.026747314,0.43210617,-1.4380081,1.973071,-2.108072,-1.5655621,2.4030137,-0.11077493,0.23727691,-0.27234942,0.005564182,0.033144657,-0.1372702,-0.038307227,0.61291564,-9.251195,0.8784135,47.658226,-0.90991783,-1.5834115,-3.4134126,-0.37873632,0.31358632,-0.33622265,25.5,26.25,25.375,28.0,28.75,29.0625
0.284052,-1.014102,-2.2750468,-1.8993819,-0.04994869,0.0220069,-0.11102178,-0.3921052,-0.33040905,0.059960593,3.073935,-0.6174267,-3.5199914e-06,-0.13827996,-0.01591125,0.0010298585,-0.04344376,0.012704592,0.026225958,0.43185422,-1.4375399,1.9725555,-2.1080487,-1.5655254,2.4027257,-0.1109639,0.2395447,-0.2736296,0.0049314527,0.034068268,-0.13693407,-0.019153614,0.7086837,-9.3661175,1.0216395,47.696735,-1.0554154,-1.6540184,-3.4625368,-0.3593685,0.3058094,-0.36398852,25.5,26.25,25.375,28.0,28.75,29.0625
0.2860526,-0.99676096,-2.2423906,-1.5991951,-0.04397517,0.023727382,-0.10279595,-0.39239284,-0.33048502,0.059981436,3.0738173,-0.61723053,-7.873103e-05,-0.13907349,-0.015416307,0.0003078002,-0.04327105,0.012312872,0.02463287,0.43168575,-1.4370475,1.971958,-2.1080725,-1.5654296,2.40245,-0.112457864,0.24139321,-0.27391896,0.003818759,0.034094244,-0.13683021,-0.038307227,0.5554548,-9.423578,0.9254084,47.70032,-1.0651379,-1.7766492,-3.4451723,-0.3557029,0.31079036,-0.38025022,25.5,26.25,25.375,28.0,28.75,29.0625
0.2880521,-0.6570846,-1.7769696,-1.6628984,-0.042190433,0.028871423,-0.11758067,-0.39265725,-0.33047852,0.05992737,3.0738063,-0.6172458,6.4514585e-05,-0.13980667,-0.015333227,-0.00050161564,-0.04315362,0.011232199,0.025907926,0.43140948,-1.4364964,1.971454,-2.1080492,-1.5653695,2.402185,-0.11334279,0.24415064,-0.27522218,0.003423107,0.03444217,-0.13899095,0.076614454,0.45968673,-9.346964,0.94331104,47.701214,-1.0266061,-1.8206077,-3.5806975,-0.35169327,0.34000033,-0.39165026,25.5,26.25,25.375,28.0,28.75,29.0625
0.29005164,-0.3717497,-1.4841682,-1.6533577,-0.021291735,0.023723857,-0.12370411,-0.3929541,-0.33051115,0.05993672,3.0737414,-0.6171338,-2.2339636e-05,-0.14081345,-0.01573885,-0.00044664968,-0.04428639,0.011061031,0.030772975,0.43119323,-1.4360048,1.9708804,-2.108061,-1.5653332,2.4019074,-0.11408279,0.24605548,-0.27766627,0.0036823477,0.035578746,-0.14458899,0.095768064,0.34476504,-9.404425,0.92093146,47.694946,-1.0137386,-1.8378066,-3.5593085,-0.33149418,0.36196792,-0.355563,25.5,26.25,25.375,28.0,28.75,29.0625
0.29205215,-0.5080677,-1.1944306,-1.4139186,-0.019558769,0.014751096,-0.11738576,-0.393251,-0.33056733,0.059957888,3.0735962,-0.61700314,-6.2382234e-05,-0.14127648,-0.016231494,-0.0012859385,-0.044871766,0.008365118,0.038387395,0.4309651,-1.4355246,1.9702924,-2.108072,-1.5652126,2.4016166,-0.11457287,0.24967262,-0.28021607,0.004882919,0.037289713,-0.15268394,0.019153614,0.22984336,-9.404425,0.8985519,47.681515,-1.0320498,-1.8567076,-3.5803187,-0.32864016,0.34272838,-0.28730968,25.5,26.25,25.375,28.0,28.75,29.0625
0.2940516,0.16726446,-0.39843583,-1.2627374,-0.012699759,0.029702399,-0.12138785,-0.39350757,-0.33060023,0.0599242,3.0735908,-0.6168056,3.4320758e-05,-0.14306109,-0.016314888,-0.0009790873,-0.045334656,0.008899731,0.045975175,0.43076053,-1.4349846,1.9697536,-2.1080482,-1.5651406,2.4012895,-0.115975484,0.25209656,-0.28394288,0.005573655,0.03751748,-0.16167308,0.095768064,0.13407528,-9.289502,0.88289046,47.70032,-0.97621346,-1.8986485,-3.4455209,-0.33705518,0.33659935,-0.178204,25.5,26.25,25.375,28.0,28.75,29.0625
0.29605243,-0.19611374,-0.44777843,-1.5285642,0.015149914,0.011872654,-0.11917415,-0.3937972,-0.3306202,0.059901245,3.0735254,-0.6166768,6.683915e-05,-0.14424741,-0.01669533,-0.0005478072,-0.046641484,0.009264338,0.04733114,0.43049645,-1.4344567,1.9692148,-2.1080716,-1.5650562,2.4009535,-0.11684359,0.2534729,-0.2867357,0.00614563,0.038569603,-0.16389212,0.076614454,0.17238252,-9.308657,0.800085,47.682407,-0.9578289,-1.8865168,-3.4282465,-0.33178014,0.34858367,-0.10713749,25.5,26.25,25.375,27.9375,28.75,29.0625
0.29805246,-0.7673073,-0.53893423,-1.6837597,0.016591234,0.0059932224,-0.10643253,-0.3940731,-0.3306616,0.059902366,3.0734375,-0.6165247,0.00010346918,-0.14553621,-0.016908793,-0.0002558287,-0.047541633,0.0095230965,0.0458628,0.43026817,-1.4339653,1.9686512,-2.1080477,-1.5649484,2.4006417,-0.11789297,0.25517517,-0.2895631,0.0066817123,0.039287377,-0.16346824,-0.076614454,0.11492168,-9.32781,0.88289046,47.657326,-0.9607867,-1.9591087,-3.4113827,-0.33432543,0.35565174,-0.06901802,25.5,26.1875,25.375,27.9375,28.75,29.0625
0.30005193,-1.0941205,-0.8264511,-1.7992102,0.0014320236,0.023320794,-0.105548814,-0.39436778,-0.33068615,0.059907768,3.0734093,-0.6164072,9.2600225e-05,-0.14574955,-0.016961351,-0.0006533324,-0.04755,0.008349838,0.040717673,0.43003985,-1.4334495,1.9680413,-2.1079876,-1.5649117,2.400344,-0.118173994,0.256661,-0.29059738,0.0072788293,0.03977549,-0.15860114,-0.19153613,0.095768064,-9.423578,0.8560339,47.666286,-0.96819806,-2.0009131,-3.5115767,-0.31159747,0.37554365,-0.09577194,25.5,26.1875,25.375,27.9375,28.75,29.0625
0.30205247,-1.287238,-1.2133923,-1.6136237,-0.027810017,0.052388944,-0.10945589,-0.39465776,-0.33071408,0.059896234,3.073361,-0.6162479,0.00011435548,-0.14633046,-0.015601728,-0.0012616724,-0.046704277,0.005697709,0.031327814,0.42979887,-1.4329215,1.9674672,-2.1079752,-1.5648397,2.4000099,-0.12123644,0.2580104,-0.2913616,0.009440545,0.04010108,-0.15227163,-0.4405331,0.095768064,-9.385271,0.8717007,47.65106,-0.88343203,-2.01672,-3.5183148,-0.34121504,0.36995926,-0.1622896,25.5,26.1875,25.375,27.9375,28.75,29.0625
0.30405197,-2.0343287,-1.4753264,-1.6926817,-0.033470564,0.067116134,-0.097505406,-0.39496762,-0.3307655,0.059902057,3.0732365,-0.6161652,0.000106728534,-0.14582624,-0.017825099,0.00032242018,-0.04887527,0.0075820168,0.029701151,0.42956033,-1.4323832,1.9668444,-2.1079748,-1.564731,2.399736,-0.11738812,0.25657472,-0.29374373,0.01063092,0.04128336,-0.14678964,-0.63206923,0.11492168,-9.576807,0.8784135,47.65912,-1.0441121,-1.9199405,-3.557554,-0.3665401,0.3466516,-0.23701009,25.5,26.1875,25.375,27.9375,28.75,29.0625
0.30605268,-1.5865234,-1.3432608,-1.8261766,-0.025961038,0.09851519,-0.123836435,-0.39524522,-0.33081096,0.059903573,3.0731165,-0.6160888,0.00014133324,-0.14789574,-0.01723361,0.0007719512,-0.05029222,0.008205788,0.019549293,0.42933095,-1.4318919,1.9662818,-2.1079624,-1.5646108,2.3994744,-0.120747216,0.25786516,-0.2963823,0.010804957,0.04229281,-0.13999036,-0.63206923,0.13407528,-9.653421,0.87617236,47.678825,-0.9560257,-1.8252443,-3.5641375,-0.36866748,0.3508005,-0.34773016,25.5,26.1875,25.375,27.9375,28.75,29.0625
0.30805224,-2.61615,-1.2613844,-1.810891,-0.01878049,0.091462016,-0.11436083,-0.39552706,-0.3308381,0.059880186,3.0731075,-0.615954,0.00022526982,-0.14715883,-0.018264689,0.00080188515,-0.051200196,0.007807797,0.01750949,0.42910388,-1.4313282,1.9656824,-2.1079028,-1.5645508,2.3991644,-0.118760556,0.25784022,-0.29660726,0.01102924,0.04327011,-0.13596243,-0.6512228,0.1340753,-9.595961,0.97464454,47.711063,-1.1151404,-1.84079,-3.6176376,-0.36728993,0.3610584,-0.41349667,25.5,26.1875,25.375,27.9375,28.75,29.0625
0.31005174,-2.586068,-1.4138929,-2.0766044,0.0028685126,0.09563791,-0.10722077,-0.39582548,-0.33088037,0.059887867,3.0729773,-0.6159277,0.0002604405,-0.14822079,-0.017916236,-0.00022291768,-0.051279973,0.0060713436,0.013847489,0.4288513,-1.4308132,1.965073,-2.107867,-1.5644301,2.3989124,-0.120677635,0.26127106,-0.29822135,0.0107723065,0.044068214,-0.13421169,-0.63206923,0.22984336,-9.653421,0.94331104,47.692257,-1.0786842,-1.8303199,-3.6273756,-0.3703395,0.34624374,-0.49345675,25.5,26.1875,25.375,27.9375,28.75,29.0625
0.31205216,-2.232775,-0.7274459,-1.7548826,-0.021110877,0.10594292,-0.114287235,-0.39613187,-0.33091584,0.059884835,3.072879,-0.6158669,0.00022060667,-0.1495319,-0.018788377,5.165583e-05,-0.053392112,0.0070671597,0.01667277,0.42861125,-1.430285,1.9644865,-2.1078913,-1.5643576,2.3986473,-0.12105279,0.26317254,-0.30090314,0.0098038865,0.04559873,-0.13740268,-0.47884035,0.17238252,-9.710882,0.9030289,47.66808,-1.0284084,-1.7767581,-3.6850355,-0.36407268,0.332681,-0.52257484,25.5,26.1875,25.375,27.9375,28.75,29.0625
0.3140517,-2.018305,-0.96624744,-1.5625153,-0.027994473,0.09522945,-0.110786945,-0.39644846,-0.33095706,0.05989832,3.0727768,-0.615727,0.00020132134,-0.15151052,-0.018287946,-6.916786e-05,-0.05479175,0.0064625875,0.02187324,0.42835787,-1.4297571,1.9638513,-2.1078675,-1.5642613,2.39832,-0.12451112,0.26578462,-0.30378544,0.010116742,0.047174443,-0.14605188,-0.47884035,0.17238252,-9.672575,0.9030289,47.66271,-0.8662051,-1.8643852,-3.6391368,-0.34568566,0.2972579,-0.48329878,25.5,26.1875,25.375,27.9375,28.75,29.0625
0.31605226,-2.0963717,-1.4759415,-1.6565404,-0.020150375,0.06635852,-0.11599295,-0.3967333,-0.33098263,0.059870817,3.0727463,-0.6156184,0.00028410353,-0.15157075,-0.019175181,-0.0011497283,-0.055409122,0.0048373393,0.033388183,0.42811835,-1.429193,1.9632653,-2.1078312,-1.5641888,2.3980167,-0.12365258,0.26909095,-0.30504337,0.009376296,0.04845807,-0.15670456,-0.4405331,0.19153613,-9.615114,0.9791215,47.6636,-1.0084251,-1.7940801,-3.665278,-0.35004094,0.2976125,-0.3927862,25.5,26.1875,25.375,27.9375,28.75,29.0625
0.31805173,-1.5005826,-1.3739227,-1.6006815,-0.030540453,0.062409524,-0.116445296,-0.39705113,-0.33103552,0.059877735,3.0726316,-0.6154174,0.0002458729,-0.15306462,-0.019237177,-0.00050216157,-0.057391956,0.0058198743,0.04098947,0.42787772,-1.4286537,1.9626426,-2.107855,-1.5640801,2.3976655,-0.12559743,0.2697303,-0.3073883,0.009450962,0.049915936,-0.16624057,-0.4213795,0.21068975,-9.557653,0.94331104,47.658226,-0.8707565,-2.120381,-3.6306677,-0.34443983,0.27975833,-0.2782359,25.5,26.1875,25.375,27.9375,28.75,29.0625
0.32005224,-1.5171492,-1.6366223,-1.6422799,-0.024419762,0.038120974,-0.10341001,-0.3973865,-0.33105522,0.059896275,3.0724914,-0.6154054,0.00016833497,-0.15413669,-0.020072456,-0.0008114592,-0.0581273,0.005310427,0.045557834,0.42757812,-1.4281498,1.9620308,-2.1078675,-1.5639957,2.3973768,-0.1254167,0.2731841,-0.31075934,0.009581591,0.05083829,-0.17061765,-0.30645782,0.22984336,-9.404425,0.90750587,47.694946,-0.9296998,-1.9607942,-3.6155856,-0.34084648,0.2476861,-0.20310572,25.5,26.1875,25.375,27.9375,28.75,29.0625
0.3220518,-0.85236603,-1.5933689,-1.4798272,-0.019668713,0.040773373,-0.11901452,-0.39769647,-0.33111516,0.05991537,3.0723984,-0.6151566,0.00018695543,-0.15520582,-0.021105241,0.0006325453,-0.061846245,0.0074749,0.04459723,0.4273497,-1.4276108,1.9613608,-2.1078074,-1.5638751,2.397005,-0.12591311,0.2721891,-0.3129739,0.00930001,0.053336583,-0.17014122,-0.26815057,0.3256114,-9.442732,0.90527004,47.652847,-0.9533033,-2.0450075,-3.5240436,-0.34153247,0.22201754,-0.17179704,25.5,26.1875,25.375,27.9375,28.75,29.0625
0.3240526,-0.865812,-1.6908665,-1.4502565,-0.02840894,0.043411225,-0.10790953,-0.3980334,-0.33114356,0.059901275,3.0723207,-0.6150662,0.00017531538,-0.15671293,-0.020995727,0.00076705916,-0.061947223,0.008257171,0.038773075,0.42707327,-1.4270115,1.9607142,-2.1078193,-1.5638031,2.3966825,-0.12705936,0.27409604,-0.31559256,0.009254095,0.0530953,-0.16545966,-0.28730422,0.40222588,-9.423578,0.87617236,47.689575,-0.8852935,-1.8297755,-3.5055602,-0.32364976,0.20321731,-0.20599186,25.5,26.1875,25.375,27.9375,28.75,29.0625
0.3260523,-1.1143686,-1.6847929,-1.6079322,-0.038122028,0.03934362,-0.107905954,-0.3983429,-0.33118337,0.059889823,3.0722163,-0.61501014,0.00025123128,-0.15732707,-0.021587411,0.0019149443,-0.063108794,0.00989681,0.032705802,0.42680952,-1.4264367,1.9600781,-2.1077836,-1.5636829,2.3963974,-0.12657964,0.27332506,-0.31767216,0.010118649,0.053452794,-0.15890968,-0.15322891,0.36391866,-9.461885,0.9321212,47.66271,-0.9782625,-1.7367961,-3.5844975,-0.31559423,0.20446138,-0.29698685,25.5,26.1875,25.375,27.9375,28.75,29.0625
0.3280518,-1.4610803,-2.2816567,-1.5232211,-0.042921573,0.023589777,-0.10826104,-0.39867017,-0.33122227,0.05990237,3.0721004,-0.61491024,0.00021938879,-0.15891528,-0.021733597,0.003014668,-0.06459843,0.010951688,0.029800836,0.42654508,-1.4258976,1.959433,-2.1077702,-1.5635866,2.3960857,-0.12808876,0.27381867,-0.3212105,0.011603046,0.054385357,-0.15750457,0.095768064,0.2681506,-9.461885,0.8784135,47.689575,-0.9693928,-1.629698,-3.5481548,-0.3380285,0.16643673,-0.3375675,25.5,26.1875,25.375,27.9375,28.75,29.0625
0.3300524,-0.3711953,-1.693264,-1.3551106,-0.048139907,0.030199248,-0.11086376,-0.39897847,-0.33125925,0.059897687,3.0720177,-0.6147788,0.00024451414,-0.15928067,-0.022464048,0.0028760794,-0.065888815,0.010624178,0.028165055,0.42629328,-1.425346,1.9588102,-2.1077468,-1.5634903,2.3957627,-0.12777273,0.27531987,-0.3226772,0.011343438,0.055698887,-0.155545,0.1340753,0.30645782,-9.385271,0.8314132,47.68062,-0.98609614,-1.6399367,-3.4965618,-0.32651377,0.13388261,-0.37670106,25.5,26.1875,25.375,27.9375,28.75,29.0625
0.33205187,-0.6462493,-1.6878883,-1.5538265,-0.022502296,-0.004402285,-0.10510119,-0.3993174,-0.33129376,0.059909377,3.0718853,-0.61471325,0.00022020724,-0.1602557,-0.021658437,0.0023388616,-0.063508265,0.010541146,0.027368508,0.426005,-1.4247944,1.9581527,-2.107735,-1.5633835,2.3954508,-0.12851825,0.2775955,-0.32429802,0.011788158,0.05358779,-0.15549576,0.019153614,0.3256114,-9.385271,0.99031126,47.69763,-0.9702493,-1.5365433,-3.482572,-0.3159516,0.13711685,-0.40249515,25.5,26.1875,25.375,27.9375,28.75,29.0625
0.3340524,-0.2852323,-1.0365896,-1.566727,-0.028424365,-1.7059578e-05,-0.11437883,-0.39963594,-0.3313615,0.059935287,3.0717735,-0.614552,0.00017103055,-0.16044112,-0.021277029,0.0010368194,-0.06129691,0.0089302305,0.032856535,0.42580113,-1.424254,1.9574693,-2.1076987,-1.5632871,2.395161,-0.12838845,0.28071052,-0.32504636,0.011872001,0.052289084,-0.16085298,0.15322891,0.28730422,-9.385271,0.8985519,47.707485,-1.0532724,-1.7184681,-3.4575129,-0.3160547,0.14541969,-0.39895177,25.5,26.1875,25.375,27.9375,28.75,29.0625
0.33605206,-0.010024267,-1.0804322,-1.6970541,-0.006423197,-0.0005609337,-0.118927605,-0.39997128,-0.33138528,0.059933294,3.0716422,-0.61446357,0.00017299668,-0.16091166,-0.021150991,-5.9639755e-05,-0.06047352,0.0070129903,0.03889674,0.42548874,-1.423702,1.9568475,-2.107711,-1.5631675,2.3948104,-0.12890506,0.28401428,-0.32654378,0.0122360075,0.052385766,-0.16740479,0.34476504,0.21068975,-9.404425,0.8627467,47.687782,-0.9966334,-1.8412269,-3.7066684,-0.32362908,0.121643044,-0.34067115,25.5,26.1875,25.375,27.9375,28.75,29.0625
0.33805266,-0.25153255,-0.7678978,-1.44915,-0.015017628,0.0104815895,-0.12073061,-0.40026027,-0.33142453,0.059906162,3.0716033,-0.6142618,0.00035596747,-0.16381115,-0.019387461,-0.00097474846,-0.058813598,0.006779927,0.04444437,0.4252353,-1.4231011,1.9562019,-2.1076148,-1.5630358,2.394436,-0.13347584,0.28853923,-0.3297139,0.011895472,0.05101357,-0.17752959,0.1340753,0.28730422,-9.32781,0.9634547,47.66987,-0.89892554,-1.9078165,-3.6526966,-0.3061096,0.12686749,-0.24240762,25.5,26.1875,25.375,27.9375,28.75,29.0625
0.34005216,-0.98033464,-1.4552374,-1.1463548,-0.0058292123,0.019334367,-0.115705684,-0.4006419,-0.33147195,0.059958763,3.071424,-0.61410284,0.00019162189,-0.16518809,-0.020423155,0.0007053478,-0.0585368,0.011302094,0.053590663,0.42493623,-1.4225725,1.9554819,-2.1076272,-1.5629286,2.394061,-0.13123564,0.28842455,-0.33356604,0.011951419,0.048971064,-0.18443242,0.076614454,0.30645782,-9.289502,0.900793,47.66987,-0.9375895,-1.8648806,-3.5044055,-0.3148954,0.1411551,-0.11895937,25.5,26.1875,25.375,27.9375,28.75,29.0625
0.34205166,-1.0163239,-1.346919,-1.4262934,0.005888206,0.019777777,-0.112601206,-0.4009507,-0.33152118,0.059945922,3.0713902,-0.613886,0.00018638598,-0.16677377,-0.019699471,0.0005934597,-0.057232767,0.011422913,0.051747568,0.42473164,-1.4219832,1.9548353,-2.1076148,-1.562869,2.3937256,-0.13292801,0.290775,-0.33637208,0.01285878,0.0477435,-0.1842833,0.24899697,0.36391866,-9.3661175,0.93436235,47.687782,-0.8459512,-1.8995938,-3.484788,-0.3250998,0.15379763,-0.08106819,25.5,26.1875,25.375,27.9375,28.75,29.0625
0.34405214,-1.1510667,-1.2659451,-1.2944622,-0.019221893,0.038585052,-0.11108913,-0.40129253,-0.33154094,0.059949376,3.0713117,-0.6137209,0.00017049325,-0.16824777,-0.019214379,0.0015651144,-0.056575976,0.013928972,0.044175383,0.4244313,-1.4214185,1.9541768,-2.1075904,-1.5627855,2.3933325,-0.13378815,0.29055032,-0.33857965,0.013261077,0.04609521,-0.17757389,0.019153614,0.4213795,-9.461885,0.90750587,47.684196,-0.84563285,-1.8094766,-3.4235818,-0.33213508,0.15633672,-0.111943245,25.5,26.1875,25.375,27.9375,28.75,29.0625
0.34605193,-1.0821443,-1.7188585,-1.4109137,-0.033385266,0.044710748,-0.109942056,-0.40161213,-0.3315981,0.059960626,3.071184,-0.6135841,0.00022208387,-0.17072631,-0.019061653,0.0032001105,-0.056314383,0.017684124,0.03541192,0.42417896,-1.4208543,1.953493,-2.1075308,-1.5626425,2.3930113,-0.13477884,0.29097208,-0.3431241,0.014050829,0.04427977,-0.16980392,-0.095768064,0.4213795,-9.423578,0.95002913,47.6636,-0.93847567,-1.6533971,-3.3683164,-0.3543345,0.18183166,-0.19314347,25.5,26.1875,25.375,27.9375,28.75,29.0625
0.34805244,-1.2250733,-1.8242725,-1.4812709,-0.043318693,0.050201498,-0.12352726,-0.4019424,-0.33162472,0.059957463,3.0711324,-0.61349577,0.0002332975,-0.16895168,-0.019826807,0.0020017137,-0.053892672,0.016084032,0.033994712,0.42391655,-1.4202651,1.9528126,-2.1074712,-1.5625829,2.3927007,-0.13077039,0.29222712,-0.34201896,0.014129243,0.042718444,-0.16438393,-0.1340753,0.49799395,-9.404425,0.87393653,47.66987,-1.107234,-1.6460655,-3.4336686,-0.34939426,0.22306874,-0.29801202,25.5,26.1875,25.375,27.9375,28.75,29.0625
0.35005218,-2.0636153,-2.7432277,-1.5918536,-0.0430249,0.036937036,-0.10675122,-0.40226284,-0.33167174,0.0599615,3.0710628,-0.6133527,0.00018255274,-0.169713,-0.018506762,0.002416643,-0.053402446,0.016825413,0.024883639,0.42369953,-1.419701,1.952155,-2.1074584,-1.5625232,2.3924036,-0.13314521,0.29097643,-0.34181097,0.01466511,0.041951455,-0.1576481,-0.30645782,0.49799395,-9.481039,1.0149267,47.692257,-1.0071115,-1.4836309,-3.7713103,-0.35979396,0.23655602,-0.39147967,25.5,26.1875,25.375,27.9375,28.75,29.0625
0.35205165,-1.5419,-1.8644867,-1.4584476,-0.06571416,0.06181624,-0.122512855,-0.40260023,-0.33169386,0.0599607,3.070974,-0.61325806,0.00020931689,-0.16948795,-0.01861151,0.0014646465,-0.05244414,0.015775342,0.022510393,0.4234001,-1.4191235,1.951485,-2.1074111,-1.5624269,2.3920567,-0.13231735,0.29283795,-0.34181854,0.014165494,0.041507915,-0.154447,-0.3256114,0.38307226,-9.557653,0.8873621,47.66808,-1.1624109,-1.4220669,-3.8453171,-0.36100608,0.26240098,-0.47069377,25.5,26.1875,25.375,27.9375,28.75,29.0625
0.35405213,-1.8504056,-1.6708151,-1.7595439,-0.04618937,0.056423567,-0.117743894,-0.4029423,-0.3317453,0.059987593,3.0708222,-0.6132074,0.0001834925,-0.17088276,-0.018180585,-0.0003830766,-0.05105911,0.012667252,0.022115652,0.42313525,-1.4185693,1.9507784,-2.1073625,-1.5623072,2.3917801,-0.1341063,0.2990194,-0.34493026,0.014539492,0.041548874,-0.15583499,-0.36391866,0.34476504,-9.615114,0.98807013,47.64389,-1.0294921,-1.592195,-3.8226576,-0.36583287,0.2805953,-0.5147144,25.5,26.1875,25.375,27.9375,28.75,29.0625
0.35605165,-2.2014406,-1.4565479,-1.6182402,-0.036837444,0.054500494,-0.1224105,-0.40330774,-0.33177564,0.05999535,3.0707307,-0.61314434,9.002169e-05,-0.17287679,-0.018666677,6.8580644e-05,-0.05245418,0.014624772,0.030859292,0.4228591,-1.4179679,1.9500717,-2.107363,-1.5622586,2.3914769,-0.13503838,0.3012296,-0.3484304,0.013570008,0.042090397,-0.16550276,-0.3256114,0.30645782,-9.595961,0.98807013,47.6636,-1.0719798,-1.7338332,-3.7198868,-0.3670338,0.30270535,-0.4947917,25.5,26.1875,25.375,27.9375,28.75,29.0625
0.3580522,-2.0197487,-1.6517154,-1.4560752,-0.03427236,0.066269085,-0.12682797,-0.40365893,-0.3318276,0.06000063,3.070664,-0.6128956,3.4176224e-05,-0.17430504,-0.019244969,-9.899755e-05,-0.054066706,0.014549317,0.040358823,0.42261866,-1.4173541,1.9493536,-2.1073515,-1.5621861,2.39109,-0.13601801,0.30419627,-0.35153103,0.013216337,0.043670904,-0.17596996,-0.40222588,0.24899697,-9.576807,1.0261165,47.71554,-1.0224997,-1.750705,-3.7132444,-0.34439087,0.3090751,-0.40755063,25.5,26.1875,25.375,27.9375,28.75,29.0625
0.36005163,-1.913602,-1.4208142,-1.4142674,-0.040241014,0.07793186,-0.13446859,-0.4040074,-0.33188444,0.060020614,3.070557,-0.61269456,8.259455e-06,-0.17694414,-0.020066328,0.0013221074,-0.056239657,0.018008111,0.0498001,0.42236662,-1.416765,1.9486216,-2.1073039,-1.5620779,2.3907263,-0.13693723,0.30578342,-0.35665163,0.012820647,0.044311665,-0.18632178,-0.3256114,0.30645782,-9.385271,0.90750587,47.72092,-1.0236466,-1.6474316,-3.491077,-0.35434934,0.30509248,-0.28213373,25.5,26.1875,25.375,27.9375,28.75,29.0625
0.36205226,-2.363006,-1.6796995,-1.4802892,-0.029399516,0.056319214,-0.12933926,-0.40435684,-0.33191043,0.0600221,3.0704725,-0.6125791,3.435723e-05,-0.17866875,-0.02023158,0.0017993018,-0.057492487,0.018930024,0.05312232,0.42206612,-1.4161636,1.9479145,-2.1072433,-1.5619816,2.390365,-0.13838632,0.30754378,-0.35998982,0.013113906,0.045119725,-0.19108637,-0.28730422,0.24899697,-9.576807,0.92093146,47.66987,-0.96536076,-1.8034754,-3.3267817,-0.33939558,0.2982616,-0.19033344,25.5,26.1875,25.375,27.9375,28.75,29.0625
0.3640519,-1.7696855,-1.2715248,-1.2543411,-0.042045567,0.0734676,-0.1265626,-0.40470004,-0.33197543,0.060037278,3.0703354,-0.61237997,-2.4290324e-05,-0.17812508,-0.020565724,0.001448624,-0.057296675,0.018277839,0.050989598,0.4218264,-1.4155872,1.9472216,-2.1072557,-1.5618619,2.3900187,-0.13724181,0.30790254,-0.35979092,0.013236107,0.045222472,-0.18780348,-0.61291564,0.28730422,-9.519346,0.95897776,47.664497,-1.040666,-1.6925716,-3.5275748,-0.34057456,0.29840106,-0.1845806,25.5,26.1875,25.375,27.9375,28.75,29.0625
0.36605182,-1.8176948,-1.4730376,-1.0814136,-0.045432046,0.07143082,-0.12096573,-0.4050998,-0.33200887,0.060067046,3.0702286,-0.6121895,-0.00014054556,-0.17894737,-0.0205254,0.0006027203,-0.058563598,0.015995976,0.041790128,0.4215137,-1.4149739,1.9464439,-2.1072314,-1.5617884,2.3896012,-0.1391208,0.31088004,-0.36150637,0.013493405,0.047300708,-0.1804654,-0.63206923,0.19153613,-9.442732,1.0082139,47.703007,-0.91197515,-1.5674338,-3.6277514,-0.3507781,0.3044694,-0.25978565,25.5,26.1875,25.375,27.9375,28.75,29.0625
0.36805248,-1.8352796,-1.3135319,-1.1734332,-0.03258126,0.07107588,-0.13438328,-0.40546104,-0.33206123,0.060079765,3.0701048,-0.61203235,-0.00015439342,-0.17944384,-0.01994932,-0.0006766113,-0.057650574,0.014335671,0.0351536,0.42123756,-1.41436,1.945702,-2.107196,-1.5616692,2.3892431,-0.1402779,0.31368095,-0.36186007,0.012920807,0.047135867,-0.17498213,-0.4213795,0.21068975,-9.32781,0.92093146,47.703007,-1.1893823,-1.6540267,-3.713353,-0.33006564,0.3309092,-0.3355169,25.5,26.1875,25.375,27.9375,28.75,29.0625
0.3700521,-1.8404739,-1.3390547,-1.0802327,-0.017800627,0.06579238,-0.12159747,-0.4058254,-0.33209413,0.060061067,3.070032,-0.6119015,-0.00020877672,-0.18043868,-0.020776384,0.00029076095,-0.058009468,0.01721334,0.03415944,0.42096233,-1.4137111,1.9450067,-2.1072319,-1.5616096,2.388896,-0.13887565,0.31393194,-0.36444068,0.012482315,0.046289414,-0.17258537,-0.4213795,0.22984336,-9.289502,0.89631605,47.733456,-1.0844022,-1.5914965,-3.7551003,-0.32041317,0.3406952,-0.36093408,25.5,26.1875,25.375,27.9375,28.75,29.0625
0.3720526,-1.2161301,-0.6413233,-0.76665246,-0.01583598,0.064932145,-0.13589604,-0.4061904,-0.3321679,0.06009945,3.0698743,-0.6116964,-0.00031220558,-0.18241942,-0.021296922,0.0010119084,-0.060337916,0.018684594,0.03293003,0.42072144,-1.4131343,1.9442538,-2.10722,-1.561489,2.3885477,-0.14036779,0.31563368,-0.36812195,0.012196612,0.04784467,-0.172831,-0.53630114,0.17238252,-9.212888,0.9768804,47.658226,-1.1019717,-1.5705234,-3.6624188,-0.30393937,0.3333373,-0.4094258,25.5,26.1875,25.375,27.9375,28.75,29.0625
0.37405202,-0.9283407,-0.49765638,-0.5107089,-0.0024093986,0.056647666,-0.13870507,-0.4065585,-0.33218387,0.060066946,3.0698068,-0.6116441,-0.00025356558,-0.18484029,-0.022580566,0.0031303884,-0.06456622,0.022580853,0.03437889,0.42039728,-1.4124491,1.9435338,-2.107196,-1.5614041,2.3881998,-0.14128858,0.31555605,-0.37295857,0.011871884,0.05013461,-0.17518643,-0.28730422,0.17238252,-9.097966,0.98807013,47.705692,-1.1142218,-1.5474362,-3.5528386,-0.2846647,0.33421355,-0.4206806,25.5,26.1875,25.375,27.9375,28.75,29.0625
0.37605175,-0.53795785,0.025150342,-0.7350486,0.006855634,0.035881724,-0.14816563,-0.40692407,-0.33223194,0.060071595,3.069713,-0.6114449,-0.00031511727,-0.18551268,-0.023363773,0.0026923243,-0.06527583,0.02134681,0.043166526,0.4201336,-1.4118241,1.9428037,-2.107196,-1.5613197,2.387824,-0.14103536,0.31872964,-0.37597096,0.012651087,0.051370244,-0.1837084,-0.19153614,0.22984336,-9.078813,0.9298854,47.67345,-1.1907712,-1.4772646,-3.4375339,-0.27595502,0.33174556,-0.34866536,25.5,26.1875,25.375,27.9375,28.75,29.0625
0.37805223,-0.7375439,-0.24990588,-1.017892,0.010931451,0.020322066,-0.13365081,-0.40732282,-0.33227623,0.06010343,3.0696065,-0.6112641,-0.0004323096,-0.186491,-0.02256617,0.0018123492,-0.06339424,0.020448165,0.052314766,0.41984487,-1.4111984,1.9420022,-2.1071594,-1.5612482,2.3874366,-0.14226915,0.32166588,-0.37765032,0.013112015,0.05012714,-0.19409052,-0.17238252,0.24899697,-9.193734,0.91421866,47.72092,-1.0478306,-1.5998068,-3.4357338,-0.24986902,0.34379268,-0.22713372,25.5,26.1875,25.375,27.9375,28.75,29.0625
