Tylouw/Master_Thesis_Code/training_data/batch_1/big_rod_t0.1/sample_48_session_3.csv
timestamp[s],tcp_force_x[N],tcp_force_y[N],tcp_force_z[N],tcp_force_rx[Nm?],tcp_force_ry[Nm?],tcp_force_rz[Nm?],tcp_pose_x[m],tcp_pose_y[m],tcp_pose_z[m],tcp_pose_rx[rot_vec_x],tcp_pose_ry[rot_vec_y],tcp_pose_rz[rot_vec_z],tcp_velo_x[m/s],tcp_velo_y[m/s],tcp_velo_z[m/s],tcp_velo_rx[rot_vec_x/s],tcp_velo_ry[rot_vec_y/s],tcp_velo_rz[rot_vec_z/s],q1[rad],q2[rad],q3[rad],q4[rad],q5[rad],q6[rad],qd1[rad/s],qd2[rad/s],qd3[rad/s],qd4[rad/s],qd5[rad/s],qd6[rad/s],tool_acc_x,tool_acc_y,tool_acc_z,current_of_whole_robot[A],voltage_of_whole_robot[V],current_J1[A],current_J2[A],current_J3[A],current_J4[A],current_J5[A],current_J6[A],temp_J1[C],temp_J2[C],temp_J3[C],temp_J4[C],temp_J5[C],temp_J6[C]
8.820207e-07,-0.18040757,-0.6977405,-0.23793782,-0.043521408,0.033602532,-0.0038351512,-0.37287095,-0.32819197,0.05993406,-3.0784006,0.6248497,-0.000298865,0.0032138685,0.0015464654,-0.004575831,0.0046190736,-0.009906768,1.5851287e-05,0.44815025,-1.4708729,2.0095966,-2.107643,-1.5707215,2.4230676,-8.3514205e-05,0.0045795115,0.0052078348,0.0011420472,0.00014324163,-0.00010237664,0.11492168,0.2681506,-8.848969,0.7016076,47.689575,-0.26026148,-2.8672428,-2.454272,-0.5286628,0.15231603,-0.12362772,25.125,25.625,24.875,27.1875,27.6875,28.0
0.002055787,-0.28773728,-0.8471475,-0.3874202,-0.034329418,0.029554507,-0.004504847,-0.3728953,-0.3282297,0.05995024,-3.078513,0.6248535,-0.0002571649,-0.00089763553,-0.00044178386,-0.0029640854,-0.001538362,0.002835568,2.0066847e-05,0.44815025,-1.470861,2.0095613,-2.1077077,-1.5706495,2.4230556,-8.19925e-05,0.0042550345,0.0049702907,-0.012447992,0.00014005689,-0.00010094137,0.076614454,0.24899697,-8.848969,0.7463667,47.68599,-0.26580024,-2.8125143,-2.3977542,-0.45439747,0.13152665,-0.13379285,25.125,25.625,24.875,27.1875,27.6875,28.0
0.004054921,-0.08433092,-0.44931138,-0.33956397,-0.030790016,0.03310173,-0.011388963,-0.37287545,-0.3282201,0.059925064,-3.078485,0.6248479,-0.00031589266,-0.0018469233,-0.0009008354,-0.0025276118,-0.0026577103,0.005156288,2.1261076e-05,0.44815025,-1.4708488,2.0096085,-2.1077201,-1.5706495,2.4230556,-8.052534e-05,0.0045035766,0.004156216,-0.014459018,0.0001370111,-9.954577e-05,0.095768064,0.13407528,-8.887277,0.77545905,47.70032,-0.22001353,-2.9996018,-2.5559344,-0.35423273,0.15633813,-0.13139075,25.125,25.625,24.875,27.1875,27.6875,28.0
0.006054718,-0.019167705,-0.13459791,-0.5035075,-0.008863083,0.016063618,-0.012691179,-0.37288237,-0.32823616,0.059928533,-3.0785093,0.6248335,-0.00027239774,-0.001003306,-0.0004922175,-0.0019144252,-0.001492283,0.0027601188,2.0273777e-05,0.4481742,-1.4708375,2.0095956,-2.1077535,-1.5706495,2.4230676,-7.9109785e-05,0.0031699447,0.0030472754,-0.009351901,0.00013409468,-9.818833e-05,0.076614454,0.15322891,-8.887277,0.69937176,47.66539,-0.28721353,-2.9772897,-2.497631,-0.38763463,0.15706158,-0.12401162,25.125,25.625,24.875,27.1875,27.6875,28.0
0.0080551095,0.39939898,0.510411,-0.7958739,0.023522474,-0.005380196,-0.0053250827,-0.37287286,-0.3282122,0.05989964,-3.0784345,0.6248373,-0.00032885754,-0.000277472,-0.00014068175,-0.0014659106,-0.0003865622,0.00048517718,1.9538622e-05,0.4481623,-1.4708018,2.00962,-2.1077406,-1.5706857,2.4230676,-7.7743105e-05,0.002268131,0.0019814705,-0.004854865,0.00013130059,-9.692333e-05,-0.019153614,0.095768064,-8.983045,0.784413,47.682407,-0.2116074,-2.9301276,-2.395462,-0.42485294,0.15314376,-0.12630302,25.125,25.625,24.875,27.1875,27.6875,28.0
0.01005442,0.5664876,0.9551467,-1.1427879,0.025688495,-0.008507573,-0.013622729,-0.3729038,-0.32824022,0.059941173,-3.078533,0.62485737,-0.00021509771,-0.0001295645,-6.9583206e-05,-0.0010484734,-0.00017677329,2.165012e-05,4.5360316e-06,0.4481623,-1.470838,2.0095723,-2.1077754,-1.5706495,2.4230676,-8.648289e-05,0.0016431289,0.0012942078,-0.0030339898,0.00014576876,-9.0894435e-05,-0.019153614,0.095768064,-9.155427,0.7553206,47.634937,-0.5745147,-2.2399373,-3.107087,-0.47341537,0.13105312,-0.16320051,25.125,25.625,24.875,27.1875,27.6875,28.0
0.012055139,0.30146658,0.04242617,-1.3787527,0.0033662934,0.009696259,-0.018485053,-0.37285483,-0.32820347,0.059868943,-3.0784009,0.6248496,-0.00039165825,-8.496963e-05,-3.316701e-05,-0.003781202,0.0025383339,-0.0056257634,-3.4255015e-06,0.4481623,-1.470776,2.0096672,-2.1077635,-1.5706857,2.4230795,-0.00011852891,0.008857635,-0.00055861886,-0.002129486,0.00014397244,-0.000113005866,0.076614454,0.019153614,-9.385271,0.77545905,47.650166,-0.64226675,-2.1462433,-3.340678,-0.47448367,0.15659396,-0.17542261,25.125,25.625,24.875,27.1875,27.6875,28.0
0.014055042,-0.2526181,-1.0897883,-1.7167348,-0.021306738,0.03314215,-0.008152426,-0.37286967,-0.3281924,0.059856184,-3.0783632,0.6248056,-0.00045529683,-0.0058108773,0.0001638927,-0.004019654,0.0025051436,-0.0056010853,-0.0041786507,0.44813603,-1.4707123,2.0096157,-2.1077158,-1.5706977,2.4230306,-0.0057064993,0.018802991,-0.011031912,-0.0016384546,0.00014122177,-0.0015180205,-0.038307227,0.1340753,-9.500193,0.8605109,47.701214,-0.48047113,-2.803866,-2.975614,-0.4701202,0.15211247,-0.17169638,25.125,25.625,24.875,27.1875,27.6875,28.0
0.016055087,-1.177655,-1.8024902,-1.7543142,-0.05309775,0.062179483,-0.00932721,-0.3728668,-0.3282037,0.05986025,-3.0783877,0.6248291,-0.00049014745,-0.0063175745,0.0014495811,-0.0041394783,0.002796813,-0.006199956,-0.0036629299,0.4481353,-1.4707124,2.0096037,-2.1077034,-1.5706614,2.4230413,-0.008583681,0.01827036,-0.010273359,-0.0011987295,0.00013870353,-0.004911589,-0.3256114,0.3256114,-9.576807,0.6411817,47.63225,-0.33990002,-2.6704857,-3.1787934,-0.47311765,0.16377854,-0.14656292,25.125,25.625,24.875,27.1875,27.6875,28.0
0.018055126,-1.9702708,-2.431307,-1.7345366,-0.08690225,0.09095492,-0.007917524,-0.37283492,-0.32819074,0.059826534,-3.0783236,0.62487286,-0.000663584,-0.0051649264,0.0012568897,-0.0048621325,0.0038132472,-0.008370157,-0.0008172862,0.44812375,-1.4706763,2.0096276,-2.107643,-1.5706376,2.4230652,-0.007191128,0.01893724,-0.009584842,-0.00015797604,0.00016515772,-0.006365369,-0.4213795,0.36391866,-9.825804,0.7105615,47.666286,-0.4643243,-2.4152062,-3.486742,-0.48962483,0.16502923,-0.14568147,25.125,25.625,24.875,27.1875,27.6875,28.0
0.020054754,-2.0568557,-2.501211,-1.7202948,-0.096570976,0.11344826,-0.02024481,-0.37288758,-0.32820782,0.05984428,-3.078388,0.6248279,-0.0005834202,-0.0068807197,0.00024549954,-0.0035079499,0.0024341412,-0.005616483,-0.0010514075,0.44809982,-1.470628,2.0095422,-2.1076791,-1.5706257,2.423005,-0.0068788202,0.019830827,-0.013705417,-1.0314708e-05,0.00020722098,-0.0058164382,-0.4405331,0.45968673,-9.825804,0.8179876,47.67614,-0.6452343,-2.41333,-3.4360676,-0.49348044,0.1597212,-0.16884282,25.125,25.625,24.875,27.1875,27.6875,28.0
0.022055227,-2.5184636,-2.4017365,-1.8196276,-0.06850443,0.09970334,-0.015721962,-0.37288922,-0.32821682,0.059836894,-3.0783818,0.6247699,-0.0005888517,-0.0079664895,0.0005857393,-0.003902991,0.0027009002,-0.006254455,-0.002964369,0.44812328,-1.4705913,2.0095189,-2.1076791,-1.5706376,2.4229932,-0.008530984,0.022124914,-0.015318748,-6.734767e-07,0.00024003623,-0.0055543794,-0.68953013,0.49799395,-9.768343,0.7329411,47.66987,-0.6000079,-2.4162269,-3.3890047,-0.4957146,0.16476205,-0.18036675,25.125,25.625,24.875,27.1875,27.6875,28.0
0.02405457,-1.8239503,-1.6938002,-1.9200042,-0.050593656,0.09164064,-0.027889645,-0.37291265,-0.3281878,0.05982107,-3.0783422,0.6248004,-0.0005962008,-0.008792172,8.438085e-06,-0.0032718186,0.0011137523,-0.005373507,-0.0029143412,0.4480632,-1.4705553,2.0095184,-2.107691,-1.570661,2.4229572,-0.008903453,0.022514647,-0.01719463,-4.3973213e-08,0.0012841107,-0.0059778513,-0.6895301,0.38307226,-9.80665,0.83813137,47.713753,-0.68790716,-2.3654945,-3.4435754,-0.49473494,0.18406305,-0.18611884,25.125,25.625,24.875,27.1875,27.6875,28.0
0.026054882,-1.3654612,-0.93034065,-1.6833749,-0.060646802,0.083911054,-0.035328083,-0.3729422,-0.32820585,0.05981513,-3.0783277,0.6248162,-0.00055656274,-0.009782929,0.00019322317,-0.002950551,0.0006075835,-0.0047437986,-0.0029243524,0.44808668,-1.4704714,2.0094454,-2.1077154,-1.5706853,2.4229925,-0.01027459,0.023022702,-0.018490635,-2.8711367e-09,0.001464161,-0.007338473,-0.57460845,0.4213795,-9.768343,0.7239871,47.687782,-0.6395091,-2.2108536,-3.5548692,-0.48794794,0.15620288,-0.19102788,25.125,25.625,24.875,27.1875,27.6875,28.0
0.028055308,-1.3727694,-1.4985539,-1.6589646,-0.049722835,0.06900976,-0.029749632,-0.37294826,-0.32819635,0.059800684,-3.078305,0.62492764,-0.0006520649,-0.011091074,-0.0001323637,-0.0024638237,-0.0006126862,-0.003960318,-0.0029995285,0.44803837,-1.4704349,2.009433,-2.107691,-1.5706486,2.4230165,-0.011363546,0.024262622,-0.020967854,-1.8746472e-10,0.0022181275,-0.008352225,-0.63206923,0.38307226,-9.653421,0.7866488,47.686886,-0.7234762,-2.2151875,-3.471115,-0.49709654,0.15161467,-0.19394614,25.125,25.625,24.875,27.1875,27.6875,28.0
0.030055232,-1.2619556,-1.3233114,-1.4958107,-0.03925726,0.07746547,-0.043078568,-0.37298846,-0.32821977,0.05981266,-3.078344,0.62485844,-0.00063151267,-0.012504086,-0.00027665796,-0.0022133773,-0.0007590996,-0.0031824834,-0.003332483,0.44803807,-1.4703624,2.0093234,-2.1076791,-1.5706371,2.4229681,-0.012235327,0.02619474,-0.02366368,-1.2240107e-11,0.0020073012,-0.008888634,-0.61291564,0.24899697,-9.519346,0.7105615,47.699425,-0.7888726,-2.297463,-3.4320989,-0.49292874,0.15575942,-0.20130296,25.125,25.625,24.875,27.1875,27.6875,28.0
0.032054983,-1.6948086,-0.7779891,-1.370026,-0.03694341,0.06671808,-0.052065734,-0.37301725,-0.32820576,0.05981757,-3.078342,0.6249548,-0.00062734185,-0.014308504,1.0082635e-05,-0.0016329791,-0.0011361759,-0.0017638393,-0.0045800004,0.44797742,-1.4703501,2.0092986,-2.1076791,-1.5706252,2.422968,-0.014225072,0.027323673,-0.026233451,-7.9919155e-13,0.0017267613,-0.009628536,-0.5554548,0.11492168,-9.557653,0.8247004,47.655537,-0.7233694,-2.323186,-3.4320388,-0.48562518,0.17060982,-0.19909114,25.0625,25.625,24.875,27.1875,27.6875,28.0
0.034055196,-1.2166511,-0.7037121,-1.1952837,-0.011492872,0.075064935,-0.060931567,-0.3730217,-0.32821208,0.059775922,-3.0783093,0.62490886,-0.0007437383,-0.01578753,-0.00022112958,-0.00073056255,-0.0020623892,0.00014090448,-0.0044102473,0.44797713,-1.4702301,2.0092623,-2.1076791,-1.5706133,2.422943,-0.015137795,0.02779015,-0.028817922,-5.21815e-14,0.0017295344,-0.010709545,-0.36391866,0.038307227,-9.595961,0.7777002,47.65912,-0.7719387,-2.179749,-3.3837156,-0.47269624,0.15107188,-0.21010453,25.0625,25.625,24.875,27.1875,27.6875,28.0
0.036055043,-0.9015273,0.5214542,-1.0815957,-0.00871574,0.067678764,-0.07578499,-0.3731029,-0.32821476,0.05981514,-3.078356,0.6249969,-0.000582154,-0.017351845,-3.149794e-05,-0.000132959,-0.0028699725,0.0013530228,-0.006497817,0.44791636,-1.4702058,2.009154,-2.1077154,-1.5706252,2.4229314,-0.017048959,0.028531225,-0.031002017,-3.407079e-15,0.0019293162,-0.010531907,-0.34476504,0.0,-9.481039,0.83589023,47.709274,-0.70313084,-2.1696959,-3.3805876,-0.48087066,0.17321339,-0.20185003,25.0625,25.625,24.875,27.1875,27.6875,28.0
0.03805458,-0.56354237,0.6519757,-1.0510297,0.0061597507,0.05681926,-0.08574554,-0.37312615,-0.32823473,0.059814017,-3.0783973,0.62492865,-0.00059029664,-0.01809002,-0.00057889626,-0.00017903224,-0.0038638196,0.00096356426,-0.0067153787,0.44791624,-1.4701455,2.009093,-2.1077268,-1.5706009,2.4228835,-0.017409509,0.030449947,-0.033003706,-2.2245788e-16,0.0029896048,-0.010675506,-0.2681506,-0.095768064,-9.385271,0.7463667,47.691364,-0.712168,-2.1717434,-3.370284,-0.4751375,0.16282684,-0.20184548,25.0625,25.625,24.875,27.1875,27.6875,28.0
0.04005523,-0.40674138,0.4563677,-1.284337,0.013193385,0.039542228,-0.099406004,-0.37316102,-0.32822192,0.05979871,-3.078345,0.6250325,-0.00062416645,-0.018872919,-0.00097176194,-0.00048675115,-0.004386937,0.00022059957,-0.005813923,0.44786814,-1.4700607,2.0090325,-2.1077154,-1.5706123,2.4229069,-0.017915752,0.03292364,-0.03500915,-2.8063087e-05,0.003777481,-0.012083327,-0.2681506,-0.1340753,-9.404425,0.73069996,47.698532,-0.699442,-2.2092519,-3.3367996,-0.4656687,0.14616933,-0.19804299,25.0625,25.625,24.875,27.1875,27.6875,28.0
0.042054407,-0.8364967,-0.26343822,-1.2479807,0.011026565,0.023912124,-0.101308845,-0.37321085,-0.32822672,0.059807997,-3.07837,0.62501884,-0.00057930924,-0.019998195,-0.0009975773,-0.00013786039,-0.0045963107,0.0012243006,-0.0067874463,0.44783184,-1.4700004,2.0089476,-2.1077268,-1.5706123,2.422859,-0.018719083,0.033916526,-0.036872305,-0.00015212451,0.0035279624,-0.011911189,-0.17238252,-0.038307227,-9.346964,0.7329411,47.679718,-0.6811774,-2.1482143,-3.4061716,-0.45035756,0.14286701,-0.20476261,25.0625,25.625,24.875,27.1875,27.6875,28.0
0.044054788,0.053122777,-0.3509179,-1.4768354,-0.01218662,0.041954983,-0.11785966,-0.37324545,-0.3282135,0.059785265,-3.0783138,0.62506473,-0.000642719,-0.020942217,-0.001276223,0.00028156294,-0.004765562,0.0022579741,-0.006186861,0.44778383,-1.4698923,2.0088756,-2.107703,-1.5706247,2.4228468,-0.018848257,0.034890313,-0.038923327,-7.891471e-05,0.0032277862,-0.012639184,-0.15322891,0.019153614,-9.442732,0.7083204,47.684196,-0.7019755,-2.1274083,-3.350157,-0.45626324,0.14403793,-0.21290274,25.0625,25.625,24.875,27.1875,27.6875,28.0
0.046055093,-0.451162,-1.3286293,-1.4800757,-0.014882559,0.035445336,-0.12296271,-0.37327802,-0.32821202,0.05979146,-3.0783088,0.62504417,-0.0006308527,-0.021972438,-0.0012150104,0.0007965587,-0.0050315624,0.0034314904,-0.005624509,0.44775948,-1.4698441,2.0088031,-2.1076791,-1.5706366,2.4228103,-0.019713616,0.03526295,-0.04052862,-1.8528099e-05,0.002955471,-0.014065329,-0.05746084,0.095768064,-9.500193,0.74413085,47.660015,-0.6498558,-2.0523098,-3.3557475,-0.43418938,0.14769179,-0.20924428,25.0625,25.625,24.875,27.1875,27.6875,28.0
0.048055314,-0.694921,-1.0953602,-1.2837615,-0.03714076,0.029274076,-0.13292782,-0.37333035,-0.32822874,0.059808854,-3.0783575,0.6250733,-0.0005516225,-0.02310408,-0.001313453,0.0013137578,-0.0054752333,0.004598671,-0.0056532915,0.44773528,-1.4697961,2.0087187,-2.1077154,-1.5706247,2.4227982,-0.020480739,0.03597846,-0.04250511,-1.2097524e-06,0.0028467102,-0.014801947,-0.05746084,0.19153613,-9.519346,0.82694155,47.709274,-0.66670907,-2.0965862,-3.431365,-0.44244766,0.14980185,-0.21893421,25.0625,25.625,24.875,27.1875,27.6875,28.0
0.050054975,-0.6345068,-1.4827181,-1.4729317,-0.0388962,0.023332965,-0.14151822,-0.37337613,-0.32820827,0.05978722,-3.0782933,0.6251948,-0.0006012633,-0.023750473,-0.0015996068,0.0013154381,-0.0059134644,0.004545475,-0.0055233985,0.4476632,-1.4696878,2.0086467,-2.107703,-1.5706366,2.42281,-0.020807486,0.03736962,-0.04404066,-7.89882e-08,0.0032610185,-0.0152584445,-0.038307227,0.22984336,-9.500193,0.7284641,47.692257,-0.66088706,-1.9931507,-3.4374678,-0.4225923,0.16295725,-0.22129549,25.0625,25.625,24.875,27.1875,27.6875,28.0
0.052054543,-0.39925563,-1.966127,-1.6410071,-0.04028974,0.024638407,-0.15025721,-0.37341395,-0.3282248,0.059797797,-3.0783496,0.6251486,-0.0006330559,-0.02472665,-0.002164835,0.001803383,-0.007207813,0.005275601,-0.0055753305,0.44762692,-1.4696275,2.008551,-2.1076791,-1.570588,2.4227378,-0.021202318,0.038388874,-0.04628063,-5.157365e-09,0.004107305,-0.0156015325,-0.11492168,0.40222588,-9.5385,0.784413,47.672558,-0.661638,-1.9250062,-3.5032353,-0.42034036,0.16408625,-0.20596361,25.0625,25.625,24.875,27.1875,27.6875,28.0
0.05405482,-0.6434143,-1.980245,-1.6048447,-0.052209284,0.0176222,-0.14710845,-0.373465,-0.32822812,0.059808705,-3.0783796,0.6251942,-0.0005847842,-0.025098033,-0.0019357223,0.0014263289,-0.006789629,0.0036458075,-0.006731904,0.44757864,-1.469579,2.008478,-2.1077025,-1.5705761,2.4227142,-0.022190636,0.04009667,-0.047574367,0.0012353907,0.0044369353,-0.015433056,-0.076614454,0.34476504,-9.557653,0.83589023,47.690468,-0.6388675,-1.9482449,-3.4702847,-0.43035406,0.15272035,-0.1968806,25.0625,25.625,24.875,27.1875,27.6875,28.0
0.05605501,-0.12682207,-1.6762059,-1.4867439,-0.06633278,0.033975843,-0.15333751,-0.3735229,-0.3282174,0.059788555,-3.0783114,0.6253144,-0.0005801362,-0.026151657,-0.0018745868,0.0012770713,-0.0065334993,0.003340214,-0.0076049115,0.44753036,-1.4694467,2.0083816,-2.107715,-1.5706123,2.4227498,-0.02319029,0.04228186,-0.049714897,0.0015770834,0.004334373,-0.015558085,-0.05746084,0.4405331,-9.710882,0.7463667,47.67166,-0.6604715,-1.95226,-3.5237744,-0.42581558,0.14076655,-0.19935668,25.0625,25.625,24.875,27.1875,27.6875,28.0
0.058054786,-1.5758017,-2.2321343,-1.6335189,-0.06058536,0.012560998,-0.11615236,-0.3735677,-0.32823253,0.05982466,-3.078366,0.6251915,-0.00052018877,-0.027152056,-0.0019659044,0.0015711591,-0.006496844,0.0041074646,-0.007868456,0.44751805,-1.4694221,2.008261,-2.1076667,-1.5706123,2.422654,-0.023675913,0.043444846,-0.051700305,0.001725029,0.0039661466,-0.015777905,-0.11492168,0.4405331,-9.730036,0.7642693,47.658226,-0.6716789,-1.9181516,-3.4927673,-0.42901784,0.15954295,-0.17735314,25.0625,25.625,24.875,27.1875,27.6875,28.0
0.060054217,-0.736685,-1.9422863,-1.501824,-0.07271527,0.044227604,-0.13427833,-0.3736567,-0.32823324,0.059822615,-3.0783765,0.6253474,-0.00049876084,-0.027793037,-0.0022599185,0.0012982779,-0.006562772,0.0035660628,-0.007856756,0.44742206,-1.4692898,2.0081284,-2.1077025,-1.570588,2.422654,-0.023895485,0.045586,-0.053445883,0.0017887452,0.0042573437,-0.016008243,-0.1340753,0.45968673,-9.653421,0.800085,47.68062,-0.6543566,-1.8341005,-3.6228576,-0.41876864,0.16407862,-0.17002621,25.0625,25.625,24.875,27.1875,27.6875,28.0
0.06205473,-0.9394169,-2.0697734,-1.4964341,-0.06321436,0.045921646,-0.13128686,-0.37368926,-0.32825115,0.05983511,-3.0784206,0.6252996,-0.0004913317,-0.028821606,-0.0027216289,0.0017766557,-0.0074776947,0.004588951,-0.008565705,0.44741002,-1.4692415,2.008044,-2.1076906,-1.5705642,2.4226065,-0.024215613,0.046586603,-0.055607334,0.0016306533,0.0046353634,-0.015618546,-0.05746084,0.47884035,-9.557653,0.7665104,47.66987,-0.5422269,-1.8724434,-3.519239,-0.40633804,0.15116692,-0.16970128,25.0625,25.625,24.875,27.1875,27.6875,28.0
0.064055,-0.6428296,-1.4907312,-1.3481913,-0.054787792,0.04839943,-0.14012869,-0.37377173,-0.32824418,0.059842743,-3.078398,0.6253521,-0.00045565108,-0.030003928,-0.0031387913,0.0019261623,-0.008066467,0.004982499,-0.008644875,0.44733778,-1.4691207,2.0078886,-2.1076667,-1.5705875,2.42257,-0.024739444,0.048649117,-0.058203056,0.0015530135,0.0049908,-0.016061941,-0.05746084,0.38307226,-9.442732,0.83813137,47.694946,-0.6742784,-1.8341131,-3.5476294,-0.40986842,0.14811587,-0.16825768,25.0625,25.625,24.875,27.1875,27.6875,28.0
0.0660548,-1.0798655,-1.53219,-1.3007702,-0.03152475,0.030174028,-0.1225916,-0.37383258,-0.32828432,0.05986139,-3.0784643,0.6254037,-0.0004244271,-0.031159095,-0.0033935753,0.001981763,-0.008249616,0.0052725365,-0.00894151,0.44732565,-1.4690244,2.0077426,-2.1076787,-1.5705398,2.4225817,-0.025329968,0.05076313,-0.060656086,0.0015519973,0.0050262366,-0.016353797,-0.19153614,0.4213795,-9.442732,0.6948948,47.666286,-0.67682755,-1.8976365,-3.477416,-0.39972332,0.14108878,-0.15598358,25.0625,25.625,24.875,27.1875,27.6875,28.0
0.06805443,-0.73937726,-0.8466007,-1.1221687,-0.034152508,0.037260912,-0.1337632,-0.37388617,-0.32826754,0.059856307,-3.0784328,0.62547415,-0.00042899683,-0.03206797,-0.0037098369,0.002395211,-0.008896967,0.0061235786,-0.008450791,0.44725353,-1.4689403,2.0076592,-2.1076667,-1.5705518,2.4225576,-0.025697958,0.051615294,-0.0625408,0.0015366159,0.0052378844,-0.017211704,-0.19153613,0.30645782,-9.346964,0.7329411,47.67345,-0.6981585,-1.8074543,-3.5418978,-0.3922029,0.13851076,-0.13666004,25.0625,25.625,24.875,27.1875,27.6875,28.0
0.07005515,-1.2188647,-0.94189495,-1.0249476,-0.027657066,0.033685807,-0.13135904,-0.37395677,-0.32827613,0.059847724,-3.0784717,0.6254627,-0.0004485391,-0.034228325,-0.004293613,0.0026199853,-0.008700408,0.007173068,-0.008010737,0.44718137,-1.4688072,2.007538,-2.1076906,-1.570516,2.4224734,-0.026122352,0.055583056,-0.06743769,0.0016077538,0.0045971554,-0.018071398,-0.19153613,0.21068975,-9.308657,0.75755644,47.637623,-0.6790958,-1.8660177,-3.3269806,-0.37341517,0.15462765,-0.13893127,25.0625,25.625,24.875,27.1875,27.6875,28.0
0.07205478,-0.78657097,-0.6638599,-0.9807543,-0.031626355,0.051168766,-0.13502887,-0.37399024,-0.3282924,0.0598382,-3.0784886,0.62548554,-0.00049825845,-0.033810988,-0.003908861,0.0023708988,-0.008283832,0.0064690663,-0.008033647,0.44715735,-1.4687114,2.0074546,-2.1076906,-1.5704802,2.4224615,-0.02641642,0.055096146,-0.066396624,0.001869529,0.0045286654,-0.018343274,-0.1340753,0.28730422,-9.32781,0.8112748,47.686886,-0.75849783,-1.9011278,-3.5083973,-0.36663157,0.13960065,-0.12239647,25.0625,25.625,24.875,27.1875,27.6875,28.0
0.07405514,-0.73342645,-0.69223696,-0.9615023,-0.03344155,0.055448238,-0.13359003,-0.3740941,-0.32832104,0.05987355,-3.0785165,0.6255105,-0.00037015456,-0.035079356,-0.0040699625,0.0027798307,-0.00874935,0.0072005885,-0.008731362,0.44713295,-1.4685794,2.0072258,-2.1076782,-1.5705041,2.4224494,-0.027325252,0.0564746,-0.06891924,0.002152122,0.004629126,-0.01855256,-0.15322891,0.28730422,-9.289503,0.8179876,47.69763,-0.73138237,-1.6589084,-3.4743319,-0.37361717,0.13136709,-0.119382754,25.0625,25.625,24.875,27.1875,27.6875,28.0
0.07605434,-0.9023828,-0.3116987,-1.0211161,-0.028015835,0.04776541,-0.13573432,-0.37416315,-0.32831395,0.05987518,-3.0785341,0.62551296,-0.00036507883,-0.037813947,-0.005240534,0.004417003,-0.010141102,0.010093346,-0.008560528,0.44704896,-1.4684825,2.0071156,-2.1076782,-1.5704921,2.4223647,-0.027594477,0.058942124,-0.07562315,0.0031790072,0.0046226424,-0.018988468,-0.19153613,0.22984336,-9.251195,0.82022345,47.694054,-0.705308,-1.7124705,-3.2457638,-0.3645696,0.12001784,-0.11505455,25.0625,25.625,24.875,27.1875,27.6875,28.0
0.07805523,-0.9851059,-0.59543705,-1.1157266,-0.013077626,0.043824133,-0.120990366,-0.37424567,-0.32832,0.0598874,-3.0785303,0.62564677,-0.00035054333,-0.035877872,-0.00454144,0.0010308137,-0.006964353,0.0027292867,-0.008325057,0.44697705,-1.4683613,2.0069487,-2.1076539,-1.5704798,2.4223769,-0.02736816,0.06368488,-0.07329533,0.0041215713,0.0049494803,-0.018999014,-0.30645782,0.17238252,-9.251195,0.7553206,47.685097,-0.8072448,-1.8718817,-3.4022858,-0.36777845,0.14043783,-0.10455011,25.0625,25.625,24.875,27.1875,27.6875,28.0
0.08005499,-0.9476843,-0.5483124,-0.88955724,-0.017358309,0.050064016,-0.13202254,-0.37429273,-0.32833436,0.05986615,-3.0785475,0.6256505,-0.00043991054,-0.038515322,-0.005411903,0.004337252,-0.0101815825,0.009334652,-0.008369562,0.44692874,-1.4682184,2.0068405,-2.1076539,-1.5704316,2.4223287,-0.02813952,0.060849257,-0.07775519,0.004071076,0.004985695,-0.019723903,-0.28730422,0.21068975,-9.212888,0.7933669,47.691364,-0.8285561,-1.7325084,-3.3129659,-0.3485232,0.12973566,-0.112439156,25.0625,25.625,24.875,27.1875,27.6875,28.0
0.08205505,-1.4679359,-0.88463765,-1.2108371,-0.018000154,0.036162235,-0.11899439,-0.37437317,-0.328345,0.059880354,-3.0785568,0.6256138,-0.0003727474,-0.03980062,-0.0057160896,0.0036811298,-0.0096847005,0.008431589,-0.008573475,0.44689256,-1.4680971,2.0066717,-2.1076415,-1.5704564,2.4222686,-0.028685523,0.06504136,-0.08085062,0.0040034577,0.004922223,-0.020063197,-0.28730422,0.19153613,-9.251195,0.8224646,47.684196,-0.8373174,-1.73525,-3.2666798,-0.35641617,0.12127108,-0.09979961,25.0625,25.625,24.875,27.1875,27.6875,28.0
0.08405512,-1.0806077,-0.97995687,-1.1167278,-0.026923634,0.053377222,-0.12809737,-0.37447307,-0.32834625,0.059911475,-3.078562,0.6257111,-0.00026053056,-0.040308915,-0.005608746,0.0031757301,-0.008811318,0.007138261,-0.008751781,0.4468205,-1.4680004,2.0064914,-2.1076295,-1.5704802,2.4222567,-0.029184166,0.067395255,-0.08246984,0.0048132567,0.0046940595,-0.020381715,-0.30645782,0.19153613,-9.32781,0.78217715,47.6636,-0.80260515,-1.8428342,-3.248691,-0.34518132,0.14103957,-0.09987529,25.0625,25.625,24.875,27.1875,27.6875,28.0
0.086054265,-1.2741194,-1.4410042,-1.2564554,-0.023437677,0.055450495,-0.11797509,-0.37455362,-0.32837436,0.05992091,-3.0786135,0.62566394,-0.00023852116,-0.04176414,-0.0057022995,0.0035935072,-0.008590657,0.007664246,-0.00898383,0.44678408,-1.4678562,2.0063112,-2.1076295,-1.5704564,2.4221845,-0.030028861,0.06937406,-0.08584446,0.0058322987,0.004263954,-0.020991491,-0.3256114,0.21068975,-9.251195,0.8224646,47.658226,-0.81245977,-1.9048917,-3.2384195,-0.36128634,0.13546017,-0.08371957,25.0625,25.625,24.875,27.1875,27.6875,28.0
0.08805539,-0.6401919,-1.2671967,-1.211366,-0.031182867,0.06277757,-0.12888105,-0.37463573,-0.32839304,0.05992562,-3.0786278,0.6257816,-0.00028711229,-0.040814813,-0.0052883523,0.0019571013,-0.0070219003,0.0039041594,-0.008447339,0.4467122,-1.4676998,2.00612,-2.1075928,-1.5704082,2.4221842,-0.030082423,0.071628295,-0.08474699,0.00655005,0.0044780835,-0.021582428,-0.2681506,0.21068975,-9.3661175,0.7866488,47.707485,-0.79595435,-1.769872,-3.2224092,-0.36094314,0.11900085,-0.06435108,25.0625,25.625,24.875,27.1875,27.6875,28.0
0.09005472,-1.2983962,-1.4079944,-1.2609318,-0.038972333,0.044085246,-0.12457349,-0.37472564,-0.32838702,0.05992431,-3.0786028,0.62589294,-0.00026179722,-0.04193398,-0.0048842295,0.0017321567,-0.0069481498,0.0033754806,-0.010553317,0.4466275,-1.4675552,2.005964,-2.1075928,-1.5704201,2.4221723,-0.03195099,0.07352662,-0.08638601,0.0067989635,0.0046378328,-0.021344043,-0.3256114,0.2873042,-9.3661175,0.7866488,47.691364,-0.78230464,-1.8675878,-3.3889208,-0.36853608,0.11872573,-0.08084228,25.0625,25.625,24.875,27.1875,27.6875,28.0
0.09205502,-1.7246697,-1.6497245,-1.290649,-0.04250266,0.04041897,-0.11407115,-0.37480524,-0.3283912,0.05991078,-3.078579,0.6258506,-0.0002676665,-0.044688176,-0.0056420853,0.0029277662,-0.008566326,0.005581391,-0.012387191,0.44657898,-1.4673747,2.0057938,-2.107581,-1.5704435,2.4221005,-0.03334787,0.07618995,-0.09216622,0.007225319,0.0051332093,-0.020904256,-0.3256114,0.34476504,-9.308656,0.7396539,47.68062,-0.7312865,-1.7968073,-3.0781593,-0.37722534,0.13928838,-0.082828745,25.0625,25.625,24.875,27.1875,27.6875,28.0
0.09405431,-1.1096027,-1.4947612,-1.2710801,-0.041566033,0.050573863,-0.116856076,-0.37491128,-0.32839754,0.0599234,-3.078589,0.6259103,-0.00022375051,-0.044439346,-0.0055148765,0.002102849,-0.0076498613,0.0041297465,-0.012075428,0.44649494,-1.4672184,2.0055902,-2.107569,-1.5704435,2.4220526,-0.033215433,0.07770887,-0.09195136,0.007197791,0.00493525,-0.02108299,-0.2681506,0.34476504,-9.32781,0.8291774,47.696735,-0.70472,-1.9599936,-3.3736658,-0.36151218,0.12482205,-0.08186409,25.0625,25.625,24.875,27.1875,27.6875,28.0
0.096054114,-1.3926194,-1.4119656,-1.0848038,-0.04123561,0.043709077,-0.11729511,-0.37498108,-0.32843122,0.059934188,3.0786028,-0.62587404,0.00024310322,-0.04544516,-0.005986709,0.0022879,-0.007657773,0.004903691,-0.011251074,0.44647107,-1.467074,2.0053985,-2.1075332,-1.5704082,2.4220045,-0.033009447,0.07958086,-0.09442253,0.0070976,0.004603063,-0.021699006,-0.28730422,0.3256114,-9.308656,0.7351769,47.650166,-0.75137925,-1.8458556,-3.1877527,-0.3578694,0.14627823,-0.07394658,25.0625,25.625,24.875,27.1875,27.6875,28.0
0.09805531,-0.8810267,-1.4180813,-1.1977551,-0.035744194,0.053382427,-0.118830815,-0.37508386,-0.32844675,0.05995837,3.0785613,-0.6258463,0.0001806838,-0.046688996,-0.006381774,0.002153042,-0.008278624,0.005042504,-0.011586279,0.44639882,-1.4669414,2.0051944,-2.1075213,-1.5703958,2.4219203,-0.033715863,0.082194574,-0.096871175,0.0065381597,0.005098502,-0.022068694,-0.24899697,0.28730422,-9.32781,0.7709874,47.672558,-0.758152,-1.8962147,-3.1912723,-0.3526311,0.14820041,-0.07980374,25.0625,25.625,24.875,27.1875,27.6875,28.0
0.1000548,-0.7309455,-1.0121831,-1.0803002,-0.034672055,0.040148344,-0.118329935,-0.37520906,-0.3284448,0.059968784,3.0785015,-0.62600785,9.564177e-05,-0.048246767,-0.0060578356,0.0022405977,-0.00881907,0.0053501325,-0.013160919,0.44629005,-1.4667732,2.0049908,-2.1075451,-1.5704077,2.42192,-0.035951708,0.0839246,-0.09895183,0.0063771424,0.0054506357,-0.02272859,-0.1340753,0.36391866,-9.232041,0.85155696,47.651955,-0.74402905,-1.8672585,-3.1646016,-0.3587528,0.11853154,-0.051731534,25.0625,25.625,24.875,27.1875,27.6875,28.0
0.102054946,-0.50243205,-1.0520616,-1.1150193,-0.037575983,0.034089558,-0.12578115,-0.37527302,-0.32844996,0.059945095,3.0785358,-0.62605405,0.00018571495,-0.048907742,-0.0061692083,0.001294108,-0.008447255,0.003276622,-0.014187038,0.44624186,-1.4665803,2.004822,-2.1074975,-1.5704077,2.4218965,-0.036708105,0.08758309,-0.10089881,0.0066948044,0.0060054986,-0.022458507,-0.1340753,0.3256114,-9.3661175,0.73069996,47.66987,-0.7227967,-1.8744669,-3.1996179,-0.35118487,0.12714633,-0.060996607,25.0625,25.625,24.875,27.1875,27.6875,28.0
0.104054324,-0.22747077,-1.6022079,-1.1844541,-0.03194194,0.03234005,-0.117764436,-0.37539098,-0.32847065,0.059953853,3.0784838,-0.6260623,0.00014890978,-0.050517946,-0.0063286596,0.0028825684,-0.010193364,0.006157483,-0.015395954,0.44615728,-1.4663891,2.004594,-2.1075094,-1.570383,2.4218237,-0.038067464,0.08647162,-0.10338713,0.0069422075,0.0063344995,-0.02260796,-0.15322891,0.24899697,-9.270349,0.8090337,47.685097,-0.62212574,-1.9508339,-3.1971846,-0.34667432,0.12134786,-0.06716801,25.0625,25.625,24.875,27.1875,27.6875,28.0
0.106055684,-0.7395817,-1.3627425,-1.2366315,-0.036697395,0.020408304,-0.11486315,-0.375485,-0.3284731,0.059945874,3.078478,-0.62613815,0.00013757795,-0.05074714,-0.006184513,0.0022153668,-0.009538256,0.0047843577,-0.015445047,0.4460852,-1.4662087,2.0044138,-2.1075094,-1.5703954,2.4218,-0.038533363,0.088433936,-0.10409521,0.007209606,0.0063357153,-0.023024151,-0.17238252,0.30645782,-9.32781,0.6725152,47.686886,-0.67792165,-1.7521667,-3.17941,-0.3441997,0.1250507,-0.06300488,25.0625,25.625,24.875,27.1875,27.6875,28.0
0.10805515,-0.9183349,-1.0764353,-1.1487006,-0.04200211,0.026979564,-0.11889267,-0.3756083,-0.3284965,0.059980836,3.078382,-0.6261944,0.00012136822,-0.051005118,-0.0066249627,0.0012842569,-0.008484622,0.0028581908,-0.014212704,0.4459775,-1.4660517,2.0041497,-2.1074607,-1.5703357,2.4217396,-0.03784279,0.09211077,-0.10615482,0.0077872393,0.0062151686,-0.023563774,-0.17238252,0.30645782,-9.32781,0.80679786,47.692257,-0.7437732,-2.0371108,-3.1465998,-0.35558257,0.13962731,-0.071789265,25.0625,25.625,24.875,27.1875,27.6875,28.0
0.11005444,-1.2391361,-1.6194001,-1.1180102,-0.03178771,0.02949805,-0.11479373,-0.37572,-0.32854185,0.05999749,3.0783484,-0.6261302,5.994137e-05,-0.051665846,-0.006593614,0.0014700778,-0.008321778,0.0033335097,-0.015099262,0.44595328,-1.4658477,2.003887,-2.1074607,-1.5703233,2.4216797,-0.038248282,0.0928211,-0.10742722,0.007992346,0.005862472,-0.023081094,-0.19153613,0.30645782,-9.3661175,0.86498255,47.693153,-0.7201984,-1.8319442,-3.2516406,-0.3459127,0.124910645,-0.055417567,25.0625,25.625,24.875,27.1875,27.6875,28.0
0.11205494,-0.92836595,-1.6923915,-1.3308883,-0.021403877,0.035794616,-0.11231669,-0.37582082,-0.32853675,0.059995096,3.0783446,-0.62620723,2.3044851e-05,-0.05216193,-0.006261109,0.00045941057,-0.008253272,0.0010022506,-0.016928645,0.44586882,-1.465679,2.0037067,-2.1074607,-1.5703472,2.421644,-0.039940916,0.09558897,-0.10820865,0.008135341,0.006805472,-0.022944734,-0.095768064,0.2681506,-9.251195,0.8314132,47.684196,-0.7330488,-2.0093718,-3.2937193,-0.34753948,0.12416086,-0.073325485,25.0625,25.625,24.875,27.1875,27.6875,28.0
0.1140547,-0.498698,-0.7619032,-1.1710262,-0.032062292,0.031081693,-0.11460027,-0.37591913,-0.328533,0.059981313,3.07831,-0.626374,0.00011701711,-0.05301806,-0.006598755,0.000243421,-0.008787784,0.00087039295,-0.017980263,0.44574863,-1.465475,2.0035026,-2.1074135,-1.570311,2.4216323,-0.04042265,0.09770493,-0.10995372,0.007652603,0.007339204,-0.02237446,-0.038307227,0.24899697,-9.308657,0.800085,47.67793,-0.70427597,-1.9247777,-3.2919102,-0.333964,0.10809284,-0.10489676,25.0625,25.625,24.875,27.1875,27.6875,28.0
0.11605481,-0.58425075,-0.90671104,-1.1060733,-0.016966123,0.024591193,-0.11666895,-0.3760448,-0.3285572,0.060002152,3.0782728,-0.62634647,2.764486e-07,-0.05509478,-0.007512318,0.0016894307,-0.010087641,0.004170379,-0.017639665,0.44568864,-1.4652948,2.0032618,-2.1074374,-1.5703229,2.42156,-0.04039365,0.09875035,-0.114404775,0.007521451,0.0070819715,-0.022682311,-0.095768064,0.24899697,-9.251195,0.69937176,47.64837,-0.7482593,-1.999977,-3.2869954,-0.3377408,0.11173899,-0.101163715,25.0625,25.625,24.875,27.1875,27.6875,28.0
0.11805538,-0.37766773,-0.4147658,-1.0072104,-0.014751591,0.024847222,-0.12441305,-0.376123,-0.32856712,0.059982274,3.0782607,-0.6264019,0.0001233924,-0.054101195,-0.0065761106,-0.0003174768,-0.007922695,6.3869804e-05,-0.017689342,0.44560453,-1.4650904,2.003071,-2.1073892,-1.5702752,2.4215121,-0.041118305,0.10103248,-0.112429716,0.007905391,0.0069027343,-0.023358434,-0.095768064,0.24899697,-9.385271,0.8224646,47.664497,-0.7700829,-1.9461873,-3.3921394,-0.32271987,0.11651291,-0.09077556,25.0625,25.625,24.875,27.1875,27.6875,28.0
0.120054446,-0.7537063,-0.52425796,-1.0747849,-0.017080633,0.02220524,-0.11384994,-0.37627208,-0.32860464,0.060018845,3.0782185,-0.6264114,-1.9349809e-05,-0.056222063,-0.007621089,0.0017350789,-0.009693643,0.0044384543,-0.016957084,0.4455565,-1.4648749,2.0027468,-2.1073768,-1.570299,2.4214756,-0.040855143,0.100864805,-0.1169656,0.007899197,0.006608349,-0.023823889,-0.11492168,0.22984336,-9.270349,0.800085,47.67345,-0.78718215,-1.8910067,-3.3219185,-0.33097732,0.113554545,-0.10839754,25.0625,25.625,24.875,27.1875,27.6875,28.0
0.12205503,-0.60239065,-0.71335894,-1.0028445,-0.023804585,0.043127373,-0.124846876,-0.37639055,-0.32863626,0.060020134,3.0781262,-0.62647,5.925206e-06,-0.055393312,-0.0072098915,-0.0010363852,-0.0076517374,-0.0012998321,-0.017286658,0.44546044,-1.4646573,2.002507,-2.1073892,-1.570227,2.421428,-0.04128954,0.10591871,-0.11628352,0.008221444,0.007241982,-0.023929015,-0.1340753,0.21068975,-9.308656,0.82022345,47.66987,-0.8250161,-2.0609112,-3.440512,-0.32967782,0.109383345,-0.111702174,25.0625,25.625,24.875,27.1875,27.6875,28.0
0.12405421,-1.0012676,-0.9492148,-1.1165428,-0.02504196,0.039736874,-0.11614781,-0.37646592,-0.32859963,0.05996108,3.0782259,-0.6265482,0.00017890819,-0.056052674,-0.0074949916,0.0007622076,-0.009092834,0.0012949314,-0.017136075,0.4453403,-1.4644067,2.002352,-2.1073287,-1.5702513,2.421344,-0.04145128,0.10332663,-0.11784376,0.009411066,0.007420697,-0.02424261,-0.076614454,0.22984336,-9.32781,0.7866488,47.645687,-0.8659669,-1.7965374,-3.4800208,-0.33236682,0.109231174,-0.12436119,25.0625,25.625,24.875,27.1875,27.6875,28.0
0.12605526,-1.6551652,-1.1332607,-1.0486205,-0.021191148,0.026382402,-0.1056931,-0.3765789,-0.32863078,0.059979815,3.0781748,-0.62659407,0.00015830243,-0.05662993,-0.007891098,-0.00044106186,-0.007866547,-0.0008532687,-0.016353397,0.44528046,-1.4642135,2.0020878,-2.107293,-1.570227,2.4213195,-0.041092046,0.10801689,-0.120342426,0.009688217,0.007235739,-0.024663448,-0.11492168,0.22984336,-9.3661175,0.79560274,47.657326,-0.872318,-1.9070103,-3.544229,-0.34142226,0.10146004,-0.11199461,25.0625,25.625,24.875,27.1875,27.6875,28.0
0.12805489,-1.0248569,-1.0332005,-1.2055731,-0.018877717,0.03633941,-0.11697162,-0.37669444,-0.3286543,0.05997547,3.0781195,-0.6266792,0.0001758354,-0.057127327,-0.007731208,7.628873e-06,-0.008215078,0.00026061395,-0.017086672,0.4451964,-1.4639862,2.001847,-2.107293,-1.5701913,2.4212956,-0.041707747,0.10739408,-0.12065746,0.009472748,0.007069977,-0.024545457,-0.1340753,0.24899697,-9.289502,0.75755644,47.68062,-0.9793203,-1.8073312,-3.469849,-0.32028496,0.11032992,-0.13096702,25.0625,25.625,24.875,27.1875,27.6875,28.0
0.13005517,-0.76879996,-0.8760626,-1.2456126,-0.020900588,0.040028892,-0.11587891,-0.37680742,-0.32866123,0.059984367,3.0781229,-0.6267187,0.00013768632,-0.059700567,-0.008294881,0.0011647685,-0.009580081,0.0023759292,-0.018250044,0.4451238,-1.4637938,2.0016062,-2.1072571,-1.5702151,2.4212475,-0.04315991,0.10965414,-0.12594186,0.009999063,0.007381757,-0.024831312,-0.095768064,0.2681506,-9.3661175,0.8314132,47.678825,-0.8769736,-1.8375822,-3.456739,-0.34322917,0.12095668,-0.14527768,25.0625,25.625,24.875,27.1875,27.6875,28.0
0.13205448,-0.88435453,-0.9022417,-1.1836522,-0.019718949,0.028150585,-0.117519855,-0.3769614,-0.32870987,0.060024317,3.0780172,-0.6266962,7.962933e-06,-0.06017188,-0.009026874,0.0010665513,-0.009634886,0.003024935,-0.016792793,0.4450522,-1.4635895,2.0012949,-2.107281,-1.5701793,2.4211755,-0.042037882,0.11140234,-0.12747939,0.009181412,0.0071504577,-0.02516393,-0.05746084,0.2681506,-9.423578,0.7732232,47.704796,-0.9776459,-1.8340678,-3.538936,-0.31925055,0.09759241,-0.14540973,25.0625,25.625,24.875,27.1875,27.6875,28.0
0.13405465,-0.8800531,-1.3355573,-1.6357849,-0.024939025,0.031812653,-0.1171142,-0.37709635,-0.3287107,0.06002901,3.0779693,-0.6268586,-2.114972e-05,-0.06075493,-0.009693805,0.0015440786,-0.009740737,0.004102601,-0.01550843,0.44493246,-1.4633738,2.001043,-2.1072686,-1.5701793,2.4211633,-0.041041885,0.112270504,-0.12961072,0.009428603,0.0067796856,-0.025450421,-0.1340753,0.34476504,-9.423578,0.8112748,47.661808,-1.095416,-1.7336533,-3.4255807,-0.33682978,0.116123945,-0.15635303,25.0625,25.625,24.875,27.1875,27.6875,28.0
0.13605484,-1.2814015,-1.5450432,-1.7115211,-0.032611895,0.026201794,-0.113736756,-0.3771751,-0.32871616,0.059992816,3.0780363,-0.6268921,0.00013033648,-0.06229734,-0.009333497,0.001996722,-0.009905284,0.0040621045,-0.017249182,0.4448718,-1.4631096,2.0008152,-2.1071842,-1.5701793,2.4211152,-0.043195482,0.11374544,-0.13265663,0.010965315,0.0069401194,-0.025862776,-0.076614454,0.40222588,-9.3661175,0.8717007,47.689575,-1.1126364,-1.6787246,-3.3547614,-0.32707918,0.10846521,-0.18616968,25.0625,25.625,24.875,27.1875,27.6875,28.0
0.1380548,-1.4054785,-1.6067121,-1.804443,-0.05042842,0.028023627,-0.112942435,-0.37730014,-0.32874653,0.060003757,3.0779927,-0.62686324,9.424087e-05,-0.06255001,-0.009711302,0.0018691812,-0.0098270625,0.0036890365,-0.016129553,0.44479993,-1.4628935,2.0005515,-2.1071842,-1.570155,2.421031,-0.04275793,0.11512487,-0.13398357,0.011284333,0.0070298533,-0.026543783,-0.095768064,0.38307226,-9.519346,0.842603,47.686886,-1.109758,-1.6957282,-3.398791,-0.35181338,0.10977019,-0.19211766,25.0625,25.625,24.875,27.1875,27.6875,28.0
0.14005452,-1.4127672,-2.3282473,-1.760492,-0.05523953,0.036338173,-0.1135739,-0.37742814,-0.32875845,0.0600093,3.077955,-0.6269527,0.000117580115,-0.064007804,-0.009188051,0.0013179358,-0.009667775,0.0028043292,-0.017934859,0.44469124,-1.4626648,2.0002754,-2.1071365,-1.5701312,2.420983,-0.045178343,0.11806152,-0.13597071,0.011202838,0.0072631477,-0.0271576,-0.21068975,0.40222588,-9.576807,0.82694155,47.66091,-1.0662323,-1.7289541,-3.389603,-0.35171276,0.10431677,-0.20719065,25.0625,25.625,24.875,27.1875,27.6875,28.0
0.14205498,-1.3040187,-2.2098088,-1.6888189,-0.069528475,0.04570168,-0.115291096,-0.37756726,-0.32877198,0.060013324,3.0779116,-0.6270381,9.745637e-05,-0.06473307,-0.010040764,0.001881875,-0.009720362,0.0043374384,-0.015863817,0.44458362,-1.4624252,1.9999989,-2.107125,-1.5701193,2.4209344,-0.043797474,0.11916178,-0.13851377,0.011242594,0.0066474834,-0.02784524,-0.17238252,0.40222588,-9.787497,0.83365434,47.655537,-1.1455055,-1.628798,-3.364305,-0.3530934,0.10725236,-0.1925473,25.0625,25.625,24.875,27.1875,27.6875,28.0
0.14405455,-1.4371762,-2.2899616,-1.9032884,-0.060138054,0.044824388,-0.11507401,-0.37770635,-0.3287786,0.060027894,3.0779307,-0.6270416,-1.7937751e-05,-0.06610348,-0.010292415,0.0017892612,-0.009751299,0.0050213095,-0.016247887,0.4445116,-1.4622084,1.9997233,-2.1071131,-1.5701793,2.4208624,-0.044354286,0.121730596,-0.14100187,0.010531019,0.006376348,-0.028015345,-0.22984336,0.47884035,-9.749189,0.85155696,47.664497,-1.2542939,-1.8762347,-3.3878922,-0.34595138,0.120189756,-0.21226196,25.0625,25.625,24.875,27.1875,27.6875,28.0
0.14605503,-1.8094075,-2.345618,-1.794028,-0.052391537,0.03215469,-0.10436566,-0.37782717,-0.32879788,0.060020022,3.0779083,-0.6271146,6.2844745e-05,-0.067150064,-0.0101345545,0.0011219817,-0.009758975,0.004249722,-0.016523246,0.4444149,-1.4619443,1.9994358,-2.107053,-1.5701431,2.4208143,-0.04578996,0.12453268,-0.14245076,0.009872074,0.0067104916,-0.029174909,-0.11492168,0.4213795,-9.691729,0.78217715,47.67166,-1.125212,-1.6334021,-3.439489,-0.33790123,0.1318781,-0.22017932,25.0625,25.625,24.875,27.1875,27.6875,28.0
0.14805464,-1.6858495,-2.1926336,-1.8896543,-0.047908317,0.028931303,-0.10124956,-0.3779602,-0.32881254,0.060015667,3.0778668,-0.62714446,5.5243163e-05,-0.06938229,-0.011019367,0.00258546,-0.012088712,0.007236923,-0.016228944,0.44430667,-1.4617045,1.9991835,-2.1070654,-1.5701188,2.42073,-0.04665573,0.12547496,-0.14680707,0.009586545,0.007522001,-0.030333094,-0.05746084,0.45968673,-9.595961,0.8179876,47.679718,-1.1880286,-1.7182202,-3.423225,-0.33805555,0.11211157,-0.21136579,25.0625,25.625,24.875,27.1875,27.6875,28.0
0.15005426,-1.1507976,-1.9374485,-1.6273577,-0.0425035,0.02847594,-0.11501718,-0.3781129,-0.32884297,0.060036216,3.077809,-0.62718964,2.1015696e-05,-0.069034815,-0.01066019,0.00111317,-0.011731427,0.0046769963,-0.017106012,0.44421038,-1.4614521,1.9988493,-2.1070297,-1.5700945,2.4206696,-0.047514018,0.12757084,-0.14558735,0.008734655,0.00830266,-0.030315092,-0.076614454,0.36391866,-9.442732,0.80456203,47.672558,-1.1846648,-1.7911897,-3.4514828,-0.3274273,0.11302502,-0.22990605,25.0625,25.625,24.875,27.1875,27.6875,28.0
0.15205479,-0.63725215,-1.4150751,-1.5719149,-0.035917565,0.03952735,-0.10984212,-0.37826887,-0.3288812,0.060045544,3.0777428,-0.62723494,-3.1221844e-05,-0.070736244,-0.010749865,0.0010853113,-0.011604004,0.0055385334,-0.018604903,0.44412604,-1.4611756,1.998525,-2.107042,-1.5700706,2.420622,-0.048514526,0.1303706,-0.1485184,0.008145728,0.007812233,-0.02981344,-0.11492168,0.30645782,-9.481039,0.8291774,47.68599,-1.1922034,-1.7551184,-3.3345313,-0.31089127,0.112040065,-0.25155514,25.0625,25.625,24.875,27.1875,27.6875,28.0
0.15405466,-1.0132973,-1.1583495,-1.4923865,-0.030310359,0.03482932,-0.11596323,-0.3784217,-0.32892236,0.060074072,3.077664,-0.62725693,-8.712617e-05,-0.0718912,-0.011040079,0.00093946076,-0.012125584,0.0054631787,-0.01891286,0.44404176,-1.4609352,1.9981884,-2.1070182,-1.5700344,2.4205618,-0.049316444,0.1328181,-0.15086062,0.007884638,0.008313219,-0.030305604,-0.15322891,0.24899697,-9.442732,0.8291774,47.64837,-1.1811495,-1.5783999,-3.3925853,-0.298933,0.13279116,-0.26546308,25.0625,25.625,24.875,27.1875,27.6875,28.0
0.15605447,-1.0248268,-1.2220713,-1.2985572,-0.022605058,0.039323997,-0.11210066,-0.3785494,-0.32892528,0.06006941,3.0776863,-0.62729985,-0.00011686231,-0.0728364,-0.0109391995,-0.0012414992,-0.010818642,0.0019402294,-0.019277407,0.4439573,-1.4606934,1.9979261,-2.1069944,-1.5700706,2.4205015,-0.050550554,0.13932739,-0.15294306,0.0071994173,0.008641262,-0.031173173,-0.15322891,0.19153613,-9.3661175,0.7933669,47.64389,-1.1576588,-1.82354,-3.3556972,-0.2992111,0.111959815,-0.27241617,25.0625,25.625,24.875,27.1875,27.6875,28.0
0.15805525,-1.0389372,-0.91151226,-1.2254864,-0.023319596,0.046152603,-0.1183608,-0.37870893,-0.32896093,0.06007343,3.077612,-0.627324,-0.00013256045,-0.07399799,-0.010943233,-0.00075286615,-0.011214409,0.0032547738,-0.020029837,0.44384915,-1.4604057,1.9976014,-2.1070063,-1.570023,2.420418,-0.051409386,0.13994728,-0.15474692,0.007029544,0.008432199,-0.031277847,-0.15322891,0.2873042,-9.32781,0.8537928,47.682407,-1.3212931,-1.8683677,-3.337481,-0.2783271,0.12202624,-0.2787821,25.0625,25.625,24.875,27.1875,27.6875,28.0
0.16005485,-1.4774376,-0.5076393,-0.9711235,-0.03277825,0.04497753,-0.11980167,-0.37887296,-0.328988,0.060084686,3.077522,-0.62747866,-0.00015460051,-0.07556501,-0.010960874,-0.001059246,-0.011593916,0.0019428391,-0.021641769,0.44372836,-1.4601287,1.9972662,-2.106994,-1.5699862,2.4204054,-0.053349726,0.14352365,-0.15825924,0.007986586,0.0093354015,-0.031604465,-0.2681506,0.22984336,-9.308656,0.7978386,47.66091,-1.2113378,-2.0589921,-3.3092299,-0.26978877,0.11009359,-0.2982499,25.0625,25.625,24.875,27.1875,27.6875,28.0
0.16205418,-1.3516805,-0.6087495,-1.08764,-0.026790084,0.0557972,-0.1267015,-0.3790078,-0.32900953,0.06009284,3.0775032,-0.62747484,-0.00013110993,-0.075883284,-0.010438033,-0.0014269663,-0.010762504,0.00085561024,-0.021548802,0.4436321,-1.459877,1.9969553,-2.1069343,-1.5699624,2.4203093,-0.05439239,0.14461544,-0.15885374,0.008831495,0.009052999,-0.032739628,-0.3256114,0.24899697,-9.212888,0.83813137,47.653748,-1.1813912,-1.8178957,-3.4336138,-0.29000348,0.0884098,-0.29960138,25.0625,25.625,24.875,27.1875,27.6875,28.0
0.16405436,-1.6052223,-0.9026564,-0.75545114,-0.027111484,0.056158796,-0.11379003,-0.3791887,-0.32903165,0.06008425,3.077441,-0.6275966,-0.0002070169,-0.076590955,-0.010575818,-0.0010916723,-0.010508186,0.0015938589,-0.021734325,0.44351214,-1.4595534,1.9966301,-2.1069934,-1.5699629,2.4202735,-0.054364976,0.14538817,-0.16062321,0.009273524,0.008506201,-0.032524742,-0.61291564,0.17238252,-9.251195,0.92093146,47.709274,-1.2251992,-1.8515317,-3.4264426,-0.28798145,0.113516964,-0.32396868,25.0625,25.625,24.875,27.1875,27.6875,28.0
0.16605462,-1.6567256,-0.7627051,-0.6453469,-0.027068755,0.06677075,-0.117589794,-0.37932426,-0.32905135,0.060074292,3.0774689,-0.6275656,-0.00016122939,-0.07817532,-0.010706514,-0.0005979108,-0.010894633,0.0033016796,-0.02418796,0.4434278,-1.4592535,1.9963073,-2.1069343,-1.5699629,2.4201665,-0.05524527,0.146754,-0.16319385,0.008771164,0.008114352,-0.03094961,-0.61291564,0.19153613,-9.155427,0.73741806,47.64389,-1.229893,-1.8094716,-3.391528,-0.26276344,0.1043261,-0.33958542,25.0625,25.625,24.875,27.1875,27.6875,28.0
0.16805458,-1.6786108,-0.55480283,-0.5163683,-0.026218139,0.06395288,-0.118383564,-0.3795198,-0.3290977,0.060126826,3.0773246,-0.627612,-0.00030937616,-0.07967344,-0.01098483,0.00023975727,-0.0122692855,0.004617216,-0.025374835,0.44330752,-1.4590136,1.9959239,-2.1069458,-1.5699147,2.4200938,-0.056475997,0.14749724,-0.16604055,0.009096721,0.008792255,-0.03099113,-0.5554548,0.21068975,-9.11712,0.8627467,47.71286,-1.1976699,-1.7305253,-3.3655403,-0.2531889,0.095098466,-0.38553685,25.0625,25.625,24.875,27.1875,27.6875,28.0
0.17005433,-1.5727273,-0.5542834,-0.5427951,-0.015450105,0.057419665,-0.11761844,-0.37967953,-0.32910323,0.060109112,3.0773156,-0.6277246,-0.0002779452,-0.08039013,-0.011070042,0.0002973267,-0.013194043,0.004194804,-0.024932425,0.4431751,-1.4586898,1.9956001,-2.1069214,-1.5699142,2.420033,-0.057599865,0.1485821,-0.16750331,0.009458206,0.009808061,-0.032557607,-0.4405331,0.095768064,-9.11712,0.8627467,47.705692,-1.2377088,-1.6922835,-3.3810148,-0.24606785,0.10500879,-0.39636594,25.0625,25.625,24.875,27.1875,27.6875,28.0
0.17205454,-1.4320897,-0.5188725,-0.64040786,-0.0028248928,0.05132971,-0.11546694,-0.37982,-0.3291445,0.06011069,3.0772183,-0.62783957,-0.00024055608,-0.081612654,-0.010824781,0.0007268295,-0.012633719,0.0056978995,-0.024784194,0.4430789,-1.4584141,1.9952883,-2.10691,-1.5698427,2.420021,-0.058342442,0.14934018,-0.16936402,0.009451201,0.008655748,-0.033446204,-0.40222588,0.17238252,-9.11712,0.84484416,47.681515,-1.1964464,-1.7059658,-3.362782,-0.23996395,0.09997168,-0.3915014,25.0625,25.625,24.875,27.1875,27.6875,28.0
0.17405467,-1.157544,-0.15908977,-0.5396922,-0.0020439983,0.048590872,-0.12180221,-0.37998727,-0.3291554,0.060092498,3.0772672,-0.6278302,-0.00026897682,-0.08365627,-0.011015622,0.00090421503,-0.012840073,0.0066282386,-0.024900818,0.4429824,-1.4580655,1.9949406,-2.1068976,-1.5698909,2.4199128,-0.059626635,0.15243804,-0.17321603,0.009277168,0.00843616,-0.034611084,-0.47884035,0.17238252,-9.059659,0.800085,47.668976,-1.2202744,-1.7778332,-3.3492703,-0.23920652,0.092456974,-0.39114794,25.0625,25.625,24.875,27.1875,27.6875,28.0
0.1760552,-1.7058179,-0.54925877,-0.7947776,0.0044297404,0.032433897,-0.118004225,-0.38016367,-0.3291838,0.06011308,3.077151,-0.6279795,-0.00028528692,-0.084136054,-0.010673771,0.0003269863,-0.012066084,0.0051385923,-0.0246459,0.44283804,-1.4577895,1.994582,-2.1068738,-1.5698308,2.4198766,-0.060609892,0.15452038,-0.17442946,0.010090321,0.008379009,-0.035848014,-0.30645782,0.076614454,-9.040505,0.8537928,47.682407,-1.1248864,-1.5598944,-3.443182,-0.22393325,0.107790284,-0.42016634,25.0625,25.625,24.875,27.1875,27.6875,28.0
0.17805481,-1.3952287,-0.7629102,-1.0254819,0.00057260436,0.034471124,-0.10908559,-0.38033003,-0.3291943,0.060117908,3.0771387,-0.62801516,-0.00032585475,-0.08533853,-0.010429955,0.0013564777,-0.0127566885,0.006868089,-0.024894534,0.44271764,-1.4575024,1.9942468,-2.1068494,-1.5698427,2.4197803,-0.062015884,0.15381815,-0.17618662,0.010692964,0.008262652,-0.03700446,-0.2681506,0.076614454,-9.174581,0.8112748,47.70032,-1.1357079,-1.4485129,-3.440477,-0.21992868,0.12605824,-0.4187938,25.0625,25.625,24.875,27.1875,27.6875,28.0
0.18005496,-1.1293533,-0.5414926,-1.0636489,-0.011411884,0.035981316,-0.11717592,-0.380503,-0.32921016,0.060103856,3.0771286,-0.6280505,-0.00029847724,-0.08633384,-0.010235242,0.0011243969,-0.012299365,0.0064712903,-0.02432241,0.44258535,-1.4571543,1.9938873,-2.1068256,-1.5698308,2.4196715,-0.06305893,0.15593338,-0.17814666,0.011095814,0.008018354,-0.038618334,-0.19153613,0.11492168,-9.155427,0.86945957,47.67614,-1.1036243,-1.5122749,-3.3641348,-0.2213695,0.10951948,-0.42799234,25.0625,25.625,24.875,27.1875,27.6875,28.0
0.18205443,-0.98915887,-0.7279516,-0.95200145,-0.011109224,0.036162272,-0.11877042,-0.38069245,-0.3292146,0.0601017,3.0771089,-0.62819993,-0.00033710603,-0.08785127,-0.010758711,0.0020437115,-0.0130262785,0.008091385,-0.02306688,0.44244117,-1.4568183,1.993514,-2.1068013,-1.5698546,2.4196234,-0.06336139,0.1571135,-0.18176192,0.011757134,0.00797873,-0.040174235,-0.22984336,0.19153613,-9.212888,0.85826975,47.693153,-1.1651677,-1.4979253,-3.333293,-0.20491852,0.12757826,-0.4160686,25.0625,25.625,24.875,27.1875,27.6875,28.0
0.18405487,-0.747522,-0.6496046,-1.2019327,-0.015175576,0.032443084,-0.12214561,-0.38087076,-0.32924092,0.060113437,3.0770068,-0.6283135,-0.00030871038,-0.088400185,-0.009014426,-0.00049121765,-0.010871932,0.0028966968,-0.024937421,0.4422837,-1.4565171,1.9931444,-2.106765,-1.5697826,2.41955,-0.06723651,0.16203427,-0.18158986,0.012285931,0.008261504,-0.042178314,-0.21068975,0.19153613,-9.346964,0.8314132,47.691364,-0.9208411,-1.5480919,-3.499335,-0.21592122,0.11415326,-0.40542734,25.0625,25.625,24.875,27.1875,27.6875,28.0
0.18605432,-1.4037899,-0.8130773,-1.4121706,-0.02269559,0.02440043,-0.11824297,-0.38102916,-0.3292504,0.060094766,3.0769894,-0.6283463,-0.00029809255,-0.08861188,-0.010090901,2.2958193e-06,-0.010884079,0.0038107133,-0.021351572,0.44215277,-1.4562057,1.992844,-2.106777,-1.5697707,2.419442,-0.065128386,0.16295597,-0.18392608,0.0128733,0.007879896,-0.04365457,-0.19153613,0.28730422,-9.442732,0.8806493,47.709274,-1.0729907,-1.5052807,-3.4524703,-0.20906916,0.13227576,-0.39011446,25.0625,25.625,24.875,27.1875,27.6875,28.0
0.18805468,-1.2265526,-1.2690494,-1.5784818,-0.033326562,0.03682059,-0.120801024,-0.3811823,-0.3292563,0.060072217,3.077055,-0.62837803,-0.00021274149,-0.08943247,-0.0094399,-0.0007437503,-0.010337453,0.002134078,-0.020580616,0.44204405,-1.4558455,1.9924735,-2.1066806,-1.569795,2.419345,-0.067178376,0.16536452,-0.18506078,0.013349926,0.0081008645,-0.04647558,-0.11492168,0.30645782,-9.500193,0.80456203,47.70211,-1.0528219,-1.4955888,-3.4514637,-0.19914404,0.14409757,-0.3845374,25.0625,25.625,24.875,27.1875,27.6875,28.0
0.19005516,-1.6538184,-1.8339583,-1.6408008,-0.039814815,0.033728924,-0.11172741,-0.38136464,-0.3292845,0.06008271,3.0770009,-0.6284258,-0.00020720884,-0.091478564,-0.008524607,-0.0013429682,-0.010215233,0.00064260577,-0.022072732,0.4419106,-1.4555207,1.9920777,-2.106633,-1.5697588,2.4192483,-0.07099837,0.1690562,-0.18798904,0.013989708,0.008627092,-0.048801687,-0.11492168,0.3256114,-9.557653,0.8403672,47.683304,-0.81479084,-1.7485883,-3.487515,-0.19845545,0.13506079,-0.3619935,25.0625,25.625,24.875,27.1875,27.6875,28.0
0.19205438,-1.4898237,-2.2654076,-1.7695099,-0.045703106,0.044474006,-0.11437796,-0.38156006,-0.32931364,0.060095016,3.076921,-0.62842566,-0.00027456027,-0.09091288,-0.008985738,-0.002854911,-0.008315092,-0.0019927656,-0.018218396,0.44176742,-1.4552082,1.9917077,-2.1066568,-1.5697225,2.4191155,-0.069203176,0.17275056,-0.18874693,0.014254882,0.008041418,-0.050858926,-0.19153613,0.3256114,-9.691729,0.8403672,47.679718,-0.90772104,-1.791922,-3.5025313,-0.20829755,0.15657918,-0.3274408,25.0625,25.625,24.875,27.1875,27.6875,28.0
0.1940549,-1.2168946,-2.0059836,-1.4644516,-0.06021632,0.050900362,-0.12406908,-0.38173363,-0.3293121,0.060084432,3.0769327,-0.6285434,-0.00019977633,-0.0924103,-0.00889983,-0.002601691,-0.0084503265,-0.0015836558,-0.018040188,0.4416108,-1.45486,1.9913229,-2.106561,-1.5697225,2.4190311,-0.070601344,0.17465281,-0.19162552,0.014806397,0.0079823835,-0.052434076,-0.2681506,0.24899697,-9.576807,1.0149267,47.701214,-0.9365138,-1.8464489,-3.5065837,-0.20971206,0.1590807,-0.2971988,25.0625,25.625,24.875,27.1875,27.6875,28.0
0.1960543,-1.3838319,-1.6927557,-1.5975412,-0.055386808,0.035767544,-0.11242435,-0.38193646,-0.32934162,0.06009334,3.0768802,-0.6285704,-0.00026295852,-0.095016025,-0.009362706,-0.0015617176,-0.010500032,0.0011026819,-0.01854194,0.44147828,-1.4545121,1.9909157,-2.1065614,-1.5697106,2.4189224,-0.072461024,0.17643145,-0.19584316,0.013941194,0.008681299,-0.053789206,-0.19153613,0.30645782,-9.615114,0.7463667,47.67614,-0.8090818,-1.8936048,-3.5374432,-0.21292356,0.16895029,-0.2665773,25.0625,25.625,24.875,27.1875,27.6875,28.0
0.19805476,-0.7322645,-1.2907386,-1.4814566,-0.051185213,0.04362291,-0.122389324,-0.38212988,-0.3293495,0.06008711,3.076808,-0.62870854,-0.000258116,-0.09563774,-0.009437012,-0.00126523,-0.011203306,0.0019751934,-0.017219607,0.44129798,-1.4541764,1.9905566,-2.1065614,-1.5696748,2.4188378,-0.07299184,0.17654753,-0.19660723,0.013504122,0.008945694,-0.055641882,-0.2681506,0.30645782,-9.595961,0.8537928,47.698532,-0.83098555,-1.7213054,-3.4882174,-0.18792549,0.17226882,-0.23348787,25.0625,25.625,24.875,27.1875,27.6875,28.0
0.20005436,-1.0487734,-1.303022,-1.4534982,-0.04392236,0.03393498,-0.123539604,-0.38233355,-0.32937548,0.06009956,3.0767703,-0.6287389,-0.00031948928,-0.096692935,-0.00978304,-0.0010648558,-0.011947726,0.0029850851,-0.016645126,0.44116595,-1.4538289,1.990136,-2.106538,-1.5696744,2.4187298,-0.07339064,0.17786811,-0.19842626,0.012772768,0.009186538,-0.056613564,-0.24899697,0.4213795,-9.461885,0.7620334,47.65912,-0.8167872,-1.9108125,-3.4783564,-0.16991863,0.16586833,-0.19308698,25.0625,25.625,24.875,27.1875,27.6875,28.0
0.20205472,-1.2603364,-1.4311345,-1.3853192,-0.042156935,0.041276395,-0.12249915,-0.38252997,-0.32939327,0.060099356,3.0767512,-0.62877446,-0.0002771852,-0.097643055,-0.009015967,-0.0019302753,-0.011847385,0.0007091769,-0.0195329,0.44100896,-1.4534566,1.9897054,-2.106465,-1.5696496,2.4185977,-0.07618486,0.18056779,-0.19965976,0.013407252,0.010066354,-0.05651984,-0.24899697,0.3256114,-9.481039,0.80456203,47.675243,-0.8126602,-1.9256061,-3.5212007,-0.16922905,0.1594675,-0.17695782,25.0625,25.625,24.875,27.1875,27.6875,28.0
0.20405489,-1.567451,-1.4410259,-1.4661245,-0.043180298,0.041485216,-0.10791771,-0.38270703,-0.32941288,0.060077075,3.0767045,-0.62886107,-0.00024258277,-0.09888475,-0.010335805,-0.0012691526,-0.0126019865,0.0025258248,-0.018449906,0.44086555,-1.4530965,1.9893583,-2.1064775,-1.5696143,2.4185145,-0.07471459,0.18269809,-0.20356445,0.013220209,0.009965224,-0.05613007,-0.2681506,0.34476504,-9.481039,0.91421866,47.683304,-0.7069106,-1.8225722,-3.5184078,-0.15923959,0.16834609,-0.1657976,25.0625,25.625,24.875,27.1875,27.6875,28.0
0.20605455,-1.8776025,-1.5275975,-1.2303607,-0.044242043,0.04939161,-0.10910234,-0.3828848,-0.32943705,0.060078755,3.076724,-0.6287495,-0.00021525456,-0.09982334,-0.009975518,-0.00089273823,-0.012306549,0.0032405069,-0.020650309,0.44074526,-1.4527487,1.9889506,-2.1064055,-1.5696019,2.4183223,-0.075779885,0.18310036,-0.20506838,0.013804502,0.009390444,-0.05499412,-0.2681506,0.2681506,-9.423578,0.7911258,47.701214,-0.73477566,-1.7411561,-3.5796454,-0.15418832,0.17154789,-0.15147716,25.0625,25.625,24.875,27.1875,27.6875,28.0
0.20805593,-1.2056347,-1.1317147,-1.0534273,-0.03985952,0.066015124,-0.116744064,-0.3831032,-0.32944068,0.06005651,3.076676,-0.62897307,-0.00018850165,-0.10149396,-0.008718866,-0.00084886927,-0.012238865,0.0034435922,-0.02506244,0.44055188,-1.4523292,1.9885315,-2.1063936,-1.5695904,2.4182749,-0.07941565,0.18400742,-0.20629105,0.013967634,0.00924056,-0.05421716,-0.2681506,0.13407528,-9.346964,0.94331104,47.737038,-0.6867055,-1.7363275,-3.5406017,-0.14420813,0.18499187,-0.13974392,25.0625,25.625,24.875,27.1875,27.6875,28.0
0.2100547,-1.3392491,-0.4481581,-1.1063682,-0.027041,0.051665876,-0.12333393,-0.38332555,-0.3294653,0.06006938,3.076607,-0.62899524,-0.00025339983,-0.10122029,-0.010769984,-0.000706528,-0.013582779,0.003250567,-0.022926128,0.4403852,-1.4519688,1.9881004,-2.1063936,-1.5695657,2.418131,-0.07617477,0.18592554,-0.20887794,0.014235317,0.010537765,-0.053111095,-0.24899697,0.15322891,-9.308657,0.7911258,47.701214,-0.75590205,-1.7433208,-3.5690653,-0.13441217,0.16611646,-0.15082851,25.0625,25.625,24.875,27.1875,27.6875,28.0
0.21205506,-1.3444607,-0.45221186,-1.0270176,-0.0022651278,0.0445752,-0.11654827,-0.38354725,-0.32949895,0.06009415,3.0765233,-0.6291152,-0.0003745039,-0.102938995,-0.010660694,0.00017955917,-0.0140965255,0.005611145,-0.026894966,0.44025278,-1.4516219,1.987657,-2.1063936,-1.5695661,2.4180846,-0.07746907,0.18631552,-0.21133485,0.01394863,0.009994089,-0.050433937,-0.3256114,0.17238252,-9.346964,0.84484416,47.694946,-0.8091582,-1.4769298,-3.5273147,-0.12092854,0.15904889,-0.15081514,25.0625,25.625,24.875,27.1875,27.6875,28.0
0.21405432,-1.4376547,-0.38996324,-1.075191,0.009184087,0.03453837,-0.11506517,-0.3837353,-0.32951492,0.06007259,3.0764947,-0.62912834,-0.00029857355,-0.10430983,-0.011560089,0.0009056319,-0.015516521,0.0068528405,-0.027019357,0.44008458,-1.4512383,1.9872731,-2.1063697,-1.5695175,2.4179285,-0.07744777,0.18792753,-0.21491776,0.014192569,0.010743179,-0.050286785,-0.3256114,0.17238252,-9.251195,0.9254084,47.695843,-0.77563864,-1.5042263,-3.4283712,-0.104021065,0.18072787,-0.15385222,25.0625,25.625,24.875,27.1875,27.6875,28.0
0.216055,-0.69409376,0.08854494,-1.2083806,0.009620099,0.0392308,-0.11873103,-0.38393942,-0.329534,0.06006703,3.0764642,-0.6292381,-0.0003146084,-0.10590406,-0.012248368,0.0021441337,-0.01614801,0.009211997,-0.030109322,0.4399408,-1.4508549,1.9868525,-2.1063454,-1.569518,2.4178574,-0.07722301,0.18877663,-0.21894412,0.014966153,0.010302021,-0.046969697,-0.17238252,0.1340753,-9.270349,0.9097417,47.67345,-0.8191552,-1.41973,-3.4947221,-0.104265496,0.16748534,-0.16536,25.0625,25.625,24.875,27.1875,27.6875,28.0
0.21805544,-1.5157784,-0.9263884,-1.4334365,0.018758511,0.018563705,-0.10550915,-0.3841656,-0.32955068,0.06008711,3.0764174,-0.6293644,-0.0003558545,-0.10643737,-0.012227685,0.0014332847,-0.014434092,0.00783284,-0.033417664,0.43977302,-1.4504824,1.9863743,-2.106273,-1.569518,2.4177747,-0.07702519,0.19195817,-0.22116995,0.01598974,0.009336278,-0.043461464,-0.22984336,0.17238252,-9.3661175,0.83365434,47.694054,-0.91708165,-1.4252362,-3.4458704,-0.099099115,0.18769148,-0.21099219,25.0625,25.625,24.875,27.1875,27.6875,28.0
0.22005501,-0.8780988,-0.36085162,-1.2612623,-0.018836373,0.03737671,-0.120491505,-0.38438413,-0.32957643,0.06009192,3.0763743,-0.6294324,-0.0004138303,-0.10643763,-0.012261676,0.00018244561,-0.013197507,0.0049143974,-0.03395535,0.4396289,-1.4500973,1.9859308,-2.106261,-1.569518,2.4176788,-0.07698879,0.19547933,-0.22254395,0.017010197,0.00946202,-0.042886086,-0.17238252,0.095768064,-9.404425,0.82694155,47.686886,-0.9633708,-1.620534,-3.3772619,-0.098865286,0.2000081,-0.22966412,25.0625,25.625,24.875,27.1875,27.6875,28.0
0.22205524,-1.1453346,-1.1092569,-1.4579425,-0.021424886,0.02579351,-0.11963603,-0.384585,-0.32961762,0.060106456,3.0762587,-0.62952375,-0.0003914001,-0.106913514,-0.012886925,-0.0004099547,-0.012180874,0.0031666632,-0.033466015,0.4394732,-1.4497485,1.9854997,-2.1062243,-1.569434,2.4175951,-0.07607379,0.19923125,-0.2257894,0.018523242,0.009285081,-0.042458072,-0.19153613,0.21068975,-9.423578,0.8717007,47.693153,-1.0046474,-1.8896832,-3.3439136,-0.09879836,0.19400547,-0.2594933,25.0625,25.625,24.875,27.1875,27.6875,28.0
0.22405468,-1.2912524,-1.950036,-1.6566297,-0.027323704,0.02488549,-0.11311087,-0.3848032,-0.32960835,0.060082376,3.0763211,-0.6296319,-0.00037430524,-0.108463034,-0.012806505,-2.797176e-05,-0.012146609,0.0035215132,-0.033061933,0.43930492,-1.449305,1.9850429,-2.1061523,-1.5694946,2.4174867,-0.07739462,0.20115864,-0.2291634,0.019664846,0.009099233,-0.044181757,-0.17238252,0.2873042,-9.423578,0.83365434,47.666286,-1.013114,-1.8440446,-3.2072003,-0.111868694,0.20707652,-0.23890159,25.0625,25.625,24.875,27.1875,27.6875,28.0
0.22605418,-0.78723407,-2.0259438,-1.5466111,-0.057727378,0.03218249,-0.11318763,-0.3849943,-0.3296381,0.06007223,3.0763078,-0.6296882,-0.00034506083,-0.108323075,-0.012506538,-0.0006317931,-0.011153137,0.0021316377,-0.03473205,0.43918458,-1.4489092,1.9846128,-2.1061041,-1.5694827,2.4174035,-0.07757094,0.20229426,-0.22927979,0.020327242,0.008791011,-0.042688057,-0.1340753,0.49799395,-9.461885,0.86498255,47.658226,-1.0809002,-1.7930264,-3.2777212,-0.11393349,0.21240076,-0.26464936,25.0625,25.625,24.875,27.1875,27.6875,28.0
0.22805451,-1.1827946,-2.5287564,-1.7160721,-0.060769893,0.010598717,-0.10706525,-0.3852177,-0.3296574,0.060084376,3.0762186,-0.62982374,-0.00034199114,-0.10811313,-0.012182168,-0.0022037718,-0.0098534785,-0.0013983926,-0.03568522,0.4389925,-1.4485373,1.9841584,-2.106056,-1.569434,2.4173076,-0.07813649,0.20564008,-0.22968045,0.021132048,0.009118189,-0.04229987,0.076614454,0.47884035,-9.5385,0.8717007,47.684196,-1.03668,-1.6689671,-3.4611664,-0.10460083,0.23055372,-0.29739624,25.0625,25.625,24.875,27.1875,27.6875,28.0
0.23005478,-0.5301428,-2.5480292,-1.5535643,-0.07382912,0.018742776,-0.12247672,-0.38541296,-0.32968694,0.06003998,3.0762196,-0.629937,-0.00022775009,-0.10891529,-0.012074835,-0.0019462184,-0.01019464,-0.00083771616,-0.034878097,0.43886042,-1.4480577,1.9837154,-2.1060202,-1.5694102,2.4172463,-0.079024844,0.20612668,-0.23093694,0.021253435,0.00918538,-0.043995507,0.0,0.57460845,-9.461885,0.83813137,47.655537,-1.0439423,-1.6467216,-3.4810755,-0.12462975,0.23566352,-0.30174226,25.0625,25.625,24.875,27.1875,27.6875,28.0
0.232055,-1.0807115,-3.113669,-1.5939564,-0.06919117,0.0044904067,-0.10954405,-0.3856779,-0.3297081,0.060084533,3.0761552,-0.6300387,-0.00041028994,-0.10979977,-0.011828778,-0.0021346326,-0.010229044,-0.00067568716,-0.034459937,0.438692,-1.4476858,1.9831895,-2.1059844,-1.5694464,2.41715,-0.08015746,0.20746656,-0.23197077,0.02078798,0.009151979,-0.04554446,0.019153614,0.57460845,-9.32781,0.8560339,47.66808,-1.0510616,-1.668897,-3.6452775,-0.111238584,0.25371763,-0.292562,25.0625,25.625,24.875,27.1875,27.6875,28.0
0.23405415,-0.52895534,-2.1773822,-1.3656166,-0.07063014,0.012747708,-0.1183789,-0.385904,-0.32974362,0.060082655,3.0760777,-0.6301576,-0.0004213676,-0.11097811,-0.012564584,-0.00201624,-0.011801881,-1.6899587e-05,-0.034106717,0.4385358,-1.4472659,1.9827212,-2.105973,-1.5694097,2.4170783,-0.08051647,0.20948783,-0.23438701,0.019918533,0.010292147,-0.046255,0.05746084,0.57460845,-9.385271,0.8918391,47.72808,-1.0582327,-1.6572938,-3.6628275,-0.117701754,0.24264577,-0.28666544,25.0625,25.625,24.875,27.1875,27.6875,28.0
0.2360547,-0.72536534,-2.2837253,-1.4949253,-0.056007024,0.006771608,-0.11246827,-0.3861137,-0.32976002,0.06006662,3.076065,-0.6301931,-0.0003690614,-0.11313505,-0.013285313,-0.0007601745,-0.013279042,0.0030852286,-0.034161985,0.43836752,-1.4468464,1.9822773,-2.1059248,-1.5693864,2.416934,-0.08100821,0.21065055,-0.23854502,0.019481381,0.010303197,-0.046689328,-0.019153614,0.4405331,-9.308657,0.83589023,47.698532,-1.0633086,-1.6345689,-3.6529162,-0.09611525,0.24052665,-0.3037019,25.0625,25.625,24.875,27.1875,27.6875,28.0
0.23805478,-0.8080083,-1.9820963,-1.2734263,-0.042929605,0.0041406266,-0.112119794,-0.38636503,-0.32979038,0.060079128,3.0759664,-0.6303641,-0.0004327946,-0.1127498,-0.013661155,-0.0021621084,-0.012766389,0.00016843919,-0.033837285,0.43818802,-1.4464259,1.9817752,-2.105913,-1.5693616,2.4168742,-0.080420285,0.21389374,-0.23909257,0.019644475,0.0110801505,-0.04642499,0.019153614,0.47884035,-9.289502,0.8918391,47.692257,-1.104917,-1.7256016,-3.558648,-0.067488216,0.25733477,-0.31804055,25.0625,25.625,24.875,27.1875,27.6875,28.0
0.2400541,-0.95056295,-1.7381787,-1.3561344,-0.04123391,0.0056304215,-0.11188385,-0.38657153,-0.3298332,0.060063507,3.0759337,-0.63043624,-0.0003403662,-0.11478268,-0.013202095,-0.0012259617,-0.014206537,0.0012120231,-0.037461273,0.43805486,-1.4459707,1.9812845,-2.105841,-1.5693129,2.4167905,-0.0835417,0.21443275,-0.24214943,0.020606488,0.011935685,-0.04592173,0.038307227,0.4405331,-9.289502,0.8493211,47.65643,-0.96677995,-1.5649009,-3.6323872,-0.073355556,0.2368136,-0.3354048,25.0625,25.625,24.875,27.1875,27.6875,28.0
0.24205501,-0.960986,-1.9470514,-1.2791027,-0.026541118,0.010371774,-0.110290855,-0.38679373,-0.32984313,0.060045492,3.0758924,-0.6305398,-0.0003169444,-0.11514798,-0.014694408,-0.0011161686,-0.014162466,0.0011996923,-0.03365065,0.43786383,-1.4455502,1.9808515,-2.105828,-1.5692891,2.4166696,-0.08101115,0.21716346,-0.24575602,0.021517465,0.011898178,-0.047199808,-0.05746084,0.2873042,-9.32781,0.8537928,47.670765,-1.1943073,-1.7292285,-3.4120193,-0.088764094,0.25985456,-0.35724202,25.0625,25.625,24.875,27.1875,27.6875,28.0
0.24405517,-1.2467539,-1.2053199,-1.0151414,-0.035943538,0.015787033,-0.11193369,-0.38703144,-0.32988515,0.06006397,3.075815,-0.63067865,-0.00035346524,-0.11764389,-0.014425059,-0.00013458483,-0.016092286,0.0031589288,-0.03478296,0.43771875,-1.4451307,1.9803256,-2.105769,-1.5692652,2.4166214,-0.08421319,0.21812592,-0.24912149,0.021330258,0.012813738,-0.04926735,-0.114921674,0.30645782,-9.251195,0.94331104,47.707485,-1.1756839,-1.6538947,-3.4170666,-0.05664789,0.25449365,-0.33574533,25.0625,25.625,24.875,27.1875,27.6875,28.0
0.24605428,-1.0467479,-0.98956794,-1.0551364,-0.021518627,0.026362604,-0.10875808,-0.38726866,-0.3299473,0.060092025,3.0757096,-0.63069445,-0.00040387406,-0.119334735,-0.015995206,0.0017898557,-0.01784019,0.007126173,-0.034304187,0.4375873,-1.4447241,1.9797972,-2.1057327,-1.5692052,2.4165137,-0.082650475,0.21836272,-0.25392193,0.021563416,0.012710036,-0.048179902,-0.1340753,0.2681506,-9.251195,0.8403672,47.70032,-1.1045761,-1.530442,-3.2657251,-0.05862589,0.26889595,-0.35555053,25.0625,25.625,24.875,27.1875,27.6875,28.0
0.24805462,-1.2922812,-1.0424759,-1.2300401,-0.0039721313,0.029766677,-0.11196676,-0.38749266,-0.32995716,0.06006922,3.0756786,-0.6308223,-0.0003478897,-0.119910784,-0.016038701,0.0015062565,-0.018453568,0.005956715,-0.0340236,0.4373948,-1.4442794,1.9793423,-2.1056964,-1.5691808,2.4164052,-0.08369042,0.22005934,-0.2554041,0.022150286,0.013762305,-0.04950022,-0.15322891,0.30645782,-9.289503,0.800085,47.716442,-1.188899,-1.5660286,-3.2439566,-0.060842525,0.24652894,-0.38183126,25.0625,25.625,24.875,27.1875,27.6875,28.0
0.25005513,-1.557863,-0.35080636,-1.1645938,-0.015675694,0.034160495,-0.11409039,-0.38776475,-0.32997456,0.060083017,3.07563,-0.63098425,-0.00037748457,-0.12052353,-0.015693389,0.0018515455,-0.018385887,0.006183091,-0.03289249,0.4371906,-1.4438123,1.9787673,-2.1056125,-1.5691808,2.4163086,-0.08467126,0.22009434,-0.25654373,0.02308488,0.013611456,-0.051611654,-0.24899697,0.28730422,-9.193734,0.9388393,47.694054,-1.1925216,-1.5436968,-3.3161578,-0.04925652,0.24200177,-0.34646365,25.0625,25.625,24.875,27.1875,27.6875,28.0
0.25205517,-1.0926508,-0.13939345,-1.1704088,-0.02729756,0.061183807,-0.1315854,-0.38798937,-0.3300345,0.060071595,3.0755568,-0.6309858,-0.00033682128,-0.1207325,-0.01579975,0.0003906222,-0.016913053,0.0031345864,-0.028217325,0.43705857,-1.4433446,1.9782656,-2.1056006,-1.5691088,2.4161873,-0.08456762,0.22449848,-0.25845468,0.023989469,0.013574398,-0.056181606,-0.21068975,0.19153613,-9.385271,0.8940802,47.713753,-1.1773617,-1.5401047,-3.4738307,-0.045028843,0.2523388,-0.32597154,25.0625,25.625,24.875,27.1875,27.6875,28.0
0.25405425,-2.1093037,-0.730499,-1.064557,-0.034878347,0.045680895,-0.1085778,-0.38823384,-0.33006638,0.060083456,3.0755057,-0.63103396,-0.0003558591,-0.121259,-0.013876842,-0.0017944658,-0.014461515,-0.0016730697,-0.03172141,0.4368893,-1.4429119,1.9777387,-2.10554,-1.5690845,2.416055,-0.088369444,0.22860608,-0.25846416,0.025289621,0.013394233,-0.056478746,-0.3256114,0.11492168,-9.385271,0.9701675,47.687782,-1.104094,-1.648215,-3.5684524,-0.053742174,0.2524326,-0.3026775,25.0625,25.625,24.875,27.1875,27.6875,28.0
0.25605446,-0.8752772,-0.15726008,-0.775484,-0.049682725,0.0804677,-0.13208628,-0.38846096,-0.33006936,0.060045153,3.0755222,-0.63116956,-0.00026346734,-0.12087742,-0.014906996,-0.0025825282,-0.013566651,-0.0030384369,-0.02848343,0.43669832,-1.4424193,1.977259,-2.1054795,-1.569085,2.4159467,-0.08591179,0.23147583,-0.2600812,0.0256573,0.013155888,-0.057259012,-0.36391866,0.095768064,-9.404425,0.8157518,47.678825,-1.2370666,-1.7436275,-3.6091924,-0.050023742,0.24859537,-0.32385528,25.0625,25.625,24.875,27.1875,27.6875,28.0
0.25805467,-1.5654091,-0.58187747,-1.0047084,-0.011468138,0.04791663,-0.11736975,-0.38870895,-0.33011806,0.06005323,3.0754445,-0.6312105,-0.00027770177,-0.12291366,-0.014862453,-0.002038501,-0.014642231,-0.0017456489,-0.027458323,0.43654156,-1.4419634,1.9767202,-2.1054442,-1.5690368,2.4158258,-0.087959856,0.23320593,-0.26335114,0.025578916,0.01358411,-0.060329787,-0.28730422,0.05746084,-9.32781,0.900793,47.677036,-1.2328751,-1.8043662,-3.5952005,-0.051376447,0.26428485,-0.28162742,25.0625,25.625,24.875,27.1875,27.6875,28.0
0.26005438,-1.691478,-0.19707187,-0.8429469,-0.0060893204,0.03796916,-0.11518548,-0.38893187,-0.3301443,0.060023475,3.0754254,-0.63126296,-0.00019790098,-0.12369911,-0.014517888,-0.0023792817,-0.014265405,-0.0021109045,-0.025841478,0.43637305,-1.4414841,1.976241,-2.1054084,-1.5690006,2.4156928,-0.089074664,0.234822,-0.26450643,0.025617987,0.013396721,-0.06306128,-0.3256114,0.038307227,-9.2703495,0.86945957,47.692257,-1.0192953,-1.6681802,-3.4605377,-0.044566575,0.26749036,-0.23788477,25.0625,25.625,24.875,27.1875,27.6875,28.0
0.26205483,-1.318565,-0.16256174,-0.7002804,-0.004367249,0.03844318,-0.12014834,-0.38920453,-0.33017868,0.06004742,3.0753486,-0.6313416,-0.00028969458,-0.12517193,-0.014685974,-0.0021160536,-0.014561093,-0.0012115614,-0.024274778,0.43619287,-1.4410403,1.9756788,-2.1053722,-1.5689887,2.415572,-0.08987935,0.23676568,-0.2673964,0.025631655,0.013287777,-0.06542994,-0.38307226,0.038307227,-9.155427,0.91198283,47.694946,-1.1881598,-1.7334858,-3.6817672,-0.045313485,0.26425207,-0.18942365,25.0625,25.625,24.875,27.1875,27.6875,28.0
0.2640546,-1.0625181,-0.15140063,-0.80418915,-0.0071894084,0.047201004,-0.12342813,-0.38943157,-0.33019772,0.06002387,3.0753336,-0.63139594,-0.00017032604,-0.12810689,-0.014987873,3.8149683e-05,-0.01618095,0.0031911829,-0.024459952,0.4360004,-1.4405613,1.9751743,-2.1052878,-1.568941,2.4154155,-0.09150831,0.23685497,-0.27264097,0.02612161,0.012885592,-0.06687199,-0.47884035,0.22984336,-9.174581,0.85826975,47.71286,-1.1106356,-1.6831161,-3.5694075,-0.053182907,0.29209214,-0.14871693,25.0625,25.625,24.875,27.1875,27.6875,28.0
0.26605466,-1.3202372,-0.4057671,-1.0641217,-0.013939001,0.0471829,-0.11320666,-0.38969466,-0.33024055,0.0600283,3.075295,-0.63142645,-0.00020211008,-0.12950005,-0.015247968,0.000468758,-0.016976705,0.0028473544,-0.024180325,0.43584394,-1.4400688,1.9745988,-2.1052396,-1.5689286,2.4152834,-0.092720255,0.23891272,-0.27644664,0.027847547,0.0137537485,-0.06836149,-0.63206923,0.28730422,-9.097966,0.90750587,47.704796,-1.0529413,-1.730566,-3.4862018,-0.070756435,0.28148016,-0.1127516,25.0625,25.625,24.875,27.1875,27.6875,28.0
0.2680551,-1.3556143,-0.8577741,-0.86556447,-0.033522397,0.057493117,-0.117122605,-0.3899527,-0.33022434,0.060010098,3.0753064,-0.6315822,-0.000110837376,-0.13021721,-0.01476927,0.000942941,-0.016579377,0.0026987093,-0.024706146,0.43559173,-1.4395778,1.9740599,-2.1051195,-1.5689286,2.4151273,-0.093920454,0.23907791,-0.27828187,0.029825825,0.013455163,-0.06903652,-0.5554548,0.3256114,-9.251195,0.87393653,47.693153,-0.94000596,-1.671203,-3.4164925,-0.08698434,0.27856952,-0.07642059,25.0625,25.625,24.875,27.1875,27.6875,28.0
0.27005482,-2.113998,-1.5179907,-1.1145359,-0.053244386,0.06340752,-0.11188485,-0.39019334,-0.33025151,0.059983812,3.0752916,-0.63165784,-1.2532441e-05,-0.13094419,-0.013907325,-7.533179e-05,-0.015734363,-0.00018607976,-0.028300049,0.4354108,-1.439062,1.9735221,-2.1050465,-1.5688928,2.4149957,-0.0963389,0.2420351,-0.27974352,0.03130377,0.0139026195,-0.0678612,-0.6895301,0.4213795,-9.3661175,0.8537928,47.666286,-0.9046465,-1.5794168,-3.44668,-0.1090854,0.2820452,-0.05631687,25.0625,25.625,24.875,27.1875,27.6875,28.0
0.27205428,-2.1570427,-1.9039911,-1.0114214,-0.067480534,0.085085206,-0.103703626,-0.39045125,-0.33029586,0.059987273,3.0752504,-0.6316886,-1.9860212e-05,-0.13186081,-0.013707376,0.00079915934,-0.0153988125,0.0002071424,-0.031026684,0.43525454,-1.438571,1.972947,-2.1049864,-1.568869,2.4148643,-0.09709973,0.2421541,-0.28255674,0.03378519,0.013432246,-0.06589428,-0.7661445,0.47884035,-9.346964,0.84708,47.698532,-0.8634201,-1.546828,-3.4333,-0.14786384,0.29971188,-0.06218378,25.0625,25.625,24.875,27.1875,27.6875,28.0
0.27405488,-2.6796327,-1.9600575,-1.2225925,-0.0619583,0.0874643,-0.11104073,-0.39071432,-0.33033392,0.059988927,3.0751708,-0.63175035,3.5719866e-05,-0.13132706,-0.013256145,-4.501403e-05,-0.015284689,-0.0026530284,-0.03390148,0.43505028,-1.4380795,1.9723724,-2.104914,-1.568796,2.414709,-0.098099306,0.24298458,-0.28195146,0.034991633,0.014537799,-0.064019844,-0.8236054,0.36391866,-9.404425,0.86945957,47.682407,-0.8156719,-1.4855192,-3.4628599,-0.18075739,0.29438734,-0.051716365,25.0625,25.625,24.875,27.1875,27.6875,28.0
0.276055,-2.1494582,-1.3185602,-1.2653339,-0.051070817,0.09904703,-0.117200375,-0.39098203,-0.33032832,0.059969615,3.0751824,-0.6319084,3.3686378e-05,-0.13321637,-0.013415731,-0.0003404719,-0.015776616,-0.0019705892,-0.03768837,0.4348338,-1.4375751,1.9718341,-2.1048548,-1.5688323,2.4145901,-0.099427514,0.24638042,-0.28494376,0.03375808,0.014683294,-0.0615594,-0.5554548,0.3256114,-9.461885,0.8851263,47.658226,-0.7156638,-1.5961773,-3.5705261,-0.19461605,0.28936282,-0.06520164,25.0625,25.625,24.875,27.1875,27.6875,28.0
0.27805445,-1.6541363,-0.78731257,-1.2382191,-0.041301887,0.09428947,-0.1233561,-0.39122534,-0.3303788,0.059950076,3.0751398,-0.63201594,0.00015221548,-0.13408963,-0.014190341,-0.0002396409,-0.01698664,-0.0006027587,-0.03957348,0.434678,-1.4370352,1.9712476,-2.1047595,-1.5687722,2.4145072,-0.09900648,0.24777111,-0.28651032,0.03218384,0.015192645,-0.05925299,-0.47884035,0.21068975,-9.404425,0.8403672,47.677036,-0.78643334,-1.6608748,-3.6374736,-0.17889765,0.26423287,-0.09019303,25.0625,25.625,24.875,27.1875,27.6875,28.0
0.28005496,-1.9438283,-0.7081469,-1.1003112,-0.022807334,0.065691605,-0.11153747,-0.3915342,-0.3303982,0.059953183,3.0750492,-0.6321715,0.00012573168,-0.13444133,-0.013612551,-0.0013402526,-0.015500439,-0.0021785924,-0.04267113,0.4344256,-1.4365077,1.9706367,-2.1047237,-1.5687369,2.4143639,-0.0998028,0.25030056,-0.28697577,0.032179184,0.014508207,-0.05695044,-0.49799395,0.1340753,-9.32781,0.83813137,47.67345,-0.813811,-1.7552817,-3.6253655,-0.16845217,0.28117347,-0.10409552,25.0625,25.625,24.875,27.1875,27.6875,28.0
0.28205454,-1.0652109,-0.39847293,-1.2862738,0.008556905,0.046580132,-0.112370625,-0.39180377,-0.33040664,0.059936192,3.0750182,-0.632319,0.00012791158,-0.1363534,-0.014666225,-0.000987577,-0.016632201,-0.00074898,-0.044321347,0.4342098,-1.4360037,1.9700979,-2.104688,-1.5687364,2.4142444,-0.0996809,0.25360188,-0.29150778,0.031635325,0.014921141,-0.055175655,-0.15322891,0.15322891,-9.3661175,0.9030289,47.678825,-0.87513256,-1.8297398,-3.690979,-0.19843598,0.2804496,-0.1263194,25.0625,25.625,24.875,27.1875,27.6875,28.0
0.28405493,-0.6190676,0.21421792,-1.2640084,0.00931999,0.020774875,-0.10833766,-0.39208448,-0.33045894,0.059947696,3.0749388,-0.6324182,0.00010271317,-0.1379778,-0.014972147,-0.0013486205,-0.016060594,-0.0006531317,-0.046219464,0.4340419,-1.4354875,1.9694747,-2.1046278,-1.5687007,2.414149,-0.10004552,0.2575372,-0.2952465,0.031595945,0.0143556595,-0.053639054,-0.095768064,0.1340753,-9.308656,0.8806493,47.694946,-0.8978105,-1.7946889,-3.5051284,-0.1862353,0.30778816,-0.14814292,25.0625,25.625,24.875,27.1875,27.6875,28.0
0.2860542,-0.249361,-0.4411123,-1.3839748,0.017435998,-0.005534625,-0.11325912,-0.39235127,-0.3304829,0.059926253,3.0749242,-0.63251203,0.00014613643,-0.13891199,-0.015414189,-0.00096166815,-0.01617809,-0.00089019473,-0.047252696,0.43384975,-1.4349478,1.9688996,-2.1045673,-1.5686888,2.4140177,-0.1000706,0.25935617,-0.29874212,0.03343917,0.014557092,-0.052629888,0.05746084,0.22984336,-9.32781,0.75084364,47.66808,-0.7658465,-1.8654332,-3.3814774,-0.19754031,0.306166,-0.1803416,25.0625,25.625,24.875,27.1875,27.6875,28.0
0.28805456,0.33633757,-0.8643055,-1.4394753,-0.005079353,-0.0020774968,-0.11598146,-0.39265037,-0.33049995,0.05991825,3.0748522,-0.6327662,0.00017081213,-0.13858439,-0.015109852,-0.0021169998,-0.01422114,-0.0032040246,-0.047592524,0.43360978,-1.4343957,1.9682769,-2.1044953,-1.5686649,2.413946,-0.09971092,0.26169592,-0.29910472,0.034390427,0.013755164,-0.051930215,0.019153614,0.28730422,-9.346964,0.900793,47.66091,-0.9146198,-1.9587753,-3.3521829,-0.21731502,0.313237,-0.19176099,25.0625,25.625,24.875,27.1875,27.6875,28.0
0.29005492,0.42884335,-0.9635352,-1.3864582,-0.047615673,-0.0027395093,-0.11340053,-0.3929204,-0.33052245,0.05991113,3.074806,-0.63293064,0.0002102405,-0.1408079,-0.014596285,-0.0014910034,-0.015094974,-0.0016246747,-0.05093031,0.4334048,-1.4338804,1.9676908,-2.1044114,-1.5686411,2.4138498,-0.102524646,0.26292583,-0.30203235,0.03429058,0.013877604,-0.051404905,0.0,0.30645782,-9.32781,0.83589023,47.668976,-0.72503364,-1.975719,-3.5416017,-0.22221002,0.33963245,-0.22225893,25.0625,25.625,24.875,27.1875,27.6875,28.0
0.29205507,0.3113963,-1.7732818,-1.3629,-0.06791046,0.010067368,-0.1212665,-0.39320278,-0.33056238,0.059909094,3.0747476,-0.63303274,0.00023078972,-0.1412401,-0.014994113,-0.0012202447,-0.014935508,-0.001406873,-0.049602494,0.43321332,-1.4333411,1.9670686,-2.1043394,-1.5686048,2.41373,-0.10190896,0.26387283,-0.30408192,0.035269342,0.013641593,-0.05211615,0.15322891,0.28730422,-9.481039,0.8314132,47.66091,-0.849053,-1.9279877,-3.4525175,-0.2492005,0.33653116,-0.24254423,25.0625,25.625,24.875,27.1875,27.6875,28.0
0.29405499,-0.7224392,-2.3788779,-1.3580722,-0.07549828,0.004174757,-0.10783536,-0.39347094,-0.33058044,0.05989328,3.0747344,-0.6331821,0.00030394318,-0.1415139,-0.015577286,8.833317e-05,-0.016456792,-0.0005755262,-0.048132252,0.4330094,-1.432802,1.9664692,-2.104231,-1.568592,2.4136212,-0.1016489,0.26249158,-0.3061002,0.03727818,0.014673833,-0.053327136,0.13407528,0.28730422,-9.5385,0.92093146,47.672558,-0.89101934,-1.9883001,-3.4578538,-0.2844851,0.34160846,-0.2454961,25.0625,25.625,24.875,27.1875,27.6875,28.0
0.29605466,-0.47241402,-1.6499971,-1.5149629,-0.06536782,0.020600185,-0.11102348,-0.39376748,-0.33061743,0.059900153,3.0746522,-0.63332045,0.00032043253,-0.14225966,-0.016270543,0.00010986735,-0.016833143,-0.0005316105,-0.05007106,0.43279338,-1.432263,1.9658235,-2.1041472,-1.5685443,2.4135025,-0.10111416,0.26459587,-0.30874595,0.037621602,0.014991548,-0.050852,-0.019153614,0.30645782,-9.404425,0.84484416,47.62867,-0.87687325,-1.8401877,-3.5620975,-0.30166525,0.35294467,-0.27642196,25.0625,25.625,24.875,27.1875,27.6875,28.0
0.2980546,-0.4667693,-1.2643636,-1.6933504,-0.037601266,0.024774114,-0.12142028,-0.3940359,-0.33062595,0.059864365,3.0746355,-0.6335103,0.00043352935,-0.14308056,-0.015944056,0.00011138757,-0.01837808,-0.0004060631,-0.052330047,0.4325647,-1.4317001,1.965248,-2.1040633,-1.56852,2.4133947,-0.10317855,0.26483747,-0.30899128,0.03686324,0.016336842,-0.050658848,0.15322891,0.28730422,-9.557653,0.8403672,47.666286,-0.7991664,-1.744295,-3.5759912,-0.3235985,0.3459475,-0.31053558,25.0625,25.625,24.875,27.1875,27.6875,28.0
0.3000543,-0.5116165,-1.1512011,-1.7907357,-0.035499204,0.027048565,-0.11644834,-0.39437667,-0.3307036,0.059915,3.0744708,-0.6335882,0.00025461995,-0.14261782,-0.017061953,-0.001206495,-0.017998163,-0.0019222042,-0.049142394,0.4323856,-1.4311719,1.9645308,-2.1040523,-1.5684718,2.413286,-0.100827426,0.26821035,-0.30967402,0.03571512,0.016634466,-0.05149169,0.114921674,0.28730422,-9.615114,0.8403672,47.666286,-1.0346029,-1.6926578,-3.6077538,-0.33828813,0.3489319,-0.33418408,25.0625,25.625,24.875,27.1875,27.6875,28.0
0.3020543,-1.0146834,-1.583867,-1.7747415,-0.038029414,0.014307192,-0.10524704,-0.394629,-0.3307063,0.059889458,3.074456,-0.6338169,0.00035701267,-0.14577387,-0.016883852,0.00021520296,-0.020496257,0.001741785,-0.05109314,0.43216825,-1.4306564,1.9639796,-2.103945,-1.5684594,2.4132135,-0.10419643,0.2689198,-0.3135928,0.034555815,0.017356481,-0.05290919,0.114921674,0.3256114,-9.481039,0.9164598,47.67345,-0.83827555,-1.7987278,-3.70158,-0.3184562,0.33184373,-0.32734036,25.0625,25.625,24.875,27.1875,27.6875,28.0
0.3040548,-0.08726208,-1.2802022,-1.6331426,-0.043687843,0.03346425,-0.121081315,-0.39493656,-0.3307533,0.05988843,3.0743933,-0.6339572,0.0003522164,-0.14571992,-0.0181684,-0.00077811605,-0.020098237,0.00083221315,-0.051252045,0.43197754,-1.4300685,1.9632982,-2.1038735,-1.5684355,2.4131188,-0.10170874,0.2725469,-0.3154041,0.033731636,0.017369555,-0.050260883,0.0,0.30645782,-9.519346,0.9030289,47.686886,-1.0715111,-1.7833121,-3.6917264,-0.32927442,0.33113694,-0.38372368,25.0625,25.625,24.875,27.1875,27.6875,28.0
0.3060542,-0.8266408,-1.5061244,-1.7869493,-0.040565517,0.02120493,-0.10891448,-0.39521846,-0.3307958,0.059869103,3.0743427,-0.6340422,0.0004124709,-0.14732215,-0.018230567,-0.00039946148,-0.020419355,0.002190574,-0.0515472,0.4317851,-1.4294928,1.962675,-2.103814,-1.5683879,2.4129863,-0.10266305,0.27418303,-0.31824115,0.033572838,0.017088173,-0.050918803,0.05746084,0.34476504,-9.595961,0.90750587,47.711063,-1.0089576,-1.8850183,-3.586104,-0.31700456,0.34103537,-0.40853304,25.0625,25.625,24.875,27.1875,27.6875,28.0
0.30805433,-0.6940694,-1.5576968,-1.8246984,-0.045209117,0.032311037,-0.11155156,-0.39550012,-0.3308055,0.059863858,3.074261,-0.6343136,0.00048958685,-0.14840418,-0.018350372,-0.0013132757,-0.020644225,0.0008319528,-0.050681796,0.4315327,-1.4289765,1.9620756,-2.1037061,-1.5683392,2.412914,-0.10374476,0.27794603,-0.32047763,0.033194907,0.01785879,-0.05286499,0.076614454,0.36391866,-9.576807,0.83589023,47.696735,-1.0579329,-1.835022,-3.7202215,-0.3365147,0.33822548,-0.42207262,25.0625,25.625,24.875,27.1875,27.6875,28.0
0.3100548,-1.0741152,-1.6409384,-1.8792245,-0.039382588,0.02275187,-0.10597693,-0.39581874,-0.33086345,0.05987737,3.0742145,-0.6343409,0.00037580158,-0.14958501,-0.01844129,-0.0017820019,-0.020367192,0.0008325851,-0.049394734,0.43137658,-1.4284003,1.9613813,-2.10367,-1.5683511,2.4127815,-0.104309335,0.28084505,-0.32273734,0.032678213,0.017609015,-0.054713786,0.038307227,0.30645782,-9.557653,0.82022345,47.672558,-0.9680346,-2.0582771,-3.5673227,-0.32598096,0.3380891,-0.4462077,25.0625,25.625,24.875,27.1875,27.6875,28.0
0.3120546,-0.6518876,-1.4889631,-1.7337458,-0.047220543,0.047584802,-0.108957306,-0.39612895,-0.33091214,0.059898708,3.07407,-0.634558,0.00039280785,-0.151045,-0.018955247,-0.0005002795,-0.02181766,0.0041076564,-0.047263008,0.43114862,-1.4278613,1.960698,-2.1035745,-1.5682672,2.412708,-0.10444913,0.2804126,-0.32514754,0.031953577,0.017559066,-0.056983493,-0.1340753,0.38307226,-9.672575,0.8940802,47.627773,-1.0341923,-1.9938636,-3.5217743,-0.31508467,0.3421514,-0.42785102,25.0625,25.625,24.875,27.1875,27.6875,28.0
0.3140549,-1.8905995,-1.7410116,-1.7276081,-0.05673701,0.046137583,-0.103487656,-0.39641356,-0.33092296,0.059882026,3.0740619,-0.63465154,0.0004496156,-0.15213193,-0.019210305,-0.0004366595,-0.022399269,0.004844519,-0.04525204,0.43092033,-1.4273099,1.9600867,-2.1034787,-1.5682553,2.4125395,-0.10492891,0.28202254,-0.32715747,0.031451046,0.01777842,-0.05947387,-0.19153613,0.45968673,-9.615114,0.9612189,47.658226,-1.0607405,-1.9070885,-3.615314,-0.31309235,0.32895115,-0.42729333,25.0625,25.625,24.875,27.1875,27.6875,28.0
0.31605428,-1.1937475,-1.4201729,-1.5569427,-0.0732143,0.07347617,-0.11395132,-0.39670873,-0.3309845,0.059858937,3.0739908,-0.6347301,0.00046588364,-0.15389277,-0.019370785,0.001006889,-0.024181912,0.008093104,-0.041551847,0.43075207,-1.4266995,1.959442,-2.1034677,-1.5682071,2.4124298,-0.10618544,0.2812463,-0.32963574,0.031026276,0.01804593,-0.064429395,-0.038307227,0.36391866,-9.615114,0.87617236,47.62688,-0.9596846,-1.9513073,-3.6619968,-0.31827432,0.3358938,-0.37738442,25.0625,25.625,24.875,27.1875,27.6875,28.0
0.31805477,-1.669417,-1.6630044,-1.4643781,-0.061170124,0.05476483,-0.113636136,-0.39702734,-0.33103275,0.059878025,3.0738995,-0.6348075,0.00040705665,-0.15556762,-0.019963156,0.0027870487,-0.026598869,0.011760329,-0.041209977,0.43054795,-1.426149,1.9587578,-2.1034076,-1.5681709,2.4122863,-0.10682919,0.28007945,-0.3324276,0.030649832,0.018714491,-0.065412745,-0.26815057,0.30645782,-9.557653,0.8940802,47.667187,-1.0024147,-1.631161,-3.6221786,-0.28389436,0.33779752,-0.37163442,25.0625,25.625,24.875,27.1875,27.6875,28.0
0.3200542,-1.3703833,-1.3683101,-1.5733565,-0.04716925,0.052704304,-0.110615365,-0.39734796,-0.33107036,0.059880998,3.0737877,-0.6349352,0.00039047844,-0.15685044,-0.020016616,0.0025449167,-0.027463295,0.012336764,-0.03910035,0.43030754,-1.425585,1.9581002,-2.1033719,-1.5681108,2.4121404,-0.108038306,0.2820939,-0.334023,0.029361194,0.019267205,-0.068729386,-0.38307226,0.28730422,-9.481039,0.8627467,47.650166,-1.0081512,-1.5713165,-3.5820785,-0.28619817,0.3365404,-0.3453046,25.0625,25.625,24.875,27.1875,27.6875,28.0
0.32205474,-1.1004592,-0.73916835,-1.7103938,-0.026726184,0.055396773,-0.11862795,-0.3976798,-0.3311131,0.059890173,3.0737052,-0.634991,0.00030722484,-0.1582167,-0.019867565,0.0028894825,-0.027712682,0.014250747,-0.033010308,0.4300911,-1.42501,1.9574183,-2.1033485,-1.5680875,2.41197,-0.108967006,0.2828609,-0.33560777,0.028360983,0.018711923,-0.0757459,-0.34476504,0.21068975,-9.5385,0.9186956,47.64479,-0.91399264,-1.567478,-3.742177,-0.24113327,0.32687628,-0.27849287,25.0625,25.625,24.875,27.1875,27.6875,28.0
0.32405478,-1.2951231,-0.12056143,-1.4711406,-0.019916574,0.050033465,-0.11337143,-0.39798826,-0.33116302,0.059908804,3.0736253,-0.63509107,0.00028322262,-0.15913676,-0.01989202,0.0022172257,-0.028379986,0.013315563,-0.03471408,0.42989892,-1.4244584,1.956725,-2.1032531,-1.5680507,2.411851,-0.11022462,0.28550646,-0.33710307,0.027784485,0.019711098,-0.07529777,-0.36391866,0.114921674,-9.500193,0.9992599,47.67166,-1.0668652,-1.5919151,-3.7662654,-0.22157139,0.31787956,-0.2318839,25.0625,25.625,24.875,27.1875,27.6875,28.0
0.32605436,-1.4578038,-0.4933117,-1.5933409,0.0055387514,0.057452068,-0.1046561,-0.39832067,-0.33119714,0.05991157,3.0735106,-0.63518023,0.000275218,-0.16048366,-0.021537405,0.0020798414,-0.028975278,0.014058945,-0.031021638,0.42963538,-1.4238819,1.9560527,-2.103217,-1.5679787,2.4116583,-0.10837838,0.28984314,-0.3417573,0.027193079,0.019945074,-0.07714002,-0.47884035,0.0,-9.519346,0.86945957,47.64837,-1.0006865,-1.7091808,-3.695519,-0.20014,0.32069647,-0.21161605,25.0625,25.625,24.875,27.1875,27.6875,28.0
0.32805455,-1.5085782,0.26014063,-1.514048,0.0033251664,0.067945026,-0.11165943,-0.39864182,-0.33124316,0.059926208,3.0734265,-0.6352203,0.00024695782,-0.16215879,-0.020464752,0.0018078584,-0.028289948,0.0137065295,-0.03284308,0.4294186,-1.4233177,1.9553589,-2.1031454,-1.5679306,2.4114778,-0.111294866,0.29200295,-0.3438916,0.027786199,0.019477133,-0.07823316,-0.4213795,-0.019153614,-9.519346,0.94331104,47.658226,-1.0805866,-1.8307126,-3.5514522,-0.17692769,0.31262538,-0.17543256,25.0625,25.625,24.875,27.1875,27.6875,28.0
0.3300546,-1.7320108,-0.09495713,-1.446856,-0.0005458895,0.083062515,-0.10993769,-0.39895296,-0.3312834,0.05992569,3.0733678,-0.6353027,0.00022694569,-0.1629704,-0.022084286,0.0021070042,-0.029476257,0.013911412,-0.03135969,0.42921537,-1.4227414,1.954688,-2.1030848,-1.5679063,2.411334,-0.10955775,0.29478696,-0.3480766,0.028508961,0.02047023,-0.077976435,-0.45968673,-0.05746084,-9.404425,0.9634547,47.658226,-1.0302286,-1.7445289,-3.528615,-0.18892781,0.30411813,-0.13898537,25.0625,25.625,24.875,27.1875,27.6875,28.0
0.3320542,-1.8152694,-0.6199399,-1.6735737,0.004413615,0.07802441,-0.10480185,-0.39929456,-0.33133462,0.059935987,3.0732677,-0.6353984,0.00015738135,-0.16421299,-0.022747422,0.0024820145,-0.030765852,0.014829552,-0.03321217,0.42899916,-1.4221401,1.9539694,-2.1030495,-1.56787,2.411191,-0.10977282,0.2964784,-0.3509965,0.028366132,0.021262992,-0.07633568,-0.4405331,0.019153614,-9.346964,0.91421866,47.67166,-1.0569861,-1.7336423,-3.5133646,-0.14905098,0.28988543,-0.13527167,25.0625,25.625,24.875,27.1875,27.6875,28.0
0.33405465,-2.1591694,-0.99065095,-1.5210432,0.003718086,0.056223005,-0.10119829,-0.3996165,-0.33136904,0.05994039,3.0731537,-0.6355302,0.00016821388,-0.16554871,-0.021903217,0.0024128936,-0.03022414,0.014840135,-0.037127413,0.42874634,-1.4215745,1.9532989,-2.102989,-1.5677985,2.4110355,-0.11195759,0.29789764,-0.3527456,0.028919546,0.020769957,-0.07460392,-0.5554548,0.22984336,-9.481039,0.9791215,47.678825,-0.96668667,-1.7755438,-3.3680243,-0.13029623,0.28309327,-0.13669658,25.0625,25.625,24.875,27.1875,27.6875,28.0
0.33605495,-1.5710374,-0.8752638,-1.5798159,-0.022557396,0.06598088,-0.10173554,-0.3999497,-0.33140087,0.05995672,3.0730784,-0.63570774,0.00012163444,-0.16581461,-0.021222325,0.002866017,-0.02904588,0.01506758,-0.040735528,0.42851827,-1.4209981,1.9525803,-2.1028926,-1.5677866,2.4109285,-0.11252505,0.29718104,-0.35353017,0.030704906,0.019609371,-0.07156338,-0.6703765,0.22984336,-9.423578,0.91198283,47.66987,-0.99726933,-1.6757839,-3.555258,-0.10281642,0.2787012,-0.15630905,25.0625,25.625,24.875,27.1875,27.6875,28.0
0.33805454,-1.5656309,-1.3194813,-1.5845798,-0.03607319,0.061459895,-0.09991916,-0.40031034,-0.33143827,0.059990134,3.0729809,-0.63582397,1.9265992e-06,-0.16466387,-0.020030849,0.00089432904,-0.026412304,0.009507196,-0.044871975,0.4282778,-1.4204212,1.9518274,-2.1028202,-1.5677747,2.4107738,-0.11353373,0.2995772,-0.35257405,0.033501714,0.019538397,-0.06843464,-0.51714754,0.34476504,-9.461885,1.0104496,47.650166,-0.7801116,-1.5691181,-3.7126875,-0.12189859,0.28522444,-0.19807765,25.0625,25.625,24.875,27.1875,27.6875,28.0
0.340055,-1.557967,-1.6314204,-1.998222,-0.034531783,0.053813368,-0.10026679,-0.40061983,-0.331489,0.05998125,3.072902,-0.6359053,3.2420685e-05,-0.16619016,-0.019648943,0.002226376,-0.027424728,0.011686557,-0.04972385,0.42807335,-1.4198204,1.951146,-2.1027596,-1.567715,2.4106307,-0.115373425,0.29856852,-0.35482123,0.034354072,0.019550808,-0.065421686,-0.51714754,0.28730422,-9.576807,0.9298854,47.657326,-1.0034575,-1.5160818,-3.8521748,-0.11438183,0.28374368,-0.21632516,25.0625,25.625,24.875,27.1875,27.6875,28.0
0.3420545,-1.3695394,-1.955553,-1.5866584,-0.038417105,0.05958896,-0.100544415,-0.40095058,-0.33154982,0.05999115,3.072807,-0.6359828,2.9388648e-05,-0.1669665,-0.02010891,0.00290296,-0.028077178,0.011989679,-0.05182243,0.42786944,-1.4192078,1.9504026,-2.1026757,-1.567655,2.410488,-0.1153557,0.29930353,-0.3577535,0.036004912,0.02001902,-0.06330332,-0.47884035,0.34476504,-9.461885,0.94331104,47.627773,-0.789578,-1.4171252,-3.7703972,-0.12087673,0.26170385,-0.24220425,25.0625,25.625,24.875,27.1875,27.6875,28.0
0.34405494,-1.62854,-1.3628956,-1.7732493,-0.04022653,0.044589415,-0.100016356,-0.4013054,-0.3315689,0.059999827,3.0726974,-0.636209,-3.396654e-05,-0.16813199,-0.020446751,0.0017552542,-0.027456563,0.009458575,-0.05318247,0.42759317,-1.4186177,1.9496955,-2.102627,-1.5676302,2.4103675,-0.11587414,0.30469674,-0.36174956,0.03717138,0.020506525,-0.062457804,-0.40222588,0.3256114,-9.442732,1.0082139,47.672558,-0.9042813,-1.4782709,-3.743209,-0.11185753,0.2705162,-0.27600077,25.0625,25.625,24.875,27.1875,27.6875,28.0
0.34605473,-1.2586163,-0.95245695,-1.6618115,-0.047654424,0.05878146,-0.10820023,-0.4016595,-0.33162287,0.060031988,3.0725996,-0.6363224,-0.00015543445,-0.17043276,-0.021588229,0.002044017,-0.028820856,0.01117924,-0.053026643,0.42738923,-1.4180275,1.9489292,-2.102556,-1.5676183,2.4102476,-0.11592098,0.3086487,-0.36689013,0.036232382,0.021032613,-0.06265499,-0.22984336,0.36391866,-9.576807,0.9768804,47.65106,-0.92046535,-1.62306,-3.6983032,-0.09278855,0.25911325,-0.27927035,25.0625,25.625,24.875,27.1875,27.6875,28.0
0.34805438,-1.531014,-1.4285603,-1.4395666,-0.045390345,0.04431816,-0.10275828,-0.40198633,-0.33164355,0.06001639,3.072546,-0.63646525,-7.735977e-05,-0.17208359,-0.021851549,0.0018741656,-0.029091844,0.011880705,-0.05347499,0.4271249,-1.4174019,1.9482225,-2.1024482,-1.5675706,2.4100797,-0.116634116,0.3116977,-0.37003678,0.035589077,0.020985032,-0.06291869,-0.21068975,0.38307226,-9.442732,1.0373062,47.703903,-0.8928327,-1.7112119,-3.4390683,-0.056788746,0.2602391,-0.29377243,25.0625,25.625,24.875,27.1875,27.6875,28.0
0.35005477,-1.1845908,-1.7057376,-1.5401064,-0.029371716,0.038559884,-0.096039556,-0.40236515,-0.3316886,0.060044028,3.0723898,-0.63668156,-0.00017865373,-0.17146674,-0.022050943,0.0006973242,-0.0282932,0.008482456,-0.052723184,0.42686132,-1.4167888,1.9474448,-2.1023996,-1.5675219,2.409972,-0.116051614,0.31428078,-0.37088186,0.037281852,0.021680653,-0.063084856,-0.24899697,0.5554548,-9.385271,0.94331104,47.703007,-0.92976683,-1.6541696,-3.4924932,-0.04610025,0.23778334,-0.30199727,25.0625,25.625,24.875,27.1875,27.6875,28.0
0.35205442,-0.9745299,-1.8213568,-1.826755,-0.030014692,0.027970726,-0.098871864,-0.40268105,-0.3317395,0.06002832,3.0723302,-0.6367653,-0.00017011011,-0.17166384,-0.021676615,0.00040057203,-0.028148122,0.0071456963,-0.054036923,0.42666876,-1.4161633,1.9467515,-2.1023514,-1.5674862,2.4098399,-0.11703595,0.31511107,-0.3716149,0.038465593,0.022106986,-0.062754795,-0.22984336,0.5554548,-9.423578,0.95897776,47.689575,-0.91056746,-1.6943026,-3.6695807,-0.056027077,0.2155905,-0.32653546,25.0625,25.625,24.875,27.1875,27.6875,28.0
0.35405546,-0.51302624,-1.7596307,-1.3731499,-0.06026987,0.03529122,-0.10760046,-0.40306443,-0.33178848,0.060085494,3.0721538,-0.637054,-0.0003155019,-0.17175414,-0.02186634,0.0005122488,-0.028187346,0.006749753,-0.054056562,0.42641714,-1.4155871,1.945937,-2.102255,-1.5674499,2.409792,-0.11674472,0.3155769,-0.37281886,0.039554264,0.022318913,-0.062440537,0.0,0.40222588,-9.385271,0.9701675,47.6421,-0.91214156,-1.7160739,-3.6999378,-0.037510216,0.23196216,-0.34891075,25.0625,25.625,24.875,27.1875,27.6875,28.0
0.35605472,-0.77935064,-2.2837746,-1.362999,-0.06420065,0.011643479,-0.09508328,-0.40339887,-0.33181936,0.06007968,3.0721204,-0.6370672,-0.000344757,-0.1727028,-0.021815417,-0.00027841565,-0.027524592,0.005287421,-0.0552832,0.42618883,-1.4149735,1.9452313,-2.102195,-1.5674375,2.4095767,-0.11748006,0.3190935,-0.3753962,0.04022501,0.022320615,-0.061947286,0.038307227,0.40222588,-9.32781,1.0171678,47.658226,-0.96306217,-1.5172037,-3.8357203,-0.016640643,0.21610297,-0.37957585,25.0625,25.625,24.875,27.1875,27.6875,28.0
0.358055,-0.3559559,-1.619898,-1.1335926,-0.06333127,0.0045009204,-0.11252231,-0.4037227,-0.33186617,0.06006156,3.0720084,-0.63725287,-0.00021068787,-0.17348115,-0.022055212,-0.0005401778,-0.027201457,0.0050729746,-0.052945483,0.42593697,-1.4143234,1.9445008,-2.1020877,-1.5673298,2.4094555,-0.1174124,0.32135373,-0.37768072,0.040598832,0.02211899,-0.064217284,-0.038307227,0.36391866,-9.193734,0.98135734,47.658226,-1.0033171,-1.6571178,-3.7574975,-0.005484551,0.20826037,-0.36376804,25.0625,25.625,24.875,27.1875,27.6875,28.0
0.3600544,-0.438242,-1.8900371,-1.1366538,-0.028223569,-0.0071851085,-0.10368213,-0.40411732,-0.33191904,0.060098786,3.0718434,-0.6374114,-0.00038882933,-0.1765814,-0.02247582,0.0017515508,-0.029762348,0.008966258,-0.05407909,0.42568403,-1.4137113,1.9437088,-2.1020753,-1.5672935,2.4093237,-0.11950772,0.32164901,-0.3836735,0.041701652,0.02285049,-0.06517212,0.05746084,0.40222588,-9.11712,0.9634547,47.691364,-0.9903223,-1.5422363,-3.5700943,-0.0013689185,0.19009683,-0.3520192,25.0625,25.625,24.875,27.1875,27.6875,28.0
0.3620547,0.40875435,-0.6499005,-1.1853408,-0.014328177,-0.0058455598,-0.11406379,-0.40445554,-0.33195838,0.060085114,3.0717723,-0.637643,-0.00040307594,-0.17688349,-0.02415703,0.0026034971,-0.030937446,0.0101814065,-0.051228758,0.425469,-1.4130621,1.9429787,-2.1020148,-1.5672816,2.409263,-0.11695536,0.32245877,-0.38694203,0.0425734,0.023420628,-0.065467834,0.1340753,0.38307226,-9.021352,0.93436235,47.670765,-1.0103717,-1.4943225,-3.5417933,0.002222098,0.1834114,-0.36897212,25.0625,25.625,24.875,27.1875,27.6875,28.0
0.36405495,0.009778974,-0.5783155,-1.049295,0.0005949275,-0.016080886,-0.10735762,-0.4048378,-0.33200058,0.060114972,3.0716937,-0.63768446,-0.00048358343,-0.17854767,-0.022296105,0.0025259077,-0.030738521,0.008884391,-0.052271537,0.42521536,-1.4124252,1.9421524,-2.1019065,-1.5672573,2.409046,-0.12174465,0.32347682,-0.38855717,0.044453107,0.023796733,-0.06921184,0.0,0.49799395,-9.11712,0.9768804,47.645687,-0.8986773,-1.4071001,-3.5255227,0.03619826,0.1646892,-0.35564807,25.0625,25.625,24.875,27.1875,27.6875,28.0
0.36605516,0.07800243,-0.7008193,-1.1507412,-0.014003313,0.007809516,-0.11600588,-0.40519106,-0.33203676,0.06012115,3.0715709,-0.63798136,-0.0004510687,-0.17752482,-0.02316309,0.0011668215,-0.029153245,0.004418014,-0.045794,0.42495236,-1.4117872,1.9413756,-2.101786,-1.5671977,2.4089847,-0.11945806,0.32733154,-0.39081842,0.04760584,0.024214806,-0.07340115,-0.019153614,0.51714754,-9.040505,0.9030289,47.65106,-0.9646691,-1.4423419,-3.4657521,0.0227285,0.14765811,-0.2945006,25.0625,25.625,24.875,27.1875,27.6875,28.0
0.3680549,-0.6228098,-1.3041505,-1.1081809,-0.021773146,0.021272367,-0.110479005,-0.40554947,-0.3321166,0.060139105,3.0714529,-0.63801414,-0.0004565086,-0.17688785,-0.021871433,-0.0005395391,-0.026674427,-0.0015181348,-0.046389636,0.42474768,-1.4111255,1.9405497,-2.1016881,-1.5671128,2.4088163,-0.12124457,0.33022267,-0.3914183,0.051759627,0.024422286,-0.074590616,0.019153614,0.49799395,-9.136273,0.9298854,47.658226,-0.88985133,-1.5154486,-3.612596,-0.039991364,0.13032028,-0.30240405,25.0625,25.625,24.875,27.1875,27.6875,28.0
0.37005433,-0.75760037,-1.7925824,-1.1235731,-0.045956656,0.053868435,-0.09931815,-0.40589288,-0.33216506,0.060131382,3.0713823,-0.63811165,-0.00036857295,-0.17661439,-0.021344105,-0.001620193,-0.02475353,-0.005903431,-0.04314595,0.4245075,-1.4104518,1.9397596,-2.101555,-1.5670408,2.4086466,-0.12186406,0.3331231,-0.39340603,0.055659257,0.024494931,-0.0784539,-0.05746084,0.45968673,-9.174581,0.9365982,47.65106,-0.86205333,-1.738271,-3.6897826,-0.07939091,0.12629695,-0.2734507,25.0625,25.625,24.875,27.1875,27.6875,28.0
0.3720548,-1.0035621,-2.1933033,-0.92655355,-0.057205167,0.058729813,-0.1098114,-0.4062219,-0.3321681,0.0600962,3.0714095,-0.6382306,-0.0002579255,-0.17624259,-0.02108859,-0.0025352319,-0.022985084,-0.009131848,-0.039853595,0.42424384,-1.4097785,1.9390296,-2.1014106,-1.5670408,2.408454,-0.121692315,0.33544818,-0.3948679,0.05848513,0.02421862,-0.08157695,-0.038307227,0.40222588,-9.251195,1.0126908,47.647476,-0.9948468,-1.6325078,-3.7500744,-0.12974852,0.10743817,-0.22627193,25.0625,25.625,24.875,27.1875,27.6875,28.0
0.3740552,-1.1114359,-1.5211084,-0.5025131,-0.0693236,0.05729614,-0.10821066,-0.40660548,-0.33225223,0.060139116,3.0712426,-0.63829046,-0.0003583321,-0.17787243,-0.022311857,-0.0012913983,-0.023180274,-0.006990789,-0.036889914,0.42402816,-1.4091412,1.9381794,-2.1013381,-1.5669574,2.408298,-0.12022706,0.3374111,-0.40055948,0.060202334,0.02352325,-0.08307087,-0.15322891,0.30645782,-8.868123,1.0373062,47.67345,-0.9562398,-1.6652262,-3.6172824,-0.15622357,0.10821478,-0.18082698,25.0625,25.625,24.875,27.1875,27.6875,28.0
