Tylouw/Master_Thesis_Code/training_data/batch_1/big_rod_t0.1/sample_27_session_2.csv
timestamp[s],tcp_force_x[N],tcp_force_y[N],tcp_force_z[N],tcp_force_rx[Nm?],tcp_force_ry[Nm?],tcp_force_rz[Nm?],tcp_pose_x[m],tcp_pose_y[m],tcp_pose_z[m],tcp_pose_rx[rot_vec_x],tcp_pose_ry[rot_vec_y],tcp_pose_rz[rot_vec_z],tcp_velo_x[m/s],tcp_velo_y[m/s],tcp_velo_z[m/s],tcp_velo_rx[rot_vec_x/s],tcp_velo_ry[rot_vec_y/s],tcp_velo_rz[rot_vec_z/s],q1[rad],q2[rad],q3[rad],q4[rad],q5[rad],q6[rad],qd1[rad/s],qd2[rad/s],qd3[rad/s],qd4[rad/s],qd5[rad/s],qd6[rad/s],tool_acc_x,tool_acc_y,tool_acc_z,current_of_whole_robot[A],voltage_of_whole_robot[V],current_J1[A],current_J2[A],current_J3[A],current_J4[A],current_J5[A],current_J6[A],temp_J1[C],temp_J2[C],temp_J3[C],temp_J4[C],temp_J5[C],temp_J6[C]
1.4089746e-06,-1.2727963,-1.3725983,-0.6595588,-0.024926355,0.01702446,0.0007608048,-0.3736184,-0.32880637,0.05992448,-3.078494,0.6247691,-0.0003106129,-0.0016778337,-0.00084371475,0.000113643844,-0.0023372148,0.004496819,4.234215e-05,0.44858217,-1.4686582,2.0071418,-2.1074426,-1.5706614,2.423439,-3.7925092e-05,0.0010311661,-2.567387e-06,-0.006094678,0.00014188651,-7.8587764e-05,-0.05746084,0.095768064,-8.791509,0.75084364,47.694054,-0.024077682,-2.6617985,-2.3981614,-0.49092865,0.09411435,-0.12216868,24.5,24.875,24.25,25.9375,26.0,26.25
0.00205469,-1.0898807,-1.4127958,-0.5284567,-0.013957706,0.017864915,0.008346539,-0.37362295,-0.32880223,0.05990559,-3.0784607,0.6248196,-0.00035741003,-0.0014113176,-0.0007147044,-0.0021811058,-0.0019756285,0.0037394324,4.2041665e-05,0.44857025,-1.4686093,2.0071318,-2.107444,-1.5706614,2.4234629,-3.7142552e-05,0.0039221398,0.0033038382,-0.011452784,0.00013943727,-7.746044e-05,0.0,0.05746084,-8.734048,0.7150385,47.66271,0.008182457,-2.7467008,-2.3324134,-0.46123862,0.07641591,-0.120797954,24.5,24.875,24.25,25.9375,26.0,26.25
0.004053618,-0.652234,-1.2544442,-0.5863867,-0.00782619,0.020241905,-0.00089171855,-0.37363246,-0.32878736,0.05991329,-3.078451,0.6247986,-0.00029177114,-0.0015629884,-0.00078879984,-0.0022865725,-0.0023464083,0.0045029703,4.1786217e-05,0.4485582,-1.4686332,2.0071433,-2.1074564,-1.5706977,2.423439,-3.639157e-05,0.0039377594,0.003850627,-0.012863997,0.00014042453,-7.6365075e-05,0.11492168,0.0,-8.695741,0.73741806,47.68062,0.004326153,-2.9736655,-2.723815,-0.39407665,0.0976021,-0.11928729,24.5,24.875,24.25,25.9375,26.0,26.25
0.006054108,-0.40818536,-0.88488585,-0.642684,0.009898381,0.005180236,0.00086105964,-0.37363544,-0.32880828,0.05991476,-3.0784967,0.6248651,-0.00026606463,-0.0016488673,-0.00082918437,-0.00089473824,-0.0022865923,0.004397258,4.1448227e-05,0.44857025,-1.4686338,2.0071537,-2.1075146,-1.5706614,2.4234867,-3.5670488e-05,0.0023682422,0.0014514539,-0.008774092,0.00013651304,-7.53002e-05,0.095768064,0.0,-8.676587,0.7978386,47.670765,-0.05483255,-2.9572914,-2.68052,-0.410878,0.08681308,-0.12049218,24.5,24.875,24.25,25.9375,26.0,26.25
0.0080544,0.42735273,0.01601829,-0.9456776,0.029960021,-0.0057736607,-0.0022836593,-0.3736206,-0.3287987,0.059885234,-3.0784454,0.62479734,-0.00033460456,-0.0013653437,-0.00069037284,0.00027329643,-0.00205337,0.0039351946,4.0507137e-05,0.44858217,-1.4685867,2.0071666,-2.1075013,-1.5706857,2.4234629,-3.497732e-05,0.00041515054,3.1838623e-05,-0.0048838737,0.00013251544,-7.4264586e-05,0.076614454,-0.038307227,-8.791509,0.7530795,47.68599,0.022729537,-2.8220017,-2.5236366,-0.44555652,0.09816437,-0.12275736,24.5,24.875,24.25,25.9375,26.0,26.25
0.010053762,0.06675141,-0.12618251,-1.4676424,0.030761136,-0.01959948,-0.0036240434,-0.37360746,-0.3287817,0.059873544,-3.0783894,0.62480503,-0.00041366834,-0.0009246324,-0.00047580924,0.00031489294,-0.0015043669,0.0028120612,3.96256e-05,0.44857025,-1.4685749,2.0071666,-2.1074407,-1.5706977,2.4234629,-3.4310655e-05,5.5697747e-06,4.271558e-07,-0.0031927524,0.0001287259,-7.325712e-05,0.076614454,-0.05746084,-9.021352,0.78217715,47.640312,-0.19562857,-2.1014814,-3.2318559,-0.45144606,0.07499954,-0.15964016,24.5,24.875,24.25,25.9375,26.0,26.25
0.01205383,-0.109382674,-1.0030478,-1.4593185,-0.0013337698,0.0009986694,-0.0073601254,-0.373646,-0.3287875,0.05989504,-3.0784307,0.6248902,-0.00029568377,-0.0016985547,-0.00083666673,-0.0024825386,0.0012415717,-0.0028996097,3.1587668e-05,0.44854614,-1.4685835,2.0071404,-2.1075003,-1.5706977,2.4234867,-6.521307e-05,0.009366763,-0.004124029,-0.0020920269,0.0001251459,-9.247267e-05,0.1340753,-0.019153614,-9.251195,0.7530795,47.691364,-0.32619828,-2.167933,-3.4477105,-0.46722656,0.08993433,-0.17994371,24.5,24.875,24.25,25.9375,26.0,26.25
0.014054767,-0.7919276,-2.388883,-1.8458315,-0.030976737,0.02548917,-7.0150876e-05,-0.37362486,-0.32877722,0.059864286,-3.0783875,0.6248435,-0.00040204194,-0.004161991,-0.0018420845,-0.0033718504,0.0021154976,-0.004737583,-0.00025223385,0.44854602,-1.4685446,2.0071628,-2.1074765,-1.5706977,2.4234629,-0.00042195214,0.017565513,-0.011333012,-0.001046668,0.000121759505,-0.00016009327,0.11492168,0.17238253,-9.3661175,0.7396539,47.692257,-0.42785406,-2.6886795,-3.224378,-0.452441,0.0618434,-0.21264184,24.5,24.875,24.25,25.9375,26.0,26.25
0.016053556,-1.6152252,-3.0778744,-2.0759473,-0.059834585,0.04339367,0.004687556,-0.37360805,-0.32877237,0.05983396,-3.078319,0.62486666,-0.0005619096,-0.00703817,-0.00030658123,-0.0019402266,0.0010341383,-0.0024997876,0.00033967217,0.44854409,-1.4684731,2.007137,-2.1074035,-1.5706857,2.423484,-0.005915776,0.016839068,-0.0140319625,-0.00010770504,0.00011855171,-0.0062446124,-0.19153613,0.38307226,-9.461885,0.7105615,47.70838,-0.20797084,-2.435743,-3.309309,-0.46407998,0.057921283,-0.19610843,24.5,24.875,24.25,25.9375,26.0,26.25
0.018053835,-2.3279884,-4.128011,-2.2018404,-0.071948245,0.06357498,0.003510761,-0.3735868,-0.3287645,0.05982714,-3.0783315,0.6247924,-0.00063047325,-0.006966433,-0.00046626176,-0.0026423833,0.0016990614,-0.0038401245,0.0024146154,0.44853222,-1.4684963,2.0071728,-2.1073797,-1.5706614,2.4234242,-0.005538806,0.01878102,-0.014578524,-7.0323695e-06,9.838632e-05,-0.007941942,-0.28730422,0.4596867,-9.730036,0.7172743,47.65912,-0.2510562,-2.287407,-3.426002,-0.45589852,0.05911568,-0.16286615,24.5,24.875,24.25,25.9375,26.0,26.25
0.020053914,-2.8063738,-3.900826,-2.341048,-0.09766472,0.075814255,-0.00416261,-0.3735995,-0.32879654,0.05982242,-3.078336,0.62473494,-0.0006452217,-0.0074120397,-0.0013958059,-0.002350733,0.0013566895,-0.0031199597,0.0032242474,0.44858074,-1.4684122,2.0070884,-2.1073678,-1.5706614,2.4234364,-0.0041955896,0.020115847,-0.016717222,-4.5916346e-07,9.0484515e-05,-0.0074068587,-0.40222588,0.6512228,-9.864111,0.7396539,47.64927,-0.4463349,-2.270549,-3.4757395,-0.44100988,0.052427117,-0.18578623,24.5,24.875,24.25,25.9375,26.0,26.25
0.02205403,-2.4888778,-4.093234,-2.2578342,-0.09733431,0.09290464,-0.013108123,-0.3736165,-0.32877263,0.05979763,-3.0782816,0.62478125,-0.0006422956,-0.0072041187,-0.0015689088,-0.002282372,0.002076959,-0.0046061566,0.0036332402,0.44854492,-1.468364,2.0071003,-2.1074026,-1.5706977,2.4234364,-0.003680441,0.020903975,-0.018298483,0.0024439718,8.791975e-05,-0.0073003434,-0.5363012,0.7469909,-9.615114,0.7978386,47.699425,-0.5475768,-2.253971,-3.4836445,-0.46628988,0.051974326,-0.20647421,24.5,24.875,24.25,25.9375,26.0,26.25
0.024054501,-2.0930662,-3.889029,-2.5790858,-0.08932994,0.09157018,-0.012339996,-0.37364194,-0.32878932,0.059810862,-3.0783243,0.6247325,-0.0007014241,-0.008893226,-0.0014977235,-0.0017205391,0.0014633702,-0.003341124,0.002917265,0.44852045,-1.4683155,2.007003,-2.1073434,-1.5706495,2.423376,-0.0053483914,0.022149052,-0.020958254,0.0024529085,8.5801e-05,-0.0082505355,-0.51714754,0.7661445,-9.768343,0.71279734,47.701214,-0.62900335,-2.2688525,-3.5169797,-0.45859808,0.049807966,-0.23138744,24.5,24.875,24.25,25.9375,26.0,26.25
0.026054,-2.3106503,-3.9675136,-2.794193,-0.08519332,0.07394326,-0.022073045,-0.37366056,-0.32878727,0.059811093,-3.078311,0.62478685,-0.0006749583,-0.010989255,-0.0013816201,-0.00087717606,0.00043463585,-0.0012177858,0.0026913937,0.4485077,-1.4682913,2.0069788,-2.1073554,-1.5706614,2.423399,-0.007470403,0.023094153,-0.023833357,0.0020231148,8.3802195e-05,-0.010144683,-0.5363012,0.6895301,-9.959879,0.70608455,47.694946,-0.6210399,-2.1424615,-3.5030575,-0.45969713,0.03910638,-0.20948666,24.5,24.875,24.25,25.9375,26.0,26.25
0.028054051,-2.3211994,-3.839269,-2.6543608,-0.0860563,0.059378047,-0.022046108,-0.37370244,-0.32880533,0.059818905,-3.0783353,0.62479186,-0.0006551038,-0.012160868,-0.0017426963,-0.00082072394,0.00012799009,-0.0005470093,0.0033709377,0.44849545,-1.4682187,2.006881,-2.1073554,-1.5706495,2.4233868,-0.00784406,0.025172478,-0.026130661,0.0015047395,6.278961e-05,-0.01119599,-0.45968673,0.59376204,-9.864111,0.7463667,47.698532,-0.5965656,-2.1577902,-3.5013793,-0.44059622,0.05268413,-0.22287732,24.5,24.875,24.25,25.9375,26.0,26.25
0.030053979,-2.3729022,-3.69083,-2.449562,-0.062823564,0.055849507,-0.038099643,-0.3737321,-0.3287962,0.0598126,-3.0783222,0.62480867,-0.00064439955,-0.0133616505,-0.0021044658,-0.0008295246,-7.871908e-05,-0.00012540164,0.0029799577,0.4484594,-1.46817,2.0068448,-2.1073673,-1.5706614,2.423363,-0.008255261,0.027544329,-0.028644051,0.0011766081,6.01448e-05,-0.011214239,-0.5363012,0.4596867,-9.844957,0.7486078,47.691364,-0.6048239,-2.1782875,-3.5014906,-0.4433092,0.036296535,-0.2355051,24.5,24.875,24.25,25.9375,26.0,26.25
0.03205408,-2.1253839,-2.9138703,-2.5485551,-0.045817077,0.07045419,-0.054651476,-0.37378782,-0.3288078,0.059817594,-3.0783389,0.6247742,-0.00056212844,-0.0149669275,-0.002133877,-0.0006308339,-0.00044163966,0.0006178654,0.002444735,0.4484469,-1.4680854,2.0067484,-2.107403,-1.5706857,2.423327,-0.009658006,0.02962245,-0.031338103,0.000964992,5.8754526e-05,-0.012079763,-0.38307226,0.30645782,-9.787497,0.7530795,47.693153,-0.69418585,-2.2363193,-3.4075656,-0.41449875,0.028486801,-0.24641043,24.5,24.875,24.25,25.9375,26.0,26.25
0.034053642,-2.0508258,-1.8147452,-2.3315482,-0.024213647,0.057929642,-0.06570204,-0.37380335,-0.32882175,0.05981316,-3.0783613,0.62474036,-0.0006250248,-0.017060079,-0.0024459688,0.00040294928,-0.001537828,0.002878985,0.0019407867,0.44843438,-1.4680252,2.006687,-2.1073792,-1.5706495,2.4232905,-0.0109736975,0.03087229,-0.03507939,0.0009439488,5.7497924e-05,-0.012889076,-0.22984336,0.2681506,-9.749189,0.83589023,47.716442,-0.6757641,-2.2085013,-3.3682442,-0.39496514,0.027819764,-0.24642085,24.5,24.875,24.25,25.9375,26.0,26.25
0.03605425,-1.913158,-1.6451029,-2.212195,0.0075798193,0.04270886,-0.07178017,-0.37385765,-0.32884365,0.059833594,-3.0783832,0.62480265,-0.0005246932,-0.018093092,-0.0026269117,0.00023800315,-0.0015142532,0.0028229128,0.0020251097,0.4484342,-1.4679644,2.0065787,-2.107403,-1.5706614,2.4233265,-0.01157229,0.03319706,-0.03723357,0.00083385163,5.6298653e-05,-0.013570305,-0.30645782,0.1340753,-9.710882,0.7105615,47.711063,-0.6876805,-2.240358,-3.2238178,-0.38522518,0.013201619,-0.2474921,24.5,24.875,24.25,25.9375,26.0,26.25
0.03805437,-1.4861829,-1.2482903,-2.0781722,0.014277867,0.041261066,-0.09122032,-0.37387443,-0.32883662,0.059799567,-3.0783613,0.6247792,-0.0006098648,-0.019560797,-0.0025333003,0.00082010176,-0.0020282823,0.0041454504,0.0012600084,0.44839764,-1.4678683,2.006554,-2.1074154,-1.5706495,2.423278,-0.013001892,0.034014095,-0.039471444,0.0008405423,-5.964916e-05,-0.014233117,-0.22984336,0.038307227,-9.672575,0.7105615,47.698532,-0.73121166,-2.2977195,-3.2392826,-0.36299634,0.0126513075,-0.26315716,24.5,24.875,24.25,25.9375,26.0,26.25
0.04005334,-1.0939269,-0.8317647,-1.9893032,0.0080573745,0.04549629,-0.10857545,-0.37391296,-0.32885107,0.059799787,-3.0783758,0.6248009,-0.0006340441,-0.020357758,-0.0025943385,0.0010751905,-0.0018641087,0.0038739645,0.0015811203,0.44837353,-1.4677839,2.0064576,-2.1074026,-1.5706257,2.4232657,-0.013588445,0.035343517,-0.041827142,0.0021829926,-9.229975e-05,-0.015139497,-0.11492168,-0.095768064,-9.595961,0.8291774,47.684196,-0.71711063,-2.2175784,-3.2722232,-0.35724807,0.011923345,-0.25444955,24.5,24.875,24.25,25.9375,26.0,26.25
0.042054128,-1.6474752,-1.8100028,-2.0718362,0.018584847,0.03165873,-0.10407666,-0.37397298,-0.3288455,0.059822954,-3.0783656,0.62476075,-0.0005160467,-0.021845317,-0.0026604636,0.0018357277,-0.0021985832,0.004646656,0.00034035678,0.44834918,-1.4677358,2.0063488,-2.1073906,-1.5706857,2.4232178,-0.014789256,0.036525972,-0.045174092,0.0035054064,-0.00012906022,-0.015097681,-0.076614454,-0.21068975,-9.634268,0.69937176,47.67345,-0.7134137,-2.27176,-3.2446098,-0.35945636,0.002606553,-0.24298728,24.5,24.875,24.25,25.9375,26.0,26.25
0.044053856,-1.4068226,-1.7376863,-1.9825413,0.0070441384,0.04067976,-0.09557068,-0.37400493,-0.32885486,0.05981701,-3.0783832,0.6247457,-0.00058074214,-0.022724016,-0.0029952298,0.0018924386,-0.0020448924,0.0044022887,0.00017241233,0.44831312,-1.4676512,2.006264,-2.1073663,-1.5706495,2.42317,-0.0149339,0.038662966,-0.0478446,0.0043264343,-0.00016561201,-0.01507262,-0.15322891,-0.13407528,-9.442732,0.7418897,47.691364,-0.67102826,-2.1770504,-3.1509736,-0.36319923,0.009231469,-0.24465656,24.5,24.875,24.25,25.9375,26.0,26.25
0.046053857,-1.7284992,-1.7994109,-1.9734577,-0.0020836603,0.04348794,-0.08776293,-0.37405217,-0.3288669,0.059825875,-3.078373,0.62478226,-0.00055612955,-0.022513753,-0.0025214422,0.00095660856,-0.0010915225,0.0025011592,-0.00043628388,0.44830084,-1.4675666,2.0061452,-2.107343,-1.5706614,2.423182,-0.015607888,0.040081702,-0.047299433,0.0044889604,-0.00019905031,-0.015137998,-0.24899697,0.0,-9.500193,0.75084364,47.691364,-0.65945613,-2.2282982,-3.2762685,-0.343742,0.0009504948,-0.24862665,24.5,24.875,24.25,25.9375,26.0,26.25
0.04805368,-1.5034125,-2.1875894,-2.2173233,-0.0102010425,0.056060467,-0.093488246,-0.37410334,-0.3288598,0.05982466,-3.078377,0.6248021,-0.0005402265,-0.02352157,-0.0031745785,0.001706628,-0.0016129685,0.003568294,-1.5820757e-05,0.448241,-1.4674946,2.0060713,-2.107354,-1.5706614,2.423134,-0.015297258,0.04112886,-0.05036239,0.0053170254,-0.00019591495,-0.015246099,-0.11492168,0.076614454,-9.481039,0.7396539,47.66987,-0.71891296,-2.1813307,-3.2638545,-0.3422614,0.0073600025,-0.25739765,24.5,24.875,24.25,25.9375,26.0,26.25
0.050053526,-1.322536,-2.3615487,-1.9840658,-0.01973587,0.055870537,-0.08585733,-0.3741573,-0.32885966,0.059851937,-3.0783727,0.62482077,-0.00044608646,-0.024539365,-0.002911029,0.0017005303,-0.0010600227,0.0035225372,-0.0016327924,0.44821653,-1.4674581,2.005963,-2.1073296,-1.5706981,2.423122,-0.016389469,0.042765588,-0.052277368,0.005877404,-0.0006761256,-0.014719168,-0.24899697,0.13407528,-9.5385,0.80456203,47.70838,-0.66170037,-2.0881286,-3.3019,-0.34113413,-0.013445206,-0.26342553,24.5,24.875,24.25,25.9375,26.0,26.25
0.05205329,-1.5841724,-2.864278,-2.0817873,-0.019264119,0.037965592,-0.073036276,-0.37419435,-0.32887152,0.059837285,-3.0783877,0.62482405,-0.000509326,-0.025990171,-0.0034818004,0.002743814,-0.001812802,0.005338141,-0.0016297835,0.4481806,-1.46735,2.0058777,-2.1073296,-1.5706619,2.4230862,-0.016556446,0.043630544,-0.055779345,0.006552833,-0.00079063815,-0.014886897,-0.19153613,0.24899697,-9.5385,0.82022345,47.688675,-0.72559786,-2.1019552,-3.0529919,-0.32656598,-0.030272208,-0.270607,24.5,24.875,24.25,25.9375,26.0,26.25
0.054054216,-1.1554831,-2.8338397,-2.1120427,-0.033377152,0.03641396,-0.08234026,-0.3742503,-0.32887053,0.05984818,-3.078375,0.6248596,-0.0004575552,-0.025310962,-0.0028007946,0.0013912177,-0.00033771252,0.0024336397,-0.0013007433,0.44814435,-1.4672776,2.0057704,-2.1073177,-1.5706862,2.4230738,-0.01716925,0.045148164,-0.05444251,0.0069549135,-0.0008577392,-0.015829304,-0.19153613,0.2681506,-9.442732,0.7396539,47.684196,-0.6615201,-2.0003355,-3.2411826,-0.34232455,-0.03097247,-0.27600253,24.5,24.875,24.25,25.9375,26.0,26.25
0.056053426,-1.5266185,-3.1033726,-2.095162,-0.03814361,0.024500592,-0.07734997,-0.37429065,-0.32891375,0.059864026,-3.0784526,0.62477875,-0.00045961456,-0.02643296,-0.002706733,0.0015149086,0.00020631448,0.0028023575,-0.0013416214,0.44815615,-1.4671931,2.0056384,-2.1073053,-1.5706381,2.4230254,-0.017921966,0.046861194,-0.0567218,0.0074276356,-0.0015113817,-0.016538426,-0.11492168,0.38307226,-9.461885,0.7597976,47.67166,-0.6865518,-2.040835,-3.32404,-0.32359415,-0.015915059,-0.2676873,24.5,24.875,24.25,25.9375,26.0,26.25
0.058054294,-1.4328804,-3.086035,-1.7822527,-0.0538021,0.025354521,-0.075444005,-0.37436542,-0.3289026,0.059874706,-3.0784016,0.6248646,-0.00037190117,-0.027779166,-0.0030994231,0.0026048508,-0.00016457158,0.0043052896,-0.0014949597,0.4481079,-1.467097,2.0055053,-2.107293,-1.5706981,2.4230373,-0.018186508,0.04751875,-0.060259093,0.008792214,-0.0018322093,-0.016647253,-0.11492168,0.36391866,-9.423578,0.779936,47.698532,-0.7160791,-1.9904051,-3.1695485,-0.32997844,-0.022166798,-0.25694087,24.5,24.875,24.25,25.9375,26.0,26.25
0.06005423,-1.5365759,-3.403433,-1.7332336,-0.047007497,0.025069501,-0.0735375,-0.3744297,-0.32890147,0.059879635,-3.0784085,0.62486553,-0.00035696552,-0.028717017,-0.0030212556,0.0023696106,0.00030334244,0.0038527793,-0.0016799363,0.4480478,-1.4670006,2.0053852,-2.107281,-1.5706986,2.422977,-0.01902543,0.04974761,-0.06226518,0.009180584,-0.0020611323,-0.017299363,-0.095768064,0.34476504,-9.423578,0.7866488,47.67345,-0.6897098,-1.8921602,-3.2414975,-0.3229635,-0.019901909,-0.26429147,24.5,24.875,24.25,25.9375,26.0,26.25
0.062054336,-1.2374158,-3.0154219,-1.7874888,-0.04702695,0.03684899,-0.08195042,-0.37450665,-0.32891527,0.059911553,-3.078442,0.62487143,-0.00025762938,-0.029781334,-0.0033507415,0.0024490473,-0.00011342226,0.0042089066,-0.0009854219,0.4480115,-1.4669279,2.0052292,-2.1072686,-1.5707101,2.4229403,-0.019516047,0.051653955,-0.06451052,0.0090167755,-0.0018439739,-0.018483363,-0.1340753,0.4213795,-9.308657,0.74413085,47.67166,-0.72935796,-1.9732597,-3.241312,-0.31602454,-0.031534433,-0.28179932,24.5,24.875,24.25,25.9375,26.0,26.25
0.064053506,-1.3858271,-2.907531,-1.6553043,-0.044070244,0.034003753,-0.08165287,-0.37457314,-0.32890877,0.05993112,-3.0784247,0.624887,-0.0001926423,-0.030662125,-0.0037814428,0.0027620527,-0.0007388425,0.0046024197,-0.00043435514,0.44796348,-1.4668556,2.0050967,-2.1072328,-1.5707463,2.4229043,-0.019766469,0.05297759,-0.06675456,0.009309259,-0.0014544289,-0.01928415,0.019153614,0.4405331,-9.32781,0.800085,47.686886,-0.73573554,-1.8709147,-3.1695294,-0.31491774,-0.034408942,-0.2723633,24.5,24.875,24.25,25.9375,26.0,26.25
0.06605419,-1.2889942,-3.0623374,-1.4898027,-0.03965227,0.030820327,-0.07836154,-0.37460104,-0.32892457,0.059903506,-3.0784328,0.624908,-0.00032415596,-0.031844478,-0.004001019,0.0032147819,-0.0015468847,0.0054308344,-0.0002120522,0.44792712,-1.4667234,2.0050118,-2.107221,-1.5706862,2.42288,-0.020669477,0.054040115,-0.06898538,0.00938051,-0.0010908853,-0.020408597,0.0,0.49799395,-9.32781,0.6926589,47.64479,-0.69141203,-1.8651938,-3.1699257,-0.29200697,-0.03714896,-0.24744405,24.5,24.875,24.25,25.9375,26.0,26.25
0.0680541,-1.0840638,-2.7737868,-1.582052,-0.037437275,0.031086516,-0.07720988,-0.3746788,-0.32894504,0.05991107,-3.0784376,0.624908,-0.00028468805,-0.032830838,-0.004356816,0.0023498943,-0.001053244,0.0042368444,0.00076883024,0.44790298,-1.4665784,2.004832,-2.107209,-1.5706981,2.4228554,-0.020939484,0.058190703,-0.0714999,0.009033701,-0.0010247342,-0.021657402,-0.076614454,0.36391866,-9.32781,0.77545905,47.672558,-0.7491032,-1.9713771,-3.1609674,-0.30242613,-0.05004164,-0.2493428,24.5,24.875,24.25,25.9375,26.0,26.25
0.070054114,-0.78121555,-2.5303388,-1.3946816,-0.031731155,0.037558805,-0.09230607,-0.37475577,-0.32896313,0.059925947,-3.0784557,0.62493014,-0.00023917868,-0.03351403,-0.004536535,0.0030450197,-0.0014525517,0.0050136535,0.0013837971,0.44786704,-1.4664586,2.0046632,-2.1071966,-1.5706981,2.422831,-0.02123157,0.058207076,-0.07333262,0.0099766655,-0.0010023072,-0.02256373,-0.05746084,0.3256114,-9.232041,0.7978386,47.701214,-0.6748942,-1.8930024,-3.181433,-0.27028129,-0.0630945,-0.23870888,24.5,24.875,24.25,25.9375,26.0,26.25
0.072054066,-1.3789175,-2.6999006,-1.2772505,-0.02115622,0.02392616,-0.077301264,-0.37481406,-0.3289828,0.059932698,-3.0784838,0.6248395,-0.00025127718,-0.03442804,-0.004794292,0.0034523532,-0.0018350512,0.005794259,0.0018270069,0.44784293,-1.4663385,2.0045073,-2.1071603,-1.5706862,2.422747,-0.021575144,0.059130877,-0.075338334,0.010189424,-0.0009994733,-0.02334926,-0.114921674,0.36391866,-9.251195,0.7597976,47.7245,-0.72205174,-1.8368709,-3.1545339,-0.3008508,-0.06604244,-0.24082796,24.5,24.875,24.25,25.9375,26.0,26.25
0.07405396,-1.4863672,-2.08084,-1.2596263,-0.031376842,0.020092815,-0.0795041,-0.37488934,-0.32898062,0.059939694,-3.0785012,0.62486255,-0.00020723803,-0.035282172,-0.004690375,0.0025211042,-0.0010232567,0.0040820865,0.0022298582,0.44777057,-1.4662414,2.0043871,-2.1071727,-1.5706862,2.4226868,-0.022542803,0.062810555,-0.07730152,0.010367461,-0.0009928502,-0.024718136,-0.11492168,0.30645782,-9.174581,0.7083204,47.705692,-0.7224654,-1.7984414,-3.2015004,-0.28765577,-0.081804365,-0.23391941,24.5,24.875,24.25,25.9375,26.0,26.25
0.07605423,-1.5529883,-2.612659,-1.4033701,-0.013777879,0.024928357,-0.07624713,-0.37495908,-0.3289886,0.059945635,-3.0784695,0.6248743,-0.00017458842,-0.036229663,-0.0048272777,0.0017397745,-0.0004890503,0.0029690904,0.0025452443,0.44774643,-1.4661083,2.0042188,-2.1071365,-1.570722,2.4226742,-0.023138816,0.0664296,-0.07944983,0.010130216,-0.0009978386,-0.02562763,-0.095768064,0.2681506,-9.212888,0.7553206,47.701214,-0.7296071,-2.0757437,-3.1015234,-0.2697238,-0.074615404,-0.20185745,24.5,24.875,24.25,25.9375,26.0,26.25
0.07805397,-1.2159045,-1.9754834,-1.3413686,-0.023363806,0.036655594,-0.08735465,-0.3750332,-0.32898596,0.05993401,-3.0784388,0.6248869,-0.00023264263,-0.036836706,-0.0048295786,0.002456499,-0.0010326804,0.0046703047,0.0036264316,0.4476742,-1.4659411,2.0040505,-2.1070893,-1.570722,2.4226139,-0.023506949,0.06554059,-0.08006347,0.0098645175,-0.0012475721,-0.02707618,-0.11492168,0.13407528,-9.155427,0.7553206,47.698532,-0.7429199,-1.8096571,-3.2276375,-0.25601658,-0.08756666,-0.20140515,24.5,24.875,24.25,25.9375,26.0,26.25
0.08005377,-1.1427486,-1.7169703,-1.3022043,-0.01885876,0.036952764,-0.07983282,-0.37512982,-0.32901773,0.059969213,-3.0785258,0.62486553,-9.649146e-05,-0.037168477,-0.004665223,0.0010139876,0.0006780815,0.0016620138,0.004372759,0.44763818,-1.4658437,2.0038707,-2.107125,-1.5707101,2.4225535,-0.023949755,0.06986752,-0.0817039,0.010631314,-0.0014863219,-0.02826363,-0.095768064,0.05746084,-9.155427,0.7665104,47.66987,-0.7072729,-1.9146752,-3.2739909,-0.24905372,-0.105706915,-0.17634407,24.5,24.875,24.25,25.9375,26.0,26.25
0.082053415,-1.293532,-1.759603,-1.1460409,-0.009405235,0.03162266,-0.08147786,-0.37519675,-0.32902443,0.059953876,-3.078493,0.624916,-0.00014288035,-0.0379522,-0.004926404,0.00081865734,0.0007528492,0.001459741,0.0050619403,0.44759002,-1.4656752,2.0037148,-2.1071007,-1.5707101,2.4225411,-0.02417502,0.07200611,-0.08362234,0.010625578,-0.0014714989,-0.029176598,-0.17238252,0.095768064,-9.136273,0.8403672,47.686886,-0.7723676,-2.060616,-3.3043137,-0.25637946,-0.10154282,-0.16707829,24.5,24.875,24.25,25.9375,26.0,26.25
0.084053464,-1.0932734,-0.9900329,-1.3843884,-0.012874272,0.03655759,-0.08307224,-0.37528062,-0.32904562,0.059972014,-3.07853,0.6248465,-9.740197e-05,-0.039025255,-0.005021772,0.001177927,0.00056065875,0.0022356943,0.005429194,0.44755375,-1.4655432,2.0035222,-2.107077,-1.5707101,2.422457,-0.024849486,0.07310803,-0.085716285,0.010835255,-0.001637148,-0.03021676,-0.21068975,0.076614454,-9.078813,0.87617236,47.71286,-0.75692356,-1.9327344,-3.340718,-0.24851087,-0.10469672,-0.16682763,24.5,24.875,24.25,25.9375,26.0,26.25
0.08605383,-1.2182025,-1.339208,-1.4859649,0.002739087,0.033600453,-0.08106807,-0.37534967,-0.3290661,0.059977308,-3.078526,0.6248645,-9.9094184e-05,-0.039853174,-0.0050040707,0.00078298966,0.0009736451,0.0011085718,0.005659116,0.4475295,-1.4653984,2.0033424,-2.1070406,-1.5707101,2.4224446,-0.025703587,0.07572225,-0.087869145,0.011568093,-0.0015248605,-0.031299517,-0.17238252,0.05746084,-9.251195,0.83589023,47.692257,-0.7624935,-2.0266528,-3.3894882,-0.24867672,-0.10522163,-0.1537609,24.5,24.875,24.25,25.9375,26.0,26.25
0.08805369,-2.3330085,-2.2428613,-1.509186,0.0057929265,0.016772807,-0.067097984,-0.37542325,-0.32905665,0.05994843,-3.078509,0.6248035,-0.00015931943,-0.040337063,-0.0048532826,0.0006007846,0.0010750974,0.0008993872,0.005234716,0.44744518,-1.4652185,2.0032103,-2.1070406,-1.5707101,2.4223244,-0.026411735,0.076710805,-0.08853357,0.011476302,-0.0015289751,-0.03158264,-0.21068975,0.05746084,-9.212888,0.8314132,47.675243,-0.80254674,-1.9046534,-3.3092918,-0.23211026,-0.12094294,-0.13793254,24.5,24.875,24.25,25.9375,26.0,26.25
0.09005355,-1.8930902,-1.9910907,-1.413655,-0.012672448,0.043624867,-0.07763091,-0.3755303,-0.3290827,0.0599924,-3.0785556,0.62475497,-8.618658e-05,-0.040452275,-0.004520132,-0.0003843129,0.0022195172,-0.0009403132,0.0053844466,0.447397,-1.465086,2.002947,-2.1069686,-1.5707101,2.4222403,-0.026973417,0.07902919,-0.08888295,0.011661685,-0.001763477,-0.032293245,-0.24899697,0.076614454,-9.270349,0.7418897,47.685097,-0.7856672,-1.924216,-3.478932,-0.23906325,-0.13285014,-0.12378541,24.5,24.875,24.25,25.9375,26.0,26.25
0.09205331,-2.268689,-2.0058084,-1.4247564,-0.018056802,0.042133886,-0.079899915,-0.37560302,-0.32907057,0.059959613,-3.0784698,0.6248327,-0.00016579805,-0.042782217,-0.0049304105,0.0008595299,0.001764002,0.0015843187,0.00620131,0.44732484,-1.4648817,2.0027888,-2.1069329,-1.5707344,2.4222276,-0.0278367,0.080725074,-0.093785964,0.0123967845,-0.0024568506,-0.033969108,-0.22984336,0.076614454,-9.3661175,0.7709874,47.684196,-0.7456301,-1.8986975,-3.3556135,-0.22866724,-0.14092906,-0.0846158,24.5,24.875,24.25,25.9375,26.0,26.25
0.094053954,-2.2209327,-2.0176508,-1.5507691,-0.024645269,0.055081002,-0.079637885,-0.37567317,-0.3290977,0.059984453,-3.0785258,0.6247293,-9.4428964e-05,-0.042335246,-0.004099564,-0.00080432347,0.0043984624,-0.0019856757,0.0059444387,0.44731244,-1.464785,2.0026224,-2.10692,-1.5707349,2.4221437,-0.02842761,0.08362768,-0.093432486,0.013501855,-0.0032828227,-0.034301948,-0.22984336,0.13407528,-9.461885,0.7620334,47.666286,-0.8057599,-1.8912756,-3.519037,-0.23654014,-0.13758878,-0.08171137,24.5,24.875,24.25,25.9375,26.0,26.25
0.09605431,-2.594298,-2.2631342,-1.559421,-0.026743535,0.044143867,-0.06966323,-0.3757379,-0.32908836,0.059954684,-3.0784714,0.6247573,-0.00022496397,-0.043438405,-0.004038852,0.00047018082,0.0038239602,0.00037915775,0.0034702509,0.44722837,-1.4645936,2.002466,-2.10686,-1.5707229,2.422084,-0.029183576,0.08245648,-0.09520619,0.014068406,-0.0037930273,-0.03258183,-0.24899697,0.22984336,-9.308656,0.7732232,47.684196,-0.75664294,-1.9630635,-3.5775192,-0.2356351,-0.122942,-0.08890183,24.5,24.875,24.25,25.9375,26.0,26.25
0.098053575,-2.4782627,-2.554544,-1.8575882,-0.019575639,0.042522494,-0.068585075,-0.37582457,-0.3290829,0.0599402,-3.0784385,0.62475145,-0.00023208719,-0.04402787,-0.0038238082,0.00030718942,0.0044097924,0.00020237372,0.0016851076,0.44715616,-1.4644134,2.0022976,-2.106848,-1.5707473,2.4220126,-0.029803026,0.08370213,-0.09627455,0.014304685,-0.004247017,-0.031414486,-0.2681506,0.21068975,-9.385271,0.8291774,47.68062,-0.752251,-1.8067915,-3.5854,-0.2405825,-0.13270256,-0.11037837,24.5,24.875,24.25,25.9375,26.0,26.25
0.100053355,-1.6581504,-1.9916418,-1.8337288,-0.029427188,0.049973108,-0.08193461,-0.37594727,-0.32911846,0.05997288,-3.0785067,0.6247657,-0.00015069483,-0.046717152,-0.0042840065,-2.1189148e-06,0.0046052705,0.00095524226,0.0013139679,0.4470957,-1.4642438,2.002033,-2.1068366,-1.5707234,2.4219525,-0.031015906,0.089233115,-0.10146721,0.013374195,-0.004759658,-0.032251522,-0.34476504,0.15322891,-9.404425,0.79560274,47.692257,-0.7657158,-1.9828398,-3.5814495,-0.23743306,-0.13758935,-0.09561643,24.5,24.875,24.25,25.9375,26.0,26.25
0.10205439,-1.5019891,-1.9993745,-1.9446725,-0.029729364,0.0517487,-0.0753963,-0.37602484,-0.32912132,0.05995916,-3.0784588,0.6247557,-0.00018870406,-0.04671199,-0.0033634114,3.0079402e-05,0.006195541,0.0017896703,0.0012393903,0.44704756,-1.4640527,2.0018427,-2.1067884,-1.5707482,2.4219043,-0.031515136,0.08810082,-0.100281976,0.013261689,-0.0065539074,-0.0326736,-0.19153613,0.19153613,-9.423578,0.779936,47.68062,-0.71357495,-1.7746923,-3.6661575,-0.20684665,-0.12700514,-0.089068845,24.5,24.875,24.25,25.9375,26.0,26.25
0.104054034,-1.7668562,-2.578389,-1.7831417,-0.02065925,0.04794846,-0.072801195,-0.37612227,-0.32912552,0.059948474,-3.078441,0.62473214,-0.00020500353,-0.05007149,-0.004123478,0.0013826691,0.0061383834,0.005770867,0.0010154244,0.44697538,-1.4638479,2.0016358,-2.1067646,-1.5707601,2.42182,-0.03198118,0.091499254,-0.107105896,0.013077566,-0.008239009,-0.032907918,-0.24899697,0.19153613,-9.461885,0.80679786,47.672558,-0.671327,-1.8826401,-3.483119,-0.20107247,-0.116252154,-0.08838691,24.5,24.875,24.25,25.9375,26.0,26.25
0.106053546,-1.5892948,-2.453127,-1.9594442,-0.028890653,0.05317431,-0.07794811,-0.37624753,-0.32912126,0.059972823,-3.078458,0.6247162,-8.196951e-05,-0.04995561,-0.0030994108,4.6271838e-05,0.0090489425,0.0036500779,0.0013801625,0.4468791,-1.4637035,2.0014207,-2.1067646,-1.5707968,2.4217117,-0.032629915,0.09372806,-0.10661926,0.013536373,-0.009942893,-0.033919085,-0.2681506,0.24899697,-9.557653,0.7978386,47.65464,-0.6664287,-1.8154455,-3.6252549,-0.2068545,-0.08512867,-0.07026617,24.5,24.875,24.25,25.9375,26.0,26.25
0.10805431,-1.9078387,-2.514386,-1.9445294,-0.036806073,0.045230467,-0.074692585,-0.37633368,-0.32912636,0.059973408,-3.0784166,0.6247662,-0.000114660754,-0.05226662,-0.0034403238,0.0016483496,0.008660744,0.007829352,-0.0001956808,0.4468191,-1.4635237,2.0012047,-2.106693,-1.5708092,2.4216883,-0.033079326,0.09410659,-0.110662244,0.013268719,-0.011408771,-0.032787222,-0.2681506,0.3256114,-9.519346,0.82694155,47.69763,-0.6808478,-1.8270794,-3.497998,-0.2000097,-0.050391935,-0.08571371,24.5,24.875,24.25,25.9375,26.0,26.25
0.1100541,-2.008006,-3.1158338,-1.9735786,-0.039131954,0.037585817,-0.070406914,-0.37640107,-0.32913113,0.059931856,-3.0783625,0.6247569,-0.0002618441,-0.053125333,-0.0040412187,0.001816211,0.007261989,0.006918493,-0.0032878853,0.4467588,-1.4632834,2.0010235,-2.1066444,-1.5707968,2.4216292,-0.0338315,0.09607812,-0.11349032,0.014336834,-0.009759714,-0.030447457,-0.19153613,0.4213795,-9.557653,0.7530795,47.678825,-0.7735346,-1.7806672,-3.4156156,-0.183999,-0.044964302,-0.12123485,24.5,24.875,24.25,25.9375,26.0,26.25
0.11205381,-1.8721153,-3.3095984,-2.1362665,-0.05648858,0.029745353,-0.073142,-0.3765351,-0.32917032,0.059989758,-3.0784419,0.62473387,-0.00011235829,-0.054083318,-0.004906372,0.0021925955,0.005393787,0.0068298425,-0.0035009615,0.4467108,-1.4631389,2.0007231,-2.1066086,-1.5707964,2.421557,-0.034223393,0.09778468,-0.116343595,0.014749733,-0.008037902,-0.030628696,-0.15322891,0.38307226,-9.595961,0.7911258,47.67614,-0.7003211,-1.7547842,-3.4158614,-0.18496588,-0.069827124,-0.12506136,24.5,24.875,24.25,25.9375,26.0,26.25
0.114053994,-1.2215114,-3.4304104,-2.1277523,-0.061276704,0.033719834,-0.075640336,-0.37665358,-0.32915646,0.05997383,-3.0783713,0.62475735,-6.131706e-05,-0.05487072,-0.0048468765,0.0023630022,0.004626066,0.0063525173,-0.0029397288,0.44662613,-1.4629111,2.000508,-2.1066082,-1.5708679,2.4214962,-0.03563181,0.0987119,-0.11795726,0.015528325,-0.00714167,-0.032599013,-0.19153613,0.38307226,-9.749189,0.7665104,47.71465,-0.68252105,-1.6664636,-3.4810596,-0.1776906,-0.091762654,-0.10918304,24.5,24.875,24.25,25.9375,26.0,26.25
0.116054654,-1.4820746,-3.4640763,-2.1071012,-0.060699727,0.024365159,-0.074785836,-0.37676486,-0.32918236,0.059982546,-3.0783947,0.624763,-4.4827033e-05,-0.05590988,-0.0051230406,0.0016652874,0.0044094333,0.004739991,-0.0038040061,0.4465658,-1.4627062,2.0002563,-2.1065843,-1.5708555,2.4214365,-0.03663693,0.1024812,-0.1205922,0.01575155,-0.0062540486,-0.03273955,-0.15322891,0.45968673,-9.595961,0.7418897,47.66987,-0.61746716,-1.7698104,-3.418364,-0.17151038,-0.07942484,-0.117986724,24.5,24.875,24.25,25.9375,26.0,26.25
0.11805429,-1.7324989,-3.8006117,-2.116365,-0.04509225,0.025110235,-0.071056336,-0.37686926,-0.32919207,0.05999801,-3.0783942,0.62478226,-6.981497e-05,-0.057032146,-0.0058593065,0.0028938132,0.0026185405,0.007054853,-0.004082837,0.44648182,-1.4625268,2.0000036,-2.1065004,-1.5708436,2.4213648,-0.036666263,0.10211226,-0.12299617,0.015660983,-0.0056436583,-0.032489736,-0.11492168,0.4213795,-9.500193,0.7933669,47.65643,-0.6438818,-1.6358093,-3.364736,-0.17216095,-0.096559085,-0.12985787,24.5,24.875,24.25,25.9375,26.0,26.25
0.12005443,-1.4629799,-3.03698,-2.0727053,-0.052188188,0.03839933,-0.07546471,-0.37697113,-0.32921574,0.05997868,-3.0783827,0.62475973,-0.00010355517,-0.057221614,-0.0064903507,0.0006616229,0.0039026132,0.0030935714,-0.0039001955,0.4464342,-1.4622728,1.9997648,-2.106489,-1.5708436,2.4213047,-0.036017742,0.10866939,-0.12507081,0.015303873,-0.005097292,-0.032022394,-0.19153613,0.4405331,-9.500193,0.8179876,47.666286,-0.7533115,-1.8872962,-3.3986106,-0.1583719,-0.095267534,-0.16285348,24.5,24.875,24.25,25.9375,26.0,26.25
0.12205425,-1.3797386,-2.3635097,-1.7957861,-0.05186146,0.046078097,-0.07967122,-0.3771329,-0.32922056,0.06000375,-3.0784068,0.6248421,3.971381e-05,-0.05915066,-0.006586671,0.0027893318,0.0021885864,0.007395866,-0.005200868,0.4463136,-1.4620701,1.9994887,-2.1065123,-1.5708674,2.4212327,-0.037337195,0.10669202,-0.1278001,0.015389622,-0.0054106144,-0.03203993,-0.095768064,0.4213795,-9.442732,0.78888994,47.672558,-0.7951397,-1.7384515,-3.4308383,-0.14477943,-0.10888172,-0.17153329,24.5,24.875,24.25,25.9375,26.0,26.25
0.124054015,-1.7587364,-2.9700391,-1.9681563,-0.033309836,0.034454636,-0.076983556,-0.3772291,-0.3292368,0.06000955,-3.0783794,0.62489384,3.5165987e-05,-0.059782512,-0.006463629,0.0010870093,0.0036223028,0.0043093455,-0.005470407,0.44626528,-1.4618765,1.9992479,-2.1064527,-1.5708793,2.4212203,-0.038149547,0.111850336,-0.12964019,0.015473488,-0.0053757653,-0.032580912,-0.038307227,0.38307226,-9.3661175,0.7083204,47.664497,-0.6513394,-1.7817318,-3.5188994,-0.13450427,-0.09701603,-0.18296194,24.5,24.875,24.25,25.9375,26.0,26.25
0.12605423,-1.3464441,-2.3268552,-1.9441257,-0.039335422,0.03352871,-0.07255071,-0.37736118,-0.32925722,0.06001681,-3.0783951,0.62483937,7.574074e-05,-0.061221793,-0.0061027044,0.0019496806,0.0033783165,0.006104434,-0.0060673305,0.4461928,-1.4616373,1.9989613,-2.1064289,-1.5708917,2.421112,-0.03972421,0.1117535,-0.13161358,0.015819976,-0.005933018,-0.033556856,-0.05746084,0.30645782,-9.519346,0.7329411,47.703903,-0.6395019,-1.7183094,-3.3629634,-0.12937355,-0.10867207,-0.19621772,24.5,24.875,24.25,25.9375,26.0,26.25
0.12805398,-1.9638059,-2.5825937,-1.8311071,-0.02940373,0.0074384087,-0.064496346,-0.37749723,-0.32928628,0.06003992,-3.0784461,0.6248304,0.00011250245,-0.06298887,-0.006454878,0.0022958051,0.0035257793,0.007041758,-0.0063349716,0.4461086,-1.4614204,1.9986604,-2.1063926,-1.5708679,2.421016,-0.040271524,0.11454522,-0.13561326,0.016248172,-0.0064761206,-0.033833325,-0.17238252,0.3256114,-9.423578,0.83589023,47.698532,-0.6068646,-1.8197106,-3.347197,-0.105208345,-0.10335253,-0.20294896,24.5,24.875,24.25,25.9375,26.0,26.25
0.13005434,-1.3627571,-2.3195977,-1.7592224,-0.022470234,0.023407048,-0.07635946,-0.37762818,-0.32928735,0.060042556,-3.0783937,0.624934,0.0001724973,-0.0626094,-0.00691379,0.0015572383,0.00435807,0.005920277,-0.0044025755,0.44602516,-1.4611924,1.9983968,-2.1063688,-1.570916,2.421004,-0.03887736,0.11641735,-0.13598704,0.01611925,-0.006743588,-0.034370705,-0.15322891,0.24899697,-9.404425,0.86498255,47.684196,-0.70966184,-1.757282,-3.4043453,-0.1037127,-0.11315955,-0.22006977,24.5,24.875,24.25,25.9375,26.0,26.25
0.13205406,-1.2734984,-1.9707783,-1.5510696,-0.014552894,0.04043612,-0.08029667,-0.37775788,-0.32931116,0.060059108,-3.0784402,0.62488604,0.0002461552,-0.06397956,-0.0072154626,0.0018040205,0.004779293,0.006463948,-0.0044332906,0.44595304,-1.4609878,1.9981326,-2.1063683,-1.570916,2.4208963,-0.03911326,0.118867196,-0.13944377,0.01681901,-0.0073616267,-0.034573168,-0.1340753,0.28730422,-9.308657,0.7978386,47.672558,-0.822667,-1.7868218,-3.4035575,-0.0741465,-0.07025495,-0.21776137,24.5,24.875,24.25,25.9375,26.0,26.25
0.13405393,-0.95477533,-1.5196109,-1.525182,-0.01644505,0.05776897,-0.08480909,-0.37792575,-0.3293576,0.060104948,-3.0785286,0.62486565,0.00038412478,-0.065835826,-0.0073566423,0.0024115883,0.00435524,0.0074764835,-0.0049919025,0.44588047,-1.4607598,1.9977726,-2.1063564,-1.5709037,2.4208,-0.04045688,0.12086667,-0.14322919,0.017508376,-0.007417754,-0.03535671,-0.19153613,0.17238252,-9.3661175,0.9030289,47.72002,-0.715088,-1.7648776,-3.3433967,-0.07566003,-0.07176368,-0.24971548,24.5,24.875,24.25,25.9375,26.0,26.25
0.13605416,-2.048872,-2.0515594,-1.5617849,-0.001817383,0.03114922,-0.072091416,-0.37802905,-0.32936224,0.060084365,-3.0784419,0.62492293,0.00032379304,-0.064781785,-0.0067926613,0.00073131896,0.0060528093,0.0027301088,-0.0031225996,0.4458206,-1.4604948,1.9975098,-2.1062834,-1.5709399,2.420787,-0.0408975,0.123244345,-0.14247125,0.019382695,-0.006899397,-0.037667513,-0.19153613,0.24899697,-9.193734,0.82694155,47.694946,-0.7168237,-1.8957441,-3.321288,-0.06767525,-0.100856856,-0.23417002,24.5,24.875,24.25,25.9375,26.0,26.25
0.13805416,-1.8553715,-2.2757847,-1.2812865,-0.0060070236,0.034667846,-0.06923788,-0.3781869,-0.32937372,0.06010935,-3.078484,0.6249306,0.0004119132,-0.06542564,-0.007037701,-0.00052886293,0.0073184543,-0.0007715227,-0.0027553532,0.44570032,-1.460278,1.9972099,-2.106271,-1.5709399,2.4206665,-0.04124179,0.1285079,-0.14585157,0.02120222,-0.0065322844,-0.038377833,-0.21068975,0.17238252,-9.212888,0.7284641,47.711964,-0.7576833,-1.8651936,-3.286028,-0.06234411,-0.111692764,-0.24593444,24.5,24.875,24.25,25.9375,26.0,26.25
0.1400539,-1.4180626,-1.9655571,-1.1679928,-0.021330712,0.04337,-0.07964096,-0.3782971,-0.329384,0.06008757,-3.0784183,0.624956,0.00031796482,-0.065761656,-0.0072805905,0.0003480981,0.0068211155,0.0004975363,-0.0033723407,0.44562846,-1.4599907,1.9969229,-2.1061876,-1.5709518,2.420619,-0.041003812,0.12751223,-0.14696382,0.02195049,-0.0066346284,-0.03752196,-0.21068975,0.15322891,-9.155427,0.78888994,47.651955,-0.7814232,-1.8606166,-3.4004931,-0.06800024,-0.11158696,-0.27638158,24.5,24.875,24.25,25.9375,26.0,26.25
0.14205343,-1.7163352,-2.4440079,-1.307385,-0.016505752,0.03817979,-0.071949,-0.37844938,-0.32940143,0.06011745,-3.0784683,0.6250234,0.0003844943,-0.06659883,-0.007278088,0.00016979738,0.007448469,0.00018988122,-0.003504327,0.44550845,-1.4597863,1.9966224,-2.1061633,-1.570928,2.4205348,-0.041442182,0.12960956,-0.14901766,0.02245657,-0.007069026,-0.03782685,-0.3256114,0.22984336,-9.212888,0.8224646,47.66539,-0.83206713,-1.8073922,-3.4517336,-0.069757074,-0.11158933,-0.2950865,24.5,24.875,24.25,25.9375,26.0,26.25
0.14405352,-1.5464087,-2.150123,-1.0664673,-0.028550385,0.040764753,-0.07937414,-0.378576,-0.32942566,0.060115308,-3.0784352,0.6249584,0.00041405135,-0.06728084,-0.007673639,-0.00010942317,0.007733927,-0.00056877424,-0.002545096,0.44547227,-1.4595101,1.9963106,-2.106115,-1.5709761,2.4204626,-0.041346516,0.13221323,-0.15143771,0.023077888,-0.007004073,-0.038688857,-0.3256114,0.22984336,-9.11712,0.82022345,47.68599,-0.8397013,-1.6827996,-3.421401,-0.061599147,-0.07958424,-0.2955702,24.5,24.875,24.25,25.9375,26.0,26.25
0.14605361,-2.0428302,-2.1824489,-1.0890456,-0.021490086,0.032298796,-0.072041966,-0.378706,-0.3294431,0.060106397,-3.0784235,0.6250141,0.00041162566,-0.06840766,-0.008038177,-0.00040766623,0.0078679705,-0.0012327422,-0.0028429048,0.44538814,-1.4592454,1.996035,-2.1061027,-1.5709761,2.420415,-0.041764308,0.13546331,-0.1544944,0.023540264,-0.0068448544,-0.038806982,-0.34476504,0.24899697,-9.021352,0.8090337,47.672558,-0.83831143,-1.7000401,-3.3789148,-0.07011832,-0.1006637,-0.32379282,24.5,24.875,24.25,25.9375,26.0,26.25
0.1480536,-1.6761796,-1.9707314,-0.9564524,-0.017787186,0.035966236,-0.07693263,-0.3788495,-0.32945862,0.06011675,-3.0784264,0.62501323,0.0003835021,-0.068553045,-0.008131895,-0.0005997351,0.008048584,-0.0020517095,-0.001488976,0.44528016,-1.4589815,1.9956998,-2.1060188,-1.5709637,2.4203062,-0.041821755,0.13655092,-0.15544963,0.024223285,-0.0066566244,-0.04021809,-0.24899697,0.2681506,-8.983045,0.78888994,47.687782,-0.86201245,-1.7169209,-3.4404469,-0.054796804,-0.10562847,-0.33054006,24.5,24.875,24.25,25.9375,26.0,26.25
0.15005365,-1.5165253,-2.2630093,-1.0143107,-0.0053973245,0.028597021,-0.07310034,-0.37901023,-0.3294865,0.06013547,-3.0784347,0.6249964,0.0005176344,-0.069469035,-0.008426869,-0.00025831867,0.008411741,-0.0013921717,-0.002209774,0.44522035,-1.4587173,1.9953641,-2.1060183,-1.5710119,2.4202352,-0.041661296,0.13799453,-0.158023,0.024914548,-0.007269844,-0.039334983,-0.22984336,0.24899697,-9.078813,0.8224646,47.695843,-1.0157475,-1.7175413,-3.3889117,-0.05167745,-0.09464367,-0.35617042,24.5,24.875,24.25,25.9375,26.0,26.25
0.15205346,-1.3001672,-2.007216,-1.0194889,-0.012425366,0.02726603,-0.08707392,-0.3791214,-0.32950285,0.06010319,-3.0784082,0.62493366,0.00037538502,-0.070641704,-0.0076835854,-0.00025075368,0.009350386,-0.0013241959,-0.005283933,0.4451356,-1.4584056,1.9950761,-2.1059468,-1.5709885,2.4201148,-0.043482922,0.13926646,-0.15965219,0.02561872,-0.0081523005,-0.038079556,-0.19153613,0.2681506,-9.078813,0.7933669,47.684196,-0.8896502,-1.7077947,-3.547124,-0.042949587,-0.09322952,-0.4076509,24.5,24.875,24.25,25.9375,26.0,26.25
0.15405369,-0.8901864,-2.0009115,-1.1429776,-0.025114754,0.029314822,-0.07717117,-0.3792526,-0.32951453,0.060100455,-3.0783684,0.62494355,0.0003899341,-0.070810325,-0.007995333,-0.0012078694,0.010294486,-0.003311503,-0.002840975,0.4450638,-1.4581407,1.9947776,-2.1058981,-1.5710243,2.4200544,-0.043035854,0.14257956,-0.16128793,0.026138641,-0.008152247,-0.040074073,-0.11492168,0.30645782,-9.11712,0.8090337,47.695843,-0.9279972,-1.8219726,-3.427791,-0.046579733,-0.09976784,-0.41924697,24.5,24.875,24.25,25.9375,26.0,26.25
0.15605372,-1.918239,-2.5756984,-1.2797103,-0.024308354,0.009906426,-0.0666935,-0.37939543,-0.3295296,0.06010148,-3.0783374,0.62493527,0.00038486999,-0.0715341,-0.009168298,8.808835e-05,0.009533804,-0.0008729419,0.0004908485,0.44498035,-1.4578536,1.9944404,-2.1058261,-1.5710486,2.41997,-0.041230273,0.14247537,-0.16431606,0.026741372,-0.008522022,-0.041598085,-0.15322891,0.30645782,-9.040505,0.779936,47.65106,-1.0653267,-1.506232,-3.3617566,-0.032278758,-0.087990895,-0.42349112,24.5,24.875,24.25,25.9375,26.0,26.25
0.15805352,-1.4276994,-2.3471422,-1.5486827,-0.030067123,0.018564159,-0.07959843,-0.37953636,-0.32953233,0.060080606,-3.0782871,0.625002,0.00030974828,-0.07343516,-0.008545126,0.00073986343,0.009577349,0.0007392169,-0.00034697045,0.44485965,-1.4575421,1.9941291,-2.1057665,-1.5710491,2.4198976,-0.043564316,0.14327283,-0.16679065,0.026982902,-0.009263135,-0.043091215,-0.095768064,0.24899697,-9.155427,0.8090337,47.658226,-1.0667841,-1.5406445,-3.4414268,-0.0373861,-0.070976235,-0.44053498,24.5,24.875,24.25,25.9375,26.0,26.25
0.16005415,-1.1484196,-2.2288344,-1.5374128,-0.03941308,0.02558312,-0.08577049,-0.37968034,-0.32956722,0.060084764,-3.078301,0.6249076,0.00035930664,-0.07410378,-0.008979504,0.00034372823,0.010085414,-0.00025116326,0.0011541739,0.4448118,-1.4572532,1.9937934,-2.1057417,-1.5710729,2.4197893,-0.043312173,0.14626223,-0.16940896,0.027722467,-0.009298894,-0.044338673,-0.038307227,0.30645782,-9.212888,0.82694155,47.653748,-1.1081301,-1.5781553,-3.4354768,-0.043821834,-0.077098265,-0.44386423,24.5,24.875,24.25,25.9375,26.0,26.25
0.16205409,-1.0904655,-2.0053887,-1.6534727,-0.03223692,0.02330888,-0.07614461,-0.37984106,-0.32957974,0.06009029,-3.0782654,0.62497675,0.0003127078,-0.07506369,-0.008684583,0.000226603,0.009234033,-0.0012757379,0.0004218274,0.44469118,-1.4569412,1.99341,-2.105634,-1.5710725,2.4197166,-0.045493625,0.14772329,-0.17095095,0.0283559,-0.008093812,-0.045788553,0.019153614,0.30645782,-9.32781,0.8605109,47.65912,-1.0202234,-1.5943466,-3.3352835,-0.044400536,-0.078059986,-0.45516026,24.5,24.875,24.25,25.9375,26.0,26.25
0.16405402,-1.3177458,-1.796274,-1.8572388,-0.032405015,0.012376556,-0.07695846,-0.37999645,-0.32959428,0.06008035,-3.0782409,0.62493193,0.00030414105,-0.07582444,-0.009658911,0.0004157623,0.008721421,-0.0011690815,0.0035340379,0.44459534,-1.4566175,1.9930624,-2.1055858,-1.5710963,2.4195962,-0.044609606,0.14998591,-0.17406264,0.028883666,-0.007684361,-0.048015326,-0.038307227,0.34476504,-9.3661175,0.78217715,47.678825,-1.1079865,-1.4427029,-3.4033697,-0.026524484,-0.08117923,-0.44329238,24.5,24.875,24.25,25.9375,26.0,26.25
0.1660539,-1.3879306,-2.166226,-1.9252188,-0.036779623,0.020886822,-0.078415744,-0.38013405,-0.3296173,0.06007691,-3.0782323,0.6248887,0.00029865536,-0.076651715,-0.009604855,0.00067311927,0.00890934,-0.000711147,0.0057491525,0.44452325,-1.4563295,1.9927396,-2.1055381,-1.5711082,2.4194984,-0.045177914,0.15087052,-0.17579189,0.029394358,-0.008054994,-0.05079713,-0.038307227,0.38307226,-9.519346,0.8806493,47.682407,-1.1297339,-1.5856493,-3.5143504,-0.053365387,-0.07981129,-0.44935042,24.5,24.875,24.25,25.9375,26.0,26.25
0.16805378,-1.7610512,-2.423749,-1.966087,-0.040628687,0.016534148,-0.071733564,-0.38027573,-0.32961202,0.06006107,-3.0781643,0.6248745,0.00021340098,-0.07728036,-0.009292457,-0.0011563337,0.010153521,-0.004759175,0.006831579,0.44440264,-1.456016,1.9924029,-2.10543,-1.5711316,2.4193778,-0.04670046,0.15623695,-0.17779708,0.030216997,-0.0074460106,-0.053400803,0.019153614,0.28730422,-9.557653,0.88960326,47.672558,-1.1220243,-1.7039192,-3.5097978,-0.056924053,-0.08492839,-0.43695056,24.5,24.875,24.25,25.9375,26.0,26.25
0.17005347,-1.6050239,-2.8881404,-2.232373,-0.045746297,0.019990828,-0.07704061,-0.380451,-0.32962036,0.06006701,-3.0781302,0.6248851,0.0002730495,-0.07842877,-0.0093248,-0.001074436,0.010076345,-0.0050223996,0.009141908,0.4442943,-1.4557041,1.9920319,-2.1053822,-1.5711802,2.4192808,-0.047752235,0.15824953,-0.18046123,0.031066922,-0.007268174,-0.05676179,-0.019153614,0.3256114,-9.634268,0.82694155,47.67793,-1.0577042,-1.7226353,-3.5085626,-0.062332667,-0.081951804,-0.40668228,24.5,24.875,24.25,25.9375,26.0,26.25
0.17205432,-1.4428192,-3.1521442,-2.095095,-0.052628096,0.030909985,-0.0763546,-0.38058338,-0.32965365,0.06006434,-3.0781274,0.62488246,0.00020245594,-0.0785832,-0.008819136,-0.0028068332,0.012654603,-0.008489373,0.01173591,0.4442222,-1.4554031,1.9916843,-2.1052978,-1.5711564,2.4192076,-0.048246294,0.16268548,-0.18170977,0.032120034,-0.008110272,-0.05984704,-0.05746084,0.30645782,-9.595961,0.8717007,47.728977,-1.0488272,-1.7971661,-3.580348,-0.06454946,-0.069247186,-0.36714363,24.5,24.875,24.25,25.9375,26.0,26.25
0.17405346,-1.5074635,-2.9231613,-2.070954,-0.046982944,0.02993524,-0.0765713,-0.38077235,-0.329675,0.06008378,-3.0781252,0.6248042,0.00029030908,-0.07977798,-0.008697321,-0.0029941874,0.01375278,-0.00860902,0.013963141,0.44412595,-1.455079,1.9912657,-2.1052372,-1.571205,2.419063,-0.04887493,0.16534266,-0.18443085,0.032761734,-0.009054869,-0.06269984,-0.019153614,0.30645782,-9.576807,0.800085,47.70838,-1.042326,-1.8759134,-3.5058844,-0.079690024,-0.08411977,-0.33499736,24.5,24.875,24.25,25.9375,26.0,26.25
0.17605343,-1.1573989,-1.993452,-2.1121438,-0.0425243,0.040158104,-0.083316885,-0.38091758,-0.32970598,0.060078513,-3.078156,0.6247315,0.00022576774,-0.08189606,-0.009394617,-0.0018348659,0.012371577,-0.0063034324,0.015728805,0.44402963,-1.4547669,1.9909171,-2.1051776,-1.5711683,2.4189177,-0.049599253,0.16691245,-0.18894097,0.033025753,-0.008810592,-0.06518741,-0.13407528,0.2681506,-9.557653,0.77545905,47.693153,-1.0895873,-1.9195985,-3.4917183,-0.06707311,-0.07727854,-0.28887933,24.5,24.875,24.25,25.9375,26.0,26.25
0.17805333,-1.8821818,-1.8858051,-2.0351083,-0.030944647,0.022665024,-0.07593606,-0.38108632,-0.3297027,0.06005273,-3.0780854,0.6247163,0.00016782159,-0.08246372,-0.009094157,-0.0021709604,0.012731113,-0.006851396,0.01741974,0.44389752,-1.4543949,1.9905461,-2.1051056,-1.5712045,2.4187853,-0.050561752,0.16827902,-0.18977661,0.03313924,-0.008908688,-0.06783949,-0.15322891,0.21068975,-9.634268,0.83589023,47.692257,-1.0656435,-1.8516699,-3.551529,-0.08339515,-0.04976514,-0.25555447,24.5,24.875,24.25,25.9375,26.0,26.25
0.18005419,-2.023102,-2.2809343,-2.0749228,-0.027976908,0.028307252,-0.07907771,-0.3812688,-0.3297341,0.06006892,-3.0781133,0.624644,0.00022388092,-0.0827817,-0.009392407,-0.00223033,0.012652324,-0.007929507,0.018395051,0.4438014,-1.4540713,1.9901379,-2.1050575,-1.5712165,2.4186409,-0.05061549,0.16979523,-0.19168238,0.034464434,-0.008374679,-0.06886896,-0.21068975,0.2681506,-9.595961,0.8627467,47.687782,-1.1226735,-1.7673347,-3.5244985,-0.10823343,-0.044751555,-0.21956174,24.5,24.875,24.25,25.9375,26.0,26.25
0.182054,-1.3665925,-2.160446,-1.9198279,-0.03823185,0.046191316,-0.08166125,-0.38140383,-0.32974273,0.06005499,-3.0780625,0.6245178,0.00019022064,-0.082806244,-0.0094963815,-0.002014206,0.0119201075,-0.009472069,0.018609434,0.44372913,-1.4537596,1.9898037,-2.1049726,-1.5712641,2.4184966,-0.05130122,0.17007013,-0.19302039,0.036597118,-0.007054685,-0.06977087,-0.28730422,0.34476504,-9.500193,0.83365434,47.67614,-1.1393346,-1.818008,-3.5822458,-0.14547876,-0.07229244,-0.17921697,24.5,24.875,24.25,25.9375,26.0,26.25
0.18405367,-2.6123805,-2.9891553,-2.039088,-0.03658408,0.029682502,-0.06285501,-0.3815941,-0.32977796,0.060070388,-3.0780718,0.6245008,0.00013550714,-0.084346205,-0.009949805,-0.0016295771,0.010686755,-0.009286361,0.017229086,0.4436088,-1.4533874,1.989324,-2.104841,-1.5712394,2.4183648,-0.052473564,0.17229888,-0.19658917,0.037237465,-0.006029851,-0.069562554,-0.30645782,0.3256114,-9.634268,0.8403672,47.717335,-1.122364,-1.8231142,-3.6567152,-0.16166353,-0.08830305,-0.15536158,24.5,24.875,24.25,25.9375,26.0,26.25
0.18605416,-2.5571108,-3.214972,-1.834684,-0.051037274,0.04317141,-0.069731906,-0.38175616,-0.32980818,0.060069147,-3.0781102,0.62443227,0.0001528191,-0.084698915,-0.01015608,-0.0024351683,0.011297906,-0.010365608,0.015341069,0.44351295,-1.453075,1.9889764,-2.104829,-1.5712274,2.4182215,-0.052313488,0.17501634,-0.19775078,0.036920756,-0.0061208005,-0.06751337,-0.28730422,0.30645782,-9.5385,0.8717007,47.707485,-1.1465861,-1.8304511,-3.6992846,-0.15945028,-0.11917432,-0.1549049,24.5,24.875,24.25,25.9375,26.0,26.25
0.18805395,-2.8794615,-3.0920565,-1.5821229,-0.046237957,0.050824087,-0.06514518,-0.3819228,-0.32982925,0.06005791,-3.0780718,0.6243304,0.00012572028,-0.0853743,-0.009677792,-0.0020041238,0.012028919,-0.010246974,0.012022805,0.44342852,-1.4527036,1.9885691,-2.1047447,-1.5712641,2.4180787,-0.053292837,0.17515473,-0.19932859,0.03856801,-0.0068351068,-0.065172434,-0.4213795,0.2681506,-9.404425,0.8403672,47.690468,-1.1446837,-1.7364774,-3.60154,-0.1829648,-0.09580584,-0.16013125,24.5,24.875,24.25,25.9375,26.0,26.25
0.19005346,-2.2596927,-2.084477,-1.5764797,-0.030223912,0.059052046,-0.08297384,-0.3820645,-0.32985166,0.060058374,-3.0780838,0.62427545,3.106097e-05,-0.08703924,-0.00974238,-0.0012175123,0.011412033,-0.008586286,0.010618794,0.44332013,-1.4524039,1.9882096,-2.1046374,-1.5712279,2.4179347,-0.054506697,0.17609937,-0.20228991,0.038822345,-0.007000536,-0.064979985,-0.40222588,0.21068975,-9.251195,0.8291774,47.704796,-1.154527,-1.6825023,-3.5818396,-0.19979733,-0.09762441,-0.1621179,24.5,24.875,24.25,25.9375,26.0,26.25
0.19205362,-2.3126082,-1.736941,-1.5171275,-0.0023744602,0.043024253,-0.06573816,-0.38227943,-0.32988322,0.060073953,-3.0780911,0.62427914,0.00013862854,-0.08819822,-0.010193781,-0.0007816954,0.010292849,-0.008420098,0.0057247994,0.44321182,-1.4520317,1.9877537,-2.104613,-1.5712637,2.417828,-0.055282988,0.17765294,-0.20526165,0.03960701,-0.00606107,-0.0608629,-0.36391866,0.1340753,-9.270349,0.84484416,47.709274,-1.0806015,-1.6408644,-3.5491533,-0.2190905,-0.10837452,-0.16890162,24.5,24.875,24.25,25.9375,26.0,26.25
0.19405353,-1.9504682,-1.3505254,-1.270609,0.0132388715,0.032045566,-0.08195833,-0.38246927,-0.32990065,0.060070682,-3.0780585,0.6243131,0.00014620739,-0.09015959,-0.010996139,0.0007442571,0.008644779,-0.0053842175,0.0015102972,0.44309175,-1.4516605,1.9873337,-2.104553,-1.5712875,2.4177337,-0.05561227,0.1781893,-0.20946625,0.039826114,-0.005882664,-0.056975696,-0.4213795,0.17238252,-9.212888,0.7620334,47.692257,-1.1268541,-1.4504424,-3.4628763,-0.22166184,-0.11558074,-0.23969564,24.5,24.875,24.25,25.9375,26.0,26.25
0.19605362,-1.3105913,-0.9880088,-1.5034736,0.015794216,0.035547633,-0.0874738,-0.3826055,-0.32990712,0.060054027,-3.0779998,0.6242059,7.5656426e-05,-0.09171721,-0.010889952,0.000560575,0.00885863,-0.003947177,-0.0012347737,0.4430074,-1.4513364,1.986986,-2.1044462,-1.5713242,2.4175901,-0.056612987,0.18041958,-0.2111998,0.038124535,-0.0067040506,-0.055227574,-0.40222588,0.095768064,-9.212888,0.7911258,47.67345,-1.0964296,-1.4341077,-3.4420452,-0.21770854,-0.1307864,-0.281019,24.5,24.875,24.25,25.9375,26.0,26.25
0.19805409,-1.6104975,-1.1748338,-1.576918,0.0123157315,0.023072684,-0.082450576,-0.38285026,-0.32993323,0.060072344,-3.0779989,0.62431973,0.00011833347,-0.09312556,-0.010836923,0.0008673081,0.00883138,-0.0026598878,-0.00033872653,0.44283912,-1.4509169,1.9864596,-2.1043742,-1.5713242,2.4174933,-0.05754748,0.18179384,-0.21343526,0.037810434,-0.0072367936,-0.05705591,-0.28730422,0.1340753,-9.308657,0.8493211,47.686886,-1.1654031,-1.4246976,-3.4934454,-0.21816716,-0.12873429,-0.27772793,24.5,24.875,24.25,25.9375,26.0,26.25
0.200054,-1.8839113,-1.7607315,-1.4974028,-0.0019140183,0.026537333,-0.071724966,-0.383033,-0.32996422,0.060092375,-3.0780382,0.6243296,0.0001388321,-0.094106264,-0.010611643,0.0011043582,0.009864865,-0.0037021718,-0.0029519424,0.44271895,-1.4506047,1.9860514,-2.1043131,-1.5713004,2.4173746,-0.058467828,0.18375488,-0.21687262,0.04067491,-0.007722947,-0.055360965,-0.19153613,0.076614454,-9.289502,0.7777002,47.694054,-1.0735935,-1.4197518,-3.4068532,-0.24824876,-0.11034885,-0.30546516,24.5,24.875,24.25,25.9375,26.0,26.25
0.20205376,-2.1117628,-1.7170829,-1.4756961,-0.024746276,0.029644247,-0.08636232,-0.3831872,-0.32996422,0.060053796,-3.0779204,0.62426716,2.6523707e-05,-0.094990835,-0.010576496,0.0001762932,0.01100057,-0.006586778,-0.004079179,0.44262248,-1.450196,1.9856561,-2.1041925,-1.5713605,2.4172544,-0.059416078,0.18821482,-0.22025779,0.042688616,-0.0075244056,-0.055179425,-0.3256114,0.076614454,-9.308656,0.8314132,47.71286,-1.118096,-1.5261159,-3.32866,-0.27951026,-0.11090754,-0.32853293,24.5,24.875,24.25,25.9375,26.0,26.25
0.20405349,-2.2564445,-2.3129816,-1.6801145,-0.015415685,0.028858328,-0.0718223,-0.38337827,-0.3299927,0.0600737,-3.077935,0.6243265,1.6814547e-05,-0.09635481,-0.010776429,-0.0008051099,0.012497225,-0.008339326,-0.002583867,0.4424905,-1.4498588,1.9852122,-2.1040967,-1.5713366,2.417158,-0.05980289,0.1935898,-0.22426979,0.04355139,-0.0081350235,-0.057057634,-0.34476504,0.13407528,-9.3661175,0.8537928,47.66987,-1.0214441,-1.6997774,-3.3567646,-0.33264118,-0.10195002,-0.32225835,24.5,24.875,24.25,25.9375,26.0,26.25
0.20605335,-1.6704574,-2.1307054,-1.7086217,-0.030081062,0.053496294,-0.087829866,-0.38356352,-0.33000058,0.060062125,-3.0778625,0.62437,-5.230832e-05,-0.09820006,-0.009723969,-0.0010268716,0.013157929,-0.0074723093,-0.0041540083,0.4423575,-1.4494629,1.9847692,-2.103977,-1.571361,2.4170616,-0.06268167,0.19540073,-0.22564343,0.042613477,-0.009115115,-0.05836247,-0.22984336,0.17238252,-9.423578,0.83365434,47.677036,-1.0253335,-1.5975398,-3.3580616,-0.32673246,-0.11064565,-0.3183734,24.5,24.875,24.25,25.9375,26.0,26.25
0.20805366,-2.2398977,-2.4234936,-1.6762633,-0.0522478,0.049478997,-0.08032548,-0.38376036,-0.3300254,0.060056526,-3.0778584,0.62431157,-5.7663055e-05,-0.09817229,-0.009911605,-0.0014058306,0.01222154,-0.0075089247,-0.0043085413,0.4422372,-1.4490674,1.9843267,-2.1039178,-1.5713724,2.4169056,-0.062835015,0.19573411,-0.22489083,0.041155074,-0.008257103,-0.058363162,-0.3256114,0.24899697,-9.423578,0.79560274,47.691364,-0.96254826,-1.6157931,-3.4516704,-0.3357408,-0.10759197,-0.33069253,24.5,24.875,24.25,25.9375,26.0,26.25
0.21005364,-2.4493213,-3.27769,-1.6521952,-0.05650026,0.049291864,-0.067299,-0.38394925,-0.33004013,0.06004136,-3.0778031,0.624357,-0.00012320696,-0.09870644,-0.010488817,-0.0010204101,0.011738455,-0.0061521977,-0.0036066796,0.44210568,-1.4486599,1.9838842,-2.1038225,-1.5713843,2.4168098,-0.062091883,0.19619673,-0.22624211,0.040609673,-0.008410193,-0.05832026,-0.28730422,0.28730422,-9.404425,0.83589023,47.692257,-1.0568187,-1.566344,-3.584505,-0.3577691,-0.13447635,-0.3419819,24.5,24.875,24.25,25.9375,26.0,26.25
0.21205327,-2.6507893,-3.4397957,-1.8969254,-0.060087755,0.04456476,-0.06902558,-0.3841492,-0.33007,0.060062073,-3.0777783,0.62433255,-9.031612e-05,-0.099836506,-0.00946541,-0.0016171302,0.012697843,-0.0060538906,-0.005194758,0.44200894,-1.4482877,1.9833935,-2.1037033,-1.571421,2.4167013,-0.06432983,0.197772,-0.22647262,0.03958632,-0.009323844,-0.05896764,-0.3256114,0.38307226,-9.519346,0.8247004,47.682407,-1.014376,-1.6445394,-3.7069945,-0.347973,-0.11739848,-0.37749672,24.5,24.875,24.25,25.9375,26.0,26.25
0.21405405,-2.303585,-3.115435,-1.6678078,-0.073173515,0.04601773,-0.07751837,-0.38438347,-0.33008605,0.060083322,-3.0777738,0.6243124,1.4052469e-05,-0.101740025,-0.008669806,-0.0019482269,0.012521753,-0.0056521506,-0.0063423486,0.4418639,-1.4479038,1.9829019,-2.1036437,-1.5714687,2.4165447,-0.06740751,0.20006613,-0.22810017,0.038475525,-0.009342564,-0.06089675,-0.34476504,0.49799395,-9.500193,0.99031126,47.679718,-0.8471673,-1.6213945,-3.6594336,-0.34910536,-0.10233139,-0.36281252,24.5,24.875,24.25,25.9375,26.0,26.25
0.21605417,-2.2575893,-3.3755317,-1.750834,-0.05872339,0.03135223,-0.07396251,-0.38456815,-0.33010992,0.060065363,-3.0777507,0.62428737,-4.712963e-05,-0.10210602,-0.010495334,-0.0019371337,0.011117042,-0.004463441,-0.0052341647,0.44174495,-1.4474962,1.9824709,-2.1035726,-1.5714682,2.4164133,-0.06481234,0.20226674,-0.2302804,0.036777668,-0.008592547,-0.05940916,-0.28730422,0.45968673,-9.442732,0.800085,47.64658,-0.94329894,-1.5797215,-3.772589,-0.3210032,-0.094995186,-0.39283568,24.5,24.875,24.25,25.9375,26.0,26.25
0.21805456,-1.7324893,-2.6168036,-1.5856892,-0.063363336,0.039138053,-0.08352242,-0.3847757,-0.33012384,0.060075752,-3.077721,0.62447304,-3.30798e-05,-0.10504503,-0.01058985,-0.001430026,0.0097311,-0.0015299324,-0.005128145,0.44158807,-1.4471357,1.9820274,-2.1035016,-1.5714682,2.4163764,-0.06715595,0.2049444,-0.23400758,0.034579337,-0.008608714,-0.061855987,-0.38307226,0.4405331,-9.423578,0.8179876,47.651955,-0.93821543,-1.5845706,-3.6765428,-0.30941707,-0.115604535,-0.38800493,24.5,24.875,24.25,25.9375,26.0,26.25
0.22005329,-2.2506912,-2.8121552,-1.8102756,-0.04261165,0.026801085,-0.07183662,-0.38499993,-0.33014148,0.060045164,-3.0777194,0.62443167,-0.00011895283,-0.106978394,-0.010844812,-0.0013325473,0.009128057,-5.969222e-05,-0.00067914545,0.44140762,-1.4466558,1.9815491,-2.1034539,-1.5714444,2.4161706,-0.06825507,0.20762844,-0.23705095,0.0333472,-0.008709243,-0.06740126,-0.38307226,0.3256114,-9.3661175,0.8023209,47.68599,-0.80956614,-1.620685,-3.7254777,-0.28324842,-0.11136767,-0.35568902,24.5,24.875,24.25,25.9375,26.0,26.25
0.22205423,-2.313754,-2.7677977,-1.8750648,-0.027135655,0.028970448,-0.07396251,-0.3852212,-0.3301645,0.06005468,-3.0776765,0.62438333,-9.7804295e-06,-0.10846949,-0.011465368,-0.0012558532,0.007837059,0.00040887142,-0.0002370207,0.44131124,-1.4462478,1.981057,-2.1033943,-1.5715283,2.41605,-0.069008216,0.21026829,-0.24014346,0.032813743,-0.0077495244,-0.0685968,-0.2681506,0.34476504,-9.404425,0.96569055,47.70032,-0.79818195,-1.563703,-3.6291776,-0.25686318,-0.12148384,-0.32847622,24.5,24.875,24.25,25.9375,26.0,26.25
0.22405398,-1.866938,-2.1680567,-1.6267921,-0.03506001,0.04333768,-0.08046545,-0.3854399,-0.33021653,0.060074966,-3.0777454,0.62433875,1.5328129e-05,-0.11054875,-0.012152118,0.0007257814,0.0055721416,0.004673705,0.0010062894,0.44119114,-1.4458524,1.980554,-2.1033347,-1.5714921,2.4158936,-0.06965537,0.20943102,-0.24372856,0.03241161,-0.007529649,-0.07048636,-0.2681506,0.30645782,-9.346964,0.9164598,47.716442,-0.8087257,-1.5803955,-3.6880312,-0.25094736,-0.12528196,-0.33277363,24.5,24.875,24.25,25.9375,26.0,26.25
0.22605418,-2.0750606,-1.8372297,-1.5417103,-0.038020484,0.043303587,-0.07403306,-0.38562524,-0.33021766,0.06003444,-3.0776546,0.6242607,-4.7322537e-05,-0.11338425,-0.012128585,0.0016609592,0.0049305162,0.007651424,0.0028646544,0.4410706,-1.4454089,1.9801334,-2.1032631,-1.5715526,2.4157362,-0.07166564,0.21147843,-0.24810776,0.03177041,-0.008240983,-0.07435001,-0.3256114,0.30645782,-9.251195,0.82694155,47.71554,-0.77211714,-1.5325581,-3.4318538,-0.22862071,-0.14139602,-0.29405135,24.5,24.875,24.25,25.9375,26.0,26.25
0.22805384,-1.9679649,-2.454395,-1.8008393,-0.0014797641,0.045404114,-0.075395845,-0.3858959,-0.33024222,0.060050264,-3.0776753,0.62437844,4.1477168e-05,-0.11499554,-0.01282437,0.0022855143,0.0043666265,0.009560587,0.0065458445,0.44087854,-1.4449651,1.9795941,-2.1032393,-1.5715526,2.4156153,-0.07151474,0.21340068,-0.2517168,0.03148616,-0.008550406,-0.07787807,-0.3256114,0.34476504,-9.308657,0.76874626,47.68062,-0.64861435,-1.5188627,-3.2981415,-0.19967353,-0.1242246,-0.25373575,24.5,24.875,24.25,25.9375,26.0,26.25
0.23005359,-1.9435905,-1.8465405,-1.8206723,-0.013046,0.051016573,-0.07363111,-0.38610843,-0.3302717,0.060042895,-3.07767,0.6242975,-6.008795e-06,-0.115323156,-0.013266909,0.0022770474,0.0037090867,0.008987496,0.009946303,0.4407466,-1.4445211,1.979091,-2.1031435,-1.5715526,2.415434,-0.071480855,0.21460052,-0.25326717,0.032067146,-0.00771775,-0.0812455,-0.34476504,0.36391866,-9.442732,0.80456203,47.645687,-0.7608943,-1.4585915,-3.4215808,-0.16576748,-0.11722258,-0.2066837,24.5,24.875,24.25,25.9375,26.0,26.25
0.23205344,-2.4146752,-2.3587294,-1.796592,-0.027110709,0.056859843,-0.071649134,-0.38634005,-0.33029658,0.060056098,-3.0776966,0.62424445,2.3478453e-05,-0.11721901,-0.012310852,0.002318673,0.004157672,0.0088996785,0.009502506,0.4405896,-1.4441134,1.978587,-2.1030715,-1.5715526,2.4152408,-0.07459022,0.21664548,-0.25594488,0.03296828,-0.008088687,-0.083909065,-0.34476504,0.22984336,-9.423578,0.8873621,47.670765,-0.74275017,-1.3997906,-3.487547,-0.174551,-0.13910243,-0.14863136,24.5,24.875,24.25,25.9375,26.0,26.25
0.23405342,-2.1358106,-2.4823294,-1.8361375,-0.03230236,0.06865257,-0.07609658,-0.38658294,-0.33032975,0.060055885,-3.0777016,0.6242065,4.6524317e-05,-0.11652118,-0.012500461,0.0013198406,0.0057215285,0.0072289095,0.012082384,0.440446,-1.443646,1.9780492,-2.1030114,-1.5715646,2.4150732,-0.07310511,0.21841994,-0.25580743,0.03323387,-0.00878915,-0.08500247,-0.3256114,0.19153613,-9.481039,0.8560339,47.72002,-0.61399627,-1.381464,-3.466022,-0.15390952,-0.13028002,-0.09174489,24.5,24.875,24.25,25.9375,26.0,26.25
0.23605408,-2.577041,-2.6882596,-1.8788483,-0.03252069,0.055164147,-0.068116814,-0.3868051,-0.33034858,0.0600419,-3.0776827,0.6241639,4.9586855e-05,-0.11639262,-0.012553856,-0.00067888136,0.007264551,0.0034468826,0.010515869,0.44030216,-1.443201,1.9775704,-2.1029632,-1.5715884,2.4149055,-0.07297937,0.2232192,-0.2567722,0.033476155,-0.00857404,-0.08330954,-0.34476504,0.1340753,-9.5385,0.88289046,47.651955,-0.7785213,-1.5725029,-3.574559,-0.137716,-0.14579749,-0.09029398,24.5,24.875,24.25,25.9375,26.0,26.25
0.23805352,-2.0782673,-2.3290749,-1.6575742,-0.0351999,0.06294147,-0.071933456,-0.38704428,-0.3303858,0.06005767,-3.0777118,0.62407535,0.000102620405,-0.116792575,-0.012107582,-0.0019112192,0.009161163,0.00045263144,0.0074975444,0.4401698,-1.4427683,1.9770321,-2.1028912,-1.5716008,2.4147146,-0.0738023,0.22699507,-0.25865594,0.035102855,-0.009010066,-0.08111246,-0.21068975,0.076614454,-9.32781,0.9030289,47.686886,-0.68896055,-1.6554905,-3.687572,-0.11655067,-0.14504778,-0.08336856,24.5,24.875,24.25,25.9375,26.0,26.25
0.24005333,-1.877147,-2.182836,-1.7953337,-0.0013734616,0.032639552,-0.07252159,-0.3872811,-0.33039853,0.06004736,-3.0776784,0.6241077,0.00010682587,-0.11799088,-0.012809092,-0.0019038228,0.009455566,0.0013341035,0.005272802,0.4400022,-1.4423124,1.9765295,-2.1028311,-1.5716246,2.4145718,-0.07306294,0.22983092,-0.26189908,0.034840252,-0.00965909,-0.078144774,-0.15322891,0.11492168,-9.32781,0.8157518,47.684196,-0.7970866,-1.8275557,-3.6833634,-0.09219413,-0.13966449,-0.092408806,24.5,24.875,24.25,25.9375,26.0,26.25
0.2420541,-1.0184765,-1.470121,-1.7678405,0.0023403494,0.024908403,-0.07131019,-0.38752574,-0.33040383,0.060028527,-3.0776122,0.6241524,8.116925e-05,-0.11967977,-0.013876258,-0.00034436714,0.00811003,0.0036708906,0.0028861598,0.4398224,-1.4418209,1.9760011,-2.1027477,-1.5716609,2.4144287,-0.072642595,0.23068729,-0.26686135,0.03625676,-0.00944604,-0.07533557,-0.15322891,0.1340753,-9.346964,0.87393653,47.650166,-0.7885911,-1.7653664,-3.6906347,-0.06942799,-0.1535291,-0.116300955,24.5,24.875,24.25,25.9375,26.0,26.25
0.24405372,-0.9728204,-1.8895448,-1.6832416,0.0055732494,0.0016836744,-0.07605177,-0.38775253,-0.3304485,0.060028523,-3.0776167,0.62411547,0.000103533705,-0.12003547,-0.014303237,-0.001317307,0.009147273,0.0012766959,0.0004229672,0.43971458,-1.4413643,1.9754738,-2.1026866,-1.5716728,2.4142976,-0.07216762,0.2346991,-0.26953846,0.03753122,-0.009365427,-0.072396114,-0.17238252,0.2681506,-9.136273,0.8985519,47.686886,-0.8958227,-1.7382371,-3.559845,-0.067165054,-0.13905206,-0.13404995,24.5,24.875,24.25,25.9375,26.0,26.25
0.24605396,-0.8555019,-1.9845587,-1.6542504,-0.007362314,-0.007262815,-0.063114986,-0.38797995,-0.33046475,0.060010888,-3.077582,0.62410945,0.00012305198,-0.12214991,-0.014766461,0.00012075874,0.008851643,0.005392346,-0.0018046971,0.4395705,-1.4409089,1.9749936,-2.102651,-1.5717095,2.4141545,-0.072109915,0.23520744,-0.2733871,0.03702549,-0.010858265,-0.07010528,-0.114921674,0.45968673,-9.193734,0.8627467,47.713753,-0.9533486,-1.827724,-3.4874957,-0.03854367,-0.12215078,-0.17416807,24.5,24.875,24.25,25.9375,26.0,26.25
0.2480539,-0.5910218,-2.7517614,-1.9415157,-0.03354272,0.0050589247,-0.06879513,-0.38823265,-0.33049348,0.06002507,-3.077541,0.6240636,0.00011061444,-0.12207717,-0.015057706,0.0008488691,0.008371113,0.0060476665,-0.0031457886,0.4394268,-1.4404184,1.9743708,-2.102483,-1.5717453,2.4139879,-0.07154746,0.23405536,-0.27410954,0.03810028,-0.010702165,-0.068202,-0.11492168,0.51714754,-9.270349,0.89631605,47.658226,-0.9867058,-1.6275792,-3.380569,-0.0053852615,-0.11826731,-0.19360271,24.5,24.875,24.25,25.9375,26.0,26.25
0.25005373,-1.4240472,-3.6569974,-1.8214704,-0.06963654,-0.0014726031,-0.06388045,-0.3884881,-0.33049905,0.060008228,-3.0774767,0.6241466,0.00013589078,-0.123528406,-0.015057823,0.0020618914,0.008665906,0.00613616,-0.0054374994,0.4392465,-1.4399266,1.9738444,-2.1024334,-1.5717934,2.413868,-0.07253402,0.23507239,-0.27904058,0.042057216,-0.011007789,-0.066894345,-0.095768064,0.6703765,-9.251195,0.8940802,47.684196,-0.9756532,-1.6360106,-3.505798,-0.04364949,-0.13460448,-0.22788844,24.5,24.875,24.25,25.9375,26.0,26.25
0.25205418,-1.4366478,-4.5033264,-1.7290577,-0.08749545,0.0214518,-0.06664765,-0.38872576,-0.33055276,0.060001235,-3.0774705,0.6241062,0.00010298556,-0.12366713,-0.015191054,0.0011266207,0.009823059,0.0028613892,-0.0054530073,0.4391384,-1.4394108,1.9732574,-2.1023371,-1.5717934,2.4137359,-0.07257988,0.23865841,-0.28161207,0.044496376,-0.010664348,-0.066924095,-0.038307227,0.6512228,-9.3661175,0.8403672,47.684196,-1.02285,-1.573547,-3.4231868,-0.054399867,-0.13015644,-0.26464516,24.5,24.875,24.25,25.9375,26.0,26.25
0.25405416,-1.2295638,-4.0697303,-2.0496626,-0.08803593,0.03135245,-0.07536005,-0.38895023,-0.3305872,0.060002323,-3.0774615,0.62400806,3.920182e-05,-0.12409307,-0.0150031615,0.0005444583,0.010143148,0.0010827355,-0.0056249592,0.43900624,-1.4389429,1.9726948,-2.102193,-1.571793,2.413544,-0.07353759,0.24079378,-0.28302544,0.04551655,-0.010203045,-0.06770979,0.05746084,0.6703765,-9.346964,0.86498255,47.66271,-0.97629666,-1.6838856,-3.4176946,-0.047929004,-0.12317054,-0.25391307,24.5,24.875,24.25,25.9375,26.0,26.25
0.25605413,-1.8146195,-3.7648828,-1.8228612,-0.07924409,0.023725813,-0.07916836,-0.38920793,-0.33060023,0.059999753,-3.0773904,0.62416756,8.318002e-05,-0.12512384,-0.015666498,0.0013916234,0.008612974,0.0027220214,-0.007988554,0.43883812,-1.4384636,1.972144,-2.1021216,-1.5718411,2.4134848,-0.07359214,0.24107169,-0.2853716,0.04544632,-0.009518163,-0.06540129,0.019153614,0.63206923,-9.346964,0.85155696,47.6636,-0.98642117,-1.5599545,-3.5095265,-0.03507623,-0.12512356,-0.30446076,24.5,24.875,24.25,25.9375,26.0,26.25
0.2580542,-1.7747624,-3.3783655,-1.710204,-0.055677157,0.030103194,-0.0693832,-0.38944435,-0.33063796,0.05997292,-3.0773761,0.62414515,8.2612305e-06,-0.12520164,-0.015167305,0.00074518734,0.00921766,0.0014218782,-0.009418715,0.43869403,-1.4379362,1.9715942,-2.10205,-1.5718287,2.413329,-0.074510366,0.24212699,-0.28526783,0.04572135,-0.009515494,-0.06488912,0.038307227,0.51714754,-9.251195,0.91198283,47.691364,-1.0267262,-1.5418189,-3.6144695,-0.029866142,-0.12834458,-0.36096263,24.5,24.875,24.25,25.9375,26.0,26.25
0.26005325,-1.6489726,-2.9243467,-1.7827059,-0.03054925,0.021038901,-0.06431237,-0.38973156,-0.33064955,0.059989825,-3.0773475,0.62425256,8.516421e-05,-0.12587848,-0.015822336,0.00052448665,0.008195103,0.0004020923,-0.0073006963,0.43848988,-1.4374561,1.9709948,-2.1019661,-1.5718645,2.4131958,-0.074701704,0.24457423,-0.28775334,0.046236794,-0.008161199,-0.067200676,0.019153614,0.51714754,-9.251195,0.98135734,47.666286,-1.0378822,-1.6636934,-3.6861186,-0.0067638494,-0.14952004,-0.34672195,24.5,24.875,24.25,25.9375,26.0,26.25
0.26205415,-1.1383967,-1.8646945,-1.4817678,-0.03251146,0.025943002,-0.0765019,-0.3899789,-0.3307204,0.059984867,-3.0773897,0.62422514,6.2235966e-05,-0.12685265,-0.015975898,0.0009890301,0.0077819615,0.00075956073,-0.011792363,0.4383816,-1.4369287,1.9703969,-2.1019056,-1.5718282,2.4130654,-0.07534691,0.24553181,-0.29026127,0.04729381,-0.007938187,-0.063353844,0.019153614,0.4213795,-9.155427,0.89631605,47.653748,-1.0785278,-1.6235135,-3.6879673,-0.0036603427,-0.16292422,-0.42028832,24.5,24.875,24.25,25.9375,26.0,26.25
0.26405418,-0.94610286,-1.4793773,-1.6794158,-0.010687067,0.005250229,-0.07146281,-0.39021832,-0.33074415,0.059951946,-3.0773137,0.6242658,-4.878305e-05,-0.12746663,-0.016673082,0.000114473994,0.008840776,-0.0011481497,-0.009930822,0.43822598,-1.4363766,1.9698213,-2.101786,-1.5718406,2.4129453,-0.07442825,0.2500392,-0.29374343,0.04844285,-0.008099793,-0.06429356,0.0,0.28730422,-9.097966,0.95226496,47.688675,-1.0414624,-1.6723235,-3.5073628,0.0044168597,-0.17693238,-0.46328127,24.5,24.875,24.25,25.9375,26.0,26.25
0.2660542,-0.61516315,-1.5045604,-1.6708753,0.006780514,-0.0053299484,-0.07148909,-0.39050484,-0.33076152,0.05997495,-3.0772638,0.62425476,0.00012393921,-0.1293071,-0.015532229,-0.00019993878,0.010535006,-0.0027448053,-0.010228409,0.43808082,-1.4358964,1.9692096,-2.101712,-1.5719484,2.4128,-0.07747013,0.25338364,-0.29749936,0.05101032,-0.008958449,-0.06703459,0.019153614,0.24899697,-9.174581,0.8784135,47.655537,-1.0178382,-1.656249,-3.5380936,-0.002814987,-0.16462849,-0.47685015,24.5,24.875,24.25,25.9375,26.0,26.25
0.2680541,-0.6843101,-1.1825378,-1.5659459,-0.00077438133,-0.0074530956,-0.07577059,-0.3907492,-0.33081618,0.05996157,-3.0772913,0.62423724,4.3455148e-05,-0.12838754,-0.016896514,-0.0006561655,0.011341105,-0.0055645383,-0.0043643913,0.43793803,-1.435368,1.9686235,-2.1016276,-1.5719002,2.4126432,-0.07441532,0.25596255,-0.30018106,0.054005302,-0.008497123,-0.06984379,0.0,0.17238252,-9.097966,0.8851263,47.658226,-1.1768367,-1.8499818,-3.4404387,-0.028966539,-0.1801208,-0.4779994,24.4375,24.875,24.25,25.9375,26.0,26.25
0.27005395,-1.1207922,-1.3556713,-1.8093584,0.007510957,-0.0107116,-0.07095612,-0.3909971,-0.3308607,0.059967082,-3.0772817,0.62421364,1.1935338e-05,-0.129098,-0.016458768,1.2756799e-06,0.012511139,-0.0060437927,-0.00089803914,0.43780574,-1.4348649,1.9680117,-2.1014946,-1.5719007,2.4124978,-0.07519649,0.25638816,-0.30305424,0.057379488,-0.009359248,-0.07408844,-0.076614454,0.17238252,-9.174581,0.9164598,47.68599,-1.193284,-1.7924387,-3.5081778,-0.07679269,-0.1622248,-0.48523155,24.4375,24.875,24.25,25.9375,26.0,26.25
0.27205384,-1.3188932,-1.9349052,-1.8139392,-0.0021573259,0.010309082,-0.0661421,-0.39127132,-0.3308867,0.059962366,-3.0772333,0.6242597,-4.0789455e-05,-0.12935668,-0.014763607,-0.0011769995,0.014844781,-0.010623816,0.00089358806,0.43762448,-1.4343132,1.9673656,-2.1013505,-1.5719126,2.4123518,-0.07832239,0.2588899,-0.3041756,0.06112816,-0.009536532,-0.0790052,-0.11492168,0.15322891,-9.232041,0.9164598,47.70032,-1.016502,-1.863967,-3.4444392,-0.1185808,-0.16939963,-0.4242847,24.4375,24.875,24.25,25.9375,26.0,26.25
0.2740538,-1.3079193,-2.064404,-1.8021016,-0.01434269,0.028662672,-0.067665085,-0.3914913,-0.33091697,0.05993704,-3.0771708,0.62414706,-0.00015780539,-0.12870423,-0.015985264,-0.001209636,0.01525991,-0.012719903,0.0063840495,0.43750572,-1.4337854,1.9667906,-2.1011937,-1.5719365,2.4121711,-0.07579676,0.26067945,-0.30695006,0.064178936,-0.009037403,-0.08196951,-0.076614454,0.076614454,-9.251195,0.83589023,47.686886,-1.2613882,-1.8761511,-3.512867,-0.15262969,-0.16754961,-0.4103722,24.4375,24.875,24.25,25.9375,26.0,26.25
0.27605334,-1.5767251,-2.008831,-1.9185413,-0.014210613,0.031402513,-0.074634954,-0.3917407,-0.33094004,0.05992736,-3.077114,0.62411225,-0.00022915867,-0.13051035,-0.015597696,9.461828e-05,0.015045286,-0.011234009,0.012099046,0.43734887,-1.4332584,1.9661802,-2.1010368,-1.5719608,2.4120002,-0.07768719,0.26078212,-0.3106723,0.066349514,-0.009493399,-0.089571856,-0.076614454,0.11492168,-9.289502,0.88960326,47.696735,-1.1713154,-1.8012924,-3.4610813,-0.20581812,-0.17742863,-0.36039713,24.4375,24.875,24.25,25.9375,26.0,26.25
0.2780542,-1.6084828,-2.0451624,-2.0210993,-0.009673382,0.036441397,-0.06485913,-0.39202315,-0.33094415,0.059917554,-3.077042,0.6240582,-0.00018241155,-0.12977587,-0.014761603,-0.0013995086,0.01669735,-0.014526552,0.01360332,0.43716857,-1.432719,1.9655699,-2.1009414,-1.5720452,2.4117959,-0.07843245,0.2623687,-0.30936027,0.06712126,-0.009599521,-0.09182177,-0.22984336,0.076614454,-9.385271,0.9164598,47.668976,-1.1907673,-1.7555313,-3.5203664,-0.2378178,-0.1932315,-0.28716528,24.4375,24.875,24.25,25.9375,26.0,26.25
0.28005415,-1.8982084,-2.048262,-2.134039,-0.0052553997,0.038085874,-0.066438235,-0.39226148,-0.33099276,0.05988992,-3.0770278,0.62397605,-0.00040837267,-0.13011377,-0.0150898285,-0.0015675923,0.016443964,-0.015218075,0.01655315,0.43701288,-1.4321318,1.9649237,-2.1007493,-1.5719851,2.411591,-0.07837897,0.2638329,-0.3109216,0.06773604,-0.009098649,-0.09471767,-0.3256114,0.038307227,-9.481039,0.90750587,47.678825,-1.2298689,-1.6419982,-3.626947,-0.2719313,-0.20798555,-0.24899596,24.4375,24.875,24.25,25.9375,26.0,26.25
0.28205404,-1.9576963,-2.0187998,-2.2578125,-0.016319424,0.051885527,-0.07096505,-0.39254564,-0.33101872,0.05991328,-3.077021,0.623879,-0.00030864996,-0.13259423,-0.014223539,-0.0006683833,0.015945774,-0.013872571,0.014937949,0.43685538,-1.43164,1.9642881,-2.100641,-1.5720452,2.4113743,-0.08192671,0.26488534,-0.31455332,0.0688761,-0.009224205,-0.09664864,-0.28730422,0.095768064,-9.595961,0.9254084,47.70211,-1.0581298,-1.676474,-3.6291041,-0.32515302,-0.21136475,-0.19120455,24.4375,24.875,24.25,25.9375,26.0,26.25
0.28405395,-2.2853138,-2.2419941,-2.178182,-0.011865075,0.05654077,-0.06650241,-0.39280546,-0.33106908,0.05992099,-3.0770535,0.6238266,-0.00036210843,-0.13310622,-0.015624115,-0.0013917694,0.015680835,-0.012170003,0.017091233,0.43670046,-1.4311236,1.9636549,-2.10051,-1.572009,2.4111829,-0.07941137,0.26787454,-0.3156043,0.06528762,-0.009718723,-0.096283555,-0.38307226,0.1340753,-9.595961,0.87393653,47.705692,-1.2050028,-1.6430664,-3.617657,-0.29210952,-0.21537033,-0.16665766,24.4375,24.875,24.25,25.9375,26.0,26.25
0.28605366,-2.9826465,-2.545636,-2.2983496,-0.0073740752,0.056578305,-0.05595776,-0.3930552,-0.33110303,0.05991874,-3.0770373,0.6237278,-0.0004093376,-0.13544193,-0.015743611,-0.00036765204,0.013673218,-0.008791074,0.013339021,0.43655583,-1.4306089,1.9630436,-2.1003683,-1.5720209,2.410979,-0.08136682,0.26841027,-0.3182846,0.06352014,-0.009342387,-0.09448587,-0.30645782,0.076614454,-9.519346,0.9612189,47.670765,-1.2459087,-1.6753657,-3.676054,-0.2932676,-0.20589457,-0.17960824,24.4375,24.875,24.25,25.9375,26.0,26.25
0.2880535,-2.3537235,-1.9448944,-2.1623375,-0.027975745,0.08965832,-0.06523388,-0.3933382,-0.33112642,0.059922215,-3.0769703,0.6237557,-0.00041337943,-0.13652524,-0.015370939,-0.001335911,0.014311728,-0.010643789,0.008181869,0.43638727,-1.4300566,1.9623731,-2.1002123,-1.572069,2.410837,-0.08302174,0.27208388,-0.3204907,0.06400013,-0.009142594,-0.09098255,-0.38307226,0.19153613,-9.557653,0.9097417,47.745995,-0.9927127,-1.7840424,-3.647891,-0.31318602,-0.21609044,-0.18521765,24.4375,24.875,24.25,25.9375,26.0,26.25
0.29005358,-2.652149,-2.3081918,-2.2364724,-0.020330932,0.078908145,-0.06717483,-0.3935997,-0.33115077,0.059889548,-3.0769114,0.6237643,-0.00053536345,-0.1386087,-0.016464837,-0.0009732294,0.012610995,-0.0058486112,0.0049075037,0.43620762,-1.429469,1.9617509,-2.1000822,-1.572069,2.4106705,-0.08239626,0.27395418,-0.32247525,0.05905584,-0.009648432,-0.0870783,-0.51714754,0.11492168,-9.595961,0.9365982,47.694054,-1.1582224,-1.7737153,-3.631946,-0.29685748,-0.21815866,-0.214264,24.4375,24.875,24.25,25.9375,26.0,26.25
0.29205346,-2.4465673,-2.483686,-2.3403745,-0.03515486,0.093519054,-0.06677508,-0.39387593,-0.3311796,0.05987016,-3.07683,0.6237118,-0.0005722714,-0.14121893,-0.01655743,-0.0012463944,0.011816993,-0.004541011,-0.0008208869,0.43606278,-1.4288685,1.9610804,-2.0999396,-1.5721291,2.4105039,-0.08448039,0.27803388,-0.3262246,0.05720349,-0.0094955005,-0.08343121,-0.63206923,0.15322891,-9.672575,0.9164598,47.66808,-1.0840998,-1.868129,-3.6542854,-0.2595947,-0.2288141,-0.27054766,24.4375,24.875,24.25,25.9375,26.0,26.25
0.29405436,-2.5341773,-3.1090848,-2.4696424,-0.042220928,0.08754671,-0.06590861,-0.39420298,-0.3312055,0.059909515,-3.0768483,0.623812,-0.00043178507,-0.1423034,-0.015798928,-0.0021967017,0.012674848,-0.004767455,-0.0041500833,0.43584624,-1.4283643,1.9603981,-2.0998561,-1.5721534,2.410348,-0.08623941,0.2805003,-0.3266535,0.05573453,-0.010173671,-0.08185928,-0.6512229,0.30645782,-9.710882,0.9612189,47.66539,-0.9968861,-1.9889119,-3.7785416,-0.24519011,-0.22194704,-0.30440617,24.4375,24.875,24.25,25.9375,26.0,26.25
0.29605404,-2.4651968,-3.0735738,-2.5081108,-0.05515786,0.08518018,-0.06714929,-0.3944779,-0.33123362,0.059882943,-3.0767894,0.6237998,-0.00050019013,-0.14546637,-0.016457012,1.9402147e-05,0.010676687,0.0018634839,-0.0049972534,0.43567806,-1.4277658,1.959751,-2.099737,-1.5721773,2.41018,-0.08699381,0.2802654,-0.33112726,0.05358876,-0.011182515,-0.08176041,-0.3256114,0.38307226,-9.749189,0.91421866,47.690468,-1.001831,-1.9407266,-3.7003949,-0.22442172,-0.21381819,-0.31684875,24.4375,24.875,24.25,25.9375,26.0,26.25
0.2980537,-2.8446577,-3.9891584,-2.3367662,-0.068206154,0.0754771,-0.05586449,-0.39475775,-0.33127436,0.05986477,-3.0768094,0.62380433,-0.0005247511,-0.14734593,-0.01662576,0.000107362146,0.008862382,0.0036323965,-0.006517048,0.43549743,-1.4272017,1.9591397,-2.0996897,-1.572153,2.41,-0.08877375,0.2820919,-0.33304232,0.051304694,-0.010294192,-0.082021855,-0.5363012,0.36391866,-9.634268,0.9455522,47.68599,-0.9337646,-1.8783417,-3.7221365,-0.1805343,-0.22707087,-0.3254398,24.4375,24.875,24.25,25.9375,26.0,26.25
0.30005348,-2.20274,-3.4858716,-2.2320104,-0.07179958,0.07275268,-0.07507848,-0.39509717,-0.33131304,0.05991868,-3.0767944,0.62378263,-0.0003144879,-0.14974713,-0.016961645,0.0023714637,0.0065062987,0.009306064,-0.008307007,0.43534112,-1.4266636,1.9583739,-2.0995586,-1.5722493,2.4098327,-0.08993957,0.2803008,-0.33600417,0.049912237,-0.01055145,-0.08139678,-0.61291564,0.4405331,-9.519346,0.95897776,47.658226,-0.8664968,-1.7895212,-3.6163683,-0.1426403,-0.2306209,-0.3507997,24.4375,24.875,24.25,25.9375,26.0,26.25
0.3020541,-1.7850113,-3.014404,-2.3871984,-0.051873654,0.062308155,-0.063072324,-0.39537236,-0.33135355,0.05989427,-3.0767906,0.623859,-0.00042150184,-0.1508164,-0.016823495,0.002618415,0.006522983,0.010404144,-0.009855667,0.43514886,-1.4260765,1.9577392,-2.0994632,-1.5722011,2.409689,-0.0906869,0.28113738,-0.33763683,0.049724776,-0.011035116,-0.08059286,-0.49799395,0.40222588,-9.634268,0.98807013,47.67793,-0.752239,-1.6096994,-3.7731338,-0.12920883,-0.22383243,-0.38365072,24.4375,24.875,24.25,25.9375,26.0,26.25
0.3040539,-2.2091424,-2.6396153,-2.4349043,-0.048537314,0.047625013,-0.063698865,-0.39570683,-0.33136532,0.059905343,-3.076761,0.6238913,-0.00028326633,-0.15066259,-0.016404605,0.0013335263,0.006893788,0.007889265,-0.01053353,0.43493247,-1.4255129,1.9570578,-2.0994031,-1.5722731,2.409497,-0.09167936,0.28319407,-0.3371711,0.04962824,-0.010305426,-0.080910474,-0.26815057,0.3256114,-9.595961,0.9455522,47.678825,-0.79167324,-1.5842476,-3.802237,-0.08853716,-0.24212855,-0.41786233,24.4375,24.875,24.25,25.9375,26.0,26.25
0.30605367,-2.0586834,-2.6422496,-2.3518052,-0.034412898,0.0401947,-0.05620496,-0.3960122,-0.33140498,0.059911616,-3.0767527,0.62392706,-0.00025942887,-0.15248781,-0.01664027,0.0026041947,0.005835916,0.010320167,-0.010077262,0.43475226,-1.4249376,1.9563631,-2.0992954,-1.5722846,2.4093406,-0.092653,0.2835278,-0.34074333,0.05021171,-0.010376621,-0.08233892,-0.17238252,0.2681506,-9.576807,0.9231726,47.658226,-0.7211416,-1.5277886,-3.778338,-0.05328499,-0.23199964,-0.4049409,24.4375,24.875,24.25,25.9375,26.0,26.25
0.30805326,-1.5111415,-2.1258044,-2.2255795,-0.026725655,0.043869074,-0.06774798,-0.39631295,-0.33144233,0.059913937,-3.0767262,0.6239002,-0.00019970084,-0.15438363,-0.017557776,0.0029951145,0.005716525,0.010980397,-0.008706489,0.4345964,-1.424362,1.9556793,-2.0991995,-1.5723337,2.4091718,-0.09238737,0.28728947,-0.34635434,0.0514052,-0.010555232,-0.08344086,-0.28730422,0.17238252,-9.500193,0.93436235,47.694946,-0.8019974,-1.5528938,-3.7329037,-0.02809971,-0.2214158,-0.43065655,24.4375,24.875,24.25,25.9375,26.0,26.25
0.31005424,-1.4379963,-1.5455548,-2.3072708,-0.0091300905,0.03665465,-0.06919891,-0.3966215,-0.3315006,0.059931412,-3.0767834,0.623907,-0.00017889946,-0.15535207,-0.01824775,0.0024711653,0.005583246,0.009612914,-0.0017706474,0.43441638,-1.4237971,1.9549726,-2.0991027,-1.572297,2.4089892,-0.09229954,0.29118976,-0.34996226,0.052284505,-0.00986903,-0.09028943,-0.17238253,0.076614454,-9.461885,0.9164598,47.67614,-0.7998028,-1.7158729,-3.580309,-0.010929169,-0.24473555,-0.39037424,24.4375,24.875,24.25,25.9375,26.0,26.25
0.3120539,-1.3206881,-1.1978637,-2.4717805,0.015944427,0.016047953,-0.06584304,-0.39697835,-0.331533,0.059958007,-3.0768075,0.6240072,-2.590462e-05,-0.15550742,-0.017993025,0.00096070336,0.008260987,0.0051351404,4.545763e-06,0.43418843,-1.4232209,1.9542426,-2.0990536,-1.5723213,2.408821,-0.09242412,0.29615322,-0.35309568,0.055637766,-0.010405285,-0.09218741,0.0,0.11492168,-9.5385,1.0596858,47.629562,-0.8076333,-1.838875,-3.5474017,0.00046244636,-0.24023908,-0.36992687,24.4375,24.875,24.25,25.9375,26.0,26.25
0.31405383,-1.1069533,-1.3248681,-2.217744,0.016743293,0.016688896,-0.06808781,-0.39725834,-0.33156526,0.059947286,-3.0767536,0.62395287,-7.051396e-05,-0.15714008,-0.019407155,0.0025034372,0.0062876185,0.008740198,0.005897308,0.43403283,-1.4226321,1.9535593,-2.0988986,-1.572357,2.408639,-0.09131438,0.29659566,-0.35718793,0.05517291,-0.010152742,-0.096968725,0.0,0.076614454,-9.385271,0.9701675,47.670765,-0.8651518,-1.9286013,-3.4734178,0.02496752,-0.25476253,-0.29966417,24.4375,24.875,24.25,25.9375,26.0,26.25
0.31605336,-0.43309575,-1.049103,-2.1641102,-0.0020771986,0.028998392,-0.07904595,-0.39758256,-0.33157554,0.05993998,-3.0767086,0.6239227,-2.2836533e-05,-0.15718627,-0.018446587,0.0010096458,0.007636085,0.005275041,0.009177653,0.43381602,-1.4220304,1.9528664,-2.0988023,-1.5724171,2.4084096,-0.09312859,0.2993026,-0.35728258,0.056253806,-0.009923803,-0.10206402,0.0,0.17238252,-9.346964,0.9612189,47.642998,-0.7296155,-1.8151977,-3.475802,0.05603289,-0.25943983,-0.25629786,24.4375,24.875,24.25,25.9375,26.0,26.25
0.31805405,-0.81274617,-1.9053775,-2.395217,-0.016451618,0.02550267,-0.06878732,-0.39788246,-0.33161622,0.059940144,-3.0767229,0.6239216,-9.186565e-05,-0.15611959,-0.018795524,0.0006973233,0.009415943,0.003608291,0.015841682,0.4336129,-1.421442,1.9521602,-2.0986578,-1.5723814,2.4082043,-0.09089234,0.29982954,-0.35786015,0.058562167,-0.01084321,-0.10648937,0.038307227,0.2681506,-9.615114,0.95226496,47.65106,-0.9475715,-1.8400204,-3.7667956,0.06399634,-0.25843766,-0.21082401,24.4375,24.875,24.25,25.9375,26.0,26.25
0.32005444,-0.79590666,-2.6904209,-2.2235801,-0.04498511,0.035337005,-0.06746008,-0.398206,-0.33164355,0.059952974,-3.076688,0.62382036,1.0536534e-05,-0.15608485,-0.016270285,4.594381e-05,0.011497211,-0.0011248766,0.011074759,0.43344343,-1.4208531,1.9514297,-2.0985367,-1.5724653,2.4079766,-0.09540371,0.29992312,-0.3577732,0.063540824,-0.010730084,-0.10623573,-0.095768064,0.2681506,-9.500193,0.99031126,47.67166,-0.72397304,-1.7070086,-3.8726113,0.021091137,-0.26977897,-0.14976133,24.4375,24.875,24.25,25.9375,26.0,26.25
0.32205334,-1.4869825,-3.3282778,-2.2653303,-0.060708694,0.019061066,-0.059174493,-0.39854547,-0.3317032,0.060000796,-3.0767512,0.6238302,0.00014275011,-0.15689975,-0.018526088,0.0010092191,0.010753356,0.001619051,0.014947648,0.4332649,-1.4203001,1.950663,-2.098429,-1.5724653,2.4077966,-0.091591686,0.30182227,-0.36225197,0.06331773,-0.011207085,-0.106294215,-0.038307227,0.3256114,-9.442732,0.97464454,47.6636,-0.96788067,-1.65171,-3.7940507,0.033230588,-0.26376522,-0.13928628,24.4375,24.875,24.25,25.9375,26.0,26.25
0.32405427,-0.9824248,-3.2409167,-2.3014786,-0.06599981,0.02459198,-0.06632976,-0.39886135,-0.33173546,0.05999414,-3.0767245,0.62379026,0.00012888515,-0.15786894,-0.018279491,0.0025983276,0.010527823,0.0028501723,0.009968041,0.43307233,-1.4196762,1.9499334,-2.0982964,-1.5724891,2.407583,-0.09254416,0.30045456,-0.36519846,0.066424124,-0.011516642,-0.10226568,-0.095768064,0.34476504,-9.404425,0.86498255,47.68062,-0.94099367,-1.5252218,-3.737451,0.036679626,-0.25644898,-0.12997155,24.4375,24.875,24.25,25.9375,26.0,26.25
0.32605433,-1.468478,-3.136964,-2.3520584,-0.050160076,0.015286342,-0.05714297,-0.3991501,-0.33176166,0.05998667,-3.0766666,0.6237982,7.195896e-05,-0.15879159,-0.018613283,0.0029386648,0.010548927,0.001164938,0.0059740692,0.43289217,-1.4190867,1.9492368,-2.0981276,-1.5725135,2.4074156,-0.09306071,0.30285728,-0.3697296,0.070090994,-0.010832225,-0.09878793,-0.114921674,0.34476504,-9.404425,0.94331104,47.682407,-0.9474758,-1.3608828,-3.6605601,0.018209804,-0.27975002,-0.19275647,24.4375,24.875,24.25,25.9375,26.0,26.25
0.32805413,-1.0288714,-2.5865963,-2.4021678,-0.023215523,0.006944422,-0.06220596,-0.39947242,-0.33179912,0.05998945,-3.0766785,0.6237246,6.121809e-05,-0.1586283,-0.018879225,0.0014940627,0.012516813,-0.0037863175,0.0030074627,0.43268862,-1.4184723,1.9484957,-2.097994,-1.5725135,2.407165,-0.09252334,0.30783665,-0.37317318,0.07387898,-0.010538073,-0.09528332,0.05746084,0.36391866,-9.634268,0.9388393,47.672558,-1.0729305,-1.5958852,-3.5986915,-0.035729356,-0.28683493,-0.22109406,24.4375,24.875,24.25,25.9375,26.0,26.25
0.3300541,-0.73028976,-2.0750208,-2.3285496,-0.027184611,0.003566018,-0.06285679,-0.39977288,-0.33183992,0.060000543,-3.076631,0.6237358,5.778131e-05,-0.15779893,-0.018794889,0.0005199849,0.014325563,-0.0076489137,0.0006524809,0.43253276,-1.4178828,1.9477533,-2.0978134,-1.5725492,2.4070227,-0.09187314,0.30998963,-0.37432787,0.07714682,-0.010556077,-0.09227788,0.0,0.4213795,-9.595961,0.9768804,47.66987,-0.9641938,-1.7063248,-3.5960777,-0.07803243,-0.27759784,-0.23695368,24.4375,24.875,24.25,25.9375,26.0,26.25
0.33205408,-1.3480723,-2.5048087,-2.2776258,-0.025836604,0.0059953104,-0.051511113,-0.4001253,-0.3318933,0.060021948,-3.0766573,0.6237598,0.00015132775,-0.1567911,-0.01875936,-0.0005876554,0.016672254,-0.012168482,-0.00071570143,0.4323411,-1.4172573,1.9469646,-2.0977166,-1.5725616,2.4068432,-0.090834394,0.3125923,-0.37588313,0.081189014,-0.0107804965,-0.08987098,-0.15322891,0.4405331,-9.385271,0.90750587,47.65106,-1.1325672,-1.6925895,-3.642572,-0.101515986,-0.26596472,-0.2850494,24.4375,24.875,24.25,25.9375,26.0,26.25
0.3340537,-1.1459266,-3.2909431,-2.4441915,-0.023125311,0.022941293,-0.060421705,-0.40044045,-0.33192214,0.06004083,-3.0766187,0.6236778,0.00015844771,-0.15744738,-0.016441654,-0.0023498058,0.019977229,-0.017738085,-0.00613113,0.43215945,-1.4166671,1.9461974,-2.0975115,-1.5726093,2.4066157,-0.09503272,0.31650546,-0.37745017,0.08528354,-0.011447082,-0.08865145,0.019153614,0.36391866,-9.423578,0.98135734,47.696735,-0.90072346,-1.7023747,-3.6851354,-0.16337062,-0.26247758,-0.33956265,24.4375,24.875,24.25,25.9375,26.0,26.25
0.33605376,-1.3827449,-2.8802655,-1.9708652,-0.057778567,0.022131942,-0.055468883,-0.40076235,-0.3319575,0.060061514,-3.0765986,0.62374854,0.00020563952,-0.15619233,-0.017493274,-0.0018410842,0.019968294,-0.019232102,-0.004892038,0.43196872,-1.4160912,1.9454559,-2.097367,-1.5726331,2.4064722,-0.092388004,0.31584746,-0.3787858,0.088626675,-0.010809681,-0.087248266,0.05746084,0.38307226,-9.3661175,0.97464454,47.637623,-1.1939219,-1.6962094,-3.7766385,-0.22802809,-0.2878207,-0.36850828,24.4375,24.875,24.25,25.9375,26.0,26.25
0.33805355,-1.147364,-3.341618,-1.4817387,-0.058889188,0.03617686,-0.0560644,-0.40107304,-0.33202857,0.060068283,-3.0765917,0.6237087,0.00017013025,-0.15742408,-0.017631652,-0.0014210594,0.019712696,-0.019099895,-0.006864362,0.43183655,-1.4154423,1.9446539,-2.0971873,-1.5726331,2.4063165,-0.0931848,0.31745824,-0.38213095,0.09013454,-0.010640895,-0.08607173,-0.076614454,0.34476504,-9.136273,0.9858343,47.664497,-1.1760284,-1.5762024,-3.7926943,-0.27159938,-0.29780948,-0.3874941,24.4375,24.875,24.25,25.9375,26.0,26.25
0.34005424,-1.2597482,-2.5778215,-1.6676235,-0.039015748,0.017287524,-0.057918545,-0.40139422,-0.33205986,0.060064,-3.0765557,0.6237603,0.00014530675,-0.16046154,-0.018182904,-0.00065517356,0.018949969,-0.016292872,-0.009401901,0.43163216,-1.4148158,1.9439105,-2.0970433,-1.5726455,2.4061494,-0.094295636,0.32096395,-0.38798004,0.089610994,-0.011142023,-0.08464024,0.0,0.34476504,-9.059659,0.97240865,47.672558,-1.0699894,-1.5367403,-3.684734,-0.30256712,-0.31019783,-0.4464758,24.4375,24.875,24.25,25.9375,26.0,26.25
0.34205344,-0.19182393,-1.7184906,-1.8630695,-0.010679999,0.019379936,-0.06941437,-0.4017478,-0.33208868,0.060090855,-3.0765333,0.6238518,0.00019630823,-0.16260009,-0.018996352,0.000887415,0.016068885,-0.0112823695,-0.010378791,0.43140388,-1.414204,1.9431075,-2.0968764,-1.5726694,2.4059815,-0.09481486,0.3204392,-0.39045754,0.086851895,-0.01063437,-0.08418308,-0.019153614,0.3256114,-9.193734,0.92093146,47.655537,-1.053754,-1.4699514,-3.4968104,-0.29299396,-0.3136515,-0.50685364,24.4375,24.875,24.25,25.9375,26.0,26.25
0.34405333,-0.97011185,-1.7118413,-1.5709956,-0.0079000415,0.010763577,-0.06149859,-0.4020675,-0.33212847,0.060086023,-3.0765095,0.6238065,0.00018621396,-0.16535398,-0.020153008,0.0016252002,0.013900912,-0.0063543958,-0.00854826,0.43122384,-1.4135668,1.9423531,-2.0967352,-1.5726932,2.4057767,-0.09484683,0.32281625,-0.39414668,0.082773834,-0.0107497955,-0.086042576,-0.15322891,0.24899697,-9.097966,0.9679317,47.658226,-1.1690696,-1.3936062,-3.4909225,-0.264231,-0.33171752,-0.52932143,24.4375,24.875,24.25,25.9375,26.0,26.25
0.3460543,-0.8786826,-1.7658001,-1.4352856,-0.0246022,0.043225534,-0.07733927,-0.40238622,-0.33217847,0.06010417,-3.0764859,0.62383705,0.00017839087,-0.16694845,-0.020647613,0.002680441,0.01238383,-0.0032903363,-0.0054313797,0.4310558,-1.412954,1.9415625,-2.0965436,-1.5727056,2.4056313,-0.09523047,0.3229325,-0.3966351,0.0817181,-0.0106676435,-0.08954222,-0.22984336,0.3256114,-9.078813,0.94331104,47.692257,-1.132682,-1.4099007,-3.455872,-0.26559356,-0.3297434,-0.521053,24.4375,24.875,24.25,25.9375,26.0,26.25
0.3480541,-1.9689679,-2.9360595,-1.4549315,-0.03610885,0.065409034,-0.06469032,-0.4027389,-0.33222395,0.06013656,-3.0764909,0.6238357,0.00021592679,-0.1689416,-0.02094817,0.0017496882,0.011226593,-0.0009867165,-0.0006839249,0.43085134,-1.412328,1.9407243,-2.0963538,-1.5727175,2.4054258,-0.09626907,0.3264889,-0.39762735,0.07656224,-0.010599952,-0.09532723,-0.28730422,0.28730422,-9.078813,1.048496,47.675243,-1.169835,-1.3481429,-3.5542698,-0.2052078,-0.34438536,-0.5126244,24.4375,24.875,24.25,25.9375,26.0,26.25
0.350054,-2.8330593,-3.497871,-1.6554662,-0.053025592,0.08706215,-0.058375545,-0.40302515,-0.33224794,0.060086627,-3.0763812,0.6238465,4.9343143e-05,-0.16929054,-0.020563079,0.00029416342,0.012208282,-0.0021630463,0.0055032717,0.4306713,-1.4116426,1.9400076,-2.096175,-1.5727414,2.405267,-0.09687188,0.32929128,-0.39738992,0.074984476,-0.011029469,-0.10211431,-0.36391866,0.30645782,-9.11712,0.947788,47.655537,-1.134841,-1.3871032,-3.6783643,-0.17141323,-0.34049743,-0.4237806,24.4375,24.875,24.25,25.9375,26.0,26.25
0.35205394,-2.8915622,-3.3587914,-1.5819145,-0.07122003,0.10177884,-0.061892413,-0.40340415,-0.3323077,0.060132388,-3.0764391,0.6237388,0.0001849152,-0.17059873,-0.020522349,-8.987995e-05,0.0122438865,-0.002552883,0.010816054,0.43047908,-1.4110049,1.939135,-2.096031,-1.5727657,2.4050007,-0.097984135,0.33216968,-0.40006128,0.0751281,-0.010905849,-0.10853947,-0.34476504,0.30645782,-9.155427,0.9701675,47.657326,-1.06328,-1.5752196,-3.7742133,-0.20799515,-0.3382834,-0.37354815,24.4375,24.875,24.25,25.9375,26.0,26.25
0.35405383,-3.2161877,-3.3942404,-1.5001909,-0.065185346,0.09848957,-0.055791236,-0.40373972,-0.33234242,0.060113177,-3.076413,0.6237309,0.00012174155,-0.1740204,-0.021284718,0.0004776769,0.010141886,0.0025860977,0.016287476,0.43026254,-1.4103197,1.9383558,-2.0958889,-1.5727657,2.404783,-0.099155426,0.33528537,-0.40412295,0.07051148,-0.011175099,-0.11517819,-0.5554548,0.24899697,-9.021352,0.9791215,47.64121,-1.0408274,-1.5850546,-3.768785,-0.111967385,-0.36416072,-0.26487333,24.4375,24.875,24.25,25.9375,26.0,26.25
0.35605407,-2.6009796,-2.5445666,-1.4620082,-0.035967156,0.08148756,-0.061715096,-0.40411764,-0.3324033,0.060146578,-3.0764647,0.6236811,0.00020616269,-0.17607887,-0.021890154,0.00074084307,0.010020327,0.0046662036,0.019511504,0.43005848,-1.4096577,1.9374827,-2.0957458,-1.5727662,2.4045417,-0.099151894,0.3383963,-0.4083289,0.06965905,-0.01194009,-0.11839511,-0.61291564,0.34476507,-9.155427,0.92764956,47.64658,-1.0232681,-1.5580685,-3.593777,-0.091113,-0.3541331,-0.22244048,24.4375,24.875,24.25,25.9375,26.0,26.25
0.35805395,-2.3311267,-2.0728123,-1.647632,-0.01586365,0.06624325,-0.061523646,-0.4044573,-0.33244514,0.06012616,-3.0764153,0.6235749,0.00021087051,-0.17812659,-0.021593122,0.0011574124,0.0091192145,0.006393598,0.01847532,0.42988998,-1.4089485,1.9366802,-2.0956142,-1.5728258,2.4043138,-0.10131816,0.33982208,-0.41099107,0.068938136,-0.011854583,-0.119523935,-0.5554548,0.36391866,-9.097966,1.0015011,47.657326,-1.053055,-1.5372119,-3.5589936,-0.038416255,-0.36892378,-0.17953083,24.4375,24.875,24.25,25.9375,26.0,26.25
0.36005408,-1.9619389,-2.004738,-1.627865,-0.01904561,0.070493974,-0.06667476,-0.40482107,-0.332489,0.06013057,-3.076433,0.6235395,0.00025987963,-0.17730896,-0.022613091,0.0006133765,0.010179157,0.0053955326,0.018793203,0.42967495,-1.4082756,1.9358677,-2.0955064,-1.5728377,2.404075,-0.09833389,0.34141988,-0.41197863,0.06968105,-0.012395004,-0.11685626,-0.80445176,0.4213795,-9.11712,0.9925471,47.675243,-1.1157746,-1.5524104,-3.662816,-0.016751774,-0.37157077,-0.17065984,24.4375,24.875,24.25,25.9375,26.0,26.25
0.36205417,-2.5635388,-3.1334875,-1.6335618,-0.0138103105,0.05912219,-0.057025503,-0.40517336,-0.33252278,0.060131423,-3.0763984,0.62345856,0.0003078144,-0.17854095,-0.02202833,0.0011837044,0.0099408375,0.0056731086,0.0120290285,0.42948237,-1.4076025,1.9350547,-2.095362,-1.5728978,2.4038367,-0.100341395,0.34176624,-0.41425398,0.07125974,-0.012289003,-0.11209948,-0.7469909,0.36391866,-9.155427,0.99031126,47.629562,-1.1601366,-1.4787449,-3.706125,0.004485355,-0.38434517,-0.15955031,24.4375,24.875,24.25,25.9375,26.0,26.25
0.36405414,-2.5019217,-2.6090226,-1.3950845,-0.03980861,0.075264804,-0.053829234,-0.4055331,-0.3325857,0.060122736,-3.076395,0.6234805,0.00027490818,-0.17880389,-0.021862492,0.0012320587,0.011062083,0.0051008314,0.005354243,0.42929035,-1.4068695,1.9341935,-2.095218,-1.5728863,2.4036593,-0.10023213,0.34262356,-0.41602582,0.07317865,-0.013061807,-0.10531287,-0.8810662,0.30645782,-9.11712,1.0104496,47.660015,-1.0692493,-1.417911,-3.7114692,0.01660101,-0.39263564,-0.25737953,24.4375,24.875,24.25,25.9375,26.0,26.25
0.36605406,-2.654129,-2.2648797,-1.3510123,-0.041287474,0.08584219,-0.051855892,-0.4058929,-0.33261156,0.060108863,-3.076341,0.6234892,0.00025487074,-0.17953962,-0.022235632,0.0006205774,0.0119774,0.0034488605,0.0028022584,0.42906243,-1.4061599,1.9333681,-2.095062,-1.5729221,2.4034443,-0.099940404,0.34631318,-0.41951337,0.07486026,-0.013210761,-0.10246679,-0.7469909,0.17238252,-9.078813,0.947788,47.63404,-1.1527863,-1.4861625,-3.6729188,0.016092412,-0.3862869,-0.2853782,24.4375,24.875,24.25,25.9375,26.0,26.25
0.36805442,-2.4123378,-2.0408232,-1.75521,-0.019919144,0.07901101,-0.05847396,-0.40627137,-0.33264786,0.060109213,-3.0762851,0.623556,0.00028780632,-0.17984557,-0.021178773,-0.00013782343,0.0138764065,-0.0016294033,-0.0014174664,0.42884564,-1.405438,1.932495,-2.0949037,-1.5729698,2.403277,-0.10219567,0.3493477,-0.42281935,0.08053551,-0.012818539,-0.100502826,-0.49799395,0.19153613,-9.078813,1.0015011,47.640312,-1.0543447,-1.4863849,-3.6621122,-0.005688625,-0.39898148,-0.3318401,24.4375,24.875,24.25,25.9375,26.0,26.25
0.37005377,-2.1681542,-1.7376807,-1.4295307,-0.00795219,0.06347007,-0.052500166,-0.40665835,-0.33270308,0.060129356,-3.076314,0.62348515,0.00037820163,-0.18050927,-0.020598952,-0.0013058536,0.015337477,-0.00421411,-0.002130793,0.42864108,-1.40474,1.93161,-2.094772,-1.5729941,2.403025,-0.10347915,0.3528999,-0.42481697,0.08193394,-0.013071072,-0.10107221,-0.4213795,-0.019153614,-9.097966,1.0261165,47.651955,-1.0074699,-1.6865616,-3.6132636,-0.023321882,-0.41131335,-0.3589056,24.4375,24.875,24.25,25.9375,26.0,26.25
0.37205333,-1.3390573,-1.0758384,-1.3439887,0.013382226,0.045073118,-0.06335456,-0.40700912,-0.3327525,0.060108364,-3.0762844,0.6234602,0.000332025,-0.18109982,-0.018811617,-0.0020042001,0.017745154,-0.00913854,-0.0053121685,0.4284483,-1.4040061,1.9307736,-2.0946262,-1.573006,2.4028208,-0.10693684,0.35544187,-0.42774373,0.08779484,-0.013214868,-0.10134725,-0.38307226,-0.095768064,-8.925584,1.0574499,47.675243,-0.9369767,-1.8437655,-3.7424572,-0.023759361,-0.41882938,-0.35731435,24.4375,24.875,24.25,25.9375,26.0,26.25
0.37405422,-0.7467586,-0.56528723,-1.4282588,0.047322825,0.008103585,-0.04986494,-0.40735045,-0.3327996,0.060068656,-3.0762427,0.62352705,0.0002383894,-0.18096893,-0.01916009,-0.0025228437,0.020279173,-0.0119457105,-0.0041994415,0.4282448,-1.4032607,1.9299716,-2.0945055,-1.5729951,2.402665,-0.10534676,0.3586352,-0.43145022,0.09191807,-0.014361897,-0.1008646,-0.15322891,-0.019153614,-8.963891,0.9254084,47.694946,-0.9302758,-1.8347783,-3.590149,-0.10109268,-0.3997867,-0.3698907,24.4375,24.875,24.25,25.9375,26.0,26.25
0.37605333,-0.598413,-0.3774119,-1.8652472,0.06892365,-0.02022155,-0.05249637,-0.4077431,-0.33281752,0.060079813,-3.0761542,0.62353015,0.00030338668,-0.18213129,-0.017516134,-0.0029560495,0.021675676,-0.014759047,-0.007987193,0.42801538,-1.4025395,1.9290622,-2.0943005,-1.5730909,2.4024494,-0.109018795,0.3606973,-0.43389076,0.095423765,-0.01446792,-0.100747965,-0.1340753,-0.038307227,-9.078813,0.9612189,47.70032,-0.78293836,-1.7694788,-3.5745857,-0.1169983,-0.3987499,-0.39363778,24.4375,24.875,24.25,25.9375,26.0,26.25
