Tylouw/Master_Thesis_Code/training_data/batch_1/big_rod_t0.1/sample_99_session_4.csv
timestamp[s],tcp_force_x[N],tcp_force_y[N],tcp_force_z[N],tcp_force_rx[Nm?],tcp_force_ry[Nm?],tcp_force_rz[Nm?],tcp_pose_x[m],tcp_pose_y[m],tcp_pose_z[m],tcp_pose_rx[rot_vec_x],tcp_pose_ry[rot_vec_y],tcp_pose_rz[rot_vec_z],tcp_velo_x[m/s],tcp_velo_y[m/s],tcp_velo_z[m/s],tcp_velo_rx[rot_vec_x/s],tcp_velo_ry[rot_vec_y/s],tcp_velo_rz[rot_vec_z/s],q1[rad],q2[rad],q3[rad],q4[rad],q5[rad],q6[rad],qd1[rad/s],qd2[rad/s],qd3[rad/s],qd4[rad/s],qd5[rad/s],qd6[rad/s],tool_acc_x,tool_acc_y,tool_acc_z,current_of_whole_robot[A],voltage_of_whole_robot[V],current_J1[A],current_J2[A],current_J3[A],current_J4[A],current_J5[A],current_J6[A],temp_J1[C],temp_J2[C],temp_J3[C],temp_J4[C],temp_J5[C],temp_J6[C]
6.459886e-07,-0.39286074,-0.73550916,0.2603399,-0.017961558,0.016355451,-0.019230781,-0.37287483,-0.32821548,0.05994138,-3.0784683,0.62486356,-0.00031212592,0.0032670586,0.0016011541,-0.004531232,0.004852967,-0.010228369,2.790198e-05,0.44815025,-1.4708728,2.0095851,-2.1076667,-1.5706614,2.4230676,-9.0269365e-05,0.0045890454,0.0049484563,0.0017833402,7.2696705e-05,-0.00012107981,0.05746084,0.21068975,-8.963891,0.8403672,47.713753,-0.18763617,-2.9127853,-2.4907036,-0.49669528,0.0670736,-0.14501585,25.9375,26.75,25.875,28.75,29.6875,30.0625
0.002052721,-0.3443812,-0.63444877,0.21666095,-0.0031154833,0.01368983,-0.016433014,-0.37287182,-0.32820526,0.059932765,-3.0784411,0.6248771,-0.00029847212,-0.0002661848,-0.000108083106,-0.0031331312,-0.00024992265,0.0003271821,3.017167e-05,0.44815025,-1.4708728,2.0096085,-2.1076825,-1.5706857,2.4230795,-8.915233e-05,0.0045524347,0.0043041487,-0.009260041,7.15411e-05,-0.000118582706,0.0,0.21068975,-9.021352,0.76874626,47.688675,-0.18773039,-2.7986212,-2.3528125,-0.46544245,0.06405647,-0.15162337,25.9375,26.75,25.875,28.75,29.6875,30.0625
0.0040526288,-0.5894946,-0.24058661,0.19121028,0.0022963027,0.003667863,-0.012449091,-0.37286705,-0.32820532,0.059919138,-3.0784647,0.62482405,-0.00033584834,-0.00088374974,-0.0004068536,-0.0028434098,-0.0012685201,0.0024374472,2.9278257e-05,0.4481382,-1.470861,2.0096323,-2.1077068,-1.5706614,2.4230313,-8.806138e-05,0.0043123006,0.0044068033,-0.011465793,7.042146e-05,-0.00011604486,-0.019153614,0.19153613,-9.002198,0.75755644,47.655537,-0.18122733,-3.0167732,-2.5771573,-0.36788398,0.047146957,-0.16072622,25.9375,26.75,25.875,28.75,29.6875,30.0625
0.006051893,0.011215729,0.41030133,0.29391932,0.010112269,-0.0005521306,-0.018527953,-0.3728707,-0.32821998,0.059925582,-3.078491,0.62490666,-0.00034137227,-0.00026094506,-0.00010555778,-0.002147122,-0.00035054356,0.0005484284,2.7123064e-05,0.4481382,-1.4708614,2.0096204,-2.1077173,-1.5706257,2.4230795,-8.699791e-05,0.0030818682,0.0031017112,-0.006830014,6.933641e-05,-0.00011360413,0.038307227,0.21068975,-8.90643,0.75755644,47.699425,-0.19630653,-2.9418907,-2.5574632,-0.41064742,0.06826008,-0.15375441,25.9375,26.75,25.875,28.75,29.6875,30.0625
0.008052028,-0.021596173,0.67969203,-0.048460487,0.045561064,-0.028388148,-0.016248116,-0.37288716,-0.32823005,0.059914336,-3.0785034,0.6248707,-0.00030051183,-6.961044e-05,-1.2936799e-05,-0.0013106683,-9.36241e-05,2.6463631e-05,2.546978e-05,0.44815025,-1.470814,2.0096076,-2.1077754,-1.5706376,2.4230676,-8.595929e-05,0.001836473,0.0018461595,-0.0037473163,6.828429e-05,-0.00011126332,0.076614454,0.17238252,-9.040505,0.7530795,47.71286,-0.22444913,-2.9251735,-2.4276204,-0.43594623,0.07210982,-0.16080105,25.9375,26.75,25.875,28.75,29.6875,30.0625
0.01005244,0.2256985,0.779153,-0.6876655,0.051747434,-0.02283845,-0.018347954,-0.3728744,-0.32821319,0.059901506,-3.0784693,0.62484413,-0.0003493748,4.9972692e-05,4.46193e-05,-0.001161811,0.00027870643,-0.00074099156,2.4204222e-05,0.4481382,-1.470814,2.0096314,-2.1077511,-1.5706495,2.4230433,-8.494534e-05,0.0018464321,0.0011405193,-0.0021986298,6.726361e-05,-0.00010901703,0.0,0.11492168,-9.193734,0.6702794,47.694946,-0.4423234,-2.1089482,-3.2010078,-0.44126502,0.032422025,-0.20554587,25.9375,26.75,25.875,28.75,29.6875,30.0625
0.012052522,-0.27519646,-0.06374901,-0.6302201,0.03232394,-0.0073300353,-0.019605218,-0.37288648,-0.328206,0.059896283,-3.0784142,0.62489086,-0.0003480595,0.00013304214,8.903412e-05,-0.0054390547,0.0042687077,-0.009046302,3.9815735e-05,0.4481382,-1.4707742,2.0095942,-2.1077273,-1.5706857,2.4230795,-0.00010017524,0.012782014,-0.0011837323,-0.001595943,6.6273016e-05,-0.00013689937,0.076614454,0.11492168,-9.442732,0.7911258,47.684196,-0.4582063,-2.3713295,-3.3781962,-0.4513939,0.03649891,-0.23567168,25.9375,26.75,25.875,28.75,29.6875,30.0625
0.014051777,-0.77829766,-0.77574515,-0.8880786,-0.0012291272,0.014534215,-0.025248056,-0.37287962,-0.3282043,0.059875507,-3.0784025,0.624831,-0.00045933673,-0.005637278,-0.0008021253,-0.0035044819,0.0021827654,-0.0047614556,-0.0004155904,0.44812477,-1.4707242,2.009579,-2.1076915,-1.5706614,2.4230301,-0.003680055,0.018777087,-0.012268248,-0.0012725627,6.531118e-05,-0.0032538532,-0.038307227,0.13407528,-9.5385,0.78888994,47.65464,-0.4323661,-2.7772627,-3.07262,-0.4201477,0.029185973,-0.26765776,25.9375,26.75,25.875,28.75,29.6875,30.0625
0.016051905,-1.3910422,-1.3898886,-1.0887045,-0.03395264,0.03948048,-0.020059748,-0.37287736,-0.32819417,0.059862617,-3.078351,0.6248756,-0.00048214573,-0.0058236183,0.00027578938,-0.0040192567,0.0030526847,-0.0065429667,0.003324457,0.4481242,-1.4706999,2.009579,-2.1076791,-1.5706857,2.423064,-0.0058693155,0.019312095,-0.011927107,-0.0001672945,5.31825e-05,-0.0091835875,-0.19153613,0.28730422,-9.595961,0.7911258,47.707485,-0.24899863,-2.5670772,-3.2013845,-0.42867872,0.026639415,-0.19677913,25.9375,26.75,25.875,28.75,29.6875,30.0625
0.018051948,-1.94815,-1.7873523,-1.0986872,-0.06658529,0.06528173,-0.02572707,-0.3728576,-0.3281809,0.059829645,-3.0783176,0.62480915,-0.0006401031,-0.005206412,-0.00013426862,-0.004506512,0.0035523812,-0.0075811413,0.0064917156,0.44810072,-1.4706517,2.0095909,-2.1076314,-1.5706614,2.4230032,-0.0045354594,0.02019844,-0.011817706,-1.0923136e-05,5.088484e-05,-0.011016964,-0.34476504,0.40222588,-9.730036,0.7866488,47.71554,-0.38177866,-2.355689,-3.5129395,-0.4272337,0.012931934,-0.18859312,25.9375,26.75,25.875,28.75,29.6875,30.0625
0.020051936,-1.9053925,-1.851478,-0.9622241,-0.083664335,0.08858509,-0.060029298,-0.3728616,-0.32819992,0.059827976,-3.078345,0.6247185,-0.00065326557,-0.005399312,-0.0003727559,-0.0042936043,0.004513539,-0.009554166,0.0075165904,0.44812474,-1.470615,2.0095541,-2.10763,-1.5706495,2.4229672,-0.0042576375,0.021912837,-0.015029329,0.0036810206,4.077968e-05,-0.0117628835,-0.45968673,0.4213795,-9.80665,0.71279734,47.709274,-0.4885289,-2.4027996,-3.548927,-0.44774866,0.004806426,-0.20046344,25.9375,26.75,25.875,28.75,29.6875,30.0625
0.022052266,-2.4782486,-2.1874676,-1.2346967,-0.057867687,0.07036764,-0.0448101,-0.37287858,-0.32819745,0.059814684,-3.0783138,0.62475014,-0.00067280827,-0.006046367,-0.0006541293,-0.0042751906,0.0046089743,-0.009753484,0.008204051,0.44811267,-1.4705547,2.0095184,-2.10763,-1.5706614,2.4229789,-0.004316056,0.023573939,-0.017020285,0.004231617,3.724733e-05,-0.01250746,-0.5746084,0.6512228,-9.710882,0.7083204,47.67614,-0.5102197,-2.4363542,-3.4583511,-0.4536702,0.0047445297,-0.1940155,25.9375,26.75,25.875,28.75,29.6875,30.0625
0.02405242,-2.026181,-1.6307096,-1.180964,-0.055209715,0.06978087,-0.06292841,-0.3729031,-0.328207,0.05983184,-3.0783353,0.6247355,-0.0006666848,-0.0082882345,-0.0007001516,-0.0030350536,0.0029222602,-0.0060974373,0.0073402077,0.44810018,-1.470531,2.009445,-2.1075943,-1.5706495,2.4229546,-0.006219667,0.023521286,-0.019456657,0.0026950282,-3.583985e-05,-0.013545164,-0.49799395,0.5554548,-9.768343,0.7665104,47.696735,-0.5800653,-2.3131485,-3.4613056,-0.42748976,-0.014573041,-0.19681117,25.9375,26.75,25.875,28.75,29.6875,30.0625
0.026052434,-1.5101779,-1.2940114,-1.1386439,-0.05579613,0.058871057,-0.08166268,-0.37290263,-0.32819808,0.059790913,-3.07831,0.6247301,-0.00075132836,-0.009934773,-0.0008603473,-0.0025034782,0.0020279381,-0.0041967467,0.0069042,0.44807577,-1.4704587,2.0094678,-2.107631,-1.5706376,2.42293,-0.0073996666,0.02468234,-0.02172389,0.0017008496,-6.1784616e-05,-0.014287261,-0.49799395,0.38307226,-9.825804,0.7486078,47.67166,-0.53896195,-2.1769996,-3.5788877,-0.3990597,-0.0147656165,-0.20292675,25.9375,26.75,25.875,28.75,29.6875,30.0625
0.028052526,-1.3077899,-1.0696211,-0.94770956,-0.045442782,0.05159644,-0.095057204,-0.37295288,-0.32821998,0.059829827,-3.0783439,0.6247183,-0.0006260306,-0.011075557,-0.0010477146,-0.002747162,0.0020857016,-0.0042470377,0.0065484266,0.44808733,-1.4704335,2.0093482,-2.1076186,-1.5706614,2.42293,-0.008063119,0.027323766,-0.023995494,0.0014011122,-9.6514465e-05,-0.014593,-0.57460845,0.38307226,-9.730036,0.7732232,47.679718,-0.5594963,-2.2377481,-3.5880566,-0.38746905,-0.03569226,-0.2239604,25.9375,26.75,25.875,28.75,29.6875,30.0625
0.030051686,-1.7232667,-1.0405387,-0.79280984,-0.022638576,0.04476753,-0.10283122,-0.37297487,-0.32822195,0.05981133,-3.0783288,0.624734,-0.0006799529,-0.01247164,-0.00097246206,-0.0023861146,0.002821744,-0.0028057778,0.0071283053,0.44806322,-1.4703497,2.0092986,-2.1076186,-1.57065,2.4229176,-0.008598386,0.028835483,-0.026484001,0.001402448,-0.0013909092,-0.015703663,-0.57460845,0.3256114,-9.653421,0.7418897,47.694946,-0.57110643,-2.2240806,-3.5623121,-0.36919492,-0.045109656,-0.21524695,25.9375,26.75,25.875,28.75,29.6875,30.0625
0.032051716,-1.6784974,-0.6239792,-0.8436043,-0.0018159408,0.04711517,-0.116481416,-0.37299353,-0.32820728,0.059787486,-3.0782986,0.62468916,-0.0007278714,-0.014095652,-0.0008916232,-0.0017997969,0.0032094417,-0.00088816765,0.007242261,0.448027,-1.4702772,2.0092738,-2.1076186,-1.5706624,2.4228573,-0.009423397,0.030069979,-0.029157914,0.0012853479,-0.0025785128,-0.016638152,-0.34476504,0.30645782,-9.634268,0.7351769,47.716442,-0.62691766,-2.2029316,-3.5148163,-0.34774873,-0.037284583,-0.23034489,25.9375,26.75,25.875,28.75,29.6875,30.0625
0.03405254,-1.1434913,0.113804504,-0.697744,0.016788883,0.04900731,-0.1366344,-0.3730048,-0.32822973,0.05978089,-3.078334,0.6245615,-0.0007398824,-0.015091441,-0.00088380656,-0.0010208277,0.0032375788,-0.0007839053,0.007884515,0.44805083,-1.4702168,2.0092251,-2.10763,-1.5706505,2.422797,-0.010295893,0.03071446,-0.032176152,0.0035776244,-0.0026512542,-0.018151509,-0.22984336,0.21068975,-9.5385,0.7530795,47.693153,-0.6694642,-2.1259325,-3.4884593,-0.35693347,-0.04003898,-0.21345158,25.9375,26.75,25.875,28.75,29.6875,30.0625
0.036052473,-0.9106851,0.53294635,-0.49524975,0.026013471,0.030608851,-0.15695357,-0.37308326,-0.3282355,0.05980735,-3.0783691,0.6246467,-0.0006343626,-0.015857177,-0.00081731094,-0.0007478881,0.0033057472,-0.0018063552,0.006857936,0.4479903,-1.4701568,2.009104,-2.1076534,-1.5706505,2.4227853,-0.011374539,0.032064594,-0.03479061,0.005791492,-0.002268957,-0.018203467,-0.28730422,0.076614454,-9.519346,0.7530795,47.684196,-0.62179434,-2.1212556,-3.5094347,-0.3590674,-0.044191375,-0.18722305,25.9375,26.75,25.875,28.75,29.6875,30.0625
0.03805254,-0.4956177,0.1948715,-0.74186,0.03811016,0.026691295,-0.16479805,-0.37308696,-0.32824594,0.059779692,-3.0783412,0.6246611,-0.00074816303,-0.01736567,-0.0011886193,-0.00055151054,0.0026832586,-0.0010755416,0.005115909,0.44799,-1.4700596,2.0090554,-2.1076295,-1.5706261,2.4227974,-0.0122104,0.034393553,-0.03772645,0.0054697352,-0.0020321005,-0.01729543,-0.21068975,-0.019153614,-9.519346,0.7732232,47.684196,-0.60022324,-2.1712444,-3.465917,-0.34638757,-0.07541752,-0.19160855,25.9375,26.75,25.875,28.75,29.6875,30.0625
0.040051788,-0.9976953,-0.066756,-0.7333954,0.034773905,0.0039213505,-0.17340274,-0.37312624,-0.32822177,0.05977608,-3.078284,0.6245731,-0.0006829579,-0.018670412,-0.0012200617,-0.00019438769,0.002002625,8.274004e-05,0.0035179504,0.44796565,-1.4699998,2.0089953,-2.1076176,-1.5707101,2.4227257,-0.013409496,0.03541964,-0.03954946,0.004926052,-0.0019253828,-0.016895363,-0.1340753,-0.076614454,-9.519346,0.74413085,47.70211,-0.6918788,-2.1319363,-3.4660888,-0.32408726,-0.099349074,-0.2000505,25.9375,26.75,25.875,28.75,29.6875,30.0625
0.04205185,-0.91702724,-0.14831953,-0.65733975,0.028998323,0.0043968353,-0.17642839,-0.37317693,-0.3282442,0.059794515,-3.0783422,0.6246236,-0.0006688212,-0.020012423,-0.0011082569,0.00037768245,0.0025382505,0.0013079646,0.002925915,0.44792938,-1.4699398,2.008887,-2.1076171,-1.5706624,2.4227135,-0.014149654,0.036508705,-0.042221487,0.0056410236,-0.0029421828,-0.017039856,-0.17238252,-0.05746084,-9.500193,0.78888994,47.672558,-0.5809346,-2.1279278,-3.4489899,-0.2959048,-0.09991118,-0.19758207,25.9375,26.75,25.875,28.75,29.6875,30.0625
0.04405212,-0.4760243,0.06401017,-0.6111075,0.016361598,0.023362985,-0.1810771,-0.37322336,-0.32824033,0.059805498,-3.0783129,0.6246561,-0.00061858475,-0.020621058,-0.0003489021,0.00017856334,0.004889046,0.00026121768,0.0027149247,0.44790503,-1.4698793,2.0087898,-2.1075923,-1.5706996,2.4227133,-0.015002689,0.038167074,-0.044081032,0.0078089503,-0.0046070027,-0.017677683,-0.15322891,0.11492168,-9.385271,0.7777002,47.642998,-0.610778,-2.0453207,-3.3941207,-0.31027853,-0.08689767,-0.19328274,25.9375,26.75,25.875,28.75,29.6875,30.0625
0.046051793,-0.12929161,-0.12683736,-0.61380464,0.01633299,0.036030512,-0.18519525,-0.37327853,-0.32823712,0.059815973,-3.0783148,0.62463725,-0.0005920582,-0.021566005,-0.00018199241,0.00093828724,0.00538028,0.00084929203,0.002497144,0.44785684,-1.4698071,2.008681,-2.107568,-1.5707115,2.4226532,-0.01569973,0.038495827,-0.04661816,0.009701964,-0.0053057093,-0.01815452,-0.05746084,0.1340753,-9.423578,0.7396539,47.686886,-0.57232505,-2.0637867,-3.449388,-0.31816864,-0.08032298,-0.18835333,25.9375,26.75,25.875,28.75,29.6875,30.0625
0.04805177,-0.5951055,-0.24904117,-0.94757545,0.0055466043,0.015967118,-0.16497695,-0.37331176,-0.32822326,0.059794705,-3.078269,0.62466663,-0.000642113,-0.022001049,-0.00010862767,0.0007556885,0.0056379223,-0.0004936019,0.0020707014,0.44780856,-1.469711,2.0086215,-2.1075556,-1.5707234,2.422629,-0.016467264,0.0400933,-0.048270423,0.011077001,-0.004958063,-0.018495267,-0.11492168,0.13407528,-9.500193,0.7709874,47.657326,-0.57218295,-1.9587823,-3.5161471,-0.32492426,-0.09056763,-0.18644191,25.9375,26.75,25.875,28.75,29.6875,30.0625
0.05005214,-0.57022774,-0.5645569,-0.80927366,0.0013431136,0.014838551,-0.15769054,-0.37333426,-0.32824066,0.059787344,-3.078256,0.6246245,-0.00068658614,-0.022615671,-0.000599286,0.000972817,0.005515433,-0.00043507133,0.0038061207,0.44782072,-1.4696145,2.0085242,-2.1075194,-1.5707234,2.4226167,-0.016158693,0.041540638,-0.05051966,0.011772562,-0.004877825,-0.01992075,0.0,0.21068975,-9.557653,0.84484416,47.681515,-0.5733849,-1.9457337,-3.5099416,-0.32854035,-0.0857221,-0.1845521,25.9375,26.75,25.875,28.75,29.6875,30.0625
0.052052453,-0.84884155,-0.841176,-0.794015,-0.01772086,0.011859241,-0.15105507,-0.37337953,-0.32824326,0.05979579,-3.0782661,0.6245689,-0.0006891252,-0.023372147,-0.00033431617,0.0009976685,0.006324282,-0.0008914298,0.0037798777,0.44778442,-1.4695421,2.008417,-2.1074827,-1.5707234,2.4225445,-0.016981428,0.042975247,-0.0524389,0.013020344,-0.0054112887,-0.020715062,-0.11492168,0.24899697,-9.557653,0.8023209,47.70032,-0.63723695,-1.836905,-3.5763235,-0.32367525,-0.11607214,-0.17701778,25.9375,26.75,25.875,28.75,29.6875,30.0625
0.054052074,-0.568772,-1.1762158,-1.0146831,-0.035171226,0.03130808,-0.16402012,-0.37343168,-0.3282278,0.059800692,-3.078227,0.62452143,-0.0006321882,-0.024266982,-0.00068115204,0.0009845834,0.00685144,-0.00089201063,0.0046479627,0.4477486,-1.4694695,2.0083206,-2.1074588,-1.5707835,2.4224842,-0.016816769,0.04530977,-0.05510174,0.0135775115,-0.005891243,-0.021415642,-0.038307227,0.3256114,-9.576807,0.7150385,47.642998,-0.5937935,-1.88378,-3.6121197,-0.34443876,-0.10962708,-0.16823757,25.9375,26.75,25.875,28.75,29.6875,30.0625
0.056052323,-1.1788259,-2.0580986,-1.0285754,-0.026314095,0.027355395,-0.14883393,-0.3734846,-0.32824674,0.059804425,-3.0782588,0.6245094,-0.00066505745,-0.025355825,-0.00051205006,0.0009586679,0.0074638007,-0.00040047182,0.0047060717,0.44771218,-1.4693612,2.0081875,-2.107435,-1.5707482,2.4224362,-0.01760059,0.04702797,-0.056915496,0.013498184,-0.0066607967,-0.022254523,-0.076614454,0.45968673,-9.595961,0.8157518,47.66091,-0.63540715,-1.8003161,-3.6165075,-0.35726023,-0.09957941,-0.16321105,25.9375,26.75,25.875,28.75,29.6875,30.0625
0.058052376,-1.3230575,-1.7593968,-0.76786333,-0.041781604,0.034580797,-0.1502422,-0.37354162,-0.32823375,0.059808984,-3.0781908,0.62460953,-0.00060757034,-0.026361026,-0.0009510799,0.0010956931,0.0072504515,0.00036837213,0.005752052,0.4476762,-1.4692764,2.0080788,-2.1074116,-1.5708078,2.4224715,-0.017587308,0.0488282,-0.0591237,0.013119384,-0.0068076733,-0.023285195,-0.15322891,0.47884035,-9.557653,0.8537928,47.684196,-0.64435875,-1.8516102,-3.5632339,-0.35603094,-0.1097222,-0.15177056,25.9375,26.75,25.875,28.75,29.6875,30.0625
0.060052577,-1.2743089,-1.4624255,-0.72034085,-0.040287532,0.037110277,-0.15080528,-0.37358102,-0.32823563,0.059799396,-3.0781918,0.6245508,-0.000690777,-0.02804837,-0.0013246196,0.0017187016,0.0070884167,0.0027400062,0.006702182,0.44762808,-1.4691683,2.007971,-2.1073635,-1.5707844,2.4223866,-0.017812569,0.05037559,-0.062073726,0.01231702,-0.007698362,-0.024456033,-0.17238252,0.5554548,-9.557653,0.7642693,47.689575,-0.60653067,-1.7726474,-3.6510706,-0.33938295,-0.096097454,-0.13605003,25.9375,26.75,25.875,28.75,29.6875,30.0625
0.062051795,-1.5509608,-1.7061589,-0.7129188,-0.026541522,0.025790928,-0.14445017,-0.37363783,-0.32824385,0.059813526,-3.0782108,0.62449795,-0.00067460584,-0.029441306,-0.0013697271,0.0018240521,0.0071822577,0.00327869,0.006227006,0.44759187,-1.4690837,2.0078375,-2.1073277,-1.5707844,2.4223151,-0.018771589,0.052527416,-0.06468632,0.012333539,-0.008021669,-0.02493737,-0.15322891,0.5746084,-9.576807,0.779936,47.67614,-0.6124792,-1.7755333,-3.5613546,-0.35744268,-0.10426676,-0.14115717,25.9375,26.75,25.875,28.75,29.6875,30.0625
0.06405214,-0.7751295,-1.1035208,-0.65778524,-0.03039921,0.03705296,-0.14937843,-0.37373397,-0.32826722,0.0598471,-3.0782685,0.6246052,-0.0005774522,-0.030363461,-0.0016854753,0.0020018148,0.007055687,0.004570663,0.0069452357,0.44753194,-1.4689875,2.0076578,-2.1073406,-1.5707601,2.422315,-0.018706093,0.053747233,-0.06623561,0.011445093,-0.008469995,-0.025588555,-0.17238252,0.53630114,-9.442732,0.7597976,47.684196,-0.62319756,-1.7330427,-3.6356797,-0.33853835,-0.11073845,-0.13035454,25.9375,26.75,25.875,28.75,29.6875,30.0625
0.066052444,-1.1113025,-1.2572787,-0.87902695,-0.025682839,0.025814556,-0.15212171,-0.37377587,-0.32827857,0.05985114,-3.078252,0.62444746,-0.00052045623,-0.032637008,-0.0029331686,0.0029882037,0.0053395745,0.006629053,0.0077193305,0.44755584,-1.4688907,2.0075366,-2.1073163,-1.5708202,2.4222426,-0.018863633,0.056621287,-0.07164383,0.011376976,-0.007825952,-0.026517862,-0.15322891,0.45968673,-9.3661175,0.8179876,47.69763,-0.63553673,-1.7420756,-3.4695477,-0.32455975,-0.11920923,-0.112693086,25.9375,26.75,25.875,28.75,29.6875,30.0625
0.06805261,-0.80206084,-1.1842109,-0.668475,-0.022886217,0.029266143,-0.1469946,-0.37385014,-0.32829097,0.059861477,-3.0782802,0.6245101,-0.00050033367,-0.032521106,-0.0020061887,0.0010845311,0.008058494,0.0035286434,0.007875167,0.44749546,-1.4687816,2.0073931,-2.1073163,-1.5707964,2.4222178,-0.019745957,0.0601102,-0.07110571,0.011325446,-0.008934071,-0.027553743,-0.15322891,0.4405331,-9.3661175,0.7978386,47.71554,-0.63492304,-1.9111738,-3.6374445,-0.32678574,-0.116140105,-0.10500482,25.9375,26.75,25.875,28.75,29.6875,30.0625
0.070052065,-1.0702877,-1.1332742,-0.3157232,-0.019746874,0.020193292,-0.150797,-0.37391657,-0.3282952,0.05987287,-3.0782518,0.62444675,-0.000521037,-0.03426732,-0.0026962687,0.003129254,0.006267662,0.0077133356,0.008685996,0.4474595,-1.4686495,2.0072,-2.1072204,-1.5708207,2.422146,-0.019890483,0.05883012,-0.07440065,0.011352359,-0.009138691,-0.028506614,-0.15322891,0.45968673,-9.32781,0.7620334,47.70838,-0.62465525,-1.6926193,-3.5535932,-0.2969727,-0.10663328,-0.09089753,25.9375,26.75,25.875,28.75,29.6875,30.0625
0.07205251,-1.4196792,-1.2677525,-0.47887537,-0.007184957,0.017567547,-0.13624895,-0.37400326,-0.32830516,0.059876557,-3.0782852,0.6244342,-0.0004595389,-0.036839165,-0.0038802936,0.0046442794,0.0049698562,0.010941692,0.008535867,0.44739947,-1.4685178,2.007055,-2.1072567,-1.5708207,2.422074,-0.01983445,0.061086543,-0.080429494,0.0116530955,-0.009375603,-0.02829656,-0.21068975,0.38307226,-9.3661175,0.75755644,47.686886,-0.6613108,-1.6606823,-3.3378382,-0.3143626,-0.13100399,-0.08352664,25.9375,26.75,25.875,28.75,29.6875,30.0625
0.07405205,-1.4110729,-0.8583616,-0.50667006,-0.011013468,0.017850738,-0.1450856,-0.37406167,-0.32832035,0.05987981,-3.078271,0.62439364,-0.00041335745,-0.036316276,-0.003495319,0.0018720428,0.0066466345,0.0053097396,0.007251332,0.44739914,-1.4683961,2.006911,-2.1072443,-1.5708565,2.4220505,-0.020710502,0.06651808,-0.08004648,0.011637379,-0.008449532,-0.02788946,-0.19153613,0.30645782,-9.3661175,0.8023209,47.686886,-0.6504055,-1.8742757,-3.551847,-0.3028647,-0.12946892,-0.088627934,25.9375,26.75,25.875,28.75,29.6875,30.0625
0.076052,-1.4132223,-1.4017411,-0.58586854,0.0037164178,0.02003919,-0.13355233,-0.374132,-0.32833531,0.0598897,-3.0782888,0.6244162,-0.0004615265,-0.03839988,-0.0042396267,0.0043007755,0.0050466587,0.009611878,0.007240535,0.44733915,-1.4682648,2.0067303,-2.1071837,-1.5708207,2.4220023,-0.020906968,0.06542871,-0.08469133,0.012802667,-0.008875484,-0.028071914,-0.19153613,0.22984336,-9.32781,0.7284641,47.64658,-0.65701514,-1.7733254,-3.394799,-0.29248255,-0.13274129,-0.10098764,25.9375,26.75,25.875,28.75,29.6875,30.0625
0.07805227,-0.93002367,-0.587626,-0.57011294,-0.003941627,0.027073614,-0.14749928,-0.37424272,-0.32834384,0.059904907,-3.0782967,0.6244162,-0.0003523915,-0.039734434,-0.0046487595,0.00415944,0.005534506,0.0098769525,0.008839994,0.44727916,-1.4681078,2.0065258,-2.107196,-1.5708569,2.4219415,-0.020963633,0.06865639,-0.08791744,0.012773011,-0.009435735,-0.02972502,-0.21068975,0.2873042,-9.270349,0.7665104,47.688675,-0.66106874,-1.7649986,-3.271226,-0.2970094,-0.1394751,-0.09800052,25.9375,26.75,25.875,28.75,29.6875,30.0625
0.080052495,-0.37605795,-0.08645784,-0.5291394,-0.010566895,0.03865482,-0.15627167,-0.3742829,-0.32836294,0.05990499,-3.0782835,0.6242605,-0.0003494208,-0.039968275,-0.004365848,0.0029880346,0.0073108636,0.0076387837,0.00878924,0.44730297,-1.4679871,2.0063818,-2.107148,-1.5708932,2.42187,-0.021279227,0.071959116,-0.08899979,0.013340291,-0.010071306,-0.029987343,-0.19153613,0.2681506,-9.251195,0.7239871,47.67166,-0.6218761,-1.8489523,-3.388587,-0.27652097,-0.15452825,-0.088201,25.9375,26.75,25.875,28.75,29.6875,30.0625
0.08205208,-1.5070977,-0.92181325,-0.45997262,0.0031711734,0.02258412,-0.13922594,-0.37439013,-0.32835922,0.059904832,-3.0782785,0.6243155,-0.00030695353,-0.04204557,-0.0045649144,0.003926532,0.0074696415,0.009975153,0.008914041,0.4472068,-1.4678186,2.0061996,-2.1071594,-1.5709051,2.421809,-0.02199346,0.07365513,-0.09311447,0.013723567,-0.0112320455,-0.03082171,-0.34476504,0.2681506,-9.308656,0.7866488,47.687782,-0.6916293,-1.8164027,-3.0855608,-0.28917342,-0.1351107,-0.082581475,25.9375,26.75,25.875,28.75,29.6875,30.0625
0.084052734,-1.4199653,-0.57060164,-0.62585706,-0.009116822,0.025997903,-0.151174,-0.374474,-0.32834837,0.059897285,-3.078221,0.62434137,-0.00031956832,-0.041352324,-0.0041212626,0.0022233399,0.009400213,0.006586354,0.009949757,0.4471348,-1.4676502,2.0060208,-2.1071117,-1.5709413,2.4217606,-0.022005817,0.07639028,-0.09230892,0.014071897,-0.011506413,-0.031868976,-0.30645782,0.2681506,-9.3661175,0.7329411,47.694946,-0.69219947,-1.8546878,-3.3677235,-0.2680446,-0.12552841,-0.06751236,25.9375,26.75,25.875,28.75,29.6875,30.0625
0.08605272,-1.4703802,-1.0738041,-0.5993804,-0.0038904897,0.03228469,-0.14461954,-0.37454638,-0.32837027,0.059921212,-3.0782464,0.624251,-0.00030524094,-0.04391176,-0.004778027,0.0037316899,0.009109785,0.009254951,0.008772847,0.44711056,-1.4675294,2.0058167,-2.1070397,-1.5709418,2.4216769,-0.02247952,0.07851929,-0.09845575,0.015561132,-0.012407199,-0.031160517,-0.30645782,0.2681506,-9.385271,0.7978386,47.686886,-0.7174493,-1.8392283,-3.2259498,-0.26908493,-0.1259506,-0.0772883,25.9375,26.75,25.875,28.75,29.6875,30.0625
0.088052064,-1.3883344,-0.6487694,-0.37768245,-0.015763968,0.038581587,-0.15140092,-0.37463707,-0.3283817,0.05992691,-3.0782244,0.62424743,-0.00025683222,-0.042988535,-0.0038400202,0.0020012737,0.011649929,0.0056804586,0.0073613487,0.44707453,-1.4673612,2.005613,-2.1070154,-1.5709785,2.4216416,-0.02289857,0.080484614,-0.09682941,0.016292388,-0.01314617,-0.0301676,-0.22984336,0.21068975,-9.308656,0.7911258,47.693153,-0.7003517,-1.8331847,-3.390155,-0.27731037,-0.105515994,-0.10891393,25.9375,26.75,25.875,28.75,29.6875,30.0625
0.090051994,-0.6250073,-0.47398958,-0.43304577,-0.011024331,0.05361061,-0.15122709,-0.3747331,-0.3284025,0.059945974,-3.078272,0.6241608,-0.00019642226,-0.044983372,-0.0045334254,0.0026934464,0.011250187,0.00743122,0.00725944,0.4470265,-1.4672167,2.0054076,-2.107003,-1.5709785,2.4215336,-0.023124289,0.083134145,-0.10137445,0.016437152,-0.013550457,-0.030288193,-0.24899697,0.30645782,-9.32781,0.784413,47.657326,-0.66204476,-1.84321,-3.2490325,-0.2566273,-0.11499682,-0.12116391,25.9375,26.75,25.875,28.75,29.6875,30.0625
0.09205238,-1.1564765,-0.62410086,-0.47496378,-0.0014239444,0.039255306,-0.14471008,-0.37480432,-0.32840264,0.059930205,-3.0782077,0.6241659,-0.00026435737,-0.04591511,-0.0046876953,0.002588685,0.011166727,0.0074323565,0.008309696,0.44697827,-1.4670244,2.005216,-2.1069314,-1.5710024,2.4214969,-0.023717988,0.08508743,-0.10327876,0.01634867,-0.013482991,-0.03192988,-0.30645782,0.30645782,-9.385271,0.779936,47.664497,-0.74057806,-1.8857555,-3.2855248,-0.24661821,-0.1337685,-0.12323644,25.9375,26.75,25.875,28.75,29.6875,30.0625
0.09405189,-1.1851888,-0.6176751,-0.31673127,0.008199187,0.033998877,-0.14445208,-0.37490118,-0.32841724,0.059925277,-3.078176,0.6241787,-0.00023123105,-0.04741144,-0.005062669,0.0028590132,0.010468966,0.008293857,0.007836989,0.446942,-1.46682,2.0049994,-2.106919,-1.5710381,2.4214728,-0.024531092,0.087207854,-0.10618007,0.016048405,-0.013233106,-0.03226868,-0.28730422,0.15322891,-9.385271,0.8157518,47.677036,-0.69235784,-1.7641926,-3.2531567,-0.22218457,-0.11193116,-0.116594955,25.9375,26.75,25.875,28.75,29.6875,30.0625
0.096051924,-1.1332812,-0.46444845,-0.56288147,0.00248478,0.030707102,-0.14529954,-0.37501675,-0.32843468,0.059959967,-3.0782297,0.6241705,-0.00012702474,-0.04804903,-0.0051112394,0.003315824,0.011147693,0.008812432,0.00761613,0.44687006,-1.466688,2.004772,-2.1069071,-1.5710381,2.421389,-0.024442019,0.087850325,-0.108224414,0.017278185,-0.014067777,-0.031957272,-0.24899697,0.17238252,-9.3661175,0.83589023,47.686886,-0.7035333,-1.9086593,-3.2551436,-0.22145179,-0.09654953,-0.1383124,25.9375,26.75,25.875,28.75,29.6875,30.0625
0.0980526,-1.1170781,-1.1286781,-0.60108405,0.007689029,0.028741283,-0.14591211,-0.37509707,-0.32844755,0.059963204,-3.0782166,0.6240523,-0.00010884623,-0.048710037,-0.0051075183,0.0019201488,0.012669503,0.00623115,0.007817085,0.44684592,-1.4665184,2.004567,-2.106859,-1.5710744,2.421293,-0.024867622,0.09265808,-0.11041532,0.017645888,-0.01432921,-0.03258121,-0.19153613,0.30645782,-9.346964,0.78217715,47.682407,-0.6573273,-1.9820105,-3.250905,-0.21579507,-0.118188605,-0.14169541,25.9375,26.75,25.875,28.75,29.6875,30.0625
0.10005186,-1.4158899,-1.3545473,-0.5520149,-0.0021385318,0.018052988,-0.13524118,-0.37518913,-0.32846823,0.059945244,-3.0781863,0.6240455,-0.00014240522,-0.049489208,-0.0049717184,0.0032755735,0.012679777,0.008299093,0.007881207,0.44680965,-1.4662795,2.0043395,-2.1068347,-1.5710868,2.4212565,-0.025207205,0.09108205,-0.112135716,0.019083956,-0.015233803,-0.032982267,-0.22984336,0.30645782,-9.346964,0.86498255,47.694946,-0.66514754,-1.8110491,-3.2875218,-0.21975493,-0.09072576,-0.1615578,25.9375,26.75,25.875,28.75,29.6875,30.0625
0.10205293,-1.1641777,-1.335163,-0.43252847,-0.01239942,0.017577743,-0.13625394,-0.37532914,-0.3284673,0.05998936,-3.078156,0.62407684,2.4988103e-05,-0.049814392,-0.0050816187,0.0007509012,0.014255052,0.003205984,0.007945311,0.44673753,-1.4661213,2.0040505,-2.1067746,-1.5711702,2.4212081,-0.025811931,0.09812425,-0.11417706,0.019349873,-0.014455694,-0.03365147,-0.17238252,0.30645782,-9.3661175,0.800085,47.70032,-0.64972883,-1.9102322,-3.2060728,-0.1885103,-0.09825073,-0.18115425,25.9375,26.75,25.875,28.75,29.6875,30.0625
0.10405242,-1.1157593,-1.8372846,-0.4873097,-0.012823794,0.01941713,-0.13699053,-0.37542075,-0.32848352,0.059979048,-3.078169,0.6240219,-1.7989255e-06,-0.05075592,-0.005203697,0.002260875,0.012896142,0.006306075,0.008115717,0.4466773,-1.4659187,2.0038483,-2.1067626,-1.5711588,2.421112,-0.026342828,0.095964245,-0.11524187,0.019191254,-0.014572851,-0.034352075,-0.21068975,0.2681506,-9.308657,0.8090337,47.679718,-0.6536404,-1.8285356,-3.3284798,-0.18632627,-0.08982602,-0.18496552,25.9375,26.75,25.875,28.75,29.6875,30.0625
0.10605238,-0.8863935,-0.86998796,-0.41074374,-0.035953626,0.019955538,-0.15156564,-0.37553108,-0.3284852,0.0599979,-3.0781388,0.62395835,9.5249896e-05,-0.051470187,-0.0051217102,0.0007307898,0.013481217,0.0032279524,0.0071390136,0.4466289,-1.4657491,2.0036075,-2.106715,-1.5712303,2.4210281,-0.027673421,0.10073673,-0.11701185,0.01921137,-0.013774067,-0.034706093,-0.038307227,0.2681506,-9.232041,0.80456203,47.67345,-0.6594439,-1.9421835,-3.4066067,-0.18207982,-0.09173627,-0.20855342,25.9375,26.75,25.875,28.75,29.6875,30.0625
0.108051874,-0.68708074,-0.8426389,-0.29701436,-0.0121036805,0.017441522,-0.140818,-0.37563154,-0.32849535,0.05998876,-3.0781274,0.6240521,1.5513022e-05,-0.052661512,-0.005199384,0.0010646738,0.013028551,0.004023642,0.0072610145,0.4465326,-1.4655331,2.0033796,-2.1066673,-1.571194,2.420992,-0.028628903,0.10192851,-0.11910954,0.01920315,-0.01371595,-0.035781812,0.0,0.2681506,-9.32781,0.8403672,47.686886,-0.5643588,-1.9504232,-3.4514387,-0.16422883,-0.08527951,-0.21746066,25.9375,26.75,25.875,28.75,29.6875,30.0625
0.1100521,-0.48976249,-0.520949,-0.3067788,-0.0072432025,0.012407791,-0.14537771,-0.37575608,-0.32852122,0.060017165,-3.0781605,0.623905,0.00017615769,-0.053106233,-0.005759605,0.0004524656,0.012866593,0.0028104184,0.007836133,0.44650868,-1.4653524,2.0031154,-2.1066673,-1.5712537,2.4208722,-0.028424442,0.10483137,-0.120901614,0.019111583,-0.013047204,-0.036153372,-0.038307227,0.3256114,-9.346964,0.7709874,47.72002,-0.5820676,-1.9697192,-3.315184,-0.15896532,-0.10323163,-0.2208827,25.9375,26.75,25.875,28.75,29.6875,30.0625
0.11205262,-0.3839734,-0.5070282,-0.28402516,-0.0029935653,0.010876115,-0.151869,-0.37584233,-0.3285242,0.05999029,-3.078104,0.62393075,7.150955e-05,-0.054268256,-0.0061183204,0.0013417836,0.012309802,0.004400679,0.008679097,0.4464366,-1.4651129,2.0028994,-2.1066072,-1.5712541,2.4208236,-0.02866017,0.10526001,-0.12356341,0.019668909,-0.013239768,-0.03722917,-0.1340753,0.3256114,-9.212888,0.83589023,47.65912,-0.6419687,-1.8781658,-3.53666,-0.12930533,-0.10661383,-0.25211868,25.9375,26.75,25.875,28.75,29.6875,30.0625
0.11405261,-0.25887477,-0.26998848,-0.21284315,-0.0039702985,0.008388177,-0.15201682,-0.37598157,-0.32854432,0.060019076,-3.0781245,0.62391436,0.00016732902,-0.05398879,-0.0062880632,0.00076835067,0.01265144,0.0022141924,0.010709459,0.44636458,-1.4649086,2.0026,-2.106571,-1.571278,2.420739,-0.028506618,0.10691251,-0.12438375,0.020950954,-0.012601617,-0.039107643,-0.095768064,0.34476504,-9.308657,0.8179876,47.691364,-0.6755962,-1.9088445,-3.4884143,-0.110639326,-0.097037934,-0.23126763,25.9375,26.75,25.875,28.75,29.6875,30.0625
0.11605237,-0.82237893,-0.92822564,-0.49466702,0.0029226807,0.0024657513,-0.13817203,-0.37605825,-0.328564,0.059990834,-3.0780838,0.6238094,7.104213e-05,-0.05489891,-0.0058829053,-0.00071095134,0.014216745,-0.00066959794,0.01010277,0.4463401,-1.4646553,2.0023715,-2.1065104,-1.5712899,2.4206543,-0.029964503,0.11179836,-0.12652877,0.021486307,-0.012775973,-0.039955582,-0.019153614,0.2681506,-9.308656,0.8157518,47.686886,-0.65979576,-1.9452248,-3.4808347,-0.12504381,-0.08587969,-0.24812543,25.9375,26.75,25.875,28.75,29.6875,30.0625
0.11805195,-0.6656638,-0.8847091,-0.4687937,-0.009423842,0.008695472,-0.14154889,-0.37617722,-0.32856765,0.059997696,-3.0780377,0.6238012,0.0001287612,-0.055927925,-0.006380539,0.0012291131,0.011855394,0.0028114738,0.00878086,0.44628,-1.4644406,2.0021083,-2.1064627,-1.57135,2.4205952,-0.030366702,0.1091872,-0.12812881,0.02153356,-0.01215155,-0.03903667,0.019153614,0.22984336,-9.270349,0.83589023,47.701214,-0.6416056,-1.7881469,-3.6509356,-0.10343099,-0.08925703,-0.27556422,25.9375,26.75,25.875,28.75,29.6875,30.0625
0.12005213,-0.8790455,-0.99102014,-0.47014475,-0.00814881,0.008117967,-0.13228418,-0.3762922,-0.32857612,0.059994146,-3.0780199,0.62375695,0.00013515611,-0.056338437,-0.0065499153,-0.00014406664,0.01341856,-0.000749987,0.009927634,0.4462081,-1.4642111,2.0018551,-2.1064265,-1.5713738,2.4204981,-0.030492432,0.114240706,-0.1309586,0.023193883,-0.012028333,-0.040307324,-0.05746084,0.17238252,-9.308657,0.78888994,47.713753,-0.6441839,-1.8617399,-3.5122504,-0.087274864,-0.094209574,-0.30033857,25.9375,26.75,25.875,28.75,29.6875,30.0625
0.1220524,-0.6925537,-0.88475037,-0.34640288,0.0017430683,0.011565768,-0.13710758,-0.37642923,-0.32860982,0.060021784,-3.078077,0.62373155,0.00023967361,-0.05884527,-0.00703464,0.0023651365,0.011683324,0.0033434732,0.009338284,0.44614756,-1.464008,2.0015676,-2.106426,-1.5713738,2.4204147,-0.031689767,0.113425605,-0.13619915,0.024807539,-0.012234013,-0.040913474,-0.15322891,0.15322891,-9.346964,0.79560274,47.65464,-0.5835783,-1.7959306,-3.4813154,-0.08291035,-0.11721401,-0.29877892,25.9375,26.75,25.875,28.75,29.6875,30.0625
0.124051854,-0.94101524,-0.41809443,-0.61260825,0.003263456,0.0071408036,-0.14138612,-0.37651908,-0.32865107,0.060012065,-3.078074,0.62361455,0.00015256148,-0.05884767,-0.00712255,0.0013405409,0.012715983,0.0005769333,0.010531952,0.44613558,-1.4637433,2.0012786,-2.1063416,-1.5713619,2.4203303,-0.031696305,0.11659208,-0.13765462,0.026036283,-0.0119753005,-0.04211251,-0.05746084,0.21068975,-9.346964,0.75084364,47.658226,-0.5851316,-1.8266876,-3.4736302,-0.082916334,-0.10388403,-0.32543755,25.9375,26.75,25.875,28.75,29.6875,30.0625
0.1260524,-0.6913817,-0.16944383,-0.45964175,0.0058257394,0.013731698,-0.14395218,-0.37661484,-0.32861808,0.059988715,-3.0779593,0.623648,8.844527e-05,-0.059766382,-0.007948548,0.0019150806,0.012276619,0.0012594779,0.011442678,0.44602793,-1.4635273,2.0010746,-2.1062572,-1.571422,2.4202583,-0.031025754,0.118183486,-0.14095686,0.026937485,-0.011883074,-0.042349845,-0.038307227,0.24899697,-9.32781,0.85155696,47.679718,-0.6096559,-1.7644488,-3.358093,-0.07737061,-0.12525631,-0.33694673,25.9375,26.75,25.875,28.75,29.6875,30.0625
0.12805162,-0.8907764,-0.68866116,-0.8050162,0.004809621,0.022691999,-0.14048706,-0.37676495,-0.32864982,0.060021758,-3.0779834,0.62365377,0.00019899226,-0.06058128,-0.0082744025,0.0023839767,0.0119462805,0.001333057,0.009221618,0.44596776,-1.4632994,2.0007389,-2.1062205,-1.5714453,2.420199,-0.031314485,0.119293496,-0.14357878,0.028239686,-0.011615604,-0.040417604,-0.21068975,0.30645782,-9.404425,0.8537928,47.66987,-0.69257104,-1.7681031,-3.367086,-0.084522195,-0.13708153,-0.38948557,25.9375,26.75,25.875,28.75,29.6875,30.0625
0.13005222,-1.283843,-1.2129099,-0.8415774,0.0001310448,0.026682401,-0.14372325,-0.3768924,-0.32868528,0.06002126,-3.077995,0.62359715,0.00019915748,-0.061389368,-0.007958162,0.0025358205,0.012511229,0.0011500921,0.008839369,0.4459195,-1.4630235,2.0004275,-2.1061852,-1.5714458,2.420114,-0.032328453,0.1203361,-0.14537388,0.029401345,-0.012048115,-0.041047633,-0.24899697,0.36391866,-9.423578,0.80679786,47.675243,-0.7087547,-1.6834118,-3.336905,-0.07796216,-0.12407999,-0.4205912,25.9375,26.75,25.875,28.75,29.6875,30.0625
0.13205235,-0.925526,-1.4344662,-1.018,-0.016192693,0.039265495,-0.15210912,-0.37700114,-0.32868606,0.060024794,-3.0779276,0.6236025,0.00015589401,-0.062394682,-0.007553003,0.0020465616,0.013706321,-0.00020012744,0.01005055,0.44584703,-1.462795,2.0001395,-2.1060646,-1.5714816,2.4200537,-0.033638865,0.12323433,-0.14775522,0.030615121,-0.012550795,-0.043565992,-0.15322891,0.40222588,-9.461885,0.74413085,47.693153,-0.66880214,-1.6070683,-3.3646474,-0.0719337,-0.116549596,-0.41710702,25.9375,26.75,25.875,28.75,29.6875,30.0625
0.13405181,-1.53932,-1.5736911,-0.9875467,-0.038819507,0.033439286,-0.13856949,-0.3771244,-0.32868752,0.060015835,-3.07789,0.623497,0.00012878195,-0.0629729,-0.007975311,0.002099417,0.013966728,-0.00037673375,0.012237346,0.44576314,-1.462531,1.9998521,-2.1059926,-1.5715178,2.419909,-0.033242144,0.12499521,-0.15003029,0.031397156,-0.012716473,-0.045353785,-0.22984336,0.40222588,-9.595961,0.8157518,47.684196,-0.6598201,-1.7177451,-3.365535,-0.09946394,-0.15270211,-0.4214934,25.9375,26.75,25.875,28.75,29.6875,30.0625
0.13605249,-1.4750394,-1.7122009,-1.0603075,-0.041782416,0.045576964,-0.1424858,-0.3772456,-0.32870924,0.06003643,-3.0778866,0.6235339,0.0001680073,-0.063671626,-0.007683594,0.0006837182,0.016465351,-0.0027672043,0.013620487,0.445703,-1.4623253,1.999564,-2.1059325,-1.5715302,2.4198725,-0.033577986,0.12978923,-0.15225838,0.03206672,-0.0139441695,-0.04706865,-0.30645782,0.4213795,-9.615114,0.84708,47.694946,-0.7153931,-1.7767673,-3.3887866,-0.08645149,-0.1151375,-0.4214947,25.9375,26.75,25.875,28.75,29.6875,30.0625
0.1380518,-1.781032,-1.5967863,-0.96487564,-0.037831828,0.035857588,-0.13928515,-0.37737808,-0.3287344,0.06002883,-3.0778718,0.6233948,0.00017298698,-0.064506136,-0.008463529,0.001896787,0.014829017,-0.00068248174,0.015589675,0.4456551,-1.4620264,1.9992403,-2.1058848,-1.5715665,2.41974,-0.033239625,0.12916426,-0.15443154,0.0322723,-0.013373038,-0.04869934,-0.28730422,0.36391866,-9.653421,0.8023209,47.658226,-0.71706134,-1.6933844,-3.4465895,-0.087797165,-0.13326032,-0.4489398,25.9375,26.75,25.875,28.75,29.6875,30.0625
0.14005214,-1.2612406,-1.0771186,-1.011533,-0.031960387,0.047070537,-0.14105399,-0.3775374,-0.32876602,0.060060933,-3.0779254,0.623347,0.00026109768,-0.065000735,-0.008259364,0.001142573,0.01585396,-0.0017090355,0.017724682,0.44557092,-1.4617859,1.9988927,-2.1058486,-1.5715665,2.4196193,-0.033720884,0.13161127,-0.15541475,0.032174498,-0.013856477,-0.051314637,-0.22984336,0.28730422,-9.634268,0.90750587,47.684196,-0.69699633,-1.8555112,-3.4228425,-0.06791696,-0.14747414,-0.4399653,25.9375,26.75,25.875,28.75,29.6875,30.0625
0.14205256,-1.5163344,-0.8097007,-0.7502247,-0.026725542,0.034692857,-0.14276132,-0.37764502,-0.32877094,0.0600506,-3.077831,0.623286,0.00019608288,-0.066489674,-0.009280304,0.0013841899,0.014566543,-0.0011362642,0.021027904,0.445523,-1.4615095,1.9985808,-2.105717,-1.5716256,2.4195457,-0.03374428,0.13460042,-0.15925512,0.031943496,-0.012957832,-0.05463916,-0.3256114,0.30645782,-9.519346,0.7709874,47.684196,-0.78562665,-1.7347912,-3.365764,-0.06717667,-0.14205967,-0.44144282,25.9375,26.75,25.875,28.75,29.6875,30.0625
0.14405188,-1.5353522,-1.0651743,-0.92686486,0.00014756825,0.019907732,-0.14327009,-0.377781,-0.3287952,0.060055666,-3.077853,0.62311655,0.00023376252,-0.067422174,-0.008909561,0.0008885681,0.015790232,-0.0014072544,0.022960521,0.44546273,-1.4612453,1.998269,-2.1056812,-1.5716504,2.419377,-0.034591146,0.1369588,-0.16073582,0.031835992,-0.013950387,-0.05741549,-0.24899697,0.3256114,-9.461885,0.8537928,47.66808,-0.78183234,-1.734916,-3.4199045,-0.03200405,-0.15035313,-0.42340732,25.9375,26.75,25.875,28.75,29.6875,30.0625
0.14605197,-0.9624729,-0.9761239,-0.88600236,0.0055412827,0.026067719,-0.14374475,-0.37794456,-0.3288203,0.060085975,-3.0778697,0.6231175,0.00032911779,-0.06801293,-0.009356021,0.0007126787,0.01592371,-0.0020391261,0.026811872,0.4453787,-1.4609929,1.9979094,-2.1056325,-1.5716742,2.4192917,-0.03436765,0.13922657,-0.16301867,0.03247162,-0.013801558,-0.06104303,-0.11492168,0.30645782,-9.461885,0.80456203,47.691364,-0.8042642,-1.8080169,-3.3943777,-0.037814897,-0.16345705,-0.38957727,25.9375,26.75,25.875,28.75,29.6875,30.0625
0.14805229,-0.9641575,-0.50365746,-0.783565,-0.010183954,0.025241114,-0.1480637,-0.37806192,-0.3288316,0.060055926,-3.0778139,0.62306577,0.00019344983,-0.06885011,-0.00928545,5.1906012e-05,0.017537422,-0.0033720112,0.030071791,0.44529468,-1.4606684,1.9975976,-2.1055372,-1.5716747,2.4191828,-0.034632936,0.14273083,-0.16565946,0.033504166,-0.014696935,-0.06456308,-0.095768064,0.28730422,-9.385271,0.7732232,47.692257,-0.77855015,-1.7166396,-3.3239036,-0.033728525,-0.1440388,-0.34733945,25.9375,26.75,25.875,28.75,29.6875,30.0625
0.15005262,-0.9619758,-0.7266553,-0.74553674,-0.0022789761,0.017937995,-0.14742193,-0.378225,-0.3288545,0.06008507,-3.077849,0.6229546,0.00034159582,-0.06989237,-0.010329788,0.0009832904,0.016781898,-0.0021023115,0.03450845,0.44522303,-1.4604284,1.9972624,-2.1055248,-1.5717224,2.4190376,-0.033688128,0.1439882,-0.16945928,0.0345666,-0.014565153,-0.068054385,-0.19153613,0.2681506,-9.385271,0.8672237,47.678825,-0.841552,-1.760515,-3.3088346,-0.043735016,-0.13827628,-0.30202806,25.9375,26.75,25.875,28.75,29.6875,30.0625
0.15205209,-0.8531793,-0.94713485,-0.73587316,-0.0043044356,0.022647154,-0.14677538,-0.37835872,-0.32888824,0.0600864,-3.0778267,0.62275654,0.0003394432,-0.07041781,-0.009444889,-0.0011175874,0.01946691,-0.006021741,0.035543263,0.44519857,-1.4601148,1.9968904,-2.1054285,-1.571771,2.4188926,-0.035302673,0.14923556,-0.17063762,0.035187002,-0.015306277,-0.070700355,-0.05746084,0.24899697,-9.404425,0.82694155,47.670765,-0.9041792,-2.0010788,-3.3932662,-0.03303509,-0.16832133,-0.26644623,25.9375,26.75,25.875,28.75,29.6875,30.0625
0.15405232,-1.2784626,-1.3654056,-0.57574373,0.000875696,0.011634878,-0.14527601,-0.37850922,-0.32891136,0.060098723,-3.0778475,0.6226443,0.00036370126,-0.071146704,-0.00977692,-0.00090786646,0.018933859,-0.006368354,0.037695725,0.44511437,-1.4598391,1.9965433,-2.1053684,-1.5717825,2.418736,-0.03573529,0.15064116,-0.17293456,0.03615414,-0.014680682,-0.073285736,-0.095768064,0.28730422,-9.385271,0.8314132,47.66987,-0.8152801,-1.736533,-3.4430728,-0.024430834,-0.16896015,-0.21693996,25.9375,26.75,25.875,28.75,29.6875,30.0625
0.15605237,-1.2810783,-1.0646478,-0.41685438,-0.0065866457,0.011229083,-0.13861455,-0.37866482,-0.32892835,0.060093362,-3.077832,0.6225052,0.00036720015,-0.07140774,-0.010425091,-0.0011263903,0.020112775,-0.0072402717,0.040059254,0.44503087,-1.4595149,1.9961828,-2.1053083,-1.5718187,2.418568,-0.034275282,0.1532499,-0.17569846,0.03760133,-0.0153755555,-0.07418589,-0.095768064,0.3256114,-9.232041,0.87393653,47.650166,-0.976055,-1.8593719,-3.392387,-0.030065706,-0.13990459,-0.18769892,25.9375,26.75,25.875,28.75,29.6875,30.0625
0.15805262,-0.9788275,-0.93114966,-0.28566182,-0.0022145775,0.008643307,-0.14292112,-0.37881038,-0.32897258,0.060112584,-3.0778685,0.6223588,0.0003792825,-0.072064795,-0.011015038,-0.0010431717,0.019972512,-0.0077120573,0.040939473,0.44498283,-1.4592266,1.9958004,-2.1052244,-1.5718187,2.4184241,-0.033966772,0.15531054,-0.1784555,0.038660612,-0.015049704,-0.07475691,-0.15322891,0.3256114,-9.097966,0.8493211,47.661808,-1.0269316,-1.8668224,-3.3570423,-0.03889831,-0.18460628,-0.17971388,25.9375,26.75,25.875,28.75,29.6875,30.0625
0.16005175,-1.0340664,-0.72093123,-0.08645209,0.003858369,-0.0041390355,-0.1452202,-0.37896243,-0.32898504,0.060111165,-3.077836,0.62219846,0.0004032365,-0.07337334,-0.010377538,-0.0008772346,0.021132512,-0.007410966,0.0383477,0.4449104,-1.4589145,1.9954413,-2.1051514,-1.5718793,2.418256,-0.03551395,0.15676089,-0.18072538,0.039707743,-0.016231172,-0.07370821,-0.1340753,0.3256114,-9.040505,0.8717007,47.701214,-0.99374723,-1.7363447,-3.4100533,-0.036968715,-0.17181589,-0.15761635,25.9375,26.75,25.8125,28.75,29.6875,30.0625
0.16205202,-0.29653662,-0.33207637,-0.15129907,0.013837348,-0.006515163,-0.14180262,-0.37910187,-0.329003,0.060105737,-3.0778327,0.6220634,0.00036857242,-0.07317462,-0.01054072,-0.0009748954,0.02136344,-0.008780145,0.037234385,0.44482666,-1.4586148,1.9951051,-2.1050794,-1.5718907,2.4180887,-0.035266034,0.15749162,-0.18172067,0.04130596,-0.015851924,-0.07234707,-0.05746084,0.3256114,-8.944737,0.80679786,47.672558,-1.034682,-1.7287529,-3.4655683,-0.056440733,-0.16720271,-0.1540504,25.9375,26.75,25.8125,28.75,29.6875,30.0625
0.16409369,-0.08077305,-0.3019316,-0.12525569,0.0057965294,-0.008783739,-0.1447988,-0.3792564,-0.32902333,0.06010567,-3.0778139,0.622023,0.0003738642,-0.07349457,-0.010052695,-0.0010672201,0.022425339,-0.010870336,0.034191575,0.44474217,-1.4583032,1.9947461,-2.1050189,-1.5719146,2.4179816,-0.036400884,0.15881509,-0.18370804,0.04431345,-0.015909651,-0.070438325,-0.038307227,0.30645782,-8.983045,0.8247004,47.6636,-1.0963793,-1.4980979,-3.3656485,-0.074222356,-0.18045235,-0.15724397,25.9375,26.75,25.8125,28.75,29.6875,30.0625
0.1660578,-0.4359894,-0.5156226,-0.10492328,-0.0042579365,-0.016879834,-0.1457204,-0.3794008,-0.32906002,0.06011746,-3.077802,0.6218678,0.00037931267,-0.07533608,-0.0105447415,0.00062630436,0.020989327,-0.007823798,0.03047945,0.44470587,-1.457992,1.9943494,-2.1049106,-1.5719513,2.4178503,-0.03709946,0.15853308,-0.18747646,0.04499713,-0.015930396,-0.067422524,-0.076614454,0.19153613,-9.002198,0.9186956,47.694946,-0.96680474,-1.6551392,-3.375255,-0.09825151,-0.18758795,-0.16996402,25.9375,26.75,25.8125,28.75,29.6875,30.0625
0.1680576,-0.6528759,-0.38376522,-0.07667658,-0.008456006,-0.007466601,-0.14317349,-0.37954968,-0.32906726,0.06009922,-3.0777526,0.6217829,0.00033613484,-0.07548083,-0.011286224,0.00012776227,0.021888632,-0.009384742,0.027279982,0.44461042,-1.4576553,1.9940013,-2.1048381,-1.5719875,2.4177084,-0.035730362,0.16163613,-0.19013551,0.04635241,-0.016075378,-0.0628511,-0.11492168,0.24899697,-8.944737,0.8403672,47.72808,-1.1076689,-1.5906565,-3.3429635,-0.11263429,-0.1788837,-0.23226212,25.9375,26.75,25.8125,28.75,29.6875,30.0625
0.17005754,-0.8391782,-0.63820624,-0.19899297,0.002507974,-0.011760138,-0.14039344,-0.37969682,-0.32911208,0.06012648,-3.0777497,0.6216873,0.00038226976,-0.0766802,-0.0113234585,0.00071151246,0.022216436,-0.009453924,0.02430474,0.44458625,-1.4573672,1.9935945,-2.10473,-1.5720233,2.4176252,-0.03653952,0.16316858,-0.19373292,0.04862242,-0.016342085,-0.060682964,-0.076614454,0.24899697,-9.193734,0.8806493,47.703007,-1.1281437,-1.5110085,-3.438758,-0.13520873,-0.20110498,-0.25203577,25.9375,26.75,25.8125,28.75,29.6875,30.0625
0.17205727,-0.5402265,-0.724599,-0.103798434,0.011465934,0.002912227,-0.14516614,-0.37987986,-0.3291115,0.060141616,-3.0776913,0.6216362,0.00036407146,-0.07634703,-0.010409613,-0.00020649358,0.023677105,-0.013718689,0.024386717,0.44445348,-1.4570314,1.9931515,-2.104573,-1.572071,2.4174683,-0.03825637,0.16494912,-0.19442761,0.052005433,-0.015827905,-0.062482517,-0.05746084,0.24899697,-9.155427,0.8672237,47.699425,-1.1860045,-1.4377434,-3.4487152,-0.15836002,-0.22849049,-0.25297362,25.9375,26.75,25.8125,28.75,29.6875,30.0625
0.17405547,-0.40140513,0.012698502,-0.38500506,0.0022951162,0.005491138,-0.15451054,-0.37998825,-0.32913095,0.060081616,-3.077614,0.621508,0.00015250867,-0.07764297,-0.010071483,0.00016754995,0.024200138,-0.013873603,0.020496735,0.44439304,-1.4566356,1.9928278,-2.1044767,-1.5720714,2.417338,-0.039745767,0.16647705,-0.19747062,0.05388951,-0.01624517,-0.060076866,-0.038307227,0.2681506,-9.155427,0.84708,47.698532,-1.1252699,-1.4017562,-3.3937898,-0.22511971,-0.21395643,-0.29659614,25.9375,26.75,25.8125,28.75,29.6875,30.0625
0.1760532,-0.9379699,-0.71648073,-0.72451407,0.014598759,-0.002060862,-0.13908361,-0.3801545,-0.32913542,0.060082804,-3.0775535,0.6215126,0.00015299403,-0.07948661,-0.010348872,0.00068598957,0.022950076,-0.010969592,0.020192612,0.4442849,-1.4563118,1.9924439,-2.1043818,-1.5721191,2.4172406,-0.040755376,0.16757245,-0.19939294,0.051551875,-0.016379422,-0.06077966,-0.11492168,0.28730422,-9.289502,0.8627467,47.637623,-1.1765708,-1.4480094,-3.4034352,-0.22552118,-0.22321934,-0.33538592,25.9375,26.75,25.8125,28.75,29.6875,30.0625
0.17805256,-1.4929075,-0.7536805,-0.6428614,-0.01202738,0.009506181,-0.14196914,-0.38033983,-0.32917228,0.060131375,-3.077571,0.6213812,0.00022818214,-0.0800556,-0.010220843,-0.0004244964,0.025104662,-0.013674379,0.021951126,0.44421262,-1.4560106,1.9919652,-2.1042373,-1.5721558,2.4170845,-0.040951803,0.17195979,-0.20216678,0.053302925,-0.017165916,-0.06273145,-0.095768064,0.2681506,-9.270349,0.8023209,47.679718,-1.1139655,-1.6228163,-3.3799403,-0.24821551,-0.22473788,-0.3109818,25.9375,26.75,25.8125,28.75,29.6875,30.0625
0.1800518,-1.5519787,-0.8826644,-0.722778,-0.027715301,0.030927347,-0.14271876,-0.38048428,-0.3291729,0.060092058,-3.0774703,0.62132144,0.00011900077,-0.08019541,-0.01001495,-0.0018202567,0.026448445,-0.017473798,0.022328338,0.44411644,-1.455626,1.9916061,-2.104141,-1.572203,2.416964,-0.04170939,0.17598963,-0.20389655,0.055003162,-0.016757896,-0.063864194,-0.1340753,0.15322891,-9.3661175,0.72622824,47.687782,-1.1533874,-1.5875928,-3.4022152,-0.28772062,-0.23186679,-0.30557853,25.9375,26.75,25.8125,28.75,29.6875,30.0625
0.18205203,-1.7689354,-0.7543891,-0.635757,-0.027862199,0.03991088,-0.14932692,-0.38065517,-0.32918596,0.06009994,-3.077427,0.6212359,0.00011724623,-0.08109191,-0.01030176,-0.0029501684,0.026663575,-0.019631043,0.021708908,0.4440202,-1.455289,1.9911865,-2.1040218,-1.5722507,2.4168203,-0.042431723,0.18051079,-0.20639142,0.05500998,-0.016035859,-0.06396639,-0.26815057,0.22984336,-9.423578,0.8023209,47.693153,-1.1201074,-1.7236722,-3.4374413,-0.33551374,-0.22661923,-0.3393338,25.9375,26.75,25.8125,28.75,29.6875,30.0625
0.1840525,-1.6621816,-1.039998,-0.64670074,-0.014762378,0.05283024,-0.14966932,-0.38077027,-0.32921085,0.06005593,-3.0773418,0.62110317,-8.1634236e-05,-0.08342485,-0.01074682,-0.0022959851,0.025917491,-0.01655287,0.020548772,0.44397202,-1.454893,1.9908146,-2.1038787,-1.5722631,2.4167004,-0.04321557,0.18265834,-0.2099622,0.05333455,-0.016707335,-0.06358285,-0.34476504,0.22984336,-9.442732,0.83813137,47.709274,-1.1080824,-1.7722065,-3.3858314,-0.33882612,-0.25636035,-0.37401402,25.9375,26.75,25.8125,28.75,29.6875,30.0625
0.18605217,-2.0744097,-0.6837212,-0.76926,-0.010672088,0.042665135,-0.14740603,-0.38097176,-0.32924715,0.060102917,-3.077363,0.62108594,1.4882521e-05,-0.08465392,-0.011285561,-0.0023454747,0.025071817,-0.015123984,0.022959094,0.44387597,-1.4545809,1.9903353,-2.1037714,-1.572287,2.4165912,-0.043369945,0.18465638,-0.21168497,0.051397663,-0.01656739,-0.066147245,-0.40222588,0.21068975,-9.442732,0.7777002,47.67345,-1.1474664,-1.7932123,-3.400634,-0.3409359,-0.25948644,-0.34814885,25.9375,26.75,25.8125,28.75,29.6875,30.0625
0.18805304,-1.6770627,-0.7573034,-0.94272655,-0.0027944318,0.04773108,-0.15069115,-0.38113308,-0.3292702,0.06009043,-3.0773199,0.6210206,-3.821288e-05,-0.08598385,-0.011311347,-0.002136552,0.024724308,-0.013034464,0.021289978,0.44379175,-1.4542093,1.9899291,-2.1036766,-1.5723118,2.416472,-0.044080075,0.18563482,-0.21290906,0.04960789,-0.017162183,-0.06518439,-0.47884035,0.28730422,-9.500193,0.7732232,47.68062,-1.1538811,-1.7660071,-3.4299097,-0.3231561,-0.2702983,-0.38118505,25.9375,26.75,25.8125,28.75,29.6875,30.0625
0.19005217,-2.226864,-1.1769862,-0.9356743,-0.009345017,0.04328292,-0.14314061,-0.3812875,-0.32928163,0.060065597,-3.0772414,0.62092704,-0.000115337454,-0.08696395,-0.011329579,-0.00228654,0.023921717,-0.011994806,0.022721343,0.4437073,-1.4538252,1.9895343,-2.1035693,-1.5723594,2.4163394,-0.04506503,0.18673429,-0.21343096,0.047736965,-0.016900744,-0.06759902,-0.5746084,0.30645782,-9.519346,0.8873621,47.682407,-1.0937164,-1.8456943,-3.5490084,-0.31805003,-0.29271322,-0.39804566,25.9375,26.75,25.8125,28.75,29.6875,30.0625
0.19205238,-2.3148742,-1.5147674,-1.0915524,-0.021985019,0.045901805,-0.14157468,-0.38146535,-0.3293085,0.060066003,-3.0772014,0.62083733,-0.00014215054,-0.08799819,-0.011215588,-0.0031596264,0.02477846,-0.011977803,0.028485134,0.44362313,-1.4534414,1.9890789,-2.10345,-1.5723957,2.4162047,-0.045632236,0.18984936,-0.2145999,0.046130575,-0.01770258,-0.07392541,-0.57460845,0.36391866,-9.595961,0.83365434,47.68062,-1.1298848,-1.8576417,-3.6014316,-0.32151014,-0.29088655,-0.35882854,25.9375,26.75,25.8125,28.75,29.6875,30.0625
0.19405192,-2.2373781,-1.912992,-0.87106806,-0.036113847,0.055198237,-0.1406279,-0.38164446,-0.32933378,0.06005924,-3.077195,0.62066305,-0.0001661469,-0.089907765,-0.011749056,-0.0024743807,0.024313204,-0.009315156,0.029032158,0.44352698,-1.4530573,1.9886478,-2.1033666,-1.57242,2.4160008,-0.04581426,0.19166224,-0.21803285,0.045143872,-0.018440448,-0.07464926,-0.51714754,0.30645782,-9.5385,0.8537928,47.681515,-1.1945684,-1.7419465,-3.6046534,-0.29277265,-0.2811606,-0.3400718,25.9375,26.75,25.8125,28.75,29.6875,30.0625
0.19605257,-2.2381635,-1.9167475,-0.71159095,-0.046240468,0.062120806,-0.13709287,-0.3818309,-0.32934755,0.060055345,-3.0771534,0.62061363,-0.00014931663,-0.09234408,-0.012347348,-0.0009992828,0.021944318,-0.0050268252,0.03130683,0.44341868,-1.4526858,1.9882268,-2.1032956,-1.5724677,2.4158673,-0.04701688,0.19190392,-0.2213298,0.04329603,-0.018160837,-0.07812479,-0.5554548,0.24899697,-9.481039,0.90750587,47.68062,-1.1512955,-1.745765,-3.5767264,-0.29304606,-0.2969827,-0.32591495,25.9375,26.75,25.8125,28.75,29.6875,30.0625
0.19805181,-2.1241295,-1.5277438,-0.9075828,-0.029318416,0.05693789,-0.1446979,-0.38202542,-0.3293867,0.06005954,-3.0771546,0.62051606,-0.00012769278,-0.09447948,-0.012750368,-0.0003315435,0.020593954,-0.0014602598,0.03492926,0.44333446,-1.4522903,1.9877604,-2.103225,-1.5724915,2.4157224,-0.04791005,0.19314723,-0.22370894,0.040619954,-0.018490344,-0.08263734,-0.45968673,0.2681506,-9.461885,0.8247004,47.66091,-1.0962148,-1.6246303,-3.6239204,-0.26088738,-0.30612928,-0.26020297,25.9375,26.75,25.8125,28.75,29.6875,30.0625
0.20005198,-1.6584934,-0.78582,-0.78774285,-0.014903416,0.056221608,-0.14963882,-0.38222095,-0.32940203,0.060059533,-3.0771253,0.6203348,-7.489178e-05,-0.09742286,-0.013421526,0.0009253758,0.01895805,0.003019277,0.03804339,0.443238,-1.4519066,1.9873165,-2.103153,-1.5725645,2.4155169,-0.048928864,0.19489415,-0.228131,0.03853246,-0.018956326,-0.08676553,-0.36391866,0.2681506,-9.5385,0.9186956,47.658226,-1.1176283,-1.603838,-3.5261137,-0.20109968,-0.30884022,-0.20746961,25.9375,26.75,25.8125,28.75,29.6875,30.0625
0.2020521,-1.440543,-0.6626694,-0.81095237,0.005630899,0.042085897,-0.15015332,-0.3824305,-0.32944402,0.060068406,-3.0771632,0.62018627,-6.124823e-05,-0.09916593,-0.013931381,0.0016727579,0.018267933,0.004434938,0.040670354,0.44312993,-1.4514985,1.9868249,-2.1030815,-1.5725645,2.4153116,-0.049491387,0.19675876,-0.23212191,0.039075557,-0.0189517,-0.089953035,-0.2681506,0.3256114,-9.481039,0.92764956,47.66539,-1.064075,-1.5669947,-3.5503967,-0.18316543,-0.3126497,-0.15880373,25.9375,26.75,25.8125,28.75,29.6875,30.0625
0.20405246,-1.0655429,0.22479182,-0.8663622,0.0003063086,0.034008797,-0.15772662,-0.3826079,-0.3294511,0.060037907,-3.0770953,0.6200564,-7.0033486e-05,-0.100905016,-0.014058335,0.002036391,0.017621916,0.005944163,0.041921057,0.44303343,-1.4510907,1.9864291,-2.1030338,-1.572636,2.415143,-0.050708026,0.19851968,-0.23483743,0.03837669,-0.019032193,-0.09241722,-0.30645782,0.22984336,-9.423578,0.9164598,47.68062,-1.0549691,-1.500804,-3.4499218,-0.14089116,-0.3239346,-0.10623266,25.9375,26.75,25.8125,28.75,29.6875,30.0625
0.20605172,-0.96490484,-0.07146638,-0.89944637,0.010866409,0.02310412,-0.1467793,-0.38280153,-0.32947233,0.06004732,-3.077069,0.61993545,-8.161259e-05,-0.10210258,-0.014267603,0.0022967914,0.016803717,0.0073225778,0.041090645,0.44292527,-1.4507072,1.9859499,-2.1029027,-1.5726722,2.414963,-0.05143332,0.19959289,-0.23646583,0.03733025,-0.018892957,-0.09231069,-0.2681506,0.22984336,-9.500193,0.86945957,47.65106,-1.0525466,-1.4549704,-3.4754164,-0.10959141,-0.3427208,-0.09115243,25.9375,26.75,25.8125,28.75,29.6875,30.0625
0.20805213,-1.3031486,-0.31659612,-1.068415,-0.0033167233,0.015898414,-0.14751276,-0.3830527,-0.3294908,0.060083706,-3.0770624,0.6198778,9.762309e-05,-0.102905534,-0.014081792,0.0012150623,0.018702671,0.004237792,0.038620755,0.44279307,-1.450322,1.985423,-2.1028416,-1.5727562,2.414796,-0.052183874,0.20431447,-0.23984005,0.039578937,-0.01927905,-0.0905898,-0.21068975,0.17238252,-9.519346,0.9410752,47.6421,-1.0243111,-1.5187416,-3.3978436,-0.09802468,-0.36051184,-0.077920236,25.9375,26.75,25.8125,28.75,29.6875,30.0625
0.21005166,-0.7686651,-0.82205236,-1.2090603,-0.0068065757,0.028926263,-0.14942917,-0.383221,-0.3295471,0.06007176,-3.077116,0.6196027,2.9735362e-05,-0.10379546,-0.013821221,0.00030331098,0.020664936,0.0020426812,0.035184603,0.44273275,-1.4499139,1.9849781,-2.1027696,-1.5727328,2.4145575,-0.05287006,0.20846975,-0.24285583,0.041273676,-0.020113377,-0.08783483,-0.24899697,0.28730422,-9.557653,0.8291774,47.653748,-0.9871174,-1.6027117,-3.2254987,-0.105678916,-0.35446426,-0.08258191,25.9375,26.75,25.8125,28.75,29.6875,30.0625
0.21205191,-1.2979058,-1.2399073,-1.216581,-0.00904823,0.023222571,-0.13695858,-0.38343275,-0.3295552,0.060056258,-3.077021,0.61960447,-1.0209686e-05,-0.10342884,-0.012891033,-0.0011454266,0.023375817,-0.002203302,0.031068066,0.4426004,-1.4494575,1.9844764,-2.1026485,-1.5727929,2.4144387,-0.053805407,0.2113873,-0.24350595,0.044005778,-0.020741945,-0.08465019,-0.2873042,0.30645782,-9.595961,0.8605109,47.655537,-0.9720771,-1.6895033,-3.3644166,-0.09606688,-0.3473699,-0.10942016,25.9375,26.75,25.8125,28.75,29.6875,30.0625
0.21405248,-1.2029923,-1.1662508,-1.018614,-0.03925315,0.042133987,-0.14274196,-0.3836544,-0.3295682,0.060063295,-3.0769925,0.6195022,4.3248183e-05,-0.10361982,-0.013049451,-0.0010023037,0.023937678,-0.0031376495,0.02838215,0.44246855,-1.44905,1.9839858,-2.102564,-1.572853,2.414247,-0.05356531,0.21241625,-0.24553908,0.046094365,-0.020846004,-0.08172322,-0.21068975,0.3256114,-9.5385,0.8806493,47.65106,-0.98575366,-1.71166,-3.5545998,-0.106534556,-0.3774739,-0.14618722,25.9375,26.75,25.8125,28.75,29.6875,30.0625
0.21605188,-1.7823122,-1.4654217,-0.8965813,-0.032536156,0.029217403,-0.14744708,-0.3838537,-0.32960898,0.06006621,-3.0769923,0.6194092,6.414313e-05,-0.10512495,-0.012144883,-0.0012036408,0.023545416,-0.002135121,0.022933967,0.44238368,-1.448642,1.983507,-2.102493,-1.5728768,2.4141045,-0.05647598,0.213313,-0.24576765,0.044354826,-0.020922046,-0.07918493,-0.17238252,0.36391866,-9.442732,0.9231726,47.67345,-0.97875756,-1.6968299,-3.6272779,-0.060350657,-0.36434168,-0.17201042,25.9375,26.75,25.8125,28.75,29.6875,30.0625
0.2180519,-1.017741,-1.250473,-0.90575683,-0.030223155,0.03393644,-0.1441321,-0.38408032,-0.32961962,0.06008298,-3.0769494,0.61936295,0.00014389092,-0.105956055,-0.012089938,-0.0006399515,0.0241002,-0.001876948,0.02022666,0.4422515,-1.4482464,1.9830045,-2.1023962,-1.5729493,2.4139493,-0.05685607,0.21405199,-0.24839203,0.046243753,-0.021532144,-0.07685507,-0.15322891,0.36391866,-9.481039,0.8784135,47.688675,-0.8052691,-1.7492871,-3.67936,-0.041883394,-0.37960577,-0.20525831,25.9375,26.75,25.8125,28.75,29.6875,30.0625
0.2200522,-1.4200735,-1.160574,-0.81626046,-0.03738327,0.020609219,-0.14892463,-0.3843026,-0.32965273,0.060097277,-3.0769463,0.6192459,0.00024209682,-0.105150424,-0.012517342,-0.0019518898,0.025743397,-0.0051653557,0.019883102,0.4421562,-1.4478385,1.9825019,-2.1023362,-1.5730089,2.4137816,-0.055268787,0.21716419,-0.24928051,0.04769382,-0.021604182,-0.0749243,-0.21068975,0.3256114,-9.481039,0.90527004,47.711964,-1.0325873,-1.7094247,-3.6225486,-0.043202013,-0.39441037,-0.24102199,25.9375,26.75,25.8125,28.75,29.6875,30.0625
0.22205257,-0.90195274,-1.2982588,-0.7054386,-0.020363826,0.016539222,-0.1407902,-0.38452443,-0.3296694,0.060103893,-3.0768921,0.6192159,0.00024164339,-0.1075262,-0.012450036,-0.00100331,0.02525559,-0.003281118,0.01975676,0.4420234,-1.4474069,1.981974,-2.1022046,-1.573057,2.4136374,-0.05718314,0.21888492,-0.25362593,0.048397265,-0.021984728,-0.076708056,-0.15322891,0.3256114,-9.385271,0.900793,47.658226,-0.86468816,-1.6007125,-3.60145,-0.013194604,-0.3909232,-0.24352309,25.9375,26.75,25.8125,28.75,29.6875,30.0625
0.22405207,-0.3741398,-0.88583547,-0.9324995,-0.0057948446,0.007775322,-0.14774518,-0.38471973,-0.32969287,0.06006412,-3.07682,0.61908835,0.0001632675,-0.10972399,-0.012023772,-0.00094128447,0.025201023,-0.0029924174,0.014130511,0.44192654,-1.4469144,1.9814948,-2.1021206,-1.5731052,2.4134705,-0.059807707,0.22181219,-0.25724006,0.048802093,-0.022069199,-0.07370183,-0.21068975,0.34476504,-9.308656,0.9231726,47.666286,-0.83418167,-1.6109773,-3.6154356,-0.019025981,-0.3800024,-0.2964031,25.9375,26.75,25.8125,28.75,29.6875,30.0625
0.2260526,-0.6374482,-0.6630083,-0.41329002,-0.024019025,0.004904766,-0.14856443,-0.3849577,-0.32972202,0.060081907,-3.0768166,0.619068,0.0002398737,-0.110696614,-0.012950542,-0.0004792576,0.025384832,-0.0026940682,0.014535036,0.4417949,-1.4464945,1.9809674,-2.1020482,-1.5731415,2.413327,-0.058703445,0.22421122,-0.26143703,0.05040639,-0.02236625,-0.0729998,-0.17238252,0.2681506,-9.32781,0.83589023,47.658226,-0.8140435,-1.6990545,-3.5021248,0.022358185,-0.40413663,-0.33421832,25.9375,26.75,25.8125,28.75,29.6875,30.0625
0.22805183,-0.9229621,-1.0444529,-0.37382135,-0.01305507,0.010613878,-0.14068183,-0.38517222,-0.3297658,0.060067665,-3.0767837,0.6189432,0.00021212084,-0.11176675,-0.013216186,0.00023457452,0.025508067,-0.002037692,0.016266832,0.4417109,-1.446003,1.9804276,-2.1019518,-1.5731777,2.4131696,-0.05884466,0.22526345,-0.26474157,0.052110154,-0.022769446,-0.0748691,-0.28730422,0.2681506,-9.212888,0.88960326,47.694946,-0.9090686,-1.6180083,-3.5248063,0.0028846164,-0.42192936,-0.36259952,25.9375,26.75,25.8125,28.75,29.6875,30.0625
0.23005204,-1.1293541,-0.343158,-0.38732046,-0.0005766659,0.013366978,-0.14250778,-0.38539913,-0.32979336,0.0600873,-3.0767665,0.6189624,0.00024594538,-0.11360421,-0.013027482,0.00091469806,0.026008395,-0.0017550394,0.011062597,0.44157836,-1.4455947,1.9799002,-2.1018426,-1.573202,2.4130516,-0.060375214,0.22736832,-0.2692909,0.05452,-0.023341268,-0.071191706,-0.24899697,0.2681506,-9.251195,0.8224646,47.70211,-0.8467389,-1.6418363,-3.3132386,0.0072066775,-0.39897,-0.4220649,25.9375,26.75,25.8125,28.75,29.6875,30.0625
0.23205246,-1.0642905,-0.110470675,-0.40193924,0.013383582,0.018305292,-0.14101598,-0.38564742,-0.3298186,0.060100943,-3.0767426,0.61887944,0.0003152728,-0.11375368,-0.012758243,0.0008682812,0.027441094,-0.003583907,0.012351032,0.44144624,-1.4451392,1.9793366,-2.1017463,-1.5732616,2.4128711,-0.06060689,0.22870182,-0.27148286,0.05763472,-0.023856368,-0.07270999,-0.30645782,0.24899697,-9.270349,0.90750587,47.687782,-0.8051108,-1.5630765,-3.2420168,0.0015496754,-0.41747206,-0.4596585,25.9375,26.75,25.8125,28.75,29.6875,30.0625
0.23405266,-1.3014526,-0.45956096,-0.3708726,0.023933316,0.028901042,-0.14829788,-0.38586998,-0.32984197,0.06009206,-3.0766864,0.6188856,0.00023160438,-0.11342032,-0.012011566,0.0010044919,0.028996967,-0.00574319,0.014543895,0.44130206,-1.4446603,1.9787868,-2.101601,-1.573274,2.4127383,-0.06131058,0.22844595,-0.27248764,0.06150206,-0.024347188,-0.075603805,-0.2681506,0.34476504,-9.212888,0.9254084,47.64479,-0.80146503,-1.396642,-3.3712697,-0.038083967,-0.4198237,-0.47174722,25.9375,26.75,25.8125,28.75,29.6875,30.0625
0.23605198,-1.2550101,-0.09606108,-0.1699233,0.00018791477,0.048361737,-0.14662088,-0.38606682,-0.32987052,0.06007717,-3.07662,0.6187735,0.00014060331,-0.113722436,-0.011618169,0.0011979094,0.030700976,-0.0075186905,0.017245278,0.44120586,-1.4441919,1.9782599,-2.101444,-1.5733103,2.412581,-0.061732102,0.22963066,-0.2752416,0.0653938,-0.02514204,-0.0787211,-0.38307226,0.21068975,-9.155427,0.92093146,47.687782,-0.7822193,-1.5337794,-3.4567099,-0.073038936,-0.4086523,-0.47608376,25.9375,26.75,25.8125,28.75,29.6875,30.0625
0.23805238,-1.2182289,-0.19721459,-0.20484653,0.0020518051,0.049442273,-0.14782019,-0.38629806,-0.32989576,0.060060948,-3.0765805,0.61864644,9.7724536e-05,-0.11342843,-0.010503558,0.0010010558,0.032612167,-0.010217985,0.022784881,0.4410735,-1.4436897,1.9777087,-2.1013353,-1.5733465,2.4123747,-0.06308326,0.22971673,-0.27584594,0.06914584,-0.025731826,-0.085609145,-0.4213795,0.21068975,-9.078813,0.8806493,47.692257,-0.77372456,-1.3456366,-3.5354943,-0.10877296,-0.42786807,-0.43589956,25.9375,26.75,25.8125,28.75,29.6875,30.0625
0.24005182,-1.5305167,-0.4051249,-0.27557984,0.021778764,0.038161837,-0.1388902,-0.3865182,-0.329894,0.06006271,-3.0764837,0.6185492,0.00010598601,-0.11375063,-0.009136363,-0.0017751402,0.036368888,-0.016608164,0.02364558,0.4409407,-1.4432564,1.9771827,-2.101179,-1.5734423,2.412194,-0.06538296,0.23631355,-0.2775466,0.0716139,-0.026415018,-0.08876434,-0.19153613,0.019153614,-9.136273,0.9186956,47.67166,-0.5572009,-1.496382,-3.5468593,-0.15834184,-0.43081892,-0.41676712,25.9375,26.75,25.8125,28.75,29.6875,30.0625
0.24205205,-1.126165,0.6644788,-0.2287582,0.022196325,0.029642837,-0.15184069,-0.38676035,-0.32992253,0.06007278,-3.0764568,0.6184018,0.00014627333,-0.11419441,-0.009849766,-0.002131355,0.038865663,-0.01724747,0.03321712,0.44082147,-1.4427879,1.9766062,-2.1010587,-1.5735034,2.4119866,-0.063079014,0.23993048,-0.28129,0.07336139,-0.028424164,-0.09602256,-0.15322891,-0.076614454,-9.11712,0.8985519,47.698532,-0.78566396,-1.569711,-3.4805584,-0.17929356,-0.4125839,-0.36806744,25.9375,26.75,25.8125,28.75,29.6875,30.0625
0.2440525,-1.1809555,0.80040187,-0.12322972,0.04583543,0.014014825,-0.14102747,-0.38700408,-0.32993373,0.060071595,-3.0763752,0.6183264,0.00013442806,-0.115106374,-0.008920632,-0.003021758,0.040969934,-0.018232478,0.03613559,0.440677,-1.4422958,1.9760207,-2.1009028,-1.5735763,2.4118059,-0.0645345,0.24261431,-0.28242308,0.07358049,-0.029929202,-0.100388594,-0.17238252,-0.095768064,-9.078813,0.8940802,47.694054,-0.7046504,-1.6737163,-3.5244136,-0.20661867,-0.39168626,-0.28101647,25.9375,26.75,25.8125,28.75,29.6875,30.0625
0.24605165,-1.077262,0.49855247,-0.33136338,0.065382734,0.008087243,-0.14507776,-0.38722038,-0.3299429,0.06004261,-3.0762815,0.61815304,2.2228327e-05,-0.117220305,-0.008065402,-0.0025941224,0.041817077,-0.018371265,0.036630105,0.440544,-1.4417797,1.975469,-2.100735,-1.5736359,2.411577,-0.06741502,0.24486168,-0.28658393,0.07596329,-0.03066521,-0.103755176,-0.17238252,0.11492168,-8.983045,0.91198283,47.711063,-0.54178643,-1.6732337,-3.497425,-0.2374824,-0.38881883,-0.25143325,25.9375,26.75,25.8125,28.75,29.6875,30.0625
0.24805158,-0.65142816,0.48571473,-0.37678584,0.052133847,0.007816617,-0.14591405,-0.38744745,-0.32997113,0.060065057,-3.0762477,0.6180073,4.745723e-05,-0.118651316,-0.010028542,-0.0018920078,0.041438356,-0.014501635,0.04233128,0.44043738,-1.4413474,1.9748935,-2.100568,-1.5736965,2.411384,-0.06412507,0.24742901,-0.29069114,0.07382927,-0.03199778,-0.10615776,-0.11492168,0.17238252,-8.983045,0.8940802,47.68599,-0.6721233,-1.7569704,-3.4328911,-0.28288049,-0.36400646,-0.20310158,25.9375,26.75,25.8125,28.75,29.6875,30.0625
0.2500519,-0.7883052,-0.14989786,-0.12616007,0.024000127,0.016110662,-0.14229405,-0.38768122,-0.32997537,0.06004304,-3.0761535,0.6179123,-3.1000673e-05,-0.11998895,-0.009776058,-0.001418194,0.041585587,-0.012010882,0.041524667,0.4402809,-1.4408327,1.9743298,-2.100413,-1.573757,2.4111807,-0.06489205,0.24769358,-0.29190707,0.072583504,-0.033214003,-0.10610933,-0.2681506,0.2873042,-8.983045,0.900793,47.696735,-0.72028065,-1.7238351,-3.3199642,-0.26680064,-0.3386706,-0.18463317,25.9375,26.75,25.8125,28.75,29.6875,30.0625
0.25205222,-1.3159882,-1.1447452,-0.55571604,-0.012257635,0.020880498,-0.14012218,-0.38791704,-0.32998112,0.06002303,-3.076044,0.6177357,-8.2317245e-05,-0.12092019,-0.009708701,-0.0009551008,0.042493418,-0.01232759,0.03953549,0.44014883,-1.4403054,1.9737438,-2.1002438,-1.5738529,2.4109528,-0.06531078,0.2491177,-0.29528302,0.075202025,-0.03391322,-0.10453128,-0.2681506,0.34476507,-9.097966,0.8291774,47.6636,-0.6997963,-1.532762,-3.382485,-0.28944886,-0.31181574,-0.18812889,25.9375,26.75,25.8125,28.75,29.6875,30.0625
0.25405282,-1.7567606,-2.5266807,-0.7485005,-0.042590454,0.036318358,-0.14165436,-0.38812882,-0.32999915,0.060008593,-3.0759673,0.61756796,-0.00018655701,-0.12291544,-0.010948129,-0.0002550379,0.04090377,-0.008053701,0.036655936,0.44002923,-1.439814,1.9731807,-2.1000545,-1.5739015,2.4107387,-0.06445493,0.2509016,-0.29824814,0.071844324,-0.034315635,-0.10078783,-0.4405331,0.49799395,-9.212888,0.900793,47.666286,-0.7463035,-1.5044281,-3.430635,-0.30881655,-0.30290008,-0.20141512,25.9375,26.75,25.8125,28.75,29.6875,30.0625
0.2560522,-2.0741098,-2.629226,-0.59007215,-0.08929056,0.06202462,-0.13956867,-0.38838506,-0.329999,0.059987776,-3.0758266,0.617484,-0.00019896314,-0.12462406,-0.0110582765,-0.00062734506,0.041854326,-0.0058842157,0.031970594,0.4398851,-1.4392613,1.9725708,-2.099899,-1.5740222,2.4105606,-0.06449637,0.25393364,-0.30038068,0.06939237,-0.036110606,-0.09613112,-0.45968673,0.51714754,-9.385271,0.9410752,47.672558,-0.80496883,-1.611671,-3.487681,-0.291494,-0.2702137,-0.24887362,25.9375,26.75,25.8125,28.75,29.6875,30.0625
0.25805205,-2.5382333,-3.1155431,-0.7654183,-0.09117326,0.06570203,-0.13297425,-0.38861325,-0.33003134,0.059973493,-3.075753,0.6173727,-0.00027502337,-0.12531494,-0.011464564,-0.00087350426,0.04170854,-0.004405774,0.029628541,0.43977734,-1.438734,1.9719714,-2.0997322,-1.5740703,2.4103932,-0.06396511,0.2553075,-0.3010036,0.06724519,-0.036617972,-0.093251444,-0.4213795,0.6512229,-9.461885,0.91198283,47.66539,-0.845706,-1.6058357,-3.465783,-0.26636153,-0.24289513,-0.30626056,25.9375,26.75,25.8125,28.75,29.6875,30.0625
0.2600523,-2.5077043,-3.207672,-0.80084074,-0.083408155,0.074690074,-0.12949552,-0.38888034,-0.3300429,0.0599704,-3.0756888,0.6172826,-0.00022843397,-0.12685373,-0.012335457,-0.0002461397,0.039006718,-0.0007679089,0.029168047,0.43962136,-1.4382191,1.9713739,-2.0996258,-1.5741543,2.4101896,-0.06421657,0.2556548,-0.30212417,0.06356083,-0.035737235,-0.09304415,-0.3256114,0.61291564,-9.461885,0.83589023,47.668976,-0.87627363,-1.4381642,-3.633643,-0.22888625,-0.20961162,-0.32636538,25.9375,26.75,25.8125,28.75,29.6875,30.0625
0.26205248,-2.2206573,-2.4649496,-0.93906534,-0.05900402,0.049732223,-0.13384601,-0.3891485,-0.3300833,0.059967775,-3.0756652,0.61716086,-0.0001755076,-0.12829131,-0.013440004,-0.00064145104,0.037760947,0.0015367757,0.030274602,0.43950152,-1.4376787,1.9707516,-2.0995433,-1.5742139,2.4099972,-0.0634655,0.25870457,-0.30391112,0.059670903,-0.035606436,-0.09339816,-0.28730422,0.51714754,-9.500193,0.9455522,47.657326,-0.9277886,-1.5798438,-3.790316,-0.179239,-0.20878303,-0.34372672,25.9375,26.75,25.8125,28.75,29.6875,30.0625
0.2640519,-1.684782,-1.7934704,-1.0417511,-0.030904828,0.025250826,-0.12562332,-0.38940313,-0.33010158,0.05993511,-3.0755584,0.61710083,-0.00020347907,-0.13044,-0.013923448,-0.00096510036,0.037206892,0.002722362,0.028929537,0.43936917,-1.4371022,1.9701518,-2.0994365,-1.5742983,2.4098415,-0.064369,0.26277256,-0.3074959,0.057868388,-0.035629645,-0.092950925,-0.095768064,0.53630114,-9.404425,0.93436235,47.65106,-0.92344415,-1.738238,-3.777674,-0.13768324,-0.18812567,-0.3556347,25.9375,26.75,25.8125,28.75,29.6875,30.0625
0.26605222,-0.62348884,-0.83948123,-1.0405189,-0.01918734,0.013717338,-0.14428785,-0.38968784,-0.33011276,0.05993805,-3.0754824,0.617047,-0.00010406981,-0.13298032,-0.015141757,0.0004974925,0.034947664,0.006710378,0.027331142,0.4392133,-1.4365749,1.9695281,-2.0993407,-1.574406,2.4096622,-0.064490415,0.2643184,-0.31245974,0.0567053,-0.03529174,-0.091472626,-0.095768064,0.4213795,-9.346964,0.95226496,47.653748,-0.8709495,-1.751596,-3.6341617,-0.086389095,-0.1901801,-0.38560352,25.9375,26.75,25.8125,28.75,29.6875,30.0625
0.26805252,-0.6666466,-0.9041954,-1.6014628,0.015005444,-0.028799627,-0.13382438,-0.38995767,-0.33015162,0.059947435,-3.075469,0.61685014,1.6719158e-06,-0.13461643,-0.015764289,0.0014483972,0.03372133,0.008700434,0.029345402,0.4391052,-1.4360592,1.9689053,-2.0992572,-1.5744895,2.4094334,-0.0648726,0.2654013,-0.3160199,0.056838393,-0.03504089,-0.09386932,0.019153614,0.38307226,-9.442732,0.8851263,47.717335,-0.8787182,-1.8281975,-3.5997221,-0.043174006,-0.15790345,-0.39792085,25.9375,26.75,25.8125,28.75,29.6875,30.0625
0.27005172,-0.69734615,-0.7570779,-1.5899068,0.00518113,-0.035387777,-0.13190041,-0.39022452,-0.3302037,0.059944563,-3.0754545,0.6167509,-1.1123106e-05,-0.13434629,-0.015359596,-0.00067566836,0.035689257,0.0040735495,0.028229827,0.43898487,-1.4354957,1.9682478,-2.099137,-1.5745133,2.4092534,-0.065440185,0.2699676,-0.31672087,0.05799294,-0.03485627,-0.09332071,0.11492168,0.40222588,-9.615114,0.86945957,47.701214,-0.9799842,-1.7681134,-3.5321898,-0.014286051,-0.13636503,-0.42437398,25.9375,26.75,25.8125,28.75,29.6875,30.0625
0.27205193,-0.6856669,-1.8256042,-1.6623418,-0.014268586,-0.021621782,-0.13882747,-0.3904882,-0.33023295,0.059932105,-3.075358,0.6166689,-2.8649662e-05,-0.13452378,-0.015328102,-0.0011455354,0.037205104,0.0008873551,0.033958185,0.43886495,-1.434919,1.9675888,-2.0989802,-1.5745972,2.409095,-0.06556361,0.27286518,-0.31992802,0.061795678,-0.034898717,-0.099168845,0.038307227,0.36391866,-9.691729,0.9634547,47.629562,-0.89692986,-1.9051874,-3.647686,-0.01849713,-0.12053682,-0.41628516,25.9375,26.75,25.8125,28.75,29.6875,30.0625
0.27408957,-0.6722913,-1.9222955,-1.2906212,-0.052999213,0.0069550676,-0.14002019,-0.39073732,-0.33024833,0.05989164,-3.0752547,0.61651206,-8.98195e-05,-0.13503954,-0.015178616,-0.0013108781,0.03807371,-0.0010714276,0.037102513,0.4387327,-1.4343313,1.9669894,-2.098859,-1.5746816,2.4088786,-0.066235684,0.27495912,-0.32270205,0.06458952,-0.03487728,-0.10298079,0.05746084,0.36391866,-9.500193,0.92093146,47.655537,-0.9324281,-2.028943,-3.6184309,-0.03940695,-0.099097185,-0.35845023,25.9375,26.75,25.8125,28.75,29.6875,30.0625
0.27605757,-0.94840544,-2.1978319,-1.4443367,-0.05809068,0.0136914905,-0.13378206,-0.3910137,-0.33028546,0.05989774,-3.0752363,0.6162928,-6.69345e-05,-0.1369352,-0.01642899,-0.0004310633,0.03572112,0.00020398869,0.042355116,0.43860057,-1.4337795,1.9663185,-2.098716,-1.5747412,2.4086123,-0.06654058,0.2773434,-0.32764778,0.064957865,-0.03332097,-0.10854217,0.0,0.2681506,-9.595961,0.9030289,47.675243,-0.93647945,-2.0239134,-3.6274912,-0.012647268,-0.09187082,-0.31425786,25.9375,26.75,25.8125,28.75,29.6875,30.0625
0.2780578,-0.8248186,-1.6790549,-1.4815328,-0.04802973,0.012027155,-0.14056571,-0.39130282,-0.33033732,0.05991783,-3.0752556,0.6161592,5.969914e-06,-0.13667314,-0.016752183,-0.00043644191,0.034585174,-0.0010942973,0.04785292,0.4384686,-1.4332404,1.9656376,-2.0986078,-1.5747765,2.4083948,-0.06667888,0.27743426,-0.32811803,0.0659931,-0.03175578,-0.11418692,0.05746084,0.30645782,-9.634268,0.9365982,47.672558,-0.911754,-2.016191,-3.6430044,0.0070758522,-0.1112136,-0.22506428,25.9375,26.75,25.8125,28.75,29.6875,30.0625
0.28005788,-0.840288,-1.0461168,-1.4641575,-0.026992243,0.0013639687,-0.13468896,-0.391588,-0.3303569,0.05990461,-3.075172,0.61602217,-9.607745e-06,-0.13615097,-0.016920155,-0.0009652941,0.034707908,-0.0046937573,0.053756054,0.43831268,-1.4326413,1.9649538,-2.098451,-1.57486,2.4081645,-0.06676,0.27908123,-0.32964468,0.06913919,-0.03036502,-0.120175466,0.076614454,0.24899697,-9.653421,0.8605109,47.694946,-0.9930073,-1.9410067,-3.601296,-0.002984659,-0.11393933,-0.15510368,25.9375,26.75,25.8125,28.75,29.6875,30.0625
0.28205803,-0.107058726,-0.5297822,-1.4295405,-0.010193691,0.0024765723,-0.14318244,-0.3918566,-0.3304076,0.059899002,-3.0751803,0.6157556,1.790416e-05,-0.13798241,-0.018115707,6.180721e-05,0.03197493,-0.0018057313,0.052313313,0.43820468,-1.4320778,1.9643062,-2.0983555,-1.5749077,2.4078894,-0.06690404,0.2802045,-0.333095,0.067683786,-0.029125817,-0.11888024,0.019153614,0.17238252,-9.634268,0.9545008,47.694946,-1.0630509,-1.8959037,-3.7010138,0.03784854,-0.11371212,-0.13689537,25.9375,26.75,25.8125,28.75,29.6875,30.0625
0.2840576,0.124976434,0.102113985,-1.2735025,0.00418951,-0.0025882164,-0.13891196,-0.39215022,-0.3304455,0.059888616,-3.0751543,0.61571205,2.3686111e-06,-0.13835551,-0.017418122,-0.00047145787,0.03235517,-0.004787262,0.050917972,0.43803594,-1.4314785,1.9636258,-2.0982468,-1.574931,2.4076972,-0.069017895,0.2819877,-0.33465114,0.0703042,-0.02821106,-0.11960209,0.019153614,0.1340753,-9.576807,0.9298854,47.693153,-0.88905215,-1.8353063,-3.5912943,0.04610108,-0.1318231,-0.09948169,25.9375,26.75,25.8125,28.75,29.6875,30.0625
0.28605342,-0.06899435,0.29841608,-1.2862025,0.016806811,-0.009046148,-0.1416628,-0.39241004,-0.3304774,0.059871905,-3.0750933,0.6155075,-2.546787e-05,-0.13701819,-0.019050667,-0.00021394977,0.03240351,-0.0074814865,0.04974498,0.43791702,-1.4309027,1.9629782,-2.0981019,-1.5750026,2.4074588,-0.06555063,0.2829236,-0.33743355,0.074616,-0.02710414,-0.1149647,-0.1340753,0.05746084,-9.595961,0.95226496,47.6636,-1.1536199,-1.8767164,-3.6633663,0.008989378,-0.14283177,-0.1515364,25.9375,26.75,25.8125,28.75,29.6875,30.125
0.28805172,-0.62170786,0.08538989,-1.1498563,0.024180762,-0.008152877,-0.13639821,-0.3926975,-0.3305166,0.05990705,-3.0750797,0.6154116,2.8878143e-05,-0.1373074,-0.018401265,0.00010072216,0.03349715,-0.010145772,0.04435048,0.43777257,-1.4303881,1.9622725,-2.0979202,-1.5750507,2.4072566,-0.06701313,0.2837152,-0.34031126,0.07958662,-0.026949037,-0.11103338,-0.17238252,0.0,-9.461885,1.0015011,47.71286,-1.1572508,-1.764873,-3.6600597,-0.020653859,-0.13704817,-0.16415396,25.9375,26.75,25.8125,28.75,29.6875,30.125
0.29005244,-0.6658748,0.30723283,-1.174169,0.02060051,0.008441857,-0.13525312,-0.3929566,-0.33055505,0.059883904,-3.07505,0.61525613,-7.07773e-05,-0.13831933,-0.017268859,-0.0003245116,0.03514387,-0.01416984,0.037497226,0.4376275,-1.4297998,1.9616245,-2.0977747,-1.5750626,2.4070187,-0.07002052,0.28684208,-0.34420493,0.08470758,-0.026731882,-0.10718514,-0.15322891,-0.019153614,-9.519346,0.9231726,47.687782,-0.94517004,-1.9030306,-3.6411362,-0.070764065,-0.143621,-0.2260658,25.9375,26.75,25.8125,28.75,29.6875,30.125
0.29205188,-0.82321787,0.10146371,-1.2505794,0.022537462,0.01481569,-0.13751456,-0.39322156,-0.33060688,0.059895538,-3.0749834,0.6150103,-6.3089945e-05,-0.13653429,-0.018251281,-0.0011671712,0.037519034,-0.019329451,0.037364088,0.4375567,-1.4292241,1.960895,-2.0975578,-1.5751585,2.4068034,-0.06667678,0.2895491,-0.3467513,0.09023064,-0.02668667,-0.103706546,-0.36391866,0.05746084,-9.595961,0.9701675,47.65912,-1.0739758,-1.8865676,-3.5717623,-0.12889138,-0.1611864,-0.27367198,25.9375,26.75,25.8125,28.75,29.6875,30.125
0.2940524,-1.3237458,-0.4865536,-0.9727605,0.009604352,0.034612942,-0.13687038,-0.39351553,-0.3306531,0.059892964,-3.074946,0.6148706,-0.00010882019,-0.13722728,-0.017194433,-0.0009335394,0.038906317,-0.022006754,0.032827575,0.43741196,-1.4286007,1.9601511,-2.0973766,-1.5751947,2.4065766,-0.06904324,0.2906666,-0.34985462,0.09523244,-0.026808092,-0.10153388,-0.2873042,0.1340753,-9.519346,0.94331104,47.66987,-1.076162,-2.0132284,-3.6300793,-0.19627352,-0.14876056,-0.32650822,25.9375,26.75,25.8125,28.75,29.6875,30.125
0.29605192,-1.3174806,-0.8630532,-0.80933243,0.00516377,0.045195583,-0.14087558,-0.39379865,-0.33067676,0.05991085,-3.074893,0.61486,-9.937045e-05,-0.13738737,-0.01692288,-0.0017864654,0.040667757,-0.02525067,0.030314052,0.4372438,-1.4280729,1.9594692,-2.0971959,-1.5752434,2.406409,-0.0694538,0.29383266,-0.3523184,0.09821622,-0.027030142,-0.09942824,-0.1340753,-0.038307227,-9.423578,0.9030289,47.63673,-1.0940537,-1.9844103,-3.4839349,-0.25478417,-0.17280851,-0.36362273,25.9375,26.75,25.8125,28.75,29.6875,30.125
0.29805174,-1.6362957,-0.86063135,-0.7058045,0.00211211,0.034853585,-0.13905346,-0.39406502,-0.33070612,0.059900027,-3.074779,0.61476004,-0.0001611916,-0.13838403,-0.016846417,-0.0008646869,0.040201735,-0.024106115,0.027940946,0.43712348,-1.427474,1.958764,-2.0969803,-1.5753273,2.4062414,-0.0703321,0.29352683,-0.35453206,0.09949748,-0.027104631,-0.097929664,-0.26815057,0.076614454,-9.404425,0.92093146,47.650166,-1.0714092,-1.859628,-3.5649729,-0.31487733,-0.16832252,-0.4147234,25.9375,26.75,25.8125,28.75,29.6875,30.125
0.30005243,-1.5131936,-0.8794829,-0.72860277,-0.0027838452,0.03380445,-0.12995934,-0.39435616,-0.33072272,0.059882905,-3.0746877,0.61472285,-0.00021321958,-0.13971433,-0.016636724,-0.0011173051,0.040410426,-0.022650484,0.025883818,0.4369433,-1.4268622,1.9580692,-2.096814,-1.5753874,2.4060502,-0.071232796,0.29526946,-0.3556935,0.097683795,-0.027927347,-0.09676584,-0.51714754,0.095768064,-9.308657,0.8940802,47.67166,-1.1142237,-1.793781,-3.6238952,-0.3316489,-0.19052455,-0.4819668,25.9375,26.75,25.8125,28.75,29.6875,30.125
0.3020526,-1.2451704,-0.6094347,-0.6562905,0.0004388839,0.03852861,-0.13950355,-0.39462927,-0.33078542,0.05989716,-3.0746737,0.61454636,-0.0002263327,-0.14270298,-0.017256923,0.0010536945,0.037016116,-0.015042704,0.02561006,0.43684673,-1.426288,1.9573396,-2.0966237,-1.5754231,2.4058456,-0.07248385,0.29369563,-0.35803,0.093254656,-0.028096488,-0.09773982,-0.34476504,0.21068975,-9.32781,0.9768804,47.66271,-0.9203683,-1.5623667,-3.7182884,-0.3081444,-0.1843965,-0.51450163,25.9375,26.75,25.8125,28.75,29.6875,30.125
0.30405176,-1.931183,-0.8306637,-0.84956634,0.0014329548,0.018341063,-0.12240913,-0.3949233,-0.33081913,0.05991141,-3.0746279,0.6143795,-0.00020612843,-0.14387688,-0.018464759,0.0016389142,0.03545799,-0.01190033,0.030498536,0.43670332,-1.425713,1.9566087,-2.096433,-1.5754951,2.4056044,-0.0712477,0.2946443,-0.36005315,0.09079376,-0.028045136,-0.10139021,-0.26815057,0.2681506,-9.346964,0.97240865,47.63673,-1.1373963,-1.5274267,-3.6987925,-0.3001741,-0.18300962,-0.51273215,25.9375,26.75,25.8125,28.75,29.6875,30.125
0.30605233,-1.5990645,-1.3733183,-0.7176493,-0.013136079,0.04081555,-0.13535622,-0.39523625,-0.3308626,0.059928827,-3.0746105,0.61435395,-0.00022648496,-0.14817306,-0.019166995,0.0030129687,0.031638134,-0.003817388,0.034850318,0.43652257,-1.4251133,1.9558424,-2.0962436,-1.575507,2.4054103,-0.07353943,0.29609618,-0.3634303,0.08374045,-0.028056607,-0.108030185,-0.36391866,0.21068975,-9.385271,0.9679317,47.658226,-1.0911996,-1.4638201,-3.6122637,-0.22686893,-0.19746223,-0.5253962,25.9375,26.75,25.8125,28.75,29.6875,30.125
0.30805263,-1.5805991,-1.2466289,-0.72679734,-0.030026626,0.055410773,-0.14406371,-0.39552328,-0.3308925,0.059917524,-3.0745292,0.61414045,-0.0002042761,-0.1506813,-0.019562807,0.003940222,0.030061347,-0.0002730836,0.041211482,0.43640205,-1.4245015,1.9551357,-2.0960886,-1.5756153,2.4051673,-0.07480971,0.29753286,-0.3669435,0.08188569,-0.02817551,-0.11565755,-0.28730422,0.22984336,-9.32781,0.94331104,47.64479,-0.89611375,-1.4763951,-3.5429668,-0.18374668,-0.20394689,-0.41605756,25.9375,26.75,25.8125,28.75,29.6875,30.125
0.3100521,-1.5606526,-1.179863,-0.9071241,-0.025128713,0.06065001,-0.13994895,-0.39584595,-0.33093414,0.059938896,-3.0745366,0.61409694,-0.00017972023,-0.15290688,-0.020738902,0.0033927197,0.029661328,0.0018405311,0.052461587,0.4362104,-1.4239136,1.9543809,-2.0959346,-1.5756277,2.404948,-0.07409322,0.3026545,-0.37096897,0.078647465,-0.028763605,-0.1261855,-0.24899697,0.17238252,-9.404425,0.89631605,47.607174,-1.035154,-1.559216,-3.5230079,-0.15238133,-0.2155643,-0.3365487,25.9375,26.75,25.8125,28.75,29.6875,30.125
0.3120523,-2.1589155,-1.3899647,-1.1756693,-0.0043795076,0.038352653,-0.12727432,-0.39612085,-0.33097994,0.05992933,-3.0744913,0.6138357,-0.00016511303,-0.15525612,-0.020630082,0.0031794554,0.030049698,0.0032528895,0.055400003,0.4361139,-1.4233134,1.9536852,-2.0957906,-1.5757121,2.4046946,-0.075586244,0.3063304,-0.37457052,0.07742479,-0.029747257,-0.13060819,-0.38307226,0.2681506,-9.461885,0.9410752,47.62061,-0.89765126,-1.73277,-3.5027778,-0.10427603,-0.20300208,-0.25744313,25.9375,26.75,25.8125,28.75,29.6875,30.125
0.31405237,-1.560936,-1.1094317,-1.237467,-0.007266075,0.05464971,-0.1382604,-0.3964537,-0.3310241,0.059965067,-3.0745194,0.61368674,-8.0604856e-05,-0.15587005,-0.019906525,0.0022345698,0.030553954,0.0019090705,0.057286575,0.43593335,-1.4227362,1.9529089,-2.0956352,-1.5757474,2.4044178,-0.07738595,0.30835065,-0.3747906,0.07702676,-0.029648619,-0.13429622,-0.47884035,0.28730422,-9.423578,0.9634547,47.64121,-0.9202942,-1.7111897,-3.5585747,-0.07934663,-0.19961837,-0.18632974,25.9375,26.75,25.8125,28.75,29.6875,30.125
0.31605184,-1.4998889,-1.0911951,-1.3807366,-0.010106667,0.05053957,-0.13662943,-0.39673975,-0.3310354,0.059935298,-3.074422,0.61353254,-0.00013116788,-0.15513524,-0.019397378,0.00053989515,0.03201043,-0.0021466853,0.05653517,0.43576512,-1.422111,1.9522275,-2.0954792,-1.5758318,2.4041662,-0.0778457,0.31091028,-0.3742956,0.07824781,-0.029267358,-0.13400427,-0.47884035,0.45968673,-9.576807,0.89631605,47.64389,-0.8333917,-1.6614182,-3.7594957,-0.05270896,-0.211009,-0.14989449,25.9375,26.75,25.8125,28.75,29.6875,30.125
0.318052,-1.8256805,-1.5661852,-1.3843918,-0.023004826,0.052937906,-0.1261071,-0.39708358,-0.33109564,0.059967376,-3.074432,0.6132672,-6.762566e-05,-0.1547866,-0.019013729,-0.000236091,0.032645803,-0.0050960737,0.053106982,0.43562084,-1.4214618,1.9513658,-2.0952756,-1.5758919,2.4038553,-0.07859513,0.31231162,-0.37476507,0.080257766,-0.028585806,-0.13132979,-0.49799395,0.40222588,-9.595961,0.94331104,47.691364,-0.8375466,-1.7173781,-3.9545228,-0.048259914,-0.23500592,-0.14519484,25.9375,26.75,25.8125,28.75,29.6875,30.125
0.32005224,-1.5872979,-2.0553303,-1.3079755,-0.04510692,0.06255307,-0.13040079,-0.3973678,-0.33112776,0.05996117,-3.0743666,0.6132013,-7.9239195e-05,-0.15687273,-0.018599678,0.00078570977,0.03260751,-0.0033273,0.043862175,0.43547618,-1.420873,1.9506711,-2.0951188,-1.5759515,2.4036784,-0.08057958,0.31320515,-0.37860098,0.081610076,-0.02928289,-0.12406266,-0.6703765,0.34476504,-9.634268,0.99702406,47.713753,-0.7478496,-1.5758052,-3.9212494,-0.035521064,-0.2548643,-0.21509418,25.9375,26.75,25.8125,28.75,29.6875,30.125
0.3220525,-1.8978803,-1.983213,-1.3524204,-0.05516639,0.059523433,-0.12243372,-0.39772633,-0.33115906,0.0599915,-3.074352,0.6131425,-1.1461878e-05,-0.15866235,-0.018434681,0.0013569896,0.03319611,-0.0023103007,0.0377017,0.43526003,-1.4202472,1.9498447,-2.094939,-1.5760001,2.4034278,-0.08166574,0.31513262,-0.38261715,0.08304371,-0.030231806,-0.11898207,-0.57460845,0.38307226,-9.653421,0.9298854,47.635834,-0.72011375,-1.5778444,-3.792541,-0.03846176,-0.25473553,-0.24750909,25.9375,26.75,25.8125,28.75,29.6875,30.125
0.32405174,-1.713904,-1.5858433,-1.4215863,-0.042992115,0.056638792,-0.13186663,-0.39801985,-0.33121532,0.05997807,-3.0743175,0.61292475,-2.0857597e-05,-0.15972158,-0.018416915,0.0032670242,0.033512697,-0.0013140452,0.03554863,0.4351518,-1.4195989,1.9491004,-2.0947936,-1.5760602,2.4031885,-0.082058884,0.31415176,-0.38711488,0.08775442,-0.030938324,-0.117216036,-0.47884035,0.2873042,-9.653421,1.0082139,47.6636,-0.6858845,-1.4654267,-3.7432468,-0.070730366,-0.25689253,-0.29956812,25.9375,26.75,25.8125,28.75,29.6875,30.125
0.32605222,-1.4549274,-1.1230731,-1.2667725,-0.02378999,0.058026653,-0.13152811,-0.39834535,-0.33124903,0.059982434,-3.0742645,0.6128176,8.50352e-06,-0.16143492,-0.018903516,0.0032867417,0.033462748,-0.0020810997,0.03448358,0.43498352,-1.4189615,1.9483222,-2.0946257,-1.5761322,2.4029605,-0.08276371,0.318106,-0.39230987,0.08965715,-0.030580986,-0.116854586,-0.36391866,0.28730422,-9.634268,0.97464454,47.686886,-0.63287735,-1.4275541,-3.4801087,-0.07051189,-0.26284248,-0.3223104,25.9375,26.75,25.8125,28.75,29.6875,30.125
0.32805175,-0.70942235,0.18235807,-1.527128,0.009589819,0.042100042,-0.1376653,-0.39870238,-0.3312927,0.0600194,-3.0742757,0.61272407,0.00011490479,-0.159277,-0.017668169,0.00063991256,0.038543154,-0.0124014225,0.03351658,0.43479142,-1.418347,1.9474972,-2.094467,-1.5761803,2.402709,-0.08291115,0.3227042,-0.39353508,0.097778566,-0.030819317,-0.11603586,-0.28730422,0.15322891,-9.557653,0.9634547,47.679718,-0.59662414,-1.7203274,-3.5640965,-0.11464382,-0.2617379,-0.32899228,25.9375,26.75,25.8125,28.75,29.6875,30.125
0.33005196,-0.49287164,0.3137041,-1.3316128,0.042010102,0.02096259,-0.13423015,-0.3989949,-0.33133742,0.06000443,-3.0742202,0.61259586,3.432799e-05,-0.15818772,-0.018010207,-0.00081042503,0.03951809,-0.01727008,0.034336574,0.43464792,-1.4176977,1.9467434,-2.0942748,-1.5762161,2.402493,-0.082036525,0.3257203,-0.39450014,0.10054182,-0.02966315,-0.115985,-0.3256114,0.19153613,-9.519346,0.93436235,47.661808,-0.65307903,-1.7280786,-3.7249074,-0.16300014,-0.3060128,-0.36812618,25.9375,26.75,25.8125,28.75,29.6875,30.125
0.3320523,-0.19330426,0.6376794,-0.9345027,0.03568003,0.023560654,-0.13679379,-0.39932173,-0.33136928,0.060008835,-3.074155,0.61252314,1.9943349e-05,-0.15753853,-0.017815452,-0.0018545324,0.040622376,-0.021625403,0.035824284,0.43446776,-1.4170481,1.9459418,-2.0940702,-1.5762757,2.4022763,-0.082269534,0.32803485,-0.3957073,0.10382532,-0.028845688,-0.117708914,-0.17238252,0.1340753,-9.385271,0.9791215,47.65912,-0.6404251,-1.7993478,-3.7904549,-0.20679924,-0.3334449,-0.3782847,25.9375,26.75,25.8125,28.75,29.6875,30.125
0.33405253,-0.13495696,0.512638,-0.8500182,0.026758123,0.017301692,-0.14174399,-0.39966574,-0.33139795,0.060039707,-3.0741293,0.61241835,0.00010810656,-0.15778406,-0.017725945,-0.002139449,0.04279712,-0.023359332,0.04120303,0.434276,-1.4164467,1.9451398,-2.093889,-1.5763482,2.4020228,-0.08171518,0.33035392,-0.398571,0.10682127,-0.030112904,-0.122526094,0.038307227,0.019153614,-9.346964,0.9791215,47.686886,-0.7337872,-1.8810896,-3.7717235,-0.23954688,-0.35134733,-0.34850118,25.9375,26.75,25.8125,28.75,29.6875,30.125
0.33605197,-0.28486782,-0.18420795,-0.5837411,0.020860307,0.019176193,-0.13204396,-0.3999912,-0.33142462,0.060030922,-3.0740364,0.6121837,9.73593e-05,-0.15915774,-0.017648328,-0.0012880748,0.043700438,-0.021728003,0.04739454,0.4341198,-1.4157618,1.9443249,-2.0936735,-1.5764569,2.4017324,-0.08191627,0.33113506,-0.4019434,0.10826311,-0.031665985,-0.12890652,0.019153614,-0.038307227,-9.212889,0.95226496,47.66808,-0.735261,-1.7487972,-3.7364345,-0.28076553,-0.3337309,-0.28339398,25.9375,26.75,25.8125,28.75,29.6875,30.125
0.33805224,-0.4942198,-0.576218,-0.53325593,0.010575981,0.014613138,-0.13599005,-0.4003185,-0.3314736,0.06006803,-3.07404,0.6119709,0.0001365209,-0.16290505,-0.017544668,0.0005216324,0.042229872,-0.017065106,0.05101603,0.4339631,-1.4151609,1.943498,-2.0934465,-1.5765046,2.4014428,-0.08472436,0.33244467,-0.40766084,0.10777581,-0.032338943,-0.13532977,0.11492168,-0.076614454,-8.944737,0.9634547,47.679718,-0.6885565,-1.6483958,-3.5413334,-0.2913359,-0.3270262,-0.18956676,25.9375,26.75,25.8125,28.75,29.6875,30.125
0.34005266,-0.056297183,-0.5269904,-1.0003179,0.026099518,0.0021068149,-0.12338101,-0.4006523,-0.33149126,0.06008142,-3.0739532,0.61181253,0.00017062484,-0.16434576,-0.019630292,0.0011557395,0.040835135,-0.013486796,0.060079716,0.43378407,-1.4145235,1.9426836,-2.0932195,-1.5766133,2.4011765,-0.081887804,0.33491117,-0.41159877,0.105357744,-0.032630634,-0.1415516,0.15322891,0.13407528,-9.11712,0.9321212,47.66808,-0.72099423,-1.6152966,-3.5239992,-0.27334088,-0.33393908,-0.10342336,25.9375,26.75,25.8125,28.75,29.6875,30.125
0.34205192,-0.2108191,-0.65308285,-1.1031994,0.0070451945,-0.0050050123,-0.13105759,-0.4009441,-0.3315348,0.060052566,-3.0738826,0.6115867,1.6831795e-05,-0.16639295,-0.020318812,0.0016784238,0.03938562,-0.008993503,0.061217237,0.43364,-1.4138265,1.9418939,-2.092982,-1.5766491,2.4009008,-0.08188174,0.3361251,-0.4135061,0.101350725,-0.03324647,-0.1426735,-0.038307223,0.21068975,-9.212888,0.93436235,47.67345,-0.8413205,-1.4854012,-3.4861436,-0.24459025,-0.35060912,-0.080838054,25.9375,26.75,25.8125,28.75,29.6875,30.125
0.34405214,-0.6372755,-1.848946,-0.85705674,-0.029911036,0.021701649,-0.13387904,-0.40132624,-0.33158892,0.06010347,-3.0738924,0.6114764,0.00020922757,-0.16939867,-0.01948469,0.0014741598,0.038901016,-0.005730948,0.054540403,0.4334708,-1.4131886,1.9410084,-2.0928276,-1.5767335,2.400662,-0.08520088,0.3387276,-0.4153487,0.09743319,-0.034166615,-0.13931197,-0.095768064,0.28730422,-9.212888,0.97240865,47.658226,-0.57670045,-1.5314527,-3.6036777,-0.19065607,-0.3468485,-0.059171584,25.9375,26.75,25.8125,28.75,29.6875,30.125
0.3460524,-1.6825963,-2.9263663,-0.7837774,-0.057315473,0.030162787,-0.116638385,-0.40161848,-0.33160487,0.060081195,-3.073774,0.61124015,0.00011249314,-0.16940024,-0.021244206,0.0023044683,0.038064074,-0.0012856929,0.05438372,0.43331638,-1.4125277,1.9402422,-2.0925777,-1.5768303,2.4003756,-0.08122412,0.3378299,-0.41571626,0.09432404,-0.03528669,-0.13516688,-0.26815057,0.40222588,-9.308656,0.9835985,47.672558,-0.87787306,-1.4766037,-3.7087488,-0.14006424,-0.336543,-0.10080296,25.9375,26.75,25.8125,28.75,29.6875,30.125
0.34805167,-1.8324949,-2.8187418,-0.66728574,-0.0864467,0.06672751,-0.12590289,-0.40197492,-0.33165804,0.0600923,-3.0737627,0.6111062,0.00012100197,-0.1704377,-0.020919042,0.0010066102,0.03897609,-0.0017893609,0.047821898,0.43313608,-1.4118305,1.93937,-2.0923865,-1.576866,2.4001136,-0.08218094,0.34140697,-0.41670084,0.09259796,-0.03588966,-0.12955675,-0.4213795,0.49799395,-9.346964,0.9768804,47.67166,-0.81598616,-1.4197166,-3.8304205,-0.111744784,-0.3337164,-0.1499696,25.9375,26.75,25.8125,28.75,29.6875,30.125
0.35005182,-1.9451379,-2.5271995,-0.7285869,-0.0805134,0.07047663,-0.13006751,-0.402324,-0.33169478,0.060089618,-3.0737097,0.6109635,0.00013490551,-0.17115185,-0.020916287,0.00021664603,0.040335804,-0.0037382923,0.042298146,0.43295595,-1.4111325,1.9385308,-2.0922067,-1.576938,2.3998516,-0.082417354,0.34507135,-0.41972932,0.094321184,-0.036293376,-0.12426429,-0.22984336,0.59376204,-9.3661175,1.0820653,47.650166,-0.84637094,-1.4437339,-3.8410969,-0.11143155,-0.3297415,-0.21837892,25.9375,26.75,25.8125,28.75,29.6875,30.125
0.35205203,-2.079788,-2.1900196,-0.61213577,-0.05944434,0.061831012,-0.12435677,-0.40266633,-0.3317375,0.060102627,-3.0736856,0.610768,0.00022065657,-0.17390093,-0.022355383,0.0011994848,0.039209705,0.001475297,0.037829395,0.4328004,-1.410483,1.9377168,-2.0920513,-1.5770224,2.3995774,-0.08128554,0.34783134,-0.42469856,0.091349624,-0.037452392,-0.11865419,-0.2681506,0.68953013,-9.289503,1.005978,47.655537,-0.93444824,-1.6810184,-3.7143726,-0.046440057,-0.35995,-0.29112107,25.9375,26.75,25.8125,28.75,29.6875,30.125
0.3540523,-1.8439014,-2.1534688,-0.89968795,-0.013828695,0.02733356,-0.11668583,-0.40302873,-0.33180133,0.060115125,-3.073664,0.61070746,0.00027241674,-0.17560707,-0.021027815,0.0008314618,0.041166052,-4.474039e-05,0.034104954,0.43264323,-1.409774,1.9368318,-2.0918834,-1.5770711,2.3993857,-0.08425688,0.35082442,-0.428131,0.09398702,-0.038590647,-0.11789347,-0.30645782,0.7852981,-9.193734,0.97464454,47.64389,-0.7830361,-1.5719175,-3.7330782,-0.028209796,-0.33455107,-0.3570301,25.9375,26.75,25.8125,28.75,29.6875,30.125
0.3560527,-1.0360068,-1.4137816,-0.92356044,-0.018434176,0.025713325,-0.12632532,-0.4033866,-0.33183637,0.06010975,-3.0735712,0.6106124,0.0003188243,-0.17556487,-0.022842329,0.0010202092,0.040820584,0.002059341,0.033335913,0.43247658,-1.4090525,1.9359707,-2.0917041,-1.5771793,2.399172,-0.08049878,0.35199112,-0.42979643,0.09244353,-0.03915324,-0.11336068,-0.2681506,0.8619126,-9.212888,0.9835985,47.635834,-1.0475378,-1.6053691,-3.6430578,0.018587584,-0.31779808,-0.42112947,25.9375,26.75,25.8125,28.75,29.6875,30.125
0.35805202,-0.84758013,-1.6929259,-0.5544334,-0.032416325,0.02624467,-0.1251527,-0.40374076,-0.3318925,0.06012309,-3.0735543,0.610473,0.00037972024,-0.17669544,-0.0220385,0.0014921442,0.04278946,0.002532643,0.0320468,0.4323205,-1.4083669,1.93511,-2.0915358,-1.5772399,2.3989315,-0.08150433,0.35277787,-0.43252325,0.09477538,-0.041140206,-0.11306498,-0.17238252,0.68953013,-9.232041,1.0194036,47.64479,-1.0766957,-1.635074,-3.616883,0.042201683,-0.31925535,-0.4768152,25.9375,26.75,25.8125,28.75,29.6875,30.125
0.36005226,-0.34595624,-2.085354,-0.4078944,-0.038262825,0.029106453,-0.13468528,-0.40409434,-0.33193326,0.06011186,-3.0734615,0.61031795,0.00043385956,-0.17631456,-0.021334942,0.00030454315,0.04580657,-0.0017673105,0.035647713,0.43217605,-1.4076335,1.9342498,-2.0913665,-1.5773605,2.3987026,-0.08173678,0.35574445,-0.43437657,0.098788954,-0.04209819,-0.1168909,-0.2873042,0.63206923,-9.270349,0.9947882,47.682407,-0.91613925,-1.5369852,-3.7626424,0.044040367,-0.28985682,-0.51124406,25.9375,26.75,25.8125,28.75,29.6875,30.125
0.36205268,-0.763168,-1.8320239,-0.25146827,-0.03320633,0.016441466,-0.13054138,-0.40448457,-0.3319733,0.060129456,-3.0734036,0.6102045,0.000513503,-0.17653383,-0.020796519,0.0014590019,0.04872508,-0.0026629856,0.04341532,0.43198454,-1.4069009,1.9333156,-2.091161,-1.5774568,2.3984482,-0.08128672,0.35545465,-0.43829808,0.10497525,-0.044405613,-0.1241944,-0.36391866,0.51714754,-9.174581,0.99031126,47.658226,-1.1146753,-1.4400096,-3.6966555,0.00032580658,-0.26690632,-0.45640683,25.9375,26.75,25.8125,28.75,29.6875,30.125
0.36405206,-0.6457703,-1.1325065,0.026286962,-0.02350231,0.03510517,-0.1372904,-0.4048278,-0.3320104,0.06012246,-3.073328,0.610068,0.00045142372,-0.17621572,-0.019638872,0.0004245494,0.052478645,-0.009293791,0.051358525,0.43180403,-1.4061795,1.9324421,-2.0909188,-1.5775174,2.3981926,-0.08255189,0.35903764,-0.44204074,0.11265205,-0.04508804,-0.13339445,-0.19153613,0.28730422,-9.002198,0.9254084,47.653748,-1.0869199,-1.4982108,-3.672166,-0.05772515,-0.22494817,-0.3797455,25.9375,26.75,25.8125,28.75,29.6875,30.125
0.36605242,-0.62640023,-0.0033610824,-0.24900268,0.01685964,0.012926549,-0.12797584,-0.40519345,-0.3320586,0.06010354,-3.0732732,0.60982233,0.00048075186,-0.17606026,-0.019224916,-0.00042437328,0.053907156,-0.014447071,0.059176166,0.4316477,-1.4054091,1.9315575,-2.0907614,-1.5776132,2.3978903,-0.0835788,0.36208773,-0.44505498,0.11781033,-0.04427619,-0.14224198,0.0,0.076614454,-9.002198,0.9858343,47.668976,-1.0399437,-1.5222464,-3.4948325,-0.12523559,-0.22562638,-0.26946533,25.9375,26.75,25.8125,28.75,29.6875,30.125
0.3680517,0.20512958,1.3658396,0.13987647,0.046055328,0.011412156,-0.1389279,-0.40557015,-0.3320984,0.060113117,-3.0732076,0.60967046,0.0005269612,-0.17576459,-0.018365627,-0.0019657428,0.057176646,-0.020881379,0.06428189,0.43146732,-1.4046754,1.9306363,-2.090544,-1.5777091,2.397624,-0.08455918,0.36649475,-0.4482085,0.12370576,-0.044587824,-0.14832444,-0.038307227,-0.095768064,-8.90643,0.9925471,47.691364,-0.97575593,-1.7133751,-3.5984292,-0.15447292,-0.23017529,-0.19533074,25.9375,26.75,25.8125,28.75,29.6875,30.125
0.37005192,0.34730825,1.9247698,0.2255527,0.07414157,-0.0055932906,-0.13796818,-0.40592036,-0.33215228,0.060100842,-3.0731478,0.6094268,0.00045108356,-0.17758034,-0.01897085,-0.0012011054,0.057260167,-0.019536596,0.06584935,0.43131143,-1.4039057,1.929715,-2.0902922,-1.5777692,2.397324,-0.08444716,0.36892575,-0.45337814,0.12523441,-0.045262206,-0.14976938,-0.076614454,-0.17238253,-8.772355,0.9410752,47.67166,-0.95082915,-1.6563232,-3.4779577,-0.20072511,-0.22127631,-0.15687874,25.9375,26.75,25.8125,28.75,29.6875,30.125
0.37205213,0.7935836,2.3478446,-0.14983219,0.103565365,-0.020389289,-0.13226712,-0.40624475,-0.33216962,0.060060665,-3.0730133,0.60920805,0.00035898492,-0.17781262,-0.017903185,-0.0024411401,0.060263924,-0.020882204,0.06251365,0.43114322,-1.4031605,1.9288911,-2.0900648,-1.5778784,2.397037,-0.08505225,0.37118688,-0.45348236,0.12555964,-0.04744404,-0.14701824,-0.019153614,-0.2681506,-8.963891,0.9634547,47.65106,-0.96930885,-1.8510252,-3.4033523,-0.23031911,-0.19556898,-0.15061894,25.9375,26.75,25.8125,28.75,29.6875,30.125
0.37405238,0.18476753,1.646543,-0.29485464,0.08120721,-0.013718407,-0.13831729,-0.4066144,-0.33222124,0.060062516,-3.0729504,0.6090053,0.0003258828,-0.18004908,-0.018862503,-0.0019370746,0.058929674,-0.01760308,0.05820264,0.43097526,-1.4023907,1.927934,-2.0898025,-1.5779504,2.396751,-0.08497017,0.37374654,-0.4573822,0.123377845,-0.047611594,-0.14261849,-0.17238252,-0.2873042,-9.002198,0.9835985,47.67345,-1.0047618,-1.8331186,-3.5597696,-0.20067543,-0.16973269,-0.19507898,25.9375,26.75,25.8125,28.75,29.6875,30.125
