Tylouw/Master_Thesis_Code/training_data/batch_1/big_rod_t0.1/sample_61_session_3.csv
timestamp[s],tcp_force_x[N],tcp_force_y[N],tcp_force_z[N],tcp_force_rx[Nm?],tcp_force_ry[Nm?],tcp_force_rz[Nm?],tcp_pose_x[m],tcp_pose_y[m],tcp_pose_z[m],tcp_pose_rx[rot_vec_x],tcp_pose_ry[rot_vec_y],tcp_pose_rz[rot_vec_z],tcp_velo_x[m/s],tcp_velo_y[m/s],tcp_velo_z[m/s],tcp_velo_rx[rot_vec_x/s],tcp_velo_ry[rot_vec_y/s],tcp_velo_rz[rot_vec_z/s],q1[rad],q2[rad],q3[rad],q4[rad],q5[rad],q6[rad],qd1[rad/s],qd2[rad/s],qd3[rad/s],qd4[rad/s],qd5[rad/s],qd6[rad/s],tool_acc_x,tool_acc_y,tool_acc_z,current_of_whole_robot[A],voltage_of_whole_robot[V],current_J1[A],current_J2[A],current_J3[A],current_J4[A],current_J5[A],current_J6[A],temp_J1[C],temp_J2[C],temp_J3[C],temp_J4[C],temp_J5[C],temp_J6[C]
8.609495e-07,-0.39924785,-0.34329188,0.008641239,-0.043101545,0.022782508,-0.007036021,-0.37290233,-0.32820722,0.059942804,-3.0784526,0.624918,-0.0002585999,0.0031574012,0.0015130905,-0.0044290633,0.004335811,-0.009383915,6.248968e-06,0.44812617,-1.4708489,2.0095613,-2.107691,-1.5706857,2.4230795,-9.095364e-05,0.004175752,0.0054010367,0.00075855275,0.00017127789,-0.000100322824,0.11492168,0.19153613,-8.983045,0.76874626,47.713753,-0.21070662,-2.8231978,-2.4337845,-0.524427,0.1505893,-0.08800265,25.25,25.875,25.0625,27.5625,28.1875,28.5
0.002054381,-1.3016995,-0.8724207,-0.2895862,-0.030688416,0.0057292683,0.016827013,-0.37288523,-0.32823122,0.05993839,-3.078506,0.62489015,-0.00025613458,-0.00083657267,-0.00041798654,-0.003186999,-0.001447061,0.0025824243,1.0182895e-05,0.4481623,-1.4708608,2.0095966,-2.107744,-1.5706495,2.4230914,-8.981898e-05,0.004562699,0.005207315,-0.012725075,0.00016729788,-9.8944205e-05,0.11492168,0.24899697,-8.983045,0.73069996,47.70032,-0.26597476,-2.8670497,-2.3781533,-0.45087418,0.1475552,-0.094267026,25.25,25.875,25.0625,27.5625,28.1875,28.5
0.004054166,-0.34553206,-0.14865819,-0.1939882,-0.03400712,0.027196985,-0.004200312,-0.3729029,-0.32823548,0.059932347,-3.078504,0.62485147,-0.00024493193,-0.0018427575,-0.00091253576,-0.0025048805,-0.0027992465,0.0053340034,1.0984834e-05,0.4481623,-1.4708132,2.0095608,-2.107756,-1.5706614,2.4230676,-8.871238e-05,0.004342852,0.0043351017,-0.014698857,0.00018733466,-9.760289e-05,0.095768064,0.2681506,-8.944737,0.6971306,47.674347,-0.21779215,-3.0640924,-2.5894766,-0.35843617,0.14225274,-0.08390945,25.25,25.875,25.0625,27.5625,28.1875,28.5
0.006053791,-0.5149438,-0.3165588,-0.3055545,0.0010525334,0.00032565775,0.0056015,-0.3729049,-0.32822767,0.05994165,-3.078502,0.62487006,-0.00017872527,-0.0010080702,-0.0005143429,-0.0017941747,-0.001643249,0.0029177717,9.696129e-06,0.4481623,-1.4708494,2.0095842,-2.1077774,-1.5706857,2.4230795,-8.763268e-05,0.00291537,0.0030380422,-0.009295838,0.00020199026,-9.6297445e-05,0.019153614,0.19153613,-8.925584,0.66132545,47.70211,-0.17607312,-2.9819899,-2.4279823,-0.38051784,0.14138097,-0.097140074,25.25,25.875,25.0625,27.5625,28.1875,28.5
0.008053645,0.0058341385,1.039394,-0.5939395,0.018777918,-0.020889655,0.0017002168,-0.37288517,-0.3282227,0.05991749,-3.0784888,0.6249061,-0.00031542062,-0.00021784897,-0.00012982315,-0.0013952036,-0.0005459774,0.0006709526,8.516139e-06,0.4481382,-1.4708259,2.009608,-2.107752,-1.5706376,2.4230795,-8.657898e-05,0.0019009362,0.00225461,-0.0049975337,0.00019475562,-9.502656e-05,0.019153614,0.15322891,-9.11712,0.71279734,47.672558,-0.26803917,-2.8837614,-2.4290297,-0.42974618,0.1451308,-0.10370969,25.25,25.875,25.0625,27.5625,28.1875,28.5
0.010053908,0.8751004,1.4204987,-1.1592106,0.030752093,-0.009840055,-0.004480488,-0.37288252,-0.3282236,0.059900526,-3.0784898,0.6248875,-0.00038295923,0.00015868113,5.299787e-05,-0.0012852484,0.00010941695,-0.00066485896,1.0980017e-05,0.44812617,-1.4707901,2.0096076,-2.1077516,-1.5706137,2.4230556,-8.252001e-05,0.0017011971,0.0017126605,-0.0027679252,0.0001867693,-9.378868e-05,0.076614454,0.076614454,-9.308657,0.68146914,47.63852,-0.44423747,-2.1471496,-3.2164946,-0.42894912,0.1370952,-0.118158385,25.25,25.875,25.0625,27.5625,28.1875,28.5
0.012054071,0.37707007,0.5944699,-0.91090953,0.0054529593,0.0050762356,-0.012349824,-0.37286553,-0.32820866,0.059882212,-3.0784156,0.6248144,-0.00037644195,-0.0014759256,-0.0007136573,-0.003603429,0.0024737462,-0.0055481447,-2.7322958e-05,0.4481623,-1.4707743,2.0096295,-2.1077397,-1.5706857,2.4230556,-0.00011938476,0.0120167,-0.0046129273,-0.0013322495,0.0001617771,-8.729128e-05,0.05746084,0.038307227,-9.3661175,0.7284641,47.64389,-0.51156294,-2.345004,-3.3876076,-0.44536036,0.11691846,-0.13231328,25.25,25.875,25.0625,27.5625,28.1875,28.5
0.014053859,-0.42069948,-0.067718536,-1.1934819,-0.032492153,0.026079297,-0.0075217946,-0.37290102,-0.32820204,0.059896205,-3.0784295,0.6249153,-0.00037026906,-0.0052768295,-0.0009159146,-0.0036460285,0.0024264958,-0.0054327077,-0.0030654222,0.44810107,-1.4707602,2.009579,-2.1077268,-1.5706614,2.4230556,-0.003187846,0.01891871,-0.0122170085,-0.0007546167,0.0001391619,-0.00011210671,-0.114921674,0.15322891,-9.519346,0.6546126,47.650166,-0.4376136,-2.7353632,-2.953179,-0.42945755,0.102996185,-0.14830232,25.25,25.875,25.0625,27.5625,28.1875,28.5
0.0160543,-1.2480915,-1.082333,-1.2622483,-0.06483321,0.053736765,-0.008655426,-0.37285334,-0.3281826,0.059836105,-3.078326,0.62481654,-0.00055723806,-0.004930159,0.00050401565,-0.0042126463,0.0037006522,-0.007988555,-0.0033261634,0.44812432,-1.4706885,2.009627,-2.1076787,-1.5706857,2.4230304,-0.005519874,0.018595137,-0.011013714,0.0012209616,0.00010414558,-0.0021847058,-0.32561144,0.38307226,-9.691729,0.75755644,47.692257,-0.38369805,-2.5409503,-3.321987,-0.44432473,0.094186656,-0.1429839,25.25,25.875,25.0625,27.5625,28.1875,28.5
0.018053997,-1.9865897,-2.143662,-1.4551593,-0.0864562,0.07922099,-0.003524346,-0.3728584,-0.32819363,0.059838966,-3.0783238,0.6247765,-0.00054714415,-0.004486888,0.00046415487,-0.004736759,0.005252015,-0.011191347,-0.00087042025,0.44814852,-1.4706637,2.0095904,-2.1076658,-1.5706977,2.42303,-0.0050383145,0.020688638,-0.01286515,0.0045372397,9.640035e-05,-0.004158408,-0.34476504,0.51714754,-9.787497,0.7620334,47.699425,-0.452362,-2.3957052,-3.4947934,-0.46911043,0.10036926,-0.12702602,25.25,25.875,25.0625,27.5625,28.1875,28.5
0.020053957,-2.0884204,-2.1218555,-1.5148466,-0.10307259,0.08803615,-0.0030616324,-0.37290123,-0.32819954,0.059848074,-3.0783424,0.6248379,-0.0005155925,-0.0052046874,-1.2611546e-05,-0.00466684,0.00552002,-0.011118863,-0.00039203698,0.44811252,-1.470615,2.0095189,-2.1076772,-1.5706857,2.42303,-0.0046079834,0.022657447,-0.015305753,0.005060864,-0.00018086379,-0.004204272,-0.4405331,0.5363012,-9.730036,0.74413085,47.689575,-0.5575279,-2.3687408,-3.428293,-0.48315185,0.06931459,-0.13757077,25.25,25.875,25.0625,27.5625,28.1875,28.5
0.022053845,-2.1532304,-1.8881433,-1.487322,-0.086646535,0.08314449,-0.004538362,-0.3729194,-0.32821065,0.059858218,-3.0783517,0.6248597,-0.00055095414,-0.0068741273,-0.00026212074,-0.0038198072,0.0043894765,-0.008576575,-0.0021108568,0.44810036,-1.4705791,2.0094454,-2.10763,-1.5706614,2.4230301,-0.00559737,0.02318488,-0.017594874,0.004041976,-0.00027034176,-0.0034728958,-0.57460845,0.59376204,-9.787497,0.76874626,47.696735,-0.61061877,-2.3688984,-3.4946384,-0.46229404,0.057220437,-0.14521925,25.25,25.875,25.0625,27.5625,28.1875,28.5
0.024053566,-1.7711821,-1.1116484,-1.4950105,-0.085270226,0.0777652,-0.012266501,-0.3729038,-0.32820916,0.059817616,-3.07832,0.62483543,-0.00062521984,-0.0084881475,-0.00017970904,-0.002754402,0.0030147112,-0.005582275,-0.004254742,0.4481117,-1.4705193,2.0094812,-2.1076663,-1.5706614,2.4230304,-0.0071777324,0.02250895,-0.019026594,0.0028556401,-0.0003341111,-0.0029081225,-0.59376204,0.6512228,-9.844957,0.7978386,47.675243,-0.55111265,-2.2912326,-3.533235,-0.43360686,0.061459094,-0.16906317,25.25,25.875,25.0625,27.5625,28.1875,28.5
0.02605334,-1.3095905,-1.0654452,-1.3684448,-0.070985556,0.07019564,-0.014601915,-0.37294173,-0.3282186,0.05984162,-3.0783336,0.624819,-0.0005418149,-0.01006869,-0.0003931322,-0.00250042,0.0025469235,-0.0044820555,-0.0047218576,0.44811141,-1.4704946,2.0093963,-2.1076543,-1.5706857,2.4230182,-0.008173456,0.024549458,-0.021726131,0.0023204538,-0.00039629402,-0.0034345165,-0.5363012,0.57460845,-9.749189,0.6658024,47.691364,-0.5142604,-2.1815722,-3.478962,-0.40785164,0.05120799,-0.19276334,25.25,25.875,25.125,27.5625,28.1875,28.5
0.028054195,-1.271548,-0.78895235,-1.3383945,-0.061701264,0.060235165,-0.01565557,-0.37296158,-0.3282178,0.05979876,-3.0783138,0.62483263,-0.0006385259,-0.0111552635,-0.00087456405,-0.0024419085,0.0029087192,-0.0038111948,-0.0030534982,0.44807562,-1.4703741,2.0093706,-2.10769,-1.5706619,2.4229934,-0.007834988,0.02695668,-0.024481332,0.002222644,-0.0010203036,-0.0047610123,-0.53630114,0.4405331,-9.691729,0.7732232,47.672558,-0.6098374,-2.2730067,-3.4799185,-0.3894744,0.04124698,-0.17655638,25.3125,25.875,25.125,27.5625,28.1875,28.5
0.030054158,-1.4036801,-0.8211592,-1.2003949,-0.04609685,0.063302286,-0.015643384,-0.37294653,-0.32822755,0.05979149,-3.078319,0.62481445,-0.00075935404,-0.012241301,-0.0009771838,-0.0021185402,0.0029691912,-0.003490237,-0.0023309083,0.4480753,-1.4703497,2.0093467,-2.1076305,-1.5706142,2.422981,-0.008497249,0.028453609,-0.0270504,0.0030324936,-0.0012187079,-0.006143833,-0.4405331,0.28730422,-9.653421,0.7083204,47.67166,-0.58701247,-2.2514083,-3.4807272,-0.3866272,0.028620077,-0.17620885,25.3125,25.875,25.125,27.5625,28.1875,28.5
0.032053884,-1.591084,-0.35517573,-1.2465497,-0.033404548,0.05755433,-0.023540061,-0.37302062,-0.32824188,0.05981696,-3.0783498,0.6248209,-0.00063294993,-0.013566995,-0.00084053614,-0.0014048544,0.0030244605,-0.0030176924,-0.0029974103,0.44805098,-1.4702773,2.0092142,-2.1076534,-1.5706381,2.422957,-0.009785312,0.029410494,-0.030132346,0.004756265,-0.0014758299,-0.00676347,-0.30645782,0.21068975,-9.519346,0.7150385,47.683304,-0.69204724,-2.2463217,-3.476661,-0.38900578,0.028581034,-0.18873462,25.3125,25.875,25.125,27.5625,28.1875,28.5
0.03405367,-0.94264185,0.30346975,-1.1485655,-0.027540453,0.057414327,-0.03921187,-0.37304807,-0.32823586,0.059805658,-3.0783286,0.6248934,-0.0006466765,-0.014961949,-0.0011774577,-0.00043989404,0.0022662033,-0.0012606182,-0.0030922352,0.44801465,-1.4702172,2.009177,-2.1076653,-1.5706381,2.4229686,-0.010363539,0.02994971,-0.03304342,0.0052161794,-0.0015591762,-0.007244987,-0.30645782,0.11492168,-9.519346,0.7777002,47.71554,-0.6065949,-2.1296768,-3.417017,-0.37291884,0.0073149884,-0.188543,25.3125,25.875,25.125,27.5625,28.1875,28.5
0.0360541,-0.7978174,0.60428107,-0.97548366,-0.012913565,0.04018949,-0.037121877,-0.37309197,-0.32821614,0.05979614,-3.078261,0.62491864,-0.0006181567,-0.016363805,-0.0011119264,-0.00021265396,0.0019304281,-0.0007532331,-0.00420685,0.44797826,-1.470133,2.0091035,-2.1076534,-1.5706981,2.4229567,-0.011814019,0.03161042,-0.035413407,0.005321856,-0.0014815454,-0.0075793304,-0.22984336,0.05746084,-9.3661175,0.8112748,47.701214,-0.6528028,-2.1537318,-3.4073372,-0.35862142,0.0070595015,-0.1970936,25.3125,25.875,25.125,27.5625,28.1875,28.5
0.03805369,-0.9301171,0.7800551,-0.96238834,-0.0002592145,0.018100334,-0.04445536,-0.37313136,-0.3282226,0.05980741,-3.078289,0.624962,-0.00063756306,-0.017579917,-0.0014896082,-0.0003264359,0.0017169145,-0.00074411026,-0.0039723925,0.44793,-1.4700841,2.0090187,-2.1076295,-1.5706619,2.422932,-0.012332819,0.03435666,-0.038140178,0.005201119,-0.0012995547,-0.008330883,-0.17238252,0.019153614,-9.404425,0.7351769,47.67345,-0.69074273,-2.1953325,-3.387586,-0.32638168,0.0019024755,-0.18787654,25.3125,25.875,25.125,27.5625,28.1875,28.5
0.04005418,-0.5360653,0.6654272,-1.2440345,0.001267798,0.016167937,-0.05274424,-0.3731467,-0.32824025,0.05979415,-3.0782733,0.6249012,-0.00063170766,-0.018714836,-0.0014116826,2.1265414e-05,0.0016775994,-0.0006399476,-0.004216189,0.44796562,-1.4699998,2.008959,-2.1076405,-1.5706862,2.4229317,-0.013504198,0.03568096,-0.040635493,0.0062609403,-0.0013127795,-0.00925703,-0.095768064,-0.038307227,-9.3661175,0.7777002,47.685097,-0.6427606,-2.1022258,-3.3723378,-0.32825622,-0.03414973,-0.19216293,25.3125,25.875,25.125,27.5625,28.1875,28.5
0.04205402,-0.597275,0.48456138,-1.1081941,-0.0027164426,0.014052728,-0.062546834,-0.3732223,-0.3282341,0.059820745,-3.078274,0.6249978,-0.00055993535,-0.019383121,-0.0013211495,3.2091863e-05,0.0021622172,-0.0012491433,-0.0046153963,0.44789338,-1.4699395,2.0088265,-2.1076167,-1.5706981,2.4229198,-0.014161133,0.037174646,-0.04257697,0.007468089,-0.0014869487,-0.009513419,-0.11492168,-0.076614454,-9.3661175,0.74413085,47.691364,-0.5953441,-2.146926,-3.3789349,-0.3129955,-0.05454314,-0.19498426,25.3125,25.875,25.125,27.5625,28.1875,28.5
0.04405395,-0.18438567,0.30446148,-1.109792,-0.012964711,0.029046116,-0.07314165,-0.37325233,-0.3282291,0.059790753,-3.0782099,0.6250234,-0.00058591564,-0.020462787,-0.0012205457,0.0007341048,0.0023609938,-0.00056054606,-0.0056823934,0.44788107,-1.4698193,2.008766,-2.107628,-1.5707344,2.4229317,-0.015006433,0.037740674,-0.045148104,0.008940018,-0.0019667782,-0.009289447,-0.1340753,0.076614454,-9.481039,0.7418897,47.675243,-0.6984931,-2.0768306,-3.4085155,-0.3419897,-0.0337487,-0.19617355,25.3125,25.875,25.125,27.5625,28.1875,28.5
0.04605398,-0.44994497,-0.11142977,-1.1876156,-0.009287002,0.025565552,-0.07817273,-0.37328234,-0.32822213,0.05979605,-3.0781872,0.6250379,-0.0006558848,-0.02116795,-0.0006696307,0.0009762715,0.0040353006,-0.0005959333,-0.005153401,0.44783288,-1.4697593,2.0086687,-2.1075437,-1.5707229,2.4228954,-0.015669167,0.03855159,-0.047008246,0.010751286,-0.0034618312,-0.010477145,-0.019153614,0.076614454,-9.500193,0.76874626,47.711964,-0.63931644,-2.03192,-3.3968902,-0.33353433,-0.056354538,-0.20446266,25.3125,25.875,25.125,27.5625,28.1875,28.5
0.048053727,-0.40430218,0.5081652,-1.0361458,-0.03862313,0.026053045,-0.09465585,-0.37333116,-0.32824564,0.059815258,-3.0782373,0.62497115,-0.00058255537,-0.021927072,-0.00053511106,0.0009555954,0.0045938795,-0.0011893817,-0.0056905258,0.44783264,-1.4696989,2.008561,-2.1075552,-1.5707229,2.4228473,-0.016443856,0.040201377,-0.049038075,0.01190897,-0.003709569,-0.010713258,-0.095768064,0.17238252,-9.615114,0.7217513,47.679718,-0.599815,-1.9362397,-3.418964,-0.34891084,-0.071677566,-0.20659241,25.3125,25.875,25.125,27.5625,28.1875,28.5
0.0500537,-0.7800996,-0.65439683,-1.1736531,-0.036289338,0.013954354,-0.10259962,-0.37335786,-0.3282266,0.05979875,-3.0781407,0.6250475,-0.0006541519,-0.022443857,-0.0009876936,0.0013188239,0.004406684,-0.0013386639,-0.004573463,0.44779673,-1.4696026,2.0084765,-2.1074827,-1.5707587,2.4228714,-0.01621757,0.041291267,-0.05136522,0.013198168,-0.0034798514,-0.011603043,-0.076614454,0.24899697,-9.557653,0.779936,47.691364,-0.64543444,-1.9520217,-3.4498258,-0.35235798,-0.07133378,-0.20221218,25.3125,25.875,25.125,27.5625,28.1875,28.5
0.052054375,-0.85759795,-0.9720013,-1.1858853,-0.055524528,0.018017713,-0.100939356,-0.37339857,-0.32825503,0.059801444,-3.0782092,0.62502325,-0.0006820064,-0.023129143,-0.000862254,0.0010147411,0.004808721,-0.0026657826,-0.005492158,0.4477724,-1.469518,2.0083802,-2.1074946,-1.5706986,2.4228232,-0.017217875,0.04346171,-0.0533172,0.014349895,-0.0032690503,-0.01168402,-0.038307227,0.3256114,-9.691729,0.8224646,47.689575,-0.650442,-1.8523064,-3.4615421,-0.36153287,-0.083489805,-0.19644073,25.3125,25.875,25.125,27.5625,28.1875,28.5
0.05405426,-0.48998234,-1.3787627,-1.3236567,-0.05844602,0.037266795,-0.11083685,-0.37345165,-0.32823575,0.059806485,-3.0781412,0.625105,-0.0006923686,-0.024010643,-0.0011464173,0.0012585277,0.0051513077,-0.0018492591,-0.004985235,0.44771242,-1.4694335,2.0082595,-2.1074226,-1.5707349,2.422823,-0.01703022,0.044891555,-0.05548353,0.014500358,-0.0039365236,-0.012000233,-0.095768064,0.40222588,-9.595961,0.7732232,47.682407,-0.647964,-1.9011059,-3.549189,-0.37577593,-0.09215532,-0.20125698,25.3125,25.875,25.125,27.5625,28.1875,28.5
0.056053463,-0.78030205,-1.3460926,-1.4044169,-0.0661891,0.039996598,-0.1273867,-0.37348682,-0.32824585,0.059813112,-3.078144,0.6251249,-0.00067620195,-0.025347658,-0.0007777978,0.0009810902,0.006882221,-0.0009722365,-0.004856573,0.4477001,-1.469373,2.0081751,-2.1074111,-1.5707358,2.4228227,-0.017620403,0.047390237,-0.057467755,0.013951403,-0.005882386,-0.012713135,-0.095768064,0.49799395,-9.615114,0.7083204,47.70838,-0.6456865,-1.8046787,-3.5079713,-0.37567526,-0.095631965,-0.19700903,25.3125,25.875,25.125,27.5625,28.1875,28.5
0.058054067,-1.1617875,-1.0678777,-1.149772,-0.07726938,0.04451529,-0.12289726,-0.3735253,-0.32827294,0.059823792,-3.078163,0.62509024,-0.0007137174,-0.026856497,-0.0009802373,0.0014126258,0.007250374,0.0014226766,-0.004754401,0.44770017,-1.4692765,2.0080311,-2.1073515,-1.5707124,2.4227989,-0.017678278,0.048842024,-0.059801895,0.012839468,-0.0072587547,-0.012868144,-0.095768064,0.45968673,-9.576807,0.7866488,47.687782,-0.6887446,-1.8942175,-3.5789938,-0.37311172,-0.07893676,-0.20123246,25.3125,25.875,25.125,27.5625,28.1875,28.5
0.060053993,-1.6976002,-1.6380588,-1.0551103,-0.058810066,0.039465126,-0.13638934,-0.37359047,-0.32826594,0.05981936,-3.0781405,0.62520087,-0.0007129286,-0.028223965,-0.0009881117,0.001706086,0.007939805,0.0028625277,-0.00437046,0.44762802,-1.4691682,2.0079224,-2.1073515,-1.5707129,2.4227986,-0.018054493,0.050502192,-0.062257107,0.012638757,-0.008509822,-0.013623776,-0.05746084,0.4405331,-9.576807,0.7396539,47.691364,-0.6711837,-1.823457,-3.5650077,-0.37561572,-0.079436064,-0.19588524,25.3125,25.875,25.125,27.5625,28.1875,28.5
0.062053636,-0.7535689,-0.8088198,-1.0100532,-0.06383052,0.062430494,-0.15887274,-0.37365788,-0.32827008,0.059821717,-3.0781083,0.6251165,-0.00065506675,-0.029790014,-0.00015827175,0.0015559102,0.010875923,0.0043552686,-0.004031807,0.4476158,-1.4690357,2.007766,-2.1073277,-1.570774,2.422738,-0.01880206,0.052777767,-0.06436383,0.012405703,-0.011808582,-0.014701076,-0.13407528,0.51714754,-9.634268,0.7463667,47.679718,-0.6302749,-1.8311474,-3.5043397,-0.36510167,-0.060784142,-0.18913423,25.3125,25.875,25.125,27.5625,28.1875,28.5
0.06405398,-0.7789147,-1.0011957,-1.0144497,-0.051784612,0.066031,-0.15713114,-0.3737466,-0.32827458,0.05985988,-3.078147,0.62518203,-0.0005490195,-0.031631164,-0.00063593534,0.0024629463,0.010794776,0.0073562176,-0.0035111252,0.44754398,-1.4689753,2.0076096,-2.1073163,-1.5707744,2.4227023,-0.018735679,0.054132123,-0.06777923,0.011729713,-0.013041985,-0.015151324,-0.17238252,0.47884035,-9.519346,0.7530795,47.655537,-0.6682354,-1.7751503,-3.5933242,-0.36120135,-0.039334178,-0.19060776,25.3125,25.875,25.125,27.5625,28.1875,28.5
0.06605396,-0.51438326,-0.38050202,-0.6836525,-0.06495809,0.061979532,-0.15768641,-0.3737858,-0.328287,0.059846573,-3.0781019,0.6251532,-0.0005599865,-0.032967888,-0.0011799552,0.0022172956,0.0109783355,0.007497565,-0.0034014713,0.44755587,-1.4688423,2.0074885,-2.1072924,-1.5708102,2.422702,-0.018769832,0.05762814,-0.07098664,0.011393535,-0.013276869,-0.015291606,-0.05746084,0.45968673,-9.404425,0.7777002,47.684196,-0.6515513,-1.7924966,-3.3701892,-0.35794234,-0.024779348,-0.1694631,25.3125,25.875,25.125,27.5625,28.1875,28.5
0.06805395,-0.7505792,-0.83786935,-0.82373065,-0.051612284,0.049174037,-0.13303663,-0.3738318,-0.32826853,0.059829116,-3.078055,0.625144,-0.0005977336,-0.033266112,-0.0012488425,0.0018241071,0.010211549,0.006096541,-0.004292828,0.44749543,-1.468734,2.007404,-2.107268,-1.570834,2.422642,-0.019783812,0.059062943,-0.071718834,0.011616327,-0.011981095,-0.015415848,-0.21068975,0.40222588,-9.289502,0.7620334,47.68599,-0.6001493,-1.9315512,-3.612431,-0.33996326,-0.017875437,-0.16849051,25.3125,25.875,25.125,27.5625,28.1875,28.5
0.07005392,-0.68734264,-0.6940351,-0.93012214,-0.05989918,0.039750766,-0.1312448,-0.37391904,-0.32828543,0.05985923,-3.0780644,0.62514615,-0.0004881942,-0.034944125,-0.002861344,0.0034425915,0.006585093,0.0088291755,-0.0044799773,0.4474715,-1.468626,2.007211,-2.1072443,-1.5708688,2.4226184,-0.019679353,0.059483353,-0.07581465,0.011250803,-0.009902401,-0.015126807,-0.28730422,0.38307226,-9.3661175,0.7642693,47.65106,-0.6642573,-1.6544595,-3.548831,-0.34105265,-0.03988543,-0.15910615,25.3125,25.875,25.125,27.5625,28.1875,28.5
0.07205393,-0.76963925,-0.8317423,-0.87807965,-0.046428546,0.035868417,-0.11937885,-0.37399596,-0.32832277,0.059880044,-3.0781279,0.6251588,-0.00044793828,-0.03636516,-0.0034112546,0.0037453403,0.0064019742,0.009654106,-0.0043180976,0.44744754,-1.4685055,2.0070307,-2.1072443,-1.5708331,2.4225943,-0.019798843,0.061942026,-0.079253025,0.011408487,-0.010100315,-0.015405976,-0.26815057,0.30645782,-9.404425,0.7463667,47.690468,-0.6203389,-1.6713642,-3.299674,-0.3198958,-0.06707132,-0.15586616,25.3125,25.875,25.125,27.5625,28.1875,28.5
0.07405367,-0.56862414,-0.79686415,-0.8289887,-0.03438313,0.03927875,-0.12585728,-0.37407857,-0.32831773,0.059884105,-3.0780885,0.62517035,-0.0004310731,-0.0370061,-0.0033163077,0.0020024374,0.00789958,0.0059838463,-0.005392631,0.44738722,-1.46836,2.0068505,-2.107196,-1.5708688,2.4225464,-0.020714017,0.067519955,-0.081549436,0.012081946,-0.009865828,-0.01524493,-0.2681506,0.3256114,-9.32781,0.8112748,47.658226,-0.7021663,-1.8904357,-3.514973,-0.32501376,-0.07328035,-0.15202221,25.3125,25.875,25.125,27.5625,28.1875,28.5
0.07605342,-1.0613842,-0.3804909,-0.8396022,-0.032501016,0.03855739,-0.12716883,-0.37415442,-0.3283223,0.059885588,-3.0780635,0.6252609,-0.000443937,-0.038872972,-0.003938628,0.004589438,0.0058293394,0.011177966,-0.0055764336,0.4473272,-1.4682169,2.0066817,-2.1071599,-1.5708693,2.4225461,-0.020968072,0.06505388,-0.08481379,0.012234603,-0.010252711,-0.015312781,-0.30645782,0.34476504,-9.289502,0.7620334,47.668976,-0.69925773,-1.6528685,-3.2750993,-0.32325247,-0.06710604,-0.14677325,25.3125,25.875,25.125,27.5625,28.1875,28.5
0.07805421,-0.9110828,-0.17894053,-0.8850889,-0.026699914,0.05093871,-0.12936956,-0.37422317,-0.32834026,0.05989841,-3.0780618,0.62524176,-0.00039272202,-0.03988772,-0.0038856482,0.0037284102,0.0077756895,0.0096654715,-0.0057845204,0.44731495,-1.4680955,2.0065134,-2.1071355,-1.5708936,2.4225223,-0.021240078,0.06940634,-0.08782987,0.013107265,-0.011357368,-0.015372422,-0.21068975,0.2681506,-9.32781,0.80679786,47.691364,-0.66857874,-1.7579315,-3.3469183,-0.3007425,-0.09317759,-0.15159136,25.3125,25.875,25.125,27.5625,28.1875,28.5
0.08005389,-0.83371633,-0.3691047,-0.74188375,-0.0211313,0.049517736,-0.12699114,-0.37433246,-0.32835266,0.059925675,-3.07811,0.6253087,-0.0002992819,-0.040888436,-0.0040695993,0.003683017,0.008120797,0.00960319,-0.0058373655,0.44723102,-1.4679751,2.0063212,-2.107148,-1.5708817,2.4224741,-0.021598764,0.07166809,-0.09031808,0.013539293,-0.011644321,-0.015676947,-0.2681506,0.30645782,-9.32781,0.784413,47.705692,-0.6625755,-1.7677077,-3.285202,-0.29723257,-0.073007226,-0.12022242,25.3125,25.875,25.125,27.5625,28.1875,28.5
0.0820533,-1.0110142,-0.6267125,-0.8992673,-0.029101923,0.04488832,-0.122332856,-0.37437847,-0.32833394,0.05988757,-3.0779808,0.62530214,-0.00040879849,-0.04138925,-0.0038288243,0.0028887382,0.009378014,0.007973547,-0.006348431,0.44719467,-1.4677825,2.0061777,-2.107064,-1.5709418,2.4224503,-0.022210017,0.074498765,-0.091767356,0.014171114,-0.012076805,-0.01577357,-0.30645782,0.28730422,-9.289502,0.73069996,47.651955,-0.6720612,-1.8175044,-3.198388,-0.3010447,-0.058600314,-0.11653769,25.3125,25.875,25.125,27.5625,28.1875,28.5
0.08405424,-1.0429271,-0.8909529,-0.8904729,-0.04121816,0.044286564,-0.1268431,-0.37447482,-0.32836777,0.059921116,-3.078016,0.62534696,-0.00031990153,-0.04096001,-0.0035615077,0.0020551155,0.01094548,0.0057645864,-0.0056920233,0.4471708,-1.4676502,2.0059497,-2.1070397,-1.5709418,2.42245,-0.022010343,0.07612149,-0.09192404,0.01537581,-0.01253163,-0.01623025,-0.34476504,0.34476504,-9.32781,0.78217715,47.68062,-0.69381285,-1.8097677,-3.4299407,-0.29991925,-0.08042112,-0.12553191,25.3125,25.875,25.125,27.5625,28.1875,28.5
0.08605357,-1.1278056,-0.9524635,-0.8403202,-0.046898883,0.04057658,-0.12248094,-0.37457463,-0.3283772,0.05992672,-3.0780027,0.6253044,-0.00027027365,-0.043796647,-0.0045160362,0.003459226,0.010138128,0.008443909,-0.0056002107,0.44712272,-1.4674696,2.0057328,-2.1070154,-1.5709785,2.4223773,-0.022483911,0.07909308,-0.0986492,0.016364506,-0.012974247,-0.016790723,-0.24899697,0.30645782,-9.32781,0.8314132,47.70032,-0.6987345,-1.8696976,-3.0998633,-0.30227524,-0.0766872,-0.11783032,25.3125,25.875,25.125,27.5625,28.1875,28.5
0.088054135,-0.80243474,-0.5437278,-0.69570744,-0.051210504,0.049317326,-0.13476726,-0.37464982,-0.32836005,0.05990768,-3.0779283,0.6254619,-0.00029489305,-0.043962825,-0.003980493,0.0023000552,0.011989821,0.0067540514,-0.0053788275,0.44703847,-1.4673128,2.0056012,-2.107003,-1.5710024,2.422401,-0.022995897,0.08166782,-0.09881737,0.016283778,-0.013914816,-0.017521145,-0.2873042,0.30645782,-9.289502,0.7866488,47.64389,-0.69727576,-1.7783203,-3.3569705,-0.28602204,-0.046536155,-0.103957355,25.3125,25.875,25.125,27.5625,28.1875,28.5
0.090053685,-1.2472923,-0.5698998,-0.8125871,-0.038479842,0.04598862,-0.12217549,-0.374737,-0.32841045,0.059942007,-3.0779927,0.6252447,-0.00022255916,-0.045413904,-0.0042890524,0.0027316487,0.01201123,0.008353071,-0.0056166295,0.4470623,-1.4671565,2.005337,-2.1069438,-1.5710148,2.4222813,-0.023245102,0.0833808,-0.101626046,0.015949547,-0.014631314,-0.017529761,-0.28730422,0.19153613,-9.270349,0.80456203,47.68062,-0.6691636,-1.9567301,-3.1941223,-0.28982705,-0.043798935,-0.096425995,25.3125,25.875,25.125,27.5625,28.1875,28.5
0.09205352,-1.0826936,-0.7045008,-0.8494203,-0.025438068,0.058576226,-0.12499412,-0.37484118,-0.3283986,0.059941307,-3.0779188,0.62538314,-0.00019153621,-0.0468901,-0.004425698,0.0030993884,0.012286774,0.009520375,-0.0062575815,0.4469782,-1.4669762,2.005132,-2.1069076,-1.5710629,2.4222932,-0.023802299,0.08526704,-0.104591325,0.016095798,-0.015390278,-0.017442305,-0.2873042,0.21068975,-9.289502,0.8314132,47.686886,-0.7288661,-1.8553803,-3.2264733,-0.2559846,-0.028595857,-0.09594787,25.3125,25.875,25.125,27.5625,28.1875,28.5
0.094054304,-1.0471426,-0.266147,-0.8451131,-0.022066455,0.05714329,-0.12785041,-0.37494138,-0.32841918,0.059964042,-3.0779192,0.6255755,-0.00014286656,-0.0474009,-0.004410423,0.0026704567,0.012642014,0.007981245,-0.00644288,0.446918,-1.4668318,2.0049155,-2.1068838,-1.571051,2.422353,-0.02451705,0.08754193,-0.10635848,0.01712733,-0.015046084,-0.017972099,-0.22984336,0.17238252,-9.308656,0.7463667,47.693153,-0.6557565,-1.9149508,-3.1504436,-0.25025964,-0.046092927,-0.081656516,25.3125,25.875,25.125,27.5625,28.1875,28.5
0.09605391,-0.58091176,-0.3090454,-0.859958,-0.017862987,0.06123718,-0.12458368,-0.37501118,-0.32841435,0.059930023,-3.0778604,0.6254677,-0.00021514128,-0.048154317,-0.004506489,0.0027346986,0.012781447,0.007699366,-0.0064446228,0.44686982,-1.4666156,2.0047472,-2.106847,-1.5710868,2.4222453,-0.025006786,0.08909327,-0.10841934,0.017949697,-0.015054264,-0.018457612,-0.19153613,0.24899697,-9.308656,0.83589023,47.71465,-0.67313826,-1.86099,-3.2045248,-0.25565898,-0.042145222,-0.093041524,25.3125,25.875,25.125,27.5625,28.1875,28.5
0.09805397,-0.7217175,-0.25030917,-0.79408574,-0.035726797,0.043848556,-0.12819783,-0.37510723,-0.32843086,0.059944693,-3.0778444,0.6254248,-0.00014228716,-0.048579197,-0.0046764277,0.0018426499,0.013927674,0.0055267476,-0.006203201,0.44684595,-1.4664466,2.0045192,-2.1068103,-1.5711344,2.4221969,-0.025002822,0.092740774,-0.11063695,0.01897339,-0.0151511915,-0.018693639,-0.19153614,0.24899697,-9.32781,0.8090337,47.682407,-0.67773736,-2.025982,-3.2263365,-0.24502476,-0.024336565,-0.06743289,25.3125,25.875,25.125,27.5625,28.1875,28.5
0.10005354,-0.21114923,-0.40131846,-0.7621627,-0.05275355,0.0434923,-0.13043071,-0.37521872,-0.3284267,0.05995061,-3.0777981,0.62554973,-9.170605e-05,-0.049819473,-0.0050664796,0.0035430333,0.01209873,0.008815168,-0.006103599,0.44676164,-1.4662677,2.0043032,-2.1067865,-1.5711707,2.4221966,-0.025530258,0.09096888,-0.11259166,0.018940989,-0.014926937,-0.019320486,-0.34476504,0.24899697,-9.251195,0.7553206,47.699425,-0.675591,-1.7916708,-3.2679377,-0.2501636,-0.011181256,-0.058416836,25.3125,25.875,25.125,27.5625,28.1875,28.5
0.10205341,-0.7771849,-0.81005263,-0.9422388,-0.061456837,0.019298213,-0.12115458,-0.37533385,-0.32844362,0.059973717,-3.0777905,0.6255487,-1.4458895e-05,-0.05033534,-0.0050515975,0.001393302,0.014350461,0.005319932,-0.006657457,0.44671366,-1.4660857,2.004039,-2.1067388,-1.5712069,2.4221492,-0.025664706,0.097236216,-0.11453551,0.018743295,-0.01545132,-0.018898372,-0.1340753,0.34476504,-9.289502,0.7709874,47.66987,-0.6388139,-1.9748816,-3.275559,-0.20816895,-0.035970833,-0.05230497,25.3125,25.875,25.125,27.5625,28.1875,28.5
0.104054004,-0.6085809,-1.3449998,-0.78265196,-0.055495374,0.028929777,-0.11535453,-0.37543806,-0.32845744,0.05997828,-3.0777807,0.6255855,1.0766266e-05,-0.05088301,-0.00513953,0.0016088085,0.013773358,0.005389652,-0.008001269,0.44665328,-1.465894,2.003812,-2.106715,-1.5712188,2.4221132,-0.026314065,0.09775041,-0.11568749,0.019066507,-0.014962173,-0.018204441,-0.076614454,0.30645782,-9.289502,0.75084364,47.65912,-0.6320261,-1.8577058,-3.3219764,-0.19705647,0.010132112,-0.076034725,25.3125,25.875,25.125,27.5625,28.1875,28.5
0.10605347,-0.31851214,-0.88275313,-0.6766062,-0.05515369,0.037518263,-0.12143237,-0.37555146,-0.328484,0.06000538,-3.0777662,0.6255254,0.0001115907,-0.052082032,-0.0053046723,0.001419412,0.013444477,0.00475198,-0.009106494,0.446641,-1.4657013,2.003524,-2.106655,-1.5712789,2.4220655,-0.02746498,0.100474246,-0.11835679,0.019441677,-0.014394331,-0.01824991,-0.076614454,0.3256114,-9.308656,0.7486078,47.672558,-0.6274349,-1.8920119,-3.3342235,-0.19638705,-0.0119073605,-0.07510967,25.3125,25.875,25.125,27.5625,28.1875,28.5
0.10805416,-0.8076188,-0.5446322,-0.77494675,-0.034225114,0.016032854,-0.123037145,-0.37564304,-0.3285007,0.059993893,-3.0777676,0.62564164,3.4905228e-05,-0.05312817,-0.0057011535,0.0014318546,0.012467109,0.004151165,-0.010282349,0.44655663,-1.4654971,2.00332,-2.106631,-1.5712303,2.4220536,-0.028421279,0.10271697,-0.120993726,0.019951457,-0.013258237,-0.01803054,-0.11492168,0.30645782,-9.212888,0.7777002,47.686886,-0.5720399,-1.9890013,-3.3579607,-0.16462252,-0.026779067,-0.08739141,25.3125,25.875,25.125,27.5625,28.1875,28.5
0.110055,0.08457404,-0.1336261,-0.7404374,-0.030342551,0.027824339,-0.1316008,-0.37576228,-0.32851744,0.059992287,-3.0777357,0.6255956,0.00010548464,-0.052699722,-0.0055632144,0.00058958016,0.013457282,0.0021383076,-0.00924081,0.4465207,-1.465257,2.0030563,-2.1066186,-1.5712904,2.4219933,-0.028268628,0.104201846,-0.12086627,0.02058007,-0.013280734,-0.0189196,-0.095768064,0.30645782,-9.251195,0.77545905,47.71286,-0.6088022,-1.9126818,-3.4134283,-0.16345266,-0.020039527,-0.07470238,25.3125,25.875,25.125,27.5625,28.1875,28.5
0.11205374,0.1215817,0.3573261,-0.5594736,-0.039268576,0.026609024,-0.13179348,-0.37586316,-0.32852554,0.05998453,-3.0777,0.62560654,9.850634e-05,-0.054140873,-0.0063700066,0.0012039825,0.012716271,0.0030328196,-0.008915925,0.44646072,-1.4650407,2.0028274,-2.1065829,-1.5713142,2.4219449,-0.028233685,0.106392115,-0.12486511,0.021259403,-0.0130063705,-0.019207316,0.076614454,0.17238252,-9.270349,0.7978386,47.704796,-0.6061159,-1.9233879,-3.4229784,-0.14815184,-0.007482547,-0.06814349,25.3125,25.875,25.125,27.5625,28.1875,28.5
0.114053875,-0.33571377,-0.39277804,-0.70821226,-0.026271567,0.014291023,-0.12563066,-0.37596637,-0.32854092,0.05999692,-3.0776525,0.62563485,0.00016875444,-0.054089062,-0.0063151927,0.0010653851,0.013041172,0.0024845349,-0.008773177,0.4464368,-1.4648488,2.0025766,-2.1065347,-1.5713743,2.4219449,-0.028244141,0.10678393,-0.12510878,0.02174471,-0.013062066,-0.019360526,0.019153614,0.22984336,-9.270349,0.7620334,47.67793,-0.6497522,-1.8627025,-3.5215654,-0.14264162,-0.01619536,-0.06806608,25.3125,25.875,25.125,27.5625,28.1875,28.5
0.11605417,-0.24022481,-0.5998406,-0.67047435,-0.040544044,0.02066688,-0.12641348,-0.37608758,-0.32853284,0.059993785,-3.077603,0.62578017,9.615019e-05,-0.055184305,-0.005837204,0.00031027262,0.014307674,0.0011151343,-0.010506033,0.44630414,-1.46462,2.0023124,-2.1064508,-1.5713624,2.4219093,-0.02973471,0.11012509,-0.12720867,0.022286115,-0.0136179365,-0.01911491,-0.019153614,0.3256114,-9.270349,0.7665104,47.705692,-0.6353117,-1.9780108,-3.5183508,-0.12709081,-0.013892559,-0.060145885,25.3125,25.875,25.125,27.5625,28.1875,28.5
0.1180542,-0.2904159,-0.84588623,-0.5151343,-0.04004412,0.02005737,-0.11813394,-0.37620345,-0.3285739,0.060008243,-3.077623,0.62570566,0.00016496544,-0.056253094,-0.0066727633,0.0022118771,0.011957325,0.0036852492,-0.010169278,0.44629213,-1.464393,2.0020235,-2.1064265,-1.5713857,2.4218485,-0.029803544,0.108554,-0.13011916,0.023430262,-0.01261026,-0.019521937,0.0,0.2681506,-9.289502,0.8314132,47.703903,-0.5809859,-1.701767,-3.5718088,-0.117126286,-0.0288716,-0.0650925,25.3125,25.875,25.125,27.5625,28.1875,28.5
0.12005392,-0.4839413,-0.38701376,-0.6261265,-0.04482198,0.015752157,-0.12615314,-0.376319,-0.3285695,0.060002528,-3.077553,0.6257301,0.00018812258,-0.055688385,-0.0061085336,5.5583227e-05,0.014502641,-0.0014509918,-0.010307955,0.44622004,-1.4641637,2.0017726,-2.1063783,-1.5714458,2.4218009,-0.03028786,0.1129668,-0.13044257,0.025070563,-0.012687577,-0.019866707,-0.05746084,0.24899697,-9.346964,0.7933669,47.68062,-0.6503852,-1.8970447,-3.5494113,-0.11432906,-0.009945507,-0.07379438,25.3125,25.875,25.125,27.5625,28.1875,28.5
0.12205361,-0.487899,-0.42964795,-0.68700236,-0.02894543,0.021448808,-0.12292945,-0.37641454,-0.3285985,0.06001017,-3.0775404,0.62578523,0.000120811914,-0.05767757,-0.006955129,0.0015931904,0.012482485,0.0004060197,-0.010774524,0.4461717,-1.463948,2.0014951,-2.1062815,-1.5714215,2.4217887,-0.031167418,0.11395917,-0.13540965,0.026494175,-0.011675138,-0.020278713,-0.05746084,0.28730422,-9.270349,0.800085,47.661808,-0.55462617,-1.7271543,-3.4297833,-0.11564155,-0.04026886,-0.06526378,25.3125,25.875,25.125,27.5625,28.1875,28.5
0.124054104,-0.8351477,-0.4424677,-0.8166737,-0.014222556,0.019334335,-0.118252486,-0.37653834,-0.32860455,0.06000726,-3.077501,0.62573797,0.00017653387,-0.05839169,-0.007163286,0.0012315917,0.013184555,-0.0006161131,-0.010501079,0.44611177,-1.4637076,2.001231,-2.1062572,-1.5714816,2.4217045,-0.03127757,0.11675134,-0.13789733,0.027413137,-0.011871236,-0.020660311,-0.019153614,0.3256114,-9.289502,0.78217715,47.66808,-0.57540905,-1.7620218,-3.4726496,-0.111770734,-0.06404358,-0.06552408,25.3125,25.875,25.125,27.5625,28.1875,28.5
0.12605342,-0.48430055,0.2693474,-0.96710163,-0.021679103,0.037165135,-0.11568296,-0.37664786,-0.3286489,0.060029924,-3.0775244,0.6257815,0.0002096918,-0.059204385,-0.0078271255,0.0018607063,0.013139898,0.00022061428,-0.010512875,0.44608793,-1.4635036,2.000943,-2.106209,-1.5714697,2.421705,-0.030540949,0.117939904,-0.14091362,0.028468614,-0.012194969,-0.01991005,-0.05746084,0.2681506,-9.346964,0.81351066,47.664497,-0.63104725,-1.831023,-3.3618853,-0.11071774,-0.049269114,-0.07847344,25.3125,25.875,25.125,27.5625,28.1875,28.5
0.12805396,-1.0336999,-0.34676757,-1.0205799,-0.020269966,0.03775734,-0.121828586,-0.3767535,-0.32865503,0.060012337,-3.0774777,0.6258288,0.0001329048,-0.059966207,-0.008073123,0.0021431018,0.013244951,0.00018542785,-0.010779242,0.4460041,-1.4632515,2.0006912,-2.1061485,-1.5714697,2.4216568,-0.030695986,0.119318716,-0.14337577,0.029628428,-0.012278786,-0.019796528,-0.095768064,0.30645782,-9.404425,0.84708,47.67166,-0.71906924,-1.7251489,-3.3737657,-0.100388095,-0.045504563,-0.08534571,25.3125,25.875,25.125,27.5625,28.1875,28.5
0.1300536,-1.2410636,-0.32730287,-0.9877445,-0.05015253,0.044360347,-0.12335376,-0.3768805,-0.32864934,0.060003486,-3.0773873,0.62588775,0.00012967525,-0.060924266,-0.0077179666,0.0021884232,0.014331402,6.869392e-05,-0.01184152,0.44591975,-1.4629874,2.0004036,-2.106077,-1.5715302,2.421621,-0.031578664,0.120905675,-0.14551839,0.030759335,-0.013211958,-0.019613223,-0.19153613,0.36391866,-9.557653,0.7866488,47.675243,-0.71173346,-1.6708219,-3.4174364,-0.10330948,-0.06831495,-0.08827418,25.3125,25.875,25.125,27.5625,28.1875,28.5
0.13205327,-1.5079408,-1.2087824,-1.3320999,-0.05643995,0.04469559,-0.11895372,-0.37701628,-0.32866725,0.06004841,-3.0773892,0.62592626,0.00021161884,-0.061931435,-0.007528412,0.0018811892,0.014962571,-0.0009694325,-0.01230224,0.44584736,-1.4628068,2.0000794,-2.1059806,-1.5715545,2.4215727,-0.03273999,0.123513855,-0.14794882,0.031788718,-0.01333654,-0.020312691,-0.24899697,0.3256114,-9.634268,0.72622824,47.639416,-0.6065932,-1.6631911,-3.3788295,-0.11254235,-0.077039406,-0.08320913,25.3125,25.875,25.125,27.5625,28.1875,28.5
0.13405408,-1.3374522,-1.2609208,-1.1629218,-0.074413545,0.04636633,-0.11848923,-0.37714708,-0.3286873,0.060034882,-3.077343,0.62599325,0.0001761517,-0.06271781,-0.0075873365,0.002254184,0.015838271,-0.00014766815,-0.011414115,0.44577533,-1.4625069,1.9997681,-2.105932,-1.5715669,2.4215486,-0.0325483,0.12448224,-0.1500932,0.032603066,-0.014485449,-0.021005088,-0.3256114,0.34476504,-9.634268,0.8291774,47.679718,-0.70383376,-1.60236,-3.435543,-0.11251204,-0.039397225,-0.08728352,25.3125,25.875,25.125,27.5625,28.1875,28.5
0.1360534,-1.4896475,-1.0582188,-1.1719879,-0.08546665,0.050747357,-0.11466619,-0.37723532,-0.3287064,0.060024176,-3.0773103,0.62589043,9.524875e-05,-0.063243546,-0.007914085,0.00059040997,0.016823675,-0.0035945848,-0.011451947,0.44573927,-1.4622653,1.999504,-2.1058366,-1.5715784,2.4214528,-0.032801334,0.1300494,-0.1525587,0.033033263,-0.013894734,-0.02121839,-0.38307226,0.28730422,-9.691729,0.84708,47.693153,-0.6848686,-1.8976779,-3.43368,-0.11333887,-0.0639627,-0.09985489,25.3125,25.875,25.125,27.5625,28.1875,28.5
0.13805395,-1.0521019,-1.0174605,-1.1879722,-0.07376231,0.051370364,-0.12082344,-0.37736285,-0.32872698,0.060030375,-3.077248,0.6260309,8.901387e-05,-0.064883105,-0.00855053,0.0025185132,0.015606758,0.0002748702,-0.011410829,0.44567922,-1.4620024,1.9991802,-2.1057527,-1.5716027,2.4214885,-0.032681294,0.12905207,-0.1560036,0.033460267,-0.014472133,-0.021136204,-0.2873042,0.36391866,-9.653421,0.800085,47.651955,-0.6872963,-1.6098108,-3.4748497,-0.11902908,-0.06501487,-0.10590801,25.3125,25.875,25.125,27.5625,28.1875,28.5
0.14005354,-1.2652706,-1.0801907,-0.92941165,-0.056002073,0.049895905,-0.11817914,-0.37750676,-0.32873413,0.060039278,-3.0772097,0.6260617,0.00014634927,-0.06458651,-0.008417468,0.0009796927,0.016371142,-0.0022686224,-0.011753941,0.44559523,-1.4617498,1.9988698,-2.105705,-1.5716504,2.421429,-0.032918822,0.13183291,-0.15541069,0.03270757,-0.0140663665,-0.021031424,-0.2681506,0.34476504,-9.615114,0.8224646,47.664497,-0.70120144,-1.8013299,-3.4730506,-0.11255321,-0.07534698,-0.12342989,25.3125,25.875,25.125,27.5625,28.1875,28.5
0.14205436,-1.4322734,-0.75528544,-0.88401484,-0.04637352,0.03597677,-0.10992805,-0.3776739,-0.32876727,0.060072258,-3.0772521,0.6260119,0.00027359664,-0.066222094,-0.0090430975,0.0010073748,0.016539877,-0.0013431126,-0.011403049,0.44552323,-1.4614974,1.9985098,-2.1056812,-1.5716747,2.4213207,-0.03282575,0.13524301,-0.15918435,0.032308903,-0.014625474,-0.021286452,-0.34476504,0.34476504,-9.5385,0.779936,47.66271,-0.7079929,-1.7089677,-3.416487,-0.08467315,-0.067461684,-0.11810831,25.3125,25.875,25.125,27.5625,28.1875,28.5
0.14405341,-1.0639935,-0.6286701,-1.0181134,-0.029625008,0.041859765,-0.12088993,-0.3778052,-0.32878968,0.06007934,-3.0772123,0.6260803,0.00028130572,-0.06719312,-0.009284305,0.0011784068,0.015794432,-0.0012035312,-0.01177755,0.44546306,-1.4612331,1.998185,-2.1056092,-1.5716985,2.4213085,-0.0336395,0.13667642,-0.16123301,0.03247293,-0.0140179545,-0.021725534,-0.22984336,0.30645782,-9.519346,0.7709874,47.6636,-0.73756814,-1.674012,-3.5151572,-0.08094267,-0.06860043,-0.13027242,25.3125,25.875,25.125,27.5625,28.1875,28.5
0.14605352,-0.72750556,0.21348348,-0.83993125,-0.0457041,0.03481452,-0.12514074,-0.37794825,-0.32879403,0.060062185,-3.0771503,0.6261627,0.00028211292,-0.0684819,-0.0095451,0.0012932728,0.01652511,-0.0008736309,-0.011616524,0.44536698,-1.4609327,1.9978865,-2.1055849,-1.5717348,2.421272,-0.033746637,0.13932148,-0.16463754,0.033249952,-0.0148264915,-0.021989478,-0.22984336,0.2681506,-9.423578,0.9186956,47.695843,-0.76822895,-1.7492486,-3.45572,-0.067721516,-0.0868832,-0.14111426,25.3125,25.875,25.125,27.5625,28.1875,28.5
0.14805405,-0.89327943,-0.15095957,-0.76527226,-0.040581156,0.027772808,-0.11713301,-0.37804198,-0.32884127,0.06005691,-3.0771558,0.62608665,0.00019794368,-0.0684149,-0.009403854,-0.00072685606,0.018185148,-0.005041103,-0.011886061,0.44535488,-1.4606676,1.9975861,-2.105501,-1.571711,2.421212,-0.034142733,0.14422642,-0.16559087,0.033773564,-0.01453147,-0.022114852,-0.2681506,0.3256114,-9.404425,0.8023209,47.67345,-0.7882024,-1.774854,-3.441165,-0.054764695,-0.10766849,-0.15294617,25.3125,25.875,25.125,27.5625,28.1875,28.5
0.15005393,-0.7090869,-0.5728317,-0.78559476,-0.034908384,0.03428287,-0.119966164,-0.378221,-0.32887363,0.060102835,-3.0771372,0.6261206,0.000330566,-0.06917486,-0.009768552,6.7585104e-05,0.019196698,-0.0035434496,-0.010483454,0.4452952,-1.460392,1.9971541,-2.105405,-1.5717715,2.4211762,-0.03307715,0.14481418,-0.16839312,0.0350752,-0.016092109,-0.022448119,-0.24899697,0.24899697,-9.3661175,0.84484416,47.691364,-0.8806573,-1.6141143,-3.4094324,-0.0442991,-0.076835506,-0.15404302,25.3125,25.875,25.125,27.5625,28.1875,28.5
0.15205371,-0.7204978,-0.5502889,-0.653637,-0.0428661,0.03547316,-0.118414514,-0.37836024,-0.32887828,0.06009671,-3.0770662,0.62616354,0.00032614433,-0.06980411,-0.00945984,-0.0016795369,0.021191245,-0.007350344,-0.01131301,0.44521093,-1.4601024,1.9968313,-2.1053326,-1.5718192,2.421128,-0.0340901,0.15030313,-0.17077607,0.03626192,-0.016257161,-0.02262868,-0.05746084,0.24899697,-9.289502,0.8314132,47.699425,-0.88828397,-1.971372,-3.4895124,-0.06332673,-0.08516914,-0.16289183,25.3125,25.875,25.125,27.5625,28.1875,28.5
0.15405448,-0.7573694,-0.2747169,-0.54024607,-0.0544988,0.03551762,-0.123334765,-0.37849647,-0.328905,0.060086403,-3.0770411,0.6261782,0.00027959637,-0.07075491,-0.009435896,-0.0019257128,0.021555504,-0.008458972,-0.01194913,0.44513848,-1.4597903,1.9964956,-2.1052725,-1.5718192,2.4210682,-0.035065327,0.15288475,-0.173385,0.037444558,-0.016113678,-0.022966003,-0.1340753,0.30645782,-9.232041,0.8247004,47.686886,-0.7989936,-1.8606226,-3.4818487,-0.05764917,-0.09531313,-0.16876851,25.3125,25.875,25.125,27.5625,28.1875,28.5
0.1560538,-1.0036085,-0.58632,-0.31061047,-0.041970573,0.023406671,-0.11059456,-0.37865743,-0.32890734,0.060103256,-3.076981,0.6263184,0.0003388001,-0.07145397,-0.010171791,-0.0012213337,0.02113987,-0.007998711,-0.01092334,0.4450309,-1.4595264,1.9961485,-2.1052005,-1.5718673,2.421056,-0.034410965,0.15389127,-0.17649418,0.038948964,-0.015941706,-0.023336526,-0.21068975,0.2681506,-9.270349,0.86945957,47.698532,-0.91907275,-1.8229853,-3.3878117,-0.058904074,-0.11301749,-0.17946884,25.3125,25.875,25.125,27.5625,28.1875,28.5
0.15805349,-0.6618359,-0.28471637,-0.11765878,-0.039324608,0.022818692,-0.11653798,-0.3788107,-0.32892734,0.06010969,-3.076931,0.6263263,0.00039532763,-0.071822986,-0.010729327,-0.00081068906,0.02123336,-0.0077984254,-0.009577555,0.44497108,-1.4592267,1.995788,-2.10514,-1.5719274,2.4210079,-0.033568043,0.15477239,-0.17873025,0.040160976,-0.016115667,-0.023837997,-0.22984336,0.38307226,-9.11712,0.84708,47.701214,-1.0125227,-1.7539282,-3.3867674,-0.06432236,-0.11558436,-0.18555568,25.3125,25.875,25.125,27.5625,28.1875,28.5
0.16005424,-0.3913313,-0.18664202,-0.15199405,-0.024071638,0.018855946,-0.12038544,-0.37895602,-0.32894543,0.060099874,-3.0768595,0.6263501,0.00035209308,-0.07278988,-0.01033729,-0.00072524016,0.022587538,-0.008391511,-0.010211854,0.44489887,-1.4588907,1.995416,-2.1050427,-1.5719637,2.42096,-0.034494326,0.15658692,-0.1814441,0.042179544,-0.017086858,-0.024125576,-0.05746084,0.30645782,-9.040505,0.8247004,47.728977,-1.0505896,-1.6958269,-3.3891444,-0.08193698,-0.112339064,-0.18455188,25.3125,25.875,25.125,27.5625,28.1875,28.5
0.16205353,-0.49282157,0.02628472,-0.20312533,-0.017119478,0.00042144785,-0.11942607,-0.3790961,-0.3289784,0.060096644,-3.0768268,0.6263047,0.00032696172,-0.073294386,-0.010605415,-0.00047302598,0.022843573,-0.009709588,-0.010235768,0.44485074,-1.4585665,1.9950451,-2.1049583,-1.5719875,2.420888,-0.034654588,0.1582195,-0.18449916,0.04489923,-0.01675296,-0.024260871,-0.076614454,0.30645782,-9.002198,0.83589023,47.684196,-0.9836161,-1.6637802,-3.46613,-0.10687933,-0.10628417,-0.20030506,25.3125,25.875,25.125,27.5625,28.1875,28.5
0.16405322,-0.24913673,-0.18297252,-0.1418399,-0.019774966,-0.00033354148,-0.118793085,-0.37926158,-0.3290084,0.060114004,-3.0767915,0.62643117,0.00033803086,-0.07347344,-0.010667668,-0.0016682316,0.024039296,-0.011529574,-0.009574172,0.44476682,-1.4582542,1.9946374,-2.104863,-1.5719999,2.4208877,-0.034476392,0.1615207,-0.18541534,0.044670302,-0.017053777,-0.024742557,0.0,0.30645782,-9.002198,0.7933669,47.674347,-1.0333884,-1.5970733,-3.4500682,-0.11813758,-0.12181921,-0.22454989,25.3125,25.875,25.125,27.5625,28.1875,28.5
0.16605417,0.0022564062,-0.2648519,0.035600465,-0.03483883,0.008540385,-0.11785537,-0.37939894,-0.32902473,0.060106754,-3.0767262,0.6264177,0.00032193013,-0.07522544,-0.010684239,0.0007363892,0.021923581,-0.008240123,-0.01045195,0.44470626,-1.4579437,1.9942902,-2.104778,-1.5720476,2.4208274,-0.036318146,0.1590243,-0.18861532,0.046481606,-0.016564956,-0.025706006,-0.076614454,0.30645782,-8.944737,0.76874626,47.684196,-1.046826,-1.5843463,-3.4384642,-0.12314893,-0.15004835,-0.22457534,25.3125,25.875,25.125,27.5625,28.1875,28.5
0.16805387,-0.28971156,-0.2661862,-0.26769623,-0.030254804,0.0041351416,-0.121037625,-0.37955403,-0.32905388,0.060100384,-3.0767047,0.62645066,0.00029110402,-0.0758339,-0.0106813125,0.00061003596,0.023023957,-0.0095789945,-0.009396794,0.4446221,-1.4576075,1.9939183,-2.104718,-1.5720481,2.4207668,-0.03656317,0.16130376,-0.19140337,0.04867038,-0.016986687,-0.027003506,-0.019153614,0.28730422,-8.963891,0.800085,47.687782,-1.0702144,-1.5840828,-3.350625,-0.14919645,-0.13590139,-0.22099356,25.3125,25.875,25.125,27.5625,28.1875,28.5
0.17005347,0.10385964,0.20545532,-0.26624364,-0.027294835,0.009357297,-0.12322187,-0.37971407,-0.329071,0.06011602,-3.076622,0.62647164,0.00028348438,-0.07612197,-0.011337965,0.00068792416,0.023909807,-0.011650163,-0.008408159,0.44455042,-1.457283,1.9934868,-2.1045606,-1.5721072,2.4207191,-0.03563818,0.16398811,-0.19542441,0.052254695,-0.016898891,-0.027064843,0.05746084,0.17238252,-9.040505,0.88289046,47.68062,-1.0993439,-1.5046096,-3.3277445,-0.19308695,-0.14498958,-0.23022392,25.3125,25.875,25.125,27.5625,28.1875,28.5
0.1720533,-0.22847186,0.44054997,-0.31602824,-0.027005337,0.0060550845,-0.123113506,-0.3798675,-0.3290777,0.060090013,-3.0765266,0.6264519,0.0002352372,-0.076599434,-0.010937762,0.00031038435,0.024265379,-0.0128327785,-0.010131412,0.444466,-1.4569113,1.9931148,-2.1044772,-1.5721673,2.420635,-0.03690984,0.1653797,-0.19632736,0.052983727,-0.01671525,-0.026611881,-0.019153614,0.11492168,-9.11712,0.83365434,47.694054,-1.0936234,-1.4834259,-3.4280133,-0.2322909,-0.16273704,-0.24588266,25.3125,25.875,25.125,27.5625,28.1875,28.5
0.17405428,-0.7398558,0.08841361,-0.64994764,-0.014549786,0.0021551417,-0.10754875,-0.37999085,-0.32910872,0.060088567,-3.076451,0.62643677,0.00013672473,-0.0779413,-0.010851683,-0.00074042194,0.025006993,-0.013305291,-0.011558344,0.4444297,-1.4565868,1.99272,-2.1043103,-1.5721916,2.4205992,-0.03793529,0.16948482,-0.19818497,0.05148284,-0.017191993,-0.026205529,-0.076614454,0.15322891,-9.097966,0.7530795,47.655537,-1.0730674,-1.4404688,-3.4519792,-0.24351653,-0.16933933,-0.26861045,25.3125,25.875,25.125,27.5625,28.1875,28.5
0.17605332,-0.2503797,0.15949056,-0.802219,-0.026453273,0.027800312,-0.13001278,-0.38017485,-0.32913876,0.06012282,-3.076443,0.62647283,0.00022786339,-0.07801756,-0.010680148,-0.00030154124,0.02567778,-0.014132846,-0.010947432,0.44434556,-1.4562871,1.9922894,-2.1042254,-1.5722278,2.420539,-0.038130004,0.16943176,-0.19979148,0.05417515,-0.017440801,-0.027011206,-0.038307227,0.17238252,-9.385271,0.8560339,47.672558,-1.0743518,-1.3667634,-3.477273,-0.27914894,-0.18455094,-0.2752179,25.3125,25.875,25.125,27.5625,28.1875,28.5
0.17805417,-0.97968745,-0.98860973,-0.9018001,-0.033506192,0.035529926,-0.11523845,-0.38031322,-0.32914907,0.060086627,-3.0763443,0.6265095,7.0539536e-05,-0.07900399,-0.010337012,-0.0010935005,0.02725907,-0.016297074,-0.010849019,0.44424918,-1.4559025,1.9919175,-2.1041043,-1.5722398,2.4204783,-0.039286,0.17330515,-0.20272537,0.055867158,-0.017948346,-0.028260194,-0.095768064,0.15322891,-9.461885,0.900793,47.639416,-1.2238035,-1.5394688,-3.4833734,-0.30542356,-0.18151575,-0.2732368,25.3125,25.875,25.125,27.5625,28.1875,28.5
0.18005377,-1.1590779,-0.7540659,-1.0686344,-0.054622553,0.04644147,-0.12465141,-0.38046223,-0.32916853,0.060078133,-3.0762622,0.6265515,1.3336623e-05,-0.08009347,-0.009732859,-0.0026224186,0.028365351,-0.019133253,-0.01354862,0.44417658,-1.4555534,1.9915222,-2.1039855,-1.572276,2.4204428,-0.04150193,0.17803273,-0.20456631,0.05601468,-0.017735487,-0.027774168,-0.15322891,0.19153613,-9.500193,0.8717007,47.660015,-1.082068,-1.5714504,-3.5089889,-0.3519138,-0.18650243,-0.287054,25.3125,25.875,25.125,27.5625,28.1875,28.5
0.18205363,-0.9610341,-0.601132,-0.9773335,-0.068321384,0.060634255,-0.12925385,-0.38060248,-0.32919502,0.060065854,-3.0761936,0.6266139,-0.0001345429,-0.080654174,-0.01001094,-0.003886046,0.0286502,-0.020769086,-0.013595121,0.4440924,-1.4551928,1.991114,-2.10383,-1.5722636,2.4204066,-0.04175308,0.18192717,-0.20582402,0.054974444,-0.017300747,-0.027976666,-0.22984336,0.22984336,-9.634268,0.8314132,47.64389,-1.109984,-1.8126285,-3.5246835,-0.3634963,-0.19681329,-0.29663262,25.3125,25.875,25.125,27.5625,28.1875,28.5
0.18405335,-1.4045668,-0.98252696,-0.9808719,-0.061979268,0.06679465,-0.119425125,-0.38077557,-0.32920226,0.060061354,-3.0761204,0.6266755,-0.00013394264,-0.08287853,-0.0100769345,-0.003384015,0.028664112,-0.017674945,-0.013320678,0.44398412,-1.4548448,1.9907187,-2.1037471,-1.5723122,2.4203465,-0.04267331,0.1838454,-0.20876293,0.053206567,-0.018658789,-0.029164439,-0.30645782,0.2681506,-9.557653,0.84484416,47.64927,-1.0752995,-1.861316,-3.3847914,-0.3666205,-0.2117506,-0.304394,25.3125,25.875,25.125,27.5625,28.1875,28.5
0.18605366,-1.9716192,-0.9984305,-1.1644896,-0.049052782,0.0584634,-0.11121696,-0.38093185,-0.3292168,0.060061075,-3.0760462,0.62658346,-0.00016887157,-0.08479971,-0.010863002,-0.0029708126,0.02753374,-0.015041827,-0.014254264,0.443912,-1.4544967,1.9902996,-2.1036036,-1.5723723,2.4202268,-0.042815972,0.18614614,-0.21185696,0.051135328,-0.018783143,-0.02836925,-0.2681506,0.2681506,-9.634268,0.8784135,47.67345,-1.1197426,-1.7541131,-3.4675553,-0.3601175,-0.23920968,-0.3360786,25.3125,25.875,25.125,27.5625,28.1875,28.5
0.18805349,-2.0063283,-1.0697325,-1.2344639,-0.04465032,0.072632395,-0.11278697,-0.38108832,-0.32925522,0.06005712,-3.0759878,0.62664855,-0.00023187912,-0.086178266,-0.011319793,-0.0023871637,0.025727956,-0.012094723,-0.016171228,0.44385192,-1.4541253,1.9898685,-2.1034853,-1.5723842,2.4202151,-0.043406993,0.1863493,-0.21289442,0.048532378,-0.018427176,-0.02704212,-0.45968673,0.38307226,-9.768343,0.8179876,47.65912,-1.0993458,-1.7539487,-3.5967698,-0.35640746,-0.23479047,-0.3556111,25.3125,25.875,25.125,27.5625,28.1875,28.5
0.19005412,-2.1134312,-1.1272647,-1.2013301,-0.05377216,0.0789297,-0.11976666,-0.3812555,-0.32926846,0.060033202,-3.075913,0.626671,-0.00031543477,-0.08820103,-0.011638946,-0.0017712509,0.024858683,-0.008804382,-0.016725529,0.4437436,-1.4537296,1.9894613,-2.10339,-1.5724081,2.4201307,-0.044151697,0.18767464,-0.21534532,0.046312455,-0.019070016,-0.027226934,-0.5554548,0.34476504,-9.653421,0.83589023,47.66271,-1.1651953,-1.6947159,-3.664538,-0.3196066,-0.23864493,-0.3845359,25.3125,25.875,25.125,27.5625,28.1875,28.5
0.19205375,-2.3148825,-1.4368391,-1.1011121,-0.06850835,0.081265405,-0.11652582,-0.3814324,-0.3293014,0.060028598,-3.0758536,0.62663877,-0.00026420903,-0.08947606,-0.011629035,-0.0021535698,0.024494182,-0.008010443,-0.016398253,0.44369537,-1.4533453,1.9890307,-2.1033309,-1.5724801,2.4200704,-0.045264825,0.18984582,-0.21653138,0.04444825,-0.019092107,-0.028665675,-0.51714754,0.3256114,-9.634268,0.93436235,47.655537,-1.1410468,-1.8239003,-3.7335105,-0.32159978,-0.25444543,-0.38839996,25.3125,25.875,25.125,27.5625,28.1875,28.5
0.19405353,-2.4038398,-1.3885752,-1.119253,-0.08098657,0.071394295,-0.11563703,-0.38164163,-0.3293196,0.060051523,-3.0758126,0.62676364,-0.00017306228,-0.09110361,-0.012418536,-0.0020427124,0.024022665,-0.006248024,-0.0153084565,0.44357532,-1.4529972,1.9885744,-2.1032598,-1.5725282,2.420034,-0.04497949,0.19271336,-0.21970156,0.042952698,-0.019435192,-0.029467281,-0.61291564,0.3256114,-9.691729,0.8806493,47.672558,-1.1077408,-1.6895626,-3.6920705,-0.29703662,-0.27586395,-0.39113706,25.3125,25.875,25.125,27.5625,28.1875,28.5
0.19605362,-2.1274188,-1.9172343,-1.0987775,-0.06576295,0.076311335,-0.11518218,-0.38180453,-0.3293586,0.060038604,-3.0757594,0.626772,-0.00027897654,-0.09315535,-0.012627129,-0.0015148028,0.023344597,-0.002807271,-0.015452417,0.44350317,-1.4525893,1.98812,-2.1031291,-1.5725287,2.419974,-0.045799322,0.19404897,-0.22189555,0.04041272,-0.020314498,-0.03013677,-0.6703765,0.28730422,-9.5385,0.91198283,47.703903,-1.233191,-1.6483996,-3.718279,-0.2727096,-0.2676506,-0.40757263,25.3125,25.875,25.125,27.5625,28.1875,28.5
0.19805402,-1.440353,-0.8353403,-1.0859222,-0.058618557,0.07217609,-0.117929295,-0.3820145,-0.3293791,0.060046155,-3.0757163,0.6268203,-0.00019288363,-0.09528186,-0.013080471,-3.880806e-05,0.021754649,0.0012228976,-0.015291455,0.4433948,-1.4522063,1.987665,-2.1030815,-1.5725888,2.4199018,-0.046603315,0.19398755,-0.2250195,0.03927073,-0.02061885,-0.031099366,-0.5554548,0.2681506,-9.5385,0.8291774,47.639416,-1.082434,-1.5716099,-3.6791115,-0.2117599,-0.2701096,-0.4155184,25.3125,25.875,25.125,27.5625,28.1875,28.5
0.20005383,-1.5682876,-0.22949709,-1.1645125,-0.046037327,0.049444076,-0.11540518,-0.38220453,-0.32939008,0.060045898,-3.075649,0.6268445,-0.00016574045,-0.09770016,-0.013838466,0.0013354407,0.019820534,0.004473649,-0.015409334,0.44328654,-1.4518344,1.9872321,-2.1029975,-1.5726489,2.4198177,-0.047531407,0.1952241,-0.229494,0.03873559,-0.020279752,-0.031907503,-0.40222588,0.28730422,-9.576807,0.84708,47.642998,-1.1088268,-1.5639846,-3.5742497,-0.20194888,-0.2908569,-0.42228457,25.3125,25.875,25.125,27.5625,28.1875,28.5
0.20205355,-1.375472,0.023352481,-0.9582819,-0.035621904,0.0415771,-0.11773349,-0.38239956,-0.32944235,0.060039867,-3.0756512,0.62696,-0.0001479887,-0.10039047,-0.014362908,0.0021289883,0.01856394,0.0075739515,-0.015686687,0.4432021,-1.4514263,1.9867882,-2.102986,-1.5726365,2.4198053,-0.048769698,0.1976968,-0.23380505,0.03723179,-0.020487994,-0.03286525,-0.36391866,0.2681506,-9.519346,0.86945957,47.63852,-1.1226091,-1.469188,-3.4861665,-0.15060104,-0.30552262,-0.4212247,25.3125,25.875,25.125,27.5625,28.1875,28.5
0.20405404,-1.1139375,0.353536,-0.93103975,-0.023780305,0.040733993,-0.116931915,-0.3826324,-0.32946494,0.060071092,-3.0756376,0.62701434,-2.9036437e-05,-0.10113545,-0.0142291915,0.0018342013,0.019423509,0.0070912526,-0.015160748,0.44307,-1.4510543,1.9862856,-2.1029146,-1.5726851,2.4197092,-0.049250554,0.19975601,-0.23562099,0.03778884,-0.021060117,-0.033870436,-0.34476504,0.17238252,-9.519346,0.8627467,47.650166,-1.0694453,-1.4882935,-3.4210634,-0.101006195,-0.32654172,-0.42096645,25.3125,25.875,25.125,27.5625,28.1875,28.5
0.20605372,-0.73723865,0.29006407,-1.1289501,-0.018485576,0.047548052,-0.12338878,-0.38281432,-0.32949132,0.06005433,-3.0755448,0.6270135,-6.453597e-05,-0.10228082,-0.014120794,0.002071169,0.01998768,0.006390635,-0.014780679,0.4429976,-1.4506224,1.9858173,-2.1028054,-1.5727452,2.4196486,-0.050290305,0.20180535,-0.23904143,0.04002893,-0.021276772,-0.03528656,-0.30645782,0.095768064,-9.615114,0.8985519,47.690468,-1.0201563,-1.4871076,-3.427534,-0.104731716,-0.32968533,-0.42514467,25.3125,25.875,25.125,27.5625,28.1875,28.5
0.20805334,-0.7560518,0.41435155,-1.0480697,-0.031605683,0.04395147,-0.11866373,-0.38303754,-0.32953733,0.060073897,-3.0755465,0.6270506,1.4795822e-05,-0.102559924,-0.013789293,0.0009719374,0.021506507,0.0030024208,-0.013497861,0.44290134,-1.4502139,1.9853028,-2.1027453,-1.5727695,2.4195757,-0.051164147,0.20538402,-0.24109064,0.04220378,-0.02119867,-0.03744346,-0.19153613,0.17238252,-9.557653,0.83365434,47.672558,-1.0303199,-1.5637136,-3.450294,-0.09647234,-0.3364727,-0.40820765,25.3125,25.875,25.125,27.5625,28.1875,28.5
0.21005417,-1.1809902,0.08572499,-1.0294702,-0.03592881,0.034087606,-0.120565794,-0.38323665,-0.3295309,0.060058665,-3.07543,0.62710196,1.4668208e-05,-0.10355705,-0.013466032,-0.00033312937,0.02406267,-0.0008136783,-0.013168294,0.44276902,-1.4498048,1.9848589,-2.102648,-1.5728534,2.4194908,-0.052150164,0.21113162,-0.24527308,0.045175496,-0.021881009,-0.03875323,-0.21068975,0.21068975,-9.519346,0.8873621,47.67166,-0.96340346,-1.694799,-3.324199,-0.094270706,-0.3476439,-0.3939127,25.3125,25.875,25.125,27.5625,28.1875,28.5
0.21205479,-1.2573107,-0.7405759,-1.1913776,-0.028136099,0.032468047,-0.109890945,-0.38342604,-0.3295715,0.06004585,-3.075378,0.6271294,-5.034311e-05,-0.10362371,-0.01274484,-0.0016454064,0.02615188,-0.0028396242,-0.012198064,0.4426848,-1.4493606,1.9843677,-2.1025407,-1.5728658,2.4194307,-0.05282674,0.2136672,-0.24521698,0.045307077,-0.022906827,-0.040395238,-0.19153613,0.2681506,-9.519346,0.86945957,47.67166,-1.015409,-1.7505634,-3.44876,-0.077121094,-0.37373358,-0.39777339,25.3125,25.875,25.125,27.5625,28.1875,28.5
0.2140535,-1.4519233,-0.7641174,-0.8868932,-0.05087369,0.036994822,-0.11249883,-0.3836421,-0.32959017,0.060076185,-3.0753324,0.627099,3.063209e-05,-0.10535041,-0.012943872,-2.1791122e-05,0.025176909,0.0007467303,-0.010513209,0.44257662,-1.4489895,1.9838537,-2.1024086,-1.5729383,2.4193099,-0.05349632,0.21280602,-0.24805294,0.045337327,-0.023572965,-0.042746503,-0.15322891,0.22984336,-9.5385,0.8784135,47.693153,-0.9677056,-1.6854961,-3.5099235,-0.055156797,-0.3656246,-0.36958072,25.3125,25.875,25.125,27.5625,28.1875,28.5
0.21605349,-1.0129602,-0.688939,-0.8421655,-0.06143554,0.037223097,-0.120712705,-0.38386467,-0.32962748,0.060068313,-3.0752933,0.62724334,3.7841965e-05,-0.10421638,-0.0124162575,-0.0013079114,0.027052563,-0.0037965425,-0.009234491,0.44245657,-1.4485338,1.9833511,-2.10236,-1.5729498,2.4192853,-0.05359498,0.21454494,-0.2478064,0.048253283,-0.023319349,-0.044125453,-0.095768064,0.2681506,-9.481039,0.91198283,47.66271,-1.0189352,-1.5924395,-3.6403508,-0.062218674,-0.3587861,-0.34412694,25.3125,25.875,25.125,27.5625,28.1875,28.5
0.21805346,-0.9438502,-1.1077691,-0.92533374,-0.04684542,0.02295329,-0.11299904,-0.3840773,-0.3296439,0.060074136,-3.075252,0.62712044,8.864429e-05,-0.105687074,-0.011014264,-0.0016700976,0.028198216,-0.0050435914,-0.011409526,0.44234732,-1.448126,1.98286,-2.1022637,-1.5730222,2.419105,-0.05710351,0.21651591,-0.24958391,0.04967015,-0.023826117,-0.045456234,-0.1340753,0.28730422,-9.442732,0.91198283,47.684196,-0.87441695,-1.5850083,-3.6844525,-0.045108058,-0.36462754,-0.32419288,25.3125,25.875,25.125,27.5625,28.1875,28.5
0.22005409,-0.7454205,-0.43286297,-0.66728073,-0.06670949,0.027655251,-0.1171224,-0.38430163,-0.3296842,0.060099445,-3.0752218,0.62724704,0.00013892703,-0.1068025,-0.011959669,-0.0006846456,0.02796835,-0.0032075664,-0.008404163,0.44223973,-1.4477184,1.9823216,-2.102156,-1.5730461,2.4190807,-0.055904157,0.21763988,-0.25338906,0.050587643,-0.024414124,-0.047259018,-0.17238252,0.28730422,-9.232041,0.900793,47.696735,-0.84136695,-1.5842911,-3.6695445,-0.027216308,-0.37547028,-0.3039729,25.3125,25.875,25.125,27.5625,28.1875,28.5
0.22205392,-0.6954212,-0.54179406,-0.6311056,-0.053927276,0.019241873,-0.11646938,-0.3844969,-0.3296823,0.060077887,-3.0751011,0.6271819,8.146205e-05,-0.10773817,-0.012369406,-0.0004913394,0.02811511,-0.0032020195,-0.0074091535,0.4421197,-1.4472742,1.9818414,-2.102012,-1.57313,2.418936,-0.055831235,0.21966587,-0.25643134,0.05165308,-0.02456187,-0.048176453,-0.17238252,0.40222588,-9.232041,0.88960326,47.70032,-0.9844688,-1.5555546,-3.6536722,-0.026566079,-0.38975102,-0.2712649,25.3125,25.875,25.125,27.5625,28.1875,28.5
0.22405367,-0.4425651,-0.39038622,-0.67130464,-0.04090653,0.019646818,-0.11801791,-0.38473156,-0.32972887,0.060078565,-3.0750854,0.6272553,0.000172649,-0.10915466,-0.012076625,-0.00037972085,0.028682629,-0.00362785,-0.007984716,0.44202328,-1.4468181,1.9813265,-2.101999,-1.5731667,2.4188879,-0.057351485,0.22195499,-0.25971153,0.053266544,-0.024897004,-0.049119595,-0.11492168,0.34476504,-9.308657,0.8717007,47.67793,-0.89270496,-1.575963,-3.5713153,-0.033839464,-0.4048723,-0.23261568,25.3125,25.875,25.125,27.5625,28.1875,28.5
0.22605355,-0.2993638,-0.49008033,-0.4192372,-0.04889455,0.029450571,-0.12614457,-0.38498786,-0.32973605,0.060107715,-3.0750196,0.6273183,0.0002806904,-0.11092976,-0.011136307,-0.00018761453,0.029827863,-0.0037513252,-0.009860687,0.44186658,-1.4463983,1.9807624,-2.101879,-1.5732507,2.4187794,-0.05993476,0.22392733,-0.26284334,0.055021144,-0.025884693,-0.049822856,-0.17238252,0.2681506,-9.251195,0.8537928,47.67166,-0.7714684,-1.5928104,-3.5229063,-0.017233638,-0.39304137,-0.21240848,25.3125,25.875,25.125,27.5625,28.1875,28.5
0.22805347,-0.649767,-0.4831276,-0.42172655,-0.046875633,0.030190472,-0.1179364,-0.385157,-0.3297627,0.06006857,-3.0749478,0.6272832,8.651976e-05,-0.11160433,-0.012039369,0.00075578777,0.03081429,-0.0025814697,-0.0077523924,0.4417592,-1.445931,1.9802955,-2.1017344,-1.5732392,2.4186597,-0.05789074,0.22508617,-0.26691735,0.057303324,-0.027289225,-0.04987692,-0.17238252,0.2681506,-9.174581,0.8537928,47.666286,-0.83216965,-1.5740448,-3.384673,-0.026898386,-0.39156148,-0.18505903,25.3125,25.875,25.125,27.5625,28.1875,28.5
0.23005415,-0.9105342,-0.1382231,-0.48442262,-0.027272074,0.021740118,-0.11732761,-0.38538706,-0.32978347,0.06007647,-3.0748715,0.6272872,0.00014831385,-0.11341372,-0.012202985,0.002424597,0.030465912,-0.001482385,-0.009616012,0.4416508,-1.445487,1.9797553,-2.1016252,-1.5733231,2.418564,-0.059025273,0.22563821,-0.2722831,0.060970075,-0.02744808,-0.04914501,-0.24899697,0.3256114,-9.136273,0.84484416,47.67166,-0.8580007,-1.6686379,-3.2841744,-0.0415031,-0.40385252,-0.15303898,25.3125,25.875,25.125,27.5625,28.1875,28.5
0.232054,-0.95162964,0.2428438,-0.3369855,-0.022572385,0.028427996,-0.12214619,-0.3856246,-0.32982278,0.060109597,-3.0748522,0.6272458,0.00024553045,-0.113155484,-0.011241918,0.0015120601,0.032691322,-0.005628724,-0.011647366,0.44155434,-1.4450674,1.9791816,-2.1015046,-1.5733832,2.4184446,-0.060370672,0.22774526,-0.27350852,0.064785406,-0.027680492,-0.048459288,-0.30645782,0.3256114,-9.136273,0.9097417,47.687782,-0.7740177,-1.582006,-3.264974,-0.06700495,-0.40091574,-0.15644343,25.3125,25.875,25.125,27.5625,28.1875,28.5
0.2340541,-0.85791504,0.19985662,-0.48193377,-0.01001323,0.03395459,-0.12114054,-0.3858407,-0.32984352,0.0600857,-3.0747511,0.6272629,0.00016850684,-0.11307168,-0.011521078,0.0016382382,0.033043068,-0.0076654316,-0.012832242,0.44143456,-1.4445642,1.9786419,-2.1013715,-1.5734314,2.418349,-0.060098838,0.22889026,-0.27593204,0.06805235,-0.027130146,-0.047001347,-0.34476504,0.2873042,-9.040505,0.9298854,47.66539,-0.8296582,-1.4016176,-3.3350267,-0.10872409,-0.4068194,-0.15615192,25.3125,25.875,25.125,27.5625,28.1875,28.5
0.23605415,-1.6172904,0.25139427,-0.43938786,-0.017538777,0.023306835,-0.111061685,-0.38606796,-0.32985607,0.060078755,-3.074663,0.62732255,0.00013544824,-0.11287616,-0.010518449,0.0006595374,0.035942383,-0.011152608,-0.015108273,0.44129014,-1.4440966,1.978103,-2.101239,-1.5734795,2.4182537,-0.06097381,0.2311243,-0.27703506,0.07131491,-0.028260283,-0.045594633,-0.30645782,0.22984336,-9.136273,0.99702406,47.66987,-0.77713346,-1.2964592,-3.408813,-0.15059741,-0.3858837,-0.14913358,25.3125,25.875,25.125,27.5625,28.1875,28.5
0.23805371,-1.1566392,0.05872753,-0.05405929,-0.02560781,0.048903774,-0.116956845,-0.3862988,-0.3298747,0.06007865,-3.0745735,0.62728393,0.00012384035,-0.112227656,-0.009281195,-0.0003196566,0.04011589,-0.013851276,-0.015640337,0.44117016,-1.4436169,1.9775294,-2.101082,-1.5735525,2.4181216,-0.060902704,0.23241235,-0.2769911,0.07420999,-0.030879837,-0.04498093,-0.38307226,0.21068975,-9.040505,0.8985519,47.637623,-0.71861774,-1.2175045,-3.5242577,-0.20991197,-0.3877023,-0.14488319,25.3125,25.875,25.125,27.5625,28.1875,28.5
0.24005337,-1.2061956,0.48518178,-0.14859056,-0.01790865,0.052278142,-0.12472211,-0.3865173,-0.32990226,0.060072638,-3.0744731,0.62736213,7.362205e-05,-0.11307702,-0.007826744,-0.0025987928,0.043101177,-0.018441675,-0.020617059,0.4410612,-1.4431354,1.9769672,-2.1009262,-1.5736006,2.4180748,-0.06378872,0.23801236,-0.2784569,0.07550494,-0.031622,-0.042883985,-0.3256114,0.0,-9.040505,0.9410752,47.653748,-0.74970615,-1.468935,-3.5876231,-0.2369873,-0.37987423,-0.15521261,25.3125,25.875,25.125,27.5625,28.1875,28.5
0.24205346,-1.1562823,0.94322175,-0.097047895,-0.0054759854,0.05380065,-0.12011544,-0.38675788,-0.32991478,0.060073175,-3.0743744,0.62747586,4.2067197e-05,-0.11465036,-0.008411696,-0.0024018155,0.0440536,-0.018037738,-0.021073485,0.4409053,-1.4426552,1.9763912,-2.1007702,-1.5736488,2.418003,-0.0633388,0.24157086,-0.28331417,0.0768446,-0.03266909,-0.04196914,-0.30645782,0.038307227,-8.983045,0.8605109,47.639416,-0.56326747,-1.6108911,-3.5129614,-0.25546992,-0.3685584,-0.15994054,25.3125,25.875,25.125,27.5625,28.1875,28.5
0.24405417,-1.4171698,0.48342204,-0.23699585,0.015386892,0.032004092,-0.111343145,-0.38697153,-0.32991225,0.060054816,-3.0742269,0.6274834,2.4059947e-05,-0.1161,-0.008657902,-0.0022134003,0.04465598,-0.016071085,-0.021689907,0.4407854,-1.4421874,1.9758753,-2.1006272,-1.5737575,2.4179075,-0.06318143,0.24357098,-0.2858765,0.07588435,-0.03406707,-0.04118515,-0.19153613,0.019153614,-9.097966,0.88960326,47.688675,-0.75352865,-1.5866184,-3.487545,-0.28538233,-0.33992448,-0.16046146,25.3125,25.875,25.125,27.5625,28.1875,28.5
0.24605386,-0.61335826,0.81426376,-0.3358791,0.014785948,0.032947127,-0.12263666,-0.38719752,-0.32995212,0.060045436,-3.0741544,0.62756556,-3.0033869e-05,-0.11883938,-0.008925131,-0.001310726,0.043534413,-0.011610957,-0.02654606,0.4406771,-1.4416837,1.9753007,-2.100496,-1.5737818,2.4178603,-0.06443826,0.24505876,-0.2891048,0.0731227,-0.034965802,-0.03757784,-0.21068975,0.038307227,-8.963891,0.97464454,47.682407,-0.7055496,-1.745972,-3.4542248,-0.26522443,-0.3259381,-0.17472452,25.3125,25.875,25.125,27.5625,28.1875,28.5
0.2480536,-0.39355367,0.534834,-0.33308607,0.0027096816,0.029625166,-0.12459826,-0.38741773,-0.3299478,0.060023114,-3.0740108,0.6275765,-0.00010195934,-0.12081074,-0.008737611,-0.00060395134,0.04256692,-0.010270411,-0.030739196,0.4405323,-1.4411924,1.9747614,-2.1003287,-1.5738662,2.4177413,-0.0666413,0.2462616,-0.29226294,0.073450305,-0.03467201,-0.035583172,-0.36391866,0.15322891,-9.078813,0.8873621,47.682407,-0.5029136,-1.6712368,-3.424477,-0.2593801,-0.32877937,-0.23005185,25.3125,25.875,25.125,27.5625,28.1875,28.5
0.25005335,-0.8940576,-0.2754275,-0.4566502,-0.01925434,0.021050796,-0.120213725,-0.38767654,-0.3299694,0.06003817,-3.0738986,0.62772316,-5.3300686e-05,-0.12186019,-0.010401972,-0.00014324208,0.043189056,-0.006573805,-0.026770394,0.4404016,-1.4407005,1.9741386,-2.1001742,-1.5739506,2.4177172,-0.06301673,0.24854386,-0.2955158,0.071341515,-0.036827832,-0.035915483,-0.40222588,0.24899697,-9.174581,0.9186956,47.686886,-0.75766397,-1.7024791,-3.403685,-0.27253416,-0.2991211,-0.22837307,25.3125,25.875,25.125,27.5625,28.1875,28.5
0.25205395,-1.326804,-1.2554563,-0.64244956,-0.05744452,0.04408085,-0.11358964,-0.3879098,-0.3299734,0.06002577,-3.0737453,0.62772936,-0.00011528087,-0.12368379,-0.009875254,-0.0009774019,0.044615194,-0.0054943254,-0.028450152,0.4402691,-1.440184,1.9735397,-2.099971,-1.5740474,2.417609,-0.064355075,0.2521253,-0.297249,0.06912392,-0.03859354,-0.035560507,-0.36391866,0.4213795,-9.193734,0.88289046,47.682407,-0.7539266,-1.6094406,-3.420239,-0.23697624,-0.26765192,-0.24732278,25.3125,25.875,25.125,27.5625,28.1875,28.5
0.2540535,-1.7713944,-2.3010957,-0.75689787,-0.09089537,0.067708015,-0.11840232,-0.38815153,-0.32999507,0.060020186,-3.0736024,0.62779504,-0.0001336104,-0.12526745,-0.010237927,-0.00010445449,0.044148438,-0.0028859272,-0.027835557,0.44016114,-1.4396566,1.9729179,-2.0997913,-1.5741433,2.417561,-0.06455075,0.25288752,-0.30012563,0.06867189,-0.039297827,-0.036363,-0.45968673,0.5746084,-9.232041,0.8537928,47.658226,-0.69544053,-1.649869,-3.4531703,-0.24651915,-0.22846255,-0.2544256,25.3125,25.875,25.125,27.5625,28.1875,28.5
0.2560543,-2.5145261,-3.1385858,-0.93680406,-0.108775795,0.0788198,-0.107432455,-0.38838515,-0.3299886,0.059975553,-3.0734367,0.6278942,-0.0002458442,-0.12513402,-0.010238334,-0.0013658534,0.045286793,-0.0036373993,-0.026732884,0.4399933,-1.439105,1.9723667,-2.0996492,-1.5742158,2.4174771,-0.06389466,0.25509432,-0.29946446,0.06696062,-0.040020358,-0.036800716,-0.3256114,0.61291564,-9.385271,0.9567419,47.693153,-0.77377486,-1.6665565,-3.4635005,-0.23428798,-0.20164204,-0.2581123,25.3125,25.875,25.125,27.5625,28.1875,28.5
0.25805432,-2.478865,-2.8846362,-0.89306134,-0.1227372,0.08732576,-0.12286235,-0.38862276,-0.33000594,0.05995769,-3.073311,0.62792534,-0.00027467607,-0.12699558,-0.01127854,-0.0001816735,0.042866535,0.0009257997,-0.027333591,0.43987337,-1.4385779,1.9717811,-2.0995061,-1.5742997,2.4173934,-0.063700855,0.25522977,-0.30178115,0.063976794,-0.03978893,-0.036002196,-0.4213795,0.68953013,-9.5385,0.8918391,47.68062,-0.81218123,-1.4934688,-3.7409308,-0.21348473,-0.1634726,-0.26409414,25.3125,25.875,25.125,27.5625,28.1875,28.5
0.26005414,-2.0875509,-2.265802,-0.90995854,-0.11690028,0.08419652,-0.12158455,-0.3889042,-0.3300397,0.059981965,-3.0732439,0.62798697,-0.00013941248,-0.1292072,-0.012666805,0.00089533295,0.03999625,0.0046578534,-0.026690694,0.43975344,-1.4380744,1.9711336,-2.0993993,-1.5743955,2.4173212,-0.06366759,0.2568109,-0.30562207,0.06162363,-0.03879678,-0.03661517,-0.36391866,0.57460845,-9.5385,0.95002913,47.67614,-0.82105994,-1.5886996,-3.7630532,-0.15704472,-0.15216087,-0.28459162,25.3125,25.875,25.125,27.5625,28.1875,28.5
0.26205385,-1.5860373,-1.6644456,-1.0041139,-0.07776031,0.056905564,-0.115371905,-0.38916028,-0.33007014,0.05995724,-3.0731342,0.62809616,-0.00013511966,-0.13037366,-0.01339339,0.00068229,0.038900398,0.005602346,-0.025221368,0.43963355,-1.4375104,1.9705352,-2.099316,-1.5744671,2.4172843,-0.063667335,0.25926375,-0.30764088,0.05985355,-0.03822335,-0.038083393,-0.19153613,0.63206923,-9.5385,0.9545008,47.678825,-0.9226637,-1.6269463,-3.7904696,-0.114390254,-0.14658749,-0.28848204,25.3125,25.875,25.125,27.5625,28.1875,28.5
0.26405343,-1.0914228,-0.7028598,-0.93114775,-0.06301469,0.027978482,-0.12113421,-0.3894298,-0.33008057,0.05993241,-3.073034,0.628131,-0.00014210473,-0.13206093,-0.014831082,0.0017945425,0.03652325,0.008536751,-0.023243267,0.43946573,-1.4369471,1.9699348,-2.099221,-1.5745391,2.4171517,-0.063006476,0.26051995,-0.31150493,0.058777012,-0.037339553,-0.039400302,-0.30645782,0.4213795,-9.442732,0.93436235,47.66539,-0.86631036,-1.7374437,-3.6702409,-0.06464888,-0.13837928,-0.30172575,25.3125,25.875,25.125,27.5625,28.1875,28.5
0.2660535,-0.35591686,-0.4220176,-1.0319203,-0.03484203,0.0115497755,-0.116900906,-0.38970327,-0.33012992,0.059950154,-3.072989,0.6282179,-4.678624e-05,-0.13315731,-0.015105303,0.0005920916,0.03677747,0.006691253,-0.023575323,0.4393575,-1.4364307,1.9692892,-2.0991247,-1.5745982,2.417104,-0.06375734,0.26529822,-0.31420642,0.058468666,-0.03679203,-0.03982085,-0.114921674,0.40222588,-9.404425,0.85826975,47.670765,-0.9060497,-1.7667683,-3.6358721,-0.040521726,-0.12248567,-0.29162365,25.3125,25.875,25.125,27.5625,28.1875,28.5
0.26805416,-0.0327118,-0.063058056,-1.4968666,-0.018819861,-0.017481737,-0.115272395,-0.3899683,-0.33017278,0.059938185,-3.0728989,0.62821776,-1.4893299e-05,-0.13355564,-0.01520831,-0.00036258053,0.03791122,0.003319516,-0.02401185,0.4392614,-1.4358544,1.9686412,-2.0990164,-1.5746826,2.41702,-0.0641263,0.26933637,-0.31731603,0.06106595,-0.0363872,-0.039752416,0.076614454,0.45968673,-9.500193,0.94331104,47.668976,-0.9103758,-1.7733606,-3.6512957,-0.021855408,-0.102708824,-0.3061841,25.3125,25.875,25.125,27.5625,28.1875,28.5
0.270054,0.05508767,-0.23853013,-1.3607451,-0.035911243,-0.01897329,-0.12603976,-0.39021513,-0.33018762,0.059907395,-3.0727499,0.62832034,-6.315659e-05,-0.13401768,-0.015437234,-0.0009629167,0.038220596,0.0009561662,-0.024056422,0.43912926,-1.4352899,1.9680437,-2.0988839,-1.574766,2.416972,-0.06451822,0.27241263,-0.31998292,0.0629152,-0.035670802,-0.040098343,-0.05746084,0.45968673,-9.5385,0.8560339,47.67345,-0.8880495,-1.9234146,-3.6388314,-0.013592977,-0.09958704,-0.3145897,25.3125,25.875,25.125,27.5625,28.1875,28.5
0.27205345,-0.12078849,-1.1066076,-1.2898692,-0.060446203,-0.006625338,-0.117135,-0.39052218,-0.33020663,0.059927594,-3.0726783,0.62836313,5.500273e-05,-0.13487795,-0.015636465,-0.00070346764,0.03721961,0.0007522181,-0.024744514,0.43896094,-1.4347508,1.9673609,-2.0987642,-1.5748619,2.41684,-0.06546837,0.27351412,-0.3221454,0.06372098,-0.034683347,-0.04036502,-0.05746084,0.30645782,-9.595961,0.83813137,47.658226,-0.90423685,-1.9719875,-3.6354463,0.031899653,-0.087993115,-0.32504746,25.3125,25.875,25.125,27.5625,28.1875,28.5
0.27405336,-0.61699486,-1.688983,-1.0599655,-0.08649116,0.008730021,-0.11826938,-0.39081308,-0.33026168,0.059950586,-3.0726516,0.62837654,0.00012626231,-0.1355452,-0.016512154,-0.00052216166,0.03662904,-0.00078361336,-0.024766993,0.43884104,-1.4341989,1.9666537,-2.0986316,-1.5749096,2.4167325,-0.06515539,0.2761367,-0.32626963,0.066353194,-0.03349891,-0.04003412,0.038307227,0.28730422,-9.615114,0.88960326,47.67345,-0.92246616,-2.0097442,-3.5844917,0.033479918,-0.08386053,-0.3393185,25.3125,25.875,25.125,27.5625,28.1875,28.5
0.2760543,-0.5092757,-1.2556071,-1.1852748,-0.093980685,0.010285195,-0.11417145,-0.3910614,-0.33027697,0.05991084,-3.0724752,0.62851095,3.4964818e-05,-0.13500443,-0.016306397,-0.0008924595,0.037019093,-0.0049839406,-0.02486942,0.43870878,-1.4335996,1.966031,-2.0984743,-1.574993,2.4167078,-0.06593905,0.27738604,-0.32799786,0.0707845,-0.032071207,-0.04071789,0.1340753,0.2681506,-9.634268,0.90750587,47.658226,-0.86252415,-1.9755371,-3.489098,0.0009241888,-0.08997366,-0.35587978,25.3125,25.875,25.125,27.5625,28.1875,28.5
0.27805403,-0.6018243,-0.7666348,-1.3044388,-0.070490524,-0.0036491107,-0.11708503,-0.3913237,-0.33032268,0.059901144,-3.0724335,0.62857735,-2.9439474e-05,-0.13567618,-0.017259084,-0.0008879775,0.03516865,-0.005030237,-0.023481729,0.43856493,-1.4330362,1.9653853,-2.0983431,-1.5749921,2.4166112,-0.065810665,0.27915066,-0.33005637,0.07031841,-0.030390881,-0.04198258,0.11492168,0.22984336,-9.5385,0.8985519,47.677036,-0.92866206,-1.8164266,-3.5900633,0.018496538,-0.11040914,-0.34045008,25.3125,25.875,25.125,27.5625,28.1875,28.5
0.28005376,-0.23011951,-0.27852625,-1.377043,-0.047045846,-0.010227333,-0.11821018,-0.3916063,-0.33033016,0.05990325,-3.0722964,0.62864476,5.9390706e-05,-0.135721,-0.017493242,-0.00093530846,0.03504233,-0.007062067,-0.023922548,0.43842098,-1.4324964,1.9647392,-2.09821,-1.5751241,2.4165277,-0.06599169,0.28046954,-0.33216518,0.07288225,-0.029415738,-0.041726254,0.19153613,0.24899697,-9.461885,0.8717007,47.667187,-0.95466536,-1.9344356,-3.6530354,0.019448986,-0.118618965,-0.3406397,25.3125,25.875,25.125,27.5625,28.1875,28.5
0.2820535,0.3446661,0.0516557,-1.2932782,-0.01861334,-0.01574201,-0.12195653,-0.39189562,-0.3303908,0.059912562,-3.0722625,0.6286951,0.00013052487,-0.13602552,-0.017874865,0.00031404215,0.034160808,-0.007385018,-0.02455135,0.4383129,-1.4319218,1.9640445,-2.0981128,-1.5751714,2.416456,-0.06610602,0.2796831,-0.33511424,0.07652995,-0.028478155,-0.04121665,0.17238252,0.11492168,-9.519346,0.9321212,47.667187,-1.0035383,-1.8085105,-3.651759,0.011642842,-0.11660026,-0.3752128,25.3125,25.875,25.125,27.5625,28.1875,28.5
0.2840534,-0.19277894,0.084771395,-1.3213161,0.0026073637,-0.04112153,-0.11088587,-0.3921751,-0.3304484,0.05991768,-3.072233,0.628706,0.00013374002,-0.13571893,-0.017749533,0.00060680055,0.034711394,-0.009878711,-0.021831222,0.4381928,-1.4313462,1.9633497,-2.0979798,-1.5751957,2.416347,-0.066365875,0.27990237,-0.33715722,0.08082534,-0.027926285,-0.04419909,0.05746084,0.1340753,-9.519346,0.88960326,47.637623,-1.0147924,-1.8399417,-3.6272688,-0.0038946518,-0.12991895,-0.3560061,25.3125,25.875,25.125,27.5625,28.1875,28.5
0.28605416,0.39596272,0.7684546,-1.173049,-0.0052679717,-0.02581451,-0.12403821,-0.3924388,-0.33046806,0.05989254,-3.0720766,0.62878764,3.0071109e-05,-0.13597229,-0.0170829,-0.00016842576,0.03653087,-0.014484283,-0.021604171,0.43804815,-1.4307349,1.9626673,-2.0977743,-1.5752672,2.4162743,-0.06792651,0.28316718,-0.34034267,0.08567199,-0.02763176,-0.045983743,0.11492168,0.11492168,-9.423578,0.95002913,47.672558,-0.93417346,-1.7919825,-3.6406226,-0.057036392,-0.15523916,-0.34219074,25.3125,25.875,25.125,27.5625,28.1875,28.5
0.288054,0.034840763,0.568653,-1.0707319,-0.002539367,-0.01673483,-0.12286234,-0.39271855,-0.33049363,0.059913244,-3.0720081,0.6288462,6.732122e-05,-0.1344615,-0.018003128,-0.00056115916,0.03812374,-0.01901413,-0.015344481,0.43789318,-1.4302192,1.9619964,-2.0976055,-1.5753273,2.4161654,-0.065184094,0.28507534,-0.34298626,0.09116003,-0.027163954,-0.049502812,0.05746084,0.11492168,-9.481039,0.95897776,47.645687,-1.1138164,-1.7940116,-3.6680837,-0.10858658,-0.15643372,-0.31558195,25.3125,25.875,25.125,27.5625,28.1875,28.5
0.29005367,-0.09829218,0.64276505,-0.9600195,-0.011813125,0.0023632753,-0.12356864,-0.39297718,-0.33055663,0.05991569,-3.0719457,0.6287942,6.397468e-06,-0.13423476,-0.017288707,-0.0012720483,0.040035013,-0.023935512,-0.017424852,0.43780875,-1.4296315,1.9612769,-2.0974,-1.575363,2.416057,-0.06647295,0.2875334,-0.3455118,0.09649356,-0.026805416,-0.048710853,-0.038307227,0.076614454,-9.404425,0.947788,47.634937,-1.0744479,-1.8641007,-3.5423155,-0.18842074,-0.1707843,-0.30316812,25.3125,25.875,25.125,27.5625,28.1875,28.5
0.2920542,-0.67818534,0.19700542,-1.0168521,-0.011347353,0.015561048,-0.11728381,-0.39324975,-0.33057755,0.059900593,-3.0718114,0.62888163,-7.955923e-05,-0.13527094,-0.01593566,-0.0017217309,0.041896153,-0.027216407,-0.019794848,0.43765166,-1.4290316,1.9605836,-2.097195,-1.5754231,2.4159727,-0.06955672,0.2901654,-0.34857646,0.10067739,-0.027111823,-0.04941931,-0.22984336,0.076614454,-9.385271,0.9388393,47.65106,-0.9281223,-1.7732275,-3.5662386,-0.26583642,-0.16851059,-0.30823997,25.3125,25.875,25.125,27.5625,28.1875,28.5
0.2940538,-1.4396366,-0.21502434,-0.8989027,-0.030268973,0.033948332,-0.11194533,-0.3934837,-0.33060774,0.059890747,-3.0716882,0.628852,-0.00019193748,-0.13510372,-0.01751569,-0.0023026688,0.04278798,-0.0287043,-0.013654629,0.43754482,-1.4284797,1.9599246,-2.096955,-1.5754832,2.415864,-0.06634852,0.29393908,-0.35198653,0.102020055,-0.027315725,-0.052344978,-0.22984336,0.17238252,-9.3661175,0.9388393,47.679718,-1.0897838,-1.9349197,-3.6252766,-0.30604672,-0.17930433,-0.28231204,25.3125,25.875,25.125,27.5625,28.1875,28.5
0.2960535,-1.8423157,-0.5099759,-0.52753496,-0.0545287,0.05515359,-0.11609816,-0.39377844,-0.33064544,0.05989818,-3.0716417,0.62891877,-0.0002019561,-0.13750778,-0.017178655,-0.0012943952,0.041513987,-0.025406722,-0.013747554,0.43737593,-1.4279042,1.9592179,-2.0968,-1.575507,2.4157434,-0.06876727,0.29427975,-0.3545416,0.10069155,-0.027584609,-0.05466746,-0.13407528,0.17238252,-9.404425,0.9545008,47.67793,-1.070354,-1.8925459,-3.5542932,-0.35489118,-0.18862715,-0.2537812,25.3125,25.875,25.125,27.5625,28.1875,28.5
0.29805437,-2.300104,-1.3586739,-0.6577509,-0.044987064,0.056102373,-0.11454987,-0.39402857,-0.33068708,0.059889205,-3.071511,0.6288322,-0.00028997127,-0.1394002,-0.01772718,-0.00090695225,0.04036444,-0.021350827,-0.012218268,0.4372921,-1.4273049,1.9585003,-2.0965502,-1.5755914,2.4156232,-0.06887526,0.29552448,-0.35614496,0.09687673,-0.028290225,-0.056295894,-0.2681506,0.24899697,-9.270349,0.92093146,47.71286,-1.1226127,-1.8678178,-3.5818017,-0.3103886,-0.19874507,-0.2172243,25.3125,25.875,25.125,27.5625,28.1875,28.5
0.30005398,-1.8158735,-1.3103753,-0.9945262,-0.041164193,0.062849425,-0.109949306,-0.39435774,-0.3307431,0.059928954,-3.0715053,0.6289441,-0.00025958728,-0.14228152,-0.018684618,0.0010964378,0.036648884,-0.013430069,-0.0113816885,0.43711185,-1.4267185,1.9576987,-2.0963614,-1.5755914,2.415514,-0.06949778,0.29420695,-0.35817418,0.09146242,-0.028304799,-0.057754092,-0.28730422,0.28730422,-9.346964,0.95897776,47.677036,-1.0520306,-1.6684122,-3.6697063,-0.32839817,-0.19537994,-0.17731717,25.3125,25.875,25.125,27.5625,28.1875,28.5
0.30205387,-1.6856611,-1.3125759,-0.95796037,-0.056803104,0.06644495,-0.11993122,-0.3946381,-0.33076584,0.059920512,-3.0713747,0.62893534,-0.00022004858,-0.1447745,-0.019030388,0.0017312405,0.03435589,-0.0064864918,-0.011126289,0.43699166,-1.4261317,1.9570154,-2.0962079,-1.5757121,2.415406,-0.07035241,0.29411075,-0.35802338,0.08413368,-0.029193575,-0.058856677,-0.34476504,0.2681506,-9.346964,0.95226496,47.695843,-1.1445694,-1.4652216,-3.6588407,-0.22699872,-0.2138407,-0.15456504,25.3125,25.875,25.125,27.5625,28.1875,28.5
0.30405357,-1.8230408,-1.5182599,-0.97613424,-0.06345737,0.06309131,-0.102684714,-0.3949283,-0.33078802,0.059913017,-3.0712745,0.628972,-0.0002572156,-0.14718679,-0.018699666,0.0024072435,0.034919225,-0.003444804,-0.01141637,0.436823,-1.4255321,1.9563087,-2.096028,-1.5757726,2.415274,-0.07174784,0.29579532,-0.3614803,0.08338095,-0.031012299,-0.05994807,-0.49799395,0.22984336,-9.3661175,0.9567419,47.677036,-0.94521964,-1.4672987,-3.760302,-0.18918942,-0.18459255,-0.12283784,25.3125,25.875,25.125,27.5625,28.1875,28.5
0.30605355,-1.5568124,-1.4542178,-1.0280287,-0.054626126,0.06974211,-0.11492857,-0.39521906,-0.33085507,0.059925564,-3.071279,0.6289137,-0.00024708195,-0.15064396,-0.021254357,0.0046758386,0.030372,0.004817169,-0.010002639,0.43670362,-1.4249448,1.9555782,-2.0958865,-1.5757841,2.415118,-0.07037558,0.2969496,-0.36702633,0.07835622,-0.03041208,-0.059989296,-0.51714754,0.24899697,-9.442732,0.97240865,47.689575,-1.1427377,-1.3696718,-3.6648216,-0.13911685,-0.19945353,-0.07802943,25.3125,25.875,25.125,27.5625,28.1875,28.5
0.3080542,-1.4378237,-0.69180757,-1.0441412,-0.066327654,0.06671252,-0.11832475,-0.39552015,-0.33085853,0.059901126,-3.0711198,0.6289768,-0.00026970377,-0.15215704,-0.021176992,0.003833172,0.030113164,0.0035857281,-0.012918939,0.43652305,-1.4243089,1.954871,-2.0957186,-1.5758923,2.4149983,-0.07220547,0.30096704,-0.36980852,0.07811879,-0.029666329,-0.0589025,-0.57460845,0.28730422,-9.500193,0.92764956,47.679718,-1.1389285,-1.4304836,-3.5588589,-0.08985325,-0.20893744,-0.05978869,25.3125,25.875,25.125,27.5625,28.1875,28.5
0.310054,-1.362425,-0.5111618,-1.2554975,-0.045918692,0.060111735,-0.11789317,-0.39580983,-0.33091348,0.059903625,-3.0710406,0.6290195,-0.00026285,-0.15371728,-0.02086487,0.0030302736,0.030121744,0.0025440503,-0.01698407,0.4364142,-1.4236964,1.9541286,-2.0955513,-1.5759519,2.414927,-0.074312285,0.30469638,-0.37234882,0.077879764,-0.029234951,-0.05694398,-0.38307226,0.17238252,-9.576807,0.8918391,47.678825,-0.8725792,-1.6607661,-3.5567076,-0.08033091,-0.24180022,-0.055642087,25.3125,25.875,25.125,27.5625,28.1875,28.5
0.31205392,-1.8054717,-0.44343194,-1.3587685,-0.031709578,0.0445414,-0.11280121,-0.39614096,-0.3309723,0.0599466,-3.0710561,0.6291763,-0.00013644589,-0.15386578,-0.02146731,0.001534958,0.032117117,-0.0002860183,-0.01769743,0.43624663,-1.4231435,1.9533743,-2.095443,-1.5759643,2.4148557,-0.07286269,0.30984563,-0.37521815,0.07901645,-0.029838866,-0.054778636,-0.40222588,0.24899697,-9.710882,0.9545008,47.65643,-1.1079222,-1.7370552,-3.5398588,-0.04671008,-0.24748518,-0.06457529,25.3125,25.875,25.125,27.5625,28.1875,28.5
0.31405365,-2.0158222,-0.73991114,-1.1321957,-0.03473814,0.057748236,-0.10693075,-0.3964538,-0.33099872,0.059958063,-3.0709658,0.6291585,-8.402621e-05,-0.15465483,-0.020515693,0.0015293517,0.032791816,-0.00091227575,-0.021891365,0.43609014,-1.4225428,1.9526213,-2.0952632,-1.5760602,2.4147005,-0.07495074,0.3103893,-0.37631506,0.08042536,-0.0301801,-0.05267002,-0.68953013,0.2681506,-9.691729,0.97464454,47.670765,-0.9961127,-1.695327,-3.6000037,-0.04216051,-0.26929203,-0.074739955,25.3125,25.875,25.125,27.5625,28.1875,28.5
0.31605405,-1.9185467,-0.30822328,-1.3759165,-0.03912684,0.05925257,-0.11925672,-0.39675856,-0.33105373,0.059959203,-3.0708804,0.62918025,-9.664305e-05,-0.1538834,-0.019223452,-0.0008590529,0.03587473,-0.00576699,-0.024746723,0.43596965,-1.421893,1.9518327,-2.095071,-1.5761207,2.4146054,-0.076082155,0.3136785,-0.37505394,0.081583135,-0.030916663,-0.050941028,-0.47884032,0.30645782,-9.557653,0.87617236,47.70659,-0.898595,-1.7800952,-3.8250456,-0.022886066,-0.2642441,-0.07568789,25.3125,25.875,25.125,27.5625,28.1875,28.5
0.3180538,-1.8389783,-0.7325813,-1.3461014,-0.047800407,0.063659966,-0.119886324,-0.39706418,-0.3310914,0.05995294,-3.0707934,0.6292778,-0.00014469837,-0.15458982,-0.018610114,-0.00028783904,0.03758041,-0.0066457577,-0.027092272,0.43580142,-1.4212562,1.9510778,-2.0948899,-1.576157,2.41451,-0.076941445,0.31436926,-0.3782387,0.08559956,-0.032090012,-0.04944557,-0.34476504,0.28730422,-9.749189,1.0126908,47.668976,-0.88149166,-1.7059197,-3.9606984,-0.014169826,-0.26437366,-0.09048984,25.3125,25.875,25.125,27.5625,28.1875,28.5
0.32005355,-1.8125846,-1.0606617,-0.8537566,-0.06927044,0.065838926,-0.114950806,-0.39739254,-0.33113152,0.059968404,-3.0707128,0.6293572,-3.0318195e-05,-0.15561776,-0.01844478,-7.87203e-05,0.037572596,-0.008031271,-0.030422308,0.43565705,-1.4206425,1.9503106,-2.0947578,-1.5762528,2.4144263,-0.07841235,0.31624573,-0.38168266,0.08841898,-0.031493507,-0.047589425,-0.4213795,0.2681506,-9.519346,1.0954963,47.695843,-0.8432494,-1.7356963,-3.857514,-0.057193115,-0.28040364,-0.11554958,25.3125,25.875,25.125,27.5625,28.1875,28.5
0.32205358,-1.5178872,-1.072664,-1.1487387,-0.057975385,0.044950325,-0.109874375,-0.39772752,-0.33115658,0.059986614,-3.0706265,0.6294176,-6.0073376e-07,-0.1567285,-0.018031972,0.0018419998,0.036909346,-0.007673206,-0.03357879,0.4354644,-1.4200187,1.9495085,-2.0945523,-1.5763243,2.4142833,-0.08029018,0.31466955,-0.38554633,0.093250826,-0.031040812,-0.04631216,-0.47884035,0.17238252,-9.519346,0.98135734,47.692257,-0.75198567,-1.607652,-3.7947319,-0.04995513,-0.30195054,-0.12701045,25.3125,25.875,25.125,27.5625,28.1875,28.5
0.32405433,-0.6613257,-0.0764193,-1.2049989,-0.04363804,0.03324411,-0.11781943,-0.39803702,-0.33118254,0.05997532,-3.0704896,0.6295045,-5.9501584e-05,-0.15825067,-0.018051961,0.0037919933,0.037871458,-0.008448357,-0.03549685,0.43529597,-1.4193579,1.9487284,-2.094334,-1.5763973,2.4141877,-0.08109594,0.31557587,-0.39295188,0.10085871,-0.0315884,-0.04519166,-0.38307226,0.076614454,-9.615114,0.95226496,47.655537,-0.65628624,-1.454299,-3.51764,-0.14852794,-0.3175736,-0.1371582,25.3125,25.875,25.125,27.5625,28.1875,28.5
0.32605377,-0.63939065,0.73352146,-0.9800592,-0.018816276,0.0068252324,-0.11507509,-0.398363,-0.33123407,0.05999823,-3.0704563,0.62959313,6.367261e-05,-0.15833002,-0.01761239,0.0029235613,0.040551946,-0.011232484,-0.036268316,0.43515208,-1.4187676,1.947975,-2.0942256,-1.5764579,2.414104,-0.08105752,0.318542,-0.3951923,0.103789866,-0.03284105,-0.0443756,-0.2681506,0.019153614,-9.5385,0.89631605,47.65912,-0.65057695,-1.5781367,-3.5128717,-0.18584819,-0.3341489,-0.15962815,25.3125,25.875,25.125,27.5625,28.1875,28.5
0.32805392,-0.15164262,1.062561,-1.3159192,0.03203775,-0.004167061,-0.106889345,-0.39870068,-0.33130413,0.060023308,-3.0704217,0.62966293,7.803085e-05,-0.15751693,-0.016761098,-0.0004961366,0.04389101,-0.018955199,-0.03792797,0.43500784,-1.4181056,1.9471124,-2.094021,-1.5764812,2.4140084,-0.08196646,0.32511026,-0.39560378,0.1060417,-0.032611337,-0.04362566,-0.4405331,0.095768064,-9.5385,0.9455522,47.657326,-0.6085489,-1.627797,-3.5581555,-0.23051327,-0.3177327,-0.18280023,25.3125,25.875,25.125,27.5625,28.1875,28.5
0.3300535,-0.16521236,1.2083569,-1.2826403,0.031421486,0.018768072,-0.12116802,-0.39899868,-0.3313092,0.060009927,-3.0702653,0.62982184,-2.5008432e-05,-0.15774675,-0.01675616,-0.0012624105,0.044309035,-0.021598807,-0.038730588,0.43480375,-1.4174801,1.9463714,-2.0937812,-1.5765413,2.4139247,-0.082537204,0.32782787,-0.39756688,0.1078506,-0.031888746,-0.043393362,-0.22984336,0.076614454,-9.481039,0.98807013,47.64479,-0.6121515,-1.7211499,-3.666187,-0.25331023,-0.34583813,-0.18897328,25.3125,25.875,25.125,27.5625,28.1875,28.5
0.33205417,-0.69518715,0.29988393,-0.85188377,0.0017330471,0.048910912,-0.11743982,-0.3993216,-0.331362,0.060028967,-3.0701618,0.62981784,3.8133454e-05,-0.15758938,-0.016669398,-0.0020104982,0.045438994,-0.023665993,-0.038951963,0.4346957,-1.4168311,1.9455346,-2.0935652,-1.5766491,2.4138284,-0.082379155,0.329755,-0.39858603,0.10928832,-0.032045696,-0.043012004,0.019153614,-0.038307227,-9.423578,0.97464454,47.650166,-0.5905023,-1.7286544,-3.6987023,-0.28032905,-0.36609545,-0.22358781,25.3125,25.875,25.125,27.5625,28.1875,28.5
0.334054,-1.4741192,-0.6854078,-0.89587396,-0.00945637,0.05053216,-0.10998582,-0.3996221,-0.33138514,0.06001734,-3.07003,0.63001937,-0.00012144084,-0.15917285,-0.01670418,-0.0023150574,0.04677703,-0.022917697,-0.03866435,0.4344916,-1.4161808,1.944755,-2.093302,-1.5766615,2.413768,-0.082547784,0.33314314,-0.4019385,0.10913326,-0.033598233,-0.0434528,-0.019153614,-0.038307227,-9.308656,0.91421866,47.625084,-0.6803327,-1.736527,-3.7790227,-0.3001016,-0.37170053,-0.22978325,25.3125,25.875,25.125,27.5625,28.1875,28.5
0.33605358,-1.7926209,-1.191366,-0.51287925,-0.042590033,0.05581373,-0.10709602,-0.39997354,-0.33141756,0.06006466,-3.0699441,0.63015306,3.897431e-05,-0.16294189,-0.018236278,0.0009857172,0.043947432,-0.013136736,-0.036280867,0.43432382,-1.4155924,1.9439281,-2.0931122,-1.5767702,2.4136956,-0.08183581,0.3320944,-0.4077324,0.10589773,-0.035179436,-0.045113653,-0.15322891,0.11492168,-9.136273,1.0126908,47.64389,-0.66817784,-1.7527574,-3.6883469,-0.2822284,-0.3735726,-0.23413584,25.3125,25.875,25.125,27.5625,28.1875,28.5
0.33805376,-1.0317854,-0.89409703,-0.63698685,-0.052734986,0.051639568,-0.111798584,-0.40031102,-0.33143845,0.060081143,-3.0698411,0.630247,8.367663e-05,-0.16580343,-0.018801551,0.0010742905,0.04344982,-0.008028634,-0.03748671,0.43413183,-1.414967,1.9431261,-2.0929105,-1.5768551,2.4135764,-0.0820112,0.33524817,-0.41059166,0.10076208,-0.036896985,-0.04406956,0.0,0.19153613,-9.155427,0.99702406,47.658226,-0.67224616,-1.5326219,-3.5504353,-0.24081737,-0.3599611,-0.23797704,25.3125,25.875,25.125,27.5625,28.1875,28.5
0.34005338,-0.5188602,-0.58724856,-1.0832967,-0.032389637,0.028845537,-0.11714489,-0.4006312,-0.33150652,0.0600877,-3.0697668,0.63023144,7.7212746e-05,-0.1687694,-0.019446537,0.002319575,0.042019956,-0.0015113031,-0.039007463,0.43402383,-1.4142823,1.9422754,-2.0926964,-1.5769156,2.413469,-0.08231764,0.33617893,-0.41375837,0.096490234,-0.03835652,-0.04284261,-0.05746084,0.30645782,-9.308656,0.9947882,47.65106,-0.77551305,-1.5197802,-3.5050154,-0.16863686,-0.3407081,-0.28672665,25.3125,25.875,25.125,27.5625,28.1875,28.5
0.34205428,-0.2858732,-1.3081633,-1.1258807,-0.03545878,0.01963583,-0.12416131,-0.40098324,-0.33152586,0.06008751,-3.0696442,0.6303957,0.00017274861,-0.1704169,-0.020158462,0.0027939556,0.041899495,0.0031473765,-0.037453216,0.43383226,-1.4136215,1.9414862,-2.0925658,-1.5770239,2.4133968,-0.08110646,0.33729082,-0.4155,0.09283515,-0.040223137,-0.043173064,-0.2681506,0.4405331,-9.308657,0.97240865,47.67345,-0.63868225,-1.4288473,-3.535945,-0.12454235,-0.33783993,-0.30752257,25.3125,25.875,25.125,27.5625,28.1875,28.5
0.34405398,-1.5390403,-2.1763363,-1.0197741,-0.06733435,0.012628994,-0.10299788,-0.40132377,-0.33155704,0.060106046,-3.0695086,0.63051903,0.00019412283,-0.16985919,-0.019622456,0.0021844124,0.04411601,0.0022082932,-0.035777397,0.4336645,-1.4129603,1.940626,-2.092314,-1.5771207,2.4133246,-0.08045582,0.33764827,-0.41489467,0.093644544,-0.04184633,-0.044187047,-0.30645782,0.6895301,-9.385271,0.9835985,47.68062,-0.86304533,-1.3617715,-3.7330823,-0.06373848,-0.2950461,-0.33469686,25.3125,25.875,25.125,27.5625,28.1875,28.5
0.34605414,-1.7018156,-2.7796876,-1.1621071,-0.094206944,0.046604082,-0.1052016,-0.4016332,-0.33159047,0.060072735,-3.0693393,0.6306173,0.0001021336,-0.17225994,-0.018007165,0.0016152888,0.045427367,0.0023219252,-0.038739875,0.43351904,-1.4122392,1.939823,-2.0920985,-1.5772051,2.4132636,-0.08447426,0.34067366,-0.4172481,0.093408436,-0.043103237,-0.045228466,-0.22984336,0.7086837,-9.442732,1.0037369,47.66808,-0.6892473,-1.4234946,-3.7377975,-0.050842144,-0.2955393,-0.3308777,25.3125,25.875,25.125,27.5625,28.1875,28.5
0.34805346,-1.8164977,-3.1237772,-1.1347473,-0.10808517,0.06639413,-0.112867266,-0.40199628,-0.33163726,0.06012406,-3.0693054,0.63068587,0.00027714795,-0.17052193,-0.019181235,0.00018705278,0.04744342,-0.0011985486,-0.037003018,0.4333526,-1.4116373,1.9389743,-2.0919306,-1.577289,2.4131448,-0.08058551,0.34356898,-0.41791305,0.09522453,-0.043441083,-0.043077786,-0.24899697,0.63206923,-9.442732,0.95226496,47.658226,-0.8659816,-1.4271977,-3.9288683,-0.030286567,-0.29936934,-0.37382567,25.3125,25.875,25.125,27.5625,28.1875,28.5
0.35005337,-2.1240268,-2.6033187,-0.6498449,-0.11976045,0.06780751,-0.10949767,-0.40234965,-0.33167565,0.06011237,-3.0691826,0.6308137,0.00026220657,-0.17328493,-0.019576041,0.0010653449,0.047175,0.0003741396,-0.03862823,0.43317196,-1.4109037,1.9381117,-2.0917385,-1.5773615,2.413061,-0.08180357,0.34696692,-0.42443,0.09679709,-0.04387274,-0.042662356,-0.19153613,0.61291564,-9.385271,0.9992599,47.65464,-0.80326897,-1.451299,-3.7776613,-0.061519872,-0.28933662,-0.42325127,25.3125,25.875,25.125,27.5625,28.1875,28.5
0.35205352,-1.7607663,-2.0505483,-0.8411236,-0.07822926,0.05882621,-0.101750664,-0.4027162,-0.33172777,0.060132783,-3.0691218,0.6307789,0.00040046562,-0.1752058,-0.02005905,0.0005983079,0.048235875,0.0017717547,-0.035932347,0.43302822,-1.4102172,1.9372381,-2.0915835,-1.5774697,2.412904,-0.08143217,0.35136065,-0.42835113,0.09548021,-0.045446225,-0.04497627,-0.30645782,0.59376204,-9.270349,1.0171678,47.679718,-0.84624445,-1.5864019,-3.59797,0.004224077,-0.25152767,-0.415325,25.3125,25.875,25.125,27.5625,28.1875,28.5
0.35405338,-1.3836799,-1.4656492,-0.99769837,-0.015994748,0.030541634,-0.103931814,-0.4030711,-0.3317477,0.060116105,-3.0689692,0.63097525,0.00044752582,-0.17503986,-0.02015158,-6.196513e-05,0.049850795,-0.00015136927,-0.03373423,0.43283665,-1.4095075,1.9364246,-2.091439,-1.577578,2.4128559,-0.08058629,0.35354203,-0.43001205,0.09736267,-0.04611678,-0.046322245,-0.17238252,0.6895301,-9.289502,0.9164598,47.655537,-0.932366,-1.6263423,-3.647273,0.022614993,-0.23335814,-0.4200433,25.3125,25.875,25.125,27.5625,28.1875,28.5
0.3560542,-0.6807105,-0.5778603,-0.49674127,-0.02967094,0.025516244,-0.11421086,-0.4034424,-0.33181813,0.060134485,-3.0689433,0.6311043,0.0005045311,-0.17603816,-0.01962785,0.00062047347,0.049386546,-0.0017314503,-0.03487451,0.43266773,-1.4087988,1.9355282,-2.0912817,-1.5776013,2.4127715,-0.08293859,0.35414666,-0.43341303,0.10137778,-0.045038883,-0.047541916,-0.1340753,0.63206923,-9.174581,1.0798295,47.709274,-0.8931031,-1.5123472,-3.6904054,0.03887793,-0.23568834,-0.4125191,25.3125,25.875,25.125,27.5625,28.1875,28.5
0.35805425,-0.54632205,-0.6666444,-0.4372521,-0.028613929,-0.001537181,-0.10556792,-0.40380287,-0.33185023,0.06014627,-3.068787,0.6311246,0.0005972478,-0.1744143,-0.019761387,-0.00022451092,0.053695448,-0.0060136514,-0.030156003,0.43252498,-1.4080895,1.9346303,-2.0910528,-1.5777582,2.4126627,-0.07988892,0.35626334,-0.43538833,0.10691269,-0.047160678,-0.049195886,-0.2681506,0.47884035,-8.90643,0.96569055,47.688675,-1.0021763,-1.552463,-3.5900884,-0.012699725,-0.21722564,-0.43251178,25.3125,25.875,25.125,27.5625,28.1875,28.5
0.3600538,-0.15656878,-0.24786715,-0.254793,-0.024972888,-0.013731037,-0.10826927,-0.4041519,-0.3318798,0.06012359,-3.0686166,0.6312212,0.00056661386,-0.17382647,-0.01851568,0.00013470263,0.05826535,-0.010109322,-0.028250443,0.43235677,-1.4073324,1.9337577,-2.0908344,-1.5778674,2.412578,-0.07996547,0.35670042,-0.43890136,0.115603946,-0.04960097,-0.05115795,-0.19153613,0.40222588,-8.90643,1.0149267,47.70032,-1.0506288,-1.4834819,-3.634879,-0.09023484,-0.18546529,-0.4300515,25.3125,25.875,25.125,27.5625,28.1875,28.5
0.3620536,-0.027051903,0.124729715,-0.06304882,-0.02064803,-0.012712479,-0.11145475,-0.4045189,-0.33194104,0.06015278,-3.0685601,0.63120735,0.0005970645,-0.17498922,-0.016349122,-0.0005296032,0.061760664,-0.013159813,-0.027060954,0.43219948,-1.4066231,1.932813,-2.0905812,-1.577928,2.4124203,-0.08347769,0.35924765,-0.44150782,0.11985938,-0.051522274,-0.055846244,-0.1340753,0.15322891,-8.887277,0.99702406,47.70032,-0.8511978,-1.4322238,-3.6619084,-0.11971229,-0.11606033,-0.3914726,25.3125,25.875,25.125,27.5625,28.1875,28.5
0.3640532,0.29571304,0.9151749,0.08154348,-0.0066526085,-0.01048913,-0.11546776,-0.40486827,-0.33197907,0.06012001,-3.0683925,0.63130224,0.0005655442,-0.17322673,-0.018594433,-0.00019239396,0.060654543,-0.017821737,-0.022013063,0.43204504,-1.4058418,1.93194,-2.0903876,-1.5780348,2.412348,-0.07977971,0.36055386,-0.44551158,0.12629281,-0.048577897,-0.05720969,0.05746084,0.019153614,-8.599973,1.0283576,47.686886,-1.0843766,-1.5712636,-3.5053582,-0.20897162,-0.12951726,-0.36225292,25.3125,25.875,25.125,27.5625,28.1875,28.5
0.36605412,0.4498597,1.3018548,0.10956502,0.021223145,-0.014780507,-0.11117967,-0.4052055,-0.33200276,0.06010736,-3.0682259,0.63128597,0.00049171236,-0.17468002,-0.018154986,-0.0011781879,0.06125729,-0.020360315,-0.022339946,0.43187618,-1.4051075,1.9310535,-2.0900996,-1.578143,2.4121919,-0.08198405,0.36505324,-0.44907477,0.12788443,-0.04809131,-0.059082344,0.019153614,-0.076614454,-8.695741,0.94331104,47.688675,-1.0532669,-1.6077459,-3.5372825,-0.22547646,-0.122976184,-0.3534376,25.3125,25.875,25.125,27.5625,28.1875,28.5
0.36805385,0.20924275,1.5963537,0.22945453,0.0349992,-0.0077162078,-0.11188748,-0.4055575,-0.33204672,0.060077783,-3.0681026,0.6313138,0.00042970752,-0.17722185,-0.018740399,-0.0015934363,0.05995914,-0.018871842,-0.020425538,0.43170798,-1.4043254,1.930169,-2.0898979,-1.5782145,2.412058,-0.08326789,0.36956292,-0.45307934,0.12544608,-0.047579583,-0.062277075,-0.038307227,-0.2681506,-8.523358,1.0238806,47.637623,-0.9779053,-1.6495646,-3.4118586,-0.22306,-0.11280152,-0.31960225,25.3125,25.875,25.125,27.5625,28.1875,28.5
0.37005356,0.33298653,1.5288165,-0.102858804,0.044489622,-0.001433262,-0.11992504,-0.40590927,-0.33208856,0.06008183,-3.0679753,0.63130295,0.00040614448,-0.17941605,-0.020108577,-0.0003992404,0.056129057,-0.01434973,-0.015947858,0.43155175,-1.4035923,1.9292477,-2.0896232,-1.5783099,2.4119127,-0.08351742,0.370144,-0.45596662,0.121987656,-0.046043728,-0.06700951,0.19153613,-0.19153613,-8.714894,0.9030289,47.650166,-0.9771869,-1.7490842,-3.3905835,-0.1975159,-0.107492924,-0.25930822,25.3125,25.875,25.125,27.5625,28.1875,28.5
0.37205327,0.024257304,0.95097476,-0.21294677,0.024455465,0.011620174,-0.11717107,-0.4062579,-0.33212408,0.06006785,-3.067823,0.6314053,0.00031571084,-0.1806781,-0.021090582,-0.0012920469,0.053969555,-0.01296437,-0.017895365,0.43137172,-1.4028347,1.9283389,-2.08935,-1.5783814,2.4118176,-0.08356967,0.3733129,-0.45688277,0.11757042,-0.044678092,-0.065117076,0.095768064,-0.15322891,-8.848969,0.96569055,47.64389,-1.014416,-1.7978978,-3.5121417,-0.14589968,-0.13588394,-0.23631865,25.3125,25.875,25.125,27.5625,28.1875,28.5
0.37405404,-1.1583599,-0.2885061,-0.119647235,-0.02481533,0.01985751,-0.10123874,-0.40662622,-0.3321826,0.06009013,-3.0677598,0.6313144,0.0004223481,-0.18238586,-0.021941805,-0.0011407089,0.051430583,-0.010229623,-0.016842548,0.43123952,-1.4021252,1.9274186,-2.0891473,-1.5784887,2.4116375,-0.084087774,0.37497616,-0.45863062,0.114080146,-0.043539237,-0.06669533,-0.11492168,-0.095768064,-8.772355,0.9768804,47.639416,-0.973909,-1.8139371,-3.5161183,-0.09061375,-0.14294884,-0.20626482,25.3125,25.875,25.125,27.5625,28.1875,28.5
