Tylouw/Master_Thesis_Code/training_data/batch_1/big_rod_t0.1/sample_93_session_4.csv
timestamp[s],tcp_force_x[N],tcp_force_y[N],tcp_force_z[N],tcp_force_rx[Nm?],tcp_force_ry[Nm?],tcp_force_rz[Nm?],tcp_pose_x[m],tcp_pose_y[m],tcp_pose_z[m],tcp_pose_rx[rot_vec_x],tcp_pose_ry[rot_vec_y],tcp_pose_rz[rot_vec_z],tcp_velo_x[m/s],tcp_velo_y[m/s],tcp_velo_z[m/s],tcp_velo_rx[rot_vec_x/s],tcp_velo_ry[rot_vec_y/s],tcp_velo_rz[rot_vec_z/s],q1[rad],q2[rad],q3[rad],q4[rad],q5[rad],q6[rad],qd1[rad/s],qd2[rad/s],qd3[rad/s],qd4[rad/s],qd5[rad/s],qd6[rad/s],tool_acc_x,tool_acc_y,tool_acc_z,current_of_whole_robot[A],voltage_of_whole_robot[V],current_J1[A],current_J2[A],current_J3[A],current_J4[A],current_J5[A],current_J6[A],temp_J1[C],temp_J2[C],temp_J3[C],temp_J4[C],temp_J5[C],temp_J6[C]
7.270137e-07,-0.8436372,-1.0870949,0.27468514,-0.009182021,0.0059362836,-0.021452516,-0.3728975,-0.3282113,0.059945982,-3.078457,0.6248614,-0.00027247454,0.0024860175,0.0011948228,-0.0040832907,0.003782743,-0.00817766,-1.306398e-06,0.4481382,-1.4708488,2.0095484,-2.1076672,-1.5706857,2.4230556,-8.473053e-05,0.004590021,0.004300221,0.000118415395,0.00014342037,-8.557794e-05,0.11492168,0.28730422,-8.963891,0.8560339,47.696735,-0.13023937,-2.9278069,-2.4436626,-0.5234897,0.14545363,-0.108431645,25.8125,26.625,25.75,28.625,29.5,29.9375
0.0020525479,-0.7610226,-0.6427444,0.25170425,-0.012051872,0.00497778,-0.032355092,-0.3728846,-0.32823092,0.059947997,-3.0784988,0.6248505,-0.00028655326,-0.0010179206,-0.00049960666,-0.002863477,-0.0013014033,0.0023428968,2.6331572e-06,0.4481623,-1.4708608,2.0095608,-2.107684,-1.5706495,2.4230676,-8.342164e-05,0.0047413334,0.003962488,-0.011379794,0.0001402307,-8.4572705e-05,0.095768064,0.24899697,-8.90643,0.7217513,47.679718,-0.095291816,-2.8065295,-2.2712007,-0.47095376,0.15236983,-0.12377122,25.8125,26.625,25.75,28.625,29.5,29.9375
0.004050795,-0.72260326,-0.45129496,0.24699296,-0.005974812,0.006384052,-0.027039388,-0.37287983,-0.32819873,0.059902623,-3.0784435,0.6248583,-0.00036462408,-0.0015673708,-0.00076454924,-0.002604083,-0.0024760175,0.0047822627,3.2395953e-06,0.44811413,-1.4708133,2.009621,-2.1077201,-1.5706614,2.4230313,-8.215265e-05,0.004157153,0.0046500056,-0.014190557,0.00013717728,-8.359086e-05,0.019153614,0.24899697,-8.925584,0.7284641,47.672558,-0.12166625,-3.0526283,-2.5609212,-0.3779858,0.14206702,-0.11686127,25.8125,26.625,25.75,28.625,29.5,29.9375
0.006054222,-0.7606265,-0.5902439,0.12955631,0.013681096,-0.00951461,-0.017289195,-0.37288013,-0.32822666,0.05991151,-3.0785005,0.62481207,-0.00033018578,-0.00043984078,-0.00021853304,-0.0021513787,-0.0009235906,0.0015852962,2.1684912e-06,0.44815025,-1.4708136,2.0096085,-2.107753,-1.5706376,2.4230313,-8.092148e-05,0.00285939,0.0037145177,-0.008403355,0.00013425395,-8.263155e-05,0.038307227,0.24899697,-9.002198,0.68146914,47.698532,-0.0997755,-2.9697375,-2.524046,-0.3949543,0.14771622,-0.133093,25.8125,26.625,25.75,28.625,29.5,29.9375
0.008052498,0.11040741,0.5321301,-0.11176834,0.038069785,-0.023458453,-0.026356127,-0.37288845,-0.32819414,0.05989947,-3.0784154,0.6249297,-0.00032935257,-2.221223e-05,-1.605959e-05,-0.001528271,-0.00018394989,6.719776e-05,1.9523932e-06,0.44811413,-1.470802,2.0096204,-2.1077406,-1.5706857,2.4230795,-7.972673e-05,0.0019915148,0.002340619,-0.004472891,0.00013145273,-8.1693994e-05,0.0,0.11492168,-9.174581,0.68146914,47.685097,-0.07853034,-2.9341109,-2.4349563,-0.43691725,0.15091352,-0.110963084,25.8125,26.625,25.75,28.625,29.5,29.9375
0.010051755,0.21286245,0.8491527,-0.53104424,0.0575278,-0.036374256,-0.02647907,-0.3728788,-0.32820892,0.059885584,-3.0784407,0.62491566,-0.00037829895,8.010413e-05,3.16433e-05,-0.0012238126,0.00011424988,-0.00054172025,6.084187e-06,0.44812617,-1.4707781,2.0096314,-2.107764,-1.5706495,2.4230795,-7.461577e-05,0.0017360183,0.0015231827,-0.0027219474,0.00012876578,-8.0777914e-05,-0.019153614,0.11492168,-9.232041,0.80456203,47.672558,-0.41806278,-2.299346,-3.1017675,-0.47105557,0.14389336,-0.15800864,25.8125,26.625,25.75,28.625,29.5,29.9375
0.012051895,0.1770557,0.61635894,-0.72257775,0.036079034,-0.018140856,-0.030476961,-0.37286916,-0.3282171,0.059879597,-3.0784361,0.624818,-0.00042765602,-9.113081e-06,1.7645141e-05,-0.0044538765,0.00317348,-0.00690644,-5.335706e-05,0.44815025,-1.470751,2.009607,-2.1077273,-1.5706495,2.4230433,-0.0001340982,0.01039294,-0.0007111127,-0.002082804,0.00012618648,-7.828759e-05,0.1340753,0.076614454,-9.32781,0.7329411,47.670765,-0.5300238,-2.400231,-3.2388353,-0.47234684,0.15831563,-0.18143946,25.8125,26.625,25.8125,28.625,29.5,29.9375
0.014051969,-0.5783911,-0.3839006,-0.7906917,0.0032015597,-0.003224928,-0.030181741,-0.37286657,-0.32819116,0.059867192,-3.0783837,0.62488675,-0.00047457463,-0.0051411926,0.00046028374,-0.003917165,0.0025971313,-0.005782732,-0.0028579638,0.44811192,-1.4707488,2.0096276,-2.1077034,-1.5706614,2.4230545,-0.005652404,0.017169774,-0.009557935,-0.0012757778,0.00014020427,-0.0027858608,0.019153614,0.15322891,-9.615114,0.72622824,47.66987,-0.4268924,-2.851567,-2.9427004,-0.49492654,0.17132948,-0.1917088,25.8125,26.625,25.8125,28.625,29.5,29.9375
0.016051916,-1.6107172,-1.8322407,-1.0259194,-0.022040686,0.019125367,-0.02912398,-0.3728703,-0.32820112,0.05985465,-3.0783958,0.62484896,-0.0005275353,-0.0064375354,0.0015703803,-0.003817046,0.0024971492,-0.0056613456,-0.001359392,0.4481111,-1.4707007,2.0096037,-2.1077034,-1.5706376,2.4230285,-0.008943301,0.017493365,-0.010174973,-0.0011357462,0.00017415869,-0.007575021,-0.21068975,0.24899697,-9.653421,0.7620334,47.678825,-0.19545472,-2.6492157,-3.0593712,-0.5077976,0.17990077,-0.1544724,25.8125,26.625,25.8125,28.625,29.5,29.9375
0.018051911,-2.293027,-2.0449278,-0.9774845,-0.06886892,0.059230004,-0.042942606,-0.3728711,-0.32819113,0.059840206,-3.078347,0.624896,-0.00057626807,-0.0052841636,0.0014557173,-0.0046382016,0.003328488,-0.007528787,0.0012067809,0.4480996,-1.4706646,2.0095918,-2.1076796,-1.5706495,2.4230525,-0.0077202306,0.017954597,-0.008858752,-0.00087044796,0.0002361629,-0.0089190565,-0.38307226,0.30645782,-9.80665,0.78217715,47.694946,-0.38639846,-2.4668884,-3.494806,-0.5226728,0.19108923,-0.14687604,25.8125,26.625,25.8125,28.625,29.5,29.9375
0.020051975,-2.446814,-2.393655,-0.81614006,-0.07777792,0.08472556,-0.045046493,-0.37284413,-0.3282127,0.05982362,-3.0783713,0.6247651,-0.0006449466,-0.0059780884,1.1977527e-06,-0.004101882,0.0009811476,-0.00729677,0.0024051128,0.44814792,-1.4706401,2.0096028,-2.1076791,-1.5706247,2.423016,-0.0069791717,0.01953802,-0.011870486,-0.00067543506,0.002245047,-0.009378507,-0.47884035,0.38307226,-9.768343,0.7866488,47.651955,-0.5404527,-2.4135246,-3.5513666,-0.5414386,0.18691705,-0.17496908,25.8125,26.625,25.8125,28.625,29.5,29.9375
0.022052033,-2.636117,-2.0488544,-0.9286719,-0.0567037,0.07940812,-0.050835233,-0.372902,-0.32820654,0.059838116,-3.07837,0.6248221,-0.0005638779,-0.0071315323,-0.0004909092,-0.0040847957,-0.00046884434,-0.00786944,0.0020764489,0.44809946,-1.4705914,2.0095189,-2.107691,-1.5706481,2.4230034,-0.008153733,0.021891732,-0.01453788,-0.00047965348,0.0037944287,-0.010225525,-0.57460845,0.47884035,-9.730036,0.7709874,47.675243,-0.6311653,-2.482057,-3.2923222,-0.5348742,0.16709647,-0.17483237,25.8125,26.625,25.8125,28.625,29.5,29.9375
0.024052119,-2.3456619,-1.2662063,-1.1523386,-0.027795417,0.051525433,-0.0600882,-0.37291878,-0.32821858,0.059826676,-3.078408,0.62479234,-0.0006234939,-0.0086530335,0.0001268904,-0.0035644101,-0.0015684835,-0.00720472,0.00079279963,0.4480745,-1.4705316,2.0094821,-2.107703,-1.5706004,2.422955,-0.0111733675,0.022119608,-0.016023392,-0.00029962175,0.0044935234,-0.011962106,-0.57460845,0.51714754,-9.883265,0.7866488,47.679718,-0.64313483,-2.4822316,-3.412191,-0.55430233,0.15179366,-0.17047831,25.8125,26.625,25.8125,28.625,29.5,29.9375
0.026051754,-2.1291876,-1.3455752,-1.0952988,-0.008637095,0.037289426,-0.074994005,-0.37294373,-0.3282199,0.059830416,-3.0783985,0.624829,-0.0005971663,-0.009381918,1.4333868e-05,-0.00271156,-0.0022765675,-0.0052921628,0.0009032712,0.44806227,-1.4704959,2.0094345,-2.107703,-1.5706123,2.422967,-0.011492834,0.021260092,-0.016990632,-0.00050282665,0.0043004737,-0.012391096,-0.57460845,0.38307226,-9.787497,0.800085,47.71554,-0.5917653,-2.251268,-3.5102692,-0.54964715,0.17213842,-0.17176387,25.8125,26.625,25.8125,28.625,29.5,29.9375
0.028051984,-2.2072651,-1.5139598,-0.97104335,-0.009291912,0.03198587,-0.076545574,-0.37295604,-0.32820234,0.059803147,-3.0783544,0.624858,-0.0006438646,-0.011063616,-0.00042695753,-0.0022913767,-0.0030162327,-0.003107051,0.0010341594,0.44802612,-1.4704353,2.0094335,-2.1077163,-1.5706242,2.4229546,-0.01199724,0.023002667,-0.019525398,-0.001999531,0.0040107085,-0.013023749,-0.57460845,0.2681506,-9.749189,0.76874626,47.71286,-0.729627,-2.3057396,-3.4451003,-0.5421307,0.17129236,-0.19293353,25.8125,26.625,25.8125,28.625,29.5,29.9375
0.03005204,-1.7976568,-0.8319247,-0.774782,-0.022244122,0.04937624,-0.10107288,-0.37297863,-0.32821736,0.059807662,-3.0783684,0.62480396,-0.0006700288,-0.0128744645,-0.00044194263,-0.0022797417,-0.004225882,-0.0022005436,-0.00089262024,0.44802538,-1.4703747,2.0093486,-2.1076806,-1.5706118,2.4229183,-0.014084453,0.025224075,-0.021665767,-0.003423958,0.0047002705,-0.013183611,-0.5746084,0.24899697,-9.653421,0.7620334,47.698532,-0.6922214,-2.3461146,-3.4292097,-0.5259673,0.1712816,-0.18306214,25.8125,26.625,25.8125,28.625,29.5,29.9375
0.032052007,-2.0048642,-1.2724589,-0.70063037,-0.008273921,0.054062843,-0.107301176,-0.37302968,-0.32822752,0.059824396,-3.078427,0.6248931,-0.0006410807,-0.013945364,-0.000916364,-0.0019404442,-0.006000388,-0.0019610194,-0.000985195,0.44796506,-1.4703382,2.0092757,-2.1077044,-1.5705632,2.4229062,-0.015174714,0.026475338,-0.02379162,-0.0035383624,0.006191415,-0.0141825285,-0.45968673,0.22984336,-9.5385,0.76874626,47.70211,-0.69373083,-2.3071413,-3.4026477,-0.5166289,0.16905268,-0.19852011,25.8125,26.625,25.8125,28.625,29.5,29.9375
0.034052297,-2.146459,-0.81167305,-0.6922318,0.0054832855,0.041974433,-0.11234398,-0.37306288,-0.3282198,0.059810616,-3.0784204,0.6249114,-0.00061649474,-0.015162732,-0.00075175066,-0.0016586819,-0.0066485577,-0.0019588745,-0.0018066731,0.4479284,-1.4702779,2.0092518,-2.1077516,-1.5705751,2.4228818,-0.01698356,0.027679296,-0.025902307,-0.0029163898,0.0067712967,-0.015169727,-0.3256114,0.076614454,-9.595961,0.7597976,47.71286,-0.63916755,-2.3237844,-3.4420125,-0.5412711,0.15406771,-0.2058804,25.8125,26.625,25.8125,28.625,29.5,29.9375
0.03605183,-1.6553159,0.18125647,-0.53296375,0.0147546,0.029814776,-0.13547167,-0.37308598,-0.3282421,0.059820537,-3.078474,0.62492186,-0.0006301223,-0.016021559,-0.0017324644,-0.00052435155,-0.00922249,-0.0005640954,-0.0005512014,0.44791636,-1.4702421,2.0091898,-2.1077516,-1.5705265,2.4228694,-0.017078178,0.027410798,-0.028268507,-0.0026589986,0.00848254,-0.016521744,-0.30645782,0.0,-9.576807,0.7150385,47.686886,-0.66489947,-2.1861415,-3.329679,-0.53208715,0.13100922,-0.20433976,25.8125,26.625,25.8125,28.625,29.5,29.9375
0.03805182,-1.1032344,0.028400695,-0.6348154,0.05025975,0.013103901,-0.15248713,-0.37311232,-0.32823575,0.05978401,-3.078463,0.6249004,-0.00075455196,-0.016901433,-0.0018545811,-0.00049829704,-0.009591562,-0.00039563046,-0.00062519,0.44785613,-1.470122,2.0091417,-2.1077516,-1.5704907,2.4227972,-0.017819753,0.028855942,-0.02988545,-0.0027986753,0.00873714,-0.017189234,-0.2681506,0.0,-9.500193,0.7284641,47.711063,-0.66141886,-2.1620336,-3.37359,-0.5191878,0.12827902,-0.17430565,25.8125,26.625,25.8125,28.625,29.5,29.9375
0.04005197,-1.1506733,0.35033402,-0.68988854,0.057219982,0.0035058619,-0.16363935,-0.37316504,-0.32824185,0.05982174,-3.0784776,0.6249804,-0.0005998207,-0.018420942,-0.0020420307,-0.00040498306,-0.0099837575,0.0006548655,-0.0016938865,0.4478439,-1.4701213,2.0090573,-2.1077645,-1.5705265,2.4228332,-0.018775845,0.031021575,-0.032271132,-0.0036954798,0.008630439,-0.017073536,-0.17238252,-0.095768064,-9.500193,0.7530795,47.691364,-0.6314508,-2.214142,-3.3797722,-0.5294955,0.12271321,-0.1772307,25.8125,26.625,25.8125,28.625,29.5,29.9375
0.04205194,-0.80068535,0.41709906,-0.5513366,0.042845063,0.0150732165,-0.17455317,-0.37319174,-0.32822925,0.059787292,-3.0784497,0.6249367,-0.00067458756,-0.019771935,-0.002574593,0.00023840673,-0.010889534,0.0026891571,-0.0025117493,0.44779584,-1.4700129,2.00902,-2.107776,-1.5705265,2.4227614,-0.018952588,0.032024555,-0.034659,-0.0045358106,0.0085587045,-0.016430955,-0.076614454,0.0,-9.461885,0.7463667,47.698532,-0.6408714,-2.2450926,-3.3721046,-0.51145303,0.11860369,-0.17929685,25.8125,26.625,25.8125,28.625,29.5,29.9375
0.044051923,-0.6242413,-0.08954609,-0.46525514,0.023151476,0.025902899,-0.16963014,-0.37322244,-0.32823554,0.059778888,-3.078476,0.62496203,-0.0007355073,-0.02099411,-0.0021974978,0.0008325752,-0.010577723,0.0040848274,-0.0036447188,0.4477474,-1.4699411,2.0089605,-2.107776,-1.5704788,2.4227254,-0.020168446,0.032296643,-0.036402486,-0.0041831024,0.0076705855,-0.01651116,-0.095768064,0.05746084,-9.423578,0.76874626,47.70211,-0.6122213,-2.1309,-3.3575363,-0.5042245,0.117846295,-0.17574258,25.8125,26.625,25.8125,28.625,29.5,29.9375
0.046052497,-0.8185143,-0.5428928,-0.7209964,0.0059777456,0.02525364,-0.16943318,-0.37328637,-0.32823402,0.05981189,-3.0784724,0.6250195,-0.00062549557,-0.021726426,-0.0018554328,0.0008186524,-0.00995711,0.0037660857,-0.004226465,0.44771096,-1.4699048,2.0088394,-2.1077516,-1.570515,2.4227254,-0.021188831,0.03348084,-0.03786069,-0.0033519017,0.007248993,-0.016947687,-0.095768064,0.1340753,-9.385271,0.7105615,47.698532,-0.62225705,-2.1325905,-3.380086,-0.51801264,0.12267034,-0.17189893,25.8125,26.625,25.8125,28.625,29.5,29.9375
0.048052512,-0.69478273,-1.0285926,-0.68398297,-0.0020143224,0.013934495,-0.1596915,-0.37331566,-0.32823125,0.059780303,-3.0784512,0.62503445,-0.0007243914,-0.022227572,-0.0017232955,0.0011056553,-0.009536918,0.0038130672,-0.0042611803,0.44766292,-1.4697849,2.0087802,-2.1077516,-1.5704912,2.4226894,-0.021619081,0.03392997,-0.039266642,-0.0022533392,0.006848492,-0.017342266,-0.05746084,0.22984336,-9.595961,0.74413085,47.707485,-0.600034,-2.046444,-3.4322362,-0.51985294,0.1666019,-0.17568141,25.8125,26.625,25.8125,28.625,29.5,29.9375
0.05005226,-0.5719049,-1.0520555,-0.6384596,-0.013667707,0.0025369804,-0.15740736,-0.37335706,-0.32823434,0.059790593,-3.078492,0.62504256,-0.0007021847,-0.022951022,-0.001933236,0.0011337617,-0.01001444,0.003150178,-0.004062151,0.4476146,-1.4697483,2.0087192,-2.1077635,-1.5704669,2.422641,-0.022363804,0.035558376,-0.041300934,-0.0014583353,0.0075638685,-0.018285958,-0.05746084,0.2873042,-9.557653,0.74413085,47.70211,-0.6114217,-2.0454502,-3.4448762,-0.54811543,0.15578355,-0.16427061,25.8125,26.625,25.8125,28.625,29.5,29.9375
0.052052446,-0.7301092,-1.6743643,-0.96756953,-0.012901084,-0.008226259,-0.14442968,-0.37340686,-0.32821128,0.05978046,-3.0784397,0.62512803,-0.000709936,-0.023832504,-0.0017793284,0.0013357489,-0.009901075,0.0037564063,-0.0042040935,0.44754243,-1.4696641,2.0086472,-2.1077511,-1.5704912,2.4226289,-0.02320109,0.036367863,-0.042670526,-0.0013942507,0.0071962425,-0.01897982,-0.095768064,0.28730422,-9.481039,0.77545905,47.679718,-0.6062602,-2.0168772,-3.4155707,-0.536945,0.14585571,-0.17552698,25.8125,26.625,25.8125,28.625,29.5,29.9375
0.054052364,-0.8634023,-1.7681555,-0.87692076,-0.017703015,-0.0023300913,-0.1508101,-0.37345433,-0.3282277,0.059787426,-3.078477,0.62502027,-0.00067987386,-0.024936292,-0.0018427062,0.001879618,-0.010237267,0.0050292118,-0.004343241,0.44753012,-1.46958,2.008539,-2.1077511,-1.5704912,2.4225447,-0.023911783,0.036945127,-0.044558365,-0.0013756121,0.006944818,-0.01954948,-0.076614454,0.34476504,-9.519346,0.7665104,47.701214,-0.59548056,-1.9388613,-3.4925408,-0.5375639,0.14979443,-0.14555639,25.8125,26.625,25.8125,28.625,29.5,29.9375
0.0560535,-0.96658707,-1.9864826,-0.93118167,-0.02244219,0.0049216934,-0.1443585,-0.3734931,-0.32823357,0.059799485,-3.0785146,0.62512434,-0.0006534204,-0.025742015,-0.0017450483,0.0015127723,-0.010285817,0.004297279,-0.0048326454,0.4474817,-1.4695556,2.0084898,-2.107775,-1.5704554,2.4225564,-0.025067234,0.038992297,-0.04596459,-0.0013779148,0.007303364,-0.020214723,-0.05746084,0.3256114,-9.557653,0.7732232,47.684196,-0.6438688,-1.940412,-3.4645941,-0.5599757,0.15754385,-0.14415921,25.8125,26.625,25.8125,28.625,29.5,29.9375
0.058052395,-1.3153318,-2.2897072,-1.1281148,-0.028436884,0.009816662,-0.14380583,-0.37356234,-0.32824388,0.059827793,-3.0785625,0.6250957,-0.0006331658,-0.026755381,-0.0024292408,0.0017317412,-0.012118427,0.004705807,-0.0046228534,0.4474214,-1.469483,2.0083344,-2.1077273,-1.5704306,2.4224722,-0.025691556,0.04052618,-0.048002016,-0.002039848,0.0087738605,-0.02104975,-0.038307227,0.4405331,-9.634268,0.7530795,47.694946,-0.59855866,-1.8796422,-3.4982123,-0.5543517,0.1585582,-0.14944327,25.8125,26.625,25.8125,28.625,29.5,29.9375
0.06005244,-0.6968581,-2.101852,-1.1065413,-0.033614583,0.029862715,-0.15376325,-0.37360433,-0.3282365,0.0598018,-3.078526,0.62514496,-0.00062549347,-0.02774354,-0.0029615383,0.0020475404,-0.013200644,0.0055123707,-0.0040397304,0.44738546,-1.4693749,2.0082862,-2.1077754,-1.5704545,2.4224718,-0.026005981,0.041803434,-0.050031785,-0.0024850687,0.009395008,-0.021947064,-0.11492168,0.38307226,-9.519346,0.79560274,47.682407,-0.6372312,-1.8948447,-3.4689474,-0.5399389,0.13730432,-0.12928091,25.8125,26.625,25.8125,28.625,29.5,29.9375
0.062052444,-1.3413104,-1.9540852,-0.98674566,-0.030578768,0.014159266,-0.14541385,-0.3736676,-0.32825872,0.059830476,-3.0785747,0.62517387,-0.00054774823,-0.028500723,-0.003066503,0.0015620728,-0.012780889,0.0049395366,-0.0035600993,0.44736138,-1.469314,2.0081537,-2.1077754,-1.5704421,2.4224596,-0.026402904,0.044367608,-0.051688477,-0.0026934661,0.009261861,-0.022821242,-0.11492168,0.4213795,-9.5385,0.800085,47.723602,-0.6168219,-1.8859613,-3.51268,-0.54550743,0.13258453,-0.10813557,25.8125,26.625,25.8125,28.625,29.5,29.9375
0.064052574,-1.195531,-1.6474546,-0.7043848,-0.022635896,0.01437888,-0.14373402,-0.37371045,-0.32829037,0.05983209,-3.0786443,0.62520725,-0.0006114473,-0.029357105,-0.003377501,0.0019364324,-0.013885875,0.005114278,-0.0033448741,0.44732508,-1.469218,2.0080445,-2.1077754,-1.5703582,2.4224353,-0.027212676,0.045271672,-0.053635966,-0.002286457,0.010179608,-0.023846632,-0.095768064,0.36391866,-9.595961,0.8112748,47.684196,-0.636384,-1.8409162,-3.5185218,-0.5597811,0.14287539,-0.108821444,25.8125,26.625,25.8125,28.625,29.5,29.9375
0.06605182,-1.239674,-1.5814596,-0.737129,-0.006628664,0.0048277937,-0.1359565,-0.3737908,-0.32828665,0.05984063,-3.0786715,0.6251736,-0.0005409233,-0.030462312,-0.0038551884,0.0021608872,-0.014916673,0.005376271,-0.0032507833,0.44725284,-1.4691213,2.0079243,-2.1077998,-1.5703696,2.4223387,-0.027861163,0.04705858,-0.05611989,-0.0022738285,0.010992135,-0.024588428,-0.076614454,0.28730422,-9.557653,0.7486078,47.68062,-0.6567519,-1.8232486,-3.46527,-0.5566177,0.12721127,-0.113459215,25.8125,26.625,25.8125,28.625,29.5,29.9375
0.06805193,-1.5383824,-1.2187847,-0.690766,-0.004123986,-0.0043387646,-0.13756499,-0.37385786,-0.3283087,0.05985482,-3.0787537,0.6251903,-0.00052424974,-0.031391487,-0.004171752,0.0020997408,-0.014616494,0.0058348197,-0.0028853419,0.44719276,-1.469037,2.0078046,-2.1078236,-1.5703095,2.4222786,-0.02778417,0.04916881,-0.0582382,-0.0025454916,0.0105201155,-0.024873735,-0.15322891,0.30645782,-9.404425,0.84484416,47.70032,-0.6091924,-1.8945949,-3.449439,-0.5360479,0.14223096,-0.10664357,25.8125,26.625,25.8125,28.625,29.5,29.9375
0.07005195,-0.9527226,-0.8891095,-0.66124713,-0.0016859022,0.02105445,-0.14355513,-0.37393826,-0.32831138,0.059870653,3.0787144,-0.6252012,0.0005013973,-0.032314092,-0.004562358,0.0023888554,-0.01625147,0.0066707362,-0.0027200393,0.44710842,-1.4689409,2.0076602,-2.1078122,-1.5702852,2.4222062,-0.02862896,0.049900614,-0.059494376,-0.003484037,0.011629827,-0.025884198,-0.21068975,0.2681506,-9.32781,0.7083204,47.655537,-0.6665313,-1.7942183,-3.5735831,-0.5479753,0.13077761,-0.094300985,25.8125,26.625,25.8125,28.625,29.5,29.9375
0.07205198,-1.2142668,-0.85263735,-0.43462077,-0.003427822,0.023821803,-0.14259003,-0.3740028,-0.3282954,0.059850663,3.0787244,-0.6253184,0.00050792587,-0.0346725,-0.0051583536,0.0025965523,-0.01670005,0.00797848,-0.0024044467,0.44703624,-1.4688077,2.0075624,-2.107824,-1.5703095,2.422206,-0.029526455,0.053857498,-0.06417694,-0.0041304366,0.0114576155,-0.027093666,-0.11492168,0.30645782,-9.270349,0.7620334,47.67166,-0.65975326,-1.889382,-3.3868685,-0.5331788,0.11607559,-0.06954969,25.8125,26.625,25.8125,28.625,29.5,29.9375
0.07405197,-1.4325447,-0.8616875,-0.31080693,0.0062391786,0.026000513,-0.13894863,-0.37404332,-0.32832155,0.05985123,3.0786977,-0.6252743,0.00052867766,-0.034365103,-0.005017447,0.0022914018,-0.016318528,0.007323466,-0.0020089727,0.44702435,-1.4687117,2.0074556,-2.107824,-1.5702738,2.42217,-0.0294689,0.053971868,-0.06362932,-0.0040354403,0.011398483,-0.02743171,-0.22984336,0.21068975,-9.346964,0.7105615,47.670765,-0.7294389,-1.9136145,-3.348006,-0.52224505,0.111808434,-0.06401853,25.8125,26.625,25.8125,28.625,29.5,29.9375
0.07605254,-1.672835,-0.6931524,-0.4872678,0.010505949,0.023877576,-0.14351737,-0.37411118,-0.3283354,0.059849028,3.0786574,-0.62524784,0.00053235266,-0.03536359,-0.0051491293,0.0029085202,-0.017129214,0.008067996,-0.0034223069,0.44696397,-1.4685919,2.0073345,-2.107848,-1.570237,2.4220982,-0.03039471,0.054402143,-0.065652914,-0.0034638112,0.011806344,-0.026943495,-0.22984336,0.24899697,-9.32781,0.78217715,47.67166,-0.7155044,-1.7088006,-3.4884994,-0.53410786,0.093803905,-0.0766794,25.8125,26.625,25.8125,28.625,29.5,29.9375
0.078052506,-1.5215766,-0.48834518,-0.39609942,0.019412324,0.02550931,-0.14909098,-0.3742042,-0.3283419,0.05986081,3.078597,-0.6252557,0.000506861,-0.03779298,-0.0057678777,0.0040012533,-0.018019546,0.010315845,-0.004815727,0.44686764,-1.4684714,2.0071776,-2.1078594,-1.5702013,2.4220145,-0.031304903,0.056729592,-0.07081857,-0.003034879,0.011630646,-0.026456106,-0.2681506,0.17238252,-9.289502,0.8157518,47.699425,-0.6865238,-1.7867868,-3.3723426,-0.5404552,0.10870845,-0.08506401,25.8125,26.625,25.8125,28.625,29.5,29.9375
0.08005262,-1.345731,-0.45731977,-0.3693162,0.020445192,0.021459939,-0.14568618,-0.37429318,-0.32837635,0.05991071,3.0785108,-0.6252379,0.0003556342,-0.03713469,-0.0055211424,0.001517488,-0.016273974,0.005117678,-0.004892932,0.44684362,-1.4684097,2.0069983,-2.1078718,-1.5701894,2.4219904,-0.031625338,0.061594773,-0.070541866,-0.002736435,0.012307802,-0.026698334,-0.28730422,0.15322891,-9.308656,0.82694155,47.679718,-0.7334272,-1.8962587,-3.3183365,-0.53917456,0.107841134,-0.078737065,25.8125,26.625,25.8125,28.625,29.5,29.9375
0.08205234,-1.2083005,-0.6510563,-0.36804736,0.016563008,0.027544169,-0.15331031,-0.37435278,-0.3283538,0.059870023,3.078551,-0.62532264,0.0004735058,-0.039097134,-0.005952037,0.0038742942,-0.018615527,0.009856284,-0.004486149,0.44674715,-1.4682308,2.0068896,-2.107848,-1.5701894,2.4219418,-0.032620337,0.059394825,-0.07351141,-0.0028506778,0.01236417,-0.028099937,-0.30645782,0.1340753,-9.251195,0.7709874,47.68062,-0.76322037,-1.7859646,-3.4033542,-0.53866076,0.09178193,-0.065054156,25.8125,26.625,25.8125,28.625,29.5,29.9375
0.08405233,-1.4075152,-0.6986121,-0.40981182,0.0068291225,0.032781523,-0.14860174,-0.37443495,-0.32838082,0.059911266,3.078481,-0.62527084,0.00040426484,-0.040137503,-0.0061227833,0.0034077782,-0.017820898,0.009299098,-0.0045780786,0.44669896,-1.4681579,2.0067093,-2.1078236,-1.5701531,2.4218702,-0.032911677,0.06268476,-0.07609283,-0.0027099827,0.0118861785,-0.028295586,-0.3256114,0.15322891,-9.32781,0.7978386,47.677036,-0.7553822,-1.7083158,-3.3369677,-0.533375,0.107256725,-0.075449236,25.8125,26.625,25.8125,28.625,29.5,29.9375
0.08605179,-1.5299573,-0.7040796,-0.45342448,-0.009161477,0.03616542,-0.13777627,-0.37450528,-0.3283889,0.059898272,3.0784736,-0.62526864,0.0003892991,-0.041645117,-0.005833688,0.0032212345,-0.01763876,0.00899586,-0.006102982,0.44665042,-1.4680133,2.0065882,-2.1078594,-1.5701531,2.4218214,-0.034787297,0.065327935,-0.07863812,-0.0024548578,0.011849172,-0.028644264,-0.38307226,0.19153614,-9.346964,0.78888994,47.67166,-0.6642016,-1.8511937,-3.2421355,-0.5355735,0.09634502,-0.055583715,25.8125,26.625,25.8125,28.625,29.5,29.9375
0.08805194,-1.9923614,-1.3152446,-0.37238705,-0.0056016105,0.03078705,-0.14573579,-0.37460768,-0.3284189,0.059924774,3.0783927,-0.6252715,0.00031914012,-0.04219444,-0.0053213406,0.0026842474,-0.01619797,0.00817476,-0.005776082,0.44659016,-1.4678808,2.0063846,-2.1078713,-1.5701178,2.4217732,-0.03559825,0.06721434,-0.079586744,-0.002024211,0.010906636,-0.02977907,-0.4213795,0.24899697,-9.3661175,0.78888994,47.699425,-0.65551054,-1.8237665,-3.3202186,-0.54642946,0.08679702,-0.066959396,25.8125,26.625,25.8125,28.625,29.5,29.9375
0.09005177,-2.1467407,-0.92157066,-0.5589354,-0.010871291,0.028009718,-0.1420721,-0.3747004,-0.32842967,0.05993519,3.0783179,-0.6253337,0.00031884562,-0.044264037,-0.0058792555,0.0037630987,-0.017199576,0.010406179,-0.00649988,0.44649386,-1.4677485,2.0062153,-2.1078713,-1.5700697,2.4217253,-0.036365736,0.06880184,-0.08386999,-0.0017708708,0.010840473,-0.02981956,-0.3256114,0.24899697,-9.404425,0.7866488,47.679718,-0.6823484,-1.9017065,-3.0884538,-0.5560862,0.095850855,-0.06350137,25.8125,26.625,25.8125,28.625,29.5,29.9375
0.09205182,-2.205288,-1.6158185,-0.7280418,0.0008065114,0.025928041,-0.13087356,-0.37479472,-0.3284367,0.059948117,3.0783217,-0.6253541,0.00024153276,-0.043485254,-0.00559663,0.0024283438,-0.015690252,0.007847514,-0.0073766005,0.44644615,-1.4676042,2.0060241,-2.107859,-1.5701059,2.42169,-0.036012303,0.07059077,-0.08281432,-0.001656052,0.010588001,-0.028589092,-0.3256114,0.3256114,-9.404425,0.79560274,47.666286,-0.8003416,-1.7779635,-3.3652935,-0.5560661,0.09871618,-0.07432155,25.8125,26.625,25.8125,28.625,29.5,29.9375
0.094051935,-1.3392035,-0.88614583,-0.48141745,-0.024720116,0.04130974,-0.1530943,-0.37485975,-0.32844436,0.059927687,3.0783033,-0.62535214,0.00035906283,-0.045560632,-0.005357018,0.002763529,-0.015319441,0.009101424,-0.00994107,0.44636133,-1.4674356,2.00588,-2.107835,-1.5700463,2.4216063,-0.03773165,0.07299274,-0.086252175,-0.001585745,0.009704801,-0.02774087,-0.28730422,0.3256114,-9.423578,0.779936,47.63315,-0.7307518,-1.8886993,-3.2909713,-0.5559615,0.091344774,-0.10841626,25.8125,26.625,25.8125,28.625,29.5,29.9375
0.09605228,-1.4022973,-1.0614241,-0.5047466,-0.025464173,0.029439397,-0.14572586,-0.37496015,-0.32844374,0.05993565,3.0782633,-0.62538135,0.00035256645,-0.046021584,-0.0052501443,0.0022962876,-0.015273383,0.008318246,-0.009149018,0.44625327,-1.4672912,2.0057003,-2.1078231,-1.5700225,2.4215217,-0.038534377,0.07462633,-0.086937696,-0.0018060015,0.010001695,-0.029335126,-0.24899697,0.34476504,-9.442732,0.81351066,47.655537,-0.7339985,-1.8869582,-3.1918948,-0.55960226,0.104028806,-0.100862086,25.8125,26.625,25.8125,28.625,29.5,29.9375
0.09805235,-1.466343,-1.1983032,-0.3972106,-0.020004997,0.012096832,-0.14323619,-0.37504664,-0.3284447,0.059935525,3.0781977,-0.6255034,0.00030288997,-0.047918763,-0.004906033,0.0023901602,-0.015401143,0.009143397,-0.010196888,0.44616848,-1.4671708,2.0055792,-2.1078718,-1.5700101,2.4215214,-0.04071649,0.07685748,-0.089511774,-0.0022598966,0.009757176,-0.030466562,-0.24899697,0.3256114,-9.32781,0.77545905,47.696735,-0.6759721,-1.8464422,-3.2628431,-0.5558703,0.11335713,-0.098914936,25.8125,26.625,25.8125,28.625,29.5,29.9375
0.10005226,-1.2871094,-1.598185,-0.4051863,-0.00063580775,0.011508896,-0.14042893,-0.37516782,-0.32848182,0.059958305,3.0781603,-0.6254193,0.00022557178,-0.04925944,-0.0053462368,0.0026837392,-0.016688406,0.010087617,-0.010967966,0.44612017,-1.4669785,2.0053155,-2.1078718,-1.5699977,2.4214256,-0.041594155,0.07848818,-0.09182566,-0.0029857226,0.010507399,-0.030571591,-0.2681506,0.36391866,-9.308656,0.78888994,47.664497,-0.6173093,-1.9345827,-3.2227545,-0.5511639,0.114493966,-0.10497058,25.8125,26.625,25.8125,28.625,29.5,29.9375
0.10205231,-1.1237922,-1.3395205,-0.523549,0.0036645674,0.0037911644,-0.14134422,-0.37527126,-0.32848284,0.059953645,3.0781083,-0.62550354,0.00021726999,-0.049974766,-0.0059897588,0.0028068246,-0.016921861,0.010952295,-0.010153915,0.44601253,-1.4668103,2.0051467,-2.107896,-1.5699738,2.4213772,-0.04090551,0.080065265,-0.093729466,-0.0035372465,0.010342255,-0.030695027,-0.21068975,0.3256114,-9.32781,0.7530795,47.698532,-0.68443906,-1.8442202,-3.2124243,-0.52901447,0.09956254,-0.12251551,25.8125,26.625,25.8125,28.625,29.5,29.9375
0.10405206,-1.2211748,-1.0983589,-0.5116734,0.009625944,0.007748447,-0.13894723,-0.37536997,-0.3284744,0.05996166,3.0781398,-0.62547094,0.00014209391,-0.050769955,-0.00608267,0.0031147634,-0.016754897,0.011727924,-0.010078244,0.44594035,-1.4666663,2.004967,-2.1078837,-1.5700225,2.4212809,-0.041107763,0.08091055,-0.09542826,-0.0033103393,0.009856014,-0.030971074,-0.21068975,0.2873042,-9.32781,0.75084364,47.678825,-0.7361413,-1.8939755,-3.1979537,-0.537483,0.12997104,-0.15046918,25.8125,26.625,25.8125,28.625,29.5,29.9375
0.106052674,-1.2044281,-0.8332589,-0.36540782,0.0067175245,0.009949881,-0.14176613,-0.37545285,-0.32852513,0.05996357,3.0780323,-0.6254499,0.00022829749,-0.052264627,-0.005561026,0.0018091804,-0.015790258,0.009237511,-0.011984332,0.4458795,-1.4664849,2.004763,-2.1078837,-1.5699023,2.4212205,-0.043558724,0.085980035,-0.09808961,-0.003051589,0.010056527,-0.031513695,-0.15322891,0.24899697,-9.32781,0.7329411,47.694946,-0.6890932,-1.9684982,-3.149334,-0.54699385,0.12663412,-0.16202876,25.8125,26.625,25.8125,28.625,29.5,29.9375
0.10805183,-1.0223423,-0.8367689,-0.57408655,0.004939424,0.00697944,-0.14126275,-0.37558296,-0.32852596,0.059973262,3.0779753,-0.6255159,0.000111265144,-0.052753124,-0.006072386,0.003235925,-0.017973093,0.011220345,-0.011783048,0.44577134,-1.4663181,2.0045707,-2.1079433,-1.5699137,2.421161,-0.043772686,0.08388258,-0.09916093,-0.0026160402,0.011174327,-0.03192918,-0.05746084,0.22984336,-9.346964,0.78217715,47.677036,-0.67367524,-1.8670591,-3.1512985,-0.5303663,0.12915024,-0.1750569,25.8125,26.625,25.8125,28.625,29.5,29.9375
0.11005185,-0.84631634,-0.57089627,-0.3955368,-0.008326568,0.012853981,-0.1474343,-0.3756829,-0.3285293,0.059973504,3.0779905,-0.62551844,0.0001439183,-0.05302521,-0.006009848,0.0012967032,-0.016294535,0.007366152,-0.012107014,0.44568735,-1.4661244,2.0043433,-2.1078837,-1.5699137,2.4210768,-0.04422074,0.089285485,-0.100779004,-0.0021990777,0.011319413,-0.032052066,-0.11492168,0.21068975,-9.423578,0.7709874,47.698532,-0.74588287,-1.8936404,-3.1702614,-0.54030204,0.12636419,-0.18139565,25.8125,26.625,25.8125,28.625,29.5,29.9375
0.11205186,-1.2639992,-1.048343,-0.5116549,-0.010886533,0.004912173,-0.1349595,-0.37580392,-0.32854483,0.059991773,3.077899,-0.625615,6.072346e-05,-0.053928923,-0.0062062736,0.0025800657,-0.01746218,0.009791102,-0.011709328,0.44559124,-1.4659693,2.0041387,-2.107919,-1.5698899,2.4210527,-0.04465317,0.08786764,-0.1022046,-0.0020446854,0.011329603,-0.032880694,-0.17238252,0.15322891,-9.308656,0.7418897,47.68062,-0.7187151,-1.976785,-3.1485903,-0.54096586,0.114666626,-0.19034025,25.8125,26.625,25.8125,28.625,29.5,29.9375
0.11405208,-1.5653968,-1.3408775,-0.36988223,-0.0026965474,0.004042647,-0.1367308,-0.37591514,-0.32855803,0.060010497,3.0778122,-0.62567365,3.4590124e-05,-0.05426988,-0.0061423043,0.0014130633,-0.01613665,0.007764819,-0.011389955,0.4454832,-1.4658242,2.003936,-2.107919,-1.5698417,2.4209924,-0.044845827,0.09139832,-0.10346098,-0.0019149517,0.011008067,-0.033390522,-0.038307227,0.24899697,-9.308656,0.78217715,47.677036,-0.7373724,-1.9853934,-3.2543778,-0.5425733,0.12441666,-0.1970109,25.8125,26.625,25.8125,28.625,29.5,29.9375
0.11605241,-1.2275904,-0.5545622,-0.26273218,-0.012343842,0.0076304534,-0.14354451,-0.37602875,-0.32857227,0.060013227,3.0777664,-0.6257416,2.8827012e-06,-0.054247767,-0.0061077727,0.00034834215,-0.015522168,0.0055115824,-0.0111759165,0.4453991,-1.4656317,2.0037205,-2.107931,-1.5698293,2.4209566,-0.045156173,0.093993194,-0.103938594,-0.0017338526,0.011426264,-0.03391432,-0.019153614,0.19153613,-9.232041,0.6948948,47.651955,-0.69647217,-2.039117,-3.3550363,-0.5513619,0.13163806,-0.21501009,25.8125,26.625,25.8125,28.625,29.5,29.9375
0.11805234,-1.5562268,-0.7016792,-0.24142933,0.0013651715,-0.0017888726,-0.13889383,-0.37610513,-0.32858783,0.05999121,3.0777721,-0.62566465,0.000109048415,-0.055217106,-0.006456305,0.00027553315,-0.016367042,0.0053610033,-0.010653405,0.4453269,-1.4654273,2.0035403,-2.107907,-1.5697812,2.4208357,-0.04591725,0.09600342,-0.10595429,-0.0019559679,0.012248613,-0.035197753,-0.076614454,0.21068975,-9.232041,0.7553206,47.674347,-0.77685577,-2.0187593,-3.3128772,-0.53937936,0.13650125,-0.21999058,25.8125,26.625,25.8125,28.625,29.5,29.9375
0.12005234,-0.71899426,-0.3095908,-0.316993,0.007982173,0.014906924,-0.13825592,-0.37625417,-0.32859117,0.06002235,3.077709,-0.6257265,-2.5175188e-05,-0.05668404,-0.007736431,0.0016845756,-0.017793518,0.008448772,-0.0072427257,0.44520733,-1.4652597,2.003287,-2.1079195,-1.5697936,2.420763,-0.044785608,0.096641466,-0.10987158,-0.0020749301,0.01220386,-0.037473146,-0.095768064,0.19153613,-9.32781,0.7978386,47.677036,-0.8735635,-1.9449612,-3.2330592,-0.5395794,0.14962563,-0.22685972,25.8125,26.625,25.8125,28.625,29.5,29.9375
0.12205224,-0.8508557,-0.5273351,-0.44026738,0.011038546,0.013392433,-0.14639488,-0.3763602,-0.3286271,0.060022272,3.077665,-0.62567985,-6.082987e-06,-0.05660519,-0.006545347,-1.8825742e-05,-0.016831802,0.0054024514,-0.009149938,0.44514635,-1.4650432,2.0030487,-2.1079195,-1.569745,2.4206786,-0.04723093,0.098729,-0.10814126,-0.0027278329,0.012651819,-0.03801194,-0.1340753,0.28730422,-9.32781,0.78888994,47.684196,-0.8429773,-2.0026665,-3.3559556,-0.5235675,0.15010212,-0.2300649,25.8125,26.625,25.8125,28.625,29.5,29.9375
0.12405222,-0.91303736,-0.77497077,-0.4486091,0.0008461949,0.010413215,-0.13971567,-0.37648472,-0.32862705,0.06003181,3.0776393,-0.6257522,-9.076428e-05,-0.05829552,-0.0076589957,0.0018378698,-0.018900644,0.009295262,-0.009727295,0.44505054,-1.4648637,2.0028317,-2.1079314,-1.5697693,2.4206314,-0.04676967,0.0982666,-0.11184547,-0.0029666093,0.012837219,-0.03697072,-0.1340753,0.22984336,-9.270349,0.8112748,47.694946,-0.8620783,-1.774544,-3.3802478,-0.51374257,0.13543883,-0.25938258,25.8125,26.625,25.8125,28.625,29.5,29.9375
0.1260525,-1.0948231,-1.2582203,-0.38630572,-0.0029989637,0.008122706,-0.13653228,-0.3765976,-0.32862207,0.05999861,3.0776126,-0.625841,1.8088203e-05,-0.056898706,-0.007971598,-0.0002153842,-0.016713766,0.0052913856,-0.00716164,0.44490722,-1.4646108,2.002629,-2.1079314,-1.5697211,2.420547,-0.04474121,0.101770714,-0.11110312,-0.0026528055,0.012589487,-0.03750837,-0.15322891,0.2681506,-9.251195,0.7777002,47.696735,-1.0275613,-2.0877323,-3.4329276,-0.52100885,0.16856861,-0.28760746,25.8125,26.625,25.8125,28.625,29.5,29.9375
0.12805249,-1.0458609,-0.9761694,-0.31274617,-0.013829826,0.013314099,-0.14149742,-0.37671718,-0.32864907,0.060015514,3.077587,-0.6257591,-9.9472934e-05,-0.058493193,-0.007525687,0.0013835579,-0.017978847,0.008233321,-0.0080626,0.44485855,-1.4644319,2.002401,-2.1079671,-1.5697335,2.4204507,-0.046907853,0.099886045,-0.112788096,-0.002281552,0.012467295,-0.03877235,-0.1340753,0.28730422,-9.308657,0.7866488,47.694946,-0.9990907,-1.690808,-3.5149817,-0.53455746,0.17023256,-0.28672192,25.8125,26.625,25.8125,28.625,29.5,29.9375
0.13005194,-1.1697166,-1.0926309,-0.50123346,-0.009058852,0.00055339985,-0.14365253,-0.3768045,-0.32866767,0.060007744,3.0775511,-0.6257712,-9.81528e-06,-0.058384348,-0.007250667,-0.0011130811,-0.015443209,0.0034861704,-0.007912799,0.4447744,-1.4642382,2.002197,-2.107931,-1.5696734,2.4203787,-0.047145568,0.1058071,-0.11370623,-0.001903589,0.012220241,-0.039158657,-0.019153614,0.28730422,-9.270349,0.7933669,47.68599,-1.028939,-1.9581122,-3.4672887,-0.52807677,0.17324942,-0.29772487,25.8125,26.625,25.8125,28.625,29.5,29.9375
0.13205189,-0.42900556,-0.47374073,-0.44788533,-0.009850308,0.0056075943,-0.14327599,-0.37696168,-0.32869402,0.06003105,3.0774658,-0.6258302,-9.358419e-05,-0.06028403,-0.007596222,0.0009385614,-0.0186018,0.0066789454,-0.008490392,0.44466573,-1.4640112,2.0018961,-2.1079428,-1.5696486,2.420318,-0.049170777,0.104124,-0.11665859,-0.001510842,0.013698375,-0.040605016,-0.05746084,0.28730422,-9.251195,0.76874626,47.66987,-0.963694,-1.7448678,-3.4244232,-0.5409358,0.17851618,-0.31626296,25.8125,26.625,25.8125,28.625,29.5,29.9375
0.13405187,-0.9750631,-1.1348268,-0.5118491,0.003662641,-0.013137828,-0.1312298,-0.3770814,-0.32869616,0.06003519,3.0774586,-0.6257712,-0.00016303844,-0.060433973,-0.008522334,0.00016396662,-0.018235477,0.0051276074,-0.008049056,0.44457027,-1.4638304,2.0016925,-2.1079667,-1.5696605,2.4201868,-0.047779784,0.10766881,-0.118863165,-0.0012941598,0.0140331285,-0.0396532,-0.076614454,0.22984336,-9.3661175,0.82694155,47.67166,-1.058729,-1.7738291,-3.6212888,-0.53479075,0.16374406,-0.33619988,25.8125,26.625,25.8125,28.625,29.5,29.9375
0.13605233,-1.0581365,-1.3816661,-0.70048445,0.0052467654,-0.0041305088,-0.13647087,-0.37716305,-0.32871416,0.060000982,3.077408,-0.6258973,7.5026956e-06,-0.0612449,-0.008595793,-0.000111089874,-0.019108448,0.0043058707,-0.010769143,0.44447377,-1.4635901,2.0015004,-2.1079428,-1.5695761,2.4201753,-0.04911604,0.10953927,-0.12030831,-0.001353623,0.015168756,-0.038270146,-0.095768064,0.24899697,-9.3661175,0.8157518,47.679718,-1.1233214,-1.8637902,-3.4503736,-0.543182,0.17644887,-0.38897508,25.8125,26.625,25.8125,28.625,29.5,29.9375
0.13805223,-0.9326739,-1.0347676,-0.64627624,-0.004851601,0.012732397,-0.14477302,-0.37732852,-0.3287333,0.060050625,3.0773458,-0.62586355,-0.00010270394,-0.06372302,-0.008755581,0.0013549224,-0.020053735,0.008069756,-0.010423072,0.44435337,-1.4633983,2.0011642,-2.1078951,-1.5695647,2.420042,-0.050493278,0.11007069,-0.124161266,-0.0018300931,0.014401492,-0.039989054,-0.019153614,0.22984336,-9.423578,0.8291774,47.703903,-1.062261,-1.8196843,-3.4112322,-0.54039085,0.17961036,-0.40053895,25.8125,26.625,25.8125,28.625,29.5,29.9375
0.14005232,-1.2993406,-1.5487039,-0.77591336,-0.0065990076,0.015553451,-0.13713078,-0.3774461,-0.32876003,0.060026973,3.0772827,-0.6259275,-4.5873905e-05,-0.06508885,-0.009112737,0.0021267973,-0.02108139,0.00959019,-0.00928477,0.44425714,-1.4631345,2.0009353,-2.107931,-1.5695041,2.4199939,-0.05120926,0.11084037,-0.12682499,-0.0017458184,0.01467348,-0.041841924,-0.076614454,0.36391866,-9.461885,0.83589023,47.68599,-1.0813929,-1.638484,-3.3689404,-0.5360588,0.2113039,-0.41998512,25.8125,26.6875,25.8125,28.625,29.5,29.9375
0.14205256,-1.7508987,-1.8260957,-0.8704323,-0.017508188,0.010892634,-0.1340667,-0.37759662,-0.3287957,0.06005148,3.0772011,-0.62591004,-0.00015599049,-0.0663008,-0.009123101,0.0021692887,-0.02143161,0.009776588,-0.009030543,0.44417283,-1.4629183,2.0006487,-2.1079667,-1.5694803,2.4199092,-0.052410904,0.1126764,-0.12896846,-0.0017542448,0.014912277,-0.043294888,-0.17238252,0.2681506,-9.519346,0.7709874,47.682407,-1.1117014,-1.7168483,-3.3712199,-0.5439461,0.20616278,-0.42819217,25.8125,26.6875,25.8125,28.625,29.5,29.9375
0.1440517,-1.3658149,-1.5422608,-0.90337455,-0.024641749,0.029722856,-0.14284575,-0.37772885,-0.32878202,0.060055148,3.0772254,-0.62589586,-0.0002035673,-0.06665352,-0.009126817,0.0013744549,-0.02156609,0.0077386415,-0.008723815,0.44405246,-1.4627137,2.000409,-2.1079428,-1.5695156,2.4197772,-0.053366266,0.115202785,-0.13003376,-0.0014348283,0.0159115,-0.044556476,-0.26815057,0.40222588,-9.500193,0.7866488,47.687782,-1.1071024,-1.7489519,-3.4505029,-0.5450136,0.19454476,-0.43716794,25.8125,26.6875,25.8125,28.625,29.5,29.9375
0.14605244,-1.9735229,-1.7883642,-0.89302176,-0.01886973,0.019197147,-0.13580096,-0.37782273,-0.3287967,0.060022954,3.0772235,-0.6259522,-0.00012158851,-0.06791307,-0.009018008,0.0019229865,-0.021901997,0.008831347,-0.007979784,0.44398004,-1.4624622,2.0002048,-2.1079428,-1.5694922,2.4197402,-0.0545647,0.1158664,-0.13211891,-0.001139507,0.015742455,-0.046498425,-0.26815057,0.38307226,-9.500193,0.8717007,47.68062,-1.1070168,-1.6244057,-3.4185865,-0.5497683,0.22423756,-0.44511557,25.8125,26.6875,25.8125,28.625,29.5,29.9375
0.14805229,-1.8209103,-1.3996751,-0.91386807,-0.02886903,0.02499259,-0.13978577,-0.37797666,-0.328841,0.060051348,3.077056,-0.6260319,-8.410666e-05,-0.06840856,-0.009280551,0.0006033536,-0.02137074,0.0061204503,-0.005655248,0.4438359,-1.4622328,1.9998811,-2.107919,-1.5693597,2.4196672,-0.054947954,0.12031978,-0.13408588,-0.00094039977,0.016431317,-0.049203742,-0.24899697,0.30645782,-9.653421,0.7553206,47.68599,-1.086189,-1.7451801,-3.4111266,-0.5628792,0.20483804,-0.43056786,25.8125,26.6875,25.8125,28.625,29.5,29.9375
0.15005232,-1.7736053,-1.2861882,-0.98972815,-0.020680113,0.030479522,-0.13719629,-0.37810305,-0.3288391,0.060035884,3.0770693,-0.62601477,-9.3967144e-05,-0.06928087,-0.00887437,-0.0002407494,-0.020943902,0.004535077,-0.0047980137,0.44372723,-1.4619925,1.9996537,-2.107931,-1.5693716,2.4195464,-0.05666107,0.12323344,-0.13540728,-0.00091441994,0.01672763,-0.05177311,-0.36391866,0.40222588,-9.519346,0.80679786,47.666286,-1.137777,-1.6369545,-3.3685122,-0.55488276,0.22577442,-0.41565907,25.8125,26.6875,25.8125,28.625,29.5,29.9375
0.15205319,-1.9120195,-1.2976311,-0.77099204,-0.015608445,0.036456693,-0.1392962,-0.37825882,-0.32886636,0.060056534,3.0770319,-0.6259291,-0.00017330448,-0.07052285,-0.008597209,8.223213e-05,-0.021348843,0.005288944,-0.0035847188,0.44363075,-1.4617527,1.9993414,-2.107931,-1.5693597,2.4194014,-0.05829013,0.124039285,-0.13706519,-0.00091163727,0.016774148,-0.05461326,-0.38307226,0.34476504,-9.442732,0.779936,47.661808,-1.1308625,-1.6927828,-3.4262633,-0.5506018,0.22691822,-0.3900827,25.8125,26.6875,25.8125,28.625,29.5,29.9375
0.1540525,-2.046931,-1.2642235,-0.5102221,-0.007778302,0.040829442,-0.13976993,-0.37841246,-0.32890603,0.060059324,3.0769277,-0.6258866,-0.0001825563,-0.072074935,-0.0096688755,0.00015651115,-0.022671565,0.005252954,-0.0003926006,0.4435108,-1.4614878,1.9990534,-2.107979,-1.5692753,2.4192684,-0.0584566,0.1277095,-0.14133872,-0.0008368975,0.0179846,-0.05796815,-0.47884035,0.2681506,-9.481039,0.82022345,47.70211,-1.1558564,-1.8116815,-3.237914,-0.5616796,0.22437468,-0.37595552,25.8125,26.6875,25.8125,28.625,29.5,29.9375
0.15605207,-2.0182574,-0.7241678,-0.5147523,-0.007798197,0.039254986,-0.1432948,-0.37858212,-0.32891396,0.06007673,3.0769048,-0.6258419,-0.00031018376,-0.07331148,-0.009580755,0.0004654571,-0.023330396,0.006661292,0.0017022371,0.4433903,-1.461248,1.9987539,-2.108003,-1.5692996,2.4191232,-0.05968812,0.12841254,-0.1426321,-0.0017964557,0.01798106,-0.06129196,-0.49799395,0.21068975,-9.423578,0.7911258,47.664497,-1.1489551,-1.7691209,-3.4973094,-0.5584579,0.2283039,-0.33491072,25.8125,26.6875,25.8125,28.625,29.5,29.9375
0.1580522,-2.3890953,-0.74142253,-0.4614873,0.0048159254,0.03332709,-0.1370299,-0.3787063,-0.32893935,0.060071312,3.0768425,-0.6258479,-0.00021339588,-0.07451879,-0.009604439,-0.00021113359,-0.023227911,0.0066700405,0.0032648486,0.44327012,-1.4609954,1.9984788,-2.1079671,-1.5692152,2.4190147,-0.060625512,0.13148873,-0.14417611,-0.0032815482,0.017882016,-0.06379046,-0.36391866,0.1340753,-9.308656,0.78888994,47.682407,-1.0972669,-1.7666093,-3.3811345,-0.53613096,0.2350544,-0.31460634,25.8125,26.6875,25.8125,28.625,29.5,29.9375
0.1600523,-1.644091,-0.32595998,-0.37899053,0.008137125,0.0407729,-0.14768907,-0.37885997,-0.32897428,0.060081292,3.0767896,-0.6257779,-0.00025500878,-0.07572564,-0.009904303,-0.0002115189,-0.02421655,0.006935887,0.004723125,0.44317377,-1.4607314,1.9981669,-2.10798,-1.5691789,2.4188817,-0.061635505,0.13349797,-0.14630593,-0.0038204724,0.018663775,-0.06625623,-0.4405331,0.15322891,-9.3661175,0.8717007,47.670765,-1.1568395,-1.7102659,-3.3583608,-0.52816147,0.23899314,-0.26772568,25.8125,26.6875,25.8125,28.625,29.5,29.9375
0.16205248,-1.8474284,-0.4099098,-0.24364242,0.021440957,0.023753785,-0.13594535,-0.37900323,-0.32897604,0.06006504,3.0767298,-0.6258803,-0.00020885175,-0.07699419,-0.009866879,-0.00013331535,-0.02409753,0.0070249275,0.006228496,0.44301727,-1.4604671,1.9979142,-2.107991,-1.5691313,2.4187968,-0.06270286,0.13556316,-0.14892647,-0.0032842963,0.01851937,-0.06882732,-0.28730422,0.19153613,-9.2703495,0.84484416,47.684196,-1.1171242,-1.9189022,-3.3759964,-0.52118474,0.25354397,-0.22857794,25.8125,26.6875,25.8125,28.625,29.5,29.9375
0.16405258,-1.4584976,-0.4870172,-0.10180167,0.021605184,0.026221082,-0.13595046,-0.37919322,-0.3290218,0.06010362,3.0766194,-0.625781,-0.0002867621,-0.07677343,-0.009043593,-0.0029244213,-0.021489456,0.0014770547,0.0058301217,0.44288492,-1.4602013,1.9975318,-2.107991,-1.5690593,2.4186168,-0.06402532,0.14123139,-0.14896053,-0.0027794365,0.01855294,-0.06974858,-0.4405331,0.11492168,-9.251195,0.80679786,47.687782,-1.0540992,-1.9482211,-3.3005683,-0.5265331,0.26405448,-0.18948057,25.8125,26.6875,25.8125,28.625,29.5,29.9375
0.16605166,-1.3072282,-0.03706335,-0.14319618,0.014556443,0.025893431,-0.15323724,-0.379337,-0.32902405,0.060090095,3.076623,-0.6257432,-0.00026189396,-0.078843035,-0.00945395,-0.0010861065,-0.023219796,0.004876455,0.005212653,0.4427526,-1.4599261,1.9972557,-2.1079795,-1.5690469,2.4184606,-0.06513473,0.14076163,-0.1527984,-0.0022810115,0.018654289,-0.07023881,-0.4213795,0.17238252,-9.251195,0.784413,47.681515,-1.098231,-1.9077194,-3.2685175,-0.520251,0.26070035,-0.18763348,25.8125,26.6875,25.8125,28.625,29.5,29.9375
0.16805167,-1.3893785,-0.41239578,-0.010803469,0.00724123,0.028208546,-0.14921159,-0.37950006,-0.32903725,0.06008667,3.0765703,-0.62579066,-0.00025666718,-0.07921122,-0.0091853,-0.0013748254,-0.022776335,0.0041588577,0.003860502,0.44260833,-1.4596384,1.9969448,-2.107979,-1.5690116,2.4183528,-0.06586234,0.14189255,-0.15353006,-0.0018372675,0.018563135,-0.06961346,-0.38307226,0.15322891,-9.232041,0.800085,47.696735,-1.083402,-1.8710805,-3.4320307,-0.5316893,0.27108714,-0.1361317,25.8125,26.6875,25.8125,28.625,29.5,29.9375
0.17005183,-1.7405428,-0.3881233,0.06823133,-0.013870562,0.02354997,-0.14516917,-0.37965786,-0.32907408,0.06008268,3.0765526,-0.6256915,-0.00033101471,-0.079648726,-0.009522049,-0.0016305455,-0.023292499,0.003465673,0.0024233279,0.44253615,-1.4593382,1.9966325,-2.1080267,-1.5690111,2.4182212,-0.066104986,0.14357977,-0.15486485,-0.0017874698,0.019327126,-0.06841694,-0.36391866,0.15322891,-9.136273,0.76874626,47.64389,-1.0864148,-1.8547754,-3.3458524,-0.5370719,0.28031528,-0.14884779,25.8125,26.6875,25.8125,28.625,29.5,29.9375
0.17205215,-1.4966719,-0.76467675,0.097062245,-0.0043498324,0.026073176,-0.14696918,-0.37985805,-0.32909212,0.06011025,3.0764377,-0.6257108,-0.00036674566,-0.082175575,-0.008521265,-0.00084830663,-0.024673859,0.004772338,-0.0043642516,0.4423428,-1.4590627,1.9962615,-2.1080148,-1.5689381,2.4180548,-0.070622966,0.14426656,-0.15748887,-0.0016197461,0.02001582,-0.066144235,-0.34476504,0.1340753,-9.155427,0.83589023,47.65106,-1.0643368,-1.7727026,-3.3260882,-0.5129473,0.2975886,-0.15533343,25.8125,26.6875,25.8125,28.625,29.5,29.9375
0.17405224,-1.3635508,-0.64756835,0.017049504,0.00050824886,0.025909953,-0.1450692,-0.3800045,-0.3291085,0.060096648,3.076389,-0.6257564,-0.00032137928,-0.082604975,-0.009553214,-0.00059146265,-0.025139749,0.0054208646,-0.0030382664,0.44221118,-1.4587746,1.9959735,-2.1080148,-1.5688905,2.417958,-0.06913821,0.14574197,-0.15975241,-0.0016120445,0.020156236,-0.065984026,-0.38307226,0.21068975,-9.155427,0.86498255,47.683304,-0.9743692,-1.8201375,-3.3242655,-0.5262158,0.28974268,-0.15359508,25.8125,26.6875,25.8125,28.625,29.5,29.9375
0.17605253,-1.1445956,-0.5634591,-0.0023025712,0.011837124,0.020626351,-0.14980365,-0.38015732,-0.32911894,0.060092323,3.0763593,-0.62577343,-0.00031225974,-0.083445184,-0.009406142,-0.0010367859,-0.025317296,0.0044480395,-0.009402468,0.44207877,-1.4584984,1.9956745,-2.108003,-1.5688666,2.4178402,-0.07050054,0.14792722,-0.1612091,-0.0015433602,0.020725222,-0.060980838,-0.28730422,0.21068975,-9.136273,0.83813137,47.691364,-1.0910285,-1.7538266,-3.3703465,-0.5284077,0.2919485,-0.1867533,25.8125,26.6875,25.8125,28.625,29.5,29.9375
0.17805174,-0.6721429,0.32350034,-0.005324208,0.01241151,0.013382916,-0.15622266,-0.38033858,-0.32915345,0.06009323,3.076281,-0.6257225,-0.00030141245,-0.08500844,-0.008338555,-0.0020611326,-0.025574984,0.0022056135,-0.016357737,0.44193324,-1.4581738,1.9953154,-2.1080148,-1.5687937,2.417673,-0.074625276,0.15128122,-0.16262141,-0.0015699707,0.021914713,-0.058148015,-0.22984336,0.24899697,-9.11712,0.8605109,47.698532,-0.9480506,-1.8550147,-3.4219313,-0.51374584,0.27567244,-0.23674384,25.8125,26.6875,25.8125,28.625,29.5,29.9375
0.18005182,-1.0896574,-0.570413,-0.08541963,0.022996172,0.002237582,-0.14300083,-0.38052,-0.3291435,0.0600836,3.0762644,-0.6258334,-0.00038318604,-0.08650822,-0.009730981,0.0010446045,-0.028730553,0.008254989,-0.016031064,0.4417779,-1.4578756,1.995015,-2.1080506,-1.5688299,2.4175894,-0.07348824,0.1478375,-0.16593677,-0.0016296096,0.022176644,-0.057335522,-0.15322891,0.21068975,-9.232041,0.7396539,47.679718,-0.8772227,-1.6664791,-3.4494805,-0.51733315,0.3012272,-0.2581986,25.8125,26.6875,25.8125,28.625,29.5,29.9375
0.1820518,-1.1520648,-0.76506567,-0.21785247,0.011909709,0.0066197957,-0.13759884,-0.38069537,-0.32917526,0.06009586,3.0761724,-0.6258153,-0.00038957282,-0.08686614,-0.008996877,0.0006292579,-0.028113041,0.0075717615,-0.016480584,0.4416333,-1.4575878,1.9946679,-2.1080506,-1.5687579,2.4174454,-0.07495182,0.14848085,-0.16575427,-0.0015636901,0.021918809,-0.058348447,-0.17238252,0.22984336,-9.308657,0.8090337,47.692257,-0.9473995,-1.6738096,-3.4499106,-0.5123477,0.3128762,-0.25307423,25.8125,26.6875,25.8125,28.625,29.5,29.9375
0.18405184,-1.1124805,-0.9583255,-0.44118175,-0.00035235303,0.013704553,-0.1401962,-0.3808599,-0.3291717,0.06008291,3.0761278,-0.625866,-0.0003022545,-0.0883454,-0.008685841,6.327141e-05,-0.028022857,0.0065246383,-0.02036762,0.44144058,-1.4572873,1.994356,-2.1080148,-1.5686978,2.4172902,-0.07703142,0.151848,-0.16826856,-0.0014281111,0.022278842,-0.056539655,-0.19153613,0.19153613,-9.270349,0.79560274,47.694054,-0.75489736,-1.5726994,-3.3838139,-0.50317997,0.30466953,-0.28184924,25.8125,26.6875,25.8125,28.625,29.5,29.9375
0.1860523,-1.3630884,-0.79910386,-0.48673874,-0.0086008245,0.014409064,-0.1443918,-0.38104388,-0.32918185,0.06007184,3.0760622,-0.62600505,-0.0002822503,-0.08938873,-0.008732986,-6.96104e-06,-0.028591283,0.006003885,-0.020493219,0.44127226,-1.4569513,1.9940084,-2.1080148,-1.5686616,2.4172173,-0.0783087,0.15382127,-0.17044574,-0.0009907375,0.023017071,-0.057689648,-0.21068975,0.22984336,-9.346964,0.8179876,47.664497,-0.76600134,-1.6370122,-3.443441,-0.51232064,0.3020909,-0.30282772,25.8125,26.6875,25.8125,28.625,29.5,29.9375
0.1880524,-1.3938265,-0.94862866,-0.6491193,0.00048220198,0.017116334,-0.14843382,-0.38122594,-0.32921273,0.060073867,3.0759902,-0.6260472,-0.0002538358,-0.09008204,-0.009165196,0.00034005847,-0.029322186,0.0065345285,-0.019244848,0.4411283,-1.4566158,1.993626,-2.1079905,-1.5686015,2.417109,-0.07835951,0.15467332,-0.17227788,-0.00079476816,0.023453925,-0.058987226,-0.15322891,0.22984336,-9.423578,0.7911258,47.711964,-0.7737282,-1.5399351,-3.4521024,-0.50552297,0.29697165,-0.3046677,25.8125,26.6875,25.8125,28.625,29.5,29.9375
0.19005269,-1.278917,-0.93506384,-0.8200263,0.0040597473,0.022416336,-0.14039418,-0.38139436,-0.3292167,0.060072128,3.0759385,-0.62609655,-0.00027600685,-0.09146469,-0.0075609502,-5.3411426e-05,-0.029183172,0.0056704013,-0.022887442,0.44097075,-1.4563401,1.9933265,-2.1080024,-1.5685776,2.416989,-0.08268168,0.15564184,-0.1725209,-0.000673855,0.0237029,-0.059665762,-0.3256114,0.17238252,-9.442732,0.7284641,47.687782,-0.6101252,-1.6586424,-3.469817,-0.50909364,0.3356777,-0.31237048,25.8125,26.6875,25.8125,28.625,29.5,29.9375
0.19205163,-1.5846045,-0.5602174,-0.8786528,-0.0011397845,0.02043687,-0.14635491,-0.38156906,-0.32922077,0.06005962,3.0759223,-0.62613,-0.0002614849,-0.091726646,-0.008974305,-0.0007499131,-0.028917417,0.0045225127,-0.020482922,0.4408155,-1.4560145,1.9929909,-2.10799,-1.5685652,2.416857,-0.08040153,0.15977062,-0.1755824,-0.0005857624,0.023948768,-0.059787877,-0.22984336,0.2681506,-9.5385,0.7553206,47.716442,-0.7797511,-1.7437017,-3.437763,-0.5194949,0.32862514,-0.32353973,25.8125,26.6875,25.8125,28.625,29.5,29.9375
0.19405174,-1.349743,-0.79344296,-1.2871557,-0.00749915,0.02768879,-0.14713563,-0.38173896,-0.32926247,0.060057204,3.0757904,-0.62620026,-0.00021950077,-0.09313911,-0.008505297,-0.0014857854,-0.02839054,0.0033401242,-0.02301786,0.44067097,-1.4557022,1.9926552,-2.1080143,-1.5684575,2.4167733,-0.082489416,0.16325197,-0.17782824,-0.00051815336,0.023976324,-0.059337992,-0.19153614,0.2681506,-9.710882,0.7866488,47.698532,-0.7249264,-1.7249609,-3.5271554,-0.5146923,0.3366627,-0.34422147,25.8125,26.6875,25.8125,28.625,29.5,29.9375
0.19605187,-1.7311763,-1.3024218,-1.0902494,-0.027799577,0.039646402,-0.14219552,-0.38193676,-0.32926142,0.060044657,3.0757425,-0.62630475,-0.00020911354,-0.094001114,-0.0079135895,-0.0026681037,-0.027936405,0.0009393386,-0.02277139,0.44047803,-1.4553537,1.9922966,-2.1080143,-1.5684332,2.416652,-0.08470303,0.16669896,-0.17904061,-0.00037841196,0.024594646,-0.061796606,-0.36391866,0.2681506,-9.80665,0.8560339,47.698532,-0.5072977,-1.8438771,-3.564362,-0.52337235,0.3265251,-0.34560746,25.8125,26.6875,25.8125,28.625,29.5,29.9375
0.19805191,-2.4199314,-1.9131165,-1.0984865,-0.026595289,0.031524144,-0.13732651,-0.38214666,-0.32929274,0.06006541,3.0756347,-0.6263395,-0.00025730507,-0.0941909,-0.009257461,-0.0027548326,-0.028380407,0.0008242841,-0.020862408,0.44031093,-1.4550295,1.9918889,-2.1080143,-1.5683731,2.4165206,-0.0826154,0.16902883,-0.18149091,-0.00033726665,0.025047118,-0.06161413,-0.30645782,0.24899697,-9.921572,0.82694155,47.716442,-0.73891926,-1.8796461,-3.5235348,-0.51955974,0.3323321,-0.35191143,25.8125,26.6875,25.8125,28.625,29.5,29.9375
0.20005172,-2.32812,-2.0087922,-1.066637,-0.03562701,0.037899975,-0.13753082,-0.38230404,-0.32930508,0.060044464,3.0756147,-0.6263355,-0.00014052457,-0.09518338,-0.009455245,-0.0027084274,-0.028970674,0.00085587124,-0.020721594,0.44015458,-1.4546936,1.9915522,-2.1079662,-1.5683125,2.4163644,-0.08341772,0.17072782,-0.18356279,-0.0002365075,0.025564179,-0.06255701,-0.30645782,0.2873042,-9.80665,0.900793,47.694054,-0.7191597,-1.977291,-3.5135622,-0.5183218,0.34140116,-0.38745838,25.8125,26.6875,25.8125,28.625,29.5,29.9375
0.20205182,-2.4535043,-1.5777235,-0.9235466,-0.032221165,0.020052148,-0.13729657,-0.3825216,-0.32931796,0.06006242,3.0755045,-0.626445,-0.00022490486,-0.09585653,-0.010060441,-0.0025730678,-0.029535558,0.0011714493,-0.016955717,0.43996266,-1.4543816,1.9911698,-2.10799,-1.5682763,2.4162552,-0.08307958,0.1722612,-0.18563202,-0.00021312323,0.025951281,-0.06598092,-0.30645782,0.22984336,-9.710882,0.8090337,47.667187,-0.8096032,-1.8632467,-3.5305037,-0.52997774,0.34415925,-0.37145847,25.8125,26.6875,25.8125,28.625,29.5,29.9375
0.20405187,-1.781124,-1.1910336,-0.7148122,-0.017131686,0.024771683,-0.13657628,-0.38269386,-0.3293459,0.060049787,3.0754743,-0.6263965,-0.00018164396,-0.097135745,-0.01094777,-0.0023536638,-0.029647045,0.0021422156,-0.011889669,0.439831,-1.4540335,1.9908088,-2.1079786,-1.5682286,2.4160974,-0.08230233,0.1750517,-0.18928547,-0.00025833843,0.025640776,-0.070267454,-0.24899697,0.24899697,-9.5385,0.89631605,47.696735,-0.82618904,-1.8466089,-3.346324,-0.5189389,0.36536747,-0.32793468,25.8125,26.6875,25.8125,28.625,29.5,29.9375
0.20605212,-1.5493343,-1.0045456,-0.8975731,0.0024804755,0.005160857,-0.1431051,-0.38293022,-0.32935482,0.06007329,3.0753512,-0.6265249,-0.00028344407,-0.09871196,-0.011950414,-0.00034693358,-0.032427736,0.00573627,-0.011914674,0.43961507,-1.4537104,1.9904011,-2.1080024,-1.5681919,2.4159777,-0.08241253,0.17387715,-0.19263941,-0.00016076965,0.02663142,-0.07034782,-0.22984336,0.36391866,-9.461885,0.7396539,47.67345,-0.9038298,-1.7938368,-3.4224966,-0.52541786,0.3444941,-0.33943808,25.8125,26.6875,25.8125,28.625,29.5,29.9375
0.20805208,-1.6088133,-0.8624389,-0.9711619,0.004663526,-0.014079398,-0.14355686,-0.3831214,-0.32940894,0.06006651,3.075292,-0.62643254,-0.00028473098,-0.09814137,-0.01226748,-0.0014594131,-0.032499935,0.0031566408,-0.0072241058,0.4395073,-1.4533265,1.9899949,-2.1080263,-1.5681318,2.4158201,-0.08205683,0.17594075,-0.19247408,-7.256859e-05,0.027808942,-0.074680775,-0.17238252,0.40222588,-9.423578,0.7866488,47.687782,-0.9537652,-1.8392183,-3.4058647,-0.5305367,0.3473391,-0.3029004,25.8125,26.6875,25.8125,28.625,29.5,29.9375
0.21005218,-1.193408,-1.3428634,-0.8632028,-0.004176705,-0.0016857539,-0.14344916,-0.3832975,-0.32940802,0.060052607,3.0752754,-0.6264087,-0.00023444649,-0.09890599,-0.0122901015,-0.0017836267,-0.032679465,0.0025706145,-0.0042976784,0.439327,-1.4530022,1.9896601,-2.1080024,-1.568096,2.4156272,-0.08290795,0.17792772,-0.19400154,-6.2543295e-05,0.028227,-0.07845745,-0.076614454,0.3256114,-9.442732,0.87393653,47.67793,-0.9967485,-1.8495326,-3.4769611,-0.50878954,0.36160046,-0.25167575,25.8125,26.6875,25.8125,28.625,29.5,29.9375
0.21205215,-1.0576059,-1.4906912,-0.6895493,-0.02248086,-0.0012359752,-0.14159493,-0.38351554,-0.3294249,0.060054485,3.0752084,-0.6264307,-0.00023560422,-0.100743696,-0.012602392,-0.00041059367,-0.03388445,0.0055618696,-0.0013764934,0.4391347,-1.4526309,1.9892396,-2.10799,-1.5680479,2.4154575,-0.08375665,0.17795025,-0.19722883,-5.8171292e-05,0.028052699,-0.082224764,-0.095768064,0.34476504,-9.423578,0.784413,47.686886,-1.0393133,-1.7842988,-3.392713,-0.5202583,0.3542872,-0.19036643,25.8125,26.6875,25.8125,28.625,29.5,29.9375
0.21405232,-1.3272594,-1.6055841,-0.56488466,-0.027873112,-0.008546832,-0.13714592,-0.38370523,-0.3294604,0.06006072,3.0751104,-0.62639046,-0.00023285535,-0.1024914,-0.012702877,0.0009716378,-0.034878593,0.008613005,0.00040498588,0.43897825,-1.4523076,1.9888681,-2.1080024,-1.567964,2.4152887,-0.08478353,0.17754892,-0.19999538,-5.4617583e-05,0.027663779,-0.08503037,0.019153614,0.28730422,-9.270349,0.84484416,47.694054,-1.0171517,-1.69087,-3.4568396,-0.5039753,0.35262537,-0.13184518,25.8125,26.6875,25.8125,28.625,29.5,29.9375
0.2160525,-1.2725854,-1.1779549,-0.3698183,-0.01767616,-0.022142837,-0.143177,-0.38392758,-0.32949665,0.060064163,3.0750177,-0.62638974,-0.00026397736,-0.102835126,-0.012931755,0.00045025995,-0.035621587,0.0072661294,0.0016331536,0.4388101,-1.4519237,1.988438,-2.1080263,-1.5679034,2.4151323,-0.08542922,0.1794654,-0.20100108,-5.148996e-05,0.02892025,-0.08690072,0.095768064,0.30645782,-9.174581,0.842603,47.73256,-0.96780944,-1.6358562,-3.4814646,-0.5022494,0.36256307,-0.09171202,25.8125,26.6875,25.8125,28.625,29.5,29.9375
0.21805169,-0.719696,-1.0756326,-0.5456598,0.0062639536,-0.033124235,-0.14183107,-0.38414988,-0.3295307,0.06006736,3.074932,-0.6263336,-0.00027154386,-0.10370985,-0.013585282,0.00038336415,-0.03774344,0.0064658774,0.0002578027,0.43862984,-1.4515398,1.9880055,-2.1080382,-1.5678304,2.4149282,-0.08641971,0.18150982,-0.2031772,-9.404271e-05,0.031184597,-0.08651098,0.038307227,0.3256114,-9.136273,0.7284641,47.66987,-1.004415,-1.5397243,-3.472237,-0.49675328,0.32220367,-0.06297863,25.8125,26.6875,25.8125,28.625,29.5,29.9375
0.22005259,-0.25828454,-0.6221535,-0.54623425,0.017977946,-0.034819458,-0.14387526,-0.38435933,-0.3295518,0.060055435,3.0748749,-0.6263612,-0.00028277645,-0.10469113,-0.014280445,0.0007864396,-0.039029494,0.0071252696,-0.0015619406,0.43846172,-1.4511558,1.9876102,-2.1080625,-1.5677947,2.414785,-0.08651133,0.18288505,-0.20569682,-9.21833e-05,0.032066442,-0.08477957,0.1340753,0.24899697,-9.174581,0.8291774,47.73077,-1.0290296,-1.5831919,-3.4232988,-0.49082613,0.33855122,-0.04961045,25.8125,26.6875,25.8125,28.625,29.5,29.9375
0.22205254,-0.4294666,-0.15210345,-0.6214153,0.019389931,-0.042326316,-0.14246507,-0.38456073,-0.32956934,0.060055207,3.0747817,-0.6263833,-0.00027345092,-0.10576723,-0.015252106,0.0015713169,-0.04157227,0.008067532,-0.004843648,0.43826953,-1.4508202,1.9872392,-2.108074,-1.5677217,2.4146187,-0.08684442,0.18367982,-0.20843098,-8.787508e-05,0.033964682,-0.081826314,0.17238252,0.28730422,-9.251195,0.800085,47.693153,-1.0316705,-1.5256567,-3.4179397,-0.4880819,0.32677948,-0.060931418,25.8125,26.6875,25.8125,28.625,29.5,29.9375
0.22405267,-0.7839696,-0.82255995,-0.7739322,0.019883914,-0.03687072,-0.13437694,-0.3847935,-0.32961416,0.060103416,3.0746534,-0.6263593,-0.0003565324,-0.107970156,-0.015258246,0.0018102593,-0.043186177,0.00831492,-0.010387467,0.43810087,-1.4504958,1.9867591,-2.1080382,-1.5676492,2.4144518,-0.08958579,0.18642345,-0.21208867,-8.3795865e-05,0.035320535,-0.07901614,0.15322891,0.28730422,-9.289502,0.8940802,47.677036,-1.0220851,-1.5738881,-3.382555,-0.47061646,0.2690354,-0.070797145,25.8125,26.6875,25.8125,28.625,29.5,29.9375
0.22605185,-1.2314498,-1.452219,-0.63910264,-7.6632976e-05,-0.01971439,-0.13511074,-0.38498852,-0.32965702,0.060093652,3.074568,-0.62632215,-0.0002940291,-0.107800916,-0.016379124,0.00077559607,-0.042064592,0.0067742676,-0.0110714305,0.4379458,-1.4501113,1.9863523,-2.1080382,-1.5675529,2.4142847,-0.087057,0.19032189,-0.21415238,-4.2769785e-05,0.0349516,-0.075801395,0.095768064,0.30645782,-9.308657,0.8314132,47.7245,-1.1191324,-1.6087747,-3.4182014,-0.48158488,0.26854125,-0.12114073,25.8125,26.6875,25.8125,28.625,29.5,29.9375
0.22805195,-1.353083,-1.2756889,-0.6072161,-0.034182724,0.006434431,-0.14425722,-0.38518247,-0.3296765,0.060068082,3.0745227,-0.6263725,-0.00017903573,-0.10815372,-0.015879171,-0.0006663405,-0.04077498,0.0042355587,-0.014818042,0.4377653,-1.4497023,1.985946,-2.1080024,-1.5674819,2.4141417,-0.08815978,0.1937635,-0.21478394,-2.7925614e-06,0.03485346,-0.07315829,-0.095768064,0.38307226,-9.385271,0.98135734,47.71465,-1.1893389,-1.8994424,-3.3512664,-0.47424078,0.24875858,-0.16356511,25.8125,26.6875,25.8125,28.625,29.5,29.9375
0.230052,-1.9721107,-2.0582082,-0.5235531,-0.03280852,0.009105979,-0.13909675,-0.38537574,-0.32970724,0.060062964,3.0744748,-0.6263654,-0.00014925406,-0.1098581,-0.01629807,8.755393e-05,-0.04314528,0.00523955,-0.018850477,0.43762055,-1.4493308,1.9855374,-2.1079786,-1.5674323,2.4139988,-0.0899452,0.19490594,-0.21784735,-1.8233433e-07,0.036566857,-0.070907414,-0.11492168,0.4213795,-9.481039,0.7620334,47.683304,-1.0301113,-1.8648689,-3.2719786,-0.4741773,0.25414103,-0.184068,25.8125,26.6875,25.8125,28.625,29.5,29.9375
0.23205204,-1.6851107,-1.9968762,-0.85728824,-0.041925464,0.022106096,-0.14370126,-0.38559413,-0.32971522,0.060042437,3.0744119,-0.6264285,-9.406678e-05,-0.11087726,-0.017451843,0.0008063646,-0.04506267,0.006398047,-0.01967866,0.43740502,-1.4489238,1.9851297,-2.1079786,-1.5673722,2.413831,-0.08944392,0.19612828,-0.22092797,-1.1905129e-08,0.03780812,-0.069575004,-0.22984336,0.49799395,-9.500193,0.8627467,47.70032,-1.1833,-1.675694,-3.2833607,-0.464987,0.21697481,-0.22250573,25.8125,26.6875,25.8125,28.625,29.5,29.9375
0.23405209,-2.1032221,-2.0874844,-0.9552709,-0.03159887,0.010414621,-0.1359839,-0.38582218,-0.32975948,0.060072772,3.074249,-0.6264909,-0.00015115709,-0.1105691,-0.016990632,-0.00039499512,-0.04402569,0.0026843857,-0.020684933,0.43722466,-1.4485875,1.9846872,-2.107989,-1.5672764,2.4137108,-0.09038354,0.19859006,-0.2214129,0.001837561,0.038456675,-0.06950322,-0.22984336,0.63206923,-9.595961,0.81351066,47.705692,-1.1561066,-1.611984,-3.3232727,-0.48608166,0.1838384,-0.2686904,25.8125,26.6875,25.8125,28.625,29.5,29.9375
0.23605216,-1.7722886,-1.8106489,-1.0214999,-0.03810308,0.022889001,-0.14276582,-0.38603184,-0.32979327,0.060042337,3.0741906,-0.62655586,-5.242046e-05,-0.110394254,-0.016737439,-0.0009062614,-0.043974753,0.001650715,-0.02106215,0.43705648,-1.448132,1.9842452,-2.107978,-1.5672039,2.413591,-0.09089058,0.19905773,-0.22083467,0.0017603472,0.0388512,-0.06963401,-0.34476507,0.51714754,-9.500193,0.8493211,47.696735,-1.1420782,-1.6025982,-3.4719033,-0.4731319,0.1586428,-0.25576115,25.8125,26.6875,25.8125,28.625,29.5,29.9375
0.23805228,-1.9489938,-1.8487695,-0.6687498,-0.038496118,0.029935535,-0.14794455,-0.3862737,-0.3298305,0.06005801,3.0740898,-0.62655747,-0.000100675694,-0.112407535,-0.01563299,-0.0013125519,-0.044349004,0.0015605262,-0.026760224,0.43687508,-1.4477363,1.9837669,-2.1079786,-1.5671438,2.4134238,-0.094851464,0.20134002,-0.2223342,0.00090497785,0.0392281,-0.06789196,-0.49799395,0.45968673,-9.500193,0.9567419,47.7451,-1.0633135,-1.6487756,-3.5859604,-0.46645364,0.14299446,-0.30999312,25.8125,26.6875,25.8125,28.625,29.5,29.9375
0.24005242,-2.100715,-1.689323,-0.8620379,-0.024526214,0.036249023,-0.14057936,-0.38647926,-0.3298627,0.060039315,3.073969,-0.6266458,-2.760013e-05,-0.11188316,-0.016866071,-0.0017430739,-0.04429621,0.0011441127,-0.023630422,0.43668425,-1.44734,1.9833721,-2.1080024,-1.5670356,2.4133039,-0.09213157,0.20303755,-0.22323582,0.00052462757,0.039359942,-0.068300195,-0.4405331,0.51714754,-9.423578,0.8717007,47.713753,-1.2263302,-1.6305991,-3.6819296,-0.4673214,0.1224768,-0.34162182,25.8125,26.6875,25.8125,28.625,29.5,29.9375
0.24205245,-1.7883558,-1.2560672,-0.6964338,-0.013644594,0.050364677,-0.14340799,-0.38670644,-0.3299143,0.060053166,3.0738316,-0.62665665,8.6535165e-06,-0.11351392,-0.015748616,-0.00208311,-0.044330154,0.0006014012,-0.026280874,0.43650293,-1.4469442,1.9828924,-2.1079786,-1.5669159,2.4131472,-0.0957084,0.20489764,-0.22461629,0.0005402883,0.039627325,-0.06922306,-0.5554548,0.38307226,-9.442732,0.87617236,47.65106,-1.2233336,-1.6767795,-3.6755512,-0.46040058,0.118710354,-0.34432447,25.8125,26.6875,25.8125,28.625,29.5,29.9375
0.2440525,-2.0941648,-0.4806741,-0.45348647,-0.0062918346,0.04471302,-0.14898638,-0.38693732,-0.3299623,0.060058974,3.0737042,-0.62672764,-1.232863e-06,-0.114211746,-0.016694536,-0.002243846,-0.04466054,0.00053151575,-0.028582513,0.43633536,-1.4465362,1.9824251,-2.10799,-1.5668315,2.4130406,-0.09470413,0.20761721,-0.22735713,0.00048434,0.03994919,-0.06591217,-0.47884035,0.22984336,-9.3661175,0.8784135,47.668976,-1.1093023,-1.6603767,-3.659772,-0.44990975,0.079048306,-0.42030147,25.8125,26.6875,25.8125,28.625,29.5,29.9375
0.24605206,-2.166615,-0.33141086,-0.47352305,0.025405787,0.035419878,-0.1375499,-0.38719532,-0.32998496,0.06006432,3.0735755,-0.6268556,-2.5637102e-05,-0.11675847,-0.016141696,-0.00131948,-0.04485938,0.0031020343,-0.02978863,0.43610644,-1.4461161,1.9819454,-2.1080024,-1.5667604,2.4129086,-0.0972418,0.20880404,-0.23086405,0.00041276123,0.03904879,-0.06724021,-0.5363012,0.19153613,-9.346964,0.91421866,47.660015,-1.1365045,-1.6893337,-3.5700202,-0.42731392,0.056997158,-0.44520217,25.8125,26.6875,25.8125,28.625,29.5,29.9375
0.24805215,-1.6288143,0.36461866,-0.36053702,0.030440107,0.052844647,-0.14396736,-0.38743007,-0.33002338,0.06005846,3.0734904,-0.6268368,-1.8011993e-05,-0.11844203,-0.016072063,-0.0013092493,-0.044826526,0.0036555901,-0.027791042,0.435926,-1.4456844,1.9814781,-2.1080143,-1.566688,2.4127276,-0.09857882,0.21139497,-0.2338623,0.00035802854,0.038795378,-0.070571534,-0.51714754,0.076614454,-9.32781,0.8157518,47.703007,-1.0102376,-1.6469784,-3.5573297,-0.41052395,0.04223106,-0.4666949,25.8125,26.6875,25.8125,28.625,29.5,29.9375
0.25005236,-1.8650715,-0.08108318,-0.3559604,0.0428656,0.05530772,-0.13981372,-0.3876864,-0.33004558,0.060066532,3.0733724,-0.6269446,-2.6322346e-05,-0.12053303,-0.01572909,-0.00083408307,-0.04456057,0.0053075976,-0.026723528,0.43569747,-1.4452645,1.9809865,-2.1080024,-1.5666159,2.412582,-0.10031131,0.21329992,-0.23717974,0.0004135798,0.037867524,-0.07336877,-0.40222588,-0.076614454,-9.32781,0.8493211,47.66808,-1.0004457,-1.576375,-3.5133865,-0.4113958,0.024953038,-0.46865568,25.8125,26.6875,25.8125,28.625,29.5,29.9375
0.25205252,-2.0297167,-0.075805776,-0.3448741,0.042676445,0.05053855,-0.14020261,-0.38791928,-0.3300692,0.06004744,3.0732765,-0.62701786,-5.483381e-06,-0.12332287,-0.015562033,0.001508595,-0.045620803,0.010768712,-0.022115609,0.43549272,-1.4448335,1.9805554,-2.1080382,-1.5665449,2.4124355,-0.10206485,0.21197702,-0.241113,0.0003145521,0.03654267,-0.07972925,-0.4213795,-0.038307227,-9.308657,0.92093146,47.67793,-0.93303925,-1.5601866,-3.471264,-0.39928496,0.031157635,-0.42765245,25.8125,26.6875,25.8125,28.625,29.5,29.9375
0.25405255,-1.8969754,0.13037509,-0.13921751,0.038513027,0.05668362,-0.14429058,-0.38814595,-0.33010104,0.060038738,3.073217,-0.6270057,8.7664106e-05,-0.12523918,-0.014730868,0.0012188102,-0.044305168,0.011062573,-0.02141124,0.43530002,-1.4443895,1.9800638,-2.1079786,-1.566461,2.4122431,-0.104301445,0.21489851,-0.2438514,0.0004504414,0.03523351,-0.082671,-0.51714754,-0.019153614,-9.155427,0.89631605,47.703903,-0.8764919,-1.6105992,-3.220189,-0.39255315,0.03394925,-0.40429062,25.8125,26.6875,25.8125,28.625,29.5,29.9375
0.25605196,-1.6972951,-0.10159149,-0.3772302,0.051379144,0.05916767,-0.15171543,-0.38842478,-0.3301357,0.060061634,3.0730758,-0.6270688,-2.1434405e-05,-0.1264451,-0.014535228,0.001813534,-0.042693786,0.012308858,-0.016210752,0.43508413,-1.4439698,1.9795488,-2.1080134,-1.5664018,2.4120853,-0.104308724,0.21608198,-0.24697652,0.0019825334,0.033276755,-0.087876216,-0.4213795,-0.05746084,-9.251196,0.83365434,47.667187,-0.92073363,-1.5216389,-3.189124,-0.38848764,0.038308166,-0.3707988,25.8125,26.6875,25.8125,28.625,29.5,29.9375
0.25805208,-1.7974812,0.4274748,-0.69168836,0.04124457,0.05885709,-0.14462233,-0.388652,-0.33015037,0.060046252,3.0730453,-0.627078,1.2832761e-05,-0.12675637,-0.013349152,0.0012935349,-0.040220175,0.011256712,-0.010530627,0.4348918,-1.4435382,1.9790939,-2.1079886,-1.5663666,2.411903,-0.105507575,0.21708143,-0.24732447,0.0033723726,0.031505793,-0.09475846,-0.4213795,0.076614454,-9.442732,0.76874626,47.666286,-0.8030745,-1.449626,-3.2759976,-0.40385032,0.058017723,-0.2669945,25.8125,26.6875,25.8125,28.625,29.5,29.9375
0.2600521,-2.700371,-0.53821397,-0.83594525,0.032126468,0.048137836,-0.13018875,-0.38890097,-0.3301881,0.060035672,3.0729384,-0.6270929,8.246114e-05,-0.12761642,-0.013128742,0.00022239437,-0.03857825,0.009662675,-0.008932979,0.43467557,-1.4430698,1.9785899,-2.1079772,-1.5662588,2.41171,-0.10602577,0.22107148,-0.24954854,0.0037728408,0.03069863,-0.09687346,-0.36391866,0.21068975,-9.519346,0.8985519,47.701214,-0.8118033,-1.7123237,-3.3097234,-0.40062284,0.06270342,-0.2289559,25.8125,26.6875,25.8125,28.625,29.5,29.9375
0.2620522,-2.050749,-0.69843245,-0.6220511,-0.016127404,0.0803043,-0.14125739,-0.38918182,-0.33019087,0.06005223,3.0728614,-0.627133,1.9872691e-06,-0.12716715,-0.012311372,-0.002025054,-0.035300422,0.006486494,-0.0066220444,0.43442348,-1.4426495,1.9780773,-2.1079652,-1.5662354,2.4114933,-0.10597316,0.22484446,-0.24866144,0.0033993272,0.029084349,-0.09913222,-0.4405331,0.15322891,-9.481039,0.8918391,47.705692,-0.84766006,-1.7262695,-3.427743,-0.38947237,0.08607026,-0.18140687,25.8125,26.6875,25.8125,28.625,29.5,29.9375
0.2640523,-2.3378875,-1.8859265,-0.6506592,-0.0074071307,0.06955442,-0.13162051,-0.3894163,-0.33023283,0.060045976,3.072821,-0.6270667,1.6367378e-05,-0.12771311,-0.011903712,-0.0024309494,-0.03410735,0.006548686,-0.006144932,0.43426743,-1.4421939,1.9775742,-2.1079414,-1.5661877,2.4113014,-0.106384106,0.22619888,-0.24929851,0.0031448172,0.027982235,-0.1000212,-0.40222588,0.17238252,-9.3661175,0.8672237,47.68062,-0.86717373,-1.8538,-3.5106196,-0.3855311,0.11444099,-0.160096,25.8125,26.6875,25.8125,28.625,29.5,29.9375
0.26605177,-1.5084466,-1.3152574,-0.7052435,-0.008841271,0.061414864,-0.14440717,-0.38967076,-0.33024922,0.060026824,3.0727556,-0.6270736,4.184309e-05,-0.1288093,-0.012074697,-0.001959574,-0.03416199,0.007912166,-0.0075918115,0.43403956,-1.4417264,1.9770955,-2.1079533,-1.5661281,2.4110866,-0.10656449,0.2271202,-0.2515243,0.003197998,0.027456501,-0.09875392,-0.2681506,0.24899697,-9.308657,0.8224646,47.66987,-0.9446132,-1.6986527,-3.5874624,-0.37216157,0.11741766,-0.14521053,25.8125,26.6875,25.8125,28.625,29.5,29.9375
0.26805174,-1.2469388,-1.1645045,-0.5124752,0.00018237939,0.020297145,-0.13475065,-0.38995504,-0.33025366,0.060039394,3.0726652,-0.62717056,-3.9929586e-05,-0.12934102,-0.012263991,-0.00241245,-0.033170328,0.007377219,-0.010063643,0.4337876,-1.4412936,1.97658,-2.1079528,-1.5661038,2.4109073,-0.10611932,0.22958763,-0.25343996,0.0035473073,0.02678197,-0.09583481,-0.24899697,0.2873042,-9.270349,0.84708,47.666286,-0.88080066,-1.9624684,-3.690815,-0.365745,0.14024058,-0.16028771,25.8125,26.6875,25.8125,28.625,29.5,29.9375
0.2700517,-0.5414319,-1.28379,-0.5811856,0.012041794,-0.0054586595,-0.13652964,-0.39020914,-0.33029327,0.06002036,3.0725904,-0.627138,-1.9687384e-05,-0.13149163,-0.012293644,-0.0011738964,-0.03399193,0.010243366,-0.015630122,0.4335953,-1.4408026,1.976077,-2.1079772,-1.5660323,2.4107046,-0.107501134,0.23012851,-0.25699875,0.003613937,0.026309164,-0.091648325,-0.1340753,0.38307226,-9.232041,0.8873621,47.666286,-1.0444417,-1.8300391,-3.613472,-0.37566197,0.16324778,-0.19938307,25.8125,26.6875,25.8125,28.625,29.5,29.9375
0.27205256,-0.4958269,-1.1915778,-0.42099482,0.0028969708,-0.020163247,-0.13915637,-0.39049494,-0.33027625,0.060021527,3.0725229,-0.62731963,-8.204048e-05,-0.13343951,-0.012940418,0.00024610714,-0.03558206,0.013302626,-0.020292738,0.433319,-1.4403596,1.975573,-2.1079648,-1.5660323,2.4105508,-0.107959986,0.23060276,-0.26085168,0.0035361953,0.026455903,-0.08744102,-0.19153613,0.4213795,-9.174581,0.82694155,47.682407,-0.8425019,-1.7377034,-3.5144773,-0.35644096,0.2070485,-0.25551105,25.8125,26.6875,25.8125,28.625,29.5,29.9375
0.27405202,-0.5253946,-1.4135326,-0.47037336,-0.02397697,-0.025353678,-0.1383563,-0.39073542,-0.33031857,0.060008645,3.072475,-0.6272707,-4.1680112e-05,-0.13511632,-0.013391604,0.0011362475,-0.036614794,0.014786831,-0.023203485,0.4331509,-1.4398804,1.9750575,-2.107941,-1.5659717,2.4103587,-0.10867725,0.23192486,-0.26463065,0.0042110793,0.026761744,-0.08524479,-0.19153613,0.47884035,-9.174581,0.84708,47.694054,-0.9899579,-1.5945282,-3.4376283,-0.35097674,0.22388113,-0.2859858,25.8125,26.6875,25.8125,28.625,29.5,29.9375
0.27605224,-0.3769444,-1.9025384,-0.46307188,-0.049127743,0.008118466,-0.14708327,-0.39103615,-0.33034697,0.06001779,3.0723433,-0.62737894,-7.9713725e-05,-0.13636707,-0.014051081,0.0013571344,-0.037352003,0.014269644,-0.023779834,0.43289873,-1.4393882,1.9744824,-2.1079404,-1.5659002,2.4101915,-0.10900336,0.23472452,-0.2687285,0.0056780414,0.02765578,-0.08498853,-0.17238252,0.59376204,-9.308657,0.947788,47.71554,-0.9598595,-1.6255668,-3.3888264,-0.35935295,0.22804382,-0.31052917,25.8125,26.6875,25.8125,28.625,29.5,29.9375
0.2780524,-1.0764039,-2.279528,-0.5420493,-0.04453341,0.016724162,-0.1392262,-0.39126387,-0.3303679,0.0599775,3.0723417,-0.6274549,4.615797e-05,-0.13586372,-0.013303544,0.0004176313,-0.036114063,0.010990711,-0.024187198,0.43271858,-1.4388723,1.9739794,-2.1078799,-1.565864,2.4100592,-0.11002616,0.2359506,-0.2685709,0.00780036,0.027913075,-0.08560615,-0.095768064,0.68953013,-9.270349,0.9768804,47.696735,-1.0323963,-1.654861,-3.2785635,-0.3919997,0.25005654,-0.32548368,25.8125,26.6875,25.8125,28.625,29.5,29.9375
0.28005245,-1.7760973,-2.4725385,-0.6394594,-0.044271987,0.019101087,-0.13559611,-0.391537,-0.33038366,0.059966397,3.0722451,-0.62753004,6.766704e-05,-0.13634542,-0.014290024,0.0011329756,-0.036508948,0.012184999,-0.0224558,0.4324669,-1.4383932,1.9734648,-2.1078799,-1.565792,2.4098673,-0.10842348,0.2366232,-0.27124432,0.008565787,0.027776772,-0.08573311,-0.076614454,0.6703765,-9.346964,0.8784135,47.709274,-0.97459924,-1.6529083,-3.3119893,-0.37461472,0.26444873,-0.34829846,25.8125,26.6875,25.8125,28.625,29.5,29.9375
0.28205177,-0.9499775,-1.9737607,-0.8268892,-0.03901205,0.031345878,-0.1362068,-0.39186135,-0.33042955,0.06000439,3.0721037,-0.6275775,-0.00010846941,-0.13756718,-0.0143878255,0.0013025352,-0.03895826,0.01179001,-0.025319269,0.4322503,-1.4379138,1.972843,-2.1079037,-1.5657552,2.4096992,-0.11074204,0.23783924,-0.27308783,0.008523783,0.030180095,-0.08517749,-0.05746084,0.6512228,-9.3661175,0.88289046,47.716442,-1.1003869,-1.5838721,-3.376848,-0.39649904,0.27236497,-0.36780897,25.8125,26.6875,25.8125,28.625,29.5,29.9375
0.28405184,-1.4382749,-2.1398005,-1.0337529,-0.01887943,-0.0032073155,-0.12951295,-0.3920946,-0.33045977,0.059961047,3.0720873,-0.6275347,3.2781725e-05,-0.13732426,-0.01564654,0.0009596938,-0.040443916,0.011373966,-0.023076657,0.43205893,-1.4373863,1.972339,-2.1078684,-1.5656823,2.4094834,-0.10913107,0.23927066,-0.2738214,0.007591322,0.03170204,-0.08580717,-0.076614454,0.59376204,-9.442732,0.85826975,47.70211,-1.0654719,-1.5909243,-3.3707905,-0.39065772,0.27673745,-0.38665283,25.8125,26.6875,25.8125,28.625,29.5,29.9375
0.286052,-1.14063,-1.9438088,-0.9014621,-0.01183995,-0.0046410738,-0.12593833,-0.39239404,-0.33050206,0.059988987,3.0719235,-0.62763524,-1.1588246e-05,-0.13867918,-0.015577334,0.0008605999,-0.040891793,0.012079948,-0.023860835,0.43181857,-1.4369184,1.971742,-2.1078446,-1.5655864,2.4093275,-0.11037071,0.24117598,-0.2756404,0.0066941623,0.031824514,-0.086257905,-0.095768064,0.49799395,-9.423578,0.9030289,47.70211,-1.0869069,-1.6511581,-3.4557061,-0.35684943,0.28673345,-0.3828475,25.8125,26.6875,25.8125,28.625,29.5,29.9375
0.2880521,-0.50347054,-1.0220361,-0.8932521,-0.010203193,-0.004493017,-0.14256592,-0.3926679,-0.33053493,0.05996018,3.0718486,-0.6277343,4.6697496e-06,-0.13982265,-0.015454815,-0.0004623324,-0.04094432,0.010184081,-0.023580542,0.4316139,-1.4363778,1.9712032,-2.107869,-1.5655378,2.4091947,-0.11201851,0.24553978,-0.277487,0.0058944714,0.032674253,-0.0881819,0.11492168,0.40222588,-9.289502,0.9455522,47.71823,-1.0758202,-1.7972289,-3.5197163,-0.36371502,0.28270268,-0.4081447,25.8125,26.6875,25.8125,28.625,29.5,29.9375
0.2900523,-0.35097274,-0.75297105,-0.7978029,0.007198415,-0.011263104,-0.14442797,-0.3929615,-0.33054626,0.05996035,3.0717714,-0.62775207,-5.3753814e-05,-0.1399448,-0.015068251,-0.0018366998,-0.040176436,0.007773627,-0.017551176,0.4313616,-1.4358982,1.9706639,-2.1078808,-1.565502,2.408964,-0.11293849,0.24840418,-0.2776672,0.0057665897,0.033022948,-0.09512798,0.15322891,0.21068975,-9.346964,0.8314132,47.645687,-1.061475,-1.7422823,-3.4911456,-0.33343184,0.295178,-0.3439794,25.8125,26.6875,25.8125,28.625,29.5,29.9375
0.29205224,-0.47238842,-0.61668843,-0.71483564,0.019845594,-0.017700762,-0.13671906,-0.3932528,-0.3305975,0.059973698,3.071633,-0.6277608,-8.431288e-05,-0.14177847,-0.015572377,-0.0015316926,-0.04080381,0.008766543,-0.015560001,0.43114534,-1.4354059,1.9700774,-2.1078808,-1.5654062,2.4087715,-0.11356695,0.25125223,-0.2817066,0.0058230315,0.03319353,-0.09774195,0.05746084,0.24899697,-9.193734,0.94331104,47.701214,-1.0281324,-1.9623837,-3.631123,-0.34291312,0.30623507,-0.31738642,25.8125,26.6875,25.8125,28.625,29.5,29.9375
0.29405236,-0.31346384,-0.1666554,-0.6422425,0.026326925,-0.011793623,-0.1462643,-0.393528,-0.33062854,0.059948303,3.071571,-0.6277827,-4.442517e-05,-0.14337808,-0.015981654,-0.00059598987,-0.041793454,0.010574741,-0.010695197,0.43092927,-1.4348661,1.9695252,-2.1078804,-1.5653461,2.4085774,-0.114169024,0.25221536,-0.28516942,0.0063076983,0.03335872,-0.103206635,0.05746084,0.19153613,-9.136273,0.8918391,47.685097,-1.0759989,-1.9170074,-3.4872417,-0.31751767,0.3200128,-0.25261784,25.8125,26.6875,25.8125,28.625,29.5,29.9375
0.2960525,-0.80410695,-0.06014693,-0.8509859,0.031523187,-0.0098022465,-0.13681573,-0.39380884,-0.33065313,0.059923224,3.071517,-0.62778926,3.7813545e-05,-0.14447188,-0.016029222,-0.00075900194,-0.04249239,0.009616151,-0.008715408,0.43068877,-1.4343145,1.9689506,-2.1078446,-1.5652736,2.4083483,-0.11557522,0.2545532,-0.2877712,0.0071807024,0.034408607,-0.1065894,0.05746084,0.15322891,-9.270349,0.8090337,47.716442,-0.9578518,-2.0183756,-3.4146485,-0.33520624,0.3416229,-0.19883001,25.8125,26.6875,25.8125,28.625,29.5,29.9375
0.29805243,-0.7318387,-0.6391911,-1.1123892,0.030891871,2.5518591e-05,-0.13833256,-0.39406836,-0.33067638,0.05990136,3.07144,-0.6278091,0.00014204164,-0.1457252,-0.016614316,3.7456797e-05,-0.045103293,0.009937714,-0.005093339,0.43044823,-1.4338111,1.9684228,-2.1078079,-1.5651768,2.4081304,-0.11692398,0.25534692,-0.29080415,0.008075644,0.036666784,-0.111554176,0.05746084,0.19153613,-9.385271,0.8537928,47.694946,-0.992467,-1.9266328,-3.3635294,-0.33110732,0.32781148,-0.12838925,25.8125,26.6875,25.8125,28.625,29.5,29.9375
0.30005234,-1.419571,-1.1605306,-1.1717386,0.0075294953,0.001122745,-0.13652931,-0.39435124,-0.3306978,0.05989918,3.0713966,-0.6278213,0.00012165334,-0.14522704,-0.015762102,-0.000833073,-0.043771077,0.0072626704,-0.008367116,0.43023217,-1.4333078,1.9678496,-2.1077712,-1.5651525,2.407928,-0.1178868,0.2561167,-0.29017726,0.009664439,0.036577307,-0.10924305,-0.17238253,0.21068975,-9.519346,0.9365982,47.679718,-0.9310281,-1.9100376,-3.4711328,-0.338246,0.32466933,-0.119742006,25.8125,26.6875,25.8125,28.625,29.5,29.9375
0.30205235,-1.3062073,-1.3820686,-1.0361385,-0.02501142,0.03253065,-0.13976324,-0.3946565,-0.33071804,0.059901915,3.071303,-0.6278004,0.00013892094,-0.1456927,-0.016464565,0.00022086524,-0.044396613,0.008819431,-0.006135112,0.42995638,-1.4327927,1.9672521,-2.1077354,-1.5650686,2.4076517,-0.11681683,0.25565213,-0.29242104,0.010723043,0.036511,-0.11040309,-0.38307226,0.21068975,-9.5385,0.8605109,47.687782,-0.95600367,-1.9674802,-3.511969,-0.36199468,0.3542109,-0.081391275,25.8125,26.6875,25.8125,28.625,29.5,29.9375
0.30405238,-1.7006829,-1.7016635,-1.2043953,-0.0217554,0.048504323,-0.13815735,-0.39494494,-0.33076292,0.059912734,3.0712137,-0.62782407,9.102507e-05,-0.1472033,-0.015889442,0.00041796375,-0.04484356,0.0086663095,-0.013770567,0.4297634,-1.4322897,1.9666523,-2.107711,-1.5650204,2.4074855,-0.11932698,0.2570657,-0.29479626,0.011619889,0.036970545,-0.105272934,-0.34476504,0.22984336,-9.557653,0.90527004,47.684196,-0.8936236,-1.784276,-3.5489206,-0.3676957,0.35162693,-0.118295476,25.8125,26.6875,25.8125,28.625,29.5,29.9375
0.30605248,-2.0984893,-1.237194,-1.4185493,-0.014201448,0.061766196,-0.13151738,-0.39523223,-0.33079916,0.059891764,3.0711298,-0.6278452,0.00018039561,-0.14658873,-0.017233904,0.000861163,-0.046724457,0.008788095,-0.015438526,0.42952442,-1.4317267,1.9660538,-2.1076748,-1.5649241,2.407271,-0.11730437,0.25654086,-0.2953912,0.011837852,0.038620427,-0.10157832,-0.5363012,0.15322891,-9.730036,0.8112748,47.666286,-1.1237972,-1.7276499,-3.4212842,-0.36959141,0.35258794,-0.1655519,25.8125,26.6875,25.8125,28.625,29.5,29.9375
0.30805263,-2.2156389,-1.182331,-1.4849006,0.006012461,0.076421075,-0.12974672,-0.39552045,-0.33084345,0.05988727,3.0709727,-0.62795043,0.00021712789,-0.1478095,-0.017119737,0.00017509748,-0.04740112,0.00781637,-0.020659056,0.4292837,-1.4312109,1.9654797,-2.1076753,-1.5648035,2.4071167,-0.119074896,0.25954956,-0.29722384,0.011261701,0.039633285,-0.09812217,-0.61291564,0.21068975,-9.691729,0.8918391,47.65464,-0.93644667,-1.6593554,-3.6104934,-0.37911448,0.34935105,-0.20558652,25.8125,26.6875,25.8125,28.625,29.5,29.9375
0.31005168,-2.6687496,-0.7455308,-1.3370965,0.02217579,0.068630196,-0.12958063,-0.3958232,-0.3308753,0.059897028,3.0708675,-0.6279095,0.00020350063,-0.14795075,-0.018058138,-0.0004460094,-0.048687983,0.006573898,-0.023016244,0.42903203,-1.4307066,1.9648803,-2.1076515,-1.5647191,2.4068534,-0.11844784,0.26200014,-0.29858658,0.010763088,0.041317582,-0.09512969,-0.63206923,0.24899697,-9.691729,0.8918391,47.681515,-1.1546762,-1.8195966,-3.732133,-0.36787254,0.3335129,-0.23836324,25.8125,26.6875,25.8125,28.625,29.5,29.9375
0.31205267,-2.2675593,-0.49690032,-1.2405293,0.019371422,0.07380351,-0.13062456,-0.39611787,-0.33091995,0.059896972,3.07074,-0.6280387,0.00024648846,-0.14984493,-0.017635945,-0.00048750633,-0.048913274,0.0069341315,-0.027557887,0.42880324,-1.4301667,1.9642571,-2.1076038,-1.5646232,2.4067223,-0.12071468,0.2644892,-0.30143496,0.010706045,0.04136621,-0.09285175,-0.61291564,0.17238252,-9.595961,0.8672237,47.667187,-1.0210105,-1.73189,-3.6268198,-0.3607852,0.34492165,-0.28506225,25.8125,26.6875,25.8125,28.625,29.5,29.9375
0.31405178,-2.180066,-0.55907124,-1.3127391,0.01590005,0.06873558,-0.13483992,-0.39644468,-0.33095554,0.059897058,3.0705962,-0.62812495,0.00020541142,-0.1511722,-0.017754309,-0.00064166955,-0.04931867,0.0071140504,-0.029915212,0.42853898,-1.429615,1.9636363,-2.1076276,-1.5645393,2.406531,-0.121663734,0.26693898,-0.30393654,0.010434967,0.041663703,-0.09143746,-0.5554548,0.21068975,-9.576807,0.9701675,47.685097,-1.0611148,-1.833636,-3.620175,-0.3712288,0.34013245,-0.33477125,25.8125,26.6875,25.8125,28.625,29.5,29.9375
0.3160518,-1.7586584,-1.0630603,-0.99999434,0.007873146,0.06467753,-0.13415328,-0.396749,-0.33096826,0.0598917,3.0705523,-0.6282121,0.00018557977,-0.15255232,-0.01772668,-0.00039052017,-0.0497839,0.0076568215,-0.03231885,0.4282984,-1.4290754,1.9630245,-2.1075795,-1.5645264,2.406351,-0.12286789,0.26855254,-0.30655074,0.01075197,0.04186002,-0.09023521,-0.5554548,0.22984336,-9.481039,0.90750587,47.682407,-0.85094666,-1.9023914,-3.5685353,-0.36141524,0.34832013,-0.37560815,25.8125,26.6875,25.8125,28.625,29.5,29.9375
0.31805167,-2.0264535,-1.3974469,-1.1112498,0.008721514,0.03166564,-0.12460969,-0.39705077,-0.33099848,0.059877988,3.0704496,-0.62826955,0.00021818219,-0.15405288,-0.017511614,-0.0012759143,-0.05039987,0.006065825,-0.036076266,0.42804593,-1.4285234,1.9624261,-2.1075675,-1.5644425,2.4061482,-0.12517324,0.27246696,-0.30906907,0.010552525,0.04307863,-0.08877662,-0.40222588,0.19153613,-9.461885,0.83813137,47.64927,-1.0294833,-1.8995793,-3.6132119,-0.36386138,0.3438488,-0.4237318,25.8125,26.6875,25.8125,28.625,29.5,29.9375
0.32005253,-1.1960007,-1.0736285,-1.1892571,0.0023502395,0.028637175,-0.13167799,-0.3973732,-0.3310494,0.05990353,3.0702739,-0.62838537,0.00015541461,-0.15450642,-0.0182362,-0.0012293453,-0.051405013,0.0061934316,-0.036343135,0.42780617,-1.4280076,1.961779,-2.1075556,-1.5643462,2.4060042,-0.12465824,0.2737925,-0.31077284,0.010408555,0.043949563,-0.087986305,-0.3256114,0.19153613,-9.461885,0.86498255,47.65464,-0.96578574,-2.0638633,-3.5262644,-0.35785258,0.32674044,-0.4654475,25.8125,26.6875,25.8125,28.625,29.5,29.9375
0.32205167,-0.9589042,-1.4335687,-1.1942937,-4.442836e-05,0.016829463,-0.131561,-0.39771068,-0.3311005,0.05993964,3.070095,-0.62844205,6.21005e-05,-0.15613988,-0.019382976,0.00041305606,-0.05455957,0.008678425,-0.034805883,0.42755404,-1.427493,1.961109,-2.1075437,-1.5642494,2.4058113,-0.12499471,0.27379245,-0.31472823,0.0108195,0.045810048,-0.08984646,-0.3256114,0.2681506,-9.519346,0.85826975,47.62688,-0.9356599,-1.8430967,-3.5768697,-0.34102076,0.31490514,-0.5103947,25.8125,26.6875,25.8125,28.625,29.5,29.9375
0.32405165,-1.5178651,-1.2505502,-1.0512497,-0.014229934,0.003299674,-0.1266306,-0.39800978,-0.33112943,0.059906587,3.0700195,-0.6285778,0.00018639755,-0.15610337,-0.020198783,-3.4835411e-06,-0.056530513,0.007123079,-0.031295925,0.42730197,-1.426881,1.9604744,-2.1074836,-1.564165,2.4056542,-0.12493682,0.2753454,-0.31570682,0.010876377,0.04826622,-0.093292445,-0.30645782,0.30645782,-9.385271,0.9388393,47.635834,-1.0607169,-1.8729858,-3.5365257,-0.34206784,0.29325944,-0.51205474,25.8125,26.6875,25.8125,28.625,29.5,29.9375
0.3260516,-1.3515793,-1.6930099,-1.1476194,-0.011816814,0.008325138,-0.13339645,-0.39832893,-0.33118016,0.05990776,3.0698493,-0.6286349,0.00017422579,-0.15803608,-0.020920917,0.0025822627,-0.059629954,0.011219887,-0.026102887,0.42704958,-1.426331,1.9598516,-2.1075075,-1.5640444,2.4054601,-0.12584126,0.27333915,-0.31968305,0.011905579,0.04942897,-0.09938073,-0.17238252,0.30645782,-9.404425,0.90527004,47.651955,-0.9942732,-1.7263811,-3.5453656,-0.3576509,0.27837422,-0.48944205,25.8125,26.6875,25.8125,28.625,29.5,29.9375
0.3280519,-1.4312218,-1.9824466,-0.8321294,-0.014130048,0.011188109,-0.12729986,-0.39865047,-0.33122146,0.059922636,3.0697181,-0.6286215,0.00018288566,-0.15842105,-0.021915289,0.0027209586,-0.062152643,0.0105736405,-0.01956859,0.4267858,-1.4257915,1.9591926,-2.1074593,-1.5639352,2.4052055,-0.12589602,0.27456152,-0.32157505,0.012177694,0.052036617,-0.10595734,-0.076614454,0.2681506,-9.270349,0.9298854,47.683304,-1.0007306,-1.5812895,-3.5236597,-0.35411578,0.2411431,-0.41036463,25.8125,26.6875,25.8125,28.625,29.5,29.9375
0.33005205,-0.8260303,-1.2423757,-0.9124198,-0.015422552,0.010199555,-0.13550913,-0.39897212,-0.33123586,0.059896946,3.069613,-0.62876874,0.0002183441,-0.15947917,-0.021994794,0.002432078,-0.06348883,0.010378374,-0.012976705,0.42649713,-1.4252038,1.9585818,-2.1074598,-1.5638627,2.4050229,-0.12734835,0.2764727,-0.32307503,0.011463758,0.053379644,-0.11399543,0.019153614,0.30645782,-9.251195,0.9097417,47.686886,-0.9984165,-1.6170187,-3.5249634,-0.36805636,0.21813701,-0.35235512,25.8125,26.6875,25.8125,28.625,29.5,29.9375
0.33205223,-0.8305936,-1.3289825,-1.2192487,0.010026956,-0.005562305,-0.13055715,-0.399291,-0.3312925,0.05991332,3.06946,-0.6287532,0.00020809702,-0.16058853,-0.022096496,0.0021547554,-0.06279997,0.010984808,-0.007557655,0.42625728,-1.4246637,1.9579238,-2.107436,-1.563743,2.4047937,-0.12739804,0.2789606,-0.3253144,0.011015101,0.052541345,-0.11946108,0.076614454,0.30645782,-9.404425,0.8873621,47.703007,-1.013475,-1.6993896,-3.5160217,-0.34684056,0.21162444,-0.25872454,25.8125,26.6875,25.8125,28.625,29.5,29.9375
0.3340523,-0.52432597,-0.8733822,-0.94780946,-0.001847842,-0.007025589,-0.12858881,-0.39963132,-0.33134142,0.059923977,3.0693228,-0.6287021,0.00018500301,-0.16111432,-0.022585018,0.0020817984,-0.06375873,0.011104168,-0.0037703526,0.42599326,-1.4240887,1.9572414,-2.107424,-1.5636348,2.4045162,-0.12734732,0.2802617,-0.32668385,0.010628434,0.05340037,-0.12318936,0.17238252,0.28730422,-9.346964,0.9321212,47.698532,-1.0462265,-1.7035048,-3.588769,-0.34456134,0.17456974,-0.19178756,25.8125,26.6875,25.8125,28.625,29.5,29.9375
0.33605242,-0.73209774,-1.0770537,-1.2017789,0.0062450175,-0.023382444,-0.12987626,-0.39997426,-0.33137786,0.059950687,3.0691469,-0.6287803,0.00013561646,-0.16164745,-0.022093339,2.6850392e-05,-0.0637412,0.007052424,-0.0048108106,0.42570487,-1.4235598,1.9565719,-2.1073997,-1.5635265,2.4043002,-0.12961107,0.28498816,-0.32747397,0.01042079,0.055086255,-0.124399774,0.13407528,0.3256114,-9.3661175,0.900793,47.692257,-1.0576634,-1.8560784,-3.690868,-0.32928032,0.13751826,-0.14837474,25.8125,26.6875,25.8125,28.625,29.5,29.9375
0.33805165,-0.10096588,-1.0217488,-0.9038238,-0.001270782,-0.0032438156,-0.13726851,-0.4002867,-0.33143565,0.05993703,3.069021,-0.62875426,0.00021126287,-0.16189373,-0.023140699,-0.00044246655,-0.06308745,0.006449057,-0.004877813,0.42546526,-1.4229587,1.955912,-2.1073759,-1.5633944,2.404061,-0.12754562,0.2880759,-0.33019862,0.010892754,0.05473624,-0.12226537,0.05746084,0.3256114,-9.346964,0.93436235,47.716442,-1.1086663,-1.9456764,-3.5533333,-0.33351833,0.12510018,-0.14669861,25.8125,26.6875,25.8125,28.625,29.5,29.9375
0.34005183,-0.3769126,-1.345029,-0.9968846,0.0037380676,7.21485e-05,-0.13053901,-0.40062103,-0.3314736,0.059960824,3.0689127,-0.6287188,0.00015507035,-0.16591951,-0.020809704,0.0013001901,-0.0616806,0.011547772,-0.01738896,0.42521164,-1.422419,1.9552306,-2.1073282,-1.5633239,2.4038,-0.13274138,0.2877813,-0.33398944,0.010895595,0.051324856,-0.114955895,0.038307227,0.40222588,-9.289503,0.8224646,47.683304,-0.9271777,-1.8549347,-3.5219188,-0.33467868,0.13670506,-0.16048685,25.8125,26.6875,25.8125,28.625,29.5,29.9375
0.34205177,-0.431236,-1.0080906,-1.0273951,0.0004484339,0.0049132067,-0.13554981,-0.40092817,-0.3315183,0.05994171,3.0687814,-0.62880707,0.00023762051,-0.16612731,-0.022493996,0.00110266,-0.062005144,0.010910524,-0.018781254,0.4249606,-1.421829,1.954595,-2.1073039,-1.5632032,2.4036217,-0.13006449,0.29097772,-0.3375275,0.011678717,0.051867623,-0.11088183,0.095768064,0.34476504,-9.32781,0.88960326,47.684196,-1.034561,-1.9031029,-3.4715703,-0.3311575,0.116368026,-0.23827258,25.8125,26.6875,25.8125,28.625,29.5,29.9375
0.34405184,-0.67673665,-1.1255206,-0.79468155,-0.011276917,0.015606615,-0.13687554,-0.4012728,-0.3315718,0.059965286,3.0686202,-0.628796,0.00021128623,-0.16844687,-0.021478198,0.0021068456,-0.062154297,0.013211337,-0.026951643,0.4246956,-1.4212645,1.9538883,-2.1072676,-1.5630835,2.4033713,-0.1331229,0.2911813,-0.3402877,0.012069048,0.05104437,-0.10576654,0.0,0.51714754,-9.423578,0.9455522,47.666286,-0.8993026,-1.765743,-3.426994,-0.33450133,0.12144272,-0.28731164,25.8125,26.6875,25.8125,28.625,29.5,29.9375
0.34605214,-1.3568866,-1.8340111,-1.0388141,-0.000994822,0.022319688,-0.12805837,-0.40157813,-0.3315887,0.059959907,3.0685449,-0.6288373,0.00019565866,-0.16914693,-0.021349557,0.001942504,-0.059942253,0.013452549,-0.026575102,0.42444375,-1.4207354,1.9532899,-2.1072433,-1.5630363,2.4031556,-0.13242835,0.2932451,-0.3426666,0.013098583,0.048938923,-0.10545355,0.038307227,0.51714754,-9.423578,0.92093146,47.666286,-0.91985923,-1.7505301,-3.3901534,-0.34823328,0.12685284,-0.316421,25.8125,26.6875,25.8125,28.625,29.5,29.9375
0.34805217,-1.2579461,-1.3379047,-1.400311,-0.009129637,0.034797948,-0.13489635,-0.40195066,-0.33164555,0.059989214,3.0683284,-0.62894535,0.0001348421,-0.16948017,-0.01989567,0.0020242948,-0.05821665,0.014462142,-0.027765548,0.4241551,-1.4201474,1.9525484,-2.1072314,-1.5629052,2.4029634,-0.1338908,0.29191166,-0.3414855,0.013078376,0.046980157,-0.10572793,-0.019153614,0.51714754,-9.557653,0.8291774,47.687782,-0.93180025,-1.5989794,-3.6153202,-0.33521575,0.13683307,-0.32514718,25.8125,26.6875,25.8125,28.625,29.5,29.9375
0.3500523,-1.631335,-1.7167491,-1.219351,-0.025479129,0.038117312,-0.124152996,-0.40226558,-0.33171725,0.05999077,3.06821,-0.6288605,0.0001982165,-0.16786277,-0.020521102,0.0013127768,-0.05592155,0.013246248,-0.024831643,0.42394066,-1.4195467,1.9518441,-2.1071718,-1.5627736,2.4027119,-0.13026802,0.2923905,-0.34079182,0.013982756,0.045400623,-0.10504441,-0.19153613,0.5363012,-9.691729,0.91198283,47.69763,-1.1337975,-1.477602,-3.7003562,-0.3528517,0.162112,-0.34325707,25.8125,26.6875,25.8125,28.625,29.5,29.9375
0.35205227,-2.039749,-1.9964141,-1.1682489,-0.030260812,0.040777456,-0.12156761,-0.40261,-0.3317202,0.0599864,3.068124,-0.62899697,0.00016980716,-0.16934364,-0.020023564,0.0006388475,-0.05431279,0.013053287,-0.025907999,0.42364004,-1.418969,1.9511842,-2.1071355,-1.5627383,2.4025083,-0.13133089,0.29589573,-0.34343973,0.013985108,0.044022862,-0.10503313,-0.51714754,0.49799395,-9.461885,0.87393653,47.683304,-1.0551312,-1.4955058,-3.8326912,-0.35413885,0.1819388,-0.36429602,25.8125,26.6875,25.8125,28.625,29.5,29.9375
0.35405228,-2.1754427,-1.6752896,-1.3958501,-0.007939434,0.041505817,-0.12700002,-0.40297765,-0.33179036,0.060019296,3.067919,-0.6290672,8.594833e-05,-0.1712967,-0.019542752,0.00011337107,-0.05315916,0.013489635,-0.02606302,0.42338786,-1.4183786,1.9504308,-2.107124,-1.5626186,2.4023275,-0.13285933,0.2995899,-0.34652784,0.013494421,0.042816248,-0.10640353,-0.24899697,0.2681506,-9.730036,1.0373062,47.689575,-1.179414,-1.680314,-3.7402635,-0.3375467,0.19630769,-0.36867377,25.8125,26.6875,25.8125,28.625,29.5,29.9375
0.3560525,-1.8242431,-1.2470177,-1.467794,-0.0011300517,0.052526277,-0.13198379,-0.40330762,-0.33181304,0.060016744,3.0678132,-0.62911904,7.62023e-05,-0.17304216,-0.019557454,-8.853353e-05,-0.052610047,0.014277728,-0.023127424,0.42311177,-1.4178137,1.9497837,-2.1070998,-1.5625466,2.4020982,-0.13359074,0.3028224,-0.34985662,0.013149723,0.0420206,-0.11006999,-0.19153613,0.30645782,-9.787497,0.8873621,47.685097,-1.112117,-1.7149363,-3.7178378,-0.35362262,0.21080846,-0.35525224,25.8125,26.6875,25.8125,28.625,29.5,29.9375
0.3580516,-1.2342074,-0.5264803,-0.8581964,-0.022815526,0.06818794,-0.14067845,-0.4036557,-0.3318439,0.060015026,3.0677392,-0.62915874,3.196516e-05,-0.17519934,-0.019847684,0.00075608375,-0.053341594,0.016827662,-0.018706929,0.42285928,-1.4172003,1.949076,-2.1070645,-1.5625108,2.4018807,-0.1344507,0.30451086,-0.35382345,0.012861389,0.041677963,-0.115348004,-0.24899697,0.3256114,-9.595961,0.90750587,47.70211,-1.1179341,-1.823934,-3.5297549,-0.32342163,0.22331896,-0.31469703,25.8125,26.6875,25.8125,28.625,29.5,29.9375
0.3600525,-1.5317528,-0.98215616,-0.75980145,-0.0071475287,0.0598337,-0.1345692,-0.4040102,-0.3319032,0.060028087,3.0676048,-0.629107,1.2302815e-05,-0.17756541,-0.019716635,0.0011296573,-0.053186223,0.018328493,-0.013605973,0.42260686,-1.4165862,1.9483336,-2.1070278,-1.5624031,2.4016142,-0.13600047,0.30740452,-0.35823724,0.013156861,0.040971052,-0.12199649,-0.4213795,0.28730422,-9.423578,0.8403672,47.70211,-1.0260391,-1.7527702,-3.4332714,-0.3323127,0.2488392,-0.2338143,25.8125,26.6875,25.8125,28.625,29.5,29.9375
0.36205247,-1.5529433,-0.44878542,-0.8995829,0.0011253501,0.0571486,-0.13422273,-0.4043597,-0.3319554,0.060036637,3.06742,-0.6291608,-3.5341495e-06,-0.17924087,-0.019573582,0.0017857599,-0.05390639,0.020669136,-0.009427312,0.4223305,-1.415998,1.9476398,-2.1070282,-1.562271,2.4013963,-0.13728905,0.30798382,-0.36037514,0.012359515,0.040718473,-0.12746021,-0.6512228,0.22984336,-9.423578,0.88960326,47.686886,-1.0590239,-1.8358967,-3.442018,-0.3040106,0.25623292,-0.15963767,25.8125,26.6875,25.8125,28.625,29.5,29.9375
0.36405247,-2.020995,-1.0466927,-1.2102618,0.019164367,0.05604448,-0.12875241,-0.4047183,-0.33198187,0.060038824,3.0673423,-0.6291424,-4.8699512e-05,-0.17868316,-0.019395255,0.00086355634,-0.053640977,0.018392906,-0.0068767965,0.42205447,-1.415385,1.9469227,-2.106992,-1.5622228,2.4011195,-0.13744918,0.30909538,-0.35986388,0.012959551,0.041447602,-0.13016558,-0.4405331,0.19153613,-9.5385,0.8806493,47.687782,-1.0878155,-1.6070206,-3.6003664,-0.29766607,0.27525973,-0.0913528,25.8125,26.6875,25.8125,28.625,29.5,29.9375
0.36605257,-1.8548566,-0.75484735,-0.8459863,-0.008605596,0.06730463,-0.12886246,-0.4050912,-0.33203614,0.06007198,3.0671651,-0.62912196,-0.00014513338,-0.17861797,-0.019972157,-0.00047716947,-0.05290372,0.0161002,-0.0044718687,0.42177883,-1.4148065,1.9461802,-2.10698,-1.5621146,2.400855,-0.1363712,0.3128867,-0.3613631,0.013096908,0.04174919,-0.13148423,-0.4213795,0.15322891,-9.500193,0.900793,47.658226,-1.0896376,-1.6659353,-3.625636,-0.29313082,0.29577112,-0.06434928,25.8125,26.6875,25.8125,28.625,29.5,29.9375
0.36805242,-1.5919154,-0.93763,-0.46248323,-0.02895653,0.07977483,-0.13553256,-0.40548947,-0.3320792,0.060095824,3.0670068,-0.6291691,-0.00023698235,-0.179444,-0.019398784,3.1335545e-05,-0.053731713,0.016822282,-0.01145482,0.4214782,-1.4141709,1.9453901,-2.1069562,-1.5620307,2.4006054,-0.13817213,0.31220573,-0.3619771,0.013371645,0.04220345,-0.12629476,-0.59376204,0.13407528,-9.308657,0.9097417,47.66808,-1.0001527,-1.6804633,-3.7326515,-0.2938568,0.29268283,-0.06882197,25.8125,26.6875,25.8125,28.625,29.5,29.9375
0.3700525,-1.8430631,-0.56112593,-0.4764134,-0.019053781,0.068615824,-0.12639786,-0.40583643,-0.33210352,0.060086712,3.0669103,-0.62919086,-0.00027296133,-0.18196225,-0.01886163,0.00033294648,-0.054819968,0.01787311,-0.018895084,0.4212013,-1.4135697,1.9447197,-2.1069562,-1.5619706,2.4003553,-0.14136216,0.31454045,-0.36545467,0.013091084,0.042750273,-0.1220371,-0.63206923,0.28730422,-9.097966,0.95897776,47.658226,-1.1374869,-1.4796246,-3.7448494,-0.26229507,0.30385894,-0.09576677,25.8125,26.6875,25.8125,28.625,29.5,29.9375
0.37205243,-1.3341395,0.24441168,-0.615929,0.00916038,0.052681167,-0.13821231,-0.4061851,-0.33216244,0.06009062,3.0667958,-0.6291856,-0.0002610368,-0.18339086,-0.021205988,0.0027410563,-0.057763945,0.022378061,-0.021616314,0.42096227,-1.4129331,1.9439648,-2.1068962,-1.5618743,2.4001286,-0.13865717,0.31407884,-0.3706469,0.013401717,0.043566655,-0.116602205,-0.40222588,0.15322891,-9.270349,0.95897776,47.657326,-1.2094641,-1.5056499,-3.6427207,-0.26316506,0.3151523,-0.13564363,25.8125,26.6875,25.8125,28.625,29.5,29.9375
0.37405232,-1.1711417,0.11367135,-0.25792354,0.036319535,0.027429145,-0.13109282,-0.40657964,-0.33221903,0.060122777,3.0665941,-0.6292425,-0.00037379647,-0.18442416,-0.02214394,0.0024877791,-0.059674654,0.021365285,-0.027490191,0.4206741,-1.4123198,1.9431862,-2.1068962,-1.5617651,2.3999033,-0.13898769,0.31723535,-0.37391636,0.013627083,0.045712557,-0.11103876,-0.36391866,0.076614454,-9.193734,0.9186956,47.66987,-1.1514215,-1.4454439,-3.5787692,-0.24153656,0.30296218,-0.21349163,25.8125,26.6875,25.8125,28.625,29.5,29.9375
