Tylouw/Master_Thesis_Code/training_data/batch_1/big_rod_t0.1/sample_51_session_3.csv
timestamp[s],tcp_force_x[N],tcp_force_y[N],tcp_force_z[N],tcp_force_rx[Nm?],tcp_force_ry[Nm?],tcp_force_rz[Nm?],tcp_pose_x[m],tcp_pose_y[m],tcp_pose_z[m],tcp_pose_rx[rot_vec_x],tcp_pose_ry[rot_vec_y],tcp_pose_rz[rot_vec_z],tcp_velo_x[m/s],tcp_velo_y[m/s],tcp_velo_z[m/s],tcp_velo_rx[rot_vec_x/s],tcp_velo_ry[rot_vec_y/s],tcp_velo_rz[rot_vec_z/s],q1[rad],q2[rad],q3[rad],q4[rad],q5[rad],q6[rad],qd1[rad/s],qd2[rad/s],qd3[rad/s],qd4[rad/s],qd5[rad/s],qd6[rad/s],tool_acc_x,tool_acc_y,tool_acc_z,current_of_whole_robot[A],voltage_of_whole_robot[V],current_J1[A],current_J2[A],current_J3[A],current_J4[A],current_J5[A],current_J6[A],temp_J1[C],temp_J2[C],temp_J3[C],temp_J4[C],temp_J5[C],temp_J6[C]
1.1879602e-06,0.04450805,-0.67434007,0.370687,-0.007211322,0.023868512,-0.015097832,-0.372875,-0.32822418,0.059936713,-3.0784779,0.6248074,-0.0003780483,0.003109854,0.0015403489,-0.0040122354,0.004239415,-0.008786247,2.7403526e-05,0.44815025,-1.4708374,2.009549,-2.1076314,-1.5706376,2.4230313,-6.8753565e-05,0.0033531215,0.005260527,0.0011418952,7.572114e-14,-9.9125966e-05,0.019153614,0.17238252,-9.002198,0.78217715,47.70659,-0.19835317,-2.8317823,-2.4920435,-0.53152627,0.041676346,-0.09579461,25.125,25.75,24.9375,27.3125,27.8125,28.125
0.00205304,-0.011321373,-0.49645084,0.10008358,-0.004473635,0.019400133,-0.008999059,-0.3729044,-0.32822558,0.059937347,-3.078508,0.6249293,-0.00026723897,-0.0012944975,-0.00059171143,-0.0023516438,-0.0020990225,0.004321308,3.3714372e-05,0.44812617,-1.4708372,2.0095732,-2.1077445,-1.5706376,2.4230795,-6.56721e-05,0.0034514982,0.0045230803,-0.012778698,4.9440496e-15,-9.777976e-05,0.038307227,0.17238252,-8.90643,0.75755644,47.699425,-0.17830735,-2.6493402,-2.3192773,-0.45996404,0.053655162,-0.10980487,25.125,25.75,24.9375,27.3125,27.8125,28.125
0.004051847,-0.060919236,-0.56946105,0.2175853,0.0057568736,0.018089125,-0.020053567,-0.3729052,-0.3282174,0.05993437,-3.0784748,0.6249225,-0.0002750694,-0.001412094,-0.00064987084,-0.0026191399,-0.0023089787,0.004753419,3.4871253e-05,0.44812617,-1.4708253,2.0095613,-2.1077201,-1.5706614,2.4230795,-6.3352985e-05,0.0038174987,0.00504779,-0.014149826,3.228111e-16,-9.646975e-05,0.076614454,0.17238252,-8.925584,0.7709874,47.729877,-0.1201594,-3.0346694,-2.5457408,-0.36570036,0.045232423,-0.09652659,25.125,25.75,24.9375,27.3125,27.8125,28.125
0.006052143,0.7349215,0.41508934,0.24654719,0.0020722372,0.017339947,-0.022394653,-0.37289968,-0.32820806,0.059922576,-3.078457,0.62486136,-0.00024216708,-0.0005678882,-0.00024280773,-0.0024071808,-0.00079147704,0.0016171541,3.4977154e-05,0.4481382,-1.4708254,2.009596,-2.1077535,-1.5706977,2.4230556,-6.119874e-05,0.0035040479,0.0037404764,-0.009044964,2.1077255e-17,-9.5194286e-05,0.076614454,0.22984336,-9.021352,0.74413085,47.723602,-0.14546809,-3.0090427,-2.584795,-0.4023639,0.04814639,-0.112096414,25.125,25.75,24.9375,27.3125,27.8125,28.125
0.008052142,1.1542944,1.1372521,-0.24057996,0.036168076,-0.006751013,-0.019616771,-0.3728983,-0.32823542,0.05994044,-3.0785317,0.62487644,-0.00024052638,-0.00014103891,-3.7299964e-05,-0.0016278168,-2.3481727e-05,3.5016998e-05,3.5250723e-05,0.44815025,-1.4708496,2.0095842,-2.1077645,-1.5706376,2.4230676,-5.91865e-05,0.0024477511,0.0020936516,-0.0045831557,1.3761942e-18,-9.395206e-05,0.0,0.15322891,-9.021352,0.73069996,47.709274,-0.123000875,-2.981258,-2.4035106,-0.43687952,0.06634323,-0.10879582,25.125,25.75,24.9375,27.3125,27.8125,28.125
0.010052649,1.3195231,0.9948584,-0.63997436,0.060278893,-0.0048143854,-0.026702357,-0.37288493,-0.32822895,0.059927627,-3.0785077,0.6248525,-0.00029928848,1.2488385e-05,4.6105488e-05,-0.0012278795,0.0001779184,-0.0003778549,1.6848642e-05,0.44815025,-1.4708378,2.0095952,-2.1077402,-1.5706376,2.4230556,-7.612329e-05,0.0017916483,0.001508009,-0.0028820399,8.9855654e-20,-9.274192e-05,-0.05746084,0.15322891,-9.212888,0.73069996,47.681515,-0.31943357,-2.2461452,-3.1424136,-0.45838195,0.0443376,-0.14142653,25.125,25.75,24.9375,27.3125,27.8125,28.125
0.012052546,0.49677572,0.47077477,-0.7210447,0.030628528,-0.0018326849,-0.020929098,-0.3728867,-0.3282127,0.059893873,-3.0784538,0.6248802,-0.00036619505,-0.00040358456,-4.7682486e-05,-0.0039334507,0.0027735713,-0.005786741,-0.00018482973,0.4481261,-1.4707754,2.0096066,-2.1077516,-1.5706495,2.4230556,-0.00028435484,0.009810949,-0.0012528275,-0.0021410563,5.866932e-21,-9.657837e-05,0.076614454,0.076614454,-9.308656,0.779936,47.71286,-0.43344638,-2.132799,-3.3305044,-0.43921155,0.0361451,-0.18576533,25.125,25.75,24.9375,27.3125,27.8125,28.125
0.014052485,-0.26680833,-0.68270075,-0.89495003,0.008605511,0.018060468,-0.02440726,-0.37285653,-0.328202,0.05986422,-3.078411,0.6247735,-0.0005273277,-0.005389745,-0.0008868181,-0.0035638195,0.0023877823,-0.005035336,-0.00025781355,0.4481253,-1.4707361,2.0096152,-2.1076796,-1.5706376,2.4229937,-0.0032514124,0.018767545,-0.012179981,-0.001015271,3.8306874e-22,-0.00298299,-0.019153614,0.19153614,-9.423578,0.7486078,47.686886,-0.5020053,-2.7384844,-2.9817448,-0.44504863,0.031796783,-0.19743729,25.125,25.75,24.9375,27.3125,27.8125,28.125
0.016052201,-1.1987011,-1.55497,-1.0617312,-0.020168027,0.045269556,-0.016595175,-0.37287864,-0.32820347,0.0598771,-3.0784018,0.624869,-0.00044512597,-0.0057087415,0.0005224965,-0.0041955956,0.003309489,-0.006948032,0.0004899026,0.44812408,-1.470736,2.0095909,-2.107703,-1.5706614,2.4230533,-0.006192616,0.019262707,-0.011488288,-7.9578975e-05,2.501165e-23,-0.006672524,-0.2681506,0.2681506,-9.634268,0.7866488,47.69763,-0.23454782,-2.6052814,-3.2516012,-0.47043568,0.02605037,-0.1642531,25.125,25.75,24.9375,27.3125,27.8125,28.125
0.018052258,-1.4693023,-2.458276,-1.0674839,-0.053063795,0.08433952,-0.019600127,-0.37287366,-0.32820114,0.05984769,-3.0783448,0.62485653,-0.0005658595,-0.0052842493,0.00052579993,-0.0043806126,0.004064803,-0.008515911,0.0022175165,0.44812417,-1.470652,2.009555,-2.1076548,-1.5706614,2.4230528,-0.005813219,0.019795103,-0.012053273,0.00169313,1.6330822e-24,-0.008020842,-0.34476504,0.47884035,-9.749189,0.7284641,47.694054,-0.30119967,-2.315533,-3.4533331,-0.45513713,0.034775663,-0.15835401,25.125,25.75,24.9375,27.3125,27.8125,28.125
0.020052245,-1.7018847,-1.9721076,-0.8979206,-0.08228518,0.09789049,-0.03259446,-0.37288588,-0.32821792,0.05985283,-3.078379,0.6248046,-0.00054945494,-0.005184128,6.620849e-05,-0.004195345,0.0048470115,-0.010138826,0.0030546843,0.44813654,-1.4706275,2.0095189,-2.1076653,-1.5706495,2.4230285,-0.0048591504,0.021141052,-0.014651975,0.0047475803,1.066286e-25,-0.007903067,-0.4213795,0.47884035,-9.825804,0.7217513,47.70211,-0.47614855,-2.3656545,-3.3815818,-0.48665947,0.011214333,-0.17079988,25.125,25.75,24.9375,27.3125,27.8125,28.125
0.022052238,-1.6786691,-1.9674929,-0.99902004,-0.061727747,0.10095828,-0.03772229,-0.37288412,-0.3281976,0.059827767,-3.0783124,0.6247715,-0.0006035437,-0.0066085025,-0.0003601921,-0.0039234105,0.0041096015,-0.008624473,0.003007703,0.4481244,-1.4705791,2.009518,-2.107642,-1.5706857,2.4230042,-0.005354766,0.022910552,-0.016953956,0.0035953557,6.962086e-27,-0.008349698,-0.63206923,0.59376204,-9.864111,0.75084364,47.70211,-0.5639822,-2.372364,-3.4484673,-0.49210823,0.009568674,-0.19712463,25.125,25.75,24.9375,27.3125,27.8125,28.125
0.024052262,-1.4744307,-1.3797888,-1.0417503,-0.04696878,0.084623255,-0.043580294,-0.37290844,-0.3282265,0.05983126,-3.0783992,0.624828,-0.0006227331,-0.008272603,-8.287523e-05,-0.0033371008,0.0030709524,-0.0064783525,0.002067697,0.44809976,-1.4705429,2.0094812,-2.10769,-1.5706018,2.4230037,-0.007390069,0.023186924,-0.018303806,0.002285187,4.5457445e-28,-0.009443754,-0.57460845,0.5554548,-9.844957,0.69937176,47.689575,-0.6155021,-2.3386908,-3.4620948,-0.4674701,-0.003664827,-0.19374394,25.125,25.75,24.9375,27.3125,27.8125,28.125
0.026052091,-1.1828519,-0.80073154,-1.0055107,-0.04188846,0.060886867,-0.052889604,-0.37295532,-0.32820842,0.059840154,-3.078339,0.62485397,-0.00057929824,-0.01011521,-0.0004329596,-0.002447844,0.0018564196,-0.003973218,0.0028702677,0.4480634,-1.4704827,2.009384,-2.1076424,-1.5706614,2.4229913,-0.008407922,0.024092887,-0.02114411,0.001434667,2.9680467e-29,-0.01126208,-0.51714754,0.47884035,-9.787497,0.75084364,47.701214,-0.5362681,-2.199589,-3.4822512,-0.44272566,-0.011261379,-0.19754517,25.125,25.75,24.9375,27.3125,27.8125,28.125
0.028052023,-1.2938064,-1.2093064,-0.9154834,-0.024730947,0.040182043,-0.0578382,-0.37294993,-0.3282121,0.059812874,-3.0783265,0.6247742,-0.0006383164,-0.011318059,-0.00084091263,-0.0022588114,0.0014608847,-0.0031672588,0.0038044134,0.44807526,-1.4704223,2.009383,-2.1076548,-1.5706614,2.422955,-0.00873694,0.026023509,-0.023615256,0.0010772299,1.9379224e-30,-0.012523349,-0.59376204,0.3256114,-9.653421,0.7709874,47.701214,-0.5408092,-2.1657512,-3.4984536,-0.43830237,0.003690795,-0.19149119,25.125,25.75,24.9375,27.3125,27.8125,28.125
0.030052116,-0.7683516,-0.54819715,-0.7043942,-0.020313686,0.058106534,-0.07587117,-0.37298942,-0.3282312,0.059832264,-3.0783792,0.6248038,-0.00061249215,-0.012673493,-0.00086973165,-0.0019999524,0.0011108916,-0.0024508606,0.00358377,0.4480509,-1.4703859,2.0092986,-2.1076548,-1.5706257,2.4229424,-0.009915864,0.027606405,-0.02593215,0.0010142527,1.2653248e-31,-0.013479969,-0.5554548,0.21068975,-9.615114,0.7732232,47.70838,-0.64757675,-2.2353826,-3.4622045,-0.41641006,-0.01682873,-0.19302027,25.125,25.75,24.9375,27.3125,27.8125,28.125
0.03205195,-1.0967909,-0.46123827,-0.8064745,7.2691226e-05,0.056862686,-0.09096853,-0.373017,-0.32823372,0.059807748,-3.0783446,0.624816,-0.00064695516,-0.014112311,-0.0011535786,-0.0015268371,0.0005977267,-0.0013979875,0.0028141544,0.44803858,-1.4702774,2.0092385,-2.1076667,-1.5706376,2.4229422,-0.010691559,0.029216561,-0.02880808,0.0011086058,8.2616674e-33,-0.0134841,-0.36391866,0.15322891,-9.653421,0.8112748,47.71286,-0.63450897,-2.2217689,-3.4394512,-0.41108114,-0.031270865,-0.2036927,25.125,25.75,24.9375,27.3125,27.8125,28.125
0.034052335,-1.2205591,0.042770848,-0.6374899,0.013682279,0.04916439,-0.092900425,-0.37306455,-0.3282139,0.0598159,-3.078343,0.62481666,-0.000619471,-0.015741682,-0.0012303406,-0.00066483,-0.00022888492,0.0005105025,0.002495581,0.44796613,-1.4702413,2.0091774,-2.1076548,-1.5706495,2.4228704,-0.011967755,0.02980666,-0.03142054,0.0010527727,-8.7758315e-05,-0.014439864,-0.24899697,0.095768064,-9.519346,0.7642693,47.684196,-0.5905854,-2.173531,-3.4648595,-0.3748482,-0.035919335,-0.21644247,25.125,25.75,24.9375,27.3125,27.8125,28.125
0.03605181,-0.3087593,0.60012764,-0.46936622,0.031995904,0.05561188,-0.1255292,-0.37310466,-0.3282266,0.05981267,-3.0783603,0.6248392,-0.00057411153,-0.016933262,-0.0008607866,-0.00010640307,0.0003906254,0.0008125714,0.002225378,0.44795376,-1.4701691,2.0091164,-2.107702,-1.57065,2.42287,-0.013277951,0.030704642,-0.03409273,0.0028253773,-0.00077868864,-0.015477231,-0.21068975,-0.019153614,-9.481039,0.75084364,47.693153,-0.612552,-2.1061456,-3.3878958,-0.38696468,-0.033292096,-0.21312302,25.125,25.75,24.9375,27.3125,27.8125,28.125
0.03805202,0.06872502,0.792042,-0.4881048,0.04159609,0.04426687,-0.1309497,-0.3731023,-0.32822743,0.05979003,-3.078327,0.62473553,-0.00065390696,-0.017749272,-0.00067592965,-0.00046326258,0.0016881145,-0.0002083901,0.0029062564,0.4479655,-1.4700963,2.0090802,-2.1076658,-1.5706619,2.4228213,-0.01387479,0.033337887,-0.03643931,0.004023178,-0.0015101571,-0.016751878,-0.24899697,0.0,-9.442732,0.80456203,47.68599,-0.5995217,-2.0854664,-3.3546357,-0.37440938,-0.053898655,-0.200487,25.125,25.75,24.9375,27.3125,27.8125,28.125
0.04005214,-0.13282456,0.49442625,-0.5626248,0.04800407,0.030767806,-0.14215873,-0.3731656,-0.3282385,0.05979874,-3.0783186,0.62481135,-0.00063897314,-0.01900895,-0.00035313578,-0.00040704032,0.0020472875,0.00028948387,0.0018451755,0.44792897,-1.4699879,2.0089357,-2.1076415,-1.5706624,2.4228332,-0.015257401,0.03489487,-0.038278133,0.0040136683,-0.0020534901,-0.01707094,-0.1340753,-0.05746084,-9.481039,0.8157518,47.68062,-0.64609146,-2.1763399,-3.4398696,-0.35909548,-0.030953895,-0.18629219,25.125,25.75,24.9375,27.3125,27.8125,28.125
0.042052217,0.08798891,0.39758125,-0.56224066,0.027933815,0.02575774,-0.14230172,-0.3732099,-0.32825145,0.05981547,-3.078368,0.6248033,-0.0005750625,-0.020424591,-0.0006433427,0.00049685716,0.0009768922,0.0022591942,0.00082189596,0.44790465,-1.4699517,2.0088632,-2.1076658,-1.57065,2.4227977,-0.01606975,0.035249364,-0.040702496,0.003844365,-0.0019461038,-0.016858794,-0.05746084,0.0,-9.461885,0.75084364,47.707485,-0.6140992,-2.1070285,-3.4180548,-0.34762675,-0.059462763,-0.19737971,25.125,25.75,24.9375,27.3125,27.8125,28.125
0.044052344,-0.6484711,0.042428218,-0.65216565,0.01217187,0.011163603,-0.13097353,-0.37324226,-0.3282372,0.059804916,-3.0783374,0.62479705,-0.0006087979,-0.021104217,-0.00061792176,0.00043989165,0.0010666879,0.002049112,-2.052132e-05,0.4478565,-1.4698796,2.0088027,-2.1076415,-1.5706619,2.4227495,-0.016738905,0.036601044,-0.042126477,0.0041446225,-0.0019388327,-0.016684502,-0.1340753,-0.038307227,-9.404425,0.6635613,47.694946,-0.56150615,-2.085103,-3.3589244,-0.3364368,-0.06639302,-0.1953083,25.125,25.75,24.9375,27.3125,27.8125,28.125
0.046051722,0.1323586,-0.35559848,-0.7534531,0.009051289,0.03336664,-0.12775378,-0.37331662,-0.32824284,0.059822004,-3.0783207,0.62483174,-0.00050240685,-0.021854863,-0.00061464973,0.00066804525,0.0015058895,0.0014910308,-0.00019910159,0.44783232,-1.4697833,2.0086577,-2.107641,-1.5707105,2.4227493,-0.01732051,0.038037267,-0.044631097,0.0059058727,-0.0020937666,-0.017086102,-0.24899697,0.17238252,-9.385271,0.7665104,47.70838,-0.576874,-2.0577352,-3.4431622,-0.3304537,-0.06612847,-0.17819712,25.125,25.75,24.9375,27.3125,27.8125,28.125
0.04805196,-0.43284386,-0.9915859,-0.9136581,0.014143916,0.025359884,-0.12349921,-0.37333435,-0.32822806,0.05981369,-3.078293,0.62484527,-0.00052249373,-0.021899635,-0.0008067387,0.0006474044,0.0021674226,0.000359185,0.00039143252,0.44779646,-1.4697468,2.0086339,-2.1076286,-1.5707225,2.4227254,-0.016927741,0.03922978,-0.04630124,0.007690246,-0.0022000181,-0.017282933,-0.21068975,0.22984336,-9.385271,0.7732232,47.68062,-0.576007,-1.997227,-3.4870863,-0.34871614,-0.05422302,-0.1797868,25.125,25.75,24.9375,27.3125,27.8125,28.125
0.050052144,-0.10728805,-0.6373037,-0.79841286,0.0013222652,0.03093775,-0.13046458,-0.37336478,-0.32825148,0.05981328,-3.0783517,0.6247619,-0.0005942913,-0.022679362,-0.00028524146,0.0010192867,0.0030107528,1.945606e-06,-0.0006877673,0.44777206,-1.4696628,2.008537,-2.1076043,-1.5706624,2.4226415,-0.018205186,0.03982009,-0.048279114,0.009768102,-0.0028053564,-0.01747924,-0.095768064,0.30645782,-9.3661175,0.75084364,47.696735,-0.53503764,-1.8913836,-3.498842,-0.3535841,-0.06125585,-0.17643978,25.125,25.75,24.9375,27.3125,27.8125,28.125
0.052052,-0.3743529,-1.145365,-0.852561,0.0028520017,0.02293659,-0.11817687,-0.37342122,-0.32822922,0.059816334,-3.0782635,0.6248201,-0.00053042034,-0.023387924,-0.00048340496,0.00077528553,0.0034540866,-0.00042317313,-0.00025394888,0.447736,-1.4695783,2.0084288,-2.1075675,-1.5707468,2.4226532,-0.018326622,0.042063843,-0.050256,0.010075464,-0.0030250496,-0.018032558,-0.095768064,0.36391866,-9.500193,0.7732232,47.670765,-0.6119003,-1.8783624,-3.477014,-0.3649825,-0.065920234,-0.16847101,25.125,25.75,24.9375,27.3125,27.8125,28.125
0.054051787,-0.32681075,-1.7001543,-0.99773866,-0.0065338477,0.023197811,-0.11226337,-0.37346476,-0.32824633,0.059820604,-3.0783029,0.62486666,-0.0005882776,-0.024288928,-0.0008053757,0.0009995799,0.0032786452,0.00011623831,0.00020085547,0.4476879,-1.469494,2.008321,-2.1075437,-1.5706867,2.422629,-0.0184833,0.043506768,-0.052387007,0.010202469,-0.0031051033,-0.018642412,-0.1340753,0.34476504,-9.615114,0.800085,47.701214,-0.60591173,-1.8759786,-3.5486898,-0.36051008,-0.06622942,-0.17323498,25.125,25.75,24.9375,27.3125,27.8125,28.125
0.05605205,-0.6812377,-1.6176205,-0.9405955,-0.035588555,0.021964759,-0.11001132,-0.37350956,-0.32821658,0.059804074,-3.0782156,0.6248679,-0.00057897816,-0.02522821,-0.0006792523,0.0010148045,0.0036715998,-0.00018908527,0.0003144411,0.44763964,-1.4693974,2.0082476,-2.1075199,-1.5707582,2.4225929,-0.019418651,0.045234736,-0.054516047,0.011047942,-0.0033314012,-0.019689431,-0.05746084,0.4405331,-9.672575,0.70608455,47.72092,-0.56823003,-1.7981296,-3.5861902,-0.36845034,-0.058189094,-0.14860177,25.125,25.75,24.9375,27.3125,27.8125,28.125
0.05805202,-0.83228344,-2.1569285,-0.7599146,-0.034116473,0.018170714,-0.11164432,-0.37356842,-0.32823667,0.05983171,-3.078267,0.6248778,-0.00059487286,-0.025662702,-0.00095355656,0.0007581237,0.0039469507,-0.0013447242,0.0013047706,0.4475916,-1.469325,2.0080907,-2.1074593,-1.5707105,2.4225445,-0.019463971,0.04738712,-0.056526463,0.0120666195,-0.003081694,-0.020724444,-0.05746084,0.4405331,-9.576807,0.75084364,47.68599,-0.6089263,-1.877217,-3.607105,-0.37388965,-0.058938652,-0.14933103,25.125,25.75,24.9375,27.3125,27.8125,28.125
0.06005192,-0.7200687,-1.5334561,-0.75432223,-0.04118724,0.028066065,-0.11637593,-0.37360322,-0.32823855,0.05981367,-3.0782278,0.6248313,-0.0006323733,-0.026875626,-0.0014847779,0.0011820764,0.0033188262,-0.0001378902,0.0016657476,0.44757953,-1.4692045,2.0079944,-2.1074355,-1.5707344,2.4225085,-0.019591121,0.04892852,-0.05912856,0.011766738,-0.0030453005,-0.021210624,-0.17238252,0.49799395,-9.461885,0.78217715,47.703903,-0.56561786,-1.8313928,-3.5758705,-0.37556392,-0.086860634,-0.13423553,25.125,25.75,24.9375,27.3125,27.8125,28.125
0.062051885,-0.6267328,-1.579985,-0.7154006,-0.023196334,0.034393612,-0.118004575,-0.3736674,-0.32822883,0.059817463,-3.0782056,0.6248462,-0.00061018835,-0.028386163,-0.0017691895,0.0014967051,0.0027876766,0.0006271022,0.0011079962,0.4475191,-1.469108,2.0078743,-2.1074116,-1.5707582,2.4224603,-0.020520097,0.05099771,-0.062129706,0.011777904,-0.002904181,-0.02158004,-0.11492168,0.4405331,-9.500193,0.800085,47.744205,-0.5975244,-1.7981884,-3.5557718,-0.36833447,-0.08007727,-0.13725069,25.125,25.75,24.9375,27.3125,27.8125,28.125
0.064051695,-0.13861054,-1.0008028,-0.5992688,-0.024524936,0.04594365,-0.11949326,-0.37373272,-0.3282542,0.05984352,-3.0782764,0.62489825,-0.0005387694,-0.028839098,-0.0020066653,0.001071155,0.0026986257,8.8812194e-05,0.0017270815,0.44748318,-1.4690474,2.0077536,-2.107436,-1.5707225,2.422448,-0.020692278,0.05291625,-0.063164294,0.011340092,-0.0025928398,-0.022371149,-0.11492168,0.40222588,-9.404425,0.71951014,47.711063,-0.6056662,-1.7854271,-3.552683,-0.37773943,-0.075732365,-0.1254403,25.125,25.75,24.9375,27.3125,27.8125,28.125
0.06605166,-0.45647165,-1.1362939,-0.38825706,-0.0131858215,0.033934854,-0.11364612,-0.37379122,-0.3282441,0.05983168,-3.0782213,0.6248468,-0.0005792458,-0.031234743,-0.00299393,0.0026160153,0.0009300969,0.0039475127,0.00319338,0.4474352,-1.4689033,2.0076087,-2.1073759,-1.5707582,2.422375,-0.020947754,0.054038823,-0.067774236,0.010582415,-0.0026818912,-0.024089444,-0.15322891,0.4213795,-9.3661175,0.7665104,47.67793,-0.6138477,-1.7956184,-3.51891,-0.3511467,-0.106012836,-0.11732797,25.125,25.75,24.9375,27.3125,27.8125,28.125
0.0680517,-0.6969503,-1.1070364,-0.54517144,-0.008339495,0.029948106,-0.116988584,-0.3738504,-0.32826388,0.05984462,-3.0782585,0.6248547,-0.00053074607,-0.031795807,-0.0028979583,0.001148926,0.0023899525,0.0016741748,0.0034981705,0.44741088,-1.4688178,2.007488,-2.1073883,-1.5707468,2.422351,-0.02140912,0.058472365,-0.06921417,0.010271209,-0.0030175385,-0.024853386,-0.095768064,0.38307226,-9.3661175,0.7351769,47.688675,-0.5682337,-1.862189,-3.4079065,-0.35257083,-0.11857399,-0.10066624,25.125,25.75,24.9375,27.3125,27.8125,28.125
0.07005162,-0.44515806,-0.943057,-0.4749814,-0.015297434,0.032109596,-0.11396371,-0.37393776,-0.3282763,0.05985466,-3.0782988,0.6248625,-0.00050877506,-0.03288291,-0.0029894682,0.002406233,0.0016240114,0.00441108,0.0033658023,0.44733876,-1.4686865,2.0073206,-2.1073883,-1.5707229,2.4222786,-0.021879196,0.057275236,-0.07078126,0.010238615,-0.0035135334,-0.025189452,-0.17238252,0.38307226,-9.308657,0.7463667,47.694054,-0.5993603,-1.786669,-3.5356011,-0.34349674,-0.107523516,-0.089678645,25.125,25.75,24.9375,27.3125,27.8125,28.125
0.07205165,-0.31291017,-1.0184515,-0.51115495,-0.0120179495,0.03452443,-0.11552947,-0.3739679,-0.32829303,0.059837792,-3.0782669,0.6247598,-0.00058578135,-0.035800178,-0.004105133,0.0041315667,0.00017687844,0.008698176,0.003922361,0.44735077,-1.4685421,2.0071871,-2.1073287,-1.5707349,2.4222307,-0.022048032,0.05920737,-0.076769605,0.009805204,-0.00407928,-0.025909418,-0.11492168,0.34476504,-9.270349,0.7642693,47.68062,-0.654812,-1.7179669,-3.3946877,-0.34284395,-0.10034445,-0.09023279,25.125,25.75,24.9375,27.3125,27.8125,28.125
0.074052654,-0.5133292,-0.8119674,-0.36651394,-0.0018800608,0.032897584,-0.108556814,-0.3740707,-0.3283107,0.059880752,-3.0783231,0.62480855,-0.00045228895,-0.035789806,-0.003889183,0.002462459,0.001868476,0.0058047497,0.004948585,0.44729063,-1.4684569,2.006995,-2.1073287,-1.5707349,2.422194,-0.02225421,0.06311299,-0.07721004,0.0096809305,-0.0043516248,-0.027140802,-0.15322891,0.3256114,-9.308656,0.78217715,47.66539,-0.61024684,-1.7222254,-3.3971603,-0.33007997,-0.10511379,-0.074024655,25.125,25.75,24.9375,27.3125,27.8125,28.125
0.07605199,-0.8787473,-0.94074285,-0.40248245,0.006096446,0.031837102,-0.110527776,-0.37413117,-0.32829943,0.059883144,-3.0782933,0.6248224,-0.0004454969,-0.0368631,-0.0043693944,0.0023003202,0.0018908083,0.005383738,0.0048110695,0.4472307,-1.46836,2.0068748,-2.107293,-1.5707587,2.4221466,-0.02242739,0.06612542,-0.08024954,0.010095789,-0.004195286,-0.02717457,-0.26815057,0.3256114,-9.270349,0.75084364,47.686886,-0.61205614,-1.9341793,-3.4087386,-0.32140756,-0.12970768,-0.06903567,25.125,25.75,24.9375,27.3125,27.8125,28.125
0.078051984,-0.9269228,-0.24553327,-0.3078965,-0.0072273836,0.032060716,-0.12193155,-0.37418896,-0.3283185,0.059864685,-3.0782657,0.62475914,-0.00046542316,-0.038367953,-0.00459272,0.004145302,0.0010518458,0.008564798,0.0037761368,0.44723046,-1.4681809,2.0067174,-2.1072805,-1.570783,2.4221106,-0.022946917,0.06483888,-0.08333807,0.01124157,-0.00481914,-0.026656466,-0.2681506,0.30645782,-9.308657,0.79560274,47.683304,-0.6395251,-1.5829961,-3.3653364,-0.31677297,-0.14686757,-0.074760705,25.125,25.75,24.9375,27.3125,27.8125,28.125
0.08005197,-0.55579793,-0.2448719,-0.34074128,0.0013458128,0.042471338,-0.11933095,-0.3743041,-0.32832915,0.059907008,-3.0783172,0.6248278,-0.00033225506,-0.039308496,-0.004658726,0.0032360423,0.0022762152,0.007058664,0.0028114454,0.44714636,-1.4680836,2.0065134,-2.10728,-1.5707835,2.4220629,-0.0233605,0.06899483,-0.08589228,0.011528696,-0.00527296,-0.026102902,-0.22984336,0.28730422,-9.308656,0.800085,47.734352,-0.6700839,-1.783078,-3.2469962,-0.3295449,-0.13194653,-0.08712677,25.125,25.75,25.0,27.3125,27.8125,28.125
0.08205189,-0.26998252,-0.027827747,-0.3729577,-0.008409253,0.056911413,-0.120787986,-0.37440035,-0.3283434,0.05991709,-3.0783207,0.6248473,-0.00031686755,-0.041054223,-0.0047991183,0.0033990068,0.0027041673,0.0086927675,0.0029910302,0.44708607,-1.467915,2.0062969,-2.1072443,-1.570784,2.4220145,-0.02392768,0.07148689,-0.0888231,0.010682432,-0.006373193,-0.026845247,-0.3256114,0.28730422,-9.270349,0.73741806,47.678825,-0.6728238,-1.8028556,-3.3664448,-0.3211248,-0.11105425,-0.076603934,25.125,25.75,25.0,27.3125,27.8125,28.125
0.08405172,-0.9136992,-0.861027,-0.51033056,-0.0007232841,0.048716456,-0.11601333,-0.37445164,-0.3283469,0.059895832,-3.0782979,0.6248236,-0.00040500762,-0.040891234,-0.004280476,0.0025690652,0.004508766,0.00670843,0.0035500054,0.44703805,-1.4677587,2.0061653,-2.107208,-1.570772,2.4219546,-0.024229,0.07318617,-0.08905134,0.01178344,-0.0071424027,-0.027703559,-0.21068975,0.2681506,-9.289502,0.7284641,47.678825,-0.6700622,-1.7571545,-3.2014408,-0.3311432,-0.10062122,-0.07853034,25.125,25.75,25.0,27.3125,27.8125,28.125
0.086051956,-1.147382,-0.94936436,-0.5577758,-0.002266578,0.04136387,-0.11342828,-0.37450686,-0.32836083,0.05988789,-3.0782843,0.62474376,-0.0004661697,-0.040978994,-0.0045759496,0.0018458326,0.00501459,0.0050361156,0.0038178805,0.44701403,-1.4676023,2.005998,-2.1071484,-1.570772,2.4218826,-0.023929648,0.075713634,-0.090282016,0.012212189,-0.0068785013,-0.02767129,-0.28730422,0.2681506,-9.3661175,0.7732232,47.66539,-0.6669797,-1.8495104,-3.460815,-0.33394146,-0.117642134,-0.07739511,25.125,25.75,25.0,27.3125,27.8125,28.125
0.08805203,-1.1343465,-0.6327698,-0.26470235,-0.021810157,0.04751661,-0.11737202,-0.37463632,-0.32837844,0.059925463,-3.0783176,0.6247686,-0.00029610578,-0.043916166,-0.005348684,0.0034483438,0.0039607077,0.008332265,0.003166402,0.4469539,-1.4674575,2.0057552,-2.1071594,-1.5708078,2.421834,-0.024803374,0.07793993,-0.096554555,0.0128308525,-0.007361661,-0.027889473,-0.28730422,0.30645782,-9.442732,0.7978386,47.683304,-0.6828462,-1.8486493,-3.146358,-0.32024938,-0.12619025,-0.067751855,25.125,25.75,25.0,27.3125,27.8125,28.125
0.090051964,-0.9135685,-1.0374379,-0.4641822,-0.004070348,0.051229358,-0.11571097,-0.37472928,-0.32839733,0.059931885,-3.0783348,0.62475324,-0.00026759744,-0.04389456,-0.004665346,0.002242261,0.005665669,0.006378488,0.0034255986,0.44690543,-1.4672891,2.0055525,-2.107148,-1.5708083,2.421774,-0.02559109,0.08007774,-0.09614258,0.012781648,-0.008053595,-0.028935153,-0.24899697,0.22984336,-9.346964,0.8179876,47.694054,-0.6589589,-1.8360839,-3.419794,-0.32617617,-0.12386184,-0.06689522,25.125,25.75,25.0,27.3125,27.8125,28.125
0.09205185,-0.81896985,-0.7089274,-0.37967658,-0.002117954,0.04546722,-0.11372612,-0.37481838,-0.3284124,0.059946354,-3.078327,0.62473196,-0.00022978584,-0.045269407,-0.005071537,0.0024632784,0.0053510754,0.007057762,0.003017805,0.44686937,-1.4671328,2.0053365,-2.1071002,-1.5708326,2.4217257,-0.026056597,0.08235183,-0.09916162,0.012777121,-0.008069419,-0.028990805,-0.28730422,0.24899697,-9.3661175,0.83589023,47.698532,-0.6289623,-1.8801603,-3.2347224,-0.3014593,-0.096570015,-0.056197662,25.125,25.75,25.0,27.3125,27.8125,28.125
0.094051816,-0.5372134,-0.69356936,-0.39169288,0.006015914,0.048102878,-0.11273955,-0.3749033,-0.32839808,0.059931647,-3.078282,0.6248002,-0.00026380018,-0.046573773,-0.0056402977,0.0027125343,0.0044530006,0.007341542,0.001482453,0.4467733,-1.4669641,2.0051792,-2.107076,-1.570844,2.421678,-0.026619373,0.08463588,-0.10230957,0.012993856,-0.0073884903,-0.02801712,-0.2681506,0.19153613,-9.308656,0.8179876,47.68599,-0.6817487,-1.808445,-3.2686317,-0.30980211,-0.102061585,-0.07119122,25.125,25.75,25.0,27.3125,27.8125,28.125
0.09605226,-0.30478534,-0.5582573,-0.35155416,0.0031085783,0.04512319,-0.11648598,-0.37499896,-0.32843128,0.05993583,-3.0783043,0.6247289,-0.0002495957,-0.047463585,-0.005620612,0.0023377016,0.004618753,0.007123313,0.00018192368,0.44674888,-1.4667599,2.0049393,-2.107052,-1.570844,2.4216065,-0.027415026,0.086816445,-0.10376181,0.012534168,-0.0074471636,-0.027510917,-0.21068975,0.2681506,-9.32781,0.79560274,47.684196,-0.64265656,-1.8812847,-3.256087,-0.28131878,-0.114095934,-0.10123396,25.125,25.75,25.0,27.3125,27.8125,28.125
0.09805245,-1.0772527,-0.5717539,-0.46470082,-0.002461859,0.016157826,-0.109041795,-0.37510294,-0.3284428,0.059955534,-3.0783153,0.62471074,-0.00014126959,-0.04814641,-0.005759823,0.0023445766,0.0049519474,0.0069935345,0.0011796155,0.44670087,-1.4666156,2.0047352,-2.1070516,-1.5708803,2.421546,-0.027596854,0.08840907,-0.105674006,0.01311384,-0.0076929647,-0.028689228,-0.22984336,0.24899697,-9.3661175,0.76874626,47.661808,-0.69487476,-1.7799008,-3.216417,-0.28918177,-0.13028717,-0.10752036,25.125,25.75,25.0,27.3125,27.8125,28.125
0.10005291,-0.63059056,-1.1693693,-0.50043595,-0.002553895,0.029688857,-0.11739256,-0.3752096,-0.32845762,0.059980277,-3.0783195,0.62475044,-8.520059e-05,-0.049633127,-0.005643235,0.0025868262,0.0049928203,0.007366124,0.0008672485,0.4466405,-1.466459,2.0044954,-2.107004,-1.5708927,2.42151,-0.029013,0.09034666,-0.10850595,0.013689324,-0.007894593,-0.029791124,-0.15322891,0.30645782,-9.404425,0.78888994,47.686886,-0.69196683,-2.0663724,-3.1756976,-0.2763869,-0.12450531,-0.10937601,25.125,25.75,25.0,27.3125,27.8125,28.125
0.10205201,-0.23920766,-0.93800735,-0.38443437,-0.01657296,0.03614283,-0.11652639,-0.3752605,-0.3284502,0.059934184,-3.0782468,0.6247168,-0.0002491646,-0.050396793,-0.005628725,0.0035739332,0.003945755,0.00856094,-2.103075e-05,0.4465801,-1.4662439,2.0043504,-2.1069438,-1.5708922,2.421438,-0.030007342,0.08934611,-0.10987882,0.01453088,-0.0074709128,-0.029896619,-0.21068975,0.3256114,-9.500193,0.7351769,47.694054,-0.6662471,-1.7491469,-3.255392,-0.2784724,-0.11543768,-0.10656236,25.125,25.75,25.0,27.3125,27.8125,28.125
0.10405202,-0.2277323,-1.0049193,-0.6292392,-0.018912436,0.032705594,-0.11437136,-0.37540656,-0.32850575,0.05998746,-3.0783508,0.62468004,-8.504994e-05,-0.050479,-0.0052716904,0.00070313545,0.0077672843,0.0036638232,-8.35514e-07,0.44654408,-1.4660616,2.0040276,-2.1069438,-1.5708803,2.421366,-0.029845713,0.09660594,-0.11137928,0.014843735,-0.008800927,-0.029751902,-0.15322891,0.30645782,-9.385271,0.8157518,47.709274,-0.6279721,-2.030065,-3.269015,-0.26687258,-0.116864495,-0.14194277,25.125,25.75,25.0,27.3125,27.8125,28.125
0.10605189,-0.47374192,-1.4051672,-0.54786706,-0.0077468716,0.030547276,-0.110892355,-0.3754894,-0.32850042,0.059968706,-3.0782795,0.624704,-0.00012556532,-0.051135607,-0.0051506674,0.0011813933,0.007873999,0.0043329704,-0.00019487254,0.44648388,-1.4658582,2.0038354,-2.1068952,-1.570917,2.42133,-0.030393545,0.09667313,-0.11273469,0.015574142,-0.009189276,-0.03010388,-0.11492168,0.2681506,-9.308657,0.7418897,47.69763,-0.60447973,-1.8426473,-3.3600798,-0.26271817,-0.12390698,-0.1394044,25.125,25.75,25.0,27.3125,27.8125,28.125
0.108051814,-0.57923055,-0.6413965,-0.43335852,-0.014040302,0.019922096,-0.11376083,-0.37561455,-0.3285225,0.05997864,-3.078309,0.6246703,-8.066605e-05,-0.051932257,-0.0055835373,0.001080472,0.008010093,0.0044354466,0.0002475418,0.44641215,-1.4656417,2.0035717,-2.1068842,-1.570917,2.4212337,-0.0301739,0.0988618,-0.11492761,0.015544615,-0.009359968,-0.030325063,-0.095768064,0.24899697,-9.289502,0.79560274,47.696735,-0.6958845,-1.8903198,-3.3853757,-0.25586635,-0.1167129,-0.13774471,25.125,25.75,25.0,27.3125,27.8125,28.125
0.11005165,-0.38636377,-0.83800167,-0.55873096,0.009179833,0.012213347,-0.1184703,-0.3757214,-0.3285203,0.059988063,-3.0782783,0.62476,-4.5400328e-05,-0.052833375,-0.005304815,0.00063884235,0.0081972405,0.0030524116,-0.0008188396,0.44632754,-1.4654733,2.0033562,-2.1068475,-1.5709409,2.421209,-0.031783983,0.1012884,-0.11677525,0.016290732,-0.008933854,-0.030868413,-0.038307227,0.3256114,-9.289502,0.800085,47.694054,-0.6078923,-1.9502043,-3.423076,-0.24012482,-0.11121497,-0.1537321,25.125,25.75,25.0,27.3125,27.8125,28.125
0.11205267,-0.20307583,-0.65559787,-0.6273905,0.0044169114,0.007647393,-0.115527496,-0.3758316,-0.3285475,0.0599989,-3.0782983,0.6246298,3.4601e-05,-0.053649202,-0.0055060503,0.0006547289,0.008021764,0.0037654948,-0.00064146053,0.44630334,-1.4652692,2.003104,-2.106836,-1.5709771,2.4211013,-0.032031115,0.10259279,-0.11811144,0.015602593,-0.0090867905,-0.03129183,-0.019153614,0.28730422,-9.289502,0.76874626,47.682407,-0.6014463,-1.9591701,-3.3423285,-0.22354734,-0.10712834,-0.16894808,25.125,25.75,25.0,27.3125,27.8125,28.125
0.11405219,-0.06769316,-0.36537063,-0.42302084,-0.0057623535,0.004189319,-0.11837792,-0.37595713,-0.328546,0.060012896,-3.0782568,0.62471706,0.0001092142,-0.054906256,-0.005767788,0.0007883279,0.0080383355,0.0043176427,-0.00052361767,0.4462193,-1.4650766,2.0028512,-2.1067998,-1.5710248,2.4210773,-0.03248638,0.10475993,-0.12084015,0.01567164,-0.009345104,-0.031862807,0.0,0.22984336,-9.3661175,0.8537928,47.696735,-0.6303793,-1.83832,-3.5123081,-0.21156248,-0.097618446,-0.18840641,25.125,25.75,25.0,27.3125,27.8125,28.125
0.1160519,-0.95489764,-0.75860906,-0.55057603,0.0056101247,-0.012109098,-0.105417676,-0.3760557,-0.32856548,0.060005784,-3.0782664,0.6246805,8.1114034e-05,-0.05555604,-0.0052588545,0.0008447252,0.008338158,0.0044238484,-0.0009734683,0.44615877,-1.4648608,2.0026243,-2.1067755,-1.5710129,2.4209929,-0.03379836,0.105120495,-0.121454194,0.015959252,-0.009662732,-0.03272396,-0.05746084,0.22984336,-9.385271,0.7329411,47.716442,-0.53021455,-1.8840027,-3.4915345,-0.20790762,-0.11484548,-0.19626656,25.125,25.75,25.0,27.3125,27.8125,28.125
0.11805182,-0.38787282,-0.92343044,-0.39911696,0.0040869913,0.022077201,-0.11627142,-0.37613222,-0.32859197,0.059981544,-3.078293,0.624609,-5.165719e-05,-0.05613101,-0.005308581,0.00011899912,0.009267489,0.0026090394,-0.00032179747,0.44609872,-1.464632,2.0024192,-2.1067393,-1.5709528,2.4208848,-0.03417371,0.10836508,-0.12360926,0.016909078,-0.009722882,-0.033748824,-0.11492168,0.19153614,-9.308657,0.74413085,47.699425,-0.59699833,-1.9548187,-3.551,-0.19140054,-0.09097352,-0.20565261,25.125,25.75,25.0,27.3125,27.8125,28.125
0.120051645,-0.76800394,-0.5838524,-0.39115712,0.0011039677,0.026067724,-0.11414446,-0.37628326,-0.32857254,0.060006104,-3.0782132,0.6247648,9.984366e-05,-0.056450177,-0.005899461,0.00142213,0.008407463,0.0046150214,0.00075623073,0.44599104,-1.464441,2.002144,-2.1067035,-1.5710491,2.4208848,-0.033274613,0.106823035,-0.125109,0.017766101,-0.009812111,-0.033927716,-0.05746084,0.21068975,-9.308656,0.7777002,47.71286,-0.65998536,-1.7428265,-3.590004,-0.18734425,-0.11071983,-0.21583469,25.125,25.75,25.0,27.3125,27.8125,28.125
0.12205169,-1.1969916,-0.5977625,-0.44624218,0.011055054,0.024205124,-0.10986273,-0.3763946,-0.3286071,0.06000854,-3.078263,0.62469727,7.793962e-05,-0.05690081,-0.005847234,-0.00042596314,0.010237667,0.0012723795,0.0023266608,0.4459309,-1.4642115,2.00188,-2.1066792,-1.5710129,2.4207764,-0.033624295,0.11225831,-0.12693883,0.017966278,-0.01002533,-0.03584572,-0.076614454,0.1340753,-9.289502,0.7777002,47.71554,-0.62186813,-1.9069974,-3.5486426,-0.17964172,-0.092167586,-0.23823154,25.125,25.75,25.0,27.3125,27.8125,28.125
0.12405166,-0.60625845,-0.52300596,-0.43714368,0.015325352,0.03153362,-0.11099205,-0.37651008,-0.32861948,0.06001417,-3.0782313,0.6246326,0.000110600624,-0.05998147,-0.0066293688,0.0022618074,0.007774677,0.006131786,0.00199059,0.44588232,-1.463984,2.0016024,-2.1066191,-1.571061,2.4206917,-0.0349987,0.11199683,-0.1330415,0.018880771,-0.009910531,-0.03688093,-0.076614454,0.17238252,-9.270349,0.78888994,47.693153,-0.6685214,-1.7294763,-3.4967437,-0.17310917,-0.09681171,-0.22445767,25.125,25.75,25.0,27.3125,27.8125,28.125
0.12605247,-0.36704004,-0.06827376,-0.4674483,0.0062581245,0.030741485,-0.11527922,-0.376609,-0.32864395,0.05999459,-3.078221,0.62466806,3.9504277e-05,-0.05969274,-0.006474852,0.0010090128,0.009273624,0.003095098,0.0016307236,0.4458225,-1.4637315,2.001363,-2.1065943,-1.5710367,2.4206555,-0.03498744,0.114918806,-0.13367312,0.019977314,-0.009953553,-0.03650888,-0.05746084,0.21068975,-9.289502,0.81351066,47.701214,-0.59865785,-1.7611989,-3.5357504,-0.17861831,-0.10033104,-0.25088352,25.125,25.75,25.0,27.3125,27.8125,28.125
0.12805244,-1.0136353,-1.0221126,-0.6493096,0.019865079,0.010935307,-0.095042564,-0.37674385,-0.3286402,0.060014818,-3.0781796,0.6247181,0.00010012811,-0.06111535,-0.0068425247,0.0016426573,0.008886516,0.004618921,0.00088613067,0.4457264,-1.4635273,2.001075,-2.1065228,-1.5710849,2.4205961,-0.035350505,0.116263814,-0.13665143,0.020067455,-0.010266879,-0.036125023,-0.21068975,0.19153613,-9.251195,0.7933669,47.687782,-0.6859705,-1.7836664,-3.4246826,-0.15815908,-0.09790009,-0.2830724,25.125,25.75,25.0,27.3125,27.8125,28.125
0.13005187,-1.2890275,-0.9929521,-0.84817517,0.0071884384,0.009519868,-0.099042036,-0.37684909,-0.32867575,0.060015503,-3.078213,0.62456995,7.572878e-05,-0.062329423,-0.007283646,0.0022056876,0.008484474,0.0058170944,0.002169202,0.44569036,-1.4632876,2.000798,-2.106475,-1.5710734,2.4204636,-0.03549867,0.11758163,-0.13948162,0.020325247,-0.010426944,-0.037554126,-0.24899697,0.2681506,-9.32781,0.7642693,47.672558,-0.7353763,-1.6912467,-3.3912327,-0.16734771,-0.08826188,-0.2945826,25.125,25.75,25.0,27.3125,27.8125,28.125
0.13205197,-1.1366705,-1.3693533,-0.75287384,-0.002861129,0.03621515,-0.10571159,-0.37699112,-0.32867315,0.06003476,-3.0781734,0.62461954,0.00020191348,-0.063285045,-0.007504975,0.0026639467,0.0082346555,0.0064466484,0.00249079,0.44560617,-1.4630833,2.0005229,-2.1064508,-1.5711454,2.4204156,-0.03589367,0.11858202,-0.14180467,0.020968337,-0.010474682,-0.03826983,-0.30645782,0.28730422,-9.481039,0.7620334,47.687782,-0.67017114,-1.6171486,-3.385728,-0.14663152,-0.07990287,-0.30775386,25.125,25.75,25.0,27.3125,27.8125,28.125
0.13405222,-1.1597288,-0.91057307,-0.74743855,-0.029548064,0.04775811,-0.10749773,-0.3770943,-0.32867587,0.059998166,-3.0780916,0.6246016,8.847442e-05,-0.063526414,-0.007922585,0.0020508077,0.008750994,0.0045388523,0.0037677435,0.4455343,-1.462783,2.0002587,-2.1063788,-1.5711693,2.4203432,-0.035552345,0.12151152,-0.14392921,0.022103952,-0.01012479,-0.039203674,-0.3256114,0.4405331,-9.500193,0.76874626,47.694946,-0.7259441,-1.5827658,-3.4228425,-0.1408675,-0.098997325,-0.30780733,25.125,25.75,25.0,27.3125,27.8125,28.125
0.13605273,-1.1188545,-1.6991265,-0.86416155,-0.021869684,0.05893643,-0.11015958,-0.37725905,-0.32869944,0.060039144,-3.0781174,0.6246454,0.00018858096,-0.06426483,-0.008074552,0.0021919715,0.008773054,0.003963821,0.0033051807,0.4454382,-1.4625549,1.9998993,-2.1063187,-1.5711812,2.4202714,-0.03606364,0.123104565,-0.14634569,0.023453562,-0.009896212,-0.039252315,-0.34476504,0.40222588,-9.423578,0.800085,47.691364,-0.7823032,-1.6467631,-3.4337153,-0.14751384,-0.10352689,-0.3293944,25.125,25.75,25.0,27.3125,27.8125,28.125
0.13805169,-1.2092124,-1.5759687,-0.89286685,-0.030958852,0.057086382,-0.10809326,-0.37739354,-0.32871914,0.06004593,-3.0781343,0.6246306,0.00021564368,-0.06437754,-0.0081352135,0.00045312883,0.010149798,-0.0002568278,0.00113179,0.44535407,-1.4623133,1.9996113,-2.1062944,-1.5711812,2.420176,-0.03642274,0.1281695,-0.14827524,0.024718529,-0.009320309,-0.03743776,-0.40222588,0.4213795,-9.519346,0.7911258,47.696735,-0.77405226,-1.7683041,-3.4368763,-0.15894526,-0.105307974,-0.36290598,25.125,25.75,25.0,27.3125,27.8125,28.125
0.14005181,-1.050749,-1.4934481,-0.9921045,-0.019852428,0.04538622,-0.10445293,-0.37750143,-0.32873243,0.060043775,-3.0780892,0.6246011,0.00020370776,-0.065045975,-0.008248929,0.0016089781,0.009280314,0.0018878479,0.00084869383,0.44530594,-1.4620744,1.9993356,-2.1062214,-1.571217,2.4201155,-0.036700074,0.12663424,-0.1493159,0.024983166,-0.009462605,-0.037431173,-0.19153613,0.4213795,-9.519346,0.73741806,47.713753,-0.7901206,-1.6203597,-3.4362478,-0.14781275,-0.09132537,-0.39972013,25.125,25.75,25.0,27.3125,27.8125,28.125
0.14205177,-1.3387055,-1.4800744,-0.85082847,-0.024020359,0.030368475,-0.10801998,-0.377595,-0.3287693,0.06003139,-3.0781035,0.6245832,9.855352e-05,-0.06617788,-0.009015955,0.0012723311,0.009842389,0.0020809474,0.003983125,0.44525826,-1.4618214,1.999071,-2.1061628,-1.5711688,2.420055,-0.03586873,0.13035803,-0.152609,0.024622362,-0.010063709,-0.039730143,-0.15322891,0.40222588,-9.500193,0.83589023,47.686886,-0.8691869,-1.8358985,-3.3481061,-0.15154544,-0.09820914,-0.403853,25.125,25.75,25.0,27.3125,27.8125,28.125
0.14405163,-1.2385626,-1.6881884,-0.80044794,-0.009055649,0.020020114,-0.10862136,-0.37778968,-0.32879376,0.060075074,-3.07812,0.6245282,0.0003262048,-0.06860684,-0.009127042,0.001603503,0.009155017,0.0038164726,0.003529513,0.44518554,-1.4615571,1.9986762,-2.1061509,-1.5712527,2.4199462,-0.037729006,0.13323584,-0.1563522,0.023620818,-0.010196809,-0.041134927,-0.2873042,0.40222588,-9.461885,0.7709874,47.672558,-0.8393121,-1.7027338,-3.5190115,-0.11862776,-0.08679469,-0.4355997,25.125,25.75,25.0,27.3125,27.8125,28.125
0.14605244,-0.41120797,-1.1088382,-0.8414834,-0.011611168,0.024615204,-0.11167958,-0.37792093,-0.32880327,0.060068287,-3.0781076,0.62456346,0.00028313737,-0.068838984,-0.009032385,0.0013214948,0.009282001,0.0032798925,0.004766474,0.44507742,-1.4612935,1.9983891,-2.1061027,-1.5712408,2.4198618,-0.038167678,0.1341589,-0.15676747,0.023649836,-0.010082854,-0.042810205,-0.095768064,0.2681506,-9.404425,0.8605109,47.709274,-0.79430777,-1.7073467,-3.467895,-0.08732733,-0.10122959,-0.43190408,25.125,25.75,25.0,27.3125,27.8125,28.125
0.14805253,-0.4328916,-0.88922477,-0.7124061,-0.012837492,0.021739919,-0.115349144,-0.37806302,-0.32884628,0.0600628,-3.078115,0.62456316,0.00029622982,-0.06912754,-0.010216993,0.0010001679,0.009863204,0.0023181576,0.008321249,0.44503015,-1.4609807,1.998053,-2.1060903,-1.5712408,2.4198136,-0.03612351,0.13754544,-0.1600483,0.024661288,-0.010198175,-0.044318642,-0.15322891,0.34476504,-9.481039,0.80679786,47.63046,-0.91092443,-1.7939847,-3.4854484,-0.0895703,-0.0901241,-0.43440464,25.125,25.75,25.0,27.3125,27.8125,28.125
0.15005226,-0.31717297,-0.67308146,-0.59071535,-0.009270578,0.022058528,-0.114333525,-0.3782134,-0.32884127,0.060073055,-3.0780907,0.6245758,0.00034482204,-0.07050045,-0.01101865,0.0013269644,0.009309266,0.0025181544,0.010493691,0.4449102,-1.4607403,1.9977525,-2.1060421,-1.571277,2.419705,-0.036107093,0.14038078,-0.1641592,0.025512034,-0.009791417,-0.046472974,-0.05746084,0.34476504,-9.461885,0.8627467,47.661808,-1.07089,-1.6297069,-3.2803514,-0.08258179,-0.09039739,-0.43938094,25.125,25.75,25.0,27.3125,27.8125,28.125
0.15205209,-0.28299424,-0.50009996,-0.6347219,0.0006079023,0.014071279,-0.10932552,-0.37836832,-0.3288723,0.060094852,-3.078088,0.6244977,0.00043127048,-0.071238376,-0.010106182,-0.0002817749,0.011447566,-0.0005877886,0.011174716,0.4448615,-1.4604629,1.997382,-2.105982,-1.5713252,2.419608,-0.038056128,0.14471248,-0.16546169,0.026204038,-0.010385451,-0.04910116,-0.019153614,0.30645782,-9.385271,0.8918391,47.67166,-0.9589799,-1.8382969,-3.475884,-0.08639287,-0.0905018,-0.43369114,25.125,25.75,25.0,27.3125,27.8125,28.125
0.15405266,-0.79436636,-0.97116077,-0.6246222,0.0103448825,0.002018614,-0.10541061,-0.37847248,-0.32889876,0.06006874,-3.078073,0.6243002,0.0003495611,-0.070771836,-0.010147477,-0.0026638366,0.013757122,-0.0055513754,0.013574684,0.44482574,-1.4601614,1.9970945,-2.105922,-1.5713376,2.4194512,-0.03758388,0.15030986,-0.16643687,0.027053522,-0.010339058,-0.051027063,-0.019153614,0.30645782,-9.3661175,0.8112748,47.705692,-1.0473659,-1.98563,-3.4665294,-0.0563082,-0.1042272,-0.41438764,25.125,25.75,25.0,27.3125,27.8125,28.125
0.15605192,-0.3716566,-0.855743,-0.36292434,-0.0047421795,0.015209208,-0.11711456,-0.37866333,-0.328913,0.060104534,-3.0780945,0.62441874,0.00043941688,-0.07204626,-0.01005005,-0.0015623645,0.012576537,-0.0039391164,0.015282406,0.44468108,-1.4598984,1.9967102,-2.1058733,-1.5713371,2.419378,-0.03912055,0.14969078,-0.16846786,0.027734932,-0.009968339,-0.054272037,0.05746084,0.2681506,-9.232041,0.8179876,47.701214,-1.0136313,-1.8876605,-3.426227,-0.056593336,-0.11794798,-0.400842,25.125,25.75,25.0,27.3125,27.8125,28.125
0.15805176,-0.20074919,-0.7077272,-0.23077801,-0.012100391,0.014583793,-0.12101772,-0.37880465,-0.32894856,0.06010061,-3.07811,0.62430525,0.00042365573,-0.073044196,-0.010153854,-0.0011228885,0.012799326,-0.0033847855,0.01787433,0.44462106,-1.4595865,1.996363,-2.1058257,-1.5713376,2.4192455,-0.039502464,0.15083838,-0.17101674,0.028730227,-0.010413099,-0.057243686,-0.019153614,0.3256114,-9.136273,0.7866488,47.70032,-1.0263786,-1.8066022,-3.4613314,-0.058590226,-0.09913535,-0.37468553,25.125,25.75,25.0,27.3125,27.8125,28.125
0.16005164,-0.33693734,-0.750889,-0.1864423,-0.013236578,0.016790608,-0.11296551,-0.37895513,-0.32895225,0.060069628,-3.0780253,0.6242081,0.00042729406,-0.07380302,-0.011002239,-0.0009391028,0.0129423095,-0.0030561215,0.021834474,0.44454944,-1.4592267,1.9960274,-2.10579,-1.5714215,2.4191244,-0.038392533,0.15309466,-0.17412855,0.029343497,-0.010693761,-0.060090896,-0.076614454,0.28730422,-9.193734,0.8403672,47.71286,-1.1192212,-1.8073845,-3.3926017,-0.052326184,-0.086370945,-0.34073997,25.125,25.75,25.0,27.3125,27.8125,28.125
0.16205163,-0.38515514,-0.8351984,0.16233931,-0.0060330112,0.017097143,-0.111920856,-0.37911156,-0.32898653,0.06010587,-3.078068,0.62415797,0.00045985708,-0.07468867,-0.010992578,-0.00061417214,0.012234599,-0.0028739872,0.023790227,0.44446504,-1.4589746,1.995643,-2.1056936,-1.5714091,2.4190035,-0.039552383,0.15379743,-0.17580152,0.029840106,-0.010135042,-0.06320701,-0.019153614,0.30645782,-9.002198,0.80679786,47.694946,-1.1843146,-1.7136581,-3.461432,-0.049978662,-0.090808265,-0.31342512,25.125,25.75,25.0,27.3125,27.8125,28.125
0.16405255,-0.5722609,-0.43325266,-0.11845662,0.0017110065,-0.0006282456,-0.11361097,-0.37927178,-0.32901818,0.060115356,-3.0780878,0.6240256,0.0005373258,-0.07591774,-0.010955224,-0.0003768892,0.011944589,-0.0025673574,0.02468858,0.4444047,-1.4586747,1.9952835,-2.1056693,-1.5714449,2.4188583,-0.04078417,0.15529025,-0.17814466,0.030283697,-0.010007817,-0.065336354,-0.11492168,0.30645782,-9.021352,0.8023209,47.678825,-1.0875175,-1.7241766,-3.4013815,-0.03454923,-0.11031874,-0.26408827,25.125,25.75,25.0,27.3125,27.8125,28.125
0.16605185,0.2137151,-0.07904834,-0.07865174,0.0037674687,0.014508003,-0.11620972,-0.3794061,-0.3290461,0.060109608,-3.0780973,0.6239689,0.000469035,-0.07787313,-0.011765143,0.0012954153,0.010578542,0.000488293,0.026568318,0.44432065,-1.4583751,1.9949483,-2.1055977,-1.571421,2.418738,-0.04093714,0.15574181,-0.1826899,0.031030528,-0.010099446,-0.06736615,-0.17238252,0.21068975,-9.155427,0.88960326,47.71554,-1.2499487,-1.6331571,-3.2940643,-0.027891165,-0.11425453,-0.22484484,25.125,25.75,25.0,27.3125,27.8125,28.125
0.16805188,-0.35841528,-0.18921721,-0.023088127,0.011165242,0.005088871,-0.11638064,-0.3795821,-0.32906365,0.06012365,-3.0780888,0.62394905,0.0005040282,-0.07877337,-0.011252601,0.0009456391,0.010625049,-0.0006589492,0.025395846,0.444212,-1.4580628,1.9945534,-2.1055257,-1.5714449,2.4186182,-0.042966496,0.15752049,-0.18405227,0.03166508,-0.0096498765,-0.06822314,-0.19153613,0.2681506,-9.097966,0.8179876,47.701214,-1.1761748,-1.753539,-3.4617085,-0.036992513,-0.13025028,-0.18681927,25.125,25.75,25.0,27.3125,27.8125,28.125
0.17005195,-0.44688758,-0.17397076,-0.17770615,0.014248297,0.008422944,-0.11453112,-0.37972084,-0.32907626,0.060114827,-3.0780683,0.62377197,0.00044944644,-0.079056956,-0.010602614,-0.00025789978,0.012261795,-0.003514572,0.0248736,0.44412747,-1.4577507,1.9942054,-2.105429,-1.5714687,2.418426,-0.044236608,0.16059218,-0.18501715,0.03283796,-0.009905121,-0.06896933,-0.11492168,0.24899697,-9.078813,0.83589023,47.70211,-1.0864216,-1.5922731,-3.372838,-0.03719578,-0.10407005,-0.17497963,25.125,25.75,25.0,27.3125,27.8125,28.125
0.17205237,-0.10633408,-0.0898322,-0.28524366,0.007724644,0.025134047,-0.116272554,-0.37989035,-0.3291035,0.06011906,-3.0780494,0.6237678,0.0004716095,-0.08009351,-0.010730776,0.0009732749,0.011819915,-0.0018460831,0.0237977,0.44404346,-1.4574155,1.99381,-2.1053684,-1.5714935,2.418342,-0.04468,0.1600188,-0.18757927,0.034276254,-0.010225596,-0.068335354,-0.1340753,0.22984336,-9.136273,0.89631605,47.685097,-1.148828,-1.4753737,-3.481648,-0.037619703,-0.10487291,-0.14789402,25.125,25.75,25.0,27.3125,27.8125,28.125
0.1740524,-0.9358606,-0.45272893,-0.2376074,0.018803334,0.017825667,-0.1072894,-0.38002566,-0.3291168,0.060078442,-3.078005,0.62366384,0.0003350473,-0.0806755,-0.010850578,0.0008693166,0.011436877,-0.0033609904,0.021488762,0.44394702,-1.4570435,1.9934739,-2.1052964,-1.571493,2.4181867,-0.045611873,0.16184473,-0.18978678,0.035858236,-0.009237548,-0.066958085,-0.24899697,0.11492168,-9.212888,0.9097417,47.716442,-1.1536158,-1.4839069,-3.3396544,-0.05705969,-0.13493322,-0.15742815,25.125,25.75,25.0,27.3125,27.8125,28.125
0.17605254,-1.1658385,-0.1796287,-0.4551307,0.018751511,0.026880711,-0.11323374,-0.3801886,-0.32913253,0.06008557,-3.07799,0.62358576,0.0003945839,-0.08132375,-0.010864937,0.0012253358,0.011832869,-0.003390313,0.018496359,0.4438629,-1.4567437,1.9931139,-2.1052482,-1.5715407,2.418056,-0.045905612,0.1627011,-0.19193855,0.03735024,-0.00958245,-0.064258,-0.36391866,0.11492168,-9.232041,0.80456203,47.711063,-1.1016515,-1.4514675,-3.5667715,-0.06480568,-0.15344825,-0.16780484,25.125,25.75,25.0,27.3125,27.8125,28.125
0.1780526,-1.6081504,-0.054393932,-0.60581577,0.019177804,0.022692814,-0.11351215,-0.38034415,-0.3291638,0.060093615,-3.0779936,0.6235469,0.00032293404,-0.08211284,-0.010332451,0.00038631118,0.013985246,-0.00531,0.01776589,0.4437667,-1.4564188,1.9927071,-2.1051276,-1.5715173,2.4179354,-0.046819896,0.16615516,-0.19424756,0.038867593,-0.010707018,-0.06443789,-0.3256114,0.15322891,-9.404425,0.8605109,47.67793,-1.1984909,-1.6639361,-3.5003161,-0.085434705,-0.13243207,-0.1613855,25.125,25.75,25.0,27.3125,27.8125,28.125
0.1800525,-1.3457199,-0.15293926,-0.6399719,0.012443053,0.044983402,-0.11124538,-0.38050845,-0.329191,0.06010672,-3.0779893,0.6234914,0.00028801535,-0.08184477,-0.010067781,-0.0013450825,0.015204495,-0.010224843,0.011855163,0.44367057,-1.4560939,1.992289,-2.1050074,-1.5715169,2.4178054,-0.04772192,0.17028418,-0.19536555,0.040819272,-0.0096966745,-0.059430227,-0.4405331,0.17238252,-9.481039,0.86498255,47.686886,-1.1310861,-1.6227076,-3.5263314,-0.1065242,-0.14192906,-0.19275314,25.125,25.75,25.0,27.3125,27.8125,28.125
0.18205191,-1.3087091,-0.26620194,-0.7364359,-0.0050159893,0.054322273,-0.11971275,-0.38064244,-0.3292033,0.060078453,-3.077916,0.62338144,0.00018496817,-0.082203984,-0.009847201,-0.0016184995,0.016468983,-0.012406384,0.008655121,0.4435982,-1.4557344,1.9919294,-2.1048987,-1.5715531,2.417674,-0.048289265,0.17244218,-0.19783945,0.04364893,-0.009907315,-0.056795154,-0.38307226,0.11492168,-9.519346,0.842603,47.689575,-1.1551868,-1.6132381,-3.4708178,-0.14406216,-0.14034568,-0.24677165,25.125,25.75,25.0,27.3125,27.8125,28.125
0.1840519,-1.5724623,-0.6080332,-0.7166011,-0.0144151775,0.05537739,-0.11321014,-0.38081583,-0.3292195,0.060082655,-3.0778897,0.62341505,0.00020684315,-0.08313144,-0.009750943,-0.0028827745,0.018128784,-0.014159348,0.0070034335,0.44349018,-1.4554093,1.9915451,-2.104839,-1.5715774,2.4175906,-0.048760027,0.17706496,-0.20012574,0.043609615,-0.010660618,-0.055610713,-0.4213795,0.21068975,-9.615114,0.88960326,47.703903,-1.1574461,-1.7293701,-3.5437033,-0.18007785,-0.14356345,-0.26380306,25.125,25.75,25.0,27.3125,27.8125,28.125
0.18605222,-1.4419472,-1.2051883,-0.8280543,-0.008761777,0.060952794,-0.11108763,-0.380999,-0.32924664,0.060083866,-3.0778534,0.6233881,0.00018132973,-0.0840525,-0.00969001,-0.0033267408,0.017909396,-0.014817091,0.0073012505,0.44339356,-1.4550251,1.9910907,-2.1047313,-1.5716013,2.4174821,-0.04997508,0.17934425,-0.20164816,0.043347165,-0.01018921,-0.05712302,-0.28730422,0.19153613,-9.576807,0.8090337,47.672558,-1.1186725,-1.7615671,-3.504721,-0.18271169,-0.15339532,-0.26443583,25.125,25.75,25.0,27.3125,27.8125,28.125
0.18805225,-1.4067316,-0.9554613,-0.7462792,-0.004378053,0.04948586,-0.10549387,-0.3811568,-0.32925954,0.060074817,-3.0778306,0.62330794,0.00013161704,-0.08547875,-0.009530441,-0.0031157895,0.018732453,-0.0142633,0.0041175513,0.44328547,-1.4546889,1.9907182,-2.104647,-1.5716137,2.4173272,-0.05084718,0.18140608,-0.20466566,0.04415992,-0.011178273,-0.054807067,-0.30645782,0.17238252,-9.519346,0.8560339,47.67345,-1.1176587,-1.799607,-3.3878627,-0.20163035,-0.14680615,-0.3087426,25.125,25.75,25.0,27.3125,27.8125,28.125
0.1900522,-1.0236964,-0.41465172,-0.6660179,-0.005677102,0.041334424,-0.11766293,-0.38136378,-0.32928956,0.060094457,-3.0778112,0.6233609,0.00023671282,-0.086840935,-0.009706951,-0.0027361014,0.018367633,-0.013892227,0.0041424576,0.44318908,-1.4543293,1.9902624,-2.1045992,-1.5716614,2.4172666,-0.051804047,0.18320484,-0.20778698,0.044985496,-0.01101262,-0.05578802,-0.34476504,0.21068975,-9.461885,0.8672237,47.71554,-1.0756458,-1.7673836,-3.4016066,-0.21942405,-0.13804096,-0.31680942,25.125,25.75,25.0,27.3125,27.8125,28.125
0.19205217,-0.9556318,-0.4403023,-0.59772474,-0.0051217275,0.039463338,-0.11189198,-0.3814969,-0.3293144,0.060072154,-3.0777762,0.6232753,0.00012726148,-0.087163486,-0.009657153,-0.0035593156,0.019125588,-0.016571023,0.005563705,0.44311687,-1.4539804,1.9899033,-2.1045024,-1.5716614,2.4171457,-0.05246344,0.18627921,-0.2097562,0.04662069,-0.010557163,-0.057867665,-0.47884032,0.28730422,-9.404425,0.8605109,47.688675,-1.1035111,-1.8024573,-3.567422,-0.2644996,-0.14640151,-0.30783695,25.125,25.75,25.0,27.3125,27.8125,28.125
0.19405238,-0.977066,-0.43706828,-0.7425444,-0.012691608,0.029353198,-0.11470629,-0.3816922,-0.32933,0.060081884,-3.077762,0.6232344,8.02664e-05,-0.08820896,-0.009369637,-0.0039001512,0.019961037,-0.015661927,0.005963657,0.44297272,-1.4536088,1.9894375,-2.1043713,-1.5716618,2.4169781,-0.053111453,0.18806121,-0.21073562,0.04535641,-0.011712957,-0.058911607,-0.34476504,0.36391866,-9.500193,0.8940802,47.677036,-1.054451,-1.7286191,-3.5980833,-0.2706774,-0.14238821,-0.31240118,25.125,25.75,25.0,27.3125,27.8125,28.125
0.19605255,-1.8649696,-1.4344983,-0.66739196,-0.0149811795,0.019470125,-0.097736314,-0.38185692,-0.32932663,0.060053628,-3.0776694,0.6232158,5.2054206e-06,-0.08998731,-0.009475013,-0.0028613114,0.018678946,-0.012849655,0.004595915,0.44285205,-1.4532253,1.9890536,-2.104276,-1.5717095,2.416858,-0.054414548,0.18812717,-0.21306744,0.044528045,-0.011774832,-0.058844306,-0.30645782,0.3256114,-9.385271,0.88960326,47.683304,-1.0331991,-1.7191474,-3.6682277,-0.26452816,-0.14433435,-0.3169527,25.125,25.75,25.0,27.3125,27.8125,28.125
0.19805254,-1.2092941,-2.1266549,-0.52095747,-0.0173432,0.039988447,-0.11091695,-0.38206753,-0.32934076,0.060060017,-3.0776067,0.623319,7.589178e-05,-0.09080426,-0.009356709,-0.0027680683,0.019014427,-0.01373369,0.0030969228,0.44273186,-1.4528414,1.9885978,-2.1042154,-1.5717701,2.4168105,-0.055365898,0.18977612,-0.21560167,0.046351377,-0.011701724,-0.05829589,-0.38307226,0.3256114,-9.423578,0.8717007,47.672558,-1.006465,-1.7422909,-3.6595762,-0.28428623,-0.14984009,-0.3412334,25.125,25.75,25.0,27.3125,27.8125,28.125
0.20005178,-1.1112932,-1.5093775,-0.5311979,-0.02502482,0.04061595,-0.11251312,-0.38225457,-0.32937637,0.060075976,-3.0776432,0.62322867,7.710029e-05,-0.09217332,-0.009574428,-0.0022669933,0.018375255,-0.0130397,0.0037665563,0.44262356,-1.4524934,1.9881543,-2.1041315,-1.5717572,2.4166415,-0.056317434,0.19122942,-0.2185712,0.046963353,-0.011429301,-0.05991621,-0.3256114,0.28730422,-9.289502,0.8537928,47.67793,-0.9905951,-1.7460352,-3.616921,-0.31001025,-0.16251893,-0.37017405,25.125,25.75,25.0,27.3125,27.8125,28.125
0.20205168,-0.24601205,-0.7174394,-0.40154463,-0.016419722,0.045893732,-0.12453438,-0.38243198,-0.32938334,0.06006008,-3.0775554,0.6232679,5.8591754e-06,-0.09350016,-0.0100502325,-0.002016838,0.017225118,-0.012115486,0.004255898,0.4425034,-1.4520978,1.9877228,-2.1040123,-1.5717934,2.4165573,-0.05698963,0.19300127,-0.22104755,0.046332974,-0.010800882,-0.061076626,-0.21068975,0.22984336,-9.289502,0.9164598,47.68062,-1.0402362,-1.4601892,-3.6231546,-0.35085714,-0.16473016,-0.34914857,25.125,25.75,25.0,27.3125,27.8125,28.125
0.20405264,-0.9238233,-0.49613947,-0.52428657,0.0046123015,0.015420177,-0.11033713,-0.38264996,-0.32941607,0.060077265,-3.0775855,0.6232357,5.161016e-05,-0.09677842,-0.010852913,0.00050099293,0.014376546,-0.0053521097,0.0023632213,0.4423711,-1.4517145,1.9872426,-2.1039526,-1.5717934,2.4164014,-0.05812832,0.19234543,-0.22568995,0.044300288,-0.01113587,-0.06031937,-0.15322891,0.24899697,-9.270349,0.9231726,47.70659,-1.0254097,-1.5398117,-3.4686358,-0.32550746,-0.15504842,-0.38427573,25.125,25.75,25.0,27.3125,27.8125,28.125
0.20605272,-0.66576904,0.048080426,-0.36755642,0.004077621,0.015327702,-0.117421456,-0.38281837,-0.32945716,0.06007035,-3.0775728,0.6231947,6.303836e-06,-0.09964272,-0.01102519,0.0012962748,0.012512369,-0.002235689,0.002753305,0.4422982,-1.4513307,1.9868115,-2.1038702,-1.5717934,2.4163048,-0.060528453,0.19432923,-0.22935304,0.04235971,-0.010802784,-0.06310729,-0.095768064,0.1340753,-9.270349,0.8224646,47.67793,-0.83996785,-1.4738519,-3.5089564,-0.3114096,-0.15926518,-0.37364745,25.125,25.75,25.0,27.3125,27.8125,28.125
0.20805171,-0.6227387,0.027837206,-0.7550883,0.013388784,0.013543384,-0.11541153,-0.38299945,-0.32945344,0.06003972,-3.077469,0.62313014,-4.7048492e-05,-0.09999178,-0.012387377,0.0016823921,0.011922614,-0.0007342867,0.011028805,0.44217902,-1.4509112,1.9863919,-2.1037743,-1.5718654,2.416159,-0.05818794,0.19552597,-0.23149653,0.041683987,-0.010931377,-0.069039546,-0.05746084,0.2681506,-9.251195,0.8851263,47.677036,-0.995674,-1.4412998,-3.4752436,-0.31692556,-0.1640517,-0.3279541,25.125,25.75,25.0,27.3125,27.8125,28.125
0.2100517,-0.57874185,-0.372843,-0.8698163,0.013373931,0.025220154,-0.1144975,-0.38324073,-0.32947752,0.060074847,-3.0774767,0.6230552,2.8077658e-05,-0.10140229,-0.011726574,0.0010563424,0.012597954,-0.0012053243,0.008782097,0.4420342,-1.4505149,1.9858421,-2.1036546,-1.5719012,2.4159667,-0.060329787,0.19830793,-0.23314369,0.04126156,-0.011343222,-0.068932734,0.0,0.24899697,-9.423578,0.8537928,47.69763,-0.9473373,-1.3949301,-3.45683,-0.31300116,-0.18408147,-0.3162151,25.125,25.75,25.0,27.3125,27.8125,28.125
0.21205172,-0.83092874,-0.92886263,-0.88295853,0.0005625329,0.030779285,-0.1089689,-0.3834185,-0.32950127,0.06006939,-3.0774984,0.6230016,1.6808674e-05,-0.103482775,-0.011259087,0.00045795413,0.012461328,-0.0019601304,0.009172277,0.4419133,-1.4501662,1.9854573,-2.1036193,-1.5718893,2.4158099,-0.06327756,0.20227869,-0.23620795,0.040972427,-0.01090819,-0.0722695,-0.05746084,0.22984336,-9.442732,0.93436235,47.679718,-0.81960094,-1.5044763,-3.3983169,-0.28922918,-0.1855126,-0.30069673,25.125,25.75,25.0,27.3125,27.8125,28.125
0.2140517,-1.1582297,-0.7882414,-0.96794504,-0.017363755,0.028799945,-0.117156856,-0.3836144,-0.32953638,0.060070027,-3.0774767,0.6229553,-4.787448e-05,-0.10429678,-0.011853051,-0.0005321298,0.013856197,-0.0025712478,0.014258668,0.4418056,-1.4497443,1.9849547,-2.1034877,-1.5718898,2.4156764,-0.062179264,0.20673434,-0.2388439,0.040298797,-0.011923658,-0.07625233,-0.17238252,0.34476504,-9.461885,0.88960326,47.70838,-0.7585615,-1.7482427,-3.3162503,-0.3007481,-0.18651365,-0.25215822,25.125,25.75,25.0,27.3125,27.8125,28.125
0.21605203,-1.3345914,-1.6271324,-1.0581619,-0.02127351,0.039991513,-0.11306912,-0.3838014,-0.32954592,0.060037673,-3.077403,0.62293744,-0.00014843953,-0.10438485,-0.011977306,-0.0009548345,0.014007786,-0.003495466,0.01795626,0.44167376,-1.4493015,1.9845122,-2.1033914,-1.5719131,2.415543,-0.06214361,0.20808715,-0.23952547,0.04051877,-0.011679271,-0.079913415,-0.22984336,0.28730422,-9.557653,0.8940802,47.72002,-0.93269134,-1.7929943,-3.3619518,-0.29618943,-0.18000352,-0.19234917,25.125,25.75,25.0,27.3125,27.8125,28.125
0.2180518,-1.5885572,-2.0448785,-0.6992498,-0.029623676,0.04900963,-0.10996181,-0.384046,-0.3295905,0.060078405,-3.077436,0.6228855,-8.807701e-06,-0.105774574,-0.01138896,-0.0011061025,0.0140485475,-0.0031612003,0.018701456,0.441565,-1.4489058,1.9839605,-2.10332,-1.5719498,2.4153981,-0.06428387,0.2096795,-0.24092624,0.04003495,-0.011860394,-0.08279842,-0.28730422,0.3256114,-9.442732,0.8560339,47.70838,-0.8599506,-1.6947179,-3.5418077,-0.2702487,-0.17232999,-0.15673335,25.125,25.75,25.0,27.3125,27.8125,28.125
0.22005172,-1.6033117,-1.6948771,-1.2373986,-0.028286811,0.04230339,-0.10893943,-0.3842577,-0.32958987,0.060070347,-3.077375,0.6227755,3.7397956e-05,-0.106247455,-0.011426659,-0.0026216614,0.015199701,-0.004506022,0.021092633,0.4414331,-1.4484972,1.9835061,-2.1032488,-1.5720338,2.4152057,-0.0642658,0.21362366,-0.24158563,0.038447734,-0.012337533,-0.085168816,-0.22984336,0.34476504,-9.5385,0.8403672,47.704796,-0.7760936,-1.669383,-3.5739179,-0.27338618,-0.19063175,-0.0897861,25.125,25.75,25.0,27.3125,27.8125,28.125
0.22205171,-1.5977639,-2.059132,-1.127722,-0.025795138,0.043104414,-0.101350196,-0.38445276,-0.32961342,0.060051102,-3.0773644,0.6226777,-9.1561524e-05,-0.10747649,-0.011798465,-0.002163975,0.01324237,-0.0025814339,0.020527234,0.44128868,-1.4480538,1.9830273,-2.10313,-1.5720094,2.4150019,-0.06522525,0.21400438,-0.24274085,0.036642507,-0.011405451,-0.08556335,-0.4213795,0.36391866,-9.595961,0.81351066,47.677036,-0.7668465,-1.5896193,-3.7554708,-0.26035368,-0.2025537,-0.061219834,25.125,25.75,25.0,27.3125,27.8125,28.125
0.22405182,-1.5815558,-1.6664884,-0.8069647,-0.036276963,0.04805847,-0.1087782,-0.384681,-0.329642,0.060070425,-3.077378,0.62258404,5.3543907e-05,-0.10847006,-0.012200064,-0.0016694139,0.0129933655,-0.00075625425,0.019115508,0.44118088,-1.44767,1.9825481,-2.1031058,-1.57207,2.4148343,-0.06494003,0.21474987,-0.2446493,0.036047034,-0.011958072,-0.08386464,-0.47884035,0.32561144,-9.557653,0.9321212,47.684196,-0.7895715,-1.6565948,-3.669541,-0.22262552,-0.20510599,-0.049315587,25.125,25.75,25.0,27.3125,27.8125,28.125
0.22605227,-1.4581788,-1.2061774,-0.9513985,-0.019687137,0.03834722,-0.11312013,-0.3849176,-0.32967395,0.060061883,-3.0773952,0.6225524,4.0055562e-05,-0.111002624,-0.011581641,-0.0013233729,0.012243843,0.000612805,0.013445392,0.44102365,-1.4472023,1.9820336,-2.1030586,-1.5720576,2.4146554,-0.068302445,0.21683504,-0.24774933,0.035506368,-0.011871091,-0.08155519,-0.30645782,0.3256114,-9.500193,0.85155696,47.66808,-0.70930475,-1.6184895,-3.686279,-0.17733726,-0.2014232,-0.055631004,25.125,25.75,25.0,27.3125,27.8125,28.125
0.2280522,-0.8143047,-0.6936178,-0.9582926,-0.014983328,0.046714906,-0.11589578,-0.38513595,-0.3296635,0.060047396,-3.077315,0.62261295,2.4076566e-05,-0.11229693,-0.013138481,-0.0009944981,0.011279514,0.0023709955,0.011923692,0.44084442,-1.4467821,1.9815773,-2.1029747,-1.5721058,2.4145246,-0.066576086,0.2197705,-0.25163782,0.034456555,-0.0117609855,-0.07830418,-0.36391866,0.38307226,-9.519346,0.92764956,47.667187,-0.73019576,-1.6707692,-3.702649,-0.15559617,-0.1980975,-0.07582008,25.125,25.75,25.0,27.3125,27.8125,28.125
0.23005225,-1.4917762,-1.0985063,-0.7651911,-0.01027588,0.037632734,-0.10472472,-0.3853639,-0.3297284,0.060057577,-3.0773466,0.6224865,6.4370746e-05,-0.114318,-0.013543876,-9.109544e-05,0.010592976,0.004539461,0.007961991,0.440772,-1.4463146,1.9810141,-2.1029031,-1.5721177,2.4143696,-0.067350216,0.22142252,-0.25568798,0.034605023,-0.012068352,-0.075113855,-0.4213795,0.30645782,-9.461885,0.94331104,47.668976,-0.7278665,-1.619414,-3.6449423,-0.11635339,-0.1995264,-0.099793434,25.125,25.75,25.0,27.3125,27.8125,28.125
0.23205227,-1.4170926,-0.9833759,-0.73833287,-0.005647601,0.04374997,-0.10602752,-0.3855701,-0.3297458,0.06003759,-3.0772994,0.62247884,2.4753781e-05,-0.11651945,-0.013050222,0.0012526192,0.010198662,0.0060230405,0.002753528,0.44063926,-1.4458711,1.9805464,-2.1028302,-1.572142,2.4142385,-0.069949545,0.22191396,-0.2599158,0.03683322,-0.012349161,-0.07250175,-0.4213795,0.22984336,-9.442732,0.8985519,47.677036,-0.6831208,-1.6389811,-3.630496,-0.13587753,-0.22058192,-0.12696852,25.125,25.75,25.0,27.3125,27.8125,28.125
0.23405227,-0.80110174,-0.16559502,-0.668211,0.000923362,0.046785086,-0.114416435,-0.38585114,-0.32977977,0.06005785,-3.0773156,0.62255996,0.00015153315,-0.11785828,-0.014053779,0.0023601658,0.009584054,0.008365646,0.0015978637,0.44047135,-1.4454035,1.9799703,-2.1028059,-1.5721658,2.4141195,-0.06890589,0.22297038,-0.2638454,0.03732688,-0.012790711,-0.070300356,-0.36391866,0.22984336,-9.404425,0.8806493,47.679718,-0.5800428,-1.6480165,-3.3866239,-0.077216774,-0.22509369,-0.16174722,25.125,25.75,25.0,27.3125,27.8125,28.125
0.2360525,-0.53003114,-0.16995384,-0.52078694,0.018781675,0.05223166,-0.10992964,-0.38608757,-0.32980365,0.06006369,-3.0773325,0.6225438,0.00020656669,-0.117890224,-0.014826212,0.0022975337,0.009453029,0.0065799635,0.0006896243,0.44031584,-1.4449838,1.9794782,-2.1027696,-1.5721773,2.413952,-0.06803216,0.22499035,-0.26657215,0.0395902,-0.011906839,-0.06852001,-0.38307226,0.24899697,-9.346964,0.86498255,47.684196,-0.7693299,-1.581625,-3.254778,-0.07728568,-0.23116252,-0.19482577,25.125,25.75,25.0,27.3125,27.8125,28.125
0.23805255,-0.8219852,-0.41383994,-0.57977414,0.02645992,0.044157248,-0.10866587,-0.3863103,-0.32982895,0.060052916,-3.0772786,0.62241817,0.00019935353,-0.1180667,-0.014256071,0.0019158216,0.010484226,0.004551634,-0.0018012674,0.44020748,-1.4445043,1.9789404,-2.1026614,-1.5722378,2.4137726,-0.069140725,0.22627684,-0.267732,0.041735187,-0.011974738,-0.06713683,-0.51714754,0.2681506,-9.308656,0.90750587,47.672558,-0.71999097,-1.4379795,-3.3625135,-0.081556745,-0.2432833,-0.21853189,25.125,25.75,25.0,27.3125,27.8125,28.125
0.24005245,-0.88510346,0.0913138,-0.54445726,0.0054810806,0.047505863,-0.112545334,-0.3865573,-0.32984024,0.06004729,-3.0772245,0.6224817,0.00017359339,-0.11831613,-0.014752428,0.0011813021,0.010970779,0.004031797,0.0006694265,0.44002795,-1.4440246,1.9783906,-2.102554,-1.5722617,2.41364,-0.06822546,0.22883514,-0.2688504,0.04096745,-0.012202046,-0.06869026,-0.40222588,0.2681506,-9.308657,0.8873621,47.672558,-0.7789193,-1.385498,-3.4097874,-0.055462092,-0.24302725,-0.24340074,25.125,25.75,25.0,27.3125,27.8125,28.125
0.2420524,-1.0016162,-0.9260039,-0.45376974,0.0041259066,0.052268527,-0.11627576,-0.38677827,-0.32987118,0.06004629,-3.0771945,0.6224961,0.00017781662,-0.11854789,-0.014448163,0.0011276553,0.01168174,0.0028283144,-0.0017924946,0.43990752,-1.4435809,1.9778756,-2.1024692,-1.5722855,2.4135327,-0.06884873,0.22968376,-0.27020928,0.04287006,-0.012330374,-0.06685091,-0.28730422,0.21068975,-9.289502,0.8493211,47.694946,-0.7836139,-1.2477435,-3.5768125,-0.030498914,-0.25062212,-0.2579369,25.125,25.75,25.0,27.3125,27.8125,28.125
0.24405265,-0.97829336,-0.9195199,-0.38534328,5.059062e-05,0.03995806,-0.10264694,-0.3870011,-0.32990935,0.060046464,-3.077188,0.62249464,0.00013183171,-0.11858618,-0.014282856,-0.00077364984,0.014966035,-0.0014999622,-0.0024199,0.43977588,-1.4431235,1.9773368,-2.1023605,-1.5722746,2.4134014,-0.06838555,0.23530485,-0.2727868,0.04514638,-0.013460702,-0.065755464,-0.24899697,0.21068975,-9.251195,0.90750587,47.658226,-0.84599125,-1.6473265,-3.5426793,-0.05206565,-0.2435862,-0.31260943,25.125,25.75,25.0,27.3125,27.8125,28.125
0.24605268,-0.37841216,-0.7040239,-0.29144827,0.015061431,0.02803979,-0.11472865,-0.38725826,-0.32993802,0.06004811,-3.0771704,0.6224886,0.00015235138,-0.11928161,-0.014538829,-0.0013720576,0.015633281,-0.0028631855,-0.00046237663,0.43961987,-1.4426316,1.9767612,-2.1022766,-1.5722984,2.4132442,-0.068435155,0.2385502,-0.275366,0.045990933,-0.013491552,-0.06776104,-0.05746084,0.22984336,-9.174581,0.8537928,47.664497,-0.8243195,-1.6376848,-3.6156821,-0.020428753,-0.25756395,-0.3277198,25.125,25.75,25.0,27.3125,27.8125,28.125
0.24805263,-0.01930763,-0.13258635,-0.40048432,0.009939353,0.0077359406,-0.11269944,-0.38750502,-0.3299597,0.060044114,-3.0771368,0.622502,0.0002109003,-0.1204843,-0.01506813,-0.0010605936,0.015820486,-0.0017248864,-0.0017263633,0.43947595,-1.4421633,1.9762334,-2.1022289,-1.5723461,2.4131134,-0.06801219,0.24057494,-0.27849582,0.046145897,-0.014150249,-0.06607077,0.019153614,0.19153613,-9.155427,0.8560339,47.68062,-0.903837,-1.8207691,-3.5377655,-0.013013468,-0.25631517,-0.3530394,25.125,25.75,25.0,27.3125,27.8125,28.125
0.2500527,0.094248705,-0.37140864,-0.44674608,0.022410676,-0.02042223,-0.101953395,-0.38773608,-0.32998005,0.060037002,-3.0770707,0.6224884,0.00019244658,-0.12162028,-0.015284276,-0.000578731,0.015334413,-0.0010095085,-0.0033730716,0.43934378,-1.4416841,1.9756836,-2.1021087,-1.5723943,2.4129815,-0.06862972,0.24169804,-0.28111687,0.046786167,-0.014021957,-0.06504004,0.19153613,0.30645782,-9.078813,0.88960326,47.64837,-0.9349495,-1.7343817,-3.5838158,0.00022628508,-0.25695056,-0.42324927,25.125,25.75,25.0,27.3125,27.8125,28.125
0.2520516,0.72854847,-0.43542024,-0.33321625,0.017208794,-0.03436949,-0.116330646,-0.38799936,-0.33003289,0.06007174,-3.0770848,0.62248933,0.00031522627,-0.12312758,-0.015490159,0.00067050435,0.015519765,0.0010458574,-0.0012009171,0.43923584,-1.4412284,1.9750723,-2.1020243,-1.572431,2.4128728,-0.06881305,0.24213783,-0.28493455,0.048378244,-0.015067197,-0.06739227,0.17238252,0.34476504,-9.136273,0.9679317,47.664497,-0.93645316,-1.8068995,-3.4122384,0.011413833,-0.24903247,-0.4451216,25.125,25.75,25.0,27.3125,27.8125,28.125
0.25405243,0.7311246,-0.65786386,-0.4984886,0.0015690384,-0.043234125,-0.109761074,-0.38824448,-0.33003166,0.060044512,-3.0769835,0.6224853,0.0002904653,-0.12433506,-0.015960762,0.0008260744,0.015597509,0.00053088437,0.0014890133,0.43906766,-1.4407127,1.9745325,-2.101928,-1.572503,2.4127154,-0.06901989,0.24497315,-0.28898856,0.05008279,-0.014932809,-0.07028636,0.019153614,0.4213795,-9.174581,0.92093146,47.694946,-0.99951804,-1.6703445,-3.4305754,0.028709944,-0.24066558,-0.45649466,25.125,25.75,25.0,27.3125,27.8125,28.125
0.2560519,0.48293483,-1.6329445,-0.7393788,-0.005935137,-0.03479019,-0.111814596,-0.3884936,-0.3300669,0.060040146,-3.0769525,0.6224778,0.00025140287,-0.12374045,-0.015250142,-1.5023986e-05,0.017332546,-0.0033717116,0.0035329475,0.4389235,-1.4401971,1.9739345,-2.1018069,-1.5725149,2.412571,-0.069801755,0.24644466,-0.28961736,0.053501442,-0.014845636,-0.07311232,0.15322891,0.49799395,-9.251195,0.8247004,47.686886,-0.9074439,-1.5016787,-3.3890004,-0.005797833,-0.2402752,-0.4631672,25.125,25.75,25.0,27.3125,27.8125,28.125
0.25805265,0.53238124,-1.8971721,-0.55065894,-0.04376887,-0.008876165,-0.11223417,-0.3886904,-0.3300821,0.060009457,-3.076834,0.6223337,0.00013253353,-0.123506896,-0.015209715,-0.00054353965,0.018852308,-0.007541156,0.010156421,0.43882766,-1.439693,1.9733957,-2.1016252,-1.5725869,2.4124007,-0.06987797,0.24914384,-0.29263866,0.0582222,-0.014466686,-0.07981025,0.095768064,0.59376204,-9.251195,0.8717007,47.692257,-1.0528418,-1.5679762,-3.3934667,-0.037246287,-0.25874922,-0.4220216,25.125,25.75,25.0,27.3125,27.8125,28.125
0.2600516,-0.33201575,-2.234265,-0.58678806,-0.0671741,-0.0028613312,-0.112622246,-0.3889612,-0.3301271,0.060026865,-3.0768635,0.62231964,0.0001216895,-0.12247684,-0.014532979,-0.0015780403,0.021239417,-0.012583301,0.012301655,0.43865937,-1.4391894,1.972761,-2.1015046,-1.572563,2.4122202,-0.07014377,0.2509528,-0.29347298,0.0628211,-0.014482574,-0.08222196,0.0,0.63206923,-9.232041,0.91421866,47.696735,-0.99260855,-1.6444368,-3.3830438,-0.08816872,-0.26222318,-0.40298146,25.125,25.75,25.0,27.3125,27.8125,28.125
0.26205257,-0.5605262,-2.4304729,-0.5104057,-0.05994675,0.021600809,-0.10969485,-0.3891814,-0.3301489,0.060000576,-3.0767937,0.62218577,4.213101e-05,-0.12319697,-0.01475238,-0.000215621,0.02045729,-0.012131687,0.01780608,0.4385393,-1.4386746,1.9722108,-2.101372,-1.5726103,2.412026,-0.07063622,0.2501933,-0.2965583,0.06590543,-0.013985136,-0.088218376,-0.05746084,0.5554548,-9.289502,0.8985519,47.688675,-1.0136395,-1.6415315,-3.5496612,-0.12280288,-0.28213385,-0.35473657,25.125,25.75,25.0,27.3125,27.8125,28.125
0.26405233,-1.0910404,-2.0078845,-0.44701457,-0.046109032,0.03420247,-0.11671552,-0.38942724,-0.33017582,0.059988208,-3.076747,0.6221537,-4.0139894e-05,-0.123070374,-0.014622094,-0.0007066719,0.021432964,-0.014447373,0.023131644,0.4383832,-1.4381467,1.9716109,-2.101227,-1.5726222,2.4118562,-0.070754126,0.25184605,-0.2979254,0.06811615,-0.013901486,-0.09366088,-0.038307227,0.5554548,-9.212888,0.9254084,47.666286,-1.0495869,-1.4906789,-3.556961,-0.17808287,-0.2666431,-0.26032475,25.125,25.75,25.0,27.3125,27.8125,28.125
0.26605248,-1.0328608,-1.4587059,-0.63003576,-0.013203397,0.026505731,-0.09709384,-0.38966742,-0.33020025,0.059961293,-3.0767047,0.62206703,-0.00013755728,-0.12291878,-0.015498241,-0.0015734582,0.020660484,-0.017236972,0.025685128,0.4382274,-1.4376068,1.9710363,-2.1011078,-1.5726336,2.411652,-0.07017917,0.25489727,-0.29972976,0.069053575,-0.012034671,-0.09564311,0.095768064,0.4405331,-9.193734,0.9634547,47.698532,-1.0229238,-1.533319,-3.550659,-0.21116984,-0.29603446,-0.24173456,25.125,25.75,25.0,27.3125,27.8125,28.125
0.26805258,-0.36584413,-0.4349631,-0.45690745,8.864115e-05,0.023890771,-0.113170676,-0.38994214,-0.33027056,0.059986506,-3.0767474,0.62195957,-9.76972e-05,-0.12521443,-0.014861286,-0.0017559683,0.02035222,-0.016896391,0.02473282,0.43811834,-1.4370781,1.9703544,-2.1009877,-1.5726336,2.411471,-0.07335024,0.25787807,-0.3027024,0.068600066,-0.011910563,-0.09786077,0.0,0.3256114,-9.193734,0.947788,47.678825,-0.92942846,-1.6575882,-3.7605414,-0.23674273,-0.31649047,-0.18805711,25.125,25.75,25.0,27.3125,27.8125,28.125
0.27005255,-0.21183886,0.10029743,-0.38898334,0.019798107,0.01637514,-0.11220704,-0.39016932,-0.33031076,0.05994865,-3.0767224,0.6218175,-0.0002437479,-0.12627174,-0.016884007,-0.000626274,0.018751908,-0.013474781,0.028002348,0.43798745,-1.4365157,1.9697789,-2.100869,-1.5726217,2.411255,-0.0704788,0.2589888,-0.30641368,0.06742233,-0.011937383,-0.0982554,-0.095768064,0.22984336,-9.002198,0.8717007,47.696735,-1.1016607,-1.6672189,-3.529901,-0.23273677,-0.33568692,-0.1573789,25.125,25.75,25.0,27.3125,27.8125,28.125
0.27205256,-0.24471559,0.7666606,-0.7213583,0.052227765,0.000270675,-0.105701976,-0.39042157,-0.33032075,0.059940163,-3.0766459,0.62178385,-0.0002931464,-0.12757187,-0.016748374,-0.0008024999,0.020035015,-0.014338768,0.025747858,0.4378192,-1.4359994,1.9691795,-2.100712,-1.5726699,2.4110758,-0.071250044,0.2621928,-0.31018507,0.06931574,-0.012744965,-0.09676685,-0.076614454,0.22984336,-9.174581,0.92093146,47.688675,-1.1943321,-1.685419,-3.4798274,-0.26365688,-0.35532954,-0.1468008,25.125,25.75,25.0,27.3125,27.8125,28.125
0.27405265,-0.5294605,0.53800035,-0.84577143,0.059407532,-0.00025940486,-0.10206799,-0.39067435,-0.3303717,0.05994369,-3.076647,0.6216143,-0.00030288342,-0.13079108,-0.016139265,-0.0007917137,0.019391194,-0.012296298,0.01953324,0.43770972,-1.4354713,1.9685448,-2.1005814,-1.5726937,2.4108608,-0.074888386,0.26566893,-0.31382698,0.06736169,-0.013039976,-0.09418667,-0.15322891,0.1340753,-9.270349,0.91198283,47.685097,-1.0437872,-1.8049624,-3.5178285,-0.2678587,-0.36194837,-0.16014566,25.125,25.75,25.0,27.3125,27.8125,28.125
0.27605277,-0.37683523,0.51432717,-0.9842015,0.02904486,0.013997474,-0.11205161,-0.39093736,-0.33038935,0.05992307,-3.076579,0.6216002,-0.00038784542,-0.130379,-0.017671924,-0.0007328823,0.01912275,-0.0114384545,0.01874037,0.43753108,-1.4349077,1.9679221,-2.1004379,-1.5727185,2.4106824,-0.07156654,0.26661488,-0.31503072,0.06673354,-0.013168028,-0.0900698,-0.30645782,0.11492168,-9.423578,0.8985519,47.703903,-1.1745641,-1.8397824,-3.5276022,-0.27733272,-0.35762554,-0.19379386,25.125,25.75,25.0,27.3125,27.8125,28.125
0.27805218,-1.2134318,-0.46749198,-0.6947167,-0.016470041,0.041914392,-0.109695874,-0.39118454,-0.33042273,0.059916176,-3.0765054,0.6215489,-0.00043878457,-0.13130698,-0.016704304,-0.0017988556,0.02127977,-0.013836578,0.012958576,0.43741044,-1.4343673,1.9672884,-2.1002696,-1.5727667,2.4105396,-0.073458835,0.27015188,-0.3170942,0.06835226,-0.014108256,-0.086175084,-0.3256114,0.1340753,-9.481039,0.95002913,47.687782,-1.1513392,-1.850513,-3.5629463,-0.29082727,-0.35710555,-0.25135404,25.125,25.75,25.0,27.3125,27.8125,28.125
0.2800523,-1.2844689,-1.2801038,-0.8998921,-0.0332066,0.07073966,-0.112512045,-0.39144263,-0.33045274,0.059920646,-3.076466,0.62142575,-0.000480312,-0.13289672,-0.017086871,-0.0014780549,0.021256546,-0.011569559,0.011075936,0.43726656,-1.4338396,1.9666404,-2.1000907,-1.5728029,2.4103243,-0.07343405,0.27201805,-0.31979552,0.067126594,-0.015060187,-0.08426181,-0.21068975,0.15322891,-9.461885,0.8605109,47.699425,-1.1980319,-1.9066305,-3.5425234,-0.31456614,-0.36654872,-0.2804228,25.125,25.75,25.0,27.3125,27.8125,28.125
0.2820523,-1.819875,-1.736289,-1.2805296,-0.03407671,0.0773342,-0.103606515,-0.39170796,-0.3305031,0.059911318,-3.0764341,0.6214192,-0.00058437337,-0.13464923,-0.017139904,-0.00089057593,0.020094128,-0.0076049548,0.009654233,0.43712214,-1.4332528,1.9659594,-2.0999243,-1.572791,2.4101803,-0.07434917,0.27208853,-0.32061467,0.06379382,-0.015702784,-0.083751015,-0.26815057,0.1340753,-9.672575,0.84484416,47.678825,-1.1757607,-1.8952534,-3.4692252,-0.29138932,-0.3694051,-0.32158154,25.125,25.75,25.0,27.3125,27.8125,28.125
0.28405237,-2.4357722,-1.4523144,-1.2068468,-0.038981248,0.06895756,-0.10562318,-0.39196387,-0.3305207,0.059888218,-3.076348,0.6214409,-0.00063103973,-0.13644758,-0.016832488,-0.0009294788,0.019691112,-0.0058383285,0.008257808,0.43696553,-1.4327017,1.965361,-2.0998056,-1.5728391,2.4100487,-0.07612122,0.27382898,-0.32220238,0.061864212,-0.016102392,-0.08412287,-0.4213795,0.17238252,-9.710882,0.8717007,47.664497,-1.16286,-1.798577,-3.7004418,-0.28024164,-0.3747084,-0.32352534,25.125,25.75,25.0,27.3125,27.8125,28.125
0.2860525,-2.3962975,-1.5713701,-1.3504244,-0.015493634,0.065769255,-0.10181859,-0.39225566,-0.33053607,0.059883222,-3.0763013,0.62144965,-0.00060251664,-0.13794798,-0.017947715,-0.00027566234,0.017352417,-0.0019589278,0.008857891,0.43677387,-1.4321502,1.9647259,-2.0997107,-1.5728868,2.409869,-0.07558672,0.2744844,-0.3237704,0.0582636,-0.015639728,-0.084188595,-0.47884035,0.19153613,-9.768343,0.92764956,47.694054,-1.0775206,-1.8055246,-3.7107053,-0.24204934,-0.37760025,-0.3285407,25.125,25.75,25.0,27.3125,27.8125,28.125
0.28805232,-2.3489256,-1.3767365,-1.5231719,0.004156494,0.062191382,-0.089888975,-0.39254263,-0.33058557,0.05987567,-3.076318,0.6213363,-0.0006186631,-0.1401522,-0.019113908,0.00045403803,0.015663585,0.0023728223,0.008758966,0.43661794,-1.4315627,1.9640554,-2.0996163,-1.5728873,2.4096406,-0.07506024,0.27640086,-0.3270184,0.054955926,-0.015956828,-0.08355949,-0.5554548,0.22984336,-9.825804,0.9365982,47.696735,-1.2098233,-1.6868964,-3.7699542,-0.19564688,-0.40290433,-0.3527661,25.125,25.75,25.0,27.3125,27.8125,28.125
0.29005232,-1.260829,-0.67070496,-1.42462,0.0019416703,0.07728701,-0.10462957,-0.39282933,-0.33061713,0.059880745,-3.07628,0.6213687,-0.00056204177,-0.14258076,-0.018181933,9.9351775e-05,0.014662974,0.0033236276,0.0053227427,0.43646055,-1.4310224,1.9634093,-2.0995214,-1.572935,2.4095087,-0.0790855,0.27884954,-0.32864913,0.05284384,-0.015461473,-0.08414916,-0.57460845,0.17238252,-9.80665,0.9768804,47.68062,-1.0719429,-1.757056,-3.7843087,-0.1368113,-0.40475994,-0.37261954,25.125,25.75,25.0,27.3125,27.8125,28.125
0.29205218,-1.4846766,-0.4180866,-1.5647547,0.0057561733,0.06590089,-0.10535141,-0.39310238,-0.33067146,0.059865978,-3.0762446,0.62134093,-0.00058721664,-0.14320207,-0.018921666,0.00071639736,0.015090457,0.005159451,0.0075791236,0.4363413,-1.4304236,1.9627389,-2.0994132,-1.5729593,2.409377,-0.0774291,0.27953723,-0.33105126,0.053074285,-0.016634298,-0.08474331,-0.5363012,0.17238252,-9.80665,0.9254084,47.684196,-1.1002091,-1.7563059,-3.7418523,-0.119761035,-0.41008162,-0.35824907,25.125,25.75,25.0,27.3125,27.8125,28.125
0.29405212,-1.9037166,-0.7779301,-1.3356547,-0.0018733222,0.06401034,-0.10350986,-0.39340803,-0.33071214,0.059890676,-3.0762544,0.62124527,-0.0004855827,-0.14483911,-0.018346068,0.00013558812,0.015876267,0.004204471,0.0065738917,0.4361846,-1.4298834,1.9620446,-2.0993059,-1.573007,2.40916,-0.07959084,0.2830326,-0.33397308,0.05369022,-0.01694682,-0.08589786,-0.49799395,0.22984336,-9.768343,0.9858343,47.672558,-1.127447,-1.8135475,-3.8902457,-0.09016377,-0.4343332,-0.39702916,25.125,25.75,25.0,27.3125,27.8125,28.125
0.29605225,-1.204213,-0.85219514,-1.492337,-0.0018623108,0.082647234,-0.110903874,-0.3936864,-0.330733,0.059864108,-3.076183,0.62118876,-0.00053352467,-0.14635368,-0.017960528,0.00015418604,0.016672017,0.0041621584,0.012364819,0.43601596,-1.4292836,1.9613966,-2.0991852,-1.5730556,2.4089656,-0.08102724,0.28539813,-0.33712178,0.05482585,-0.017677417,-0.09311991,-0.53630114,0.28730422,-9.710882,0.95226496,47.68062,-0.99865097,-1.7394478,-3.6858256,-0.08684358,-0.43207663,-0.3363757,25.125,25.75,25.0,27.3125,27.8125,28.125
0.2980524,-1.9462101,-1.2041781,-1.4461353,-0.009762221,0.07253241,-0.10609806,-0.3939954,-0.3307616,0.059876557,-3.0761755,0.6212445,-0.00049870706,-0.14735726,-0.017382072,-0.00062581355,0.01790002,0.0023774025,0.013227908,0.43581146,-1.4287308,1.9607152,-2.099077,-1.5730675,2.4087973,-0.08260018,0.28860757,-0.33940673,0.056028537,-0.01804363,-0.09555386,-0.47884035,0.22984336,-9.768343,0.9634547,47.692257,-0.9123953,-2.0657408,-3.6773324,-0.066317566,-0.4217015,-0.31895214,25.125,25.75,25.0,27.3125,27.8125,28.125
0.30005243,-1.1032087,-1.43321,-1.301198,-0.014865578,0.08895632,-0.104154006,-0.39432126,-0.330794,0.05988968,-3.076162,0.6211811,-0.00039926078,-0.14789712,-0.017000891,-0.0008498371,0.019003864,0.0006778107,0.01696224,0.43563116,-1.4281441,1.9599961,-2.0989807,-1.5731276,2.4085796,-0.08346823,0.29048175,-0.34173894,0.0584739,-0.018334242,-0.100155234,-0.45968673,0.22984336,-9.844957,0.90527004,47.655537,-0.873854,-2.0278401,-3.6336322,-0.06102091,-0.4106691,-0.26544797,25.125,25.75,25.0,27.3125,27.8125,28.125
0.30205253,-1.7169416,-1.2547816,-0.9600045,-0.021470279,0.06283047,-0.101985455,-0.3946482,-0.33084625,0.05991022,-3.0761838,0.6210486,-0.00025419533,-0.15033536,-0.016672367,0.0010501811,0.018383982,0.003967202,0.019568438,0.43548653,-1.4275569,1.9592646,-2.0989082,-1.5731882,2.40835,-0.08550832,0.2900278,-0.3460746,0.060002174,-0.019169437,-0.1047984,-0.3256114,0.2681506,-9.576807,0.9186956,47.681515,-0.7772771,-1.9069568,-3.6821303,-0.058786817,-0.41706932,-0.21722655,25.125,25.75,25.0,27.3125,27.8125,28.125
0.3040525,-1.1050917,-0.8890564,-0.99466515,-0.002753891,0.047186423,-0.10412822,-0.3949098,-0.3308963,0.05988697,-3.076166,0.62092704,-0.0003466512,-0.15230018,-0.016676586,0.0010760555,0.017938854,0.005994015,0.02326419,0.4353542,-1.4269578,1.9586061,-2.098777,-1.5731882,2.4081445,-0.08678321,0.29228416,-0.34842825,0.058060516,-0.019649167,-0.109764375,-0.38307226,0.2681506,-9.442732,1.0462601,47.658226,-0.70479906,-1.8318756,-3.635163,-0.004269333,-0.41053355,-0.17231421,25.125,25.75,25.0,27.3125,27.8125,28.125
0.3060526,-0.5849745,-0.23988387,-1.1487509,0.016343534,0.032678045,-0.10968863,-0.39524317,-0.33092302,0.059896592,-3.076153,0.620944,-0.000243482,-0.1535115,-0.016849983,0.0025573694,0.016787194,0.008731212,0.021415604,0.43515003,-1.4263711,1.9578995,-2.098705,-1.5732363,2.407953,-0.087319516,0.2910128,-0.35064742,0.058578346,-0.019754738,-0.1084522,-0.2873042,0.22984336,-9.404425,0.85826975,47.688675,-0.7452081,-1.7225616,-3.7060194,0.02698388,-0.41766608,-0.12396462,25.125,25.75,25.0,27.3125,27.8125,28.125
0.30805254,-0.47626653,0.089839675,-1.0139744,0.016817339,0.019444814,-0.10984406,-0.3955416,-0.33095065,0.05989715,-3.076115,0.6208773,-0.00026001164,-0.15356182,-0.01591013,0.0024566564,0.01855136,0.0066420385,0.02191366,0.43496957,-1.425784,1.9571937,-2.0985482,-1.5732726,2.4077363,-0.088502675,0.29152143,-0.35192555,0.0619768,-0.02047696,-0.11013038,-0.19153613,0.17238252,-9.5385,0.96569055,47.666286,-0.68651235,-1.5516049,-3.7304335,0.03633139,-0.40006745,-0.113284566,25.125,25.75,25.0,27.3125,27.8125,28.125
0.31005263,-0.36898077,-0.083054565,-0.88506526,0.017949043,0.00920071,-0.10156351,-0.39588997,-0.33098632,0.059935983,-3.0761294,0.6208448,-8.7490225e-05,-0.15451275,-0.01550969,0.0022565634,0.019884968,0.0067437906,0.016211443,0.43477744,-1.4252201,1.9564403,-2.0984523,-1.5733331,2.4075224,-0.089125395,0.29336253,-0.35384232,0.06253003,-0.02171175,-0.10504757,-0.21068975,0.1340753,-9.423578,0.94331104,47.684196,-0.6258223,-1.6117852,-3.7728434,0.05661022,-0.41085652,-0.124867275,25.125,25.75,25.0,27.3125,27.8125,28.125
0.31205255,-0.033128504,0.064196445,-0.81430054,0.009359542,0.013855838,-0.10739705,-0.3961953,-0.33101955,0.05993598,-3.0760956,0.62082,-4.549886e-05,-0.15620321,-0.016764995,0.0035283896,0.01891663,0.00836404,0.013411156,0.43460953,-1.424632,1.9557451,-2.0983446,-1.5733813,2.4073439,-0.088311724,0.2953427,-0.35960555,0.06443665,-0.021516677,-0.10143182,-0.19153613,0.05746084,-9.461885,0.95002913,47.687782,-0.6889075,-1.6177245,-3.6643736,0.066613816,-0.3935551,-0.12791893,25.125,25.75,25.0,27.3125,27.8125,28.125
0.31405267,-0.006386314,-0.1302177,-0.8991601,0.019785525,0.020265076,-0.10322725,-0.39650393,-0.331065,0.059948254,-3.0761104,0.62074816,-5.0482297e-05,-0.15590926,-0.016705137,0.0024342877,0.020561703,0.0031438805,0.009780885,0.4344296,-1.4240446,1.9550136,-2.0981987,-1.5733808,2.4071176,-0.08853683,0.29917097,-0.36270157,0.0691354,-0.02080091,-0.09802828,-0.095768064,0.0,-9.289502,0.95226496,47.699425,-0.7243446,-1.6823257,-3.5626588,0.044510253,-0.4030787,-0.1694389,25.125,25.75,25.0,27.3125,27.8125,28.125
0.31605223,0.20585075,0.42540297,-0.97457796,0.030174062,0.011003167,-0.105384514,-0.39681974,-0.3310987,0.059960533,-3.076065,0.62075824,1.3826011e-05,-0.15593578,-0.016495055,0.0015380438,0.023688473,-0.0010972652,0.006595847,0.43426177,-1.4234562,1.9542836,-2.0980651,-1.5734409,2.4069624,-0.088168174,0.30326122,-0.36661562,0.07412705,-0.021842852,-0.094469786,0.05746084,-0.019153614,-9.32781,0.95002913,47.694946,-0.775921,-1.8315887,-3.3999882,0.0032719625,-0.39255077,-0.21745938,25.125,25.75,25.0,27.3125,27.8125,28.125
0.31805217,-0.07365991,0.5444219,-0.74322957,0.03605815,-0.00037107497,-0.10787352,-0.3971278,-0.33111542,0.059947185,-3.076004,0.620631,-1.1775449e-05,-0.15620895,-0.016763948,0.002073409,0.025333926,-0.0019887022,0.0050692637,0.43407017,-1.4228314,1.953565,-2.0979083,-1.5735015,2.4066997,-0.08708403,0.30450982,-0.37034404,0.0781097,-0.022962226,-0.091852754,0.0,0.038307227,-9.308656,0.98135734,47.70838,-0.8579253,-1.8789797,-3.4396243,-0.03403747,-0.37864655,-0.26863474,25.125,25.75,25.0,27.3125,27.8125,28.125
0.3200522,0.03653005,0.29449788,-1.1510223,0.04143132,-0.0013621466,-0.10258961,-0.3974281,-0.33114937,0.05996043,-3.075949,0.6206793,-1.4673092e-05,-0.1558462,-0.0143981185,0.00059914874,0.028731653,-0.00776395,0.00010434977,0.43390086,-1.4222547,1.9528345,-2.097727,-1.5735377,2.406568,-0.09055116,0.30634183,-0.37031758,0.082919545,-0.023607448,-0.090353005,-0.076614454,0.17238252,-9.232041,0.91421866,47.695843,-0.69596994,-1.7443912,-3.427424,-0.08102294,-0.36844006,-0.30495113,25.125,25.75,25.0,27.3125,27.8125,28.125
0.32205215,-0.218428,-0.39279673,-1.2076503,0.040374745,-0.016591495,-0.092066705,-0.39775446,-0.33116224,0.059957348,-3.0758536,0.6206769,3.4469187e-05,-0.15284488,-0.015047988,-0.00091336406,0.031720508,-0.013866047,0.002220041,0.4337101,-1.4216295,1.952094,-2.0975816,-1.5736336,2.4063885,-0.08664558,0.3079771,-0.37000185,0.08775475,-0.023745915,-0.08856313,-0.019153614,0.24899697,-9.3661175,0.8672237,47.692257,-0.92034674,-1.7481794,-3.7835126,-0.12330246,-0.3750564,-0.34328246,25.125,25.75,25.0,27.3125,27.8125,28.125
0.3240522,-0.19504315,-1.1832708,-0.92406744,-0.0015980874,-0.002240539,-0.09515324,-0.3980427,-0.33118144,0.059940718,-3.0757806,0.6206444,-7.054108e-05,-0.1528456,-0.012704075,-0.001326471,0.034504183,-0.017550481,-0.0023655237,0.43351722,-1.4210168,1.9513873,-2.097388,-1.5736583,2.4061852,-0.09015758,0.3079158,-0.37025285,0.092580326,-0.024725255,-0.0874847,0.0,0.24899697,-9.404425,0.9701675,47.686886,-0.8586973,-1.6692821,-3.7673383,-0.21600038,-0.34798014,-0.38996825,25.125,25.75,25.0,27.3125,27.8125,28.125
0.3260521,-0.45677188,-1.716495,-0.9847224,-0.030749703,0.0007721622,-0.09921007,-0.3983812,-0.3311969,0.059980262,-3.0757027,0.62068456,2.611785e-06,-0.15302895,-0.013682238,-0.0006682783,0.035672914,-0.017672382,-0.0010786164,0.433314,-1.4204397,1.9505848,-2.09716,-1.5737427,2.4060175,-0.087776445,0.30934665,-0.37427878,0.0957718,-0.02574007,-0.086385325,-0.05746084,0.3256114,-9.289502,0.92093146,47.70659,-0.7295426,-1.612411,-3.7990313,-0.27371684,-0.30779606,-0.45799756,25.125,25.75,25.0,27.3125,27.8125,28.125
0.3280521,-0.98594046,-2.516936,-1.1074339,-0.030056702,-0.0018627795,-0.092241816,-0.39868078,-0.33124208,0.059986897,-3.0756176,0.6206856,-2.0528001e-05,-0.15510088,-0.014113831,0.0014133644,0.03413882,-0.013646947,-0.00056589977,0.43318176,-1.4198155,1.9498061,-2.0969446,-1.5738028,2.4058974,-0.08844891,0.3084333,-0.37831554,0.09641332,-0.026056875,-0.08756641,-0.05746084,0.34476504,-9.32781,0.97240865,47.651955,-0.8937421,-1.4463277,-3.7077107,-0.32469207,-0.2881431,-0.48690784,25.125,25.75,25.0,27.3125,27.8125,28.125
0.3300521,-0.89303875,-2.5886352,-1.033745,-0.040450502,0.02881585,-0.09442325,-0.39898887,-0.331282,0.05999413,-3.0755951,0.6206781,-4.3339747e-05,-0.15743993,-0.015412497,0.003070107,0.031544853,-0.008934601,0.0027347356,0.43300188,-1.419215,1.9490637,-2.0967777,-1.5738147,2.4057162,-0.088194534,0.30903867,-0.3825823,0.09469233,-0.02570711,-0.09061126,-0.019153614,0.4405331,-9.385271,1.0015011,47.716442,-0.9261122,-1.3914781,-3.5409727,-0.3404792,-0.27983224,-0.5003462,25.125,25.75,25.0,27.3125,27.8125,28.125
0.3320522,-0.72589976,-1.6706016,-1.0448107,-0.034644604,0.034119267,-0.10834971,-0.3993115,-0.3313007,0.059996735,-3.0755153,0.62063915,-4.1983305e-05,-0.16001727,-0.017437166,0.002176231,0.029368343,-0.0070505547,0.0077178148,0.4328102,-1.4185883,1.9482964,-2.0965874,-1.5738863,2.405511,-0.08734121,0.31581247,-0.38746032,0.090144485,-0.024561238,-0.09474037,0.095768064,0.3256114,-9.404425,0.8784135,47.691364,-0.91047335,-1.4017446,-3.4293675,-0.32546884,-0.29241905,-0.49513817,25.125,25.75,25.0,27.3125,27.8125,28.125
0.33405203,-0.9196756,-1.5044986,-1.1436399,-0.0073765903,0.0323704,-0.09975934,-0.39963853,-0.33134425,0.06000936,-3.0755074,0.62061447,-1.0631589e-05,-0.16202076,-0.016605398,0.0009927035,0.028594919,-0.006624776,0.013868996,0.43262908,-1.4179742,1.9475311,-2.0964453,-1.5739101,2.4053159,-0.090737276,0.3190662,-0.38785332,0.08653324,-0.02407252,-0.10428885,0.038307227,0.36391866,-9.442732,0.98807013,47.658226,-0.90646976,-1.6254961,-3.5586944,-0.31660143,-0.28918853,-0.4109279,25.125,25.6875,25.0,27.3125,27.8125,28.125
0.3360521,-1.0546685,-1.5184714,-1.3016658,-0.015344892,0.039370257,-0.098180585,-0.39994445,-0.33137524,0.059996635,-3.0754197,0.620475,-6.722346e-05,-0.16300052,-0.019110953,0.0007340781,0.02652669,-0.0012325858,0.022717273,0.43247432,-1.4173124,1.9467529,-2.0962331,-1.5739821,2.4050858,-0.08666551,0.3213924,-0.38842252,0.078988165,-0.024498232,-0.109059855,-0.21068975,0.51714754,-9.481039,0.9858343,47.684196,-1.0123063,-1.6406637,-3.6759562,-0.24004191,-0.26824582,-0.36886007,25.125,25.6875,25.0,27.3125,27.8125,28.125
0.33805212,-1.4812725,-1.9966216,-1.12379,-0.036320686,0.052414,-0.10173922,-0.40029734,-0.33142906,0.060045354,-3.0754511,0.620438,0.00010651215,-0.16379637,-0.01872571,-0.00044642817,0.026991231,-0.0020546105,0.030061537,0.4323062,-1.4167353,1.9459518,-2.096113,-1.5740303,2.404891,-0.08786148,0.32426527,-0.38884467,0.07744057,-0.024591558,-0.117601775,-0.019153614,0.51714754,-9.461885,1.0015011,47.68599,-1.0924109,-1.6270688,-3.8123925,-0.19426078,-0.25631776,-0.26383883,25.125,25.6875,25.0,27.3125,27.8125,28.125
0.34005198,-1.6427697,-2.875709,-1.3297955,-0.045292377,0.041512616,-0.09120083,-0.4006058,-0.33146015,0.060026497,-3.075394,0.62021345,7.753906e-05,-0.16569181,-0.019379428,0.00047811476,0.025001865,0.0016600617,0.032836195,0.43214983,-1.4160742,1.9451979,-2.0959466,-1.5741023,2.4046023,-0.08831602,0.3247887,-0.39122513,0.07506716,-0.02437035,-0.120828904,-0.076614454,0.47884035,-9.576807,0.8873621,47.658226,-0.90248585,-1.7593126,-3.9208536,-0.17968073,-0.23710446,-0.18670642,25.125,25.6875,25.0,27.3125,27.8125,28.125
0.34205186,-0.5346246,-2.4620497,-0.91035634,-0.07327881,0.062256504,-0.10719892,-0.40094575,-0.33150563,0.06004206,-3.075392,0.6201151,0.00012168331,-0.16747387,-0.019831643,0.00081811764,0.024479933,0.004890468,0.034923203,0.4319699,-1.4154373,1.9443954,-2.0957916,-1.574138,2.4043617,-0.08830572,0.3264111,-0.39348775,0.072542794,-0.025265094,-0.12290099,-0.24899697,0.30645782,-9.385271,0.96569055,47.64479,-1.1218746,-1.4884753,-3.8141298,-0.123842195,-0.21332923,-0.141556,25.125,25.6875,25.0,27.3125,27.8125,28.125
0.3440517,-0.8892734,-2.2666454,-1.1279542,-0.044617146,0.027003748,-0.10017395,-0.40129158,-0.3315251,0.060028512,-3.0753129,0.62000334,0.00015964745,-0.17003235,-0.02020061,0.00091489806,0.02458541,0.006537574,0.031731144,0.4317777,-1.4147505,1.9436044,-2.0956485,-1.5742348,2.4041104,-0.08915499,0.33054554,-0.39855474,0.07201855,-0.026062427,-0.12055135,-0.11492168,0.34476504,-9.346964,1.0283576,47.650166,-1.080079,-1.6307156,-3.6990247,-0.08608409,-0.20519331,-0.13076942,25.125,25.6875,25.0,27.3125,27.8125,28.125
0.346052,-0.08451369,-1.2373195,-1.4753848,-0.008769866,0.013855556,-0.09407973,-0.4016253,-0.3315759,0.060033,-3.0753357,0.6199142,0.0001967543,-0.17212725,-0.020926306,0.0022029139,0.022935366,0.009637947,0.028146202,0.43159768,-1.4141141,1.9428376,-2.0955408,-1.5742468,2.4038723,-0.08961617,0.33149266,-0.4027241,0.07173928,-0.025860678,-0.1174272,-0.24899697,0.40222588,-9.423578,0.92764956,47.642998,-1.0500402,-1.5647101,-3.6451159,-0.06301549,-0.17984854,-0.13450822,25.125,25.6875,25.0,27.3125,27.8125,28.125
0.348052,-0.5509132,-0.8471259,-1.276432,-2.0063153e-05,0.005195217,-0.09707766,-0.40200064,-0.33164218,0.060089007,-3.075389,0.6197946,0.00041095566,-0.17261893,-0.021435754,0.0020524487,0.022527639,0.008844279,0.02065428,0.4314417,-1.4135011,1.9419769,-2.0954206,-1.5743064,2.4036353,-0.0894687,0.3334553,-0.4050349,0.072652675,-0.025128473,-0.10979302,-0.40222588,0.45968673,-9.423578,0.947788,47.66091,-1.0618538,-1.5062221,-3.6500826,-0.016586835,-0.16588147,-0.2233561,25.125,25.6875,25.0,27.3125,27.8125,28.125
0.35005182,-1.074469,-1.3797189,-1.0283344,-0.0017353158,0.019691963,-0.0873989,-0.4023251,-0.33165756,0.060055483,-3.0752811,0.6199076,0.0002909263,-0.172166,-0.021366047,0.0011140398,0.02302687,0.0058289925,0.01709701,0.43121374,-1.4128039,1.9412097,-2.0952404,-1.5743302,2.4034922,-0.089612715,0.33530635,-0.4056282,0.0743446,-0.024323175,-0.1063804,-0.45968673,0.4405331,-9.346964,1.0350704,47.63225,-1.1531813,-1.3924947,-3.6849294,-0.014424846,-0.18620656,-0.23883112,25.125,25.6875,25.0,27.3125,27.8125,28.125
0.35205182,-0.9400264,-1.0809802,-0.94736266,-0.028384045,0.05890506,-0.096742555,-0.40267724,-0.3317281,0.06007721,-3.0752873,0.6198325,0.0003612143,-0.17323169,-0.02173745,0.001429106,0.022394227,0.0050893943,0.014137369,0.4310695,-1.4121302,1.9403485,-2.0950844,-1.5743655,2.4033008,-0.09029857,0.33733612,-0.40938246,0.07647497,-0.023434374,-0.1041096,-0.53630114,0.34476504,-9.308657,1.0194036,47.67793,-1.1165568,-1.526958,-3.7691736,0.007288267,-0.18550974,-0.29328737,25.125,25.6875,25.0,27.3125,27.8125,28.125
0.35405177,-1.3095335,-1.2785094,-0.8822992,-0.032321643,0.0794441,-0.1067721,-0.4030268,-0.33178118,0.060099293,-3.075306,0.6197011,0.00040387802,-0.17185558,-0.020431262,-0.0004618082,0.025760163,-0.0019671381,0.013671741,0.43088925,-1.4114808,1.9395107,-2.0949142,-1.5743898,2.4030366,-0.09132368,0.3400216,-0.40956116,0.08177743,-0.023533849,-0.10466999,-0.32561144,0.2681506,-9.32781,1.0238806,47.66808,-1.1464825,-1.5298936,-3.8585334,-0.015406061,-0.17783809,-0.31908405,25.125,25.6875,25.0,27.3125,27.8125,28.125
0.35605186,-1.3226771,-1.4478674,-0.6817632,-0.027929995,0.084714666,-0.09991864,-0.40339705,-0.33181766,0.0601238,-3.0752819,0.6197149,0.0005126087,-0.17281458,-0.020314697,-0.0015064437,0.02704239,-0.005100081,0.012864523,0.43068486,-1.4108309,1.9386724,-2.0947702,-1.5744494,2.4028444,-0.09229861,0.34477314,-0.41342515,0.0842602,-0.023392035,-0.104837604,-0.22984336,0.22984336,-9.270349,0.9298854,47.67166,-1.0351477,-1.5482769,-3.8572955,-0.044858597,-0.14735754,-0.31859106,25.125,25.6875,25.0,27.3125,27.8125,28.125
0.35805267,-0.8927472,-0.49691007,-0.25295487,-0.014398292,0.07744148,-0.09745164,-0.40374666,-0.33185315,0.060102858,-3.07521,0.6196628,0.0005269115,-0.17460747,-0.020124456,-0.00048651593,0.027081823,-0.0052555446,0.010599767,0.4305043,-1.4101093,1.9378575,-2.0946372,-1.5745219,2.402641,-0.09402692,0.34637648,-0.41870484,0.088084824,-0.023371398,-0.104298756,-0.34476507,0.11492168,-9.174581,0.96569055,47.678825,-1.0095326,-1.7152455,-3.6892235,-0.050038867,-0.14760244,-0.33994243,25.125,25.6875,25.0,27.3125,27.8125,28.125
0.36005175,-0.65969366,0.23797916,-0.33856955,0.03457296,0.03351848,-0.099421084,-0.40407684,-0.33192813,0.06010173,-3.0751956,0.6195633,0.00048081204,-0.17381614,-0.019615004,-0.0013068385,0.029599383,-0.011401548,0.010828127,0.43037212,-1.4093996,1.9369963,-2.0944426,-1.5745338,2.4024491,-0.09436309,0.34907833,-0.42176095,0.09506773,-0.023093808,-0.1048632,-0.36391866,0.17238252,-9.155427,0.95897776,47.658226,-0.9906057,-1.7205777,-3.5901265,-0.1226915,-0.14386064,-0.35769433,25.125,25.6875,25.0,27.3125,27.8125,28.125
0.36205187,0.00035750124,1.0241935,-0.51194793,0.060266454,0.011047953,-0.100763924,-0.40446463,-0.33197433,0.06011524,-3.0752122,0.61950684,0.0005817094,-0.17458007,-0.019845372,-0.00079016027,0.029255953,-0.011354953,0.012818724,0.43015608,-1.4087026,1.9361356,-2.0943348,-1.5745696,2.4021962,-0.094631664,0.34989363,-0.42450172,0.09678933,-0.022807635,-0.10712416,-0.38307226,0.17238252,-9.040505,0.9410752,47.694054,-0.9900161,-1.5983531,-3.5573606,-0.14126891,-0.14181027,-0.36132866,25.125,25.6875,25.0,27.3125,27.8125,28.125
0.36405197,-0.43564782,0.48370928,-0.3644097,0.066467606,-0.008933832,-0.09273511,-0.4048207,-0.3319955,0.060122944,-3.0751104,0.6195205,0.0005896709,-0.17426951,-0.020066803,-0.0008702314,0.03004748,-0.013734273,0.018197048,0.42995223,-1.4080172,1.935274,-2.094106,-1.574653,2.4020145,-0.09401699,0.3511416,-0.42677104,0.10027007,-0.022554247,-0.11188751,-0.34476504,0.076614454,-8.90643,0.9612189,47.705692,-1.041867,-1.5723193,-3.560229,-0.18082164,-0.14567126,-0.32702804,25.125,25.6875,25.0,27.3125,27.8125,28.125
0.36605227,0.32392517,0.59189147,-0.107353866,0.03737712,0.022046203,-0.11566753,-0.40514952,-0.332042,0.06009825,-3.0750554,0.6193718,0.00043946822,-0.17500634,-0.018951666,-0.00038278493,0.030446887,-0.01451997,0.02136984,0.42977142,-1.4072727,1.9344147,-2.0938656,-1.5746659,2.4017484,-0.096466765,0.35069034,-0.4282299,0.10303325,-0.022619965,-0.11750744,-0.4213795,-0.05746084,-8.829816,0.9992599,47.69763,-0.9420153,-1.5227158,-3.6451178,-0.21913196,-0.131955,-0.27973062,25.125,25.6875,25.0,27.3125,27.8125,28.125
0.3680524,-0.6087765,0.22004768,0.13044901,0.007296743,0.048254274,-0.09988013,-0.405503,-0.33207712,0.06010478,-3.0749876,0.61931443,0.00042672738,-0.17497978,-0.020040512,-0.00053353683,0.031167526,-0.015790658,0.02960405,0.42958027,-1.4065753,1.9335412,-2.0936377,-1.574726,2.4015307,-0.094276406,0.3532228,-0.4315404,0.1052315,-0.022775032,-0.12354851,-0.47884035,0.076614454,-8.810662,0.9947882,47.677036,-1.0849555,-1.4617577,-3.696926,-0.26908112,-0.1349046,-0.19957902,25.125,25.6875,25.0,27.3125,27.8125,28.125
0.37005267,-1.1174018,-0.13205504,-0.033262305,0.0058797193,0.06616376,-0.09884455,-0.40587026,-0.3320841,0.060082506,-3.0748813,0.619309,0.00035167095,-0.1772336,-0.019319063,-5.1907857e-05,0.02964429,-0.014887636,0.032174036,0.42932695,-1.4058299,1.93268,-2.0934222,-1.5747851,2.4012883,-0.097904146,0.35444373,-0.43431702,0.10529016,-0.021808127,-0.12974724,-0.4213795,0.0,-8.7532015,0.947788,47.68599,-0.91673476,-1.585679,-3.6406815,-0.28150797,-0.12435196,-0.111955605,25.125,25.6875,25.0,27.3125,27.8125,28.125
0.37205175,-1.4564879,-0.43381086,0.02052827,0.009357639,0.07525381,-0.0980621,-0.40624866,-0.3321592,0.060133357,-3.0749319,0.6190887,0.00045449843,-0.17853606,-0.020975508,-0.00023070534,0.02779863,-0.013050817,0.03260326,0.42917177,-1.4051564,1.9317349,-2.093208,-1.5748209,2.4009895,-0.096475944,0.3576881,-0.43727687,0.10256057,-0.020900905,-0.12875146,-0.17238252,-0.15322891,-8.925584,0.95897776,47.67166,-1.045103,-1.5311161,-3.4884808,-0.2810427,-0.1408464,-0.07416093,25.125,25.6875,25.0,27.3125,27.8125,28.125
0.37405175,-1.2414451,-0.12424892,0.1895511,-0.004212886,0.067126,-0.09666914,-0.40657574,-0.33219215,0.06008045,-3.0748386,0.6189548,0.00032352027,-0.18039545,-0.021502158,-0.0015362309,0.02711877,-0.011911646,0.031257108,0.4289916,-1.4043862,1.9309224,-2.0930297,-1.574869,2.4007382,-0.09702303,0.36248732,-0.43916792,0.09832705,-0.020790022,-0.12794836,-0.2681506,-0.05746084,-8.944737,0.95226496,47.670765,-1.0638956,-1.5281214,-3.5474465,-0.2422674,-0.13963836,-0.031012371,25.125,25.6875,25.0,27.3125,27.8125,28.125
