Tylouw/Master_Thesis_Code/training_data/batch_1/big_rod_t0.1/sample_33_session_3.csv
timestamp[s],tcp_force_x[N],tcp_force_y[N],tcp_force_z[N],tcp_force_rx[Nm?],tcp_force_ry[Nm?],tcp_force_rz[Nm?],tcp_pose_x[m],tcp_pose_y[m],tcp_pose_z[m],tcp_pose_rx[rot_vec_x],tcp_pose_ry[rot_vec_y],tcp_pose_rz[rot_vec_z],tcp_velo_x[m/s],tcp_velo_y[m/s],tcp_velo_z[m/s],tcp_velo_rx[rot_vec_x/s],tcp_velo_ry[rot_vec_y/s],tcp_velo_rz[rot_vec_z/s],q1[rad],q2[rad],q3[rad],q4[rad],q5[rad],q6[rad],qd1[rad/s],qd2[rad/s],qd3[rad/s],qd4[rad/s],qd5[rad/s],qd6[rad/s],tool_acc_x,tool_acc_y,tool_acc_z,current_of_whole_robot[A],voltage_of_whole_robot[V],current_J1[A],current_J2[A],current_J3[A],current_J4[A],current_J5[A],current_J6[A],temp_J1[C],temp_J2[C],temp_J3[C],temp_J4[C],temp_J5[C],temp_J6[C]
1.0430231e-06,-0.28188688,-0.6367307,0.054632686,-0.014560413,0.012070118,0.007929396,-0.37289444,-0.32820553,0.059946395,-3.0784478,0.62485945,-0.00026137708,0.0023845576,0.0010929176,-0.0037029416,0.003424775,-0.007484928,0.00011312232,0.44813824,-1.470861,2.0095608,-2.1076672,-1.5706977,2.4230556,0.0,0.0039501307,0.004121003,0.00015800387,0.00016558757,-0.00011532243,0.17238252,0.21068975,-8.983045,0.7396539,47.687782,-0.43889648,-2.7800996,-2.4691596,-0.5089844,0.13371459,-0.2116482,24.875,25.3125,24.6875,26.8125,27.0625,27.3125
0.00205526,-0.58825576,-0.7860768,0.0882396,-0.008478176,0.010751564,0.011122607,-0.37289673,-0.32820657,0.059930768,-3.0784295,0.6248552,-0.00020757652,-0.0006921428,-0.00039338676,-0.0031524687,-0.0009484422,0.0015672863,0.00011357467,0.44816232,-1.4708368,2.0095847,-2.107731,-1.5707334,2.4230795,0.0,0.0048978226,0.0043929867,-0.011114907,0.00015971025,-0.00011244082,0.17238252,0.28730422,-9.002198,0.7933669,47.71554,-0.44534874,-2.8092728,-2.3727617,-0.48307925,0.1466263,-0.20419303,24.875,25.3125,24.6875,26.8125,27.0625,27.3125
0.004054316,-0.0839008,-0.3252389,0.119087175,-0.012717288,0.023353878,0.0016780766,-0.37290922,-0.3282127,0.059928842,-3.0784647,0.62490106,-0.00021037275,-0.0014617176,-0.0007633993,-0.0026921083,-0.002290732,0.0043585924,0.00011147,0.44813824,-1.4708251,2.0095847,-2.1077678,-1.5706977,2.4230795,0.0,0.0043586288,0.0045484034,-0.013828387,0.00015423549,-0.00010969951,0.076614454,0.2681506,-8.90643,0.7530795,47.72629,-0.4327129,-3.1060562,-2.5528064,-0.35753602,0.12932265,-0.1960573,24.875,25.3125,24.6875,26.8125,27.0625,27.3125
0.006053861,0.024235534,-0.2932635,-0.08482091,0.014637366,0.008096411,0.00441854,-0.3728997,-0.32823366,0.05992378,-3.0784674,0.62488186,-0.00021287554,-0.0007082192,-0.00039683277,-0.0018660158,-0.0012252233,0.0021750815,0.00010789354,0.44818628,-1.4708016,2.0095727,-2.1077774,-1.5706977,2.4231153,0.0,0.0028235978,0.003102944,-0.008418301,0.00014912336,-0.00010708876,0.038307227,0.21068975,-8.925584,0.7597976,47.707485,-0.4496516,-2.9769878,-2.496877,-0.39139113,0.15326627,-0.20478128,24.875,25.3125,24.6875,26.8125,27.0625,27.3125
0.008054324,0.7885644,1.4227518,-0.3222316,0.027468028,-0.0061142985,-0.007122279,-0.37289965,-0.32820597,0.059902877,-3.0784404,0.6249154,-0.00028461692,-9.8863704e-05,-0.00010918337,-0.0012625611,-0.00030616758,0.00023404315,0.000104637766,0.4481262,-1.47079,2.0096076,-2.1077754,-1.5706857,2.4230795,0.0,0.0017850173,0.0018437809,-0.003973023,0.0001693868,-0.00010459939,0.0,0.15322891,-9.040505,0.7217513,47.701214,-0.47699305,-2.948053,-2.4466963,-0.44099712,0.13857281,-0.20702825,24.875,25.3125,24.6875,26.8125,27.0625,27.3125
0.010053391,0.632518,1.0934247,-0.6959564,0.0568141,-0.0214824,-0.001233961,-0.37288842,-0.3282328,0.059908282,-3.0784945,0.6248304,-0.0003041244,5.752721e-05,-3.289946e-05,-0.0010000266,3.828506e-05,-0.00047244734,0.00011728596,0.44816232,-1.4707901,2.0095952,-2.107775,-1.5706495,2.4230556,0.0,0.0015112117,0.0011394914,-0.0022089472,0.00016757452,-0.00011738363,-0.038307227,0.1340753,-9.193734,0.74413085,47.66808,-0.7519733,-2.17872,-3.1211162,-0.469931,0.1338097,-0.26585284,24.875,25.3125,24.6875,26.8125,27.0625,27.3125
0.012053493,0.31618106,0.6286168,-0.91916674,0.034180958,0.0016926641,0.0050169877,-0.37287667,-0.32819057,0.059860576,-3.0783906,0.6248862,-0.00036678303,8.50082e-05,-2.1625441e-05,-0.004666761,0.0035544874,-0.0077825515,0.0001546211,0.4481262,-1.4707506,2.0096667,-2.1077993,-1.5706977,2.4230676,0.0,0.011130553,-0.0011907634,-0.0013862256,0.00016274895,-0.00015203598,0.095768064,0.05746084,-9.3661175,0.78217715,47.705692,-0.8047569,-2.3600628,-3.288511,-0.4654248,0.12317893,-0.27634817,24.875,25.3125,24.6875,26.8125,27.0625,27.3125
0.014053505,-0.26119003,0.19481222,-0.96291333,-0.014059564,0.03174318,-0.003190642,-0.37289387,-0.3281968,0.059869453,-3.0783951,0.6248449,-0.00040567058,-0.0035204133,-0.0017076435,-0.0040006163,0.002736497,-0.0061176657,0.004646123,0.44811413,-1.4707124,2.0095909,-2.1077397,-1.5706857,2.4230292,-0.000112494636,0.017990202,-0.0103413,-0.0009510835,0.00015800103,-0.004749563,-0.1340753,0.17238252,-9.500193,0.7150385,47.684196,-0.90894085,-2.7612197,-3.0447326,-0.4571371,0.12244631,-0.29349008,24.875,25.3125,24.6875,26.8125,27.0625,27.3125
0.016053338,-1.513105,-1.4077264,-1.1459907,-0.032448933,0.04865958,-0.0011761321,-0.37286815,-0.32821536,0.059855446,-3.0784018,0.6248091,-0.0005009409,-0.0053121718,0.0008218273,-0.004075043,0.0029576377,-0.006569041,0.0034447,0.4481479,-1.4706887,2.0095913,-2.1077154,-1.5706495,2.4230397,-0.00649759,0.01763161,-0.009865162,-0.0005665752,0.00015351022,-0.009933692,-0.40222588,0.2681506,-9.615114,0.7665104,47.67614,-0.5731697,-2.610528,-3.2626853,-0.45419353,0.14381762,-0.2384384,24.875,25.3125,24.6875,26.8125,27.0625,27.3125
0.01805336,-2.0353444,-1.8719519,-1.3083771,-0.059294134,0.07671607,-0.0045243097,-0.37288734,-0.3282058,0.059849497,-3.07838,0.6248027,-0.0005476335,-0.0049178037,0.00030757993,-0.0045092716,0.0037084187,-0.008123626,0.006119639,0.44811237,-1.47064,2.0095432,-2.1076787,-1.5706495,2.423003,-0.0051696314,0.01933292,-0.011001013,0.00059417775,0.00014926678,-0.011280061,-0.45968673,0.3256114,-9.730036,0.7642693,47.684196,-0.70637184,-2.4652176,-3.5097876,-0.47681302,0.14226273,-0.22542503,24.875,25.3125,24.6875,26.8125,27.0625,27.3125
0.020054111,-2.049915,-1.8734199,-1.0867653,-0.07118455,0.09151904,-0.017213656,-0.3728932,-0.328211,0.059850357,-3.078382,0.6247825,-0.00052130275,-0.0050074453,-0.0005634513,-0.004165207,0.0040786276,-0.008887736,0.008760216,0.44812495,-1.4706277,2.0095303,-2.10769,-1.5706614,2.4230027,-0.0036119395,0.020864137,-0.01399786,0.002908581,0.00014525148,-0.012361574,-0.47884035,0.38307226,-9.730036,0.7732232,47.709274,-0.92270315,-2.3697865,-3.4397166,-0.49315438,0.12524326,-0.23322591,24.875,25.3125,24.6875,26.8125,27.0625,27.3125
0.022053951,-1.4856706,-1.5819477,-1.2477593,-0.05678915,0.095751315,-0.028374998,-0.37291852,-0.32822323,0.059859358,-3.0784004,0.62476534,-0.0004911744,-0.0062463614,-0.000910845,-0.0036788012,0.0034545583,-0.00759705,0.011676357,0.44812486,-1.4705912,2.0094697,-2.10769,-1.5706614,2.4229896,-0.0040842365,0.022052359,-0.01635754,0.0026458763,0.00014144629,-0.015748318,-0.59376204,0.5554548,-9.80665,0.76874626,47.686886,-1.0195744,-2.4115965,-3.49402,-0.5064453,0.11607994,-0.21161324,24.875,25.3125,24.6875,26.8125,27.0625,27.3125
0.024054393,-1.7409197,-1.1731169,-1.3530867,-0.045694,0.07231589,-0.04200999,-0.3729109,-0.32818484,0.059815478,-3.0783286,0.62473184,-0.00058763864,-0.0076921904,-0.0005567956,-0.0031414689,0.002540975,-0.0057053384,0.011168126,0.44807607,-1.4705433,2.009518,-2.1076906,-1.5706857,2.422929,-0.0060629244,0.022066653,-0.017349163,0.0015218119,0.0001378361,-0.017217854,-0.4405331,0.53630114,-9.749189,0.7105615,47.66539,-0.978182,-2.3758276,-3.4709163,-0.47652882,0.11513792,-0.17626947,24.875,25.3125,24.6875,26.8125,27.0625,27.3125
0.026053958,-1.1694407,-1.0910348,-1.2541826,-0.043736085,0.061648108,-0.05759814,-0.37293237,-0.32822713,0.05982627,-3.0783756,0.6246859,-0.0006055715,-0.009593872,-0.0005129982,-0.0026408264,0.0017398637,-0.0040444685,0.0079232,0.44811141,-1.4704709,2.0094082,-2.1076667,-1.5706495,2.4229298,-0.007874549,0.023546573,-0.019959854,0.00080943515,0.00013440494,-0.015782531,-0.5363012,0.57460845,-9.730036,0.6859408,47.72002,-0.9422884,-2.26745,-3.4789844,-0.46340612,0.13295004,-0.20006822,24.875,25.3125,24.6875,26.8125,27.0625,27.3125
0.028053712,-0.70430815,-0.79687417,-1.0867584,-0.050830815,0.056391105,-0.079091966,-0.37295341,-0.32822654,0.05983077,-3.0783849,0.624632,-0.0005784244,-0.010897153,-0.0006073709,-0.002473436,0.0014716177,-0.003487556,0.00469224,0.4480992,-1.4704463,2.009371,-2.1076667,-1.5706614,2.4228828,-0.00888167,0.025367685,-0.02232535,0.0007358404,0.00013114077,-0.013556953,-0.6512228,0.36391866,-9.691729,0.800085,47.67166,-0.9778254,-2.2501721,-3.5148191,-0.45287433,0.12735915,-0.24014261,24.875,25.3125,24.6875,26.8125,27.0625,27.3125
0.030053426,-0.9294879,-0.75658596,-1.0430944,-0.035934664,0.057522047,-0.09301823,-0.37296882,-0.32821456,0.059800714,-3.078334,0.62469935,-0.0006540651,-0.012515663,-0.0004184076,-0.002055627,0.00090416666,-0.0023139433,0.0025742585,0.4480626,-1.4703621,2.0093477,-2.1076672,-1.5706614,2.4228947,-0.010707609,0.026564132,-0.024530763,0.00044126957,0.00012803126,-0.013263314,-0.5746084,0.24899697,-9.615114,0.800085,47.686886,-0.9832908,-2.2652693,-3.51815,-0.443023,0.122480445,-0.2714265,24.875,25.3125,24.6875,26.8125,27.0625,27.3125
0.032054175,-1.2025907,-0.7011709,-1.0634604,-0.01507157,0.06325577,-0.09671341,-0.37300488,-0.3282149,0.059806075,-3.078364,0.62472445,-0.0006455874,-0.013775439,-0.0006472816,-0.0017393989,0.00046551067,-0.0014072078,0.0024705997,0.44801426,-1.4703257,2.009298,-2.1076791,-1.5706376,2.4228582,-0.011420692,0.028087305,-0.026888821,0.0002691421,0.00012506612,-0.013871022,-0.36391866,0.34476504,-9.595961,0.7329411,47.689575,-1.0456077,-2.2103877,-3.431252,-0.42426682,0.11772376,-0.26942497,24.875,25.3125,24.6875,26.8125,27.0625,27.3125
0.034054153,-1.269966,-0.1222051,-1.0034164,-4.122015e-05,0.06293144,-0.11310028,-0.3730536,-0.32822132,0.05980641,-3.0783553,0.6247224,-0.0006333293,-0.015314096,-0.0009499559,-0.00056402205,-0.0006784979,0.000964794,0.0030785562,0.44799003,-1.4702297,2.0091894,-2.1076672,-1.5706495,2.422834,-0.012247684,0.028100325,-0.029620416,0.00035389222,0.00012223498,-0.015304353,-0.28730422,0.21068975,-9.500193,0.7351769,47.67166,-1.0083324,-2.1328914,-3.4013941,-0.41712776,0.10619989,-0.2769357,24.875,25.3125,24.6875,26.8125,27.0625,27.3125
0.036053978,-0.751653,0.3692835,-0.789185,0.015506244,0.059471898,-0.12707306,-0.3731058,-0.32824624,0.059836477,-3.0784273,0.6246986,-0.00049777824,-0.01680156,-0.0006670947,-0.00033182124,-0.00094731635,0.0015219434,0.0029602228,0.44798937,-1.4702052,2.0091045,-2.1077154,-1.5706495,2.4228094,-0.014130145,0.029578216,-0.031792104,0.00042883455,0.00011952893,-0.017066946,-0.22984336,0.13407528,-9.442732,0.78217715,47.66808,-0.9544319,-2.1429,-3.4392421,-0.40662774,0.110695034,-0.23836565,24.875,25.3125,24.6875,26.8125,27.0625,27.3125
0.038053796,-0.6128572,0.60122824,-0.85920805,0.02532926,0.03956185,-0.14534716,-0.37312946,-0.32824075,0.059808306,-3.0783916,0.62474847,-0.0006117256,-0.018195549,-0.001165287,-3.4791352e-05,-0.0013410273,0.0023275323,0.0038414772,0.44794133,-1.4700967,2.0090444,-2.107691,-1.5706257,2.422797,-0.014459251,0.03183617,-0.034956638,0.00043905745,0.00011694053,-0.018275063,-0.17238252,0.076614454,-9.423578,0.77545905,47.691364,-1.0778824,-2.0676312,-3.425097,-0.40196612,0.10057641,-0.22678639,24.875,25.3125,24.6875,26.8125,27.0625,27.3125
0.040053748,-0.31405896,0.79187626,-0.7951109,0.026915278,0.02415679,-0.15358998,-0.37315875,-0.32822877,0.05979793,-3.0783472,0.6246819,-0.00054264383,-0.019265601,-0.0009228914,-0.00013111245,-0.0011139328,0.0018535972,0.002742446,0.44794086,-1.4700361,2.0090072,-2.107715,-1.5706977,2.4227607,-0.015887208,0.033763528,-0.036998544,0.00107777,0.00011446158,-0.018602645,-0.17238252,-0.038307227,-9.461885,0.779936,47.689575,-0.9599012,-2.1704059,-3.4055643,-0.3826456,0.086649135,-0.21521316,24.875,25.3125,24.6875,26.8125,27.0625,27.3125
0.042054277,-0.103610314,0.37609264,-0.6766877,0.025539692,0.019212343,-0.16436726,-0.37320814,-0.3282401,0.059805214,-3.0783782,0.6247467,-0.00054766965,-0.020159582,-0.0011380953,0.00041629784,-0.0016466428,0.0029616987,0.0018016129,0.44789267,-1.469964,2.0089114,-2.107715,-1.5706614,2.422749,-0.016291002,0.034190934,-0.03874599,0.0011690843,0.00011208591,-0.018064514,-0.17238252,0.0,-9.519346,0.7597976,47.71465,-1.0024002,-2.0801175,-3.3736057,-0.36284906,0.092697784,-0.22951278,24.875,25.3125,24.6875,26.8125,27.0625,27.3125
0.044053476,-0.5490074,-0.42925796,-0.8258229,0.024736015,0.0132399425,-0.11878522,-0.373235,-0.328225,0.05979362,-3.0783384,0.62470084,-0.00058453187,-0.021175405,-0.0010959442,0.00090356264,-0.0018067604,0.003292327,0.0013046103,0.44785628,-1.4698918,2.0088503,-2.1076782,-1.5706857,2.4226892,-0.017291151,0.035025276,-0.041028,0.0022488814,0.000109806526,-0.018566484,-0.17238252,-0.038307227,-9.500193,0.7329411,47.693153,-0.93409187,-2.0759213,-3.4513757,-0.3676514,0.08648415,-0.21338928,24.875,25.3125,24.6875,26.8125,27.0625,27.3125
0.04605336,0.07887539,-0.393079,-0.84846306,0.009944525,0.03389295,-0.123630926,-0.37328282,-0.32823136,0.059791345,-3.0783682,0.62468725,-0.0005931324,-0.021574622,-0.0011988103,0.0010202829,-0.0015211639,0.00270082,0.002087082,0.44780824,-1.4698077,2.008766,-2.1076896,-1.5706614,2.4226289,-0.017456818,0.036109358,-0.042793903,0.003587872,0.00010761803,-0.019513786,-0.17238253,0.076614454,-9.385271,0.82022345,47.713753,-0.9881068,-2.0334754,-3.452599,-0.36127406,0.08123122,-0.20037046,24.875,25.3125,24.6875,26.8125,27.0625,27.3125
0.048054174,-0.92805636,-0.8456289,-0.85388196,0.0073283473,0.021948164,-0.113126665,-0.3733449,-0.3282593,0.05982944,-3.0784228,0.62471753,-0.0005014206,-0.022174917,-0.0013065957,0.000987044,-0.0011347415,0.0019011566,0.0016870686,0.4477962,-1.4697592,2.0086224,-2.1076772,-1.5706495,2.4226289,-0.01779696,0.03788751,-0.0449626,0.004866804,0.000105515144,-0.019452697,-0.095768064,0.15322891,-9.461885,0.78217715,47.694054,-0.99786466,-1.9782751,-3.474125,-0.37763432,0.07894772,-0.20263416,24.875,25.3125,24.6875,26.8125,27.0625,27.3125
0.05005315,-0.99347615,-0.9430222,-0.82958555,-0.00188846,0.017267285,-0.108306944,-0.37337637,-0.3282123,0.059797622,-3.0783174,0.6247929,-0.00055970124,-0.02297436,-0.0012230346,0.0013613133,-0.0012933551,0.0022634426,0.0005741314,0.44771183,-1.4696751,2.0085976,-2.1076534,-1.5706977,2.422605,-0.018665934,0.03842085,-0.046562783,0.0055375914,8.850444e-05,-0.019207869,-0.1340753,0.2681506,-9.442732,0.7777002,47.728977,-0.94010997,-1.9319723,-3.4982107,-0.37035888,0.07697329,-0.18852381,24.875,25.3125,24.6875,26.8125,27.0625,27.3125
0.052054025,-0.745045,-1.251217,-0.97986215,-0.0057024164,0.021800527,-0.10857968,-0.37340468,-0.32825586,0.0598088,-3.0783596,0.6247054,-0.0005412662,-0.02376869,-0.0015179081,0.0016300114,-0.0013557798,0.0023953333,0.0005991046,0.44775984,-1.4695908,2.0084765,-2.1076405,-1.5706857,2.422593,-0.018832313,0.03980573,-0.048882257,0.0063264696,8.476992e-05,-0.01939784,-0.019153614,0.34476504,-9.519346,0.8112748,47.72719,-1.0067368,-1.8910892,-3.5343914,-0.36866972,0.090096384,-0.17888248,24.875,25.3125,24.6875,26.8125,27.0625,27.3125
0.054053824,-0.44077668,-0.9725796,-0.7924368,-0.021857386,0.023839176,-0.11978179,-0.37347326,-0.3282572,0.05982585,-3.078423,0.62475675,-0.00048613164,-0.02453755,-0.0014163989,0.0012372218,-0.0008695873,0.0013837303,0.00047582845,0.44767547,-1.469542,2.008392,-2.1076767,-1.5706495,2.4225328,-0.019716265,0.042176284,-0.050720695,0.006917346,8.306997e-05,-0.020157205,-0.11492168,0.34476507,-9.576807,0.75755644,47.679718,-0.9220277,-1.8574656,-3.5281067,-0.34861267,0.07107565,-0.18109533,24.875,25.3125,24.6875,26.8125,27.0625,27.3125
0.056053974,-0.8731523,-1.7988639,-1.246105,-0.010962769,0.009998692,-0.10247013,-0.3735111,-0.32823035,0.059814744,-3.07834,0.62466234,-0.00050689426,-0.025494348,-0.0014218484,0.0015579533,-0.0010399844,0.0017309088,0.0006534942,0.4476393,-1.469446,2.0082958,-2.1076052,-1.5707215,2.4224484,-0.020572454,0.043191303,-0.052707814,0.0075010564,8.1555714e-05,-0.021189893,-0.095768064,0.34476504,-9.557653,0.8157518,47.686886,-0.9084896,-1.9043329,-3.5082865,-0.36107665,0.08201161,-0.17581479,24.875,25.3125,24.6875,26.8125,27.0625,27.3125
0.05805354,-0.6466752,-1.3625445,-0.967551,-0.029617272,0.017444663,-0.11210266,-0.37354773,-0.32824808,0.059814584,-3.0783558,0.624723,-0.0005435883,-0.026066322,-0.0014530555,0.00085326383,-0.00032959812,0.00024709583,0.0011874523,0.4476151,-1.469361,2.0082,-2.1075923,-1.5706857,2.42246,-0.021031689,0.04614336,-0.054432534,0.007919407,8.010337e-05,-0.022181712,-0.17238252,0.45968673,-9.634268,0.76874626,47.692257,-0.9147863,-1.8680964,-3.639433,-0.36743146,0.07892298,-0.17020598,24.875,25.3125,24.6875,26.8125,27.0625,27.3125
0.060053308,-0.80147433,-1.2570153,-0.8802089,-0.03855848,0.031045943,-0.111526765,-0.37362438,-0.3282553,0.05983264,-3.078369,0.62468594,-0.00050197705,-0.026935972,-0.0016910832,0.001169317,-0.0005396367,0.000680691,0.0012659098,0.44756705,-1.4692528,2.0080316,-2.1075566,-1.5706977,2.4223874,-0.021368776,0.047313493,-0.056553844,0.008388473,7.870218e-05,-0.022595944,-0.19153613,0.45968673,-9.481039,0.75084364,47.705692,-0.94513273,-1.8679916,-3.5694213,-0.38081673,0.08279,-0.16636628,24.875,25.3125,24.6875,26.8125,27.0625,27.3125
0.062053937,-1.3337629,-1.4946108,-0.72184545,-0.025015911,0.03160035,-0.105393864,-0.37367517,-0.32826057,0.059839904,-3.0783904,0.62465286,-0.00047242313,-0.028198997,-0.0019153057,0.0015891634,-0.0008639027,0.001349471,0.00068463525,0.44753075,-1.4691802,2.0079353,-2.1075566,-1.5706977,2.4223278,-0.022090603,0.04885327,-0.059321262,0.008872856,7.734951e-05,-0.02273474,-0.1340753,0.3256114,-9.442732,0.78217715,47.723602,-0.8751141,-1.831363,-3.5881019,-0.38112795,0.06571826,-0.15330808,24.875,25.3125,24.6875,26.8125,27.0625,27.3125
0.0640536,-1.7361692,-1.4405504,-0.81803334,-0.013038415,0.028623622,-0.11034007,-0.37375113,-0.32826516,0.059846796,-3.078393,0.62474996,-0.00042803225,-0.029419184,-0.0020077184,0.0013285178,-0.00080270576,0.0012140113,0.00018877172,0.44747037,-1.4690715,2.0078027,-2.1075685,-1.5706977,2.4223278,-0.023019277,0.051551044,-0.06163894,0.008641299,7.604236e-05,-0.023165675,-0.095768064,0.38307226,-9.519346,0.76874626,47.70659,-0.8618171,-1.849152,-3.514831,-0.37360704,0.071737334,-0.15908277,24.875,25.3125,24.6875,26.8125,27.0625,27.3125
0.06605387,-1.0991777,-0.7733244,-0.513657,-0.019357791,0.041817777,-0.112807974,-0.37379512,-0.32828674,0.05985112,-3.078437,0.6246808,-0.00046156012,-0.030275343,-0.0023513234,0.0018744145,-0.0014105911,0.0024728521,0.0015975761,0.44744638,-1.4689757,2.007682,-2.1075447,-1.5706614,2.422255,-0.023146698,0.052010365,-0.06337138,0.00851711,7.4778705e-05,-0.024700765,-0.17238252,0.4405331,-9.308657,0.7105615,47.694946,-0.9223558,-1.7878397,-3.6117835,-0.3559708,0.07416285,-0.12704916,24.875,25.3125,24.6875,26.8125,27.0625,27.3125
0.068053804,-1.296158,-0.77813596,-0.43009245,-0.013647803,0.030238915,-0.10789803,-0.37386084,-0.32827172,0.05983523,-3.0784006,0.6247305,-0.0005469898,-0.032356795,-0.0031940625,0.0024124582,-0.0020965007,0.0038777115,0.0022106904,0.44735035,-1.4688308,2.0075486,-2.107497,-1.5706495,2.4221947,-0.023446083,0.055274863,-0.068198785,0.008516871,7.355644e-05,-0.02560988,-0.22984336,0.47884035,-9.270349,0.7866488,47.701214,-0.98997295,-1.7696135,-3.4056032,-0.35340315,0.049474914,-0.11305303,24.875,25.3125,24.6875,26.8125,27.0625,27.3125
0.07005365,-0.58627135,-0.62902766,-0.44533333,-0.009074244,0.034584638,-0.115354724,-0.37393874,-0.32830498,0.059874702,-3.0784621,0.6247049,-0.00040214157,-0.03198652,-0.0027605968,0.0009443106,-0.000698412,0.000976278,0.0015984136,0.44735017,-1.468758,2.0073807,-2.107509,-1.5706614,2.4221709,-0.023921126,0.05782769,-0.06767305,0.008658746,7.237343e-05,-0.025472594,-0.15322891,0.34476504,-9.289502,0.7486078,47.686886,-0.904302,-1.8886203,-3.5647473,-0.35031378,0.03780298,-0.11296216,24.875,25.3125,24.6875,26.8125,27.0625,27.3125
0.072053544,-0.7813272,-0.521585,-0.32984734,-0.010696584,0.02587554,-0.11266245,-0.37398118,-0.32830408,0.059863873,-3.0784438,0.6246635,-0.00048803928,-0.033565886,-0.0031633698,0.00263007,-0.0022951884,0.004291815,0.00040238805,0.44730186,-1.4686385,2.0072606,-2.1074488,-1.5706495,2.422099,-0.024591003,0.056769088,-0.07040728,0.008771958,7.122797e-05,-0.024945032,-0.24899697,0.24899697,-9.308657,0.8179876,47.684196,-0.914994,-1.7510924,-3.5343766,-0.348138,0.056459963,-0.12530854,24.875,25.3125,24.6875,26.8125,27.0625,27.3125
0.07405322,-0.90681416,-0.30999234,-0.32416567,-0.008335631,0.021370055,-0.106742844,-0.37406677,-0.32830882,0.05987612,-3.078439,0.62464386,-0.00038143192,-0.036820333,-0.0043992284,0.004611837,-0.0042276387,0.008309525,-0.0004713578,0.44726562,-1.468518,2.0071027,-2.1074603,-1.5706977,2.4220514,-0.025211457,0.059041657,-0.07754703,0.009179727,6.3210995e-05,-0.024687234,-0.24899697,0.28730422,-9.346964,0.73741806,47.64837,-0.9228155,-1.6272688,-3.3257143,-0.3441541,0.051596053,-0.14173579,24.875,25.3125,24.6875,26.8125,27.0625,27.3125
0.076053716,-1.1038895,-0.476293,-0.3081897,0.009001902,0.019409945,-0.1043168,-0.3741614,-0.32831636,0.059882253,-3.0784721,0.6247654,-0.00035909735,-0.035515107,-0.0033597632,0.0013382585,-0.0010545523,0.0017266677,-0.00050155853,0.4471694,-1.4683844,2.0069473,-2.107484,-1.5706614,2.4220269,-0.025967306,0.06386376,-0.075434715,0.009553842,5.569839e-05,-0.025413485,-0.28730422,0.2681506,-9.251195,0.78217715,47.666286,-0.9080323,-1.8476912,-3.4743586,-0.33866233,0.046534933,-0.12417917,24.875,25.3125,24.6875,26.8125,27.0625,27.3125
0.07805394,-0.63218266,-0.26235628,-0.31693643,0.001355787,0.04314025,-0.110330924,-0.37420616,-0.32831016,0.059851646,-3.0784292,0.6247761,-0.00047381196,-0.037997514,-0.004055803,0.0037109514,-0.0033411325,0.0064705755,0.00014370038,0.447109,-1.468229,2.0068386,-2.1074483,-1.5706495,2.4219787,-0.026902888,0.062970236,-0.07993022,0.009676757,5.442949e-05,-0.02699185,-0.1340753,0.24899697,-9.270349,0.7777002,47.66271,-0.87360007,-1.7662346,-3.3609247,-0.325518,0.04227124,-0.12140912,24.875,25.3125,24.6875,26.8125,27.0625,27.3125
0.08005369,-1.2993013,-0.775725,-0.17105892,0.009852431,0.029165938,-0.11258281,-0.37427533,-0.3283071,0.059869684,-3.0783992,0.62469286,-0.0004444834,-0.03900158,-0.0043888236,0.0035768447,-0.0029625334,0.005673045,-0.00028003784,0.44707304,-1.4681202,2.0066583,-2.107364,-1.5706977,2.4218948,-0.02718337,0.06592366,-0.083133735,0.010808407,5.3591324e-05,-0.02684656,-0.21068975,0.21068975,-9.308656,0.78217715,47.684196,-0.87570727,-1.6628504,-3.299017,-0.34438372,0.05014656,-0.12258278,24.875,25.3125,24.6875,26.8125,27.0625,27.3125
0.0820538,-1.3559822,-0.63409376,-0.44268405,0.009906002,0.0230444,-0.09850356,-0.37438628,-0.3283415,0.059914105,-3.0784733,0.62472713,-0.00028082408,-0.039299015,-0.0044750203,0.0028428512,-0.0020733927,0.003825015,-6.491911e-05,0.44703707,-1.4680114,2.0064423,-2.1073878,-1.5706977,2.421871,-0.027283633,0.068762,-0.08477102,0.011658122,5.280347e-05,-0.027160767,-0.30645782,0.21068975,-9.32781,0.7553206,47.695843,-0.92560625,-1.8148162,-3.334388,-0.3345862,0.040261365,-0.12640487,24.875,25.3125,24.6875,26.8125,27.0625,27.3125
0.08405359,-0.9428997,-0.26873413,-0.44666234,-0.013631995,0.03279501,-0.10666029,-0.37446192,-0.32832673,0.059907895,-3.0784314,0.6247942,-0.000338999,-0.041451048,-0.004966127,0.0037382534,-0.0029688347,0.0056718453,2.7370863e-06,0.44694072,-1.4678669,2.006284,-2.1073277,-1.5706977,2.4218218,-0.028301373,0.07084946,-0.0891926,0.0119396085,5.2040075e-05,-0.028243305,-0.2681506,0.24899697,-9.308657,0.779936,47.687782,-0.89762884,-1.7745993,-3.2249389,-0.34175807,0.030422017,-0.12732834,24.875,25.3125,24.6875,26.8125,27.0625,27.3125
0.08605369,-1.5817324,-0.64155835,-0.6381118,-0.011730421,0.02032976,-0.097267166,-0.3745436,-0.32836646,0.059909493,-3.0784879,0.6247287,-0.00034636952,-0.040991608,-0.004580545,0.0024211027,-0.0018863858,0.0034454032,-0.000117159165,0.44691664,-1.4676868,2.0060823,-2.1073282,-1.5706614,2.4217498,-0.028594956,0.07267629,-0.08809142,0.011488247,4.0148283e-05,-0.028417232,-0.19153613,0.30645782,-9.346964,0.800085,47.689575,-0.9068829,-1.7987306,-3.3934546,-0.33674258,0.026088174,-0.11998245,24.875,25.3125,24.6875,26.8125,27.0625,27.3125
0.08805336,-0.38801986,-0.6806399,-0.63043463,-0.02314592,0.050752867,-0.115167044,-0.37459198,-0.32836205,0.05989588,-3.0784583,0.6247809,-0.00041647055,-0.042169295,-0.0049302243,0.0024599577,-0.0021049425,0.00389036,-0.0005348782,0.44685644,-1.4675661,2.0059726,-2.1072924,-1.5706495,2.421726,-0.028998045,0.0749115,-0.09059587,0.011262143,3.8042694e-05,-0.02840071,-0.22984336,0.22984336,-9.500193,0.8090337,47.686886,-0.9293777,-1.8049622,-3.4140773,-0.36177444,0.022377964,-0.13601817,24.875,25.3125,24.6875,26.8125,27.0625,27.3125
0.09005406,-1.6626498,-1.3771739,-0.3908362,-0.018749038,0.030729823,-0.10011436,-0.37470797,-0.3283816,0.059925996,-3.0785136,0.62471616,-0.00030105957,-0.04350886,-0.0050057014,0.0025552923,-0.0021913126,0.0042074015,-0.0021407239,0.44679612,-1.4674217,2.0057447,-2.1072924,-1.5706614,2.4216185,-0.030017123,0.07705145,-0.093212865,0.011415935,-2.3419596e-05,-0.027811999,-0.24899697,0.2681506,-9.346964,0.78217715,47.687782,-0.88761055,-1.8556609,-3.191528,-0.35387158,0.017843565,-0.15580317,24.875,25.3125,24.6875,26.8125,27.0625,27.3125
0.092054814,-1.7349415,-1.1551175,-0.6082593,-0.013051987,0.027871665,-0.10013975,-0.37476623,-0.3283841,0.059913557,-3.0784676,0.6247639,-0.00037548933,-0.044503096,-0.0053109117,0.0022997537,-0.0021055168,0.004057761,-0.001372587,0.446748,-1.4672651,2.0055873,-2.1072323,-1.5706614,2.421606,-0.030325366,0.07968738,-0.09549791,0.011236997,-4.327322e-05,-0.02888654,-0.19153613,0.30645782,-9.346964,0.7665104,47.687782,-0.9022642,-1.8542491,-3.3060098,-0.36166233,0.005830634,-0.15471849,24.875,25.3125,24.6875,26.8125,27.0625,27.3125
0.094053574,-1.4466722,-0.8583165,-0.68480694,-0.015984248,0.0319522,-0.101476826,-0.37488425,-0.32838756,0.059923794,-3.0784874,0.62478715,-0.000357817,-0.04601578,-0.0052347244,0.0021973762,-0.0024679715,0.00480921,-0.0014728105,0.44663957,-1.4670845,2.00536,-2.107209,-1.5706495,2.4215097,-0.0318195,0.08184723,-0.09740519,0.010150317,-4.684923e-05,-0.030278688,-0.19153613,0.3256114,-9.3661175,0.7642693,47.66808,-0.86088073,-1.8379722,-3.2561164,-0.34385198,0.00510683,-0.15363443,24.875,25.3125,24.6875,26.8125,27.0625,27.3125
0.09605329,-1.2687726,-1.1001362,-0.647595,-0.008557997,0.028256537,-0.10464234,-0.37496787,-0.3283979,0.059911475,-3.078474,0.62480384,-0.0003484789,-0.047208153,-0.005413563,0.002111467,-0.0024084733,0.0046992693,-0.0024411983,0.44659126,-1.4669039,2.005192,-2.1072204,-1.5706614,2.4214737,-0.032547228,0.084379375,-0.1000672,0.010404764,-5.7795372e-05,-0.030036133,-0.2681506,0.24899697,-9.404425,0.76874626,47.699425,-0.8093506,-1.89075,-3.2296882,-0.34238482,-0.004846642,-0.15944499,24.875,25.3125,24.6875,26.8125,27.0625,27.3125
0.098054014,-0.77873874,-0.58244514,-0.5820872,-0.017910767,0.033749413,-0.103889726,-0.37511107,-0.32842404,0.059956167,-3.0785038,0.6248291,-0.00015325921,-0.048069645,-0.0058834697,0.0022863874,-0.0028098845,0.0055410257,-0.0023846126,0.44654325,-1.4667356,2.0049045,-2.107221,-1.5707096,2.421438,-0.03243031,0.08581152,-0.1019453,0.009916753,-6.0493207e-05,-0.029974353,-0.24899697,0.2681506,-9.289502,0.800085,47.696735,-0.8123791,-1.8760669,-3.2829757,-0.33120382,0.0030959835,-0.17266163,24.875,25.3125,24.6875,26.8125,27.0625,27.3125
0.100053705,-0.8838555,-1.1610258,-0.7202922,-0.0062287534,0.024809875,-0.104812436,-0.37517118,-0.32844278,0.059954263,-3.0785334,0.6248152,-0.00025592366,-0.048590425,-0.006309217,0.0013957362,-0.0021078463,0.004092872,-0.0016310606,0.4464834,-1.4665908,2.0047357,-2.1071608,-1.5706495,2.4213657,-0.032087065,0.089499086,-0.10396132,0.009856333,-7.367399e-05,-0.030382864,-0.1340753,0.3256114,-9.3661175,0.8112748,47.71286,-0.8039275,-1.8709766,-3.207833,-0.34115392,0.009351634,-0.18355572,24.875,25.3125,24.6875,26.8125,27.0625,27.3125
0.10205357,-0.66736484,-1.1439596,-0.7522156,-0.014377323,0.027152393,-0.103439935,-0.3753268,-0.32845128,0.059984688,-3.0785506,0.62481767,-6.4798136e-05,-0.04944387,-0.0063499548,0.002308459,-0.0028350854,0.0056151343,-0.0017905094,0.44639915,-1.4663992,2.0044606,-2.1071846,-1.5707096,2.421281,-0.03276411,0.088838644,-0.105445474,0.010311976,-7.3463874e-05,-0.030899864,-0.1340753,0.4213795,-9.3661175,0.8090337,47.701214,-0.87373465,-1.9442093,-3.259843,-0.32052714,-0.001144432,-0.20492825,24.875,25.3125,24.6875,26.8125,27.0625,27.3125
0.10405332,-0.7278245,-1.226824,-0.9032952,-0.02129837,0.01958567,-0.09649874,-0.37538457,-0.32847482,0.059965216,-3.0785482,0.6248566,-0.0002109896,-0.051004928,-0.0057600252,0.0022822006,-0.0024919622,0.0060069854,-0.0032445586,0.44635046,-1.4662073,2.0042803,-2.1071255,-1.5706495,2.421257,-0.03494445,0.09066161,-0.10739132,0.010233034,-0.0005585372,-0.031623878,-0.095768064,0.3256114,-9.32781,0.78217715,47.709274,-0.7781174,-1.7059131,-3.2875519,-0.31711924,-0.0029643853,-0.2110026,24.875,25.3125,24.6875,26.8125,27.0625,27.3125
0.106053784,-0.51523435,-1.2043701,-0.49431208,-0.02580847,0.021779973,-0.10245778,-0.37550217,-0.32844362,0.059969403,-3.0784748,0.62487966,-0.00013365746,-0.051739693,-0.0057603894,0.0016885658,-0.0019138139,0.00483341,-0.0031245218,0.4462423,-1.4660382,2.0040762,-2.1070888,-1.5707334,2.4211729,-0.03558036,0.0935059,-0.10925095,0.010553759,-0.00057635724,-0.032378368,-0.1340753,0.36391866,-9.346964,0.78888994,47.698532,-0.79957914,-2.0757565,-3.3179152,-0.31400558,-0.013000604,-0.23071857,24.875,25.3125,24.6875,26.8125,27.0625,27.3125
0.10805394,-0.80551404,-0.9529384,-0.41921407,-0.029268231,0.016820777,-0.107294425,-0.37559867,-0.3285073,0.059997287,-3.0786016,0.6248096,-0.00012394047,-0.05216838,-0.0053441143,0.0008179246,-0.0010148409,0.0030876575,-0.0035164896,0.44621786,-1.4658697,2.003824,-2.107077,-1.5706495,2.4210887,-0.036700074,0.095940895,-0.11002084,0.010854256,-0.00063258514,-0.03310534,-0.076614454,0.28730422,-9.385271,0.85155696,47.699425,-0.7357177,-1.916472,-3.3797185,-0.30547473,-0.014696997,-0.22433385,24.875,25.3125,24.6875,26.8125,27.0625,27.3125
0.110053375,-0.6640625,-0.5407703,-0.40353042,-0.021410406,0.023710156,-0.10671557,-0.37571576,-0.32850587,0.059991498,-3.0785773,0.62478507,-9.058419e-05,-0.052924443,-0.005679078,0.00033839204,-0.00064581586,0.0023938804,-0.0028845004,0.4461338,-1.4656532,2.003596,-2.107065,-1.5706857,2.4209926,-0.036715258,0.098870195,-0.112169825,0.010857844,-0.0006705813,-0.03375076,-0.11492168,0.2681506,-9.289502,0.7642693,47.694054,-0.6669674,-1.9734097,-3.4249523,-0.2974121,-0.012726616,-0.24295838,24.875,25.3125,24.6875,26.8125,27.0625,27.3125
0.112053245,-0.49260736,-0.4101138,-0.53453827,-0.0030027104,0.021006884,-0.10154477,-0.37582764,-0.32852155,0.060001094,-3.078584,0.62482345,-6.205827e-05,-0.053518075,-0.0063754055,0.0007946333,-0.0011591043,0.0033517343,-0.0013030828,0.44606215,-1.4654613,2.0033572,-2.1070411,-1.5706857,2.4209442,-0.035963453,0.0997041,-0.114170544,0.010938755,-0.0006240212,-0.034579217,-0.019153614,0.28730422,-9.289502,0.86945957,47.69763,-0.7894608,-1.9558387,-3.4418254,-0.29008242,-0.038442686,-0.25629267,24.875,25.3125,24.6875,26.8125,27.0625,27.3125
0.11405387,-0.37338388,-0.28266907,-0.46073067,0.0066890065,0.020026607,-0.10552318,-0.37592185,-0.32853493,0.05999097,-3.0785773,0.62482214,-7.742427e-05,-0.05425046,-0.0064765355,0.00038870226,-0.00072381925,0.002523731,-0.001241552,0.44600213,-1.4652567,2.0031521,-2.1070287,-1.5706857,2.4208844,-0.036397107,0.1022251,-0.1161216,0.011303625,-0.0006631815,-0.035072926,-0.038307227,0.2681506,-9.251195,0.85826975,47.698532,-0.79487175,-1.9467181,-3.3273916,-0.27666983,-0.038853295,-0.2515819,24.875,25.3125,24.6875,26.8125,27.0625,27.3125
0.11605372,-0.31468904,-0.14072527,-0.5747666,0.008435409,0.015001313,-0.11246436,-0.3760354,-0.32854658,0.05997037,-3.0785615,0.62481815,-8.155752e-05,-0.05575601,-0.0064711347,0.0008692227,-0.0013812064,0.003856965,-0.000118471035,0.44592947,-1.4650049,2.0029247,-2.1070411,-1.5706977,2.4208114,-0.037757162,0.10331235,-0.118372224,0.010979689,-0.0006513634,-0.03755454,-0.076614454,0.15322891,-9.289502,0.82022345,47.701214,-0.80652505,-1.9564016,-3.51624,-0.24805406,-0.042611696,-0.27748734,24.875,25.3125,24.6875,26.8125,27.0625,27.3125
0.11805327,-0.20617545,-0.07301991,-0.41200286,-0.0008223496,0.012846976,-0.11180675,-0.37612566,-0.32854956,0.059970886,-3.078546,0.62483346,-0.00013878259,-0.055855148,-0.006445166,0.0008949203,-0.0011036196,0.0033224756,0.00072543236,0.44584557,-1.464825,2.0027087,-2.1069686,-1.5706857,2.4207392,-0.037866674,0.10376967,-0.119167775,0.011920204,-0.00067214883,-0.038507663,-0.076614454,0.1340753,-9.289502,0.8023209,47.709274,-0.75981534,-1.8065388,-3.453949,-0.26390666,-0.031356975,-0.26353136,24.875,25.3125,24.6875,26.8125,27.0625,27.3125
0.12005399,-0.50286955,-0.104478255,-0.27551803,-0.008734365,0.009761132,-0.10253291,-0.37626693,-0.32855955,0.059991788,-3.0785608,0.6247985,-3.0059138e-05,-0.05652339,-0.0063002314,5.7054553e-05,-0.00021059088,0.0015121961,-0.0008425276,0.4457613,-1.4646201,2.002432,-2.1069567,-1.570722,2.4206314,-0.03870628,0.10701831,-0.12098322,0.012504245,-0.0006972392,-0.037777934,-0.15322891,0.21068975,-9.270349,0.7709874,47.687782,-0.80593884,-2.0591116,-3.5002546,-0.25872603,-0.050356533,-0.28777164,24.875,25.3125,24.6875,26.8125,27.0625,27.3125
0.1220535,-0.3994135,-0.17267172,-0.41162217,-0.007093056,0.025387412,-0.11262807,-0.3763735,-0.32857025,0.05997772,-3.0785458,0.6248141,-8.655361e-05,-0.05705054,-0.006719517,0.0013656395,-0.0012725426,0.0037758725,-0.0003828861,0.44567722,-1.4643812,2.0021927,-2.1069205,-1.5707101,2.4205592,-0.038364563,0.105361946,-0.12228403,0.012961563,-0.0007178152,-0.037895482,-0.17238252,0.21068975,-9.232041,0.7530795,47.675243,-0.83306086,-1.7836065,-3.5697317,-0.25932947,-0.050565377,-0.30612835,24.875,25.3125,24.6875,26.8125,27.0625,27.3125
0.12405356,-0.63480115,-0.39362147,-0.32768428,0.009698724,0.030065179,-0.10749934,-0.37653086,-0.32860115,0.06002086,-3.0786126,0.6248457,6.127536e-05,-0.05803927,-0.007051551,0.00066509313,-0.00040568865,0.0021513596,0.0009805212,0.44559333,-1.4641879,2.0018804,-2.10692,-1.5707101,2.4204867,-0.038559582,0.1096164,-0.12559474,0.013857288,-0.0008002133,-0.03945154,-0.17238252,0.19153613,-9.232041,0.7463667,47.655537,-0.8118536,-1.8773694,-3.3887715,-0.24146488,-0.061192773,-0.30590615,24.875,25.3125,24.6875,26.8125,27.0625,27.3125
0.1260534,-0.76321447,0.047892172,-0.3773777,0.008488567,0.03299846,-0.101964355,-0.37663364,-0.3286102,0.060004406,-3.0786078,0.62488335,-5.9293998e-05,-0.05920617,-0.0074132,0.0012561311,-0.00091631984,0.0030244899,0.0003972424,0.4454852,-1.4639482,2.00164,-2.10686,-1.5706619,2.4204028,-0.038966727,0.1107978,-0.12842427,0.014499074,-0.00072231016,-0.039273873,-0.17238252,0.19153613,-9.212888,0.80679786,47.694054,-0.8735053,-1.7056217,-3.6310878,-0.23511255,-0.06999507,-0.34472305,24.875,25.3125,24.6875,26.8125,27.0625,27.3125
0.1280543,-1.1315807,-0.4914358,-0.57640654,0.0142393075,0.020894969,-0.09578862,-0.37672883,-0.32863012,0.06000307,-3.0786026,0.6247658,-2.5679408e-05,-0.059666675,-0.0075489134,0.00077463547,-0.00027479406,0.0017179745,0.0021065366,0.4454611,-1.4637433,2.0014117,-2.106836,-1.5706981,2.4203062,-0.039106272,0.11329768,-0.13028802,0.015316692,-0.0007406223,-0.04112147,-0.21068975,0.24899697,-9.232041,0.83813137,47.658226,-0.8870693,-1.7714598,-3.5565627,-0.23939945,-0.066967025,-0.34872156,24.875,25.3125,24.6875,26.8125,27.0625,27.3125
0.13005368,-0.77752435,-0.39946118,-0.6456977,0.007403563,0.020971887,-0.1020701,-0.3768612,-0.3286467,0.060014673,-3.0786242,0.6247134,5.775946e-05,-0.0611859,-0.008106234,0.0015993839,-0.0011694978,0.003746798,0.0008154992,0.445389,-1.4635277,2.001147,-2.106836,-1.570722,2.420199,-0.03936401,0.11439701,-0.1333576,0.01507006,-0.0008120962,-0.040086105,-0.15322891,0.30645782,-9.346964,0.8090337,47.689575,-0.9453972,-1.805522,-3.4323506,-0.23544875,-0.07593142,-0.3770612,24.875,25.3125,24.6875,26.8125,27.0625,27.3125
0.13205373,-1.4072926,-1.0295136,-0.7376115,0.0014577156,0.010655947,-0.088815615,-0.3769765,-0.3286596,0.060012184,-3.0785992,0.62482435,-1.09150915e-05,-0.062279128,-0.008975565,0.0023882717,-0.0019059585,0.0054436494,-0.00013561388,0.44529334,-1.4632877,2.0008714,-2.106764,-1.5706981,2.4201758,-0.038652673,0.115492895,-0.13643065,0.015200108,-0.00088543317,-0.03842163,-0.17238252,0.34476504,-9.404425,0.7665104,47.677036,-0.9466628,-1.6898608,-3.4071848,-0.24508111,-0.07204351,-0.41231436,24.875,25.3125,24.6875,26.8125,27.0625,27.3125
0.13405363,-0.6521111,-1.2082498,-0.8585767,-0.019137483,0.03651768,-0.10459817,-0.37710702,-0.3286837,0.060020946,-3.0786035,0.62480444,-1.1571819e-05,-0.06340569,-0.008994454,0.002727125,-0.0019129248,0.0058649913,0.00052917586,0.445221,-1.4630358,2.0005596,-2.106704,-1.5706981,2.4200907,-0.039491408,0.1168371,-0.13888448,0.015926821,-0.0010639885,-0.039923485,-0.1340753,0.4405331,-9.481039,0.7597976,47.678825,-0.9490187,-1.6804304,-3.4191494,-0.23496339,-0.072443366,-0.44107628,24.875,25.3125,24.6875,26.8125,27.0625,27.3125
0.13605423,-1.3160008,-1.6546178,-0.976234,-0.032491606,0.027931418,-0.10106153,-0.37724933,-0.3286963,0.060047127,-3.0786364,0.62481046,8.804516e-05,-0.06438135,-0.008737226,0.0024155637,-0.0015614874,0.0052217036,0.001129694,0.44512466,-1.4628434,2.0002844,-2.106692,-1.5707101,2.419994,-0.0408004,0.11899767,-0.14065522,0.016268158,-0.0011039226,-0.041831776,-0.21068975,0.36391866,-9.557653,0.81351066,47.68599,-0.9762895,-1.6113105,-3.4510558,-0.23122974,-0.07056171,-0.4381612,24.875,25.3125,24.6875,26.8125,27.0625,27.3125
0.13805315,-1.5542669,-1.8964977,-1.0076998,-0.039321575,0.031168314,-0.09602342,-0.37737235,-0.32870016,0.060031403,-3.078599,0.62483925,5.3217234e-05,-0.0644292,-0.00971537,0.0022710005,-0.0009927483,0.0048745507,0.0048742015,0.44502926,-1.462579,2.0000203,-2.1066558,-1.570722,2.4199216,-0.038749017,0.12115151,-0.14287646,0.016894167,-0.0014723351,-0.043522883,-0.17238252,0.4213795,-9.557653,0.80679786,47.694946,-1.0493338,-1.6575437,-3.4139874,-0.2254642,-0.077861756,-0.44912222,24.875,25.3125,24.6875,26.8125,27.0625,27.3125
0.14005366,-1.481234,-2.4171085,-1.0988253,-0.030877534,0.03476413,-0.09243586,-0.37750068,-0.3287256,0.060027473,-3.078614,0.62478375,-2.9485886e-06,-0.0645913,-0.009999422,0.00035425863,0.0006619874,0.0013381887,0.006421221,0.44494545,-1.4623015,1.999709,-2.1065958,-1.5706981,2.4198015,-0.038363777,0.12669034,-0.14467512,0.01705891,-0.0014482498,-0.044682853,-0.095768064,0.49799395,-9.519346,0.78888994,47.698532,-1.1274804,-1.7703748,-3.551325,-0.22593741,-0.08899465,-0.47235143,24.875,25.3125,24.6875,26.8125,27.0625,27.3125
0.14205338,-1.4864109,-2.1825478,-1.2090528,-0.025164038,0.028404256,-0.097639665,-0.37763953,-0.32874912,0.06006505,-3.078641,0.6248664,0.0001162771,-0.06623317,-0.009738083,0.0022471326,-0.0010725731,0.004800536,0.006082883,0.44487277,-1.4621228,1.99942,-2.106572,-1.5707101,2.4197772,-0.040353883,0.1243485,-0.14651424,0.017366894,-0.0013718915,-0.046334296,-0.1340753,0.45968673,-9.557653,0.7933669,47.69763,-1.0832045,-1.6383082,-3.4510207,-0.2192972,-0.10909091,-0.47916454,24.875,25.3125,24.6875,26.8125,27.0625,27.3125
0.14405318,-1.2486578,-1.7167001,-1.1583524,-0.03329379,0.018884113,-0.09043474,-0.37778056,-0.3287741,0.06005341,-3.0786712,0.6247746,7.5837626e-05,-0.06776939,-0.010714468,0.0016883159,-0.00073925935,0.0041503217,0.009131228,0.44477683,-1.4618211,1.9991077,-2.1065476,-1.5706862,2.4196203,-0.039866764,0.12966582,-0.15116163,0.017428039,-0.0014031252,-0.048892003,-0.1340753,0.38307226,-9.519346,0.86945957,47.686886,-1.1273105,-1.8140309,-3.4261732,-0.2103262,-0.108670264,-0.4642754,24.875,25.3125,24.6875,26.8125,27.0625,27.3125
0.14605373,-0.75283355,-1.376841,-1.1010846,-0.033849098,0.018859219,-0.10366006,-0.377896,-0.32877362,0.060037788,-3.0786204,0.6247242,7.479912e-05,-0.06805324,-0.009759012,0.00092326273,-0.00028167944,0.0033913332,0.009861391,0.44470432,-1.4615695,1.9988574,-2.1065123,-1.5707339,2.419523,-0.04182838,0.13025653,-0.14986351,0.016418591,-0.0014909985,-0.051584046,-0.05746084,0.4213795,-9.519346,0.8403672,47.70211,-1.1072812,-1.7161841,-3.5744946,-0.18663111,-0.10951271,-0.44577008,24.875,25.3125,24.6875,26.8125,27.0625,27.3125
0.14805356,-0.4094213,-1.1357654,-0.73816913,-0.02276248,0.022541363,-0.10388726,-0.37807637,-0.32881936,0.060074348,-3.0786898,0.62471735,0.00018185891,-0.06916331,-0.010224998,0.0007198801,0.00017105663,0.0037725118,0.012941247,0.4446203,-1.4612931,1.9984626,-2.1064885,-1.5707225,2.4194262,-0.041542754,0.133184,-0.15258832,0.016068593,-0.002065157,-0.054375503,-0.076614454,0.40222588,-9.385271,0.84484416,47.698532,-1.0961614,-1.6784991,-3.4058728,-0.16741367,-0.098496355,-0.4478901,24.875,25.3125,24.6875,26.8125,27.0625,27.3125
0.15005411,-0.96120393,-0.8686462,-0.6803169,-0.015986016,0.0038913104,-0.10125292,-0.37821493,-0.32883686,0.060063113,-3.078697,0.62467694,0.00020905671,-0.07028963,-0.011098784,0.00046939595,0.0005080669,0.0043588537,0.017587582,0.44453678,-1.4610163,1.998185,-2.1065009,-1.5707344,2.4193168,-0.040522154,0.13667332,-0.15574609,0.015353125,-0.00262891,-0.05799794,-0.095768064,0.40222588,-9.3661175,0.800085,47.672558,-1.2096775,-1.58173,-3.425151,-0.15188903,-0.08929154,-0.4075064,24.875,25.3125,24.6875,26.8125,27.0625,27.3125
0.15205367,-0.7594536,-0.9879667,-0.5145532,-0.009151455,0.014164706,-0.10701191,-0.37836027,-0.32885036,0.060085133,-3.0787091,0.624602,0.00023382703,-0.07192144,-0.01071804,0.0007748091,0.00055510795,0.004499935,0.018668612,0.4444401,-1.4607762,1.9978498,-2.1064165,-1.5707468,2.419172,-0.042598236,0.13848688,-0.15872362,0.01640872,-0.0027349414,-0.06115327,-0.076614454,0.38307226,-9.442732,0.9164598,47.699425,-1.1700159,-1.7404598,-3.4498696,-0.15817899,-0.09858119,-0.37941468,24.875,25.3125,24.6875,26.8125,27.0625,27.3125
0.1540536,-0.66215175,-0.5938105,-0.73038286,-0.00057853526,0.011790777,-0.10037513,-0.37851143,-0.32888222,0.060089603,-3.0787401,0.6245689,0.000249827,-0.072216146,-0.010334725,-0.0007128493,0.002224344,0.0015359169,0.021028694,0.44435582,-1.460487,1.9975141,-2.1063926,-1.5707344,2.4190633,-0.043399394,0.14242387,-0.15984331,0.016985934,-0.002967173,-0.06431321,-0.095768064,0.3256114,-9.3661175,0.80456203,47.679718,-1.133862,-1.9766511,-3.3593087,-0.12445778,-0.10824792,-0.3437514,24.875,25.3125,24.6875,26.8125,27.0625,27.3125
0.15605341,-0.65215397,-0.5057798,-0.44262868,0.0028952102,0.013231553,-0.10196323,-0.37864602,-0.32889706,0.06008253,-3.0787487,0.6244338,0.00024310633,-0.072986424,-0.010342758,-0.0020558068,0.0038674537,-0.0008438614,0.023158256,0.44427165,-1.4602101,1.9972156,-2.1063564,-1.5707473,2.418894,-0.043741282,0.14731564,-0.16232058,0.017426528,-0.0034330776,-0.06678194,-0.11492168,0.34476504,-9.32781,0.842603,47.691364,-1.1504779,-1.8711302,-3.3082535,-0.13543954,-0.10180922,-0.3173754,24.875,25.3125,24.6875,26.8125,27.0625,27.3125
0.15805349,-0.59619117,-0.1144371,-0.36094058,-0.010872225,0.020330673,-0.113045,-0.37881225,-0.32893395,0.06011183,-3.0788293,0.62439036,0.0003262826,-0.07408919,-0.010131675,-0.0009926665,0.004527019,0.0016392182,0.025707312,0.44417572,-1.4599588,1.9968675,-2.1063445,-1.5707234,2.418761,-0.04397908,0.14668512,-0.16422485,0.018009387,-0.005092678,-0.06956606,-0.038307227,0.22984336,-9.270349,0.8247004,47.687782,-1.2071484,-1.8217278,-3.498351,-0.10450761,-0.08627681,-0.265657,24.875,25.3125,24.6875,26.8125,27.0625,27.3125
0.16005342,-0.98519737,-0.47289637,-0.25782493,-0.003988404,0.018891906,-0.100062594,-0.37895057,-0.3289485,0.060100734,-3.0787847,0.6243237,0.0003004179,-0.07526255,-0.009894453,-0.0009446706,0.0054079015,0.0019239546,0.026128568,0.4441034,-1.4596466,1.9965309,-2.1062725,-1.5707597,2.418653,-0.044828832,0.14854835,-0.1665822,0.01862508,-0.0060173487,-0.07083414,-0.13407528,0.2681506,-9.232041,0.7866488,47.688675,-1.1611636,-1.7776501,-3.4910994,-0.11466798,-0.07518384,-0.22367653,24.875,25.3125,24.6875,26.8125,27.0625,27.3125
0.16205387,-1.0890093,-0.57677746,-0.32447645,0.0095207775,0.025037915,-0.10384958,-0.3791363,-0.3289748,0.060109053,-3.078832,0.62425613,0.00040102346,-0.07653552,-0.009373428,-0.0009980446,0.007061799,0.0019229007,0.02569506,0.4439951,-1.4593343,1.9961714,-2.1062963,-1.5707725,2.4184968,-0.045906946,0.15075564,-0.16920759,0.019758321,-0.007508428,-0.07147572,-0.24899697,0.24899697,-9.097966,0.78217715,47.66539,-1.1556257,-1.8011056,-3.425429,-0.1083392,-0.052526347,-0.2021382,24.875,25.3125,24.6875,26.8125,27.0625,27.3125
0.16405368,-1.1686286,-0.3458716,-0.1441302,0.011615405,0.024478344,-0.110189624,-0.3792573,-0.3290069,0.060094368,-3.0788543,0.6241459,0.0003062264,-0.078088656,-0.009055052,-9.254609e-05,0.008044534,0.004183683,0.02431236,0.44392276,-1.4590348,1.9958595,-2.1062357,-1.5707368,2.418353,-0.046614062,0.15118909,-0.17196773,0.020474391,-0.009374773,-0.07079583,-0.24899697,0.22984336,-9.040505,0.8717007,47.70211,-1.159939,-1.7578871,-3.3706665,-0.0958028,-0.036908776,-0.17816491,24.875,25.3125,24.6875,26.8125,27.0625,27.3125
0.16605338,-1.1225032,0.1676439,-0.1444537,0.009055027,0.027629834,-0.10214466,-0.37943918,-0.3290143,0.060108583,-3.078818,0.62408173,0.0004552436,-0.07874972,-0.008905243,-0.0001541915,0.008694341,0.003974658,0.022540445,0.44383863,-1.4587348,1.995489,-2.106212,-1.5708331,2.4182339,-0.04712355,0.15256098,-0.17354085,0.021138066,-0.009870559,-0.06953233,-0.28730422,0.17238252,-9.11712,0.78217715,47.692257,-1.2108276,-1.7704362,-3.4561923,-0.07612798,8.462835e-05,-0.16430393,24.875,25.3125,24.6875,26.8125,27.0625,27.3125
0.16805395,-0.68776166,0.3949655,-0.1462347,0.014108016,0.028679121,-0.10668485,-0.37959173,-0.329036,0.06010972,-3.0788715,0.62403643,0.00044821182,-0.078733705,-0.008836578,-0.00065241475,0.008322327,0.0018182712,0.019725034,0.44371828,-1.4584588,1.9951776,-2.106199,-1.5707964,2.4180787,-0.04805304,0.15388447,-0.17415373,0.022212699,-0.008606464,-0.067648105,-0.2681506,0.19153613,-9.059659,0.8224646,47.66091,-1.1987054,-1.6493602,-3.4771078,-0.07250665,-0.01635215,-0.18678829,24.875,25.3125,24.6875,26.8125,27.0625,27.3125
0.17005387,-0.93281883,0.34961483,-0.16346848,0.012114406,0.019473568,-0.110965736,-0.3797387,-0.32907417,0.060111776,-3.0788765,0.6239413,0.00041601423,-0.07935695,-0.009144914,-0.0011588738,0.007609022,-0.0007572769,0.018198045,0.44365785,-1.458134,1.9947938,-2.106115,-1.5707959,2.4179585,-0.049181603,0.15692964,-0.17678407,0.02381125,-0.006860497,-0.06725034,-0.30645782,0.1340753,-9.174581,0.78888994,47.67345,-1.1524398,-1.8153859,-3.3972242,-0.07450405,-0.019960023,-0.17037973,24.875,25.3125,24.6875,26.8125,27.0625,27.3125
0.17205408,-1.0382434,-0.106395975,-0.2697964,0.0052197995,0.019976636,-0.10234333,-0.37990227,-0.32907996,0.060102865,-3.0788565,0.623882,0.00040843847,-0.08038521,-0.010334908,0.00036728647,0.004692478,0.00086640386,0.0129358405,0.44353804,-1.4578114,1.9944452,-2.1060665,-1.5708188,2.4178045,-0.04914105,0.1565083,-0.18008848,0.024811083,-0.0049303086,-0.061948597,-0.34476504,0.22984336,-9.059659,0.81351066,47.691364,-1.207336,-1.4307662,-3.3396668,-0.08331798,-0.04545746,-0.20436403,24.875,25.3125,24.6875,26.8125,27.0625,27.3125
0.1740537,-0.9811885,-0.08653718,-0.421639,0.0044058776,0.0233367,-0.108306296,-0.38006684,-0.32910478,0.06010506,-3.0788798,0.62385005,0.0004104503,-0.08129766,-0.01051833,0.00077834347,0.003669463,0.0009015929,0.009101013,0.4434296,-1.4574997,1.9940861,-2.1060302,-1.5708069,2.4176733,-0.05018663,0.15736628,-0.18220867,0.025600364,-0.0040238625,-0.05915959,-0.38307226,0.076614454,-9.232041,0.88289046,47.658226,-1.1899267,-1.5208,-3.4084117,-0.06685567,-0.04941605,-0.27285752,24.875,25.3125,24.6875,26.8125,27.0625,27.3125
0.17605336,-1.022745,0.17442966,-0.24188559,-0.003903511,0.02878949,-0.10979656,-0.38021284,-0.32911658,0.06009165,-3.078842,0.6238618,0.00033457694,-0.0819034,-0.0105135515,0.0006058185,0.0031899386,-0.0002665449,0.007789282,0.4433211,-1.4571755,1.993738,-2.1059468,-1.5708064,2.4175773,-0.05132659,0.15894666,-0.18381613,0.026473314,-0.0030947106,-0.05898806,-0.28730422,0.1340753,-9.308656,0.900793,47.686886,-1.1374081,-1.4754667,-3.4641724,-0.0803291,-0.0435602,-0.29972768,24.875,25.3125,24.6875,26.8125,27.0625,27.3125
0.17805399,-1.6701455,-0.7554467,-0.5200018,0.01835233,0.018259628,-0.08770376,-0.38040677,-0.3291469,0.0601067,-3.078874,0.6238687,0.0004326496,-0.082751974,-0.010374354,0.00034355867,0.0030386804,-0.0010880969,0.006746921,0.4432128,-1.4568514,1.9933437,-2.1059463,-1.5708183,2.4174695,-0.0526329,0.1608539,-0.18548068,0.026905136,-0.0026043686,-0.059251852,-0.34476504,0.15322891,-9.289502,0.80679786,47.66987,-1.1266243,-1.52261,-3.4243178,-0.07880266,-0.056105845,-0.30368882,24.875,25.3125,24.6875,26.8125,27.0625,27.3125
0.18005377,-1.018497,-0.23302934,-0.5912113,0.008268997,0.0369663,-0.1072782,-0.3805284,-0.32916418,0.06008746,-3.0788412,0.6237478,0.00028247898,-0.0835065,-0.010611172,-0.0006667492,0.003689221,-0.0035905014,0.0045346073,0.44312868,-1.4565262,1.9929966,-2.1058142,-1.5708064,2.4173143,-0.053158104,0.16524097,-0.18831402,0.02789031,-0.0021297063,-0.057563197,-0.4405331,0.24899697,-9.385271,0.7911258,47.687782,-1.1383634,-1.5472455,-3.4687097,-0.08217287,-0.0773528,-0.32505447,24.875,25.3125,24.6875,26.8125,27.0625,27.3125
0.1820536,-1.5140665,-0.5862892,-0.77299976,0.0019538156,0.029829992,-0.10352999,-0.38071308,-0.32919446,0.06010517,-3.0788465,0.6237666,0.00029790425,-0.08515648,-0.010897651,5.087404e-05,0.0028887033,-0.0021806592,0.0052219843,0.4430203,-1.4561907,1.9925646,-2.1057308,-1.5708059,2.4172173,-0.05413101,0.16661564,-0.19160432,0.028188061,-0.0020168999,-0.059221767,-0.2873042,0.21068975,-9.346964,0.7978386,47.691364,-1.0393949,-1.4387867,-3.4710593,-0.08406891,-0.07629655,-0.33823887,24.875,25.3125,24.6875,26.8125,27.0625,27.3125
0.18405335,-1.6195225,-0.9982218,-1.1306764,-0.0025832239,0.02676392,-0.09538328,-0.38087803,-0.32920614,0.06009995,-3.0788307,0.62370586,0.00030360938,-0.08582983,-0.010591685,-0.00036959228,0.0033925024,-0.002930949,0.0054767164,0.44291195,-1.4558667,1.9922055,-2.1056821,-1.5708307,2.4170732,-0.05517343,0.16842541,-0.19275793,0.02842421,-0.0021536115,-0.060517926,-0.24899697,0.21068975,-9.500193,0.83365434,47.704796,-1.0605904,-1.5293112,-3.5193748,-0.08956924,-0.08692366,-0.332722,24.875,25.3125,24.6875,26.8125,27.0625,27.3125
0.18605354,-1.1385806,-1.2197152,-1.1698782,-0.017977027,0.03114567,-0.10062828,-0.38107914,-0.32923752,0.06013188,-3.0788805,0.6236772,0.0003917438,-0.086617224,-0.010084698,-0.0016836517,0.0052882223,-0.0050363285,0.00514693,0.4427916,-1.4555537,1.9917735,-2.105634,-1.5708307,2.416929,-0.056235243,0.17251644,-0.194409,0.028701376,-0.0029635022,-0.06124758,-0.22984336,0.24899697,-9.500193,0.800085,47.687782,-1.023973,-1.618679,-3.5246277,-0.09561569,-0.080552466,-0.34529543,24.875,25.3125,24.6875,26.8125,27.0625,27.3125
0.18805346,-1.2628179,-1.5792481,-0.971303,-0.031668328,0.03243809,-0.104096465,-0.38125613,-0.32923374,0.060107205,-3.0788097,0.6237978,0.00032614733,-0.08773082,-0.010125097,-0.0022867844,0.006035622,-0.0062330007,0.004218132,0.44263536,-1.4551811,1.9914025,-2.1055748,-1.5708426,2.4168572,-0.056992464,0.17615792,-0.19728255,0.02933449,-0.0031358171,-0.06107366,-0.19153613,0.22984336,-9.615114,0.79560274,47.67793,-1.0335491,-1.8462465,-3.5242913,-0.089376196,-0.07970199,-0.35918838,24.875,25.3125,24.6875,26.8125,27.0625,27.3125
0.19005415,-1.449564,-1.366067,-0.90300786,-0.036168985,0.027710807,-0.10195857,-0.38139158,-0.32925546,0.060076926,-3.0787697,0.62369376,0.00022995037,-0.0883815,-0.010208215,-0.0026631483,0.0061482033,-0.006833339,0.00369697,0.44256333,-1.454821,1.9910549,-2.1055024,-1.5708545,2.4167256,-0.05748704,0.17821129,-0.19877073,0.0293586,-0.0029893918,-0.061045997,-0.19153613,0.22984336,-9.557653,0.7732232,47.72092,-1.0744417,-1.7176459,-3.6030645,-0.09622304,-0.07826263,-0.3870101,24.875,25.3125,24.6875,26.8125,27.0625,27.3125
0.19205381,-1.2925375,-1.2784302,-1.1117896,-0.018606339,0.02172093,-0.09304238,-0.38159522,-0.32927084,0.06008899,-3.078789,0.62369514,0.00029936878,-0.089436434,-0.010724829,-0.0023793685,0.005411712,-0.0058737304,0.006125477,0.4424192,-1.454485,1.9906482,-2.1054785,-1.5708665,2.4165802,-0.05758483,0.17969893,-0.20104074,0.028955648,-0.0027388625,-0.0635713,-0.22984336,0.34476504,-9.653421,0.8291774,47.71554,-1.0632095,-1.7685876,-3.5461857,-0.09083818,-0.0878594,-0.3659444,24.875,25.3125,24.6875,26.8125,27.0625,27.3125
0.19405341,-1.1358,-1.0181499,-0.81806135,-0.022308491,0.02942811,-0.10547586,-0.38177103,-0.32931095,0.060094845,-3.0787978,0.6237187,0.00026284516,-0.09202427,-0.010080421,-0.0014942021,0.0042352392,-0.003954872,0.0013097315,0.4423219,-1.4541254,1.9902157,-2.105395,-1.5708426,2.4164968,-0.06119098,0.18069613,-0.2042276,0.02890838,-0.002505301,-0.06236018,-0.17238252,0.4405331,-9.5385,0.779936,47.655537,-0.87729,-1.7626383,-3.4752626,-0.082813375,-0.1177582,-0.3938341,24.875,25.3125,24.6875,26.8125,27.0625,27.3125
0.19605336,-1.0515965,-0.90845466,-0.8624826,-0.021461613,0.026867626,-0.107889675,-0.381956,-0.32932207,0.06009903,-3.078799,0.6236394,0.00023046575,-0.09176216,-0.010850475,-0.0016005608,0.004354075,-0.0043505705,0.004949548,0.44217864,-1.4537779,1.9897975,-2.1052992,-1.5708426,2.416304,-0.059524834,0.18175903,-0.20532864,0.029353948,-0.0024471835,-0.06433333,-0.19153613,0.45968673,-9.519346,0.82022345,47.689575,-0.9456587,-1.6783485,-3.540175,-0.07097106,-0.08640075,-0.40947014,24.875,25.3125,24.6875,26.8125,27.0625,27.3125
0.19805418,-0.9350308,-1.0418055,-0.8885136,-0.019710673,0.031077987,-0.10071696,-0.38213727,-0.32934156,0.060087197,-3.0787773,0.6236131,0.00023549839,-0.09314574,-0.010739151,-0.0014686661,0.0046110745,-0.004284256,0.009557779,0.44207016,-1.4534055,1.9894017,-2.1052625,-1.5708665,2.4161823,-0.060739327,0.18389398,-0.20826644,0.030204164,-0.0027140211,-0.070153974,-0.15322891,0.5554548,-9.500193,0.80456203,47.695843,-1.0258739,-1.851891,-3.6731868,-0.07547941,-0.101521686,-0.38469788,24.875,25.3125,24.6875,26.8125,27.0625,27.3125
0.20005366,-1.2189565,-1.2262528,-0.8137412,-0.031430624,0.02993264,-0.106208205,-0.38231996,-0.3293679,0.060088847,-3.0787656,0.62357146,0.00025604217,-0.09438979,-0.009896062,-0.0021228818,0.0058255726,-0.0056542824,0.009208654,0.44197348,-1.4530451,1.988983,-2.105203,-1.5708908,2.4160614,-0.06302303,0.18677671,-0.21023479,0.031046944,-0.0032289093,-0.07208655,-0.095768064,0.38307226,-9.442732,0.8023209,47.66808,-0.90211046,-1.7264979,-3.7060456,-0.10210824,-0.094464354,-0.3480367,24.875,25.3125,24.6875,26.8125,27.0625,27.3125
0.20205313,-1.0556474,-0.9186597,-0.58506,-0.03688419,0.031254515,-0.106413364,-0.38251942,-0.32939145,0.060091875,-3.078784,0.6235172,0.00027032878,-0.09581695,-0.009750876,-0.0012314236,0.0055067814,-0.003990794,0.010342021,0.44184104,-1.4526739,1.9885515,-2.1051543,-1.5708913,2.415893,-0.0642212,0.18698353,-0.21271697,0.031682633,-0.003656212,-0.074416354,-0.19153613,0.2873042,-9.442732,0.8918391,47.713753,-0.78482175,-1.6696694,-3.6265726,-0.083730094,-0.10544328,-0.33368114,24.875,25.3125,24.6875,26.8125,27.0625,27.3125
0.20405535,-1.0891694,-0.6279633,-0.5170908,-0.014043328,0.020082591,-0.09639085,-0.38271856,-0.32942423,0.060081996,-3.0788238,0.6234642,0.0002637608,-0.09627814,-0.010556369,-0.00051070616,0.005341595,-0.0025009543,0.016260086,0.44170958,-1.4522785,1.9881309,-2.1051428,-1.570867,2.4157238,-0.06276078,0.18729883,-0.2148899,0.032124575,-0.0041473536,-0.0788723,-0.15322891,0.21068975,-9.385271,0.88960326,47.686886,-0.9995018,-1.643912,-3.5403829,-0.10752788,-0.089563206,-0.29327753,24.875,25.3125,24.6875,26.8125,27.0625,27.3125
0.20605406,-0.99383163,-0.63289934,-0.5772001,0.022789331,0.020125452,-0.099957764,-0.38290006,-0.32944113,0.060072828,-3.0788074,0.62345886,0.00016481362,-0.098354004,-0.010163494,0.00029925592,0.005490318,-0.00090984366,0.018460955,0.44156495,-1.4518948,1.9876994,-2.1050346,-1.5708436,2.4155781,-0.06472394,0.18860464,-0.21847497,0.033031996,-0.004973234,-0.08303295,-0.076614454,0.1340753,-9.212888,0.9231726,47.691364,-0.89224964,-1.5892162,-3.541955,-0.1068251,-0.09506405,-0.24013525,24.875,25.3125,24.6875,26.8125,27.0625,27.3125
0.20805393,-0.7858688,0.8072428,-0.40884432,0.026074192,0.009283761,-0.11419874,-0.38312158,-0.32945585,0.060075115,-3.0788195,0.6232868,0.00030462528,-0.09969453,-0.0102145085,0.00024522192,0.0061151357,-0.0014281962,0.020763893,0.44144458,-1.4515105,1.9872683,-2.1050456,-1.5709156,2.4153492,-0.06553604,0.1915727,-0.22203071,0.034348935,-0.0053169844,-0.08614578,-0.15322891,0.076614454,-9.212888,0.83813137,47.694054,-0.8349747,-1.5279347,-3.4595714,-0.10374287,-0.06600709,-0.18681288,24.875,25.3125,24.6875,26.8125,27.0625,27.3125
0.21005349,-0.7933501,0.40578136,-0.52722377,0.050749507,0.0053954227,-0.10661301,-0.38329226,-0.3294766,0.06006588,-3.0788207,0.6232664,0.00017005329,-0.1014842,-0.010655553,0.001554573,0.0047842218,0.00080705114,0.022464953,0.44130033,-1.4511389,1.9868478,-2.1049263,-1.5708674,2.4151924,-0.06640499,0.19205251,-0.22578853,0.03503919,-0.005081674,-0.08871394,-0.15322891,0.095768064,-9.193734,0.800085,47.678825,-0.8375977,-1.4480824,-3.4311562,-0.12283914,-0.080692485,-0.13555105,24.875,25.3125,24.6875,26.8125,27.0625,27.3125
0.21205322,-0.52614045,0.7928378,-0.585428,0.037404805,0.014251326,-0.10473843,-0.38351747,-0.32950178,0.060086418,-3.0788403,0.62323165,0.00022502444,-0.10236146,-0.010826765,0.0017476395,0.004774427,0.0013065876,0.022771725,0.44115633,-1.4507552,1.9863561,-2.1048539,-1.5708793,2.4150245,-0.06666954,0.19335052,-0.22780877,0.035304427,-0.00528695,-0.08928401,-0.15322891,0.095768064,-9.174581,0.8224646,47.699425,-0.8214117,-1.3817557,-3.477221,-0.117597446,-0.079075634,-0.10645494,24.875,25.3125,24.6875,26.8125,27.0625,27.3125
0.21405421,-1.2921488,0.22399442,-0.7431696,0.02488776,0.012630688,-0.09791211,-0.3837159,-0.3295158,0.06008782,-3.0788174,0.62317103,0.00021288263,-0.103128254,-0.009590077,0.00035655827,0.0069432766,-0.002881486,0.018367872,0.44102332,-1.4503707,1.9859017,-2.104757,-1.5709032,2.414857,-0.069470875,0.19745466,-0.2298901,0.03799325,-0.0054612383,-0.0876801,-0.21068975,0.019153614,-9.251195,0.9254084,47.679718,-0.7705389,-1.4440889,-3.4182491,-0.13317472,-0.080316015,-0.08392537,24.875,25.3125,24.6875,26.8125,27.0625,27.3125
0.21605416,-1.2241255,-0.32793093,-0.7709252,0.013468391,0.029325023,-0.097261146,-0.38390517,-0.32955188,0.060083058,-3.078831,0.6230402,0.00015433668,-0.10300307,-0.010042042,-0.0006448141,0.00845326,-0.0058751553,0.016993294,0.44091567,-1.449962,1.9854344,-2.1046612,-1.5708917,2.4146662,-0.068420336,0.20119695,-0.23231937,0.040033698,-0.0055533363,-0.085253365,-0.2681506,0.1340753,-9.270349,0.86498255,47.695843,-0.68792593,-1.5477283,-3.3519094,-0.17513236,-0.06894994,-0.08048913,24.875,25.3125,24.6875,26.8125,27.0625,27.3125
0.21805367,-1.3276813,-0.4352741,-0.87323225,-0.00068773003,0.035105992,-0.09886721,-0.3841155,-0.32955894,0.060086496,-3.0788088,0.6230179,0.0001598487,-0.103166245,-0.010041435,-0.0010983968,0.009221564,-0.008379243,0.013894662,0.44075954,-1.4495782,1.9849786,-2.1045763,-1.5709156,2.4144993,-0.06875865,0.20351811,-0.23450783,0.042490445,-0.0051810844,-0.08249277,-0.36391866,0.15322891,-9.423578,0.78888994,47.691364,-0.80358416,-1.6050382,-3.2864785,-0.21522926,-0.07286066,-0.10673592,24.875,25.3125,24.6875,26.8125,27.0625,27.3125
0.22005433,-1.8327632,-1.2689183,-0.89392185,-0.009411313,0.044500098,-0.093047194,-0.38429993,-0.3295751,0.060067724,-3.0787697,0.6229541,4.92844e-05,-0.10332693,-0.0088843545,-0.0019394585,0.010210056,-0.011718853,0.008097598,0.44062677,-1.4491581,1.9845246,-2.1044557,-1.5709151,2.414332,-0.071341984,0.20507835,-0.2349338,0.044797126,-0.0046544303,-0.07927975,-0.4213795,0.19153613,-9.423578,0.75755644,47.693153,-0.72068894,-1.6936829,-3.4444141,-0.26210272,-0.07629393,-0.13128647,24.875,25.3125,24.6875,26.8125,27.0625,27.3125
0.22205323,-1.8082732,-1.4315087,-1.0233495,-0.018511051,0.048530903,-0.09011199,-0.38451415,-0.32957757,0.060072113,-3.0787346,0.62292886,2.6720269e-05,-0.10402388,-0.009775738,-0.001763825,0.009043363,-0.010642847,0.005917223,0.44045892,-1.4487624,1.9840454,-2.104337,-1.570939,2.414153,-0.07063636,0.20640905,-0.23665272,0.043711063,-0.0040685674,-0.076393336,-0.45968673,0.21068975,-9.519346,0.8537928,47.68599,-0.62437236,-1.6512535,-3.4958744,-0.27346915,-0.078327894,-0.16499206,24.875,25.3125,24.6875,26.8125,27.0625,27.3125
0.22405408,-1.5739655,-1.3298503,-1.0809329,-0.027296789,0.043123547,-0.095077895,-0.38471454,-0.32962757,0.06006942,-3.078773,0.62288,-1.1942401e-05,-0.10414546,-0.010268564,-0.002776997,0.0091048805,-0.011808225,0.0043061012,0.44035122,-1.4483414,1.9835671,-2.104277,-1.5709027,2.4140103,-0.07007433,0.20921567,-0.23731318,0.042646956,-0.0036324554,-0.074220024,-0.34476504,0.34476507,-9.557653,0.8717007,47.6636,-0.813271,-1.7226663,-3.5945108,-0.29396006,-0.08660056,-0.19453537,24.875,25.3125,24.6875,26.8125,27.0625,27.3125
0.22605367,-2.003689,-1.9980276,-0.7849619,-0.024353435,0.03604776,-0.0922671,-0.38493922,-0.32964313,0.06007247,-3.0787153,0.6229466,-1.07700935e-05,-0.10502549,-0.010075599,-0.0029968247,0.009412834,-0.012566095,0.0012587733,0.4402068,-1.4479097,1.9830526,-2.1041687,-1.570939,2.4139152,-0.07117242,0.21120864,-0.23931232,0.043467492,-0.0035939624,-0.07226973,-0.45968673,0.36391866,-9.481039,0.95226496,47.677036,-0.81042033,-1.7614461,-3.6594377,-0.31522918,-0.081795916,-0.21286294,24.875,25.3125,24.6875,26.8125,27.0625,27.3125
0.2280535,-1.5638548,-1.9554967,-0.9356623,-0.018132003,0.033916708,-0.08986059,-0.3851663,-0.3296644,0.060083237,-3.0787368,0.62296903,9.250482e-06,-0.106235296,-0.010914206,-0.0021190566,0.00825687,-0.009822512,0.0011329215,0.44003907,-1.4475147,1.9825724,-2.104109,-1.570927,2.413759,-0.07053401,0.21169029,-0.24169545,0.04239549,-0.003724945,-0.07150384,-0.3256114,0.4213795,-9.404425,0.88960326,47.668976,-0.8166064,-1.481041,-3.6365366,-0.3384558,-0.089783624,-0.25326872,24.875,25.3125,24.6875,26.8125,27.0625,27.3125
0.23005345,-1.2491909,-1.2928412,-1.004924,-0.019112704,0.030575033,-0.09353847,-0.3853725,-0.32966498,0.0600728,-3.0786777,0.62297505,-1.8553235e-05,-0.10726013,-0.011098834,-0.0027409587,0.008551086,-0.009560123,0.0016535494,0.439883,-1.4471065,1.982118,-2.1040146,-1.5709628,2.4136145,-0.070776865,0.21456385,-0.24324274,0.040955186,-0.00411516,-0.072264954,-0.21068975,0.4405331,-9.461885,0.84484416,47.66539,-0.8557298,-1.666038,-3.5864267,-0.34338927,-0.08577374,-0.25871265,24.875,25.3125,24.6875,26.8125,27.0625,27.3125
0.23205408,-0.6891099,-1.3561252,-0.93468237,-0.021639746,0.034858394,-0.10203136,-0.38559818,-0.32968977,0.06005953,-3.0786686,0.62293637,-2.3334287e-05,-0.10910201,-0.012084271,-0.0022801117,0.007946983,-0.006998745,0.000116655974,0.43973926,-1.4466503,1.9816269,-2.1039674,-1.5709752,2.413448,-0.07014261,0.21721588,-0.24703413,0.039521243,-0.0046723015,-0.07009009,-0.22984336,0.4213795,-9.32781,0.900793,47.68599,-0.84936583,-1.549455,-3.6545324,-0.34083974,-0.08568981,-0.3143456,24.875,25.3125,24.6875,26.8125,27.0625,27.3125
0.23405395,-0.9566402,-1.1159744,-0.7526418,-0.028835997,0.024015857,-0.09758946,-0.3858098,-0.32972497,0.06006481,-3.0786774,0.6228597,-3.8274185e-05,-0.11044826,-0.012255094,-0.0023683559,0.008206727,-0.0058265952,-1.0142908e-05,0.4396193,-1.4462302,1.9811224,-2.1038716,-1.5709757,2.4132795,-0.07046034,0.219502,-0.24924701,0.038499985,-0.0054153763,-0.07027798,-0.21068975,0.34476504,-9.346964,0.86498255,47.65464,-0.96716595,-1.6527396,-3.607453,-0.33018792,-0.076055005,-0.3500288,24.875,25.3125,24.625,26.75,27.125,27.3125
0.23605418,-0.8666729,-1.1885068,-0.92580307,-0.026852611,0.017262992,-0.097430475,-0.38604963,-0.32973057,0.060064167,-3.0786073,0.62297904,-1.0235305e-05,-0.11209951,-0.01321376,-0.0007759399,0.006956395,-0.0018917621,0.0018150903,0.43945143,-1.4457874,1.9806088,-2.1037881,-1.5710233,2.4131954,-0.0697024,0.21941787,-0.2527801,0.038021687,-0.005969332,-0.07134236,-0.095768064,0.38307226,-9.346964,0.91198283,47.655537,-0.9712678,-1.5393224,-3.6380644,-0.3429907,-0.074153155,-0.34831464,24.875,25.3125,24.625,26.75,27.125,27.3125
0.23805435,-0.48263124,-1.2473285,-0.6589637,-0.030040849,0.018000916,-0.09769882,-0.38626194,-0.32978082,0.060054496,-3.0786488,0.62291235,-1.6673448e-05,-0.115020275,-0.013983668,0.00042940569,0.00537404,0.0018091,-0.002163257,0.43934304,-1.4453434,1.9801277,-2.1037643,-1.571,2.4130404,-0.07067829,0.22172074,-0.25795138,0.03687066,-0.006123702,-0.06833643,-0.038307227,0.38307226,-9.270349,0.9365982,47.691364,-0.9992506,-1.5351467,-3.425171,-0.33133268,-0.059394598,-0.43196055,24.875,25.3125,24.625,26.75,27.125,27.3125
0.24005398,-0.6081151,-1.3743378,-0.95144546,-0.015795035,0.0044002887,-0.08987642,-0.38652766,-0.32981798,0.06008537,-3.0786762,0.6229162,6.910571e-05,-0.117046475,-0.014861242,0.0016260155,0.003779701,0.0052868123,-0.00051361934,0.43918705,-1.4448997,1.9795407,-2.1036813,-1.5710114,2.4128838,-0.07073036,0.22274524,-0.2616732,0.035740193,-0.006166469,-0.070036165,-0.05746084,0.51714754,-9.32781,0.88960326,47.711063,-1.0226446,-1.5153369,-3.3171709,-0.3044504,-0.046091482,-0.46763617,24.875,25.3125,24.625,26.75,27.125,27.3125
0.24205345,-0.8451718,-1.202279,-1.0680623,-0.0145852845,-0.000489004,-0.08900471,-0.38674787,-0.32983762,0.060056124,-3.0786316,0.6229253,-2.194752e-05,-0.11786983,-0.014898176,0.0009915911,0.0038126856,0.004689832,0.0016796056,0.43903095,-1.4444077,1.9790367,-2.1035979,-1.5710114,2.4127393,-0.07145992,0.22532526,-0.26308063,0.035119057,-0.005952619,-0.072957814,-0.095768064,0.51714754,-9.423578,0.9298854,47.703903,-0.98734677,-1.4281334,-3.3516808,-0.30013382,-0.054788038,-0.46734813,24.875,25.3125,24.625,26.75,27.125,27.3125
0.24405338,-0.29539683,-1.2931241,-1.0968909,-0.024606396,0.022562345,-0.09638206,-0.38696912,-0.329862,0.060053516,-3.0785992,0.6229161,-3.291786e-05,-0.11902783,-0.01484045,0.00079188513,0.0038606483,0.0048120487,0.0035325466,0.43889865,-1.4439638,1.9785227,-2.103502,-1.5710353,2.4126058,-0.07244927,0.22746724,-0.26506612,0.03486894,-0.0060554603,-0.0757985,-0.095768064,0.47884035,-9.461885,0.88289046,47.674347,-1.007987,-1.5072204,-3.3797488,-0.29871035,-0.043626502,-0.46982187,24.875,25.3125,24.625,26.75,27.125,27.3125
0.24605408,-0.67854893,-1.6262938,-0.9951497,-0.03062544,0.027872693,-0.09714594,-0.38721383,-0.32989067,0.060061943,-3.0785987,0.6228546,1.8979848e-06,-0.11880455,-0.014436148,4.4989984e-06,0.004422513,0.0033223142,0.0100379,0.43875423,-1.4435083,1.9779729,-2.103418,-1.5710596,2.4124234,-0.07301687,0.22840008,-0.264408,0.034858756,-0.0059313546,-0.082872175,0.076614454,0.38307226,-9.519346,0.91421866,47.65912,-0.99224055,-1.3675835,-3.4513216,-0.28450495,-0.036380015,-0.44564235,24.875,25.3125,24.625,26.75,27.125,27.3125
0.24805373,-1.2606713,-1.7711767,-0.9363906,-0.027918857,0.014093143,-0.08723827,-0.38743514,-0.32992372,0.060050365,-3.078617,0.6228372,-6.577825e-05,-0.11937047,-0.014724513,-0.001695649,0.0052780495,0.0006192522,0.0126589695,0.43859833,-1.4430513,1.9774698,-2.103346,-1.5710233,2.4122546,-0.07315763,0.23358953,-0.26634738,0.034418862,-0.0055662924,-0.08563278,0.076614454,0.34476504,-9.461885,0.90750587,47.64389,-0.9842495,-1.6400418,-3.5417905,-0.27861428,-0.042534605,-0.41140354,24.875,25.3125,24.625,26.75,27.125,27.3125
0.25005335,-0.47243515,-1.0704434,-0.7537424,-0.029878994,0.029970374,-0.09809423,-0.387675,-0.32995006,0.060044765,-3.0786216,0.62271863,-4.4809694e-05,-0.119776756,-0.014798358,-0.0030507133,0.005463364,-0.0011653472,0.01867551,0.43845412,-1.442583,1.9769429,-2.103287,-1.5710477,2.4120362,-0.07369684,0.23703371,-0.26696193,0.03327569,-0.004983321,-0.09218869,0.019153614,0.3256114,-9.308657,0.8806493,47.664497,-1.0441453,-1.77263,-3.6360903,-0.27309513,-0.045801155,-0.37483177,24.875,25.3125,24.625,26.75,27.125,27.3125
0.25205413,-0.51425755,-0.743568,-1.0320452,-0.007206559,0.006820544,-0.094254695,-0.38792697,-0.32998246,0.06002936,-3.0786366,0.62270004,-5.8140453e-05,-0.12206695,-0.015953656,-0.0017962413,0.003314099,0.0025295105,0.023510473,0.4382861,-1.4420793,1.9764041,-2.1032517,-1.5710348,2.411855,-0.07372756,0.23850983,-0.27128428,0.031861097,-0.0046203225,-0.09705241,0.076614454,0.28730422,-9.423578,0.8940802,47.71286,-1.0725101,-1.7539842,-3.678009,-0.22711526,-0.06245414,-0.28390458,24.875,25.3125,24.625,26.75,27.125,27.3125
0.25405353,0.07526254,-0.57154214,-1.143313,0.013599476,-0.0089638475,-0.08902498,-0.3881807,-0.3300306,0.060042247,-3.0786705,0.62257075,5.0431456e-05,-0.12383924,-0.016221123,-0.00069300615,0.0018572444,0.0056395936,0.0253271,0.43817797,-1.441612,1.9758409,-2.103216,-1.571071,2.4116623,-0.07470964,0.23852146,-0.27368873,0.030814277,-0.004623306,-0.09985008,0.076614454,0.30645782,-9.289502,0.9097417,47.716442,-1.1161952,-1.7267821,-3.6018405,-0.20053391,-0.057036523,-0.24697082,24.875,25.3125,24.625,26.75,27.125,27.3125
0.2560541,0.3295521,-0.6429442,-0.6616806,0.004822744,-0.0019726795,-0.09350163,-0.38839954,-0.33005977,0.06001149,-3.0786576,0.6224707,-5.253865e-05,-0.12516437,-0.016666774,-0.000646396,0.0015676607,0.0059889196,0.027442925,0.43803367,-1.4411085,1.975326,-2.1031325,-1.5710591,2.4114575,-0.075042725,0.24112509,-0.2768728,0.030954668,-0.0045233686,-0.102297015,0.0,0.30645782,-9.136273,0.9791215,47.72719,-0.96745723,-1.769001,-3.6034305,-0.15792096,-0.051331595,-0.21514946,24.875,25.3125,24.625,26.75,27.125,27.3125
0.25805405,-0.20740396,-1.0693892,-0.82651854,0.0017787504,-0.006806544,-0.089254916,-0.38865238,-0.33008185,0.060015276,-3.0786598,0.62235403,-5.8570126e-06,-0.12586343,-0.017935468,0.00038649654,0.00070095574,0.0077136797,0.029050965,0.4378784,-1.440641,1.9747747,-2.10306,-1.5710949,2.4112296,-0.07327939,0.24171859,-0.28019124,0.03174579,-0.004473169,-0.10214042,-0.19153613,0.34476504,-9.193734,0.8806493,47.703007,-1.281271,-1.6595626,-3.527587,-0.14084752,-0.04562754,-0.17418876,24.875,25.3125,24.625,26.75,27.125,27.3125
0.26005396,-0.99595404,-1.0016191,-0.9310984,-0.01327746,0.0021232099,-0.09112074,-0.38887563,-0.33012974,0.05999753,-3.0786862,0.6222473,-6.1401035e-05,-0.12814358,-0.01693299,0.0003891541,0.0006872542,0.007284481,0.02380066,0.43775707,-1.4401488,1.9742473,-2.1029994,-1.571071,2.4110386,-0.077159464,0.2443652,-0.2835395,0.032832425,-0.0042847977,-0.10076873,-0.28730422,0.49799395,-9.251195,0.85155696,47.67166,-1.3329426,-1.5747049,-3.501058,-0.13785097,-0.04118189,-0.16739218,24.875,25.3125,24.625,26.75,27.125,27.3125
0.26205364,-1.1993797,-1.8384954,-0.84020495,-0.018722618,0.03139761,-0.086715125,-0.38914725,-0.33015564,0.060008083,-3.0787034,0.6221549,-3.597771e-05,-0.12919489,-0.017399615,0.0010950975,0.00035185117,0.008039812,0.020811964,0.43757713,-1.4396571,1.9736475,-2.1029036,-1.571083,2.4107993,-0.077120245,0.24547547,-0.28682655,0.03418276,-0.0043014865,-0.09773947,-0.30645782,0.38307226,-9.3661175,0.97240865,47.667187,-1.1450338,-1.6976504,-3.5219598,-0.1340209,-0.05711048,-0.17671858,24.875,25.3125,24.625,26.75,27.125,27.3125
0.26405358,-1.4632065,-1.9352828,-0.898762,-0.031558335,0.05642235,-0.08773549,-0.38938054,-0.3301937,0.05998503,-3.0786717,0.62213206,-0.0001140461,-0.13012362,-0.017551215,0.0013530739,0.00055406935,0.0069714906,0.01623431,0.43744493,-1.4391297,1.9730839,-2.1028063,-1.571083,2.4106572,-0.077754036,0.24751993,-0.2904436,0.036809407,-0.0040370785,-0.093794495,-0.4405331,0.38307226,-9.385271,0.8873621,47.687782,-1.2396085,-1.6233101,-3.4176788,-0.11677843,-0.068964764,-0.21430403,24.875,25.3125,24.625,26.75,27.125,27.3125
0.26605332,-2.259828,-1.7579987,-0.6627125,-0.025053414,0.065342344,-0.080867045,-0.38964376,-0.33023494,0.059987575,-3.0786881,0.6220796,-7.3526266e-05,-0.13098554,-0.017451188,0.0019520584,0.00035191237,0.00783675,0.011907477,0.43730077,-1.4386265,1.9724973,-2.1027472,-1.5710949,2.4104786,-0.07848921,0.24760452,-0.29221335,0.037626136,-0.0042176386,-0.090202086,-0.7469909,0.40222588,-9.385271,0.8851263,47.67166,-1.2686955,-1.6301489,-3.5265846,-0.1140858,-0.04662591,-0.26541793,24.875,25.3125,24.625,26.75,27.125,27.3125
0.26805475,-2.342046,-1.1128988,-0.7443673,-0.012412632,0.086851455,-0.092705056,-0.38990974,-0.33024922,0.05997097,-3.0786526,0.6220344,-7.5184784e-05,-0.13003589,-0.016502619,0.00059908757,0.00244991,0.004264335,0.009973481,0.43712047,-1.4380989,1.9719237,-2.1026742,-1.5711306,2.410275,-0.07907764,0.2487864,-0.29096088,0.039314806,-0.004600119,-0.08885682,-0.6703765,0.28730422,-9.32781,0.9701675,47.668976,-1.1943297,-1.5565596,-3.602058,-0.12794799,-0.058244642,-0.29798496,24.875,25.3125,24.625,26.75,27.125,27.3125
0.2700535,-2.2555826,-0.3465691,-0.8825496,0.0046971426,0.08517751,-0.09415723,-0.39018884,-0.33030602,0.05998398,-3.078704,0.62200665,-1.3102072e-05,-0.13105822,-0.016139677,0.00041578544,0.0025751612,0.0036310698,0.008227787,0.43697608,-1.4375834,1.9713014,-2.102626,-1.5711192,2.4101071,-0.080651306,0.25058877,-0.2928625,0.040040895,-0.0044424077,-0.0886845,-0.47884035,0.11492168,-9.404425,0.9097417,47.65643,-1.2778438,-1.4870114,-3.6953743,-0.10981938,-0.054411735,-0.32354563,24.875,25.3125,24.625,26.75,27.125,27.3125
0.27205318,-2.3536367,0.082357824,-0.6260222,0.002847692,0.07425193,-0.085464515,-0.3904434,-0.33034068,0.059947502,-3.0786798,0.6220589,-0.00014073204,-0.13191701,-0.016583921,-0.00014833233,0.0023748223,0.0038604068,0.008374937,0.436796,-1.4370067,1.9707149,-2.102543,-1.571083,2.4099631,-0.08054366,0.25326186,-0.29440656,0.038621634,-0.0043706917,-0.08872257,-0.6703764,0.095768064,-9.385271,0.9186956,47.65643,-1.1359569,-1.7443249,-3.6703134,-0.094994694,-0.055556376,-0.31894952,24.875,25.3125,24.625,26.75,27.125,27.3125
0.27405396,-1.6582115,-0.02458734,-0.57428217,0.02666914,0.08281777,-0.09782084,-0.39072132,-0.3303821,0.0599625,-3.0787444,0.62187916,-5.3836273e-05,-0.13362004,-0.017523997,0.0004547209,0.0012421159,0.0059652366,0.008023238,0.4366401,-1.4365156,1.9701151,-2.1024954,-1.5710949,2.4096873,-0.080295116,0.25539145,-0.2981278,0.037825197,-0.0042382167,-0.08812063,-0.7086837,0.076614454,-9.270349,0.97464454,47.67345,-1.3047786,-1.7798883,-3.7547503,-0.059759088,-0.06323227,-0.34380025,24.875,25.3125,24.625,26.75,27.125,27.3125
0.27605355,-1.4117688,0.60612214,-0.60464984,0.03809948,0.06022994,-0.09899073,-0.39101213,-0.33039987,0.059961103,-3.0787277,0.62199444,-4.3248565e-05,-0.1366225,-0.01589696,0.0004895513,0.0016072077,0.005398649,0.0016334242,0.43642214,-1.4359876,1.9695052,-2.102423,-1.5710949,2.4095438,-0.085700154,0.25857803,-0.3023171,0.039495885,-0.0043325354,-0.08713367,-0.5363012,0.0,-9.3661175,0.93436235,47.67345,-1.0962987,-1.7562983,-3.550621,-0.03568016,-0.051670656,-0.37948126,24.875,25.3125,24.625,26.75,27.125,27.3125
0.27805415,-0.7170016,0.92066526,-0.72641593,0.038691983,0.055638783,-0.09798172,-0.39124852,-0.33043742,0.05993846,-3.0786934,0.6219263,-8.198485e-05,-0.13694084,-0.017214622,0.00014804164,0.0021986428,0.0045754914,0.0065242206,0.4363033,-1.4354595,1.9689411,-2.102339,-1.5711192,2.409387,-0.0833659,0.26210344,-0.30588916,0.040535368,-0.0045309193,-0.08968771,-0.47884035,-0.05746084,-9.289502,0.88960326,47.695843,-1.1647323,-1.7431977,-3.5566866,-0.031764634,-0.04684415,-0.39195803,24.875,25.3125,24.625,26.75,27.125,27.3125
0.2800534,-0.6995887,0.62943256,-0.6952489,0.037857607,0.03873965,-0.09986441,-0.39153698,-0.33046743,0.05993593,-3.078683,0.62190527,-0.000114705595,-0.13780811,-0.016188398,4.327239e-05,0.0029933488,0.0038419773,0.003614921,0.43611035,-1.434896,1.9682821,-2.1022184,-1.5711197,2.4091828,-0.08562593,0.26289165,-0.3069777,0.04183739,-0.004942167,-0.08903743,-0.51714754,-0.019153614,-9.404425,0.8851263,47.682407,-1.0876706,-1.8120171,-3.3988707,-0.02518813,-0.049203195,-0.43187547,24.875,25.3125,24.625,26.75,27.125,27.3125
0.28205374,-1.3677442,-0.5401839,-0.8707703,0.034041222,0.030710123,-0.08401657,-0.39179748,-0.3305022,0.05994423,-3.0786862,0.62182534,-8.146916e-05,-0.13923623,-0.015557528,-0.00033447632,0.0041402006,0.0029053024,0.0090386085,0.43596572,-1.4344039,1.9676846,-2.1021225,-1.5711435,2.4089882,-0.08750261,0.2658271,-0.3098443,0.043097507,-0.0055918656,-0.09633517,-0.49799395,0.038307227,-9.32781,0.8806493,47.70211,-0.9968294,-1.856536,-3.636146,-0.025778424,-0.0541669,-0.3886353,24.875,25.3125,24.625,26.75,27.125,27.3125
0.28405356,-0.40136072,0.054069933,-1.0899533,-0.0010059688,0.054533895,-0.095862545,-0.39209735,-0.33052278,0.059925582,-3.0786464,0.62189364,-7.611534e-05,-0.13988423,-0.0151124615,-0.00052163133,0.005314072,0.0015828767,0.010881674,0.43576142,-1.4338164,1.9670485,-2.1020615,-1.5711673,2.408832,-0.08844065,0.2676151,-0.3120754,0.045231972,-0.0061002024,-0.09911456,-0.34476504,0.095768064,-9.385271,0.9365982,47.62598,-0.9762789,-1.9013424,-3.58189,-0.022405159,-0.0443182,-0.33469948,24.875,25.3125,24.625,26.75,27.125,27.3125
0.2860536,-1.3220961,-1.1563041,-1.2282971,0.006930567,0.029526593,-0.0852303,-0.39237645,-0.33055905,0.059920195,-3.0786529,0.621872,-0.00010548503,-0.14090464,-0.014299896,-4.1305884e-05,0.0061119436,0.001214553,0.014101417,0.4355808,-1.4332653,1.9664148,-2.1019652,-1.5711559,2.4086375,-0.090333685,0.26806247,-0.31440046,0.04777966,-0.0066714967,-0.10422571,-0.17238252,0.15322891,-9.404425,0.9791215,47.64479,-0.90034246,-1.840574,-3.5432644,-0.019055087,-0.027103152,-0.2859199,24.875,25.3125,24.625,26.75,27.125,27.3125
0.28805333,-0.6371047,-0.80629236,-0.9681889,-0.012349218,0.04126272,-0.089216,-0.39265287,-0.33057472,0.05992989,-3.0786495,0.6217545,-0.0001003967,-0.1416797,-0.01391765,0.00039212487,0.0058778496,0.0009350545,0.017607067,0.43538842,-1.4327621,1.9657925,-2.101833,-1.5711802,2.4083726,-0.09181425,0.26831082,-0.3161831,0.04946089,-0.0063456222,-0.109212175,-0.2681506,0.095768064,-9.442732,0.8940802,47.692257,-0.7449409,-1.8341208,-3.6371684,-0.021098286,-0.035144426,-0.22323507,24.875,25.3125,24.625,26.75,27.125,27.3125
0.29005387,-0.2782726,-0.5058832,-1.1924688,-0.0056387116,0.036104463,-0.099763356,-0.3929556,-0.33059442,0.05992707,-3.0786176,0.62168694,-7.443814e-05,-0.14208089,-0.013738812,-0.000104020655,0.0061531365,-0.0011111622,0.022370122,0.43519598,-1.4321867,1.9651221,-2.1017249,-1.5712274,2.4081426,-0.09278304,0.27040857,-0.31794244,0.051082015,-0.00573753,-0.11494459,-0.2681506,0.17238252,-9.442732,0.9254084,47.70659,-0.6659973,-1.7193184,-3.607399,-0.048745558,-0.030377125,-0.168509,24.875,25.3125,24.625,26.75,27.125,27.3125
0.2920537,-0.56472063,-0.30953974,-0.99239206,-0.0041953027,0.027255466,-0.084404424,-0.39325047,-0.33062732,0.05992603,-3.0786207,0.6216695,-7.8406796e-05,-0.14267561,-0.013520658,0.00010041287,0.006188523,-0.0021569964,0.019749695,0.43500376,-1.4316233,1.9644636,-2.1016276,-1.5712274,2.4079394,-0.09385702,0.27133277,-0.3201033,0.05328067,-0.0053286795,-0.11339848,-0.17238252,0.11492168,-9.442732,0.9701675,47.701214,-0.6920744,-1.696127,-3.7424707,-0.06707524,-0.03426476,-0.13985169,24.875,25.3125,24.625,26.75,27.125,27.3125
0.29405394,-0.73357785,-0.4468243,-0.9181363,0.0007550491,0.025225157,-0.08808879,-0.3935388,-0.3306483,0.05993348,-3.0786233,0.62166864,-0.00010938826,-0.14361143,-0.013628322,-5.659812e-05,0.006597006,-0.0041461037,0.020564985,0.4347875,-1.431095,1.963817,-2.101495,-1.571215,2.4077227,-0.09465845,0.27438203,-0.32397664,0.056078684,-0.004866785,-0.11501446,-0.15322891,0.15322891,-9.461885,0.8627467,47.703903,-0.6058522,-1.6906831,-3.6912827,-0.09700463,-0.048493262,-0.1241864,24.875,25.3125,24.625,26.75,27.125,27.3125
0.29605344,-0.8383314,-0.4055089,-1.0185405,0.0086199725,0.01869377,-0.08362466,-0.3937908,-0.33066806,0.059897117,-3.0785797,0.62152797,-0.0001687456,-0.14284648,-0.013764684,-0.00017680463,0.0068262974,-0.006181549,0.016146094,0.43463165,-1.430532,1.9632419,-2.1014106,-1.5712508,2.407485,-0.094096676,0.2743943,-0.32439834,0.05842715,-0.0042195227,-0.110035405,-0.22984336,0.19153613,-9.461885,0.947788,47.67345,-0.67232746,-1.6959906,-3.7349327,-0.12713778,-0.049418963,-0.124026015,24.875,25.3125,24.625,26.75,27.125,27.3125
0.29805347,-1.0959547,-0.28971508,-0.77303666,0.007421006,0.020896167,-0.07989335,-0.39408398,-0.33070198,0.059901174,-3.078588,0.62151164,-0.00022460394,-0.14325114,-0.01415121,-0.001009842,0.0074371523,-0.0090827355,0.012394183,0.4344277,-1.4299678,1.9625591,-2.1012666,-1.571227,2.4072702,-0.094068624,0.27828956,-0.32755378,0.060578153,-0.00355658,-0.10625527,-0.24899697,0.17238252,-9.404425,0.9030289,47.689575,-0.72137195,-1.7774103,-3.7239323,-0.15448964,-0.045024663,-0.15128231,24.875,25.3125,24.625,26.75,27.125,27.3125
0.3000543,-0.859131,-0.61388016,-1.1083819,0.01786631,0.018289737,-0.08596884,-0.3944016,-0.33073223,0.059912283,-3.0785804,0.6215891,-0.00021266883,-0.14424242,-0.014641006,-0.00063967874,0.0071195667,-0.009480294,0.007863066,0.43421176,-1.4293921,1.9618524,-2.1011465,-1.5712265,2.407104,-0.094206035,0.28029093,-0.3312672,0.062517956,-0.0031033389,-0.10186107,-0.05746084,0.11492168,-9.423578,1.0015011,47.682407,-0.72615886,-1.7634718,-3.655981,-0.18988734,-0.066237494,-0.18716684,24.875,25.3125,24.625,26.75,27.125,27.3125
0.30205405,-0.48703814,-0.45243764,-1.1472632,0.01269305,0.014385009,-0.078653336,-0.39468056,-0.33077723,0.059908524,-3.0785944,0.621477,-0.00023403064,-0.14362393,-0.014759618,-0.0025171475,0.009207185,-0.013971608,0.0056301584,0.43405616,-1.4288275,1.9611944,-2.1010373,-1.5712265,2.406877,-0.09337365,0.28468257,-0.33253357,0.064347155,-0.003108561,-0.09879507,-0.038307227,0.2681506,-9.308656,0.9410752,47.68062,-0.7919233,-1.9848521,-3.5614324,-0.22648853,-0.06041387,-0.24980079,24.875,25.3125,24.625,26.75,27.125,27.3125
0.304054,-0.53276527,-0.65293103,-1.0572912,0.005306623,0.0046164608,-0.087570064,-0.39499062,-0.330792,0.059906617,-3.0785344,0.621506,-0.0002222902,-0.1451911,-0.013657014,-0.0022371712,0.009400849,-0.013346807,0.00049202325,0.4338509,-1.4282403,1.9605011,-2.1009057,-1.5712751,2.406698,-0.09631712,0.28523245,-0.33407056,0.06484668,-0.003553607,-0.096598946,0.05746084,0.34476504,-9.308657,0.88960326,47.677036,-0.6479186,-1.9716834,-3.6218667,-0.25056025,-0.07725387,-0.30576548,24.875,25.3125,24.625,26.75,27.125,27.3125
0.30605388,-0.024102086,-0.7410673,-1.0354891,-0.015506481,0.013325448,-0.091962405,-0.39524558,-0.33081955,0.059895642,-3.0785053,0.62144107,-0.00031377652,-0.14584345,-0.015527826,-0.0010675368,0.009007888,-0.010839161,0.0023579134,0.43368423,-1.4277011,1.9598774,-2.1007497,-1.5712751,2.4064949,-0.09291362,0.2862809,-0.33823735,0.06552763,-0.004266689,-0.09505767,0.076614454,0.2873042,-9.423578,0.93436235,47.66987,-0.8519609,-1.9694498,-3.6518488,-0.25676918,-0.043326292,-0.3504724,24.875,25.3125,24.625,26.75,27.125,27.3125
0.308054,-0.47578484,-1.7839667,-0.9873586,-0.025947658,0.0041121333,-0.077313796,-0.395571,-0.3308756,0.059915207,-3.078539,0.62143105,-0.00028148608,-0.14817227,-0.013741828,6.3068765e-06,0.009094362,-0.009565135,-0.0035867877,0.43350238,-1.4271016,1.959123,-2.10063,-1.5712637,2.406303,-0.09763153,0.28580013,-0.34072804,0.06738286,-0.0048797834,-0.09382922,0.11492168,0.36391866,-9.404425,0.9835985,47.707485,-0.63946414,-1.9156175,-3.6161394,-0.3200416,-0.034899056,-0.3894981,24.875,25.3125,24.625,26.75,27.125,27.3125
0.31005397,-0.16010538,-1.5972757,-0.94636506,-0.033894483,-0.0012209845,-0.07951935,-0.39584383,-0.3308656,0.059885,-3.0784326,0.621465,-0.00039869675,-0.14877482,-0.015963014,0.0006151931,0.007264204,-0.005586435,-0.0013696655,0.43327585,-1.4265274,1.9585003,-2.1004636,-1.5712994,2.4061115,-0.09397518,0.28673998,-0.34255072,0.063883156,-0.004913958,-0.09238791,0.076614454,0.36391866,-9.32781,0.99031126,47.684196,-0.8236903,-1.7045817,-3.6211293,-0.31280866,-0.025987921,-0.4230528,24.875,25.3125,24.625,26.75,27.125,27.3125
0.3120541,0.07566379,-1.4670516,-1.1748048,-0.030230716,0.006785443,-0.08415568,-0.39615735,-0.33090606,0.059896722,-3.0784438,0.6214865,-0.00036976225,-0.1507929,-0.016392557,0.0020871048,0.0055654487,-0.0013199915,-0.002450749,0.43308368,-1.4259524,1.9577941,-2.1003563,-1.5712994,2.4059317,-0.09462764,0.28634688,-0.3452934,0.062433988,-0.0051708836,-0.09195755,-0.019153614,0.38307226,-9.423578,0.9992599,47.72629,-0.7885252,-1.5645547,-3.6689754,-0.31967658,-0.029120276,-0.47659838,24.875,25.3125,24.625,26.75,27.125,27.3125
0.31405368,-0.44458088,-1.6210968,-1.1783803,-0.032770503,0.015584595,-0.08132923,-0.39645,-0.33094993,0.059900176,-3.0784373,0.62148356,-0.00038788765,-0.1503424,-0.01590529,0.0006297434,0.0069050035,-0.0042902976,-0.0006073344,0.43291545,-1.4253765,1.9570998,-2.1002247,-1.5712994,2.405763,-0.09505406,0.28860915,-0.34481356,0.062947795,-0.005142318,-0.09422772,-0.019153614,0.36391866,-9.461885,1.0238806,47.660015,-0.8356846,-1.5546591,-3.6817737,-0.3330509,-0.037256163,-0.48610222,24.875,25.3125,24.625,26.75,27.125,27.3125
0.31605357,-0.53400755,-1.5610172,-1.3082165,-0.028949047,0.024253735,-0.07888582,-0.3967415,-0.33098477,0.05987775,-3.0784252,0.621458,-0.0004610718,-0.15240574,-0.017127858,0.0011249501,0.0045619993,-0.00022565058,0.003705203,0.43272397,-1.424765,1.9564294,-2.1001184,-1.571287,2.4055574,-0.094732635,0.29051733,-0.34737706,0.058926817,-0.0047438955,-0.0982175,0.095768064,0.3256114,-9.500193,0.9835985,47.689575,-0.92966163,-1.5481682,-3.7123194,-0.32054323,-0.02903031,-0.49618226,24.875,25.3125,24.625,26.75,27.125,27.3125
0.3180532,-0.7200332,-1.2451079,-1.1992791,-0.029590795,0.028026897,-0.08425556,-0.39707658,-0.3309978,0.059907246,-3.0784054,0.6214678,-0.00037276538,-0.15496062,-0.018508242,0.0014860857,0.0035029096,0.0035412149,0.013781676,0.43249595,-1.4242127,1.9556993,-2.0999758,-1.5713357,2.4053385,-0.093850285,0.2943697,-0.3520559,0.05587936,-0.005383016,-0.10740711,0.038307227,0.36391866,-9.500193,0.99702406,47.73256,-0.8375807,-1.6306717,-3.696797,-0.27673623,-0.038319856,-0.4505868,24.875,25.3125,24.625,26.75,27.125,27.3125
0.320054,-0.63862824,-1.2782388,-1.4230113,-0.014023396,0.025716573,-0.07980716,-0.39737627,-0.33106485,0.05991468,-3.0784466,0.6213756,-0.0003289724,-0.15638188,-0.019703709,0.0012490058,0.0029366126,0.0049636504,0.020055132,0.4323645,-1.4236246,1.9549922,-2.0998924,-1.5713357,2.4051447,-0.09272884,0.2979812,-0.3553896,0.0540688,-0.0054763486,-0.112556875,0.095768064,0.30645782,-9.653421,0.90750587,47.695843,-1.0296311,-1.7183146,-3.6124444,-0.23716997,-0.029213393,-0.38459438,24.875,25.3125,24.625,26.75,27.125,27.3125
0.32205376,-0.9673914,-0.9510847,-1.4639238,-0.012722722,0.0151831675,-0.083113804,-0.397685,-0.33110183,0.05992558,-3.0784726,0.62124276,-0.00033482022,-0.15926093,-0.01877669,0.00033862027,0.0033493687,0.005230911,0.025849443,0.43217105,-1.4230462,1.954274,-2.0997493,-1.5713357,2.4048655,-0.09640172,0.30285662,-0.35865808,0.05238618,-0.005981439,-0.12202055,0.05746084,0.2873042,-9.576807,0.8873621,47.66808,-0.84492475,-1.8956969,-3.575708,-0.22001824,-0.02662193,-0.2789476,24.875,25.3125,24.625,26.75,27.125,27.3125
0.32405376,-0.511959,-0.8638757,-1.4039847,-0.01724136,0.033283815,-0.08860713,-0.39799908,-0.33113182,0.05992295,-3.0784764,0.6212196,-0.0003083697,-0.16023791,-0.021075144,0.0026693891,0.00020809316,0.010797325,0.032382004,0.4319684,-1.4224588,1.9535898,-2.0996659,-1.5713476,2.4046483,-0.09327355,0.30107144,-0.36177865,0.050914958,-0.005469729,-0.12542501,-0.114921674,0.4213795,-9.5385,0.9410752,47.66808,-1.1256241,-1.8099457,-3.5380297,-0.17544168,-0.023586987,-0.2252681,24.875,25.3125,24.625,26.75,27.125,27.3125
0.3260535,-0.95391923,-1.3533086,-1.4633876,-0.0106349895,0.028531393,-0.08221069,-0.39832354,-0.33117652,0.05992554,-3.0785196,0.6210734,-0.00028402553,-0.16058615,-0.020812124,0.0011781029,0.0008674492,0.008683454,0.03433229,0.4317761,-1.4218451,1.9528607,-2.099571,-1.5713476,2.4043598,-0.09411673,0.3044184,-0.36220777,0.050189056,-0.005184366,-0.12821876,-0.22984336,0.47884035,-9.691729,0.95897776,47.681515,-1.1114522,-1.8455548,-3.5492258,-0.15076295,-0.031425886,-0.17490846,24.875,25.3125,24.625,26.75,27.125,27.3125
0.32805413,-1.2517607,-1.5247395,-1.466625,-0.04577133,0.04330663,-0.07808547,-0.39863485,-0.3312305,0.059942205,-3.0785377,0.62100196,-0.00024829048,-0.16037475,-0.019869706,0.00029398967,0.0019473349,0.0065859347,0.031473145,0.43161967,-1.4212567,1.9521197,-2.099439,-1.5713595,2.404157,-0.09548307,0.30519533,-0.36142543,0.050986134,-0.0052793925,-0.12672666,-0.34476504,0.47884035,-9.730036,0.9545008,47.658226,-1.065604,-1.7187483,-3.8576097,-0.12624821,-0.032576486,-0.12854642,24.875,25.3125,24.625,26.75,27.125,27.3125
0.3300538,-1.8329365,-1.9892577,-1.2901412,-0.054324903,0.051060934,-0.07301941,-0.39896908,-0.3312621,0.059944965,-3.0785596,0.6209113,-0.00021288678,-0.16059986,-0.019900054,-0.00015013975,0.0022495717,0.0055063684,0.0281239,0.43140367,-1.420643,1.9513892,-2.0993426,-1.5713714,2.403882,-0.095614426,0.30680037,-0.36257216,0.05163434,-0.005097574,-0.12350898,-0.36391866,0.4213795,-9.691729,0.9634547,47.657326,-1.064954,-1.715092,-3.890364,-0.1257213,-0.027804283,-0.15513733,24.875,25.3125,24.625,26.75,27.125,27.3125
0.3320542,-1.8496581,-1.9632989,-1.4493288,-0.04862279,0.060499728,-0.07789159,-0.39929405,-0.33130276,0.059951615,-3.0785723,0.62084097,-0.00018952873,-0.16208301,-0.020626178,0.0022836868,0.00016740027,0.009506558,0.020714758,0.43121174,-1.420032,1.9506472,-2.099223,-1.5713829,2.403645,-0.09557212,0.30463645,-0.36610198,0.052826628,-0.004875464,-0.116057314,-0.36391866,0.36391866,-9.749189,1.0194036,47.66539,-1.0248785,-1.568022,-3.951576,-0.116854906,-0.03451106,-0.23776773,24.875,25.3125,24.625,26.75,27.125,27.3125
0.33405384,-1.4809444,-1.6714953,-1.4309946,-0.03178767,0.06453179,-0.07902754,-0.3996246,-0.33135813,0.05996164,-3.0786111,0.62081283,-0.00018702335,-0.16339663,-0.02091374,0.0023403373,-0.00070988946,0.009396092,0.015304447,0.43101922,-1.4194065,1.9498805,-2.0991023,-1.571359,2.4034305,-0.09658262,0.30693755,-0.36915958,0.053319298,-0.004030745,-0.111658074,-0.47884035,0.3256114,-9.691729,0.9835985,47.64837,-1.0323262,-1.4675016,-3.8838377,-0.104321994,-0.026965663,-0.25899318,24.875,25.3125,24.625,26.75,27.125,27.3125
0.3360534,-1.4722444,-0.8777217,-1.4361147,-0.026745161,0.06682089,-0.08164139,-0.39996502,-0.3313949,0.059992738,-3.0786376,0.62076014,1.2781849e-06,-0.16538051,-0.02144738,0.0025374182,-0.0018216615,0.010029566,0.0127436975,0.43083894,-1.4188517,1.94916,-2.0990427,-1.5714186,2.4032145,-0.09764989,0.31015524,-0.37346604,0.05335954,-0.0032800997,-0.11016432,-0.4213795,0.2873042,-9.749189,1.0305934,47.62867,-1.0379293,-1.5662509,-3.8230317,-0.07731333,-0.044549942,-0.30880067,24.875,25.3125,24.625,26.75,27.125,27.3125
0.33805385,-1.2947078,-0.50944275,-1.5348412,-0.00090596016,0.05791269,-0.08528403,-0.4003241,-0.33144376,0.059999984,-3.0786865,0.62078863,4.7200563e-05,-0.16684833,-0.022015663,0.0023708905,-0.0018708913,0.008321203,0.012402331,0.4306109,-1.4182028,1.9483827,-2.0989697,-1.5713943,2.4029984,-0.098209634,0.31447792,-0.37881446,0.055916455,-0.002519781,-0.11038202,-0.3256114,0.22984336,-9.787497,0.99702406,47.672558,-1.0530227,-1.6881807,-3.5379028,-0.07148565,-0.091540314,-0.33017123,24.875,25.3125,24.625,26.75,27.125,27.3125
0.34005418,-1.2948666,-0.18434839,-1.4540032,0.009119586,0.04442164,-0.08056661,-0.40064204,-0.33151028,0.06001622,-3.07875,0.620726,5.5532197e-05,-0.16837266,-0.021637391,0.0019511908,-0.0020922886,0.008472814,0.010573316,0.4304421,-1.4176011,1.9476284,-2.098851,-1.5713586,2.402783,-0.10014303,0.3169475,-0.38067755,0.05508303,-0.0023828184,-0.11048572,-0.4022259,0.17238252,-9.710882,0.93436235,47.705692,-0.9727172,-1.7304256,-3.5521588,-0.047548786,-0.09071149,-0.33825284,24.875,25.3125,24.625,26.75,27.125,27.3125
0.34205392,-0.73677623,0.037416186,-1.1295829,-0.0016320399,0.065370366,-0.09426712,-0.4009726,-0.33151558,0.060004383,-3.078695,0.62067616,7.485418e-05,-0.16878031,-0.021431977,0.0013991595,-0.0013656405,0.007901144,0.010084971,0.4302142,-1.4169761,1.9469107,-2.0987308,-1.5714186,2.4025314,-0.10045306,0.31861484,-0.38151577,0.055071358,-0.0028077676,-0.110306256,-0.63206923,0.22984336,-9.595961,0.9186956,47.67166,-0.999717,-1.7866099,-3.7018423,-0.009373845,-0.07613265,-0.35207397,24.875,25.3125,24.625,26.75,27.125,27.3125
0.34405428,-1.3700156,-0.7521553,-1.1719441,0.0030862885,0.059138604,-0.08038056,-0.40133366,-0.3315845,0.06003466,-3.0787692,0.62065095,0.00015274157,-0.16882694,-0.020743571,7.4988755e-05,0.00096621487,0.0048899944,0.010591145,0.43002188,-1.4163386,1.9460849,-2.0986226,-1.5713948,2.4023144,-0.101058036,0.32170257,-0.38262117,0.056802817,-0.0036606996,-0.11141573,-0.4405331,0.13407528,-9.519346,0.9925471,47.64658,-0.84112,-1.7155416,-3.7603688,0.010102565,-0.07444355,-0.3731575,24.875,25.3125,24.625,26.75,27.125,27.3125
0.34605426,-1.1674172,-0.4380095,-0.73508054,-0.01561787,0.07559179,-0.08165865,-0.40167555,-0.33163357,0.060057815,-3.0787902,0.6206543,0.00025958708,-0.16929047,-0.019107781,7.993744e-06,0.0029363078,0.0026300165,0.011749061,0.429841,-1.4157376,1.9453195,-2.0985258,-1.5714191,2.4021335,-0.10373473,0.32205915,-0.38392648,0.060623847,-0.0044970727,-0.11524946,-0.4213795,0.114921674,-9.3661175,1.0753525,47.651955,-0.9083153,-1.7392042,-3.8008823,-0.014481225,-0.05979072,-0.3514339,24.875,25.3125,24.625,26.75,27.125,27.3125
0.34805346,-1.045013,-0.28692907,-0.3075101,-0.0076111704,0.06906235,-0.08643293,-0.40201366,-0.33167228,0.06006012,-3.0788217,0.62059814,0.00023487583,-0.17096455,-0.02097425,0.001945393,0.0013859591,0.0074307676,0.019438384,0.4296138,-1.4151007,1.9445523,-2.0983946,-1.5713953,2.4018676,-0.10124133,0.32237297,-0.38880053,0.060174063,-0.0051007043,-0.12044223,-0.4405331,0.095768064,-9.212888,1.0126908,47.699425,-0.9432409,-1.5624766,-3.8315382,0.008058604,-0.07411325,-0.31037483,24.875,25.3125,24.625,26.75,27.125,27.3125
0.35005337,-0.6020515,0.61201066,-0.43740433,0.009201726,0.056861486,-0.096506536,-0.4023746,-0.33173665,0.060090173,-3.0788915,0.62047446,0.0003904465,-0.17306726,-0.02051418,0.002415851,0.0013469423,0.007534049,0.02364047,0.42944515,-1.4144758,1.9437484,-2.0983217,-1.5714196,2.4016135,-0.10369514,0.3246919,-0.39316794,0.062103637,-0.0051013054,-0.12709698,-0.21068975,0.11492168,-9.174581,0.91198283,47.687782,-0.9598783,-1.4236699,-3.6344452,0.04658317,-0.06834297,-0.25266913,24.875,25.3125,24.625,26.75,27.125,27.3125
0.3520543,-0.54104835,0.7383145,-0.47156444,0.03591939,0.034178536,-0.084721155,-0.40270996,-0.33174565,0.06006932,-3.0788174,0.6204735,0.00032498466,-0.1728128,-0.02092657,0.0021144606,0.0028145325,0.00510592,0.031498097,0.42920557,-1.4138019,1.9429821,-2.0981529,-1.5714554,2.4013832,-0.10239408,0.32690656,-0.39601925,0.06554925,-0.0054341224,-0.13365193,-0.19153613,0.1340753,-9.193734,1.0238806,47.70838,-0.9184155,-1.4616973,-3.6281443,0.019844662,-0.07125017,-0.18286419,24.875,25.3125,24.625,26.75,27.125,27.3125
0.35405496,-0.5196715,0.5425349,-0.43677652,0.044459157,0.014219891,-0.076870136,-0.40308115,-0.33180547,0.06011022,-3.0789335,0.6203805,0.0004632733,-0.17290632,-0.020969912,0.0019089046,0.0041354382,0.0024348707,0.033191543,0.42898983,-1.4132009,1.94218,-2.0980794,-1.5714315,2.4010952,-0.10221152,0.3291358,-0.3991907,0.06947133,-0.0055047497,-0.13516262,-0.22984336,0.17238252,-9.155427,0.9679317,47.709274,-0.91924906,-1.4871219,-3.5287328,-0.005804665,-0.066429794,-0.08994109,24.875,25.3125,24.625,26.75,27.125,27.3125
0.35605386,-0.37177995,0.46943635,-0.34359488,0.020247664,0.013721351,-0.084260456,-0.4034427,-0.3318547,0.06013303,-3.0789444,0.6202287,0.000545146,-0.17360611,-0.020157957,0.0030260752,0.004498867,0.0018445614,0.032997824,0.4288091,-1.4125394,1.9413303,-2.097922,-1.5714792,2.4008188,-0.104075566,0.32816657,-0.4017915,0.07372111,-0.0055817757,-0.13683312,-0.30645782,0.21068975,-9.136273,0.98807013,47.687782,-0.9043101,-1.4345348,-3.5249157,-0.03081365,-0.056516685,-0.04374753,24.875,25.3125,24.625,26.75,27.125,27.3125
0.35805374,0.034761027,0.012375964,-0.2264151,0.0034037407,0.03372262,-0.08176057,-0.40377164,-0.33190343,0.060129575,-3.0789745,0.6200456,0.0004965952,-0.1719666,-0.018600475,6.4627995e-05,0.009476828,-0.007055614,0.02739054,0.42861682,-1.4118785,1.9405407,-2.0977647,-1.5714678,2.4005089,-0.10487363,0.33288816,-0.4019569,0.07933674,-0.006400833,-0.13202295,-0.2873042,0.2681506,-8.944737,0.9545008,47.705692,-0.87714756,-1.3818002,-3.6441438,-0.07998001,-0.07077728,-0.06164127,24.875,25.3125,24.625,26.75,27.125,27.3125
0.36005387,0.14655901,-0.31624705,-0.30147892,-0.007893207,0.04177657,-0.08855922,-0.40410686,-0.33191693,0.060122453,-3.078922,0.62011564,0.0004117737,-0.17211828,-0.016690671,-0.0011648632,0.012226789,-0.012415661,0.01934178,0.42836362,-1.4112288,1.9397639,-2.097572,-1.5714678,2.4003065,-0.108114555,0.33552542,-0.4035205,0.08428489,-0.006677839,-0.12721434,-0.30645782,0.2681506,-9.059659,0.9768804,47.698532,-0.68221354,-1.5248591,-3.7902837,-0.14232594,-0.052112725,-0.09722656,24.8125,25.3125,24.625,26.75,27.125,27.3125
0.36205363,-0.64897645,-0.8115047,-0.14602797,-0.01417915,0.03746255,-0.07923735,-0.4044893,-0.33194697,0.060144883,-3.0789294,0.6200606,0.0004953906,-0.17025061,-0.017115628,-0.0025952253,0.014245657,-0.017952532,0.015553285,0.42812443,-1.4105661,1.9389151,-2.0974271,-1.5715035,2.4000325,-0.105968446,0.33801895,-0.40428454,0.08842838,-0.0062052095,-0.12128122,-0.22984336,0.30645782,-9.097966,0.99702406,47.686886,-0.8450121,-1.5726018,-3.8066835,-0.21627158,-0.062586606,-0.15244624,24.8125,25.3125,24.625,26.75,27.125,27.3125
0.36405417,-0.26371637,-0.66538703,0.20540814,-0.027343819,0.04852414,-0.084212184,-0.40482742,-0.3320088,0.060149834,-3.078916,0.61994624,0.00050987396,-0.1735423,-0.016732346,-0.0017524093,0.013004468,-0.017511403,0.008071198,0.42797905,-1.4098812,1.938075,-2.0972583,-1.5715393,2.399818,-0.109856464,0.3413968,-0.41083735,0.09068174,-0.005272055,-0.11768591,-0.11492168,0.2681506,-8.963891,1.0373062,47.67166,-0.61862093,-1.5641425,-3.71725,-0.25779817,-0.07104932,-0.22619587,24.8125,25.3125,24.625,26.75,27.125,27.3125
0.3660542,-0.2780794,-0.75428295,0.16727652,-0.009495956,0.040149625,-0.0796324,-0.4051958,-0.33204445,0.060149025,-3.078919,0.6199674,0.00042389476,-0.17470393,-0.01862256,-0.0005668025,0.011368852,-0.014802502,0.0043014116,0.42771587,-1.4091718,1.9372138,-2.0970666,-1.571503,2.399568,-0.10749106,0.34271932,-0.4152973,0.09068315,-0.0049257125,-0.1115493,-0.17238252,0.38307226,-8.772355,0.9567419,47.72002,-0.77553195,-1.579257,-3.5397177,-0.29605362,-0.07183595,-0.31103045,24.8125,25.3125,24.625,26.75,27.125,27.3125
0.3680534,0.12568097,-0.079573184,0.17828079,-0.0074683107,0.02912685,-0.0844813,-0.40551725,-0.3320564,0.06012043,-3.0788407,0.6199699,0.00032015648,-0.17587006,-0.01901404,-0.0008930458,0.011035671,-0.013431387,0.004260659,0.42748797,-1.4084978,1.9364594,-2.0968883,-1.5715274,2.399352,-0.10743313,0.34495506,-0.4168943,0.088656135,-0.0052142814,-0.111448646,-0.17238252,0.40222588,-8.829816,1.0395473,47.687782,-0.8077724,-1.5171556,-3.4699159,-0.3082889,-0.070158295,-0.36345422,24.8125,25.3125,24.625,26.75,27.125,27.3125
0.37005335,0.17811258,-0.5653067,-0.013408145,-0.01238273,0.033005636,-0.08218659,-0.40587538,-0.33210897,0.060121004,-3.078838,0.6200104,0.00026412244,-0.17832573,-0.019942833,0.00070915185,0.008269614,-0.0073830043,-0.0006469503,0.42727214,-1.40779,1.9355992,-2.0967104,-1.5715035,2.3991623,-0.107641056,0.3446524,-0.4196024,0.085021965,-0.0052221995,-0.10674751,-0.11492168,0.4405331,-8.848969,1.0171678,47.689575,-0.8369031,-1.4448203,-3.552484,-0.3055246,-0.07605654,-0.42737204,24.8125,25.3125,24.625,26.75,27.125,27.3125
