Tylouw/Master_Thesis_Code/training_data/batch_1/big_rod_t0.1/sample_85_session_4.csv
timestamp[s],tcp_force_x[N],tcp_force_y[N],tcp_force_z[N],tcp_force_rx[Nm?],tcp_force_ry[Nm?],tcp_force_rz[Nm?],tcp_pose_x[m],tcp_pose_y[m],tcp_pose_z[m],tcp_pose_rx[rot_vec_x],tcp_pose_ry[rot_vec_y],tcp_pose_rz[rot_vec_z],tcp_velo_x[m/s],tcp_velo_y[m/s],tcp_velo_z[m/s],tcp_velo_rx[rot_vec_x/s],tcp_velo_ry[rot_vec_y/s],tcp_velo_rz[rot_vec_z/s],q1[rad],q2[rad],q3[rad],q4[rad],q5[rad],q6[rad],qd1[rad/s],qd2[rad/s],qd3[rad/s],qd4[rad/s],qd5[rad/s],qd6[rad/s],tool_acc_x,tool_acc_y,tool_acc_z,current_of_whole_robot[A],voltage_of_whole_robot[V],current_J1[A],current_J2[A],current_J3[A],current_J4[A],current_J5[A],current_J6[A],temp_J1[C],temp_J2[C],temp_J3[C],temp_J4[C],temp_J5[C],temp_J6[C]
8.820207e-07,-0.21700457,-1.2525828,-0.18265226,-0.03071141,0.028356314,0.0009313001,-0.3728763,-0.3282141,0.059919838,-3.078453,0.6248798,-0.00036760478,0.0032443472,0.0015581422,-0.0043556127,0.0043952707,-0.009463093,2.2923055e-06,0.4481382,-1.4708252,2.0095851,-2.1076791,-1.5706495,2.4230676,-8.388598e-05,0.003919771,0.0054428945,0.0010698689,0.0001529145,-8.94319e-05,0.15322891,0.15322891,-8.925584,0.67475104,47.692257,-0.24480426,-2.8787193,-2.4779243,-0.51508045,0.14208469,-0.1171958,25.75,26.5,25.6875,28.4375,29.25,29.625
0.002052136,-0.033815693,-0.7377023,-0.18231538,-0.034864455,0.035127714,-0.0023895795,-0.37287828,-0.3282041,0.059914827,-3.0784318,0.6248752,-0.00028733833,-0.00041164883,-0.00020977485,-0.0033091055,-0.00072199665,0.0011255185,6.677319e-06,0.44815025,-1.4708369,2.0096214,-2.107731,-1.5706977,2.4230795,-8.235076e-05,0.0046341503,0.0050083483,-0.010970282,0.00014870317,-8.833467e-05,0.019153614,0.15322891,-8.983045,0.6725152,47.70659,-0.2860222,-2.8625226,-2.3741782,-0.46984947,0.14975217,-0.10904929,25.75,26.5,25.6875,28.4375,29.25,29.625
0.004051887,-0.14816995,-0.642625,-0.28853643,-0.025436897,0.03247916,0.001851351,-0.37288666,-0.32821247,0.05991464,-3.0784502,0.6248407,-0.00029551447,-0.0019164945,-0.00093689567,-0.0023518074,-0.0029463659,0.00573777,8.555975e-06,0.44815025,-1.4708133,2.009596,-2.107732,-1.5706857,2.4230556,-8.087094e-05,0.0040601995,0.004324717,-0.014833306,0.00014471773,-8.7264074e-05,0.05746084,0.21068975,-8.868123,0.7284641,47.701214,-0.23756726,-3.0444174,-2.598822,-0.37085807,0.16007708,-0.12100871,25.75,26.5,25.6875,28.4375,29.25,29.625
0.006052165,0.32774702,-0.0011748408,-0.30562875,-0.0115142735,0.022715293,-0.0156894,-0.37288892,-0.32821593,0.05991752,-3.0784783,0.6248658,-0.00029121368,-0.000971318,-0.0004787791,-0.0016702709,-0.0016324805,0.0030376355,7.77213e-06,0.4481382,-1.4708257,2.009608,-2.1077535,-1.5706614,2.4230556,-7.944326e-05,0.0025833098,0.0030739992,-0.009102867,0.00014094035,-8.621907e-05,0.019153614,0.22984336,-8.868123,0.779936,47.695843,-0.23821893,-3.017417,-2.5726066,-0.38496217,0.1601853,-0.11229952,25.75,26.5,25.6875,28.4375,29.25,29.625
0.008052106,0.4388286,0.6517449,-0.9028469,0.021006294,-0.0030228535,-0.0021975958,-0.3729027,-0.32822686,0.059927486,-3.0785012,0.6248704,-0.00027403905,-0.00033332175,-0.00016938413,-0.0009907158,-0.0007144346,0.0011542876,7.329098e-06,0.4481382,-1.4708142,2.0095723,-2.107752,-1.5706495,2.4230556,-7.806514e-05,0.001333848,0.0018414867,-0.0045257136,0.00013735522,-8.519894e-05,-0.019153614,0.1340753,-8.983045,0.7239871,47.70838,-0.23797224,-2.897819,-2.4234085,-0.41381896,0.14288178,-0.108630285,25.75,26.5,25.6875,28.4375,29.25,29.625
0.010052436,0.89294016,0.5640108,-1.3834776,0.032358628,-0.00078743097,-0.00438478,-0.37287092,-0.3282201,0.059877943,-3.0784554,0.6248612,-0.00043250804,3.7211903e-05,1.0338597e-05,-0.0007994356,-4.9179933e-05,-0.00021198155,9.179289e-06,0.4481382,-1.4707544,2.00962,-2.1077511,-1.5706257,2.4230556,-7.6733944e-05,0.0010587628,0.0011333969,-0.002022915,0.00013394814,-8.608426e-05,0.038307227,0.0,-9.270349,0.7866488,47.71554,-0.45559317,-2.1581798,-3.174201,-0.44790083,0.10862751,-0.1442075,25.75,26.5,25.6875,28.4375,29.25,29.625
0.01205166,0.14152628,0.2726554,-1.2888893,0.0024307682,0.0058514834,-0.0040107113,-0.372881,-0.32819295,0.0598905,-3.0784307,0.62483585,-0.0004003976,6.639917e-05,4.5073335e-05,-0.00469494,0.0037268712,-0.008042058,-9.954103e-07,0.4481022,-1.470787,2.009619,-2.1077158,-1.5706614,2.423007,-0.0001135901,0.011288783,-0.0013763729,-0.0010501032,0.00011999942,-0.000109890134,0.11492168,0.095768064,-9.404425,0.76874626,47.71554,-0.50904834,-2.2928724,-3.4215472,-0.45161706,0.109310836,-0.16595826,25.75,26.5,25.6875,28.4375,29.25,29.625
0.014051709,-0.38801757,-0.9824503,-1.3612249,-0.021816105,0.03352662,-0.003389323,-0.37288168,-0.32818648,0.05987215,-3.0783632,0.62487966,-0.00042479826,-0.0047929375,-0.002026735,-0.0033048862,0.002360335,-0.005225214,0.001435638,0.44811392,-1.4707361,2.0096023,-2.107703,-1.5706977,2.4230547,-0.0006371493,0.019201035,-0.0134843,1.44100495e-05,0.00010707032,-0.0020618387,-0.11492169,0.11492168,-9.576807,0.7665104,47.71286,-0.5225673,-2.6491394,-3.0630364,-0.4184978,0.108178526,-0.17603868,25.75,26.5,25.6875,28.4375,29.25,29.625
0.016051672,-1.2665844,-1.9388657,-1.7001668,-0.05301852,0.057085145,-0.008322273,-0.3728596,-0.32819203,0.059848122,-3.0783436,0.62483746,-0.0005126959,-0.00590931,9.539937e-05,-0.003552887,0.002945571,-0.006409233,0.0005830355,0.44813636,-1.4707003,2.0096152,-2.1076906,-1.5706857,2.4230533,-0.005635815,0.01900861,-0.012921534,0.000964069,9.372458e-05,-0.006208533,-0.2681506,0.36391866,-9.615114,0.69041777,47.679718,-0.31188524,-2.5573325,-3.2677333,-0.42656505,0.076698035,-0.16609874,25.75,26.5,25.6875,28.4375,29.25,29.625
0.018052543,-1.5659565,-2.3188248,-1.6749349,-0.09043796,0.0898094,-0.013792454,-0.37285236,-0.32819745,0.05984058,-3.0783346,0.6247959,-0.0006115354,-0.0047449362,0.00017256285,-0.004472391,0.004982647,-0.010607084,0.0029466376,0.44813663,-1.4706635,2.0095785,-2.10763,-1.5706614,2.4230287,-0.004715059,0.020853061,-0.013645132,0.004509168,8.1930564e-05,-0.0076516797,-0.30645782,0.4213795,-9.825804,0.7620334,47.699425,-0.39229092,-2.364048,-3.4765108,-0.43425858,0.0687104,-0.15160596,25.75,26.5,25.6875,28.4375,29.25,29.625
0.020051654,-2.2489557,-2.921583,-1.6761435,-0.09842316,0.09578459,-0.003055486,-0.37286472,-0.32820147,0.059830457,-3.0783186,0.6248119,-0.000668634,-0.0050285263,-0.00035165466,-0.0044179456,0.005524475,-0.01168857,0.0028600614,0.44812483,-1.4706032,2.0095298,-2.1076052,-1.5706495,2.423029,-0.00397465,0.022793902,-0.016349953,0.0064828964,6.104429e-05,-0.0068233027,-0.5363012,0.4213795,-9.844957,0.7486078,47.686886,-0.48784518,-2.3731797,-3.4830022,-0.46037474,0.06129364,-0.16121544,25.75,26.5,25.6875,28.4375,29.25,29.625
0.022051793,-1.6582158,-2.4493816,-1.7814215,-0.094919644,0.10731309,-0.018429361,-0.37288344,-0.3281867,0.059819467,-3.078254,0.6247602,-0.00060295383,-0.00641504,-0.0008193634,-0.0035626877,0.004524132,-0.00926792,0.00243562,0.4481368,-1.4705552,2.009505,-2.1076171,-1.5707334,2.423017,-0.004253125,0.023263192,-0.018647386,0.005695986,-9.270767e-05,-0.0066753235,-0.61291564,0.6512228,-9.787497,0.7284641,47.71286,-0.5707305,-2.3290029,-3.49996,-0.45165586,0.03866686,-0.17832589,25.75,26.5,25.6875,28.4375,29.25,29.625
0.024051882,-1.6478629,-2.1445422,-1.8887491,-0.07505889,0.09179973,-0.017600238,-0.37289563,-0.32821834,0.05982648,-3.0783398,0.62473863,-0.00062516954,-0.0079006115,-0.0010534228,-0.002488376,0.0031124698,-0.006196151,0.0028191092,0.44813645,-1.4705313,2.0094683,-2.1076415,-1.5706614,2.4229922,-0.0051198895,0.022785127,-0.020303195,0.0044502704,-0.00015826152,-0.007924158,-0.47884032,0.6703764,-9.921572,0.7351769,47.72719,-0.55315024,-2.1939178,-3.521975,-0.42499998,0.037659872,-0.18290177,25.75,26.5,25.6875,28.4375,29.25,29.625
0.026052492,-1.7343122,-2.022746,-1.7576771,-0.0627337,0.06932522,-0.023804806,-0.3729392,-0.3282262,0.05983991,-3.0783532,0.6247799,-0.00058039953,-0.009661093,-0.00058935897,-0.0024842964,0.0041950555,-0.004915909,0.0028854557,0.44811186,-1.4704825,2.009384,-2.1076415,-1.5706619,2.4229918,-0.006553855,0.025035163,-0.022648368,0.0038659088,-0.0016957144,-0.009419381,-0.40222588,0.49799395,-9.80665,0.7172743,47.704796,-0.5134264,-2.273828,-3.566076,-0.40378228,0.026152713,-0.18692386,25.75,26.5,25.6875,28.4375,29.25,29.625
0.028052537,-1.0609401,-1.3675213,-1.4823718,-0.060201604,0.06242074,-0.0316851,-0.37293005,-0.3282128,0.059796244,-3.0782676,0.6247432,-0.00070444937,-0.011057279,-0.00078653416,-0.002311552,0.004314709,-0.004158434,0.0029450548,0.44811168,-1.4703859,2.00937,-2.1076062,-1.5706867,2.4229796,-0.0071549467,0.02724863,-0.02546946,0.0038439266,-0.0021393495,-0.01007686,-0.63206923,0.36391866,-9.634268,0.7642693,47.70838,-0.5837304,-2.2668943,-3.501628,-0.37290823,-0.0040960857,-0.18112752,25.75,26.5,25.6875,28.4375,29.25,29.625
0.03005179,-1.1119012,-1.0676014,-1.3889514,-0.040149584,0.056335017,-0.054250356,-0.37298465,-0.32821342,0.05980678,-3.0782573,0.6247986,-0.0006099935,-0.012449758,-0.0010373193,-0.0017649774,0.0039553447,-0.0032942402,0.002838205,0.4480874,-1.4703256,2.0092852,-2.10763,-1.5707225,2.4229913,-0.007912713,0.028781226,-0.028544776,0.004451723,-0.0021950798,-0.010725853,-0.59376204,0.36391866,-9.653421,0.8023209,47.695843,-0.5318879,-2.2579627,-3.5173273,-0.37330487,0.009735795,-0.19430107,25.75,26.5,25.6875,28.4375,29.25,29.625
0.032051742,-0.5309762,-0.91871727,-1.4453951,-0.021341939,0.06915088,-0.06723217,-0.37302348,-0.32821962,0.05980908,-3.078296,0.62478745,-0.0006312248,-0.013758476,-0.0010800876,-0.0009918307,0.0033657213,-0.0026916948,0.0020068309,0.44803914,-1.4702653,2.0092137,-2.1076295,-1.5706862,2.4229312,-0.009202829,0.029563807,-0.03148909,0.005814196,-0.0019282289,-0.011183694,-0.36391866,0.21068975,-9.576807,0.78888994,47.728977,-0.53956026,-2.2169657,-3.4767096,-0.37560934,-0.007808804,-0.18650353,25.75,26.5,25.6875,28.4375,29.25,29.625
0.03405226,-0.82594645,-0.45825383,-1.1992785,-0.0067897765,0.055920914,-0.07852469,-0.373043,-0.32823566,0.059802637,-3.0783277,0.62477493,-0.00066647504,-0.014387386,-0.0014629057,-0.0003373454,0.0028396551,-0.002392086,0.0024749069,0.44802693,-1.4702053,2.009165,-2.1076405,-1.57065,2.422907,-0.009286734,0.030005028,-0.03378536,0.0071703917,-0.0015860669,-0.011735352,-0.19153613,0.095768064,-9.519346,0.7239871,47.734352,-0.5296478,-2.1346896,-3.4793334,-0.36382234,-0.03089216,-0.2039784,25.75,26.5,25.6875,28.4375,29.25,29.625
0.03605184,-0.37621048,0.045565385,-1.1278594,0.0077221612,0.056365483,-0.089090034,-0.37309232,-0.32825962,0.059815027,-3.0783646,0.6247042,-0.00062135234,-0.015624382,-0.0020760025,6.1422754e-05,0.0023339875,-0.0017836788,0.0035348297,0.44802704,-1.4701209,2.009044,-2.10764,-1.57065,2.4228585,-0.009385797,0.032067895,-0.037069324,0.007623238,-0.001400071,-0.012892621,-0.1340753,0.1340753,-9.404425,0.72622824,47.711063,-0.5850658,-2.0753698,-3.3732655,-0.35455602,-0.038390078,-0.21320784,25.75,26.5,25.6875,28.4375,29.25,29.625
0.038052145,-0.9132163,-0.12453807,-1.319243,0.023396976,0.035834093,-0.08567466,-0.3731307,-0.32825434,0.05981098,-3.0783408,0.6247387,-0.00062345597,-0.017444124,-0.0017138274,-0.00010562714,0.003474772,-0.0014510626,0.002312911,0.4479905,-1.4700478,2.0089705,-2.1076286,-1.5706624,2.4228466,-0.010923921,0.035252012,-0.040220108,0.007788236,-0.002579103,-0.013204006,-0.1340753,-0.038307227,-9.481039,0.7351769,47.71286,-0.6100459,-2.1112084,-3.385213,-0.3264207,-0.08582221,-0.21258947,25.75,26.5,25.625,28.4375,29.25,29.625
0.040052086,-0.50993353,-0.1516312,-1.3325257,0.022760624,0.034004882,-0.10671259,-0.37313896,-0.3282323,0.059790313,-3.0782478,0.6247576,-0.0007089624,-0.018051453,-0.001165299,-0.00020838974,0.005619318,-0.0019552272,0.0028528762,0.44796637,-1.4699755,2.0089219,-2.107556,-1.5706991,2.422846,-0.011345635,0.036769845,-0.042036887,0.009475934,-0.0042957347,-0.0141608585,-0.05746084,0.0,-9.346964,0.74413085,47.71017,-0.60535616,-2.1585646,-3.3884292,-0.31880078,-0.06648211,-0.20861053,25.75,26.5,25.625,28.4375,29.25,29.625
0.042052045,-0.6937882,-0.26400268,-1.2590811,0.0156081095,0.014002105,-0.109998986,-0.37320098,-0.3282536,0.059813347,-3.078281,0.6248216,-0.0006456715,-0.019097589,-0.00082286063,0.0003592943,0.006886065,-0.0011605745,0.0032842194,0.44794223,-1.4699033,2.0087898,-2.1075556,-1.5706877,2.4228578,-0.011931823,0.037509196,-0.044511016,0.011048345,-0.00578329,-0.01517435,-0.019153614,0.05746084,-9.404425,0.83365434,47.703903,-0.6048549,-2.0673208,-3.428124,-0.32216084,-0.08456754,-0.21216463,25.75,26.5,25.625,28.4375,29.25,29.625
0.044052172,-0.12464394,-0.8309411,-1.2159779,0.014152683,0.01612558,-0.13203883,-0.37322804,-0.32825342,0.059806522,-3.078243,0.62475675,-0.00065559923,-0.020196835,-0.00055369234,0.00088548695,0.007079237,-0.0004521581,0.0030040655,0.44794178,-1.4698192,2.008705,-2.1075194,-1.5707239,2.4228218,-0.0131092705,0.038075343,-0.04655176,0.01196908,-0.0062676244,-0.016069356,-0.076614454,0.076614454,-9.461885,0.7396539,47.682407,-0.6095331,-2.0541863,-3.4542136,-0.33967233,-0.07045485,-0.19637766,25.75,26.5,25.625,28.4375,29.25,29.625
0.04605248,0.15790313,-0.6685092,-1.3201519,-0.009800792,0.021490827,-0.13962783,-0.37325335,-0.3282593,0.05979778,-3.0782502,0.62468106,-0.0006724567,-0.020864043,-0.0006544466,0.00083173293,0.007938574,-0.00092730107,0.002624307,0.44792977,-1.4697467,2.0086453,-2.107519,-1.5707239,2.4227617,-0.013140357,0.04004777,-0.048854534,0.013101936,-0.0068387277,-0.015718004,-0.05746084,0.11492168,-9.3661175,0.75755644,47.723602,-0.6211616,-1.9405363,-3.4179907,-0.346236,-0.099467844,-0.17522271,25.75,26.5,25.625,28.4375,29.25,29.625
0.048052713,-0.014758583,-0.8070859,-1.4132581,-0.025519198,0.03045143,-0.15586804,-0.37331456,-0.32825452,0.05982282,-3.0782595,0.6247607,-0.0006513669,-0.022632178,-0.0002307791,0.0015130448,0.008847255,0.0014701546,0.0014866781,0.44785735,-1.4696985,2.0085242,-2.1074717,-1.5707124,2.4227378,-0.014279264,0.04089928,-0.051318925,0.0129537,-0.008701457,-0.015713805,-0.11492168,0.19153613,-9.500193,0.78217715,47.72271,-0.593977,-1.9337869,-3.4810262,-0.35577238,-0.0812455,-0.17693928,25.75,26.5,25.625,28.4375,29.25,29.625
0.050052665,-0.45074698,-1.1429404,-1.3139468,-0.041548885,0.04864002,-0.13895339,-0.37333462,-0.32822937,0.059805118,-3.0781343,0.62469727,-0.00067977817,-0.023564124,0.0002506141,0.0013634535,0.0111359395,0.0019449387,0.0009849025,0.4478573,-1.4696022,2.0084398,-2.1073873,-1.5708092,2.4227142,-0.014493848,0.042773683,-0.053157683,0.013487936,-0.010974015,-0.015419442,-0.05746084,0.2681506,-9.481039,0.7777002,47.70838,-0.6928071,-1.8463067,-3.490297,-0.35059953,-0.061279118,-0.18655509,25.75,26.5,25.625,28.4375,29.25,29.625
0.0520517,-0.6612677,-1.7163688,-1.2845619,-0.038199145,0.0631636,-0.13544677,-0.3733891,-0.32824886,0.059797976,-3.07814,0.6247368,-0.0006503332,-0.025239628,0.0010656437,0.0016486734,0.013287169,0.0034696446,5.703382e-05,0.44784492,-1.4694817,2.008332,-2.107423,-1.5708102,2.422726,-0.015784906,0.044322997,-0.0556281,0.013975359,-0.013577438,-0.01577553,-0.13407528,0.4213795,-9.461885,0.784413,47.705692,-0.6241626,-1.8486012,-3.4898477,-0.36626717,-0.024688546,-0.1741836,25.75,26.5,25.625,28.4375,29.25,29.625
0.054051682,-1.3098896,-1.621505,-1.3185729,-0.048266716,0.057339404,-0.13265774,-0.3734213,-0.3282475,0.059809405,-3.078144,0.624737,-0.0007039549,-0.025821814,0.0007510964,0.0015209821,0.013534337,0.0031647324,0.00069735124,0.4477969,-1.4694332,2.0082362,-2.107351,-1.5707864,2.4226775,-0.01565711,0.046230987,-0.057514388,0.014335453,-0.013672312,-0.016286181,-0.15322891,0.4213795,-9.557653,0.75084364,47.70032,-0.5990693,-1.8716006,-3.5129306,-0.3723995,-0.026612293,-0.16616194,25.75,26.5,25.625,28.4375,29.25,29.625
0.056052133,-1.3518131,-1.9393489,-1.3725051,-0.053756043,0.050562747,-0.124032445,-0.37348622,-0.32824457,0.0598174,-3.0781026,0.6247093,-0.00064570893,-0.026635192,0.00043066684,0.0011581784,0.013078446,0.0023595747,0.0006901934,0.4477727,-1.4693245,2.0080903,-2.1073153,-1.570846,2.4226415,-0.016303709,0.04877622,-0.059465952,0.014265943,-0.012917599,-0.016925752,-0.15322891,0.5746084,-9.672575,0.78888994,47.694054,-0.61486024,-1.8427302,-3.6633458,-0.37227103,-0.035444878,-0.18111685,25.75,26.5,25.625,28.4375,29.25,29.625
0.058052313,-0.6847337,-1.9231957,-1.455132,-0.06487099,0.056942653,-0.12939462,-0.37351784,-0.3282625,0.059806988,-3.0781004,0.62467015,-0.00073113095,-0.027379217,-0.0006138273,0.0015456472,0.011270889,0.0026960887,0.0016848736,0.44776082,-1.4692042,2.007971,-2.1072671,-1.5708212,2.4226055,-0.016015884,0.05020536,-0.06191404,0.01419369,-0.0114407325,-0.017633658,-0.19153613,0.45968673,-9.595961,0.7463667,47.701214,-0.65206474,-1.8379613,-3.638177,-0.3811108,-0.063510336,-0.16448131,25.75,26.5,25.625,28.4375,29.25,29.625
0.060052432,-0.86490566,-2.1703756,-1.5003102,-0.06548959,0.038593702,-0.12495311,-0.37360483,-0.32827023,0.05984088,-3.0781431,0.6246213,-0.00060213904,-0.028782764,-0.0011475659,0.0019100158,0.010873277,0.0040717726,0.0016848851,0.4477127,-1.4691317,2.0078137,-2.1072671,-1.5708455,2.4225216,-0.016119778,0.0521903,-0.06482069,0.0137030445,-0.011683825,-0.017735807,-0.24899697,0.4213795,-9.615114,0.75084364,47.70211,-0.5883126,-1.741494,-3.5623906,-0.36503977,-0.079750806,-0.14986563,25.75,26.5,25.625,28.4375,29.25,29.625
0.06205245,-0.73718846,-2.0951488,-1.3374507,-0.0588025,0.049642283,-0.12205095,-0.3736709,-0.32827008,0.059842214,-3.0781093,0.6247483,-0.0006178226,-0.029570976,-0.0011715417,0.0016307904,0.011608595,0.0037819832,0.0020073277,0.44765264,-1.4690112,2.0076702,-2.1072314,-1.570846,2.4225452,-0.016420579,0.054420017,-0.06668417,0.013917367,-0.012225482,-0.018356306,-0.22984336,0.45968673,-9.576807,0.75755644,47.689575,-0.6741622,-1.8510003,-3.6549299,-0.36001056,-0.07454341,-0.15040277,25.75,26.5,25.625,28.4375,29.25,29.625
0.06405246,-1.1498784,-1.9422373,-1.2531935,-0.052500397,0.04946883,-0.11354712,-0.37371597,-0.32827887,0.059843116,-3.078094,0.6246872,-0.0005805958,-0.032229625,-0.002034929,0.0033695577,0.010689713,0.008226345,0.0026841755,0.44765267,-1.4689149,2.0075595,-2.1072195,-1.5708822,2.4225092,-0.016462563,0.055662613,-0.0719556,0.0135450745,-0.013333413,-0.019069264,-0.19153613,0.40222588,-9.481039,0.69041777,47.68599,-0.6490544,-1.7116857,-3.5002344,-0.356571,-0.07140134,-0.13611217,25.75,26.5,25.625,28.4375,29.25,29.625
0.06605217,-1.0838331,-1.6706183,-1.0982003,-0.041307215,0.061413474,-0.119621545,-0.37376225,-0.3282732,0.05983949,-3.0780783,0.6245872,-0.000591097,-0.032254532,-0.001232831,0.0012619776,0.013856213,0.0047960943,0.002750945,0.44761643,-1.4688176,2.0074527,-2.1071832,-1.5709065,2.4224126,-0.01706411,0.06020061,-0.0721378,0.013655849,-0.014704352,-0.01973336,-0.22984336,0.4405331,-9.442732,0.77545905,47.68062,-0.64534783,-1.8241022,-3.5389938,-0.330325,-0.06852113,-0.12566683,25.75,26.5,25.625,28.4375,29.25,29.625
0.068052396,-1.3571813,-1.2740009,-1.1237998,-0.03726162,0.055596698,-0.11844279,-0.37385982,-0.32829046,0.059866216,-3.0780897,0.6247046,-0.00048820034,-0.03334986,-0.0018506431,0.0025907368,0.012487362,0.007310274,0.0034156453,0.44756854,-1.468698,2.00726,-2.1071832,-1.5709189,2.4224367,-0.016987616,0.059560474,-0.07452606,0.013823603,-0.01456214,-0.02032169,-0.2681506,0.40222588,-9.500193,0.75084364,47.686886,-0.69677377,-1.7405362,-3.5802946,-0.33913743,-0.058787055,-0.12284554,25.75,26.5,25.625,28.4375,29.25,29.625
0.07005255,-0.9931335,-1.2672211,-1.0529213,-0.030911682,0.056950413,-0.11679686,-0.3739254,-0.32830095,0.059872195,-3.0780659,0.6246988,-0.0004787587,-0.036720686,-0.0034846144,0.004783098,0.009724377,0.011960556,0.0038212207,0.44754443,-1.4685655,2.0070899,-2.1071355,-1.5709423,2.4224122,-0.017288273,0.061715215,-0.08188561,0.013637637,-0.014100405,-0.021024013,-0.21068975,0.34476504,-9.3661175,0.77545905,47.67166,-0.6927351,-1.7174456,-3.3559399,-0.322463,-0.07372626,-0.12520148,25.75,26.5,25.625,28.4375,29.25,29.625
0.072052546,-0.76238805,-0.8178882,-0.9778169,-0.03791522,0.040165413,-0.12192987,-0.37397334,-0.32830262,0.059849963,-3.0780103,0.6246873,-0.0005351902,-0.03608064,-0.0029567776,0.0021229049,0.011977964,0.0066629276,0.003996602,0.44752008,-1.468408,2.0069597,-2.1070998,-1.5709661,2.4223878,-0.01787528,0.06667888,-0.081295155,0.013832522,-0.013839683,-0.021785742,-0.24899697,0.3256114,-9.346964,0.784413,47.70032,-0.68177915,-1.6758642,-3.5852232,-0.303214,-0.073315635,-0.09528898,25.75,26.5,25.625,28.4375,29.25,29.625
0.07405251,-0.44057912,-1.050498,-0.79973423,-0.03541256,0.032310538,-0.11910994,-0.37409645,-0.3283234,0.059906863,-3.078079,0.62468183,-0.0003034875,-0.038155958,-0.003617352,0.0036099646,0.011488672,0.010060548,0.0046227328,0.44747218,-1.4683238,2.0067422,-2.107124,-1.5710028,2.422328,-0.017811129,0.067591585,-0.085779116,0.014130969,-0.014874387,-0.02234502,-0.24899697,0.3256114,-9.270349,0.7105615,47.701214,-0.6981502,-1.8936317,-3.3928995,-0.28783953,-0.0615661,-0.09486497,25.75,26.5,25.625,28.4375,29.25,29.625
0.076052025,-0.5303099,-1.258495,-0.8559541,-0.02928342,0.024807325,-0.124180116,-0.37415168,-0.32832214,0.05989183,-3.0780187,0.62463063,-0.00038447606,-0.039875768,-0.0037017998,0.004623931,0.011622505,0.011895327,0.0041322494,0.44743603,-1.4681559,2.006573,-2.1070397,-1.5710272,2.4222677,-0.01858562,0.06859964,-0.08947089,0.015220536,-0.015796147,-0.022623776,-0.19153613,0.36391866,-9.289502,0.7620334,47.682407,-0.68715787,-1.6008301,-3.2598474,-0.28162348,-0.03715975,-0.089491524,25.75,26.5,25.625,28.4375,29.25,29.625
0.07805238,-0.27928522,-0.53916436,-0.875684,-0.03234359,0.039532144,-0.13029432,-0.37425113,-0.32832518,0.05990155,-3.07801,0.6246671,-0.00029389834,-0.039792597,-0.0035902746,0.0031594431,0.01368776,0.008714055,0.0051610456,0.44737598,-1.4680108,2.0063937,-2.1070507,-1.5710634,2.4222317,-0.01838669,0.07255231,-0.09070502,0.016263163,-0.016281364,-0.023452284,-0.17238252,0.34476504,-9.270349,0.80456203,47.698532,-0.6429054,-1.8154571,-3.2752814,-0.28601253,-0.053989507,-0.08080659,25.75,26.5,25.625,28.4375,29.25,29.625
0.08005255,-0.9303824,-1.2959574,-0.97449017,-0.011181605,0.04328585,-0.11280657,-0.37431058,-0.3283582,0.059911083,-3.0780363,0.62455624,-0.0003182461,-0.04118454,-0.0041342108,0.0037571997,0.013296875,0.009372203,0.0058386973,0.4473759,-1.4678662,2.0061991,-2.1069906,-1.5710515,2.4221592,-0.018667996,0.07453886,-0.09451042,0.017319081,-0.016220221,-0.024408955,-0.21068975,0.34476504,-9.289502,0.784413,47.70032,-0.64351255,-1.7933862,-3.1304214,-0.29229888,-0.03923956,-0.08508201,25.75,26.5,25.625,28.4375,29.25,29.625
0.08205255,-0.8317693,-0.6759139,-0.8363572,-0.023848763,0.06030179,-0.12258091,-0.374403,-0.32834497,0.059912477,-3.0779538,0.6245981,-0.00028320323,-0.040633198,-0.0036155174,0.0022641309,0.014205011,0.0057073184,0.004733951,0.44731548,-1.467698,2.0059974,-2.106931,-1.571123,2.4221356,-0.019655412,0.076802656,-0.0937378,0.017974371,-0.015451037,-0.024293182,-0.21068975,0.28730422,-9.289502,0.8023209,47.72092,-0.63127494,-1.7926646,-3.3575,-0.26733544,-0.03772586,-0.077867985,25.75,26.5,25.625,28.4375,29.25,29.625
0.08405163,-1.0369896,-0.91420084,-0.77383614,-0.030458998,0.06211894,-0.1215181,-0.37450507,-0.3283709,0.059932332,-3.0779848,0.62458485,-0.00019576095,-0.043645184,-0.0049586757,0.0040233345,0.01283592,0.009560552,0.004240226,0.4472796,-1.4675412,2.0057795,-2.106931,-1.5711349,2.4220877,-0.019559164,0.079431355,-0.10074378,0.01828645,-0.015895551,-0.02369875,-0.17238252,0.2681506,-9.270349,0.71279734,47.72629,-0.66995347,-1.8165998,-3.2185173,-0.26485854,-0.035972618,-0.07555398,25.75,26.5,25.625,28.4375,29.25,29.625
0.08605201,-1.527619,-1.7046059,-0.8185707,-0.02270222,0.041364025,-0.11226733,-0.37456223,-0.32838786,0.05993103,-3.0779793,0.6244874,-0.00021694766,-0.04233245,-0.004472137,0.002219784,0.014611166,0.0049462025,0.004144334,0.44726756,-1.4673967,2.0056126,-2.1068828,-1.5711468,2.4220157,-0.019551689,0.08163212,-0.09934322,0.019611532,-0.015494977,-0.023596717,-0.15322891,0.30645782,-9.212888,0.7172743,47.729877,-0.6946299,-1.8165606,-3.3544765,-0.25692728,-0.039449267,-0.075229175,25.75,26.5,25.625,28.4375,29.25,29.625
0.08805223,-0.52347875,-0.611547,-0.7418733,-0.049437817,0.047450285,-0.12724651,-0.3746471,-0.32838807,0.05993852,-3.0779355,0.6245361,-0.00022356471,-0.044305418,-0.0046748095,0.0029501107,0.014993676,0.006209811,0.0037388352,0.44720736,-1.4672402,2.0054066,-2.1068099,-1.5711712,2.4219916,-0.020344997,0.08400328,-0.10391775,0.020842476,-0.01639417,-0.023979517,-0.19153613,0.3256114,-9.3661175,0.7642693,47.71465,-0.67603517,-1.9417269,-3.2318103,-0.25350103,-0.03141082,-0.07833368,25.75,26.5,25.625,28.4375,29.25,29.625
0.09005233,-0.1742695,-0.7646876,-0.800918,-0.04334238,0.042982202,-0.12517175,-0.37476003,-0.32841253,0.0599538,-3.0779448,0.6245183,-8.828795e-05,-0.045059443,-0.005038872,0.0028959368,0.015003059,0.0061974903,0.0045860293,0.4471834,-1.4670599,2.0051787,-2.1068342,-1.5712193,2.4219556,-0.020335589,0.08594651,-0.10597419,0.020968752,-0.01640019,-0.024817007,-0.1340753,0.2681506,-9.3661175,0.7709874,47.711964,-0.7193037,-1.841557,-3.2257326,-0.24358064,-0.043747485,-0.07118633,25.75,26.5,25.625,28.4375,29.25,29.625
0.09205227,-0.73436254,-1.0810359,-0.9456768,-0.034627765,0.028324945,-0.110704124,-0.3748629,-0.32840452,0.059951972,-3.0778663,0.624617,-0.00011489429,-0.046031836,-0.005280564,0.0025743719,0.015037342,0.006065201,0.004391509,0.44709924,-1.4668553,2.0049388,-2.1067507,-1.5712551,2.4219432,-0.020766657,0.08850462,-0.10797037,0.020538438,-0.016380556,-0.025051132,-0.21068975,0.28730422,-9.346964,0.7732232,47.72719,-0.7015207,-1.8716254,-3.2594256,-0.2281716,-0.018376784,-0.068290785,25.75,26.5,25.625,28.4375,29.25,29.625
0.09405226,-0.34083217,-0.870279,-0.90574557,-0.03891011,0.044531483,-0.114891,-0.37495452,-0.32844222,0.059963714,-3.0779061,0.62452966,-7.098467e-05,-0.047387086,-0.0056813676,0.0032734054,0.014172339,0.0072820643,0.004068194,0.4470869,-1.4666752,2.004711,-2.1067383,-1.5712551,2.4218714,-0.021405209,0.08961763,-0.110888906,0.0208714,-0.016131438,-0.025365692,-0.1340753,0.28730422,-9.404425,0.7396539,47.729877,-0.6570859,-1.8509547,-3.229422,-0.20162481,-0.025338858,-0.076861754,25.75,26.5,25.625,28.4375,29.25,29.625
0.09605261,-0.88709044,-1.0844188,-0.9634854,-0.036801524,0.048070394,-0.1135493,-0.37504518,-0.3284454,0.05996777,-3.0778632,0.62450016,-1.6261854e-05,-0.047786027,-0.005895426,0.0015563252,0.015454657,0.0037986548,0.0043492634,0.447051,-1.4665056,2.0045068,-2.1067026,-1.5713147,2.4218228,-0.02159526,0.09502567,-0.11301334,0.021279532,-0.015785724,-0.025835548,-0.17238252,0.28730422,-9.308657,0.7329411,47.7254,-0.6735903,-1.9543285,-3.2069743,-0.17955366,-0.052562855,-0.06906175,25.75,26.5,25.625,28.4375,29.25,29.625
0.09805203,-1.1224786,-1.2472565,-0.9120353,-0.03986962,0.048432183,-0.11251685,-0.37514907,-0.32844177,0.059995536,-3.0778277,0.62447304,5.700341e-05,-0.048624933,-0.0062172464,0.0033909697,0.014310871,0.0069818096,0.0051288097,0.44699094,-1.466363,2.004267,-2.1066182,-1.5713753,2.4217505,-0.021505782,0.09262049,-0.11476114,0.022065852,-0.016132455,-0.0265247,-0.21068975,0.3256114,-9.346964,0.7665104,47.73614,-0.6909908,-1.8347951,-3.247925,-0.17350508,-0.03351869,-0.05977056,25.75,26.5,25.625,28.4375,29.25,29.625
0.10005205,-0.62063843,-1.1036979,-0.79550624,-0.04872569,0.05680383,-0.12112742,-0.37522706,-0.32846043,0.05996923,-3.0777814,0.6244829,-3.532338e-05,-0.04866983,-0.0061671655,0.0011822131,0.015957199,0.0016810362,0.0042536873,0.44695488,-1.4661212,2.00405,-2.10657,-1.5713748,2.4217267,-0.022180201,0.09862649,-0.1166464,0.023433488,-0.015328655,-0.026322918,-0.22984336,0.36391866,-9.385271,0.80456203,47.72092,-0.69454545,-1.834785,-3.2752109,-0.15184703,-0.034357645,-0.057511464,25.75,26.5,25.625,28.4375,29.25,29.625
0.10205199,-0.67294043,-1.3745608,-0.75591916,-0.043943085,0.039167564,-0.11853965,-0.37535658,-0.32848394,0.060004573,-3.0777953,0.6244862,8.815081e-05,-0.049342945,-0.005997929,0.0019434578,0.016036397,0.002726356,0.0029373483,0.44690645,-1.465942,2.0037634,-2.1065338,-1.5714115,2.4216788,-0.022743184,0.09809559,-0.11805812,0.024468554,-0.015850423,-0.025569146,-0.30645782,0.3256114,-9.385271,0.7709874,47.716442,-0.63208324,-1.8530948,-3.3362355,-0.17269301,-0.052154064,-0.06654849,25.75,26.5,25.625,28.4375,29.25,29.625
0.10405219,-0.5709707,-1.11275,-0.7027911,-0.050866693,0.032964077,-0.11545523,-0.37543106,-0.32849,0.059979614,-3.077747,0.6244576,8.418533e-06,-0.050439075,-0.006199262,0.0014608494,0.016512517,0.0020916187,0.002216559,0.44685838,-1.4657251,2.0035708,-2.1064856,-1.5714234,2.4216192,-0.023241635,0.10143242,-0.12065715,0.024508651,-0.016012859,-0.0253433,-0.17238252,0.30645782,-9.289502,0.7777002,47.7254,-0.7040746,-1.8798561,-3.3123608,-0.15623166,-0.049255267,-0.079784885,25.75,26.5,25.625,28.4375,29.25,29.625
0.10605164,-0.4626337,-0.92172205,-0.7851407,-0.03777137,0.023758082,-0.11495899,-0.37555322,-0.32851472,0.059988275,-3.0777435,0.6244561,6.139864e-05,-0.05214033,-0.0065871077,0.001729991,0.016639302,0.0035666702,0.002901524,0.44681025,-1.4654965,2.0032938,-2.1064618,-1.5714473,2.4215708,-0.023530848,0.104015306,-0.124030575,0.024024207,-0.016773103,-0.026313763,-0.15322891,0.28730422,-9.270349,0.7978386,47.687782,-0.666497,-1.9779179,-3.3794541,-0.14245763,-0.049923636,-0.09919771,25.75,26.5,25.625,28.4375,29.25,29.625
0.108052716,-0.27918717,-0.80555725,-0.7364505,-0.027222244,0.024183225,-0.1169216,-0.37564635,-0.3285212,0.05999648,-3.0777192,0.62443155,9.343045e-05,-0.051741436,-0.006261856,0.00055812707,0.017669752,0.0009933739,0.0038533905,0.4467622,-1.465328,2.0030782,-2.1064136,-1.571483,2.4215107,-0.023895627,0.10597428,-0.12360601,0.024402944,-0.01658996,-0.027630862,-0.17238252,0.2681506,-9.289502,0.7620334,47.698532,-0.64982426,-1.9542572,-3.4375324,-0.10202923,-0.060837265,-0.10051277,25.75,26.5,25.625,28.4375,29.25,29.625
0.11005262,-0.35030448,-0.75821555,-0.69647735,-0.017010432,0.023118256,-0.114040054,-0.37577927,-0.32854453,0.060018413,-3.0776944,0.62442553,0.00019544197,-0.053276405,-0.0069395085,0.0017128986,0.017225394,0.0024029748,0.0036911063,0.44672626,-1.4651,2.002766,-2.1063654,-1.5715431,2.4214745,-0.023860514,0.10731334,-0.12814635,0.026139718,-0.016802998,-0.027431274,-0.019153614,0.3256114,-9.270349,0.784413,47.70659,-0.67766225,-1.8303876,-3.4025078,-0.084233746,-0.06753304,-0.101345405,25.75,26.5,25.625,28.4375,29.25,29.625
0.112051696,-0.76033115,-0.64199734,-0.92220867,-0.013660708,0.009344323,-0.10314465,-0.37587848,-0.3285514,0.06001174,-3.0776749,0.6243832,0.0002019848,-0.05283088,-0.006392739,0.00066791923,0.019142516,-0.00064551545,0.0032600898,0.44666612,-1.4648957,2.0025504,-2.1063411,-1.5715679,2.4213905,-0.024197258,0.10928247,-0.12835728,0.027958965,-0.017212154,-0.02733604,-0.076614454,0.24899697,-9.270349,0.69937176,47.670765,-0.66146445,-1.9190729,-3.4413893,-0.0804671,-0.051310826,-0.11445374,25.75,26.5,25.625,28.4375,29.25,29.625
0.11405236,-0.35243154,-0.98215085,-0.84141046,-0.0067346683,0.02470538,-0.11594178,-0.37598774,-0.32856983,0.060025886,-3.0776591,0.6243619,0.00022051261,-0.05300212,-0.0059499973,-0.0009865566,0.020369513,-0.0050688125,0.0019103114,0.4466176,-1.4646904,2.0022752,-2.1062686,-1.5715913,2.421331,-0.025714995,0.113601446,-0.12969984,0.029497415,-0.016408265,-0.027504655,-0.05746084,0.30645782,-9.251195,0.73069996,47.639416,-0.5969384,-1.9595373,-3.5776658,-0.076083474,-0.079352185,-0.12667088,25.75,26.5,25.625,28.4375,29.25,29.625
0.11605196,-0.52507186,-1.0161581,-0.9857272,-0.010482409,0.017184693,-0.10618833,-0.37607884,-0.328577,0.059991494,-3.0775707,0.6242853,0.00013421343,-0.055335384,-0.0065415436,0.0020671752,0.018729009,0.0004963425,0.0018948201,0.44658142,-1.4644039,2.0020216,-2.1061962,-1.5716399,2.4212584,-0.026073659,0.1113024,-0.13450706,0.030876877,-0.017342888,-0.02784202,-0.11492168,0.17238252,-9.270349,0.8112748,47.650166,-0.6098709,-1.7643034,-3.5086386,-0.090664685,-0.0666299,-0.13169442,25.75,26.5,25.625,28.4375,29.25,29.625
0.1180521,-0.443648,-1.0546502,-0.9814935,-0.013573937,0.023563292,-0.11401897,-0.37619865,-0.32858372,0.06000243,-3.0775378,0.624335,0.00017850217,-0.05399588,-0.006039691,-0.0009184567,0.021763995,-0.006134828,0.002537647,0.4465095,-1.4641984,2.0017588,-2.106148,-1.5716752,2.421222,-0.025882905,0.1164427,-0.13364974,0.03216768,-0.017212735,-0.028294634,-0.05746084,0.15322891,-9.270349,0.800085,47.687782,-0.6363702,-1.9162803,-3.666147,-0.070356406,-0.062116735,-0.15194869,25.75,26.5,25.625,28.4375,29.25,29.625
0.120052285,-1.1153812,-1.0782301,-1.0517937,-0.014661038,0.008949529,-0.105626926,-0.37628907,-0.32861218,0.059998017,-3.0775192,0.6242933,9.2228474e-05,-0.055568002,-0.0065559116,0.0008137187,0.020721978,-0.003178775,0.0022008733,0.44647336,-1.4639592,2.0014832,-2.1060517,-1.5716637,2.4211624,-0.026094021,0.11588463,-0.13727288,0.033233784,-0.017556675,-0.028165482,0.0,0.21068975,-9.308657,0.7105615,47.68599,-0.6070509,-1.7346447,-3.4498653,-0.07079535,-0.06988427,-0.16285294,25.75,26.5,25.625,28.4375,29.25,29.625
0.12205235,-0.5769223,-1.1253455,-0.96695924,-0.015563537,0.026863698,-0.11563843,-0.37640303,-0.32863954,0.060022473,-3.0775123,0.6242711,0.00012988034,-0.056862786,-0.007181977,0.00090108294,0.021243505,-0.0031361913,0.003303346,0.44643772,-1.4637547,2.0011823,-2.1059678,-1.5716876,2.421114,-0.025748841,0.11917254,-0.14134331,0.034202695,-0.018052595,-0.028919283,-0.038307227,0.24899697,-9.32781,0.8112748,47.70032,-0.7642005,-1.7248644,-3.454703,-0.078513905,-0.09300215,-0.18175286,25.75,26.5,25.625,28.4375,29.25,29.625
0.124052376,-0.7869015,-0.7997245,-1.0156684,-0.02308284,0.025528627,-0.11471926,-0.3765299,-0.32864046,0.06003039,-3.0774367,0.6242554,0.00012506817,-0.05798961,-0.007448566,0.0014277038,0.020905757,-0.0027920173,0.0034287462,0.4463654,-1.4635025,2.0008585,-2.1058471,-1.5717477,2.4210417,-0.026353393,0.120532356,-0.14434826,0.035387132,-0.017903106,-0.029647112,-0.095768064,0.34476504,-9.423578,0.76874626,47.71286,-0.6910205,-1.8200433,-3.3949878,-0.07481906,-0.092539385,-0.17503516,25.75,26.5,25.625,28.4375,29.25,29.625
0.12605166,-1.0858293,-1.1052762,-1.3222544,-0.030728163,0.027946718,-0.10244325,-0.3766472,-0.32866234,0.0600228,-3.0774138,0.62427014,0.00014747582,-0.059297703,-0.0070704115,0.0016942897,0.022048555,-0.0023808961,0.0030800034,0.44631708,-1.4632504,2.0005949,-2.1058352,-1.5717725,2.4210057,-0.027412185,0.122184746,-0.14708687,0.03659771,-0.019115668,-0.030352894,-0.1340753,0.36391866,-9.442732,0.7083204,47.65912,-0.6698787,-1.7234478,-3.3743467,-0.06973117,-0.08865261,-0.17317468,25.75,26.5,25.625,28.4375,29.25,29.625
0.1280519,-0.8699113,-1.2325066,-1.2375305,-0.049130976,0.041514788,-0.12193916,-0.3767468,-0.32866973,0.060019977,-3.0773396,0.6242544,0.00014398759,-0.05983332,-0.0073421793,0.002019543,0.022391347,-0.0023621842,0.0038276054,0.44628116,-1.4630225,2.0003307,-2.1057513,-1.5718321,2.4209697,-0.027161995,0.12323072,-0.14930971,0.037903685,-0.019437028,-0.030847596,-0.1340753,0.3256114,-9.481039,0.7933669,47.684196,-0.70382726,-1.6848228,-3.4232373,-0.076018415,-0.11321069,-0.21015087,25.75,26.5,25.625,28.4375,29.25,29.625
0.13005213,-0.96001476,-1.482811,-1.3363135,-0.05660681,0.048378624,-0.11622771,-0.37686166,-0.32869717,0.060027637,-3.0773115,0.6241532,0.00010579095,-0.060949787,-0.007630595,0.0020750072,0.021948585,-0.0026867078,0.002909601,0.4462449,-1.4627584,1.9999942,-2.1056306,-1.5718559,2.420874,-0.02797758,0.12547901,-0.15209524,0.038539376,-0.018903872,-0.030743778,-0.28730422,0.34476504,-9.461885,0.84484416,47.71286,-0.6904022,-1.6285253,-3.3945346,-0.08253001,-0.102558196,-0.22792089,25.75,26.5,25.625,28.4375,29.25,29.625
0.13205215,-1.3518807,-2.0643015,-1.4890515,-0.05930589,0.05398896,-0.11215027,-0.3769816,-0.32870546,0.060019776,-3.0772524,0.6241784,2.6313637e-05,-0.061723895,-0.0074702683,0.0019513064,0.022819528,-0.0032301366,0.0038111897,0.4461606,-1.462482,1.9996823,-2.1055229,-1.5718683,2.4208133,-0.028583826,0.12735909,-0.15415896,0.039587118,-0.019461824,-0.032247726,-0.3256114,0.40222588,-9.672575,0.76874626,47.72271,-0.6399144,-1.6225777,-3.4139967,-0.09227285,-0.10439482,-0.21248579,25.75,26.5,25.625,28.4375,29.25,29.625
0.13405214,-1.135502,-2.1074104,-1.4390708,-0.07007725,0.06806371,-0.11452746,-0.37711492,-0.32871586,0.06003801,-3.077208,0.6241871,9.5933276e-05,-0.061908774,-0.0070774993,0.00041543247,0.025385812,-0.006229745,0.0050909715,0.44610062,-1.4622527,1.9993709,-2.1054509,-1.5719289,2.4207647,-0.028784534,0.13156536,-0.15553543,0.040569127,-0.020485383,-0.033724755,-0.3256114,0.4405331,-9.595961,0.77545905,47.723602,-0.6614194,-1.8708271,-3.4796247,-0.08771551,-0.12382233,-0.21071178,25.75,26.5,25.625,28.4375,29.25,29.625
0.13605241,-1.3535317,-2.0179932,-1.4821032,-0.059308004,0.06441853,-0.11706267,-0.37722102,-0.32873067,0.06002854,-3.0771666,0.624024,6.677112e-05,-0.06361942,-0.0081253415,0.0015322198,0.024395896,-0.0036210062,0.005867785,0.44606477,-1.4619893,1.9990824,-2.105367,-1.5719765,2.4206326,-0.028192323,0.13304542,-0.1597519,0.040523294,-0.020729646,-0.0339049,-0.21068975,0.36391866,-9.576807,0.784413,47.698532,-0.67684,-1.7024657,-3.3129654,-0.087275356,-0.1306704,-0.22792804,25.75,26.5,25.625,28.4375,29.25,29.625
0.13805254,-1.4248284,-1.9188017,-1.4036044,-0.04964901,0.05420032,-0.105945475,-0.37736964,-0.32876155,0.06004779,-3.077157,0.62408006,0.00013262074,-0.06425293,-0.0084535545,0.0016826357,0.02395012,-0.0036067383,0.0047354396,0.44600496,-1.4617255,1.9987358,-2.1053188,-1.5720009,2.4206092,-0.028399032,0.13423745,-0.16153528,0.040907387,-0.02033528,-0.032979906,-0.22984336,0.36391866,-9.557653,0.77545905,47.707485,-0.741116,-1.6750318,-3.568742,-0.08175039,-0.12220162,-0.25766215,25.75,26.5,25.625,28.4375,29.25,29.625
0.14005257,-1.1234965,-1.5689491,-1.2999375,-0.040879402,0.05696118,-0.10462683,-0.37751856,-0.3287924,0.060074188,-3.0771732,0.6240831,0.0002270935,-0.06494491,-0.008383762,0.0008184421,0.02484956,-0.0052664466,0.0041167075,0.44594458,-1.4614844,1.9984006,-2.1052825,-1.5720247,2.420549,-0.029071793,0.13760169,-0.16339006,0.04128156,-0.020432977,-0.033033427,-0.21068975,0.38307226,-9.500193,0.8157518,47.698532,-0.7508638,-1.8095107,-3.4669447,-0.071914196,-0.14290638,-0.28476623,25.75,26.5,25.625,28.4375,29.25,29.625
0.14205256,-0.7585215,-1.0203034,-1.1972189,-0.029617818,0.039512735,-0.12078343,-0.37762964,-0.32880738,0.06005113,-3.0770862,0.6240071,0.00010884387,-0.066151716,-0.008677705,0.0008642858,0.024570674,-0.0058525475,0.0048584524,0.44589624,-1.4611602,1.9980649,-2.1051505,-1.57206,2.4204645,-0.029928075,0.14020957,-0.1666645,0.042350277,-0.01993959,-0.034628317,-0.22984336,0.30645782,-9.442732,0.800085,47.711964,-0.64989054,-1.8244572,-3.4350095,-0.070534855,-0.18526167,-0.2887277,25.75,26.5,25.625,28.4375,29.25,29.625
0.14405169,-0.6610256,-0.7823151,-1.1960887,-0.024650808,0.020931982,-0.10639207,-0.37777564,-0.32881302,0.060051993,-3.0770128,0.6240104,0.00014892165,-0.06749878,-0.009184806,0.0009740123,0.025178412,-0.0056558764,0.005156968,0.4458244,-1.4608713,1.9977273,-2.105079,-1.572133,2.4204044,-0.029745609,0.14334059,-0.1706234,0.043261,-0.02058115,-0.0347398,-0.22984336,0.3256114,-9.442732,0.7978386,47.72002,-0.7361077,-1.7998986,-3.31425,-0.082727306,-0.15412587,-0.2983234,25.75,26.5,25.625,28.4375,29.25,29.625
0.1460525,-0.25850058,-0.6561921,-1.0750604,-0.018211398,0.032941513,-0.11810618,-0.37792757,-0.32886449,0.060081284,-3.0770206,0.6239732,0.00021127933,-0.0676051,-0.008510608,-0.0005986272,0.028281594,-0.009969991,0.0056562535,0.4458002,-1.4605824,1.997321,-2.1049936,-1.5721573,2.4203563,-0.030459458,0.14784156,-0.17266914,0.04603638,-0.02151951,-0.03595015,-0.24899697,0.24899697,-9.423578,0.8314132,47.71554,-0.69558054,-1.92009,-3.4388273,-0.101400055,-0.1712785,-0.31354147,25.75,26.5,25.625,28.4375,29.25,29.625
0.14805265,-1.2462404,-0.9534705,-1.0594012,-0.010721841,0.015941488,-0.107878916,-0.37807715,-0.32886142,0.060096774,-3.0769694,0.624001,0.00024097477,-0.06736917,-0.008023298,-0.000415317,0.029741198,-0.01091027,0.0056495285,0.4456921,-1.4603312,1.9969858,-2.1048977,-1.572205,2.4202724,-0.030523952,0.1475018,-0.17330393,0.048487782,-0.022429759,-0.036005773,-0.17238252,0.24899697,-9.3661175,0.8247004,47.72002,-0.6989803,-1.8373082,-3.4144588,-0.1105202,-0.18714926,-0.3250527,25.75,26.5,25.625,28.4375,29.25,29.625
0.15005177,-1.1400671,-0.95507467,-0.849869,-0.020198425,0.028124169,-0.096706256,-0.37822476,-0.3288701,0.060089044,-3.0768871,0.62392724,0.00025970678,-0.068349734,-0.008405153,-0.00081445655,0.02943517,-0.011673192,0.0037316906,0.44563192,-1.4600067,1.9966253,-2.1048138,-1.5722889,2.420177,-0.031078415,0.15050665,-0.17576177,0.048493195,-0.021831572,-0.03464107,-0.15322891,0.22984336,-9.289503,0.800085,47.70659,-0.69545126,-1.912066,-3.5067024,-0.12675495,-0.1806257,-0.35504773,25.75,26.5,25.625,28.4375,29.25,29.625
0.15205182,-0.6794589,-0.5573378,-0.5353008,-0.040293213,0.041193027,-0.11668879,-0.37836158,-0.3288911,0.06009164,-3.0768583,0.6239585,0.00021099692,-0.06850488,-0.008860325,-0.0011851994,0.02968851,-0.0143724,0.0037354277,0.4455479,-1.4597185,1.9962782,-2.104717,-1.5722884,2.4201164,-0.03097689,0.15325774,-0.17859812,0.051118355,-0.020900173,-0.034543626,-0.19153613,0.28730422,-9.270349,0.7642693,47.71286,-0.70709485,-1.8977368,-3.454076,-0.1562208,-0.20658337,-0.39898142,25.75,26.5,25.625,28.4375,29.25,29.625
0.15405229,-0.95428663,-0.88174343,-0.58212525,-0.03058319,0.03292895,-0.107834026,-0.37851995,-0.32890242,0.06011489,-3.076798,0.62396413,0.0002785409,-0.06995793,-0.009062503,-0.00041111294,0.030498251,-0.013595728,0.005950135,0.44547585,-1.4594421,1.9958943,-2.1046088,-1.5723614,2.4200559,-0.031164382,0.15506215,-0.18289314,0.0532525,-0.021974511,-0.036940876,-0.15322891,0.24899697,-9.193734,0.86498255,47.701214,-0.755677,-1.8417172,-3.3451042,-0.17802247,-0.2312121,-0.37951583,25.75,26.5,25.625,28.4375,29.25,29.625
0.15605229,-0.28449354,-0.2994452,-0.6380939,-0.019808337,0.031149764,-0.114379816,-0.37864468,-0.3289301,0.060087033,-3.0767374,0.62393177,0.0001410871,-0.06975202,-0.008417451,-0.0011460024,0.032878723,-0.016732043,0.006654849,0.4454158,-1.4590824,1.9955348,-2.1044996,-1.5723618,2.4199836,-0.03163182,0.15711404,-0.18425278,0.056415606,-0.022774281,-0.03810828,-0.095768064,0.22984336,-9.097966,0.90750587,47.716442,-0.7810797,-1.6712935,-3.3696148,-0.22510901,-0.227314,-0.39663368,25.75,26.5,25.625,28.4375,29.25,29.625
0.15805227,-0.50037444,-0.6673165,-0.5621089,0.0015354131,0.0140835345,-0.10817418,-0.3787648,-0.32893196,0.060066,-3.0766342,0.62381375,9.880083e-05,-0.07073488,-0.009012219,-0.0018603692,0.03259974,-0.016125165,0.007777156,0.4453677,-1.4587697,1.9952124,-2.1043932,-1.5724458,2.4198754,-0.031375792,0.16025771,-0.18557648,0.053921945,-0.022798743,-0.03897045,-0.11492168,0.22984336,-9.040505,0.88960326,47.72808,-0.78037304,-1.7224741,-3.4091377,-0.21845013,-0.24842289,-0.41038144,25.75,26.5,25.625,28.4375,29.25,29.625
0.16005237,-0.28663978,-0.23580383,-0.35869038,-0.016226396,0.018694863,-0.11548632,-0.37893635,-0.32895443,0.06010119,-3.0766094,0.6238077,0.0001992313,-0.07143694,-0.00919084,-0.001937871,0.032975953,-0.01677978,0.008657697,0.44529572,-1.4584935,1.9948038,-2.1042964,-1.5725054,2.4198031,-0.03161104,0.16229516,-0.18794326,0.054998208,-0.02286106,-0.04008557,-0.038307227,0.28730422,-9.11712,0.800085,47.70838,-0.77604973,-1.7690889,-3.326818,-0.22778746,-0.24896108,-0.42565137,25.75,26.5,25.625,28.4375,29.25,29.625
0.16205245,-0.6456612,-0.96565485,-0.46513194,-0.015449359,0.012483961,-0.10405441,-0.37907457,-0.32898235,0.06009791,-3.07655,0.6237362,0.00014128143,-0.07228565,-0.010045945,-0.0017281323,0.03350272,-0.017413897,0.011301534,0.44524807,-1.4581568,1.994408,-2.1041644,-1.5725416,2.4197187,-0.03062242,0.16527784,-0.1922664,0.057132777,-0.023074377,-0.041736227,-0.019153614,0.28730422,-9.155427,0.8224646,47.71017,-0.84956396,-1.8077987,-3.3476481,-0.271681,-0.27342808,-0.4354509,25.75,26.5,25.625,28.4375,29.25,29.625
0.16405246,-0.903998,-1.0556594,-0.45199355,-0.028182076,0.01508895,-0.11082559,-0.37918437,-0.32901353,0.060079962,-3.0765,0.6237053,-6.069415e-06,-0.07354698,-0.009753775,-0.00033711022,0.0328082,-0.0149798365,0.012070035,0.4451997,-1.4578342,1.9940614,-2.1040323,-1.5725297,2.4196577,-0.03198971,0.16379236,-0.19402425,0.057876937,-0.023507033,-0.043867763,-0.038307227,0.36391866,-9.059659,0.78217715,47.701214,-0.8650967,-1.5012317,-3.3639894,-0.2854784,-0.27202946,-0.4410004,25.75,26.5,25.625,28.4375,29.25,29.625
0.16605262,-0.5241893,-1.1634693,-0.6370776,-0.036681686,0.027834924,-0.10914827,-0.37935898,-0.32901123,0.06008676,-3.0764122,0.6236849,5.5566346e-05,-0.07523658,-0.009795852,0.0003778439,0.03316684,-0.012500295,0.0145573225,0.4451036,-1.457511,1.9936656,-2.103937,-1.572626,2.4195604,-0.032457113,0.16488695,-0.19683854,0.057505578,-0.024913354,-0.04681591,-0.095768064,0.28730422,-9.097966,0.80679786,47.68062,-0.8000808,-1.4886163,-3.4377615,-0.3091591,-0.27500355,-0.4100352,25.75,26.5,25.625,28.4375,29.25,29.625
0.16805267,-0.4840955,-1.19627,-0.76712954,-0.036810484,0.029515523,-0.1128288,-0.37951395,-0.32904488,0.06009587,-3.0763693,0.6236172,1.1753928e-06,-0.075514,-0.010342241,1.159714e-05,0.033026893,-0.012740315,0.016625725,0.4450437,-1.4571624,1.9932226,-2.1037815,-1.5726503,2.419464,-0.0318176,0.16670685,-0.1979437,0.05694084,-0.024694046,-0.048242994,-0.076614454,0.24899697,-9.155427,0.83589023,47.698532,-0.9033693,-1.4964825,-3.4872532,-0.29479468,-0.29695362,-0.40781257,25.75,26.5,25.625,28.4375,29.25,29.625
0.17005177,-0.9911363,-1.4427435,-0.8194599,-0.03082401,0.02316715,-0.11365415,-0.37965477,-0.32905477,0.06007238,-3.076276,0.6236144,-9.917544e-05,-0.0768017,-0.011502044,0.00069259596,0.031827606,-0.0103673525,0.020637276,0.44496003,-1.4568022,1.9928497,-2.1036623,-1.5726861,2.419391,-0.030817067,0.16819933,-0.20095582,0.05579201,-0.024654383,-0.051249377,-0.11492168,0.32561144,-9.212888,0.9097417,47.70211,-0.99478406,-1.4422061,-3.4602678,-0.30736467,-0.3230898,-0.38580632,25.75,26.5,25.625,28.4375,29.25,29.625
0.1720519,-0.78771096,-0.8630139,-1.0171756,-0.0499762,0.032985415,-0.12020566,-0.3798049,-0.32909235,0.06008369,-3.0762558,0.6233589,-9.134349e-05,-0.07801804,-0.011727128,-0.0003252972,0.032056388,-0.010877484,0.022907292,0.44493583,-1.4564654,1.9924201,-2.1035311,-1.5727462,2.4192102,-0.031472065,0.17229943,-0.20285189,0.054136813,-0.024656773,-0.05417139,-0.076614454,0.4405331,-9.308657,0.90527004,47.66539,-1.059767,-1.6267598,-3.4653459,-0.3009764,-0.30801663,-0.35478553,25.75,26.5,25.625,28.4375,29.25,29.625
0.17405185,-1.0246178,-1.9360029,-1.3441075,-0.046098627,0.038420767,-0.10987713,-0.37995958,-0.32909974,0.060072254,-3.0761716,0.6233213,-0.0001240086,-0.07962606,-0.011735449,-0.0009046715,0.032235157,-0.0107485205,0.024359463,0.44485143,-1.4561172,1.9920353,-2.1034238,-1.5728062,2.4191134,-0.032714445,0.1758718,-0.2052748,0.05293733,-0.024892258,-0.056861293,0.0,0.38307226,-9.385271,0.90527004,47.69763,-0.9760711,-1.4741334,-3.5177808,-0.30330724,-0.33322638,-0.32832342,25.75,26.5,25.625,28.4375,29.25,29.625
0.17605226,-1.2664131,-2.0713074,-1.3594362,-0.072984174,0.037897892,-0.10902975,-0.3801125,-0.3291195,0.06008515,-3.076126,0.62319434,-0.00011521223,-0.08030177,-0.012308328,-0.0010345853,0.032287113,-0.010038707,0.027380297,0.4447917,-1.455805,1.991629,-2.1032922,-1.5728663,2.4189806,-0.03199023,0.17776942,-0.20693982,0.052077454,-0.025257887,-0.059154406,-0.11492168,0.34476504,-9.500193,0.87393653,47.70032,-1.0429678,-1.5289099,-3.522338,-0.28651252,-0.3576398,-0.28622866,25.75,26.5,25.625,28.4375,29.25,29.625
0.1780524,-1.5668197,-2.583566,-1.4729152,-0.068792656,0.036690697,-0.10292857,-0.38026878,-0.32913816,0.060061432,-3.076034,0.623059,-0.00014126304,-0.08259739,-0.012228349,-0.001479724,0.032718476,-0.008566786,0.02795736,0.44474313,-1.4554085,1.9912213,-2.1031973,-1.5729507,2.4188597,-0.033472914,0.18172894,-0.20989448,0.049922094,-0.026301835,-0.061205763,-0.11492168,0.34476504,-9.557653,0.86945957,47.686886,-1.0169604,-1.6850555,-3.5379994,-0.26577765,-0.35386592,-0.23380163,25.75,26.5,25.625,28.4375,29.25,29.625
0.1800523,-1.4946442,-1.8468692,-1.2405183,-0.0743635,0.037945777,-0.116127685,-0.38044006,-0.3291707,0.06007189,-3.0759978,0.62301195,-0.00010988265,-0.08453657,-0.012996301,-0.0015276482,0.032582838,-0.006608624,0.02981452,0.44468313,-1.4550599,1.9907883,-2.103102,-1.5729994,2.4187753,-0.033263255,0.18536434,-0.21345055,0.04801083,-0.027038872,-0.062847495,-0.15322891,0.45968673,-9.557653,0.8560339,47.7254,-1.0094912,-1.7959726,-3.4765096,-0.23317122,-0.35068935,-0.20120451,25.75,26.5,25.625,28.4375,29.25,29.625
0.18205224,-1.1944556,-1.5329616,-1.4320168,-0.06750334,0.047349323,-0.11188428,-0.38060433,-0.32920465,0.060070172,-3.0759993,0.6228966,-0.0001574113,-0.08549815,-0.013855061,-0.0013561952,0.03230356,-0.005448961,0.030854631,0.44459957,-1.4546998,1.9903702,-2.103007,-1.5729994,2.4186199,-0.03232952,0.18744501,-0.21607988,0.047390938,-0.027296774,-0.06295013,-0.05746084,0.4405331,-9.5385,0.86945957,47.70659,-1.1296144,-1.7745571,-3.4062436,-0.22354506,-0.38636377,-0.16438413,25.75,26.5,25.625,28.4375,29.25,29.625
0.18405232,-1.0168378,-1.4827824,-1.5218314,-0.046926413,0.04604199,-0.11581052,-0.3807881,-0.3292391,0.060057826,-3.075947,0.622809,-0.00014744238,-0.08711786,-0.0141829215,-0.0015437392,0.03138641,-0.0033045295,0.030224686,0.44453943,-1.4542798,1.9899153,-2.102936,-1.573059,2.418512,-0.033069883,0.18962027,-0.2174258,0.044225976,-0.027404714,-0.063057415,-0.11492168,0.47884035,-9.634268,0.90527004,47.711964,-1.3314534,-1.7760744,-3.5917332,-0.16947944,-0.3900004,-0.15223013,25.75,26.5,25.625,28.4375,29.25,29.625
0.18605252,-1.1644793,-1.4678855,-1.3966439,-0.0543073,0.04897244,-0.11365146,-0.38094878,-0.32926175,0.06005255,-3.0758805,0.622642,-0.00010310842,-0.08856208,-0.013307378,-0.0023679829,0.032280233,-0.0041942173,0.026678897,0.44450247,-1.4539194,1.9895076,-2.102852,-1.5731553,2.4183798,-0.035678748,0.19265988,-0.21889415,0.043839302,-0.027834136,-0.06211671,-0.24899697,0.5363012,-9.595961,0.8224646,47.69763,-1.1831551,-1.7814525,-3.6230886,-0.109830596,-0.40517923,-0.13571078,25.75,26.5,25.625,28.4375,29.25,29.625
0.18805286,-1.0798455,-1.6962401,-1.5149145,-0.053929348,0.046392526,-0.115159824,-0.38116136,-0.32929444,0.06008342,-3.0758815,0.6225857,-1.3186985e-07,-0.08897301,-0.012859798,-0.0029841699,0.03381134,-0.005841559,0.024616227,0.44440624,-1.4535596,1.9890174,-2.1027682,-1.5732039,2.4182487,-0.036397967,0.19489415,-0.22034162,0.04519851,-0.028504428,-0.060771525,-0.28730422,0.34476507,-9.615114,0.84708,47.685097,-1.1213359,-1.7949127,-3.7658982,-0.121146396,-0.42720336,-0.14002249,25.75,26.5,25.625,28.4375,29.25,29.625
0.19005206,-1.0577369,-1.5840733,-1.2310734,-0.061508633,0.05061712,-0.11745075,-0.38132155,-0.32932833,0.060062952,-3.0758417,0.6224814,-9.624606e-05,-0.09011503,-0.012895557,-0.0018672987,0.03502734,-0.0047447165,0.02359631,0.4443343,-1.4531517,1.9885854,-2.1026595,-1.5732158,2.418117,-0.036273,0.1954785,-0.22428052,0.04809153,-0.03007987,-0.0596172,-0.34476504,0.24899697,-9.595961,0.85155696,47.69763,-1.1718901,-1.7178874,-3.685292,-0.11310957,-0.41247928,-0.14396495,25.75,26.5,25.625,28.4375,29.25,29.625
0.19205216,-1.2992599,-1.3623474,-1.0989538,-0.051000264,0.050220255,-0.114928305,-0.38152775,-0.32936212,0.060082667,-3.0758176,0.62238187,8.755188e-07,-0.09133607,-0.012420334,-0.0012577294,0.036524165,-0.003508744,0.021185597,0.4442621,-1.4527684,1.9880942,-2.102575,-1.5732888,2.4179862,-0.03695806,0.19616345,-0.22682133,0.049479872,-0.031961333,-0.057884548,-0.59376204,0.2681506,-9.423578,0.8918391,47.684196,-1.211937,-1.8082843,-3.6523194,-0.10397296,-0.40617105,-0.14932775,25.75,26.5,25.625,28.4375,29.25,29.625
0.19405225,-1.2114363,-0.49130273,-0.98841345,-0.034224987,0.05639646,-0.11907322,-0.38168544,-0.32937077,0.060063604,-3.075718,0.622381,-4.8408554e-05,-0.093773834,-0.012665985,-0.0006597931,0.035820197,-0.0001866111,0.019040111,0.44417778,-1.4523957,1.9876984,-2.1024683,-1.5733489,2.4179144,-0.038104676,0.19817798,-0.23002304,0.047364425,-0.03276924,-0.056877557,-0.4213795,0.24899697,-9.3661175,0.85155696,47.707485,-1.1392485,-1.7444897,-3.6056914,-0.05279977,-0.4062862,-0.15240459,25.75,26.5,25.625,28.4375,29.25,29.625
0.19605243,-1.1856676,-0.20705032,-0.9691999,-0.0058375574,0.05190724,-0.11567012,-0.38189018,-0.32940444,0.060062405,-3.0756955,0.6222818,4.869314e-05,-0.095038824,-0.0136075625,0.00072966196,0.03453888,0.0014426361,0.0141569795,0.4441058,-1.4519887,1.9872421,-2.1024435,-1.5734204,2.4177837,-0.037763737,0.19866674,-0.23421165,0.049049594,-0.03230598,-0.051654097,-0.36391866,0.095768064,-9.442732,0.90750587,47.703903,-1.1627535,-1.6719416,-3.5348854,-0.018159809,-0.42492414,-0.19823635,25.75,26.5,25.625,28.4375,29.25,29.625
0.19805266,-1.594173,0.010695541,-0.8904106,0.007257183,0.042426586,-0.114825085,-0.3820828,-0.32945758,0.060089607,-3.0756917,0.62233955,6.3329804e-05,-0.09689023,-0.013784651,0.0018941562,0.034275293,0.00298157,0.0117230425,0.44403338,-1.4516175,1.9867386,-2.1023233,-1.5734209,2.4177482,-0.038767353,0.19980465,-0.23861925,0.050819736,-0.032731794,-0.050220575,-0.38307226,0.095768064,-9.346964,0.8247004,47.711063,-1.1959565,-1.4867394,-3.4935856,0.006661799,-0.43634474,-0.24612194,25.75,26.5,25.625,28.4375,29.25,29.625
0.20005172,-1.1201848,0.41221192,-0.92536086,0.01299548,0.05320625,-0.114205636,-0.3822882,-0.3294475,0.060076665,-3.0755522,0.62217724,0.00011900246,-0.09773231,-0.012539822,0.0014855794,0.037936013,0.0022563976,0.00980759,0.44393703,-1.4511853,1.9862593,-2.1022031,-1.5735782,2.417569,-0.0397939,0.20182234,-0.2404736,0.052886173,-0.035728384,-0.049317665,-0.4213795,0.038307227,-9.346964,0.9164598,47.71554,-1.1326387,-1.4241215,-3.4110932,-0.008074336,-0.422938,-0.26476634,25.75,26.5,25.625,28.4375,29.25,29.625
0.20205182,-1.6737372,0.34561056,-1.1800706,0.030970192,0.036635622,-0.11123474,-0.38246304,-0.32950327,0.0600886,-3.0755382,0.6221148,0.0001254411,-0.098729186,-0.0123175075,0.0020811812,0.039635032,0.0031568096,0.011639387,0.44390118,-1.450802,1.9857796,-2.1020944,-1.5736026,2.4174962,-0.039785214,0.20274556,-0.24336337,0.05476826,-0.03765648,-0.05113213,-0.4213795,-0.095768064,-9.423578,0.8247004,47.70032,-1.1856792,-1.4303966,-3.436447,-0.0019029855,-0.40894628,-0.24679051,25.75,26.5,25.625,28.4375,29.25,29.625
0.20405227,-1.712085,0.25465083,-1.0167403,0.01200793,0.048030537,-0.1159258,-0.382653,-0.32951608,0.060072847,-3.075445,0.622097,0.000114989256,-0.099783935,-0.011507012,0.0016987354,0.042768992,0.0016320525,0.009181766,0.4438048,-1.4503816,1.9853247,-2.1019976,-1.5736755,2.417401,-0.040741343,0.20587836,-0.24672967,0.057729825,-0.03983377,-0.049618702,-0.2681506,-0.038307227,-9.519346,0.93436235,47.701214,-1.2079258,-1.4707505,-3.3815465,-0.019999152,-0.38392925,-0.26539055,25.75,26.5,25.625,28.4375,29.25,29.625
0.20605244,-1.4700414,-0.049881373,-1.0370265,-0.0050516934,0.0555041,-0.11503262,-0.38285807,-0.3295232,0.060079116,-3.0753312,0.6220734,0.00015381422,-0.10058937,-0.010529136,0.00069836795,0.04654708,-0.0008215791,0.008391989,0.44370842,-1.4499726,1.9848212,-2.1018531,-1.5737842,2.417305,-0.041661464,0.20983136,-0.24953027,0.060414407,-0.04219698,-0.04973678,-0.34476504,0.05746084,-9.500193,0.89631605,47.704796,-1.1543294,-1.5833416,-3.4371557,-0.012357379,-0.35256577,-0.28241372,25.75,26.5,25.625,28.4375,29.25,29.625
0.20805262,-1.2763635,-0.18160728,-0.9950195,-0.016038138,0.0618791,-0.12286444,-0.3830548,-0.3295288,0.06007701,-3.075212,0.6220658,0.00012333527,-0.09997461,-0.009835352,-0.00070511136,0.048643213,-0.005881253,0.009642293,0.44360018,-1.4495529,1.9843191,-2.1016843,-1.5738682,2.4172077,-0.042549137,0.21270701,-0.2503849,0.06384627,-0.041924335,-0.051872306,-0.38307226,0.11492168,-9.500193,0.85826975,47.69763,-1.1416413,-1.6500249,-3.4434786,-0.040092856,-0.33137614,-0.29207838,25.75,26.5,25.625,28.4375,29.25,29.625
0.21005192,-1.1932695,-0.021836514,-0.7840526,-0.04583269,0.069085814,-0.12687194,-0.38327098,-0.32955217,0.06008137,-3.0751472,0.621956,0.00019473498,-0.09966394,-0.008933864,-0.0013079525,0.05238741,-0.0091133835,0.011072517,0.4435162,-1.4491209,1.9838046,-2.101587,-1.573965,2.417064,-0.0425839,0.21464056,-0.25225264,0.068300396,-0.043919653,-0.053328887,-0.4213795,0.19153613,-9.481039,0.81351066,47.70659,-1.1626477,-1.6415217,-3.534232,-0.066806346,-0.31802726,-0.2900691,25.75,26.5,25.625,28.4375,29.25,29.625
0.212052,-1.6140044,-0.6598845,-0.9433869,-0.031043015,0.055590127,-0.11547341,-0.38345712,-0.3295697,0.060080726,-3.0750508,0.62191594,0.00016794766,-0.09919688,-0.007552399,-0.0025005615,0.056182005,-0.012803374,0.010623752,0.44343185,-1.4487126,1.9833144,-2.1014302,-1.5740374,2.4169674,-0.043469824,0.21658841,-0.25251257,0.07157136,-0.04576489,-0.053755987,-0.3256114,0.19153613,-9.385271,0.86498255,47.679718,-1.1167917,-1.6581061,-3.753209,-0.11078338,-0.2838881,-0.29879892,25.75,26.5,25.625,28.4375,29.25,29.625
0.21405202,-1.4627364,-0.83093405,-1.2568647,-0.01795076,0.036629662,-0.11372,-0.3836795,-0.32960466,0.06009488,-3.0749629,0.62184066,0.00023658942,-0.099843405,-0.006774908,-0.0021683394,0.058093708,-0.013697943,0.009192589,0.4433715,-1.4482569,1.9827398,-2.1012857,-1.5741457,2.4168718,-0.04455621,0.21731427,-0.2549207,0.07487943,-0.047108285,-0.053404246,-0.2681506,0.24899697,-9.442732,0.85826975,47.691364,-1.0657389,-1.7115518,-3.7885315,-0.1569896,-0.2462127,-0.31070244,25.75,26.5,25.625,28.4375,29.25,29.625
0.21605222,-1.5088947,-1.2373582,-0.8222579,-0.020594176,0.026666755,-0.11431616,-0.38384724,-0.3295939,0.060078025,-3.074805,0.6217891,0.0001730934,-0.10106077,-0.0066581434,-0.0019239607,0.05947005,-0.014137825,0.008154484,0.44327542,-1.4478612,1.9822954,-2.1011055,-1.5742544,2.4167643,-0.045110002,0.2197087,-0.2587878,0.07733527,-0.048174944,-0.05290762,-0.30645782,0.30645782,-9.32781,0.87617236,47.70211,-1.0739584,-1.6337485,-3.7249136,-0.19712825,-0.22769591,-0.35221592,25.75,26.5,25.625,28.4375,29.25,29.625
0.21805255,-0.80435497,-1.0018797,-0.98644334,-0.031843215,0.025996871,-0.11603699,-0.3840687,-0.3296155,0.060085826,-3.0747006,0.62172675,0.00021218373,-0.10125863,-0.0062118527,-0.002849111,0.06089858,-0.016792912,0.009638574,0.44319102,-1.4474052,1.9817322,-2.1009495,-1.5743622,2.4166548,-0.045967877,0.22237173,-0.2601122,0.0789898,-0.048338078,-0.05524604,-0.24899697,0.30645782,-9.193734,0.94331104,47.699425,-1.0671093,-1.5185091,-3.7420523,-0.23801988,-0.19630021,-0.34175634,25.75,26.5,25.625,28.4375,29.25,29.625
0.22005172,-0.38758394,-1.1405511,-1.1752299,-0.024329389,0.01556911,-0.11406368,-0.38427386,-0.3296249,0.060083907,-3.074592,0.621704,0.00019796797,-0.10280204,-0.006529735,-0.0022785035,0.06091052,-0.015689347,0.009861724,0.44308305,-1.4469731,1.9812177,-2.1007936,-1.5744466,2.416547,-0.046374407,0.22427413,-0.26381573,0.07978866,-0.04883838,-0.055868097,-0.21068975,0.2681506,-9.3661175,0.78888994,47.66091,-1.0879339,-1.5515532,-3.6223667,-0.25690895,-0.14807534,-0.3522488,25.75,26.5,25.625,28.4375,29.25,29.625
0.22205165,-1.0323484,-1.8541998,-0.845466,-0.04034406,0.0030735077,-0.10689415,-0.38449407,-0.32963732,0.060083438,-3.0744865,0.62154835,0.00025764434,-0.10317931,-0.0063865115,-0.002950039,0.062353477,-0.01870593,0.008304025,0.4429988,-1.4465168,1.980678,-2.10066,-1.5745782,2.4163797,-0.04693017,0.22754075,-0.2666945,0.08273746,-0.048851803,-0.054862484,-0.2681506,0.30645782,-9.193734,0.86945957,47.67345,-1.0622618,-1.5354124,-3.5399113,-0.29730073,-0.12624738,-0.38576654,25.75,26.5,25.625,28.4375,29.25,29.625
0.22405182,-0.7187515,-1.7080286,-0.6465484,-0.0658503,0.022930592,-0.113693655,-0.3846824,-0.32963207,0.060069524,-3.0743167,0.62158805,0.00014313545,-0.10712951,-0.008130629,-0.0006259956,0.058051128,-0.012078462,0.010333972,0.4428785,-1.446073,1.980162,-2.1004345,-1.5746621,2.4163065,-0.047820263,0.22913383,-0.273241,0.0798331,-0.047847666,-0.057775203,-0.11492168,0.34476504,-9.155427,0.8873621,47.666286,-0.9880663,-1.563262,-3.3762212,-0.3121537,-0.09937531,-0.3595159,25.75,26.5,25.625,28.4375,29.25,29.625
0.22605203,-0.07283408,-1.494545,-0.6855493,-0.061312214,0.0329545,-0.11633614,-0.38490924,-0.32965842,0.06007669,-3.0742285,0.62154764,0.00016047605,-0.10947339,-0.009417437,0.0003830706,0.054957725,-0.009334317,0.014496686,0.44278225,-1.4456054,1.9795865,-2.100279,-1.5747455,2.4161968,-0.04852277,0.23121804,-0.27764994,0.07831744,-0.04626209,-0.06264245,-0.095768064,0.38307226,-9.251195,0.91198283,47.66271,-1.0280844,-1.5182097,-3.2828488,-0.28749254,-0.11434435,-0.32971507,25.75,26.5,25.625,28.4375,29.25,29.625
0.22805238,-0.6757157,-1.8569642,-0.84743017,-0.05069699,0.027351292,-0.11187715,-0.3851245,-0.32969007,0.06007822,-3.0741568,0.62143564,0.00015056148,-0.10989363,-0.01017827,0.00020359628,0.052752554,-0.009797875,0.0148273455,0.44269824,-1.4451374,1.9790233,-2.1001236,-1.5748171,2.4160526,-0.048896324,0.23255068,-0.27863798,0.07742788,-0.044083737,-0.06335307,-0.21068975,0.47884035,-9.385271,0.8023209,47.658226,-1.0126336,-1.5604403,-3.3592157,-0.3183857,-0.08950856,-0.30419436,25.75,26.5,25.625,28.4375,29.25,29.625
0.23005246,-0.93406606,-1.6879677,-0.75877315,-0.069304556,0.039640713,-0.12253625,-0.38533786,-0.3297057,0.060076263,-3.0740619,0.6213196,0.0001525329,-0.11173507,-0.011362001,0.0012168125,0.04853186,-0.005229085,0.01550145,0.44260186,-1.444683,1.9784836,-2.09997,-1.574912,2.4158964,-0.04950763,0.2323118,-0.27975306,0.0728232,-0.04225088,-0.06464252,-0.19153613,0.51714754,-9.308657,0.86498255,47.692257,-0.96264434,-1.3919911,-3.3668723,-0.255181,-0.10325338,-0.31954607,25.75,26.5,25.625,28.4375,29.25,29.625
0.23205249,-1.2778238,-2.0559583,-0.6173948,-0.08063914,0.056653816,-0.1164977,-0.38556284,-0.32971397,0.060053118,-3.0739274,0.621269,0.00010175192,-0.11191815,-0.012399663,0.0010329287,0.045978144,-0.005313386,0.019732919,0.4424821,-1.4441665,1.9779223,-2.0998147,-1.5750073,2.415763,-0.049245033,0.23332222,-0.28022325,0.07122851,-0.039934814,-0.068617225,-0.095768064,0.45968673,-9.3661175,0.8717007,47.73256,-1.0178955,-1.3984871,-3.5156698,-0.24523748,-0.11710864,-0.26831752,25.75,26.5,25.625,28.4375,29.25,29.625
0.2340524,-1.2742867,-2.0481367,-0.7256427,-0.08180809,0.059940923,-0.11107455,-0.38578534,-0.3297289,0.06005865,-3.0738273,0.6212288,0.00015828534,-0.114142634,-0.012193304,0.0016026533,0.043447927,-0.0027059573,0.019698635,0.4423851,-1.4437243,1.977384,-2.099684,-1.5751151,2.4156542,-0.05229652,0.23386103,-0.28164852,0.0686463,-0.038788047,-0.071637325,-0.2681506,0.36391866,-9.308656,0.77545905,47.70211,-0.9012271,-1.2952682,-3.7041254,-0.20621425,-0.12503089,-0.22368194,25.75,26.5,25.625,28.4375,29.25,29.625
0.23605262,-0.76714283,-1.6419667,-0.8348509,-0.06791743,0.069746025,-0.12188576,-0.3860008,-0.32977548,0.06005681,-3.073816,0.62112784,0.00011945513,-0.11552357,-0.013129564,-0.00043299372,0.043133788,-0.00440907,0.022499077,0.44228896,-1.4432544,1.9768337,-2.0995657,-1.5751265,2.4154968,-0.05239852,0.24089764,-0.28432024,0.06566492,-0.037802167,-0.074540034,-0.11492168,0.3256114,-9.308656,0.82694155,47.695843,-0.8275622,-1.4165623,-3.782429,-0.1568659,-0.13074303,-0.18287596,25.75,26.5,25.625,28.4375,29.25,29.625
0.23805283,-1.114184,-1.6280692,-1.0118988,-0.03688844,0.04045454,-0.11305237,-0.38625872,-0.32978413,0.06005147,-3.0737278,0.62101096,0.00020007051,-0.11672543,-0.014957887,-0.0011245317,0.042134896,-0.0041628275,0.026305757,0.4421577,-1.4427495,1.9762577,-2.0994704,-1.5752467,2.4153044,-0.050549738,0.2460308,-0.28817824,0.06371405,-0.037028752,-0.076497704,-0.1340753,0.30645782,-9.270349,0.9298854,47.693153,-0.9730681,-1.6250188,-3.683383,-0.11569628,-0.1429384,-0.13921453,25.75,26.5,25.625,28.4375,29.25,29.625
0.24005204,-0.8984079,-1.0814414,-0.8437373,-0.029154012,0.030573819,-0.1091484,-0.38649002,-0.32982302,0.06004454,-3.0736735,0.6208841,0.00021800514,-0.1185599,-0.015236696,-0.0008175581,0.040164713,-0.0033266456,0.025898188,0.44207302,-1.4422457,1.9756831,-2.0993621,-1.5753177,2.415148,-0.052532956,0.24797851,-0.29103142,0.06299981,-0.03562353,-0.07807709,-0.15322891,0.34476504,-9.251195,0.86945957,47.686886,-0.9549631,-1.6733212,-3.6157513,-0.07078466,-0.15814605,-0.090123534,25.75,26.5,25.625,28.4375,29.25,29.625
0.24205214,-0.5337702,-0.49315572,-1.039186,-0.019767135,0.016383559,-0.11204275,-0.38675183,-0.32985866,0.060053915,-3.0736334,0.62089604,0.0002620078,-0.12066623,-0.015413233,-7.851613e-05,0.03901463,-0.0020726759,0.023941956,0.4419403,-1.4417423,1.9750713,-2.0992548,-1.5753654,2.4150283,-0.05432466,0.24985969,-0.295081,0.06353355,-0.035129808,-0.077912904,-0.21068975,0.34476504,-9.155427,0.82694155,47.682407,-0.8885466,-1.7072256,-3.7051623,-0.03651814,-0.16809517,-0.07733537,25.75,26.5,25.625,28.4375,29.25,29.625
0.24405226,-0.94657093,-1.1200237,-1.1076168,-0.0037553222,-0.0042366902,-0.105015256,-0.38697502,-0.32991058,0.060053807,-3.073588,0.62073326,0.0002558042,-0.12322769,-0.015943466,0.0014538385,0.0380337,0.0004678705,0.020995025,0.44187996,-1.4412376,1.9744714,-2.0991108,-1.575426,2.4148726,-0.055418406,0.25151414,-0.30089954,0.064984724,-0.035337295,-0.07605418,-0.3256114,0.38307226,-9.308657,0.84708,47.70838,-0.7391337,-1.8408427,-3.4931092,0.017310772,-0.17681105,-0.05403649,25.75,26.5,25.625,28.4375,29.25,29.625
0.24605241,-0.8523932,-0.96528816,-1.1447092,-0.036306165,0.015199854,-0.113765195,-0.3872119,-0.3299179,0.06003165,-3.07346,0.6206873,0.0002208454,-0.12123631,-0.016110176,0.0003678493,0.040949754,-0.0044329516,0.021109411,0.44174904,-1.4407109,1.9738969,-2.098965,-1.5755218,2.41473,-0.05296627,0.25313172,-0.30137795,0.06952444,-0.035870187,-0.07371112,-0.38307226,0.45968673,-9.3661175,0.8179876,47.737038,-0.9911287,-1.5925813,-3.5305314,-0.011609487,-0.17123085,-0.063986406,25.75,26.5,25.625,28.4375,29.25,29.625
0.24805261,-1.1619074,-1.617391,-1.1373962,-0.047998022,0.035836726,-0.11484404,-0.38742116,-0.3299566,0.060017787,-3.0733728,0.6204796,0.000109074994,-0.12268336,-0.01602368,0.00023007214,0.04084522,-0.004988612,0.016881505,0.44167632,-1.4401832,1.973286,-2.0987494,-1.5755819,2.4145393,-0.054568417,0.2558721,-0.30445367,0.070322536,-0.035544705,-0.071080655,-0.40222588,0.47884035,-9.346964,0.82022345,47.728977,-0.91289973,-1.6825461,-3.5869532,0.0006995465,-0.18692173,-0.08125677,25.75,26.5,25.625,28.4375,29.25,29.625
0.25005177,-2.0338466,-2.5794358,-1.279928,-0.06762377,0.05158766,-0.09933353,-0.3876853,-0.32997584,0.060008224,-3.0732799,0.62044126,0.00014996933,-0.12395751,-0.015633173,0.000539182,0.041267175,-0.0047525126,0.012813686,0.44154397,-1.4396434,1.9726757,-2.0986412,-1.5756782,2.4143956,-0.056025118,0.25715795,-0.3070206,0.07157424,-0.036025714,-0.068464674,-0.51714754,0.45968673,-9.3661175,0.87393653,47.721813,-0.8495039,-1.6111097,-3.6213927,-0.009209702,-0.20154092,-0.09392367,25.75,26.5,25.625,28.4375,29.25,29.625
0.2520518,-2.3122554,-3.0777268,-1.3218856,-0.07366613,0.072006494,-0.1006983,-0.3879164,-0.33000326,0.0599933,-3.0731778,0.62045974,7.0183305e-05,-0.12406798,-0.015283334,0.00013806798,0.04416442,-0.007840711,0.010697012,0.44142383,-1.4391156,1.9720773,-2.0984724,-1.5757264,2.4143007,-0.055858705,0.25994927,-0.3104175,0.07621888,-0.037323266,-0.06617027,-0.45968673,0.38307226,-9.404425,0.91421866,47.698532,-0.8781935,-1.6858361,-3.5641508,-0.015932478,-0.18391943,-0.11682914,25.75,26.5,25.625,28.4375,29.25,29.625
0.25405177,-2.247689,-2.5912967,-0.9670593,-0.085700676,0.0829466,-0.104271285,-0.3881553,-0.33003026,0.059967194,-3.0730832,0.6203637,-1.24835115e-05,-0.1244331,-0.01539818,0.000108716464,0.043154005,-0.008009778,0.008019125,0.4413037,-1.4385521,1.9714669,-2.098317,-1.575786,2.4141333,-0.0565603,0.26040846,-0.31096575,0.07602772,-0.036341727,-0.0641951,-0.47884035,0.36391866,-9.423578,0.9321212,47.71465,-0.80158997,-1.7074368,-3.6553712,-0.01985507,-0.21001817,-0.14694896,25.75,26.5,25.625,28.4375,29.25,29.625
0.25605214,-1.9334042,-1.7133197,-0.7905006,-0.071378276,0.08487028,-0.11308014,-0.38844657,-0.33009082,0.060006615,-3.0730739,0.6203433,0.00014298645,-0.12512244,-0.015984513,0.0008430444,0.04175216,-0.008257119,0.0062698596,0.4412075,-1.438037,1.9707712,-2.0982082,-1.5758575,2.414026,-0.056939386,0.2610081,-0.31389606,0.07797768,-0.03496297,-0.06283389,-0.51714754,0.2681506,-9.32781,0.85155696,47.695843,-0.77303326,-1.5227816,-3.636724,-0.008309368,-0.23742807,-0.16734608,25.75,26.5,25.625,28.4375,29.25,29.625
0.25805268,-0.93557394,-0.030909594,-0.9569718,-0.03272231,0.07235133,-0.12577836,-0.38868982,-0.33010182,0.05997046,-3.072941,0.6204891,2.1233971e-05,-0.12507552,-0.015301894,-0.00011086167,0.043311104,-0.012301353,0.0035151627,0.44103914,-1.4374732,1.9701852,-2.0980637,-1.5758938,2.4139664,-0.058294415,0.26360893,-0.3155453,0.081347175,-0.034648646,-0.061431423,-0.38307226,0.19153613,-9.346964,0.800085,47.70032,-0.8179206,-1.5688038,-3.6193476,-0.0010317203,-0.24810377,-0.20406616,25.75,26.5,25.625,28.4375,29.25,29.625
0.2600518,-0.72219616,0.7417673,-1.0222634,0.016521007,0.033935808,-0.1199102,-0.38893923,-0.3301551,0.059972253,-3.0728796,0.62024665,7.3418916e-05,-0.12690592,-0.014795052,0.00045286978,0.04442031,-0.012893842,0.00043036992,0.44099042,-1.4369215,1.9695257,-2.0979183,-1.576002,2.4137747,-0.0602834,0.2660108,-0.32048059,0.084890366,-0.03540073,-0.060328286,-0.2681506,0.15322891,-9.32781,0.8247004,47.682407,-0.6147711,-1.725112,-3.6147366,-0.014884168,-0.26391232,-0.23135757,25.75,26.5,25.625,28.4375,29.25,29.625
0.26205182,0.19137387,1.4645067,-0.887576,0.04707646,0.028577982,-0.12536088,-0.38920763,-0.33018738,0.05997981,-3.0728164,0.6202883,8.292883e-05,-0.12662119,-0.015726319,2.9351053e-05,0.046061713,-0.016052462,0.004452078,0.44084728,-1.4363931,1.9688791,-2.0977733,-1.5760502,2.4136662,-0.05817053,0.26952302,-0.32452744,0.08896432,-0.03555044,-0.062233906,-0.38307226,-0.05746084,-9.232041,0.79560274,47.684196,-0.8103218,-1.7307789,-3.5393286,-0.04390461,-0.2784746,-0.2352103,25.75,26.5,25.625,28.4375,29.25,29.625
0.264052,-0.3500893,1.4142833,-1.1650392,0.07454594,-0.004370536,-0.11323082,-0.38946298,-0.33020207,0.059961848,-3.0726879,0.62024367,4.64176e-05,-0.12593426,-0.014141298,-0.0020072723,0.050206415,-0.022754878,0.0010654525,0.4407147,-1.4358289,1.9682449,-2.0976045,-1.576146,2.413523,-0.059839025,0.27337638,-0.32545835,0.09387427,-0.03643436,-0.060507596,-0.24899697,-0.019153614,-9.32781,0.8851263,47.64927,-0.63279736,-1.7460641,-3.456423,-0.09470071,-0.3002308,-0.27611792,25.75,26.5,25.625,28.4375,29.25,29.625
0.26605225,0.2365072,1.1455609,-1.288027,0.04890157,0.015233515,-0.11603539,-0.38970926,-0.33022064,0.05994,-3.0725417,0.62027204,-5.6840894e-05,-0.12630191,-0.012825084,-0.002338065,0.053059552,-0.026681041,-0.0021092817,0.44058186,-1.4352533,1.9675978,-2.0973985,-1.5762185,2.4134274,-0.061914124,0.2754522,-0.32847467,0.09958328,-0.03734315,-0.0593975,-0.28730422,0.019153614,-9.3661175,0.90750587,47.70211,-0.5822105,-1.9307107,-3.5855558,-0.16915268,-0.29334515,-0.3150186,25.75,26.5,25.625,28.4375,29.25,29.625
0.2680525,-0.27307153,0.04417653,-1.0924995,0.010109305,0.0240657,-0.11659415,-0.38996366,-0.3302551,0.059933946,-3.0724332,0.620131,-9.181613e-05,-0.12566386,-0.013764829,-0.0019350138,0.053750493,-0.029409392,0.0011689914,0.44048655,-1.4346778,1.966915,-2.0971935,-1.5763143,2.4132586,-0.059936117,0.27668506,-0.3320971,0.104716904,-0.036816772,-0.060696602,-0.17238252,-0.095768064,-9.251195,0.9634547,47.685097,-0.55369496,-1.8400519,-3.52521,-0.24548596,-0.31293404,-0.3465852,25.75,26.5,25.625,28.4375,29.25,29.625
0.2700526,-0.8121142,-1.1966965,-0.83492905,-0.024854554,0.03981364,-0.116923146,-0.39022475,-0.3302725,0.059931315,-3.0722728,0.6202125,-0.00013985144,-0.12653048,-0.013749923,-0.0020441213,0.05547317,-0.030569823,0.0015718782,0.44035465,-1.4341139,1.9662317,-2.0969656,-1.5764107,2.413199,-0.05994878,0.27953434,-0.33580145,0.107347034,-0.037897404,-0.06110026,-0.095768064,0.0,-9.212888,0.8112748,47.705692,-0.6656849,-1.9672158,-3.500411,-0.31523436,-0.34367597,-0.34583783,25.75,26.5,25.625,28.4375,29.25,29.625
0.27205184,-1.0328591,-1.5968828,-1.2161634,-0.035785493,0.040183876,-0.10794309,-0.39047334,-0.3303031,0.059942447,-3.072159,0.6201325,-0.0002530241,-0.12772173,-0.012949698,-0.0025400203,0.057249162,-0.029383825,-0.0022353798,0.44023433,-1.4335623,1.9655145,-2.0966666,-1.5764712,2.413044,-0.06099901,0.28127554,-0.33645204,0.1059563,-0.040015806,-0.058324635,-0.13407528,0.0,-9.270349,0.8627467,47.684196,-0.6412895,-1.9377654,-3.4877968,-0.325068,-0.3224916,-0.42411542,25.75,26.5,25.625,28.4375,29.25,29.625
0.27405193,-0.8392496,-1.349387,-1.2002648,-0.04955704,0.050902553,-0.11421984,-0.3907339,-0.33031788,0.059920955,-3.0720243,0.6201022,-0.00032636704,-0.1292252,-0.013744799,-0.0023841078,0.05662752,-0.026953578,0.00015493251,0.44009048,-1.4329747,1.9648556,-2.0964758,-1.5765556,2.4128993,-0.06045486,0.28346413,-0.3389489,0.10378141,-0.04052214,-0.060161173,-0.114921674,0.076614454,-9.385271,0.87617236,47.694946,-0.6492897,-1.8721659,-3.5446944,-0.32503963,-0.3384875,-0.43716517,25.75,26.5,25.625,28.4375,29.25,29.625
0.2760521,-0.85997164,-1.5785978,-1.3326613,-0.053781882,0.050290212,-0.11541989,-0.39102072,-0.3303517,0.059938442,-3.0719614,0.6200873,-0.00024682103,-0.13218883,-0.015286882,-0.0006120001,0.05244982,-0.01816459,0.0030712604,0.43995857,-1.4324356,1.9641732,-2.0963352,-1.5766395,2.4127667,-0.060136076,0.28283647,-0.34080476,0.09650767,-0.040524743,-0.06275676,0.05746084,0.11492168,-9.423578,0.9254084,47.686886,-0.699625,-1.8190935,-3.5882769,-0.28719115,-0.34069318,-0.42578864,25.75,26.5,25.625,28.4375,29.25,29.625
0.2780523,-1.0770781,-1.73096,-1.3668071,-0.045800947,0.036922533,-0.11293279,-0.39128295,-0.3303652,0.05991334,-3.0717807,0.62012297,-0.00032517037,-0.13505551,-0.016437547,0.001117251,0.049741417,-0.010134492,0.005657119,0.43982685,-1.4318252,1.9634908,-2.096122,-1.5767478,2.4126813,-0.059789866,0.28247803,-0.343247,0.09086729,-0.0415363,-0.06498233,0.038307227,0.19153613,-9.442732,0.87617236,47.685097,-0.75064194,-1.7154391,-3.6420045,-0.2103858,-0.33808914,-0.4408536,25.75,26.5,25.625,28.4375,29.25,29.625
0.28005245,-0.53348947,-1.689392,-1.4157475,-0.0465493,0.043067202,-0.108026996,-0.39153332,-0.33041432,0.059895813,-3.0716999,0.61996895,-0.00033934548,-0.13702902,-0.017318439,0.0015932018,0.04833444,-0.0060722535,0.009677111,0.43975487,-1.4312378,1.9628328,-2.095979,-1.5768322,2.4125242,-0.059517015,0.2841095,-0.34551722,0.087201394,-0.04203124,-0.06872158,-0.019153614,0.3256114,-9.442732,0.9254084,47.694946,-0.7652732,-1.6871881,-3.6405501,-0.18472631,-0.3390984,-0.44908583,25.75,26.5,25.625,28.4375,29.25,29.625
0.2820526,-0.70918375,-1.6761935,-1.631059,-0.048379965,0.025204685,-0.110254556,-0.39181757,-0.33041152,0.05989743,-3.0715525,0.6199731,-0.00036120252,-0.1391646,-0.017731847,0.0017180144,0.048595928,-0.0025337706,0.015391873,0.43957493,-1.4306738,1.9621385,-2.0957525,-1.5769409,2.4123666,-0.059358396,0.28674987,-0.34825617,0.08416565,-0.043825753,-0.07426011,0.076614454,0.34476504,-9.442732,0.8806493,47.687782,-0.8019091,-1.650203,-3.711824,-0.11173949,-0.3572632,-0.4032219,25.75,26.5,25.625,28.4375,29.25,29.625
0.28405166,-0.6842362,-1.986368,-1.8598362,-0.047153335,0.019942602,-0.1047917,-0.39209968,-0.3304909,0.059918325,-3.0715392,0.61987156,-0.00027673718,-0.1398156,-0.017922018,0.0010530902,0.050364636,-0.0026912647,0.01863505,0.43951532,-1.4300978,1.9614071,-2.0956209,-1.5770015,2.4122458,-0.058511984,0.289788,-0.35030404,0.08405385,-0.045375627,-0.07664674,0.05746084,0.57460845,-9.557653,0.9612189,47.73614,-0.8499556,-1.6602085,-3.6471496,-0.07890237,-0.34362,-0.38841042,25.75,26.5,25.625,28.4375,29.25,29.625
0.2860522,-0.39261687,-2.4121854,-1.9305559,-0.05057008,0.02869744,-0.109638736,-0.39240012,-0.33049786,0.059924416,-3.0714214,0.6197088,-0.0001813144,-0.14056835,-0.0171523,0.00038234444,0.05316986,-0.0035303608,0.02390056,0.43937105,-1.429522,1.9607018,-2.095453,-1.5771583,2.4120157,-0.059045877,0.29235306,-0.3520708,0.08515993,-0.047594316,-0.08242947,-0.038307227,0.63206923,-9.691729,0.84708,47.723602,-0.85810155,-1.7539581,-3.6793625,-0.0571959,-0.31557363,-0.3546572,25.75,26.5,25.625,28.4375,29.25,29.625
0.28805235,-0.99013543,-2.6045527,-1.7836374,-0.076721735,0.038545277,-0.103728846,-0.39266428,-0.330514,0.059901737,-3.0712721,0.619675,-0.00028818325,-0.14098781,-0.016921347,-0.0007225331,0.055799752,-0.006101411,0.02797616,0.43922716,-1.4289099,1.9600071,-2.095225,-1.5772423,2.4118707,-0.058899738,0.29638788,-0.35474464,0.087209515,-0.048918385,-0.0863422,-0.019153614,0.7469909,-9.749189,0.91421866,47.716442,-0.9029393,-1.8073382,-3.6599574,-0.058924258,-0.30940124,-0.25631833,25.75,26.5,25.625,28.4375,29.25,29.625
0.2900517,-0.6265591,-2.823475,-1.5957359,-0.09644491,0.058914598,-0.11651223,-0.3929239,-0.33056948,0.059902973,-3.0712066,0.6194678,-0.0002615437,-0.14210759,-0.017107578,-0.00096362515,0.056997497,-0.006657006,0.029662212,0.43916708,-1.4283334,1.9593114,-2.0950572,-1.5773386,2.4116902,-0.05891459,0.29962113,-0.3583241,0.08854851,-0.049785737,-0.08803331,-0.019153614,0.6512228,-9.768343,0.8940802,47.71017,-0.8752333,-2.0088072,-3.715776,-0.040228687,-0.27947864,-0.23875774,25.75,26.5,25.625,28.375,29.25,29.625
0.2920518,-1.4497703,-3.1157393,-1.5751593,-0.08161397,0.04047531,-0.1078166,-0.39324957,-0.33057496,0.059905015,-3.0710728,0.6194948,-0.00021538333,-0.1425536,-0.016538547,-0.00044268792,0.05895396,-0.0071888324,0.03139876,0.4389751,-1.4277108,1.958558,-2.094876,-1.5774592,2.411533,-0.05922911,0.2999266,-0.3608064,0.09201008,-0.05134916,-0.090071216,-0.038307227,0.63206923,-9.615114,0.8717007,47.698532,-0.84906054,-1.935631,-3.7439694,-0.04122831,-0.26629636,-0.19607708,25.75,26.5,25.625,28.375,29.25,29.625
0.29405195,-1.1902517,-2.4625394,-1.5224029,-0.071613036,0.03758092,-0.10319236,-0.3935469,-0.33065417,0.05992506,-3.0710907,0.6191923,-0.00015013028,-0.14415905,-0.015946766,0.0008421424,0.060699083,-0.0042232326,0.03123556,0.43890294,-1.4270991,1.9577807,-2.0947196,-1.5775203,2.4112701,-0.059773535,0.29955822,-0.36380756,0.09343555,-0.05419579,-0.09043291,-0.095768064,0.59376204,-9.615114,0.97240865,47.72271,-0.8845017,-1.9072902,-3.7908034,-0.070614964,-0.23834576,-0.15248354,25.75,26.5,25.625,28.375,29.25,29.625
0.29605225,-0.5745023,-1.6937782,-1.5085585,-0.050470933,0.032744754,-0.11166153,-0.3938308,-0.33070594,0.05992235,-3.0709987,0.6191338,-0.00015017812,-0.14291976,-0.015651383,-0.00024260004,0.062299255,-0.009433984,0.030040331,0.43880707,-1.4264767,1.9570378,-2.094539,-1.5776037,2.4111502,-0.059692636,0.301349,-0.36450157,0.09772932,-0.05342371,-0.089159414,0.05746084,0.51714754,-9.500193,0.92093146,47.716442,-0.92939484,-1.7474602,-3.792515,-0.05888105,-0.23937672,-0.14451535,25.75,26.5,25.625,28.375,29.25,29.625
0.29805255,-0.23892048,-0.96880835,-1.6487405,-0.014866043,0.0038167087,-0.10323581,-0.39409545,-0.33073503,0.05989072,-3.0708728,0.6189735,-0.00016533765,-0.14249283,-0.01498921,0.00038950803,0.06470679,-0.012193317,0.02746051,0.43871093,-1.4258536,1.9563679,-2.0943925,-1.5777243,2.410971,-0.059825126,0.30104843,-0.36725134,0.10430587,-0.054420978,-0.08670023,0.05746084,0.34476504,-9.481039,0.9321212,47.723602,-0.96151686,-1.634913,-3.8017201,-0.15045673,-0.23026338,-0.1454457,25.75,26.5,25.625,28.375,29.25,29.625
0.3000526,0.2007582,0.3795285,-1.1942465,-0.00023347493,-0.013087595,-0.105402015,-0.39444882,-0.33075115,0.059937585,-3.0707803,0.6189936,2.688677e-05,-0.1449502,-0.015319823,0.0019262246,0.06644397,-0.009836535,0.02405465,0.43853107,-1.4252781,1.9555644,-2.0942123,-1.5778693,2.4108162,-0.059578367,0.30348945,-0.3744597,0.107691094,-0.056985397,-0.08302949,-0.076614454,0.1340753,-9.308656,0.88960326,47.681515,-0.98350275,-1.5920635,-3.6240249,-0.17088825,-0.18247783,-0.18295294,25.75,26.5,25.625,28.375,29.25,29.625
0.3020526,0.5411564,0.9473704,-1.4471518,0.030057019,-0.014197906,-0.11285718,-0.3947153,-0.33079582,0.05992984,-3.0706842,0.618899,-5.586077e-05,-0.14571601,-0.014685307,0.0015155246,0.06955513,-0.010977239,0.02021171,0.43842304,-1.4246657,1.9548324,-2.093984,-1.5779303,2.4106622,-0.05981484,0.30622125,-0.37736544,0.11024267,-0.059311807,-0.07939949,0.0,0.019153614,-9.270349,0.97240865,47.68599,-1.0031372,-1.6557727,-3.549675,-0.19630414,-0.1312091,-0.21676284,25.75,26.5,25.625,28.375,29.25,29.625
0.30405176,1.056499,1.5687287,-1.2539268,0.030748717,0.008364892,-0.1219765,-0.39499262,-0.33082718,0.059919517,-3.0705383,0.6187351,-8.820492e-05,-0.14587161,-0.015715728,0.0016960248,0.0679681,-0.013365136,0.017339788,0.43832698,-1.4240307,1.9540781,-2.093744,-1.578061,2.4104834,-0.059619486,0.3081327,-0.380833,0.11328539,-0.05685805,-0.0763414,0.038307227,-0.1340753,-9.32781,0.88960326,47.71554,-1.0712671,-1.7433913,-3.5150514,-0.24027644,-0.1403338,-0.2619834,25.75,26.5,25.625,28.375,29.25,29.625
0.30605197,0.051428318,0.82357883,-1.2682486,0.03169478,-0.00066968566,-0.1111524,-0.39529157,-0.33085728,0.059935,-3.0704055,0.61859167,-4.955146e-05,-0.14667974,-0.015852448,4.5410998e-05,0.06955047,-0.01665628,0.015929589,0.4382189,-1.4234179,1.953287,-2.0934918,-1.578205,2.4103036,-0.059975393,0.31396684,-0.3841305,0.114391685,-0.056903075,-0.075280644,-0.05746084,-0.22984336,-9.346964,0.8806493,47.685097,-1.0862429,-1.8802885,-3.361486,-0.26243848,-0.1536026,-0.290455,25.75,26.5,25.625,28.375,29.25,29.625
0.30805212,-0.01207178,0.44898844,-1.1731602,-0.00093501364,0.039935227,-0.112983845,-0.39557463,-0.3308767,0.059932284,-3.070248,0.6186163,-0.000117217234,-0.1478155,-0.015485045,-0.00014702737,0.06910788,-0.016330108,0.014430688,0.43807426,-1.4228051,1.9525346,-2.093229,-1.5783013,2.4101956,-0.061699897,0.31528866,-0.3852076,0.113646016,-0.05666179,-0.075500585,-0.17238252,-0.21068975,-9.289502,0.9298854,47.73525,-0.9748367,-2.043221,-3.4910188,-0.27464965,-0.12107945,-0.2962685,25.75,26.5,25.625,28.375,29.25,29.625
0.31005222,-1.2826205,-0.6578747,-1.325438,-0.018245846,0.052347466,-0.11013176,-0.3958613,-0.33090842,0.059920892,-3.0700915,0.61848426,-0.00012389489,-0.1467436,-0.017132375,-0.0013460959,0.06823711,-0.017080486,0.017845389,0.43797952,-1.4221561,1.9517688,-2.0930026,-1.5784448,2.4100394,-0.05844876,0.31728277,-0.38435742,0.11109072,-0.055572543,-0.07566614,-0.15322891,-0.05746084,-9.346964,0.9097417,47.741516,-1.1831805,-1.8394821,-3.705378,-0.2618901,-0.13861528,-0.32319582,25.75,26.5,25.625,28.375,29.25,29.625
0.31205237,-1.3249773,-1.233491,-1.3708432,-0.03990314,0.083847694,-0.11866213,-0.39615643,-0.33093154,0.059932683,-3.069984,0.61846197,-0.00014194951,-0.14848702,-0.01792431,-0.0010750343,0.06523726,-0.014811795,0.016835088,0.43782315,-1.4215671,1.9510149,-2.0927641,-1.5785283,2.4098837,-0.059552886,0.31880218,-0.38622513,0.10809062,-0.05384162,-0.0757675,-0.17238252,0.095768064,-9.500193,0.9231726,47.692257,-1.1841041,-1.8108013,-3.8122706,-0.2343756,-0.12664011,-0.31986296,25.75,26.5,25.625,28.375,29.25,29.625
0.3140526,-1.7982216,-1.9405488,-1.4985952,-0.06978405,0.088161364,-0.11263388,-0.39646706,-0.3309776,0.059954032,-3.0698678,0.6183997,-6.8682435e-05,-0.15205975,-0.018529167,0.0011226316,0.060030114,-0.008061189,0.013560193,0.43772614,-1.4209427,1.9502014,-2.092538,-1.5786594,2.4097636,-0.06263089,0.3178072,-0.38937452,0.1038935,-0.052009016,-0.07558066,-0.34476504,0.19153613,-9.576807,0.8985519,47.65912,-1.1110787,-1.7202845,-3.8143282,-0.19175616,-0.1244777,-0.35371506,25.75,26.5,25.625,28.375,29.25,29.625
0.31605172,-1.9754926,-2.7650907,-1.6799757,-0.07805556,0.08574147,-0.11627191,-0.3967591,-0.33101064,0.059964757,-3.069764,0.618338,-3.0428866e-05,-0.15366775,-0.020794917,0.0020652777,0.057012904,-0.00413213,0.014884939,0.43760678,-1.4203539,1.949458,-2.092336,-1.5787677,2.4096198,-0.060515754,0.3196107,-0.39312842,0.10099492,-0.05095872,-0.07479346,-0.5746084,0.2681506,-9.653421,0.95226496,47.70211,-1.0688347,-1.5714028,-3.7814512,-0.1255965,-0.14736871,-0.37891406,25.75,26.5,25.625,28.375,29.25,29.625
0.31805238,-2.2535243,-2.857508,-1.9523529,-0.07977283,0.0701409,-0.10596298,-0.39705968,-0.33106068,0.05996107,-3.0696914,0.6182239,-4.7040066e-05,-0.15596512,-0.021943968,0.0044850926,0.053833213,0.0008373393,0.017717883,0.43748686,-1.4197052,1.9486808,-2.0921443,-1.5788387,2.4094386,-0.060801696,0.31854582,-0.39756396,0.10060718,-0.050221603,-0.07791331,-0.51714754,0.30645782,-9.787497,0.9612189,47.699425,-1.2288831,-1.4135432,-3.681662,-0.11864427,-0.16049983,-0.37645012,25.75,26.5,25.625,28.375,29.25,29.625
0.32005188,-1.5274398,-2.1734865,-1.8611797,-0.083118565,0.06688769,-0.10949833,-0.3973861,-0.33110055,0.059962846,-3.0695767,0.6181234,1.4634732e-05,-0.15797786,-0.02237129,0.00448382,0.052218452,0.0020754181,0.0155278025,0.4373662,-1.419032,1.947863,-2.0919535,-1.5789708,2.4092708,-0.062270947,0.32138574,-0.40067226,0.0990566,-0.04929542,-0.077195495,-0.45968673,0.38307226,-9.844957,0.9835985,47.658226,-1.1790793,-1.3458874,-3.574043,-0.05974719,-0.17093748,-0.39445585,25.75,26.5,25.625,28.375,29.25,29.625
0.32205197,-1.4353442,-1.9344362,-2.155024,-0.06333222,0.04733798,-0.11521963,-0.39768887,-0.33113387,0.059978016,-3.0694726,0.6180222,6.5827015e-05,-0.15691786,-0.021677716,0.0014769846,0.054777216,-0.0049158894,0.018615583,0.43724597,-1.4184291,1.9470891,-2.091737,-1.5790905,2.4091015,-0.06295601,0.32655504,-0.4002995,0.10088239,-0.048677478,-0.08097127,-0.7278373,0.38307226,-9.921572,1.0507371,47.686886,-1.1715446,-1.5513321,-3.8623667,-0.06538184,-0.17985782,-0.38608748,25.75,26.5,25.625,28.375,29.25,29.625
0.32405216,-1.4948517,-2.175721,-2.1102371,-0.063705646,0.062479466,-0.11473671,-0.39800113,-0.33116904,0.059968222,-3.0693822,0.6179624,3.5434605e-05,-0.15743323,-0.021940406,0.00042878068,0.054457378,-0.006638165,0.023018897,0.43708995,-1.4177675,1.9463099,-2.0915453,-1.579162,2.4089205,-0.06346928,0.3297504,-0.40166855,0.10042232,-0.04770402,-0.085891366,-0.57460845,0.4405331,-10.01734,1.0350704,47.678825,-1.1184256,-1.6917067,-3.8998008,-0.0041248724,-0.19725782,-0.3060674,25.75,26.5,25.625,28.375,29.25,29.625
0.32605243,-1.3698629,-2.9087474,-1.8553641,-0.07673855,0.08855989,-0.11036248,-0.39834327,-0.33123624,0.06001323,-3.0693345,0.6178358,0.00022437389,-0.15689684,-0.021239959,-0.0007376956,0.0556148,-0.011492955,0.024258528,0.4370055,-1.4171422,1.9454492,-2.091365,-1.5792936,2.4087636,-0.06485833,0.33191615,-0.40245223,0.10388699,-0.046705864,-0.08853093,-0.45968673,0.51714754,-9.787497,0.95002913,47.70211,-1.1741445,-1.6030955,-4.0053463,-0.026097475,-0.2311188,-0.30991757,25.75,26.5,25.625,28.375,29.25,29.625
0.32805264,-1.7750108,-2.4835544,-1.5042362,-0.07579996,0.08474915,-0.10680189,-0.3986649,-0.3312751,0.060025174,-3.0692608,0.6177211,0.00020697714,-0.15779382,-0.021046119,-0.00012747334,0.055723425,-0.013761833,0.027510399,0.43684882,-1.4164928,1.9446224,-2.0911238,-1.5793656,2.4085455,-0.06641694,0.33343124,-0.4069105,0.10887341,-0.045883816,-0.09334413,-0.40222588,0.4405331,-9.576807,0.9612189,47.696735,-0.9653536,-1.8397084,-3.9862847,-0.03286416,-0.24086991,-0.26031142,25.75,26.5,25.625,28.375,29.25,29.625
0.33005172,-0.7863016,-1.5345544,-1.4471134,-0.0737305,0.07836592,-0.12169132,-0.39898857,-0.3313269,0.060033195,-3.069169,0.61764145,0.00022932974,-0.15862858,-0.022170072,0.00074817333,0.055860866,-0.015738625,0.03189003,0.43672934,-1.4158196,1.9437822,-2.0909064,-1.5794615,2.4083889,-0.06546332,0.33627662,-0.41368005,0.114599995,-0.04520444,-0.0967712,-0.2873042,0.30645782,-9.615114,0.97240865,47.695843,-1.143363,-1.597369,-3.775253,-0.065577865,-0.2795832,-0.18586081,25.75,26.5,25.625,28.375,29.25,29.625
0.33205175,-0.89471364,-1.0178984,-0.95296496,-0.044997107,0.03211217,-0.104919,-0.3993356,-0.33137512,0.06005469,-3.0691488,0.6175968,0.0003202439,-0.15921056,-0.02173635,0.0018253427,0.0565827,-0.018182246,0.034668796,0.43656075,-1.4151827,1.9429682,-2.0907605,-1.5795215,2.4081955,-0.06687509,0.33664575,-0.41827014,0.121288866,-0.044849727,-0.10096554,-0.076614454,0.15322891,-9.385271,0.947788,47.728977,-1.0753498,-1.6032492,-3.6694436,-0.16148144,-0.30082232,-0.12128636,25.75,26.5,25.625,28.375,29.25,29.625
0.3340519,0.66483825,0.2269406,-1.1710861,0.007925196,0.00088953483,-0.113051936,-0.39968196,-0.33142138,0.06008002,-3.0690837,0.617354,0.00039162431,-0.16006327,-0.020639805,0.0008858836,0.05842601,-0.021992793,0.030413255,0.43642783,-1.4145089,1.9420818,-2.0905197,-1.5796412,2.40792,-0.06945506,0.34020022,-0.4212266,0.124921046,-0.044905167,-0.099287376,-0.076614454,0.22984336,-9.270349,0.9298854,47.72719,-0.885089,-1.6089816,-3.5679429,-0.16376486,-0.3105252,-0.10546829,25.75,26.5,25.625,28.375,29.25,29.625
0.33605215,0.84973854,0.49406588,-1.4355785,0.042109672,-0.038316816,-0.102846816,-0.40000534,-0.33147082,0.060097214,-3.0690145,0.61724156,0.00041469745,-0.15896876,-0.021278026,0.00051089464,0.05991736,-0.025103686,0.032562032,0.43629682,-1.4138597,1.9412445,-2.0902913,-1.5797247,2.4077282,-0.06727483,0.3416855,-0.42314434,0.12878981,-0.044947118,-0.099253826,-0.1340753,0.21068975,-9.32781,0.9388393,47.72002,-0.98877674,-1.4375777,-3.521345,-0.21980712,-0.34128028,-0.08793543,25.75,26.5,25.625,28.375,29.25,29.625
0.33805254,0.42904678,0.18358378,-0.8782338,0.018029613,-0.017266447,-0.10853628,-0.4003478,-0.33152762,0.06011102,-3.0689285,0.61720794,0.00043932727,-0.15991077,-0.020191846,-0.00011330022,0.061830036,-0.026828097,0.026377581,0.4361641,-1.4131622,1.940359,-2.0900629,-1.5798095,2.4075863,-0.06930574,0.34410453,-0.4251589,0.13078418,-0.045935743,-0.09508992,-0.22984336,0.21068975,-9.021352,0.9791215,47.67166,-0.99364936,-1.4636629,-3.6693904,-0.25532457,-0.36947477,-0.08574578,25.75,26.5,25.625,28.375,29.25,29.625
0.34005177,-0.18641996,-0.4125705,-0.46158466,-0.012553604,0.02251269,-0.11482292,-0.400642,-0.33155513,0.06009844,-3.0687902,0.61719793,0.00026877114,-0.16134858,-0.020690098,0.00067469914,0.06040358,-0.024403738,0.023299618,0.43599585,-1.4124894,1.9395431,-2.089752,-1.5798577,2.4074306,-0.06970008,0.34460917,-0.42755774,0.12989037,-0.045680698,-0.09239967,-0.17238252,0.114921674,-9.002198,1.0663986,47.688675,-0.904981,-1.5314469,-3.639248,-0.23744813,-0.3997537,-0.11737761,25.75,26.5,25.625,28.375,29.25,29.625
0.34205183,-0.82335836,-0.7942414,-0.41936696,-0.048600495,0.070734225,-0.11572067,-0.40095618,-0.33159697,0.060076483,-3.0686433,0.6170157,0.00016561635,-0.1647263,-0.020759331,0.0009547584,0.0602242,-0.019857356,0.01862549,0.43587536,-1.4117439,1.9386705,-2.0894663,-1.579966,2.4072163,-0.07120562,0.34805632,-0.43159628,0.12630582,-0.047453683,-0.08920659,-0.038307227,-0.05746084,-9.059659,0.9992599,47.7245,-0.85626054,-1.3841212,-3.693882,-0.23841195,-0.39650148,-0.16411415,25.75,26.5,25.625,28.375,29.25,29.625
0.3440519,-1.8416271,-1.544926,-0.23739275,-0.061732274,0.08603722,-0.11376764,-0.40134442,-0.33164236,0.06014104,-3.0685828,0.61704254,0.00036219496,-0.16894963,-0.02179834,0.0019604713,0.05826593,-0.013046332,0.014841418,0.43570712,-1.4111058,1.9377369,-2.0892408,-1.5800866,2.4070733,-0.07208348,0.351709,-0.4371789,0.12124782,-0.048558414,-0.086290866,-0.019153614,0.038307227,-9.002198,0.9634547,47.72271,-0.76839703,-1.5038939,-3.5051084,-0.18538633,-0.40939972,-0.1847026,25.75,26.5,25.625,28.375,29.25,29.625
0.34605172,-1.3429028,-0.8790041,-0.41821006,-0.05833325,0.098492354,-0.110461645,-0.40168113,-0.33171445,0.060163103,-3.0685515,0.61690265,0.000421265,-0.17187558,-0.02243878,0.0019973838,0.05627604,-0.009318288,0.010961225,0.43559876,-1.4104316,1.9368633,-2.0890386,-1.5801581,2.406882,-0.073460825,0.35511878,-0.44044998,0.11690146,-0.048332095,-0.08378727,-0.15322891,0.05746084,-8.925584,0.98135734,47.707485,-0.7548939,-1.6357106,-3.458716,-0.11065487,-0.43142253,-0.23273695,25.75,26.5,25.625,28.375,29.25,29.625
0.34805202,-1.1358789,-0.71359366,-0.5528787,-0.01395646,0.06757256,-0.11213315,-0.4019613,-0.3317481,0.060123894,-3.068398,0.6168137,0.00018604122,-0.17268533,-0.021944126,0.0011006385,0.05706192,-0.008463466,0.008468634,0.43545434,-1.4097106,1.9360512,-2.0887282,-1.5802068,2.406703,-0.07424585,0.356855,-0.44005826,0.11433973,-0.04942168,-0.08205997,-0.3256114,0.21068975,-9.040505,0.9365982,47.7254,-0.64287674,-1.5726011,-3.4886122,-0.03105624,-0.4551079,-0.2770551,25.75,26.5,25.625,28.375,29.25,29.625
0.3500522,-0.54508984,-0.37550282,-0.5556807,-0.014402036,0.0648856,-0.1133996,-0.40234625,-0.3317764,0.06014855,-3.0682964,0.61683065,0.00035709783,-0.174556,-0.02172018,0.001732944,0.058787826,-0.0047960277,0.0070219855,0.43527442,-1.4090257,1.9351667,-2.0885608,-1.5803517,2.4065475,-0.07411165,0.35802484,-0.44284075,0.11336125,-0.052533586,-0.08045347,-0.34476504,0.3256114,-9.040505,0.90527004,47.707485,-0.70162165,-1.4848367,-3.6038723,0.006451772,-0.46637827,-0.30172113,25.75,26.5,25.625,28.375,29.25,29.625
0.3520523,-1.3316727,-1.273038,-0.68263215,-0.0050474713,0.034779888,-0.11098538,-0.40270102,-0.3318188,0.060136978,-3.0681612,0.61678195,0.0003704947,-0.17524992,-0.020229137,0.00086831243,0.06391672,-0.003978692,0.005767166,0.4351305,-1.4082681,1.9342698,-2.0883453,-1.5804738,2.4063916,-0.0740655,0.35991383,-0.44324693,0.1133137,-0.057531394,-0.07910635,-0.40222588,0.47884035,-9.002198,1.0328293,47.686886,-0.73254716,-1.5425782,-3.7954612,0.037234195,-0.4240681,-0.35396215,25.75,26.5,25.625,28.375,29.25,29.625
0.35405242,-0.9013737,-1.3694727,-0.72152686,-0.020663148,0.06186177,-0.10711932,-0.40304226,-0.33187723,0.060135953,-3.0680633,0.61668503,0.0003733554,-0.17528223,-0.019496597,0.0011337269,0.06672548,-0.005793496,0.0050204988,0.43501043,-1.4075353,1.9333738,-2.0881164,-1.5805701,2.4062245,-0.07417681,0.36053038,-0.44587708,0.118155524,-0.05931274,-0.0784521,-0.61291564,0.53630114,-8.963891,1.0216395,47.73077,-0.68178844,-1.3512559,-3.7177968,0.03089161,-0.39644754,-0.38108322,25.75,26.5,25.625,28.375,29.25,29.625
0.35605192,-1.5544307,-1.8860054,-0.59675527,-0.038740437,0.075714484,-0.11551582,-0.40339231,-0.33189985,0.0601373,-3.0678873,0.6167236,0.00036743356,-0.17571524,-0.018424239,0.0015472325,0.070557006,-0.006856005,0.0041325768,0.43484253,-1.4068148,1.9324754,-2.087839,-1.5807031,2.4061046,-0.074417084,0.36127043,-0.44899818,0.12311218,-0.06234423,-0.077772275,-0.6703765,0.45968673,-9.097966,1.0238806,47.723602,-0.74412733,-1.3686991,-3.7835734,0.04138342,-0.37679103,-0.4255087,25.75,26.5,25.625,28.375,29.25,29.625
0.35805225,-1.8644761,-1.9086272,-0.5301243,-0.04789579,0.09079506,-0.106485344,-0.40372106,-0.33192566,0.060103074,-3.0676959,0.61664337,0.00028030187,-0.17402293,-0.016725028,-0.0007797277,0.078223124,-0.015988324,0.0049764216,0.4346986,-1.406044,1.9316024,-2.0875723,-1.5808367,2.4059365,-0.07396288,0.36610097,-0.45155218,0.13233586,-0.06545642,-0.07812464,-0.5363012,0.36391866,-8.887277,1.005978,47.686886,-0.7137873,-1.2949531,-3.6857455,-0.04750282,-0.35176492,-0.44705135,25.75,26.5,25.625,28.375,29.25,29.625
0.36005253,-1.3028094,-0.6965833,-0.5088961,-0.02979273,0.0878796,-0.1121363,-0.40405446,-0.33198917,0.060096335,-3.0675673,0.6165369,0.0002486776,-0.1738132,-0.01548921,-0.00048249023,0.08299324,-0.019867413,0.007234597,0.4346026,-1.405287,1.9306816,-2.0873063,-1.5809454,2.4057915,-0.07418482,0.36726722,-0.45570633,0.14082082,-0.068170026,-0.08057406,-0.51714754,0.28730422,-8.848969,0.9835985,47.703903,-0.8139934,-1.4369733,-3.7291756,-0.15369852,-0.30813187,-0.48368746,25.75,26.5,25.625,28.375,29.25,29.625
0.36205265,-1.1875117,-0.10694513,-0.54265934,0.006737678,0.07199744,-0.112169296,-0.4044495,-0.3320039,0.06011577,-3.0674272,0.61654246,0.0003649032,-0.17443891,-0.015375535,-0.00038628525,0.085921675,-0.021359153,0.011761587,0.43439883,-1.4045652,1.9297498,-2.087077,-1.5811023,2.4056103,-0.07347369,0.36991662,-0.46019557,0.14518802,-0.07023884,-0.08436933,-0.40222588,0.19153613,-8.887277,0.96569055,47.687782,-0.7693494,-1.4696183,-3.6533177,-0.2291643,-0.2848892,-0.4888451,25.75,26.5,25.625,28.375,29.25,29.625
0.3640518,-0.84004986,0.47826943,-0.7622137,0.035100177,0.04806156,-0.11192837,-0.40481374,-0.33206224,0.060100596,-3.06728,0.6163919,0.0003693382,-0.1741688,-0.014494776,-0.00306116,0.09018779,-0.027014367,0.017483056,0.43429092,-1.4037466,1.9287795,-2.0868256,-1.5812467,2.4054284,-0.07375202,0.37579927,-0.4617146,0.14767238,-0.071786344,-0.09034822,-0.21068975,0.095768064,-8.829816,0.98135734,47.684196,-0.8506671,-1.6940166,-3.5619028,-0.26186067,-0.2554884,-0.4595988,25.75,26.5,25.625,28.375,29.25,29.625
0.3660519,-0.47463262,0.85487026,-0.7928431,0.042532384,0.029564643,-0.10695759,-0.40514526,-0.3320846,0.06007091,-3.067104,0.61635,0.00026353315,-0.17606607,-0.015594183,-0.0024412617,0.089428194,-0.022663774,0.024578353,0.43412313,-1.4029893,1.9279073,-2.086551,-1.581355,2.4052584,-0.0724926,0.37752572,-0.46469933,0.14458482,-0.07301042,-0.09616053,-0.076614454,0.038307227,-8.925584,1.0238806,47.687782,-0.8768847,-1.7249296,-3.6633658,-0.23066553,-0.20337367,-0.38147923,25.75,26.5,25.625,28.375,29.25,29.625
0.36805215,-0.17802112,0.70836353,-0.602927,0.023211626,0.02157464,-0.11000678,-0.40551513,-0.33208025,0.06005077,-3.0668638,0.6162581,0.00022525697,-0.18029538,-0.014826873,-0.0016983062,0.08918864,-0.016348174,0.027411899,0.4339301,-1.402195,1.9269603,-2.08623,-1.5815481,2.4050405,-0.0756599,0.3798213,-0.46828386,0.13995469,-0.07554126,-0.102124214,-0.019153614,-0.19153613,-8.90643,0.9254084,47.707485,-0.78033173,-1.7674224,-3.582653,-0.20170538,-0.17152761,-0.34832692,25.75,26.5,25.625,28.375,29.25,29.625
0.37005243,-0.07893185,-0.10523563,-0.83018935,0.013857195,0.0123558575,-0.10980292,-0.40586865,-0.33214098,0.06006135,-3.066739,0.6160722,0.00025878884,-0.1816588,-0.017273063,-0.0015055499,0.08661476,-0.011633227,0.037024945,0.43383536,-1.4014385,1.9259938,-2.0859444,-1.5816916,2.4048467,-0.07252435,0.38214156,-0.47043273,0.13432911,-0.07526937,-0.10859773,-0.05746084,-0.17238252,-9.002198,0.9701675,47.711063,-0.88803256,-1.7098191,-3.680153,-0.124412574,-0.1177458,-0.24406877,25.75,26.5,25.625,28.375,29.25,29.625
0.37205178,0.010319876,-0.39984787,-0.96675515,-0.020429682,0.018779835,-0.115189,-0.40622178,-0.3321583,0.060039103,-3.066539,0.6159502,0.00022428489,-0.18403383,-0.018539017,-0.00024480262,0.08223392,-0.0064516105,0.03923948,0.4336789,-1.4006573,1.9250735,-2.0856588,-1.581859,2.4046412,-0.07325064,0.38226038,-0.47276208,0.12992787,-0.07353376,-0.11154357,0.05746084,-0.15322891,-9.040505,1.0596858,47.71286,-0.90483284,-1.8032517,-3.7029314,-0.06266597,-0.12280608,-0.18242934,25.75,26.5,25.625,28.375,29.25,29.625
0.37405187,-0.35592502,-1.0305793,-1.1279237,-0.03780347,0.01631392,-0.11047613,-0.406588,-0.33218023,0.06002015,-3.0663824,0.6157839,0.000167446,-0.18677697,-0.017322041,-0.00029688363,0.08198762,-0.0060214787,0.036130954,0.4334975,-1.3998629,1.9241289,-2.0853713,-1.5819911,2.4043772,-0.0775908,0.38501504,-0.47614768,0.13002355,-0.07353087,-0.112764195,0.1340753,-0.22984336,-9.251195,1.0082139,47.71017,-0.7325959,-1.7559719,-3.619403,-0.023531875,-0.100337386,-0.15285945,25.75,26.5,25.625,28.375,29.25,29.625
0.3760522,-0.3528391,-1.1668872,-1.4940113,-0.046507396,0.014745231,-0.10230246,-0.40695038,-0.33220977,0.06001064,-3.0662277,0.61565363,0.00022166414,-0.18571462,-0.020334147,-0.00021905435,0.0789919,-0.007946525,0.038575206,0.4333549,-1.3991061,1.9232196,-2.0851433,-1.5821575,2.4041743,-0.07349372,0.38693735,-0.47921875,0.13163847,-0.07000733,-0.11113947,-0.019153614,-0.019153614,-9.385271,0.9612189,47.696735,-0.81862456,-1.6601503,-3.5576248,-0.021797825,-0.113684274,-0.13056335,25.75,26.5,25.625,28.375,29.25,29.625
0.3780524,-0.24798849,-1.4761097,-1.5729599,-0.038067278,0.016427185,-0.10025324,-0.40730798,-0.3322418,0.05996914,-3.0660453,0.6155197,0.00012225696,-0.18790571,-0.021642959,0.000143308,0.07531686,-0.0080921985,0.034393214,0.4331984,-1.3982649,1.9222735,-2.0848677,-1.5822886,2.403959,-0.07503482,0.3906426,-0.48479933,0.13209638,-0.06662493,-0.1085179,-0.19153613,0.038307227,-9.3661175,0.97240865,47.6636,-0.8475877,-1.8297918,-3.5485444,-0.0061391043,-0.14095117,-0.14176977,25.75,26.5,25.625,28.375,29.25,29.625
