Tylouw/Master_Thesis_Code/training_data/batch_1/big_rod_t0.1/sample_32_session_2.csv
timestamp[s],tcp_force_x[N],tcp_force_y[N],tcp_force_z[N],tcp_force_rx[Nm?],tcp_force_ry[Nm?],tcp_force_rz[Nm?],tcp_pose_x[m],tcp_pose_y[m],tcp_pose_z[m],tcp_pose_rx[rot_vec_x],tcp_pose_ry[rot_vec_y],tcp_pose_rz[rot_vec_z],tcp_velo_x[m/s],tcp_velo_y[m/s],tcp_velo_z[m/s],tcp_velo_rx[rot_vec_x/s],tcp_velo_ry[rot_vec_y/s],tcp_velo_rz[rot_vec_z/s],q1[rad],q2[rad],q3[rad],q4[rad],q5[rad],q6[rad],qd1[rad/s],qd2[rad/s],qd3[rad/s],qd4[rad/s],qd5[rad/s],qd6[rad/s],tool_acc_x,tool_acc_y,tool_acc_z,current_of_whole_robot[A],voltage_of_whole_robot[V],current_J1[A],current_J2[A],current_J3[A],current_J4[A],current_J5[A],current_J6[A],temp_J1[C],temp_J2[C],temp_J3[C],temp_J4[C],temp_J5[C],temp_J6[C]
6.9802627e-07,-0.028599558,-0.4523349,1.3385322,-0.002497051,0.011087039,0.056866493,-0.37513912,-0.3296276,0.0020264625,3.0757113,-0.62379026,-0.007654204,-5.7460773e-23,-2.784747e-23,2.0030983e-23,-8.5997356e-23,1.7745887e-22,1.5288941e-26,0.4489782,-1.3789773,2.083783,-2.2799795,-1.5710934,2.423583,0.0,0.0,-0.0,-1.9719836e-22,0.0,-0.0,0.076614454,0.05746084,-9.308657,0.7665104,47.699425,0.40742183,-3.4389458,-2.5044076,-0.50087774,0.13761212,-0.09088922,24.5625,25.0,24.3125,26.125,26.25,26.5
0.002055032,0.40468714,0.08953947,1.3296366,-0.004603473,0.020500263,0.053713486,-0.37513417,-0.3296273,0.0020228894,3.0757387,-0.6237768,-0.007635221,-3.7517846e-24,-1.8182993e-24,1.3077786e-24,-5.6151506e-24,1.1586728e-23,9.979232e-28,0.4489901,-1.3789654,2.0837715,-2.2799556,-1.5711054,2.423583,0.0,0.0,-0.0,-1.2875643e-23,0.0,-0.0,0.22984336,0.17238252,-9.308656,0.7530795,47.69763,0.41961968,-3.4870954,-2.4848175,-0.49284548,0.1260598,-0.08872653,24.5625,25.0,24.3125,26.125,26.25,26.5
0.004054138,-0.020852612,-0.07126571,1.2995952,0.004888208,0.017694307,0.054448966,-0.37513623,-0.32962406,0.0020298883,3.075713,-0.62377095,-0.0076283785,-2.449666e-25,-1.1871562e-25,8.539203e-26,-3.6661108e-25,7.5653935e-25,6.5202424e-29,0.44896615,-1.3789895,2.083783,-2.2799556,-1.5710815,2.4235587,0.0,0.0,-0.0,-8.406875e-25,0.0,-0.0,0.17238252,0.11492168,-9.232041,0.784413,47.711063,0.3588227,-3.477497,-2.5137353,-0.5006571,0.15169558,-0.078793444,24.5625,25.0,24.3125,26.125,26.25,26.5
0.006054133,0.3298302,-0.046841435,1.329549,-0.0012131443,0.025148327,0.047540836,-0.37509665,-0.3296263,0.0019992108,3.0757408,-0.6237573,-0.0075160135,-1.5994743e-26,-7.7518395e-27,5.5742136e-27,-2.3938268e-26,4.9396042e-26,4.2539884e-30,0.4489901,-1.3789654,2.0838306,-2.2799556,-1.5710577,2.4235706,0.0,0.0,-0.0,-5.489089e-26,0.0,-0.0,0.24899697,0.095768064,-9.308657,0.71279734,47.70211,0.42706442,-3.5220516,-2.4581356,-0.49526766,0.13311356,-0.08855329,24.5625,25.0,24.3125,26.125,26.25,26.5
0.008055507,-0.011340004,-0.43772683,1.1624951,-0.012846489,0.01501151,0.050890762,-0.37516943,-0.3296381,0.002043388,3.0756645,-0.623742,-0.007706514,-1.0443136e-27,-5.0607945e-28,3.6412289e-28,-1.5628821e-27,3.2252646e-27,2.7788153e-31,0.44895422,-1.3789773,2.0837467,-2.2800033,-1.5710696,2.4235349,0.0,0.0,-0.0,-3.5839827e-27,0.0,-0.0,0.13407528,0.11492168,-9.423578,0.73741806,47.695843,0.42238325,-3.478713,-2.4473894,-0.52436656,0.1284189,-0.0639059,24.5625,25.0,24.3125,26.125,26.25,26.5
0.010054788,-0.11585751,-0.78732336,1.1964709,-0.016092194,0.008753247,0.056064013,-0.37513134,-0.32963672,0.00202288,3.0757132,-0.62371343,-0.007589841,-6.8187225e-29,-3.304588e-29,2.3768226e-29,-1.0205008e-28,2.1058429e-28,1.8136761e-32,0.4489782,-1.3789654,2.0837715,-2.2799556,-1.5710577,2.4235349,0.0,0.0,-0.0,-2.3400846e-28,0.0,-0.0,0.11492168,0.15322891,-9.385271,0.7284641,47.699425,0.42742592,-3.495812,-2.4009213,-0.50556093,0.13228694,-0.0787252,24.5625,25.0,24.3125,26.125,26.25,26.5
0.012054688,0.12078612,-1.0500133,1.0952814,-0.010245917,0.011772184,0.06152326,-0.37514105,-0.32960695,0.0020310495,3.0757332,-0.62381333,-0.007663603,-3.7570723e-07,-1.8214308e-07,2.8925402e-07,-3.1501924e-07,6.502549e-07,2.918929e-10,0.44895422,-1.3790014,2.0837944,-2.2799556,-1.5711178,2.4235706,0.0,0.0,-7.225432e-07,-1.5279081e-29,0.0,-0.0,0.15322891,0.2873042,-9.461885,0.7418897,47.705692,0.40981668,-3.478272,-2.4588077,-0.50110424,0.13246499,-0.0678623,24.5625,25.0,24.3125,26.125,26.25,26.5
0.014054796,0.29907286,-0.18975691,1.2940952,-0.021894064,0.019810647,0.04884201,-0.3751335,-0.32963556,0.0020264601,3.075717,-0.6237143,-0.007642883,-5.0405267e-09,-2.4438735e-09,3.8807153e-09,-4.2266977e-09,8.7238465e-09,3.9156066e-12,0.4489901,-1.3789773,2.083783,-2.2799795,-1.5710815,2.4235468,0.0,0.0,-9.693838e-09,-9.976148e-31,0.0,-0.0,0.1340753,0.19153613,-9.32781,0.7284641,47.679718,0.40262032,-3.434076,-2.4990885,-0.49364316,0.1417827,-0.07641982,24.5625,25.0,24.3125,26.125,26.25,26.5
0.01605415,0.20881844,-0.28354895,1.2624493,-0.017270666,0.02057187,0.054566175,-0.37513086,-0.32962146,0.0020295228,3.0757036,-0.6237884,-0.0075479625,-6.762643e-11,-3.2784313e-11,5.2063465e-11,-5.670092e-11,1.1704426e-10,5.2536304e-14,0.44894207,-1.3789895,2.0837715,-2.279907,-1.5710458,2.4235468,0.0,0.0,-1.300552e-10,-6.5137116e-32,0.0,-0.0,0.19153613,0.19153613,-9.442732,0.7150385,47.684196,0.3906904,-3.4519944,-2.467094,-0.50242615,0.14040792,-0.08034058,24.5625,25.0,24.3125,26.125,26.25,26.5
0.018053982,-0.03912421,-0.47390077,1.4124162,-0.012758339,0.028933357,0.05144386,-0.37514076,-0.3296327,0.0020276227,3.0757103,-0.62371296,-0.0076572085,-9.072805e-13,-4.3987692e-13,6.9852154e-13,-7.60772e-13,1.5702707e-12,7.0479536e-16,0.4489782,-1.3789773,2.083783,-2.279991,-1.5710815,2.4235349,0.0,0.0,-1.7448566e-12,-4.2529885e-33,0.0,-0.0,0.019153614,0.17238252,-9.346964,0.7284641,47.71465,0.4084604,-3.4811559,-2.476592,-0.4985583,0.13704933,-0.07894896,24.5625,25.0,24.3125,26.125,26.25,26.5
0.02005531,0.26222426,-0.23764089,1.1632626,-0.0042961277,0.037944652,0.0557153,-0.37515253,-0.32962766,0.0020426365,3.0756938,-0.62376714,-0.0076986477,-3.499436e-06,-1.6839043e-06,1.164224e-05,-1.0502952e-05,2.1800288e-05,-3.8488466e-09,0.44896615,-1.3790014,2.0837715,-2.2799795,-1.5710934,2.4235587,0.0,-2.4198442e-05,-2.340948e-14,-2.7768974e-34,0.0,-0.0,0.38307226,0.24899697,-9.308657,0.7351769,47.70032,0.39979357,-3.4757934,-2.4887538,-0.49782664,0.14763239,-0.07184003,24.5625,25.0,24.3125,26.125,26.25,26.5
0.02205489,-0.3150125,-0.8141494,1.1456052,-0.005091131,0.023710987,0.062848635,-0.37510264,-0.3296335,0.0020095317,3.075725,-0.6237159,-0.00753386,-3.5078506e-06,-1.6880575e-06,1.1667013e-05,-1.0526682e-05,2.1848204e-05,-3.8573504e-09,0.4489901,-1.3789773,2.0838192,-2.2799556,-1.5710458,2.4235468,0.0,-2.4251907e-05,-3.1406804e-16,-1.8131157e-35,0.0,-0.0,-0.095768064,0.11492168,-9.461885,0.72622824,47.709274,0.37512758,-3.465158,-2.4665537,-0.50508535,0.15135524,-0.08019915,24.5625,25.0,24.3125,26.125,26.25,26.5
0.024054792,-0.0024870152,-0.28572294,1.4552891,-0.032110292,0.030187903,0.04955143,-0.37514636,-0.32963544,0.0020244839,3.0757058,-0.6237693,-0.0076426724,-3.461645e-06,-1.6657712e-06,1.1515265e-05,-1.0388674e-05,2.1562426e-05,-3.806874e-09,0.4489782,-1.3789533,2.083759,-2.2799795,-1.5710815,2.4235706,0.0,-2.3934552e-05,-4.2136237e-18,-1.1838351e-36,0.0,-0.0,0.17238252,0.1340753,-9.232041,0.7620334,47.695843,0.4369734,-3.5080328,-2.4623096,-0.4965338,0.124619916,-0.08173176,24.5625,25.0,24.3125,26.125,26.25,26.5
0.02605542,0.036468204,-0.6625583,1.0684322,0.003845957,0.0196612,0.058346003,-0.37510872,-0.32962355,0.0020073787,3.0757418,-0.6237384,-0.0075834314,-3.4165719e-06,-1.6441321e-06,1.1363297e-05,-1.0252626e-05,2.12794e-05,-3.7569268e-09,0.4489901,-1.3789773,2.0838306,-2.2799795,-1.5710815,2.4235587,0.0,-2.3620525e-05,-5.653114e-20,-7.7295965e-38,0.0,-0.0,0.095768064,0.114921674,-9.442732,0.7239871,47.696735,0.38064426,-3.4218216,-2.4310403,-0.5033434,0.12925488,-0.07950325,24.5625,25.0,24.3125,26.125,26.25,26.5
0.028054247,0.49104363,0.0048108106,1.1459464,-0.01100274,0.03755464,0.04678162,-0.37514064,-0.32962826,0.002046171,3.0757253,-0.623716,-0.0077483575,-3.3714907e-06,-1.6224874e-06,1.121689e-05,-1.0120101e-05,2.1003696e-05,-3.7082721e-09,0.44900215,-1.3790253,2.0837944,-2.279991,-1.5711292,2.4235587,0.0,-2.3314624e-05,-7.5843733e-22,-5.046875e-39,0.0,-0.0,0.19153613,0.095768064,-9.423578,0.7105615,47.672558,0.40873265,-3.4511902,-2.465145,-0.4939374,0.13626477,-0.087415464,24.5625,25.0,24.3125,26.125,26.25,26.5
0.03005484,0.22767513,-0.22744027,1.2477306,0.00041895625,0.024474353,0.055192914,-0.37516534,-0.32963818,0.0020479884,3.0756814,-0.6237073,-0.007717645,-3.3283943e-06,-1.6016002e-06,1.1073943e-05,-9.9899335e-06,2.073545e-05,-3.660849e-09,0.44896615,-1.3789895,2.0837467,-2.279991,-1.5710815,2.423523,0.0,-2.3016464e-05,-1.0175405e-23,-3.29525e-40,0.0,-0.0,0.095768064,0.11492168,-9.385271,0.7642693,47.686886,0.405668,-3.4514887,-2.4742289,-0.51076293,0.12814578,-0.07909626,24.5625,25.0,24.3125,26.125,26.25,26.5
0.03205495,0.3242786,-0.25219113,1.073166,0.004133327,0.02674505,0.060563494,-0.3751364,-0.32962632,0.002022894,3.0757334,-0.6237558,-0.007623948,-3.2868743e-06,-1.5816702e-06,1.0933482e-05,-9.864076e-06,2.0473584e-05,-3.6146375e-09,0.4489782,-1.3789654,2.0837715,-2.2799556,-1.5710934,2.4235587,0.0,-2.2725924e-05,-1.3651604e-25,-2.1516e-41,0.0,-0.0,0.0,0.19153613,-9.423578,0.77545905,47.70032,0.42828667,-3.4929621,-2.4212906,-0.49510884,0.12293603,-0.077471696,24.5625,25.0,24.3125,26.125,26.25,26.5
0.034054257,0.09510389,-0.387862,1.2577497,-0.00841349,0.022193363,0.05331805,-0.37511867,-0.3296263,0.0020178072,3.075711,-0.62377036,-0.007601496,-3.245992e-06,-1.5619974e-06,1.0796791e-05,-9.7410775e-06,2.0218293e-05,-3.5695655e-09,0.4489782,-1.3789895,2.0838192,-2.2799795,-1.5710696,2.4235706,0.0,-2.2442548e-05,-1.831537e-27,-1.406e-42,0.0,-0.0,0.0,0.05746084,-9.404425,0.7396539,47.684196,0.49325442,-3.4059892,-2.4402056,-0.48976094,0.12426499,-0.09104356,24.5625,25.0,24.3125,26.125,26.25,26.5
0.036055107,0.32672203,0.036869116,1.2623566,-0.017383676,0.021670604,0.047548078,-0.37511522,-0.32962242,0.002003757,3.075759,-0.6237419,-0.0075779743,-3.2062817e-06,-1.5429357e-06,1.0663764e-05,-9.62136e-06,1.9969202e-05,-3.5256085e-09,0.4489901,-1.3789533,2.0838077,-2.279967,-1.5710934,2.4235587,0.0,-2.2166181e-05,-2.4572406e-29,-9.1e-44,0.0,-0.0,0.076614454,0.019153614,-9.3661175,0.6971306,47.670765,0.35311562,-3.4382527,-2.4360182,-0.503964,0.13994724,-0.07636021,24.5625,25.0,24.3125,26.125,26.25,26.5
0.038054097,0.7533266,-0.2658603,1.3142388,-0.01700421,0.026591692,0.051572822,-0.37513617,-0.3296238,0.0020334783,3.0757263,-0.6237743,-0.007693216,-3.1666953e-06,-1.5238853e-06,1.053448e-05,-9.504329e-06,1.9726302e-05,-3.4827239e-09,0.4489901,-1.3790014,2.0837944,-2.2799795,-1.5711178,2.423583,0.0,-2.1896558e-05,-3.2967024e-31,-6e-45,0.0,-0.0,0.11492168,0.05746084,-9.595961,0.68146914,47.679718,0.39493656,-3.4426732,-2.5050313,-0.49877217,0.14543876,-0.07960686,24.5625,25.0,24.3125,26.125,26.25,26.5
0.040053833,0.77936006,0.29858604,1.5101365,-0.028853841,0.031423345,0.039677203,-0.3751219,-0.3296407,0.0020218764,3.0757108,-0.6237319,-0.007617142,-3.1288457e-06,-1.5057179e-06,1.0407791e-05,-9.39034e-06,1.9489118e-05,-3.4408685e-09,0.44900215,-1.3789773,2.0837944,-2.2799795,-1.5710696,2.4235706,0.0,-2.1633405e-05,-4.4229466e-33,-0.0,0.0,-0.0,0.076614454,0.076614454,-9.481039,0.71279734,47.691364,0.3891815,-3.4365296,-2.4494178,-0.49287894,0.13416186,-0.07755011,24.5625,25.0,24.3125,26.125,26.25,26.5
0.042054377,0.07203728,0.04310598,1.0979171,-0.003160908,0.008983181,0.054521672,-0.37513715,-0.3296202,0.002021881,3.0757294,-0.62373614,-0.0076400926,-3.0917427e-06,-1.4877255e-06,1.0284194e-05,-9.278132e-06,1.925801e-05,-3.4000065e-09,0.44896615,-1.3789773,2.0837944,-2.2799795,-1.5710934,2.4235349,0.0,-2.1376498e-05,-5.933948e-35,-0.0,0.0,-0.0,0.24899697,0.15322891,-9.385271,0.69937176,47.683304,0.39404708,-3.468768,-2.469313,-0.48919076,0.12609161,-0.08923651,24.5625,25.0,24.3125,26.125,26.25,26.5
0.04405385,-0.08665298,-0.19281967,1.2099,-0.016914565,0.017259447,0.057584684,-0.3751359,-0.329641,0.00203563,3.0756822,-0.62380415,-0.007645338,-3.0551626e-06,-1.4702132e-06,1.0163738e-05,-9.169704e-06,1.9031786e-05,-3.3601055e-09,0.4489901,-1.3789895,2.0837715,-2.279967,-1.5710696,2.4236073,0.0,-2.1125632e-05,-7.961148e-37,-0.0,0.0,-0.0,0.11492168,0.095768064,-9.423578,0.73069996,47.71286,0.38104975,-3.4285026,-2.4891798,-0.4925483,0.13437517,-0.08701783,24.5625,25.0,24.3125,26.125,26.25,26.5
0.046054725,0.09551674,-0.8570177,1.1559054,-0.009354069,0.025442123,0.058335587,-0.37515357,-0.32962388,0.0020347503,3.0757213,-0.6237536,-0.0076799775,-3.019771e-06,-1.4530929e-06,1.0045939e-05,-9.0628755e-06,1.8811215e-05,-3.321125e-09,0.44896615,-1.3789773,2.083759,-2.279967,-1.5711054,2.4235468,0.0,-2.0880554e-05,-1.0680896e-38,-0.0,0.0,-0.0,0.1340753,0.11492168,-9.3661175,0.7418897,47.71465,0.36501196,-3.4504738,-2.4541798,-0.51374316,0.1457374,-0.06976458,24.5625,25.0,24.3125,26.125,26.25,26.5
0.048054885,-0.08143218,-0.7533492,1.0152348,-0.0039714347,0.021800227,0.06350526,-0.3751482,-0.32962987,0.0020392078,3.075681,-0.6237835,-0.007687214,-2.9850594e-06,-1.4363899e-06,9.930693e-06,-8.9589485e-06,1.8595501e-05,-3.2830405e-09,0.44896615,-1.3790014,2.083783,-2.279991,-1.5710815,2.4235706,0.0,-2.064111e-05,-1.43298e-40,-0.0,0.0,-0.0,0.095768064,0.13407528,-9.423578,0.7105615,47.7254,0.43886453,-3.5077543,-2.441528,-0.49889624,0.1401575,-0.083115965,24.5625,25.0,24.3125,26.125,26.25,26.5
0.050054602,-0.38178205,-0.592289,1.3720003,-0.014623979,0.021535246,0.059067402,-0.37512898,-0.3296227,0.0020202266,3.0757189,-0.62375295,-0.007653992,-2.9515525e-06,-1.4203107e-06,9.817734e-06,-8.857611e-06,1.8384595e-05,-3.2458238e-09,0.4489782,-1.3789895,2.0838192,-2.2800033,-1.5710934,2.4235587,0.0,-2.0407122e-05,-1.923e-42,-0.0,0.0,-0.0,0.095768064,0.17238252,-9.3661175,0.7396539,47.694054,0.41111153,-3.4370985,-2.4760585,-0.485879,0.15032746,-0.08434358,24.5625,25.0,24.3125,26.125,26.25,26.5
0.052054316,0.48088497,-0.20024872,1.1428694,-0.015665932,0.030582536,0.048986144,-0.37514454,-0.3296174,0.0020334662,3.0757115,-0.6237516,-0.00767019,-2.9182563e-06,-1.404202e-06,9.707842e-06,-8.757875e-06,1.81787e-05,-3.2094356e-09,0.44895422,-1.3790014,2.0837944,-2.2799795,-1.5710934,2.4235349,0.0,-2.0178342e-05,-2.5e-44,-0.0,0.0,-0.0,0.05746084,0.17238252,-9.308657,0.75755644,47.698532,0.37805766,-3.4559708,-2.4943871,-0.4820186,0.13256022,-0.08652235,24.5625,25.0,24.3125,26.125,26.25,26.5
0.054054104,0.30930182,-0.27157363,1.2284454,-0.0070963684,0.03447149,0.04717752,-0.37513462,-0.329634,0.002038943,3.075697,-0.6237675,-0.0076306304,-2.8857767e-06,-1.3886586e-06,9.600263e-06,-8.661227e-06,1.7976987e-05,-3.1738603e-09,0.4489782,-1.3790014,2.0837715,-2.2799432,-1.5710696,2.4235706,0.0,-1.9954672e-05,-0.0,-0.0,0.0,-0.0,0.1340753,0.11492168,-9.3661175,0.7553206,47.69763,0.4246707,-3.485467,-2.4366887,-0.50861156,0.13511802,-0.073342174,24.5625,25.0,24.3125,26.125,26.25,26.5
0.05605418,0.3993726,0.0798358,1.2286419,-0.007033594,0.02697776,0.05710461,-0.37511498,-0.3296202,0.0020106935,3.075731,-0.62379426,-0.0075821937,-3.324717e-07,-1.5998806e-07,1.1058017e-06,-9.976885e-07,2.0707728e-06,-3.655976e-10,0.4489782,-1.3789773,2.0838192,-2.279967,-1.5710815,2.423583,0.0,-2.2985828e-06,-0.0,-0.0,0.0,-0.0,0.038307227,0.21068975,-9.385271,0.800085,47.70032,0.39079106,-3.4498281,-2.4627666,-0.507393,0.14261627,-0.080226064,24.5625,25.0,24.3125,26.125,26.25,26.5
0.058054212,0.50308853,-0.29339343,1.313341,-0.014509977,0.035896562,0.04952696,-0.37512895,-0.32962483,0.002022635,3.075689,-0.6237661,-0.0076473285,-4.4602264e-09,-2.1462305e-09,1.4836143e-08,-1.33849305e-08,2.7782223e-08,-4.9049584e-12,0.44896615,-1.3790014,2.0838306,-2.2800157,-1.5710696,2.4235587,0.0,-3.083842e-08,-0.0,-0.0,0.0,-0.0,0.05746084,0.114921674,-9.385271,0.7418897,47.73525,0.41604263,-3.4346962,-2.508787,-0.506582,0.13344467,-0.08664513,24.5625,25.0,24.3125,26.125,26.25,26.5
0.060054716,-0.13106875,-0.62108445,1.0982298,-0.0030275807,0.022658262,0.062809594,-0.37512374,-0.32961586,0.0020178072,3.0757425,-0.6237577,-0.007635658,-5.9841083e-11,-2.8796009e-11,1.9904291e-10,-1.7958042e-10,3.7273182e-10,-6.580628e-14,0.4489782,-1.3789895,2.0838192,-2.2799795,-1.5711054,2.4235587,0.0,-4.137368e-10,-0.0,-0.0,0.0,-0.0,0.019153614,0.019153614,-9.3661175,0.7284641,47.72002,0.39786512,-3.504901,-2.4571822,-0.49659944,0.1317773,-0.08550421,24.5625,25.0,24.3125,26.125,26.25,26.5
0.062054295,0.59038043,0.122979425,1.1148936,-0.013582336,0.029852709,0.053048823,-0.3751383,-0.3296444,0.0020310348,3.0756712,-0.6237622,-0.0076229675,-8.0277836e-13,-3.8630332e-13,2.6705563e-12,-2.4093006e-12,5.000673e-12,-8.8287525e-16,0.4489782,-1.3789773,2.0837715,-2.2799795,-1.5710458,2.4235706,0.0,-5.550807e-12,-0.0,-0.0,0.0,-0.0,0.095768064,0.05746084,-9.346964,0.73069996,47.72092,0.42902523,-3.4430954,-2.4137397,-0.49207282,0.13186117,-0.08062135,24.5625,25.0,24.3125,26.125,26.25,26.5
0.06405481,0.5596959,-0.073690526,1.5288213,-0.017652344,0.035181213,0.046342973,-0.37510568,-0.32962635,0.0020094183,3.0757296,-0.6237169,-0.0075860526,-1.0771685e-14,-5.18358e-15,3.5826268e-14,-3.232464e-14,6.7090024e-14,-1.1844898e-17,0.4489901,-1.3789895,2.083843,-2.279991,-1.5710696,2.4235468,0.0,-7.4471164e-14,-0.0,-0.0,0.0,-0.0,0.11492168,0.076614454,-9.289503,0.72622824,47.701214,0.4364375,-3.4878345,-2.4837084,-0.506082,0.13724306,-0.08168399,24.5625,25.0,24.3125,26.125,26.25,26.5
0.06605455,-0.03476855,-0.29711103,1.1080906,-0.0032815458,0.016332414,0.061277613,-0.37512854,-0.3296182,0.002017049,3.075753,-0.62377894,-0.007605564,-1.4450987e-16,-6.953931e-17,4.8067055e-16,-4.3366562e-16,9.001036e-16,-1.5891444e-19,0.4489782,-1.3789654,2.083783,-2.2799432,-1.5711054,2.4235706,0.0,-9.991258e-16,-0.0,-0.0,0.0,-0.0,0.095768064,0.1340753,-9.308657,0.75084364,47.68599,0.42555183,-3.4543424,-2.4965827,-0.5094478,0.13061401,-0.07898006,24.5625,25.0,24.3125,26.125,26.25,26.5
0.06805424,0.7033447,0.15871717,1.4557351,-0.019759178,0.03025027,0.045824766,-0.37512988,-0.32960603,0.0020119576,3.0757422,-0.62379605,-0.0076205363,-1.9388681e-18,-9.329418e-19,6.4487112e-18,-5.8178884e-18,1.2076177e-17,-2.1320399e-21,0.44895422,-1.3789773,2.0838192,-2.2799795,-1.5711054,2.4235587,0.0,-1.3404547e-17,-0.0,-0.0,0.0,-0.0,0.11492168,0.15322891,-9.385271,0.7172743,47.694946,0.44079667,-3.5062504,-2.5007703,-0.5014847,0.14176501,-0.0860724,24.5625,25.0,24.3125,26.125,26.25,26.5
0.07005494,0.78989935,-0.40401614,1.4239362,-0.009779877,0.039908886,0.04587298,-0.37513366,-0.32961854,0.0020103536,3.0757437,-0.623739,-0.007610174,-2.6012499e-20,-1.25170376e-20,8.651957e-20,-7.8056323e-20,1.6201639e-19,-2.8604036e-23,0.44896615,-1.3789533,2.0837944,-2.2799795,-1.5710934,2.4235349,0.0,-1.798391e-19,-0.0,-0.0,0.0,-0.0,0.095768064,0.076614454,-9.385271,0.74413085,47.694054,0.42735308,-3.4045868,-2.4670358,-0.48509127,0.13068579,-0.082168445,24.5625,25.0,24.3125,26.125,26.25,26.5
0.07205468,0.095144376,-0.2958509,1.3072463,-0.0073590274,0.024176462,0.05029202,-0.3751264,-0.3296278,0.0020286313,3.0757406,-0.62371916,-0.007624278,-3.4894713e-22,-1.6792126e-22,1.1607721e-21,-1.0472773e-21,2.1736315e-21,-3.8375963e-25,0.4489901,-1.3789895,2.083783,-2.2799432,-1.5710934,2.4235468,0.0,-2.412771e-21,-0.0,-0.0,0.0,-0.0,0.076614454,0.11492168,-9.385271,0.72622824,47.672558,0.44061697,-3.4921346,-2.5048084,-0.50363076,0.13321915,-0.070172474,24.5625,25.0,24.3125,26.125,26.25,26.5
0.074054584,-0.055673975,-0.34952924,1.2403533,-0.015677808,0.026113693,0.05231825,-0.3751375,-0.3296354,0.0020323077,3.0756931,-0.62374765,-0.0076466817,-4.6814907e-24,-2.2527706e-24,1.5573618e-23,-1.4050214e-23,2.916221e-23,-5.1486255e-27,0.4489782,-1.3789895,2.083783,-2.2799795,-1.5710696,2.4235587,0.0,-3.2370402e-23,-0.0,-0.0,0.0,-0.0,0.05746084,0.11492168,-9.32781,0.74413085,47.707485,0.3736571,-3.4988265,-2.4336212,-0.5027334,0.13692333,-0.071086206,24.5625,25.0,24.3125,26.125,26.25,26.5
0.076054126,0.068832345,-0.041194044,1.3847609,-0.01814835,0.02610075,0.046936426,-0.37511432,-0.32963908,0.0020119613,3.0757358,-0.62369883,-0.0076112626,-6.2815046e-26,-3.0229883e-26,2.0893368e-25,-1.885156e-25,3.9124148e-25,-6.907538e-29,0.44901407,-1.3789654,2.0838077,-2.279991,-1.5710815,2.4235587,0.0,-4.3429026e-25,-0.0,-0.0,0.0,-0.0,0.095768064,0.24899697,-9.32781,0.75755644,47.694054,0.41319776,-3.4971967,-2.4645267,-0.50843614,0.13131636,-0.08414494,24.5625,25.0,24.3125,26.125,26.25,26.5
0.07805446,0.32105047,-0.27312118,1.3322119,-0.010896651,0.036621317,0.05435198,-0.37514517,-0.32963914,0.0020426246,3.0756867,-0.6237081,-0.007675893,-8.425976e-28,-4.0546463e-28,2.8032457e-27,-2.5289887e-27,5.2490943e-27,-9.267344e-31,0.4489782,-1.3790014,2.0837715,-2.2799795,-1.5710696,2.4235349,0.0,-5.826558e-27,-0.0,-0.0,0.0,-0.0,0.05746084,0.15322891,-9.3661175,0.7217513,47.688675,0.46744812,-3.4357424,-2.5162292,-0.49187142,0.13862371,-0.07215357,24.5625,25.0,24.3125,26.125,26.25,26.5
0.08005413,-0.2428542,-0.41458368,1.3049201,-0.007292668,0.02026429,0.060820013,-0.37514678,-0.32962704,0.0020310464,3.0757213,-0.6237534,-0.007679915,-1.13053374e-29,-5.4402183e-30,3.7608823e-29,-3.3929613e-29,7.04233e-29,-1.2433324e-32,0.4489782,-1.3789773,2.0837715,-2.2799795,-1.5711054,2.4235587,0.0,-7.817071e-29,-0.0,-0.0,0.0,-0.0,0.15322891,0.19153613,-9.3661175,0.7150385,47.692257,0.392161,-3.4929051,-2.4194946,-0.51044047,0.12155469,-0.07156718,24.5625,25.0,24.3125,26.125,26.25,26.5
0.08205387,-0.11221543,-0.17551391,1.3116862,-0.016838502,0.024204614,0.054552667,-0.37512305,-0.3296391,0.0020136687,3.07572,-0.6237149,-0.007574745,-1.5169109e-31,-7.2997194e-32,5.0455514e-31,-4.5522034e-31,9.448131e-31,-1.6680892e-34,0.4489901,-1.3789533,2.083783,-2.279967,-1.5710577,2.4235468,0.0,-1.0487599e-30,-0.0,-0.0,0.0,-0.0,0.15322891,0.17238252,-9.385271,0.7396539,47.687782,0.3907147,-3.4446573,-2.4520788,-0.5148526,0.13788657,-0.062050696,24.5625,25.0,24.3125,26.125,26.25,26.5
0.08405403,0.5557434,-0.1662491,1.1942565,-0.019720925,0.0402542,0.053219095,-0.3751353,-0.32961932,0.0020235486,3.0757082,-0.623809,-0.007652773,-2.0350278e-33,-9.792414e-34,6.76924e-33,-6.1070583e-33,1.267602e-32,-2.2379546e-36,0.44896615,-1.3789895,2.0838077,-2.279991,-1.5710934,2.423583,0.0,-1.4070453e-32,-0.0,-0.0,0.0,-0.0,0.11492168,0.21068975,-9.481039,0.6926589,47.679718,0.3706239,-3.471558,-2.4340158,-0.49096262,0.14315611,-0.083521575,24.5625,25.0,24.3125,26.125,26.25,26.5
0.086054325,0.44218433,-0.15369743,1.289988,-0.008827234,0.03409547,0.049746867,-0.37512317,-0.32961774,0.0020095399,3.075739,-0.6237571,-0.0075816973,-2.730488e-35,-1.3138923e-35,9.081581e-35,-8.193398e-35,1.7006499e-34,-3.0025017e-38,0.44896615,-1.3789654,2.0838077,-2.279967,-1.5710815,2.4235468,0.0,-1.8877309e-34,-0.0,-0.0,0.0,-0.0,0.1340753,0.19153613,-9.404425,0.6948948,47.694946,0.47185954,-3.4558067,-2.4642594,-0.50000817,0.14137694,-0.087338224,24.5625,25.0,24.3125,26.125,26.25,26.5
0.08805432,0.76721126,-0.10744973,1.3662112,-0.018233698,0.041086715,0.04303559,-0.37515178,-0.3296164,0.0020206885,3.0757642,-0.62372404,-0.007698928,-3.6630222e-37,-1.7626755e-37,1.21847785e-36,-1.0992764e-36,2.2816255e-36,-4.02824e-40,0.4489782,-1.3789533,2.0837715,-2.279991,-1.5711416,2.4235349,0.0,-2.5326318e-36,-0.0,-0.0,0.0,-0.0,0.11492168,0.095768064,-9.500193,0.69041777,47.691364,0.40923253,-3.4372025,-2.4661326,-0.48441595,0.121428765,-0.07164234,24.5625,25.0,24.3125,26.125,26.25,26.5
0.09005369,0.18198465,-0.15386723,1.332307,-0.015333463,0.022272041,0.04918116,-0.37512162,-0.32961267,0.0020292264,3.0757372,-0.6236996,-0.007639511,-4.914179e-39,-2.364669e-39,1.6346402e-38,-1.4747826e-38,3.0611096e-38,-5.405e-42,0.44896615,-1.3790253,2.0838306,-2.279967,-1.5710934,2.423511,0.0,-3.3978486e-38,-0.0,-0.0,0.0,-0.0,0.114921674,0.1340753,-9.3661175,0.72622824,47.685097,0.44922066,-3.4537199,-2.449246,-0.50701237,0.14339426,-0.076757744,24.5625,25.0,24.3125,26.125,26.25,26.5
0.09205407,0.1255864,-0.35765946,1.2684355,-0.0029435218,0.018728204,0.050985094,-0.37510684,-0.32963973,0.0020178002,3.0757296,-0.6236785,-0.0076014465,-6.5932e-41,-3.1731e-41,2.1931e-40,-1.9788e-40,4.10677e-40,-7.3e-44,0.44901407,-1.3789895,2.0838192,-2.2799795,-1.5710696,2.4235468,0.0,-4.55865e-40,-0.0,-0.0,0.0,-0.0,0.095768064,0.13407528,-9.346964,0.7105615,47.672558,0.3930633,-3.4891038,-2.4959106,-0.50532013,0.1490008,-0.075071864,24.5625,25.0,24.3125,26.125,26.25,26.5
0.0940546,0.57221377,0.010837109,1.4695946,-0.013748591,0.026653146,0.05049617,-0.37512055,-0.32961008,0.0020073717,3.0757306,-0.62379366,-0.007583504,-8.84e-43,-4.26e-43,2.943e-42,-2.655e-42,5.51e-42,-1e-45,0.44895422,-1.3789773,2.0838306,-2.2799795,-1.5710815,2.4235587,0.0,-6.117e-42,-0.0,-0.0,0.0,-0.0,0.1340753,0.076614454,-9.32781,0.7172743,47.66808,0.3937531,-3.4109254,-2.508697,-0.49880278,0.13402468,-0.076019034,24.5625,25.0,24.3125,26.125,26.25,26.5
0.09605372,0.5303197,-0.16716948,1.3325683,-0.010827384,0.0241766,0.049972225,-0.37515584,-0.32962498,0.002038059,3.0757072,-0.62375075,-0.007709423,-1.3e-44,-6e-45,3.9e-44,-3.6e-44,7.4e-44,-0.0,0.44896615,-1.3789895,2.0837715,-2.279991,-1.5711054,2.4235468,0.0,-8.3e-44,-0.0,-0.0,0.0,-0.0,0.22984336,0.1340753,-9.346964,0.7463667,47.689575,0.42375934,-3.4541087,-2.4283543,-0.4852063,0.12929836,-0.081407316,24.5625,25.0,24.3125,26.125,26.25,26.5
0.09805398,0.2478802,0.003585339,1.2378569,-0.01360351,0.021130439,0.04894627,-0.3751232,-0.32962206,0.0020152724,3.0757113,-0.6238095,-0.0075851064,-0.0,-0.0,0.0,-0.0,1e-45,-0.0,0.44896615,-1.3789773,2.0838077,-2.279967,-1.5710696,2.423583,0.0,-1e-45,-0.0,-0.0,0.0,-0.0,0.095768064,0.1340753,-9.32781,0.7284641,47.709274,0.4011133,-3.4445353,-2.454289,-0.49383777,0.13280144,-0.068574905,24.5625,25.0,24.3125,26.125,26.25,26.5
0.10005457,0.10589549,-0.49440452,1.3098502,-0.0064462754,0.018312095,0.055646632,-0.37516168,-0.32962573,0.002039316,3.0756793,-0.62380236,-0.0077134618,0.0,-0.0,0.0,0.0,0.0,0.0,0.44895422,-1.3789895,2.0837715,-2.2800033,-1.5710934,2.4235706,0.0,-0.0,-0.0,-0.0,0.0,-0.0,0.1340753,0.15322891,-9.308656,0.77545905,47.689575,0.41543555,-3.4380665,-2.4593327,-0.49672216,0.13471994,-0.07380475,24.5625,25.0,24.3125,26.125,26.25,26.5
0.102053866,0.13955913,-0.45017943,1.3265486,-0.0021877978,0.021175358,0.052854512,-0.375114,-0.32961974,0.0020128533,3.075761,-0.62368506,-0.007566924,0.0,0.0,0.0,0.0,0.0,0.0,0.4489782,-1.3789773,2.0838077,-2.2799432,-1.5710815,2.423511,0.0,0.0,-0.0,-0.0,0.0,-0.0,0.11492168,0.019153614,-9.32781,0.7284641,47.68599,0.39456567,-3.4485302,-2.4547484,-0.5074026,0.12585722,-0.072761305,24.5625,25.0,24.3125,26.125,26.25,26.5
0.10405409,0.66226655,0.03200742,1.35792,-0.015214552,0.03670194,0.047889207,-0.37513888,-0.3296489,0.0020380518,3.0756943,-0.62367135,-0.0076752105,0.0,0.0,0.0,0.0,0.0,0.0,0.44900215,-1.3789895,2.0837715,-2.279991,-1.5710696,2.4235349,0.0,0.0,-0.0,-0.0,0.0,-0.0,0.095768064,0.11492168,-9.423578,0.7284641,47.66808,0.44392496,-3.4177933,-2.4812152,-0.4948703,0.12967843,-0.081885144,24.5625,25.0,24.3125,26.125,26.25,26.5
0.10605415,0.3335014,-0.33822143,1.2475057,-0.007658636,0.028780634,0.05565772,-0.37514257,-0.32962498,0.002032315,3.075717,-0.62377167,-0.007680801,0.0,0.0,0.0,0.0,0.0,0.0,0.4489782,-1.3789895,2.083783,-2.2799795,-1.5711054,2.4235706,0.0,0.0,-0.0,-0.0,0.0,-0.0,0.076614454,0.19153613,-9.423578,0.8291774,47.682407,0.3871518,-3.4625835,-2.4542394,-0.50368875,0.14126667,-0.06311534,24.5625,25.0,24.3125,26.125,26.25,26.5
0.108054146,0.105415545,-0.26538247,1.1718962,-0.0071647204,0.025564315,0.059161913,-0.37511826,-0.3296346,0.0020119613,3.0757396,-0.62368053,-0.007611354,0.0,0.0,0.0,0.0,0.0,0.0,0.44900215,-1.3789654,2.0838077,-2.279991,-1.5710815,2.4235349,0.0,0.0,-0.0,-0.0,0.0,-0.0,0.0,0.17238252,-9.346964,0.75084364,47.70032,0.3918475,-3.478334,-2.4966292,-0.5001365,0.12971742,-0.08037019,24.5625,25.0,24.3125,26.125,26.25,26.5
0.11005447,0.16102897,-0.216129,1.3310696,-0.0102756135,0.026668442,0.05703576,-0.37513012,-0.3296211,0.0020148845,3.0757196,-0.62381124,-0.0075982483,0.0,0.0,0.0,0.0,0.0,0.0,0.44896615,-1.3789654,2.0837944,-2.279967,-1.5710815,2.423583,0.0,0.0,-0.0,-0.0,0.0,-0.0,0.076614454,0.11492168,-9.385271,0.6635613,47.675243,0.3999705,-3.4980009,-2.421455,-0.49618864,0.1356822,-0.08296498,24.5625,25.0,24.3125,26.125,26.25,26.5
0.1120539,-0.016850144,-0.3520164,1.1790897,-0.01020782,0.025426945,0.05688532,-0.3751374,-0.32962677,0.0020414183,3.0756962,-0.6238262,-0.0076695243,2.5909942e-06,1.246807e-06,-8.619716e-06,7.776602e-06,-1.6140884e-05,2.849694e-09,0.4489782,-1.3790134,2.083783,-2.2799556,-1.5710934,2.4236073,0.0,1.7916576e-05,-0.0,-0.0,0.0,-0.0,0.076614454,0.095768064,-9.442732,0.68818194,47.70211,0.44493073,-3.4638705,-2.4803586,-0.49876666,0.12996344,-0.0725186,24.5625,25.0,24.3125,26.125,26.25,26.5
0.114054695,-0.019045942,0.030428078,1.2595104,-0.023399286,0.027203921,0.056586348,-0.37512922,-0.3296249,0.0020161485,3.0757494,-0.62372094,-0.0076364996,2.7277308e-06,1.312646e-06,-9.073111e-06,8.185963e-06,-1.6990027e-05,2.9996283e-09,0.4489901,-1.3789654,2.0837944,-2.2799795,-1.5711054,2.4235468,0.0,1.8859242e-05,-0.0,-0.0,0.0,-0.0,0.076614454,0.19153613,-9.346964,0.7642693,47.68062,0.37662512,-3.4963264,-2.4590867,-0.50009215,0.13878949,-0.07893389,24.5625,25.0,24.3125,26.125,26.25,26.5
0.116053954,-0.11660677,-0.19379818,1.2085245,-0.013179287,0.019906634,0.060840447,-0.37514523,-0.3296434,0.0020314343,3.0757122,-0.6237132,-0.0076833037,2.6739822e-06,1.2868203e-06,-8.895673e-06,8.025674e-06,-1.6656832e-05,2.940819e-09,0.44900215,-1.3789654,2.083759,-2.279991,-1.5710934,2.4235587,0.0,1.8489496e-05,-0.0,-0.0,0.0,-0.0,0.019153614,0.1340753,-9.442732,0.7597976,47.691364,0.40876126,-3.478277,-2.4476929,-0.4987438,0.14046894,-0.07978043,24.5625,25.0,24.3125,26.125,26.25,26.5
0.11805394,0.23694456,-0.27157322,1.2818128,-0.01587668,0.026962318,0.05849892,-0.37512162,-0.32962766,0.0020148891,3.0757492,-0.6237596,-0.007620924,2.62046e-06,1.2610637e-06,-8.716211e-06,7.864222e-06,-1.6321748e-05,2.8816587e-09,0.44900215,-1.3789654,2.0837944,-2.279967,-1.5711054,2.423583,0.0,1.8117546e-05,-0.0,-0.0,0.0,-0.0,0.05746084,0.1340753,-9.481039,0.6971306,47.692257,0.35630798,-3.5162706,-2.4882295,-0.5002487,0.15036571,-0.07107486,24.5625,25.0,24.3125,26.125,26.25,26.5
0.12005451,0.19490911,-0.1080811,1.4595263,-0.014192339,0.022708012,0.057106372,-0.3751533,-0.32963878,0.0020475904,3.0756848,-0.62372684,-0.0077026994,2.568251e-06,1.2358626e-06,-8.54473e-06,7.708636e-06,-1.5999818e-05,2.8247884e-09,0.4489782,-1.3790014,2.083759,-2.2799795,-1.5710815,2.4235468,0.0,1.775999e-05,-0.0,-0.0,0.0,-0.0,0.05746084,0.15322891,-9.423578,0.7642693,47.701214,0.42477122,-3.464137,-2.5019588,-0.48972094,0.13945287,-0.07104662,24.5625,25.0,24.3125,26.125,26.25,26.5
0.12205391,-0.042934597,-0.331625,1.1309714,-0.007608148,0.016246457,0.062158067,-0.37512586,-0.32963616,0.0020218764,3.0757108,-0.62373215,-0.0076172035,2.5189431e-06,1.2121726e-06,-8.378963e-06,7.559658e-06,-1.5690124e-05,2.7701275e-09,0.4489901,-1.3789773,2.0837944,-2.2799795,-1.5710696,2.4235587,0.0,1.7416327e-05,-0.0,-0.0,0.0,-0.0,0.019153614,0.15322891,-9.346964,0.6971306,47.687782,0.4316789,-3.4560547,-2.4671643,-0.4849157,0.14102316,-0.07744044,24.5625,25.0,24.3125,26.125,26.25,26.5
0.12405394,-0.0033950137,-0.5122456,1.258502,-0.008936882,0.022152234,0.053194042,-0.3751244,-0.3296248,0.0020090921,3.0757382,-0.62375677,-0.007583246,2.4713383e-06,1.1892279e-06,-8.219775e-06,7.4159734e-06,-1.5392376e-05,2.7175437e-09,0.4489782,-1.3789533,2.0837944,-2.279967,-1.5710815,2.4235587,0.0,1.7085722e-05,-0.0,-0.0,0.0,-0.0,0.17238252,0.11492168,-9.385271,0.71951014,47.679718,0.45891628,-3.4676087,-2.4238596,-0.5063864,0.13072821,-0.07359223,24.5625,25.0,24.3125,26.125,26.25,26.5
0.12605442,0.30835953,-0.21804643,1.3736007,-0.010147348,0.031766478,0.052530028,-0.37510955,-0.3296304,0.0020037475,3.0757685,-0.6236482,-0.007566663,2.4253486e-06,1.1671689e-06,-8.066506e-06,7.2781713e-06,-1.5105432e-05,2.666914e-09,0.44900215,-1.3789533,2.0838077,-2.279967,-1.5710815,2.423511,0.0,1.6767404e-05,-0.0,-0.0,0.0,-0.0,0.17238252,0.17238252,-9.461885,0.7866488,47.686886,0.43592438,-3.4478664,-2.4725802,-0.513119,0.13217252,-0.063499264,24.5625,25.0,24.3125,26.125,26.25,26.5
0.12805462,0.7160648,-0.0560443,1.3574969,-0.0111958925,0.03981333,0.04948893,-0.37513548,-0.32963657,0.0020288844,3.0756671,-0.62378067,-0.007623914,2.3806604e-06,1.1455573e-06,-7.919328e-06,7.1445284e-06,-1.4829428e-05,2.6181395e-09,0.44896615,-1.3789895,2.0837944,-2.279991,-1.5710458,2.4235706,0.0,1.6460748e-05,-0.0,-0.0,0.0,-0.0,0.05746084,0.13407528,-9.461885,0.7150385,47.694054,0.37874073,-3.4719038,-2.4783452,-0.5190407,0.13515748,-0.081894055,24.5625,25.0,24.3125,26.125,26.25,26.5
0.13005394,-0.07343736,0.15608655,1.3316712,-0.017230187,0.01787417,0.056071624,-0.37511995,-0.32963115,0.0020148868,3.075744,-0.6237387,-0.007609572,2.7326865e-07,1.3150714e-07,-9.0895e-07,8.201024e-07,-1.702076e-06,3.0050717e-10,0.44900215,-1.3789654,2.0837944,-2.279967,-1.5710934,2.4235706,0.0,1.8893467e-06,-0.0,-0.0,0.0,-0.0,-0.019153614,0.019153614,-9.461885,0.73069996,47.664497,0.4362384,-3.4514866,-2.4397364,-0.4868547,0.13463475,-0.0703053,24.5625,25.0,24.3125,26.125,26.25,26.5
0.13205504,0.2839042,-0.36810264,1.3248725,-0.006790175,0.031681467,0.047906086,-0.3751248,-0.32961646,0.0020119504,3.075707,-0.62382776,-0.0075863246,3.6663994e-09,1.7641927e-09,-1.219451e-08,1.1001625e-08,-2.2836048e-08,4.0316873e-12,0.44895422,-1.3789773,2.0838192,-2.2799795,-1.5710696,2.423583,0.0,2.5347996e-08,-0.0,-0.0,0.0,-0.0,0.15322891,0.13407528,-9.32781,0.73069996,47.684196,0.37757665,-3.4771795,-2.451398,-0.5080602,0.13756782,-0.06355783,24.5625,25.0,24.3125,26.125,26.25,26.5
0.13405399,-0.027712835,-0.38337693,1.3194828,-0.008300269,0.020339282,0.058445584,-0.37513545,-0.32963866,0.0020253086,3.0757377,-0.6236611,-0.0076536774,4.9184202e-11,2.366928e-11,-1.6361365e-10,1.4761553e-10,-3.0636765e-10,5.409023e-14,0.44900215,-1.3789654,2.0837715,-2.2799795,-1.5710934,2.423523,0.0,3.4007572e-10,-0.0,-0.0,0.0,-0.0,0.095768064,0.17238252,-9.3661175,0.7284641,47.70211,0.39782965,-3.4815893,-2.4437249,-0.50721467,0.13361669,-0.06590369,24.5625,25.0,24.3125,26.125,26.25,26.5
0.13605414,0.12868369,-0.23003267,1.5021114,-0.015164731,0.036229234,0.050636284,-0.37511936,-0.32959646,0.002002545,3.0757768,-0.62382215,-0.007572288,6.5997755e-13,3.1756707e-13,-2.1949068e-12,1.9802536e-12,-4.1104078e-12,7.2568944e-16,0.44895422,-1.3789654,2.0838192,-2.2799432,-1.5711178,2.4235706,0.0,4.5625496e-12,-0.0,-0.0,0.0,-0.0,0.114921674,0.19153613,-9.346964,0.6725152,47.689575,0.41063866,-3.4683404,-2.4783335,-0.5117495,0.12442675,-0.06450926,24.5625,25.0,24.3125,26.125,26.25,26.5
0.13805422,0.97406864,0.36789817,1.1652633,-0.01126304,0.040460415,0.04898686,-0.37511572,-0.3296291,0.0020131175,3.0757484,-0.6236824,-0.0076233563,8.853655e-15,4.2607112e-15,-2.9448537e-14,2.6570275e-14,-5.5145097e-14,9.73605e-18,0.44900215,-1.3789773,2.0838192,-2.279991,-1.5710934,2.4235349,0.0,6.121243e-14,-0.0,-0.0,0.0,-0.0,0.114921674,0.17238252,-9.500193,0.72622824,47.694054,0.44818315,-3.483224,-2.439108,-0.5040729,0.13681705,-0.06239135,24.5625,25.0,24.3125,26.125,26.25,26.5
0.14005451,0.5935586,-0.10735046,1.5602852,-0.024697065,0.04029714,0.0434369,-0.37513214,-0.32963282,0.0020251984,3.075704,-0.6237689,-0.0076160156,1.1877553e-16,5.7155725e-17,-3.9510058e-16,3.5645645e-16,-7.3985046e-16,1.3062155e-19,0.4489782,-1.3789773,2.083783,-2.279967,-1.5710696,2.4235706,0.0,8.212429e-16,-0.0,-0.0,0.0,-0.0,0.038307227,0.076614454,-9.3661175,0.7597976,47.694946,0.44480094,-3.4458814,-2.4924088,-0.49041355,0.120423526,-0.06918147,24.5625,25.0,24.3125,26.125,26.25,26.5
0.14205396,0.17645064,-0.13730992,1.4330313,-0.01684223,0.031330034,0.049120124,-0.3751348,-0.3296255,0.0020379992,3.0757115,-0.62375146,-0.0076696477,1.593398e-18,7.6675574e-19,-5.3007694e-18,4.782318e-18,-9.9260375e-18,1.7524546e-21,0.4489782,-1.3790134,2.0837944,-2.279967,-1.5710934,2.4235587,0.0,1.1018021e-17,-0.0,-0.0,0.0,-0.0,0.19153613,0.1340753,-9.385271,0.69937176,47.677036,0.43880016,-3.44412,-2.4611635,-0.5016057,0.13781285,-0.08383389,24.5625,25.0,24.3125,26.125,26.25,26.5
0.144054,0.06258825,-0.40835178,1.0262464,0.001426596,0.01764347,0.059055224,-0.37512454,-0.32962483,0.002019457,3.075719,-0.6238117,-0.007598806,2.1379934e-20,1.0288195e-20,-7.111517e-20,6.416089e-20,-1.3317044e-19,2.3511412e-23,0.4489782,-1.3789773,2.0837944,-2.2799556,-1.5710815,2.4235954,0.0,1.478208e-19,-0.0,-0.0,0.0,-0.0,0.0,0.095768064,-9.557653,0.73741806,47.67345,0.450869,-3.4682548,-2.4667368,-0.504453,0.13486913,-0.08046528,24.5625,25.0,24.3125,26.125,26.25,26.5
0.14605395,-0.1409348,-0.8792538,1.2921338,-0.01578235,0.01716334,0.063111074,-0.3751175,-0.32961285,0.00200259,3.0757678,-0.6237819,-0.0075750747,2.8686928e-22,1.3804382e-22,-9.54078e-22,8.608004e-22,-1.7866518e-21,3.1543565e-25,0.4489782,-1.3789533,2.0838077,-2.2799556,-1.5711054,2.4235706,0.0,1.9832049e-21,-0.0,-0.0,0.0,-0.0,0.1340753,0.05746084,-9.385271,0.75084364,47.707485,0.34226647,-3.4735966,-2.4742975,-0.49976367,0.13460816,-0.052178934,24.5625,25.0,24.3125,26.125,26.25,26.5
0.14805436,0.3150789,-0.3534701,1.1312795,-0.0042011016,0.01713639,0.056791097,-0.37511888,-0.32964137,0.0020206126,3.0757072,-0.62369317,-0.0075790454,3.8482635e-24,1.8518717e-24,-1.2800579e-23,1.1549021e-23,-2.3970075e-23,4.231972e-27,0.4489901,-1.3789773,2.0837944,-2.279967,-1.5710458,2.4235349,0.0,2.6607224e-23,-0.0,-0.0,0.0,-0.0,0.076614454,0.076614454,-9.423578,0.7105615,47.72271,0.33835745,-3.4619565,-2.4792824,-0.49798983,0.14415777,-0.071554214,24.5625,25.0,24.3125,26.125,26.25,26.5
0.15005462,0.28794605,-0.18214504,1.2703193,-0.012694828,0.022728166,0.056839842,-0.37509885,-0.3296145,0.0019851634,3.075798,-0.6237308,-0.0075039337,5.1640764e-26,2.4850715e-26,-1.7172549e-25,1.5494484e-25,-3.2158913e-25,5.67773e-29,0.4489901,-1.3789293,2.0838192,-2.2799432,-1.5710934,2.4235468,0.0,3.5696986e-25,-0.0,-0.0,0.0,-0.0,0.076614454,0.17238252,-9.3661175,0.76874626,47.694054,0.41833398,-3.4693155,-2.4618516,-0.4996688,0.13272637,-0.067394964,24.5625,25.0,24.3125,26.125,26.25,26.5
0.15205415,-0.15532647,-0.4877594,1.224408,-0.014860408,0.014651412,0.057628036,-0.37514645,-0.329644,0.0020397112,3.075712,-0.62371314,-0.0076839253,6.9258737e-28,3.3329896e-28,-2.304191e-27,2.0788347e-27,-4.3145037e-27,7.6173995e-31,0.44900215,-1.3789773,2.0837467,-2.279967,-1.5710934,2.4235587,0.0,4.789206e-27,-0.0,-0.0,0.0,-0.0,0.095768064,0.17238252,-9.385271,0.80679786,47.696735,0.40336105,-3.467722,-2.4714622,-0.49648437,0.14124183,-0.076472625,24.5625,25.0,24.3125,26.125,26.25,26.5
0.15405431,0.5209656,-0.022091715,1.1843183,-0.014764311,0.02633462,0.04891517,-0.37513405,-0.32961664,0.0020148845,3.0757198,-0.62381047,-0.0075983102,9.2935945e-30,4.4718777e-30,-3.0911768e-29,2.7887445e-29,-5.7885907e-29,1.02197126e-32,0.44895422,-1.3789654,2.0837944,-2.279967,-1.5710815,2.4235706,0.0,6.425331e-29,-0.0,-0.0,0.0,-0.0,0.05746084,0.19153613,-9.404425,0.7329411,47.711964,0.40101954,-3.4531684,-2.4490147,-0.49929923,0.14550334,-0.070776016,24.5625,25.0,24.3125,26.125,26.25,26.5
0.15605408,0.110453725,-0.18906237,1.3325115,-0.01412196,0.023912616,0.051400825,-0.37512928,-0.3296186,0.0020213756,3.0756965,-0.6237676,-0.0076319366,1.2468038e-31,5.999352e-32,-4.1471784e-31,3.7414568e-31,-7.766133e-31,1.3711049e-34,0.44895422,-1.3790014,2.0838306,-2.2800033,-1.5710696,2.4235468,0.0,8.620401e-31,-0.0,-0.0,0.0,-0.0,0.11492168,0.21068975,-9.423578,0.779936,47.741516,0.42002928,-3.483152,-2.4573824,-0.49260437,0.13110241,-0.071341775,24.5625,25.0,24.3125,26.125,26.25,26.5
0.15805449,0.2600228,-0.4544556,1.1306072,-0.0041304985,0.021837492,0.059394307,-0.3751561,-0.32963592,0.0020418502,3.0756545,-0.6238171,-0.0076650167,1.6725334e-33,8.047869e-34,-5.5643362e-33,5.019642e-33,-1.0419259e-32,1.8395123e-36,0.44895422,-1.3789895,2.083759,-2.2799795,-1.5710577,2.423583,0.0,1.1565369e-32,-0.0,-0.0,0.0,-0.0,0.019153614,0.19153613,-9.423578,0.6971306,47.73614,0.4365638,-3.4089403,-2.4672952,-0.49786907,0.14198439,-0.05933764,24.5625,25.0,24.3125,26.125,26.25,26.5
0.16005355,0.38799,0.18343139,1.2749535,-0.019855369,0.03352353,0.051256936,-0.37514842,-0.32962567,0.0020439113,3.0757232,-0.6236967,-0.0076690353,2.243875e-35,1.07973705e-35,-7.4651146e-35,6.734656e-35,-1.3978684e-34,2.4679402e-38,0.44896615,-1.3790014,2.083759,-2.2799432,-1.5710934,2.423511,0.0,1.5516418e-34,-0.0,-0.0,0.0,-0.0,0.1340753,0.11492168,-9.404425,0.7396539,47.729877,0.39410388,-3.4779887,-2.5174186,-0.49803674,0.15307623,-0.056499362,24.5625,25.0,24.3125,26.125,26.25,26.5
0.16205387,-0.06133671,-0.25570548,1.0411056,-0.004036452,0.01821297,0.061381992,-0.3751227,-0.32962394,0.0020211244,3.0757208,-0.6237724,-0.007611673,3.0108545e-37,1.4488473e-37,-1.0014939e-36,9.035627e-37,-1.875408e-36,3.31106e-40,0.4489782,-1.3789895,2.0838077,-2.279967,-1.5710815,2.4235706,0.0,2.0817254e-36,-0.0,-0.0,0.0,-0.0,0.05746084,0.076614454,-9.3661175,0.7038487,47.701214,0.41828012,-3.448987,-2.5009122,-0.5090991,0.1394945,-0.06711973,24.5625,25.0,24.3125,26.125,26.25,26.5
0.16405424,-0.017522113,-0.6563657,1.2107592,-0.004528748,0.021371938,0.060516234,-0.37514612,-0.32963744,0.0020371408,3.0756583,-0.6237598,-0.0076811183,4.039066e-39,1.94357e-39,-1.3437027e-38,1.2122143e-38,-2.5161138e-38,4.442e-42,0.44896615,-1.3790014,2.0837944,-2.2800157,-1.5710577,2.4235587,0.0,2.7929002e-38,-0.0,-0.0,0.0,-0.0,0.05746084,0.17238252,-9.404425,0.6926589,47.699425,0.41213417,-3.5036502,-2.4778361,-0.50522506,0.14263067,-0.06654448,24.5625,25.0,24.3125,26.125,26.25,26.5
0.16605437,0.010436732,-0.14925075,1.1666226,-0.017538372,0.018211676,0.052604645,-0.3751366,-0.3296221,0.0020277335,3.075724,-0.62377304,-0.007666536,5.4192e-41,2.6078e-41,-1.8027e-40,1.62638e-40,-3.37567e-40,6e-44,0.4489782,-1.3789895,2.0837944,-2.2799795,-1.5711054,2.4235706,0.0,3.74703e-40,-0.0,-0.0,0.0,-0.0,0.038307227,0.05746084,-9.308656,0.7284641,47.705692,0.4147814,-3.4760082,-2.4811559,-0.50632787,0.1410224,-0.0716901,24.5625,25.0,24.3125,26.125,26.25,26.5
0.16805387,0.35239133,-0.2016248,1.2804396,-0.011039438,0.028884314,0.05417923,-0.37512898,-0.3296142,0.0020050067,3.0757387,-0.62375706,-0.0075821774,7.27e-43,3.5e-43,-2.419e-42,2.182e-42,-4.529e-42,1e-45,0.44895422,-1.3789533,2.0838077,-2.2799795,-1.5710815,2.4235349,0.0,5.026e-42,-0.0,-0.0,0.0,-0.0,0.1340753,0.076614454,-9.3661175,0.6926589,47.70032,0.35560757,-3.448787,-2.4896202,-0.4899278,0.14020969,-0.05427049,24.5625,25.0,24.3125,26.125,26.25,26.5
0.17005412,0.0264875,-0.13090336,1.4095035,-0.014146378,0.02136927,0.051569577,-0.3751276,-0.32963485,0.002045894,3.075723,-0.6236963,-0.00766905,1e-44,4e-45,-3.2e-44,3e-44,-6e-44,0.0,0.44900215,-1.3790253,2.083783,-2.2799432,-1.5710934,2.4235468,0.0,6.7e-44,-0.0,-0.0,0.0,-0.0,0.19153613,0.095768064,-9.404425,0.7486078,47.693153,0.41517174,-3.4191208,-2.4989686,-0.48904175,0.13568185,-0.0723843,24.5625,25.0,24.3125,26.125,26.25,26.5
0.17205454,0.2983198,-0.35697797,1.2036766,-0.0029554954,0.022838647,0.056156017,-0.37511483,-0.32963726,0.0020061666,3.0757375,-0.62368006,-0.007584937,0.0,0.0,-0.0,0.0,-1e-45,0.0,0.44900215,-1.3789533,2.0838077,-2.279991,-1.5710696,2.4235349,0.0,1e-45,-0.0,-0.0,0.0,-0.0,0.17238252,0.095768064,-9.346964,0.7642693,47.70659,0.43447384,-3.444734,-2.473049,-0.4897269,0.14080186,-0.06746683,24.5625,25.0,24.3125,26.125,26.25,26.5
0.17405546,0.10849435,-0.18183352,1.3717068,-0.017391117,0.018180307,0.05595869,-0.37514004,-0.32962382,0.0020251984,3.0756965,-0.62380576,-0.007616077,0.0,0.0,0.0,0.0,0.0,0.0,0.44895422,-1.3789773,2.083783,-2.279967,-1.5710696,2.4235706,0.0,0.0,-0.0,-0.0,0.0,-0.0,0.095768064,0.17238252,-9.481039,0.75084364,47.690468,0.42054373,-3.496922,-2.4771035,-0.5028586,0.12924437,-0.0701358,24.5625,25.0,24.3125,26.125,26.25,26.5
0.17605518,-0.072582826,-0.4210457,1.4241877,-0.015447449,0.021714706,0.053904764,-0.3751249,-0.32961857,0.002018198,3.0757344,-0.6237753,-0.007583477,0.0,0.0,0.0,0.0,0.0,0.0,0.44896615,-1.3789773,2.0837944,-2.2799432,-1.5710815,2.4235587,0.0,0.0,-0.0,-0.0,0.0,-0.0,0.19153613,0.076614454,-9.308656,0.7486078,47.68599,0.38675833,-3.4711175,-2.4957147,-0.49424404,0.14132994,-0.05931659,24.5625,25.0,24.3125,26.125,26.25,26.5
0.17805435,0.65767914,-0.0055754096,1.1896493,-0.0076429066,0.03041321,0.06043742,-0.37512916,-0.3296012,0.0020189635,3.0757482,-0.6237782,-0.007648207,0.0,0.0,0.0,0.0,0.0,0.0,0.44895422,-1.3790014,2.0838306,-2.2799795,-1.5711178,2.4235468,0.0,0.0,-0.0,-0.0,0.0,-0.0,0.095768064,0.17238252,-9.385271,0.7665104,47.71286,0.4097808,-3.456929,-2.4946933,-0.49734396,0.12865475,-0.07304868,24.5625,25.0,24.3125,26.125,26.25,26.5
0.18005413,-0.022879114,-0.55531496,1.4326657,-0.00913449,0.025641812,0.0597957,-0.375142,-0.3296269,0.002024047,3.075721,-0.6237344,-0.0076269023,0.0,0.0,0.0,0.0,0.0,0.0,0.44896615,-1.3789654,2.0837715,-2.279967,-1.5710815,2.4235349,0.0,0.0,-0.0,-0.0,0.0,-0.0,0.038307227,0.22984336,-9.404425,0.784413,47.686886,0.42368,-3.4838347,-2.4835334,-0.49451768,0.15265171,-0.07466544,24.5625,25.0,24.3125,26.125,26.25,26.5
0.18205465,0.4106359,0.12821685,1.2566427,-0.01522777,0.028680066,0.05187719,-0.3751055,-0.3296413,0.0020222713,3.0757039,-0.6237114,-0.0075781113,0.0,0.0,0.0,0.0,0.0,0.0,0.44900215,-1.3790014,2.0838192,-2.279967,-1.5710458,2.4235587,0.0,0.0,-0.0,-0.0,0.0,-0.0,0.05746084,0.15322891,-9.308656,0.77545905,47.694946,0.4306665,-3.4270973,-2.4576027,-0.5047417,0.11946386,-0.07502234,24.5625,25.0,24.3125,26.125,26.25,26.5
0.18405381,-0.05658888,0.003975858,1.2955256,-0.014562598,0.021288099,0.052023645,-0.3751578,-0.32963243,0.0020418526,3.0756752,-0.62376326,-0.007676494,0.0,0.0,0.0,0.0,0.0,0.0,0.44895422,-1.3789895,2.083759,-2.2799795,-1.5710696,2.4235468,0.0,0.0,-0.0,-0.0,0.0,-0.0,0.0,0.13407528,-9.385271,0.71279734,47.68599,0.43659052,-3.4672194,-2.4665585,-0.50598687,0.13700613,-0.071731105,24.5625,25.0,24.3125,26.125,26.25,26.5
0.18605386,0.40767163,-0.11390943,1.2817743,-0.01522716,0.04073039,0.049024288,-0.37514618,-0.32961822,0.0020288934,3.075704,-0.6237883,-0.007669509,0.0,0.0,0.0,0.0,0.0,0.0,0.44895422,-1.3789895,2.0837944,-2.279991,-1.5710934,2.4235587,0.0,0.0,-0.0,-0.0,0.0,-0.0,0.095768064,0.11492168,-9.385271,0.7866488,47.68599,0.43516397,-3.5167537,-2.3920262,-0.4974223,0.12874757,-0.05932804,24.5625,25.0,24.3125,26.125,26.25,26.5
0.18805458,-0.096379176,-0.04678469,1.2043622,-0.009783801,0.021897977,0.05192549,-0.37511346,-0.32963228,0.0020156428,3.0757315,-0.6236789,-0.007628343,0.0,0.0,0.0,0.0,0.0,0.0,0.44900215,-1.3789895,2.0838306,-2.2800033,-1.5710815,2.4235349,0.0,0.0,-0.0,-0.0,0.0,-0.0,0.095768064,0.19153613,-9.346964,0.7978386,47.70211,0.38213614,-3.4542809,-2.491372,-0.50082415,0.12611477,-0.073328346,24.5625,25.0,24.3125,26.125,26.25,26.5
0.19005388,-0.122881055,-0.40650892,1.2039583,-0.008957836,0.028158145,0.061074544,-0.3751494,-0.32962185,0.002025565,3.0757096,-0.6237703,-0.0076965853,0.0,0.0,0.0,0.0,0.0,0.0,0.44896615,-1.3789773,2.0837944,-2.2800157,-1.5711054,2.4235587,0.0,0.0,-0.0,-0.0,0.0,-0.0,0.038307227,0.15322891,-9.251195,0.7105615,47.709274,0.34717125,-3.4977689,-2.465631,-0.5003015,0.1393201,-0.055881105,24.5625,25.0,24.3125,26.125,26.25,26.5
0.19205445,-0.43959028,-0.11360109,1.3211957,-0.011814447,0.013944063,0.060639538,-0.3751748,-0.3296407,0.002050498,3.0756423,-0.6237757,-0.0077370866,0.0,0.0,0.0,0.0,0.0,0.0,0.44895422,-1.3789895,2.0837467,-2.2800157,-1.5710696,2.4235587,0.0,0.0,-0.0,-0.0,0.0,-0.0,0.038307227,0.114921674,-9.385271,0.7329411,47.698532,0.45529097,-3.4425898,-2.4324055,-0.51582545,0.12936342,-0.054306764,24.5625,25.0,24.3125,26.125,26.25,26.5
0.19405438,0.37257412,-0.3186893,1.278275,-0.010843712,0.032101333,0.054723978,-0.3751117,-0.32962292,0.0020153786,3.075729,-0.6237549,-0.0075717904,0.0,0.0,0.0,0.0,0.0,0.0,0.4489782,-1.3789895,2.0838192,-2.2799556,-1.5710696,2.4235587,0.0,0.0,-0.0,-0.0,0.0,-0.0,0.05746084,0.095768064,-9.423578,0.7665104,47.698532,0.46283668,-3.5348701,-2.4310274,-0.50816166,0.13878888,-0.05318447,24.5625,25.0,24.3125,26.125,26.25,26.5
0.19605386,-0.076555744,-0.5925066,1.1150533,-0.0077154376,0.020012138,0.062503874,-0.3751188,-0.32961985,0.002019967,3.0757535,-0.6237409,-0.007620176,0.0,0.0,0.0,0.0,0.0,0.0,0.4489901,-1.3789895,2.0838077,-2.2799556,-1.5711054,2.4235587,0.0,0.0,-0.0,-0.0,0.0,-0.0,0.11492168,0.15322891,-9.3661175,0.8023209,47.711063,0.42381483,-3.4399352,-2.5152764,-0.5025573,0.12120752,-0.060064998,24.5625,25.0,24.3125,26.125,26.25,26.5
0.19805421,-0.22856486,0.054956116,1.1756744,-0.019303005,0.0126295695,0.061989244,-0.37512273,-0.32962826,0.002026857,3.0757043,-0.62376904,-0.007615174,0.0,0.0,0.0,0.0,0.0,0.0,0.4489782,-1.3790014,2.0838077,-2.279967,-1.5710696,2.4235706,0.0,0.0,-0.0,-0.0,0.0,-0.0,0.095768064,0.19153613,-9.346964,0.6971306,47.703903,0.42825386,-3.4777403,-2.4501648,-0.49077654,0.14080694,-0.07163283,24.5625,25.0,24.3125,26.125,26.25,26.5
0.20005456,0.13603988,-0.3621589,1.3887197,-0.0131581,0.024404287,0.056250263,-0.37512037,-0.3296271,0.002023535,3.0757,-0.623788,-0.00761633,0.0,0.0,0.0,0.0,0.0,0.0,0.4489782,-1.3790014,2.0838192,-2.2799795,-1.5710696,2.423583,0.0,0.0,-0.0,-0.0,0.0,-0.0,0.095768064,0.24899697,-9.289502,0.8023209,47.701214,0.3648448,-3.4445107,-2.4881773,-0.49689463,0.14167887,-0.058372587,24.5625,25.0,24.3125,26.125,26.25,26.5
0.20205423,0.37256435,-0.040597476,1.1985291,-0.009477957,0.02294077,0.04747268,-0.37514862,-0.32963008,0.002039433,3.075706,-0.6237314,-0.0076581594,0.0,0.0,0.0,0.0,0.0,0.0,0.44896615,-1.3789895,2.083759,-2.2799556,-1.5710815,2.4235349,0.0,0.0,-0.0,-0.0,0.0,-0.0,0.15322891,0.2681506,-9.3661175,0.7642693,47.672558,0.3989689,-3.4940715,-2.477235,-0.49615294,0.13335718,-0.07332148,24.5625,25.0,24.3125,26.125,26.25,26.5
0.20405473,-0.3364191,-0.50353825,1.1881777,-0.010525942,0.006811355,0.05417388,-0.37514192,-0.32963327,0.0020358858,3.075688,-0.6237466,-0.0076884013,0.0,0.0,0.0,0.0,0.0,0.0,0.4489782,-1.3790014,2.0837944,-2.2800033,-1.5710815,2.4235587,0.0,0.0,-0.0,-0.0,0.0,-0.0,0.15322891,0.17238252,-9.385271,0.7239871,47.693153,0.37513077,-3.4758015,-2.443583,-0.48862195,0.126607,-0.0592402,24.5625,25.0,24.3125,26.125,26.25,26.5
0.2060542,0.39761478,-0.08032029,1.3691859,-0.016690984,0.02359203,0.04759585,-0.37514055,-0.32962614,0.0020288911,3.0757024,-0.62374973,-0.0076581254,0.0,0.0,0.0,0.0,0.0,0.0,0.44896615,-1.3789895,2.0837944,-2.279991,-1.5710815,2.4235468,0.0,0.0,-0.0,-0.0,0.0,-0.0,0.17238252,0.17238252,-9.385271,0.7463667,47.701214,0.4173895,-3.4372249,-2.4518013,-0.49471205,0.1126698,-0.06090848,24.5625,25.0,24.3125,26.125,26.25,26.5
0.20805427,0.37756714,-0.04608458,1.1355033,-0.014873623,0.019923178,0.053151708,-0.37513268,-0.32961807,0.0020125133,3.0757437,-0.62377715,-0.007594661,0.0,0.0,0.0,0.0,0.0,0.0,0.44896615,-1.3789533,2.083783,-2.2799556,-1.5710934,2.4235587,0.0,0.0,-0.0,-0.0,0.0,-0.0,0.1340753,0.1340753,-9.461885,0.7486078,47.744205,0.39567643,-3.4184322,-2.539332,-0.48366162,0.1501515,-0.06602754,24.5625,25.0,24.3125,26.125,26.25,26.5
0.21005443,0.12719443,-0.41247842,1.266934,-0.012109972,0.023051905,0.05386451,-0.37514058,-0.3296154,0.0020459015,3.0757396,-0.6237572,-0.007703231,0.0,0.0,0.0,0.0,0.0,0.0,0.4489782,-1.3790253,2.083783,-2.2799432,-1.5711292,2.4235587,0.0,0.0,-0.0,-0.0,0.0,-0.0,0.11492168,0.15322891,-9.423578,0.7105615,47.69763,0.3938812,-3.443634,-2.484658,-0.48122227,0.13941571,-0.062902704,24.5625,25.0,24.3125,26.125,26.25,26.5
0.2120545,0.35407394,-0.06641554,1.135347,-0.0075208386,0.019901099,0.042596124,-0.3751262,-0.32962137,0.0020194596,3.0757475,-0.6237205,-0.007610344,0.0,0.0,0.0,0.0,0.0,0.0,0.4489782,-1.3789773,2.0837944,-2.2799556,-1.5710934,2.4235349,0.0,0.0,-0.0,-0.0,0.0,-0.0,0.095768064,0.1340753,-9.423578,0.7172743,47.691364,0.38410753,-3.4203868,-2.4717863,-0.50922394,0.12662435,-0.058402833,24.5625,25.0,24.3125,26.125,26.25,26.5
0.21405408,-0.06294444,-0.31513628,1.0997792,-0.010127121,0.016193459,0.05388742,-0.3751183,-0.3296111,0.002007374,3.0757399,-0.6237955,-0.0075948266,0.0,0.0,0.0,0.0,0.0,0.0,0.44896615,-1.3789773,2.0838306,-2.2799795,-1.5710934,2.4235706,0.0,0.0,-0.0,-0.0,0.0,-0.0,0.038307227,0.17238252,-9.3661175,0.7284641,47.70032,0.41826874,-3.4543858,-2.4567113,-0.50348055,0.13955784,-0.049248233,24.5625,25.0,24.3125,26.125,26.25,26.5
0.2160547,0.43817496,-0.16993177,1.1298738,-0.01452657,0.029617451,0.059500527,-0.37512818,-0.3296395,0.0020070309,3.0757034,-0.62371147,-0.007579444,0.0,0.0,0.0,0.0,0.0,0.0,0.4489782,-1.3789414,2.0837944,-2.2800033,-1.5710458,2.4235349,0.0,0.0,-0.0,-0.0,0.0,-0.0,0.1340753,0.076614454,-9.346964,0.7418897,47.699425,0.37313545,-3.4650507,-2.5200496,-0.50436705,0.13353358,-0.045629792,24.5625,25.0,24.3125,26.125,26.25,26.5
0.21805376,0.0054463553,-0.2621585,1.1021258,-0.0051815473,0.022784619,0.05460587,-0.37513015,-0.32962543,0.002017694,3.0757046,-0.6237692,-0.0076148864,0.0,0.0,0.0,0.0,0.0,0.0,0.44896615,-1.3789773,2.0838077,-2.279991,-1.5710696,2.4235587,0.0,0.0,-0.0,-0.0,0.0,-0.0,0.095768064,0.095768064,-9.346964,0.7016076,47.694946,0.39017737,-3.4625258,-2.5470548,-0.48350048,0.12759748,-0.05832904,24.5625,25.0,24.3125,26.125,26.25,26.5
0.22005454,0.44652453,-0.2798042,1.2608901,-0.0121259,0.035812933,0.04746055,-0.37513414,-0.32964018,0.0020297798,3.0757084,-0.62371254,-0.007630312,0.0,0.0,0.0,0.0,0.0,0.0,0.4489901,-1.3789773,2.0837715,-2.279967,-1.5710696,2.4235468,0.0,0.0,-0.0,-0.0,0.0,-0.0,0.038307227,0.095768064,-9.404425,0.7530795,47.701214,0.3753932,-3.4961002,-2.4584334,-0.49358726,0.14363046,-0.0561923,24.5625,25.0,24.3125,26.125,26.25,26.5
0.22205402,-0.026451765,-0.18049932,1.0586501,-0.008493406,0.017094951,0.061221756,-0.37514675,-0.32965702,0.0020468137,3.0756733,-0.62368613,-0.00768044,0.0,0.0,0.0,0.0,0.0,0.0,0.44900215,-1.3789895,2.0837467,-2.2799795,-1.5710577,2.4235468,0.0,0.0,-0.0,-0.0,0.0,-0.0,0.076614454,0.17238252,-9.404425,0.73069996,47.71554,0.39881414,-3.4264052,-2.448321,-0.50728536,0.1470351,-0.049269542,24.5625,25.0,24.3125,26.125,26.25,26.5
0.22405425,0.32223013,-0.22660454,1.1452563,-0.014987941,0.03624125,0.054363985,-0.37512895,-0.32961392,0.0020086467,3.0757673,-0.62368643,-0.007647268,0.0,0.0,0.0,0.0,0.0,0.0,0.4489782,-1.3789654,2.0838192,-2.2800033,-1.5711178,2.423511,0.0,0.0,-0.0,-0.0,0.0,-0.0,0.038307227,0.21068975,-9.423578,0.6926589,47.699425,0.4084859,-3.4731097,-2.476938,-0.5024936,0.12569313,-0.05203028,24.5625,25.0,24.3125,26.125,26.25,26.5
0.22605379,0.27931005,-0.3414845,1.2636459,-0.010028532,0.03142408,0.052374482,-0.37511525,-0.3296118,0.0020061103,3.0757363,-0.6237566,-0.007556728,0.0,0.0,0.0,0.0,0.0,0.0,0.44895422,-1.3789773,2.0838306,-2.279967,-1.5710696,2.4235349,0.0,0.0,-0.0,-0.0,0.0,-0.0,0.15322891,0.076614454,-9.3661175,0.7486078,47.716442,0.37868208,-3.4896789,-2.478762,-0.4967929,0.14887145,-0.05836128,24.5625,25.0,24.3125,26.125,26.25,26.5
0.22805455,0.22505195,-0.13756709,1.2793016,-0.011092895,0.027610816,0.051542427,-0.37512955,-0.32962298,0.002020622,3.0757406,-0.6237191,-0.0076246085,0.0,0.0,0.0,0.0,0.0,0.0,0.4489782,-1.3789773,2.0837944,-2.279967,-1.5710934,2.4235349,0.0,0.0,-0.0,-0.0,0.0,-0.0,0.05746084,0.05746084,-9.442732,0.800085,47.71554,0.4457811,-3.4050984,-2.4923935,-0.49438742,0.123888984,-0.054849874,24.5625,25.0,24.3125,26.125,26.25,26.5
0.23005378,0.20274962,0.0723744,1.4245714,-0.020277902,0.03049412,0.04485239,-0.37513593,-0.32961753,0.002031042,3.0757012,-0.6238266,-0.0076289657,0.0,0.0,0.0,0.0,0.0,0.0,0.44895422,-1.3790014,2.0837944,-2.2799556,-1.5710815,2.423583,0.0,0.0,-0.0,-0.0,0.0,-0.0,0.05746084,0.095768064,-9.385271,0.7105615,47.713753,0.3217833,-3.4526358,-2.4987035,-0.49795526,0.13004448,-0.06857858,24.5625,25.0,24.3125,26.125,26.25,26.5
0.2320541,-0.3405797,-0.34545007,1.2113932,-0.010959991,0.012356532,0.06618977,-0.3751498,-0.32963488,0.0020334683,3.0757143,-0.62371385,-0.007709632,0.0,0.0,0.0,0.0,0.0,0.0,0.4489901,-1.3789773,2.0837715,-2.2800033,-1.5711054,2.4235468,0.0,0.0,-0.0,-0.0,0.0,-0.0,0.1340753,0.11492168,-9.461885,0.7486078,47.70211,0.3640998,-3.4766638,-2.4910972,-0.49192142,0.13718048,-0.05933825,24.5625,25.0,24.3125,26.125,26.25,26.5
0.23405486,0.17032392,-0.02181928,1.2095761,-0.010309355,0.025826477,0.051253933,-0.375136,-0.32963675,0.0020402048,3.0757062,-0.62373126,-0.007657467,0.0,0.0,0.0,0.0,0.0,0.0,0.4489901,-1.3790014,2.0837715,-2.2799556,-1.5710815,2.4235587,0.0,0.0,-0.0,-0.0,0.0,-0.0,0.05746084,0.11492168,-9.423578,0.7284641,47.701214,0.40022814,-3.441726,-2.4266245,-0.49836275,0.13767996,-0.059157327,24.5625,25.0,24.3125,26.125,26.25,26.5
0.23605429,0.49280238,0.019690564,1.2549131,-0.02010406,0.030453855,0.051090736,-0.37510395,-0.32961693,0.0020024113,3.0757546,-0.62376016,-0.0075793117,0.0,0.0,0.0,0.0,0.0,0.0,0.4489901,-1.3789773,2.083843,-2.2799795,-1.5710934,2.4235706,0.0,0.0,-0.0,-0.0,0.0,-0.0,0.038307227,0.15322891,-9.385271,0.72622824,47.682407,0.4166304,-3.4758334,-2.5093536,-0.51325923,0.13043047,-0.057023324,24.5625,25.0,24.3125,26.125,26.25,26.5
0.23805366,-0.19640508,-0.39490947,1.1865097,-0.008510935,0.0145447375,0.058408406,-0.37512842,-0.3296246,0.002011959,3.075723,-0.6237157,-0.0076000933,0.0,0.0,0.0,0.0,0.0,0.0,0.44896615,-1.3789654,2.0838077,-2.279991,-1.5710696,2.423523,0.0,0.0,-0.0,-0.0,0.0,-0.0,0.095768064,0.21068975,-9.385271,0.7777002,47.66808,0.3657621,-3.4073715,-2.5192149,-0.4949447,0.13240512,-0.04997985,24.5625,25.0,24.3125,26.125,26.25,26.5
0.24005416,0.2851435,0.07742481,1.2744565,-0.015572306,0.025623217,0.052324053,-0.37513754,-0.32963324,0.0020297845,3.0757267,-0.62371635,-0.0076530785,0.0,0.0,0.0,0.0,0.0,0.0,0.4489901,-1.3789773,2.0837715,-2.279967,-1.5710934,2.4235468,0.0,0.0,-0.0,-0.0,0.0,-0.0,0.05746084,0.11492168,-9.32781,0.72622824,47.66987,0.3793304,-3.4981036,-2.4208903,-0.5015267,0.14541082,-0.056677576,24.5625,25.0,24.3125,26.125,26.25,26.5
0.24205445,0.37556562,-0.27697498,1.1726121,-0.0065334365,0.027339637,0.05631195,-0.37514433,-0.32962137,0.0020323175,3.075723,-0.6237927,-0.007692609,0.0,0.0,0.0,0.0,0.0,0.0,0.4489782,-1.3789895,2.083783,-2.2799795,-1.5711178,2.423583,0.0,0.0,-0.0,-0.0,0.0,-0.0,0.038307227,0.19153613,-9.3661175,0.7351769,47.705692,0.34835857,-3.4321532,-2.487113,-0.50627136,0.13311765,-0.070346646,24.5625,25.0,24.3125,26.125,26.25,26.5
0.24405438,0.21036276,-0.20141426,1.3544953,-0.009864054,0.020789012,0.053669065,-0.37512743,-0.3296326,0.0020322045,3.0757093,-0.623751,-0.0076431697,0.0,0.0,0.0,0.0,0.0,0.0,0.4489901,-1.3790014,2.0837944,-2.279967,-1.5710815,2.4235706,0.0,0.0,-0.0,-0.0,0.0,-0.0,-0.019153614,0.11492168,-9.346964,0.6971306,47.677036,0.45831466,-3.4724758,-2.4948156,-0.5018131,0.14479095,-0.047105975,24.5625,25.0,24.3125,26.125,26.25,26.5
0.24605381,0.47001767,-0.10492646,1.4029434,-0.012481252,0.027839407,0.05151581,-0.375122,-0.32961056,0.0020062253,3.0757627,-0.6237809,-0.0076173996,0.0,0.0,0.0,0.0,0.0,0.0,0.4489782,-1.3789654,2.0838192,-2.2799795,-1.5711178,2.4235706,0.0,0.0,-0.0,-0.0,0.0,-0.0,0.019153614,0.17238252,-9.3661175,0.7620334,47.653748,0.38987485,-3.420081,-2.4329119,-0.4990804,0.12392466,-0.054900303,24.5625,25.0,24.3125,26.125,26.25,26.5
0.24805415,0.5066063,-0.3994245,1.2301912,-0.0069238045,0.030657766,0.04932866,-0.37513772,-0.32961622,0.002013678,3.0757422,-0.62379605,-0.0076202787,0.0,0.0,0.0,0.0,0.0,0.0,0.44896615,-1.3789533,2.083783,-2.279967,-1.5711054,2.4235706,0.0,0.0,-0.0,-0.0,0.0,-0.0,0.1340753,0.038307227,-9.308656,0.679228,47.711964,0.3671143,-3.4635925,-2.4449933,-0.50195515,0.1310949,-0.049740482,24.5625,25.0,24.3125,26.125,26.25,26.5
0.25005457,0.6874128,0.04284979,1.4227979,-0.017841117,0.034524202,0.049167518,-0.37512052,-0.3296207,0.0020050113,3.0757682,-0.6237057,-0.007604853,0.0,0.0,0.0,0.0,0.0,0.0,0.4489901,-1.3789533,2.0838077,-2.2799795,-1.5711054,2.4235349,0.0,0.0,-0.0,-0.0,0.0,-0.0,0.11492168,0.019153614,-9.3661175,0.7463667,47.684196,0.40509415,-3.4792318,-2.4843273,-0.49975735,0.14200525,-0.04851704,24.5625,25.0,24.3125,26.125,26.25,26.5
0.25205413,0.35610402,-0.33392403,1.2572795,-0.011195793,0.024588061,0.05787121,-0.37512773,-0.3296306,0.002029893,3.0757463,-0.62370104,-0.0076510836,0.0,0.0,0.0,0.0,0.0,0.0,0.44900215,-1.3789895,2.083783,-2.2799556,-1.5711054,2.4235468,0.0,0.0,-0.0,-0.0,0.0,-0.0,0.076614454,0.1340753,-9.308657,0.73069996,47.682407,0.41214395,-3.4231415,-2.4650497,-0.499325,0.13416262,-0.06345893,24.5625,25.0,24.3125,26.125,26.25,26.5
0.25405365,0.033376828,-0.35690102,1.2985835,-0.011722745,0.015088671,0.059463363,-0.37514886,-0.3296281,0.0020438356,3.0756676,-0.6237999,-0.0076766303,0.0,0.0,0.0,0.0,0.0,0.0,0.44895422,-1.3790134,2.083783,-2.2799795,-1.5710696,2.4235706,0.0,0.0,-0.0,-0.0,0.0,-0.0,0.15322891,0.22984336,-9.404425,0.72622824,47.71017,0.39086416,-3.4535117,-2.469026,-0.4994172,0.13047887,-0.048840668,24.5625,25.0,24.3125,26.125,26.25,26.5
0.25605375,0.21802372,-0.20592186,1.2789305,-0.019236123,0.022916539,0.0505476,-0.37514654,-0.32962048,0.002032315,3.0757208,-0.62375355,-0.0076808934,0.0,0.0,0.0,0.0,0.0,0.0,0.44896615,-1.3789895,2.083783,-2.2799795,-1.5711054,2.4235468,0.0,0.0,-0.0,-0.0,0.0,-0.0,0.038307227,0.19153614,-9.404425,0.7665104,47.721813,0.40621924,-3.4352014,-2.5305994,-0.5021527,0.141308,-0.06499716,24.5625,25.0,24.3125,26.125,26.25,26.5
0.25805423,0.18766089,-0.27077046,1.1800683,-0.014379718,0.022054141,0.05322134,-0.37514117,-0.3296179,0.0020252056,3.0757356,-0.62375647,-0.0076502576,0.0,0.0,0.0,0.0,0.0,0.0,0.44896615,-1.3789773,2.083783,-2.279967,-1.5711054,2.4235468,0.0,0.0,-0.0,-0.0,0.0,-0.0,0.11492168,0.095768064,-9.404425,0.69937176,47.70659,0.458054,-3.4464712,-2.4626393,-0.49108404,0.13881865,-0.053008903,24.5625,25.0,24.3125,26.125,26.25,26.5
0.26005465,0.02347559,-0.33667776,1.4362551,-0.014889764,0.019072905,0.052823845,-0.37513933,-0.32963836,0.0020413673,3.075707,-0.6236932,-0.0076717925,0.0,0.0,0.0,0.0,0.0,0.0,0.4489901,-1.3790014,2.0837715,-2.279967,-1.5710815,2.4235349,0.0,0.0,-0.0,-0.0,0.0,-0.0,0.076614454,0.17238252,-9.346964,0.7463667,47.681515,0.35300183,-3.4599838,-2.4741747,-0.5013732,0.13196623,-0.0508211,24.5625,25.0,24.3125,26.125,26.25,26.5
0.26205423,0.26981774,-0.06577939,1.2141966,-0.019500991,0.026162323,0.05573608,-0.3751318,-0.32960886,0.0020211318,3.075745,-0.62379664,-0.0076463097,0.0,0.0,0.0,0.0,0.0,0.0,0.44896615,-1.3789895,2.0838077,-2.279967,-1.5711178,2.4235706,0.0,0.0,-0.0,-0.0,0.0,-0.0,0.11492168,0.22984336,-9.308656,0.7463667,47.705692,0.41008252,-3.4749403,-2.465647,-0.50525314,0.13271138,-0.05768455,24.5625,25.0,24.3125,26.125,26.25,26.5
0.26405475,0.16421583,-0.28012103,1.28339,-0.014127261,0.026778385,0.05064816,-0.3751209,-0.32961875,0.0020302327,3.07573,-0.6237743,-0.007623257,0.0,0.0,0.0,0.0,0.0,0.0,0.4489782,-1.3790134,2.0838077,-2.2799432,-1.5710934,2.4235706,0.0,0.0,-0.0,-0.0,0.0,-0.0,0.05746084,0.19153613,-9.32781,0.71951014,47.675243,0.35742307,-3.429587,-2.5080237,-0.50596297,0.1370833,-0.060653828,24.5625,25.0,24.3125,26.125,26.25,26.5
0.26605427,0.091010295,-0.47186196,1.1407839,-0.0037033558,0.026514769,0.0583231,-0.37513772,-0.3296162,0.002034369,3.0757318,-0.6237748,-0.0076505765,0.0,0.0,0.0,0.0,0.0,0.0,0.44896615,-1.3790014,2.083783,-2.2799432,-1.5711054,2.4235587,0.0,0.0,-0.0,-0.0,0.0,-0.0,0.038307227,0.19153613,-9.481039,0.72622824,47.685097,0.3792825,-3.433633,-2.496407,-0.5036262,0.14636414,-0.05124025,24.5625,25.0,24.3125,26.125,26.25,26.5
0.2680537,0.08382032,-0.23898299,1.0510185,-0.011515042,0.0274047,0.0569463,-0.3751262,-0.32962137,0.0020194596,3.075736,-0.6237755,-0.007610253,0.0,0.0,0.0,0.0,0.0,0.0,0.4489782,-1.3789773,2.0837944,-2.2799556,-1.5710934,2.4235706,0.0,0.0,-0.0,-0.0,0.0,-0.0,0.095768064,0.15322891,-9.423578,0.6971306,47.71286,0.34213352,-3.4519458,-2.4562538,-0.504527,0.13792229,-0.050724912,24.5625,25.0,24.3125,26.125,26.25,26.5
0.27005425,0.16968815,-0.014080883,1.2703047,-0.01165232,0.026155775,0.04851936,-0.3751472,-0.32962507,0.0020356346,3.0757122,-0.62375176,-0.0076683224,0.0,0.0,0.0,0.0,0.0,0.0,0.44896615,-1.3789895,2.0837715,-2.279967,-1.5710934,2.4235468,0.0,0.0,-0.0,-0.0,0.0,-0.0,0.095768064,0.076614454,-9.385271,0.78217715,47.70211,0.34441814,-3.469943,-2.5305867,-0.5106314,0.13294014,-0.06326367,24.5625,25.0,24.3125,26.125,26.25,26.5
0.27205467,0.34396744,0.2343881,1.2837006,-0.017905425,0.033198286,0.0549234,-0.37514758,-0.32962525,0.0020358881,3.0756934,-0.623767,-0.0076998156,0.0,0.0,0.0,0.0,0.0,0.0,0.44896615,-1.3790014,2.0837944,-2.2800033,-1.5710934,2.4235587,0.0,0.0,-0.0,-0.0,0.0,-0.0,0.038307227,0.095768064,-9.423578,0.7396539,47.686886,0.39674437,-3.4791672,-2.4642007,-0.508956,0.13219157,-0.07195731,24.5625,25.0,24.3125,26.125,26.25,26.5
0.27405447,-0.069141954,0.3006355,1.4786177,-0.016998911,0.024806704,0.055737626,-0.37510946,-0.3296239,0.002015381,3.0757494,-0.6237018,-0.0075832037,0.0,0.0,0.0,0.0,0.0,0.0,0.4489901,-1.3789895,2.0838192,-2.2799556,-1.5710815,2.4235349,0.0,0.0,-0.0,-0.0,0.0,-0.0,0.05746084,0.05746084,-9.32781,0.75084364,47.70211,0.39343822,-3.4786265,-2.487055,-0.50239277,0.13638833,-0.061029635,24.5625,25.0,24.3125,26.125,26.25,26.5
0.27605408,-0.29156905,-0.48472315,1.271714,0.0019202924,0.01690032,0.06383945,-0.37515852,-0.32963488,0.0020352327,3.0756989,-0.6237299,-0.0076732645,0.0,0.0,0.0,0.0,0.0,0.0,0.44896615,-1.3789654,2.0837467,-2.2799795,-1.5710815,2.4235349,0.0,0.0,-0.0,-0.0,0.0,-0.0,0.05746084,0.095768064,-9.346964,0.6635613,47.689575,0.45209277,-3.4275627,-2.4987826,-0.48611215,0.13816833,-0.065748885,24.5625,25.0,24.3125,26.125,26.25,26.5
0.2780547,0.078321464,-0.04958167,1.3060846,-0.010144555,0.026316933,0.057325307,-0.37511888,-0.3296285,0.002010799,3.0757275,-0.62377447,-0.007596997,0.0,0.0,0.0,0.0,0.0,0.0,0.4489901,-1.3789654,2.0838077,-2.2799795,-1.5710815,2.423583,0.0,0.0,-0.0,-0.0,0.0,-0.0,0.05746084,0.095768064,-9.32781,0.7351769,47.66808,0.40363795,-3.5254004,-2.4819474,-0.49891153,0.12954807,-0.0724369,24.5625,25.0,24.3125,26.125,26.25,26.5
0.28005433,0.28254816,-0.32877886,1.3613025,-0.0061125965,0.032292522,0.054311227,-0.3751516,-0.32962292,0.0020392127,3.075707,-0.6237507,-0.007710042,0.0,0.0,0.0,0.0,0.0,0.0,0.44896615,-1.3790014,2.083783,-2.279991,-1.5711054,2.4235468,0.0,0.0,-0.0,-0.0,0.0,-0.0,0.076614454,0.095768064,-9.308657,0.7351769,47.68062,0.38346303,-3.4576664,-2.5052361,-0.5015521,0.13615048,-0.054650754,24.5625,25.0,24.3125,26.125,26.25,26.5
0.28205475,-0.3569509,-0.5410968,1.3609949,-0.00066539925,0.015244361,0.061290927,-0.37509078,-0.32962558,0.0019979542,3.0757725,-0.62368715,-0.007512003,0.0,0.0,0.0,0.0,0.0,0.0,0.44900215,-1.3789654,2.0838306,-2.2799432,-1.5710696,2.4235349,0.0,0.0,-0.0,-0.0,0.0,-0.0,0.095768064,0.1340753,-9.404425,0.76874626,47.71017,0.37613463,-3.4556813,-2.4752085,-0.50208217,0.12249656,-0.05590017,24.5625,25.0,24.3125,26.125,26.25,26.5
0.2840544,0.5420934,0.108834244,1.292619,-0.017007079,0.034326836,0.04454444,-0.3751474,-0.32963163,0.0020372893,3.07573,-0.6236979,-0.007654361,0.0,0.0,0.0,0.0,0.0,0.0,0.4489782,-1.3789773,2.0837467,-2.2799432,-1.5710934,2.423523,0.0,0.0,-0.0,-0.0,0.0,-0.0,0.095768064,0.1340753,-9.423578,0.7396539,47.68599,0.4257952,-3.4738061,-2.491768,-0.50871545,0.14128032,-0.07166657,24.5625,25.0,24.3125,26.125,26.25,26.5
0.28605372,0.34066632,-0.3293889,1.3510513,-0.010650181,0.029453946,0.055372436,-0.37511918,-0.329622,0.0020131224,3.07576,-0.6237229,-0.0076465183,0.0,0.0,0.0,0.0,0.0,0.0,0.44900215,-1.3789773,2.0838192,-2.279991,-1.5711178,2.4235587,0.0,0.0,-0.0,-0.0,0.0,-0.0,0.095768064,0.095768064,-9.404425,0.75084364,47.694054,0.38682148,-3.466539,-2.4853463,-0.49673325,0.13017681,-0.05186191,24.5625,25.0,24.3125,26.125,26.25,26.5
0.28805423,-0.3000756,-0.5025549,1.242829,-0.007127084,0.01608423,0.05997933,-0.37514418,-0.3296172,0.00202647,3.0757465,-0.6237586,-0.007688417,0.0,0.0,0.0,0.0,0.0,0.0,0.4489782,-1.3789773,2.083783,-2.2799795,-1.5711292,2.4235587,0.0,0.0,-0.0,-0.0,0.0,-0.0,0.076614454,0.17238252,-9.442732,0.7463667,47.672558,0.37855813,-3.446216,-2.4514236,-0.51288784,0.13925073,-0.0485002,24.5625,25.0,24.3125,26.125,26.25,26.5
0.2900546,0.4483214,-0.14659174,1.14315,-0.015691742,0.03191508,0.06022215,-0.3751287,-0.32963967,0.0020288911,3.0757098,-0.62371266,-0.0076580024,0.0,0.0,0.0,0.0,0.0,0.0,0.44900215,-1.3789895,2.0837944,-2.279991,-1.5710815,2.4235587,0.0,0.0,-0.0,-0.0,0.0,-0.0,0.11492168,0.095768064,-9.442732,0.80456203,47.694054,0.36358252,-3.4750502,-2.4572744,-0.51594675,0.15010089,-0.05995553,24.5625,25.0,24.3125,26.125,26.25,26.5
0.29205388,0.37359604,-0.20169982,1.3471739,-0.016669312,0.025812678,0.04729934,-0.3751454,-0.32962644,0.0020323077,3.0756857,-0.6237845,-0.007646743,0.0,0.0,0.0,0.0,0.0,0.0,0.44895422,-1.3789895,2.083783,-2.2799795,-1.5710696,2.4235587,0.0,0.0,-0.0,-0.0,0.0,-0.0,0.11492168,0.095768064,-9.442732,0.7105615,47.68062,0.38897482,-3.439509,-2.4733949,-0.505136,0.13147007,-0.044276856,24.5625,25.0,24.3125,26.125,26.25,26.5
0.294054,0.4678052,-0.02050032,1.2530233,-0.024338456,0.027165273,0.05168282,-0.37514672,-0.32963556,0.0020528955,3.075689,-0.62370867,-0.007701741,0.0,0.0,0.0,0.0,0.0,0.0,0.4489782,-1.3790253,2.0837715,-2.279967,-1.5710815,2.4235349,0.0,0.0,-0.0,-0.0,0.0,-0.0,0.076614454,0.095768064,-9.3661175,0.77545905,47.68599,0.42927992,-3.4204683,-2.4431343,-0.5081289,0.14014795,-0.057076864,24.5625,25.0,24.3125,26.125,26.25,26.5
0.29605466,0.48749226,-0.31865126,1.2422901,-0.015447028,0.029504377,0.05250179,-0.3751563,-0.32964233,0.0020442796,3.0756867,-0.6237273,-0.0077288537,0.0,0.0,0.0,0.0,0.0,0.0,0.4489901,-1.3789895,2.083759,-2.2800033,-1.5710934,2.4235587,0.0,0.0,-0.0,-0.0,0.0,-0.0,0.095768064,0.1340753,-9.289502,0.7329411,47.65912,0.39580205,-3.4127808,-2.4272683,-0.49896455,0.1384839,-0.0535883,24.5625,25.0,24.3125,26.125,26.25,26.5
0.2980544,0.27307454,-7.9909405e-05,1.2618064,-0.020006843,0.025209237,0.052450806,-0.37513807,-0.3296549,0.0020418526,3.07569,-0.62368953,-0.007676308,0.0,0.0,0.0,0.0,0.0,0.0,0.44901407,-1.3789895,2.083759,-2.2799795,-1.5710696,2.4235587,0.0,0.0,-0.0,-0.0,0.0,-0.0,0.11492168,0.22984336,-9.3661175,0.68146914,47.68062,0.39900526,-3.454771,-2.453789,-0.49893117,0.14758065,-0.053775206,24.5625,25.0,24.3125,26.125,26.25,26.5
0.3000538,0.414735,-0.25577796,1.2944655,-0.013011598,0.025473546,0.04502803,-0.3751386,-0.32960168,0.002005009,3.0757294,-0.623851,-0.007593531,0.0,0.0,0.0,0.0,0.0,0.0,0.44893014,-1.3789533,2.0838077,-2.2799795,-1.5710934,2.4235706,0.0,0.0,-0.0,-0.0,0.0,-0.0,0.11492168,0.17238252,-9.385271,0.7038487,47.658226,0.33623093,-3.4569511,-2.4811294,-0.4970046,0.1351697,-0.051747963,24.5625,25.0,24.3125,26.125,26.25,26.5
0.30205435,-0.026062224,-0.3728933,1.213052,-0.010884779,0.013978809,0.060345765,-0.37513867,-0.32964027,0.0020255554,3.0756726,-0.6237625,-0.00765099,0.0,0.0,0.0,0.0,0.0,0.0,0.4489782,-1.3789773,2.0837944,-2.2800157,-1.5710577,2.4235706,0.0,0.0,-0.0,-0.0,0.0,-0.0,0.11492168,0.21068975,-9.442732,0.75084364,47.693153,0.37195557,-3.4345007,-2.491171,-0.49152115,0.14702314,-0.03823556,24.5625,25.0,24.3125,26.125,26.25,26.5
0.3040546,-0.15424244,-0.7553402,1.0149704,-0.0006992956,0.011309542,0.06327662,-0.37513238,-0.32960278,0.0020199695,3.075767,-0.62372476,-0.0076322258,0.0,0.0,0.0,0.0,0.0,0.0,0.44895422,-1.3789895,2.0838077,-2.2799556,-1.5711178,2.423511,0.0,0.0,-0.0,-0.0,0.0,-0.0,0.15322891,0.15322891,-9.404425,0.77545905,47.707485,0.38274628,-3.465581,-2.4591162,-0.5061238,0.1398547,-0.061853945,24.5625,25.0,24.3125,26.125,26.25,26.5
0.30605415,0.5701677,-0.37324646,1.0228397,-0.0081614405,0.029087314,0.060191873,-0.3751374,-0.3296268,0.0020207274,3.0757296,-0.623736,-0.0076394123,0.0,0.0,0.0,0.0,0.0,0.0,0.4489782,-1.3789654,2.083783,-2.2799795,-1.5710934,2.4235468,0.0,0.0,-0.0,-0.0,0.0,-0.0,0.19153613,0.1340753,-9.461885,0.71279734,47.709274,0.42759073,-3.4736257,-2.5000067,-0.49375772,0.13911384,-0.051430188,24.5625,25.0,24.3125,26.125,26.25,26.5
0.30805457,0.17412557,-0.25174636,1.0894961,-0.011321695,0.01948845,0.05370091,-0.3751389,-0.32962108,0.002027731,3.0757146,-0.6237713,-0.007655214,0.0,0.0,0.0,0.0,0.0,0.0,0.44896615,-1.3789895,2.0837944,-2.2799795,-1.5710934,2.4235587,0.0,0.0,-0.0,-0.0,0.0,-0.0,0.15322891,0.17238252,-9.461885,0.7486078,47.71465,0.41939384,-3.4558597,-2.4699078,-0.5101526,0.1323246,-0.051451743,24.5625,25.0,24.3125,26.125,26.25,26.5
0.31005466,0.33229008,-0.41321656,1.2794025,-0.007834306,0.023525396,0.059766043,-0.37515277,-0.3296363,0.002047595,3.075707,-0.62371236,-0.007725436,0.0,0.0,0.0,0.0,0.0,0.0,0.4489901,-1.3790014,2.083759,-2.2799795,-1.5711054,2.4235468,0.0,0.0,-0.0,-0.0,0.0,-0.0,0.15322891,0.076614454,-9.385271,0.7665104,47.687782,0.4117791,-3.4401422,-2.4867897,-0.50316215,0.12582119,-0.07287667,24.5625,25.0,24.3125,26.125,26.25,26.5
0.31205404,0.12922892,-0.3481822,1.0626764,-0.007256102,0.019290432,0.053007893,-0.37511903,-0.32964143,0.0020281118,3.075686,-0.623727,-0.0076078605,0.0,0.0,0.0,0.0,0.0,0.0,0.4489901,-1.3790014,2.0838077,-2.2799795,-1.5710458,2.4235587,0.0,0.0,-0.0,-0.0,0.0,-0.0,0.05746084,0.11492168,-9.385271,0.7665104,47.694946,0.3720181,-3.4757123,-2.4406457,-0.4927109,0.12789823,-0.050779127,24.5625,25.0,24.3125,26.125,26.25,26.5
0.3140544,0.46204302,0.35187402,1.291802,-0.0212848,0.027003553,0.04891813,-0.3751581,-0.3296283,0.0020437895,3.0756664,-0.6238196,-0.007701478,0.0,0.0,0.0,0.0,0.0,0.0,0.44895422,-1.3790014,2.0837715,-2.279991,-1.5710815,2.423583,0.0,0.0,-0.0,-0.0,0.0,-0.0,0.038307227,0.17238252,-9.346964,0.7530795,47.686886,0.37476933,-3.4545393,-2.523704,-0.48802352,0.14300743,-0.049657986,24.5625,25.0,24.3125,26.125,26.25,26.5
0.31605384,0.33884272,-0.2159802,1.1343495,-0.011876599,0.026659371,0.053759307,-0.375108,-0.32963395,0.00201411,3.0757215,-0.6237929,-0.007570688,0.0,0.0,0.0,0.0,0.0,0.0,0.44900215,-1.3789773,2.0838077,-2.2799556,-1.5710696,2.4236073,0.0,0.0,-0.0,-0.0,0.0,-0.0,0.05746084,0.1340753,-9.32781,0.76874626,47.709274,0.3902197,-3.4417868,-2.4420907,-0.48768076,0.10891573,-0.03970483,24.5625,25.0,24.3125,26.125,26.25,26.5
0.31805435,0.42054212,0.09680179,1.2991277,-0.018456083,0.031145167,0.049718507,-0.37515152,-0.32963362,0.0020360074,3.0757008,-0.6237683,-0.007683955,0.0,0.0,0.0,0.0,0.0,0.0,0.4489782,-1.3789773,2.083759,-2.2799795,-1.5710934,2.4235706,0.0,0.0,-0.0,-0.0,0.0,-0.0,0.076614454,0.15322891,-9.423578,0.6635613,47.734352,0.3948047,-3.468013,-2.4925075,-0.49485236,0.12531051,-0.054919027,24.5625,25.0,24.3125,26.125,26.25,26.5
0.32005444,-0.46991092,-0.30931482,1.2184149,-0.0075124097,0.009299261,0.057237547,-0.37513652,-0.3296499,0.0020371384,3.0756488,-0.62375844,-0.007669609,0.0,0.0,0.0,0.0,0.0,0.0,0.4489901,-1.3790014,2.0837944,-2.2800157,-1.5710458,2.423583,0.0,0.0,-0.0,-0.0,0.0,-0.0,0.095768064,0.21068975,-9.385271,0.71279734,47.694054,0.3771878,-3.4547293,-2.506872,-0.4934882,0.13437083,-0.060016483,24.5625,25.0,24.3125,26.125,26.25,26.5
0.32205406,0.5903021,0.11864303,1.3721883,-0.01859711,0.041727807,0.043761533,-0.3751516,-0.32962292,0.0020392127,3.0757108,-0.6237324,-0.0077100727,0.0,0.0,0.0,0.0,0.0,0.0,0.44896615,-1.3790014,2.083783,-2.279991,-1.5711054,2.4235349,0.0,0.0,-0.0,-0.0,0.0,-0.0,0.038307227,0.19153613,-9.423578,0.7284641,47.709274,0.3478358,-3.4846344,-2.5042706,-0.5002079,0.14600669,-0.055362068,24.5625,25.0,24.3125,26.125,26.25,26.5
0.32405484,0.34246942,0.19327703,1.3249605,-0.021701192,0.03466286,0.050009023,-0.37514335,-0.32962966,0.0020253086,3.0757265,-0.6237163,-0.007653708,0.0,0.0,0.0,0.0,0.0,0.0,0.4489782,-1.3789654,2.0837715,-2.2799795,-1.5710934,2.4235349,0.0,0.0,-0.0,-0.0,0.0,-0.0,0.076614454,0.17238252,-9.251195,0.67475104,47.71554,0.36533058,-3.3916974,-2.4736362,-0.49793434,0.13024077,-0.051957697,24.5625,25.0,24.3125,26.125,26.25,26.5
0.32605407,0.07372557,-0.639335,1.2138683,-0.0010772307,0.029411526,0.058930498,-0.37511835,-0.32963035,0.0020165364,3.0757334,-0.6237564,-0.0076232348,0.0,0.0,0.0,0.0,0.0,0.0,0.44900215,-1.3789773,2.0838077,-2.2799795,-1.5710934,2.423583,0.0,0.0,-0.0,-0.0,0.0,-0.0,0.038307227,0.19153613,-9.346964,0.6971306,47.696735,0.3705678,-3.4827795,-2.4986424,-0.49320453,0.12696248,-0.062723614,24.5625,25.0,24.3125,26.125,26.25,26.5
0.32805428,0.6343151,-0.23760079,1.1728714,-0.0077397344,0.041683696,0.051654108,-0.37510628,-0.32963312,0.0020083752,3.0757477,-0.6237012,-0.007555958,0.0,0.0,0.0,0.0,0.0,0.0,0.44900215,-1.3789654,2.0838077,-2.2799556,-1.5710696,2.4235468,0.0,0.0,-0.0,-0.0,0.0,-0.0,-0.019153614,0.1340753,-9.442732,0.72622824,47.694946,0.3926267,-3.471071,-2.5043797,-0.50085187,0.14628634,-0.057773907,24.5625,25.0,24.3125,26.125,26.25,26.5
0.3300547,0.8195492,-0.32191566,1.2917238,-0.01102908,0.046448953,0.04823363,-0.37512624,-0.32962137,0.0020165364,3.0757337,-0.6237559,-0.0076233577,0.0,0.0,0.0,0.0,0.0,0.0,0.4489782,-1.3789773,2.0838077,-2.2799795,-1.5710934,2.4235587,0.0,0.0,-0.0,-0.0,0.0,-0.0,0.05746084,0.17238252,-9.385271,0.7284641,47.698532,0.4191807,-3.4910564,-2.4737844,-0.48461765,0.12431799,-0.065865174,24.5625,25.0,24.3125,26.125,26.25,26.5
0.3320539,0.108508945,0.115889326,1.3495679,-0.01635914,0.027170006,0.049325883,-0.3751403,-0.32964745,0.0020328062,3.0756907,-0.6237471,-0.0076206266,0.0,0.0,0.0,0.0,0.0,0.0,0.4489901,-1.3789654,2.0837467,-2.2799556,-1.5710577,2.4235706,0.0,0.0,-0.0,-0.0,0.0,-0.0,0.076614454,0.21068975,-9.423578,0.71951014,47.684196,0.40894437,-3.454146,-2.5001388,-0.4937675,0.14182514,-0.05284416,24.5625,25.0,24.3125,26.125,26.25,26.5
0.33405405,0.10072176,-0.21351817,1.2383307,-0.011842918,0.026951643,0.056318745,-0.37512702,-0.32963896,0.002019459,3.0756927,-0.62376654,-0.0075783646,0.0,0.0,0.0,0.0,0.0,0.0,0.4489782,-1.3789654,2.083783,-2.279967,-1.5710458,2.4235706,0.0,0.0,-0.0,-0.0,0.0,-0.0,0.05746084,0.076614454,-9.461885,0.7396539,47.67166,0.3574957,-3.47236,-2.463601,-0.49936718,0.12164347,-0.063608944,24.5625,25.0,24.3125,26.125,26.25,26.5
0.33605492,0.6439824,-0.14405939,1.2899538,-0.012785664,0.035433516,0.04554495,-0.37514827,-0.32962132,0.0020380502,3.0757062,-0.6237888,-0.007695717,0.0,0.0,0.0,0.0,0.0,0.0,0.44896615,-1.3790014,2.083783,-2.2799795,-1.5711054,2.4235706,0.0,0.0,-0.0,-0.0,0.0,-0.0,0.0,0.05746084,-9.404425,0.7150385,47.658226,0.36513054,-3.4568355,-2.500689,-0.5133484,0.13541175,-0.055659056,24.5625,25.0,24.3125,26.125,26.25,26.5
0.33805445,0.5143851,0.031310666,1.4025754,-0.018159028,0.03325927,0.052345235,-0.3751593,-0.32962456,0.0020463332,3.0756826,-0.62382287,-0.0076985983,0.0,0.0,0.0,0.0,0.0,0.0,0.44895422,-1.3790014,2.083759,-2.279967,-1.5710934,2.423583,0.0,0.0,-0.0,-0.0,0.0,-0.0,0.038307227,0.13407528,-9.461885,0.7284641,47.678825,0.3861087,-3.45462,-2.4374857,-0.48487237,0.13011679,-0.050505407,24.5625,25.0,24.3125,26.125,26.25,26.5
0.3400537,-0.2679917,-0.18557768,1.2315894,-0.010349662,0.009791271,0.057125553,-0.37510294,-0.32960364,0.001990448,3.0757377,-0.62381446,-0.0074995207,0.0,0.0,0.0,0.0,0.0,0.0,0.44894207,-1.3789654,2.0838554,-2.279967,-1.5710577,2.4235587,0.0,0.0,-0.0,-0.0,0.0,-0.0,0.076614454,0.22984336,-9.346964,0.7597976,47.691364,0.3672561,-3.495799,-2.4771812,-0.5020782,0.13266896,-0.044057548,24.5625,25.0,24.3125,26.125,26.25,26.5
0.34205398,0.51943773,0.0918359,1.2592101,-0.016397899,0.028118437,0.04921238,-0.3751394,-0.32961923,0.0020218787,3.075709,-0.62378925,-0.007628679,0.0,0.0,0.0,0.0,0.0,0.0,0.44895422,-1.3789773,2.0837944,-2.2799795,-1.5710815,2.4235587,0.0,0.0,-0.0,-0.0,0.0,-0.0,0.076614454,0.22984336,-9.385271,0.72622824,47.658226,0.37739876,-3.4314759,-2.5085397,-0.5150778,0.12416995,-0.052252952,24.5625,25.0,24.3125,26.125,26.25,26.5
0.3440547,0.39678472,-0.5776869,1.3845636,-0.005719083,0.025168076,0.05426518,-0.37510553,-0.32961133,0.0020095431,3.0757542,-0.62379897,-0.007564776,0.0,0.0,0.0,0.0,0.0,0.0,0.4489782,-1.3789895,2.0838306,-2.2799432,-1.5710934,2.423583,0.0,0.0,-0.0,-0.0,0.0,-0.0,0.076614454,0.17238252,-9.423578,0.7396539,47.699425,0.38305053,-3.430545,-2.448495,-0.49522957,0.14560996,-0.04336498,24.5625,25.0,24.3125,26.125,26.25,26.5
0.34605446,0.3919895,-0.10944731,1.3416544,-0.015070875,0.025808666,0.049234122,-0.37514225,-0.3296227,0.0020288934,3.0757153,-0.6237333,-0.007669539,0.0,0.0,0.0,0.0,0.0,0.0,0.44896615,-1.3789895,2.0837944,-2.279991,-1.5710934,2.4235349,0.0,0.0,-0.0,-0.0,0.0,-0.0,0.076614454,0.17238252,-9.461885,0.69937176,47.65464,0.36572504,-3.4491844,-2.4674067,-0.49409795,0.13927704,-0.049667865,24.5625,25.0,24.3125,26.125,26.25,26.5
0.34805402,-0.00060590985,-0.576455,1.2476122,-0.004579784,0.016659712,0.06226593,-0.37512705,-0.3296067,0.0020211157,3.0757236,-0.6237926,-0.007598181,0.0,0.0,0.0,0.0,0.0,0.0,0.44894207,-1.3790014,2.0838192,-2.2799556,-1.5710815,2.4235468,0.0,0.0,-0.0,-0.0,0.0,-0.0,0.038307227,0.11492168,-9.404425,0.7105615,47.65106,0.35857508,-3.4687786,-2.521223,-0.50378215,0.13904515,-0.05708389,24.5625,25.0,24.3125,26.125,26.25,26.5
0.3500543,0.28112546,-0.46198192,1.3078313,-0.0061012544,0.025072813,0.052142575,-0.3751257,-0.32963178,0.0020264692,3.0757241,-0.62371576,-0.007628347,0.0,0.0,0.0,0.0,0.0,0.0,0.4489901,-1.3789895,2.0837944,-2.279967,-1.5710815,2.4235468,0.0,0.0,-0.0,-0.0,0.0,-0.0,0.095768064,0.11492168,-9.423578,0.73741806,47.682407,0.4313088,-3.4531322,-2.4911215,-0.50896907,0.13274944,-0.044733115,24.5625,25.0,24.3125,26.125,26.25,26.5
0.35205466,0.019589305,-0.5946884,1.175152,-0.00506967,0.02022706,0.059418887,-0.37511998,-0.3296076,0.0020073764,3.075745,-0.6238165,-0.007606179,0.0,0.0,0.0,0.0,0.0,0.0,0.44896615,-1.3789773,2.0838306,-2.2799795,-1.5711054,2.423583,0.0,0.0,-0.0,-0.0,0.0,-0.0,0.05746084,0.15322891,-9.385271,0.7665104,47.658226,0.37623927,-3.484506,-2.4625716,-0.48537064,0.13011491,-0.06586748,24.5625,25.0,24.3125,26.125,26.25,26.5
0.35405406,0.08962702,-0.25377107,1.2889289,-0.011733489,0.021551505,0.05888469,-0.37513348,-0.32963127,0.0020207274,3.0757296,-0.62373596,-0.0076393513,0.0,0.0,0.0,0.0,0.0,0.0,0.4489901,-1.3789654,2.083783,-2.2799795,-1.5710934,2.4235587,0.0,0.0,-0.0,-0.0,0.0,-0.0,0.15322891,0.1340753,-9.385271,0.7530795,47.64479,0.36440825,-3.4683852,-2.4904518,-0.48249382,0.13414784,-0.047772195,24.5625,25.0,24.3125,26.125,26.25,26.5
0.3560551,0.3730409,0.4633375,1.4700477,-0.029368669,0.027236465,0.045702606,-0.37512568,-0.32962325,0.002021566,3.0757215,-0.62379175,-0.0075714705,0.0,0.0,0.0,0.0,0.0,0.0,0.44896615,-1.3789773,2.083783,-2.2799313,-1.5710696,2.4235706,0.0,0.0,-0.0,-0.0,0.0,-0.0,0.076614454,0.1340753,-9.385271,0.80679786,47.71554,0.41426963,-3.4365053,-2.5023305,-0.4957422,0.13747281,-0.05309207,24.5625,25.0,24.3125,26.125,26.25,26.5
0.35805458,0.453372,-0.16262038,1.3230045,-0.014125052,0.032924484,0.048800148,-0.37512204,-0.32961935,0.0019971144,3.0757475,-0.62375873,-0.007594007,0.0,0.0,0.0,0.0,0.0,0.0,0.4489782,-1.3789414,2.0838192,-2.2800033,-1.5710934,2.4235587,0.0,0.0,-0.0,-0.0,0.0,-0.0,0.038307227,0.1340753,-9.3661175,0.7217513,47.70659,0.37229383,-3.4590487,-2.474847,-0.5093906,0.12535997,-0.056105003,24.5625,25.0,24.3125,26.125,26.25,26.5
0.3600544,-0.014125416,-0.36453238,1.4035274,-0.012551884,0.021904582,0.059281267,-0.37512952,-0.32961866,0.0020148891,3.0757532,-0.6237408,-0.0076210764,0.0,0.0,0.0,0.0,0.0,0.0,0.4489782,-1.3789654,2.0837944,-2.279967,-1.5711054,2.4235468,0.0,0.0,-0.0,-0.0,0.0,-0.0,0.05746084,0.095768064,-9.423578,0.7038487,47.67345,0.3511404,-3.4529815,-2.4761302,-0.49307233,0.12352717,-0.0418756,24.5625,25.0,24.3125,26.125,26.25,26.5
0.3620543,0.42246434,-0.02010597,1.3976078,-0.01446715,0.029663142,0.047252323,-0.37515664,-0.3296061,0.002047156,3.0757062,-0.62378913,-0.007696101,0.0,0.0,0.0,0.0,0.0,0.0,0.44893014,-1.3790253,2.083783,-2.2799556,-1.5711054,2.4235349,0.0,0.0,-0.0,-0.0,0.0,-0.0,0.05746084,0.15322891,-9.423578,0.7172743,47.696735,0.33932313,-3.434785,-2.5170097,-0.4955889,0.1393718,-0.0497049,24.5625,25.0,24.3125,26.125,26.25,26.5
0.36405408,0.5831899,0.14636073,1.4931039,-0.020835258,0.034005288,0.049538556,-0.3751399,-0.329628,0.002034472,3.0757153,-0.62377125,-0.007653966,0.0,0.0,0.0,0.0,0.0,0.0,0.4489782,-1.3789895,2.0837715,-2.2799556,-1.5710934,2.4235706,0.0,0.0,-0.0,-0.0,0.0,-0.0,-0.038307227,0.076614454,-9.404425,0.7553206,47.7254,0.3496064,-3.4183588,-2.4992528,-0.50648755,0.1304207,-0.06515999,24.5625,25.0,24.3125,26.125,26.25,26.5
0.36605397,0.764084,-0.14608943,1.3968596,-0.011255488,0.042760294,0.04605591,-0.37513265,-0.32962662,0.0020343617,3.0757,-0.6237874,-0.007616396,0.0,0.0,0.0,0.0,0.0,0.0,0.44896615,-1.3790014,2.083783,-2.2799432,-1.5710696,2.4235706,0.0,0.0,-0.0,-0.0,0.0,-0.0,0.05746084,0.15322891,-9.423578,0.7530795,47.707485,0.36536306,-3.4489489,-2.44797,-0.47838444,0.12345387,-0.04466236,24.5625,25.0,24.3125,26.125,26.25,26.5
0.368054,0.3195656,0.025871947,1.3183328,-0.013665655,0.029714584,0.05961258,-0.37514836,-0.32962996,0.002028882,3.075703,-0.62371165,-0.0076727234,0.0,0.0,0.0,0.0,0.0,0.0,0.44896615,-1.3789773,2.083783,-2.2800033,-1.5710815,2.423523,0.0,0.0,-0.0,-0.0,0.0,-0.0,0.076614454,0.19153613,-9.3661175,0.6546126,47.72002,0.37304705,-3.419012,-2.501391,-0.4979061,0.1306239,-0.052730426,24.5625,25.0,24.3125,26.125,26.25,26.5
0.37005422,-0.19441839,-0.42570576,1.2638917,-0.003688141,0.018257895,0.06616634,-0.37512174,-0.3296363,0.0020235463,3.0757177,-0.62371427,-0.0076413597,0.0,0.0,0.0,0.0,0.0,0.0,0.44900215,-1.3789895,2.0838077,-2.279991,-1.5710815,2.4235587,0.0,0.0,-0.0,-0.0,0.0,-0.0,0.038307227,0.15322891,-9.423578,0.69937176,47.686886,0.4222756,-3.4760284,-2.431119,-0.49322167,0.15271264,-0.051613115,24.5625,25.0,24.3125,26.125,26.25,26.5
0.37205487,0.04894653,-0.18543705,1.3910917,-0.010755744,0.019075342,0.05521817,-0.37512985,-0.3296295,0.002019468,3.0757408,-0.62371916,-0.0076239286,0.0,0.0,0.0,0.0,0.0,0.0,0.4489901,-1.3789654,2.083783,-2.279967,-1.5710934,2.4235468,0.0,0.0,-0.0,-0.0,0.0,-0.0,0.095768064,0.1340753,-9.32781,0.72622824,47.716442,0.40133134,-3.4067755,-2.4832823,-0.501099,0.1349449,-0.049942445,24.5625,25.0,24.3125,26.125,26.25,26.5
0.37405378,0.19273159,0.04931336,1.313207,-0.01203809,0.02703472,0.05225394,-0.37513664,-0.3296264,0.0020334662,3.0757189,-0.62371475,-0.0076701287,0.0,0.0,0.0,0.0,0.0,0.0,0.4489782,-1.3790014,2.0837944,-2.2799795,-1.5710934,2.4235349,0.0,0.0,-0.0,-0.0,0.0,-0.0,0.0,0.095768064,-9.346964,0.7038487,47.67345,0.3915075,-3.4968326,-2.422883,-0.50035965,0.13142294,-0.04224398,24.5625,25.0,24.3125,26.125,26.25,26.5
0.37605354,0.4103403,0.07764541,1.4072106,-0.014686539,0.032608967,0.047220413,-0.3751353,-0.32961932,0.0020235486,3.0757234,-0.62373495,-0.0076528965,0.0,0.0,0.0,0.0,0.0,0.0,0.44896615,-1.3789895,2.0838077,-2.279991,-1.5710934,2.4235349,0.0,0.0,-0.0,-0.0,0.0,-0.0,0.05746084,0.038307227,-9.442732,0.7486078,47.70211,0.38965493,-3.4343095,-2.4613125,-0.5048642,0.12568514,-0.05110131,24.5625,25.0,24.3125,26.125,26.25,26.5
0.37805426,0.35391417,0.084116355,1.4778218,-0.017479919,0.032279182,0.052786104,-0.37513024,-0.32963407,0.0020115066,3.0756886,-0.623785,-0.0075788144,0.0,0.0,0.0,0.0,0.0,0.0,0.44896615,-1.3789533,2.0837944,-2.279991,-1.5710458,2.4235706,0.0,0.0,-0.0,-0.0,0.0,-0.0,0.05746084,0.1340753,-9.385271,0.7083204,47.66987,0.3980357,-3.4650621,-2.4611576,-0.50098914,0.1311695,-0.0670528,24.5625,25.0,24.3125,26.125,26.25,26.5
0.38005432,0.037129033,-0.4830244,1.3732715,0.0017716361,0.022610309,0.05972122,-0.37512216,-0.32962576,0.0020297852,3.075733,-0.62375575,-0.007624836,0.0,0.0,0.0,0.0,0.0,0.0,0.4489901,-1.3790014,2.0837944,-2.2799432,-1.5710934,2.4235706,0.0,0.0,-0.0,-0.0,0.0,-0.0,0.038307227,0.11492168,-9.423578,0.78217715,47.70659,0.36290935,-3.4288187,-2.4932282,-0.5018709,0.12825106,-0.043176405,24.5625,25.0,24.3125,26.125,26.25,26.5
0.38205403,0.35317189,-0.01158842,1.2645493,-0.012814588,0.032116134,0.050530218,-0.37509644,-0.3296176,0.0019979565,3.0757854,-0.62367094,-0.0075234766,0.0,0.0,0.0,0.0,0.0,0.0,0.4489901,-1.3789654,2.0838306,-2.2799432,-1.5710815,2.423511,0.0,0.0,-0.0,-0.0,0.0,-0.0,0.038307227,0.076614454,-9.385271,0.72622824,47.694946,0.37275934,-3.5017576,-2.47644,-0.49653983,0.1299941,-0.062431067,24.5625,25.0,24.3125,26.125,26.25,26.5
0.38405386,0.2625521,-0.49574333,1.294818,-0.006618243,0.029414413,0.0476544,-0.37514612,-0.3296524,0.0020405708,3.0756795,-0.6236683,-0.007706116,0.0,0.0,0.0,0.0,0.0,0.0,0.44900215,-1.3789895,2.0837715,-2.2800157,-1.5710696,2.4235349,0.0,0.0,-0.0,-0.0,0.0,-0.0,0.05746084,0.095768064,-9.442732,0.73741806,47.696735,0.3972764,-3.4598405,-2.5061178,-0.49823448,0.12869664,-0.06186723,24.5625,25.0,24.3125,26.125,26.25,26.5
0.386054,0.23766367,-0.42966005,1.3721443,-0.0067903595,0.023988016,0.05031444,-0.37513494,-0.32962558,0.002027731,3.0757222,-0.6237345,-0.0076552136,0.0,0.0,0.0,0.0,0.0,0.0,0.4489782,-1.3789895,2.0837944,-2.2799795,-1.5710934,2.4235468,0.0,0.0,-0.0,-0.0,0.0,-0.0,0.076614454,0.095768064,-9.423578,0.7172743,47.672558,0.36734658,-3.4926143,-2.5212855,-0.4893477,0.12234464,-0.05187027,24.5625,25.0,24.3125,26.125,26.25,26.5
0.38805383,0.77848107,0.16408698,1.3862027,-0.02235424,0.038397636,0.04755818,-0.37513041,-0.32963198,0.0020194633,3.0757222,-0.62371534,-0.007601223,0.0,0.0,0.0,0.0,0.0,0.0,0.4489782,-1.3789654,2.083783,-2.279967,-1.5710696,2.4235349,0.0,0.0,-0.0,-0.0,0.0,-0.0,0.1340753,0.17238252,-9.404425,0.76874626,47.686886,0.3514244,-3.4729433,-2.46726,-0.50623775,0.11701483,-0.058920693,24.5625,25.0,24.3125,26.125,26.25,26.5
0.39005378,0.29131326,-0.2625341,1.4487379,-0.012043852,0.025858328,0.05078052,-0.37513405,-0.32961664,0.0020148845,3.075731,-0.6237555,-0.0075984015,0.0,0.0,0.0,0.0,0.0,0.0,0.44895422,-1.3789654,2.0837944,-2.279967,-1.5710815,2.4235349,0.0,0.0,-0.0,-0.0,0.0,-0.0,0.11492168,0.1340753,-9.3661175,0.7038487,47.675243,0.37530857,-3.435761,-2.4953537,-0.5036794,0.13912417,-0.048375826,24.5625,25.0,24.3125,26.125,26.25,26.5
0.39205435,-0.07251358,-0.57484245,1.2823083,-0.009093783,0.015735079,0.059368927,-0.37512618,-0.32962993,0.0020206172,3.075722,-0.62371534,-0.007601842,0.0,0.0,0.0,0.0,0.0,0.0,0.4489782,-1.3789773,2.0837944,-2.279967,-1.5710696,2.4235349,0.0,0.0,-0.0,-0.0,0.0,-0.0,0.17238252,0.11492168,-9.346964,0.7217513,47.66987,0.37421894,-3.5015967,-2.5089142,-0.4990106,0.14604738,-0.029321184,24.5625,25.0,24.3125,26.125,26.25,26.5
0.39405414,0.79926157,-0.33316052,1.2533523,-0.014533695,0.034470215,0.047535636,-0.3751224,-0.32961306,0.0020165455,3.0757444,-0.6237392,-0.0076089124,0.0,0.0,0.0,0.0,0.0,0.0,0.44896615,-1.3789895,2.0838192,-2.279967,-1.5710934,2.4235349,0.0,0.0,-0.0,-0.0,0.0,-0.0,0.11492168,0.19153613,-9.385271,0.7777002,47.651955,0.389623,-3.442393,-2.4914002,-0.48970196,0.12833518,-0.047890626,24.5625,25.0,24.3125,26.125,26.25,26.5
0.39605418,0.2670239,-0.17395377,1.2554057,-0.018216534,0.022808125,0.053651124,-0.37512088,-0.32961878,0.0020124654,3.0757582,-0.62374175,-0.0075799753,0.0,0.0,0.0,0.0,0.0,0.0,0.4489782,-1.3789654,2.0837944,-2.2799432,-1.5710934,2.4235468,0.0,0.0,-0.0,-0.0,0.0,-0.0,0.076614454,0.15322891,-9.423578,0.69041777,47.672558,0.39893728,-3.492974,-2.4388926,-0.5032768,0.12278234,-0.04356531,24.5625,25.0,24.3125,26.125,26.25,26.5
0.39805388,0.252499,-0.073297,1.3122703,-0.018800333,0.023204183,0.05661423,-0.37513205,-0.32962635,0.0020132181,3.075708,-0.62375087,-0.007615485,0.0,0.0,0.0,0.0,0.0,0.0,0.44896615,-1.3789654,2.0838077,-2.2800033,-1.5710696,2.4235468,0.0,0.0,-0.0,-0.0,0.0,-0.0,0.05746084,0.1340753,-9.404425,0.7463667,47.657326,0.38658786,-3.4047642,-2.475112,-0.5031185,0.120118074,-0.044507828,24.5625,25.0,24.3125,26.125,26.25,26.5
0.40005365,0.43949777,0.15939653,1.3925838,-0.022977794,0.023871778,0.049075704,-0.3751293,-0.32963353,0.0020248054,3.0756989,-0.6237687,-0.007656781,0.0,0.0,0.0,0.0,0.0,0.0,0.4489901,-1.3789895,2.0838077,-2.2800033,-1.5710815,2.423583,0.0,0.0,-0.0,-0.0,0.0,-0.0,0.17238252,0.05746084,-9.461885,0.77545905,47.66808,0.38007224,-3.5262866,-2.514392,-0.48907548,0.12699485,-0.059574023,24.5625,25.0,24.3125,26.125,26.25,26.5
0.402054,0.32996792,0.1623628,1.3832275,-0.01812503,0.026155267,0.04975417,-0.37517175,-0.3296306,0.0020455392,3.0756645,-0.6237993,-0.007744368,0.0,0.0,0.0,0.0,0.0,0.0,0.44895422,-1.3789895,2.083759,-2.2800157,-1.5710934,2.4235706,0.0,0.0,-0.0,-0.0,0.0,-0.0,0.05746084,0.17238252,-9.404425,0.6926589,47.667187,0.33018905,-3.4003267,-2.4861946,-0.49069118,0.1339397,-0.039891437,24.5625,25.0,24.3125,26.125,26.25,26.5
0.40405416,0.71323305,0.17421065,1.3850381,-0.0136213815,0.032416515,0.04459316,-0.37512273,-0.32962826,0.0020297803,3.0757108,-0.6237703,-0.0076021,0.0,0.0,0.0,0.0,0.0,0.0,0.4489782,-1.3790014,2.0837944,-2.2799432,-1.5710696,2.4235706,0.0,0.0,-0.0,-0.0,0.0,-0.0,0.1340753,0.15322891,-9.442732,0.77545905,47.690468,0.37393093,-3.4591432,-2.4507625,-0.49680287,0.13919392,-0.03846352,24.5625,25.0,24.3125,26.125,26.25,26.5
0.40605417,-0.13746183,-0.3828343,1.3154436,-0.0058494876,0.01578281,0.061499983,-0.37514076,-0.3296327,0.0020276227,3.0757103,-0.62371296,-0.0076572085,0.0,0.0,0.0,0.0,0.0,0.0,0.4489782,-1.3789773,2.083783,-2.279991,-1.5710815,2.4235349,0.0,0.0,-0.0,-0.0,0.0,-0.0,0.1340753,0.21068975,-9.404425,0.779936,47.686886,0.37707746,-3.4168074,-2.4893296,-0.49452436,0.12541398,-0.055104923,24.5625,25.0,24.3125,26.125,26.25,26.5
0.40805423,0.31695288,-0.03178715,1.5051748,-0.013509331,0.030366816,0.051886167,-0.37513375,-0.32965946,0.002038045,3.075655,-0.6237205,-0.007640512,0.0,0.0,0.0,0.0,0.0,0.0,0.44900215,-1.3789895,2.0837715,-2.279991,-1.5710334,2.4235706,0.0,0.0,-0.0,-0.0,0.0,-0.0,0.076614454,0.17238252,-9.32781,0.72622824,47.704796,0.34300947,-3.4227867,-2.4843798,-0.48319182,0.11765355,-0.043278553,24.5625,25.0,24.3125,26.125,26.25,26.5
0.41005442,0.18065417,0.30304495,1.3060771,-0.019276192,0.027722463,0.055541247,-0.3751331,-0.329629,0.0020173062,3.075709,-0.6237898,-0.007627935,0.0,0.0,0.0,0.0,0.0,0.0,0.4489782,-1.3789654,2.0837944,-2.279991,-1.5710815,2.423583,0.0,0.0,-0.0,-0.0,0.0,-0.0,0.019153614,0.17238252,-9.385271,0.71279734,47.70211,0.36541286,-3.4707425,-2.4605374,-0.50414824,0.13151932,-0.05640602,24.5625,25.0,24.3125,26.125,26.25,26.5
0.4120544,0.14764062,-0.009635005,1.3837188,-0.01396539,0.024481006,0.055614788,-0.37514076,-0.3296327,0.0020276227,3.0757065,-0.62373126,-0.0076571777,0.0,0.0,0.0,0.0,0.0,0.0,0.4489782,-1.3789773,2.083783,-2.279991,-1.5710815,2.4235468,0.0,0.0,-0.0,-0.0,0.0,-0.0,0.05746084,0.076614454,-9.385271,0.71279734,47.694946,0.3836403,-3.4473376,-2.5032194,-0.49678922,0.13115793,-0.05385291,24.5625,25.0,24.3125,26.125,26.25,26.5
0.4140543,0.43731585,-0.08252244,1.4718689,-0.012998977,0.034657717,0.04401238,-0.37515563,-0.32963562,0.0020347254,3.0756867,-0.62376547,-0.007713671,0.0,0.0,0.0,0.0,0.0,0.0,0.4489782,-1.3789773,2.0837715,-2.2800157,-1.5710934,2.4235706,0.0,0.0,-0.0,-0.0,0.0,-0.0,0.05746084,0.11492168,-9.423578,0.75084364,47.709274,0.38438416,-3.4681075,-2.495096,-0.49911207,0.11740905,-0.05691164,24.5625,25.0,24.3125,26.125,26.25,26.5
0.4160544,0.40237054,0.10824186,1.4844058,-0.015612301,0.031298693,0.049715836,-0.37511072,-0.32964385,0.002018958,3.0757005,-0.6236916,-0.0075929747,0.0,0.0,0.0,0.0,0.0,0.0,0.44900215,-1.3789895,2.0838192,-2.279991,-1.5710458,2.4235468,0.0,0.0,-0.0,-0.0,0.0,-0.0,0.05746084,0.19153613,-9.385271,0.7038487,47.721813,0.39389974,-3.4604068,-2.426446,-0.48649716,0.12342665,-0.05509909,24.5625,25.0,24.3125,26.125,26.25,26.5
0.41805437,0.7158853,0.37880695,1.4693717,-0.022359442,0.03809196,0.049187712,-0.37510878,-0.32962787,0.0020132188,3.0757215,-0.6237534,-0.0075871814,0.0,0.0,0.0,0.0,0.0,0.0,0.4489901,-1.3789895,2.0838306,-2.2799795,-1.5710696,2.4235706,0.0,0.0,-0.0,-0.0,0.0,-0.0,0.05746084,0.114921674,-9.481039,0.7463667,47.711964,0.40082693,-3.462021,-2.4950843,-0.5035168,0.09999238,-0.047810696,24.5625,25.0,24.3125,26.125,26.25,26.5
0.42005435,0.16459714,-0.14110146,1.4696405,-0.010420121,0.024592176,0.054625113,-0.37515852,-0.32963488,0.0020352327,3.0756989,-0.6237299,-0.0076732645,0.0,0.0,0.0,0.0,0.0,0.0,0.44896615,-1.3789654,2.0837467,-2.2799795,-1.5710815,2.4235349,0.0,0.0,-0.0,-0.0,0.0,-0.0,0.095768064,0.095768064,-9.442732,0.7329411,47.707485,0.3999492,-3.4712844,-2.4858267,-0.5015583,0.12773344,-0.045694172,24.5625,25.0,24.3125,26.125,26.25,26.5
0.4220538,0.7088748,0.24737114,1.4592764,-0.020353047,0.03754994,0.04263649,-0.37513277,-0.32962668,0.0020240361,3.0757072,-0.62378883,-0.007601782,0.0,0.0,0.0,0.0,0.0,0.0,0.44896615,-1.3789773,2.083783,-2.2799556,-1.5710696,2.4235706,0.0,0.0,-0.0,-0.0,0.0,-0.0,0.11492168,0.076614454,-9.3661175,0.69041777,47.707485,0.35970518,-3.4413993,-2.463285,-0.5055843,0.1320529,-0.058726303,24.5625,25.0,24.3125,26.125,26.25,26.5
0.42405444,0.24260792,0.08895668,1.4811883,-0.019799292,0.025664648,0.056133717,-0.37516326,-0.3296457,0.002046702,3.0756726,-0.6237244,-0.00775857,0.0,0.0,0.0,0.0,0.0,0.0,0.4489901,-1.3789895,2.083759,-2.2800272,-1.5710934,2.4235587,0.0,0.0,-0.0,-0.0,0.0,-0.0,0.1340753,0.05746084,-9.3661175,0.683705,47.72002,0.36057886,-3.4525394,-2.4550583,-0.4965014,0.113273576,-0.06191583,24.5625,25.0,24.3125,26.125,26.25,26.5
0.42605388,-0.09257636,-0.41922584,1.3709614,-0.0056207464,0.017652089,0.053698815,-0.3751397,-0.32963005,0.0020264578,3.0757003,-0.62374926,-0.0076315613,0.0,0.0,0.0,0.0,0.0,0.0,0.44896615,-1.3789773,2.083783,-2.2799795,-1.5710696,2.4235468,0.0,0.0,-0.0,-0.0,0.0,-0.0,0.17238252,0.13407528,-9.3661175,0.7597976,47.683304,0.38735098,-3.4509056,-2.4716191,-0.49687797,0.118155405,-0.041740708,24.5625,25.0,24.3125,26.125,26.25,26.5
0.4280542,0.49493366,0.055033315,1.4442736,-0.017771566,0.029336223,0.044779193,-0.37513456,-0.32962945,0.0020367934,3.0757532,-0.6236452,-0.007692163,0.0,0.0,0.0,0.0,0.0,0.0,0.44900215,-1.3790014,2.083783,-2.279967,-1.5711178,2.423511,0.0,0.0,-0.0,-0.0,0.0,-0.0,0.11492168,0.17238252,-9.404425,0.679228,47.691364,0.361408,-3.4287963,-2.5224435,-0.502293,0.12399946,-0.047111318,24.5625,25.0,24.3125,26.125,26.25,26.5
0.43005398,0.27073568,-0.1788845,1.3098785,-0.00955883,0.024210367,0.053789936,-0.3751242,-0.3296375,0.0020194657,3.07572,-0.6237735,-0.00761239,0.0,0.0,0.0,0.0,0.0,0.0,0.44900215,-1.3789654,2.083783,-2.279967,-1.5710815,2.4235954,0.0,0.0,-0.0,-0.0,0.0,-0.0,0.13407528,0.13407528,-9.308657,0.7351769,47.684196,0.37449986,-3.4682403,-2.4722438,-0.5012263,0.13068023,-0.06411725,24.5625,25.0,24.3125,26.125,26.25,26.5
0.4320544,-0.0018335142,-0.13553293,1.3162285,-0.009747681,0.018515266,0.055882655,-0.37512976,-0.3296274,0.0020132205,3.075721,-0.62373424,-0.0076268376,0.0,0.0,0.0,0.0,0.0,0.0,0.4489782,-1.3789654,2.0838077,-2.2800033,-1.5710815,2.4235468,0.0,0.0,-0.0,-0.0,0.0,-0.0,0.15322891,0.17238252,-9.385271,0.78217715,47.69763,0.3261018,-3.4131875,-2.477417,-0.49862373,0.1319002,-0.0597812,24.5625,25.0,24.3125,26.125,26.25,26.5
0.43405372,0.5349726,-0.015651347,1.3469524,-0.018222438,0.030794082,0.042228412,-0.37513754,-0.3296183,0.0020264692,3.0756977,-0.6238457,-0.0076283137,0.0,0.0,0.0,0.0,0.0,0.0,0.44895422,-1.3789895,2.0837944,-2.279967,-1.5710815,2.4235954,0.0,0.0,-0.0,-0.0,0.0,-0.0,0.22984336,0.11492168,-9.461885,0.7530795,47.693153,0.39809757,-3.484084,-2.4968135,-0.49163187,0.12387067,-0.05047115,24.5625,25.0,24.3125,26.125,26.25,26.5
0.43605423,0.2823376,-0.11665191,1.3154176,-0.015624773,0.024881048,0.049250565,-0.37511513,-0.3296203,0.0020004255,3.0757418,-0.6237766,-0.00756776,0.0,0.0,0.0,0.0,0.0,0.0,0.4489782,-1.3789533,2.0838192,-2.2799795,-1.5710815,2.4235706,0.0,0.0,-0.0,-0.0,0.0,-0.0,0.15322891,0.24899697,-9.442732,0.7038487,47.709274,0.4133664,-3.4308088,-2.4610572,-0.5102484,0.13305645,-0.05052157,24.5625,25.0,24.3125,26.125,26.25,26.5
0.4380552,0.32191288,0.15782638,1.3955913,-0.020902565,0.026830167,0.04967363,-0.37516138,-0.32964268,0.0020479811,3.0756738,-0.6237437,-0.0077175023,0.0,0.0,0.0,0.0,0.0,0.0,0.4489782,-1.3789895,2.0837467,-2.279991,-1.5710815,2.4235587,0.0,0.0,-0.0,-0.0,0.0,-0.0,0.05746084,0.1340753,-9.423578,0.7978386,47.687782,0.35301447,-3.447989,-2.4715717,-0.49625498,0.11308429,-0.045334797,24.5625,25.0,24.3125,26.125,26.25,26.5
0.44005382,0.053152196,0.02093997,1.3215864,-0.014462566,0.018882887,0.051657192,-0.37511972,-0.32961607,0.002018703,3.075739,-0.6237571,-0.0075820466,0.0,0.0,0.0,0.0,0.0,0.0,0.44896615,-1.3789895,2.0838077,-2.2799432,-1.5710815,2.4235468,0.0,0.0,-0.0,-0.0,0.0,-0.0,0.038307227,0.1340753,-9.481039,0.71951014,47.71286,0.35169536,-3.4125562,-2.4856749,-0.48932225,0.11888941,-0.048890747,24.5625,25.0,24.3125,26.125,26.25,26.5
