Tylouw/Master_Thesis_Code/training_data/batch_1/big_rod_t0.1/sample_95_session_4.csv
timestamp[s],tcp_force_x[N],tcp_force_y[N],tcp_force_z[N],tcp_force_rx[Nm?],tcp_force_ry[Nm?],tcp_force_rz[Nm?],tcp_pose_x[m],tcp_pose_y[m],tcp_pose_z[m],tcp_pose_rx[rot_vec_x],tcp_pose_ry[rot_vec_y],tcp_pose_rz[rot_vec_z],tcp_velo_x[m/s],tcp_velo_y[m/s],tcp_velo_z[m/s],tcp_velo_rx[rot_vec_x/s],tcp_velo_ry[rot_vec_y/s],tcp_velo_rz[rot_vec_z/s],q1[rad],q2[rad],q3[rad],q4[rad],q5[rad],q6[rad],qd1[rad/s],qd2[rad/s],qd3[rad/s],qd4[rad/s],qd5[rad/s],qd6[rad/s],tool_acc_x,tool_acc_y,tool_acc_z,current_of_whole_robot[A],voltage_of_whole_robot[V],current_J1[A],current_J2[A],current_J3[A],current_J4[A],current_J5[A],current_J6[A],temp_J1[C],temp_J2[C],temp_J3[C],temp_J4[C],temp_J5[C],temp_J6[C]
7.9197343e-07,0.36873004,-0.13919802,0.35151964,-0.004144548,0.028693562,-0.031992856,-0.37289986,-0.32821912,0.05993335,-3.0784767,0.62492293,-0.00030225897,-0.0006792997,-0.0003293757,-0.0023304273,-0.001243525,0.0022783508,8.528286e-05,0.44812617,-1.4708254,2.0095608,-2.1077068,-1.5706495,2.4230795,-8.0538164e-05,0.003235392,0.00404887,-0.009876912,0.000119694116,-0.00016503973,0.1340753,0.24899697,-8.925584,0.6971306,47.691364,-0.19357412,-2.7564425,-2.2599578,-0.47796303,0.15469095,-0.115699634,25.875,26.625,25.8125,28.625,29.5625,30.0
0.00204695,0.14397956,0.1444689,0.270443,-0.0034238861,0.02099418,-0.025032071,-0.37289926,-0.32821426,0.05991609,-3.078462,0.624804,-0.0002560657,-0.001157183,-0.0005601523,-0.0025373257,-0.0021691553,0.004196922,8.5243635e-05,0.44815025,-1.4708015,2.0095851,-2.1077554,-1.5706977,2.4230313,-7.935462e-05,0.0034369242,0.0050668856,-0.013226655,0.00011709836,-0.0001634026,0.05746084,0.2681506,-9.002198,0.7329411,47.689575,-0.19660372,-2.997099,-2.5538063,-0.37362832,0.14214991,-0.13266422,25.875,26.625,25.8125,28.625,29.5625,30.0
0.004043304,0.07838436,-0.10644568,0.28839692,0.014193975,0.010906761,-0.018939285,-0.37289235,-0.3281981,0.05990356,-3.0784428,0.6248579,-0.00027228735,-0.0005638989,-0.00027290542,-0.002020293,-0.0010424377,0.0018766155,8.1242724e-05,0.44812617,-1.4708138,2.0096323,-2.1077774,-1.5706977,2.4230433,-7.82054e-05,0.0028019312,0.003482723,-0.008428096,0.00011461304,-0.00015881602,0.019153614,0.17238252,-9.097966,0.7284641,47.677036,-0.20396797,-3.0193596,-2.58701,-0.3901863,0.15665156,-0.12112395,25.875,26.625,25.8125,28.625,29.5625,30.0
0.006042569,0.6857698,1.0690029,-0.011247492,0.026809111,-0.003595731,-0.031169422,-0.37287062,-0.32822636,0.059886515,-3.078473,0.6248837,-0.00038731174,0.0001510658,7.335243e-05,-0.0014936667,2.6123143e-05,-0.00032200982,7.6989854e-05,0.44815025,-1.4707781,2.0096319,-2.1077754,-1.5706257,2.4230795,-7.708901e-05,0.001772551,0.0023535865,-0.0038250345,0.00011223086,-0.00015429207,-0.019153614,0.11492168,-9.232042,0.71279734,47.672558,-0.18767916,-2.9060216,-2.459722,-0.43748426,0.16039614,-0.11833428,25.875,26.625,25.8125,28.625,29.5625,30.0
0.008045931,0.36495528,0.73637044,-0.49381873,0.060297824,-0.019483479,-0.018666077,-0.37286717,-0.32819661,0.05988541,-3.0784123,0.62487143,-0.00035954718,0.00030852365,0.00015414262,-0.0012706424,0.00040641095,-0.0011020196,6.533049e-05,0.4481382,-1.4708021,2.0096552,-2.1077511,-1.5706857,2.4230676,-8.434463e-05,0.0015911508,0.0016385975,-0.002060879,0.00010994576,-0.00015000686,0.0,0.05746084,-9.32781,0.7933669,47.658226,-0.43885505,-2.2034507,-3.1822348,-0.4501086,0.13486703,-0.13885827,25.875,26.625,25.8125,28.625,29.5625,30.0
0.01004568,0.33492178,0.7118331,-0.64930534,0.026742622,-0.0029247357,-0.02452138,-0.37286732,-0.32821408,0.059873544,-3.0784137,0.62491,-0.00046611374,-0.000115307,-3.070485e-05,-0.0035298793,0.0026042466,-0.0056778765,3.9967148e-05,0.4481382,-1.4707403,2.0096066,-2.1077158,-1.5706376,2.4230914,-0.00012619903,0.008623137,-0.0010640868,-0.0013138603,0.00010775193,-0.00016397603,0.076614454,0.11492168,-9.442732,0.7284641,47.667187,-0.48773414,-2.036177,-3.4162984,-0.43337303,0.101464525,-0.15249786,25.875,26.625,25.8125,28.625,29.5625,30.0
0.01205488,-0.031038979,0.021098232,-0.7923233,-0.00351819,0.022851894,-0.020782096,-0.37286928,-0.32821247,0.0598619,-3.0784235,0.6248364,-0.0005075006,-0.0058301976,-0.0010923235,-0.0034462204,0.0021937161,-0.004876913,-0.0031402134,0.4481253,-1.4707121,2.0096023,-2.1077158,-1.5706257,2.4230313,-0.0033378701,0.019534962,-0.013326601,-0.0008629414,0.00010564386,-0.0001864893,-0.095768064,0.22984336,-9.595961,0.7038487,47.691364,-0.5677965,-2.6797493,-3.0112264,-0.42725068,0.10917251,-0.15980098,25.875,26.625,25.8125,28.625,29.5625,30.0
0.014067684,-1.2763655,-0.95934004,-0.83629054,-0.03638294,0.041781742,-0.021290427,-0.3728855,-0.32820043,0.059863057,-3.0783756,0.62488633,-0.0004911938,-0.0057195127,0.00028351872,-0.003953383,0.0030178654,-0.0065455665,-0.0053718337,0.4481121,-1.4706883,2.009568,-2.107691,-1.5706614,2.4230554,-0.0058141663,0.019017205,-0.011787966,-2.2826734e-05,9.080264e-05,-0.00043239363,-0.3256114,0.38307226,-9.787497,0.7642693,47.677036,-0.2967918,-2.6387098,-3.2539186,-0.42989856,0.10309144,-0.17612904,25.875,26.625,25.8125,28.625,29.5625,30.0
0.016069569,-1.9588627,-1.8169774,-0.91252565,-0.072852276,0.07066135,-0.027427984,-0.37284002,-0.32820216,0.059829775,-3.0783217,0.6248345,-0.0006524358,-0.0047198716,0.00028223844,-0.00443237,0.0047053103,-0.010031164,-0.0017184722,0.4481486,-1.4706519,2.0095904,-2.10763,-1.5706495,2.4230664,-0.004900186,0.020210546,-0.012852147,0.0037202092,8.5012565e-05,-0.0031720507,-0.40222588,0.49799395,-9.864111,0.73069996,47.70032,-0.33059037,-2.3651383,-3.4767737,-0.429569,0.08018334,-0.16210827,25.875,26.625,25.8125,28.625,29.5625,30.0
0.01806912,-2.259645,-2.3745322,-0.94596225,-0.07862998,0.08626656,-0.025696088,-0.37286735,-0.32819846,0.0598201,-3.0783052,0.62479115,-0.0006731076,-0.00458772,-0.00012588012,-0.0044259233,0.005482894,-0.011609566,0.00095847395,0.44812486,-1.4705796,2.0095303,-2.1076167,-1.5706614,2.4230177,-0.0040016267,0.02163942,-0.015000944,0.0061993427,6.7650086e-05,-0.0049496177,-0.45968673,0.5363012,-9.883265,0.7351769,47.691364,-0.4991747,-2.3698187,-3.508265,-0.48045182,0.067122206,-0.14117543,25.875,26.625,25.8125,28.625,29.5625,30.0
0.02004186,-2.259645,-2.3745322,-0.94596225,-0.07862998,0.08626656,-0.025696088,-0.37286735,-0.32819846,0.0598201,-3.0783052,0.62479115,-0.0006731076,-0.00458772,-0.00012588012,-0.0044259233,0.005482894,-0.011609566,0.00095847395,0.44812486,-1.4705796,2.0095303,-2.1076167,-1.5706614,2.4230177,-0.0040016267,0.02163942,-0.015000944,0.0061993427,6.7650086e-05,-0.0049496177,-0.45968673,0.5363012,-9.883265,0.7351769,47.691364,-0.4991747,-2.3698187,-3.508265,-0.48045182,0.067122206,-0.14117543,25.875,26.625,25.8125,28.625,29.5625,30.0
0.022050304,-1.7235447,-1.4102145,-1.187683,-0.05990099,0.08927937,-0.032278657,-0.37291634,-0.32819182,0.059822984,-3.0782614,0.62486,-0.0006090001,-0.008018778,-0.00095598033,-0.0024175514,0.0026465529,-0.005345774,-0.0014192959,0.4481003,-1.4705075,2.009445,-2.107618,-1.5707096,2.4230418,-0.00544512,0.02216483,-0.01952983,0.0033291471,-0.000105604384,-0.0040113237,-0.61291564,0.6512228,-9.825804,0.7150385,47.677036,-0.601355,-2.2677002,-3.5164042,-0.43883467,0.044690862,-0.15840559,25.875,26.625,25.8125,28.625,29.5625,30.0
0.024056204,-0.95469767,-1.1538366,-0.9141763,-0.044628352,0.07470476,-0.03722787,-0.37292635,-0.32823724,0.059838917,-3.078352,0.6248023,-0.0006056452,-0.0096987095,-0.0010342426,-0.002376097,0.0021756163,-0.0042765727,-0.0024570653,0.4481359,-1.4704827,2.009384,-2.1076305,-1.5706495,2.42303,-0.0067972713,0.024466619,-0.021900035,0.0022302442,-0.00015173767,-0.004323502,-0.5554548,0.45968673,-9.787497,0.77545905,47.66987,-0.5716523,-2.18325,-3.4869118,-0.41297033,0.027210342,-0.1594902,25.875,26.625,25.8125,28.625,29.5625,30.0
0.026050815,-1.1369969,-0.67926747,-0.8972294,-0.036567524,0.049753547,-0.03593901,-0.37294364,-0.32821736,0.059823405,-3.078273,0.6248044,-0.0006077153,-0.011241163,-0.000989997,-0.0022414597,0.003281666,-0.002979841,-0.0015140065,0.44812375,-1.470422,2.0093477,-2.1076071,-1.5707101,2.4230292,-0.0072245114,0.026808925,-0.02473555,0.002039078,-0.0017180174,-0.0056883562,-0.49799395,0.36391866,-9.691729,0.77545905,47.685097,-0.59827197,-2.1813743,-3.5537338,-0.39695483,0.03261552,-0.16845599,25.875,26.625,25.8125,28.625,29.5625,30.0
0.028045746,-0.6814923,-0.12831624,-0.6291021,-0.03156426,0.056151688,-0.054930907,-0.37300074,-0.3282216,0.05981975,-3.0782945,0.6249048,-0.0005853234,-0.0127130505,-0.001319003,-0.0017096312,0.0026744555,-0.0017443617,-0.0015209115,0.44806352,-1.4703376,2.0092742,-2.1076543,-1.5706862,2.423029,-0.007947854,0.028345656,-0.02764181,0.0020319107,-0.0017126339,-0.0064028795,-0.4405331,0.3256114,-9.576807,0.79560274,47.672558,-0.67339873,-2.2797756,-3.4522,-0.37224013,0.03819074,-0.1501421,25.875,26.625,25.8125,28.625,29.5625,30.0
0.030046824,-1.1395106,-0.22352913,-0.66676486,-0.0066981628,0.048961204,-0.055873923,-0.37298873,-0.32824135,0.05979424,-3.078305,0.62481093,-0.00069674413,-0.013836959,-0.0011548538,-0.0013488425,0.0028333124,-0.0020447075,-0.0021579566,0.448087,-1.4702653,2.0092504,-2.1076415,-1.57065,2.4229925,-0.009270306,0.029768707,-0.030418837,0.0037256314,-0.001728516,-0.0070867566,-0.36391866,0.22984336,-9.615114,0.7083204,47.67345,-0.5951313,-2.178846,-3.447387,-0.3575922,-0.003801085,-0.14553487,25.875,26.625,25.8125,28.625,29.5625,30.0
0.03204677,-0.70615077,0.2820943,-0.63670385,0.00046389576,0.05373729,-0.06079221,-0.37303048,-0.3282189,0.05978249,-3.0782495,0.62489605,-0.0007440095,-0.014423913,-0.0012843445,-0.0005604658,0.002685276,-0.002029612,-0.0023210829,0.44801486,-1.4701813,2.009177,-2.1076052,-1.5706619,2.4229805,-0.009644412,0.029864028,-0.03284831,0.005981359,-0.0016023627,-0.0072971275,-0.22984336,0.19153613,-9.557653,0.8179876,47.71465,-0.66417706,-2.151627,-3.4778168,-0.35768113,-0.004993275,-0.14333609,25.875,26.625,25.8125,28.625,29.5625,30.0
0.034009475,-0.5971841,0.09703488,-0.5823026,0.027806906,0.04760603,-0.06579475,-0.37307715,-0.32821766,0.059804015,-3.0782442,0.62491435,-0.0006225049,-0.015891591,-0.0015177641,9.074152e-05,0.0021028733,-0.0010996194,-0.0034638746,0.44800264,-1.470157,2.0091035,-2.1076167,-1.5707101,2.4229805,-0.010620156,0.031234968,-0.03600528,0.0066761337,-0.0014848748,-0.007128519,-0.24899697,0.076614454,-9.423578,0.7284641,47.74062,-0.59831166,-2.101057,-3.4079072,-0.35723323,-0.008084014,-0.14811867,25.875,26.625,25.8125,28.625,29.5625,30.0
0.036006503,-0.3671077,0.9040261,-0.56604135,0.023349676,0.037538517,-0.073316656,-0.3731156,-0.32822973,0.059788194,-3.0782332,0.62489396,-0.0006533987,-0.017392905,-0.0018248186,6.988063e-05,0.0018023476,-0.0008372555,-0.0048465664,0.4479903,-1.4700361,2.0090072,-2.1076167,-1.5707101,2.422957,-0.011511136,0.034092262,-0.039057642,0.0065040877,-0.0013343769,-0.0066347653,-0.21068975,0.019153614,-9.423578,0.7396539,47.723602,-0.6686275,-2.124875,-3.3772655,-0.33108956,-0.036156364,-0.15515149,25.875,26.625,25.8125,28.625,29.5625,30.0
0.038006403,-0.3771365,0.4096278,-0.47094622,0.03728869,0.027704185,-0.07880875,-0.3731706,-0.32824594,0.059826273,-3.0783188,0.62500834,-0.00058951596,-0.01860956,-0.0019272777,0.00045192573,0.0014776536,0.0001323255,-0.0059083747,0.44793007,-1.4700358,2.0089223,-2.107629,-1.57065,2.4229572,-0.012333619,0.035282556,-0.04123347,0.0064758947,-0.0014656301,-0.006393797,-0.11492168,0.076614454,-9.404425,0.6769922,47.685097,-0.6307982,-2.111842,-3.3893418,-0.3222649,-0.056649603,-0.16587421,25.875,26.625,25.8125,28.625,29.5625,30.0
0.04000633,-0.12470509,0.68608695,-0.43349832,0.020071732,0.026065009,-0.08734851,-0.37321705,-0.32823777,0.059815023,-3.0782769,0.624942,-0.0005749411,-0.019381465,-0.0010415277,0.0005297584,0.004156297,-0.00013475811,-0.006140497,0.44790566,-1.4699278,2.0088265,-2.1076157,-1.5706991,2.4228969,-0.0131435525,0.03645829,-0.043209124,0.008684447,-0.003764094,-0.006966083,-0.11492168,0.0,-9.500193,0.74413085,47.672558,-0.58062327,-2.0233107,-3.4300551,-0.32321626,-0.07015478,-0.17008415,25.875,26.625,25.8125,28.625,29.5625,30.0
0.042006057,-0.19580331,0.48733953,-0.40726295,0.014699412,0.018991565,-0.097756624,-0.3732484,-0.3282421,0.059808142,-3.078249,0.62503195,-0.0005626459,-0.019934906,-0.0004108852,0.00053577655,0.0065595927,-0.0008547443,-0.006798155,0.44789362,-1.4698553,2.0087655,-2.1076276,-1.5707115,2.4229445,-0.013577461,0.037820723,-0.04526562,0.011074868,-0.0056173624,-0.006737745,-0.05746084,0.114921674,-9.481039,0.74413085,47.687782,-0.6543689,-2.024297,-3.410486,-0.31382215,-0.031170845,-0.17998582,25.875,26.625,25.8125,28.625,29.5625,30.0
0.044005875,-0.5133025,-0.080276296,-0.57579994,0.015048988,0.01046473,-0.09297469,-0.37325674,-0.32824367,0.059802055,-3.0781953,0.624983,-0.0006296791,-0.021273945,-0.00027008107,0.0011754857,0.006416601,0.0004202138,-0.007781279,0.4479051,-1.4697831,2.008681,-2.1075437,-1.5707353,2.4229324,-0.014770622,0.03844943,-0.047519706,0.011490525,-0.0060450565,-0.006945138,-0.076614454,0.11492168,-9.557653,0.779936,47.652847,-0.60506654,-1.9902265,-3.4659057,-0.31240678,-0.03697391,-0.18674324,25.875,26.625,25.8125,28.625,29.5625,30.0
0.04600604,-0.48529726,-0.27904063,-0.7146115,0.0019673563,0.0101745445,-0.10244676,-0.37330505,-0.32825652,0.059807815,-3.0782208,0.62498885,-0.00063820137,-0.021651475,-0.00043417362,0.0009693076,0.0066913967,-0.0009423429,-0.0078861015,0.44786912,-1.4696988,2.0085723,-2.1075308,-1.5707115,2.4228969,-0.015035226,0.040357556,-0.049458932,0.012867481,-0.0057037985,-0.0071046622,-0.076614454,0.1340753,-9.5385,0.81351066,47.683304,-0.6572485,-1.8965387,-3.4668622,-0.3419127,-0.058059294,-0.18471956,25.875,26.625,25.8125,28.625,29.5625,30.0
0.04800602,-0.537923,-1.0848207,-0.7798933,-0.0062146406,0.016854245,-0.10285015,-0.3733596,-0.32825264,0.05982208,-3.0781832,0.62501925,-0.0005772762,-0.022794899,-0.00026630386,0.001494478,0.0069128037,-0.00042593997,-0.008130172,0.44784477,-1.4696265,2.0084522,-2.107495,-1.5707597,2.4228964,-0.016099866,0.04125634,-0.05192577,0.014066786,-0.0061300374,-0.007923133,-0.095768064,0.30645782,-9.557653,0.72622824,47.694054,-0.6449861,-1.8764718,-3.4777055,-0.3593148,-0.077986464,-0.18997791,25.875,26.625,25.8125,28.625,29.5625,30.0
0.050005905,-0.73341864,-1.0786064,-0.7800753,-0.026019406,0.026873467,-0.11485694,-0.37338758,-0.3282535,0.05981023,-3.078122,0.6251019,-0.0006676471,-0.023870511,-0.00053837965,0.0017572928,0.007673474,0.0006860646,-0.007026633,0.44782087,-1.4695182,2.008344,-2.107423,-1.5707597,2.422932,-0.015771212,0.043029305,-0.054511588,0.014210543,-0.0073035825,-0.008693219,-0.21068975,0.34476504,-9.461885,0.7172743,47.68062,-0.68301743,-1.818037,-3.468251,-0.37039235,-0.06313844,-0.17887509,25.875,26.625,25.8125,28.625,29.5625,30.0
0.05200587,-0.803066,-1.0248197,-0.73451006,-0.03974156,0.04144202,-0.11378235,-0.3734235,-0.32824054,0.05980923,-3.0781052,0.6250601,-0.0006854974,-0.025240397,-0.0002757471,0.0017503699,0.008494969,0.0015253297,-0.0077231224,0.44777256,-1.4694575,2.0082715,-2.1073873,-1.5707725,2.4228597,-0.016757023,0.045006007,-0.056603786,0.013928646,-0.008413098,-0.008978258,-0.17238252,0.49799395,-9.576807,0.7284641,47.679718,-0.5976603,-1.8453152,-3.4549463,-0.3775608,-0.061455525,-0.17388979,25.875,26.625,25.8125,28.625,29.5625,30.0
0.054056875,-0.82059443,-1.1449039,-0.8042608,-0.037186448,0.057096705,-0.1322904,-0.37350628,-0.32827204,0.059841774,-3.0781643,0.625072,-0.00059149973,-0.026092984,-9.1151865e-05,0.0012492752,0.010479275,0.0019101582,-0.007226296,0.4477487,-1.4693608,2.0080907,-2.1073873,-1.5707611,2.4228358,-0.016550113,0.047572177,-0.058165107,0.01344288,-0.010372327,-0.00926322,-0.15322891,0.49799395,-9.5385,0.7553206,47.68062,-0.641657,-1.7631497,-3.5418663,-0.3667426,-0.034209084,-0.17864709,25.875,26.625,25.8125,28.625,29.5625,30.0
0.056055784,-0.89319706,-1.3414041,-0.67464054,-0.039361544,0.06126963,-0.13277866,-0.37355906,-0.32825038,0.059842285,-3.0780973,0.62519276,-0.0006146677,-0.027393945,-0.00023588203,0.0016164308,0.010840316,0.0031937205,-0.007105293,0.44767642,-1.4692763,2.007983,-2.1073272,-1.5707854,2.4228475,-0.016855884,0.049154297,-0.06074815,0.013445122,-0.011259733,-0.009685895,-0.21068975,0.49799395,-9.519346,0.74413085,47.698532,-0.61910194,-1.8284928,-3.5520883,-0.37251312,-0.03037431,-0.18283165,25.875,26.625,25.8125,28.625,29.5625,30.0
0.05805408,-1.2627757,-1.3172882,-0.5683049,-0.038513903,0.040820543,-0.13520485,-0.37359902,-0.32827386,0.05984674,-3.0781112,0.6251767,-0.000623736,-0.028995628,-0.00081575965,0.0023314895,0.010076895,0.005447448,-0.007209682,0.44767642,-1.4691801,2.0078619,-2.1073039,-1.570774,2.4228358,-0.017020408,0.05053321,-0.0637349,0.012692014,-0.011555194,-0.009743191,-0.1340753,0.47884035,-9.519346,0.7463667,47.668976,-0.5994601,-1.7303054,-3.5530136,-0.35841435,-0.040380508,-0.18227261,25.875,26.625,25.8125,28.625,29.5625,30.0
0.060054254,-1.158038,-1.3713613,-0.63478726,-0.031640366,0.03275223,-0.13298717,-0.37365624,-0.32825428,0.059841003,-3.0780494,0.62520236,-0.0005828055,-0.029456293,-0.0009700018,0.0015313831,0.010694628,0.0042340034,-0.006938937,0.44762832,-1.4690833,2.007766,-2.107292,-1.570834,2.4228117,-0.017123122,0.053446475,-0.06504995,0.01245393,-0.011590547,-0.010115116,-0.15322891,0.5554548,-9.461885,0.7642693,47.68599,-0.6334811,-1.7286365,-3.5897064,-0.35513705,-0.041964076,-0.18711971,25.875,26.625,25.8125,28.625,29.5625,30.0
0.062046636,-0.7084701,-1.4657173,-0.5277961,-0.029031219,0.033514593,-0.14970435,-0.37370136,-0.3282719,0.05984196,-3.078042,0.6251235,-0.0006011477,-0.031923056,-0.002098019,0.0032805197,0.008031584,0.007756312,-0.006978587,0.44762808,-1.4689634,2.007621,-2.1072438,-1.5708455,2.4227633,-0.017827438,0.0543919,-0.07004041,0.012167586,-0.010726386,-0.010778219,-0.11492168,0.4405331,-9.404425,0.78217715,47.694054,-0.655743,-1.7199891,-3.5217357,-0.33684197,-0.071634755,-0.18244159,25.875,26.625,25.8125,28.625,29.5625,30.0
0.06405164,-0.5954557,-1.2113478,-0.4444222,-0.03103092,0.029874133,-0.15726551,-0.373803,-0.32825932,0.059856985,-3.0780344,0.62533367,-0.00050003553,-0.032117322,-0.002231753,0.0021592055,0.0093070045,0.00551629,-0.006624011,0.44752017,-1.4688661,2.007488,-2.10728,-1.5708574,2.4227877,-0.017623091,0.057985395,-0.071527384,0.0126317395,-0.010907927,-0.01092752,-0.17238252,0.40222588,-9.404425,0.70608455,47.682407,-0.7235507,-1.7041707,-3.4660494,-0.3297112,-0.037299637,-0.18675232,25.875,26.625,25.8125,28.625,29.5625,30.0
0.06605276,-0.9011438,-1.4463181,-0.38546512,-0.020426929,0.02537559,-0.15657663,-0.3738563,-0.3282912,0.05986419,-3.0780394,0.6251993,-0.0004518361,-0.032769635,-0.002448006,0.0017737589,0.009041758,0.0049458146,-0.0067171003,0.44755608,-1.4687338,2.0073206,-2.1072562,-1.5708936,2.4227393,-0.0181363,0.060097147,-0.07289096,0.012281153,-0.010425799,-0.01134755,-0.15322891,0.40222588,-9.423578,0.7866488,47.682407,-0.6177969,-1.8632851,-3.5491023,-0.3251572,-0.06558318,-0.17946081,25.875,26.625,25.8125,28.625,29.5625,30.0
0.06805194,-0.4572066,-0.88022673,-0.23360695,-0.024622763,0.04479943,-0.17066129,-0.3739402,-0.32831052,0.059894845,-3.0780742,0.6252638,-0.00038763223,-0.03601782,-0.0034446518,0.0046291705,0.006783273,0.010745065,-0.006470107,0.44750777,-1.4686378,2.0071394,-2.1072319,-1.5708812,2.4227269,-0.018877337,0.05989559,-0.079317555,0.012704845,-0.010911702,-0.012331544,-0.21068975,0.51714754,-9.289502,0.7486078,47.694946,-0.6445191,-1.5926499,-3.4323058,-0.3145143,-0.07224417,-0.17002766,25.875,26.625,25.8125,28.625,29.5625,30.0
0.07000921,-0.67066497,-0.19438545,-0.115050554,-0.024807539,0.04525297,-0.16715777,-0.37398705,-0.3283139,0.059870947,-3.0780163,0.6252908,-0.00049319235,-0.035955533,-0.003051503,0.0035172114,0.008805474,0.008850681,-0.006347901,0.4474718,-1.4684694,2.0069954,-2.1071718,-1.5708817,2.4227152,-0.018877821,0.062392194,-0.079608314,0.013085039,-0.011915782,-0.01245072,-0.22984336,0.38307226,-9.32781,0.73069996,47.66271,-0.66660964,-1.6532918,-3.3597705,-0.31307513,-0.0750483,-0.17345482,25.875,26.625,25.8125,28.625,29.5625,30.0
0.0720065,-0.541836,-0.45851648,-0.06293742,-0.008022928,0.047012497,-0.16490513,-0.37408003,-0.32831824,0.059899576,-3.078036,0.62535197,-0.0003669922,-0.037563622,-0.003617721,0.002595199,0.009578086,0.0074563143,-0.0057666665,0.44741166,-1.4683836,2.006838,-2.1071832,-1.5709056,2.4226909,-0.019201482,0.068239965,-0.08394304,0.01316237,-0.012017369,-0.013352914,-0.1340753,0.3256114,-9.346964,0.76874626,47.672558,-0.64531255,-1.8073589,-3.376803,-0.30970442,-0.07609299,-0.17599946,25.875,26.625,25.8125,28.625,29.5625,30.0
0.07400441,-0.24227343,-0.5571975,-0.21979876,-0.0051507615,0.053718958,-0.15019226,-0.37416074,-0.32833982,0.059912737,-3.0780456,0.6253337,-0.00032265135,-0.039650418,-0.0040330826,0.0052994895,0.008007363,0.013005568,-0.005659247,0.4473876,-1.4682406,2.0066454,-2.1071594,-1.5709184,2.4226544,-0.0196373,0.06574433,-0.08749106,0.013526306,-0.013008521,-0.013892851,-0.22984336,0.3256114,-9.251195,0.7105615,47.716442,-0.68967104,-1.7123613,-3.3036914,-0.29256713,-0.09413254,-0.15576759,25.875,26.625,25.8125,28.625,29.5625,30.0
0.076005116,-0.5271666,-0.3892459,-0.28328627,-0.0045103705,0.039323308,-0.15084317,-0.3742649,-0.32833663,0.059922073,-3.0779982,0.62536204,-0.00025215268,-0.039975155,-0.0040105884,0.0039111315,0.009834848,0.010304639,-0.0050250627,0.44732767,-1.4680713,2.00643,-2.107124,-1.5709785,2.4226184,-0.0196436,0.0701232,-0.08927543,0.014157308,-0.013489956,-0.014530951,-0.1340753,0.28730422,-9.308657,0.78888994,47.709274,-0.6987425,-1.6924887,-3.2276394,-0.268394,-0.06354378,-0.15379126,25.875,26.625,25.8125,28.625,29.5625,30.0
0.07800447,-0.43878347,-0.6263224,-0.4184661,0.001901144,0.036782216,-0.14384112,-0.37430876,-0.32834682,0.059909157,-3.0779674,0.62535673,-0.000285132,-0.041764453,-0.0041240244,0.0045013973,0.010897277,0.011532503,-0.0053818873,0.4473153,-1.467939,2.0063083,-2.1070993,-1.5709909,2.4226067,-0.020040821,0.07253622,-0.09357326,0.015399644,-0.014985755,-0.01456522,-0.17238252,0.28730422,-9.346964,0.7463667,47.68062,-0.6755519,-1.7475808,-3.2271755,-0.29238266,-0.07377191,-0.14170346,25.875,26.625,25.8125,28.625,29.5625,30.0
0.08000493,-0.59837997,-0.59938115,-0.3156877,-0.006586375,0.037126668,-0.14338094,-0.37437776,-0.3283715,0.059919372,-3.0779614,0.6253546,-0.0003285541,-0.040878236,-0.0032762429,0.0024604169,0.013510919,0.0074404036,-0.0056588138,0.44729123,-1.4677821,2.0060933,-2.1070154,-1.5709795,2.4225821,-0.020432048,0.07537966,-0.09216029,0.0159651,-0.015568379,-0.014678495,-0.26815057,0.34476507,-9.3661175,0.78217715,47.679718,-0.6920461,-1.7683802,-3.2960901,-0.28137964,-0.03421687,-0.13866861,25.875,26.625,25.8125,28.625,29.5625,30.0
0.08200446,-0.81493795,-0.93673843,-0.29551777,-0.005868208,0.043939356,-0.14556035,-0.37447459,-0.3283735,0.059936464,-3.0779617,0.6253934,-0.00021980458,-0.042201154,-0.003740507,0.0030766346,0.013432979,0.008354961,-0.006040126,0.44723135,-1.4676619,2.0059245,-2.1070268,-1.5710152,2.4225466,-0.020530073,0.07712732,-0.095720105,0.016918825,-0.015897926,-0.014393372,-0.2873042,0.2681506,-9.3661175,0.74413085,47.682407,-0.70936215,-1.7508878,-3.4142244,-0.2732625,-0.03184123,-0.14236164,25.875,26.625,25.8125,28.625,29.5625,30.0
0.08400482,-0.5747485,-0.52694064,-0.28142923,-0.016552294,0.056673285,-0.14886248,-0.37457982,-0.32839674,0.059944976,-3.0779586,0.625354,-0.00018309902,-0.04276474,-0.0042893062,0.0026877187,0.013142806,0.007043807,-0.0060431003,0.44719523,-1.4674573,2.0056717,-2.1069906,-1.5710386,2.4224865,-0.020563308,0.07991414,-0.09804328,0.017508028,-0.015072672,-0.014423869,-0.24899697,0.22984336,-9.270349,0.8179876,47.686886,-0.72553384,-1.78883,-3.1332607,-0.27823064,-0.041379757,-0.12619844,25.875,26.625,25.8125,28.625,29.5625,30.0
0.08600457,-0.42537823,-0.77731144,-0.21114698,-0.005046423,0.065311566,-0.15671265,-0.37463957,-0.32839534,0.059948985,-3.0778952,0.62539965,-0.00016848679,-0.0440582,-0.004410075,0.002502754,0.01294916,0.0070663355,-0.0072176224,0.4471709,-1.4673367,2.0055163,-2.106931,-1.5710868,2.422499,-0.02161288,0.08249687,-0.10039136,0.017167771,-0.014913837,-0.014296987,-0.2681506,0.2681506,-9.251195,0.78888994,47.66987,-0.69692934,-1.7498683,-3.2735696,-0.24758065,-0.03649558,-0.1329998,25.875,26.625,25.8125,28.625,29.5625,30.0
0.08800498,-0.038341697,0.21138681,-0.1517789,-0.018618109,0.068579644,-0.1508985,-0.3747607,-0.32839826,0.05996087,-3.077881,0.6255304,-0.000113335365,-0.045097638,-0.0047811535,0.0025842139,0.01256373,0.006279548,-0.0076385476,0.4470747,-1.467156,2.0052874,-2.106918,-1.5710987,2.4224863,-0.022309106,0.0849427,-0.10357423,0.018443424,-0.014229564,-0.014572308,-0.22984336,0.2681506,-9.308657,0.7597976,47.679718,-0.7007803,-1.8536017,-3.2364693,-0.24013343,-0.04815755,-0.12132465,25.875,26.625,25.8125,28.625,29.5625,30.0
0.09004811,-1.0616965,-0.6539474,-0.2601247,0.008856641,0.04161632,-0.14060688,-0.37486377,-0.3284224,0.05996056,-3.077857,0.6255446,-6.459209e-05,-0.045573384,-0.004679953,0.0022980392,0.013612738,0.0054361136,-0.0076931086,0.44705066,-1.4669397,2.0050476,-2.1069067,-1.5711344,2.4224744,-0.02253083,0.08682446,-0.10523188,0.0194345,-0.014812046,-0.014737523,-0.17238252,0.24899697,-9.289502,0.8179876,47.699425,-0.6826247,-1.7436327,-3.2363636,-0.23471254,-0.035951313,-0.12046629,25.875,26.625,25.8125,28.625,29.5625,30.0
0.09205636,-0.46494666,-0.41216254,-0.29240182,-0.0006952882,0.045247074,-0.15151234,-0.37492403,-0.32843444,0.059978794,-3.0778403,0.62554085,-6.81586e-05,-0.04613179,-0.005446897,0.002172478,0.013171832,0.0049905223,-0.0069942563,0.44702694,-1.4668313,2.0048673,-2.1068227,-1.5711468,2.4224505,-0.021990389,0.089135,-0.107543334,0.019643882,-0.01422656,-0.014895272,-0.28730422,0.28730422,-9.346964,0.7732232,47.70838,-0.71700925,-1.8073242,-3.27877,-0.23390704,-0.05838199,-0.103328794,25.875,26.625,25.8125,28.625,29.5625,30.0
0.09406905,-0.42149583,-0.70731896,-0.3793173,-0.0031277833,0.038803823,-0.14030065,-0.37504348,-0.3284577,0.059983335,-3.0778472,0.62548435,-1.6764236e-05,-0.047545303,-0.0052434374,0.0024663326,0.013591081,0.0058253156,-0.008071849,0.44697845,-1.4666034,2.0046031,-2.1068099,-1.5711707,2.4223661,-0.023140298,0.0906992,-0.11003991,0.020006297,-0.0149696935,-0.014964866,-0.30645782,0.2681506,-9.346964,0.8112748,47.70838,-0.6759368,-1.6925862,-3.2145996,-0.22791612,-0.008028151,-0.10601336,25.875,26.625,25.8125,28.625,29.5625,30.0
0.09604801,-0.25981003,-0.60698813,-0.1962102,-0.024278611,0.043676924,-0.15273806,-0.3751239,-0.3284406,0.059972156,-3.0777376,0.6256155,-6.118834e-05,-0.048557226,-0.00527199,0.002475806,0.013656092,0.006039058,-0.008483949,0.44690606,-1.4664228,2.004411,-2.1067264,-1.5712188,2.4223897,-0.023888046,0.09242079,-0.111985125,0.020063812,-0.015126021,-0.0152977435,-0.3256114,0.30645782,-9.346964,0.86945957,47.71554,-0.6806872,-2.0170872,-3.2328992,-0.21263415,-0.019963859,-0.09446272,25.875,26.625,25.8125,28.625,29.5625,30.0
0.09805222,-0.5464181,-0.7355211,-0.25989226,-0.03543466,0.03960199,-0.14289102,-0.37522614,-0.328477,0.060003657,-3.0777767,0.62560487,1.4338896e-05,-0.049949046,-0.0055363257,0.0035500377,0.013244443,0.008539691,-0.008984993,0.446882,-1.4662671,2.0041592,-2.1066906,-1.5712193,2.4223542,-0.024161916,0.09252127,-0.1145864,0.02013401,-0.015839804,-0.015068552,-0.17238252,0.3256114,-9.404425,0.779936,47.68062,-0.70084196,-1.7034788,-3.2109466,-0.1923193,-0.023082986,-0.09074876,25.875,26.625,25.8125,28.625,29.5625,30.0
0.10004885,-0.79132736,-1.0301087,-0.32117614,-0.029841924,0.03453215,-0.1404773,-0.37533316,-0.32848376,0.06000416,-3.0777133,0.6255914,6.438293e-05,-0.04950861,-0.0054604015,0.0005635753,0.01533662,0.00220192,-0.009059662,0.44684604,-1.4660491,2.003907,-2.1066425,-1.5712909,2.4223182,-0.024477005,0.09933591,-0.115406945,0.020754602,-0.014988467,-0.015309114,-0.15322891,0.4405331,-9.3661175,0.779936,47.684196,-0.6810926,-2.0475698,-3.3386405,-0.16810095,-0.016800817,-0.07673164,25.875,26.625,25.8125,28.625,29.5625,30.0
0.102045596,-0.7391224,-0.81160057,-0.32959306,-0.029228974,0.03608841,-0.13912785,-0.3754328,-0.32850406,0.060019404,-3.0777295,0.62563324,8.255768e-05,-0.05007338,-0.0055129556,0.0012349375,0.015076917,0.0030120926,-0.009512163,0.44678587,-1.4658817,2.0036795,-2.1066062,-1.5712789,2.4222822,-0.024799516,0.099030145,-0.11682559,0.021635974,-0.015105174,-0.015178747,-0.15322891,0.30645782,-9.308656,0.7351769,47.67345,-0.690295,-1.829728,-3.3976626,-0.16106382,-0.036779627,-0.07868968,25.875,26.625,25.8125,28.625,29.5625,30.0
0.10405481,-0.8445762,-0.7333885,-0.2953358,-0.012235992,0.020432677,-0.13481645,-0.3755504,-0.3284965,0.0600131,-3.0776572,0.62569493,0.00014753899,-0.05044037,-0.00564137,0.00025226906,0.015950589,0.00057202036,-0.009515835,0.44671386,-1.4656647,2.003452,-2.1065934,-1.5713509,2.4222581,-0.025059044,0.10263203,-0.118770994,0.022554232,-0.014841486,-0.015433675,-0.019153614,0.30645782,-9.289502,0.78888994,47.678825,-0.6624393,-1.9236256,-3.394783,-0.15439743,-0.044537373,-0.09061006,25.875,26.625,25.8125,28.625,29.5625,30.0
0.106048085,-0.08905434,-0.33970496,-0.3394052,-0.00073333754,0.023401419,-0.13887171,-0.37565702,-0.32851154,0.06000951,-3.0776205,0.6257642,0.00013149758,-0.05299685,-0.0066523915,0.00196454,0.013989172,0.0044956356,-0.009376081,0.4466536,-1.4654368,2.0031984,-2.1065462,-1.5713629,2.422246,-0.025505142,0.10373364,-0.12383402,0.022127936,-0.0147800585,-0.016016094,-0.076614454,0.28730422,-9.289502,0.7709874,47.691364,-0.70164764,-1.9156318,-3.2346544,-0.14301993,-0.024800532,-0.05965592,25.875,26.625,25.8125,28.625,29.5625,30.0
0.10805399,0.24657272,-0.027861942,-0.124880895,-0.0025281275,0.024587503,-0.14089836,-0.37577787,-0.32853332,0.060028996,-3.07762,0.6258606,0.00019977319,-0.052531496,-0.0058256625,5.1284766e-05,0.015447728,0.00092717336,-0.010634863,0.4465932,-1.4652442,2.0029361,-2.1065223,-1.5713748,2.422246,-0.026776657,0.106429026,-0.122366615,0.02181167,-0.014551369,-0.016030341,-0.05746084,0.2681506,-9.270349,0.83589023,47.694946,-0.609932,-1.8836222,-3.4423757,-0.13608938,-0.05604256,-0.05967381,25.875,26.625,25.8125,28.625,29.5625,30.0
0.110045634,0.041809957,-0.20546451,-0.24000138,0.0010227634,0.018901912,-0.1508093,-0.3758842,-0.3285525,0.060028736,-3.0776138,0.62582105,0.00016961308,-0.053779792,-0.0059612477,0.0002865484,0.015540844,0.0013635758,-0.010908528,0.446533,-1.465016,2.0026715,-2.1064622,-1.5713748,2.422162,-0.02745154,0.10833408,-0.12514764,0.022334043,-0.014829485,-0.016428918,0.0,0.3256114,-9.251195,0.74413085,47.707485,-0.61391795,-1.8824089,-3.289944,-0.09728214,-0.040650517,-0.06435478,25.875,26.625,25.8125,28.625,29.5625,30.0
0.11205496,-0.33874536,-0.8838214,-0.37862524,0.009461587,0.012231381,-0.13459986,-0.3759568,-0.32855973,0.060014036,-3.077525,0.62584114,0.00015129914,-0.054182433,-0.0064323973,0.000900805,0.015173403,0.0011630369,-0.011404999,0.44652104,-1.4648124,2.002467,-2.1064017,-1.5714344,2.4221742,-0.02720924,0.108857185,-0.12759663,0.02428016,-0.014412879,-0.015689187,-0.076614454,0.21068975,-9.270349,0.7665104,47.686886,-0.63350827,-1.7654837,-3.461749,-0.083844945,-0.0523141,-0.06407441,25.875,26.625,25.8125,28.625,29.5625,30.0
0.1140532,-0.5315693,-0.5671664,-0.23756675,-0.007089079,0.014508552,-0.14037125,-0.37608543,-0.32857665,0.060034454,-3.07751,0.62583774,0.00021298307,-0.054107923,-0.0061486065,0.0005727152,0.016416753,-0.00075055176,-0.011826913,0.44646096,-1.4645962,2.002168,-2.1063411,-1.5714706,2.4221141,-0.027464205,0.11012222,-0.12875217,0.026433345,-0.01470558,-0.0155217415,-0.095768064,0.22984336,-9.232041,0.7463667,47.65912,-0.63465923,-1.864465,-3.4572718,-0.09130023,-0.031273086,-0.072683334,25.875,26.625,25.8125,28.625,29.5625,30.0
0.11604751,-0.5315693,-0.5671664,-0.23756675,-0.007089079,0.014508552,-0.14037125,-0.37608543,-0.32857665,0.060034454,-3.07751,0.62583774,0.00021298307,-0.054107923,-0.0061486065,0.0005727152,0.016416753,-0.00075055176,-0.011826913,0.44646096,-1.4645962,2.002168,-2.1063411,-1.5714706,2.4221141,-0.027464205,0.11012222,-0.12875217,0.026433345,-0.01470558,-0.0155217415,-0.095768064,0.22984336,-9.232041,0.7463667,47.65912,-0.63465923,-1.864465,-3.4572718,-0.09130023,-0.031273086,-0.072683334,25.875,26.625,25.8125,28.625,29.5625,30.0
0.118045785,-0.08549604,-0.0577829,-0.4545815,0.0020264497,0.01943998,-0.13602816,-0.37628987,-0.3286022,0.060023073,-3.0774229,0.6259551,0.0001446804,-0.056882177,-0.006667149,0.0013267412,0.016382186,-0.00021321702,-0.012983673,0.44634047,-1.4641395,2.001663,-2.1062205,-1.5714949,2.4220784,-0.028831279,0.114467315,-0.13582917,0.028664079,-0.014918531,-0.015726427,-0.095768064,0.24899697,-9.346964,0.842603,47.66539,-0.6502713,-1.8687901,-3.5072103,-0.080709815,-0.07169601,-0.05188003,25.875,26.625,25.8125,28.625,29.5625,30.0
0.120050795,-0.33683017,-0.11475272,-0.38263667,0.009704367,0.013775633,-0.13247204,-0.37643507,-0.32862484,0.0600442,-3.077415,0.6259718,0.00029078865,-0.057592995,-0.0068502836,0.0010864197,0.016728237,-0.000940266,-0.013026327,0.4462923,-1.4639112,2.0013626,-2.10622,-1.571555,2.422042,-0.029116867,0.11676936,-0.1379947,0.029330887,-0.014919331,-0.01596903,-0.15322891,0.2681506,-9.346964,0.84708,47.684196,-0.64099205,-1.7000368,-3.4081988,-0.085525975,-0.061388995,-0.061211903,25.875,26.625,25.8125,28.625,29.5625,30.0
0.12205587,0.17184384,0.01934684,-0.5644379,0.0016292923,0.025893599,-0.1387402,-0.37654677,-0.32864672,0.060049996,-3.0773907,0.6259861,0.0002458448,-0.058704514,-0.007238533,0.0012206688,0.016915983,-0.0012208384,-0.01293898,0.4462324,-1.4636706,2.0010622,-2.1061246,-1.571555,2.4219942,-0.029344512,0.11931375,-0.1414113,0.030536218,-0.014973379,-0.016281368,-0.076614454,0.3256114,-9.32781,0.7553206,47.65912,-0.5886296,-1.7429116,-3.3735604,-0.05831694,-0.045099158,-0.0617517,25.875,26.625,25.8125,28.625,29.5625,30.0
0.12400483,-0.3072132,-0.4556082,-0.7335246,-0.0019868747,0.026023205,-0.1357246,-0.37664694,-0.32864112,0.060019393,-3.0772676,0.62605697,0.0001798699,-0.059809715,-0.0070688617,0.0016695557,0.01721979,-0.000982981,-0.013571239,0.44617197,-1.4633949,2.0008113,-2.1060517,-1.5716151,2.421994,-0.030389162,0.1204006,-0.14399125,0.031944897,-0.015354767,-0.016690247,-0.17238252,0.2681506,-9.3661175,0.7418897,47.686886,-0.6143758,-1.746031,-3.3771286,-0.0689415,-0.08563709,-0.060562875,25.875,26.625,25.8125,28.625,29.5625,30.0
0.12600446,-0.6522772,-0.9542026,-0.7994959,-0.016465543,0.03407137,-0.1314353,-0.3767459,-0.3286566,0.060017645,-3.0772176,0.6260853,8.991008e-05,-0.06018727,-0.007137418,0.001677944,0.01792914,-0.0018666743,-0.013341032,0.44611195,-1.4631547,2.0005229,-2.1059315,-1.5716156,2.4219582,-0.03041385,0.1218461,-0.14601666,0.03362783,-0.015615806,-0.01694257,-0.17238252,0.3256114,-9.404425,0.8179876,47.698532,-0.60618854,-1.6752855,-3.3669145,-0.06608892,-0.06558846,-0.05574148,25.875,26.625,25.8125,28.625,29.5625,30.0
0.12800448,-1.2010044,-1.1796868,-0.8685207,-0.03178041,0.03883997,-0.13044757,-0.37686056,-0.32867336,0.06003365,-3.0772078,0.6260253,0.00013728482,-0.06086387,-0.0072724526,0.0019918634,0.018620236,-0.0016121948,-0.013292009,0.446064,-1.4629508,2.0002472,-2.105871,-1.5716513,2.4218743,-0.030264203,0.12299475,-0.1483015,0.03483403,-0.016351383,-0.016839355,-0.2681506,0.38307226,-9.5385,0.779936,47.686886,-0.58045864,-1.5738919,-3.3984573,-0.09068298,-0.070879765,-0.060392667,25.875,26.625,25.8125,28.625,29.5625,30.0
0.13000447,-0.94067854,-1.2024978,-0.8313884,-0.043895423,0.060586292,-0.13453545,-0.37698713,-0.32869837,0.06003727,-3.0771515,0.6261477,0.000101965794,-0.060965884,-0.0077630524,0.0009975554,0.019149508,-0.0042416896,-0.013167417,0.44600433,-1.462674,1.9999117,-2.1057756,-1.5716628,2.4218984,-0.029867074,0.12662661,-0.15028256,0.035780624,-0.015697652,-0.016566293,-0.34476504,0.4405331,-9.634268,0.8090337,47.684196,-0.72579175,-1.6955509,-3.4150624,-0.08619162,-0.07589068,-0.06424953,25.875,26.625,25.8125,28.625,29.5625,30.0
0.13200444,-1.0321229,-1.8809358,-0.8762097,-0.03990914,0.06492769,-0.13705042,-0.37712348,-0.32871214,0.06006364,-3.077121,0.6261209,0.00021601842,-0.062223814,-0.007871581,0.0016454697,0.019234952,-0.0027267355,-0.013103387,0.44595602,-1.4624583,1.9995993,-2.1057155,-1.5717353,2.4218376,-0.030288078,0.12747858,-0.15281169,0.036127973,-0.016433112,-0.017048808,-0.2681506,0.40222588,-9.634268,0.7709874,47.691364,-0.66959715,-1.5474396,-3.4042869,-0.114192635,-0.09045526,-0.06399371,25.875,26.625,25.8125,28.625,29.5625,30.0
0.13400443,-0.82922715,-1.6644027,-0.83697903,-0.042752866,0.06843792,-0.132465,-0.37724957,-0.3287299,0.060051322,-3.0770645,0.6261673,0.00014969402,-0.0628791,-0.007723528,0.00069020665,0.019698886,-0.0044507,-0.013580625,0.44588363,-1.4621574,1.999276,-2.1056316,-1.5717472,2.4218016,-0.03135455,0.13061827,-0.15410781,0.036036648,-0.016113508,-0.017636556,-0.28730422,0.4405331,-9.672575,0.7978386,47.701214,-0.64126194,-1.6780398,-3.4322991,-0.09211722,-0.093550734,-0.053542543,25.875,26.625,25.8125,28.625,29.5625,30.0
0.13600442,-0.9538954,-1.382658,-0.7599042,-0.037075415,0.052542206,-0.14090247,-0.3773595,-0.3287505,0.060045086,-3.0770218,0.6261571,0.00015274956,-0.06403272,-0.007960571,0.00023034491,0.020829732,-0.0047296965,-0.013129415,0.4458478,-1.461905,1.9990004,-2.1055834,-1.5717839,2.421765,-0.031330124,0.13419774,-0.1570679,0.03615817,-0.017020784,-0.01805865,-0.3256114,0.49799395,-9.653421,0.8493211,47.686886,-0.7089565,-1.6727009,-3.333623,-0.084107146,-0.10714543,-0.06467289,25.875,26.625,25.8125,28.625,29.5625,30.0
0.13800448,-0.5863113,-1.0769777,-0.8251708,-0.0359828,0.053490702,-0.1339466,-0.37753117,-0.32876667,0.06006322,-3.076993,0.6262859,0.00020748348,-0.065995194,-0.008428645,0.0011867939,0.020188287,-0.0023290568,-0.013505729,0.44573963,-1.461617,1.9986271,-2.1055243,-1.5718077,2.4217412,-0.031883456,0.13569953,-0.16093887,0.036083966,-0.017486516,-0.018232616,-0.34476504,0.38307226,-9.595961,0.83365434,47.694946,-0.73446065,-1.6971755,-3.4656205,-0.07560314,-0.093390554,-0.047862303,25.875,26.625,25.8125,28.625,29.5625,30.0
0.14000459,-0.28244013,-0.47144485,-0.7096648,-0.029766044,0.05954711,-0.15118872,-0.37767383,-0.32878196,0.060059838,-3.0769515,0.62635523,0.00021087467,-0.066179626,-0.008590958,0.0002870974,0.020572899,-0.004000402,-0.014539653,0.44565555,-1.4613283,1.9983047,-2.1054761,-1.5718311,2.421706,-0.031977765,0.13836043,-0.16183643,0.03599254,-0.017115673,-0.017292704,-0.30645782,0.30645782,-9.5385,0.7709874,47.637623,-0.67800504,-1.7018182,-3.486295,-0.07281583,-0.104379,-0.057123087,25.875,26.625,25.8125,28.625,29.5625,30.0
0.14200445,-0.72258717,-0.4233591,-0.5677237,-0.013971399,0.045283314,-0.13524783,-0.37778684,-0.32879955,0.06006093,-3.0768967,0.62632394,0.00021187165,-0.067447335,-0.008554695,0.0004387463,0.02097775,-0.0034929218,-0.015210538,0.4456194,-1.4610761,1.9980043,-2.1053922,-1.5718797,2.4216576,-0.03277665,0.14024967,-0.16439262,0.03637658,-0.017705483,-0.01741711,-0.2681506,0.36391866,-9.519346,0.82022345,47.64389,-0.7534278,-1.7472569,-3.3941753,-0.04602972,-0.12734812,-0.06445426,25.875,26.625,25.8125,28.625,29.5625,30.0
0.14400546,-1.0965725,-0.47948426,-0.41440096,-0.0064542033,0.03070403,-0.1338104,-0.37795416,-0.3288241,0.0600992,-3.0768754,0.62641597,0.00033059326,-0.068689935,-0.009359679,0.0010417895,0.020190159,-0.002567821,-0.01538533,0.4455473,-1.460824,1.9976214,-2.1053202,-1.5719279,2.4216459,-0.03257636,0.1420721,-0.16795082,0.03693549,-0.01739932,-0.017041633,-0.28730422,0.22984336,-9.442732,0.784413,47.689575,-0.7799846,-1.5956354,-3.2569375,-0.04642143,-0.13133673,-0.07740704,25.875,26.625,25.8125,28.625,29.5625,30.0
0.14600462,-0.39104992,-0.0049928757,-0.31201163,-0.0043822224,0.043083996,-0.13718256,-0.37811098,-0.32884175,0.0601023,-3.0768516,0.62656456,0.0003418181,-0.06948811,-0.009450006,-0.0003208234,0.02249433,-0.0056769294,-0.0153429285,0.44543937,-1.4605346,1.9972857,-2.1052835,-1.5719279,2.421634,-0.032604206,0.1477756,-0.17156899,0.038649395,-0.018143985,-0.01710791,-0.3256114,0.24899697,-9.442732,0.8851263,47.716442,-0.76306087,-1.7854977,-3.3377047,-0.055612564,-0.11217424,-0.09473291,25.875,26.625,25.8125,28.625,29.5625,30.0
0.14800452,-0.31029254,-0.19587778,-0.22053947,0.0024989403,0.04200588,-0.13941485,-0.37824422,-0.32888424,0.06011338,-3.0768292,0.62650114,0.00033157977,-0.06852836,-0.008704016,-0.00319349,0.025946885,-0.012370343,-0.014862344,0.44541526,-1.4602334,1.9969023,-2.1051753,-1.5719522,2.4215734,-0.032973323,0.15324202,-0.1715424,0.04068301,-0.018372776,-0.017956404,-0.22984336,0.2681506,-9.385271,0.81351066,47.672558,-0.7753175,-1.7598009,-3.4367886,-0.058091022,-0.14613782,-0.086074695,25.875,26.625,25.8125,28.625,29.5625,30.0
0.15000443,-0.3596718,-0.039266985,0.071989566,-0.004016348,0.033612795,-0.13817084,-0.37837288,-0.32889917,0.06010726,-3.076764,0.6265832,0.0002924196,-0.06928444,-0.009435853,-0.0019161456,0.024611559,-0.010885204,-0.013822164,0.44534332,-1.459946,1.996579,-2.1050909,-1.5719756,2.4215612,-0.032643877,0.15272318,-0.17422923,0.04196842,-0.017813344,-0.018666515,-0.15322891,0.22984336,-9.232041,0.8179876,47.711063,-0.8378427,-1.8459244,-3.444839,-0.06578785,-0.15054888,-0.07804874,25.875,26.625,25.8125,28.625,29.5625,30.0
0.15200448,-0.38295674,0.013369191,0.08659483,-0.009487967,0.025149448,-0.1394087,-0.37852296,-0.32892394,0.060120523,-3.0767138,0.62655324,0.00033383953,-0.06964356,-0.009312271,-0.0017267482,0.026308827,-0.012043384,-0.013896209,0.44529542,-1.4596462,1.9961947,-2.104994,-1.5720361,2.4215014,-0.0324888,0.15415183,-0.17699622,0.045085177,-0.018846069,-0.01843386,-0.15322891,0.22984336,-9.174581,0.8157518,47.688675,-0.8277777,-1.8654728,-3.388358,-0.082227916,-0.14306733,-0.08205878,25.875,26.625,25.8125,28.625,29.5625,30.0
0.15400444,-0.36131677,-0.29977274,0.08747034,0.001502159,0.021730121,-0.13556695,-0.37865373,-0.32893524,0.060097788,-3.0766315,0.62659395,0.0002758465,-0.070548,-0.009648717,-0.001717886,0.026815115,-0.013068273,-0.013923389,0.44522345,-1.4593217,1.995871,-2.1049216,-1.5720724,2.4214656,-0.03264157,0.15688352,-0.18053208,0.04703026,-0.018867811,-0.018556165,-0.17238252,0.28730422,-9.097966,0.86498255,47.691364,-0.9043932,-1.7579911,-3.328051,-0.106193855,-0.17073497,-0.105147555,25.875,26.625,25.8125,28.625,29.5625,30.0
0.15600443,-0.084153906,-0.25479987,0.112593174,0.0037584214,0.019955682,-0.13588533,-0.37882176,-0.32896405,0.06011957,-3.0766084,0.62653214,0.00038860616,-0.07205742,-0.00939099,-0.0010866264,0.026039468,-0.0112112975,-0.015896756,0.44517478,-1.4590222,1.9954756,-2.104862,-1.5721444,2.4213817,-0.03438457,0.15711033,-0.18212713,0.04638703,-0.018972546,-0.018325185,-0.076614454,0.28730422,-9.021352,0.80679786,47.696735,-0.8508161,-1.7016696,-3.422698,-0.10428935,-0.16107565,-0.11728827,25.875,26.625,25.8125,28.625,29.5625,30.0
0.15801011,0.13974746,-0.12360928,0.10232391,0.008931936,0.016484719,-0.13863015,-0.37894696,-0.32897067,0.06010279,-3.0765138,0.6266082,0.0002879487,-0.071559176,-0.009038027,-0.00204669,0.028102914,-0.0142313335,-0.01517151,0.44509086,-1.4587101,1.9951409,-2.1047413,-1.5721682,2.4213576,-0.03420168,0.15920824,-0.18279389,0.048569236,-0.01953532,-0.018864254,-0.038307227,0.24899697,-9.059659,0.8224646,47.693153,-0.85000837,-1.664241,-3.4263806,-0.12661052,-0.1516422,-0.116536915,25.875,26.625,25.8125,28.625,29.5625,30.0
0.16000454,0.13974746,-0.12360928,0.10232391,0.008931936,0.016484719,-0.13863015,-0.37894696,-0.32897067,0.06010279,-3.0765138,0.6266082,0.0002879487,-0.071559176,-0.009038027,-0.00204669,0.028102914,-0.0142313335,-0.01517151,0.44509086,-1.4587101,1.9951409,-2.1047413,-1.5721682,2.4213576,-0.03420168,0.15920824,-0.18279389,0.048569236,-0.01953532,-0.018864254,-0.038307227,0.24899697,-9.059659,0.7732232,47.684196,-0.8957582,-1.6653296,-3.3650138,-0.14462695,-0.17278093,-0.12024985,25.875,26.625,25.8125,28.625,29.5625,30.0
0.16200447,0.10040103,-0.2292246,0.20256773,0.008590795,0.010329797,-0.13425855,-0.37921494,-0.32900736,0.060093157,-3.0763493,0.62666863,0.00022438573,-0.07183145,-0.009825955,-0.0015290194,0.029970784,-0.016965201,-0.013486753,0.4449833,-1.4580857,1.9944214,-2.104524,-1.5722641,2.4213095,-0.032605495,0.16218969,-0.18881214,0.054875545,-0.020048104,-0.018947048,-0.13407528,0.2681506,-9.002198,0.8224646,47.66987,-1.0345461,-1.7882364,-3.291234,-0.19088417,-0.18818992,-0.1233065,25.875,26.6875,25.8125,28.625,29.5625,30.0
0.16400453,0.1826164,-0.07790205,0.15777,-0.0020135564,0.0075439964,-0.13982749,-0.37939677,-0.32902792,0.060122903,-3.0763092,0.6267757,0.00024766746,-0.07433264,-0.010238679,-0.00074373116,0.028220756,-0.013959571,-0.015048554,0.44487485,-1.457774,1.9939779,-2.1043932,-1.5722879,2.4212732,-0.034228124,0.16401944,-0.19226906,0.053032856,-0.019776564,-0.019005928,-0.019153614,0.24899697,-8.963891,0.8672237,47.672558,-0.96040547,-1.5310817,-3.3956316,-0.21457098,-0.18894923,-0.14151223,25.875,26.6875,25.8125,28.625,29.5625,30.0
0.16600443,0.26345342,-0.26497197,0.009729136,-0.0048686345,0.011365881,-0.14146942,-0.37952268,-0.32903457,0.060093682,-3.0762103,0.62673455,0.00018467059,-0.0756465,-0.010794203,0.00067940995,0.02759136,-0.011678965,-0.014038738,0.444815,-1.4574387,1.9936537,-2.1043088,-1.5723485,2.4212008,-0.03406869,0.16395923,-0.19579968,0.054291856,-0.020198757,-0.019851709,0.15322891,0.2873042,-9.040505,0.80456203,47.675243,-1.0126771,-1.4731526,-3.3583808,-0.22777483,-0.21102849,-0.13899171,25.875,26.6875,25.8125,28.625,29.5625,30.0
0.16800441,-0.03905444,-0.6635324,-0.15195917,-0.0078047956,0.010801418,-0.13759539,-0.37967986,-0.3290689,0.06010572,-3.0761578,0.6267823,0.00015939045,-0.07533084,-0.009989214,-0.00047012125,0.029669616,-0.015150575,-0.014932608,0.4447546,-1.4571027,1.9932231,-2.1041763,-1.5723728,2.4211771,-0.035012193,0.16614789,-0.19614129,0.056472458,-0.020579182,-0.019899676,-0.019153614,0.24899697,-9.193734,0.85826975,47.682407,-1.0494838,-1.4747694,-3.4304729,-0.27144277,-0.21384576,-0.13905956,25.875,26.6875,25.8125,28.625,29.5625,30.0
0.1700044,-0.47762123,-0.46904537,-0.2687638,-0.01296467,0.007352195,-0.13357276,-0.37984338,-0.32908922,0.060111426,-3.076069,0.62686,0.00019672551,-0.07670433,-0.010324523,0.0004378996,0.028653787,-0.013658159,-0.015704636,0.44469437,-1.4567671,1.9928159,-2.1040804,-1.5724448,2.4211771,-0.03577398,0.1667261,-0.19903576,0.05700088,-0.020311205,-0.019888178,-0.038307227,0.3256114,-9.270349,0.8090337,47.691364,-0.97905195,-1.4449806,-3.4131966,-0.2889058,-0.22025451,-0.14800294,25.875,26.6875,25.8125,28.625,29.5625,30.0
0.17200457,-0.7305041,-1.1121477,-0.50542074,0.00037549066,0.00834804,-0.12448382,-0.37996703,-0.32911673,0.060091276,-3.07602,0.62681055,-1.9959863e-05,-0.077116124,-0.010927142,-0.00042938482,0.029408712,-0.014402904,-0.014290235,0.44461071,-1.4564064,1.9924206,-2.1039011,-1.5724086,2.4210691,-0.034753215,0.17013556,-0.20072548,0.056277845,-0.020683212,-0.020276204,-0.019153614,0.38307226,-9.404425,0.8985519,47.694946,-1.0982296,-1.519393,-3.391779,-0.30696803,-0.24368903,-0.15422605,25.875,26.6875,25.8125,28.625,29.5625,30.0
0.17400444,-0.56529915,-0.87563515,-0.4821967,-0.03006853,0.037687615,-0.1370327,-0.38009685,-0.32913172,0.06005541,-3.0758808,0.62685823,-0.00012919064,-0.07839049,-0.011521794,-0.0011374317,0.029698994,-0.014837151,-0.014132451,0.4445627,-1.4560214,1.9920481,-2.1037815,-1.5724686,2.4210691,-0.03471238,0.17447713,-0.2038196,0.055545185,-0.020770919,-0.02038763,0.076614454,0.3256114,-9.481039,0.95002913,47.694946,-1.1739655,-1.6811352,-3.4272723,-0.31816033,-0.25413078,-0.16867875,25.875,26.6875,25.8125,28.625,29.5625,30.0
0.17600437,-0.62004125,-1.3454088,-0.7324197,-0.035791617,0.049051706,-0.13355377,-0.3802815,-0.32916406,0.060077388,-3.0758464,0.6269088,-5.4938246e-05,-0.07975286,-0.01111709,-0.0018212362,0.02990949,-0.015120937,-0.016134413,0.4444902,-1.4556854,1.9916056,-2.1036985,-1.5725168,2.421033,-0.036606643,0.1773412,-0.2052407,0.054446977,-0.020845748,-0.020278748,-0.095768064,0.3256114,-9.500193,0.8090337,47.696735,-1.0650095,-1.5789847,-3.4764142,-0.3326642,-0.24716192,-0.1718497,25.875,26.6875,25.8125,28.625,29.5625,30.0
0.17800443,-1.1430962,-1.1050217,-0.82146525,-0.046629783,0.03923492,-0.1371109,-0.3804027,-0.32917896,0.06005202,-3.0757487,0.6268701,-0.00024096777,-0.081670865,-0.011170381,-0.0025791116,0.030179463,-0.0148242265,-0.01726522,0.44441757,-1.4553245,1.9912218,-2.1035187,-1.5725287,2.420949,-0.03794089,0.18172024,-0.20803468,0.05270937,-0.021232473,-0.02047507,-0.11492168,0.30645782,-9.576807,0.83365434,47.670765,-1.1800641,-1.7523966,-3.508347,-0.32689145,-0.2672468,-0.17417961,25.875,26.6875,25.8125,28.625,29.5625,30.0
0.18000445,-1.0261587,-1.3858088,-0.7580312,-0.044297148,0.048283122,-0.13207258,-0.38058683,-0.32916805,0.060047716,-3.0756123,0.6270533,-0.00019366182,-0.083919674,-0.011488762,-0.0022516716,0.029996246,-0.011665467,-0.017268505,0.44429746,-1.4549762,1.990826,-2.1034367,-1.572625,2.4209611,-0.038514342,0.18417741,-0.21103002,0.05031543,-0.022441491,-0.021038031,-0.17238252,0.38307226,-9.557653,0.8314132,47.664497,-1.1350363,-1.7971308,-3.4021811,-0.29913372,-0.291702,-0.1956587,25.875,26.6875,25.8125,28.625,29.5625,30.0
0.18200445,-1.2731292,-1.5353851,-0.84674454,-0.037349705,0.050947,-0.13714315,-0.38076153,-0.32921937,0.060063373,-3.0756068,0.62697524,-0.00014516445,-0.08549222,-0.012039601,-0.0021132047,0.028489273,-0.01003806,-0.018075194,0.44426122,-1.4546163,1.9903711,-2.1033537,-1.5726613,2.4208772,-0.03930698,0.18615949,-0.2131698,0.048352133,-0.02178989,-0.021024415,-0.2681506,0.36391866,-9.615114,0.8493211,47.64837,-1.1644435,-1.8058674,-3.410006,-0.29262847,-0.27905446,-0.1945507,25.875,26.6875,25.8125,28.625,29.5625,30.0
0.1840045,-1.0975963,-1.58559,-1.1128858,-0.029371431,0.053889632,-0.1271281,-0.3809395,-0.32924232,0.060065255,-3.07553,0.62705433,-0.00014701467,-0.08677333,-0.012421805,-0.0022465885,0.027567945,-0.008749743,-0.018030852,0.44417703,-1.4542443,1.9899286,-2.1032465,-1.572709,2.4208527,-0.03988874,0.18814658,-0.21467583,0.04630675,-0.021523155,-0.02164901,-0.45968673,0.4405331,-9.80665,0.90527004,47.68599,-1.174553,-1.7652116,-3.5455222,-0.2720235,-0.30380514,-0.19645086,25.875,26.6875,25.8125,28.625,29.5625,30.0
0.18600476,-1.7481862,-1.8584745,-0.9913388,-0.03551472,0.06059497,-0.123632535,-0.38112015,-0.3292578,0.060059316,-3.0754588,0.6271541,-0.00015842298,-0.087537326,-0.01278815,-0.0027993016,0.027536398,-0.007772545,-0.016529864,0.44406906,-1.4538715,1.9895085,-2.1031635,-1.5727452,2.4208164,-0.03958858,0.19028588,-0.21530938,0.04390079,-0.021926427,-0.022846572,-0.47884035,0.5554548,-9.653421,0.8560339,47.691364,-1.1781223,-1.8461679,-3.6260495,-0.24436204,-0.3321877,-0.19420569,25.875,26.6875,25.8125,28.625,29.5625,30.0
0.18800451,-1.5965843,-1.9203329,-0.8371529,-0.0407508,0.0795324,-0.13344054,-0.38128912,-0.32930848,0.0600618,-3.075439,0.62713045,-0.00017985936,-0.08893256,-0.0124977175,-0.0028819216,0.027869115,-0.007791552,-0.017226795,0.44402063,-1.453488,1.9890541,-2.1030672,-1.5727571,2.420756,-0.04114661,0.19251263,-0.21775319,0.044275817,-0.022226172,-0.023704637,-0.45968673,0.4213795,-9.672575,0.7642693,47.67166,-1.1394112,-1.9209278,-3.6799576,-0.22879358,-0.33893964,-0.21143526,25.875,26.6875,25.8125,28.625,29.5625,30.0
0.19000447,-1.1638503,-1.0749345,-0.53781486,-0.054792818,0.091242485,-0.14268456,-0.38147253,-0.3293164,0.06006793,-3.0753503,0.6271506,-0.0001034855,-0.09065886,-0.013156189,-0.00220254,0.026914941,-0.005612876,-0.018231222,0.4439364,-1.4531403,1.988634,-2.1029837,-1.5728534,2.4206963,-0.041375607,0.19421105,-0.2210971,0.043541994,-0.022309512,-0.022926468,-0.36391866,0.34476504,-9.634268,0.8940802,47.678825,-1.1813934,-1.7384093,-3.677692,-0.20758843,-0.35179335,-0.20901921,25.875,26.6875,25.8125,28.625,29.5625,30.0
0.1920044,-1.93703,-0.95606047,-0.5413707,-0.046296626,0.07476422,-0.13819978,-0.38164678,-0.32935467,0.060065575,-3.0753117,0.62723786,-0.00014836364,-0.09280311,-0.013687063,-0.0012401721,0.025253931,-0.0016097982,-0.018834116,0.44385234,-1.4527566,1.9881905,-2.1028888,-1.5728534,2.420672,-0.0421105,0.19494742,-0.22361471,0.04099348,-0.022542138,-0.023054864,-0.63206923,0.2681506,-9.557653,0.8784135,47.703903,-1.139082,-1.8042688,-3.7347825,-0.15811642,-0.37324885,-0.2349166,25.875,26.6875,25.8125,28.625,29.5625,30.0
0.19400443,-1.93703,-0.95606047,-0.5413707,-0.046296626,0.07476422,-0.13819978,-0.38164678,-0.32935467,0.060065575,-3.0753117,0.62723786,-0.00014836364,-0.09280311,-0.013687063,-0.0012401721,0.025253931,-0.0016097982,-0.018834116,0.44385234,-1.4527566,1.9881905,-2.1028888,-1.5728534,2.420672,-0.0421105,0.19494742,-0.22361471,0.04099348,-0.022542138,-0.023054864,-0.63206923,0.2681506,-9.557653,0.8784135,47.703903,-1.139082,-1.8042688,-3.7347825,-0.15811642,-0.37324885,-0.2349166,25.875,26.6875,25.8125,28.625,29.5625,30.0
0.19600447,-1.261829,-0.37894428,-0.7152312,0.013991303,0.06096947,-0.13497974,-0.38203964,-0.3294067,0.060059696,-3.0751917,0.6273281,-7.7882345e-05,-0.096846804,-0.014177575,0.0011880398,0.024220036,0.003855683,-0.020260243,0.44367185,-1.4519536,1.9872793,-2.1027567,-1.5729617,2.420564,-0.043771215,0.19659923,-0.23131773,0.04166274,-0.023972662,-0.023280011,-0.40222588,0.15322891,-9.32781,0.92093146,47.68062,-1.1886374,-1.6526465,-3.5616348,-0.08761883,-0.36801583,-0.2580476,25.875,26.6875,25.8125,28.625,29.5625,30.0
0.1980044,-0.03438619,0.9418536,-0.55040693,0.011430665,0.07080994,-0.14299391,-0.38225162,-0.32943022,0.06005636,-3.0751522,0.62741524,-2.9828157e-05,-0.09816545,-0.0147514725,0.0017997042,0.0243386,0.004093221,-0.019454775,0.44355166,-1.4515456,1.9868239,-2.102721,-1.5729984,2.4205036,-0.043694828,0.19887549,-0.23579535,0.04369577,-0.024188574,-0.024006464,-0.49799395,0.05746084,-9.385271,0.8537928,47.65643,-1.1469396,-1.5526131,-3.489375,-0.06835502,-0.40624392,-0.2620788,25.875,26.6875,25.8125,28.625,29.5625,30.0
0.20000438,-0.62355804,0.5132835,-0.62967706,0.037755754,0.041723855,-0.1333127,-0.3824366,-0.3294823,0.060060844,-3.0751286,0.62748706,-2.0503408e-05,-0.09890556,-0.0143663185,0.0017093422,0.025297413,0.0033012952,-0.02031231,0.44349158,-1.4511498,1.9863557,-2.102648,-1.5730098,2.4204917,-0.044685554,0.20044866,-0.23776218,0.04521608,-0.024716264,-0.024137076,-0.38307226,0.05746084,-9.385271,0.87617236,47.67166,-1.191762,-1.5076747,-3.4789858,-0.05939393,-0.417995,-0.26666775,25.875,26.6875,25.8125,28.625,29.5625,30.0
0.20200445,-0.58408666,0.76620954,-0.524217,0.032421067,0.03921275,-0.13983738,-0.3826406,-0.32950604,0.06006708,-3.0750384,0.6275083,5.4599186e-05,-0.10048089,-0.014270853,0.0020259728,0.025548846,0.005191835,-0.021838833,0.44341907,-1.4507421,1.985865,-2.1025527,-1.5731066,2.4204445,-0.045531385,0.20187517,-0.23996727,0.044396296,-0.025760697,-0.02345107,-0.36391866,0.11492168,-9.481039,0.8157518,47.66271,-1.1026359,-1.4338002,-3.4623284,-0.02057122,-0.4203595,-0.2848647,25.875,26.6875,25.8125,28.625,29.5625,30.0
0.20400439,-1.1194499,0.25011286,-0.65574217,0.022914242,0.035386533,-0.12908146,-0.38285455,-0.3295458,0.06007759,-3.0750065,0.6276159,6.233946e-05,-0.10104528,-0.013730516,0.0010412611,0.02805919,0.0018796723,-0.022694549,0.44331092,-1.4503216,1.9853495,-2.1024559,-1.5731186,2.420408,-0.04643046,0.20588025,-0.24295321,0.047445893,-0.026607957,-0.023490174,-0.36391866,0.11492168,-9.442732,0.8090337,47.68599,-1.1233537,-1.5092962,-3.378666,0.0022527913,-0.43977183,-0.3161327,25.875,26.6875,25.8125,28.625,29.5625,30.0
0.20600465,-0.9753247,-0.27614906,-0.5918658,0.012043809,0.051438205,-0.1318713,-0.38303444,-0.32955578,0.06006124,-3.0748894,0.62763053,4.8901013e-05,-0.1019878,-0.013030492,9.483434e-05,0.031125234,-0.0010114803,-0.022728033,0.4432265,-1.4499128,1.9849061,-2.1023471,-1.5732034,2.4203482,-0.04750999,0.2103005,-0.2464861,0.050483834,-0.028143166,-0.024527248,-0.34476504,0.095768064,-9.423578,0.87617236,47.71465,-1.0672424,-1.6230059,-3.2863193,0.0036487035,-0.43754995,-0.29713395,25.875,26.6875,25.8125,28.625,29.5625,30.0
0.20800444,-1.0152477,-0.20261078,-0.7310458,-0.0027249267,0.05288611,-0.13835791,-0.38324958,-0.32956767,0.060057998,-3.074798,0.62778383,1.9507397e-05,-0.10204961,-0.012133402,-0.0009086212,0.034337543,-0.0037919313,-0.023348294,0.4430824,-1.4494807,1.9844035,-2.1022265,-1.5732402,2.420312,-0.048042797,0.21299061,-0.24785781,0.053056188,-0.02985345,-0.024432052,-0.21068975,0.2681506,-9.442732,0.84484416,47.68062,-1.04723,-1.655142,-3.4600077,-0.014215566,-0.41922706,-0.30666274,25.875,26.6875,25.8125,28.625,29.5625,30.0
0.2100045,-0.9491818,-0.6081659,-0.39429453,-0.017776394,0.061323006,-0.135645,-0.38344485,-0.3296069,0.060062934,-3.0747304,0.62773174,1.328102e-05,-0.10263036,-0.011468087,-0.0010402139,0.03611166,-0.0044527547,-0.024571758,0.44302204,-1.4490489,1.9838771,-2.1020825,-1.5733002,2.4202282,-0.04887906,0.21421404,-0.24938335,0.05471849,-0.031174043,-0.024038263,-0.30645782,0.24899697,-9.442732,0.8851263,47.70838,-1.0308077,-1.7041023,-3.500461,-0.032206897,-0.42886987,-0.32074678,25.875,26.6875,25.8125,28.625,29.5625,30.0
0.21200438,-1.0969042,-0.7160218,-0.54763407,-0.027053952,0.05094375,-0.12962805,-0.38364682,-0.3296168,0.060062088,-3.0746107,0.62782246,5.5584733e-05,-0.10290339,-0.01069248,-0.0013104249,0.037681025,-0.0056732288,-0.026106045,0.44292572,-1.4486412,1.9833988,-2.1019738,-1.5733966,2.4202044,-0.049923614,0.21508867,-0.250213,0.05644823,-0.03206853,-0.023544146,-0.17238252,0.34476504,-9.3661175,0.8627467,47.679718,-1.0492737,-1.6932878,-3.5508895,-0.024336826,-0.41486043,-0.35320553,25.875,26.6875,25.8125,28.625,29.5625,30.0
0.21400449,-0.27656093,-0.7646176,-0.8697037,-0.015143181,0.040727492,-0.13989583,-0.3838701,-0.3296239,0.060078338,-3.0745213,0.62787974,0.00014561211,-0.103022404,-0.01043358,-0.0015365478,0.038519215,-0.006884398,-0.026256194,0.4428055,-1.4482455,1.9828948,-2.1018655,-1.5734929,2.420132,-0.050304957,0.21609548,-0.2512292,0.05790527,-0.032308843,-0.023774294,-0.1340753,0.3256114,-9.481039,0.8291774,47.65912,-1.0146687,-1.7261086,-3.6868153,-0.022815064,-0.40541387,-0.364697,25.875,26.6875,25.8125,28.625,29.5625,30.0
0.21600519,-0.66561544,-1.2303241,-0.6459062,-0.018227054,0.020896997,-0.123897545,-0.384078,-0.32966658,0.06008573,-3.0744786,0.6279668,0.0001255721,-0.10446302,-0.010043494,-0.0017093082,0.040591955,-0.0071036792,-0.026162287,0.44270927,-1.4478135,1.9823674,-2.1017454,-1.5735058,2.420096,-0.051072158,0.21920927,-0.25473684,0.059385817,-0.034096595,-0.024626285,-0.17238252,0.30645782,-9.346964,0.88289046,47.67166,-0.9961516,-1.6797206,-3.709136,-0.023603903,-0.39632198,-0.38993925,25.875,26.6875,25.8125,28.625,29.5625,30.0
0.21800458,-0.194453,-0.8095106,-0.53691185,-0.01739195,0.019170381,-0.13806893,-0.38431457,-0.32966492,0.06008811,-3.07434,0.62809104,0.00020532694,-0.105386406,-0.009505261,-0.0016698695,0.042870313,-0.008058179,-0.02605847,0.44257712,-1.4473698,1.981841,-2.1016366,-1.5736259,2.4200597,-0.051735766,0.22134952,-0.25797236,0.06231566,-0.035752356,-0.02538561,-0.076614454,0.3256114,-9.289502,0.947788,47.66808,-1.0250052,-1.634144,-3.631291,-0.026354084,-0.3731049,-0.3772024,25.875,26.6875,25.8125,28.625,29.5625,30.0
0.2200048,-0.14443108,-0.5041945,-0.59147877,-0.0010288743,0.0014385906,-0.13202481,-0.38451582,-0.3297024,0.060089957,-3.0742939,0.6280611,0.00019126435,-0.10570684,-0.009042292,-0.0018187996,0.045221377,-0.009935607,-0.025749952,0.4424931,-1.4469376,1.9813255,-2.1015155,-1.5736626,2.4199634,-0.051960174,0.22323667,-0.26061428,0.06577305,-0.037075154,-0.02591162,-0.13407528,0.36391866,-9.308656,0.90750587,47.66808,-0.9767623,-1.5746828,-3.5730872,-0.06952451,-0.35070384,-0.4001999,25.875,26.6875,25.8125,28.625,29.5625,30.0
0.22200443,-0.47969905,-0.7248672,-0.3353859,-0.006502943,0.0036162422,-0.1328361,-0.38472876,-0.32971287,0.06008117,-3.0741332,0.6281621,0.00018524796,-0.10696523,-0.008026279,-0.0018058652,0.04774993,-0.011833408,-0.026893267,0.4423964,-1.4464695,1.9807862,-2.1013587,-1.5737709,2.419951,-0.053925287,0.22580422,-0.26455617,0.0699414,-0.03855359,-0.026723357,-0.076614454,0.3256114,-9.251195,0.8806493,47.67166,-0.945543,-1.6338184,-3.5747027,-0.10485004,-0.3200941,-0.39667785,25.875,26.6875,25.8125,28.625,29.5625,30.0
0.22400507,-0.7233033,-0.8411465,-0.23224606,-0.017748967,0.013159447,-0.13234355,-0.38490945,-0.32973194,0.060057532,-3.0740047,0.6281931,8.947946e-05,-0.10827682,-0.008005006,-0.0012137686,0.04825119,-0.012338387,-0.026973298,0.44231206,-1.446014,1.9802946,-2.1012018,-1.573831,2.419903,-0.054921083,0.22769403,-0.2688106,0.072970085,-0.03880073,-0.027631821,-0.076614454,0.34476504,-9.136273,0.8784135,47.68599,-0.8758667,-1.593742,-3.4549172,-0.14911297,-0.30609378,-0.40905508,25.875,26.6875,25.8125,28.625,29.5625,30.0
0.22600447,-0.5650242,-0.86537105,-0.2927827,-0.0023909868,0.02055321,-0.124987274,-0.38515523,-0.32975456,0.060073618,-3.0739245,0.62825125,0.00016501556,-0.10909742,-0.00984653,5.5245302e-05,0.046775155,-0.011878353,-0.02419324,0.44219267,-1.4455576,1.979719,-2.1010811,-1.5739144,2.4198308,-0.052945126,0.22934742,-0.2742991,0.07574413,-0.037674714,-0.028437836,-0.095768064,0.34476504,-9.193734,0.92764956,47.696735,-0.9345509,-1.6671344,-3.3031406,-0.20866725,-0.3137918,-0.4141155,25.875,26.6875,25.8125,28.625,29.5625,30.0
0.22800486,-0.4599729,-0.6864647,-0.22121137,0.009787267,0.027598256,-0.13851316,-0.38536543,-0.3297979,0.060095787,-3.0738578,0.6282763,0.00016458548,-0.11018986,-0.008824282,0.0001998433,0.048514117,-0.011777355,-0.025336066,0.44212008,-1.4451263,1.979144,-2.100901,-1.5739635,2.4197829,-0.054680336,0.23021697,-0.27603596,0.077264026,-0.039294682,-0.02902199,-0.15322891,0.3256114,-9.174581,0.784413,47.675243,-0.9363278,-1.641659,-3.290255,-0.23083884,-0.2946152,-0.4141632,25.875,26.6875,25.8125,28.625,29.5625,30.0
0.23000441,-0.8125162,-0.89759386,-0.38348198,0.013796518,0.035248976,-0.13180551,-0.3855808,-0.32978997,0.0600631,-3.0736916,0.62837553,5.137756e-05,-0.11159895,-0.008192071,0.0010639541,0.048940565,-0.010431023,-0.026074307,0.4419636,-1.4446235,1.9786171,-2.1007335,-1.5740355,2.4197104,-0.05638503,0.23016044,-0.2783585,0.07860058,-0.04026954,-0.02997816,-0.22984336,0.30645782,-9.136273,0.86945957,47.65464,-0.8819278,-1.4308076,-3.3452063,-0.25895968,-0.26447272,-0.4288136,25.875,26.6875,25.8125,28.625,29.5625,30.0
0.23200484,-0.96352285,-0.48169738,-0.18461497,-0.006659027,0.04938738,-0.14123832,-0.38579398,-0.32981998,0.06006938,-3.0735936,0.6283931,4.335942e-05,-0.11232697,-0.0077283867,0.00086871424,0.049463216,-0.010133007,-0.025941933,0.44187915,-1.444168,1.9780539,-2.1005661,-1.5741075,2.41965,-0.057434715,0.23106161,-0.27892953,0.07821712,-0.040879052,-0.031154985,-0.19153613,0.30645782,-9.193734,0.94331104,47.679718,-0.73197794,-1.4933281,-3.3622777,-0.30187196,-0.24427265,-0.41826314,25.875,26.6875,25.8125,28.625,29.5625,30.0
0.23400445,-1.465761,-0.95924187,-0.1209288,-0.0076201954,0.050363284,-0.12922603,-0.38599527,-0.32981676,0.06001963,-3.073405,0.6284275,-7.9548954e-05,-0.11242607,-0.008715571,0.00019677311,0.04944111,-0.009559498,-0.022285398,0.44175997,-1.4436405,1.9775409,-2.1004112,-1.5742038,2.4195774,-0.055497847,0.23328288,-0.27949828,0.07602356,-0.041124277,-0.03286576,-0.24899697,0.21068975,-9.136273,1.0708755,47.70211,-0.96688503,-1.3166364,-3.5379682,-0.29284975,-0.22696108,-0.41011894,25.875,26.6875,25.8125,28.625,29.5625,30.0
0.23600484,-1.6717539,-0.9466412,-0.039361313,0.0043959348,0.05138926,-0.123765804,-0.3862279,-0.32983625,0.06004015,-3.0733364,0.6284703,-1.6908662e-05,-0.11283553,-0.0075685964,-0.0026432874,0.052443698,-0.014686406,-0.023343159,0.44163927,-1.4432187,1.9769906,-2.1002796,-1.5742759,2.4194927,-0.05757286,0.2395576,-0.28020468,0.07636454,-0.041654747,-0.033879515,-0.19153613,0.17238252,-9.155427,0.8605109,47.68599,-0.9038119,-1.5488744,-3.5639153,-0.28644046,-0.20227379,-0.40083426,25.875,26.6875,25.8125,28.625,29.5625,30.0
0.23800446,-1.0246824,-0.14278634,-0.19367303,0.008636306,0.051311594,-0.13564904,-0.38647914,-0.3298473,0.060039457,-3.073203,0.62861574,-1.2788959e-05,-0.11640224,-0.008485494,-0.0018473956,0.050221954,-0.009797239,-0.023776656,0.4414947,-1.4427147,1.9763912,-2.1001256,-1.5743598,2.4194567,-0.058881797,0.24292143,-0.2850329,0.07244755,-0.041764148,-0.034748204,-0.17238252,0.095768064,-9.193734,0.86945957,47.651955,-0.7249172,-1.6349976,-3.592866,-0.28749126,-0.18978941,-0.3876354,25.875,26.6875,25.8125,28.625,29.5625,30.0
0.24000482,-0.95458686,-0.10691128,-0.29593676,0.019523308,0.039335553,-0.12940711,-0.38669103,-0.32985523,0.060015626,-3.0730486,0.6285625,-9.16358e-06,-0.11828851,-0.009289454,-0.0020549886,0.04890414,-0.0073248562,-0.022539074,0.44141072,-1.4422225,1.9758633,-2.0999944,-1.5744919,2.4193602,-0.059088252,0.24596378,-0.28726777,0.06882759,-0.041652147,-0.03618648,-0.24899697,0.15322891,-9.193734,0.8537928,47.689575,-0.7889295,-1.71891,-3.5906262,-0.230318,-0.16120158,-0.35735583,25.875,26.6875,25.8125,28.625,29.5625,30.0
0.24200445,-0.7570912,-0.049102955,-0.36562845,0.01126558,0.033784106,-0.14496446,-0.38693193,-0.32985485,0.059999358,-3.0729115,0.6287628,-8.361573e-05,-0.120524704,-0.010252033,-0.0008618236,0.046422448,-0.0033114466,-0.021620601,0.4412307,-1.441719,1.9752997,-2.09984,-1.57454,2.4193234,-0.05954311,0.24684785,-0.29060358,0.06657409,-0.041146997,-0.037555974,-0.2681506,0.21068975,-9.097966,0.8985519,47.67166,-0.8117685,-1.6717489,-3.5773263,-0.20689477,-0.14965458,-0.3505333,25.875,26.6875,25.8125,28.625,29.5625,30.0
0.24400434,-0.84666675,-0.81940216,-0.56631666,0.009930514,0.026832556,-0.12678528,-0.387163,-0.32989582,0.06001239,-3.0728471,0.62870955,-2.3011688e-05,-0.12264906,-0.011495986,-4.449609e-05,0.044183973,0.00016740336,-0.020029254,0.44115877,-1.4412504,1.9747132,-2.0997088,-1.5746235,2.4192271,-0.059413146,0.24877737,-0.29420304,0.06412862,-0.040628243,-0.039016612,-0.49799395,0.36391866,-9.193734,0.8784135,47.672558,-0.7715056,-1.790477,-3.541197,-0.16315295,-0.14296156,-0.3268232,25.875,26.6875,25.8125,28.625,29.5625,30.0
0.24600445,-1.3105409,-0.8778927,-0.5776483,-0.027338263,0.03593455,-0.1299192,-0.38739637,-0.32991943,0.059984263,-3.0727272,0.6287427,-0.00010088945,-0.12542199,-0.01112813,0.0008332573,0.042536583,0.0030854093,-0.021987505,0.44103757,-1.4407,1.9741262,-2.0995662,-1.5746835,2.4191427,-0.062605545,0.24986838,-0.29725716,0.06273668,-0.040404245,-0.04024567,-0.36391866,0.4405331,-9.308657,0.93436235,47.68062,-0.65968764,-1.6925176,-3.5825794,-0.13497317,-0.12526773,-0.30547908,25.875,26.6875,25.8125,28.625,29.5625,30.0
0.2480045,-1.5681603,-2.2856805,-0.8913987,-0.044533428,0.051226348,-0.13180554,-0.38763946,-0.329925,0.059964553,-3.0725546,0.6288393,-0.00013593752,-0.12578264,-0.012779541,0.0011572003,0.041634686,0.003205745,-0.018710015,0.44090626,-1.4401603,1.9735259,-2.099398,-1.5747913,2.4190948,-0.060324512,0.252052,-0.30077156,0.063557304,-0.03965529,-0.041239616,-0.40222588,0.4405331,-9.461885,0.93436235,47.696735,-0.719813,-1.5304747,-3.5550575,-0.11078034,-0.101711795,-0.2864299,25.875,26.6875,25.8125,28.625,29.5625,30.0
0.25000456,-1.5681603,-2.2856805,-0.8913987,-0.044533428,0.051226348,-0.13180554,-0.38763946,-0.329925,0.059964553,-3.0725546,0.6288393,-0.00013593752,-0.12578264,-0.012779541,0.0011572003,0.041634686,0.003205745,-0.018710015,0.44090626,-1.4401603,1.9735259,-2.099398,-1.5747913,2.4190948,-0.060324512,0.252052,-0.30077156,0.063557304,-0.03965529,-0.041239616,-0.6512228,0.49799395,-9.481039,0.84484416,47.686886,-0.776899,-1.6408534,-3.5119114,-0.11353289,-0.10618909,-0.25595552,25.875,26.6875,25.8125,28.625,29.5625,30.0
0.25200438,-1.7964561,-2.612227,-0.8343781,-0.08625066,0.08009689,-0.13803913,-0.38813615,-0.32997677,0.059960727,-3.072374,0.6288389,-7.6512806e-05,-0.12685393,-0.012861006,2.7587175e-05,0.040292732,-0.0009991387,-0.020100486,0.44067746,-1.4391404,1.972329,-2.0991457,-1.5749582,2.4188902,-0.06297487,0.25676334,-0.30416852,0.065441534,-0.03666175,-0.042509444,-0.7086837,0.6512228,-9.576807,0.8627467,47.67166,-0.68250906,-1.6872716,-3.5842493,-0.10150471,-0.12508006,-0.23070373,25.875,26.6875,25.8125,28.625,29.5625,30.0
0.25400499,-1.907373,-2.585335,-0.88889307,-0.071944155,0.075338766,-0.13341722,-0.3883976,-0.33000323,0.059957787,-3.0722754,0.62889487,-7.234307e-05,-0.12733738,-0.012914037,0.0001530749,0.038885463,-0.0013868134,-0.020631328,0.440545,-1.4386013,1.9716958,-2.0990026,-1.5750297,2.418806,-0.06417882,0.25706849,-0.30499136,0.06569381,-0.035231557,-0.04318762,-0.61291564,0.6703765,-9.768343,0.90750587,47.686886,-0.5705483,-1.6386676,-3.705007,-0.08185181,-0.14416,-0.20499504,25.875,26.6875,25.8125,28.625,29.5625,30.0
0.25600445,-1.9933383,-2.235487,-0.9273411,-0.06687167,0.07123587,-0.13465957,-0.38864216,-0.33002698,0.05995126,-3.072183,0.62893116,-9.549609e-05,-0.12642294,-0.014578551,0.0002414493,0.03825153,-0.0033448457,-0.017842036,0.4404142,-1.4380859,1.9710969,-2.0988576,-1.5750889,2.4187105,-0.061196033,0.25840604,-0.30741322,0.06826778,-0.03382705,-0.042998277,-0.51714754,0.51714754,-9.557653,0.97240865,47.699425,-0.7696521,-1.5733161,-3.784042,-0.091498286,-0.12835641,-0.1735447,25.875,26.6875,25.8125,28.625,29.5625,30.0
0.25800472,-1.5823334,-1.4858168,-0.8391328,-0.044925082,0.06272452,-0.12892298,-0.38892525,-0.3300656,0.059959363,-3.072113,0.629013,1.1264854e-05,-0.12862583,-0.01501509,0.00018412518,0.036311608,-0.0014763413,-0.02030048,0.44029364,-1.4375458,1.9704503,-2.0987747,-1.5751728,2.4186506,-0.062874965,0.26126456,-0.31001434,0.06548585,-0.03287918,-0.04222204,-0.4405331,0.3256114,-9.461885,0.94331104,47.64389,-0.73272145,-1.4986043,-3.8324108,-0.049730573,-0.1324725,-0.16481318,25.875,26.6875,25.8125,28.625,29.5625,30.0
0.26000443,-1.2146609,-0.4923066,-0.6851446,-0.012908946,0.04120524,-0.14303711,-0.3892128,-0.3301019,0.059958916,-3.0720775,0.62906367,1.7524231e-05,-0.13111527,-0.016284173,0.0014597559,0.03372144,0.0020080488,-0.021815497,0.44012555,-1.4369817,1.9697903,-2.0986679,-1.5751966,2.4185193,-0.063195504,0.26312113,-0.3148985,0.06425364,-0.032032944,-0.041028503,-0.28730422,0.21068975,-9.346964,0.8784135,47.670765,-0.6370779,-1.7703067,-3.6697555,0.020333672,-0.1519067,-0.16217642,25.875,26.6875,25.8125,28.625,29.5625,30.0
0.2620048,-0.69173217,-0.008920211,-0.8231856,0.014444363,0.025920179,-0.12912884,-0.38946265,-0.33012497,0.059925027,-3.071954,0.62915283,1.7438244e-05,-0.13168612,-0.016951539,0.0010095399,0.034150813,-0.00044858537,-0.022179145,0.44000554,-1.4364178,1.9692148,-2.0985944,-1.5752805,2.4184716,-0.06284252,0.26693016,-0.31889838,0.066843875,-0.031379264,-0.040311333,-0.15322891,0.19153613,-9.519346,0.8179876,47.672558,-0.7261861,-1.7999268,-3.5167208,0.03964402,-0.15953723,-0.14617851,25.875,26.6875,25.8125,28.625,29.5625,30.0
0.26400444,-0.14948104,0.2600659,-0.95221484,0.04322309,0.0023448921,-0.12847078,-0.38973173,-0.33015054,0.059926964,-3.0718453,0.6292439,4.8598253e-05,-0.13307965,-0.017502576,0.0009896635,0.034485742,-0.00053602236,-0.023260824,0.43987364,-1.435878,1.9685682,-2.098451,-1.5753645,2.4184113,-0.062802166,0.2703468,-0.32306823,0.06781784,-0.031651333,-0.039184548,-0.1340753,0.19153613,-9.500193,0.8940802,47.692257,-0.70838964,-1.7346616,-3.5741246,0.040342975,-0.18892683,-0.13841511,25.875,26.6875,25.8125,28.625,29.5625,30.0
0.26600474,0.057862777,0.6089892,-0.85569894,0.029424394,-0.007036808,-0.14226335,-0.39001423,-0.33018225,0.059933923,-3.0717566,0.62930214,0.00010756276,-0.13267544,-0.017288024,-0.0005636161,0.036753163,-0.004380932,-0.024001647,0.43974173,-1.4353254,1.9678978,-2.0983183,-1.5754489,2.4183278,-0.06251051,0.27400395,-0.32422036,0.06975638,-0.032063242,-0.03814907,-0.038307227,0.19153613,-9.3661175,0.8806493,47.701214,-0.79370475,-1.9222283,-3.518005,0.074200824,-0.17077693,-0.14568143,25.875,26.6875,25.8125,28.625,29.5625,30.0
0.26800448,-0.2795751,-0.12104992,-0.954144,0.022518765,-0.022169858,-0.13757713,-0.39027557,-0.33022785,0.05992015,-3.0716844,0.6293637,7.650124e-05,-0.13212317,-0.016896682,-0.00028945674,0.038803305,-0.0069561414,-0.024692275,0.43962207,-1.4347506,1.9672517,-2.0981967,-1.5754851,2.4182565,-0.06219361,0.27410635,-0.32627463,0.07491376,-0.032815732,-0.037136436,0.019153614,0.21068975,-9.308657,0.9701675,47.672558,-0.7818561,-1.9098351,-3.5692732,0.04722354,-0.1761854,-0.14574596,25.875,26.6875,25.8125,28.625,29.5625,30.0
0.27000487,-0.06778289,-0.60061985,-0.69973856,0.002062354,-0.014150028,-0.12940164,-0.39054486,-0.33024472,0.059910573,-3.0715427,0.6293715,6.703425e-05,-0.13178433,-0.016778577,-0.0008437072,0.04163126,-0.011599621,-0.024588374,0.43949008,-1.4341745,1.9665812,-2.0980155,-1.5755929,2.4181485,-0.061673816,0.27731454,-0.3301497,0.080982134,-0.033398394,-0.036713798,0.22984336,0.19153613,-9.404425,0.9768804,47.691364,-0.88359964,-1.9845588,-3.475264,0.020936124,-0.18564123,-0.120539665,25.875,26.6875,25.8125,28.625,29.5625,30.0
0.27200446,0.49701926,-0.30463544,-0.7202487,-0.013272065,-0.017592054,-0.14159626,-0.39082983,-0.33027932,0.059930515,-3.071465,0.6294722,0.00010326179,-0.13049161,-0.01581069,-0.0020653591,0.044236258,-0.018006863,-0.027525418,0.43934578,-1.4336349,1.9658865,-2.0978458,-1.575653,2.4180777,-0.06250928,0.27918813,-0.3309237,0.08679173,-0.033015896,-0.034614544,0.19153613,0.22984336,-9.32781,0.9768804,47.693153,-0.847685,-1.9579753,-3.5132015,-0.0317639,-0.17731747,-0.1450949,25.875,26.6875,25.8125,28.625,29.5625,30.0
0.27400488,0.49701926,-0.30463544,-0.7202487,-0.013272065,-0.017592054,-0.14159626,-0.39082983,-0.33027932,0.059930515,-3.071465,0.6294722,0.00010326179,-0.13049161,-0.01581069,-0.0020653591,0.044236258,-0.018006863,-0.027525418,0.43934578,-1.4336349,1.9658865,-2.0978458,-1.575653,2.4180777,-0.062267493,0.2803516,-0.33384508,0.09313559,-0.033414297,-0.03426693,0.22984336,0.28730422,-9.481039,0.88960326,47.64927,-0.8911402,-1.9114691,-3.5434816,-0.10687905,-0.17338806,-0.14003217,25.875,26.6875,25.8125,28.625,29.5625,30.0
0.2760045,0.43664825,-0.41134885,-0.84875417,-0.014636628,-0.041471325,-0.13089009,-0.39136577,-0.33033693,0.05992778,-3.0712428,0.6295786,6.169244e-05,-0.12916274,-0.014502456,-0.0024366414,0.049441703,-0.025464589,-0.028525991,0.4390818,-1.4325082,1.9645346,-2.0974824,-1.5757974,2.4179103,-0.06262153,0.28093785,-0.33485427,0.09793261,-0.03455086,-0.03371415,0.3256114,0.28730422,-9.461885,0.8985519,47.67345,-0.86420786,-1.8722221,-3.6159005,-0.15929002,-0.15868993,-0.14839876,25.875,26.6875,25.8125,28.625,29.5625,30.0
0.27800483,0.2945313,-0.6801456,-0.82135546,0.0051641944,-0.051647246,-0.13032672,-0.3915997,-0.33038032,0.059905432,-3.0710971,0.62966394,-4.8444377e-05,-0.13068733,-0.01513345,-0.0004951762,0.04799834,-0.023761123,-0.031083392,0.43899763,-1.4319215,1.9638747,-2.0972779,-1.575857,2.4178991,-0.06311586,0.28059405,-0.3397673,0.101038,-0.03397181,-0.031648163,0.3256114,0.17238252,-9.442732,0.9186956,47.670765,-0.90911126,-1.7923411,-3.6123042,-0.22741723,-0.16895795,-0.17576683,25.875,26.6875,25.8125,28.625,29.5625,30.0
0.28000444,0.47038734,-0.208822,-0.7290731,-0.00534707,-0.047065627,-0.13718253,-0.3918627,-0.3304003,0.059890173,-3.070955,0.6297871,-0.00010490682,-0.13063096,-0.015614737,-0.00026269912,0.046973012,-0.0251343,-0.033513833,0.43885365,-1.4313457,1.9632162,-2.097098,-1.5759286,2.4178512,-0.063114695,0.2810624,-0.34144032,0.10305052,-0.032458425,-0.02922144,0.21068975,0.21068975,-9.404425,0.88960326,47.66987,-0.8489537,-1.7792357,-3.5475287,-0.27778143,-0.21373892,-0.20561308,25.875,26.6875,25.8125,28.625,29.5625,30.0
0.28200474,0.23737174,-0.15489042,-0.6968405,-0.0051562656,-0.04346393,-0.13266675,-0.39212352,-0.33044934,0.059900183,-3.0708983,0.62979424,-0.00016006827,-0.13213629,-0.016289989,-0.00032616546,0.046037562,-0.024478385,-0.034230158,0.4387335,-1.4307945,1.9625219,-2.096895,-1.5759524,2.4177434,-0.06348335,0.2840319,-0.34463885,0.10228375,-0.03190436,-0.028872939,0.076614454,0.22984336,-9.346964,0.9254084,47.687782,-0.89961874,-1.7322462,-3.6087437,-0.28129652,-0.22746179,-0.21482292,25.875,26.6875,25.8125,28.625,29.5625,30.0
0.28400448,-0.12550242,-0.6830529,-0.7213164,0.00064640015,-0.01971597,-0.12551348,-0.39236078,-0.3304941,0.059894614,-3.0707777,0.6298638,-0.00022456117,-0.1334939,-0.016828349,-0.00032128632,0.045275424,-0.021874577,-0.033214938,0.43864962,-1.430243,1.9618629,-2.0966923,-1.5760125,2.4177194,-0.06333662,0.28564668,-0.3459528,0.09929451,-0.032339957,-0.029734666,0.15322891,0.22984336,-9.3661175,0.9545008,47.681515,-0.93324995,-1.6774704,-3.52993,-0.28768602,-0.24021548,-0.22673416,25.875,26.6875,25.8125,28.6875,29.5625,30.0
0.28600487,-0.27260503,-0.82395387,-0.6194602,-0.009897961,0.0069275494,-0.13732187,-0.39263794,-0.33051598,0.059880886,-3.0706205,0.6299072,-0.00031266868,-0.13574837,-0.017840365,0.0003695494,0.04382033,-0.018643424,-0.033639576,0.43850565,-1.4296193,1.9611324,-2.096454,-1.5760969,2.4176238,-0.06331612,0.2880574,-0.35001063,0.097394094,-0.032415207,-0.029282322,0.095768064,0.32561144,-9.32781,0.94331104,47.698532,-0.9591964,-1.765306,-3.5368893,-0.29748946,-0.23804632,-0.21625009,25.875,26.6875,25.8125,28.6875,29.5625,30.0
0.28800443,-1.2404475,-1.3303509,-0.7361968,-0.025707606,0.019740444,-0.12461726,-0.39292702,-0.33055004,0.059908736,-3.0705013,0.63005394,-0.00027958743,-0.13834843,-0.0190353,0.00036999694,0.040915452,-0.0134614,-0.034051556,0.4383735,-1.4290673,1.9603909,-2.0962293,-1.5761808,2.4175994,-0.06357281,0.2907464,-0.3516422,0.09040436,-0.032009304,-0.029125884,0.019153614,0.4405331,-9.385271,0.9701675,47.67793,-1.0215133,-1.6930826,-3.526503,-0.2396785,-0.2574402,-0.25445187,25.875,26.6875,25.8125,28.6875,29.5625,30.0
0.29000485,-1.9030799,-2.357472,-0.749509,-0.048072822,0.046902373,-0.12442196,-0.3932182,-0.33061162,0.05993076,-3.0704577,0.63008034,-0.00023778196,-0.13965341,-0.020373516,-0.00019746297,0.04063246,-0.013263785,-0.030934101,0.43826613,-1.4284911,1.9596475,-2.0960615,-1.5762285,2.4175148,-0.062294036,0.29545394,-0.3556178,0.089357756,-0.031859234,-0.03096281,0.0,0.38307226,-9.481039,0.900793,47.658226,-1.0734037,-1.8895667,-3.571709,-0.22168538,-0.2788552,-0.25207013,25.875,26.6875,25.8125,28.6875,29.5625,30.0
0.2920044,-2.0604925,-2.5169973,-0.66800547,-0.07701512,0.06559132,-0.13286266,-0.39348647,-0.33064377,0.059919305,-3.0703397,0.6301726,-0.00028804928,-0.14227359,-0.020184739,0.0004028016,0.038099702,-0.0087509705,-0.03376288,0.4381331,-1.4279037,1.9589657,-2.0958836,-1.5762886,2.4174554,-0.06505514,0.2958298,-0.3565452,0.08474134,-0.031499155,-0.030893505,-0.076614454,0.4213795,-9.557653,0.90527004,47.678825,-0.9745666,-1.845587,-3.5948684,-0.17750907,-0.30434883,-0.2449277,25.875,26.6875,25.8125,28.6875,29.5625,30.0
0.2940048,-1.5566275,-2.0526526,-0.5983627,-0.07619916,0.070238695,-0.1306687,-0.39378473,-0.33070013,0.05995685,-3.0702906,0.63019854,-0.00019349546,-0.14302602,-0.021799738,0.00081995135,0.03772044,-0.0058200047,-0.031686325,0.43802625,-1.4273522,1.9582118,-2.0957043,-1.5763606,2.4173717,-0.062105272,0.29745644,-0.35906845,0.08282573,-0.03240676,-0.0300139,-0.38307226,0.51714754,-9.500193,1.0171678,47.668976,-1.0861222,-1.7996376,-3.6856523,-0.13346073,-0.3247438,-0.27945265,25.875,26.6875,25.8125,28.6875,29.5625,30.0
0.29600447,-1.9916401,-2.13593,-0.93769634,-0.048574865,0.05296483,-0.13469279,-0.39402816,-0.3307118,0.059874654,-3.0700643,0.6303993,-0.0004508714,-0.14372997,-0.021489391,0.0013529176,0.03793481,-0.0031524256,-0.031221058,0.43786997,-1.4266574,1.9575661,-2.0955136,-1.5764092,2.4173713,-0.062327895,0.29638276,-0.35894608,0.081446625,-0.033748783,-0.030686138,-0.47884035,0.47884035,-9.500193,0.99031126,47.68599,-1.1735196,-1.6817533,-3.67346,-0.09831985,-0.32115406,-0.28483662,25.875,26.6875,25.8125,28.6875,29.5625,30.0
0.29800484,-1.5898646,-1.3259178,-0.9215571,-0.03417274,0.060373515,-0.1369927,-0.3943267,-0.33074328,0.059893236,-3.069964,0.6304154,-0.0003400852,-0.14563109,-0.020876063,0.0022379835,0.037515957,-0.0010235064,-0.032263815,0.43774936,-1.4260949,1.956848,-2.0953581,-1.5765294,2.4172745,-0.0646541,0.29649156,-0.36127108,0.08154381,-0.034285046,-0.03196549,-0.2873042,0.40222588,-9.615114,0.92764956,47.66808,-1.1905946,-1.4948378,-3.8893428,-0.07180683,-0.31861752,-0.27682853,25.875,26.6875,25.8125,28.6875,29.5625,30.0
0.3000053,-1.852898,-1.0235677,-0.72417235,-0.025344757,0.0454258,-0.13060713,-0.39462587,-0.3308035,0.059894565,-3.0698922,0.6304945,-0.00030106035,-0.14723055,-0.021628754,0.0029405057,0.036873132,0.0003729712,-0.030811962,0.43764132,-1.4254713,1.9561046,-2.095226,-1.5765895,2.4172258,-0.06457264,0.2985223,-0.3655198,0.08221088,-0.034311,-0.033333402,-0.4213795,0.30645782,-9.576807,0.9254084,47.67166,-1.038217,-1.4525225,-3.7367911,-0.03251878,-0.34373245,-0.2709239,25.875,26.6875,25.8125,28.6875,29.5625,30.0
0.30200502,-1.3380276,-0.31278065,-0.53198236,-0.019363884,0.05318113,-0.13660029,-0.39491963,-0.33085907,0.059917632,-3.0698433,0.6305796,-0.00024404966,-0.14827035,-0.022696976,0.0034430253,0.036428537,0.0015665748,-0.029625716,0.43752187,-1.4249078,1.9553741,-2.0950701,-1.5766376,2.4171665,-0.063381076,0.3004863,-0.36915725,0.08260968,-0.03442244,-0.033326063,-0.57460845,0.24899697,-9.461885,0.9410752,47.666286,-1.2596122,-1.4445951,-3.6943982,-0.020545553,-0.36902407,-0.28061017,25.875,26.6875,25.8125,28.6875,29.5625,30.0
0.30400452,-1.2649678,-0.40149692,-0.7968174,0.012957166,0.05023926,-0.1366806,-0.39522517,-0.3309172,0.059921864,-3.0697963,0.630628,-0.0002313486,-0.14947373,-0.02181418,0.0026960936,0.03885021,-0.0016304256,-0.031658858,0.4373891,-1.4242834,1.9546193,-2.0949252,-1.5766734,2.4170706,-0.06539252,0.30467057,-0.3732567,0.0864443,-0.0352643,-0.033297066,-0.51714754,0.15322891,-9.500193,0.9030289,47.679718,-1.2116771,-1.464056,-3.6103115,0.004999594,-0.375709,-0.28294015,25.875,26.6875,25.8125,28.6875,29.5625,30.0
0.30600473,-1.1566288,0.2831905,-0.9820861,0.024276707,0.04307564,-0.14054805,-0.3955389,-0.33094856,0.059924368,-3.0696793,0.630756,-0.00020000314,-0.15048862,-0.021333389,0.0020000765,0.04130066,-0.003409229,-0.031960446,0.43723288,-1.4236593,1.9538635,-2.0947568,-1.5767583,2.4170103,-0.066093326,0.3084264,-0.37662977,0.08870541,-0.03673908,-0.03368437,-0.45968673,0.05746084,-9.595961,0.9567419,47.674347,-1.1527195,-1.7243598,-3.5572598,-0.022644253,-0.38042206,-0.2901003,25.875,26.6875,25.8125,28.6875,29.5625,30.0
0.3080044,-1.2449291,0.5881692,-0.6231479,0.026279354,0.028073795,-0.14099894,-0.39584988,-0.3310028,0.059949003,-3.0696151,0.63083756,-0.00011092002,-0.1497805,-0.020338174,-0.00041460656,0.046403978,-0.011103572,-0.032066677,0.43711287,-1.4230695,1.9530982,-2.0945995,-1.5768312,2.4169502,-0.06634089,0.31441927,-0.3794462,0.09465768,-0.038100317,-0.033817086,-0.4213795,0.019153614,-9.557653,0.9254084,47.670765,-1.1644455,-1.8947465,-3.5347018,-0.042762537,-0.37958485,-0.31558013,25.875,26.6875,25.8125,28.6875,29.5625,30.0
0.3100048,-1.281773,0.6056802,-0.35872743,0.027764753,0.03429155,-0.13813902,-0.39615673,-0.33102608,0.05994435,-3.06949,0.63094574,-0.00016902153,-0.14815028,-0.018162912,-0.00059300323,0.05054436,-0.016442422,-0.033537082,0.43693236,-1.4224337,1.9523333,-2.094381,-1.5768918,2.4168544,-0.067844145,0.31277153,-0.3791056,0.10255069,-0.03958225,-0.033839557,-0.47884035,0.0,-9.404425,0.8918391,47.698532,-1.1768098,-1.8322425,-3.6333528,-0.12977645,-0.3800739,-0.31816235,25.875,26.6875,25.8125,28.6875,29.5625,30.0
0.31200448,-1.2402666,0.87376225,-0.7577392,0.042482078,0.025401851,-0.13614038,-0.39646032,-0.33107895,0.059971478,-3.0693848,0.6310391,-0.00012897432,-0.14795224,-0.016742058,-0.0023017514,0.05519285,-0.021510929,-0.034479406,0.43682387,-1.4218318,1.9515318,-2.0941517,-1.5769762,2.4168186,-0.06884167,0.31675512,-0.38089007,0.106911026,-0.041649025,-0.033880185,-0.34476504,-0.038307227,-9.385271,0.95897776,47.679718,-0.9837743,-1.8786339,-3.807632,-0.1882537,-0.37574562,-0.29922795,25.875,26.6875,25.8125,28.6875,29.5625,30.0
0.31400475,-0.61290216,0.93150103,-0.6388284,0.04321443,0.03227369,-0.14175929,-0.39673758,-0.33111316,0.05994703,-3.0692296,0.6311006,-0.00020404598,-0.1482412,-0.016738424,-0.0017474749,0.057182495,-0.02184379,-0.03399621,0.4367045,-1.421183,1.9507998,-2.0939472,-1.577061,2.4167588,-0.06794475,0.31748778,-0.38396174,0.11039434,-0.043317012,-0.033450056,-0.30645782,-0.076614454,-9.481039,0.9612189,47.64479,-1.2061179,-1.7709682,-3.8318858,-0.23117255,-0.36699736,-0.33833462,25.875,26.6875,25.8125,28.6875,29.5625,30.0
0.31600437,-0.61290216,0.93150103,-0.6388284,0.04321443,0.03227369,-0.14175929,-0.39673758,-0.33111316,0.05994703,-3.0692296,0.6311006,-0.00020404598,-0.1482412,-0.016738424,-0.0017474749,0.057182495,-0.02184379,-0.03399621,0.4367045,-1.421183,1.9507998,-2.0939472,-1.577061,2.4167588,-0.06794475,0.31748778,-0.38396174,0.11039434,-0.043317012,-0.033450056,-0.30645782,-0.076614454,-9.481039,0.9612189,47.64479,-1.2061179,-1.7709682,-3.8318858,-0.23117255,-0.36699736,-0.33833462,25.875,26.6875,25.8125,28.6875,29.5625,30.0
0.31800434,-0.69922125,0.80445015,-0.2902587,0.012712615,0.05050966,-0.14419794,-0.39704853,-0.33113626,0.059954286,-3.0690668,0.6311607,-0.00020249812,-0.15002319,-0.015875801,-0.0006574173,0.05857777,-0.020402616,-0.034181487,0.43655965,-1.4205458,1.9499978,-2.0936954,-1.5771817,2.4166737,-0.069715634,0.31784353,-0.38761705,0.11296427,-0.045210112,-0.035018597,-0.36391866,-0.05746084,-9.3661175,0.9254084,47.650166,-1.1582109,-1.7737327,-3.7357414,-0.2570718,-0.33764303,-0.3344943,25.875,26.6875,25.8125,28.6875,29.5625,30.0
0.3200045,-1.5115523,-0.013919946,-0.66481495,-0.0138919735,0.05015296,-0.13956025,-0.39765653,-0.3311876,0.059962463,-3.0687563,0.6312661,-0.00020617394,-0.15577692,-0.017056603,0.0033731442,0.056708846,-0.009379088,-0.034572564,0.43628356,-1.4192849,1.948428,-2.0932167,-1.5774106,2.4165058,-0.07036146,0.31859437,-0.39773974,0.111544676,-0.048218988,-0.03524093,-0.40222588,0.019153614,-9.5385,0.947788,47.657326,-1.0941942,-1.4559915,-3.4555387,-0.31126532,-0.32311368,-0.34187716,25.875,26.6875,25.8125,28.6875,29.5625,30.0
0.3220045,-1.5115523,-0.013919946,-0.66481495,-0.0138919735,0.05015296,-0.13956025,-0.39765653,-0.3311876,0.059962463,-3.0687563,0.6312661,-0.00020617394,-0.15577692,-0.017056603,0.0033731442,0.056708846,-0.009379088,-0.034572564,0.43628356,-1.4192849,1.948428,-2.0932167,-1.5774106,2.4165058,-0.07036146,0.31859437,-0.39773974,0.111544676,-0.048218988,-0.03524093,-0.40222588,0.019153614,-9.5385,0.947788,47.657326,-1.0941942,-1.4559915,-3.4555387,-0.31126532,-0.32311368,-0.34187716,25.875,26.6875,25.8125,28.6875,29.5625,30.0
0.32400438,-1.627415,-0.4532149,-0.77665293,-0.019536668,0.07003169,-0.14303482,-0.3982936,-0.33127517,0.060002323,-3.0685594,0.6314349,-0.00017006206,-0.16012922,-0.016187098,0.00086415844,0.057917014,-0.005937346,-0.035836358,0.4359945,-1.4180328,1.9468001,-2.0927656,-1.5775555,2.4163494,-0.073776305,0.32700104,-0.4000257,0.102790385,-0.050816376,-0.037367545,-0.38307226,0.05746084,-9.557653,0.9097417,47.657326,-0.90140605,-1.6628194,-3.5656185,-0.25443506,-0.2531672,-0.33535266,25.875,26.6875,25.8125,28.6875,29.5625,30.0
0.32600442,-1.9244766,-0.9654546,-0.80694723,-0.025664356,0.07398393,-0.1378477,-0.39863718,-0.33128038,0.060005743,-3.0684054,0.63163257,-9.4996285e-05,-0.16196586,-0.015843963,-9.982415e-06,0.057877243,-0.0038663517,-0.036605995,0.43578997,-1.4173952,1.9460238,-2.0925996,-1.5776752,2.4162893,-0.07529096,0.32984215,-0.40051594,0.09852859,-0.051676627,-0.038104318,-0.28730422,0.17238252,-9.691729,1.0350704,47.672558,-0.891052,-1.7701595,-3.6966631,-0.18611664,-0.2392022,-0.33667874,25.875,26.6875,25.8125,28.6875,29.5625,30.0
0.32800436,-2.080979,-1.6715645,-0.53457594,-0.034641802,0.084251806,-0.13646586,-0.39895043,-0.33129555,0.060006566,-3.0682564,0.6316761,-8.289297e-06,-0.16429988,-0.015994351,0.00032903417,0.057373084,0.0008022107,-0.035191473,0.4356456,-1.4167823,1.9452814,-2.0924332,-1.5778202,2.4161925,-0.07591153,0.33133665,-0.40223283,0.094283946,-0.053219616,-0.0401256,-0.34476504,0.22984336,-9.557653,0.94331104,47.67166,-0.8563309,-1.5843922,-3.891026,-0.108857565,-0.21113798,-0.3123368,25.875,26.6875,25.8125,28.6875,29.5625,30.0
0.33000442,-1.6564628,-0.9418495,-0.8009179,-0.03539597,0.06102304,-0.13541289,-0.39929473,-0.33131865,0.060025968,-3.0680904,0.6318314,9.093204e-05,-0.16517201,-0.014550916,-0.00017678902,0.060680956,0.00061125064,-0.03527293,0.43548945,-1.4161332,1.9444436,-2.0922172,-1.5779651,2.416156,-0.07726631,0.3328571,-0.4032324,0.0953192,-0.056149654,-0.041377295,-0.34476504,0.49799395,-9.595961,0.9791215,47.66987,-0.71858895,-1.7372708,-3.8329566,-0.10189087,-0.16467854,-0.29721242,25.875,26.6875,25.8125,28.6875,29.5625,30.0
0.33200452,-1.64798,-1.1405753,-0.68569225,-0.035612285,0.05029092,-0.14103551,-0.3996394,-0.33137298,0.060049336,-3.068037,0.6318584,0.00023590213,-0.16865297,-0.016156327,0.0023752365,0.055800144,0.0068838624,-0.037607647,0.4353572,-1.4154963,1.9436291,-2.0920866,-1.57806,2.4160483,-0.07836111,0.33307815,-0.4090525,0.09316388,-0.05438189,-0.04014926,-0.4213795,0.4213795,-9.557653,0.96569055,47.658226,-0.7079549,-1.5676193,-3.7640288,-0.03245069,-0.15016878,-0.3074308,25.875,26.6875,25.8125,28.6875,29.5625,30.0
0.33400443,-1.5299169,-1.3887852,-0.70415324,-0.042328056,0.02624446,-0.1321147,-0.39999646,-0.33140826,0.06008136,-3.0679264,0.6320264,0.00035789673,-0.16924599,-0.016349515,0.0015563542,0.05738265,0.0034279914,-0.036653727,0.43518892,-1.4148574,1.942778,-2.091893,-1.5781683,2.4160001,-0.07842213,0.3376232,-0.41340485,0.0967511,-0.054368727,-0.041163627,-0.4213795,0.45968673,-9.3661175,1.0082139,47.686886,-0.63743216,-1.633373,-3.7429843,-0.02814572,-0.13848366,-0.30265993,25.875,26.6875,25.8125,28.6875,29.5625,30.0
0.3360044,-1.2513747,-1.7599496,-1.0246967,-0.03386692,0.010049242,-0.13373706,-0.40031302,-0.33142945,0.060047016,-3.0677364,0.6320022,0.0002967226,-0.17104508,-0.016903391,0.0028101495,0.056010235,0.0067046247,-0.03448347,0.43504494,-1.4141248,1.9419636,-2.0916665,-1.5783004,2.415867,-0.0787433,0.33785138,-0.4166353,0.09617203,-0.05453614,-0.043645028,-0.36391866,0.61291564,-9.500193,0.92764956,47.709274,-0.67697024,-1.5830693,-3.6458127,0.01192023,-0.10247031,-0.28627536,25.875,26.6875,25.8125,28.6875,29.5625,30.0
0.33800453,-1.2695234,-1.9269449,-0.71008366,-0.05172094,0.014304626,-0.13980441,-0.4006692,-0.33147115,0.060063317,-3.0676355,0.6320943,0.0004038785,-0.17050599,-0.016704967,0.0014992146,0.05694321,0.002101262,-0.032849714,0.43488875,-1.4134521,1.9411143,-2.0914977,-1.5784076,2.4157825,-0.079246126,0.3407248,-0.4177892,0.098986804,-0.053453002,-0.045789644,-0.51714754,0.6512229,-9.481039,0.90527004,47.661808,-0.6477233,-1.5057821,-3.6823106,0.020845288,-0.080798194,-0.23182656,25.875,26.6875,25.8125,28.6875,29.5625,30.0
0.34000447,-1.4498321,-2.587398,-0.40758967,-0.05661419,0.028017245,-0.13117558,-0.4010213,-0.33150837,0.060100965,-3.0675364,0.63218737,0.00048515247,-0.1701883,-0.017026016,0.0012031234,0.056896243,-0.00135682,-0.031829007,0.4347208,-1.4128151,1.9402407,-2.0912569,-1.5785035,2.4156864,-0.07926089,0.3425286,-0.42023152,0.102715164,-0.05196033,-0.046835,-0.51714754,0.63206923,-9.385271,0.97464454,47.651955,-0.687858,-1.3502507,-3.8075943,0.01981203,-0.0981064,-0.20278898,25.875,26.6875,25.8125,28.6875,29.5625,30.0
0.3420044,-1.0170034,-2.305861,-0.4401686,-0.04784634,0.040072028,-0.14033294,-0.40135053,-0.33155286,0.06010572,-3.0674405,0.63224196,0.0005227974,-0.16804798,-0.017472655,0.00029423478,0.05651902,-0.008947248,-0.030124439,0.43457705,-1.4121534,1.9394268,-2.0910752,-1.5785865,2.41559,-0.07884517,0.34383312,-0.42134148,0.10921218,-0.04842199,-0.048147995,-0.45968673,0.45968673,-9.289502,1.0037369,47.698532,-0.7552841,-1.4382846,-3.8011165,-0.024284959,-0.11062209,-0.17589346,25.875,26.6875,25.8125,28.6875,29.5625,30.0
0.34400442,-0.7292993,-1.2516357,-0.31126878,-0.0383766,0.02859762,-0.13630272,-0.4017336,-0.33159116,0.0601208,-3.0673332,0.6323709,0.0006007173,-0.16712731,-0.017778115,-0.0005742041,0.058327217,-0.016342318,-0.028840704,0.4343851,-1.4114314,1.9385165,-2.0908806,-1.5786818,2.4154935,-0.07835863,0.34782848,-0.42602268,0.117341824,-0.04695226,-0.048954263,-0.21068975,0.38307226,-9.2703495,0.99702406,47.703903,-0.71911883,-1.4508758,-3.815194,-0.06632807,-0.12531576,-0.1519224,25.875,26.6875,25.8125,28.6875,29.5625,30.0
0.34600437,-0.7823673,-0.57112,0.20354347,-0.019173224,0.0062996,-0.13363759,-0.40209785,-0.33164093,0.060152914,-3.0672452,0.6324084,0.00077540334,-0.16827914,-0.01856225,-0.00053056475,0.05779916,-0.01894074,-0.028573237,0.4342531,-1.4107696,1.937642,-2.0907114,-1.5788134,2.4153972,-0.0788292,0.35181653,-0.43182668,0.121268585,-0.04539062,-0.049703002,-0.05746084,0.17238252,-9.136273,0.900793,47.70659,-0.7592391,-1.593111,-3.555646,-0.15969768,-0.13424927,-0.12271117,25.875,26.6875,25.8125,28.6875,29.5625,30.0
0.34800458,-0.2991749,-0.04516196,0.081322476,0.033645406,-0.026396418,-0.13262755,-0.40244758,-0.33170268,0.060155336,-3.067196,0.63243526,0.0007401747,-0.1677481,-0.019237258,-0.0002590558,0.057895035,-0.022703964,-0.027579512,0.4340854,-1.4100481,1.9367574,-2.0905058,-1.5788368,2.4152534,-0.0780284,0.3532153,-0.43561488,0.12709694,-0.04389983,-0.04990392,-0.019153614,0.21068975,-8.963891,0.9410752,47.70211,-0.77702427,-1.6485758,-3.531948,-0.1795165,-0.1536059,-0.100375265,25.875,26.6875,25.8125,28.6875,29.5625,30.0
0.35000446,0.23454073,1.113443,0.2900194,0.060349703,-0.062076073,-0.1393243,-0.4027868,-0.3317308,0.060151227,-3.0670192,0.63249415,0.0007087336,-0.16910708,-0.018340537,-0.0012228595,0.057843085,-0.02479311,-0.030871056,0.43392822,-1.4093268,1.9358724,-2.0902307,-1.5789565,2.4151573,-0.08126397,0.35640112,-0.43743944,0.12759386,-0.04298957,-0.0498488,-0.038307227,0.21068975,-8.810662,0.9164598,47.694946,-0.6685835,-1.7067914,-3.4474382,-0.2232113,-0.18094733,-0.07814262,25.875,26.6875,25.8125,28.6875,29.5625,30.0
0.3520045,0.8457073,0.9221384,0.54145527,0.047777303,-0.05587312,-0.1417703,-0.40310407,-0.3317671,0.06011701,-3.0668552,0.6325721,0.00058668456,-0.1684426,-0.020666799,-0.0012832138,0.057347912,-0.024768818,-0.027725298,0.43377367,-1.4085811,1.9350356,-2.0899913,-1.5790285,2.415074,-0.07671883,0.35839465,-0.43990937,0.12784031,-0.042561937,-0.04844522,0.095768064,0.21068975,-8.734048,0.87617236,47.66091,-0.8432763,-1.5520675,-3.4246488,-0.21989727,-0.1782605,-0.050497323,25.875,26.6875,25.8125,28.6875,29.5625,30.0
0.35400444,0.67318976,0.40324864,0.53812104,0.024823375,-0.049728625,-0.13283274,-0.40346476,-0.3318139,0.060153775,-3.0667496,0.63266563,0.0006548894,-0.17111647,-0.020641085,0.00030290955,0.05479119,-0.019729832,-0.03128517,0.43361712,-1.4079086,1.9341153,-2.089729,-1.5791243,2.4149907,-0.07901989,0.3576445,-0.44233915,0.1253723,-0.0423708,-0.0471862,0.095768064,0.038307227,-8.580819,0.900793,47.684196,-0.86123383,-1.5846788,-3.5578742,-0.2102246,-0.19232127,-0.04498586,25.875,26.6875,25.8125,28.6875,29.5625,30.0
0.35600445,0.02474193,-0.4485162,0.67776537,-0.0036546641,-0.021160917,-0.13869745,-0.40381524,-0.33184904,0.060136564,-3.0665817,0.6327456,0.00058755244,-0.1739247,-0.020972244,0.0007998918,0.0523628,-0.015449032,-0.03526078,0.43344837,-1.4071395,1.9332064,-2.0894673,-1.5792202,2.414895,-0.08091712,0.3593983,-0.44483086,0.12121038,-0.041980516,-0.045103915,0.038307227,0.019153614,-8.6574335,0.84484416,47.70032,-0.61669475,-1.4756312,-3.4779806,-0.16065887,-0.19814968,-0.0443485,25.875,26.6875,25.8125,28.6875,29.5625,30.0
0.35800445,-0.65631044,-1.3615698,0.7726485,-0.039503492,0.015554132,-0.13956903,-0.4041701,-0.3318828,0.06013707,-3.0664213,0.6328447,0.00057558436,-0.17594771,-0.023378398,0.0023608333,0.049213335,-0.009653167,-0.034225244,0.43328136,-1.4064054,1.9322971,-2.089205,-1.579328,2.414812,-0.078451954,0.3604268,-0.4490884,0.11785614,-0.041573983,-0.043671504,0.13407528,0.076614454,-8.695741,1.0238806,47.652847,-0.83160853,-1.5011797,-3.4938917,-0.1229257,-0.20743722,-0.059410654,25.875,26.6875,25.8125,28.6875,29.5625,30.0
0.3600044,-1.2996457,-1.2445571,0.55908227,-0.04571775,0.028675715,-0.14372173,-0.40448633,-0.33194348,0.060131114,-3.0663157,0.63286006,0.0004534119,-0.17655632,-0.023764381,0.0010072947,0.048709974,-0.010055351,-0.03583913,0.43314916,-1.4056851,1.9314121,-2.088919,-1.5793642,2.4147043,-0.0785756,0.36368048,-0.44937813,0.115049854,-0.040955685,-0.042180303,0.1340753,0.13407528,-8.772355,0.89631605,47.687782,-0.83740115,-1.4810764,-3.513763,-0.07300173,-0.22885258,-0.056194413,25.875,26.6875,25.8125,28.6875,29.5625,30.0
0.36200443,-0.78777444,-0.945284,0.21225367,-0.014885949,0.03400263,-0.13552888,-0.40483364,-0.33197507,0.060098004,-3.0661569,0.6329796,0.00038757428,-0.17863457,-0.025033198,0.0011712203,0.046085905,-0.008514059,-0.03755516,0.43296906,-1.4049155,1.9305505,-2.0887158,-1.5794472,2.4146209,-0.07902998,0.3670699,-0.4535781,0.11335452,-0.03923579,-0.040925168,0.038307227,0.17238252,-8.90643,0.9835985,47.682407,-0.85486627,-1.4683161,-3.6030312,-0.016711269,-0.26557583,-0.07978098,25.875,26.6875,25.8125,28.6875,29.5625,30.0
0.36400467,-0.49424824,-0.43808058,-0.11069668,0.010209144,0.018545195,-0.14151278,-0.4051853,-0.33203974,0.060092255,-3.0660505,0.6330905,0.00039884602,-0.17934974,-0.026201125,0.0007638661,0.045555722,-0.008311565,-0.03785135,0.43283772,-1.404168,1.929654,-2.0885246,-1.5795192,2.4145737,-0.07769468,0.37013686,-0.45629534,0.11260375,-0.038842283,-0.039293718,-0.076614454,0.36391866,-8.963891,0.900793,47.66808,-0.91331816,-1.7086036,-3.4566593,0.018663745,-0.30276006,-0.08096761,25.875,26.6875,25.8125,28.6875,29.5625,30.0
0.36600447,-0.5451683,-0.30801362,-0.55042046,0.016627794,0.0010501576,-0.13123414,-0.4055349,-0.33206674,0.06008286,-3.0658875,0.63321084,0.00036040592,-0.18037292,-0.024786424,-0.00034870705,0.046924584,-0.00999383,-0.04166744,0.43265656,-1.4034355,1.9287695,-2.0882733,-1.5796155,2.4144902,-0.08061793,0.37259874,-0.45691118,0.11285839,-0.0393836,-0.038392685,-0.019153614,0.45968673,-9.11712,0.95226496,47.686886,-0.82905793,-1.6799555,-3.618958,0.045901053,-0.32385164,-0.084479384,25.875,26.6875,25.8125,28.6875,29.5625,30.0
0.36800444,-0.29336885,-0.820542,-0.5409213,-0.005765084,0.0004953644,-0.13581932,-0.40590414,-0.33212215,0.060076687,-3.0657587,0.6333138,0.00035236383,-0.17797145,-0.025821816,-0.0013127783,0.049303923,-0.01384805,-0.03866959,0.43250203,-1.4026542,1.9278253,-2.0880444,-1.5796994,2.414418,-0.076330036,0.37379795,-0.45715642,0.116405666,-0.03991953,-0.037096586,-0.1340753,0.47884035,-9.232041,0.947788,47.67793,-1.0453438,-1.7732011,-3.726436,0.03485895,-0.33552602,-0.09385952,25.875,26.6875,25.8125,28.6875,29.5625,30.0
0.37000442,-0.47517505,-1.4321065,-0.61598957,-0.027113846,0.002530285,-0.14496714,-0.40624508,-0.3321607,0.060051437,-3.0656066,0.6334346,0.00027371317,-0.17838557,-0.025106693,-0.0016604722,0.052592505,-0.017956056,-0.0402995,0.43233392,-1.4018964,1.9269513,-2.0878146,-1.5797719,2.4143465,-0.07704298,0.37711078,-0.4619359,0.12298422,-0.04118334,-0.036163777,-0.1340753,0.4405331,-9.212888,0.9791215,47.709274,-1.0899471,-1.8221076,-3.71066,0.037183285,-0.3561771,-0.106318645,25.875,26.6875,25.8125,28.6875,29.5625,30.0
0.37200445,-0.58294535,-1.5552512,-0.8020341,-0.030687978,-0.0032501328,-0.13630827,-0.40659615,-0.33220398,0.060020614,-3.065425,0.6335126,0.00020983191,-0.17722505,-0.02258605,-0.0026504463,0.056761604,-0.02541722,-0.04396795,0.4321887,-1.4010923,1.9260329,-2.0875719,-1.5798801,2.4142752,-0.08006687,0.37780535,-0.46266213,0.131536,-0.04183172,-0.035510074,-0.30645782,0.49799395,-9.346964,0.9791215,47.66987,-0.88145715,-1.6638992,-3.8253121,-0.061615188,-0.3622495,-0.11422545,25.875,26.6875,25.8125,28.6875,29.5625,30.0
