Tylouw/Master_Thesis_Code/training_data/batch_1/big_rod_t0.1/sample_18_session_1.csv
timestamp[s],tcp_force_x[N],tcp_force_y[N],tcp_force_z[N],tcp_force_rx[Nm?],tcp_force_ry[Nm?],tcp_force_rz[Nm?],tcp_pose_x[m],tcp_pose_y[m],tcp_pose_z[m],tcp_pose_rx[rot_vec_x],tcp_pose_ry[rot_vec_y],tcp_pose_rz[rot_vec_z],tcp_velo_x[m/s],tcp_velo_y[m/s],tcp_velo_z[m/s],tcp_velo_rx[rot_vec_x/s],tcp_velo_ry[rot_vec_y/s],tcp_velo_rz[rot_vec_z/s],q1[rad],q2[rad],q3[rad],q4[rad],q5[rad],q6[rad],qd1[rad/s],qd2[rad/s],qd3[rad/s],qd4[rad/s],qd5[rad/s],qd6[rad/s],tool_acc_x,tool_acc_y,tool_acc_z,current_of_whole_robot[A],voltage_of_whole_robot[V],current_J1[A],current_J2[A],current_J3[A],current_J4[A],current_J5[A],current_J6[A],temp_J1[C],temp_J2[C],temp_J3[C],temp_J4[C],temp_J5[C],temp_J6[C]
4.080357e-07,-0.43939242,-0.7114006,-0.09085379,-0.046845764,0.03972788,-0.013378395,-0.3736423,-0.3287942,0.059946295,-3.0784698,0.6248404,-0.0002056317,-0.0010029953,-0.00056212384,5.2853706e-05,-0.0020293023,0.0037033765,9.309213e-05,0.44857025,-1.4686825,2.0071185,-2.1074421,-1.5707096,2.4234748,0.0,-2.9265184e-06,0.0010936626,-0.0053085904,0.0002127052,-9.257998e-05,-0.019153614,0.038307227,-8.7532015,0.8291774,47.698532,-0.0043496788,-2.6405435,-2.3898983,-0.4807494,0.15780294,-0.124472335,24.0625,24.3125,23.75,25.0625,24.9375,25.1875
0.002052481,-0.34055623,-0.73084277,-0.12964368,-0.040467788,0.043709926,-0.011652374,-0.3736451,-0.32880655,0.059934366,-3.0784883,0.62490255,-0.0002673739,-0.0012370365,-0.0006746279,-0.0025982882,-0.0019294572,0.0034858547,9.2680224e-05,0.4485582,-1.4686451,2.007108,-2.1074564,-1.5706614,2.423499,0.0,0.004246456,0.004103847,-0.01232884,0.00020756174,-9.123926e-05,0.019153614,0.0,-8.619126,0.7933669,47.71286,-0.029885089,-2.7044678,-2.436678,-0.4819583,0.17224163,-0.1259217,24.0625,24.3125,23.75,25.0625,24.9375,25.1875
0.004052026,-0.36648336,-0.8344847,-0.090764195,-0.02236989,0.035133265,-0.008127644,-0.37364376,-0.32880354,0.059936196,-3.0784955,0.6248075,-0.00022889458,-0.0015086562,-0.000804006,-0.0027298527,-0.0021720417,0.0039991294,9.1792324e-05,0.44857025,-1.4686569,2.0071194,-2.1074684,-1.5706857,2.423451,0.0,0.0047569782,0.0040867683,-0.013389966,0.00020105894,-8.993668e-05,0.05746084,-0.019153614,-8.619126,0.7933669,47.711964,0.016921304,-3.043155,-2.6934621,-0.38186547,0.15576097,-0.12988618,24.0625,24.3125,23.75,25.0625,24.9375,25.1875
0.006052212,-0.61887586,-0.69287866,-0.36523727,0.006057344,-4.171114e-05,0.0014327668,-0.37365773,-0.3287868,0.059921037,-3.078454,0.6248951,-0.00024615228,-0.0016106043,-0.00085046346,-0.0009032599,-0.0024906895,0.0046865293,9.0253096e-05,0.44853413,-1.4686221,2.0071185,-2.1074793,-1.5706977,2.4234748,0.0,0.002127653,0.0018512928,-0.009282716,0.00019484777,-8.867085e-05,0.05746084,0.0,-8.599973,0.76874626,47.723602,0.026952438,-2.9174366,-2.5531638,-0.41572714,0.14858148,-0.120746896,24.0625,24.3125,23.75,25.0625,24.9375,25.1875
0.008052131,0.53672576,0.6161942,-0.68077683,0.020003222,-0.005598369,-0.012108212,-0.37363443,-0.32882273,0.059918422,-3.0785148,0.6248696,-0.00028938352,-0.0016208215,-0.0008611967,0.000871508,-0.0027701529,0.005237619,8.8585046e-05,0.44858217,-1.4686228,2.0071304,-2.1075017,-1.5706376,2.423499,0.0,-0.0005689766,-0.00019546768,-0.0051571545,0.00021243466,-8.744022e-05,-0.019153614,0.019153614,-8.810662,0.73069996,47.694054,0.07651007,-2.8679962,-2.5208316,-0.4365707,0.1472889,-0.12031612,24.0625,24.3125,23.75,25.0625,24.9375,25.1875
0.010052653,0.3826392,0.2548167,-1.2124087,0.026040101,-0.014919377,-0.012384374,-0.37362617,-0.3288017,0.059890114,-3.078467,0.62484014,-0.00036762288,-0.0013318331,-0.0007202703,0.00089691527,-0.0021578262,0.003979583,9.3251416e-05,0.4485582,-1.4685869,2.0071528,-2.1074884,-1.5706495,2.4234629,0.0,-0.00049347116,-0.0007702328,-0.0032587482,0.00020947754,-9.231406e-05,0.05746084,0.095768064,-9.097966,0.7866488,47.678825,-0.2046814,-1.9976134,-3.1261969,-0.4588548,0.14268725,-0.177535,24.0625,24.3125,23.75,25.0625,24.9375,25.1875
0.012052751,0.046646666,-0.32947516,-1.27598,-0.019407501,0.0041384953,-0.012562321,-0.37361673,-0.3287864,0.05987714,-3.0784235,0.6248889,-0.00040413818,-0.000988466,-0.0005552509,-0.0026577073,0.0013604552,-0.0033200814,0.00013914306,0.44854617,-1.4685844,2.007177,-2.107477,-1.5706614,2.4234867,0.0,0.008175958,-0.0023873623,-0.0022077393,0.00020375979,-0.00013616466,0.17238252,0.0,-9.155427,0.7933669,47.684196,-0.35031852,-1.9544934,-3.4020183,-0.4681353,0.1432015,-0.20586038,24.0625,24.3125,23.75,25.0625,24.9375,25.1875
0.0140516255,-1.2297719,-2.3765357,-1.4144163,-0.035355058,0.013669227,0.0007468674,-0.37363073,-0.3287715,0.05986864,-3.0783658,0.6248553,-0.00037920862,-0.0037950764,-0.0018440282,-0.003999659,0.002810477,-0.0063585793,0.0033499887,0.4485461,-1.4685442,2.0071495,-2.1074636,-1.5707215,2.4234731,-0.0001373732,0.01879173,-0.011372223,-0.000472629,0.00019816511,-0.0034778337,0.05746084,0.095768064,-9.232041,0.7665104,47.698532,-0.42930338,-2.726418,-3.2130198,-0.47507107,0.13672484,-0.21465565,24.0625,24.3125,23.75,25.0625,24.9375,25.1875
0.016052384,-1.5980682,-2.730989,-1.6287565,-0.07424886,0.048735786,-0.009764218,-0.37361938,-0.32877144,0.059843943,-3.0783517,0.62485397,-0.00050127535,-0.007119578,-0.00022805916,-0.0021571568,0.0012031175,-0.0029717619,0.0013307182,0.44853207,-1.4684968,2.0071485,-2.1074398,-1.5706857,2.42346,-0.0061723483,0.017433258,-0.014204837,-3.0859297e-05,0.00017036771,-0.007492153,-0.13407528,0.38307226,-9.461885,0.7284641,47.70032,-0.2033708,-2.543992,-3.2428014,-0.46953642,0.14191112,-0.17806166,24.0625,24.3125,23.75,25.0625,24.9375,25.1875
0.018051988,-1.7397627,-3.224703,-1.7778623,-0.09070153,0.08053287,-0.015829898,-0.37363708,-0.32879958,0.05985512,-3.0784187,0.62480986,-0.00047788944,-0.006710835,-0.00038460307,-0.0026204612,0.0016471605,-0.0038790528,0.0024143432,0.44854426,-1.4684726,2.0071018,-2.1074636,-1.5706495,2.4234362,-0.005503347,0.01817683,-0.013966917,-2.0148916e-06,0.00016445364,-0.00790679,-0.36391866,0.5746084,-9.519346,0.7978386,47.70838,-0.31851423,-2.211567,-3.386053,-0.47204334,0.12762173,-0.19281739,24.0625,24.3125,23.75,25.0625,24.9375,25.1875
0.02005176,-1.9999743,-3.4322283,-1.7261335,-0.11107154,0.0975786,-0.01383181,-0.3736052,-0.32878444,0.059805654,-3.0783298,0.6248105,-0.0006576724,-0.0068059727,-0.0012203129,-0.0023248773,0.0019458835,-0.004495509,0.0038351594,0.44854477,-1.4684004,2.0071247,-2.107415,-1.5706495,2.4234483,-0.0040205084,0.019630266,-0.01668808,0.0019507514,0.00016017612,-0.007843498,-0.40222588,0.68953013,-9.653421,0.7978386,47.707485,-0.43525374,-2.2152762,-3.4812882,-0.47153753,0.13975947,-0.20983583,24.0625,24.3125,23.75,25.0625,24.9375,25.1875
0.022052588,-2.2290323,-3.6408732,-2.024308,-0.10726569,0.101767,-0.02142923,-0.3736592,-0.32875487,0.059829157,-3.0782902,0.6247818,-0.0005318767,-0.00707775,-0.0016778491,-0.0023602825,0.002135268,-0.004886174,0.0055658855,0.44849697,-1.468388,2.0070517,-2.107391,-1.5707334,2.4233878,-0.003406579,0.021104855,-0.018375305,0.0025966489,0.00015619854,-0.008959228,-0.49799395,0.7278373,-9.749189,0.7978386,47.7254,-0.5807938,-2.2691207,-3.4278736,-0.49382347,0.12371312,-0.2336885,24.0625,24.3125,23.75,25.0625,24.9375,25.1875
0.024052443,-2.2214348,-3.5312438,-2.3286018,-0.09890619,0.08958747,-0.029159123,-0.37367645,-0.3288017,0.059833545,-3.078367,0.6247977,-0.000557517,-0.0087790135,-0.0013507232,-0.00237188,0.0019017893,-0.004406767,0.0050894795,0.4485204,-1.468327,2.0069802,-2.107415,-1.5706614,2.4234114,-0.005565765,0.023258878,-0.020615676,0.0021501586,0.0001524189,-0.010640189,-0.4405331,0.7661445,-9.844957,0.80679786,47.684196,-0.6496645,-2.2778258,-3.5008097,-0.4831192,0.13196537,-0.23239687,24.0625,24.3125,23.75,25.0625,24.9375,25.1875
0.026051622,-1.6941282,-2.794667,-2.1928809,-0.12726364,0.081904754,-0.040466204,-0.37366492,-0.32878083,0.059805978,-3.0783346,0.6247917,-0.00065647584,-0.010928006,-0.0012236566,-0.0011108642,0.00050884625,-0.0015226526,0.0037429824,0.44848362,-1.4683033,2.0070145,-2.107403,-1.5706495,2.423375,-0.0077546462,0.023226134,-0.023378426,0.0017428008,0.00014881825,-0.011480818,-0.3256114,0.63206923,-9.998186,0.72622824,47.66987,-0.55995405,-2.1045868,-3.4623976,-0.4638142,0.1343131,-0.23030968,24.0625,24.3125,23.75,25.0625,24.9375,25.1875
0.028052345,-1.443812,-3.0926406,-2.2337687,-0.11403406,0.07683794,-0.05672616,-0.37368423,-0.32879642,0.05978859,-3.0783138,0.6247493,-0.00071605074,-0.01235711,-0.0014823287,-0.00090471597,7.812151e-05,-0.0006367024,0.0035836645,0.44849524,-1.4681947,2.0069296,-2.1073792,-1.5706495,2.4233627,-0.008567152,0.025245069,-0.025981247,0.001341504,0.00014538389,-0.012132022,-0.4213795,0.53630114,-9.940725,0.8090337,47.70032,-0.65754473,-2.1578488,-3.4384797,-0.46443388,0.13215753,-0.24007615,24.0625,24.3125,23.75,25.0625,24.9375,25.1875
0.030052373,-1.255291,-2.3595889,-2.050956,-0.09956403,0.08257472,-0.06716176,-0.3737569,-0.3288035,0.05982552,-3.0783308,0.6247523,-0.0005255141,-0.01327758,-0.0018031748,-0.0011651611,0.0001384299,-0.00076428254,0.0041540703,0.44848314,-1.4681579,2.00681,-2.107403,-1.5707096,2.4233506,-0.008799788,0.02776342,-0.02809241,0.001074551,0.00014210446,-0.012933306,-0.49799395,0.40222588,-9.844957,0.8157518,47.67793,-0.66297174,-2.1996684,-3.478909,-0.4374144,0.118980624,-0.24594611,24.0625,24.3125,23.75,25.0625,24.9375,25.1875
0.032052133,-1.2928336,-1.9278448,-2.0171502,-0.06493134,0.08731017,-0.07848948,-0.37375247,-0.32882068,0.059791625,-3.0783627,0.6247011,-0.0006690019,-0.014998767,-0.0017858511,-0.00093790854,-0.00022292013,-2.404102e-05,0.0035652535,0.4484706,-1.4680734,2.0067976,-2.1074154,-1.5706376,2.423302,-0.010395484,0.02993535,-0.030978628,0.00096593145,0.00013896971,-0.013938097,-0.36391866,0.30645782,-9.921572,0.7866488,47.694054,-0.6734935,-2.310892,-3.4109857,-0.44143867,0.1170644,-0.25638556,24.0625,24.3125,23.75,25.0625,24.9375,25.1875
0.034052625,-1.4692179,-1.5878373,-2.0316703,-0.03089682,0.07166218,-0.098143324,-0.37380746,-0.32880664,0.059803307,-3.0783572,0.62481606,-0.0006640214,-0.017043829,-0.0020446074,2.9387907e-06,-0.0012449333,0.0020888406,0.0029220374,0.44838622,-1.4680251,2.0067122,-2.1073916,-1.5706257,2.42329,-0.011763757,0.031243974,-0.034558725,0.0008904355,0.00013597032,-0.014660787,-0.2681506,0.15322891,-9.902418,0.85826975,47.694054,-0.64922607,-2.2518923,-3.3178358,-0.4296388,0.12287846,-0.26862612,24.0625,24.3125,23.75,25.0625,24.9375,25.1875
0.03605172,-1.2800174,-1.0762671,-1.9498577,-0.0056343363,0.068389036,-0.10551465,-0.3738441,-0.32883483,0.059814747,-3.0783856,0.62476367,-0.00056659576,-0.017963482,-0.0023110737,-0.00013790675,-0.0012070215,0.002006979,0.0033407805,0.44842193,-1.4679643,2.0066273,-2.1074274,-1.5706495,2.4232895,-0.012099086,0.033487167,-0.036701232,0.0008795015,0.00013309762,-0.0154132135,-0.24899697,0.11492168,-9.749189,0.8157518,47.66808,-0.68917793,-2.2855554,-3.2542481,-0.4153166,0.105965,-0.27213264,24.0625,24.3125,23.75,25.0625,24.9375,25.1875
0.038052622,-1.1997068,-0.6070077,-1.5887277,-0.0010355675,0.054833,-0.117834225,-0.37387684,-0.3288441,0.05981008,-3.0783827,0.6247443,-0.0005812057,-0.019582951,-0.0022527815,0.0006533519,-0.0020800862,0.003814443,0.0025483093,0.4484095,-1.4678802,2.006543,-2.1074154,-1.5706495,2.4232655,-0.013676794,0.033970714,-0.03900777,0.00069511845,0.00013034376,-0.01619695,-0.30645782,0.0,-9.672575,0.779936,47.65912,-0.7418524,-2.2973702,-3.234459,-0.3941878,0.10630243,-0.2571214,24.0625,24.3125,23.75,25.0625,24.9375,25.1875
0.040052433,-1.3321774,-0.77034926,-1.820647,0.003952715,0.04655769,-0.12703757,-0.3739093,-0.328847,0.059813492,-3.078394,0.6247286,-0.00056506105,-0.020833587,-0.0025559342,0.0010935278,-0.0025881552,0.004866089,0.0011518659,0.44838536,-1.4678319,2.006482,-2.107416,-1.5706495,2.4232302,-0.014241665,0.035329763,-0.04150643,0.00066690944,0.00012770148,-0.015363662,-0.22984336,-0.095768064,-9.595961,0.7463667,47.68062,-0.7131827,-2.2496886,-3.2415786,-0.38677558,0.099650845,-0.2488324,24.0625,24.3125,23.75,25.0625,24.9375,25.1875
0.042052396,-0.40209606,-0.6296821,-1.6595927,-0.0088856565,0.061565474,-0.14159162,-0.3739776,-0.3288543,0.05982663,-3.078407,0.6248087,-0.00050608575,-0.022279104,-0.0026915034,0.0016813398,-0.00294328,0.0056023407,-0.0004307481,0.44833696,-1.4677476,2.0063617,-2.1074274,-1.5706495,2.4232302,-0.015295876,0.036782384,-0.04465431,0.0015448402,0.00012516436,-0.014833405,-0.24899697,-0.17238252,-9.5385,0.7933669,47.67166,-0.65055627,-2.2452734,-3.1902199,-0.37199125,0.10982461,-0.27648872,24.0625,24.3125,23.75,25.0625,24.9375,25.1875
0.044052187,-1.1357688,-1.3119973,-1.4526023,-0.004542199,0.044202797,-0.13801564,-0.3740244,-0.32886207,0.059838858,-3.0784347,0.6247947,-0.0004874695,-0.022496536,-0.0028403038,0.0016649897,-0.0021368822,0.0039340463,-0.00020000595,0.448301,-1.4676872,2.0062644,-2.1074145,-1.5706376,2.423182,-0.015211401,0.038503457,-0.047099378,0.004121977,0.00012272605,-0.014978685,-0.2681506,-0.15322891,-9.576807,0.74413085,47.67166,-0.745432,-2.2202053,-3.145705,-0.36421055,0.101611406,-0.2812146,24.0625,24.3125,23.75,25.0625,24.9375,25.1875
0.04605236,-0.7823009,-0.8223445,-1.5810611,-0.015776372,0.062596425,-0.13753302,-0.37403357,-0.32884905,0.059804417,-3.0783474,0.6247391,-0.00056236476,-0.02222173,-0.0022863478,0.0007872099,-0.0011188962,0.0018248791,-0.00073515234,0.44830066,-1.4675788,2.0062158,-2.1073778,-1.5706857,2.4231582,-0.015999999,0.039729346,-0.046574317,0.0047122533,0.00012038099,-0.015232443,-0.15322891,-0.076614454,-9.595961,0.80456203,47.72808,-0.60391873,-2.1909933,-3.2311869,-0.3740412,0.09794344,-0.27274907,24.0625,24.3125,23.75,25.0625,24.9375,25.1875
0.048052184,-1.0257484,-1.5107641,-1.6594504,-0.015135908,0.06716786,-0.12504302,-0.37412483,-0.32886794,0.05984307,-3.0784216,0.6248113,-0.00047736228,-0.023483602,-0.0029515289,0.0015913212,-0.001898744,0.0034414714,-0.00056620647,0.44822875,-1.4675068,2.006048,-2.1073778,-1.5706495,2.423122,-0.015891602,0.04080834,-0.049653877,0.0049185245,0.000118123826,-0.015291039,-0.15322891,0.076614454,-9.576807,0.800085,47.686886,-0.6987974,-2.1868186,-3.2207057,-0.3728155,0.09633009,-0.27225056,24.0625,24.3125,23.75,25.0625,24.9375,25.1875
0.050051697,-1.4122677,-2.173667,-1.5218766,-0.019254057,0.05361737,-0.12333064,-0.374157,-0.32886395,0.05984778,-3.0784152,0.6247714,-0.00041291033,-0.024191242,-0.0029974226,0.0015069523,-0.0019188529,0.003481339,-0.00029338765,0.44821647,-1.4674703,2.0059998,-2.1073902,-1.5706857,2.4230857,-0.016445903,0.042193163,-0.050955668,0.0047901585,0.00011594974,-0.016117124,-0.13407528,0.21068975,-9.5385,0.85155696,47.67793,-0.7468512,-2.075623,-3.1970353,-0.36036262,0.09978786,-0.27484077,24.0625,24.3125,23.75,25.0625,24.9375,25.1875
0.052052297,-1.4841539,-2.5326526,-1.6183656,-0.028530234,0.04505054,-0.10761147,-0.37421972,-0.3288838,0.059859876,-3.0784488,0.6248171,-0.0003896221,-0.0260468,-0.0033688536,0.0025095728,-0.0028614784,0.0055689467,-0.00064088637,0.4481803,-1.4673741,2.0058663,-2.1073902,-1.5706614,2.4230738,-0.017388651,0.04330838,-0.054521117,0.0049510268,5.4151456e-05,-0.016710011,-0.2681506,0.2681506,-9.5385,0.7866488,47.709274,-0.6752038,-2.134005,-3.11491,-0.33770302,0.08658503,-0.26998812,24.0625,24.3125,23.75,25.0625,24.9375,25.1875
0.054052245,-1.0019348,-2.4019053,-1.6806983,-0.042968523,0.04341479,-0.122598425,-0.3742873,-0.32887167,0.05986282,-3.0784478,0.6248155,-0.00039285177,-0.025275527,-0.0028116812,0.0013145204,-0.0013591961,0.0025010582,-2.1151189e-05,0.44809616,-1.4672778,2.005748,-2.1073658,-1.5706614,2.422989,-0.017714944,0.04473055,-0.05359328,0.006016846,3.3817032e-05,-0.017656643,-0.15322891,0.34476504,-9.519346,0.7709874,47.716442,-0.72534215,-2.0635297,-3.190084,-0.33877355,0.08732724,-0.26216096,24.0625,24.3125,23.75,25.0625,24.9375,25.1875
0.056052443,-1.2722137,-2.9159951,-1.5729722,-0.04974523,0.028141497,-0.103514105,-0.3743113,-0.32887644,0.059861377,-3.0783942,0.6248631,-0.00038849338,-0.02614448,-0.0027276822,0.0014154551,-0.0013068457,0.0024117937,-0.00070432125,0.44810772,-1.4672055,2.0056636,-2.1073296,-1.5706977,2.423037,-0.018653579,0.04603827,-0.055404816,0.006623146,2.2270386e-05,-0.017910985,-0.11492168,0.36391866,-9.5385,0.77545905,47.71286,-0.6893908,-1.9725065,-3.3523479,-0.3558959,0.08912839,-0.2725121,24.0625,24.3125,23.75,25.0625,24.9375,25.1875
0.058052626,-1.1939919,-3.198435,-1.5360186,-0.04881443,0.020522099,-0.10634501,-0.3743922,-0.32889435,0.059880894,-3.0784433,0.6248913,-0.00030908315,-0.027833397,-0.003522948,0.002530803,-0.0023815474,0.0046773376,-0.00012364835,0.4480598,-1.4671091,2.0055182,-2.1073534,-1.5706857,2.4230006,-0.01867717,0.047224995,-0.059321932,0.006846231,2.8109655e-06,-0.01851277,-0.095768064,0.34476504,-9.308657,0.8224646,47.704796,-0.72375596,-2.0349379,-3.161352,-0.34305745,0.07836901,-0.26762137,24.0625,24.3125,23.75,25.0625,24.9375,25.1875
0.060052615,-1.1413094,-2.738037,-1.5069159,-0.050228305,0.029381016,-0.104595646,-0.3744353,-0.3288959,0.059889883,-3.0784383,0.62477416,-0.00027488294,-0.028606096,-0.0036668745,0.0024778224,-0.002412441,0.004738687,0.0005928108,0.44804773,-1.4670368,2.00541,-2.1073177,-1.5707215,2.4229162,-0.019105365,0.04881597,-0.060945775,0.006809531,1.8353596e-07,-0.019656202,-0.076614454,0.4405331,-9.3661175,0.7665104,47.723602,-0.7390538,-1.9075718,-3.188724,-0.33301187,0.057048418,-0.27605385,24.0625,24.3125,23.75,25.0625,24.9375,25.1875
0.062052462,-1.3863423,-3.1456738,-1.3099313,-0.039074775,0.03407539,-0.10498242,-0.3745137,-0.32891655,0.059917264,-3.0784988,0.62478733,-0.00020919846,-0.029580869,-0.003449271,0.0023698101,-0.0021725814,0.0042369785,0.0003980028,0.4479992,-1.4669522,2.005254,-2.1073172,-1.5706977,2.4228683,-0.020392507,0.05064982,-0.0628662,0.0074524796,1.1983587e-08,-0.020747298,-0.05746084,0.5554548,-9.385271,0.7866488,47.703903,-0.7503884,-1.9799365,-3.204926,-0.327381,0.08202096,-0.27243856,24.0625,24.3125,23.75,25.0625,24.9375,25.1875
0.0640523,-1.1339239,-2.5860915,-1.3349111,-0.05338094,0.03842525,-0.110424146,-0.37455633,-0.32893315,0.059901062,-3.0784917,0.6248815,-0.00034148866,-0.030811256,-0.0035344274,0.002778361,-0.0023049754,0.004500387,0.00076400186,0.447951,-1.4668081,2.0051215,-2.107269,-1.5706376,2.4228797,-0.021345014,0.05219686,-0.06575073,0.008496297,7.8244256e-10,-0.022064164,-0.019153614,0.59376204,-9.32781,0.800085,47.70032,-0.6645385,-1.8637381,-3.150608,-0.34067786,0.06905028,-0.25224274,24.0625,24.3125,23.75,25.0625,24.9375,25.1875
0.066051915,-0.4279301,-2.0331275,-1.1367946,-0.06015037,0.053269196,-0.122252226,-0.37460768,-0.32892144,0.05988169,-3.0784411,0.62487,-0.0003243323,-0.031526364,-0.0038766256,0.0032102114,-0.0026710778,0.0052531804,0.0018750288,0.4479149,-1.466688,2.0050366,-2.1072814,-1.5706857,2.422843,-0.021348687,0.05289034,-0.06757758,0.008791325,5.1087905e-11,-0.02317777,-0.095768064,0.51714754,-9.212888,0.7463667,47.728977,-0.7028984,-1.8516763,-3.203376,-0.3153974,0.06059469,-0.24781865,24.0625,24.3125,23.75,25.0625,24.9375,25.1875
0.06805168,-1.0369993,-2.214003,-1.178013,-0.051252734,0.032945294,-0.104014516,-0.3746805,-0.32894406,0.059899896,-3.0784936,0.62486184,-0.00031619123,-0.032536086,-0.0041253343,0.0023134935,-0.0021420994,0.0041397614,0.0024477895,0.44786674,-1.4665788,2.0048692,-2.1072576,-1.5706495,2.4227831,-0.021794373,0.05694243,-0.06986678,0.00826182,3.335675e-12,-0.024194079,-0.095768064,0.49799395,-9.308657,0.76874626,47.7451,-0.7285489,-1.898341,-3.1408234,-0.32780254,0.060865,-0.26006067,24.0625,24.3125,23.75,25.0625,24.9375,25.1875
0.070052885,-0.762961,-2.4114783,-1.2110416,-0.042697597,0.040514532,-0.109785154,-0.37475732,-0.3289705,0.05993178,-3.0785513,0.62489176,-0.00024952576,-0.033624854,-0.00419473,0.002755894,-0.0024640856,0.004805645,0.0024236555,0.4478305,-1.4664946,2.0047004,-2.1072447,-1.5706257,2.4227583,-0.022645667,0.057915613,-0.07206729,0.008750001,2.1779574e-13,-0.02501993,-0.11492168,0.34476504,-9.251195,0.7642693,47.72808,-0.7057114,-1.9161947,-3.1423912,-0.31396282,0.053756006,-0.24624816,24.0625,24.3125,23.75,25.0625,24.9375,25.1875
0.07205196,-0.92771447,-2.1920269,-1.1156683,-0.038574476,0.032412868,-0.10208542,-0.37483463,-0.32896274,0.05993338,-3.0785255,0.6248091,-0.00014959651,-0.034435075,-0.0045269015,0.0034864193,-0.002990767,0.0058965106,0.0034682208,0.44779447,-1.4663749,2.0045679,-2.1072571,-1.5706977,2.4226742,-0.022752294,0.058142498,-0.074142806,0.009385276,1.4220506e-14,-0.026170056,-0.019153614,0.34476504,-9.212888,0.7911258,47.692257,-0.7320632,-1.821497,-3.1155844,-0.30890912,0.062016886,-0.22583151,24.0625,24.3125,23.75,25.0625,24.9375,25.1875
0.07405207,-0.80344534,-1.9994719,-1.021862,-0.033060867,0.039608553,-0.11537357,-0.37489954,-0.3289816,0.0599202,-3.0785139,0.6248637,-0.00024588362,-0.035149325,-0.004652781,0.0028531323,-0.0025980407,0.005066176,0.0044357227,0.44774643,-1.4661942,2.004388,-2.107209,-1.5706614,2.4226618,-0.023159103,0.060955133,-0.075728655,0.009077755,9.284974e-16,-0.027542919,-0.038307227,0.3256114,-9.212888,0.7620334,47.69763,-0.77217,-1.7711787,-3.2190857,-0.28543103,0.046316367,-0.21645457,24.0625,24.3125,23.75,25.0625,24.9375,25.1875
0.07605224,-0.822375,-1.6487609,-1.1762154,-0.033188045,0.04267959,-0.113446124,-0.3749896,-0.32899934,0.05996428,-3.0785813,0.62485844,-0.00011194925,-0.0359221,-0.0047259843,0.001529723,-0.0013289547,0.0024206887,0.0050336816,0.44769806,-1.4661325,2.0042193,-2.107209,-1.5706614,2.4226017,-0.023717852,0.06590021,-0.07826321,0.009601219,6.0624246e-17,-0.028697498,-0.05746084,0.22984336,-9.097966,0.7486078,47.681515,-0.7691155,-2.051031,-3.1880317,-0.26444888,0.042872295,-0.20463014,24.0625,24.3125,23.75,25.0625,24.9375,25.1875
0.078052185,-1.1668401,-2.1717675,-1.0317016,-0.017416786,0.032421336,-0.10560563,-0.37503982,-0.32898492,0.059935424,-3.078508,0.62478524,-0.0001973074,-0.036343426,-0.0045980914,0.0026991994,-0.0020038325,0.0038214885,0.005845992,0.4476499,-1.4659655,2.0040877,-2.107149,-1.5706977,2.4225173,-0.024332426,0.06396316,-0.07909873,0.010817606,3.9583297e-18,-0.03012457,-0.1340753,0.19153613,-9.174581,0.78217715,47.67614,-0.78441536,-1.8994999,-3.1761441,-0.29641652,0.03629137,-0.18689634,24.0625,24.3125,23.75,25.0625,24.9375,25.1875
0.08005181,-1.1050266,-1.4705693,-0.9871443,-0.01999317,0.035465896,-0.11083982,-0.37512127,-0.32899243,0.05994382,-3.0785422,0.62482953,-0.0002045805,-0.03662518,-0.004449302,0.000668164,-0.00023936859,0.00014075982,0.0072436687,0.44756576,-1.4658439,2.0039318,-2.1071365,-1.5706614,2.4224565,-0.024860382,0.06933239,-0.080359414,0.010791687,2.5845067e-19,-0.032048613,-0.19153613,0.21068975,-9.251195,0.8224646,47.71554,-0.7365389,-1.9324563,-3.198142,-0.2769666,0.038931012,-0.17469105,24.0625,24.3125,23.75,25.0625,24.9375,25.1875
0.08205226,-0.8019859,-1.4449418,-0.87513113,-0.015276034,0.04034312,-0.11266609,-0.37520203,-0.3290076,0.05994913,-3.0785341,0.6247889,-0.00011353715,-0.037689272,-0.004265361,0.0006455189,0.00022913935,0.00036641615,0.0073858756,0.44755343,-1.4656996,2.0037634,-2.107149,-1.5707096,2.42242,-0.025811264,0.07103176,-0.08222722,0.010959593,-0.0005227001,-0.033139504,-0.15322891,0.17238252,-9.174581,0.779936,47.70659,-0.7703012,-1.9894878,-3.289498,-0.27235213,0.02763016,-0.14554937,24.0625,24.3125,23.75,25.0625,24.9375,25.1875
0.08405203,-1.2113057,-1.3851738,-0.99788934,-0.01205255,0.03584109,-0.10214951,-0.3752544,-0.32905456,0.059944842,-3.0786204,0.6247107,-0.00022053416,-0.039066512,-0.004595322,0.0010566796,-0.00036713752,0.0017834634,0.006900738,0.44752926,-1.4655433,2.0035956,-2.107125,-1.5706137,2.422336,-0.026379403,0.07248735,-0.08465631,0.010401025,-0.0006052283,-0.033220556,-0.22984336,0.05746084,-9.155427,0.8291774,47.71554,-0.7785738,-1.9344771,-3.2504463,-0.2747238,0.018532515,-0.1394139,24.0625,24.3125,23.75,25.0625,24.9375,25.1875
0.0860522,-0.9471665,-1.3701506,-1.224921,-0.0076768487,0.04360924,-0.103094645,-0.3753709,-0.3290487,0.05997504,-3.078615,0.6247667,-8.55374e-05,-0.039615523,-0.0045098253,0.0006300726,-5.494938e-05,0.0011039982,0.0066312826,0.447445,-1.465423,2.003391,-2.1071126,-1.5706614,2.4222877,-0.027034122,0.074317835,-0.08569251,0.01035267,-0.00059254706,-0.033604987,-0.21068975,0.095768064,-9.289502,0.7911258,47.71465,-0.7569071,-1.997595,-3.3629947,-0.2564483,0.02574744,-0.13524951,24.0625,24.3125,23.75,25.0625,24.9375,25.1875
0.08805203,-1.3119888,-1.2108495,-1.1909562,-0.016433649,0.041082893,-0.10755259,-0.37542823,-0.32905072,0.059955522,-3.0786023,0.6246865,-0.00014488536,-0.0411589,-0.004959067,0.0011057317,-0.0004419443,0.0017629687,0.008184942,0.4473968,-1.4652666,2.003258,-2.1070888,-1.5706614,2.4221911,-0.027621387,0.07658659,-0.08946285,0.011092189,-0.0005370778,-0.035743628,-0.15322891,0.05746084,-9.2703495,0.7351769,47.661808,-0.77507585,-1.9216689,-3.2032638,-0.26276106,0.017448904,-0.106441915,24.0625,24.3125,23.75,25.0625,24.9375,25.1875
0.090051815,-1.4762974,-1.3266011,-1.2183659,-0.018518,0.047918413,-0.106965914,-0.3755001,-0.32906836,0.059955914,-3.0786104,0.6246306,-0.00021436186,-0.04065023,-0.004356251,8.758364e-05,0.0005915413,-0.0003368542,0.0076642074,0.44734868,-1.4650984,2.0030553,-2.1070173,-1.5706376,2.4221072,-0.02826793,0.07752019,-0.08820527,0.011242177,-0.00055880676,-0.03587004,-0.2873042,0.076614454,-9.32781,0.7709874,47.694946,-0.7746514,-1.9299691,-3.4754138,-0.2672882,0.015673857,-0.09136343,24.0625,24.3125,23.75,25.0625,24.9375,25.1875
0.092051625,-1.5462741,-1.6095273,-1.2551666,-0.025325902,0.05836042,-0.105888866,-0.37559524,-0.32908434,0.059971884,-3.0786119,0.6246517,-0.00017259766,-0.042505693,-0.005024245,0.0010023366,-0.00038341078,0.0015941962,0.005463716,0.4473005,-1.4649422,2.0028384,-2.106981,-1.5706495,2.4220722,-0.028711786,0.079260305,-0.09226712,0.011400801,-0.0005220161,-0.034110885,-0.36391866,0.05746084,-9.289502,0.779936,47.68062,-0.7557545,-1.886445,-3.3650146,-0.25396207,0.0065533863,-0.08693342,24.0625,24.3125,23.75,25.0625,24.9375,25.1875
0.09405241,-1.3421999,-1.8598987,-1.1927134,-0.030981952,0.07092284,-0.1080914,-0.3756962,-0.3291052,0.059989814,-3.0786812,0.62460905,-8.1389364e-05,-0.042186834,-0.00435831,-0.00030415365,0.0010263424,-0.0013059758,0.0034191734,0.44724017,-1.4648099,2.0026596,-2.1070168,-1.5706376,2.4219766,-0.029652879,0.081331536,-0.091700986,0.011988626,-0.00053324597,-0.03300765,-0.38307226,0.19153613,-9.385271,0.78217715,47.694946,-0.8012471,-1.8744471,-3.4076297,-0.27417064,0.0015211693,-0.11821815,24.0625,24.3125,23.75,25.0625,24.9375,25.1875
0.09605245,-1.3095938,-2.2908287,-1.4403063,-0.028403116,0.073777966,-0.10549478,-0.37576392,-0.32909718,0.059956256,-3.0786097,0.6246128,-0.00016411523,-0.043564957,-0.00467543,0.00030277233,0.00031369025,0.00010862432,0.003936081,0.44717997,-1.4646058,2.0025032,-2.1069806,-1.5706614,2.421928,-0.030311737,0.08245912,-0.09433286,0.0119081875,-0.0005113088,-0.034181695,-0.38307226,0.22984336,-9.423578,0.8157518,47.709274,-0.80639815,-2.032278,-3.494073,-0.24989286,0.00069421966,-0.102744564,24.0625,24.3125,23.75,25.0625,24.9375,25.1875
0.098051615,-1.9061434,-2.5602612,-1.5599939,-0.030050421,0.059414297,-0.09488549,-0.375849,-0.32909507,0.059967525,-3.0785868,0.6245701,-0.00010382242,-0.044642758,-0.0045259674,0.0006384947,-4.527037e-05,0.0008910199,0.0029432292,0.4471315,-1.4644735,2.0023234,-2.1069448,-1.5707096,2.421856,-0.03154441,0.083153605,-0.09587486,0.011893381,-0.0005288947,-0.034420494,-0.30645782,0.19153613,-9.404425,0.83813137,47.672558,-0.731971,-1.8052754,-3.5439389,-0.25744158,0.008056641,-0.08855134,24.0625,24.3125,23.75,25.0625,24.9375,25.1875
0.10005225,-1.6676564,-2.3616986,-1.5085543,-0.028400587,0.05766465,-0.09588692,-0.37596703,-0.3291029,0.059976242,-3.078598,0.6246487,-0.00011160026,-0.04520279,-0.0045343917,-0.0010562725,0.0014587747,-0.002266285,0.0032065432,0.44702345,-1.4642802,2.002082,-2.106909,-1.5706857,2.4217956,-0.03202561,0.08844827,-0.09789837,0.012120113,-0.0005237462,-0.03516309,-0.2681506,0.2681506,-9.404425,0.81351066,47.686886,-0.7134874,-1.8868487,-3.5751328,-0.261349,-0.02510861,-0.09268139,24.0625,24.3125,23.75,25.0625,24.9375,25.1875
0.102052115,-0.9830761,-2.1300879,-1.5216943,-0.03523283,0.06613535,-0.102866106,-0.3760503,-0.32910028,0.05996339,-3.078578,0.6246634,-0.000115926865,-0.04647567,-0.0049960236,0.00055139145,-0.0001528015,0.0011598109,0.0033079695,0.4469513,-1.4641131,2.0019271,-2.106909,-1.5706977,2.4217353,-0.03227667,0.08700137,-0.09993002,0.011812182,-0.0005570271,-0.035514496,-0.2681506,0.24899697,-9.500193,0.83813137,47.701214,-0.75289273,-1.7886808,-3.4952211,-0.25248247,-0.017628372,-0.07511056,24.0625,24.3125,23.75,25.0625,24.9375,25.1875
0.10405193,-1.4727186,-2.179887,-1.565357,-0.035846192,0.04638937,-0.09762859,-0.3761353,-0.32910907,0.059955373,-3.0785532,0.6246796,-0.00016095291,-0.04790118,-0.005163452,0.00063561037,-0.0001557977,0.001266207,0.00059985224,0.44689092,-1.4639205,2.001722,-2.1068609,-1.5706977,2.4216883,-0.0332075,0.089569315,-0.10308399,0.012301445,-0.00060663844,-0.033735014,-0.24899697,0.2681506,-9.404425,0.82694155,47.713753,-0.6963425,-1.7765248,-3.6194696,-0.25499293,-0.0148615455,-0.106240936,24.0625,24.3125,23.75,25.0625,24.9375,25.1875
0.106052406,-1.372751,-2.1933315,-1.7210554,-0.042384017,0.044441067,-0.09961524,-0.37623763,-0.3291047,0.059966464,-3.0785303,0.6246572,-0.00015412093,-0.04890559,-0.0052033695,0.00029509963,0.00021221474,0.0012210452,-0.0017549443,0.4468067,-1.4637519,2.0014942,-2.1067889,-1.570722,2.4215932,-0.033813372,0.09200774,-0.10491594,0.0118953595,-0.00092368183,-0.031983986,-0.15322891,0.36391866,-9.481039,0.75755644,47.729877,-0.6732113,-1.7862058,-3.4590995,-0.24621832,-0.028552014,-0.13209406,24.0625,24.3125,23.75,25.0625,24.9375,25.1875
0.10805231,-1.2603421,-2.3130744,-1.6609302,-0.051643807,0.037722837,-0.100800835,-0.3763446,-0.32914346,0.05998789,-3.0785842,0.6246863,-0.00012678084,-0.0511575,-0.0058059553,0.0016300653,-0.0010292649,0.0041149957,-0.0013772266,0.44675857,-1.4635719,2.001241,-2.106765,-1.5706862,2.4215565,-0.034612387,0.093235075,-0.1093613,0.011968514,-0.0010623022,-0.033157784,-0.22984336,0.38307226,-9.481039,0.80679786,47.71017,-0.71575034,-1.794261,-3.396945,-0.22998603,-0.034235805,-0.12681504,24.0625,24.3125,23.75,25.0625,24.9375,25.1875
0.11005226,-1.5555679,-2.5770712,-1.7111689,-0.060807474,0.032878235,-0.10050014,-0.3764324,-0.3291623,0.059976157,-3.0785973,0.6246112,-0.00010154711,-0.052066192,-0.006063617,0.0017445617,-0.001294318,0.004646212,-0.0005512403,0.44672248,-1.4633796,2.0010612,-2.1067889,-1.5706981,2.421472,-0.03494482,0.09469699,-0.11120656,0.011757627,-0.0010568843,-0.034314893,-0.21068975,0.34476504,-9.519346,0.8023209,47.696735,-0.752383,-1.7821221,-3.4339375,-0.23343858,-0.02909424,-0.13142982,24.0625,24.3125,23.75,25.0625,24.9375,25.1875
0.11205206,-1.4446154,-3.189903,-1.7774737,-0.057908084,0.033598162,-0.09683619,-0.3765439,-0.32916012,0.05998198,-3.078573,0.6246455,-0.00010648346,-0.05348622,-0.0058108005,0.0017497232,-0.0011675159,0.004775937,-0.0018798091,0.44662586,-1.4631872,2.0008218,-2.1067293,-1.5707101,2.4214,-0.036563877,0.09677114,-0.1135795,0.011994273,-0.0012318406,-0.034603458,-0.17238252,0.40222588,-9.615114,0.84708,47.701214,-0.6386438,-1.7305554,-3.4374638,-0.21503285,-0.047567323,-0.14890525,24.0625,24.3125,23.75,25.0625,24.9375,25.1875
0.11405202,-1.2783556,-3.030911,-1.7019768,-0.06828744,0.039689977,-0.09704665,-0.37665445,-0.32917258,0.06000166,-3.0785973,0.624651,-8.689753e-05,-0.0546806,-0.00589955,0.0025647723,-0.0016650077,0.005727548,-0.003069313,0.44654143,-1.4630196,2.0005805,-2.1066806,-1.5706981,2.4213161,-0.03748221,0.0972621,-0.11625841,0.013109347,-0.0011959248,-0.03433108,-0.095768064,0.45968673,-9.576807,0.79560274,47.64837,-0.6191517,-1.6752577,-3.364304,-0.2257626,-0.02788725,-0.14150913,24.0625,24.3125,23.75,25.0625,24.9375,25.1875
0.11605209,-1.7578334,-3.2213593,-1.898684,-0.059236944,0.027942827,-0.09137237,-0.3767595,-0.3291869,0.05996484,-3.0785744,0.62460774,-0.0001216749,-0.05569804,-0.0061401036,0.001993093,-0.001475463,0.005168222,-0.0037413551,0.4464814,-1.4627429,2.000365,-2.1067054,-1.5707101,2.4212322,-0.03798032,0.100476414,-0.11841837,0.012640679,-0.0011319058,-0.034155373,-0.15322891,0.4213795,-9.557653,0.7329411,47.701214,-0.679191,-1.7876303,-3.2944796,-0.21248475,-0.038298093,-0.15239868,24.0625,24.3125,23.75,25.0625,24.9375,25.1875
0.11805205,-1.3037864,-2.3793814,-1.6149081,-0.060454823,0.04293735,-0.10610794,-0.37688002,-0.32920024,0.05999009,-3.0785806,0.6247233,-6.264975e-05,-0.056320287,-0.0070210933,0.0024950427,-0.001979591,0.006088021,-0.0027532117,0.44639775,-1.4625748,2.0001132,-2.1066692,-1.5707101,2.42122,-0.03691563,0.10160256,-0.120897405,0.012946006,-0.0010767815,-0.034077466,-0.05746084,0.47884035,-9.615114,0.80456203,47.709274,-0.7610382,-1.6580994,-3.3717103,-0.19910964,-0.047860514,-0.19722894,24.0625,24.3125,23.75,25.0625,24.9375,25.1875
0.12005209,-1.2815784,-2.9213727,-1.7706146,-0.03948484,0.045356713,-0.10090756,-0.3769976,-0.32922667,0.06000972,-3.078618,0.6246353,6.811645e-06,-0.057453804,-0.006812228,0.0012096285,-0.0012648321,0.0043599764,-0.004018446,0.4463492,-1.4623817,1.9998497,-2.1066453,-1.570722,2.421112,-0.038379803,0.10603519,-0.12269171,0.012174151,-0.0009792716,-0.03427469,-0.05746084,0.38307226,-9.615114,0.800085,47.701214,-0.76356137,-1.6941755,-3.3858013,-0.18662,-0.06498791,-0.1982158,24.0625,24.3125,23.75,25.0625,24.9375,25.1875
0.12205189,-1.2217134,-2.35213,-1.5876518,-0.050783712,0.036966823,-0.10146686,-0.37712482,-0.32922584,0.060018104,-3.0786128,0.6246533,3.342375e-05,-0.058645647,-0.0069205635,0.00250493,-0.0023066741,0.0063785063,-0.0038845208,0.44624105,-1.4621783,1.9995974,-2.106609,-1.5707339,2.421016,-0.039273143,0.105204724,-0.12494782,0.01298929,-0.00091277994,-0.035301164,-0.17238252,0.36391866,-9.634268,0.900793,47.688675,-0.6895859,-1.7774179,-3.3291948,-0.17426834,-0.079162106,-0.21125323,24.0625,24.3125,23.75,25.0625,24.9375,25.1875
0.124051645,-0.96779007,-2.251613,-1.5450008,-0.049650572,0.040205702,-0.11337976,-0.3772345,-0.32925266,0.060018416,-3.0786192,0.62469375,6.237996e-05,-0.059304263,-0.0063812556,0.0011479512,-0.0010676613,0.0038149252,-0.0051067346,0.44619238,-1.4619615,1.9993571,-2.106609,-1.5707339,2.420992,-0.04085202,0.10900282,-0.12610596,0.013196561,-0.0009251072,-0.03565666,-0.15322891,0.30645782,-9.519346,0.83813137,47.694946,-0.6390954,-1.7105893,-3.384469,-0.17504478,-0.06800839,-0.20659563,24.0625,24.3125,23.75,25.0625,24.9375,25.1875
0.1260522,-1.1042256,-2.3299773,-1.5471832,-0.043213747,0.041173935,-0.102262005,-0.3773739,-0.3292705,0.060042474,-3.0786636,0.6247221,0.00010057852,-0.061716475,-0.0074305767,0.0031950527,-0.0029157456,0.007655262,-0.005220052,0.4460843,-1.4617577,1.9990686,-2.1065733,-1.5707101,2.420896,-0.041040488,0.109564565,-0.13158663,0.013854375,-0.00092274306,-0.03572881,-0.19153613,0.30645782,-9.500193,0.8023209,47.701214,-0.62456334,-1.7716804,-3.2652373,-0.156106,-0.089968845,-0.242775,24.0625,24.3125,23.75,25.0625,24.9375,25.1875
0.12805213,-0.74723494,-1.4371601,-1.3218883,-0.049808905,0.058099154,-0.11203453,-0.37748167,-0.3292885,0.06003217,-3.0786471,0.62477416,5.645083e-05,-0.060897727,-0.0074250754,0.0014700796,-0.0011657579,0.0047225337,-0.0027394623,0.44601285,-1.4615169,1.9988178,-2.1065376,-1.5706981,2.4208593,-0.040090352,0.11247801,-0.13081817,0.013574466,-0.0012359387,-0.03725872,-0.11492168,0.28730422,-9.423578,0.800085,47.699425,-0.68590236,-1.7435497,-3.4384437,-0.14836162,-0.0846678,-0.2621048,24.0625,24.3125,23.75,25.0625,24.9375,25.1875
0.13005245,-1.3454604,-1.5054017,-1.1450588,-0.029365653,0.04981249,-0.10665668,-0.3776426,-0.3293231,0.060063317,-3.0787194,0.6247683,0.00023082783,-0.06200647,-0.008061393,0.0019634918,-0.0015756696,0.005575487,0.00014869038,0.4459408,-1.4613007,1.9985183,-2.1065848,-1.5707101,2.4207747,-0.03988004,0.11415659,-0.13393986,0.014070246,-0.001234196,-0.039934833,-0.15322891,0.17238252,-9.404425,0.800085,47.71465,-0.7606721,-1.7362531,-3.211715,-0.14065969,-0.099778056,-0.24469078,24.0625,24.3125,23.75,25.0625,24.9375,25.1875
0.13205215,-1.449942,-1.3083411,-1.2121837,-0.022181462,0.04620982,-0.105729885,-0.37775192,-0.32933682,0.060064152,-3.078739,0.6246382,0.00021540264,-0.0633238,-0.0075632716,0.0014752148,-0.0011888265,0.004661397,-0.0015963243,0.4458681,-1.4610842,1.9982661,-2.106537,-1.5707101,2.4206185,-0.042004094,0.11690854,-0.13594459,0.014314291,-0.0011928038,-0.040312435,-0.17238252,0.11492168,-9.212888,0.78888994,47.69763,-0.71005905,-1.726421,-3.3668795,-0.12040294,-0.0936774,-0.25693184,24.0625,24.3125,23.75,25.0625,24.9375,25.1875
0.13405202,-1.7035573,-1.7371751,-1.1134105,-0.014949047,0.034252442,-0.099361226,-0.3778717,-0.329343,0.060067095,-3.0786982,0.62476504,0.00018364965,-0.06401564,-0.0077653625,0.0014927592,-0.00088801567,0.004447038,-0.0029484914,0.44577196,-1.4608561,1.9979905,-2.1064646,-1.5707101,2.4206069,-0.042106252,0.11861832,-0.1380705,0.015054341,-0.001375219,-0.039060887,-0.2681506,0.21068975,-9.308657,0.779936,47.677036,-0.7663831,-1.7827165,-3.3186831,-0.12750506,-0.08974825,-0.2943419,24.0625,24.3125,23.75,25.0625,24.9375,25.1875
0.13605198,-1.214459,-1.4507798,-1.1922578,-0.020424051,0.03576603,-0.10172294,-0.37802422,-0.32935214,0.06008692,-3.0787227,0.6248269,0.00025793107,-0.06514345,-0.008350775,0.0007246474,-0.00030208725,0.0031065496,-0.0023331535,0.4456521,-1.4606388,1.997702,-2.1064532,-1.5707101,2.4205227,-0.042033598,0.12333237,-0.14161886,0.015350405,-0.0013301056,-0.039601047,-0.19153613,0.21068975,-9.270349,0.84484416,47.678825,-0.72745025,-1.919656,-3.1232402,-0.11021465,-0.0973986,-0.31669316,24.0625,24.3125,23.75,25.0625,24.9375,25.1875
0.13805185,-1.2660301,-1.3877589,-1.0883108,-0.030439623,0.039228242,-0.10442584,-0.3781354,-0.3293799,0.06007641,-3.0787237,0.6247501,0.00022688972,-0.065998204,-0.008297299,0.0015255795,-0.0005953286,0.004278035,-0.00206773,0.4456039,-1.4603755,1.9974264,-2.1064165,-1.5707101,2.4204266,-0.042720947,0.123020984,-0.14333187,0.016191987,-0.0015729483,-0.0405528,-0.21068975,0.21068975,-9.174581,0.80679786,47.672558,-0.7877623,-1.8235888,-3.360477,-0.109319754,-0.108506724,-0.3186062,24.0625,24.3125,23.75,25.0625,24.9375,25.1875
0.1400517,-1.3231026,-1.6014841,-1.0281807,-0.03002873,0.044189572,-0.10460005,-0.3782775,-0.3293926,0.060087085,-3.0787249,0.62476784,0.0002664102,-0.06559448,-0.008258377,9.8549746e-05,0.0010622514,0.0013728306,-7.813186e-05,0.4455081,-1.4601347,1.9971274,-2.1063812,-1.570722,2.420342,-0.042248685,0.12615715,-0.14369097,0.016750831,-0.0018149245,-0.042069342,-0.28730422,0.2681506,-9.251195,0.8247004,47.699425,-0.8594519,-1.9833606,-3.392552,-0.08980054,-0.11736446,-0.32163203,24.0625,24.3125,23.75,25.0625,24.9375,25.1875
0.14205176,-1.6802748,-1.9234053,-1.0402743,-0.02907914,0.045572586,-0.10405101,-0.3784204,-0.32942027,0.060107753,-3.0787547,0.62477416,0.00029856118,-0.066273935,-0.0078511955,-0.00014571831,0.0025339439,0.0003912314,-0.00018133191,0.4454238,-1.4598948,1.9968032,-2.1063316,-1.5707105,2.420258,-0.04298892,0.12811683,-0.14568529,0.018308876,-0.0027192424,-0.042704225,-0.30645782,0.28730422,-9.232041,0.7418897,47.684196,-0.81429046,-1.7726655,-3.4372625,-0.09888117,-0.11683257,-0.3376589,24.0625,24.3125,23.75,25.0625,24.9375,25.1875
0.14405167,-2.2151067,-2.1371233,-1.0049436,-0.030063076,0.04499827,-0.09977088,-0.37855527,-0.32942495,0.06010342,-3.078735,0.6247714,0.0003195743,-0.06703947,-0.007990151,-0.00034236055,0.0034778598,0.00031740958,-0.0022331602,0.44532794,-1.4596423,1.996528,-2.1063077,-1.5707349,2.4201632,-0.04284226,0.13035585,-0.14783287,0.018692836,-0.0035433634,-0.04050318,-0.34476504,0.30645782,-9.155427,0.83365434,47.690468,-0.8654812,-1.6833444,-3.3866138,-0.10027672,-0.104289174,-0.376151,24.0625,24.3125,23.75,25.0625,24.9375,25.1875
0.14605188,-1.6399492,-1.8028713,-0.84948653,-0.037597567,0.05414622,-0.10505878,-0.37868437,-0.32944408,0.060092915,-3.0787148,0.624785,0.0003148744,-0.06779437,-0.008370961,-0.0011848403,0.004900902,-0.0007656486,-0.0020025226,0.44525614,-1.4593654,1.99624,-2.106284,-1.5707473,2.4201026,-0.042239793,0.13444759,-0.15051134,0.018872254,-0.0043671546,-0.040128093,-0.22984336,0.2681506,-9.097966,0.8560339,47.701214,-0.9321324,-1.7438045,-3.415347,-0.088461,-0.10374174,-0.43365508,24.0625,24.3125,23.75,25.0625,24.9375,25.1875
0.14805254,-1.5988994,-2.3772998,-0.882952,-0.026228117,0.04738332,-0.09397523,-0.37882677,-0.32948443,0.06011629,-3.078768,0.6247563,0.00037892736,-0.06967385,-0.008121817,0.00023200567,0.004915682,0.0019942033,-0.0011410746,0.4451957,-1.459126,1.9959158,-2.1062596,-1.5707353,2.4200177,-0.04355804,0.13423777,-0.1537814,0.01987182,-0.0055711144,-0.042304944,-0.19153613,0.28730422,-9.097966,0.86498255,47.66987,-0.9857358,-1.7198842,-3.3953338,-0.07467896,-0.09853043,-0.43621668,24.0625,24.3125,23.75,25.0625,24.9375,25.1875
0.15005234,-1.5224339,-1.9252958,-0.6651728,-0.03248265,0.031808943,-0.09629677,-0.37899458,-0.3295046,0.060130026,-3.078774,0.6247376,0.0004447662,-0.070340596,-0.007334148,-0.0005125471,0.006971683,0.0010531734,-0.00026658308,0.44509932,-1.4588379,1.9955567,-2.1062233,-1.5707597,2.4199092,-0.044624593,0.13649425,-0.15470615,0.020277925,-0.007020928,-0.044243615,-0.22984336,0.28730422,-8.944737,0.8157518,47.68062,-0.9008031,-1.6661265,-3.4261134,-0.05949399,-0.060821146,-0.44401807,24.0625,24.3125,23.75,25.0625,24.9375,25.1875
0.15205218,-1.2684315,-1.893564,-1.0299413,-0.021888897,0.025927648,-0.09118658,-0.37911072,-0.3295131,0.06011245,-3.0787354,0.624824,0.0003731463,-0.07029874,-0.0076300115,-0.0009610469,0.009689111,0.0008660728,0.0039754203,0.44500414,-1.4585735,1.995293,-2.1061752,-1.5707492,2.419873,-0.04242561,0.1387148,-0.15635046,0.021048296,-0.009397035,-0.046282098,-0.24899697,0.36391866,-9.021352,0.8985519,47.670765,-1.0902591,-1.7271678,-3.4864857,-0.04586545,-0.046674784,-0.45620096,24.0625,24.3125,23.75,25.0625,24.9375,25.1875
0.15405168,-1.0823367,-1.5798471,-0.9410797,-0.028328655,0.033036254,-0.103250355,-0.37926668,-0.32952535,0.060106207,-3.078726,0.62482136,0.000384126,-0.07254284,-0.007168044,-0.00044446829,0.0113915205,0.002533458,0.0040606065,0.44489565,-1.4582734,1.9949692,-2.1061513,-1.5707616,2.4197643,-0.043751378,0.14122322,-0.16056888,0.021992188,-0.011658367,-0.04768754,-0.17238252,0.36391866,-9.059659,0.88960326,47.711063,-1.0857208,-1.572324,-3.3947682,-0.06648571,0.014138715,-0.46497524,24.0625,24.3125,23.75,25.0625,24.9375,25.1875
0.1560525,-1.376736,-1.8500639,-0.89204997,-0.030904973,0.028145278,-0.09884834,-0.3793944,-0.32953945,0.060101643,-3.078702,0.6247382,0.00036094972,-0.07278487,-0.007250176,0.0004980338,0.0102345655,0.003843221,0.00584935,0.4448236,-1.4579984,1.9946584,-2.1060793,-1.5707854,2.4196436,-0.04411389,0.13943323,-0.16087236,0.022401303,-0.0111790225,-0.049839336,-0.05746084,0.4213795,-9.136273,0.9097417,47.71554,-1.0813756,-1.605886,-3.5202193,-0.059928015,0.013646955,-0.4528185,24.0625,24.3125,23.75,25.0625,24.9375,25.1875
0.15805233,-1.0274031,-1.9888326,-1.1206783,-0.03151533,0.02331507,-0.1048695,-0.3795492,-0.3295579,0.060104627,-3.0786924,0.6247739,0.00038329893,-0.073725104,-0.007605587,-0.00017850909,0.008942307,0.0011158662,0.0070049036,0.44472688,-1.4577094,1.9943227,-2.1060426,-1.5707964,2.4195707,-0.04583189,0.1431449,-0.16371378,0.0234264,-0.008842131,-0.05271433,-0.05746084,0.24899697,-9.11712,0.842603,47.705692,-1.1262352,-1.6337218,-3.4331813,-0.05804591,-0.010349803,-0.4486373,24.0625,24.3125,23.75,25.0625,24.9375,25.1875
0.1600522,-1.3109632,-2.1652942,-1.1889389,-0.042029493,0.011826138,-0.09886078,-0.3796937,-0.32955855,0.060083576,-3.078629,0.6247213,0.00035366425,-0.07483983,-0.00846611,0.0005828208,0.005718935,0.0012685067,0.007818979,0.44463053,-1.457386,1.9939984,-2.105983,-1.5708436,2.4194498,-0.04709834,0.14390501,-0.16644442,0.023858493,-0.0060059302,-0.054796897,-0.076614454,0.22984336,-9.136273,0.8717007,47.709274,-1.091091,-1.5618612,-3.4086325,-0.04804337,-0.016623082,-0.44346341,24.0625,24.3125,23.75,25.0625,24.9375,25.1875
0.16205211,-0.608646,-2.2209382,-1.3148109,-0.040064763,0.010406921,-0.09699525,-0.37984568,-0.32958904,0.060098626,-3.078678,0.62469006,0.0003744958,-0.07515165,-0.009942762,0.00084856834,0.003758314,0.000891639,0.0131472675,0.44453493,-1.4571218,1.9936627,-2.1059473,-1.5708188,2.4193287,-0.045895062,0.14563869,-0.16911,0.024280189,-0.0040763393,-0.058923192,-0.1340753,0.28730422,-9.212888,0.8493211,47.71465,-1.1541176,-1.5162258,-3.362402,-0.049125724,-0.026851023,-0.42357013,24.0625,24.3125,23.75,25.0625,24.9375,25.1875
0.164052,-0.7720556,-2.2036042,-1.535489,-0.03091203,0.0077659083,-0.09607031,-0.38001302,-0.3295917,0.06009262,-3.0786438,0.62464285,0.00037699816,-0.07549275,-0.009473928,0.00012710875,0.0037963935,-0.0011026266,0.015294577,0.44441435,-1.456798,1.9933032,-2.1058872,-1.5708545,2.4191833,-0.04759026,0.1473745,-0.16954747,0.024792045,-0.0032544232,-0.06276647,-0.038307227,0.28730422,-9.308657,0.7978386,47.679718,-1.1600555,-1.4942037,-3.451763,-0.056834266,-0.054699194,-0.37653697,24.0625,24.3125,23.75,25.0625,24.9375,25.1875
0.166052,-0.7190352,-1.7268878,-1.6647276,-0.030350214,0.013701141,-0.106109366,-0.38013378,-0.32960644,0.060056683,-3.0786173,0.6245017,0.00029391545,-0.076622896,-0.009540573,-0.001080198,0.004491891,-0.003566987,0.017096452,0.44434193,-1.4564724,1.9930156,-2.1058505,-1.5708665,2.4190264,-0.048736937,0.1524154,-0.17253384,0.02525811,-0.0028332965,-0.06571312,0.019153614,0.28730422,-9.404425,0.86945957,47.729877,-1.0990167,-1.6904745,-3.3841538,-0.0562402,-0.061643433,-0.33676612,24.0625,24.3125,23.75,25.0625,24.9375,25.1875
0.16805209,-1.4928418,-2.2155058,-1.6383768,-0.02799742,0.012437512,-0.106262706,-0.38029832,-0.3296401,0.060086485,-3.0786684,0.6244718,0.0002908745,-0.0779155,-0.009874656,-0.00026841476,0.0037612887,-0.0021686933,0.019128304,0.44423383,-1.456197,1.9926199,-2.105755,-1.5708307,2.4188933,-0.049273014,0.15315391,-0.17537189,0.025782235,-0.0027783148,-0.06827969,0.076614454,0.30645782,-9.481039,0.79560274,47.694946,-1.0845625,-1.4750798,-3.437128,-0.050580885,-0.061851166,-0.2902385,24.0625,24.3125,23.75,25.0625,24.9375,25.1875
0.17005183,-1.1333822,-2.1564417,-1.680265,-0.04023771,0.03446914,-0.10257381,-0.38044083,-0.3296351,0.06007541,-3.0786288,0.624424,0.00025095203,-0.07847041,-0.0095292935,-0.0009466785,0.00466939,-0.0038101883,0.021027412,0.44411346,-1.4559088,1.9923085,-2.1056826,-1.5708545,2.4187484,-0.05030044,0.15561074,-0.1767775,0.02660106,-0.0028981112,-0.07120503,-0.038307227,0.28730422,-9.576807,0.83365434,47.69763,-1.0871482,-1.6732016,-3.4412289,-0.05515512,-0.06620115,-0.26339847,24.0625,24.3125,23.75,25.0625,24.9375,25.1875
0.17205174,-1.5616802,-2.246389,-1.7314392,-0.051872764,0.032609396,-0.10148822,-0.38057497,-0.32967794,0.06006375,-3.078664,0.6243349,0.00015830058,-0.079288535,-0.009478784,-0.0019086734,0.005735333,-0.0059033707,0.021630187,0.44404125,-1.4555838,1.9919604,-2.1056225,-1.5708064,2.4186163,-0.051053554,0.15960503,-0.179252,0.027432559,-0.0029680186,-0.07255898,0.0,0.3256114,-9.615114,0.84484416,47.71017,-1.0895118,-1.6579996,-3.436356,-0.062152088,-0.0688373,-0.21649349,24.0625,24.3125,23.75,25.0625,24.9375,25.1875
0.17405276,-1.4828438,-2.6524525,-1.8989884,-0.06186988,0.044903707,-0.102183655,-0.38075334,-0.32968774,0.060088024,-3.0786402,0.62433064,0.00023206192,-0.0801718,-0.009252276,-0.0026955488,0.0065227426,-0.007336473,0.021176212,0.4439328,-1.4552953,1.9915651,-2.1055386,-1.5708545,2.4185085,-0.05216332,0.16280942,-0.18112338,0.027728336,-0.0030661444,-0.07321329,0.0,0.22984336,-9.710882,0.8873621,47.687782,-1.092138,-1.8641505,-3.4837956,-0.06728567,-0.054465115,-0.1860349,24.0625,24.3125,23.75,25.0625,24.9375,25.1875
0.17605166,-1.2760316,-2.5051415,-1.769693,-0.060254067,0.050227728,-0.11018735,-0.38091344,-0.32972774,0.060086872,-3.0786843,0.6242043,0.00020683662,-0.08089536,-0.009467122,-0.0027837658,0.006884787,-0.007266009,0.020176277,0.4438489,-1.4549593,1.9911832,-2.105491,-1.5708312,2.4183404,-0.05213794,0.16462055,-0.18303132,0.02792012,-0.0034279146,-0.0721862,-0.21068975,0.2681506,-9.576807,0.8403672,47.698532,-1.106972,-1.7953248,-3.4730802,-0.07010657,-0.06636789,-0.17433162,24.0625,24.3125,23.75,25.0625,24.9375,25.1875
0.1780525,-1.8033351,-2.3749504,-1.6504446,-0.05153585,0.036855526,-0.097905524,-0.38106066,-0.3297292,0.060043946,-3.0786276,0.6241552,9.968462e-05,-0.08310655,-0.0098852,-0.0017841957,0.0060495473,-0.004587833,0.018070692,0.44372854,-1.4545875,1.990857,-2.1054428,-1.5708431,2.418197,-0.05301989,0.16621156,-0.18707402,0.02759508,-0.003840465,-0.07095907,-0.30645782,0.2681506,-9.615114,0.87617236,47.691364,-1.0990807,-1.8096732,-3.4165492,-0.06721951,-0.08391341,-0.1700823,24.0625,24.3125,23.75,25.0625,24.9375,25.1875
0.18005231,-1.4795346,-1.7964739,-1.6965522,-0.045871522,0.054292053,-0.11353592,-0.38126418,-0.32975763,0.060072605,-3.0786746,0.6241285,0.00021395732,-0.08452267,-0.009885637,-0.0017039357,0.0061972896,-0.003937639,0.0147337485,0.4436083,-1.4542753,1.9904388,-2.1054194,-1.570855,2.4180543,-0.053962726,0.16833737,-0.1896572,0.027529629,-0.0042534503,-0.06856293,-0.47884035,0.34476504,-9.595961,0.8403672,47.698532,-1.0215632,-1.7965033,-3.4805686,-0.067706935,-0.07651279,-0.16678514,24.0625,24.3125,23.75,25.0625,24.9375,25.1875
0.18205231,-1.6918049,-2.1739554,-1.677239,-0.02995263,0.06417487,-0.10025865,-0.38142046,-0.32976574,0.06006724,-3.0786383,0.6240629,0.00017304174,-0.08420801,-0.009847759,-0.0030921455,0.0073313937,-0.0067408136,0.0147219645,0.44350037,-1.4539505,1.9900678,-2.105323,-1.5708789,2.4179103,-0.053839985,0.17129102,-0.18988423,0.027819043,-0.0040789247,-0.06842806,-0.4213795,0.40222588,-9.519346,0.8291774,47.698532,-1.1426654,-1.8738565,-3.4869924,-0.056619003,-0.073569514,-0.16060573,24.0625,24.3125,23.75,25.0625,24.9375,25.1875
0.18405207,-2.1504178,-2.3513033,-1.5823315,-0.032353997,0.059531108,-0.098633595,-0.38162008,-0.32981372,0.06009883,-3.078737,0.62395173,0.00029597743,-0.08453391,-0.009489918,-0.0035528059,0.008173395,-0.007971327,0.007935896,0.4434041,-1.4536389,1.9896487,-2.105323,-1.570867,2.4177325,-0.05460615,0.17283024,-0.19078572,0.028657366,-0.004305119,-0.062407833,-0.47884035,0.38307226,-9.519346,0.84484416,47.692257,-1.1323338,-1.7798835,-3.556563,-0.052956812,-0.07390844,-0.20175895,24.0625,24.3125,23.75,25.0625,24.9375,25.1875
0.18605223,-1.8265502,-2.3855083,-1.3812621,-0.039974872,0.0744587,-0.101938546,-0.38174823,-0.3298402,0.060060676,-3.0786855,0.6240007,0.0001792719,-0.08663837,-0.009706001,-0.002023467,0.0074716606,-0.0050762626,0.0038658436,0.44333178,-1.4532795,1.9893249,-2.105275,-1.5708555,2.4176974,-0.055632327,0.17319278,-0.19495349,0.029550042,-0.0049256873,-0.05936057,-0.4405331,0.30645782,-9.461885,0.8717007,47.65912,-1.1426941,-1.726897,-3.5377498,-0.07667469,-0.042557128,-0.24550316,24.0625,24.3125,23.75,25.0625,24.9375,25.1875
0.18805246,-2.1105149,-2.433453,-1.3509762,-0.046140995,0.06599412,-0.10695266,-0.38193184,-0.3298396,0.060081724,-3.078659,0.62393785,0.00022214209,-0.08784496,-0.009545698,-0.001729851,0.00802032,-0.0047553875,0.00306308,0.4431995,-1.4529793,1.9889177,-2.1051667,-1.5709032,2.4175296,-0.056535292,0.17475472,-0.19766305,0.03064195,-0.00556337,-0.059458382,-0.4213795,0.2681506,-9.385271,0.91421866,47.661808,-1.1484613,-1.8020949,-3.6685863,-0.072191864,-0.058464296,-0.27010414,24.0625,24.3125,23.75,25.0625,24.9375,25.1875
0.19005193,-2.1654804,-2.2271094,-1.1475464,-0.039969478,0.057346288,-0.10063339,-0.38213533,-0.3298631,0.060082044,-3.078679,0.6239609,0.00024190474,-0.088544354,-0.0092635285,-0.0017849955,0.008803996,-0.004743789,0.002197489,0.4430553,-1.4526078,1.9884976,-2.1051428,-1.5708922,2.4173975,-0.05715734,0.17594509,-0.19904332,0.031159958,-0.006277797,-0.059213176,-0.4405331,0.19153613,-9.289502,0.8918391,47.681515,-1.1088694,-1.604506,-3.5340602,-0.09163184,-0.031139586,-0.29547045,24.0625,24.3125,23.75,25.0625,24.9375,25.1875
0.19205222,-1.9172971,-1.6729064,-1.2960044,-0.028115258,0.049442664,-0.108243264,-0.3823078,-0.3299197,0.060099654,-3.0786977,0.62394655,0.00027087674,-0.089578055,-0.009432354,-0.0006123122,0.0076063275,-0.0030528747,0.0006250833,0.44300696,-1.4522607,1.9880542,-2.1050704,-1.5708917,2.4173381,-0.057966728,0.17517118,-0.20110397,0.031952206,-0.005922125,-0.05845014,-0.4405331,0.19153613,-9.404425,0.83365434,47.68062,-1.165008,-1.6169178,-3.5003505,-0.090429604,-0.04419272,-0.3200154,24.0625,24.3125,23.75,25.0625,24.9375,25.1875
0.19405222,-1.4227943,-1.2802234,-1.1397883,-0.012372021,0.044131417,-0.107706934,-0.38247532,-0.32990253,0.060074758,-3.0786202,0.6239674,0.00021221809,-0.09087315,-0.009683189,-4.5525074e-05,0.0067960396,-0.0026770772,0.0013654935,0.44285056,-1.451913,1.987707,-2.1049979,-1.5709275,2.4172049,-0.05898012,0.17653295,-0.20422037,0.03301443,-0.005360711,-0.060202833,-0.24899697,0.17238252,-9.251195,0.9679317,47.691364,-1.0529149,-1.5375369,-3.5265234,-0.12121607,-0.04168089,-0.32079038,24.0625,24.3125,23.75,25.0625,24.9375,25.1875
0.19605204,-1.7697957,-1.4003067,-1.1992188,0.006999483,0.017828632,-0.09973159,-0.38265526,-0.32991296,0.060038384,-3.0785806,0.62390125,0.00013250038,-0.09266571,-0.010206612,0.00051410455,0.0058040293,-0.0016014673,0.0013904311,0.44271842,-1.4514927,1.9873108,-2.1049502,-1.5709394,2.4170368,-0.059836358,0.17877862,-0.2081402,0.03328849,-0.0049381037,-0.061081998,-0.26815057,0.11492168,-9.193734,0.8717007,47.716442,-1.09201,-1.4233496,-3.4716763,-0.11345491,-0.04337064,-0.3317441,24.0625,24.3125,23.75,25.0625,24.9375,25.1875
0.1980519,-1.0533757,-0.9740103,-1.2501185,0.011198508,0.022413736,-0.09961979,-0.38284534,-0.3299432,0.060063627,-3.0786114,0.6239464,0.0001800206,-0.09434531,-0.010647102,0.0010703275,0.004423949,8.932738e-05,0.0008639294,0.44259804,-1.4511809,1.9868916,-2.1048906,-1.570927,2.416941,-0.060806952,0.18027766,-0.21095473,0.03248324,-0.0044206553,-0.06152526,-0.2681506,0.11492168,-9.232041,0.8985519,47.694946,-1.0447723,-1.4457103,-3.497385,-0.10982802,-0.07694537,-0.33740383,24.0625,24.3125,23.75,25.0625,24.9375,25.1875
0.20005165,-1.533437,-1.1254377,-1.3229685,0.0054814033,0.013300786,-0.10053718,-0.3830348,-0.32995385,0.06005813,-3.0785747,0.6239579,0.00016968291,-0.09457482,-0.010687091,0.001093404,0.004987113,-0.0010550838,0.00091172196,0.44246602,-1.4508091,1.986473,-2.104818,-1.5709509,2.416821,-0.060879108,0.18145151,-0.21283221,0.034460276,-0.0044409474,-0.06164447,-0.22984336,0.11492168,-9.251195,0.9164598,47.677036,-1.0747371,-1.4871311,-3.4919856,-0.12666109,-0.07260502,-0.3546071,24.0625,24.3125,23.75,25.0625,24.9375,25.1875
0.20205258,-1.3364314,-1.2040647,-1.1986375,-0.019696668,0.02326375,-0.10227588,-0.38323814,-0.32998097,0.060070056,-3.078599,0.6240027,0.0001739747,-0.09592747,-0.009337288,0.0002018929,0.006317787,-0.0044409446,-0.002395748,0.4423207,-1.4504488,1.9860295,-2.104757,-1.570927,2.4167008,-0.064688094,0.18502912,-0.2154578,0.037137687,-0.004192981,-0.062145263,-0.22984336,0.17238252,-9.308657,0.8873621,47.675243,-0.9358138,-1.3763961,-3.398096,-0.15648854,-0.068464115,-0.3895165,24.0625,24.3125,23.75,25.0625,24.9375,25.1875
0.20405248,-1.3280278,-1.3874764,-1.336042,-0.032786123,0.037665166,-0.10304805,-0.38340628,-0.3299924,0.060064957,-3.078556,0.62395304,9.438565e-05,-0.09625041,-0.01010612,0.00010070769,0.0064760526,-0.005239746,0.0006239133,0.44220126,-1.4500885,1.9856089,-2.104625,-1.570939,2.4165561,-0.06363801,0.18729031,-0.21807472,0.0382805,-0.0040028957,-0.06411347,-0.30645782,0.17238252,-9.32781,0.8806493,47.698532,-0.97360015,-1.52114,-3.3422058,-0.17858024,-0.06737682,-0.3600633,24.0625,24.3125,23.75,25.0625,24.9375,25.1875
0.20605242,-2.2072237,-2.3664143,-1.687441,-0.023998288,0.029956317,-0.0964534,-0.38361302,-0.33001104,0.060074452,-3.0785434,0.62395084,0.00012784581,-0.09716023,-0.010512797,-0.00036680684,0.007247821,-0.008039688,-0.0008302915,0.44206908,-1.449715,1.9851536,-2.1045525,-1.5709628,2.4164245,-0.06397362,0.191666,-0.22265725,0.04134498,-0.0035056053,-0.062993415,-0.34476504,0.24899697,-9.346964,0.9545008,47.72092,-1.0625556,-1.8422765,-3.2982852,-0.2140484,-0.07221377,-0.4050061,24.0625,24.3125,23.75,25.0625,24.9375,25.1875
0.20805228,-1.499129,-2.3879144,-1.5041522,-0.046142336,0.055299252,-0.10331087,-0.38378134,-0.3300433,0.06006291,-3.0785146,0.6239252,2.4719517e-05,-0.09819976,-0.009549903,-0.0008574075,0.007789564,-0.009308832,-0.0010372496,0.4419722,-1.4493192,1.9847106,-2.1044328,-1.5709509,2.4163156,-0.06666233,0.19346169,-0.22377157,0.042041864,-0.0034595537,-0.06547441,-0.2681506,0.30645782,-9.385271,0.84708,47.696735,-0.88521963,-1.7733501,-3.345581,-0.26025546,-0.07003519,-0.39522022,24.0625,24.3125,23.75,25.0625,24.9375,25.1875
0.21005216,-2.1330352,-2.771852,-1.5889537,-0.051691003,0.04808408,-0.102100074,-0.38398832,-0.33006158,0.06006427,-3.0785146,0.62386465,6.0982646e-05,-0.09884029,-0.008866329,-0.0014992602,0.007980138,-0.009152894,0.003471413,0.44183967,-1.4489362,1.9842685,-2.1043851,-1.5709752,2.4161456,-0.068278246,0.19439982,-0.22302279,0.040291816,-0.003703416,-0.07159859,-0.2681506,0.38307226,-9.442732,0.89631605,47.674347,-0.7488576,-1.5824299,-3.458929,-0.25547633,-0.06675224,-0.36117306,24.0625,24.3125,23.75,25.0625,24.9375,25.1875
0.21205197,-1.8515803,-2.715132,-1.6509564,-0.0662673,0.053035576,-0.097158246,-0.38418436,-0.33007538,0.06004439,-3.0784893,0.62385875,-2.8007902e-05,-0.09881687,-0.009407436,-0.0024173218,0.009285705,-0.010701061,0.005002031,0.4416842,-1.4485159,1.9838251,-2.1043012,-1.5709628,2.4159899,-0.066858105,0.19761254,-0.2246846,0.04070087,-0.0042307884,-0.07170673,-0.30645782,0.3256114,-9.442732,0.9388393,47.66539,-0.9463085,-1.5153906,-3.5470161,-0.27696478,-0.05986942,-0.34356216,24.0625,24.3125,23.75,25.0625,24.9375,25.1875
0.21405165,-2.596257,-3.277233,-1.3764188,-0.064483754,0.04041194,-0.0900263,-0.38438356,-0.330083,0.06005234,-3.0784593,0.6238707,-2.2143082e-05,-0.09950997,-0.008104396,-0.0027324776,0.010357812,-0.011657018,0.005665902,0.44153935,-1.4481564,1.983383,-2.1042054,-1.5709876,2.4158566,-0.069450736,0.19816731,-0.22486696,0.04164923,-0.004793875,-0.07496234,-0.3256114,0.47884032,-9.346964,0.8605109,47.692257,-0.8407769,-1.5428139,-3.642743,-0.30005744,-0.049536724,-0.3373689,24.0625,24.3125,23.75,25.0625,24.9375,25.1875
0.2160527,-2.0451283,-2.7196908,-1.5488864,-0.0541644,0.046375137,-0.10094167,-0.3846017,-0.3301111,0.060062326,-3.0784721,0.6238336,1.765834e-05,-0.10018686,-0.008086917,-0.003363916,0.0108747985,-0.012547905,0.009068577,0.44140714,-1.4477602,1.9829034,-2.1041453,-1.5709995,2.4157,-0.06996599,0.20075513,-0.22638041,0.04159839,-0.004885581,-0.07887911,-0.24899697,0.4405331,-9.270349,0.8940802,47.72271,-0.8263184,-1.5305157,-3.6754208,-0.3367863,-0.05842174,-0.2720396,24.0625,24.3125,23.75,25.0625,24.9375,25.1875
0.21805252,-2.2114375,-2.728281,-1.6029285,-0.033282176,0.027517805,-0.0957307,-0.38479304,-0.3301285,0.060062446,-3.078463,0.62367487,-6.6144585e-06,-0.10207521,-0.008450035,-0.003130708,0.0100615425,-0.010216841,0.011675673,0.44128683,-1.4473761,1.9824489,-2.1040385,-1.5710233,2.415482,-0.07072451,0.20287628,-0.22888924,0.039528027,-0.0051619783,-0.08224197,-0.21068975,0.36391866,-9.385271,0.8247004,47.699425,-0.8172741,-1.5448802,-3.6918936,-0.34078744,-0.066511944,-0.22584121,24.0625,24.3125,23.75,25.0625,24.9375,25.1875
0.22005218,-1.7644007,-2.7625797,-1.4213574,-0.038470577,0.03810899,-0.08915021,-0.38498524,-0.3301549,0.060037017,-3.0784564,0.6237483,-8.5661144e-05,-0.104122184,-0.009237976,-0.0025746082,0.008411322,-0.007465158,0.014342134,0.4411429,-1.446956,1.9820288,-2.1040032,-1.5709876,2.415385,-0.07121352,0.20493573,-0.23208018,0.037466533,-0.0048623215,-0.085395396,-0.28730422,0.3256114,-9.32781,0.88960326,47.701214,-0.83341813,-1.6100181,-3.6876647,-0.31733096,-0.06255614,-0.18642685,24.0625,24.3125,23.75,25.0625,24.9375,25.1875
0.22205192,-2.0668623,-2.5014381,-1.461914,-0.03450553,0.03239389,-0.09629274,-0.38522238,-0.33015862,0.060042113,-3.0784519,0.6236912,-9.013796e-05,-0.10719291,-0.00853314,-0.0020773862,0.0073190182,-0.0053535323,0.01298223,0.44094944,-1.4465362,1.9815253,-2.1039078,-1.5709995,2.4151568,-0.07518803,0.20716164,-0.2355298,0.03631118,-0.004789859,-0.088007726,-0.28730422,0.3256114,-9.32781,0.88289046,47.69763,-0.6636441,-1.6163785,-3.626492,-0.2996984,-0.07276266,-0.1344344,24.0625,24.3125,23.75,25.0625,24.9375,25.1875
0.22405164,-2.4090679,-2.3781707,-1.4739298,-0.022525994,0.03515511,-0.092500314,-0.38544017,-0.33019754,0.060057037,-3.0784888,0.6236188,-4.573968e-05,-0.10799506,-0.009850032,-0.0013126959,0.007519696,-0.0028620474,0.016104741,0.4408304,-1.4461403,1.9810342,-2.1038482,-1.571,2.4149883,-0.07258061,0.20848162,-0.23878373,0.03608128,-0.0060399855,-0.088518806,-0.36391866,0.2681506,-9.404425,0.8672237,47.689575,-0.742182,-1.5729609,-3.6251755,-0.32720497,-0.048929416,-0.08783147,24.0625,24.3125,23.75,25.0625,24.9375,25.1875
0.22605163,-1.9011102,-1.8498209,-1.3350137,-0.03563367,0.053180248,-0.10003068,-0.38564992,-0.3301951,0.060051713,-3.0784516,0.6235746,-1.6275382e-05,-0.109948285,-0.00986885,-0.00145562,0.007511137,-0.0018207523,0.013104721,0.44067386,-1.4457564,1.9806026,-2.1037886,-1.5710481,2.4148092,-0.073904574,0.21161895,-0.24180673,0.03501886,-0.0064866757,-0.0868396,-0.28730422,0.2681506,-9.423578,0.89631605,47.689575,-0.77816784,-1.5540795,-3.645019,-0.3156988,-0.057154156,-0.084572166,24.0625,24.3125,23.75,25.0625,24.9375,25.1875
0.22805232,-1.9670848,-2.138383,-1.2562336,-0.029234774,0.05638208,-0.10309545,-0.3858948,-0.33023068,0.06005234,-3.0784652,0.62359947,-1.3511533e-05,-0.11354724,-0.009559601,-4.7579044e-05,0.005942753,0.0020479148,0.0071280524,0.44051668,-1.4452885,1.9800633,-2.1037295,-1.5710357,2.4146662,-0.07739717,0.21316805,-0.24666499,0.03416218,-0.00672885,-0.084352255,-0.36391866,0.24899697,-9.212888,0.8179876,47.68599,-0.516894,-1.4688563,-3.444712,-0.29796952,-0.0407836,-0.06964977,24.0625,24.3125,23.75,25.0625,24.9375,25.1875
0.23005222,-1.7801787,-2.0201359,-1.4825855,-0.018047672,0.05404854,-0.10158397,-0.3861125,-0.33026525,0.060045112,-3.0784752,0.6235436,-8.144865e-05,-0.11387174,-0.0118092885,0.0018863134,0.0033853748,0.006015435,0.007943405,0.4403739,-1.4448336,1.9795479,-2.1036336,-1.5710119,2.4144876,-0.07387893,0.21167806,-0.24941155,0.03371979,-0.006115677,-0.08164912,-0.40222588,0.24899697,-9.232041,0.8537928,47.69763,-0.7392536,-1.4181905,-3.276816,-0.28378302,-0.024361696,-0.10257467,24.0625,24.3125,23.75,25.0625,24.9375,25.1875
0.23205195,-1.9951098,-2.111923,-1.7720826,-0.019349331,0.04766481,-0.092923775,-0.3863311,-0.33027375,0.060054835,-3.0784419,0.6234799,-5.389271e-05,-0.11446383,-0.011925657,0.00062134175,0.003677222,0.0037786283,0.0041822037,0.44022977,-1.4444371,1.9790562,-2.1035254,-1.5710596,2.4143083,-0.0745787,0.21565214,-0.25099987,0.03347633,-0.005429705,-0.07858753,-0.4405331,0.30645782,-9.32781,0.9164598,47.705692,-0.7291664,-1.4383576,-3.360963,-0.2827453,-0.03690766,-0.11509297,24.0625,24.3125,23.75,25.0625,24.9375,25.1875
0.23405176,-2.4259326,-2.4724638,-1.7732462,-0.03391939,0.047597703,-0.09839112,-0.38653466,-0.3302967,0.060031667,-3.0784101,0.6234364,-7.73095e-05,-0.11550265,-0.012565003,0.0012333256,0.0029799854,0.0053585656,0.0017012296,0.44010976,-1.4439938,1.9786009,-2.1034777,-1.5710834,2.4141655,-0.07422264,0.21659072,-0.25351042,0.03332113,-0.005479117,-0.07574886,-0.34476504,0.30645782,-9.404425,0.8605109,47.686886,-0.7876283,-1.3974671,-3.4063768,-0.26730227,-0.048544258,-0.16258985,24.0625,24.3125,23.75,25.0625,24.9375,25.1875
0.23605172,-2.0322497,-2.6295733,-1.7101166,-0.0435322,0.06052957,-0.09749306,-0.38677824,-0.33030146,0.0600239,-3.0783837,0.6234901,-0.000111983456,-0.11520859,-0.012208014,0.00011658934,0.0039306977,0.0033626729,-0.0009941504,0.43990567,-1.443538,1.9780878,-2.1033938,-1.5710834,2.4139986,-0.07454303,0.21830262,-0.25295985,0.03326972,-0.0054885233,-0.073373936,-0.28730422,0.28730422,-9.385271,0.9097417,47.688675,-0.7751981,-1.4291742,-3.495081,-0.26994804,-0.04463547,-0.19168667,24.0625,24.3125,23.75,25.0625,24.9375,25.1875
0.23805156,-2.5249908,-2.9253023,-1.7120022,-0.047150962,0.04014444,-0.078875735,-0.38702208,-0.33032817,0.060038615,-3.078374,0.62356496,-7.257037e-05,-0.11514602,-0.012380491,-0.0017196132,0.0052738176,0.00047400597,-0.0021974717,0.4397498,-1.4431053,1.9775494,-2.1033113,-1.5710953,2.413891,-0.07411676,0.22270276,-0.25367665,0.03277124,-0.005474196,-0.071743496,-0.26815057,0.1340753,-9.481039,0.9231726,47.664497,-0.7988516,-1.5485699,-3.578968,-0.2760709,-0.027811097,-0.22546266,24.0625,24.3125,23.75,25.0625,24.9375,25.1875
0.24005237,-2.0986454,-3.0922174,-1.8315268,-0.035663296,0.033327878,-0.082100645,-0.3872572,-0.33035928,0.06002641,-3.0783696,0.623525,-3.675875e-05,-0.11653823,-0.012914299,-0.0022022158,0.0047152857,0.00048518184,-0.0032417949,0.4396179,-1.4426367,1.9770454,-2.103287,-1.5711197,2.4137352,-0.07461421,0.22628525,-0.25645888,0.031719334,-0.004981153,-0.07119553,-0.038307227,0.22984336,-9.346964,0.84484416,47.677036,-0.87691545,-1.7572393,-3.7458644,-0.23319426,-0.04236771,-0.27960828,24.0625,24.3125,23.75,25.0625,24.9375,25.1875
0.24205202,-1.2834693,-2.5769897,-1.9821153,-0.023204233,0.022395017,-0.08944976,-0.38749146,-0.33038166,0.06001054,-3.078365,0.6235422,-1.2757863e-05,-0.11785418,-0.014176093,-0.001886127,0.0033797564,0.0025157887,-0.0017223785,0.43946207,-1.4421808,1.9765667,-2.103276,-1.5711306,2.413591,-0.0735958,0.22854277,-0.25943416,0.030028315,-0.0046463856,-0.07169508,0.019153614,0.2681506,-9.385271,0.94331104,47.67793,-0.9151497,-1.7632511,-3.560862,-0.22197232,-0.014312791,-0.27305147,24.0625,24.3125,23.75,25.0625,24.9375,25.1875
0.2440516,-1.0685089,-2.1702926,-1.8921268,-0.020645304,-0.0041879374,-0.08624653,-0.38771158,-0.33041596,0.059983503,-3.0783641,0.6235051,-9.478544e-05,-0.12029703,-0.014536616,-0.0007771656,0.002215246,0.00590574,-0.005022292,0.43931785,-1.4416895,1.9760627,-2.1032164,-1.5711073,2.413424,-0.074731804,0.22984949,-0.2633276,0.029055461,-0.0050471276,-0.06952788,0.05746084,0.2873042,-9.385271,0.8672237,47.655537,-0.9312471,-1.7517564,-3.6321332,-0.17386436,-0.03253769,-0.3229152,24.0625,24.3125,23.75,25.0625,24.9375,25.1875
0.24605255,-0.7203332,-2.7429616,-1.8681118,-0.018587202,-0.008989563,-0.09057573,-0.3879563,-0.330447,0.05999359,-3.0783672,0.623563,-6.694272e-05,-0.121492,-0.015082654,-0.00011858189,0.0018783198,0.0073601254,-0.004768462,0.43916184,-1.4412452,1.9755234,-2.1031444,-1.5711073,2.413304,-0.07448988,0.23107491,-0.26639768,0.029440993,-0.0053640357,-0.06953775,0.019153614,0.40222588,-9.346964,0.86945957,47.687782,-0.9407891,-1.8428617,-3.614993,-0.13649812,-0.0077954605,-0.34925133,24.0625,24.3125,23.75,25.0625,24.9375,25.1875
0.24805243,-1.2716717,-2.625664,-1.9613024,-0.0375995,-0.025842767,-0.08506067,-0.38821074,-0.3304694,0.059994612,-3.0783532,0.62355894,-3.7679836e-06,-0.123662114,-0.015165555,0.0009454605,0.0021188625,0.009777795,-0.005124428,0.43900582,-1.4407781,1.9749845,-2.1030962,-1.571144,2.4131477,-0.07532904,0.23259395,-0.27083293,0.030272044,-0.0066146934,-0.0700165,0.038307227,0.5363012,-9.2703495,0.9254084,47.67614,-0.9913439,-1.7889743,-3.5904024,-0.11640333,-0.013273057,-0.3600585,24.0625,24.3125,23.75,25.0625,24.9375,25.1875
0.25005215,-1.1923697,-3.5145178,-2.1187847,-0.045946397,-0.00874113,-0.08501112,-0.3884548,-0.33050427,0.060007762,-3.078346,0.62354064,3.387008e-05,-0.12442401,-0.014975914,0.0010896818,0.0026359688,0.009690133,-0.008806792,0.43887338,-1.4403228,1.97442,-2.103,-1.5711678,2.413005,-0.07599129,0.23369794,-0.27276182,0.031397004,-0.0070439493,-0.06699494,-0.019153614,0.6512228,-9.32781,0.88289046,47.642998,-0.9457451,-1.6864448,-3.3847976,-0.10938707,0.019308902,-0.44325742,24.0625,24.3125,23.75,25.0625,24.9375,25.1875
0.2520522,-1.485566,-3.7809455,-1.9917003,-0.08004968,0.0041582654,-0.0916831,-0.38867742,-0.3305117,0.059979755,-3.0782535,0.6235965,-4.1519354e-05,-0.124926165,-0.015260428,0.0012477395,0.0028127644,0.008386583,-0.0069871056,0.43871742,-1.4398314,1.9739059,-2.1028912,-1.5712041,2.4128962,-0.076094955,0.2354268,-0.2757537,0.033909217,-0.0066565424,-0.068917416,-0.05746084,0.6703765,-9.404425,0.91421866,47.686886,-1.0022228,-1.5408802,-3.470719,-0.103065446,0.012853264,-0.4712085,24.0625,24.3125,23.75,25.0625,24.9375,25.1875
0.25405198,-1.5735984,-4.087397,-1.8879687,-0.08616187,0.030328808,-0.09430572,-0.38893887,-0.33056128,0.059993535,-3.0782948,0.6235843,3.0654494e-06,-0.1253625,-0.015340168,0.0008392032,0.0034753808,0.0062055457,-0.0044458965,0.4385733,-1.439351,1.9733194,-2.1028306,-1.5711917,2.4127395,-0.076473065,0.23807693,-0.27843195,0.036190383,-0.0063281343,-0.07183659,-0.05746084,0.6703765,-9.3661175,0.9030289,47.694054,-1.0457151,-1.7381698,-3.4907277,-0.12248181,0.028047742,-0.4758863,24.0625,24.3125,23.75,25.0625,24.9375,25.1875
0.25605193,-2.1208239,-3.8671768,-1.8324294,-0.080740504,0.033683594,-0.082896955,-0.38918912,-0.3305947,0.05999393,-3.078271,0.6235579,3.3654593e-05,-0.12565544,-0.01544099,0.0010254051,0.0029510958,0.005808487,-0.0023223802,0.43844107,-1.4388598,1.9727458,-2.1027467,-1.5712274,2.4125943,-0.07689756,0.23843145,-0.27957907,0.037112646,-0.0056860177,-0.074385636,-0.19153613,0.6703765,-9.423578,0.96569055,47.70211,-1.0526782,-1.661828,-3.4058409,-0.1074889,0.0033395563,-0.48777187,24.0625,24.3125,23.75,25.0625,24.9375,25.1875
0.2580519,-1.730691,-3.382735,-1.960052,-0.06982384,0.053508207,-0.09178551,-0.38941988,-0.33061457,0.059966672,-3.078249,0.6235486,-8.2213795e-05,-0.12574703,-0.0164923,0.0014139103,0.0018384232,0.0051938356,0.0057254843,0.43826142,-1.4383563,1.9722184,-2.10265,-1.5712031,2.412412,-0.07580322,0.2394246,-0.28206053,0.038677342,-0.004427881,-0.08134041,-0.15322891,0.63206923,-9.346964,0.87393653,47.684196,-1.0644118,-1.5953894,-3.6111882,-0.10649461,0.0024279356,-0.4458633,24.0625,24.3125,23.75,25.0625,24.9375,25.1875
0.26005203,-1.9818223,-3.159678,-1.866925,-0.04931926,0.041834276,-0.093755715,-0.38967898,-0.3306558,0.059972692,-3.0782814,0.62344,-1.0752217e-06,-0.12681091,-0.015422094,0.00048282035,0.0016823432,0.003320507,0.005012511,0.43812832,-1.4378765,1.9716552,-2.1026142,-1.571227,2.4122074,-0.0792333,0.2416614,-0.2825312,0.03853384,-0.0034901227,-0.08405918,-0.038307227,0.47884035,-9.32781,0.9164598,47.66987,-1.0110126,-1.572737,-3.671282,-0.09642799,0.0020648534,-0.4223777,24.0625,24.3125,23.75,25.0625,24.9375,25.1875
0.26205203,-1.3558447,-2.8777823,-1.7651341,-0.032794632,0.04021659,-0.08456678,-0.38993612,-0.33068827,0.059967287,-3.0782883,0.6234737,-3.946182e-05,-0.12745959,-0.017367769,0.00096455246,-0.00028743452,0.0059093535,0.0138260955,0.4379493,-1.437373,1.9710807,-2.1025317,-1.5712026,2.4120488,-0.07659123,0.24302807,-0.28476456,0.036215935,-0.0028179344,-0.090230316,-0.095768064,0.4405331,-9.3661175,0.95897776,47.707485,-1.1339226,-1.5853097,-3.661831,-0.05963831,-0.036240436,-0.37251028,24.0625,24.3125,23.75,25.0625,24.9375,25.1875
0.26405182,-1.5536075,-2.1943748,-1.5856397,-0.029356161,0.04078482,-0.08731488,-0.3902067,-0.33073953,0.05996305,-3.0783124,0.62337965,-8.7835997e-07,-0.12803099,-0.017469795,0.00015018984,8.4289895e-05,0.0041270275,0.019215038,0.43781704,-1.4368331,1.9704698,-2.1024835,-1.5712146,2.4118552,-0.0771013,0.24616016,-0.28669155,0.036776103,-0.0024019042,-0.0961291,-0.15322891,0.19153613,-9.32781,0.8940802,47.668976,-1.1912462,-1.611064,-3.7164092,-0.008736199,-0.01894084,-0.27907163,24.0625,24.3125,23.75,25.0625,24.9375,25.1875
0.2660517,-1.0466182,-1.2686554,-1.5786844,-0.013157471,0.04476119,-0.100662746,-0.39044634,-0.3307625,0.059945524,-3.078286,0.62331736,-5.338206e-05,-0.13113819,-0.016820474,0.0011284926,-0.0004809916,0.0055140746,0.017535763,0.4376598,-1.4363291,1.9699186,-2.1023867,-1.5712265,2.4116628,-0.08084141,0.2484575,-0.29198423,0.038273193,-0.0024910204,-0.09818708,-0.076614454,0.13407528,-9.212888,0.9545008,47.701214,-0.9408473,-1.7154274,-3.5930052,-0.023869041,-0.044587716,-0.25812924,24.0625,24.3125,23.75,25.0625,24.9375,25.1875
0.2680524,-1.3283685,-1.195665,-1.7314184,0.012736336,0.022891138,-0.08852314,-0.39070627,-0.3307962,0.059935875,-3.0783002,0.62320036,-4.4707474e-05,-0.13086872,-0.018165791,0.0002375689,0.00035325586,0.0038531276,0.022775158,0.4375049,-1.4358127,1.9693435,-2.102327,-1.5712384,2.4114335,-0.07803598,0.25220364,-0.29442888,0.03882691,-0.0025476045,-0.10061946,-0.095768064,0.05746084,-9.289502,0.85155696,47.67793,-1.2081233,-1.8075986,-3.4613724,-0.007718784,-0.030604756,-0.20500448,24.0625,24.3125,23.75,25.0625,24.9375,25.1875
0.27005213,-0.7899731,-0.92300427,-1.6177701,0.008047112,0.033396926,-0.09483193,-0.3909794,-0.3308501,0.05995875,-3.0783806,0.6231795,-1.6719529e-05,-0.13260731,-0.01779227,0.00052332145,0.00061868795,0.004390976,0.021137074,0.4373363,-1.4353324,1.9687318,-2.1022546,-1.5711902,2.411242,-0.0798293,0.25416806,-0.29761055,0.039675575,-0.003014398,-0.100772396,-0.19153613,0.11492168,-9.212888,0.9186956,47.685097,-1.1280372,-1.9793735,-3.389091,0.024169225,-0.043113105,-0.15792271,24.0625,24.3125,23.75,25.0625,24.9375,25.1875
0.27205193,-1.2198484,-1.0355551,-1.690018,0.008879527,0.018465899,-0.090823516,-0.3912487,-0.33088917,0.059952118,-3.0783691,0.62313986,4.955381e-06,-0.13355051,-0.017521136,0.0010049664,0.000839344,0.0046898755,0.019176515,0.4371918,-1.4347938,1.9681214,-2.1021826,-1.571215,2.4110746,-0.08084651,0.25472364,-0.2998027,0.041133832,-0.0033413456,-0.099827796,-0.19153614,0.11492168,-9.270349,0.8806493,47.670765,-1.1280655,-1.7457981,-3.5006056,0.017375538,-0.032780927,-0.15580013,24.0625,24.3125,23.75,25.0625,24.9375,25.1875
0.27405193,-1.5081514,-1.665886,-1.8551452,-0.00039395952,0.022737194,-0.08402003,-0.3915227,-0.3308962,0.05994652,-3.0783417,0.62307715,4.5670306e-05,-0.13320673,-0.01734494,-0.00030708444,0.00310821,0.0012643846,0.0168495,0.43700027,-1.4342896,1.9675473,-2.1021101,-1.5712632,2.410848,-0.0803946,0.2580491,-0.30116516,0.04323352,-0.0039436314,-0.097047195,-0.21068975,0.095768064,-9.32781,0.8672237,47.686886,-1.1497786,-1.8613615,-3.5077944,0.030916344,-0.027372656,-0.18278432,24.0625,24.3125,23.75,25.0625,24.9375,25.1875
0.27605203,-1.071807,-1.7945893,-1.8356159,-0.025515372,0.042203154,-0.08668444,-0.3917664,-0.33095536,0.05991304,-3.0783553,0.62298805,-9.391782e-05,-0.1347714,-0.0159235,-8.214699e-05,0.0042130584,0.00044510758,0.008832327,0.43686703,-1.4337022,1.966937,-2.1020133,-1.571215,2.4106576,-0.0838338,0.25919402,-0.3037194,0.045862265,-0.0046023466,-0.09246698,-0.28730422,0.038307227,-9.346964,0.8717007,47.685097,-1.0499966,-1.8289772,-3.5706992,0.015118336,-0.019413503,-0.2177833,24.0625,24.3125,23.75,25.0625,24.9375,25.1875
0.27805188,-1.3992918,-1.6551954,-1.6403754,-0.03098006,0.04315069,-0.0888428,-0.3920414,-0.3309759,0.05992417,-3.0783246,0.6229443,-5.0900573e-05,-0.13493443,-0.01706122,0.00092421146,0.0040657,0.0011113123,0.0064554983,0.43669996,-1.433199,1.9663142,-2.1018927,-1.5712637,2.4104676,-0.08171629,0.25947413,-0.30698964,0.04818491,-0.0047502345,-0.087971374,-0.45968673,0.05746084,-9.385271,0.9612189,47.68599,-1.2062794,-1.8379443,-3.550414,0.004067694,-0.038114265,-0.2646769,24.0625,24.3125,23.75,25.0625,24.9375,25.1875
0.2800517,-1.93009,-1.7748578,-1.8318079,-0.016047377,0.048367936,-0.0925513,-0.3922802,-0.33100218,0.059905156,-3.0782683,0.6229723,-0.0001592662,-0.13521709,-0.015260441,-0.0004952085,0.00603441,-0.003145548,0.0016430233,0.43654266,-1.4326715,1.9657272,-2.1017482,-1.5712637,2.4103353,-0.085182324,0.26187965,-0.30715808,0.05063816,-0.004736035,-0.08662491,-0.47884035,0.11492168,-9.346964,0.90750587,47.711063,-1.1737976,-1.7234746,-3.5421233,-0.007540943,-0.019592188,-0.29270253,24.0625,24.3125,23.75,25.0625,24.9375,25.1875
0.28205168,-1.6758289,-1.5527067,-2.0530612,-0.0041200384,0.061884746,-0.09245894,-0.3925758,-0.33103412,0.059913628,-3.0782952,0.6229962,-0.00013051268,-0.13472778,-0.015449316,-0.00024591188,0.00639769,-0.0045190454,0.002658436,0.43633884,-1.4321443,1.9650935,-2.1016753,-1.5712508,2.4101434,-0.084489636,0.26174402,-0.30831835,0.05333163,-0.004479594,-0.08694861,-0.40222588,0.1340753,-9.442732,0.9164598,47.677036,-0.97402525,-1.729342,-3.6901546,-0.037967853,-0.038594298,-0.3016541,24.0625,24.3125,23.75,25.0625,24.9375,25.1875
0.2840517,-2.3813915,-1.7793685,-1.7926569,-0.007039805,0.05725775,-0.09253083,-0.39283377,-0.33108905,0.059903663,-3.0783067,0.62294143,-0.00022756457,-0.1356001,-0.0154398335,5.606532e-05,0.006115668,-0.005813014,0.0015356737,0.43619436,-1.4315809,1.9644474,-2.1015432,-1.571215,2.4099636,-0.085697345,0.26329428,-0.31152415,0.05604053,-0.0036833682,-0.087034,-0.45968673,0.11492168,-9.519346,0.9254084,47.66539,-1.1321232,-1.6079271,-3.758543,-0.06763114,-0.052243352,-0.34428436,24.0625,24.3125,23.75,25.0625,24.9375,25.1875
0.28605163,-2.50216,-2.2862525,-1.8971342,-0.0018022051,0.06201919,-0.08464959,-0.3931121,-0.33111,0.059913885,-3.0783002,0.6229214,-0.00022061703,-0.13676347,-0.014888947,-0.00018936364,0.0071503497,-0.0072629256,-0.00088524364,0.4360018,-1.4310765,1.9638242,-2.101422,-1.571227,2.4097598,-0.087393545,0.26590616,-0.31454265,0.058198504,-0.00401178,-0.08630734,-0.53630114,0.13407528,-9.481039,0.92764956,47.699425,-1.0207139,-1.632776,-3.6430984,-0.117584296,-0.06156326,-0.36251283,24.0625,24.3125,23.75,25.0625,24.9375,25.1875
0.28805235,-2.0962622,-1.5890862,-2.0070915,-0.009853639,0.062508285,-0.08928633,-0.39340904,-0.3311265,0.059931245,-3.0782516,0.62297046,-0.00017734822,-0.13723944,-0.013841933,-0.00029483784,0.008396035,-0.008559597,-0.003976866,0.43580914,-1.4305496,1.9631537,-2.101278,-1.5712751,2.4096043,-0.08923587,0.26643783,-0.31552538,0.060349144,-0.0045919726,-0.08505697,-0.40222588,0.114921674,-9.557653,0.96569055,47.677036,-0.92507327,-1.7285411,-3.6285486,-0.13152869,-0.044574313,-0.37295538,24.0625,24.3125,23.75,25.0625,24.9375,25.1875
0.2900521,-1.9804205,-1.8387885,-1.8730224,-0.007990237,0.06173523,-0.08575922,-0.3936859,-0.33115506,0.05992962,-3.0782714,0.6229542,-0.00017638893,-0.13850439,-0.013417107,-0.0009430174,0.010228239,-0.0098316865,-0.0023752325,0.43561685,-1.430033,1.9625543,-2.1012056,-1.5712637,2.4093997,-0.090261504,0.27018353,-0.3187471,0.061754227,-0.005723041,-0.08768022,-0.2681506,0.15322891,-9.442732,0.9030289,47.672558,-0.9153068,-1.7094457,-3.6106064,-0.16356061,-0.036980543,-0.38834897,24.0625,24.3125,23.75,25.0625,24.9375,25.1875
0.2920517,-1.590024,-1.5787885,-1.9012331,-0.0136478245,0.057470236,-0.09403776,-0.39392793,-0.33118287,0.059887763,-3.078181,0.6229737,-0.0003598131,-0.1404161,-0.013328832,-0.00026356737,0.009860876,-0.008772309,-0.0046656677,0.4354605,-1.4294338,1.9619311,-2.1010373,-1.5712637,2.4092674,-0.091887556,0.27184734,-0.32258624,0.062814295,-0.005856951,-0.087013036,-0.28730422,0.15322891,-9.461885,0.91421866,47.66271,-0.8524224,-1.7677357,-3.5931551,-0.20191588,-0.04388266,-0.43169674,24.0625,24.3125,23.75,25.0625,24.9375,25.1875
0.29405254,-1.988382,-2.0587935,-1.8728842,-0.010357933,0.043487277,-0.08313624,-0.39424554,-0.3312221,0.05991236,-3.0781786,0.62297076,-0.00024335655,-0.14073361,-0.012821233,-0.002028315,0.01111497,-0.012055494,-0.0008832495,0.4352918,-1.4288815,1.9612254,-2.100942,-1.5713114,2.4090977,-0.09314771,0.2759221,-0.32337242,0.06302213,-0.0056115873,-0.09205579,-0.36391866,0.13407528,-9.423578,0.9186956,47.66808,-0.6982746,-1.8178343,-3.5867283,-0.22318563,-0.02052584,-0.41953653,24.0625,24.3125,23.75,25.0625,24.9375,25.1875
0.2960524,-1.3699658,-2.0317242,-2.0078104,-0.02309766,0.05862367,-0.09655787,-0.3945246,-0.33122098,0.059891846,-3.0781376,0.6229604,-0.00033682896,-0.14164686,-0.0128296735,-0.0024121264,0.011020121,-0.012667188,0.0030444318,0.43505165,-1.4283293,1.9606146,-2.1008103,-1.5713114,2.4088566,-0.09401816,0.27824786,-0.32531303,0.063145965,-0.0052860253,-0.096853234,-0.36391866,0.24899697,-9.461885,1.0082139,47.70032,-0.729192,-1.9683588,-3.6089387,-0.23509979,-0.044224553,-0.33889127,24.0625,24.3125,23.75,25.0625,24.9375,25.1875
0.2980523,-1.5262582,-2.4643967,-1.9716321,-0.036755543,0.055633705,-0.09379995,-0.3948078,-0.33125025,0.059901614,-3.0781112,0.62297094,-0.0003578053,-0.14275794,-0.012614095,-0.001312409,0.011236766,-0.012060805,0.0061578383,0.43487155,-1.4277906,1.9599437,-2.1006534,-1.5713238,2.4086869,-0.09496077,0.27825558,-0.32862243,0.06598576,-0.0057472675,-0.100907266,-0.21068975,0.24899697,-9.481039,0.8940802,47.698532,-0.6999973,-1.9150014,-3.6486506,-0.28630412,-0.030679125,-0.3158437,24.0625,24.3125,23.75,25.0625,24.9375,25.1875
0.30005214,-1.7490857,-2.7777486,-1.7259496,-0.06070766,0.057458103,-0.08387392,-0.39509237,-0.33127823,0.059883416,-3.0780654,0.62288195,-0.00040033465,-0.14514287,-0.013812261,-0.0002528259,0.008949615,-0.007165608,0.011574098,0.43470335,-1.4271909,1.9592732,-2.1005237,-1.5713595,2.4084694,-0.09470694,0.27961102,-0.33196905,0.06256556,-0.005762687,-0.106067054,-0.24899697,0.2681506,-9.3661175,0.89631605,47.677036,-0.68945146,-1.7863567,-3.631159,-0.28500468,-0.030708347,-0.2871235,24.0625,24.3125,23.75,25.0625,24.9375,25.1875
0.30205205,-2.2132623,-3.1239717,-1.8391178,-0.049822338,0.044574942,-0.08281301,-0.39537698,-0.33131015,0.059867803,-3.07806,0.6228202,-0.00047171276,-0.14661917,-0.014516805,0.0014272023,0.007118807,-0.0023976986,0.01589979,0.4345117,-1.4266047,1.9586142,-2.100404,-1.5713481,2.4082403,-0.09434153,0.27812144,-0.33388454,0.06087376,-0.0061278674,-0.110025465,-0.4213795,0.2681506,-9.346964,0.90527004,47.66808,-0.81245685,-1.8157974,-3.5449672,-0.28854626,-0.015838603,-0.21499518,24.0625,24.3125,23.75,25.0625,24.9375,25.1875
0.30405176,-1.8091642,-2.8765094,-1.8974361,-0.042306066,0.05266555,-0.083542526,-0.39569652,-0.33132794,0.059907153,-3.0780592,0.62285715,-0.00036642895,-0.14698344,-0.014795194,0.0014129914,0.0071791676,-0.0023914697,0.018032633,0.43429565,-1.4261014,1.9579209,-2.100272,-1.5713838,2.408048,-0.093998015,0.2792071,-0.33529618,0.061213303,-0.006183865,-0.11181449,-0.36391866,0.3256114,-9.3661175,1.0149267,47.692257,-0.754395,-1.5394514,-3.624855,-0.30967018,-0.033545487,-0.1303285,24.0625,24.3125,23.75,25.0625,24.9375,25.1875
0.30605173,-1.5230588,-2.8344462,-2.0332954,-0.046053585,0.05659517,-0.08436903,-0.39596674,-0.33135968,0.05989469,-3.078054,0.62275994,-0.0004546272,-0.14863867,-0.016006315,0.001855909,0.0049390346,0.0006756821,0.01763198,0.4341157,-1.4255375,1.9572743,-2.1001298,-1.5713714,2.4078083,-0.093577676,0.2809532,-0.33776718,0.058211852,-0.0054607443,-0.11099308,-0.13407528,0.28730422,-9.423578,1.0708755,47.701214,-0.730618,-1.5340872,-3.6885962,-0.29754943,-0.014403931,-0.15760532,24.0625,24.3125,23.75,25.0625,24.9375,25.1875
0.30805162,-1.6467146,-2.7560902,-1.9420471,-0.044931922,0.035275877,-0.08243991,-0.3962935,-0.3313911,0.05989449,-3.0780504,0.6227235,-0.00041840904,-0.15124099,-0.015715018,0.002269683,0.0026911406,0.004654583,0.01233712,0.433911,-1.4249266,1.9565567,-2.1000354,-1.5713953,2.4075818,-0.09643133,0.28178903,-0.33884937,0.053900115,-0.005103048,-0.10855163,0.05746084,0.22984336,-9.404425,0.90750587,47.66987,-0.77250516,-1.5509275,-3.669818,-0.24215612,-0.024055969,-0.14555673,24.0625,24.3125,23.75,25.0625,24.9375,25.1875
0.31005248,-1.2723949,-2.5961585,-2.0094223,-0.03902776,0.026661098,-0.08216372,-0.3966036,-0.33143726,0.05992204,-3.0781088,0.6226573,-0.00032775596,-0.1518332,-0.017515982,0.0020254774,0.002488412,0.005505735,0.01220121,0.43373188,-1.4243987,1.9558724,-2.099952,-1.5713953,2.4073544,-0.09344994,0.28528026,-0.3421839,0.052888323,-0.005275314,-0.10543219,-0.13407528,0.2681506,-9.423578,0.9947882,47.670765,-0.8545496,-1.5258948,-3.6249366,-0.22504166,-0.032981586,-0.16991326,24.0625,24.3125,23.75,25.0625,24.9375,25.1875
0.31205222,-0.9090035,-1.8157176,-2.0856168,-0.03356778,0.019744255,-0.082789876,-0.3969163,-0.33146575,0.05991223,-3.0780985,0.6226587,-0.00031978748,-0.15486926,-0.016796038,0.0017418937,0.0022937448,0.0065704365,0.004691083,0.4335268,-1.4237981,1.9551905,-2.099869,-1.5714077,2.407152,-0.09703413,0.28930837,-0.3460144,0.051644806,-0.0055531817,-0.10150316,0.076614454,0.22984336,-9.500193,0.9634547,47.686886,-0.8076279,-1.696621,-3.6177237,-0.20172994,-0.034841917,-0.19400468,24.0625,24.3125,23.75,25.0625,24.9375,25.1875
0.31405216,-0.26674962,-2.1336253,-2.6464903,-0.010164498,0.016989639,-0.082024954,-0.39722618,-0.33150965,0.059929013,-3.078105,0.6226411,-0.00025403604,-0.15563983,-0.018305795,0.0008205648,0.0026438138,0.006611506,0.003053841,0.43335965,-1.4232337,1.9544834,-2.0997617,-1.5714315,2.4069734,-0.094628796,0.29414082,-0.34924188,0.050151028,-0.0058909208,-0.0974577,0.038307227,0.22984336,-9.576807,0.86498255,47.689575,-0.74474823,-1.7789626,-3.5596027,-0.1610218,-0.030427108,-0.2617714,24.0625,24.3125,23.75,25.0625,24.9375,25.1875
0.31605244,-0.75664556,-2.0707996,-2.2009284,-0.030658754,0.021037225,-0.07836065,-0.39752674,-0.33155224,0.05992306,-3.078115,0.6226826,-0.0002824295,-0.15697941,-0.018710881,0.0014557809,0.0010246409,0.00860162,-3.064565e-05,0.43316728,-1.4226446,1.953802,-2.0996659,-1.5714077,2.406806,-0.09532596,0.29466054,-0.35121888,0.049123414,-0.0052608643,-0.095070906,0.0,0.3256114,-9.442732,0.96569055,47.716442,-0.8503745,-1.8350878,-3.5549645,-0.14144282,-0.03740258,-0.31593835,24.0625,24.3125,23.75,25.0625,24.9375,25.1875
0.31805247,-1.1221094,-2.2616074,-2.2395155,-0.040463943,0.03298843,-0.08270513,-0.39782673,-0.33154926,0.05989765,-3.078032,0.6226855,-0.00033234456,-0.15826607,-0.019138444,0.0015490424,0.000631185,0.009591341,-0.0014702184,0.43293938,-1.4220433,1.953143,-2.0995347,-1.5714554,2.406591,-0.09547805,0.29678005,-0.3539122,0.04862963,-0.0053301402,-0.0937815,-0.076614454,0.40222588,-9.481039,0.95226496,47.68599,-0.85196173,-1.7973797,-3.5432115,-0.08833893,-0.037115872,-0.33629978,24.0625,24.3125,23.75,25.0625,24.9375,25.1875
0.32005233,-1.6087306,-3.1286829,-2.4362922,-0.04996112,0.044563025,-0.08727861,-0.39816082,-0.33160582,0.05993769,-3.0780756,0.6227125,-0.000233393,-0.1569435,-0.019388013,0.00054603204,0.0019986772,0.0066131325,-0.0014921994,0.43276,-1.4214785,1.9523782,-2.099414,-1.5714554,2.4064233,-0.09381602,0.29802877,-0.35359234,0.05033885,-0.0053077335,-0.092098616,-0.05746084,0.45968673,-9.634268,0.9365982,47.709274,-0.9573083,-1.804091,-3.664929,-0.09627268,-0.026240245,-0.38060522,24.0625,24.3125,23.75,25.0625,24.9375,25.1875
0.32205242,-1.7309572,-3.786748,-2.428965,-0.06874599,0.057154793,-0.081642576,-0.3984687,-0.33163622,0.05994432,-3.078053,0.6227482,-0.00017312971,-0.15742612,-0.018280493,0.0006848619,0.0024240597,0.0057867537,-0.0050613065,0.43257895,-1.420914,1.9516953,-2.0993178,-1.5714916,2.406268,-0.09610008,0.29762325,-0.35399857,0.052076396,-0.005340497,-0.09081417,-0.076614454,0.45968673,-9.710882,0.9455522,47.684196,-0.78587687,-1.6439853,-3.8540537,-0.10887515,-0.01936104,-0.43663168,24.0625,24.3125,23.75,25.0625,24.9375,25.1875
0.32405218,-1.6120589,-3.5952206,-2.327713,-0.0894707,0.061660267,-0.08315101,-0.3987872,-0.33168566,0.05996671,-3.0780807,0.622714,-0.00013337877,-0.1571293,-0.019244608,0.00032475934,0.0032574967,0.004782734,-0.003930236,0.43240023,-1.4203367,1.9509534,-2.0991857,-1.5714916,2.4060647,-0.09378439,0.29975042,-0.35603887,0.053251937,-0.005673682,-0.08962824,-0.076614454,0.45968673,-9.653421,1.0507371,47.711063,-1.1005201,-1.6760952,-3.8906825,-0.09992033,-0.036243375,-0.49334627,24.0625,24.3125,23.75,25.0625,24.9375,25.1875
0.32605225,-1.7660539,-3.8025572,-2.3679376,-0.0747044,0.038892027,-0.07565732,-0.39912245,-0.33172575,0.05996335,-3.0781016,0.6226995,-0.00013264749,-0.16049375,-0.018634602,0.002534711,0.0009799069,0.009385209,-0.0071629137,0.43218264,-1.4197007,1.9502109,-2.0990903,-1.5714792,2.4058359,-0.09767632,0.29886186,-0.36024013,0.05320758,-0.0055414066,-0.09028633,-0.095768064,0.45968673,-9.710882,0.9254084,47.687782,-0.90698755,-1.4466548,-3.8327546,-0.067332186,-0.02740358,-0.5182581,24.0625,24.3125,23.75,25.0625,24.9375,25.1875
0.32805216,-1.1515571,-3.261203,-2.5845199,-0.059862625,0.03906047,-0.07426043,-0.39945257,-0.3317718,0.059975814,-3.0781195,0.6227187,-2.590849e-05,-0.15993942,-0.02034516,0.0026226838,0.0010208805,0.0090486305,-0.0009239325,0.43200415,-1.4191113,1.9494933,-2.0990298,-1.5715035,2.4056675,-0.09407878,0.30041108,-0.36264926,0.054384638,-0.0054344977,-0.09292755,-0.17238252,0.49799395,-9.768343,1.0126908,47.67345,-1.0733293,-1.468476,-3.7650752,-0.06471348,-0.04752659,-0.515445,24.0625,24.3125,23.75,25.0625,24.9375,25.1875
0.33005205,-0.7011273,-2.5079734,-2.6607363,-0.04953042,0.03440589,-0.0876503,-0.39973915,-0.3318225,0.05998011,-3.0781114,0.62273484,-7.128062e-05,-0.1627732,-0.020850895,0.00235914,0.0011082772,0.008129609,0.0010857369,0.43184745,-1.4185326,1.9487847,-2.0988739,-1.5714916,2.4055223,-0.09563475,0.30683535,-0.36998054,0.056159157,-0.0051447214,-0.09648979,-0.019153614,0.36391866,-9.787497,0.97464454,47.679718,-1.1236013,-1.5553527,-3.572777,-0.05219441,-0.043787193,-0.5131518,24.0625,24.3125,23.75,25.0625,24.9375,25.1875
0.33205184,-0.9170709,-2.0885015,-2.3541324,-0.042171787,0.032650515,-0.092383064,-0.40009758,-0.3318583,0.05999245,-3.0781555,0.6227184,4.1763582e-05,-0.16463386,-0.020948628,0.0021569189,0.00063371746,0.00969915,0.009124749,0.43161917,-1.4179193,1.9480423,-2.0988266,-1.5715035,2.4052787,-0.0967377,0.30955982,-0.37237433,0.054195054,-0.00537626,-0.10563014,-0.095768064,0.36391866,-9.672575,0.92764956,47.684196,-1.0462714,-1.8065264,-3.5397916,-0.021849984,-0.05152776,-0.4619459,24.0625,24.3125,23.75,25.0625,24.9375,25.1875
0.33405167,-1.1726002,-2.4937582,-2.2242138,-0.022554632,0.031465936,-0.077280425,-0.4004409,-0.3319137,0.06000893,-3.0781837,0.62270164,0.00012151529,-0.1644196,-0.020788034,0.0012205422,0.0013189965,0.0076424573,0.014175007,0.43143913,-1.4172938,1.947265,-2.0987303,-1.5715154,2.405085,-0.09688947,0.31134284,-0.37259722,0.054782234,-0.0051334416,-0.11083311,-0.30645782,0.40222588,-9.5385,1.0753525,47.694946,-1.0555243,-1.7723753,-3.545589,0.0072764065,-0.03303123,-0.42427015,24.0625,24.3125,23.75,25.0625,24.9375,25.1875
0.33605257,-1.6822703,-2.5784047,-2.0878017,-0.031145263,0.043179784,-0.08002017,-0.4007538,-0.33194995,0.060005978,-3.0782015,0.6225849,7.398557e-05,-0.16449246,-0.020304497,0.00011547857,0.0031039333,0.004032916,0.022764003,0.4312349,-1.4166802,1.9465345,-2.0985858,-1.5715035,2.4048061,-0.09763215,0.31452805,-0.37454295,0.057560675,-0.005251345,-0.12016387,-0.1340753,0.3256114,-9.615114,0.99702406,47.693153,-1.0349329,-1.7519631,-3.7181656,0.02498624,-0.05110963,-0.30017534,24.0625,24.3125,23.75,25.0625,24.9375,25.1875
0.33805254,-1.7112061,-2.440867,-1.857742,-0.046150446,0.055623036,-0.07504213,-0.40109795,-0.33199686,0.060036443,-3.078215,0.62254727,0.00017717754,-0.16443016,-0.020078596,0.0005236939,0.0032255314,0.0030074383,0.026074558,0.43105474,-1.4160795,1.9457449,-2.0984533,-1.5715393,2.4046013,-0.09808123,0.31407046,-0.37571728,0.060165487,-0.004924757,-0.12392485,-0.17238252,0.30645782,-9.461885,1.0015011,47.679718,-1.0316546,-1.8138423,-3.7945194,0.0061786934,-0.053037584,-0.24306938,24.0625,24.3125,23.75,25.0625,24.9375,25.1875
0.34005222,-1.9021826,-2.6346152,-1.5319833,-0.04495803,0.059473168,-0.08302073,-0.40144116,-0.3320316,0.060038127,-3.078244,0.6225329,0.0002602432,-0.16595915,-0.0203623,0.0009415439,0.0020520813,0.004285776,0.026806833,0.43083835,-1.4154667,1.9450258,-2.0984051,-1.5715512,2.4043727,-0.09906241,0.31553334,-0.37844592,0.05977392,-0.0043926365,-0.12563843,-0.28730422,0.2681506,-9.251195,1.0149267,47.66271,-1.0168597,-1.6050025,-3.8180895,0.052315816,-0.048197344,-0.20157926,24.0625,24.3125,23.75,25.0625,24.9375,25.1875
0.34205192,-1.1927403,-1.6858149,-1.4755523,-0.038807783,0.06273088,-0.084055655,-0.40179577,-0.33209792,0.060079526,-3.0783358,0.6224568,0.0003522876,-0.16653956,-0.020093782,0.00047450315,0.0033308899,0.0018080672,0.024140315,0.4306462,-1.4148656,1.9442128,-2.098285,-1.5715269,2.4041219,-0.09983314,0.31838778,-0.38152286,0.06278643,-0.0045073233,-0.12374183,-0.17238252,0.19153613,-9.193734,0.9992599,47.658226,-1.0224694,-1.6563927,-3.7483654,0.040774696,-0.07586936,-0.17676762,24.0625,24.3125,23.75,25.0625,24.9375,25.1875
0.34405175,-1.0775652,-1.1091592,-1.4224784,-0.008367442,0.030553352,-0.08410839,-0.40213248,-0.33215585,0.060103178,-3.0783923,0.62233627,0.00044944047,-0.1686499,-0.020080928,0.0026135244,0.0025768618,0.004192068,0.018431377,0.4304778,-1.4142649,1.9434456,-2.0981872,-1.5715393,2.4038715,-0.101302385,0.31791702,-0.38678038,0.06603654,-0.0048110182,-0.119500436,-0.17238252,0.15322891,-9.270349,0.8784135,47.67166,-0.97662866,-1.574836,-3.6585405,0.03133693,-0.04927572,-0.1721379,24.0625,24.3125,23.75,25.0625,24.9375,25.1875
0.34605184,-0.73455536,-1.072039,-1.4453797,0.018382119,0.02603079,-0.078461766,-0.40243295,-0.33216363,0.060064662,-3.0783112,0.62236184,0.0003189841,-0.16918334,-0.019593854,0.0024423115,0.0043840804,0.0020254527,0.011201208,0.43024945,-1.4136157,1.9427508,-2.0980308,-1.5715517,2.4036698,-0.102021225,0.32007092,-0.3899063,0.06973796,-0.0055580228,-0.112986416,-0.40222588,0.19153613,-9.078813,0.9298854,47.682407,-0.9407166,-1.4413284,-3.5521677,0.013232604,-0.067363776,-0.27859896,24.0625,24.3125,23.75,25.0625,24.9375,25.1875
0.34805167,-1.0860167,-0.9551,-1.4388878,0.02702401,0.01356237,-0.071659975,-0.40280372,-0.33221984,0.06010452,-3.0783615,0.62229687,0.00045676628,-0.16918056,-0.019432444,0.0023799022,0.0055604572,-0.00021362098,0.0067572095,0.43005744,-1.4129906,1.9419125,-2.0979102,-1.5715755,2.4034314,-0.10210345,0.32140064,-0.39229524,0.07332398,-0.005678845,-0.10862464,-0.45968673,0.24899697,-9.040505,1.0126908,47.66271,-0.95285237,-1.4535829,-3.563219,-0.034324665,-0.054321684,-0.31150374,24.0625,24.3125,23.75,25.0625,24.9375,25.1875
0.3500524,-0.8935329,-1.0655364,-1.1461169,0.008722985,0.050245866,-0.077672124,-0.40313172,-0.3322594,0.060114387,-3.0783741,0.62232,0.0004258104,-0.16838129,-0.01768169,0.00048531216,0.008435731,-0.007422766,0.0031929808,0.42984056,-1.4123774,1.9411477,-2.0977528,-1.5715517,2.4032278,-0.10471913,0.32433152,-0.39272758,0.07857807,-0.0052780844,-0.10767744,-0.45968673,0.11492168,-9.021352,1.1022091,47.640312,-0.9668623,-1.4193473,-3.5434377,-0.06498355,-0.08718006,-0.34782743,24.0625,24.3125,23.75,25.0625,24.9375,25.1875
0.35205218,-1.3602351,-1.4522204,-1.2900381,-0.0014091285,0.06368605,-0.078945376,-0.40346423,-0.33228058,0.06011641,-3.078314,0.6222856,0.00037601712,-0.1671524,-0.018550012,-0.00012652852,0.0101385005,-0.012028625,0.0061284048,0.4296255,-1.4117275,1.9403447,-2.0975354,-1.5715874,2.4029994,-0.10225204,0.3269792,-0.39578515,0.08387803,-0.0049113925,-0.108145595,-0.51714754,0.11492168,-9.078813,1.1268245,47.66271,-1.0120279,-1.4112183,-3.6867547,-0.14371613,-0.09383412,-0.35778204,24.0625,24.3125,23.75,25.0625,24.9375,25.1875
0.35405216,-2.0593047,-1.7942344,-1.4139599,-0.011556292,0.07085285,-0.08335049,-0.403796,-0.33233747,0.06011564,-3.0783334,0.62215626,0.00032622556,-0.1663224,-0.016736845,-0.0020115492,0.0131239435,-0.018470312,0.0031102612,0.42944482,-1.4110537,1.9395307,-2.097366,-1.5715755,2.402736,-0.1046867,0.32944083,-0.39552474,0.08825712,-0.004938737,-0.10756285,-0.45968673,0.17238252,-8.983045,0.9791215,47.705692,-0.99769264,-1.4906789,-3.7585182,-0.20457157,-0.07946043,-0.39039838,24.0625,24.3125,23.75,25.0625,24.9375,25.1875
0.35605243,-2.324938,-2.5535185,-1.0582563,-0.024561541,0.09450283,-0.07325764,-0.40416646,-0.33236203,0.06013007,-3.07829,0.6223197,0.00039699802,-0.16661274,-0.017096499,-0.003123924,0.015355683,-0.021163024,0.0038059896,0.42920518,-1.4104037,1.9387177,-2.0972335,-1.5716118,2.4026043,-0.10355964,0.33399922,-0.39895985,0.09051005,-0.0058516855,-0.10712843,-0.51714754,0.19153613,-8.810662,1.061927,47.679718,-0.9696649,-1.5764781,-3.8207974,-0.27197108,-0.08168018,-0.41067868,24.0625,24.3125,23.75,25.0625,24.9375,25.1875
0.35805213,-2.169973,-2.4801323,-0.82702136,-0.028844064,0.08908255,-0.07557595,-0.4044841,-0.33241478,0.060130578,-3.0782957,0.62218434,0.0003482984,-0.16931644,-0.01803173,-0.0012281557,0.014096869,-0.016478537,0.005442962,0.42903718,-1.409755,1.9379267,-2.0970538,-1.5716122,2.4023516,-0.10347578,0.33498618,-0.40459684,0.090377204,-0.0066773095,-0.10867734,-0.36391866,0.17238252,-8.848969,0.9455522,47.695843,-1.045369,-1.538408,-3.552249,-0.30141938,-0.07979792,-0.43051612,24.0625,24.3125,23.75,25.0625,24.9375,25.1875
0.3600527,-2.0659502,-2.2567158,-0.888763,-0.02134178,0.060250275,-0.07288457,-0.40485698,-0.33242208,0.060138006,-3.0782335,0.6222275,0.00035866175,-0.17227417,-0.018330382,9.2974355e-05,0.011479916,-0.011375665,0.0069727087,0.4287725,-1.409082,1.9370893,-2.096864,-1.5716599,2.4021223,-0.10538345,0.33550993,-0.40771136,0.08722802,-0.0064427876,-0.112113446,-0.36391866,0.2681506,-8.772355,0.9701675,47.683304,-0.95972407,-1.4887822,-3.441134,-0.2973237,-0.07103497,-0.38958263,24.0625,24.3125,23.75,25.0625,24.9375,25.1875
0.36205256,-1.2209079,-2.076858,-0.8766698,-0.01893346,0.047114078,-0.07872767,-0.40519348,-0.33247367,0.06013323,-3.078255,0.62217087,0.00024837063,-0.1747947,-0.019280285,0.0007952313,0.008819476,-0.006217774,0.011766977,0.42855647,-1.4083967,1.9362649,-2.0966742,-1.5716122,2.4018686,-0.10578562,0.33693254,-0.41006973,0.08236504,-0.006194475,-0.11730841,-0.36391866,0.3256114,-8.829816,1.0194036,47.692257,-0.9257137,-1.5787992,-3.4929905,-0.26696688,-0.075958535,-0.3657357,24.0625,24.3125,23.75,25.0625,24.9375,25.1875
0.36405233,-0.9663533,-2.0320182,-1.1250359,-0.033034816,0.04313852,-0.079958834,-0.40557513,-0.33251786,0.06013926,-3.078245,0.62212807,0.00033208926,-0.17689191,-0.018059062,0.0002994728,0.009290396,-0.005181184,0.014764941,0.42835128,-1.4076878,1.9354042,-2.096555,-1.5716599,2.4016385,-0.10900797,0.33917552,-0.4113707,0.080665976,-0.0070613786,-0.1235265,-0.30645782,0.34476504,-8.848969,0.95897776,47.658226,-0.72520506,-1.4360842,-3.5680828,-0.26377466,-0.0889182,-0.29937333,24.0625,24.3125,23.75,25.0625,24.9375,25.1875
0.36605242,-0.79391646,-2.3060217,-1.1594975,-0.044516627,0.048963025,-0.085857086,-0.4058946,-0.33255568,0.06012095,-3.0782175,0.6220989,0.00022704205,-0.17863126,-0.019926695,0.0012045905,0.006895769,0.0017610529,0.022710208,0.42814836,-1.4070148,1.9346269,-2.0963776,-1.5716485,2.4014213,-0.1064978,0.33959356,-0.4126746,0.07423951,-0.007796859,-0.12895837,-0.24899697,0.3256114,-8.848969,1.0149267,47.69763,-0.90509415,-1.401968,-3.5679796,-0.20772511,-0.058000106,-0.23844597,24.0625,24.3125,23.75,25.0625,24.9375,25.1875
0.36805212,-1.8204373,-3.1184328,-1.0569099,-0.053842366,0.06369624,-0.07174805,-0.40624374,-0.3325949,0.06011158,-3.0782223,0.6219633,0.00017459177,-0.18126637,-0.018979155,0.0008891247,0.0062140957,0.0034160435,0.02261027,0.42793104,-1.4063169,1.9338025,-2.0962112,-1.5716485,2.4011192,-0.110168286,0.3421879,-0.41463023,0.0718075,-0.007881005,-0.13252725,-0.4213795,0.38307226,-8.90643,0.95897776,47.64479,-0.6924611,-1.4300218,-3.697895,-0.16146928,-0.07030416,-0.12529258,24.0625,24.3125,23.75,25.0625,24.9375,25.1875
0.37005198,-1.972844,-3.186666,-1.25137,-0.063541085,0.09018621,-0.078988984,-0.4066485,-0.33262575,0.06013047,-3.0782056,0.6219399,0.00028397012,-0.18094236,-0.020068817,0.00012303313,0.0058675674,0.0012341382,0.025757896,0.42769143,-1.4056077,1.9329051,-2.0960672,-1.5717081,2.4008677,-0.10857925,0.34497908,-0.4165641,0.07277634,-0.006657627,-0.13408801,-0.4213795,0.3256114,-9.021352,1.044019,47.689575,-0.92476434,-1.3653225,-3.6584885,-0.15283674,-0.06515565,-0.10449719,24.0625,24.3125,23.75,25.0625,24.9375,25.1875
