Tylouw/Master_Thesis_Code/training_data/batch_1/big_rod_t0.1/sample_75_session_3.csv
timestamp[s],tcp_force_x[N],tcp_force_y[N],tcp_force_z[N],tcp_force_rx[Nm?],tcp_force_ry[Nm?],tcp_force_rz[Nm?],tcp_pose_x[m],tcp_pose_y[m],tcp_pose_z[m],tcp_pose_rx[rot_vec_x],tcp_pose_ry[rot_vec_y],tcp_pose_rz[rot_vec_z],tcp_velo_x[m/s],tcp_velo_y[m/s],tcp_velo_z[m/s],tcp_velo_rx[rot_vec_x/s],tcp_velo_ry[rot_vec_y/s],tcp_velo_rz[rot_vec_z/s],q1[rad],q2[rad],q3[rad],q4[rad],q5[rad],q6[rad],qd1[rad/s],qd2[rad/s],qd3[rad/s],qd4[rad/s],qd5[rad/s],qd6[rad/s],tool_acc_x,tool_acc_y,tool_acc_z,current_of_whole_robot[A],voltage_of_whole_robot[V],current_J1[A],current_J2[A],current_J3[A],current_J4[A],current_J5[A],current_J6[A],temp_J1[C],temp_J2[C],temp_J3[C],temp_J4[C],temp_J5[C],temp_J6[C]
1.027016e-06,-0.5801623,-1.1046448,0.20003785,-0.0065809675,0.010536328,-0.03216082,-0.37288716,-0.32822144,0.059942584,-3.0785089,0.6248137,-0.00025075136,0.0027105573,0.0013623479,-0.0041447734,0.0041942787,-0.008776835,-5.5995413e-05,0.44815025,-1.4708728,2.009596,-2.1077268,-1.5706614,2.4230313,-0.00012133798,0.0044721654,0.0044028643,0.00085235114,3.414473e-05,-6.759341e-05,0.095768064,0.19153613,-8.944737,0.71951014,47.747787,-0.21722144,-2.9304304,-2.422089,-0.510727,0.05839363,-0.1467752,25.5,26.1875,25.3125,27.9375,28.6875,29.0
0.002055028,-0.172676,-0.9071282,0.22601952,-0.00617131,0.017603701,-0.03160889,-0.3728747,-0.32822612,0.059951022,-3.0785139,0.6248146,-0.0002706771,-0.0010765559,-0.00047069017,-0.0028694083,-0.0013760946,0.0027431564,-5.0278126e-05,0.4481623,-1.4708968,2.009596,-2.1076958,-1.5706495,2.4230433,-0.000118671465,0.004596344,0.0042596813,-0.011924708,3.350902e-05,-6.675779e-05,0.038307227,0.19153613,-9.021352,0.68146914,47.71465,-0.25754696,-2.8115697,-2.3309212,-0.4682793,0.064045385,-0.14982414,25.5,26.1875,25.3125,27.9375,28.6875,29.0
0.004054421,0.20368636,-0.27756098,0.12081084,-0.013682576,0.027966876,-0.039525434,-0.37287098,-0.32822862,0.05991485,-3.0784907,0.62482977,-0.0003426652,-0.0015732497,-0.00071184395,-0.0025445072,-0.0023555567,0.004772636,-4.8210957e-05,0.4481623,-1.4708251,2.0096085,-2.1077316,-1.5706376,2.4230556,-0.00011611986,0.00406428,0.0045595784,-0.013946012,3.2896645e-05,-6.594256e-05,0.038307227,0.22984336,-8.983045,0.7732232,47.728977,-0.19833286,-3.1026354,-2.5333147,-0.36363775,0.06784777,-0.15234266,25.5,26.1875,25.3125,27.9375,28.6875,29.0
0.006054216,0.32471722,-0.14101033,0.10020233,0.0035534138,0.0142581025,-0.03895864,-0.37287703,-0.32820806,0.05990373,-3.0784473,0.62491703,-0.0003636407,-0.0005922325,-0.00023818163,-0.0022272558,-0.0009472506,0.0018671642,-4.769047e-05,0.44812617,-1.4708135,2.009621,-2.1077297,-1.5706495,2.4230795,-0.0001136753,0.0031199867,0.0037247597,-0.00893811,3.2306238e-05,-6.514708e-05,0.019153614,0.22984336,-8.90643,0.7777002,47.723602,-0.25363365,-3.0197997,-2.5336409,-0.38458988,0.052483093,-0.15152758,25.5,26.1875,25.3125,27.9375,28.6875,29.0
0.008054341,0.92010045,0.4296242,-0.30678728,0.033441003,-0.0022964028,-0.0362607,-0.3728678,-0.3282185,0.059918396,-3.0784564,0.62486094,-0.00033749462,0.00010401281,9.7700584e-05,-0.0017836313,8.588874e-05,-0.00026299022,-4.6936813e-05,0.4481623,-1.4708377,2.009608,-2.1077044,-1.5706614,2.4230795,-0.00011133185,0.0022035711,0.002737902,-0.0046673683,3.1736592e-05,-6.437047e-05,-0.019153614,0.22984336,-9.021352,0.7463667,47.71554,-0.25389564,-2.954742,-2.4978485,-0.44364458,0.05578197,-0.15402687,25.5,26.1875,25.3125,27.9375,28.6875,29.0
0.010053568,0.95377403,1.0394223,-0.70402235,0.042861585,-0.010382405,-0.037960663,-0.37288475,-0.3282182,0.05991501,-3.0784693,0.62488306,-0.00033321834,0.00012348949,0.00010614814,-0.0013410611,0.00021982184,-0.0005360258,-4.5470282e-05,0.4481382,-1.4708141,2.0095952,-2.1077278,-1.5706495,2.4230676,-0.00010908294,0.001746532,0.0018474938,-0.0030158085,3.1186693e-05,-6.3612155e-05,-0.038307227,0.11492168,-9.232041,0.7105615,47.678825,-0.49243933,-2.2379942,-3.224341,-0.4535751,0.028385468,-0.18655899,25.5,26.1875,25.3125,27.9375,28.6875,29.0
0.012053409,0.24948213,0.05402838,-0.89066255,0.046835896,-0.010722923,-0.033738814,-0.37288576,-0.32821438,0.059891026,-3.0784626,0.62482363,-0.00034041703,-0.002126176,-0.00096914347,-0.0025452417,0.0013639177,-0.0029439323,-5.745378e-05,0.44813818,-1.470775,2.009618,-2.107775,-1.5706614,2.4230313,-0.0001406155,0.010481812,-0.0051933615,-0.0020443867,3.065563e-05,-7.782398e-05,0.05746084,0.1340753,-9.385271,0.7620334,47.709274,-0.602501,-2.153597,-3.368835,-0.4390924,0.037531685,-0.20160195,25.5,26.1875,25.3125,27.9375,28.6875,29.0
0.014054192,0.5464282,-0.17068805,-0.9163619,0.006785611,0.02504112,-0.03965507,-0.37284368,-0.32820642,0.059846576,-3.0783868,0.6249062,-0.00055279926,-0.005452894,-0.0007440678,-0.003916504,0.0026880356,-0.0056958967,-0.0034720455,0.44813725,-1.4707239,2.0096505,-2.1077158,-1.5706257,2.4230914,-0.0035896797,0.019554853,-0.0122328065,-0.0010240016,1.7042516e-05,-0.00010689968,-0.038307227,0.21068975,-9.461885,0.75084364,47.711063,-0.61924887,-2.7812304,-3.0123396,-0.43459082,0.026916636,-0.22136079,25.5,26.1875,25.3125,27.9375,28.6875,29.0
0.016054437,-1.4565203,-1.2739526,-1.0623847,-0.023595748,0.02460107,-0.02788181,-0.3728689,-0.3281903,0.059861097,-3.078361,0.62490076,-0.0005454973,-0.005685142,0.00047568357,-0.0042261607,0.0033226241,-0.0070071537,-0.002947407,0.4481001,-1.4707121,2.0095904,-2.1076553,-1.5706495,2.4230542,-0.00609328,0.019366667,-0.011532021,-8.029197e-05,1.4951606e-05,-0.0031358653,-0.3256114,0.4213795,-9.710882,0.77545905,47.72808,-0.29405648,-2.6564956,-3.317564,-0.44198406,0.0035784524,-0.21095334,25.5,26.1875,25.3125,27.9375,28.6875,29.0
0.01805354,-1.1286356,-1.785643,-1.0541667,-0.0744041,0.0841836,-0.051130172,-0.3728547,-0.3281811,0.05983233,-3.0782928,0.62480724,-0.0005662838,-0.0049008713,0.00050898007,-0.0047496115,0.0049145315,-0.010285261,0.0011437011,0.44813636,-1.4706635,2.0096028,-2.1076539,-1.5707096,2.4230409,-0.005436569,0.02080646,-0.012674544,0.003265757,3.7650836e-06,-0.0065703145,-0.34476507,0.40222588,-9.864111,0.7709874,47.716442,-0.40212947,-2.3963237,-3.4996238,-0.44502085,0.00508341,-0.18191083,25.5,26.1875,25.3125,27.9375,28.6875,29.0
0.020054078,-1.7301575,-2.5336447,-0.9400449,-0.08023647,0.09803963,-0.041385237,-0.3728522,-0.3282038,0.059811015,-3.0783103,0.6247331,-0.000686681,-0.005348602,-6.86101e-05,-0.0044791074,0.005287418,-0.011057766,0.0021746731,0.44814864,-1.4705793,2.0095537,-2.1076295,-1.5706614,2.4230046,-0.004757127,0.022614427,-0.015768105,0.005409415,2.4583306e-07,-0.0069203246,-0.5554548,0.45968673,-9.787497,0.82694155,47.737038,-0.56637335,-2.383693,-3.3749974,-0.4868636,0.012039429,-0.16995504,25.5,26.1875,25.3125,27.9375,28.6875,29.0
0.022053704,-1.9699996,-2.6690974,-1.1462193,-0.059840888,0.09833184,-0.041839544,-0.37286615,-0.3282064,0.059794065,-3.0783033,0.62479043,-0.0007393269,-0.0063772486,-0.00071909936,-0.0037559145,0.0042555463,-0.0089248065,0.0018254031,0.44812462,-1.4705192,2.0095294,-2.1076415,-1.5706376,2.4230173,-0.004469673,0.023031967,-0.017687935,0.0045425114,1.6051143e-08,-0.006282126,-0.6895301,0.59376204,-9.787497,0.7665104,47.71465,-0.58908033,-2.3679826,-3.4389954,-0.46999776,-0.0016848833,-0.18642318,25.5,26.1875,25.3125,27.9375,28.6875,29.0
0.024053428,-1.8239477,-1.8693665,-1.1656337,-0.057515737,0.08513961,-0.054712147,-0.37289366,-0.3281808,0.059794463,-3.0782151,0.62486917,-0.0006988812,-0.008185614,-0.00068085484,-0.0026802942,0.002659715,-0.0056224405,0.00043007123,0.44810018,-1.4704833,2.0094812,-2.1076066,-1.5707096,2.4230533,-0.0061864154,0.022513546,-0.019217063,0.002921804,1.048025e-09,-0.0066022235,-0.57460845,0.5746084,-9.787497,0.7620334,47.709274,-0.6315724,-2.3466463,-3.4873095,-0.44831806,-0.015812438,-0.18703812,25.5,26.1875,25.3125,27.9375,28.6875,29.0
0.026053758,-1.3259878,-1.4441406,-1.1324601,-0.045884155,0.06955138,-0.051459003,-0.37292105,-0.32820475,0.05981923,-3.0782893,0.62484545,-0.0006837959,-0.009936396,-0.0008788916,-0.002407443,0.0019523737,-0.004170231,0.00029882084,0.4480877,-1.4704707,2.0094078,-2.1075947,-1.5706614,2.4230165,-0.0074079637,0.024539754,-0.02183204,0.0018954194,6.842855e-11,-0.007690326,-0.49799395,0.45968673,-9.749189,0.7284641,47.713753,-0.5550043,-2.2362812,-3.501483,-0.4255946,-0.025636777,-0.19395462,25.5,26.1875,25.3125,27.9375,28.6875,29.0
0.028053358,-0.91688716,-1.6217557,-1.1034031,-0.021312876,0.05247254,-0.05350426,-0.3729373,-0.3282167,0.05980297,-3.0782993,0.6248087,-0.0007100664,-0.011228701,-0.0009738589,-0.0025500255,0.0019880123,-0.004036216,0.00070116227,0.44808728,-1.4703978,2.0093706,-2.1076186,-1.5706495,2.422992,-0.008341294,0.027077142,-0.024236018,0.001656907,-9.6816155e-05,-0.009023875,-0.5363012,0.4405331,-9.615114,0.7620334,47.686886,-0.53086793,-2.2775424,-3.4439588,-0.4190758,-0.048279874,-0.2055915,25.5,26.1875,25.3125,27.9375,28.6875,29.0
0.030053979,-0.9464272,-1.0339118,-0.8601796,-0.013861952,0.045885872,-0.069662504,-0.37298274,-0.3282213,0.05980809,-3.0783148,0.62479305,-0.0006534178,-0.013013625,-0.00043693578,-0.00211695,0.003023326,-0.0022431933,-0.000416234,0.44806293,-1.4703375,2.009298,-2.1076424,-1.5706619,2.422956,-0.009812855,0.028437147,-0.026712144,0.0016115296,-0.0018120818,-0.009372707,-0.47884035,0.30645782,-9.595961,0.784413,47.698532,-0.6461155,-2.2941937,-3.5817592,-0.38150886,-0.03973331,-0.19365384,25.5,26.1875,25.3125,27.9375,28.6875,29.0
0.032053612,-0.5530333,-0.18049856,-0.68503344,-0.01038089,0.061463963,-0.09095073,-0.37302384,-0.32823676,0.059819996,-3.0783434,0.62481725,-0.00064540043,-0.013992873,-0.00061732455,-0.0015816729,0.004174395,-0.0011208567,0.00030849286,0.44803903,-1.4702771,2.0092018,-2.1076305,-1.570639,2.4229436,-0.009329783,0.029706525,-0.029583454,0.0027061887,-0.0033393523,-0.009609616,-0.34476507,0.21068975,-9.634268,0.7553206,47.678825,-0.61943614,-2.2913249,-3.4946904,-0.36386782,-0.04855634,-0.20602068,25.5,26.1875,25.3125,27.9375,28.6875,29.0
0.034054283,-0.927802,-0.5245837,-0.46490338,0.018115548,0.054429837,-0.082739495,-0.37303916,-0.3282335,0.05981086,-3.0783308,0.6248344,-0.0006343046,-0.015045888,-0.0007425739,-0.0006522589,0.003669454,-0.00083908555,-0.00064447534,0.44802672,-1.4702411,2.0091884,-2.1076534,-1.5706505,2.4229436,-0.010276897,0.030141769,-0.032696072,0.0049095214,-0.003007931,-0.009603168,-0.19153613,0.11492168,-9.595961,0.7620334,47.650166,-0.6747596,-2.1857364,-3.4155512,-0.3816635,-0.035652805,-0.21424,25.5,26.1875,25.3125,27.9375,28.6875,29.0
0.036053427,-0.7394302,0.18283148,-0.47693288,0.018122965,0.04635403,-0.100551724,-0.37309864,-0.328234,0.05980277,-3.078302,0.624772,-0.0005629225,-0.016341794,-0.00061962416,-0.0003447853,0.00313249,-0.0006810293,-0.0026919427,0.4480141,-1.4701209,2.0090806,-2.1076772,-1.5707105,2.422896,-0.0119656045,0.031489547,-0.035020478,0.0055090636,-0.0025956922,-0.009243873,-0.19153613,0.019153614,-9.500193,0.7709874,47.68599,-0.6406954,-2.121121,-3.4388986,-0.38103366,-0.055705525,-0.21412137,25.5,26.1875,25.3125,27.9375,28.6875,29.0
0.038053267,-0.42335933,0.25422415,-0.4493534,0.020224549,0.03532101,-0.108526684,-0.37312683,-0.32822433,0.059809234,-3.0782533,0.6248581,-0.0005966304,-0.017344026,-0.000991529,-0.0005769908,0.0028133693,-0.0012485639,-0.0031072162,0.44797802,-1.470072,2.0089958,-2.1076057,-1.570722,2.4229198,-0.012535986,0.03422311,-0.037520815,0.0056470064,-0.00206772,-0.009398112,-0.19153613,-0.11492168,-9.385271,0.800085,47.73525,-0.67362416,-2.2014384,-3.4129758,-0.36695635,-0.07975487,-0.22286189,25.5,26.1875,25.3125,27.9375,28.6875,29.0
0.04005392,0.040660113,0.11201274,-0.5920642,0.02423859,0.029167386,-0.11959657,-0.37315732,-0.32823473,0.059795264,-3.0782623,0.62484086,-0.00064789597,-0.01878004,-0.0010934375,0.000114376955,0.0021335045,-3.2657113e-05,-0.0030490195,0.44795364,-1.469976,2.0089223,-2.1076057,-1.5706981,2.4228835,-0.013703849,0.035113484,-0.04017088,0.0060159382,-0.0019874356,-0.010622681,-0.17238252,-0.019153614,-9.481039,0.75084364,47.709274,-0.6246929,-2.198545,-3.4502888,-0.35053372,-0.08162719,-0.22226462,25.5,26.1875,25.3125,27.9375,28.6875,29.0
0.04205388,-0.26856306,-0.1992627,-0.7743823,0.034256697,0.012287534,-0.11779528,-0.3731791,-0.32822374,0.05978805,-3.0782409,0.6249517,-0.0006755995,-0.01953647,-0.0010688257,0.00014976929,0.0027412337,0.0001404663,-0.0026065737,0.44790536,-1.4699396,2.008899,-2.1076052,-1.5706867,2.422907,-0.014013022,0.03653356,-0.04190923,0.00644351,-0.0026136094,-0.011371789,-0.095768064,-0.038307227,-9.481039,0.76874626,47.70211,-0.6928947,-2.1469169,-3.3998528,-0.3454832,-0.09181968,-0.22059044,25.5,26.1875,25.3125,27.9375,28.6875,29.0
0.04405359,0.21597712,0.07712304,-0.80470145,0.020368878,0.021992898,-0.13234401,-0.3732536,-0.32822946,0.059812706,-3.0782537,0.624916,-0.00053982117,-0.020681284,-0.00025308738,0.0004512121,0.004593557,0.0005011439,-0.003616142,0.44788095,-1.4698672,2.0087655,-2.1076162,-1.5707349,2.422859,-0.015348879,0.037526224,-0.04406794,0.008092521,-0.004439676,-0.011693512,-0.11492168,-0.019153614,-9.481039,0.7709874,47.686886,-0.66530305,-2.0231972,-3.4338977,-0.34430593,-0.09647034,-0.23002774,25.5,26.1875,25.3125,27.9375,28.6875,29.0
0.04605381,-0.023981066,0.034509882,-0.7795979,0.008629668,0.025521325,-0.14985994,-0.37327057,-0.32821193,0.05978138,-3.0781786,0.6249579,-0.0006741665,-0.021463448,5.402189e-05,0.0006309793,0.0057035936,0.00022763394,-0.0033089744,0.44783282,-1.4697591,2.008705,-2.107556,-1.5707353,2.4228466,-0.016037188,0.03878423,-0.04623965,0.009736173,-0.005324741,-0.012685569,-0.15322891,0.019153614,-9.461885,0.77545905,47.699425,-0.63320816,-2.1045406,-3.4637034,-0.3376109,-0.07516004,-0.21632312,25.5,26.1875,25.3125,27.9375,28.6875,29.0
0.048053466,-0.07052051,-0.4352419,-0.750201,0.0056380094,0.024508527,-0.15056238,-0.37333947,-0.32824525,0.059803564,-3.0782435,0.62493294,-0.00055491086,-0.022440063,-0.000117183095,0.0009494234,0.005077176,-6.753237e-05,-0.0036909077,0.44783244,-1.4696747,2.0085723,-2.1076038,-1.5707349,2.4228225,-0.017069118,0.040174875,-0.048754625,0.01085268,-0.004634263,-0.013336123,-0.15322891,0.17238252,-9.481039,0.82022345,47.729877,-0.5871708,-2.0219767,-3.4971461,-0.35092336,-0.0759303,-0.22568506,25.5,26.1875,25.3125,27.9375,28.625,29.0
0.050054245,-0.3119987,-1.0070084,-0.8392867,0.0038130989,0.013982257,-0.16213027,-0.3733702,-0.32824963,0.05981068,-3.078244,0.6249519,-0.00060842244,-0.022945253,-0.00064346945,0.0014388523,0.00468299,0.00038626272,-0.0024737176,0.44779658,-1.4696145,2.008476,-2.1075432,-1.570711,2.4227984,-0.016642569,0.040830806,-0.05077917,0.0116409995,-0.0044788457,-0.014125898,-0.1340753,0.2681506,-9.5385,0.7172743,47.72629,-0.6499711,-1.9665799,-3.5225365,-0.3369254,-0.09485693,-0.23087952,25.5,26.1875,25.3125,27.9375,28.625,29.0
0.052054,-0.048121426,-0.9340538,-0.6321757,-0.023585062,0.029407116,-0.17668058,-0.37340534,-0.32823417,0.059802245,-3.078183,0.6249588,-0.0006339519,-0.023371017,-0.00039935176,0.00095367443,0.0060612876,-0.0014207083,-0.002524619,0.44776034,-1.46953,2.0083916,-2.107495,-1.5707477,2.4227743,-0.017175708,0.043252215,-0.052728143,0.013395002,-0.0049401755,-0.014605892,-0.114921674,0.36391866,-9.461885,0.7530795,47.71554,-0.66496265,-1.933214,-3.4994166,-0.3513692,-0.097564414,-0.23142871,25.5,26.1875,25.3125,27.9375,28.625,29.0
0.054053683,-0.112815,-1.483234,-0.7848022,-0.03231418,0.038812265,-0.19120678,-0.373436,-0.32822564,0.059788335,-3.078139,0.62494934,-0.0006978125,-0.024290849,-0.0005380851,0.0013233642,0.0061177607,-0.00096351973,-0.0021323294,0.44772413,-1.4694337,2.0083067,-2.107447,-1.5707592,2.4227378,-0.017577754,0.04439138,-0.055000722,0.01414111,-0.005193742,-0.015398056,-0.1340753,0.40222588,-9.500193,0.70608455,47.73525,-0.64667404,-1.9017507,-3.5417452,-0.39022732,-0.1078071,-0.20614307,25.5,26.1875,25.3125,27.9375,28.625,29.0
0.056053717,-0.5208335,-2.0756836,-0.96160686,-0.030312581,0.035701398,-0.18489249,-0.37348703,-0.32824597,0.05981332,-3.0781784,0.62495756,-0.00067565823,-0.025102297,-0.000478575,0.000852035,0.0075021107,-0.001383186,-0.0022485917,0.44770014,-1.469373,2.0081747,-2.1074111,-1.5707358,2.422714,-0.017701888,0.047132887,-0.0569831,0.014363652,-0.006263236,-0.015402225,-0.17238252,0.40222588,-9.576807,0.7620334,47.674347,-0.63300025,-1.8230014,-3.5544372,-0.38374114,-0.09317733,-0.20192152,25.5,26.1875,25.3125,27.9375,28.625,29.0
0.05805427,-0.44471285,-1.948911,-0.9581643,-0.041301455,0.05354975,-0.18636085,-0.37354133,-0.32822716,0.059799112,-3.0781102,0.62500215,-0.00070189615,-0.026849486,-0.0006454142,0.0013286663,0.0068214005,0.0009870628,-0.003661267,0.4476399,-1.4692526,2.008067,-2.1073754,-1.570772,2.4226904,-0.018686866,0.048437595,-0.059158288,0.012803481,-0.006684381,-0.014971331,-0.15322891,0.47884035,-9.5385,0.7709874,47.723602,-0.64270675,-1.8749105,-3.5609179,-0.38432622,-0.10726413,-0.19301262,25.5,26.1875,25.3125,27.9375,28.625,29.0
0.06005379,-0.98352337,-1.8092726,-0.7709275,-0.044909656,0.042765204,-0.1666653,-0.37358359,-0.32823294,0.05979685,-3.0780916,0.62507504,-0.00074260164,-0.02823957,-0.0012102926,0.0018198562,0.006596402,0.002764366,-0.0037683602,0.4476039,-1.4691561,2.0079582,-2.10734,-1.5707597,2.4227023,-0.018497411,0.05017279,-0.06207775,0.012290239,-0.0072583253,-0.014671172,-0.095768064,0.4405331,-9.519346,0.7530795,47.689575,-0.6175998,-1.8397118,-3.6178758,-0.38149035,-0.103956416,-0.20114891,25.5,26.1875,25.3125,27.9375,28.625,29.0
0.062053416,-0.44970727,-1.2831557,-0.6251449,-0.040888477,0.055928156,-0.17996953,-0.37365448,-0.32826045,0.059825633,-3.0781317,0.62498605,-0.0006034063,-0.029448343,-0.0015253635,0.0017831506,0.007083151,0.0037189682,-0.0029956647,0.44761598,-1.4690714,2.0078018,-2.107352,-1.5707964,2.422654,-0.01842197,0.052592084,-0.0645092,0.011654952,-0.008116152,-0.0153651545,-0.17238252,0.47884035,-9.615114,0.800085,47.72808,-0.6154684,-1.8031185,-3.5719209,-0.37293285,-0.09740101,-0.20917338,25.5,26.1875,25.3125,27.9375,28.625,29.0
0.064054355,-0.53699434,-1.4495592,-0.62135154,-0.031135505,0.048855495,-0.17312358,-0.37373477,-0.32824585,0.05983929,-3.078106,0.6250583,-0.00056449993,-0.030793691,-0.0016199469,0.0022825035,0.006664027,0.005275163,-0.0035442056,0.44753173,-1.4689753,2.0076568,-2.1073163,-1.5708202,2.4226182,-0.01925561,0.0535365,-0.06659495,0.011211933,-0.008417137,-0.015648196,-0.11492168,0.61291564,-9.481039,0.8224646,47.71286,-0.6358599,-1.7727492,-3.609737,-0.36304703,-0.11073583,-0.18751663,25.5,26.1875,25.3125,27.9375,28.625,29.0
0.06605342,-0.80271935,-1.3936157,-0.6223583,-0.032865662,0.035376042,-0.15999585,-0.37377945,-0.32825652,0.05983158,-3.0780897,0.625016,-0.0005831827,-0.033007037,-0.0025798061,0.0028410992,0.005754185,0.0068766433,-0.0030171422,0.4475195,-1.4688543,2.0075362,-2.1072924,-1.5708326,2.4225817,-0.019539407,0.056992922,-0.071617074,0.010939165,-0.008302107,-0.016455488,-0.05746084,0.47884035,-9.481039,0.74413085,47.70211,-0.6808364,-1.7856462,-3.4486866,-0.35744917,-0.09776993,-0.17902093,25.5,26.1875,25.3125,27.9375,28.625,29.0
0.06805325,-0.46004948,-1.5024927,-0.6936473,-0.021421466,0.035712034,-0.16509078,-0.37382084,-0.32826823,0.059822615,-3.0780928,0.6249404,-0.000640603,-0.032690194,-0.0021220124,0.0014699594,0.0076127085,0.0045576743,-0.0030567108,0.4474955,-1.4687337,2.007416,-2.1072567,-1.5708202,2.4225101,-0.019655956,0.059413183,-0.07113816,0.010937228,-0.008973756,-0.016530594,-0.076614454,0.4213795,-9.346964,0.75755644,47.71554,-0.590141,-1.9274302,-3.558356,-0.3501903,-0.08999917,-0.16452965,25.5,26.1875,25.3125,27.9375,28.625,29.0
0.07005364,-0.53707916,-1.2270712,-0.5304153,-0.025482405,0.031860907,-0.16949329,-0.37393332,-0.32829043,0.05987178,-3.078163,0.6250699,-0.0004449754,-0.03466157,-0.002445654,0.0034097068,0.0063907397,0.008213928,-0.0041610766,0.44743535,-1.468662,2.0072353,-2.1073039,-1.5708207,2.422522,-0.020501046,0.05859236,-0.07484813,0.01164429,-0.009457455,-0.016269851,-0.13407528,0.38307226,-9.308657,0.8023209,47.70032,-0.65705097,-1.7033465,-3.6146395,-0.34342897,-0.10232445,-0.1713616,25.5,26.1875,25.3125,27.9375,28.625,29.0
0.07205341,0.0532196,-0.9389914,-0.4906332,-0.020249493,0.047381613,-0.17348364,-0.3739969,-0.32828465,0.059863668,-3.0780873,0.6250735,-0.00047241486,-0.03682347,-0.0036134564,0.0043819314,0.004944907,0.010434168,-0.0036484178,0.44739926,-1.4685054,2.0070655,-2.1072323,-1.5708688,2.422498,-0.020490175,0.061216377,-0.07993056,0.011472988,-0.009126732,-0.016768312,-0.19153613,0.30645782,-9.251195,0.78888994,47.70032,-0.65786004,-1.6541374,-3.2554898,-0.34421837,-0.11478745,-0.15882492,25.5,26.1875,25.3125,27.9375,28.625,29.0
0.07405487,-0.491368,-0.826075,-0.45615372,-0.016126342,0.037106916,-0.16656753,-0.3740633,-0.3282998,0.059864853,-3.0781012,0.62509465,-0.0004985013,-0.036429487,-0.0032618488,0.0016800255,0.0074189757,0.0055611026,-0.0031884264,0.44735125,-1.4683719,2.0069106,-2.1072085,-1.570845,2.4224615,-0.020707725,0.06684224,-0.07987749,0.01125801,-0.009249876,-0.017444663,-0.2681506,0.36391866,-9.461885,0.73741806,47.703903,-0.67268336,-1.9170414,-3.486938,-0.3231901,-0.1269578,-0.14530618,25.5,26.1875,25.3125,27.9375,28.625,29.0
0.0760539,-0.80190045,-0.92627776,-0.45329368,-0.014317033,0.035172395,-0.16337389,-0.3741323,-0.32832876,0.05988411,-3.0781326,0.6250041,-0.00044139923,-0.038275994,-0.003983256,0.004262455,0.005192873,0.009914807,-0.0031978718,0.44735107,-1.4682528,2.0067298,-2.1071837,-1.5708569,2.422401,-0.021103153,0.064802244,-0.08381038,0.012341884,-0.00913163,-0.017829545,-0.21068975,0.34476504,-9.3661175,0.7150385,47.695843,-0.67894244,-1.7302158,-3.3689137,-0.33357438,-0.105658546,-0.13945906,25.5,26.1875,25.3125,27.9375,28.625,29.0
0.07805372,-0.18534017,-0.4102588,-0.40991074,-0.023180703,0.047914095,-0.17422275,-0.37422383,-0.32832402,0.05988155,-3.0780945,0.6251506,-0.00042976445,-0.03978874,-0.0044369996,0.00400159,0.0048459754,0.009758849,-0.0036046163,0.44726682,-1.4680958,2.0065606,-2.1071723,-1.5708684,2.422413,-0.021867814,0.06838946,-0.0870935,0.012025937,-0.00875873,-0.018185653,-0.17238252,0.3256114,-9.212888,0.7665104,47.691364,-0.66254854,-1.8212957,-3.4118776,-0.3141023,-0.12342899,-0.13316308,25.5,26.1875,25.3125,27.9375,28.625,29.0
0.08005348,-0.720887,-0.8197501,-0.5015227,-0.0038681459,0.031533595,-0.16297574,-0.374299,-0.32833248,0.05988847,-3.078086,0.62512904,-0.00039359744,-0.039846286,-0.004354455,0.0029148315,0.006221481,0.0072213546,-0.0035005226,0.44723088,-1.4679629,2.0063932,-2.1071484,-1.5708927,2.422365,-0.02197481,0.07153963,-0.088284105,0.01294885,-0.00890169,-0.018395618,-0.3256114,0.3256114,-9.270349,0.78217715,47.67345,-0.670476,-1.7781929,-3.3759983,-0.31554985,-0.14405465,-0.11289522,25.5,26.1875,25.3125,27.9375,28.625,29.0
0.082054086,-0.7737154,-0.83188725,-0.4333641,-0.006594941,0.034623362,-0.15605892,-0.3744146,-0.32834572,0.059912182,-3.078105,0.6251712,-0.00030761588,-0.04157591,-0.004993458,0.0037086566,0.006195349,0.009104391,-0.0026572316,0.44715893,-1.4678063,2.0061638,-2.1071355,-1.5709046,2.422317,-0.02179498,0.07361618,-0.09249402,0.013374796,-0.009699321,-0.019055318,-0.2873042,0.34476504,-9.308656,0.7530795,47.666286,-0.68559515,-1.8655819,-3.2398164,-0.30427372,-0.13616149,-0.11951119,25.5,26.1875,25.3125,27.9375,28.625,29.0
0.08405365,-0.88353246,-0.59600514,-0.45219615,-0.011877959,0.037414532,-0.16542004,-0.37447953,-0.3283576,0.05992442,-3.0781038,0.62520903,-0.00029380576,-0.04132355,-0.004282313,0.0024515952,0.0082427,0.0063019437,-0.0033436583,0.44712266,-1.4676981,2.0060084,-2.1070993,-1.5709051,2.4223046,-0.022470217,0.075907275,-0.09236571,0.0143695,-0.010330771,-0.019042986,-0.24899697,0.24899697,-9.32781,0.70608455,47.701214,-0.63905585,-1.7949009,-3.3072054,-0.2980109,-0.12691078,-0.121731356,25.5,26.1875,25.3125,27.9375,28.625,29.0
0.086053744,-0.7043539,-1.32488,-0.4829483,-0.005292787,0.04541836,-0.155799,-0.37454286,-0.32838163,0.0599112,-3.0780904,0.6251305,-0.00035456166,-0.04401729,-0.0047985534,0.003814319,0.007836717,0.009234545,-0.0039036141,0.44711024,-1.4675053,2.0058157,-2.1070511,-1.5709051,2.422245,-0.02332167,0.0780768,-0.09804853,0.015065984,-0.0112441955,-0.019328618,-0.2681506,0.24899697,-9.308657,0.8224646,47.672558,-0.6887521,-1.8343437,-3.2597206,-0.3046035,-0.12448183,-0.10556045,25.5,26.1875,25.3125,27.9375,28.625,29.0
0.088054344,-0.68330604,-0.73067856,-0.4046657,-0.021651838,0.05367822,-0.16253452,-0.3746346,-0.32838088,0.05992204,-3.078058,0.62517965,-0.00030539033,-0.04307672,-0.0039533293,0.0022377241,0.010715059,0.0061080796,-0.0028541707,0.44705045,-1.4673611,2.005624,-2.1070154,-1.5709418,2.4222202,-0.023211382,0.07989957,-0.096639216,0.015900154,-0.0124832215,-0.02026619,-0.22984336,0.28730422,-9.32781,0.7933669,47.721813,-0.673246,-1.8034564,-3.3521945,-0.29697448,-0.112189144,-0.097197086,25.5,26.1875,25.3125,27.9375,28.625,29.0
0.09005344,-0.9032003,-1.0060134,-0.4414064,-0.005796751,0.052691706,-0.15566088,-0.37476236,-0.3283978,0.059966188,-3.0781,0.6252648,-0.00018601814,-0.044872362,-0.0046794172,0.002764098,0.010630618,0.0076588895,-0.002223718,0.44696647,-1.4672283,2.0053713,-2.106991,-1.5709418,2.4221842,-0.023058124,0.08270356,-0.10095777,0.015980696,-0.013084589,-0.020740444,-0.2681506,0.34476504,-9.346964,0.79560274,47.71286,-0.7244823,-1.9034829,-3.2645116,-0.29031372,-0.11186923,-0.1062901,25.5,26.1875,25.3125,27.9375,28.625,29.0
0.092053995,-0.7056423,-0.86145145,-0.42022878,-0.0024631969,0.056226827,-0.15788746,-0.37483993,-0.32840484,0.059936758,-3.0780594,0.6251607,-0.00018605185,-0.046148878,-0.004349502,0.0029299492,0.01138328,0.008556871,-0.0031633058,0.44694215,-1.4670124,2.005204,-2.107003,-1.5709904,2.4221003,-0.024103718,0.08412265,-0.10293308,0.016054945,-0.014156235,-0.02084251,-0.24899697,0.30645782,-9.289502,0.8179876,47.698532,-0.692734,-1.8254161,-3.2977715,-0.28977555,-0.090775825,-0.087000355,25.5,26.1875,25.3125,27.9375,28.625,29.0
0.094053715,-1.4081715,-0.7216816,-0.4788938,0.0037886722,0.03282626,-0.15373978,-0.37493572,-0.32840186,0.059953067,-3.0779855,0.6253002,-0.00015562253,-0.047284894,-0.004849859,0.002896922,0.01107813,0.00867511,-0.003954811,0.44688198,-1.4668558,2.004975,-2.106919,-1.5710381,2.4221368,-0.02433301,0.0867181,-0.10571242,0.015998017,-0.013937964,-0.020278517,-0.28730422,0.28730422,-9.270349,0.7463667,47.679718,-0.6419997,-1.7892091,-3.2514422,-0.26760745,-0.114200905,-0.07685181,25.5,26.1875,25.3125,27.9375,28.625,29.0
0.09605373,-0.39697886,-0.6858351,-0.35119832,0.0035803644,0.053576317,-0.15655982,-0.37501505,-0.32842526,0.059938304,-3.0779932,0.625244,-0.00019516,-0.048369344,-0.004886353,0.0035728563,0.011129041,0.009657025,-0.004684711,0.4468459,-1.4666519,2.004782,-2.1069076,-1.5710262,2.4220648,-0.024919033,0.087340385,-0.108190544,0.016991882,-0.014411466,-0.020132134,-0.22984336,0.38307226,-9.3661175,0.73069996,47.701214,-0.6917207,-1.8251964,-3.2372925,-0.2589404,-0.09907762,-0.08611897,25.5,26.1875,25.3125,27.9375,28.625,29.0
0.09805407,-0.99548054,-1.1708899,-0.39076513,0.007387179,0.026401093,-0.14883722,-0.3751409,-0.32844076,0.05997322,-3.0779705,0.62527835,-4.102865e-05,-0.048646353,-0.005038199,0.0019947714,0.012178767,0.0061007226,-0.0050757984,0.44680962,-1.4664823,2.0045068,-2.106871,-1.5710982,2.422053,-0.025276503,0.09219091,-0.11008606,0.017693574,-0.013822382,-0.020098994,-0.22984336,0.34476504,-9.270349,0.800085,47.729877,-0.6716398,-1.899172,-3.2691562,-0.24177426,-0.07692824,-0.09477857,25.5,26.1875,25.3125,27.9375,28.625,29.0
0.10005365,-0.8170157,-1.1581204,-0.59990156,-0.010157271,0.023197422,-0.14672399,-0.37522864,-0.32846585,0.05997794,-3.0779936,0.6252634,-6.2064835e-05,-0.049513992,-0.0047977795,0.0031783208,0.0119888745,0.008173517,-0.0053430274,0.44676146,-1.4663032,2.0042908,-2.1068351,-1.5710748,2.4219928,-0.026011832,0.09075225,-0.11141741,0.018514365,-0.014547837,-0.020565411,-0.21068975,0.38307226,-9.308657,0.7486078,47.72719,-0.68203855,-1.8200598,-3.291698,-0.25071108,-0.07358945,-0.08832267,25.5,26.1875,25.3125,27.9375,28.625,29.0
0.102053285,-0.5388642,-1.3497498,-0.5534409,-0.018326223,0.025652852,-0.15019196,-0.37531734,-0.32846186,0.05996902,-3.0779293,0.6252296,-5.427795e-05,-0.0495429,-0.0049298475,0.00044183165,0.014080943,0.0027037894,-0.004536907,0.44671357,-1.4661089,2.0040863,-2.1067865,-1.571134,2.4219322,-0.02610565,0.09798263,-0.11321555,0.01891474,-0.014075729,-0.021463668,-0.17238252,0.40222588,-9.3661175,0.7665104,47.71554,-0.74354464,-1.9626107,-3.3016472,-0.23775744,-0.09125759,-0.086477324,25.5,26.1875,25.3125,27.9375,28.625,29.0
0.104054146,-0.85622936,-1.5483997,-0.5315718,-0.031466067,0.019367745,-0.15646455,-0.3754277,-0.32848695,0.059989434,-3.077942,0.62532896,-1.8499695e-05,-0.050926726,-0.0048523997,0.0022245399,0.012639679,0.0064134644,-0.005353241,0.44665304,-1.4659306,2.003835,-2.1067512,-1.5711225,2.4219322,-0.027281411,0.09562099,-0.11468555,0.018778378,-0.014381276,-0.021822533,-0.1340753,0.21068975,-9.289502,0.75755644,47.70032,-0.6561212,-1.8135147,-3.3821774,-0.22164351,-0.07664885,-0.08332511,25.5,26.1875,25.3125,27.9375,28.625,29.0
0.10605384,-0.19521141,-1.1962473,-0.3804274,-0.032579344,0.0382665,-0.15526716,-0.37553585,-0.32848352,0.059981205,-3.0778792,0.6253745,-4.1935896e-06,-0.05164673,-0.005166046,0.0009550859,0.012954707,0.004124253,-0.0062814252,0.4465809,-1.465713,2.003606,-2.1067154,-1.5711702,2.4218967,-0.02780657,0.10018919,-0.11676072,0.0184818,-0.013682131,-0.021418544,-0.076614454,0.22984336,-9.270349,0.7911258,47.698532,-0.6341622,-1.9570131,-3.4283123,-0.19946644,-0.089539945,-0.08343511,25.5,26.1875,25.3125,27.9375,28.625,29.0
0.10805371,-0.5024335,-0.67829585,-0.310253,-0.018254744,0.019897643,-0.1557152,-0.37563512,-0.32847774,0.059976336,-3.0778146,0.6253407,5.9321615e-06,-0.05249987,-0.0054532923,0.0013029071,0.012808765,0.004666181,-0.0060306448,0.44652084,-1.4655089,2.0033786,-2.106655,-1.5712303,2.421824,-0.02795677,0.10133933,-0.11895607,0.018973192,-0.013789198,-0.021817505,-0.095768064,0.24899697,-9.270349,0.76874626,47.694054,-0.61150223,-1.8465936,-3.4232805,-0.18128839,-0.09389525,-0.08209711,25.5,26.1875,25.3125,27.9375,28.625,29.0
0.11005355,0.4161062,-1.0333688,-0.5419656,0.005869028,0.028750818,-0.15475409,-0.3757671,-0.32851794,0.06000946,-3.0778625,0.6253506,0.00013587346,-0.053264737,-0.0055690026,0.00074097095,0.012599175,0.0032486606,-0.006299819,0.44648454,-1.4653164,2.0030906,-2.106655,-1.5712417,2.421788,-0.028959751,0.104127094,-0.12081778,0.019231057,-0.0129897315,-0.02255273,0.0,0.28730422,-9.289502,0.7418897,47.716442,-0.59774727,-2.0083194,-3.3179471,-0.16236919,-0.09040879,-0.08095135,25.5,26.1875,25.3125,27.9375,28.625,29.0
0.11205422,0.17502244,-0.5724215,-0.4378111,0.0035691855,0.012479241,-0.15621921,-0.37585425,-0.32853884,0.06000235,-3.0778587,0.62534845,9.517168e-05,-0.054059733,-0.0064742416,0.0014924536,0.011637647,0.0043819076,-0.0048843585,0.44643685,-1.4651127,2.0028741,-2.1066191,-1.5712298,2.4217396,-0.028223919,0.104958646,-0.12359198,0.01973422,-0.012617442,-0.023231199,-0.019153614,0.21068975,-9.251195,0.78888994,47.705692,-0.72903204,-1.8270164,-3.5309033,-0.17062965,-0.10053742,-0.07827711,25.5,26.1875,25.3125,27.9375,28.625,29.0
0.114053324,0.3096413,-0.5844708,-0.4537155,0.0045103515,0.0076410873,-0.15458135,-0.37596387,-0.32852712,0.05999666,-3.0777657,0.6254073,0.00011645398,-0.054346822,-0.006177074,0.0008106104,0.012436344,0.002536143,-0.006551748,0.44636443,-1.4648961,2.0026348,-2.106559,-1.5713018,2.421716,-0.029079026,0.10707812,-0.12458883,0.020619113,-0.012541743,-0.02241797,-0.038307227,0.21068975,-9.270349,0.8157518,47.711964,-0.6157534,-1.868931,-3.477298,-0.14847894,-0.08051774,-0.08783728,25.5,26.1875,25.3125,27.9375,28.625,29.0
0.11605358,0.43278855,-1.0352618,-0.47326678,-0.008697047,0.013515633,-0.15486991,-0.37610325,-0.32857072,0.06003091,-3.0778165,0.62536037,0.00022980123,-0.055054616,-0.0059663854,-0.00045491636,0.013671317,-0.0001527892,-0.008160758,0.4463282,-1.464679,2.0023115,-2.1065347,-1.5713137,2.4216442,-0.030133089,0.11139832,-0.12662856,0.021296827,-0.012495888,-0.02186249,0.019153614,0.19153613,-9.308657,0.7978386,47.703903,-0.6089473,-1.9551153,-3.457224,-0.12980008,-0.09857887,-0.09063725,25.5,26.1875,25.3125,27.9375,28.625,29.0
0.11805339,-0.052881923,-1.0817001,-0.40366682,-0.01452908,0.008763537,-0.15067928,-0.3762035,-0.3285678,0.06000869,-3.0777743,0.6254285,0.00017115852,-0.055807486,-0.006440194,0.001497369,0.011830114,0.0030859502,-0.007991185,0.44623223,-1.4644524,2.002107,-2.1065104,-1.5713137,2.4215963,-0.030082792,0.10858937,-0.12817444,0.021933237,-0.012236221,-0.021981457,0.019153614,0.24899697,-9.289502,0.80679786,47.701214,-0.6891274,-1.7510298,-3.5515447,-0.11441849,-0.105546385,-0.111190245,25.5,26.1875,25.3125,27.9375,28.625,29.0
0.12005407,-0.57858455,-0.8962864,-0.49825007,-0.013695371,0.0068264916,-0.14479193,-0.37630054,-0.32857582,0.060002882,-3.0777135,0.62547326,0.00015797655,-0.056448177,-0.006284279,-0.00019570127,0.013003304,-0.0009774042,-0.008542223,0.4461837,-1.4642347,2.0018666,-2.1064503,-1.5713495,2.4215837,-0.031410556,0.11402663,-0.13057184,0.0230607,-0.0115449745,-0.022757187,-0.05746084,0.21068975,-9.289502,0.82694155,47.713753,-0.62245667,-1.8161893,-3.5086682,-0.12507021,-0.08865869,-0.10707777,25.5,26.1875,25.3125,27.9375,28.625,29.0
0.12205339,-0.67934364,-1.3771243,-0.5749934,0.011435968,0.01503697,-0.1485035,-0.37643343,-0.32859918,0.060016874,-3.0776858,0.625525,0.000183466,-0.058864117,-0.007127611,0.0023250708,0.010802285,0.0035358784,-0.008418291,0.44612357,-1.4639838,2.0015414,-2.1063788,-1.5713733,2.4215596,-0.032013208,0.11319128,-0.13565862,0.02395966,-0.0115162,-0.023481317,-0.038307227,0.22984336,-9.270349,0.83589023,47.694946,-0.5930788,-1.7546076,-3.5176175,-0.103972524,-0.09583172,-0.12263036,25.5,26.1875,25.3125,27.9375,28.625,29.0
0.12405335,-0.87657744,-1.0881025,-0.47851998,0.01706188,0.020258214,-0.14568603,-0.37654737,-0.328609,0.060024317,-3.0776784,0.6254466,0.00022921588,-0.058475163,-0.007228343,0.0010804358,0.01226594,-5.5401062e-05,-0.007869476,0.44606358,-1.4637791,2.00129,-2.1063416,-1.5714096,2.4214518,-0.031618778,0.11655066,-0.1369448,0.025755301,-0.011285901,-0.023635527,-0.11492168,0.22984336,-9.32781,0.8403672,47.683304,-0.62627584,-1.7821572,-3.5111122,-0.09903453,-0.114415474,-0.11854832,25.5,26.1875,25.3125,27.9375,28.625,29.0
0.12605323,-0.3658474,-0.1948354,-0.60893196,0.0036189945,0.038721204,-0.15235172,-0.3766357,-0.32864326,0.060013875,-3.0776696,0.62546414,9.309153e-05,-0.059313398,-0.007690098,0.0014011033,0.012865787,0.00024162016,-0.007574012,0.44601586,-1.4635268,2.0010135,-2.1062453,-1.5713619,2.4214163,-0.031045904,0.118404165,-0.14003336,0.026984436,-0.011960795,-0.02335423,-0.17238252,0.38307226,-9.32781,0.73741806,47.688675,-0.6565619,-1.7862952,-3.4393978,-0.10626216,-0.122537956,-0.13379389,25.5,26.1875,25.3125,27.9375,28.625,29.0
0.12805402,-0.4065965,-0.95403206,-0.6685455,0.008050716,0.03738579,-0.15687121,-0.37677068,-0.32864597,0.060024455,-3.0776236,0.6255312,0.00015123689,-0.060294814,-0.007959114,0.0019507091,0.0127908075,0.0006027299,-0.008109923,0.44593167,-1.4632987,2.0007265,-2.1061966,-1.5714101,2.42138,-0.03134848,0.119594105,-0.1429411,0.028342538,-0.012052076,-0.023119379,-0.19153613,0.38307226,-9.404425,0.76874626,47.66987,-0.7056923,-1.7545582,-3.3701534,-0.10490725,-0.109335765,-0.15275645,25.5,26.1875,25.3125,27.9375,28.625,29.0
0.13005352,-1.1015785,-1.1232812,-0.768425,-0.0134069165,0.027531764,-0.15495178,-0.37688062,-0.32864973,0.060014512,-3.0775704,0.62550086,0.0001520876,-0.061071996,-0.007880181,0.0022515033,0.012546833,0.00046541434,-0.00844988,0.44587135,-1.463059,2.0004737,-2.106149,-1.5714573,2.4213078,-0.03236832,0.12037582,-0.14476098,0.029395953,-0.011775723,-0.023798577,-0.1340753,0.4405331,-9.481039,0.8403672,47.66539,-0.6709225,-1.6233308,-3.3934999,-0.09750359,-0.12108445,-0.14518747,25.5,26.1875,25.3125,27.9375,28.625,29.0
0.13205513,-1.2446038,-1.7031116,-0.97255856,-0.0270524,0.032553602,-0.15027946,-0.3770102,-0.3286691,0.06002758,-3.0775492,0.62555283,0.00016254165,-0.061760534,-0.00770922,0.0018903567,0.014469972,-0.00039716574,-0.00790305,0.44579953,-1.4628186,2.000162,-2.1060765,-1.5714701,2.4212713,-0.032373883,0.12300848,-0.1471868,0.030799896,-0.013141675,-0.02434676,-0.30645782,0.4213795,-9.557653,0.8112748,47.696735,-0.6335274,-1.6067169,-3.4262867,-0.115230255,-0.11580999,-0.14364173,25.5,26.1875,25.3125,27.9375,28.625,29.0
0.13405351,-0.93056846,-1.9430106,-1.0300605,-0.03995539,0.04892702,-0.14462782,-0.37713274,-0.32869157,0.06004038,-3.0775228,0.62548935,0.00020533796,-0.062289122,-0.007954798,0.001473219,0.014448579,-0.0017517176,-0.007846044,0.44576326,-1.4625782,1.9998506,-2.106004,-1.5715178,2.421199,-0.03278332,0.12543942,-0.14910212,0.031492993,-0.012541418,-0.024813166,-0.36391866,0.4405331,-9.576807,0.779936,47.67166,-0.73436666,-1.7331562,-3.451885,-0.1147414,-0.11249405,-0.16497773,25.5,26.1875,25.3125,27.9375,28.625,29.0
0.13605359,-1.2131336,-1.810891,-0.93872637,-0.050956927,0.05592283,-0.15333837,-0.37723643,-0.3287009,0.060022995,-3.0774481,0.6256466,8.6226966e-05,-0.06263855,-0.00816626,1.5176054e-05,0.01594774,-0.004548782,-0.0074806334,0.4456793,-1.4623127,1.9995755,-2.1059086,-1.5715059,2.421223,-0.032586463,0.13018884,-0.15114579,0.03195699,-0.012694614,-0.024978567,-0.2681506,0.38307226,-9.691729,0.80456203,47.694946,-0.71542156,-1.8159564,-3.4731312,-0.12550685,-0.12373802,-0.17342219,25.5,26.1875,25.3125,27.9375,28.625,29.0
0.13805324,-0.9882577,-2.0502827,-0.88495225,-0.036620796,0.061765634,-0.15238611,-0.37738457,-0.32872912,0.06004543,-3.077459,0.6255529,0.0001935335,-0.064119734,-0.008237707,0.0016914619,0.014816144,-0.0011260513,-0.008334678,0.44563112,-1.462062,1.9992388,-2.1058724,-1.5715541,2.4211152,-0.033459093,0.12863031,-0.1533334,0.032126762,-0.013152404,-0.024995908,-0.28730422,0.3256114,-9.615114,0.8537928,47.66808,-0.7095291,-1.6449219,-3.5414183,-0.120115936,-0.120899245,-0.18714918,25.5,26.1875,25.3125,27.9375,28.625,29.0
0.14005408,-1.2713243,-1.6273648,-0.8056976,-0.024344143,0.051914617,-0.15356117,-0.37750512,-0.32874432,0.060026597,-3.0773947,0.625674,0.00014218171,-0.06456263,-0.00853227,0.00085723057,0.015206498,-0.0024567686,-0.008146514,0.44555905,-1.461773,1.9989518,-2.1058247,-1.571566,2.421127,-0.033437226,0.13170387,-0.15480047,0.031887144,-0.012936732,-0.025160681,-0.28730422,0.38307226,-9.5385,0.7530795,47.707485,-0.73769724,-1.837232,-3.4744723,-0.1038684,-0.14022088,-0.19305089,25.5,26.1875,25.3125,27.9375,28.625,29.0
0.14205362,-1.3391293,-1.3918788,-0.86237353,-0.015376548,0.03384922,-0.14296496,-0.3776534,-0.32875958,0.060062774,-3.0773826,0.62561315,0.00021747017,-0.0665781,-0.009251219,0.0011562536,0.014959067,-0.0008837665,-0.0072530042,0.44548696,-1.4615446,1.9985918,-2.105717,-1.5716146,2.4210188,-0.033574868,0.13508958,-0.15912054,0.03129384,-0.01340251,-0.026187997,-0.28730422,0.3256114,-9.519346,0.8179876,47.685097,-0.7744093,-1.7479246,-3.3983045,-0.08955733,-0.12054218,-0.19613305,25.5,26.1875,25.3125,27.9375,28.625,29.0
0.14405347,-1.1454802,-1.0568554,-0.8534857,-0.0037483373,0.025386594,-0.14424442,-0.3777761,-0.3287588,0.060035426,-3.0773222,0.62563896,0.00016444358,-0.067121,-0.009637854,0.0010708163,0.014499423,-0.0007531414,-0.0067176763,0.4453909,-1.4612567,1.9983281,-2.1056817,-1.571638,2.4209468,-0.0335581,0.13646547,-0.1603861,0.030863885,-0.013050297,-0.026705537,-0.21068975,0.34476504,-9.519346,0.76874626,47.688675,-0.7885717,-1.6815275,-3.448728,-0.07020956,-0.1433128,-0.20478892,25.5,26.1875,25.3125,27.9375,28.625,29.0
0.14605416,-0.3155866,-0.6875083,-0.66046923,-0.005618387,0.032253206,-0.15118696,-0.3779486,-0.3288181,0.060079113,-3.0773833,0.6256508,0.00032399746,-0.06823553,-0.00960495,0.0009681751,0.01567432,-0.00059433957,-0.0066534043,0.445355,-1.4609923,1.9979328,-2.1056693,-1.5716504,2.4209108,-0.033844724,0.1389202,-0.16302411,0.0314129,-0.014180679,-0.027053947,-0.15322891,0.34476504,-9.461885,0.75755644,47.687782,-0.7356695,-1.8062053,-3.4670238,-0.048460655,-0.14300649,-0.22150499,25.5,26.1875,25.3125,27.9375,28.625,29.0
0.14805408,-0.5836782,-0.7440404,-0.5518233,-0.006829386,0.020886358,-0.1510883,-0.3780913,-0.32884398,0.06008491,-3.0773604,0.62568384,0.0003204594,-0.069097035,-0.010233503,0.0008564692,0.015830455,-0.0010464034,-0.0060934057,0.4452831,-1.460704,1.9975842,-2.1055977,-1.5716623,2.4208627,-0.033459686,0.14177677,-0.16613181,0.032137584,-0.014132801,-0.027226869,-0.1340753,0.3256114,-9.442732,0.8537928,47.72629,-0.8039683,-1.7629023,-3.3496666,-0.03825053,-0.15890762,-0.23657644,25.5,26.1875,25.3125,27.9375,28.625,29.0
0.15005368,-0.26699325,-0.9898988,-0.50478905,0.0011828953,0.024189165,-0.15313622,-0.3782118,-0.3288544,0.060089786,-3.0772994,0.6256325,0.00033131667,-0.07060413,-0.01028791,0.001379785,0.016393624,-0.00010532806,-0.005585122,0.44523504,-1.4604517,1.9972719,-2.105501,-1.5717229,2.4207907,-0.034078177,0.14360407,-0.16962665,0.033198018,-0.015053497,-0.02834923,-0.21068975,0.2681506,-9.32781,0.800085,47.745995,-0.9335188,-1.8921865,-3.3233418,-0.04085143,-0.1500074,-0.22700627,25.5,26.1875,25.3125,27.9375,28.625,29.0
0.15205343,-0.4839524,-1.0502181,-0.43539023,-0.0024992973,0.026651487,-0.15445715,-0.37836394,-0.3288717,0.060089424,-3.077267,0.6257024,0.0003226693,-0.070407845,-0.009781507,-0.0015754739,0.018759225,-0.0063524237,-0.005345615,0.44513845,-1.4601496,1.9969248,-2.1054409,-1.5717343,2.420742,-0.03519946,0.15020351,-0.17038874,0.034012206,-0.0145004755,-0.029709792,-0.19153613,0.30645782,-9.270349,0.82694155,47.698532,-0.7656337,-1.8581445,-3.3733478,-0.047300503,-0.14710161,-0.23453242,25.5,26.1875,25.3125,27.9375,28.625,29.0
0.1540536,-0.16662088,-0.9938884,-0.30441523,-0.0072536366,0.034593306,-0.15472987,-0.3785173,-0.32889378,0.060077637,-3.0772305,0.6257323,0.00035430933,-0.07071666,-0.010174815,-0.0018809271,0.019414075,-0.0076361974,-0.004816837,0.4450667,-1.4598259,1.9965905,-2.1054285,-1.571771,2.4206939,-0.034696802,0.15258129,-0.17267531,0.035359662,-0.014541733,-0.02973456,-0.19153614,0.24899697,-9.232041,0.84708,47.693153,-0.90489686,-1.8624542,-3.4434938,-0.040844698,-0.14990088,-0.24324766,25.5,26.1875,25.3125,27.9375,28.625,29.0
0.15605363,-0.4312115,-0.9730935,-0.16520277,-0.014090471,0.03177342,-0.15201233,-0.3786367,-0.3289152,0.060087636,-3.0771828,0.62574065,0.00028906198,-0.0711789,-0.011257979,-0.0012429919,0.01895966,-0.0071069296,-0.0037286333,0.44500723,-1.4595615,1.9962419,-2.105284,-1.5717825,2.420646,-0.03319458,0.15373695,-0.17573427,0.036588337,-0.014365544,-0.029318511,-0.1340753,0.24899697,-9.155427,0.83365434,47.70659,-0.98416036,-1.9041061,-3.4740763,-0.03756529,-0.1734683,-0.2556978,25.5,26.1875,25.3125,27.9375,28.625,29.0
0.15805328,-0.67867917,-1.0151435,-0.019833894,-0.008541503,0.017893925,-0.14714316,-0.37882057,-0.3289518,0.06010119,-3.0771837,0.62574065,0.0003831608,-0.07226642,-0.011032734,-0.0008073837,0.019979466,-0.0068704686,-0.004643144,0.44493502,-1.4592259,1.9958338,-2.1052597,-1.5718187,2.420574,-0.033879817,0.15503612,-0.17863669,0.038419016,-0.015389355,-0.029086456,-0.15322891,0.3256114,-9.136273,0.81351066,47.693153,-1.103431,-1.8282775,-3.4083595,-0.04285334,-0.1634408,-0.27051264,25.5,26.1875,25.3125,27.9375,28.625,29.0
0.16005391,0.10844011,-0.44995877,-0.03910619,-0.0020157234,0.023169795,-0.16028298,-0.37896326,-0.32898566,0.060108583,-3.0771751,0.62571985,0.00041904495,-0.07310885,-0.0106856935,-0.00080412894,0.0201439,-0.007560715,-0.005283506,0.44488657,-1.4589382,1.9954871,-2.1052115,-1.571843,2.4205139,-0.035362028,0.15633886,-0.18039037,0.03956074,-0.015242842,-0.029927962,-0.11492168,0.2681506,-9.078813,0.8157518,47.71554,-0.98730004,-1.7355813,-3.3946342,-0.051310584,-0.16025454,-0.2885986,25.5,26.1875,25.3125,27.9375,28.625,29.0
0.16205364,0.39319116,-0.34808725,-0.064331636,0.0018358388,0.013584003,-0.1607103,-0.37911355,-0.32897854,0.060110424,-3.077097,0.6257227,0.00041437012,-0.07328387,-0.011027618,-0.0008048255,0.020763405,-0.008023846,-0.0039151465,0.44477865,-1.4586501,1.995139,-2.1051033,-1.5719026,2.420418,-0.034614097,0.15762845,-0.18211345,0.040675938,-0.015607513,-0.030546056,-0.05746084,0.34476504,-9.021352,0.8806493,47.698532,-1.064549,-1.7561457,-3.472065,-0.06233222,-0.16720168,-0.2902581,25.5,26.1875,25.3125,27.9375,28.625,29.0
0.16405414,0.0827767,-0.6596048,-0.059044775,0.0056541474,-0.00080156565,-0.15193768,-0.37925318,-0.32902178,0.060111344,-3.0770752,0.62581474,0.00034456374,-0.07383683,-0.010597745,-0.00082788087,0.021314163,-0.009977493,-0.005692602,0.44471824,-1.4583265,1.9947561,-2.105007,-1.5718788,2.420418,-0.03612084,0.15906745,-0.18433979,0.043462783,-0.015264565,-0.030274862,-0.05746084,0.30645782,-9.078813,0.8247004,47.71823,-1.0202578,-1.5554516,-3.3153796,-0.08076512,-0.1837826,-0.30193982,25.5,26.1875,25.3125,27.9375,28.625,29.0
0.16605386,-0.043467123,-0.7470711,0.034758553,-0.0033121856,-0.0027572224,-0.14668773,-0.37942222,-0.32903412,0.060107708,-3.0770137,0.6258202,0.00034459736,-0.074858956,-0.0108917905,0.00037303258,0.020979676,-0.008801857,-0.0046908804,0.44462222,-1.4579788,1.9943599,-2.1049225,-1.571927,2.4203336,-0.036321033,0.1590228,-0.18756153,0.045520186,-0.015474222,-0.03147458,-0.038307227,0.38307226,-9.040505,0.83589023,47.686886,-0.99355865,-1.7178361,-3.3673468,-0.10903534,-0.16707927,-0.32634854,25.5,26.1875,25.3125,27.9375,28.625,29.0
0.16805369,0.0042411,-0.7747046,0.010201295,-0.009158365,0.0074194544,-0.14905545,-0.37953532,-0.329067,0.060102116,-3.0769675,0.6257333,0.0002762506,-0.07578488,-0.011392993,0.00018510387,0.021778828,-0.008683484,-0.004268155,0.44459853,-1.457678,1.9940118,-2.1048028,-1.5719513,2.4202619,-0.035682384,0.16191441,-0.19043176,0.045737673,-0.016254742,-0.031253766,-0.05746084,0.30645782,-9.078813,0.78217715,47.709274,-1.1477455,-1.6263266,-3.397458,-0.105180204,-0.17781219,-0.3385622,25.5,26.1875,25.3125,27.9375,28.625,29.0
0.17005369,0.22785984,-0.81499475,-0.11955954,-0.0031176363,0.017291902,-0.15913704,-0.37969038,-0.32907236,0.060102016,-3.0768619,0.6257699,0.0002929042,-0.07704594,-0.011391214,0.0010412224,0.021823477,-0.008643906,-0.0063149827,0.44452605,-1.4573547,1.9936284,-2.1046932,-1.5720352,2.420226,-0.036750264,0.16296642,-0.1942294,0.048464708,-0.016315885,-0.030272357,0.019153614,0.28730422,-9.11712,0.7709874,47.703007,-1.1291819,-1.4389522,-3.4048748,-0.13486893,-0.18943912,-0.36025333,25.5,26.1875,25.3125,27.9375,28.625,29.0
0.17205323,0.30030793,-0.24508737,-0.12178692,0.0002158104,0.017897706,-0.16181427,-0.37987432,-0.32911968,0.06013319,-3.0769029,0.62579834,0.00035549505,-0.07664189,-0.010759007,-7.0759e-06,0.0232717,-0.012317461,-0.0076344595,0.4444418,-1.4570423,1.9931968,-2.1046336,-1.5720233,2.4201546,-0.037726652,0.16494852,-0.1946086,0.0507997,-0.016038822,-0.029931068,0.019153614,0.21068975,-9.11712,0.81351066,47.696735,-1.097695,-1.4537032,-3.4241612,-0.18327576,-0.20757997,-0.3937631,25.5,26.1875,25.3125,27.9375,28.625,29.0
0.17405377,-0.097050466,-0.29304814,-0.39490587,0.015895667,0.009049159,-0.15505755,-0.38002682,-0.3291326,0.060112502,-3.0768306,0.62583953,0.00028525054,-0.07684927,-0.010761691,-6.902689e-05,0.02361294,-0.014748996,-0.0068489923,0.44434553,-1.4566829,1.9928259,-2.1045487,-1.5720471,2.4200935,-0.03837379,0.16661201,-0.19708763,0.05395032,-0.0153053515,-0.03136352,-0.095768064,0.19153613,-9.155427,0.8493211,47.72092,-1.081096,-1.4011095,-3.4698539,-0.23855846,-0.20659228,-0.41146076,25.5,26.1875,25.3125,27.9375,28.625,29.0
0.1760535,-0.10583914,-0.37656146,-0.5779972,0.012557493,0.014878043,-0.16066746,-0.38017535,-0.3291371,0.06011059,-3.07672,0.62585396,0.00022034405,-0.07854448,-0.0111166015,0.00045787037,0.023050994,-0.011592316,-0.0060176277,0.44426146,-1.4563469,1.9924191,-2.1043813,-1.5721072,2.420033,-0.03862379,0.16773826,-0.19909059,0.051733553,-0.016170116,-0.03243946,-0.095768064,0.2681506,-9.270349,0.90750587,47.70659,-1.1166265,-1.4893017,-3.3541164,-0.2518843,-0.21197107,-0.41847897,25.5,26.1875,25.3125,27.9375,28.625,29.0
0.17805356,-0.7363234,-0.9053635,-0.61238545,-0.002058087,0.023046467,-0.1417935,-0.38031417,-0.32914332,0.060080227,-3.0766063,0.6258107,0.00012553795,-0.079450764,-0.010982264,-0.00071680825,0.024454635,-0.01395591,-0.0057394365,0.44418922,-1.4559737,1.9920472,-2.104262,-1.5721673,2.4199486,-0.039487913,0.17230247,-0.20170635,0.05251853,-0.016432336,-0.03357726,-0.076614454,0.28730422,-9.385271,0.8717007,47.683304,-1.1732112,-1.6304982,-3.4209018,-0.24764958,-0.2275027,-0.4208882,25.5,26.1875,25.3125,27.9375,28.625,29.0
0.18005422,-0.10306217,-0.92314017,-0.6694289,-0.022820398,0.05624712,-0.1599955,-0.38047743,-0.3291632,0.06007414,-3.076523,0.6258521,6.414961e-05,-0.07976529,-0.009668799,-0.0025149682,0.027390221,-0.018475862,-0.0071730744,0.44410446,-1.4556009,1.9916166,-2.104129,-1.572203,2.4199007,-0.041711345,0.17651129,-0.20283768,0.054782536,-0.017143888,-0.03436332,-0.21068975,0.22984336,-9.404425,0.8247004,47.68062,-1.1744915,-1.5934253,-3.5154176,-0.3111814,-0.21657851,-0.43779153,25.5,26.1875,25.3125,27.9375,28.625,29.0
0.18205392,-0.91111064,-1.1967905,-0.60990596,-0.028044103,0.051981293,-0.15349396,-0.38063303,-0.3292053,0.060081016,-3.0765443,0.62585604,1.3740204e-05,-0.080769084,-0.009735855,-0.0034514775,0.028033955,-0.02040165,-0.006920399,0.44402012,-1.4552761,1.9912208,-2.1040456,-1.5721673,2.4198163,-0.04261529,0.1807131,-0.20553336,0.05528907,-0.016906792,-0.0355184,-0.2681506,0.22984336,-9.461885,0.82022345,47.696735,-1.1030668,-1.8052213,-3.5193524,-0.33345652,-0.23399168,-0.44075286,25.5,26.1875,25.3125,27.9375,28.625,29.0
0.18405381,-0.8855943,-1.0018702,-0.62183905,-0.031996343,0.061075605,-0.16244008,-0.3808082,-0.32923326,0.06011881,-3.076488,0.62580514,9.45302e-05,-0.08317343,-0.010727212,-0.002415391,0.025870811,-0.017314564,-0.0064590797,0.44397202,-1.454964,1.9907521,-2.1038907,-1.5722512,2.419744,-0.043300226,0.1826956,-0.20984697,0.053895317,-0.016294539,-0.03666331,-0.34476504,0.2681506,-9.5385,0.82694155,47.687782,-1.1113797,-1.7908574,-3.3940315,-0.3484658,-0.25068936,-0.450626,25.5,26.1875,25.3125,27.9375,28.625,29.0
0.18605381,-1.144457,-1.1747988,-0.6578505,-0.016212681,0.060769197,-0.1589028,-0.38092992,-0.32923347,0.060055453,-3.076368,0.62581784,-0.0001469747,-0.08459885,-0.011284809,-0.0021597196,0.025399186,-0.014870344,-0.0041348343,0.44386387,-1.4545561,1.9904164,-2.103771,-1.5722512,2.4196594,-0.04307542,0.18436149,-0.21189165,0.051861234,-0.016940176,-0.038755953,-0.34476504,0.2681506,-9.500193,0.7911258,47.67345,-1.1864455,-1.8267353,-3.442349,-0.34721372,-0.27004305,-0.43452305,25.5,26.1875,25.3125,27.9375,28.625,29.0
0.18805368,-1.0085229,-0.7693942,-0.7297787,-0.022609934,0.069290765,-0.15546073,-0.38109007,-0.3292691,0.060052685,-3.076342,0.62581176,-0.0001410433,-0.08555961,-0.011239939,-0.0023246,0.024806852,-0.013976121,-0.0035410922,0.4438037,-1.4542085,1.9900225,-2.1037118,-1.5722755,2.419599,-0.044083927,0.18550843,-0.21248205,0.05023755,-0.016798422,-0.04035758,-0.4405331,0.2681506,-9.500193,0.842603,47.670765,-1.1834955,-1.7589107,-3.488721,-0.35706797,-0.2531724,-0.43212026,25.5,26.1875,25.3125,27.9375,28.625,29.0
0.19005401,-1.6634362,-1.3480939,-0.7324343,-0.018721301,0.06345663,-0.15270461,-0.38127452,-0.32927984,0.060066607,-3.0762591,0.6257924,-0.00013314778,-0.08701176,-0.011399695,-0.0021069979,0.024259236,-0.011571904,-0.002497825,0.4437075,-1.4538484,1.9895548,-2.1035569,-1.5723475,2.4195018,-0.044678513,0.18666513,-0.21382235,0.04800923,-0.017350469,-0.04199163,-0.40222588,0.28730422,-9.5385,0.7530795,47.694946,-1.1218537,-1.8375461,-3.549374,-0.35728317,-0.26240388,-0.4292955,25.5,26.1875,25.3125,27.9375,28.625,29.0
0.19205344,-1.9479284,-1.8864342,-0.7291131,-0.025821416,0.07041459,-0.14916436,-0.381448,-0.32931316,0.06004314,-3.0762105,0.6258011,-0.00019860163,-0.08756572,-0.011491278,-0.0034378378,0.024553614,-0.0125505235,-0.0012291351,0.4436233,-1.453428,1.9891247,-2.1034863,-1.5723599,2.4194295,-0.045067783,0.19005683,-0.21415824,0.045958217,-0.017208597,-0.04364786,-0.49799395,0.30645782,-9.557653,0.83589023,47.699425,-1.1892291,-1.844099,-3.6026359,-0.3372846,-0.27264223,-0.40536553,25.5,26.1875,25.3125,27.9375,28.625,29.0
0.19405326,-1.9095408,-1.9572926,-0.4468494,-0.043268893,0.075377695,-0.14899042,-0.3816443,-0.32933608,0.060080126,-3.0762131,0.62576103,-0.00011918497,-0.09010439,-0.012305392,-0.0021999246,0.023230817,-0.008461533,0.0013269271,0.44351524,-1.4531162,1.9886683,-2.103379,-1.5723957,2.4192965,-0.045390848,0.19165863,-0.21848214,0.044412706,-0.017786246,-0.04652294,-0.63206923,0.28730422,-9.500193,0.8873621,47.66808,-1.1377798,-1.7185041,-3.6133118,-0.3010987,-0.28695202,-0.39734143,25.5,26.1875,25.3125,27.9375,28.625,29.0
0.19605413,-1.9021488,-1.656752,-0.43077174,-0.050354168,0.07604904,-0.14945737,-0.3818579,-0.32936674,0.06009121,-3.0761845,0.6258316,-5.5049135e-05,-0.092313506,-0.012295533,-0.000986137,0.022518182,-0.0043630954,0.0024595833,0.44340685,-1.4527209,1.9881891,-2.1033194,-1.5724324,2.4192362,-0.04657856,0.1917362,-0.22108085,0.04292216,-0.018914005,-0.04883872,-0.53630114,0.30645782,-9.346964,0.8806493,47.737934,-1.1697824,-1.7248392,-3.683508,-0.2907552,-0.2805878,-0.37264574,25.5,26.1875,25.3125,27.9375,28.625,29.0
0.19805406,-0.987546,-1.06656,-0.59420466,-0.04013245,0.075224474,-0.16415787,-0.38201454,-0.32939866,0.060054142,-3.076139,0.6257631,-0.00014901535,-0.09445829,-0.013006343,7.32774e-06,0.020170424,-0.0009427736,0.0030844763,0.44333452,-1.4523015,1.9877933,-2.1032603,-1.5724438,2.4191272,-0.04755778,0.19266191,-0.22398353,0.040795166,-0.018278975,-0.050441034,-0.49799395,0.2681506,-9.423578,0.78888994,47.72002,-1.1465099,-1.6771617,-3.6352816,-0.2812596,-0.28869584,-0.34666857,25.5,26.1875,25.3125,27.9375,28.625,29.0
0.20005395,-0.8305048,-0.8352631,-0.49081782,-0.014637318,0.058143906,-0.16327341,-0.38220248,-0.32940432,0.060052216,-3.0760667,0.6257286,-0.00012565893,-0.09749956,-0.014018197,0.0014725582,0.017754631,0.004346974,0.0041033756,0.44322622,-1.4519296,1.9873618,-2.1031659,-1.5725158,2.419007,-0.04826931,0.19412403,-0.22838177,0.037908092,-0.018386688,-0.05216722,-0.3256114,0.2681506,-9.442732,0.83813137,47.7451,-1.1456676,-1.5800836,-3.5509558,-0.23004912,-0.3114856,-0.29774827,25.5,26.1875,25.3125,27.9375,28.625,29.0
0.20205353,-0.90898776,-0.8363176,-0.56187356,-0.00045132625,0.048180457,-0.15818715,-0.38240388,-0.32944438,0.060072128,-3.076083,0.62567306,-8.557718e-05,-0.09919372,-0.014210823,0.0017427828,0.017983235,0.005709188,0.0050157593,0.4431301,-1.4515574,1.9868821,-2.103082,-1.5725282,2.4188745,-0.048844207,0.19647834,-0.23164093,0.037677947,-0.019186258,-0.0536504,-0.40222588,0.28730422,-9.423578,0.8851263,47.72002,-1.1212404,-1.5583236,-3.5739698,-0.18235116,-0.32321444,-0.26487485,25.5,26.1875,25.3125,27.9375,28.625,29.0
0.20405403,-0.9229269,-0.13567711,-0.63244104,0.005182363,0.03445692,-0.16248325,-0.38261405,-0.32947367,0.060051054,-3.0760238,0.62571764,-3.987947e-06,-0.10080788,-0.014481013,0.0022655874,0.016962186,0.0067964518,0.0051168907,0.44304565,-1.451114,1.9864386,-2.1030939,-1.5725998,2.4188259,-0.05003546,0.19805296,-0.2346895,0.037722245,-0.01873791,-0.054942623,-0.34476504,0.28730422,-9.423578,0.90750587,47.71286,-1.1172519,-1.4839528,-3.5507731,-0.1768261,-0.33455756,-0.22906297,25.5,26.1875,25.3125,27.9375,28.625,29.0
0.20605375,-0.29661176,0.1810066,-0.75319684,-0.0013796765,0.04304455,-0.16287147,-0.38282126,-0.32947105,0.060054474,-3.0759265,0.6257166,1.4284793e-05,-0.10189426,-0.014591053,0.002233233,0.016964413,0.0072303996,0.004948907,0.44291347,-1.4507178,1.9859589,-2.1029623,-1.5726842,2.418706,-0.050619066,0.19994467,-0.23674668,0.037489407,-0.018934319,-0.05535541,-0.2681506,0.19153613,-9.557653,0.8314132,47.687782,-1.1766902,-1.3982184,-3.4881167,-0.1347591,-0.32791647,-0.21346083,25.5,26.1875,25.3125,27.9375,28.625,29.0
0.20805363,-0.67705494,-0.6804099,-0.9077248,-0.00072557677,0.037597783,-0.14534904,-0.38300905,-0.32952175,0.060053993,-3.075969,0.6256488,-2.3040428e-05,-0.10317672,-0.014484816,0.0017365083,0.018315574,0.0057871896,0.003617532,0.4428172,-1.4503212,1.9855036,-2.1029017,-1.5726484,2.4185622,-0.05151077,0.20387402,-0.24044724,0.03914696,-0.019540403,-0.054911736,-0.22984336,0.21068975,-9.5385,0.8090337,47.695843,-1.0440071,-1.5847936,-3.3741126,-0.09440729,-0.33884892,-0.19292599,25.5,26.1875,25.3125,27.9375,28.625,29.0
0.21005344,-0.6420081,-0.94846874,-0.6762941,-0.006968584,0.0408984,-0.15181282,-0.38325027,-0.32953542,0.06008746,-3.075924,0.625678,0.00011345845,-0.1036782,-0.014291943,0.00043961758,0.020054428,0.0023099578,0.0027254713,0.442685,-1.4499367,1.9849757,-2.102805,-1.5727323,2.4184544,-0.05221166,0.20844941,-0.24310413,0.041109018,-0.019620823,-0.05471969,-0.24899697,0.21068975,-9.519346,0.80456203,47.71465,-1.0432875,-1.6190186,-3.2703037,-0.104532614,-0.35525846,-0.16882691,25.5,26.1875,25.3125,27.9375,28.625,29.0
0.21205424,-0.6011497,-1.1784188,-0.85250777,-0.0047714375,0.04176399,-0.15024966,-0.38345423,-0.32956362,0.06008285,-3.0758848,0.6257468,9.0530964e-05,-0.103624545,-0.01362213,-0.0007293073,0.022117198,-0.0011974678,0.00061598385,0.44256476,-1.4495165,1.9844979,-2.102721,-1.5727443,2.4183824,-0.05312268,0.21132414,-0.24424891,0.043433018,-0.019980298,-0.05351928,-0.2681506,0.24899697,-9.519346,0.87393653,47.703903,-1.0318937,-1.6690309,-3.3210046,-0.10141149,-0.3595481,-0.14014786,25.5,26.1875,25.3125,27.9375,28.625,29.0
0.21405399,-0.9195944,-0.9111064,-0.6485299,-0.025586475,0.029078871,-0.153442,-0.38366282,-0.32961327,0.06009071,-3.075865,0.6256097,0.00011722878,-0.103482135,-0.013033376,-0.0011593566,0.024018683,-0.003375022,-0.0013804273,0.44250453,-1.4490726,1.9839591,-2.1026118,-1.5727929,2.4182396,-0.053533696,0.21252751,-0.24529187,0.046057325,-0.020761367,-0.051931277,-0.15322891,0.3256114,-9.442732,0.86498255,47.716442,-0.9845759,-1.7584693,-3.5862494,-0.108139485,-0.35908875,-0.15587704,25.5,26.1875,25.3125,27.9375,28.625,29.0
0.21605407,-0.96333313,-1.4585959,-0.7453463,-0.01826898,0.029674977,-0.14987461,-0.3838626,-0.32961538,0.06005165,-3.0757608,0.6256662,8.145271e-05,-0.10481547,-0.01244243,-0.0011325692,0.023533422,-0.002556143,-0.0044661295,0.44237182,-1.448617,1.9835285,-2.102564,-1.572853,2.418156,-0.055809617,0.21333502,-0.24614212,0.045148093,-0.020681519,-0.051119614,-0.095768064,0.2681506,-9.500193,0.84708,47.703903,-1.0361978,-1.7422563,-3.6067324,-0.06936804,-0.38009673,-0.16049351,25.5,26.1875,25.3125,27.9375,28.625,29.0
0.21805418,-0.4759,-1.0812733,-0.678189,-0.021208815,0.02043578,-0.15418266,-0.38408586,-0.32965276,0.060070276,-3.0757487,0.6256454,0.00016976443,-0.10596804,-0.012340821,-0.00077022106,0.02359147,-0.0016100998,-0.007728723,0.44227555,-1.4482094,1.983014,-2.1024926,-1.5729007,2.4180486,-0.05666698,0.21430136,-0.24819236,0.045404803,-0.021138193,-0.048712645,-0.1340753,0.3256114,-9.461885,0.779936,47.684196,-0.87365174,-1.7333603,-3.7024975,-0.030132852,-0.38433197,-0.15480281,25.5,26.1875,25.3125,27.9375,28.625,29.0
0.22005415,-0.54832995,-1.6800575,-0.56404865,-0.018753838,0.023348255,-0.14736213,-0.38428333,-0.3296737,0.060066365,-3.075683,0.6256877,0.000114206174,-0.105277516,-0.012613824,-0.00182444,0.025885213,-0.004457806,-0.0059696916,0.44215623,-1.4477893,1.9825228,-2.10236,-1.572925,2.4179645,-0.054943714,0.21712828,-0.24948199,0.047422267,-0.021995489,-0.04874392,-0.15322891,0.30645782,-9.442732,0.8537928,47.690468,-1.0005355,-1.7519195,-3.678833,-0.03814133,-0.3736257,-0.14503978,25.5,26.1875,25.3125,27.9375,28.625,29.0
0.22205377,-0.57708913,-1.0892892,-0.37946576,-0.019205255,0.018177532,-0.15141088,-0.384502,-0.32971272,0.060084086,-3.0756764,0.6256504,0.00017704195,-0.107148655,-0.012484284,-0.0011001389,0.025542172,-0.0037981682,-0.011055379,0.44205958,-1.4473815,1.9820069,-2.1022756,-1.5729612,2.4178457,-0.056806423,0.21878445,-0.25343114,0.048976135,-0.021967484,-0.045519657,-0.11492168,0.28730422,-9.3661175,0.88289046,47.68062,-0.9370738,-1.6191471,-3.676497,-0.036874544,-0.39229107,-0.17042506,25.5,26.1875,25.3125,27.9375,28.625,29.0
0.22405337,-0.061076973,-0.7633509,-0.6136891,-0.0067168036,0.014307475,-0.15134397,-0.38473684,-0.32973114,0.06008236,-3.0756218,0.62575763,0.00016893317,-0.10926836,-0.011901591,-0.0009869557,0.025736077,-0.0036814334,-0.017367834,0.4419025,-1.4469258,1.981479,-2.1021802,-1.572985,2.417763,-0.059540097,0.22147328,-0.25698835,0.049827047,-0.022195676,-0.041937653,-0.15322891,0.3256114,-9.308657,0.8560339,47.66539,-0.85987353,-1.6365288,-3.7329555,-0.023566224,-0.39927998,-0.23329821,25.5,26.1875,25.3125,27.9375,28.625,29.0
0.22605413,0.04746127,-0.7822794,-0.32552767,-0.01702303,0.024706632,-0.16309413,-0.38494983,-0.3297442,0.060088266,-3.0755231,0.6257936,0.00019846062,-0.11039553,-0.012682079,-0.0005754889,0.025856389,-0.0034877846,-0.016864395,0.44179472,-1.4465052,1.9809645,-2.1020477,-1.573069,2.4176908,-0.058914438,0.22400694,-0.26120877,0.051385418,-0.02239569,-0.04181179,-0.22984336,0.24899697,-9.346964,0.8985519,47.687782,-0.82469475,-1.6035938,-3.6605747,-0.015730413,-0.40154448,-0.24478897,25.5,26.1875,25.3125,27.9375,28.625,29.0
0.22805369,-1.1120143,-1.2077882,-0.23774834,-0.020709272,0.0049531395,-0.15043557,-0.3851512,-0.3297904,0.060060903,-3.0754752,0.6258031,0.00013410201,-0.111478604,-0.013307694,0.00012376979,0.025930308,-0.0028195558,-0.01676325,0.44171098,-1.4460136,1.98046,-2.1019752,-1.5730814,2.4176195,-0.058433425,0.22561064,-0.26510173,0.05310214,-0.022755641,-0.041427664,-0.24899697,0.17238252,-9.251195,0.8403672,47.705692,-0.95269287,-1.6625849,-3.5854783,-0.015525783,-0.41549864,-0.2547663,25.5,26.1875,25.3125,27.9375,28.625,29.0
0.2300535,-0.6405702,-0.81601095,-0.39123338,-0.004946921,0.02142842,-0.15241994,-0.38539356,-0.32980156,0.060072333,-3.0753968,0.62586296,0.0001845314,-0.11315143,-0.012986587,0.00033970986,0.026443522,-0.0032286635,-0.01660774,0.4415665,-1.4455693,1.9799088,-2.101855,-1.5731539,2.417523,-0.060241405,0.22814643,-0.26896444,0.055008065,-0.023054792,-0.043388035,-0.17238252,0.2681506,-9.193734,0.88960326,47.701214,-0.8756212,-1.5918577,-3.33466,0.0050833533,-0.405737,-0.24596353,25.5,26.1875,25.3125,27.9375,28.625,29.0
0.23205419,-0.8404295,-0.7718991,-0.40159458,0.016715867,0.02206581,-0.14505903,-0.38564247,-0.3298401,0.060091823,-3.0753596,0.6259131,0.00028228524,-0.11385689,-0.012790306,0.0008082691,0.027602958,-0.0035121737,-0.01777417,0.44145828,-1.4451138,1.9793342,-2.1017702,-1.5732135,2.4174511,-0.060558245,0.22907548,-0.2717721,0.05763903,-0.02398054,-0.04253539,-0.3256114,0.22984336,-9.308656,0.87393653,47.711063,-0.82889533,-1.6394045,-3.306181,-0.012075152,-0.4223162,-0.25025898,25.5,26.1875,25.3125,27.9375,28.625,29.0
0.23405394,-1.1167847,-0.71375126,-0.36695707,0.020106167,0.030000055,-0.1406537,-0.38586712,-0.3298536,0.060101915,-3.0752723,0.62599134,0.00029158,-0.113264084,-0.0119315,0.0007536828,0.02922949,-0.0060271337,-0.019345878,0.44132602,-1.4446832,1.9787954,-2.1016247,-1.573274,2.4173794,-0.06130992,0.22865008,-0.27210635,0.06136546,-0.024371313,-0.041714173,-0.2681506,0.30645782,-9.289502,0.9030289,47.716442,-0.81858635,-1.4203124,-3.3455586,-0.031330075,-0.42849466,-0.2906723,25.5,26.1875,25.3125,27.9375,28.625,29.0
0.23605348,-0.8267748,-0.458633,-0.080647364,0.002778823,0.052127555,-0.16153856,-0.3860805,-0.32987276,0.06008946,-3.0751805,0.6260293,0.0002423453,-0.113827646,-0.011880669,0.0013054915,0.029831294,-0.0072123054,-0.018647565,0.44120592,-1.444215,1.9782685,-2.1014917,-1.5733222,2.4172952,-0.061819397,0.22960107,-0.27535972,0.0649885,-0.024415625,-0.042919178,-0.26815057,0.28730422,-9.193734,0.8493211,47.705692,-0.8321793,-1.4812937,-3.5172482,-0.08398237,-0.4201777,-0.2957913,25.5,26.1875,25.3125,27.9375,28.625,29.0
0.23805387,-1.1893754,-1.0071155,-0.21062161,0.0081419265,0.05296627,-0.14874068,-0.38629672,-0.32988888,0.06008893,-3.0751019,0.62606883,0.00015670236,-0.11314233,-0.011018542,0.00082603126,0.03190463,-0.010154469,-0.01722989,0.44106176,-1.4437605,1.9777187,-2.1013114,-1.573346,2.4171863,-0.06234186,0.22994265,-0.2754972,0.06832254,-0.025037486,-0.044855997,-0.36391866,0.15322891,-9.193734,0.85826975,47.687782,-0.8651897,-1.3508592,-3.5959213,-0.12510356,-0.41325504,-0.29281536,25.5,26.1875,25.3125,27.9375,28.625,29.0
0.2400536,-1.1288769,-0.4500873,-0.12752388,0.007765841,0.046894707,-0.14797758,-0.38652572,-0.32990614,0.06007435,-3.0750186,0.62611026,9.478749e-05,-0.11359954,-0.009713847,-0.0017929584,0.034918323,-0.016497552,-0.019446332,0.44091678,-1.4432671,1.977168,-2.101179,-1.5733823,2.4170783,-0.06507546,0.23632134,-0.27733028,0.07079302,-0.025061985,-0.04536999,-0.21068975,0.15322891,-9.251195,0.85155696,47.684196,-0.69283235,-1.4505618,-3.6234093,-0.17726478,-0.41982928,-0.29965055,25.5,26.1875,25.3125,27.9375,28.625,29.0
0.24205421,-0.62957007,0.39124817,0.024201185,0.010366131,0.042729992,-0.15686242,-0.3867596,-0.32993525,0.06007226,-3.0749557,0.6261908,0.0001238195,-0.11406017,-0.0105959065,-0.0021876823,0.036834903,-0.017137535,-0.016696021,0.4407977,-1.4427985,1.9766272,-2.1010945,-1.5734309,2.417018,-0.06283294,0.24002853,-0.28100115,0.072152056,-0.02653226,-0.04587025,-0.30645782,0.0,-9.078813,0.8717007,47.66271,-0.82972264,-1.6305643,-3.6050944,-0.19722366,-0.4296782,-0.30483142,25.5,26.1875,25.3125,27.9375,28.625,29.0
0.24405381,-0.6486797,0.16249546,0.01604487,0.035222694,0.035923127,-0.15812396,-0.38699213,-0.3299585,0.060067512,-3.0748768,0.62615615,0.00010355187,-0.11484692,-0.009682849,-0.003057668,0.03956419,-0.018147493,-0.017926741,0.4406773,-1.4423066,1.9760531,-2.1009514,-1.5734919,2.4168866,-0.06379856,0.24277279,-0.282355,0.07284165,-0.028577372,-0.04559543,-0.24899697,0.05746084,-9.059659,0.8985519,47.658226,-0.75446653,-1.6753733,-3.5313559,-0.21326955,-0.41314802,-0.33115655,25.5,26.1875,25.3125,27.9375,28.625,29.0
0.24605359,-0.6725957,0.36692125,-0.083531246,0.04329235,0.0262449,-0.15510878,-0.38721636,-0.32996064,0.06006008,-3.0747323,0.62614614,8.190671e-05,-0.1173356,-0.008755331,-0.0025451886,0.04029542,-0.017359834,-0.021172449,0.4405562,-1.4418268,1.97549,-2.1007712,-1.5735997,2.4167783,-0.06695952,0.24499942,-0.28647387,0.07432894,-0.029588401,-0.045502197,-0.17238252,0.095768064,-9.078813,0.900793,47.691364,-0.62179416,-1.641222,-3.5318842,-0.24913415,-0.3878196,-0.33101094,25.5,26.1875,25.3125,27.9375,28.625,29.0
0.24805336,-0.5495102,0.051110994,-0.012461916,0.0487424,0.018919667,-0.15248778,-0.38742343,-0.32997283,0.060022213,-3.0745928,0.6261913,-2.9944531e-05,-0.11828714,-0.010582946,-0.0020493523,0.040593512,-0.015278508,-0.018053787,0.44043756,-1.44131,1.9749631,-2.1006277,-1.5736603,2.4167063,-0.06360493,0.24788441,-0.29092756,0.0741409,-0.030764844,-0.04525518,-0.21068975,0.17238252,-9.11712,0.9365982,47.692257,-0.69709957,-1.7979327,-3.4314857,-0.28629822,-0.37173468,-0.355213,25.5,26.1875,25.3125,27.9375,28.625,29.0
0.2500541,-0.33001846,-0.47847092,0.050932515,0.021107782,0.02920018,-0.15036425,-0.38767812,-0.3299915,0.060028747,-3.0745246,0.6262333,-2.9788624e-05,-0.11974691,-0.010409122,-0.0017668719,0.04079601,-0.012561641,-0.0165392,0.4402812,-1.4408191,1.9743632,-2.1004841,-1.5737084,2.4165854,-0.06423641,0.24865001,-0.2920992,0.07216683,-0.03212457,-0.04739399,-0.28730422,0.21068975,-9.078813,0.8537928,47.69763,-0.77369237,-1.7658244,-3.3095255,-0.26151764,-0.34542394,-0.3520434,25.5,26.1875,25.3125,27.9375,28.625,29.0
0.2520536,-1.0206217,-1.0506763,-0.19302057,-0.019961365,0.027183736,-0.14911349,-0.38789704,-0.3300194,0.060025595,-3.0743985,0.6262649,-5.783698e-05,-0.121198274,-0.010248744,-0.0012987934,0.042134237,-0.011823457,-0.01676703,0.440197,-1.4403278,1.9737767,-2.1003044,-1.5737928,2.4165378,-0.06473858,0.25054124,-0.29579574,0.07387268,-0.033660952,-0.047657926,-0.30645782,0.38307226,-9.11712,0.842603,47.684196,-0.78627867,-1.5388398,-3.4522004,-0.2824328,-0.33890447,-0.3640228,25.5,26.1875,25.3125,27.9375,28.625,29.0
0.254054,-1.8231888,-2.2379258,-0.30318537,-0.04141096,0.023182401,-0.14138669,-0.38815045,-0.33002245,0.060015712,-3.0742533,0.6264068,-0.00011045524,-0.12259927,-0.01104905,-0.0002795858,0.04101783,-0.008579287,-0.017142141,0.44002932,-1.4398007,1.9731654,-2.100125,-1.5738653,2.416478,-0.06416702,0.25089198,-0.29837856,0.07268967,-0.03404803,-0.046705056,-0.34476504,0.51714754,-9.232041,0.8717007,47.664497,-0.80762696,-1.5186778,-3.443738,-0.3106835,-0.3003559,-0.38837546,25.5,26.1875,25.3125,27.9375,28.625,29.0
0.2560539,-1.2505336,-2.6933565,-0.36799976,-0.077116534,0.06420476,-0.15697786,-0.38836065,-0.3300417,0.059981946,-3.074138,0.62626535,-0.00025138413,-0.12399041,-0.011670384,-0.0007968153,0.04021084,-0.007287296,-0.014344884,0.4399213,-1.4392602,1.9725908,-2.0999348,-1.5739259,2.416297,-0.06428869,0.2539454,-0.30011782,0.069846116,-0.033896334,-0.04961755,-0.28730422,0.51714754,-9.32781,0.8873621,47.67166,-0.8178882,-1.6517657,-3.5123332,-0.27551973,-0.30208626,-0.36363125,25.5,26.1875,25.3125,27.9375,28.625,29.0
0.25805378,-1.502712,-2.893614,-0.47538504,-0.07947951,0.06957192,-0.15234707,-0.3886122,-0.33007655,0.059982818,-3.0740535,0.6263219,-0.000216227,-0.12471369,-0.011774815,-0.0011934707,0.04094708,-0.0058068344,-0.010766852,0.43981352,-1.4387448,1.9719809,-2.0998156,-1.5739979,2.416236,-0.063805416,0.2554935,-0.30059618,0.06773737,-0.03521102,-0.052705247,-0.28730422,0.59376204,-9.519346,0.8851263,47.6636,-0.93086565,-1.6280587,-3.4816823,-0.2789149,-0.26749852,-0.35288042,25.5,26.1875,25.3125,27.9375,28.625,29.0
0.2600534,-1.9250759,-2.8617268,-0.4799062,-0.076403685,0.07318442,-0.14656444,-0.38885054,-0.3300681,0.059931133,-3.073895,0.6263061,-0.00033400947,-0.12656787,-0.0128172105,-0.00015048214,0.038318455,-0.0011880442,-0.007909355,0.43964547,-1.4381696,1.9714187,-2.099674,-1.5740813,2.416079,-0.063688986,0.2556833,-0.30252936,0.06416124,-0.03483051,-0.055441014,-0.2681506,0.5554548,-9.461885,0.87617236,47.694946,-0.9205892,-1.51319,-3.707575,-0.22927919,-0.23933029,-0.2985959,25.5,26.1875,25.3125,27.9375,28.625,29.0
0.2620539,-1.4868052,-2.389037,-0.5704421,-0.052312836,0.059135973,-0.15382184,-0.3891544,-0.33013824,0.059991088,-3.0739257,0.6263511,-9.832671e-05,-0.12850732,-0.01394421,-0.00019298376,0.03642507,0.0015200432,-0.008872565,0.43954942,-1.4376893,1.9707235,-2.099603,-1.5741414,2.4160075,-0.06361212,0.2587357,-0.30515927,0.06047754,-0.03427446,-0.05440581,-0.19153613,0.5363012,-9.442732,0.91421866,47.677036,-0.9250212,-1.5044163,-3.7885776,-0.19489455,-0.22876245,-0.31482285,25.5,26.1875,25.3125,27.9375,28.625,29.0
0.2640537,-0.8146654,-1.5082388,-0.36872095,-0.032294918,0.0438139,-0.16595283,-0.38939297,-0.33014894,0.05994388,-3.0738068,0.62642026,-0.00019179386,-0.13098058,-0.01447558,-0.0002853291,0.035802685,0.004000051,-0.006881651,0.4393933,-1.437125,1.9701732,-2.099508,-1.5741895,2.4159105,-0.0643779,0.2625275,-0.30875006,0.057751466,-0.034796197,-0.05715374,-0.076614454,0.5363012,-9.3661175,0.9365982,47.698532,-0.95427704,-1.6436102,-3.7189922,-0.12843558,-0.22122356,-0.3011608,25.5,26.1875,25.3125,27.9375,28.625,29.0
0.26605403,-0.75942975,-1.1426504,-0.7366648,-0.005946487,0.008855262,-0.14751695,-0.38968158,-0.33017042,0.059958234,-3.0737534,0.62642616,-8.282203e-05,-0.1336784,-0.01545617,0.0012878784,0.033813253,0.008637123,-0.004281054,0.4392373,-1.4366097,1.9695371,-2.0994127,-1.5742735,2.4157655,-0.064720504,0.2636747,-0.31342864,0.056219686,-0.034989793,-0.060094323,-0.05746084,0.4405331,-9.270349,0.8493211,47.684196,-0.97719866,-1.7483511,-3.5660095,-0.0713968,-0.19493018,-0.27476,25.5,26.1875,25.3125,27.9375,28.625,29.0
0.26805383,0.2334663,-0.2669006,-0.957981,0.006530844,-0.0062346286,-0.15629014,-0.38995957,-0.3301803,0.05995236,-3.0736248,0.62639815,-4.8328195e-05,-0.13483201,-0.016025415,0.0016689422,0.03309779,0.009354237,-0.0020678486,0.43909308,-1.4360462,1.9688791,-2.0992572,-1.5743936,2.415621,-0.06482371,0.2653703,-0.31643194,0.05655202,-0.034664094,-0.062408622,0.0,0.38307226,-9.404425,0.9186956,47.66091,-0.9495213,-1.7408061,-3.6045027,-0.046788022,-0.17028913,-0.22792852,25.5,26.1875,25.3125,27.9375,28.625,29.0
0.27005398,0.27581337,-0.40839437,-1.0176859,-0.0015664641,-0.01725112,-0.15673728,-0.39020035,-0.3302204,0.05993101,-3.0735397,0.62639743,-7.129069e-05,-0.13458923,-0.01549465,-0.0005027472,0.03561703,0.0044769277,-0.00043659657,0.43899688,-1.4354941,1.9682792,-2.099148,-1.5744532,2.415536,-0.065392144,0.2701977,-0.3174235,0.058187146,-0.034880765,-0.06460465,0.038307227,0.36391866,-9.576807,0.86498255,47.704796,-0.9752859,-1.7583036,-3.4860082,-0.029092815,-0.13907094,-0.19642448,25.5,26.1875,25.3125,27.9375,28.625,29.0
0.27205378,0.15994614,-0.96645474,-1.0301518,-0.02241376,-0.008977879,-0.15389071,-0.39048347,-0.3302477,0.059928704,-3.073464,0.62638015,-8.118245e-05,-0.13507496,-0.015499754,-0.00065965427,0.03654363,0.0028371338,0.0010748735,0.43884096,-1.434918,1.9675978,-2.0989916,-1.5745133,2.4153795,-0.06563107,0.27235132,-0.3202103,0.060682997,-0.035033435,-0.06635169,0.019153614,0.38307226,-9.519346,0.9097417,47.70211,-0.9622049,-1.9112822,-3.6654835,-0.011745827,-0.13430052,-0.16713592,25.5,26.1875,25.3125,27.9375,28.625,29.0
0.2740537,0.25764737,-1.8157048,-1.087932,-0.03582681,0.018836701,-0.15917592,-0.39073795,-0.33029595,0.059921097,-3.073418,0.6263509,-9.716709e-05,-0.13487771,-0.015146923,-0.0011498936,0.037991583,-0.0010769446,0.0015413563,0.43873265,-1.4343662,1.9669636,-2.098871,-1.5745496,2.4152594,-0.06627755,0.27445787,-0.3226208,0.06513369,-0.03468394,-0.067464605,0.05746084,0.34476504,-9.481039,0.9164598,47.707485,-0.9559797,-1.9645526,-3.6156886,-0.045068003,-0.11741051,-0.13305767,25.5,26.1875,25.3125,27.9375,28.625,29.0
0.27605337,-0.26971674,-2.2183013,-1.0779291,-0.04482384,0.018741963,-0.15904583,-0.39099503,-0.33031335,0.0598994,-3.0732982,0.62622964,-0.00011612589,-0.13701844,-0.016262414,-0.00018851974,0.03620277,0.0013560634,0.001404875,0.4386127,-1.4337907,1.9663271,-2.098716,-1.5746573,2.4150798,-0.06639801,0.2766902,-0.3274039,0.06470881,-0.034117363,-0.06744536,0.038307227,0.3256114,-9.615114,0.8672237,47.677036,-1.0002568,-1.9522678,-3.6477613,-0.018929275,-0.10292561,-0.091921374,25.5,26.1875,25.3125,27.9375,28.625,29.0
0.27805465,-0.4425244,-2.3043766,-1.2173946,-0.031532723,0.016952738,-0.14252302,-0.3912933,-0.33034125,0.059908975,-3.0732443,0.62629443,-4.886203e-05,-0.1371848,-0.016845727,0.0001498286,0.034521792,0.0008419204,-0.0004119444,0.43844464,-1.4332396,1.9656566,-2.0986078,-1.5747164,2.4149597,-0.0665385,0.27689874,-0.32876658,0.065605916,-0.032374457,-0.06577718,-0.038307227,0.3256114,-9.653421,0.91421866,47.685097,-1.0271882,-1.9422257,-3.6335373,0.0008219492,-0.10236251,-0.068561055,25.5,26.1875,25.3125,27.9375,28.625,29.0
0.28005338,-0.21501572,-1.4862279,-1.1058829,-0.03457395,0.020359237,-0.15300079,-0.3915631,-0.33039665,0.059902754,-3.0732052,0.6262299,-6.609355e-05,-0.1364574,-0.016613439,-0.00061722234,0.035434064,-0.0033188332,-0.002763156,0.43833655,-1.4326521,1.9649752,-2.0984747,-1.5747527,2.4148169,-0.06689546,0.2785057,-0.3297957,0.0691818,-0.03142638,-0.06378637,0.0,0.28730422,-9.710882,0.842603,47.679718,-1.0255303,-1.8730906,-3.6447988,0.013673701,-0.11259122,-0.069974005,25.5,26.1875,25.3125,27.9375,28.625,29.0
0.2820542,-0.22473021,-1.0987452,-1.2101796,-0.024753481,0.009374174,-0.15309711,-0.39184245,-0.330429,0.05989769,-3.0731175,0.62625045,8.0669e-06,-0.13790804,-0.0181854,0.00039380693,0.032956768,-0.00077364617,-0.0041371495,0.43821692,-1.4320886,1.9643267,-2.098379,-1.574848,2.414722,-0.06596781,0.2798078,-0.3335291,0.06825319,-0.030268928,-0.061487745,0.0,0.24899697,-9.710882,0.9231726,47.657326,-1.1560833,-1.8009613,-3.6967015,0.004905074,-0.11097719,-0.08781349,25.5,26.1875,25.3125,27.9375,28.625,29.0
0.28405374,0.29628205,-0.57696044,-1.1220425,-0.019402765,0.021170212,-0.1642462,-0.39210486,-0.3304649,0.0598773,-3.0730588,0.6262597,-5.036569e-05,-0.13858314,-0.01723572,-0.00036062743,0.032982986,-0.0038218154,-0.009260463,0.43807173,-1.4315131,1.9636935,-2.0982587,-1.5748719,2.4145906,-0.069045596,0.2819157,-0.3347823,0.07016841,-0.02899741,-0.05944606,-0.076614454,0.22984336,-9.634268,0.9097417,47.678825,-0.9705572,-1.7624048,-3.5949483,0.028954528,-0.11158374,-0.09277998,25.5,26.1875,25.3125,27.9375,28.625,29.0
0.2860534,0.18623883,-0.15832344,-0.80458456,-0.007463066,0.009474472,-0.15159039,-0.39240345,-0.33051077,0.05990603,-3.073025,0.62627035,3.5576402e-06,-0.13757393,-0.018825639,-0.00013812666,0.032917716,-0.006016442,-0.007692553,0.43792903,-1.4309613,1.9629635,-2.09809,-1.5749191,2.4144595,-0.06585356,0.28313985,-0.33764088,0.07375933,-0.0280023,-0.057826277,-0.095768064,0.076614454,-9.653421,0.9410752,47.658226,-1.15439,-1.914637,-3.6973298,0.021072475,-0.11891556,-0.116571516,25.5,26.1875,25.3125,27.9375,28.625,29.0
0.2880533,0.08263859,-0.008167495,-0.8362108,0.010919668,0.0011193384,-0.15101387,-0.39268067,-0.33055833,0.059906054,-3.0729616,0.6263157,1.4598402e-05,-0.13756584,-0.01841897,-6.3545995e-05,0.033563964,-0.009201534,-0.011100627,0.43780857,-1.4303863,1.9622806,-2.0979564,-1.5749673,2.414376,-0.06702894,0.28410807,-0.34012234,0.07843222,-0.027228503,-0.05559639,-0.076614454,0.05746084,-9.672575,0.9231726,47.65106,-1.162802,-1.807503,-3.6269526,-0.020392448,-0.14081353,-0.1199799,25.5,26.1875,25.3125,27.9375,28.625,29.0
0.29005426,-0.20166214,0.14533249,-0.8613649,0.030959837,0.0014682327,-0.15069348,-0.39297447,-0.3305831,0.059917063,-3.072882,0.62632024,9.801718e-05,-0.13877311,-0.017156424,-0.00045148292,0.034875233,-0.012775415,-0.01631568,0.43766326,-1.4298344,1.9615988,-2.0978234,-1.5750626,2.4142444,-0.070512064,0.28699696,-0.3436676,0.08287883,-0.026896765,-0.053864904,-0.095768064,0.11492168,-9.481039,1.0932552,47.681515,-1.0073904,-1.8555126,-3.6511595,-0.06268715,-0.1418221,-0.14012288,25.5,26.1875,25.3125,27.9375,28.625,29.0
0.2920538,-0.13483277,-0.071409814,-1.0436298,0.039257247,0.009340876,-0.15524517,-0.39324808,-0.33063635,0.059915658,-3.072809,0.6263034,6.301863e-05,-0.13717802,-0.018308163,-0.0010585313,0.036454428,-0.017715065,-0.014471222,0.4375565,-1.4292343,1.9608792,-2.0976417,-1.5751108,2.4141371,-0.06741848,0.28954035,-0.34657487,0.08838406,-0.026229821,-0.052616894,-0.13407528,0.17238252,-9.481039,0.9612189,47.703903,-1.2310874,-1.8055569,-3.6348333,-0.10395018,-0.14059903,-0.16301623,25.5,26.1875,25.3125,27.9375,28.625,29.0
0.29405344,-0.83283174,-0.76141566,-0.7826637,0.02839682,0.021805955,-0.15203334,-0.39351922,-0.33065462,0.059902314,-3.0726972,0.6263388,-3.2109852e-05,-0.13746354,-0.017631818,-0.00081794884,0.037653837,-0.020634035,-0.01712226,0.43738797,-1.4286467,1.9601954,-2.0974362,-1.5751585,2.4140058,-0.06891658,0.29053116,-0.34957632,0.09354493,-0.026081704,-0.051461533,-0.36391866,0.15322891,-9.404425,0.8784135,47.677036,-1.1662412,-1.9681321,-3.5882351,-0.17289728,-0.15031873,-0.19185263,25.5,26.1875,25.3125,27.9375,28.625,29.0
0.29605353,-0.94497406,-0.4944247,-0.38838103,-0.0043001277,0.038657364,-0.14696702,-0.3938149,-0.33071935,0.059939753,-3.072673,0.62642944,1.6411675e-05,-0.13724563,-0.017110424,-0.0019500529,0.0400117,-0.024934301,-0.018291416,0.43726793,-1.4280955,1.959442,-2.097256,-1.5751828,2.413946,-0.069407575,0.29374996,-0.35163775,0.09728173,-0.026393343,-0.05078192,-0.22984336,0.11492168,-9.423578,0.98135734,47.73525,-1.1555274,-1.9309928,-3.5940895,-0.24024534,-0.16132939,-0.20124324,25.5,26.1875,25.3125,27.9375,28.625,29.0
0.29805344,-1.5449036,-0.95924157,-0.5494057,-0.0034871986,0.031775568,-0.14296019,-0.39407784,-0.33074895,0.059929974,-3.072563,0.62640715,-6.669195e-05,-0.13845746,-0.016959677,-0.0006960254,0.039782204,-0.023976557,-0.020221107,0.4371354,-1.4275081,1.9587473,-2.0970395,-1.5752429,2.4138143,-0.07051667,0.2934674,-0.35493615,0.09989604,-0.026599946,-0.049956653,-0.17238252,0.095768064,-9.32781,0.88960326,47.723602,-1.1013495,-1.806687,-3.541149,-0.30080456,-0.16054979,-0.23136407,25.5,26.1875,25.3125,27.9375,28.625,29.0
0.3000541,-1.140288,-1.2084731,-0.30730274,-0.0050458107,0.047621734,-0.14835604,-0.39437035,-0.33075815,0.059908547,-3.072388,0.62646395,-9.4373434e-05,-0.13951424,-0.017110603,-0.0008090209,0.039484948,-0.023059117,-0.019497046,0.43697947,-1.4268727,1.9580301,-2.0968482,-1.5753626,2.4137173,-0.07097837,0.29510105,-0.35646716,0.09882129,-0.026740508,-0.051137954,-0.30645782,0.17238252,-9.346964,0.8985519,47.74868,-1.1560992,-1.8115697,-3.573916,-0.33323848,-0.16538836,-0.25795496,25.5,26.1875,25.3125,27.9375,28.625,29.0
0.30205384,-1.3494864,-1.1733633,-0.39411646,0.0024440605,0.02947722,-0.14013843,-0.3946471,-0.33080873,0.059922766,-3.0723433,0.62655216,-0.0001535421,-0.14235896,-0.017295485,0.0008885937,0.03653914,-0.016794866,-0.020723784,0.43683442,-1.4263105,1.9573115,-2.0966465,-1.5753626,2.4136336,-0.072993204,0.29405397,-0.35843217,0.094903626,-0.026745556,-0.051923525,-0.24899697,0.19153613,-9.251195,0.9097417,47.701214,-0.98464173,-1.611332,-3.6488147,-0.315431,-0.18330517,-0.24579404,25.5,26.1875,25.3125,27.9375,28.625,29.0
0.30405366,-0.6421779,-0.32899094,-0.41089797,-0.0076333927,0.037992623,-0.15258227,-0.39492908,-0.33084354,0.059918523,-3.0722525,0.6265705,-0.00014848923,-0.14333202,-0.018536577,0.0013773927,0.03526839,-0.014020832,-0.02126466,0.43670332,-1.4257233,1.9566172,-2.0964916,-1.5754346,2.4135263,-0.0714769,0.29511964,-0.3604558,0.092813425,-0.026775487,-0.04986362,-0.22984336,0.17238252,-9.251195,0.9567419,47.701214,-1.1692114,-1.5009845,-3.7147026,-0.30548584,-0.17986119,-0.28793445,25.5,26.1875,25.3125,27.9375,28.625,29.0
0.30605355,-1.2886178,-1.0078146,-0.35164824,0.0034587923,0.025004068,-0.1373033,-0.39522934,-0.3308861,0.059929963,-3.0721877,0.62657636,-9.556782e-05,-0.14738412,-0.01946295,0.0026834002,0.03159592,-0.0055647413,-0.022814106,0.4365708,-1.4251356,1.9558867,-2.096339,-1.5755066,2.4134064,-0.072995976,0.29646328,-0.36342686,0.085219204,-0.027050998,-0.04982869,-0.36391866,0.19153613,-9.270349,0.91198283,47.71465,-1.1858481,-1.525655,-3.6297107,-0.23891413,-0.17541228,-0.31652415,25.5,26.1875,25.3125,27.9375,28.625,29.0
0.3080541,-0.94332075,-0.90368503,-0.5036855,-0.0058356575,0.045147985,-0.15042788,-0.39553213,-0.33091798,0.059929203,-3.0720825,0.62668955,-0.00014165748,-0.15129852,-0.019733453,0.004242563,0.028867932,0.0006171559,-0.024543535,0.4364017,-1.424512,1.9551314,-2.0961363,-1.5755552,2.4133222,-0.07564468,0.2977066,-0.36775848,0.08154117,-0.027219677,-0.05074247,-0.21068975,0.15322891,-9.251195,0.94331104,47.70838,-0.9417052,-1.5146948,-3.5685506,-0.18754372,-0.19112131,-0.35001367,25.5,26.1875,25.3125,27.9375,28.625,29.0
0.31005397,-1.3234051,-1.0122836,-0.68996716,-0.0017003649,0.041519802,-0.14302133,-0.39583093,-0.33096856,0.059939854,-3.0720599,0.6267207,-0.00014871494,-0.15220143,-0.020924231,0.0030736653,0.029444491,0.00027340933,-0.021679828,0.43624628,-1.423924,1.9544009,-2.0959814,-1.5755671,2.4131896,-0.07391345,0.30287677,-0.37078846,0.07994733,-0.027614031,-0.051870257,-0.2873042,0.17238252,-9.3661175,0.9097417,47.752266,-1.0950962,-1.5316076,-3.4910717,-0.15447468,-0.19188057,-0.33316797,25.5,26.1875,25.3125,27.9375,28.625,29.0
0.31205326,-1.1791828,-0.77332836,-0.7662595,-0.0112868855,0.05296781,-0.15405102,-0.3961185,-0.33099824,0.059941642,-3.0719497,0.6267963,-0.00015970747,-0.15496516,-0.020962281,0.0029570374,0.028668698,0.0021012686,-0.026723905,0.43610168,-1.4233351,1.9536813,-2.0957901,-1.5756391,2.4131072,-0.07606889,0.3067178,-0.3746293,0.077969946,-0.027689625,-0.048976973,-0.47884035,0.30645782,-9.461885,0.8851263,47.694946,-1.0128565,-1.7827152,-3.5748699,-0.09774467,-0.20748986,-0.40352273,25.5,26.1875,25.3125,27.9375,28.625,29.0
0.3140541,-1.4651884,-1.2847191,-0.7092362,-0.024090676,0.0654506,-0.14559402,-0.39642364,-0.33103618,0.05995451,-3.0718808,0.6268772,-8.3040846e-05,-0.1553836,-0.020288106,0.0023111224,0.029566139,0.0006281144,-0.027423367,0.43595728,-1.4227586,1.9529637,-2.095658,-1.5757111,2.4130228,-0.07743644,0.30830926,-0.37531254,0.07876605,-0.027884375,-0.049644228,-0.4405331,0.28730422,-9.461885,0.9186956,47.698532,-0.92244005,-1.6878864,-3.5693471,-0.09360772,-0.19848762,-0.43730426,25.5,26.1875,25.3125,27.9375,28.625,29.0
0.31605378,-1.5992434,-1.9963188,-1.2173102,-0.020731099,0.06400511,-0.14585495,-0.3967282,-0.3310647,0.059937906,-3.071757,0.6269461,-0.00015582792,-0.15479018,-0.019313183,0.00042881494,0.03263071,-0.0029226344,-0.025616264,0.43578902,-1.422097,1.9521998,-2.095455,-1.5757717,2.4129143,-0.07777144,0.31112236,-0.37463236,0.079771474,-0.029175475,-0.051777083,-0.47884035,0.36391866,-9.615114,0.92093146,47.68062,-0.8902316,-1.6703461,-3.772256,-0.062301554,-0.19580387,-0.4446808,25.5,26.1875,25.3125,27.9375,28.625,29.0
0.3180534,-1.2876279,-1.6508585,-0.956637,-0.048955258,0.06860084,-0.15104814,-0.39706913,-0.33112115,0.059970498,-3.0717487,0.6270001,-2.8384564e-05,-0.15470263,-0.018577147,-0.0004766972,0.033730816,-0.00544819,-0.024574501,0.43563265,-1.4214956,1.9514102,-2.0953343,-1.5758198,2.4127932,-0.0789771,0.3126329,-0.37476915,0.08113283,-0.029112147,-0.0540272,-0.47884035,0.40222588,-9.691729,0.82022345,47.7245,-0.89866465,-1.6582398,-3.934631,-0.078386486,-0.20673835,-0.4538264,25.5,26.1875,25.3125,27.9375,28.625,29.0
0.32005414,-1.3192351,-2.1954577,-0.88356984,-0.056613833,0.06674424,-0.14835352,-0.39739197,-0.3311538,0.059973963,-3.0716743,0.6270408,1.9530795e-05,-0.156646,-0.01844247,0.0003490966,0.033121455,-0.004221171,-0.024485124,0.4354642,-1.4208709,1.9506553,-2.0951908,-1.5758919,2.4126604,-0.08078606,0.313921,-0.3785701,0.08225744,-0.02909429,-0.05592383,-0.59376204,0.45968673,-9.653421,0.91198283,47.67614,-0.81656945,-1.4916942,-3.905325,-0.04973922,-0.21928027,-0.4364382,25.5,26.1875,25.3125,27.9375,28.625,29.0
0.32205406,-1.1967857,-1.6119237,-1.0366794,-0.057298668,0.05963464,-0.15617847,-0.3976939,-0.3311854,0.059961975,-3.071576,0.627115,-3.2151875e-05,-0.15836285,-0.018790655,0.0009789433,0.03239654,-0.0030176814,-0.023373367,0.43529597,-1.4202334,1.9499124,-2.095011,-1.5759395,2.4125519,-0.08160132,0.31572494,-0.3824049,0.08287327,-0.028966224,-0.057847805,-0.5554548,0.40222588,-9.672575,0.98807013,47.70032,-0.77494526,-1.6204396,-3.8121696,-0.052923936,-0.23088464,-0.46120244,25.5,26.1875,25.3125,27.9375,28.625,29.0
0.32405382,-0.82586676,-1.6741923,-1.1282061,-0.04035919,0.05898712,-0.15307528,-0.39800382,-0.33123192,0.05998328,-3.071513,0.62709826,1.4853108e-05,-0.15921883,-0.018903753,0.0029199063,0.032542128,-0.0023918184,-0.018831471,0.4351639,-1.4196336,1.9491333,-2.0948174,-1.5760115,2.4124181,-0.081765704,0.3146373,-0.38691413,0.08793228,-0.029381962,-0.06255082,-0.5554548,0.36391866,-9.768343,1.0216395,47.692257,-0.74160415,-1.4589946,-3.772411,-0.069573246,-0.23344386,-0.42003402,25.5,26.1875,25.3125,27.9375,28.625,29.0
0.3260535,-1.6567141,-1.8593514,-0.9788937,-0.019606598,0.04604794,-0.14056137,-0.39833468,-0.33127472,0.059993938,-3.071452,0.6271044,7.5122174e-05,-0.16148642,-0.019682504,0.0034299581,0.031586938,-0.001732658,-0.017932082,0.43500754,-1.4189955,1.9483427,-2.0946615,-1.5760835,2.4122741,-0.08255005,0.3183255,-0.3927539,0.08906338,-0.028812997,-0.06423481,-0.34476504,0.22984336,-9.691729,0.86498255,47.694946,-0.7334148,-1.3895333,-3.5043087,-0.061840072,-0.23295115,-0.39150828,25.5,26.1875,25.3125,27.9375,28.625,29.0
0.32805428,-0.5484619,-0.40692928,-1.1523,-0.0025448382,0.04253917,-0.15095097,-0.39866936,-0.3313081,0.059994675,-3.071361,0.627236,6.306087e-05,-0.15960445,-0.018741155,0.00085035746,0.035686664,-0.011656023,-0.014876062,0.4348154,-1.4183333,1.9475406,-2.0944788,-1.5761312,2.4121766,-0.08285272,0.32313526,-0.39422223,0.09642036,-0.028356533,-0.067595206,-0.2681506,0.15322891,-9.5385,0.8717007,47.72002,-0.70197463,-1.644874,-3.5680656,-0.10707967,-0.251302,-0.37241852,25.5,26.1875,25.3125,27.9375,28.625,29.0
0.33005407,-0.42519817,-0.07966235,-1.0124828,0.039260563,0.018666783,-0.14524725,-0.39901146,-0.33134472,0.060022626,-3.0713394,0.62724525,0.00014480753,-0.15879276,-0.01837739,-0.00030792993,0.03825282,-0.01566798,-0.008460742,0.43462372,-1.4177314,1.946751,-2.0943224,-1.5761799,2.411994,-0.08229259,0.32552564,-0.39523682,0.09972541,-0.029015662,-0.07344793,-0.38307226,0.17238252,-9.595961,0.93436235,47.691364,-0.7288989,-1.7646042,-3.7487113,-0.15734527,-0.2778331,-0.3177672,25.5,26.1875,25.3125,27.9375,28.625,29.0
0.33205357,0.19444197,0.5511157,-0.8495553,0.0429997,0.03020678,-0.15805177,-0.39932144,-0.331393,0.060017053,-3.071273,0.6271929,0.000105452076,-0.15813331,-0.018023761,-0.0017223897,0.040240437,-0.020367654,-0.0073215007,0.43447977,-1.41707,1.9459614,-2.0941298,-1.5762275,2.4118266,-0.08239445,0.3285813,-0.3964369,0.10295451,-0.028849706,-0.0746881,-0.19153614,0.0,-9.519346,0.9835985,47.698532,-0.77329063,-1.7455225,-3.7454503,-0.20167181,-0.28879845,-0.24999776,25.5,26.1875,25.3125,27.9375,28.625,29.0
0.33405402,-0.37617213,0.2795773,-0.78241616,0.050694533,0.009130884,-0.14533368,-0.39966777,-0.33144683,0.060048714,-3.071246,0.6272621,0.00013611579,-0.15801562,-0.018374188,-0.0021937746,0.04108658,-0.022918852,-0.0055675358,0.43429995,-1.4164325,1.9451107,-2.0939257,-1.5762514,2.411694,-0.08175109,0.33096018,-0.39890546,0.10570054,-0.028553104,-0.07579997,-0.019153614,-0.11492168,-9.442732,0.94331104,47.692257,-0.80305076,-1.9058988,-3.8619077,-0.2206783,-0.31721985,-0.23232037,25.5,26.1875,25.3125,27.9375,28.625,29.0
0.33605382,-0.30820176,-0.514373,-0.5874176,0.034312982,0.012690082,-0.14395757,-0.39999115,-0.3314593,0.060050227,-3.0711231,0.6271775,0.00012496427,-0.15923488,-0.01856327,-0.00141416,0.041168105,-0.022360206,-0.0048223115,0.4341196,-1.4157842,1.9443086,-2.0936854,-1.5763596,2.4114776,-0.082125016,0.33211488,-0.40269458,0.10784415,-0.028883405,-0.07691367,-0.13407528,0.05746084,-9.270349,0.94331104,47.682407,-0.77269363,-1.7740425,-3.6432638,-0.2746896,-0.33097643,-0.19088507,25.5,26.1875,25.3125,27.9375,28.625,29.0
0.3380537,-0.63642365,-1.2612046,-0.34842825,0.023872523,0.00796309,-0.14267749,-0.40029863,-0.33149472,0.060038213,-3.0710003,0.6272856,7.0676826e-05,-0.16299775,-0.01867719,0.00087100867,0.040417545,-0.016282469,-0.0062698727,0.43396345,-1.4151226,1.94353,-2.0934823,-1.5764202,2.4114056,-0.08376503,0.33282572,-0.40884912,0.107454866,-0.030785505,-0.07709009,-0.05746084,-0.019153614,-9.059659,0.88960326,47.63315,-0.840916,-1.7413939,-3.5622919,-0.27414382,-0.32124412,-0.16023503,25.5,26.1875,25.3125,27.9375,28.625,29.0
0.3400533,-0.31138304,-1.1669497,-0.80833024,0.027917026,-0.0019037753,-0.14106071,-0.4006369,-0.33153436,0.060069527,-3.0709233,0.6272304,0.00016754954,-0.16457403,-0.020151015,0.0011189722,0.040073033,-0.0131734805,-0.005550036,0.4338199,-1.4144975,1.9426912,-2.0932677,-1.5765284,2.4112382,-0.08169249,0.3358077,-0.4125219,0.10517904,-0.031791925,-0.07572938,0.095768064,0.076614454,-9.193734,0.9321212,47.67793,-0.69393027,-1.627474,-3.4235709,-0.278935,-0.32372713,-0.15441856,25.5,26.1875,25.3125,27.9375,28.625,29.0
0.34205374,0.43076444,-0.7440854,-0.6601668,0.003612026,0.0030189229,-0.14449205,-0.40097073,-0.33158424,0.060088243,-3.0708814,0.6272214,0.00016645572,-0.16640937,-0.02113031,0.002402502,0.0382814,-0.008040332,-0.006718781,0.43365234,-1.4138485,1.9418534,-2.0930536,-1.5765647,2.411071,-0.08101859,0.3356968,-0.4148663,0.10222869,-0.032333907,-0.073881604,-0.038307227,0.17238252,-9.270349,0.91421866,47.66808,-0.92783755,-1.475977,-3.4338975,-0.25394115,-0.3270396,-0.15212503,25.5,26.1875,25.3125,27.9375,28.625,29.0
0.34405354,-0.18656312,-1.5216521,-0.5722194,-0.023462452,0.009870273,-0.15042515,-0.40128195,-0.33161137,0.060063977,-3.0707502,0.6272734,3.9102833e-05,-0.16936405,-0.02003306,0.0017172459,0.037781484,-0.005540704,-0.013164076,0.43347093,-1.4131507,1.9410518,-2.0928152,-1.5766133,2.41094,-0.08497609,0.33876818,-0.41607878,0.09789936,-0.03294616,-0.071384504,-0.05746084,0.2681506,-9.289503,0.9321212,47.655537,-0.75187135,-1.511096,-3.5556974,-0.20717654,-0.32640976,-0.1612726,25.5,26.1875,25.3125,27.9375,28.625,29.0
0.3460535,-0.4379886,-2.3255587,-0.83626425,-0.032981366,0.026331525,-0.14194681,-0.40163183,-0.33164966,0.060082145,-3.0706675,0.62735075,8.479181e-05,-0.16868219,-0.021655142,0.001646403,0.03734762,-0.0031426654,-0.0126615325,0.43329248,-1.4124894,1.9402031,-2.092613,-1.5766853,2.4108212,-0.08098666,0.33872983,-0.41540658,0.09491959,-0.033554215,-0.06789376,-0.26815057,0.45968673,-9.3661175,1.0171678,47.66808,-0.9674339,-1.5084897,-3.7034643,-0.17746362,-0.34234157,-0.18517272,25.5,26.1875,25.3125,27.9375,28.625,29.0
0.34805405,-1.1308054,-2.7211869,-0.6928754,-0.067421146,0.0596432,-0.14591275,-0.40197206,-0.33169127,0.06008465,-3.070569,0.6273896,0.000112655194,-0.16984446,-0.02141242,0.00049235346,0.03754441,-0.0034196235,-0.016906833,0.433136,-1.4118046,1.9393653,-2.0924222,-1.5767692,2.4107025,-0.08225825,0.34205005,-0.41635403,0.09288863,-0.03361571,-0.06491752,-0.30645782,0.59376204,-9.385271,1.0216395,47.72629,-0.9368472,-1.420024,-3.8483877,-0.111508556,-0.3309757,-0.21970776,25.5,26.1875,25.3125,27.9375,28.625,29.0
0.35005373,-1.2142489,-3.1053936,-0.6277338,-0.08690378,0.08479347,-0.15122734,-0.40228817,-0.3317569,0.06009531,-3.070524,0.6273239,0.0001456935,-0.17098053,-0.021652788,0.00020254016,0.03865661,-0.004706298,-0.019756088,0.43302798,-1.4111544,1.9385504,-2.092241,-1.5768298,2.41056,-0.082396284,0.3457471,-0.4206706,0.09515395,-0.034080554,-0.062201142,-0.13407528,0.63206923,-9.442732,0.9545008,47.717335,-0.96817744,-1.5489945,-3.8374987,-0.12793848,-0.34526312,-0.24960393,25.5,26.1875,25.3125,27.9375,28.625,29.0
0.35205433,-1.6551702,-2.6532516,-0.44921327,-0.08742465,0.073856756,-0.1421432,-0.4026671,-0.33177894,0.060113102,-3.0704188,0.62745345,0.00023038824,-0.17344461,-0.022934245,0.0010164247,0.03794797,0.00011677724,-0.019260451,0.4328123,-1.4104687,1.9376758,-2.0920508,-1.5769261,2.4104395,-0.0811344,0.3483485,-0.42510974,0.0923131,-0.035477545,-0.061424047,-0.15322891,0.61291564,-9.32781,0.9254084,47.686886,-0.96157765,-1.6837783,-3.6355767,-0.06768521,-0.34158874,-0.28673792,25.5,26.1875,25.3125,27.9375,28.625,29.0
0.35405415,-1.576951,-2.5859425,-0.69218206,-0.03416982,0.040018376,-0.1370364,-0.40301934,-0.33182296,0.06010026,-3.070331,0.627513,0.00025713912,-0.1750766,-0.021548087,0.0003654004,0.039615218,-0.0015220369,-0.022406416,0.43264306,-1.4097472,1.9368399,-2.0919068,-1.5769981,2.4103196,-0.08434405,0.35141698,-0.4278018,0.09411604,-0.036310617,-0.061480805,-0.24899697,0.6703765,-9.270349,1.0395473,47.698532,-0.84935987,-1.5931756,-3.7163534,-0.045687445,-0.3469865,-0.3056466,25.5,26.1875,25.3125,27.9375,28.625,29.0
0.3560539,-0.5529446,-1.6804516,-0.76885533,-0.028928379,0.036748596,-0.14740929,-0.4033714,-0.33188158,0.060115583,-3.070264,0.6275142,0.00030416486,-0.17497495,-0.02335842,0.00038004376,0.040062606,0.0005582305,-0.017697373,0.43250063,-1.40905,1.935954,-2.0917041,-1.5770706,2.4101872,-0.08008389,0.35302287,-0.4295629,0.09256254,-0.0376017,-0.061920658,-0.22984336,0.8236054,-9.2703495,0.96569055,47.699425,-1.0396948,-1.6192887,-3.7169209,-0.0019950347,-0.34293848,-0.31591028,25.5,26.1875,25.3125,27.9375,28.625,29.0
0.35805365,-0.24637516,-1.7084285,-0.46305254,-0.030844864,0.031245975,-0.1465371,-0.40371788,-0.33192772,0.060101163,-3.07019,0.62751764,0.0003040999,-0.1762288,-0.023113724,0.0009996494,0.04086515,0.0020997047,-0.01797111,0.43233272,-1.4083288,1.9351181,-2.0915477,-1.5771307,2.4100318,-0.08057417,0.35366428,-0.4321502,0.09343899,-0.038986266,-0.062126674,-0.19153613,0.7661445,-9.174581,0.9947882,47.690468,-1.224288,-1.6984836,-3.6966674,0.037651315,-0.32595533,-0.3334447,25.5,26.1875,25.3125,27.9375,28.625,29.0
0.36005333,-0.50142634,-1.9748821,-0.34353355,-0.034628462,0.02310771,-0.14594768,-0.40407577,-0.3319696,0.06010533,-3.0700848,0.62761164,0.00034361356,-0.17695749,-0.021641409,0.0009405878,0.04312535,0.00042543773,-0.01993319,0.43216375,-1.4076202,1.934246,-2.091355,-1.5772156,2.409936,-0.08284435,0.35455933,-0.43405494,0.09690708,-0.040339414,-0.06242554,-0.2681506,0.63206923,-9.021352,0.9791215,47.72629,-1.0053935,-1.4723419,-3.7957902,0.042070266,-0.30879575,-0.35745066,25.5,26.1875,25.3125,27.9375,28.625,29.0
0.36205417,-0.8764364,-1.9123471,-0.21407029,-0.03460513,0.009620266,-0.13786317,-0.40445232,-0.33201933,0.06011269,-3.0699883,0.62760746,0.0004205251,-0.17639951,-0.022127263,0.0016562245,0.044797502,-0.0019249715,-0.018449783,0.43200853,-1.4068753,1.9333237,-2.0911615,-1.5773238,2.4097915,-0.081063844,0.3550931,-0.437937,0.10308118,-0.040870458,-0.06212424,-0.3256114,0.40222588,-9.040505,0.9925471,47.699425,-1.2075846,-1.3948455,-3.71323,0.019434655,-0.2968274,-0.3614783,25.5,26.1875,25.3125,27.9375,28.625,29.0
0.3640538,-0.3221097,-1.4418918,0.0067369915,-0.019024419,0.033190235,-0.14948139,-0.40482354,-0.33208972,0.06011768,-3.0699346,0.6276543,0.00048163903,-0.17679676,-0.021045158,0.0007463158,0.04848963,-0.0072229477,-0.01998017,0.4318641,-1.4061292,1.932413,-2.0910032,-1.5773839,2.409684,-0.08250512,0.35926265,-0.44242623,0.10975324,-0.042002585,-0.062027402,-0.19153613,0.2873042,-8.90643,1.005978,47.685097,-1.1874716,-1.5283945,-3.63234,-0.024904672,-0.27817723,-0.39737844,25.5,26.1875,25.3125,27.9375,28.625,29.0
0.36605364,0.08621168,-0.17476778,-0.15186845,0.023648927,0.01902616,-0.15079796,-0.40517983,-0.33214784,0.060125366,-3.06988,0.6277196,0.0004885394,-0.17605717,-0.01963339,-0.0005565118,0.052935548,-0.013395975,-0.020495625,0.4316957,-1.4054193,1.9315294,-2.09081,-1.5774211,2.409564,-0.08338159,0.36219704,-0.44457763,0.116431,-0.043454453,-0.062378895,-0.11492168,0.114921674,-8.887277,0.93436235,47.68062,-1.0954154,-1.5250075,-3.6216736,-0.11416611,-0.25852165,-0.4049518,25.5,26.1875,25.3125,27.9375,28.625,29.0
0.3680542,0.14337002,1.0589833,0.24003583,0.06544035,-0.003205979,-0.14281736,-0.40554628,-0.3321697,0.060104914,-3.0697322,0.6277631,0.00044442154,-0.17668115,-0.019444589,-0.0011690618,0.0546439,-0.017110758,-0.018777596,0.4314915,-1.4046489,1.9306315,-2.0905802,-1.5775164,2.4094071,-0.08410536,0.3661249,-0.4490164,0.12099948,-0.043476623,-0.06481485,-0.05746084,-0.05746084,-8.810662,0.90750587,47.692257,-1.0616429,-1.7889245,-3.5392635,-0.14374852,-0.2567665,-0.40077823,25.5,26.1875,25.3125,27.9375,28.625,29.0
0.370054,0.39491254,1.6692686,0.10794032,0.10015169,-0.01844478,-0.1489664,-0.40590623,-0.3322195,0.060120974,-3.0696218,0.627816,0.00045291323,-0.1769694,-0.019948643,-0.0016064068,0.054843552,-0.020444207,-0.019622963,0.43133548,-1.4039272,1.9296983,-2.090316,-1.5776004,2.4092994,-0.084110394,0.36945206,-0.45296082,0.12471781,-0.04226978,-0.063978545,-0.11492168,-0.22984336,-8.676587,0.9164598,47.699425,-1.0574121,-1.74747,-3.4541519,-0.19206563,-0.25115985,-0.39754725,25.5,26.1875,25.3125,27.9375,28.625,29.0
0.37205347,0.87167335,2.5854847,-0.05621319,0.107512556,-0.01845133,-0.15913574,-0.40621397,-0.33227342,0.060060818,-3.0694652,0.6277994,0.0002735792,-0.17718497,-0.019006312,-0.0026441957,0.05768225,-0.022368493,-0.017929828,0.4312153,-1.4031218,1.92885,-2.0900886,-1.5776609,2.4091902,-0.08473585,0.37176484,-0.45388287,0.12624343,-0.04407116,-0.066277936,0.038307227,-0.28730422,-8.695741,0.8560339,47.695843,-1.1053275,-1.7991487,-3.4263167,-0.22458497,-0.23589659,-0.39807254,25.5,26.1875,25.3125,27.9375,28.625,29.0
0.37405422,0.33076704,1.4121178,-0.010486371,0.10030209,-0.007290217,-0.14123718,-0.40658846,-0.33229178,0.060058486,-3.0693433,0.62782663,0.00027912768,-0.17951551,-0.019464273,-0.002078364,0.057675555,-0.01879909,-0.01197056,0.43099943,-1.402388,1.9279522,-2.0898612,-1.5777572,2.409008,-0.08473722,0.37409425,-0.4577262,0.12445931,-0.045612466,-0.07222419,-0.019153614,-0.26815057,-8.7532015,0.9612189,47.69763,-1.1215184,-1.8329607,-3.5138128,-0.21269989,-0.2143003,-0.3573826,25.5,26.1875,25.3125,27.9375,28.625,29.0
