Tylouw/Master_Thesis_Code/training_data/batch_1/big_rod_t0.1/sample_8_session_1.csv
timestamp[s],tcp_force_x[N],tcp_force_y[N],tcp_force_z[N],tcp_force_rx[Nm?],tcp_force_ry[Nm?],tcp_force_rz[Nm?],tcp_pose_x[m],tcp_pose_y[m],tcp_pose_z[m],tcp_pose_rx[rot_vec_x],tcp_pose_ry[rot_vec_y],tcp_pose_rz[rot_vec_z],tcp_velo_x[m/s],tcp_velo_y[m/s],tcp_velo_z[m/s],tcp_velo_rx[rot_vec_x/s],tcp_velo_ry[rot_vec_y/s],tcp_velo_rz[rot_vec_z/s],q1[rad],q2[rad],q3[rad],q4[rad],q5[rad],q6[rad],qd1[rad/s],qd2[rad/s],qd3[rad/s],qd4[rad/s],qd5[rad/s],qd6[rad/s],tool_acc_x,tool_acc_y,tool_acc_z,current_of_whole_robot[A],voltage_of_whole_robot[V],current_J1[A],current_J2[A],current_J3[A],current_J4[A],current_J5[A],current_J6[A],temp_J1[C],temp_J2[C],temp_J3[C],temp_J4[C],temp_J5[C],temp_J6[C]
6.270129e-07,-0.60728574,-0.46669373,0.09214189,-0.038112808,0.030595014,-0.0096370615,-0.37361947,-0.3287963,0.05992191,-3.0784638,0.6249361,-0.00036504178,-0.00096726016,-0.00054080295,-0.00028255742,-0.0012538559,0.0021243661,7.248405e-05,0.44854617,-1.4686581,2.0071418,-2.1074173,-1.5706376,2.423511,0.0,0.0013899871,-1.6474855e-06,-0.0038470423,0.0001998128,-7.151372e-05,0.038307227,0.15322891,-8.714894,0.6926589,47.687782,0.0055421265,-2.701614,-2.334038,-0.5226943,0.08050011,-0.13298187,23.8125,24.0625,23.5,24.625,24.375,24.6875
0.002046594,-0.30904138,-0.086357735,0.1182668,-0.041026726,0.032469597,-0.011441582,-0.37364894,-0.3287889,0.059920736,-3.0784497,0.62491393,-0.0002469854,-0.0015364096,-0.00081460807,-0.00219889,-0.0025828078,0.004869224,7.7377954e-05,0.44854617,-1.4686333,2.0071318,-2.1074808,-1.5706977,2.423499,0.0,0.003548087,0.00415781,-0.013214241,0.00019453168,-7.580158e-05,0.05746084,0.05746084,-8.619126,0.7172743,47.65643,0.009323785,-2.6893544,-2.3971102,-0.46929085,0.086116955,-0.14089677,23.8125,24.0625,23.5,24.625,24.375,24.6875
0.004048033,0.01721881,-0.16167673,0.0866597,-0.0261237,0.030428933,-0.011276508,-0.37364227,-0.32880515,0.059923645,-3.0785072,0.6248483,-0.000251676,-0.0010921234,-0.0006045729,-0.0027239316,-0.0021216506,0.0038822189,7.628937e-05,0.4485582,-1.4686452,2.0071437,-2.1075046,-1.5706614,2.4234629,0.0,0.003795173,0.005116556,-0.013330769,0.00020873133,-7.523257e-05,0.05746084,0.019153614,-8.599973,0.7284641,47.67345,0.031133762,-3.0459707,-2.771119,-0.3781993,0.07849278,-0.13239866,23.8125,24.0625,23.5,24.625,24.375,24.6875
0.006044876,-0.19310683,-0.18311407,-0.031058127,0.0017824825,-0.0003635352,-0.0057971524,-0.37365934,-0.3288199,0.059936866,-3.0785592,0.6248782,-0.00022681162,-0.0010854446,-0.0006013529,-0.0014605279,-0.0017975622,0.003219679,7.542815e-05,0.44854617,-1.4686457,2.007119,-2.1075265,-1.5706257,2.4234629,0.0,0.0025321804,0.0025706403,-0.008784307,0.0002089979,-7.436653e-05,0.15322891,-0.019153614,-8.523358,0.7620334,47.678825,0.043871295,-2.9103491,-2.6726072,-0.4112649,0.089913376,-0.1443625,23.8125,24.0625,23.5,24.625,24.375,24.6875
0.008049635,1.0032247,1.2113802,-0.44746795,0.014472826,-0.003825574,-0.01514913,-0.3736764,-0.3288001,0.059919223,-3.0785081,0.624887,-0.00017116309,-0.0007669866,-0.0004451059,-0.00075792166,-0.0011452651,0.0018897789,7.423522e-05,0.44853413,-1.4686102,2.0071309,-2.1075728,-1.5706857,2.4234629,0.0,0.0016809781,0.0010057888,-0.004887012,0.00020350359,-7.35004e-05,0.0,-0.11492168,-8.6574335,0.75084364,47.705692,-0.042000607,-2.855958,-2.5437016,-0.44109082,0.07374039,-0.129693,23.8125,24.0625,23.5,24.625,24.375,24.6875
0.010046604,0.48829746,1.0112977,-0.93114984,0.02012932,-0.017235655,-0.009760814,-0.3736573,-0.32879755,0.059915777,-3.0785089,0.6248872,-0.00026351365,-0.0011995662,-0.000652493,0.0003511458,-0.0015160455,0.0026741116,7.8955796e-05,0.4485222,-1.4686226,2.0071414,-2.1075246,-1.5706495,2.423451,0.0,0.00076128735,-0.0009944154,-0.0028346283,0.00019793579,-7.7770084e-05,0.114921674,-0.038307227,-8.983045,0.7038487,47.694946,-0.29019147,-2.1595812,-3.1047587,-0.47437263,0.0793266,-0.2097041,23.8125,24.0625,23.5,24.625,24.375,24.6875
0.012048086,-0.16506241,-0.25294092,-1.1202306,-0.014754952,-0.00087819534,-0.009590455,-0.3736289,-0.3287987,0.059887484,-3.0784345,0.6249107,-0.0003735354,-0.0014312888,-0.0007658025,-0.0019553,0.0007860216,-0.0021055888,0.00022601862,0.4485582,-1.4685726,2.0071404,-2.1074765,-1.5706614,2.423511,0.0,0.0075399186,-0.0033592656,-0.0019432358,0.00019323114,-0.00022261361,0.19153613,0.0,-9.232041,0.75755644,47.67793,-0.36131954,-2.0857468,-3.220219,-0.483628,0.09594989,-0.22654125,23.8125,24.0625,23.5,24.625,24.375,24.6875
0.014047469,-0.8912396,-1.7268901,-1.1933079,-0.054854948,0.030803146,-0.003556041,-0.37362385,-0.3287869,0.059872605,-3.0784082,0.624788,-0.0004135409,-0.004652863,-1.736462e-05,-0.0036912917,0.002497435,-0.0056947945,0.0017765299,0.44855705,-1.468545,2.0071385,-2.1074517,-1.5706857,2.4234366,-0.004340665,0.01664705,-0.00965176,-0.0007826121,0.00019417722,-0.006108937,0.038307227,0.15322891,-9.3661175,0.80679786,47.709274,-0.5229369,-2.6281562,-3.18754,-0.48020554,0.09177615,-0.22710118,23.8125,24.0625,23.5,24.625,24.375,24.6875
0.016048113,-1.5306585,-2.5094771,-1.3743961,-0.09263623,0.06118991,-0.008434879,-0.37362427,-0.3287759,0.059872914,-3.0783906,0.62486136,-0.00048225228,-0.0063770213,0.0008814343,-0.003168132,0.0021581799,-0.0050270604,0.0032288663,0.4485196,-1.4685448,2.0071266,-2.1074035,-1.5706614,2.4234471,-0.0076022265,0.017126232,-0.011524553,-0.00013840442,0.00020500015,-0.0108218575,-0.19153614,0.30645782,-9.481039,0.7463667,47.6636,-0.18854868,-2.589066,-3.2387514,-0.49238053,0.10383181,-0.18998209,23.8125,24.0625,23.5,24.625,24.375,24.6875
0.018045802,-1.8438745,-3.141971,-1.5586847,-0.10841755,0.08907082,-0.017760336,-0.37360463,-0.32878804,0.059834886,-3.0783827,0.6247816,-0.00059321075,-0.00632851,0.00016555145,-0.0029240425,0.0019153052,-0.004590682,0.005704985,0.44854403,-1.4684728,2.0071375,-2.107416,-1.5706376,2.4234228,-0.0062333792,0.017510671,-0.012536882,-9.03682e-06,0.00023149564,-0.011928572,-0.3256114,0.45968673,-9.595961,0.7732232,47.693153,-0.36467248,-2.2774947,-3.45224,-0.5271362,0.11533772,-0.20480189,23.8125,24.0625,23.5,24.625,24.375,24.6875
0.020046487,-2.5391436,-3.4771585,-1.773105,-0.102110304,0.085992076,-0.011743183,-0.37362707,-0.3287562,0.059827346,-3.0783195,0.62482613,-0.00057790463,-0.006830421,-0.0008429422,-0.0025520758,0.0014555942,-0.0037267555,0.0071943603,0.4484965,-1.4684484,2.0071251,-2.1074035,-1.5706857,2.4234111,-0.00482064,0.01884312,-0.014856302,-5.900398e-07,0.00026566163,-0.012003693,-0.47884032,0.6703765,-9.768343,0.77545905,47.677036,-0.50622404,-2.2791426,-3.4857278,-0.49928278,0.11082856,-0.22465806,23.8125,24.0625,23.5,24.625,24.375,24.6875
0.022045003,-2.2797894,-3.064602,-1.9334896,-0.098515026,0.09289136,-0.027656224,-0.37363517,-0.32875803,0.0598135,-3.078296,0.6247435,-0.0005990015,-0.007850133,-0.0012724928,-0.0024265465,0.00054607895,-0.0036471093,0.007389789,0.44850826,-1.4683881,2.007088,-2.107392,-1.5707091,2.4233744,-0.005469843,0.020668924,-0.01715208,-3.8525382e-08,0.0010449223,-0.012848314,-0.49799395,0.7661445,-9.864111,0.7463667,47.67166,-0.65308136,-2.3207493,-3.4368231,-0.5210294,0.11539248,-0.24032634,23.8125,24.0625,23.5,24.625,24.375,24.6875
0.024049964,-1.9697813,-2.6183171,-2.0850995,-0.09672082,0.08024215,-0.04799119,-0.37364742,-0.32880667,0.05983315,-3.07839,0.62476325,-0.0006201649,-0.009271185,-0.0012391818,-0.0023037393,-0.0011382136,-0.0039675,0.0065436903,0.4485313,-1.4683635,2.007016,-2.107392,-1.5706247,2.4233978,-0.007942167,0.02232644,-0.019256404,-2.5154319e-09,0.0026968361,-0.014476365,-0.5554548,0.7852981,-9.9790325,0.7642693,47.666286,-0.559891,-2.233786,-3.5075235,-0.5091636,0.10484511,-0.23872697,23.8125,24.0625,23.5,24.625,24.375,24.6875
0.026048355,-1.9265896,-3.121935,-2.167432,-0.095636375,0.06592471,-0.058549453,-0.3736722,-0.32879713,0.059809137,-3.0783722,0.6247214,-0.00061154197,-0.010604348,-0.001313167,-0.0011877152,-0.0026351549,-0.0019173532,0.0064789825,0.44850695,-1.4682919,2.007003,-2.1074398,-1.5706486,2.4233496,-0.009321567,0.021701459,-0.021130012,-1.6423972e-10,0.0031517497,-0.015791012,-0.47884035,0.68953013,-9.959879,0.74413085,47.691364,-0.5608416,-2.1395526,-3.4306784,-0.5225203,0.10685574,-0.2607081,23.8125,24.0625,23.5,24.625,24.375,24.6875
0.028046545,-1.807453,-2.686991,-1.8107774,-0.106544234,0.061932877,-0.077086985,-0.37370226,-0.32879227,0.059815463,-3.0783684,0.62474,-0.00061197905,-0.012103721,-0.0012258283,-0.0008712315,-0.0029753428,-0.0011053701,0.0060838275,0.4484705,-1.4682553,2.006943,-2.107416,-1.5706486,2.4233253,-0.010813413,0.023240857,-0.023548454,-1.072368e-11,0.003100423,-0.016885914,-0.5554548,0.51714754,-9.921572,0.7978386,47.684196,-0.7179067,-2.194037,-3.4746027,-0.53793496,0.10330245,-0.26581138,23.8125,24.0625,23.5,24.625,24.375,24.6875
0.030060878,-2.1920176,-2.2620232,-1.8148792,-0.09550752,0.06346205,-0.09296043,-0.3737055,-0.32878727,0.05978748,-3.0783265,0.62469286,-0.0007167936,-0.013520751,-0.0011319381,-0.0010002131,-0.0027609698,-0.0010460683,0.0057968106,0.44845808,-1.4681706,2.0069058,-2.1073797,-1.5706486,2.4232888,-0.012125988,0.025797023,-0.026064403,-7.001796e-13,0.0028740908,-0.017909344,-0.5554548,0.4213795,-9.9790325,0.81351066,47.685097,-0.6552464,-2.2459261,-3.38131,-0.527939,0.11245681,-0.24399579,23.8125,24.0625,23.5,24.625,24.375,24.6875
0.032048337,-2.3152878,-2.1222951,-1.8991367,-0.06596097,0.07166795,-0.11322474,-0.37375513,-0.3287834,0.059784323,-3.0783494,0.6247375,-0.00068336533,-0.014890047,-0.0012308576,-0.0010163464,-0.0031373391,-0.0010062421,0.004296692,0.4483976,-1.4681098,2.0068572,-2.1074278,-1.5706366,2.4232533,-0.013398312,0.028165638,-0.0286328,-4.5716723e-14,0.0031913463,-0.017680213,-0.2681506,0.2681506,-9.787497,0.80679786,47.672558,-0.7504356,-2.293542,-3.3611119,-0.51933265,0.110996775,-0.24468304,23.8125,24.0625,23.5,24.625,24.375,24.6875
0.034053117,-1.8334619,-1.6337095,-1.7796608,-0.03615921,0.07350699,-0.11703863,-0.373788,-0.328795,0.059791338,-3.0783632,0.62466365,-0.0006565434,-0.016172353,-0.0016373794,-0.0003445487,-0.004615449,8.124373e-05,0.002692874,0.4483972,-1.4680498,2.0067723,-2.107416,-1.5706481,2.4232051,-0.014378958,0.02898771,-0.031078849,-2.9849754e-15,0.0040473226,-0.017057214,-0.2681506,0.11492168,-9.768343,0.7597976,47.691364,-0.72729367,-2.295927,-3.2901087,-0.5252481,0.10095827,-0.26188073,23.8125,24.0625,23.5,24.625,24.375,24.6875
0.036052614,-1.6564194,-0.4615133,-1.5262333,-0.02112168,0.056714714,-0.14536297,-0.3738248,-0.32883218,0.05980101,-3.078412,0.6247131,-0.0006315165,-0.017551925,-0.0023145175,0.00026606026,-0.0064367913,0.000916329,0.0011084222,0.448409,-1.4679773,2.006676,-2.1074398,-1.5706118,2.4232416,-0.015223153,0.03043519,-0.03407242,-1.9489756e-16,0.0053214435,-0.01631737,-0.28730422,0.11492168,-9.595961,0.80456203,47.67793,-0.6937711,-2.26487,-3.2764473,-0.53167707,0.085032,-0.28455055,23.8125,24.0625,23.5,24.625,24.375,24.6875
0.038052596,-0.9529202,0.113159955,-1.5605783,-0.0025764895,0.055138458,-0.15264538,-0.37387496,-0.32882223,0.059798367,-3.0784109,0.6247707,-0.0006416492,-0.018898759,-0.0026402583,0.00075489434,-0.007483617,0.0018046445,0.00022844679,0.44833663,-1.467905,2.0066025,-2.1074398,-1.5705999,2.4232054,-0.016206691,0.031768724,-0.036661666,-1.2725418e-17,0.005874484,-0.016420312,-0.17238252,-0.05746084,-9.576807,0.7150385,47.672558,-0.6608823,-2.333648,-3.2061455,-0.52780575,0.07272692,-0.27841076,23.8125,24.0625,23.5,24.625,24.375,24.6875
0.04005285,-1.0181153,0.19843982,-1.532197,0.0023940918,0.044827167,-0.15791698,-0.37391102,-0.32883793,0.059796505,-3.078452,0.62479836,-0.0006725642,-0.019831106,-0.0030331258,0.001117933,-0.0075027915,0.002862938,0.0006952614,0.44830075,-1.4678328,2.00653,-2.1074517,-1.5705518,2.4231815,-0.016013568,0.033025995,-0.038878366,-8.3087883e-19,0.0054285703,-0.01669151,-0.095768064,-0.11492168,-9.5385,0.7978386,47.660015,-0.6705408,-2.283631,-3.2037163,-0.5239689,0.06291686,-0.28150752,23.8125,24.0625,23.5,24.625,24.375,24.6875
0.04205215,-0.87585443,-0.014994708,-1.3977703,-0.0025243561,0.05064508,-0.14354509,-0.37395456,-0.32884607,0.05980129,-3.0784883,0.62472916,-0.00062800926,-0.02064455,-0.0029445915,0.00091313326,-0.0071442085,0.0027134705,0.00018139754,0.44827646,-1.4677722,2.006458,-2.107476,-1.5705518,2.4231095,-0.016740976,0.03479963,-0.040360823,-5.425045e-20,0.0051676743,-0.016903177,-0.114921674,-0.17238252,-9.5385,0.78217715,47.666286,-0.6868492,-2.248073,-3.1563644,-0.519991,0.08191913,-0.29601863,23.8125,24.0625,23.5,24.625,24.375,24.6875
0.04405203,-0.7553266,-0.5261271,-1.3088512,-0.011504069,0.060278475,-0.14581908,-0.3740105,-0.3288517,0.059822764,-3.0784879,0.6247474,-0.0005598433,-0.022499882,-0.003523466,0.001846635,-0.008191285,0.0047519812,0.0009908666,0.4482523,-1.4677119,2.006337,-2.1074517,-1.5705756,2.423097,-0.01737345,0.036299348,-0.044152014,-3.5421667e-21,0.0052198246,-0.018342545,-0.19153613,-0.11492168,-9.576807,0.77545905,47.70659,-0.7587645,-2.2298815,-3.132225,-0.5088028,0.071024746,-0.27786756,23.8125,24.0625,23.5,24.625,24.375,24.6875
0.046052437,-1.13,-1.0562935,-1.5121918,-0.019891333,0.053319346,-0.12818816,-0.37403917,-0.3288463,0.059823252,-3.078477,0.62476414,-0.0005755404,-0.023069946,-0.0035360996,0.0019929076,-0.008079935,0.0052518756,0.00197672,0.44821608,-1.4676636,2.0062773,-2.1074278,-1.5705756,2.4230726,-0.017649358,0.036941107,-0.04519477,-2.3127816e-22,0.004900037,-0.019603021,-0.05746084,-0.019153614,-9.5385,0.82022345,47.65912,-0.7450623,-2.2574332,-3.0416422,-0.5118456,0.08106637,-0.28002954,23.8125,24.0625,23.5,24.625,24.375,24.6875
0.04805226,-1.4611311,-1.7191103,-1.6187028,-0.022422122,0.04233168,-0.12631457,-0.37411195,-0.32885563,0.059835665,-3.0785086,0.6247512,-0.00051625,-0.02342316,-0.0027261632,0.0013095718,-0.0067980224,0.004278149,0.0015943042,0.44816774,-1.4675674,2.0061457,-2.1074398,-1.5705761,2.4230123,-0.018990431,0.038222123,-0.045039933,-1.5100812e-23,0.004167855,-0.02055993,-0.076614454,-0.038307227,-9.576807,0.7933669,47.642998,-0.71238434,-2.111659,-3.2485256,-0.50191975,0.093994446,-0.27781606,23.8125,24.0625,23.5,24.625,24.375,24.6875
0.050051708,-1.0038341,-1.6617607,-1.486688,-0.038680468,0.043998085,-0.1285344,-0.37413803,-0.32885966,0.059823345,-3.0785148,0.6247328,-0.00054254365,-0.024864253,-0.003157928,0.0017480535,-0.007442417,0.0052911607,0.0020055003,0.44814354,-1.467495,2.006097,-2.1074517,-1.5705642,2.4229758,-0.019579083,0.040067777,-0.048077974,-9.859752e-25,0.0043026865,-0.021557996,-0.11492168,0.1340753,-9.595961,0.7418897,47.67614,-0.70306057,-2.1699376,-3.19498,-0.49221224,0.096966416,-0.25667778,23.8125,24.0625,23.5,24.625,24.375,24.6875
0.052051537,-0.8865778,-1.8145771,-1.6048844,-0.04044644,0.03583501,-0.11620908,-0.3741919,-0.3288707,0.059839174,-3.078543,0.62471855,-0.0005226967,-0.025664913,-0.0032747253,0.0021546844,-0.007737991,0.0062400177,0.0023851995,0.4481073,-1.4674228,2.005976,-2.1074278,-1.5705522,2.4229271,-0.019983642,0.040545333,-0.04953785,-6.437713e-26,0.0041553527,-0.022340927,-0.11492168,0.22984336,-9.461885,0.7172743,47.64121,-0.67661697,-2.1607108,-3.1473942,-0.5072675,0.1087458,-0.28137195,23.8125,24.0625,23.5,24.625,24.375,24.6875
0.05405167,-0.6717056,-1.8921435,-1.60627,-0.051666304,0.039337035,-0.125072,-0.37425768,-0.32886836,0.059862494,-3.0785701,0.62478197,-0.00047283666,-0.027061045,-0.0034580869,0.002686813,-0.00822339,0.007498732,0.0025784145,0.44803512,-1.4673747,2.0058668,-2.107416,-1.5705403,2.4228911,-0.020825958,0.041773014,-0.052109335,-4.2033668e-27,0.004043445,-0.023374327,-0.076614454,0.2873042,-9.481039,0.75755644,47.67614,-0.7507216,-1.941692,-3.0467691,-0.48919493,0.11968329,-0.27820104,23.8125,24.0625,23.5,24.625,24.375,24.6875
0.05605233,-1.7150837,-2.815959,-1.6491333,-0.046935048,0.015813865,-0.111942224,-0.37432992,-0.32888845,0.059887122,-3.0786252,0.6248118,-0.00038219278,-0.026849492,-0.0030306203,0.0018644105,-0.007749148,0.005754144,0.003492173,0.44799882,-1.4673022,2.005736,-2.1074398,-1.5705279,2.4228666,-0.021655088,0.04283177,-0.051391017,-2.7444983e-28,0.0043749562,-0.025117742,-0.11492168,0.4213795,-9.481039,0.7777002,47.657326,-0.7466917,-2.1127207,-3.1642585,-0.4940223,0.09639913,-0.2602913,23.8125,24.0625,23.5,24.625,24.375,24.6875
0.058052227,-1.2681125,-2.336382,-1.490987,-0.07609119,0.032170445,-0.11648788,-0.37436947,-0.32889044,0.059871998,-3.078602,0.624806,-0.00040085235,-0.027690835,-0.0032977164,0.0018261501,-0.008346606,0.005565906,0.004180648,0.44797465,-1.467194,2.0056517,-2.1074398,-1.5705398,2.4228418,-0.022331323,0.044572834,-0.053223647,-1.7919614e-29,0.0049902494,-0.026482318,-0.1340753,0.38307226,-9.5385,0.7486078,47.685097,-0.6935779,-1.9268727,-3.288525,-0.48732156,0.119027965,-0.24055418,23.8125,24.0625,23.5,24.625,24.375,24.6875
0.06005207,-1.5129938,-2.732346,-1.2601786,-0.066002466,0.027482241,-0.122475035,-0.3743911,-0.3288925,0.059861735,-3.0786102,0.6247111,-0.000456173,-0.029552348,-0.0038688902,0.0029754904,-0.009467403,0.0080632055,0.00540035,0.44795045,-1.4671217,2.0055902,-2.107416,-1.5705274,2.4227574,-0.022892749,0.045547944,-0.056934394,-1.1700227e-30,0.00490958,-0.02826112,-0.05746084,0.36391866,-9.423578,0.78217715,47.689575,-0.7058015,-2.015714,-3.1328228,-0.46412286,0.1098468,-0.24392825,23.8125,24.0625,23.5,24.625,24.375,24.6875
0.062052008,-0.9327985,-2.2661827,-1.1782837,-0.06861903,0.041084316,-0.12262836,-0.3744918,-0.32890904,0.059884746,-3.0786672,0.624684,-0.0003524159,-0.030326769,-0.0038673647,0.0026705188,-0.009240786,0.007629072,0.005817552,0.4478901,-1.4670013,2.0054104,-2.1074398,-1.5705274,2.422673,-0.023579856,0.047590267,-0.05848691,-7.6394126e-32,0.004892737,-0.029363759,-0.05746084,0.40222588,-9.308657,0.7866488,47.658226,-0.67867637,-2.0035057,-3.1320796,-0.48439467,0.10993687,-0.23808041,23.8125,24.0625,23.5,24.625,24.375,24.6875
0.064051986,-1.1880527,-2.2024393,-1.181683,-0.050770383,0.029573789,-0.1229892,-0.37456495,-0.32890585,0.05991316,-3.078677,0.6248212,-0.0002765316,-0.031425077,-0.004068746,0.0028910507,-0.010037628,0.007965684,0.0060805,0.4478178,-1.4669529,2.0052893,-2.1074278,-1.5705274,2.4226851,-0.02457679,0.049017485,-0.06056429,-4.9879902e-33,0.0054631256,-0.03062286,-0.095768064,0.34476504,-9.308657,0.6948948,47.71823,-0.69619733,-1.9021697,-3.138514,-0.48536724,0.11312651,-0.24128787,23.8125,24.0625,23.5,24.625,24.375,24.6875
0.06605184,-1.1322135,-1.6678324,-1.0141704,-0.053912643,0.024990454,-0.1131973,-0.37460372,-0.32892036,0.059897237,-3.0787003,0.6247288,-0.0003300257,-0.032432687,-0.0043882984,0.003110094,-0.010630123,0.008410247,0.007234693,0.4477937,-1.4668326,2.0051935,-2.1074278,-1.5705036,2.4226005,-0.025115496,0.05050576,-0.062710166,-3.2568015e-34,0.0057992544,-0.03231498,-0.05746084,0.4213795,-9.251195,0.7777002,47.686886,-0.72076505,-1.942649,-3.1267252,-0.46752214,0.11618438,-0.21290295,23.8125,24.0625,23.5,24.625,24.375,24.6875
0.068051636,-0.7912635,-1.5522815,-0.8426258,-0.048609827,0.032194167,-0.116549045,-0.37469456,-0.3289238,0.059919134,-3.0787382,0.62477446,-0.0002672126,-0.033256967,-0.0047295303,0.0035020658,-0.0117689045,0.008940299,0.008134123,0.44770938,-1.4667366,2.0050375,-2.1074278,-1.5704912,2.42254,-0.025751388,0.051206872,-0.064384,-2.1264587e-35,0.006595446,-0.03385019,-0.11492168,0.34476504,-9.174581,0.7642693,47.65643,-0.69817066,-1.8313878,-3.0676355,-0.4729967,0.09772577,-0.19591838,23.8125,24.0625,23.5,24.625,24.375,24.6875
0.07005231,-1.2638023,-2.1029918,-0.8955762,-0.03209021,0.02449865,-0.109686814,-0.3747501,-0.32894662,0.059918437,-3.078779,0.62470466,-0.0002773898,-0.034114826,-0.0050386228,0.0027434358,-0.0115722185,0.0075235665,0.009265663,0.4476853,-1.4666156,2.004906,-2.1074278,-1.5704669,2.4224672,-0.026238361,0.05489184,-0.0667072,-1.3884255e-36,0.0070268554,-0.0354674,-0.21068975,0.40222588,-9.193734,0.77545905,47.66091,-0.745567,-1.9245607,-3.1307797,-0.45992935,0.0944856,-0.19334975,23.8125,24.0625,23.5,24.625,24.375,24.6875
0.072052225,-1.177042,-1.7122446,-0.90099037,-0.036716416,0.02903864,-0.11609586,-0.3748432,-0.32896563,0.059937123,-3.0788195,0.62469345,-0.00010641159,-0.03508518,-0.0050626867,0.002665902,-0.0115865795,0.0075268825,0.010255644,0.447661,-1.466507,2.00476,-2.1074998,-1.5705031,2.422431,-0.02707455,0.056709453,-0.06853514,-9.0654263e-38,0.007038507,-0.037291463,-0.11492168,0.24899697,-9.270349,0.72622824,47.64389,-0.75875324,-2.0469365,-3.0196357,-0.44603032,0.10825355,-0.15570293,23.8125,24.0625,23.5,24.625,24.375,24.6875
0.07405199,-1.2033767,-1.534183,-0.7690452,-0.03747782,0.039071005,-0.11853201,-0.3749256,-0.3289694,0.059944987,3.0788534,-0.62462234,0.00014926968,-0.03636805,-0.0054718414,0.003916707,-0.01312255,0.009917111,0.010630183,0.4475528,-1.4663875,2.004605,-2.107476,-1.570443,2.422274,-0.027692068,0.056169506,-0.07081287,-5.919076e-39,0.007385602,-0.038282726,-0.15322891,0.24899697,-9.155427,0.77545905,47.678825,-0.72845495,-1.7337835,-3.0770001,-0.44613886,0.10972454,-0.15020436,23.8125,24.0625,23.5,24.625,24.375,24.6875
0.076052174,-1.0024811,-1.0151507,-0.9333328,-0.036356986,0.044548105,-0.122429036,-0.3749676,-0.3289963,0.059936572,3.0788321,-0.6246561,0.00021489372,-0.03665951,-0.0054869917,0.0031881873,-0.012879901,0.0084429905,0.0114178015,0.4475407,-1.4662551,2.004473,-2.1074517,-1.5704068,2.4222858,-0.028206395,0.058426455,-0.07163575,-3.86474e-40,0.0078021362,-0.039584678,-0.17238252,0.24899697,-9.174581,0.75084364,47.68062,-0.73743904,-1.9262996,-3.0966296,-0.43004233,0.102024555,-0.13281357,23.8125,24.0625,23.5,24.625,24.375,24.6875
0.07805231,-1.3281374,-1.0902296,-1.0161092,-0.027800607,0.03740894,-0.11818346,-0.37507236,-0.32899332,0.059972662,3.0788171,-0.6245755,8.9600624e-05,-0.03713182,-0.005487894,0.001474026,-0.0120585365,0.0050396947,0.012534596,0.44745633,-1.4661694,2.0042932,-2.1074398,-1.5704306,2.4221532,-0.029118935,0.06340171,-0.073190115,-2.5235e-41,0.0085352035,-0.041612756,-0.095768064,0.2681506,-9.155427,0.70608455,47.64927,-0.74200046,-2.0512795,-3.1548233,-0.4208699,0.07344169,-0.09640649,23.8125,24.0625,23.5,24.625,24.375,24.6875
0.08005249,-1.553197,-1.0462292,-1.0024456,-0.02382992,0.03398491,-0.115126565,-0.37514058,-0.32900918,0.059951212,3.0788183,-0.6245383,0.00013995105,-0.03816498,-0.0056316624,0.0027016236,-0.0131719215,0.0075045717,0.01126238,0.4474081,-1.4659902,2.0041478,-2.1074517,-1.5704068,2.4220817,-0.029731406,0.062200736,-0.074691504,-1.648e-42,0.008469,-0.04095243,-0.17238252,0.11492168,-9.078813,0.80679786,47.679718,-0.7365329,-1.9632497,-3.1038437,-0.4297756,0.1007134,-0.10227532,23.8125,24.0625,23.5,24.625,24.375,24.6875
0.08205184,-1.1655306,-0.7341823,-0.8656157,-0.027365083,0.039072126,-0.11954717,-0.3752197,-0.329011,0.059977558,3.078789,-0.6245522,5.548208e-05,-0.038700003,-0.00552405,0.0015016987,-0.012171162,0.005360866,0.008915346,0.4473479,-1.4659171,2.0040042,-2.1074398,-1.5704187,2.422034,-0.03042778,0.0659528,-0.07607812,-1.08e-43,0.008494187,-0.039299905,-0.15322891,0.095768064,-9.193734,0.7933669,47.68599,-0.7783558,-1.9463806,-3.2161705,-0.39917833,0.08113319,-0.1143813,23.8125,24.0625,23.5,24.625,24.375,24.6875
0.08405165,-1.8072611,-0.88513035,-0.8296281,-0.02214361,0.03154152,-0.11189561,-0.3753041,-0.3290454,0.059983056,3.0787587,-0.6244122,3.1634434e-05,-0.03935797,-0.005307336,0.000910752,-0.011694276,0.004353969,0.008786069,0.44731143,-1.4657604,2.0038245,-2.1074636,-1.5703825,2.421914,-0.03142526,0.06820545,-0.077214815,-7e-45,0.008499594,-0.040166713,-0.19153613,0.05746084,-9.193734,0.7486078,47.694946,-0.77448356,-2.0224776,-3.218918,-0.3988327,0.06971433,-0.1062131,23.8125,24.0625,23.5,24.625,24.375,24.6875
0.08605195,-1.8398739,-1.1331322,-0.9832911,-0.015017773,0.030791773,-0.11278572,-0.37537998,-0.32904145,0.059976894,3.0787425,-0.62444717,4.4552613e-05,-0.03960683,-0.005135775,0.0004368934,-0.011149621,0.0026992443,0.008248506,0.4472274,-1.4656281,2.0036929,-2.1074631,-1.5703706,2.421854,-0.032114383,0.06998035,-0.07833925,0.0010774877,0.008724898,-0.04031798,-0.21068975,0.11492168,-9.174581,0.7642693,47.63404,-0.8121432,-2.0637212,-3.2314496,-0.40007713,0.07030256,-0.09963172,23.8125,24.0625,23.5,24.625,24.375,24.6875
0.088051826,-1.5037779,-0.7907071,-0.9199929,-0.013500792,0.03940673,-0.11743349,-0.37543613,-0.32905167,0.059958316,3.0787494,-0.6243897,0.0001918791,-0.040724996,-0.005271785,0.0007534431,-0.011399984,0.0034501785,0.008978651,0.44715515,-1.4654601,2.0035365,-2.107403,-1.5703105,2.421745,-0.032791123,0.07126632,-0.08051827,0.0011889137,0.008619181,-0.041723903,-0.22984336,0.17238252,-9.155427,0.8537928,47.66539,-0.7991965,-2.002153,-3.2335634,-0.39264107,0.07859639,-0.091739476,23.8125,24.0625,23.5,24.625,24.375,24.6875
0.090051785,-1.7594056,-1.1474646,-1.0510954,-0.015079408,0.035657037,-0.107316084,-0.37552845,-0.3290662,0.059961837,3.0787334,-0.6243304,0.00010626106,-0.04190394,-0.0053241327,0.0006865112,-0.011800202,0.0033488187,0.00718695,0.4471065,-1.4653155,2.00338,-2.1074512,-1.5703219,2.4216616,-0.034021534,0.07335282,-0.08266951,0.0011704158,0.009022124,-0.041161083,-0.28730422,0.22984336,-9.32781,0.73741806,47.63852,-0.7694458,-1.9852858,-3.3202248,-0.38496792,0.077885926,-0.09975736,23.8125,24.0625,23.5,24.625,24.375,24.6875
0.09205269,-1.1042207,-1.0772692,-0.9857748,-0.031902,0.06068092,-0.1227567,-0.37559325,-0.32906544,0.059947852,3.0787227,-0.6243494,0.0001848319,-0.042628005,-0.005447577,0.0009096151,-0.011702192,0.0040538106,0.0043074307,0.4470227,-1.4651715,2.003248,-2.1074274,-1.5702866,2.421591,-0.03416719,0.0742323,-0.08416635,0.0011974508,0.0086249905,-0.03842598,-0.30645782,0.15322891,-9.289502,0.83813137,47.664497,-0.78066885,-2.0149977,-3.2165542,-0.37390465,0.0783281,-0.12849171,23.8125,24.0625,23.5,24.625,24.375,24.6875
0.09405248,-1.8038551,-1.4873991,-1.0994852,-0.032703083,0.04997545,-0.10834265,-0.3757081,-0.3290737,0.05998734,3.0786417,-0.6244479,9.278907e-05,-0.042503323,-0.0048007355,-0.00037375416,-0.010162167,0.0016060155,0.0038562731,0.44692633,-1.465063,2.0030324,-2.107403,-1.5702747,2.4215665,-0.035032418,0.07649974,-0.0837835,0.001422729,0.008299533,-0.03883884,-0.3256114,0.15322891,-9.251195,0.7665104,47.657326,-0.79797053,-1.9191749,-3.4344296,-0.37426972,0.07435297,-0.1458382,23.8125,24.0625,23.5,24.625,24.375,24.6875
0.09605182,-1.6449038,-1.7425094,-1.0469834,-0.03574678,0.05365918,-0.112406515,-0.37578174,-0.32908556,0.05995735,3.0787122,-0.62428945,0.00014066498,-0.04474129,-0.005243908,0.0013225372,-0.011630432,0.0046946993,0.0035551754,0.44688994,-1.4648472,2.0028632,-2.1074026,-1.5702866,2.4214225,-0.036202054,0.076792374,-0.0881606,0.0020874212,0.008279437,-0.039705344,-0.2681506,0.21068975,-9.346964,0.77545905,47.684196,-0.7634816,-1.990467,-3.3330545,-0.37159407,0.08159849,-0.13782202,23.8125,24.0625,23.5,24.625,24.375,24.6875
0.09805217,-1.7512579,-1.3410343,-1.0501149,-0.045499388,0.04352399,-0.112912126,-0.37590402,-0.32910177,0.059993897,3.0786197,-0.6243284,3.1702006e-05,-0.043574154,-0.0045378357,-0.0013938888,-0.009092101,-0.0015355324,0.0032139374,0.44679376,-1.4647256,2.002648,-2.1074145,-1.5702628,2.4213624,-0.03673488,0.08117676,-0.08706064,0.0033188274,0.008692444,-0.039896917,-0.24899697,0.17238252,-9.404425,0.7866488,47.672558,-0.7387217,-2.0080879,-3.4709897,-0.37830314,0.06649022,-0.15117756,23.8125,24.0625,23.5,24.625,24.375,24.6875
0.100051954,-1.7619932,-1.9660912,-1.2178006,-0.032923713,0.03851595,-0.10930073,-0.37596917,-0.32910532,0.059963815,3.0786486,-0.6243152,0.000116664174,-0.045169614,-0.0048756856,0.0006765711,-0.010870618,0.0025859515,0.0029459153,0.4467335,-1.464535,2.002504,-2.1074026,-1.5702509,2.4212904,-0.0374076,0.07910491,-0.08955281,0.0033992652,0.008508588,-0.040300794,-0.17238252,0.24899697,-9.385271,0.75755644,47.68599,-0.72255546,-1.8619087,-3.4692626,-0.38165975,0.07266657,-0.17088804,23.8125,24.0625,23.5,24.625,24.375,24.6875
0.10205175,-1.0641052,-1.9517968,-1.4616829,-0.038184654,0.043410752,-0.11302802,-0.3760769,-0.32912102,0.059983585,3.0785902,-0.6243214,6.4799926e-05,-0.04623396,-0.0047175074,0.00037798853,-0.0106536625,0.0023815027,0.0023513683,0.4466492,-1.4643905,2.0022995,-2.1074026,-1.5702266,2.4212174,-0.0385769,0.081297934,-0.091247916,0.0031817313,0.00840023,-0.040873516,-0.1340753,0.15322891,-9.442732,0.70608455,47.64927,-0.7451574,-1.8321733,-3.5178823,-0.3822341,0.07428446,-0.18908253,23.8125,24.0625,23.5,24.5625,24.375,24.6875
0.10405268,-1.1654975,-1.7356774,-1.45341,-0.039518263,0.033924047,-0.11019163,-0.3761421,-0.3291202,0.059962258,3.07863,-0.6242734,0.00012789485,-0.047206767,-0.0042866035,-0.0012300473,-0.010176175,-0.0006653795,0.00017452946,0.44658846,-1.464221,2.002156,-2.1073787,-1.5702261,2.4211218,-0.040845532,0.08602823,-0.092726715,0.0028819107,0.00928005,-0.04096524,-0.095768064,0.19153613,-9.423578,0.85826975,47.674347,-0.6667969,-2.049328,-3.5751503,-0.35362172,0.09230631,-0.1945521,23.8125,24.0625,23.5,24.5625,24.375,24.6875
0.10605225,-1.2444607,-1.9132344,-1.4890522,-0.040561516,0.027502855,-0.109552905,-0.37625396,-0.3291354,0.05996358,3.0785615,-0.62431777,9.984209e-05,-0.04836188,-0.0044387984,-0.00020724085,-0.010737915,0.0019402208,0.00025453343,0.4464922,-1.4640416,2.0019634,-2.107415,-1.5701908,2.421062,-0.041166913,0.085508,-0.09442624,0.0025136836,0.0086596,-0.041364376,-0.05746084,0.24899697,-9.404425,0.7709874,47.67166,-0.6562766,-1.793633,-3.4613929,-0.34775007,0.07601739,-0.21991244,23.8125,24.0625,23.5,24.5625,24.375,24.6875
0.108052045,-1.2466838,-1.7527527,-1.3210411,-0.046543416,0.030159805,-0.114081755,-0.37636253,-0.32915163,0.05997469,3.0785692,-0.62422144,4.56142e-05,-0.048837356,-0.0050024716,-0.0005088493,-0.010364483,0.0013768488,0.0015627437,0.44643265,-1.4638611,2.001736,-2.1074026,-1.5702027,2.4209416,-0.04046521,0.088003464,-0.09657781,0.002839758,0.008564093,-0.04196893,-0.17238252,0.2681506,-9.461885,0.87393653,47.709274,-0.78038305,-1.8498287,-3.6026282,-0.34743586,0.090091705,-0.23758359,23.8125,24.0625,23.5,24.5625,24.375,24.6875
0.110052094,-1.2229916,-1.7634015,-1.4796382,-0.04591881,0.025217563,-0.107162386,-0.37645325,-0.3291375,0.059969723,3.0785782,-0.6242436,7.534013e-05,-0.050718904,-0.005350061,0.0002767966,-0.011657491,0.00233578,0.00028665448,0.44632405,-1.463705,2.0015666,-2.1073663,-1.5702022,2.4208457,-0.041997083,0.08977209,-0.10051153,0.003580091,0.0093095265,-0.042223524,-0.11492168,0.28730422,-9.423578,0.7642693,47.694054,-0.6743074,-1.9559935,-3.3520436,-0.35378817,0.08621332,-0.2532041,23.8125,24.0625,23.5,24.5625,24.375,24.6875
0.112051934,-1.0015852,-1.9472104,-1.458205,-0.038916353,0.025330177,-0.11185548,-0.37655327,-0.32917076,0.059968304,3.0785398,-0.6242354,0.000120156255,-0.05237017,-0.0055144355,0.001288501,-0.012788535,0.0041149887,0.0011709138,0.44626364,-1.463489,2.0013263,-2.107343,-1.5701541,2.4207852,-0.043328922,0.09026396,-0.103477806,0.003963914,0.009557327,-0.04443827,-0.038307227,0.30645782,-9.461885,0.78217715,47.681515,-0.67449975,-1.8780397,-3.4851637,-0.33255422,0.081297696,-0.2534319,23.8125,24.0625,23.5,24.5625,24.375,24.6875
0.114052035,-0.8678514,-2.2953541,-1.6718056,-0.036707565,0.024073452,-0.11696285,-0.3766734,-0.32918322,0.05997659,3.0784874,-0.624244,1.7279988e-05,-0.053537328,-0.004931468,0.0012341372,-0.0120678935,0.0041248114,0.000875876,0.446179,-1.4633207,2.001135,-2.107402,-1.5701545,2.4207127,-0.045013115,0.091790035,-0.10515666,0.004422495,0.008905246,-0.045824792,-0.076614454,0.3256114,-9.5385,0.79560274,47.675243,-0.5995407,-1.8119045,-3.4288902,-0.35724097,0.09462558,-0.2491672,23.8125,24.0625,23.5,24.5625,24.375,24.6875
0.11605213,-1.6186802,-2.3294492,-1.6116519,-0.047556896,0.014517514,-0.10379136,-0.37677777,-0.32919303,0.05998105,3.0784488,-0.6242365,6.166929e-05,-0.055007625,-0.005417581,0.002005204,-0.0131517025,0.0056585018,-0.0003527186,0.4460709,-1.4631408,2.0009181,-2.1073663,-1.5701064,2.420605,-0.045617897,0.09291016,-0.10818912,0.004485448,0.009215871,-0.045199446,-0.11492168,0.30645782,-9.442732,0.7597976,47.67345,-0.6594794,-1.8010913,-3.3534608,-0.3454175,0.0793354,-0.2921496,23.8125,24.0625,23.5,24.5625,24.375,24.6875
0.11805201,-1.3601456,-2.5924854,-1.6289505,-0.044703573,0.031595744,-0.11102707,-0.37687328,-0.32916644,0.059965666,3.0784981,-0.62430245,0.00012792078,-0.0552802,-0.00654523,0.0021483903,-0.01378044,0.005482124,0.0022132506,0.44595125,-1.4629484,2.0007246,-2.1072943,-1.5701302,2.4205203,-0.044167995,0.094713345,-0.11065046,0.005029736,0.009853503,-0.046315446,-0.076614454,0.38307226,-9.519346,0.83813137,47.69763,-0.74985135,-1.771285,-3.3390682,-0.32677495,0.09040721,-0.30752182,23.8125,24.0625,23.5,24.5625,24.375,24.6875
0.12005203,-1.1886137,-1.9911776,-1.5630635,-0.057794843,0.048365936,-0.12085238,-0.37698805,-0.32920673,0.059995435,3.0784276,-0.6241726,5.7061214e-05,-0.05586803,-0.006143006,0.0014504918,-0.01289656,0.0035663699,0.0021252267,0.44589087,-1.4627919,2.0004861,-2.1073058,-1.5700821,2.420388,-0.04545496,0.09728764,-0.11214324,0.006061122,0.00988671,-0.04751255,-0.076614454,0.34476504,-9.595961,0.79560274,47.707485,-0.7527915,-1.6928573,-3.3209167,-0.36062694,0.094000906,-0.31444892,23.8125,24.0625,23.5,24.5625,24.375,24.6875
0.12205173,-1.2626863,-1.8805257,-1.7479655,-0.059623767,0.055355947,-0.1166874,-0.3771024,-0.32923406,0.059982866,3.0783918,-0.62422276,3.8951246e-05,-0.056908965,-0.0064530456,0.0019835471,-0.013876,0.004324093,0.0029189293,0.4458306,-1.462552,2.0002582,-2.107342,-1.5700697,2.4203637,-0.046168167,0.098094516,-0.11434326,0.006348166,0.010441785,-0.049018584,-0.095768064,0.34476504,-9.595961,0.78217715,47.70838,-0.6851108,-1.7245603,-3.3208504,-0.35599524,0.081515245,-0.32762313,23.8125,24.0625,23.5,24.5625,24.375,24.6875
0.12405251,-1.7924218,-2.4652832,-1.6966583,-0.04349071,0.044569593,-0.103680484,-0.37722632,-0.32921627,0.05999227,3.0784,-0.6241489,2.4114657e-05,-0.057788827,-0.006407097,0.00046553594,-0.0125268875,0.002021135,0.0013062152,0.4456863,-1.4623829,2.0000417,-2.1073062,-1.5700701,2.4201725,-0.04687013,0.10318239,-0.116424054,0.006002582,0.010213689,-0.04810537,-0.21068975,0.3256114,-9.576807,0.8179876,47.698532,-0.6986903,-1.7984673,-3.3326402,-0.34963605,0.070198365,-0.35878363,23.8125,24.0625,23.5,24.5625,24.375,24.6875
0.1260517,-1.8596715,-2.478038,-1.809528,-0.03980577,0.045165725,-0.10957775,-0.377364,-0.32927015,0.06002207,3.0782678,-0.6241795,-4.1888157e-05,-0.059129156,-0.006889843,0.0021700528,-0.014566968,0.005425922,-0.0012708451,0.44561443,-1.4621795,1.9997543,-2.10733,-1.5699977,2.4201365,-0.047399975,0.10158545,-0.11852348,0.0057491865,0.010586805,-0.04605645,-0.21068975,0.3256114,-9.500193,0.85155696,47.699425,-0.7562066,-1.7579532,-3.342133,-0.3535477,0.08488198,-0.42006916,23.8125,24.0625,23.5,24.5625,24.375,24.6875
0.12805247,-1.7930725,-2.0833416,-1.5964231,-0.045235176,0.0454115,-0.10327175,-0.37748876,-0.3292745,0.060033225,3.0782785,-0.6241418,-6.57651e-05,-0.059434872,-0.00753624,0.0010683473,-0.014392105,0.0035605293,0.0011524548,0.44551843,-1.4619747,1.9994916,-2.1072824,-1.5700096,2.4200158,-0.04688173,0.10546395,-0.12020634,0.005311363,0.011230655,-0.04796039,-0.24899697,0.30645782,-9.5385,0.83813137,47.694946,-0.8004902,-1.7157364,-3.3440614,-0.33539388,0.07961017,-0.4412843,23.8125,24.0625,23.5,24.5625,24.375,24.6875
0.13005248,-2.143114,-1.9229921,-1.7333127,-0.04184918,0.0319507,-0.10109426,-0.37760055,-0.32928747,0.06002457,3.0782545,-0.62417424,-6.9225265e-05,-0.060296133,-0.0074738474,0.0015428895,-0.014515032,0.004483922,0.0030110436,0.4454342,-1.4617589,1.9992756,-2.1072943,-1.5699977,2.419955,-0.04755915,0.105773196,-0.12173335,0.0056468053,0.010943758,-0.050495178,-0.2873042,0.3256114,-9.595961,0.82022345,47.694946,-0.83417463,-1.8290663,-3.3697858,-0.33410192,0.07857543,-0.44442916,23.8125,24.0625,23.5,24.5625,24.375,24.6875
0.13205224,-1.7110307,-1.6692373,-1.411961,-0.043046612,0.04719836,-0.10958766,-0.37773153,-0.32930756,0.06003266,3.0782328,-0.62411165,-7.611781e-05,-0.061385024,-0.0076804343,0.0013547641,-0.014411442,0.0046024853,0.0042954953,0.44533804,-1.4615304,1.998999,-2.10727,-1.5699738,2.4198227,-0.048030324,0.108221054,-0.12396969,0.0053767026,0.010796833,-0.05224869,-0.22984336,0.24899697,-9.423578,0.8157518,47.653748,-0.84389275,-1.8118926,-3.2325158,-0.3316068,0.08092205,-0.45055163,23.8125,24.0625,23.5,24.5625,24.375,24.6875
0.13405196,-1.6907616,-1.82856,-1.390687,-0.031163154,0.04259881,-0.10758063,-0.37787,-0.32931015,0.060038123,3.0782044,-0.6241422,-0.00012010922,-0.062152136,-0.00877033,0.0016307436,-0.014871475,0.0056436807,0.007676997,0.44521862,-1.4613141,1.9987472,-2.10727,-1.5699738,2.4197261,-0.04663649,0.11018025,-0.12670884,0.0050214017,0.010761072,-0.054233994,-0.24899697,0.24899697,-9.481039,0.86945957,47.679718,-0.9657216,-1.7779918,-3.4561553,-0.32869077,0.07620189,-0.47008783,23.8125,24.0625,23.5,24.5625,24.375,24.6875
0.13605224,-1.790965,-1.9607855,-1.4439034,-0.021717893,0.040976573,-0.1009301,-0.37798688,-0.3293361,0.060045805,3.0781367,-0.62408966,-0.00012233021,-0.06335851,-0.008002685,0.001074609,-0.014223676,0.0046866527,0.008620126,0.44512185,-1.4611217,1.9985198,-2.1072824,-1.5699137,2.4196053,-0.049014725,0.11255982,-0.12813033,0.005213021,0.010591388,-0.057553597,-0.19153613,0.22984336,-9.385271,0.83813137,47.685097,-0.9144629,-1.795841,-3.3240838,-0.31869933,0.077269495,-0.47721756,23.8125,24.0625,23.5,24.5625,24.375,24.6875
0.13805217,-1.5645089,-1.6114539,-1.2974402,-0.026074102,0.037042316,-0.1028442,-0.37812364,-0.32936954,0.0600643,3.0780807,-0.62407583,-0.00014884035,-0.0642139,-0.008375945,0.0009378557,-0.01360411,0.004960807,0.012247089,0.4450379,-1.4608933,1.9982194,-2.1072586,-1.5698785,2.41952,-0.04860899,0.11494016,-0.1304712,0.0052003153,0.009914704,-0.060772054,-0.095768064,0.24899697,-9.32781,0.7866488,47.686886,-0.8869494,-1.832401,-3.3281693,-0.31116182,0.07924796,-0.45223588,23.8125,24.0625,23.5,24.5625,24.375,24.6875
0.14005212,-1.6519109,-1.3125927,-1.2390088,-0.02580858,0.028532494,-0.11014809,-0.37825176,-0.32938,0.06006652,3.0780935,-0.6239783,-0.00016193488,-0.06396207,-0.009240387,-0.00042955304,-0.01207836,0.0021383993,0.01856746,0.44494256,-1.4606642,1.9979552,-2.1072342,-1.5698785,2.4193623,-0.046644464,0.119537465,-0.13262776,0.0059682657,0.009753752,-0.06512595,-0.05746084,0.30645782,-9.212888,0.78217715,47.667187,-1.0977347,-1.8787853,-3.3171883,-0.30384532,0.08888212,-0.4349454,23.8125,24.0625,23.5,24.5625,24.375,24.6875
0.142052,-1.6427593,-1.5444746,-1.1390837,-0.02813916,0.024197357,-0.10632534,-0.37840095,-0.32938483,0.06006889,3.078094,-0.6239191,-0.00024640613,-0.066137575,-0.009064576,0.0013356264,-0.013328438,0.0058997837,0.02108158,0.4448339,-1.4604253,1.997691,-2.1072586,-1.5699023,2.4192169,-0.04856382,0.118503086,-0.13556013,0.0060058692,0.009264412,-0.06955709,-0.17238252,0.2681506,-9.308657,0.76874626,47.677036,-1.1127279,-1.8406202,-3.1288333,-0.30596343,0.08841687,-0.39979702,23.8125,24.0625,23.5,24.5625,24.375,24.6875
0.1440518,-1.2786627,-1.4815573,-1.4223895,-0.03236923,0.024551157,-0.11833252,-0.378542,-0.32942477,0.06009704,3.0780456,-0.62375325,-0.0002868674,-0.06694994,-0.0089834435,-0.0005202089,-0.011718422,0.0028808895,0.024443038,0.4447497,-1.4602071,1.9973797,-2.1072342,-1.5698541,2.4190354,-0.049319856,0.1242889,-0.1376853,0.0057706265,0.00911351,-0.07367169,-0.1340753,0.24899697,-9.308657,0.7978386,47.6636,-1.1299903,-2.0333905,-3.3600726,-0.2992203,0.10303135,-0.3638485,23.8125,24.0625,23.5,24.5625,24.375,24.6875
0.14605235,-1.6759348,-2.0958657,-1.2351619,-0.031831745,0.013398634,-0.10649233,-0.3786789,-0.32941505,0.06008835,3.0780938,-0.62374216,-0.00031785556,-0.06759913,-0.008772261,0.00028261502,-0.012782558,0.0043675457,0.026892014,0.44464135,-1.4599563,1.9971164,-2.1072104,-1.5699023,2.4189143,-0.050483845,0.12291354,-0.13800697,0.0056664376,0.009436387,-0.07728507,-0.05746084,0.24899697,-9.232041,0.800085,47.666286,-1.0882859,-1.8592681,-3.3716116,-0.28670248,0.083912656,-0.31519306,23.8125,24.0625,23.5,24.5625,24.375,24.6875
0.14805217,-1.3777473,-2.2133949,-1.0109164,-0.044186592,0.024616582,-0.10573177,-0.37880763,-0.32945552,0.060091965,3.0780442,-0.6236527,-0.00023719817,-0.06793949,-0.009362932,3.8285893e-05,-0.0121012395,0.0039770403,0.031363536,0.44454563,-1.4596921,1.9968046,-2.1071618,-1.5698189,2.4187691,-0.049364105,0.12518987,-0.1401093,0.0061493986,0.008989053,-0.08063517,-0.17238252,0.28730422,-9.212888,0.83589023,47.682407,-1.1967219,-1.7090948,-3.3401632,-0.28548416,0.10419315,-0.25096983,23.8125,24.0625,23.5,24.5625,24.375,24.6875
0.15005198,-1.3311627,-1.8759704,-0.7962574,-0.046688154,0.026490007,-0.109385096,-0.37893522,-0.3294587,0.060085513,3.078075,-0.62346685,-0.0002488689,-0.06888858,-0.008723849,-0.001171573,-0.010745077,0.0013086948,0.03142419,0.44443715,-1.459463,1.9965657,-2.1071618,-1.5698184,2.418541,-0.05132898,0.1292471,-0.1420654,0.0070432727,0.008912973,-0.08265909,-0.11492168,0.30645782,-9.155427,0.7732232,47.672558,-1.2182744,-1.8049722,-3.3440375,-0.2868722,0.12303702,-0.21961774,23.8125,24.0625,23.5,24.5625,24.375,24.6875
0.15205187,-1.2474381,-1.743425,-0.88703066,-0.03781751,0.018829072,-0.107487164,-0.37909853,-0.329479,0.060091518,3.0780144,-0.62343466,-0.00029005358,-0.07027565,-0.008732255,-0.0005232212,-0.011890063,0.0022678014,0.030787814,0.44430467,-1.4591993,1.9962653,-2.1071856,-1.5697821,2.4183962,-0.052936763,0.12989353,-0.14436568,0.0073417155,0.00953683,-0.08362911,-0.076614454,0.2681506,-9.11712,0.83365434,47.65464,-1.1341158,-1.8258253,-3.332338,-0.2744975,0.11073129,-0.19209689,23.8125,24.0625,23.5,24.5625,24.375,24.6875
0.15405187,-0.9402093,-1.9478803,-0.8696637,-0.0335914,0.021865388,-0.10923056,-0.37924644,-0.32948536,0.0600957,3.0780077,-0.623358,-0.00033428383,-0.07166607,-0.009061967,-0.00017851254,-0.012406605,0.0032245733,0.029541874,0.44418433,-1.4589591,1.9959897,-2.1071856,-1.5697821,2.418229,-0.05356967,0.13170478,-0.14717002,0.00724947,0.009589217,-0.083013915,-0.038307227,0.28730422,-9.040505,0.8314132,47.64479,-1.1465485,-1.7611563,-3.2596347,-0.28213194,0.12490733,-0.16128984,23.8125,24.0625,23.5,24.5625,24.375,24.6875
0.1560517,-0.89834505,-1.3287486,-0.60233545,-0.039318074,0.017888827,-0.10952443,-0.3793773,-0.32952,0.060100384,3.0780094,-0.6232637,-0.00033771546,-0.072502755,-0.008848134,-0.00038394763,-0.012317466,0.0033125351,0.026233919,0.44412395,-1.458695,1.9956783,-2.1071503,-1.5697702,2.41811,-0.054610725,0.13310136,-0.14818385,0.0068259267,0.009467364,-0.08074598,-0.11492168,0.30645782,-8.963891,0.82022345,47.651955,-1.1280835,-1.7674489,-3.345186,-0.2685393,0.137474,-0.17427447,23.8125,24.0625,23.5,24.5625,24.375,24.6875
0.15805255,-1.0116119,-1.3720402,-0.72516537,-0.030829238,0.0171046,-0.10996302,-0.37952214,-0.32953146,0.060085963,3.0779986,-0.6232039,-0.00028874967,-0.07341345,-0.009112274,0.00022027842,-0.014075325,0.0041054226,0.025019959,0.4439917,-1.4584076,1.9953898,-2.107138,-1.569734,2.4179418,-0.055730715,0.13317251,-0.14966865,0.006768153,0.010710977,-0.08065212,-0.17238252,0.24899697,-9.097966,0.84708,47.709274,-1.1405569,-1.678504,-3.347254,-0.26729718,0.12461875,-0.17451239,23.8125,24.0625,23.5,24.5625,24.375,24.6875
0.16005227,-1.0143491,-1.486382,-0.8140857,-0.026536277,0.024177939,-0.10806566,-0.37968123,-0.32954097,0.060090296,3.0780222,-0.6231159,-0.0003377098,-0.07382426,-0.009045738,-0.0011029697,-0.012921188,0.0009216777,0.018446282,0.44388342,-1.4581304,1.995067,-2.1071136,-1.5697578,2.4177759,-0.056407332,0.13744575,-0.15166156,0.007852253,0.011031904,-0.074753575,-0.19153613,0.24899697,-9.078813,0.7866488,47.686886,-1.1123728,-1.9007347,-3.481476,-0.2714614,0.1403208,-0.19245881,23.8125,24.0625,23.5,24.5625,24.375,24.6875
0.16205217,-1.314152,-1.2292377,-0.7626317,-0.03449393,0.025973545,-0.11254835,-0.37982512,-0.32957122,0.060093697,3.0779827,-0.62305295,-0.0003486703,-0.074666224,-0.008954934,-1.2841416e-06,-0.0137782665,0.0026174667,0.013997999,0.4437871,-1.4578677,1.994768,-2.1071136,-1.5697216,2.4176455,-0.05732593,0.13619022,-0.15297866,0.008526165,0.011076745,-0.07122322,-0.17238252,0.24899697,-9.11712,0.7709874,47.678825,-1.1824222,-1.4852341,-3.3396301,-0.2645794,0.14415309,-0.25333944,23.8125,24.0625,23.5,24.5625,24.375,24.6875
0.16405205,-1.7974848,-1.9185561,-0.9970435,-0.021071265,0.022974692,-0.10351281,-0.37998763,-0.329591,0.06011586,3.0779042,-0.62299836,-0.0003416802,-0.07656438,-0.009340972,0.0012988586,-0.015821887,0.0051846467,0.013676826,0.44363064,-1.457628,1.9944433,-2.1070778,-1.5696491,2.417465,-0.05875459,0.13633879,-0.15609784,0.008306206,0.01181931,-0.07232877,-0.28730422,0.24899697,-9.193734,0.8224646,47.66539,-1.142986,-1.5279932,-3.2904296,-0.26022735,0.11678229,-0.26824057,23.8125,24.0625,23.5,24.5625,24.375,24.6875
0.16605194,-1.6794193,-1.2955883,-1.0124524,-0.035145015,0.035778567,-0.113040835,-0.38014692,-0.32961547,0.060099192,3.077923,-0.6229079,-0.00034005134,-0.077201396,-0.009197477,0.00049823814,-0.014559959,0.0038933263,0.01064102,0.44353452,-1.4572915,1.9941081,-2.1070778,-1.5696496,2.4173102,-0.059164178,0.13939893,-0.15778202,0.008639118,0.011229317,-0.06970099,-0.22984336,0.22984336,-9.193734,0.8179876,47.68062,-1.0682775,-1.5851191,-3.3579423,-0.2671092,0.14955229,-0.29691172,23.8125,24.0625,23.5,24.5625,24.375,24.6875
0.168052,-1.9036125,-1.0425591,-1.1795176,-0.03150017,0.037743274,-0.11502337,-0.3802739,-0.329616,0.060068224,3.0779343,-0.6229477,-0.00026718987,-0.07817251,-0.009384535,0.00023919548,-0.015065576,0.003008118,0.010213412,0.44341412,-1.4570032,1.9938563,-2.107066,-1.5696372,2.4172134,-0.06020638,0.14188436,-0.16007613,0.009030304,0.012060135,-0.0703151,-0.22984336,0.15322891,-9.270349,0.83813137,47.677036,-1.1376404,-1.5516641,-3.3957324,-0.25761592,0.14661188,-0.33527106,23.8125,24.0625,23.5,24.5625,24.375,24.6875
0.17005174,-1.6622365,-0.9494793,-1.3267859,-0.024372628,0.041021578,-0.12130914,-0.38045022,-0.32963568,0.060091168,3.0779066,-0.6228648,-0.00035672585,-0.079817735,-0.009615299,0.0013471813,-0.016469965,0.005296828,0.010361246,0.44329378,-1.4567395,1.9935082,-2.107053,-1.5696372,2.417045,-0.061394587,0.1420089,-0.16275945,0.008920908,0.012348536,-0.07164893,-0.21068975,0.19153613,-9.385271,0.842603,47.677036,-1.1097541,-1.5610316,-3.324607,-0.28469452,0.13583162,-0.33111873,23.8125,24.0625,23.5,24.5625,24.375,24.6875
0.1720517,-1.8431063,-1.305301,-1.5379997,-0.020596871,0.04409747,-0.10937341,-0.38057992,-0.32965463,0.060074024,3.0779026,-0.6228263,-0.00022269296,-0.07996719,-0.009244892,-8.9055875e-06,-0.015550362,0.0025734995,0.0099975895,0.44317344,-1.4564389,1.9931973,-2.1069815,-1.5695771,2.4169014,-0.062408317,0.14510721,-0.16317903,0.009102019,0.012682648,-0.07229937,-0.36391866,0.21068975,-9.32781,0.8560339,47.703007,-1.1123182,-1.6995063,-3.4826045,-0.2493185,0.15041682,-0.3460358,23.8125,24.0625,23.5,24.5625,24.375,24.6875
0.17405255,-2.0584745,-2.0280173,-1.6719459,-0.012630949,0.04173629,-0.10060797,-0.38075012,-0.32967344,0.06006463,3.0779164,-0.62273365,-0.000263682,-0.0805513,-0.009294139,-0.0014896678,-0.014326259,-0.00032679123,0.008788197,0.44306535,-1.4561139,1.9928607,-2.1069934,-1.5695895,2.416734,-0.06289357,0.1499637,-0.16533068,0.009541574,0.012818525,-0.07157323,-0.36391866,0.19153613,-9.385271,0.9231726,47.686886,-1.1133689,-1.5758336,-3.4644926,-0.27173784,0.15164939,-0.35807905,23.8125,24.0625,23.5,24.5625,24.375,24.6875
0.1760525,-2.5950584,-1.9783324,-1.9059393,-0.023672637,0.030936515,-0.09580371,-0.3808999,-0.32968035,0.060062733,3.077902,-0.62276757,-0.00018289847,-0.08171582,-0.008802384,-0.0012441112,-0.013566205,0.0004087478,0.009984424,0.44292086,-1.4558263,1.9925264,-2.10691,-1.5695533,2.4166126,-0.064132184,0.15092774,-0.16711868,0.010037278,0.011814207,-0.07400701,-0.40222588,0.17238252,-9.519346,0.82022345,47.67345,-1.1658025,-1.6877909,-3.399819,-0.27081174,0.16938284,-0.3711119,23.8125,24.0625,23.5,24.5625,24.375,24.6875
0.17805244,-2.300689,-2.1799188,-1.827773,-0.037868835,0.047321767,-0.10148944,-0.3810486,-0.32969534,0.060040798,3.077888,-0.6226699,-9.3979506e-05,-0.08248926,-0.008640472,-0.002474776,-0.01261621,-0.002259076,0.0077233035,0.44277656,-1.4555134,1.992226,-2.106897,-1.5694932,2.4164093,-0.06526926,0.15524733,-0.1693055,0.010726124,0.012093762,-0.072881795,-0.30645782,0.2681506,-9.557653,0.8940802,47.72808,-1.1225593,-1.7697725,-3.4860585,-0.26545867,0.17481524,-0.3877623,23.8125,24.0625,23.5,24.5625,24.375,24.6875
0.18005224,-2.5462189,-2.3906443,-1.8261218,-0.047151823,0.04442407,-0.11343361,-0.38125527,-0.32970777,0.060073856,3.0778325,-0.6227156,-0.00024984792,-0.083293684,-0.0085851,-0.003024913,-0.012227521,-0.0030075912,0.008619686,0.44263217,-1.4552369,1.9918431,-2.106897,-1.569517,2.4163008,-0.066023804,0.15779321,-0.17089085,0.010610333,0.012069301,-0.074530184,-0.17238252,0.21068975,-9.615114,0.82694155,47.68062,-1.0760258,-1.8805084,-3.4410305,-0.28807366,0.20155847,-0.41676074,23.8125,24.0625,23.5,24.5625,24.375,24.6875
0.1820522,-1.8198812,-2.0080502,-1.6849462,-0.056286015,0.061820626,-0.11627587,-0.3814066,-0.32974103,0.060069244,3.0777912,-0.6226655,-0.0001666798,-0.08486794,-0.008938466,-0.0028633543,-0.013395272,-0.0020786438,0.013923741,0.44251192,-1.4549248,1.991496,-2.10685,-1.5694455,2.4161546,-0.06716256,0.15993325,-0.17348662,0.009738077,0.012724742,-0.080971554,-0.21068975,0.24899697,-9.615114,0.8560339,47.688675,-1.053601,-1.8172045,-3.4755547,-0.27991617,0.20332886,-0.39463526,23.8125,24.0625,23.5,24.5625,24.375,24.6875
0.18405205,-1.9635671,-1.9338031,-1.6257584,-0.049924396,0.049774274,-0.11604963,-0.38159734,-0.32976717,0.060081676,3.0777705,-0.62254536,-0.0002574857,-0.08621496,-0.0084348675,-0.0026587106,-0.013250526,-0.0010784728,0.013793283,0.44239137,-1.4546131,1.9911236,-2.1068618,-1.5694455,2.415962,-0.06887682,0.16086523,-0.17497514,0.009458069,0.012169863,-0.08255324,-0.30645782,0.24899697,-9.500193,0.8179876,47.689575,-1.0953195,-1.8661485,-3.5272481,-0.26841313,0.20855495,-0.38131607,23.8125,24.0625,23.5,24.5625,24.375,24.6875
0.18605211,-1.6570618,-1.883706,-1.5782791,-0.044606883,0.05030105,-0.11933683,-0.38176143,-0.329772,0.06005739,3.077754,-0.62254024,-0.00016623022,-0.088138476,-0.00861579,-0.0021899731,-0.013877765,0.0003875066,0.017493041,0.4422228,-1.4542769,1.9907998,-2.106838,-1.5693973,2.4157925,-0.07015373,0.1629456,-0.17834775,0.009168978,0.0121042095,-0.087528124,-0.24899697,0.22984336,-9.576807,0.83589023,47.703903,-0.8982321,-1.8576713,-3.32967,-0.2605092,0.21812126,-0.33530682,23.8125,24.0625,23.5,24.5625,24.375,24.6875
0.18805203,-1.6836916,-1.8058872,-1.471974,-0.040588643,0.043612175,-0.11190123,-0.38195178,-0.32979625,0.060076043,3.0777602,-0.6224228,-0.0002631503,-0.08957112,-0.010013359,-0.0017727969,-0.015640177,0.0019780716,0.02351591,0.44211516,-1.4539645,1.990404,-2.1068141,-1.5694212,2.415611,-0.06939539,0.16551983,-0.18194829,0.008005497,0.013017675,-0.092789695,-0.22984336,0.30645782,-9.461885,0.82694155,47.686886,-1.0805595,-1.8425264,-3.390709,-0.24655105,0.22109601,-0.27129173,23.8125,24.0625,23.5,24.5625,24.375,24.6875
0.19005199,-1.816936,-1.6680944,-1.6138567,-0.040984266,0.03634208,-0.11284307,-0.38211453,-0.32981318,0.060070194,3.0777342,-0.6223191,-0.00023249323,-0.09050244,-0.009159062,-0.002148125,-0.015526618,0.0016829189,0.025590003,0.4419704,-1.453665,1.9900817,-2.1068032,-1.569373,2.415405,-0.07177785,0.16653568,-0.18215774,0.0075260317,0.013046731,-0.09724582,-0.21068975,0.38307226,-9.519346,0.8918391,47.664497,-1.0130451,-1.7711532,-3.482737,-0.21967018,0.22156993,-0.20120302,23.8125,24.0625,23.5,24.5625,24.375,24.6875
0.1920519,-1.5394073,-1.7274425,-1.5340102,-0.052055467,0.04504949,-0.115770176,-0.38230464,-0.3298343,0.06007494,3.077702,-0.62223494,-0.00026843217,-0.09148373,-0.008454284,-0.0019089199,-0.016276922,0.0014239028,0.026967585,0.44182527,-1.4533416,1.9897107,-2.1068027,-1.5693487,2.4152117,-0.074433655,0.16666646,-0.18305907,0.008216195,0.013845571,-0.10127866,-0.24899697,0.40222588,-9.500193,0.86498255,47.66091,-0.804694,-1.6926048,-3.52437,-0.2223123,0.22014979,-0.13877846,23.8125,24.0625,23.5,24.5625,24.375,24.6875
0.19405189,-1.7431915,-2.1620922,-1.3607755,-0.060447678,0.04490912,-0.10816437,-0.38251343,-0.3298522,0.060083576,3.0776956,-0.62209666,-0.00027521676,-0.09257942,-0.009644419,-0.0009833765,-0.01673787,0.002933061,0.029898815,0.44165802,-1.4529817,1.9892792,-2.1067545,-1.5693249,2.4149592,-0.07298667,0.16827258,-0.1872603,0.009257417,0.013616007,-0.10276029,-0.36391866,0.40222588,-9.500193,0.83589023,47.66808,-0.97914565,-1.7127249,-3.5510988,-0.22765692,0.22220391,-0.11230944,23.8125,24.0625,23.5,24.5625,24.375,24.6875
0.1960518,-1.8560435,-2.2560718,-1.2320035,-0.055850543,0.04568705,-0.10201331,-0.38266823,-0.32987377,0.060059045,3.0777094,-0.62198657,-0.0001963076,-0.09398732,-0.009005033,-0.00052067824,-0.017993756,0.0037643842,0.026034286,0.4415371,-1.4526345,1.988943,-2.1067302,-1.5692886,2.414768,-0.075886235,0.1682401,-0.18828602,0.0090288,0.01438993,-0.1017956,-0.36391866,0.2873042,-9.461885,0.86945957,47.658226,-0.88480663,-1.60553,-3.6346977,-0.2306777,0.22740224,-0.09379467,23.8125,24.0625,23.5,24.5625,24.375,24.6875
0.1980517,-1.3526448,-1.6404637,-1.2777357,-0.043447394,0.055403285,-0.11035353,-0.38289672,-0.32988083,0.060086194,3.0776515,-0.6219961,-0.0003421347,-0.09499926,-0.0089193,-7.867478e-05,-0.018227082,0.004872156,0.022149222,0.44135684,-1.4523227,1.9885362,-2.1067421,-1.569301,2.4146013,-0.076704726,0.16870433,-0.1898666,0.009042432,0.01413351,-0.098726586,-0.30645782,0.30645782,-9.289502,0.80456203,47.657326,-0.8710532,-1.5682814,-3.5598273,-0.21076216,0.2447012,-0.09239486,23.8125,24.0625,23.5,24.5625,24.375,24.6875
0.20005257,-1.5462073,-1.1410165,-1.3439075,-0.02536643,0.03826061,-0.105766006,-0.3830676,-0.32993418,0.060070455,3.0775757,-0.62181,-0.00025815418,-0.096329235,-0.009302687,0.00021659152,-0.019281624,0.005772565,0.018275049,0.4412246,-1.4519627,1.9881767,-2.1067665,-1.5691804,2.4143627,-0.07749177,0.17034678,-0.1923294,0.008605892,0.014696389,-0.09563765,-0.28730422,0.17238252,-9.32781,0.83365434,47.66808,-0.8682877,-1.6269908,-3.47966,-0.18481155,0.24621376,-0.11640608,23.8125,24.0625,23.5,24.5625,24.375,24.6875
0.20205234,-1.8991545,-1.0661795,-1.0908632,-0.0074559962,0.023272663,-0.10469544,-0.38326117,-0.32991382,0.06004884,3.077592,-0.6219307,-0.0002355367,-0.09828181,-0.00931036,0.00074151665,-0.020116577,0.0074560344,0.0128425835,0.4410321,-1.4516028,1.9878167,-2.1067307,-1.5692042,2.4142437,-0.07915421,0.17195912,-0.19525771,0.008038557,0.014719931,-0.09186624,-0.28730422,0.095768064,-9.251195,0.8806493,47.672558,-0.8614861,-1.4972005,-3.5007896,-0.19137844,0.260627,-0.13769716,23.8125,24.0625,23.5,24.5625,24.375,24.6875
0.20405212,-1.1764717,-0.60280955,-1.3039562,0.0037085344,0.035197966,-0.10673855,-0.3834777,-0.3299624,0.06006164,3.077516,-0.62178385,-0.0003249527,-0.09993605,-0.009635443,0.001296313,-0.021414584,0.008424282,0.008492016,0.4408993,-1.4512429,1.9873971,-2.1067784,-1.569156,2.4140291,-0.08045718,0.17360488,-0.19844407,0.008149066,0.015481948,-0.08881533,-0.28730422,0.076614454,-9.193734,0.8940802,47.658226,-0.6391015,-1.4401858,-3.4534636,-0.17774351,0.26683858,-0.18802842,23.8125,24.0625,23.5,24.5625,24.375,24.6875
0.20605183,-0.84221566,-0.2825427,-1.3787627,-0.00013439596,0.040482063,-0.11393154,-0.38368535,-0.32995525,0.060082294,3.077485,-0.6217783,-0.00035883763,-0.10049548,-0.01000936,0.0015559783,-0.02161923,0.008868019,0.0060817255,0.44069543,-1.4509431,1.9870018,-2.1067188,-1.5691441,2.413826,-0.08018929,0.17452398,-0.20018917,0.008487008,0.015477794,-0.08613568,-0.19153613,0.076614454,-9.232041,0.8985519,47.694946,-0.73852676,-1.4564581,-3.4034214,-0.16657612,0.27101815,-0.24549259,23.8125,24.0625,23.5,24.5625,24.375,24.6875
0.20805177,-1.289325,-0.74456555,-1.3652979,-0.009196403,0.039848555,-0.10758786,-0.38385573,-0.3299815,0.060071252,3.077462,-0.6217363,-0.00029741143,-0.10202174,-0.008946445,0.0010795352,-0.021535156,0.007726236,0.0022539317,0.4405624,-1.450595,1.9866303,-2.1066825,-1.5690964,2.4136698,-0.083719455,0.17675878,-0.20174028,0.008876267,0.015886964,-0.085837334,-0.19153613,0.095768064,-9.308657,0.88289046,47.686886,-0.63017154,-1.4443308,-3.3908076,-0.15766984,0.26304343,-0.2774388,23.8125,24.0625,23.5,24.5625,24.375,24.6875
0.2100517,-1.5786381,-1.3598732,-1.6470193,-0.022017885,0.042992186,-0.104934044,-0.38407683,-0.32999647,0.06008541,3.07743,-0.62174857,-0.00035498614,-0.10159989,-0.010150752,8.475301e-05,-0.020500656,0.0051806755,0.0031842866,0.4403954,-1.450234,1.9861869,-2.1066463,-1.569096,2.4135149,-0.081160784,0.18071309,-0.20423318,0.010158428,0.016038349,-0.08420675,-0.24899697,0.17238252,-9.289502,0.80679786,47.67793,-0.6384188,-1.4576651,-3.4015288,-0.1647541,0.28715008,-0.29875267,23.8125,24.0625,23.5,24.5625,24.375,24.6875
0.21205258,-1.7096798,-1.8162084,-1.6288457,-0.032279644,0.050807804,-0.099944144,-0.384281,-0.3300155,0.06009087,3.0773845,-0.6217212,-0.00036390751,-0.102750726,-0.010305829,-0.0013284159,-0.019274073,0.002210148,0.00064800645,0.4402272,-1.4498851,1.9857792,-2.106622,-1.5690597,2.4133356,-0.08192779,0.18665323,-0.20791192,0.011109689,0.01619152,-0.082434334,-0.34476504,0.24899697,-9.442732,0.88960326,47.68599,-0.79022264,-1.6087935,-3.4150558,-0.16223046,0.2710393,-0.34656084,23.8125,24.0625,23.5,24.5625,24.375,24.6875
0.21405242,-1.8664728,-2.1947231,-1.7674574,-0.042427897,0.056087773,-0.10024033,-0.38448218,-0.33003724,0.060090955,3.0773332,-0.62170887,-0.00034818807,-0.10360085,-0.01066864,-0.0003249337,-0.020249195,0.0039894376,0.0024543505,0.44005913,-1.449526,1.9853724,-2.1065977,-1.569012,2.4131665,-0.08202448,0.18615156,-0.20979337,0.011476869,0.01631888,-0.08433628,-0.40222588,0.34476504,-9.461885,0.8403672,47.67166,-0.81425333,-1.6138885,-3.3349109,-0.18192852,0.28351235,-0.3540562,23.8125,24.0625,23.5,24.5625,24.375,24.6875
0.21605235,-1.7639254,-2.450265,-1.7733996,-0.050645582,0.0660731,-0.11141304,-0.38467312,-0.3300457,0.06007323,3.077366,-0.6216608,-0.00033005513,-0.10434113,-0.011036478,-0.00014350314,-0.020329276,0.0040053613,-0.001393278,0.43991515,-1.4491423,1.9849762,-2.106562,-1.569024,2.4129887,-0.08197646,0.18770353,-0.2121933,0.012271584,0.016375551,-0.08043978,-0.34476504,0.36391866,-9.404425,0.8247004,47.64389,-0.8324748,-1.5977834,-3.209084,-0.19508862,0.2768742,-0.44424504,23.8125,24.0625,23.5,24.5625,24.375,24.6875
0.21805207,-1.8557817,-2.9163716,-1.9776497,-0.05203082,0.06011638,-0.09958975,-0.38487262,-0.3300668,0.060058877,3.0773363,-0.6216534,-0.00026698937,-0.1041502,-0.011516312,-0.00048898335,-0.020976603,0.0035370805,0.0009815372,0.43974724,-1.4487464,1.9845585,-2.1065261,-1.5689758,2.41282,-0.08138296,0.18847422,-0.21219417,0.011656627,0.01716258,-0.08222129,-0.2873042,0.47884035,-9.461885,0.8224646,47.666286,-0.9136626,-1.6215696,-3.435999,-0.18737662,0.2897554,-0.48330665,23.8125,24.0625,23.5,24.5625,24.375,24.6875
0.22005177,-1.977244,-3.2462177,-1.767971,-0.06529498,0.047763485,-0.100102775,-0.38511068,-0.33007783,0.06008215,3.077268,-0.6217137,-0.00031859142,-0.104698785,-0.011719872,-0.0012901843,-0.020241106,0.0023222791,0.003751938,0.43954328,-1.4483858,1.9840912,-2.1064785,-1.568952,2.4126627,-0.08132189,0.19165033,-0.21398601,0.011695099,0.017021356,-0.08492829,-0.21068975,0.5554548,-9.461885,0.8493211,47.68062,-0.94351304,-1.7339292,-3.5346928,-0.15682411,0.3043401,-0.49717283,23.8125,24.0625,23.5,24.5625,24.375,24.6875
0.22205254,-1.6516157,-3.2894008,-1.7184263,-0.07714961,0.038870636,-0.09633477,-0.38532233,-0.33011135,0.060087744,3.0772326,-0.62158716,-0.00041062126,-0.10508432,-0.012013777,-0.001973444,-0.019871822,0.0011714286,0.0091494685,0.43941173,-1.4480258,1.983684,-2.1065137,-1.5689396,2.412457,-0.08117157,0.19432656,-0.21549104,0.011733794,0.017189978,-0.09017302,-0.24899697,0.53630114,-9.461885,0.9254084,47.666286,-1.0733415,-1.6554146,-3.537167,-0.18572797,0.3080947,-0.49408305,23.8125,24.0625,23.5,24.5625,24.375,24.6875
0.22405232,-1.599937,-3.1037147,-1.7035923,-0.07208041,0.018371148,-0.08857174,-0.38552383,-0.33013088,0.060060512,3.0772314,-0.62148863,-0.00029324635,-0.10614199,-0.012289303,-0.0011959173,-0.021325609,0.003330828,0.013998191,0.43923137,-1.4475945,1.9832529,-2.106466,-1.568879,2.4122155,-0.0817852,0.19397728,-0.21673791,0.010773711,0.01758803,-0.095635526,-0.076614454,0.5554548,-9.3661175,0.8851263,47.68062,-0.99368113,-1.5991235,-3.605435,-0.1551178,0.34419215,-0.43961596,23.8125,24.0625,23.5,24.5625,24.375,24.6875
0.22605221,-1.1905451,-2.8751593,-1.6934583,-0.064346634,0.00809466,-0.09316216,-0.38574067,-0.33015528,0.060078006,3.0771966,-0.62143946,-0.00038442953,-0.10750226,-0.01248575,-0.0014105964,-0.021809438,0.0032776142,0.018869553,0.43908685,-1.4472466,1.9828209,-2.1064546,-1.568879,2.412045,-0.082862936,0.19674054,-0.21932991,0.01045587,0.018060183,-0.101581536,0.019153614,0.45968673,-9.3661175,0.9097417,47.668976,-1.0656279,-1.6345041,-3.7664363,-0.14025767,0.32847273,-0.4117216,23.8125,24.0625,23.5,24.5625,24.375,24.6875
0.22805199,-0.9009744,-2.6827295,-1.5667304,-0.056020092,0.004119158,-0.09569049,-0.385975,-0.33018807,0.06006624,3.0771623,-0.62135243,-0.00039453778,-0.1104315,-0.0132979425,-0.00014040197,-0.023979887,0.00633515,0.024885803,0.43891862,-1.4468026,1.9823536,-2.1064665,-1.5688428,2.411827,-0.08429382,0.19909546,-0.22483185,0.009930022,0.018729977,-0.10902465,0.1340753,0.47884035,-9.212888,0.76874626,47.657326,-1.02053,-1.5465604,-3.6512766,-0.12921688,0.3450762,-0.29934537,23.8125,24.0625,23.5,24.5625,24.4375,24.6875
0.23005174,-0.7041856,-2.4934337,-1.5385604,-0.03691718,-0.0044494797,-0.09458602,-0.38623685,-0.3302075,0.060080267,3.0770824,-0.62127656,-0.00049618824,-0.11149935,-0.013452008,-0.0003102243,-0.0241404,0.0065621594,0.028171364,0.43870234,-1.4464064,1.9818863,-2.1065028,-1.568807,2.411574,-0.084900826,0.20124772,-0.22683364,0.009520559,0.018795315,-0.11291387,0.095768064,0.4405331,-9.174581,0.83365434,47.698532,-1.0012656,-1.6383133,-3.5477662,-0.123068064,0.34722108,-0.275374,23.8125,24.0625,23.5,24.5625,24.4375,24.6875
0.23205182,-0.6185525,-2.0630162,-1.4695995,-0.036760926,0.0055433586,-0.10315336,-0.38644904,-0.33022743,0.060067933,3.0770772,-0.6211769,-0.00042049706,-0.11229774,-0.013778527,-5.462021e-05,-0.024517233,0.006758565,0.03142416,0.43852216,-1.445987,1.9814309,-2.1064427,-1.5687588,2.4113324,-0.08509717,0.20254304,-0.22909689,0.010164901,0.019055596,-0.11636233,0.095768064,0.4213795,-9.155427,0.8717007,47.691364,-0.9967954,-1.5605927,-3.5747213,-0.10556492,0.35655764,-0.22300047,23.8125,24.0625,23.5,24.5625,24.4375,24.6875
0.23405254,-0.6418359,-1.7199734,-1.4621136,-0.040075667,0.012968953,-0.10609738,-0.38664877,-0.3302677,0.060071655,3.0770404,-0.6210544,-0.00041829844,-0.11355609,-0.014361519,7.0895156e-05,-0.025470277,0.0060879174,0.031257875,0.43839014,-1.4456143,1.9809994,-2.1064184,-1.5687102,2.4111288,-0.08581885,0.20532627,-0.23283991,0.01133252,0.020204943,-0.11691477,0.095768064,0.3256114,-9.155427,0.78217715,47.675243,-1.0007502,-1.6843092,-3.5118377,-0.09675673,0.3453075,-0.18300824,23.8125,24.0625,23.5,24.5625,24.4375,24.6875
0.2360525,-0.827024,-1.7930678,-1.3946004,-0.03937062,0.012371161,-0.094497904,-0.3868823,-0.33031505,0.06008841,3.0769725,-0.62096393,-0.0004372865,-0.11471064,-0.015544066,0.0010459479,-0.027197376,0.007489756,0.030207561,0.43823433,-1.4452065,1.9804958,-2.1063826,-1.5686501,2.4109254,-0.08521318,0.20645617,-0.23654322,0.011907318,0.021173917,-0.11525543,0.076614454,0.40222588,-9.174581,0.9254084,47.686886,-1.0814914,-1.5336854,-3.495799,-0.10249385,0.32923087,-0.20230839,23.8125,24.0625,23.5,24.5625,24.4375,24.6875
0.23805222,-0.37209174,-1.6064254,-1.3118538,-0.04267116,0.030939428,-0.095990084,-0.387107,-0.33034208,0.060065884,3.0769858,-0.62081754,-0.00037490382,-0.1170363,-0.014613412,0.0023509404,-0.02811327,0.009825071,0.022837201,0.43806493,-1.4447397,1.9800156,-2.1063464,-1.5686144,2.4106631,-0.08876249,0.20597482,-0.23923111,0.012574267,0.021002222,-0.1114339,-0.038307227,0.36391866,-9.193734,0.80456203,47.67166,-0.9513942,-1.4941719,-3.2580872,-0.10852188,0.32888138,-0.20679158,23.8125,24.0625,23.5,24.5625,24.4375,24.6875
0.24005207,-0.83339196,-1.649989,-1.3537781,-0.034071196,0.024330026,-0.09890071,-0.38733742,-0.33037308,0.060076427,3.0769231,-0.6207669,-0.000430545,-0.11711971,-0.01629737,0.001799755,-0.02773368,0.009151147,0.021278972,0.43789804,-1.4443551,1.9795603,-2.1063464,-1.5685786,2.4104729,-0.085621804,0.20980173,-0.24235357,0.012639625,0.020940464,-0.106731415,-0.1340753,0.40222588,-9.11712,0.94331104,47.661808,-1.1401856,-1.4911897,-3.1966848,-0.093590826,0.33751926,-0.25005278,23.8125,24.0625,23.5,24.5625,24.4375,24.6875
0.24205208,-1.1135807,-1.6079735,-1.6560841,-0.026296066,0.028614732,-0.09130808,-0.3875818,-0.33040333,0.06009246,3.0768628,-0.62073797,-0.00046923218,-0.117860675,-0.0150739355,0.0009948021,-0.027192485,0.006982447,0.015248829,0.43771717,-1.4439474,1.9790577,-2.1063097,-1.5685419,2.410282,-0.08872632,0.21152739,-0.24272165,0.013476035,0.021374948,-0.10380433,-0.22984336,0.34476504,-9.32781,0.90750587,47.63404,-1.1362993,-1.4698031,-3.2991111,-0.09149389,0.3365389,-0.31410515,23.8125,24.0625,23.5,24.5625,24.4375,24.6875
0.24405181,-1.6966428,-1.7642407,-1.8496617,-0.033033617,0.032710526,-0.09376776,-0.38782704,-0.33041492,0.060083985,3.076874,-0.6206815,-0.0004682913,-0.118302874,-0.015975066,0.002018373,-0.027929176,0.008211237,0.015938776,0.43752557,-1.4434922,1.9785551,-2.1062615,-1.5685419,2.410054,-0.087467395,0.21143453,-0.24534425,0.014768884,0.021521162,-0.103234425,-0.13407528,0.21068975,-9.404425,0.8672237,47.66271,-1.0552479,-1.4191334,-3.3751123,-0.10534485,0.3414553,-0.3536901,23.8125,24.0625,23.5,24.5625,24.4375,24.6875
0.24605264,-1.5933778,-2.2896066,-1.6500602,-0.040955767,0.046109196,-0.09929794,-0.38802868,-0.3304661,0.06008824,3.0768359,-0.6205592,-0.0004386849,-0.11771636,-0.01498098,-0.00059705053,-0.025292747,0.0023240398,0.014523131,0.43740517,-1.4430953,1.9780887,-2.1062133,-1.5684818,2.4098623,-0.088805296,0.2160959,-0.24501929,0.016240602,0.021635054,-0.10315617,-0.11492168,0.28730422,-9.289503,0.800085,47.651955,-1.1634612,-1.5796204,-3.375891,-0.10597079,0.341962,-0.36078712,23.8125,24.0625,23.5,24.5625,24.4375,24.6875
0.24805246,-1.31721,-1.841616,-1.4356794,-0.049351197,0.062241726,-0.09574073,-0.38825533,-0.33050266,0.060064,3.0767655,-0.6204871,-0.00036085965,-0.11801588,-0.014688228,-0.001777733,-0.024554547,-2.1111202e-05,0.013491783,0.43721268,-1.4426395,1.9776348,-2.1062248,-1.568386,2.4096339,-0.08974058,0.21908294,-0.24583416,0.016518358,0.021961316,-0.10305916,-0.22984336,0.22984336,-9.308656,0.8627467,47.677036,-1.1215628,-1.6734159,-3.520986,-0.10743756,0.35237312,-0.383272,23.8125,24.0625,23.5,24.5625,24.4375,24.6875
0.25005242,-1.4987032,-1.4775972,-1.3772677,-0.039254855,0.051325634,-0.09240542,-0.3884843,-0.33051074,0.06004326,3.0767803,-0.6204694,-0.0003031836,-0.11816815,-0.015207159,-0.0026325127,-0.024703518,-0.0016101082,0.015413448,0.43702102,-1.4421833,1.977156,-2.1061656,-1.5683736,2.4094296,-0.089372955,0.22187805,-0.24707933,0.016351135,0.022766812,-0.104612745,-0.15322891,0.24899697,-9.308657,0.86945957,47.670765,-1.212739,-1.8213247,-3.575491,-0.1135602,0.33584848,-0.42351928,23.8125,24.0625,23.5,24.5625,24.4375,24.6875
0.2520522,-1.1018637,-1.3248698,-1.4831204,-0.03053808,0.050691813,-0.10018234,-0.38874248,-0.33053818,0.06005857,3.0767415,-0.620425,-0.00036844768,-0.12105971,-0.014939413,-0.0013955532,-0.02658201,0.0016529206,0.0115726385,0.43683982,-1.4417517,1.9766277,-2.10613,-1.5683612,2.409226,-0.09249117,0.22264847,-0.25064248,0.015395316,0.023085108,-0.103886575,-0.28730422,0.19153613,-9.308656,0.9186956,47.655537,-1.0201222,-1.6861928,-3.5332055,-0.09318698,0.3464827,-0.42342216,23.8125,24.0625,23.5,24.5625,24.4375,24.6875
0.254052,-1.2297896,-1.3791809,-1.2609146,-0.022530822,0.044892315,-0.103278205,-0.38900155,-0.33058146,0.060072757,3.076584,-0.6204832,-0.00038630015,-0.12030767,-0.015629573,-0.0024915498,-0.024921708,0.0002065638,0.020536277,0.4366247,-1.441331,1.9761251,-2.1061418,-1.5682539,2.4090674,-0.0899113,0.22515324,-0.25102705,0.015322129,0.02221646,-0.11026832,-0.3256114,0.19153613,-9.251195,0.9030289,47.666286,-1.2333738,-1.8846848,-3.577168,-0.074267656,0.3511348,-0.41966444,23.8125,24.0625,23.5,24.5625,24.4375,24.6875
0.25605184,-1.5979867,-1.1767195,-1.2613653,-0.019408492,0.043048237,-0.098170556,-0.38921332,-0.33059958,0.06004068,3.0766351,-0.6202835,-0.0003313971,-0.123757154,-0.01452216,-0.00091156794,-0.026576627,0.0035984889,0.019067666,0.4364671,-1.4408761,1.9756812,-2.106118,-1.568242,2.408779,-0.09489205,0.22523917,-0.25481933,0.015267846,0.02227881,-0.11377937,-0.28730422,0.17238252,-9.11712,0.87617236,47.691364,-1.0919307,-1.7688885,-3.53436,-0.055005122,0.34898186,-0.38763115,23.8125,24.0625,23.5,24.5625,24.4375,24.6875
0.25805175,-2.0513413,-1.4103315,-1.3194124,-0.009314928,0.04243483,-0.09333194,-0.3894448,-0.33064994,0.060025953,3.0766215,-0.6201597,-0.0002184584,-0.12455714,-0.016147012,0.00045865367,-0.028280785,0.005412653,0.027724689,0.43631193,-1.4403731,1.9751295,-2.1060336,-1.5681695,2.4085484,-0.093036264,0.22571345,-0.2588742,0.016509417,0.023062121,-0.12057937,-0.38307226,0.15322891,-9.251195,0.9231726,47.688675,-1.1820276,-1.6176949,-3.4807358,-0.065724015,0.35142064,-0.31159627,23.8125,24.0625,23.5,24.5625,24.4375,24.6875
0.26005244,-1.9631597,-1.4714715,-1.2291224,-0.018058859,0.055409767,-0.09570879,-0.3897027,-0.33066627,0.060023345,3.0766048,-0.6200194,-0.00021395547,-0.12629049,-0.016345143,0.001334088,-0.029801602,0.006184998,0.03210704,0.43609527,-1.4399177,1.9746145,-2.1059973,-1.5681328,2.4082465,-0.09477417,0.22690587,-0.26258677,0.017707774,0.024127584,-0.12669693,-0.51714754,0.24899697,-9.212888,0.7933669,47.709274,-1.1033932,-1.6126082,-3.4773993,-0.07976728,0.34030485,-0.23077616,23.8125,24.0625,23.5,24.5625,24.4375,24.6875
0.26205224,-2.144257,-1.6992686,-1.5017129,-0.031299494,0.071389824,-0.0925673,-0.3899604,-0.33070168,0.060023155,3.0765812,-0.6199167,-0.00021012983,-0.12722553,-0.01576672,0.0003544751,-0.029031262,0.004209181,0.035136346,0.43591458,-1.4394376,1.9740633,-2.1059496,-1.568097,2.408005,-0.09665298,0.2301674,-0.26424927,0.018245732,0.024277154,-0.1316034,-0.63206923,0.24899697,-9.212888,0.800085,47.677036,-1.021413,-1.6265984,-3.4444785,-0.080684096,0.3383661,-0.15689051,23.8125,24.0625,23.5,24.5625,24.4375,24.6875
0.26405218,-2.9301035,-2.0120492,-1.4774779,-0.034377966,0.072281614,-0.08735388,-0.39022586,-0.3307317,0.060032446,3.076496,-0.6198217,-0.00020597523,-0.12845477,-0.0153081585,0.0006793787,-0.028660467,0.0044259108,0.035015456,0.4356862,-1.4389937,1.9735364,-2.1059248,-1.5680135,2.4077284,-0.09817847,0.23127966,-0.26662603,0.019492071,0.02386139,-0.13300596,-0.6895301,0.28730422,-9.346964,0.8717007,47.6636,-1.0170544,-1.599024,-3.3785229,-0.08742446,0.3480438,-0.13389836,23.8125,24.0625,23.5,24.5625,24.4375,24.6875
0.2660519,-2.6307714,-2.1212611,-1.3925328,-0.047975216,0.097601615,-0.093892224,-0.39045432,-0.33074048,0.0599932,3.0765398,-0.61981505,-0.000115617164,-0.13002494,-0.0150402095,0.0014966734,-0.02927263,0.0060545844,0.028825609,0.43550566,-1.4384906,1.9730452,-2.1058652,-1.5680135,2.4075384,-0.09983682,0.23155557,-0.2689986,0.019847218,0.023709392,-0.12847525,-0.842759,0.3256114,-9.346964,0.87393653,47.68062,-0.98895067,-1.5238268,-3.343896,-0.093010694,0.3363725,-0.1271129,23.8125,24.0625,23.5,24.5625,24.4375,24.6875
0.26805177,-2.3388352,-1.8055367,-1.5952177,-0.053819377,0.10235052,-0.10088328,-0.39070922,-0.33077,0.060005743,3.0764859,-0.61969215,-0.00011813887,-0.13114703,-0.01455769,0.0012653916,-0.029970922,0.005410595,0.022101216,0.43530086,-1.4380589,1.9725188,-2.105817,-1.567953,2.407264,-0.10218252,0.23309693,-0.2703143,0.019909075,0.02461211,-0.124094255,-0.80445176,0.34476504,-9.32781,0.9097417,47.687782,-0.81181306,-1.50204,-3.4114947,-0.09300867,0.32671833,-0.19141015,23.8125,24.0625,23.5,24.5625,24.4375,24.6875
0.2700526,-2.2260687,-1.9746928,-1.5989584,-0.034932707,0.09633266,-0.083558105,-0.39099824,-0.33080035,0.059994876,3.0764155,-0.61964196,-9.304735e-05,-0.13069259,-0.014507889,-0.0004943052,-0.029607732,0.0018642083,0.017842352,0.43506068,-1.4375306,1.9719452,-2.1058052,-1.5678805,2.4070017,-0.10254022,0.23626241,-0.26994264,0.019741362,0.025778072,-0.120191514,-0.6895301,0.2681506,-9.461885,0.82022345,47.692257,-0.7923622,-1.6678199,-3.5034094,-0.09000611,0.3098092,-0.22754471,23.8125,24.0625,23.5,24.5625,24.4375,24.6875
0.27205247,-2.0432396,-1.7209214,-1.4382986,-0.034643017,0.08451396,-0.089110665,-0.39124575,-0.3308609,0.05998454,3.0763497,-0.61955434,-4.324322e-05,-0.13200718,-0.014474464,-0.00024669338,-0.030647848,0.003027651,0.012477439,0.43490413,-1.4370269,1.9713949,-2.1057813,-1.5677966,2.406799,-0.1039324,0.23721036,-0.27148327,0.018842282,0.026222363,-0.11621704,-0.53630114,0.21068975,-9.32781,0.9030289,47.687782,-0.74065244,-1.7467384,-3.6281462,-0.06331286,0.31477994,-0.26578444,23.8125,24.0625,23.5,24.5625,24.4375,24.6875
0.2740524,-1.542456,-1.2652569,-1.3713154,-0.029506303,0.07583717,-0.08980624,-0.39153126,-0.33088744,0.05998213,3.0763001,-0.61952573,-2.9535222e-05,-0.1332071,-0.015033384,-3.1650852e-05,-0.031333413,0.004150687,0.009638916,0.43467626,-1.4365116,1.9708079,-2.105734,-1.5677484,2.40656,-0.103922196,0.2390543,-0.2740351,0.018246016,0.026364718,-0.11336608,-0.49799395,0.19153613,-9.289502,0.8537928,47.679718,-0.7765399,-1.7001691,-3.6131206,-0.06566133,0.30438635,-0.3535715,23.8125,24.0625,23.5,24.5625,24.4375,24.6875
0.27605242,-1.1896559,-1.0891923,-1.4946086,-0.018057885,0.061782666,-0.09106819,-0.39179638,-0.33090022,0.05997536,3.0762856,-0.61948496,-7.432732e-05,-0.13348955,-0.015390094,-0.0007263365,-0.032002635,0.0026695773,0.0072388295,0.4344723,-1.4360437,1.970292,-2.1057217,-1.567748,2.4063327,-0.104220346,0.24135566,-0.27511516,0.018081704,0.027595434,-0.11126165,-0.36391866,0.17238252,-9.270349,0.8918391,47.691364,-0.8359871,-1.7327623,-3.5289893,-0.038047,0.28727806,-0.38344216,23.8125,24.0625,23.5,24.5625,24.4375,24.6875
0.27805248,-1.2855682,-1.1605569,-1.3918948,-0.01357085,0.04483868,-0.08819471,-0.39205796,-0.3309148,0.059965108,3.076209,-0.6194903,-8.763148e-06,-0.13561203,-0.01613171,-0.00029039307,-0.032793757,0.003869454,0.00445938,0.4342201,-1.4355757,1.9697784,-2.105686,-1.567664,2.4060938,-0.10470255,0.24471395,-0.28004953,0.018245444,0.027798166,-0.10896117,-0.22984336,0.095768064,-9.232041,0.83365434,47.64389,-0.8311894,-1.7554812,-3.5450153,-0.03149535,0.28177676,-0.42774165,23.8125,24.0625,23.5,24.5625,24.4375,24.6875
0.28005224,-0.6803214,-0.9789479,-1.6887769,-0.005073076,0.02887429,-0.0875967,-0.39234903,-0.3309394,0.059947204,3.0761611,-0.6195379,8.969103e-06,-0.13659035,-0.016828699,9.638425e-06,-0.03289891,0.004880108,0.0042758477,0.4339925,-1.4350243,1.9691905,-2.105662,-1.5676278,2.4059024,-0.103935234,0.24655442,-0.28297517,0.018378282,0.027465764,-0.10800873,-0.15322891,0.22984336,-9.289502,0.8179876,47.652847,-0.89912105,-1.7798034,-3.3968616,-0.04299662,0.2531317,-0.50112414,23.8125,24.0625,23.5,24.5625,24.4375,24.6875
0.2820521,-0.28152648,-1.1251279,-1.6639982,-0.018614393,0.021248829,-0.09734583,-0.39263785,-0.33099914,0.05996393,3.0760794,-0.6194624,-6.662094e-05,-0.13830583,-0.016350273,-2.5603278e-05,-0.031576965,0.005315541,0.00485639,0.4338241,-1.4345199,1.9685792,-2.1056497,-1.5675806,2.4056976,-0.10527812,0.24924429,-0.2862261,0.01912057,0.026095485,-0.10992902,-0.05746084,0.24899697,-9.308657,0.8784135,47.682407,-0.77252775,-1.8342906,-3.5004501,-0.017279744,0.28393894,-0.53647447,23.8125,24.0625,23.5,24.5625,24.4375,24.6875
0.28405204,-0.26262358,-1.5682411,-1.6748412,-0.037306163,0.01386859,-0.09512238,-0.39289206,-0.33101925,0.05995089,3.0760949,-0.61934733,1.45646245e-05,-0.13854578,-0.016652348,-0.00048716282,-0.030919015,0.0041225147,0.010420518,0.43362013,-1.4340162,1.968017,-2.1055534,-1.5675443,2.40542,-0.10477595,0.2515206,-0.28809118,0.020093594,0.026008572,-0.11499123,-0.019153614,0.2681506,-9.385271,0.85155696,47.690468,-0.96476465,-1.9650766,-3.45914,-0.02369347,0.28638363,-0.5127843,23.8125,24.0625,23.5,24.5625,24.4375,24.6875
0.28605184,-0.4797923,-2.2775438,-1.9020768,-0.05217154,0.00328416,-0.0862364,-0.3931831,-0.33104262,0.059939913,3.0760503,-0.61931396,3.352799e-06,-0.13908137,-0.015960455,-0.0009785118,-0.030866178,0.0022730401,0.01725357,0.43339127,-1.4334885,1.9674419,-2.105541,-1.5675086,2.4051764,-0.106879264,0.25294054,-0.28897655,0.021294747,0.026766045,-0.12392605,0.11492168,0.38307226,-9.442732,0.84708,47.658226,-0.69188297,-1.9120126,-3.4484239,-0.034091994,0.2744706,-0.44764587,23.8125,24.0625,23.5,24.5625,24.4375,24.6875
0.28805164,-0.30739963,-2.3153343,-1.9040302,-0.07849551,0.006390384,-0.09600554,-0.3934502,-0.33106413,0.059927426,3.0760138,-0.6193194,9.1517555e-05,-0.1394374,-0.01660978,-0.00090027106,-0.031712472,0.0013019899,0.028325284,0.4331634,-1.4329729,1.9668673,-2.1054566,-1.567448,2.4049568,-0.106671534,0.25450954,-0.29137373,0.022692634,0.0279642,-0.13478899,0.11492168,0.3256114,-9.461885,0.87617236,47.682407,-0.81763464,-1.9041514,-3.5181355,-0.03338659,0.24534218,-0.36672825,23.8125,24.0625,23.5,24.5625,24.4375,24.6875
0.29005244,-0.09090978,-2.5317652,-1.8971434,-0.07179277,0.017503953,-0.10190838,-0.3937216,-0.33109614,0.05991191,3.076026,-0.6191649,0.0001811557,-0.1405834,-0.017001463,0.00034765538,-0.032921653,0.0032886718,0.03484138,0.43295935,-1.4324222,1.966257,-2.1053612,-1.5673999,2.404655,-0.10700342,0.25407273,-0.29405233,0.02353061,0.028237473,-0.14163701,0.095768064,0.4405331,-9.461885,0.9231726,47.667187,-0.8239032,-1.8497169,-3.4827795,-0.04725257,0.2240302,-0.26830745,23.8125,24.0625,23.5,24.5625,24.4375,24.6875
0.29205227,-0.6770723,-2.545327,-2.1080742,-0.04506008,0.01817979,-0.08772511,-0.3940082,-0.33113977,0.059920046,3.0759554,-0.6190125,0.00013072244,-0.14023809,-0.017487725,3.0114774e-05,-0.033327054,0.0024417588,0.0397933,0.43275577,-1.4319307,1.9656814,-2.1053612,-1.5673393,2.4043655,-0.10620215,0.25481528,-0.29431742,0.023677293,0.028985092,-0.14578483,0.1340753,0.45968673,-9.481039,0.92093146,47.655537,-0.9272421,-1.8150826,-3.54508,-0.059483185,0.21795908,-0.20842215,23.8125,24.0625,23.5,24.5625,24.4375,24.6875
0.2940521,-0.54925346,-1.8531026,-2.0902011,-0.040809907,0.029096425,-0.08402965,-0.3942835,-0.3311666,0.059906993,3.0759115,-0.6189271,0.0002282089,-0.14062546,-0.017770892,-0.0004146394,-0.033774953,0.0012169939,0.03930501,0.43251574,-1.4314026,1.9650959,-2.1052883,-1.5672549,2.404078,-0.106500864,0.25684795,-0.29582784,0.02409477,0.02990389,-0.14559428,0.11492168,0.34476504,-9.557653,0.8851263,47.64927,-0.86794376,-1.8359587,-3.5977461,-0.05907358,0.19495125,-0.16864863,23.8125,24.0625,23.5,24.5625,24.4375,24.6875
0.29605195,-0.48165658,-1.8881129,-2.1358497,-0.04132505,0.040333256,-0.08755847,-0.39457604,-0.3312277,0.059913535,3.0758274,-0.6188163,0.00023046098,-0.14104308,-0.018505357,-0.00037752694,-0.0351011,0.0005657606,0.034605373,0.4323238,-1.4308636,1.9644617,-2.105253,-1.5671705,2.403828,-0.10636863,0.25832963,-0.29785046,0.024667721,0.03137817,-0.14075853,0.1340753,0.34476504,-9.634268,0.94331104,47.66271,-1.0412748,-1.8509012,-3.6566648,-0.050394483,0.16310439,-0.16416332,23.8125,24.0625,23.5,24.5625,24.4375,24.6875
0.29805228,-0.85209,-2.2516215,-2.1427855,-0.04169379,0.032979194,-0.0838862,-0.39485425,-0.33123595,0.059900776,3.0758288,-0.6187236,0.00022703463,-0.14277534,-0.01856948,-0.00013763584,-0.035432823,0.0011246761,0.028591452,0.43209523,-1.4303596,1.9639105,-2.1052167,-1.5671586,2.4035416,-0.10764434,0.26073748,-0.3013571,0.025112592,0.031432703,-0.1360181,0.19153613,0.3256114,-9.519346,0.9231726,47.6636,-0.83739746,-1.7997881,-3.6357594,-0.07272152,0.15162054,-0.25816247,23.8125,24.0625,23.5,24.5625,24.4375,24.6875
0.30005223,-0.4315985,-1.9623607,-2.022285,-0.04849858,0.042701658,-0.08595258,-0.39513403,-0.33128205,0.059902374,3.0757527,-0.618673,0.00030360083,-0.14273241,-0.018620765,-0.0011160062,-0.034358267,-0.0008055649,0.023303792,0.43187943,-1.4298316,1.9632882,-2.1051323,-1.5670623,2.403304,-0.10728854,0.26331145,-0.30230922,0.02569432,0.031255472,-0.13037401,0.019153614,0.36391866,-9.576807,0.92093146,47.65464,-1.0169289,-1.910898,-3.6269479,-0.07570319,0.12946197,-0.30182606,23.8125,24.0625,23.5,24.5625,24.4375,24.6875
0.30205208,-1.265101,-2.2932134,-2.071585,-0.04228967,0.014421696,-0.08301854,-0.39541727,-0.3313096,0.05988465,3.0757337,-0.61855376,0.0003729498,-0.14436558,-0.01826256,-0.0009777687,-0.033847824,-8.9840605e-06,0.021051265,0.43165106,-1.4292803,1.9626888,-2.1050727,-1.5670027,2.403004,-0.108684845,0.2653098,-0.3051036,0.025995325,0.030452745,-0.12951751,0.17238252,0.34476504,-9.500193,0.9545008,47.64927,-1.045656,-1.8194966,-3.6526747,-0.073125765,0.12781486,-0.34150583,23.8125,24.0625,23.5,24.5625,24.4375,24.6875
0.30405185,-0.4823403,-2.0547762,-2.056229,-0.054092444,0.031104347,-0.0850527,-0.3957141,-0.33133268,0.059875302,3.0757194,-0.618474,0.000340847,-0.1450723,-0.018038414,-0.0019838384,-0.032870833,-0.0023403198,0.020302027,0.43143472,-1.4287394,1.9620899,-2.105048,-1.5669912,2.40274,-0.109637536,0.26896536,-0.30735895,0.02713005,0.030545695,-0.1297187,0.17238252,0.3256114,-9.461885,0.8717007,47.623295,-0.96866214,-2.1016622,-3.7165928,-0.09757595,0.13093674,-0.33822072,23.8125,24.0625,23.5,24.5625,24.4375,24.6875
0.30605182,-0.8414556,-2.080977,-2.1262467,-0.041509833,0.015455463,-0.07888333,-0.39600843,-0.33139354,0.059893165,3.0756104,-0.61837554,0.00039105842,-0.14604945,-0.01829754,-0.0012644066,-0.033069223,-0.0013690231,0.019605512,0.43121868,-1.4282124,1.9614309,-2.104964,-1.566871,2.4024765,-0.109727554,0.26960176,-0.31012812,0.028318448,0.030323839,-0.12911007,0.0,0.3256114,-9.519346,0.9992599,47.63046,-0.97832584,-2.0301604,-3.5869126,-0.12421605,0.11122584,-0.36514086,23.8125,24.0625,23.5,24.5625,24.4375,24.6875
0.30805165,-0.6949614,-1.777919,-1.915552,-0.050085615,0.0342429,-0.087493174,-0.39629394,-0.3314417,0.05990317,3.0755537,-0.61826706,0.00038563498,-0.1472127,-0.018189086,-0.00062904233,-0.032564115,0.00016748038,0.020578345,0.43102664,-1.4276973,1.9608086,-2.1049044,-1.5668114,2.4022243,-0.11008474,0.27017388,-0.31250963,0.02896563,0.029231029,-0.13043894,-0.114921674,0.36391866,-9.404425,0.92764956,47.68062,-1.003809,-1.9459937,-3.6041446,-0.11782968,0.12255138,-0.38567913,23.8125,24.0625,23.5,24.5625,24.4375,24.6875
0.31005168,-1.3596748,-2.0869339,-1.6778655,-0.048780307,0.048170365,-0.079890154,-0.39660826,-0.33146158,0.05991029,3.0755115,-0.61821795,0.0003740013,-0.14900026,-0.018350432,0.00047451854,-0.03345308,0.00285747,0.024274353,0.4307743,-1.4271578,1.960162,-2.1048324,-1.5667752,2.401947,-0.11096977,0.2705411,-0.31555977,0.028864054,0.028928053,-0.13501804,-0.15322891,0.3256114,-9.442732,0.8672237,47.660015,-1.0185688,-1.9680562,-3.5935733,-0.13309216,0.11353627,-0.37891573,23.8125,24.0625,23.5,24.5625,24.4375,24.6875
0.3120526,-1.6209136,-1.9684005,-1.9851706,-0.043903418,0.05727169,-0.086206876,-0.39689457,-0.33152518,0.05990416,3.0754502,-0.61806613,0.00040567984,-0.1496158,-0.018217163,0.0007677588,-0.03400166,0.0032604951,0.030279351,0.43059424,-1.4265958,1.9595283,-2.1047966,-1.5666913,2.4016802,-0.11184934,0.27063853,-0.31656158,0.029215615,0.029282084,-0.14190121,-0.095768064,0.22984336,-9.423578,0.9298854,47.687782,-0.9822196,-1.7810419,-3.5651305,-0.13396144,0.07868322,-0.31342515,23.8125,24.0625,23.5,24.5625,24.4375,24.6875
0.31405258,-1.7295882,-2.1109178,-1.7089355,-0.033125635,0.061532352,-0.08250029,-0.39718863,-0.3315616,0.059903987,3.0754375,-0.6179457,0.00042447058,-0.15089624,-0.018036293,0.001895994,-0.034360312,0.004596067,0.036115613,0.43038976,-1.426044,1.9588808,-2.1047118,-1.5666555,2.4014025,-0.11300055,0.27041546,-0.31942704,0.030980378,0.029071338,-0.14888798,-0.2681506,0.22984336,-9.3661175,0.9634547,47.64389,-0.9353184,-1.6458005,-3.558299,-0.1589595,0.06354862,-0.23680758,23.8125,24.0625,23.5,24.5625,24.4375,24.6875
0.31605244,-1.4838372,-1.3106581,-1.723543,-0.026976269,0.06708324,-0.09003732,-0.3975279,-0.33157045,0.05992215,3.0753443,-0.6179227,0.00034724554,-0.15226485,-0.017869163,0.0018430599,-0.033956796,0.0053307144,0.040542554,0.4300895,-1.4255284,1.9582466,-2.1046884,-1.5666074,2.4011002,-0.11388663,0.2724992,-0.32176462,0.030774446,0.028426345,-0.15419789,-0.51714754,0.11492168,-9.3661175,0.90527004,47.672558,-0.97750056,-1.6038347,-3.5899649,-0.17898203,0.0647445,-0.1378271,23.8125,24.0625,23.5,24.5625,24.4375,24.6875
0.3180521,-1.352185,-0.58811444,-1.8129781,-0.014191919,0.07529053,-0.089202076,-0.39781633,-0.33163837,0.059914198,3.0752885,-0.6176608,0.00046946126,-0.15265207,-0.017418861,0.0019062979,-0.033121772,0.0059370245,0.04220336,0.4298856,-1.4249414,1.9575766,-2.104604,-1.5664762,2.40074,-0.11425862,0.2725177,-0.3221214,0.030947898,0.027423061,-0.15623222,-0.34476504,0.095768064,-9.442732,0.91421866,47.645687,-1.0293238,-1.5532863,-3.6298904,-0.18112537,0.06977568,-0.0927737,23.8125,24.0625,23.5,24.5625,24.4375,24.6875
0.3200519,-1.6788621,-0.54580605,-1.6365517,-0.0073431483,0.082894966,-0.08603375,-0.39811364,-0.33167195,0.05990722,3.0752752,-0.6175259,0.00044863197,-0.15203002,-0.017073251,7.1001814e-05,-0.029985908,0.0019927572,0.03851055,0.42968172,-1.4243901,1.9569553,-2.1045673,-1.5664524,2.4004538,-0.11346684,0.2763566,-0.32287264,0.0327476,0.02621492,-0.15174787,-0.38307226,0.05746084,-9.442732,0.9164598,47.677036,-0.999585,-1.4430122,-3.8448534,-0.20150071,0.07658912,-0.095798805,23.8125,24.0625,23.5,24.5625,24.4375,24.6875
0.32205167,-2.144523,-0.8260063,-1.6238092,0.006323921,0.08705813,-0.077329196,-0.39842966,-0.33168465,0.059912637,3.0752425,-0.6174656,0.0004494429,-0.15432301,-0.016574552,-7.106422e-05,-0.029060425,0.0023059272,0.03171848,0.42941707,-1.4238492,1.9563068,-2.1044838,-1.5664171,2.400156,-0.11551835,0.280059,-0.32704797,0.033317324,0.025229987,-0.14700563,-0.5363012,-0.17238252,-9.346964,0.9791215,47.699425,-1.0867875,-1.6648197,-3.6806104,-0.2186755,0.07474097,-0.1334623,23.8125,24.0625,23.5,24.5625,24.4375,24.6875
0.3240524,-1.7709988,-0.20247029,-1.4983555,0.00442119,0.09969291,-0.088359006,-0.3987353,-0.33173215,0.059918545,3.0751383,-0.6174282,0.00050331687,-0.15666565,-0.017758228,0.0010212845,-0.030062292,0.0055959444,0.025059588,0.4291773,-1.4232972,1.9556469,-2.1044118,-1.5663089,2.3999064,-0.11488696,0.2825553,-0.3324079,0.032764945,0.024747767,-0.13971221,-0.61291564,-0.05746084,-9.346964,0.9231726,47.65912,-1.0233636,-1.7896593,-3.5832129,-0.24814497,0.0830362,-0.21386829,23.8125,24.0625,23.5,24.5625,24.4375,24.6875
0.32605228,-1.9257921,-0.4691706,-1.481034,0.0074656,0.10182393,-0.082830794,-0.39906213,-0.3317744,0.059931174,3.0750992,-0.61732656,0.00040946773,-0.15785824,-0.018098855,0.0009786441,-0.030338854,0.0069929534,0.019482054,0.4289733,-1.4227328,1.9549655,-2.1043766,-1.5662974,2.3996444,-0.1149207,0.28443164,-0.33428225,0.03136168,0.024410268,-0.13416567,-0.6703765,-0.076614454,-9.404425,0.9410752,47.682407,-1.0724295,-1.7466297,-3.5207572,-0.22840726,0.08015856,-0.2721411,23.8125,24.0625,23.5,24.5625,24.4375,24.6875
0.32805216,-2.1908154,-0.25950652,-1.4742976,0.0014369292,0.07626044,-0.08236401,-0.39934975,-0.33180895,0.05991762,3.0750778,-0.61722773,0.0004836952,-0.15933795,-0.017242873,0.0010350507,-0.029255588,0.0071808826,0.01511614,0.42875668,-1.4221672,1.9543308,-2.1042922,-1.5662373,2.399369,-0.11689175,0.28605667,-0.33666202,0.032402836,0.023339413,-0.13177174,-0.4213795,-0.019153614,-9.3661175,0.9097417,47.68062,-1.0199977,-1.729583,-3.4938233,-0.24441588,0.101467356,-0.37491527,23.8125,24.0625,23.5,24.5625,24.4375,24.6875
0.330052,-1.4805874,-1.0813367,-1.7187108,-0.002621289,0.08211502,-0.08879804,-0.39967474,-0.3318561,0.05994199,3.0750124,-0.61714184,0.0004377701,-0.16165006,-0.016856479,0.0018789719,-0.028705746,0.00910875,0.007953686,0.42854005,-1.4216142,1.9536241,-2.1042087,-1.5661896,2.3991075,-0.11853872,0.28779995,-0.34096542,0.0334298,0.022028668,-0.12625459,-0.45968673,0.13407528,-9.346964,0.9634547,47.66808,-1.0484167,-1.7816057,-3.4328096,-0.27460575,0.11542791,-0.45066792,23.8125,24.0625,23.5,24.5625,24.4375,24.6875
0.3320518,-1.812662,-1.4690667,-1.7922375,-0.03205968,0.06838479,-0.0841392,-0.40001702,-0.33183682,0.059942484,3.0749872,-0.6172895,0.00041492484,-0.16201237,-0.016374739,0.0020027037,-0.02785788,0.009893646,0.0076145297,0.4282279,-1.4210491,1.9529546,-2.1041124,-1.566202,2.3988912,-0.118850045,0.28759897,-0.34119144,0.033504277,0.020938255,-0.12622842,-0.6895301,0.21068975,-9.385271,0.84708,47.716442,-0.9271593,-1.6348362,-3.4787867,-0.2897572,0.1356869,-0.51650906,23.8125,24.0625,23.5,24.5625,24.4375,24.6875
0.3340519,-2.1354,-2.2487106,-1.9716966,-0.040579636,0.06459716,-0.07715334,-0.40032214,-0.33187878,0.05994556,3.074971,-0.61716974,0.0003935779,-0.1622155,-0.013949016,0.00062247657,-0.025666809,0.0074833534,0.008596462,0.42803466,-1.4204849,1.9522856,-2.1040409,-1.5661787,2.3986256,-0.12266125,0.28821707,-0.33897653,0.033805612,0.019972745,-0.13102378,-0.4405331,0.3256114,-9.5385,0.98135734,47.71017,-0.8979292,-1.6275074,-3.696312,-0.2919811,0.1497319,-0.5177364,23.8125,24.0625,23.5,24.5625,24.4375,24.6875
0.33605185,-1.9096859,-2.4988406,-2.064066,-0.06565392,0.077679634,-0.083544545,-0.40066832,-0.33191347,0.05995982,3.0748556,-0.6171391,0.00039319362,-0.16228573,-0.015179591,0.0013421259,-0.02615221,0.008825793,0.019948812,0.42774764,-1.4199083,1.9515795,-2.1039803,-1.5660828,2.3983345,-0.12028566,0.28842995,-0.34115246,0.03440536,0.019894784,-0.13999888,-0.36391866,0.30645782,-9.615114,0.96569055,47.696735,-0.8876103,-1.403563,-3.8426151,-0.31278214,0.17095955,-0.45772323,23.8125,24.0625,23.5,24.5625,24.4375,24.6875
0.3380519,-2.0771806,-2.8324704,-1.8460218,-0.07736816,0.07745602,-0.08010265,-0.4009886,-0.3319502,0.059968293,3.0748925,-0.6169295,0.000353324,-0.1636337,-0.0152771175,0.0017249144,-0.026949069,0.01015656,0.02951521,0.42755532,-1.4193193,1.9508609,-2.103873,-1.5660943,2.398007,-0.12123437,0.28952423,-0.34334767,0.034014184,0.020100575,-0.15051246,-0.4405331,0.30645782,-9.5385,0.9768804,47.635834,-0.9353895,-1.3464463,-3.844859,-0.33412567,0.1833121,-0.36928105,23.8125,24.0625,23.5,24.5625,24.4375,24.6875
0.34005162,-1.600009,-2.6114953,-2.0801604,-0.056307867,0.074834645,-0.08410769,-0.40134436,-0.33196226,0.059991248,3.074783,-0.6169405,0.0002870101,-0.16557829,-0.0160179,0.0019572133,-0.028542453,0.011938234,0.038002923,0.42724317,-1.4187778,1.9501776,-2.1038258,-1.5660342,2.397716,-0.12182569,0.29227877,-0.34683245,0.032517143,0.020850006,-0.15958652,-0.3256114,0.3256114,-9.634268,0.9701675,47.640312,-0.93194115,-1.5237844,-3.756567,-0.34768945,0.1853745,-0.25971204,23.8125,24.0625,23.5,24.5625,24.4375,24.6875
0.34205163,-1.3237385,-2.1404927,-2.1338184,-0.048821736,0.06986694,-0.07823045,-0.40168282,-0.33201328,0.05998523,3.0747643,-0.6167233,0.00022065482,-0.16666414,-0.01673729,0.00050274486,-0.02891675,0.01005467,0.041510165,0.42703912,-1.4181517,1.9494709,-2.1038144,-1.5660099,2.3973792,-0.122025594,0.29776722,-0.34975302,0.031529963,0.021989442,-0.16328834,-0.24899697,0.36391866,-9.672575,1.0037369,47.670765,-0.8919164,-1.5536244,-3.785043,-0.32480216,0.20066552,-0.18963858,23.8125,24.0625,23.5,24.5625,24.4375,24.6875
0.3440523,-1.4992235,-2.5982282,-2.1376524,-0.043681722,0.056987897,-0.07497728,-0.40200427,-0.3320316,0.059998628,3.0747335,-0.6166405,0.00024999294,-0.1695899,-0.018183533,0.0017302777,-0.031467166,0.013687573,0.041118503,0.426775,-1.4175978,1.9487752,-2.1036832,-1.5659617,2.3970675,-0.12220782,0.30071512,-0.3557937,0.030269934,0.022797883,-0.16307406,-0.17238252,0.36391866,-9.634268,0.9612189,47.642998,-0.9505861,-1.6838119,-3.607617,-0.32594293,0.19393943,-0.15450412,23.8125,24.0625,23.5,24.5625,24.4375,24.6875
0.3460518,-0.78951555,-2.685191,-1.9543837,-0.049421616,0.05873857,-0.0766655,-0.4023284,-0.33205575,0.05998767,3.074719,-0.6165058,0.00022756298,-0.17115131,-0.018606028,0.0019892082,-0.03257673,0.015247353,0.036052205,0.42653483,-1.4170089,1.9481162,-2.1036475,-1.5659374,2.3967454,-0.12281994,0.3025535,-0.3584018,0.029148055,0.023151815,-0.1586171,-0.076614454,0.47884035,-9.576807,0.9254084,47.6421,-0.93871903,-1.6129642,-3.5525243,-0.3048764,0.20586205,-0.18592013,23.8125,24.0625,23.5,24.5625,24.4375,24.6875
0.34805173,-0.74917614,-2.5322,-2.1557891,-0.05924766,0.04046951,-0.074554145,-0.40270072,-0.33212355,0.060046446,3.0745866,-0.61640525,3.199427e-05,-0.17120944,-0.018137643,0.00040500303,-0.030698003,0.013309373,0.028290816,0.42631888,-1.4164555,1.9473389,-2.1036112,-1.5658897,2.3964841,-0.12298291,0.30565125,-0.35836145,0.028531486,0.022251094,-0.1510159,-0.22984336,0.57460845,-9.595961,1.0954963,47.6421,-0.9298123,-1.7074943,-3.560255,-0.31046265,0.23857416,-0.26864454,23.8125,24.0625,23.5,24.5625,24.4375,24.6875
0.35005173,-0.98981845,-3.3316913,-1.7679057,-0.07805505,0.04722442,-0.08606095,-0.40305892,-0.3321203,0.060025405,3.0745554,-0.61645776,8.3654275e-05,-0.17178771,-0.017805368,0.00052948005,-0.029858122,0.014011327,0.025885912,0.4259947,-1.4158065,1.9466223,-2.1035273,-1.5658544,2.396197,-0.12320479,0.30606562,-0.3593872,0.028856939,0.02119281,-0.1488352,-0.15322891,0.63206923,-9.500193,0.9835985,47.683304,-0.9636867,-1.6141374,-3.7238529,-0.29869178,0.2661162,-0.32342017,23.8125,24.0625,23.5,24.5625,24.4375,24.6875
0.35205168,-1.1500998,-3.3371024,-1.5725453,-0.09705608,0.035581477,-0.082436725,-0.40341032,-0.33216774,0.060047213,3.0744987,-0.61623394,-3.3650245e-05,-0.1722857,-0.0186348,0.0002769717,-0.0311313,0.0135235125,0.025325269,0.42576703,-1.415229,1.9459037,-2.103504,-1.5658177,2.3958373,-0.12285602,0.30815172,-0.36131287,0.028616048,0.022568993,-0.14791967,0.038307227,0.57460845,-9.423578,0.99702406,47.64389,-1.0790384,-1.5292531,-3.7053013,-0.2951152,0.27891332,-0.3568191,23.8125,24.0625,23.5,24.5625,24.375,24.6875
0.35405257,-0.55459154,-2.8166711,-1.3101232,-0.10001239,0.037675276,-0.085302815,-0.40376437,-0.33223075,0.06005643,3.0743806,-0.616209,-3.5100416e-05,-0.17314026,-0.019261265,0.00017853368,-0.032615002,0.013636894,0.02562175,0.42552686,-1.4145923,1.9451374,-2.1034448,-1.5657209,2.395597,-0.123121485,0.31001425,-0.36326885,0.02801169,0.023886228,-0.14847648,0.019153614,0.5554548,-9.32781,0.9791215,47.658226,-0.99734414,-1.6439364,-3.8266876,-0.2773341,0.28444105,-0.38047013,23.8125,24.0625,23.5,24.5625,24.375,24.6875
0.3560523,-0.46311852,-2.6115456,-1.1859937,-0.07645604,0.02764187,-0.08654416,-0.40413132,-0.3322377,0.060071085,3.0743372,-0.6161449,-0.00015406974,-0.17516968,-0.018103585,2.7485148e-05,-0.03330446,0.013704994,0.02132284,0.4252376,-1.4140149,1.9444317,-2.1034086,-1.5657209,2.3952737,-0.12709881,0.31179413,-0.36506087,0.027680676,0.024501428,-0.14815061,0.0,0.51714754,-9.193734,0.91421866,47.67166,-0.9600685,-1.5462451,-3.7019262,-0.24856743,0.29075685,-0.40808254,23.8125,24.0625,23.5,24.5625,24.375,24.6875
0.3580521,0.3204742,-1.5990207,-1.1565421,-0.049453888,0.030954463,-0.0966816,-0.40447938,-0.33231124,0.060085796,3.0742438,-0.6158897,-0.00020349052,-0.17742105,-0.020302633,0.002177588,-0.03602596,0.018878544,0.02962939,0.4250223,-1.4134017,1.9436873,-2.1033847,-1.5656246,2.3949113,-0.12507924,0.3127061,-0.37100786,0.026930135,0.024877919,-0.15443167,0.19153613,0.4213795,-9.174581,0.9097417,47.668976,-0.9061841,-1.4961936,-3.587565,-0.2265453,0.30732805,-0.35679173,23.8125,24.0625,23.5,24.5625,24.375,24.6875
0.36005205,0.027568996,-1.2273822,-1.1698307,-0.019816676,0.011132117,-0.08686468,-0.4048258,-0.3323374,0.060079668,3.0742044,-0.6158777,-0.0002263711,-0.17962603,-0.020659924,0.0031922627,-0.0385369,0.02096871,0.036141433,0.42476952,-1.4127773,1.9429687,-2.1033251,-1.5656003,2.3946564,-0.12702309,0.31382847,-0.3747184,0.02662662,0.026340976,-0.16288194,0.095768064,0.49799395,-9.155427,0.842603,47.667187,-0.9436424,-1.343505,-3.5650523,-0.20015404,0.3013084,-0.28869015,23.8125,24.0625,23.5,24.5625,24.375,24.6875
0.362052,-0.23085417,-1.0838819,-0.97580963,-0.026178544,0.02224011,-0.09381982,-0.40522495,-0.33238956,0.0601158,3.0741103,-0.61562246,-0.00040687397,-0.18050425,-0.020562187,0.0026299336,-0.039043725,0.01975964,0.04298153,0.42450538,-1.4121631,1.9421791,-2.1033247,-1.5655521,2.3942454,-0.12839833,0.31631202,-0.3765344,0.02690519,0.027367687,-0.17108966,-0.038307227,0.47884035,-9.155427,0.8940802,47.660015,-0.8068412,-1.4570713,-3.5120282,-0.20261884,0.3014549,-0.16950084,23.8125,24.0625,23.5,24.5625,24.375,24.6875
0.36405185,-1.1355344,-1.6617876,-1.2599809,-0.026461378,0.014214247,-0.08251478,-0.40557143,-0.33242878,0.060106914,3.074078,-0.6155372,-0.00034999385,-0.1808853,-0.021258628,0.0019857774,-0.03856302,0.018671226,0.047393586,0.4242538,-1.4115016,1.9414123,-2.103217,-1.565492,2.393945,-0.1273167,0.31949165,-0.37906098,0.027476382,0.027394654,-0.1744191,-0.019153614,0.4405331,-9.232041,1.0037369,47.640312,-0.99011636,-1.5309837,-3.4340525,-0.17326587,0.30188602,-0.08465609,23.8125,24.0625,23.5,24.5625,24.375,24.6875
0.36605257,-1.1489351,-1.8148785,-1.117031,-0.057215676,0.036607746,-0.08983389,-0.40593773,-0.33247644,0.06013,3.073996,-0.6154263,-0.0004120941,-0.17993689,-0.020854732,-0.00012886027,-0.03570159,0.013967268,0.044859897,0.42400178,-1.4108878,1.9406356,-2.1031444,-1.5654324,2.3936346,-0.12668358,0.3232423,-0.37917855,0.029311419,0.026736911,-0.1712517,-0.076614454,0.38307226,-9.212888,0.9612189,47.685097,-0.99013877,-1.616483,-3.5294733,-0.15564477,0.33139396,-0.09219664,23.8125,24.0625,23.5,24.5625,24.375,24.6875
0.36805227,-1.3669522,-2.6825624,-0.8368736,-0.06907419,0.053046145,-0.08059939,-0.4062678,-0.33251655,0.060097817,3.074013,-0.6151848,-0.00034839957,-0.18016669,-0.019927736,-0.0017857925,-0.034456734,0.009915614,0.035093527,0.42377308,-1.4102138,1.9399174,-2.1030838,-1.5653838,2.393253,-0.12871012,0.32673222,-0.37998274,0.030802976,0.02724195,-0.1635107,-0.3256114,0.3256114,-9.078813,0.88289046,47.686886,-1.0566351,-1.7208309,-3.6550264,-0.16029418,0.34954548,-0.14799029,23.8125,24.0625,23.5,24.5625,24.375,24.6875
0.37005216,-1.6925778,-2.5119822,-0.7766337,-0.06484025,0.059212416,-0.08457921,-0.40665552,-0.33257183,0.06011756,3.073891,-0.61514276,-0.00043309425,-0.18056865,-0.021335937,-0.0011126081,-0.03567225,0.010972874,0.030116973,0.42351002,-1.4095653,1.9391159,-2.103048,-1.5653118,2.3929799,-0.1267613,0.32761088,-0.38283417,0.031292178,0.027906852,-0.1565794,-0.2681506,0.38307226,-9.136273,0.91198283,47.713753,-1.1726995,-1.6247339,-3.8050954,-0.1366559,0.34729922,-0.21270265,23.8125,24.0625,23.5,24.5625,24.375,24.6875
0.37205186,-1.6466249,-2.4859545,-0.6529833,-0.052219998,0.06157987,-0.09124,-0.40697914,-0.33260182,0.060084745,3.0738795,-0.61510366,-0.00034361167,-0.18274844,-0.022030333,0.0005337092,-0.038667925,0.014245476,0.025549976,0.42326927,-1.4089044,1.9384083,-2.1029646,-1.5652636,2.3927164,-0.1280088,0.32760638,-0.38669202,0.030931879,0.029271126,-0.15325586,-0.19153613,0.40222588,-9.040505,0.95226496,47.682407,-1.0427061,-1.5644376,-3.6849003,-0.104928,0.34209532,-0.29498,23.8125,24.0625,23.5,24.5625,24.375,24.6875
0.37405187,-1.4878013,-1.4877555,-0.6422099,-0.03912978,0.04205563,-0.0921588,-0.40738752,-0.33266333,0.060133785,3.073722,-0.6149793,-0.0005075512,-0.18426622,-0.022618746,0.00094442035,-0.03965213,0.014677707,0.01902749,0.42299342,-1.4082912,1.9375829,-2.1029403,-1.5651792,2.3923836,-0.12846419,0.3299853,-0.39075342,0.03180164,0.029994827,-0.14717959,-0.17238252,0.34476504,-9.002198,0.8806493,47.667187,-1.0944968,-1.5604994,-3.5774033,-0.092519216,0.3396331,-0.3722463,23.8125,24.0625,23.5,24.5625,24.375,24.6875
