Tylouw/Master_Thesis_Code/training_data/batch_1/big_rod_t0.1/sample_13_session_1.csv
timestamp[s],tcp_force_x[N],tcp_force_y[N],tcp_force_z[N],tcp_force_rx[Nm?],tcp_force_ry[Nm?],tcp_force_rz[Nm?],tcp_pose_x[m],tcp_pose_y[m],tcp_pose_z[m],tcp_pose_rx[rot_vec_x],tcp_pose_ry[rot_vec_y],tcp_pose_rz[rot_vec_z],tcp_velo_x[m/s],tcp_velo_y[m/s],tcp_velo_z[m/s],tcp_velo_rx[rot_vec_x/s],tcp_velo_ry[rot_vec_y/s],tcp_velo_rz[rot_vec_z/s],q1[rad],q2[rad],q3[rad],q4[rad],q5[rad],q6[rad],qd1[rad/s],qd2[rad/s],qd3[rad/s],qd4[rad/s],qd5[rad/s],qd6[rad/s],tool_acc_x,tool_acc_y,tool_acc_z,current_of_whole_robot[A],voltage_of_whole_robot[V],current_J1[A],current_J2[A],current_J3[A],current_J4[A],current_J5[A],current_J6[A],temp_J1[C],temp_J2[C],temp_J3[C],temp_J4[C],temp_J5[C],temp_J6[C]
1.0820222e-06,-0.47256538,-1.3145766,-0.3146219,-0.04904857,0.048702452,0.0065719457,-0.37364292,-0.32881188,0.059947565,-3.0784957,0.6248649,-0.0002679197,-0.0009618773,-0.00055057043,-0.0006061448,-0.0015524405,0.0026607946,9.975724e-05,0.44857025,-1.468658,2.0070832,-2.1074183,-1.5706614,2.4234867,0.0,0.0014574379,0.0010646813,-0.005593808,0.00023445209,-9.895463e-05,0.05746084,0.11492168,-8.7532015,0.6926589,47.687782,-0.011608366,-2.6937428,-2.4054863,-0.5120845,0.10478443,-0.13690323,23.9375,24.1875,23.625,24.8125,24.6875,24.9375
0.002054477,-0.31071576,-1.3499248,-0.11944991,-0.041278094,0.052179694,-0.0018555444,-0.37364727,-0.328786,0.05993668,-3.078463,0.6248588,-0.000273077,-0.0016477342,-0.0008929118,-0.0021579205,-0.0028387408,0.0052424846,9.795114e-05,0.44853413,-1.4686573,2.007108,-2.1074212,-1.5706857,2.423451,0.0,0.0035282862,0.0041906154,-0.013674814,0.00026236853,-9.6388845e-05,0.05746084,0.019153614,-8.734048,0.70608455,47.667187,0.023171106,-2.712468,-2.4504292,-0.457586,0.09135836,-0.13183406,23.9375,24.1875,23.625,24.8125,24.6875,24.9375
0.004054434,-0.7672744,-1.3414454,-0.17777257,-0.034300566,0.036389638,0.00417028,-0.37361693,-0.32880148,0.05990947,-3.07849,0.6248449,-0.00034948302,-0.0021947492,-0.0011649678,-0.0020046171,-0.0035875079,0.0067431084,9.646741e-05,0.4485582,-1.4686452,2.007168,-2.1074688,-1.5706376,2.4234629,0.0,0.0036959313,0.0040422184,-0.015371027,0.00028198067,-9.433916e-05,0.13407528,-0.019153614,-8.676587,0.7642693,47.66987,0.018766081,-2.983902,-2.6521997,-0.383174,0.107865795,-0.13279709,23.9375,24.1875,23.625,24.8125,24.6875,24.9375
0.006054005,-0.3901967,-0.38047528,-0.22510688,-0.020463161,0.016899843,0.010103086,-0.3736459,-0.32880482,0.059914008,-3.0785058,0.6248674,-0.00027771943,-0.0015493181,-0.0008547548,-0.0009870896,-0.0027208237,0.004945446,9.3642724e-05,0.44854617,-1.4686221,2.0071428,-2.107515,-1.5706495,2.4234629,0.0,0.0019237894,0.002428942,-0.009989945,0.0002894919,-9.2399925e-05,0.038307227,0.11492168,-8.523358,0.69041777,47.682407,0.037350293,-2.8185587,-2.628608,-0.395541,0.09501326,-0.12516984,23.9375,24.1875,23.625,24.8125,24.6875,24.9375
0.008054279,0.41121513,0.17612973,-0.8398994,0.0088585345,0.0043696696,0.0075402167,-0.37365076,-0.32878768,0.059915103,-3.0784738,0.6248801,-0.00024288848,-0.0012547467,-0.00072138145,-0.000109418754,-0.0020841246,0.0035766412,9.1438305e-05,0.44853413,-1.4686342,2.0071533,-2.1075137,-1.5706857,2.4234629,0.0,0.00092616456,0.0005009919,-0.005554947,0.00031539885,-9.054062e-05,0.019153614,0.076614454,-8.7532015,0.7284641,47.692257,0.013400879,-2.8471026,-2.5110102,-0.44264263,0.10344023,-0.13245262,23.9375,24.1875,23.625,24.8125,24.6875,24.9375
0.01005386,0.61808187,-0.001009825,-1.1324652,0.008160148,0.0071941703,-0.0031199872,-0.3736277,-0.328809,0.059902407,-3.0784845,0.6248627,-0.0003237596,-0.0008336231,-0.0006964688,-4.982187e-05,-0.0019026212,0.0020624483,8.841744e-05,0.44857025,-1.4686104,2.0071533,-2.1075008,-1.570649,2.4234867,0.0,0.0008292701,6.7214455e-06,-0.0035224722,0.000811943,-8.875497e-05,0.095768064,0.038307227,-8.944737,0.6948948,47.65106,-0.14033934,-2.1166034,-3.2164352,-0.457136,0.07188143,-0.16041751,23.9375,24.1875,23.625,24.8125,24.6875,24.9375
0.012054515,-0.09056879,-0.6406557,-1.0533144,-0.03457944,0.019605773,-0.0023536133,-0.37363175,-0.32881314,0.059911005,-3.0785048,0.62488616,-0.00033483547,-0.0022061304,-0.0013569428,-0.002443861,0.00048001154,-0.0028554006,0.00011497022,0.4485582,-1.4686188,2.00714,-2.1074884,-1.5706252,2.4234867,0.0,0.010638653,-0.0055634086,-0.0022970312,0.00078871596,-0.00011072954,0.11492168,0.095768064,-9.212888,0.7911258,47.679718,-0.3189891,-2.1749036,-3.4437366,-0.4523881,0.068326876,-0.17924568,23.9375,24.1875,23.625,24.8125,24.6875,24.9375
0.014054601,-1.2068543,-2.1865685,-1.3664422,-0.056537677,0.038361978,0.014388506,-0.3736304,-0.3287995,0.059875272,-3.0784433,0.6249317,-0.0004396727,-0.003961392,-0.0021137155,-0.0030821715,0.0016687239,-0.004897338,0.00039938674,0.44853413,-1.4685447,2.0071375,-2.107476,-1.5706257,2.4234989,-4.913118e-05,0.0171215,-0.011677698,-0.00030947942,0.0005943832,-0.0004398722,0.0,0.21068975,-9.308657,0.7777002,47.658226,-0.34418303,-2.5502489,-3.2301471,-0.4648018,0.071992144,-0.20649496,23.9375,24.1875,23.625,24.8125,24.6875,24.9375
0.016054632,-1.1369362,-2.423438,-1.4737699,-0.09987143,0.08330241,-0.003932806,-0.3736272,-0.32878843,0.05986535,-3.078411,0.6248485,-0.00047739793,-0.0067234547,-0.00060504297,-0.002182418,0.0009295229,-0.0031886573,-0.001367556,0.44853234,-1.4685206,2.0071256,-2.1074398,-1.5706495,2.4234493,-0.005336527,0.017331487,-0.014037389,-2.0206793e-05,0.0005134112,-0.003958839,-0.24899697,0.40222588,-9.481039,0.7620334,47.70211,-0.17665207,-2.4542267,-3.3185594,-0.45046115,0.058633935,-0.18180385,23.9375,24.1875,23.625,24.8125,24.6875,24.9375
0.018054096,-1.6664143,-3.2166533,-1.6763772,-0.1139293,0.098698884,-0.008356547,-0.37361503,-0.32878223,0.059843853,-3.0783505,0.6247775,-0.0005348202,-0.0056909486,-0.00010456808,-0.003399459,0.0033828379,-0.008048147,0.0013525513,0.44855627,-1.4684719,2.0071127,-2.107402,-1.5706857,2.4234366,-0.005273615,0.019627644,-0.014622032,0.0037106907,0.00041571053,-0.0066162464,-0.24899697,0.49799395,-9.576807,0.7553206,47.690468,-0.20694496,-2.2681065,-3.4589047,-0.47059125,0.05238656,-0.17456457,23.9375,24.1875,23.625,24.8125,24.6875,24.9375
0.020053996,-2.2739437,-3.669401,-1.922769,-0.115916036,0.10094908,0.0020012236,-0.37361097,-0.3287763,0.05982371,-3.078306,0.6247679,-0.00059826166,-0.006333082,-0.0010487193,-0.0029068838,0.0030948245,-0.0072789174,0.0020753574,0.4485568,-1.4684235,2.0071003,-2.1073782,-1.5706977,2.4234369,-0.004033625,0.021061605,-0.017461963,0.004298924,0.00033688548,-0.006097173,-0.47884035,0.6703765,-9.634268,0.800085,47.678825,-0.3678164,-2.2838583,-3.4900117,-0.49053678,0.052188918,-0.17797628,23.9375,24.1875,23.625,24.8125,24.6875,24.9375
0.022054113,-2.5958617,-4.064774,-2.0738957,-0.110220484,0.10242868,-0.0033526255,-0.37362212,-0.32876718,0.05980514,-3.078286,0.62491757,-0.0007025613,-0.007305877,-0.0019286033,-0.0022673407,0.0019696178,-0.0048862593,0.0025544942,0.44849697,-1.4683754,2.0070875,-2.1073668,-1.5706495,2.423473,-0.0032451013,0.021688258,-0.019288557,0.0028554015,0.00030562043,-0.005786128,-0.61291564,0.7852981,-9.730036,0.7732232,47.68062,-0.5115528,-2.2361758,-3.4345517,-0.46169084,0.042391688,-0.20303887,23.9375,24.1875,23.625,24.8125,24.6875,24.9375
0.024054574,-2.1590724,-3.6422489,-2.320401,-0.122585945,0.11574857,-0.010900448,-0.37364745,-0.3287876,0.059821565,-3.0782928,0.6247653,-0.00062621775,-0.008667782,-0.0022499252,-0.0018729604,0.0013783133,-0.0034765897,0.0024676141,0.4485448,-1.4683269,2.0069911,-2.1073434,-1.5706977,2.423425,-0.0038243302,0.023132553,-0.0216401,0.0022359157,0.00022080433,-0.00627648,-0.45968673,0.80445176,-9.787497,0.78217715,47.679718,-0.6305744,-2.3031647,-3.520362,-0.45405877,0.016909314,-0.21588409,23.9375,24.1875,23.625,24.8125,24.6875,24.9375
0.026054442,-2.2052886,-4.0837092,-2.4391158,-0.11014105,0.09812643,-0.008708358,-0.37366396,-0.3287913,0.0597994,-3.0783043,0.624845,-0.00072672864,-0.010809597,-0.0020743634,-0.000966248,0.0005234623,-0.0012182987,0.0015386585,0.44849607,-1.4682548,2.0069654,-2.1073554,-1.5706376,2.4234245,-0.005953412,0.023998134,-0.024601653,0.0019272816,3.6934687e-06,-0.007474158,-0.49799395,0.68953013,-9.959879,0.7620334,47.677036,-0.5913281,-2.1318502,-3.4567013,-0.44764024,0.011064185,-0.20504314,23.9375,24.1875,23.625,24.8125,24.6875,24.9375
0.02805452,-2.350908,-3.5412467,-2.249841,-0.117208295,0.0733861,-0.003597015,-0.37370157,-0.32879826,0.05980732,-3.078285,0.6248223,-0.0006507254,-0.012535085,-0.0017650895,-0.0009361826,0.000529432,-0.00066057825,0.00027320161,0.44850743,-1.4681941,2.0068805,-2.1073554,-1.5706857,2.4234242,-0.007932081,0.02623597,-0.027070574,0.0016588189,-0.00024964355,-0.008184929,-0.49799395,0.57460845,-10.01734,0.7530795,47.70211,-0.5292922,-2.139658,-3.4742932,-0.42741975,-5.9135724e-05,-0.1967464,23.9375,24.1875,23.625,24.8125,24.6875,24.9375
0.030054536,-1.2165215,-2.7545874,-2.0682545,-0.09890327,0.09190995,-0.0391922,-0.3737115,-0.3288118,0.059796374,-3.0783176,0.6247515,-0.0006767831,-0.013162612,-0.0019914466,-0.0014229402,0.0012918644,-0.0019836475,0.0010512408,0.44850737,-1.4681451,2.0068572,-2.1073787,-1.5706614,2.4233758,-0.0080008,0.02924087,-0.029467644,0.0025742957,-0.00036653847,-0.009029801,-0.47884035,0.45968673,-9.902418,0.7486078,47.672558,-0.5761689,-2.2230916,-3.430697,-0.4215577,0.021865835,-0.21657054,23.9375,24.1875,23.625,24.8125,24.6875,24.9375
0.032054767,-1.2936337,-1.6403071,-1.9025414,-0.089290015,0.093180604,-0.042680964,-0.37374502,-0.3288062,0.05979702,-3.0782917,0.62474674,-0.0006673984,-0.014291323,-0.002097221,-0.0008927061,0.0015824148,-0.0014918818,0.0007289173,0.4484831,-1.4680847,2.0067837,-2.1073544,-1.5706862,2.423352,-0.008504727,0.03056462,-0.032445483,0.003912696,-0.0008451453,-0.0092087835,-0.4405331,0.38307226,-9.768343,0.7486078,47.66539,-0.5950645,-2.242114,-3.4611032,-0.4210145,0.0070375535,-0.22076488,23.9375,24.1875,23.625,24.8125,24.6875,24.9375
0.0340542,-1.454197,-1.3549665,-2.0231144,-0.05700397,0.08544044,-0.053869814,-0.37381637,-0.3288388,0.059832305,-3.0783713,0.6248402,-0.00059337285,-0.01619482,-0.0022417745,-0.0001314359,0.001014245,0.00057000236,-0.0006340773,0.4484468,-1.4680245,2.0066392,-2.1073663,-1.5706381,2.423364,-0.009699105,0.03191233,-0.035608854,0.0036258413,-0.0012335784,-0.009037277,-0.2681506,0.15322891,-9.672575,0.7642693,47.66987,-0.63831836,-2.2177064,-3.2973478,-0.41890264,0.0084045,-0.22254121,23.9375,24.1875,23.625,24.8125,24.6875,24.9375
0.03605419,-1.5309238,-1.0081929,-1.7605551,-0.038561326,0.07388187,-0.05828494,-0.37380785,-0.32883656,0.059790295,-3.078309,0.6248086,-0.00070159626,-0.01793982,-0.0024153662,0.00036696013,0.00020986625,0.0020786682,-0.0015124035,0.44845834,-1.4679279,2.0066268,-2.1073549,-1.57065,2.4233637,-0.011002824,0.03351949,-0.038402837,0.0031040323,-0.0011711236,-0.0094606215,-0.2681506,0.038307227,-9.634268,0.73741806,47.658226,-0.60916585,-2.2362819,-3.3215122,-0.39281726,-0.004841559,-0.23718369,23.9375,24.1875,23.625,24.8125,24.6875,24.9375
0.03805418,-1.0875084,-0.8013286,-1.5985329,-0.036813665,0.07064863,-0.06726965,-0.3738905,-0.32886368,0.059833925,-3.0783844,0.62484306,-0.0005357659,-0.019294797,-0.0028570297,0.00090901763,-0.00066920504,0.0035479688,-0.0013224204,0.4484341,-1.4678795,2.006482,-2.107391,-1.57065,2.4233515,-0.011504572,0.03478839,-0.040942788,0.0026692678,-0.0010214362,-0.010150972,-0.2681506,-0.038307227,-9.653421,0.8247004,47.672558,-0.7111387,-2.2905188,-3.2147532,-0.36554143,-0.025614273,-0.2449851,23.9375,24.1875,23.625,24.8125,24.6875,24.9375
0.04005446,-1.0870769,-0.74600875,-1.6375114,-0.032435965,0.058838293,-0.0790482,-0.37391835,-0.32885763,0.059836235,-3.078369,0.6249178,-0.00053665583,-0.020635797,-0.0025229221,0.000914485,-0.0007432507,0.0035072383,-0.0031280003,0.44839743,-1.4678432,2.0064337,-2.1073787,-1.57065,2.4233634,-0.013403275,0.036585595,-0.042990845,0.0029243797,-0.00094074704,-0.010242828,-0.1340753,-0.095768064,-9.595961,0.76874626,47.65912,-0.65109086,-2.2385468,-3.2893505,-0.36224562,-0.010444845,-0.25550008,23.9375,24.1875,23.625,24.8125,24.6875,24.9375
0.042054534,-1.1647357,-1.0573157,-1.8886266,-0.02080095,0.045790996,-0.081008136,-0.37395838,-0.32886854,0.059822652,-3.0783832,0.6248621,-0.00056218833,-0.022037234,-0.00310688,0.0016567246,-0.0010865956,0.0042274944,-0.0021022528,0.4483734,-1.4677347,2.0063484,-2.1073906,-1.5706381,2.423303,-0.013574419,0.03845119,-0.047071263,0.004341279,-0.0009496974,-0.011437385,-0.11492168,-0.076614454,-9.481039,0.7709874,47.658226,-0.6475484,-2.1669078,-3.1614242,-0.3608603,-0.043516174,-0.25464737,23.9375,24.1875,23.625,24.8125,24.6875,24.9375
0.044054642,-1.2217216,-1.3940532,-1.6269789,-0.012123072,0.048666406,-0.08794033,-0.37401348,-0.3288779,0.05983348,-3.0783875,0.62486345,-0.0005223619,-0.022346044,-0.0024338446,0.0015142387,-6.0477665e-05,0.0024443027,-0.0029659183,0.4483489,-1.4676504,2.0062277,-2.1073773,-1.57065,2.4232788,-0.015014864,0.039390493,-0.04831897,0.0067017386,-0.0010986464,-0.012013688,-0.17238252,-0.095768064,-9.519346,0.7777002,47.688675,-0.6359195,-2.1730618,-3.1389391,-0.35556394,-0.042780295,-0.25947767,23.9375,24.1875,23.625,24.8125,24.6875,24.9375
0.046054296,-0.64189315,-1.1252176,-1.5171235,-0.026326807,0.075603805,-0.109996594,-0.3740447,-0.32888007,0.05982978,-3.0783615,0.6248771,-0.00056860334,-0.022303984,-0.0017410949,0.00073688984,0.0025022733,0.001127749,-0.0022073027,0.44832486,-1.4675659,2.0061324,-2.1073291,-1.5706505,2.4232666,-0.0151008675,0.04100044,-0.04851249,0.0075887204,-0.0028367415,-0.012854629,-0.24899697,-0.038307227,-9.461885,0.7172743,47.664497,-0.6463811,-2.2134814,-3.322309,-0.3457384,-0.03437689,-0.25051084,23.9375,24.1875,23.625,24.8125,24.6875,24.9375
0.048054446,-1.4811572,-1.3676443,-1.469797,-0.036376756,0.06816573,-0.11035178,-0.37409863,-0.32886958,0.059835102,-3.0783339,0.624968,-0.00055567245,-0.023636358,-0.0017557553,0.0009853885,0.0027660767,0.0019217072,-0.0024674349,0.44826457,-1.4674935,2.006035,-2.1073053,-1.5706629,2.4232666,-0.015883816,0.042769358,-0.051074587,0.00778243,-0.0034238694,-0.013374515,-0.17238252,0.0,-9.423578,0.78217715,47.672558,-0.64147985,-2.137257,-3.2192242,-0.32854912,-0.04518422,-0.25673994,23.9375,24.1875,23.625,24.8125,24.6875,24.9375
0.050054304,-1.3827661,-2.1654541,-1.486091,-0.04503604,0.071534835,-0.11987493,-0.37415323,-0.32888752,0.05984989,-3.0783658,0.6248965,-0.0004587505,-0.024594259,-0.0025141682,0.0018406939,0.0017376282,0.0029262332,-0.0020797553,0.4482647,-1.4674214,2.0059273,-2.1073291,-1.5706867,2.4232183,-0.015659707,0.04355517,-0.054106347,0.008675259,-0.0029360824,-0.013537587,-0.19153613,0.13407528,-9.404425,0.6859408,47.625084,-0.6324163,-2.0965476,-3.217142,-0.34994972,-0.041248154,-0.2714765,23.9375,24.1875,23.625,24.8125,24.6875,24.9375
0.052054323,-1.0294929,-2.422583,-1.5951824,-0.057844877,0.067293495,-0.13223904,-0.37419963,-0.32889304,0.059858847,-3.078377,0.62493753,-0.00048278735,-0.025130427,-0.0026515217,0.0018706649,0.0018300156,0.0018216225,-0.0018920589,0.44821644,-1.4673488,2.0058186,-2.1072924,-1.5706624,2.4231942,-0.016152887,0.045187756,-0.056349136,0.010319666,-0.0025419318,-0.014218127,-0.21068975,0.17238252,-9.500193,0.779936,47.701214,-0.6394644,-2.0797577,-3.1310468,-0.34274602,-0.06662053,-0.26791957,23.9375,24.1875,23.625,24.8125,24.6875,24.9375
0.05405379,-0.7288167,-2.5778694,-1.6606761,-0.06700653,0.06791027,-0.13679494,-0.37424907,-0.3288848,0.059861656,-3.0783339,0.6249673,-0.00046434478,-0.024163116,-0.002259239,0.0004962681,0.0030846684,-0.0014270075,-0.0021576644,0.4481806,-1.4672645,2.0057113,-2.1072567,-1.5706986,2.4231825,-0.016198622,0.046730537,-0.055040218,0.010937858,-0.0022608093,-0.013999501,-0.11492168,0.2873042,-9.3661175,0.7329411,47.65464,-0.68872654,-1.9597026,-3.3369117,-0.34643373,-0.082830384,-0.26888782,23.9375,24.1875,23.625,24.8125,24.6875,24.9375
0.056053955,-0.8994741,-3.2199306,-1.6566441,-0.0655607,0.060694136,-0.13860148,-0.3743036,-0.32889828,0.059864677,-3.0783603,0.6249152,-0.0004328392,-0.026756633,-0.002989201,0.0022155116,0.0014303896,0.0026556824,-0.0031797201,0.44815627,-1.4671683,2.0056012,-2.107268,-1.5706986,2.4231224,-0.016985852,0.047522373,-0.05974734,0.010457846,-0.0025496206,-0.013761117,-0.11492168,0.34476504,-9.481039,0.7486078,47.66987,-0.6106468,-2.0235496,-3.227841,-0.32917845,-0.07302699,-0.26935592,23.9375,24.1875,23.625,24.8125,24.6875,24.9375
0.05805396,-1.474954,-3.174212,-1.6606642,-0.06495144,0.041967303,-0.108028226,-0.3743614,-0.3289091,0.059885904,-3.0783463,0.62497115,-0.0004081978,-0.027469613,-0.0029882272,0.002120305,0.001952122,0.0019546314,-0.0041625677,0.44813207,-1.4670838,2.0054457,-2.107208,-1.5707105,2.423135,-0.017519278,0.04942572,-0.061873306,0.011538825,-0.0027177366,-0.013310151,-0.11492168,0.38307226,-9.404425,0.7709874,47.685097,-0.68129516,-1.9061885,-3.235095,-0.3307454,-0.07643737,-0.28145415,23.9375,24.1875,23.625,24.8125,24.6875,24.9375
0.06005398,-1.4002495,-3.088503,-1.621342,-0.062200293,0.047977,-0.10987208,-0.3744042,-0.32890198,0.059875317,-3.0783174,0.62494546,-0.00041546466,-0.02830255,-0.0030928233,0.002141372,0.0023442423,0.0021159651,-0.003979619,0.44809598,-1.4669875,2.0053613,-2.107196,-1.5707344,2.4230866,-0.017788393,0.051102888,-0.06384448,0.011858341,-0.003145015,-0.013759973,-0.17238252,0.45968673,-9.308657,0.73069996,47.682407,-0.6773118,-1.8884437,-3.2178037,-0.3199321,-0.094779715,-0.26921493,23.9375,24.1875,23.625,24.8125,24.6875,24.9375
0.062053885,-0.56812584,-2.757715,-1.444155,-0.06479159,0.07132005,-0.12994978,-0.37446,-0.32889885,0.059862297,-3.0782726,0.6250131,-0.0004471631,-0.029819295,-0.003382638,0.0026216363,0.0016055335,0.0034505466,-0.0044594835,0.44804773,-1.4668552,2.0052402,-2.1071727,-1.5707468,2.4230864,-0.018671742,0.05262308,-0.066547275,0.011517376,-0.003064534,-0.014161582,-0.11492168,0.4405331,-9.404425,0.7642693,47.668976,-0.6968486,-1.9319515,-3.1983197,-0.32223985,-0.100237764,-0.25657767,23.9375,24.1875,23.625,24.8125,24.6875,24.9375
0.06405462,-1.0008956,-2.6076841,-1.3591932,-0.07270694,0.054808106,-0.11585709,-0.37454212,-0.32893872,0.059904195,-3.0783687,0.62497467,-0.00036321415,-0.03076936,-0.0037378806,0.0029034584,0.00089654274,0.004192001,-0.0041089896,0.4480235,-1.4667708,2.0050485,-2.1071603,-1.5707105,2.423026,-0.01907551,0.053801592,-0.06843238,0.011247729,-0.0027502477,-0.014915362,-0.076614454,0.5554548,-9.289502,0.7463667,47.682407,-0.7095362,-1.8274014,-3.2017062,-0.30501384,-0.11888997,-0.25581917,23.9375,24.1875,23.625,24.8125,24.6875,24.9375
0.06605389,-1.0747992,-2.6199732,-1.4207283,-0.08244446,0.052388024,-0.10762183,-0.3745902,-0.32894275,0.059887208,-3.0783374,0.6250261,-0.00040609366,-0.032360584,-0.0042209374,0.003269382,0.00039446773,0.006025778,-0.00423171,0.44798738,-1.4666384,2.0049393,-2.1071494,-1.5707105,2.423026,-0.019373622,0.055778854,-0.07121092,0.010179839,-0.0031008231,-0.015087727,-0.11492168,0.47884035,-9.308657,0.7642693,47.701214,-0.64394975,-1.8037493,-3.149141,-0.31472343,-0.12859736,-0.2526123,23.9375,24.1875,23.625,24.8125,24.6875,24.9375
0.068053864,-0.96146286,-2.9191709,-1.2376934,-0.07199981,0.05478916,-0.1142027,-0.37466082,-0.32893816,0.059905373,-3.0783224,0.62502295,-0.00034393618,-0.033238456,-0.004205078,0.0020430754,0.0013515108,0.00404383,-0.0047388542,0.44793916,-1.466553,2.0047953,-2.1071131,-1.5707468,2.422978,-0.020190945,0.06021024,-0.07323469,0.009972408,-0.0031093655,-0.015396006,-0.15322891,0.51714754,-9.346964,0.7150385,47.690468,-0.6221937,-1.9802188,-3.1198018,-0.30916455,-0.12941507,-0.2682919,23.9375,24.1875,23.625,24.8125,24.6875,24.9375
0.070053965,-1.229915,-2.8266969,-1.3582386,-0.061867803,0.054136477,-0.110415846,-0.37476256,-0.3289466,0.05992604,-3.0783248,0.6251003,-0.0002453332,-0.034913342,-0.0044540903,0.0040747067,0.0005779711,0.008597107,-0.0052666645,0.44787905,-1.4664218,2.0046036,-2.1071131,-1.5707711,2.422966,-0.020370036,0.058437254,-0.07596045,0.010036143,-0.0043883417,-0.015043798,-0.11492168,0.45968673,-9.232041,0.73069996,47.685097,-0.7463737,-1.7377954,-3.1537504,-0.28673297,-0.12926164,-0.26573384,23.9375,24.1875,23.625,24.8125,24.6875,24.9375
0.07205402,-0.8312254,-2.0534382,-1.308566,-0.06614752,0.06292019,-0.1140997,-0.3748206,-0.3289812,0.059927654,-3.0783603,0.62506825,-0.00028029984,-0.03534649,-0.0042171385,0.0035191232,0.0018256259,0.0076082274,-0.005140666,0.44786704,-1.4662774,2.0044353,-2.1070888,-1.5707353,2.4229295,-0.020733345,0.06054882,-0.07713287,0.01053154,-0.0050862012,-0.0155309355,-0.11492168,0.36391866,-9.193734,0.7486078,47.694054,-0.7323084,-1.8032372,-3.1530824,-0.2921101,-0.121861875,-0.2647588,23.9375,24.1875,23.625,24.8125,24.6875,24.9375
0.07405378,-1.3481345,-2.6384745,-1.2687614,-0.041441657,0.046897966,-0.09988653,-0.37491274,-0.329002,0.059954505,-3.0784032,0.625058,-0.00016596502,-0.036066085,-0.004046612,0.0016567688,0.004150896,0.0048633963,-0.0048683444,0.44783083,-1.4661674,2.0042555,-2.1071012,-1.5707477,2.4228816,-0.021087663,0.066249885,-0.07908772,0.01026912,-0.0059970845,-0.016154248,-0.11492168,0.28730422,-9.212888,0.78217715,47.64389,-0.67619526,-1.9371923,-3.22992,-0.26604408,-0.12654907,-0.2587936,23.9375,24.1875,23.625,24.8125,24.6875,24.9375
0.07605397,-1.2915602,-2.1846359,-1.1693541,-0.040534638,0.055295948,-0.10881468,-0.374964,-0.32898784,0.05992508,-3.078307,0.62517244,-0.00021942095,-0.03727373,-0.003634026,0.0027085172,0.0048948587,0.0073188785,-0.004302485,0.44778258,-1.4660121,2.0041463,-2.107077,-1.5707844,2.4229171,-0.021776346,0.065551944,-0.08087609,0.010869208,-0.0077347867,-0.0174044,-0.095768064,0.28730422,-9.174581,0.8023209,47.679718,-0.6693361,-1.9440451,-3.2054157,-0.27277428,-0.13238594,-0.242809,23.9375,24.1875,23.625,24.8125,24.6875,24.9375
0.078053966,-1.4121948,-1.8241693,-1.2460334,-0.03659628,0.046743825,-0.099331714,-0.37505755,-0.32900527,0.0599504,-3.078329,0.6252151,-0.00018861126,-0.03766069,-0.0034282373,0.0016248585,0.0067552323,0.005070045,-0.003655703,0.4477224,-1.4658792,2.0039308,-2.1070282,-1.5707725,2.422881,-0.022031404,0.06916289,-0.08259158,0.011808377,-0.008439214,-0.018303921,-0.11492168,0.17238252,-9.11712,0.8291774,47.71286,-0.7478116,-1.8623592,-3.2648103,-0.2723881,-0.10893355,-0.23689546,23.9375,24.1875,23.625,24.8125,24.6875,24.9375
0.0800542,-1.0297416,-1.5774779,-1.2168144,-0.03246655,0.051365275,-0.110416,-0.37511435,-0.32901955,0.059942782,-3.078309,0.62513334,-0.0001684784,-0.038455233,-0.0030865788,0.0010977649,0.008814217,0.0049644597,-0.0030770365,0.44772235,-1.4657345,2.0037863,-2.1070168,-1.5708092,2.4228325,-0.02216613,0.071664944,-0.0841624,0.011869352,-0.010253229,-0.019012611,-0.095768064,0.21068975,-9.212888,0.842603,47.711063,-0.7651783,-1.9488418,-3.2602363,-0.25086233,-0.103213914,-0.24090955,23.9375,24.1875,23.625,24.8125,24.6875,24.9375
0.08205398,-0.8674791,-1.3362167,-1.0682976,-0.03235785,0.055401657,-0.11743117,-0.37519816,-0.32902378,0.059944566,-3.0783167,0.62519276,-0.00019103946,-0.03988506,-0.003064124,0.0012084399,0.009285909,0.0059201717,-0.003006906,0.44763824,-1.4655899,2.0036175,-2.106993,-1.5707854,2.4227846,-0.022924276,0.07374814,-0.086667694,0.0116365,-0.011098212,-0.019837493,-0.15322891,0.15322891,-9.11712,0.7553206,47.685097,-0.7386815,-1.9800315,-3.3280554,-0.23588419,-0.091993,-0.22519138,23.9375,24.1875,23.625,24.8125,24.6875,24.9375
0.08405489,-1.0356963,-1.3423275,-1.267074,-0.030333608,0.0482064,-0.10819985,-0.37527,-0.32904145,0.059955873,-3.0783224,0.6251554,-0.00016619176,-0.04012854,-0.003200179,0.00093287363,0.008848938,0.00467824,-0.0032493877,0.44761395,-1.4654578,2.0034378,-2.1069567,-1.5707968,2.4227364,-0.02351318,0.07510364,-0.0876699,0.012209717,-0.010167449,-0.02018511,-0.15322891,0.0,-9.174581,0.83589023,47.694054,-0.6862468,-1.9477484,-3.3431222,-0.21959268,-0.08725093,-0.22036774,23.9375,24.1875,23.625,24.8125,24.6875,24.9375
0.08605375,-1.0523838,-1.0518472,-1.1552575,-0.03500086,0.051705755,-0.113922626,-0.37536338,-0.32906094,0.059979063,-3.0783474,0.6251797,-0.0001061785,-0.041925564,-0.0039572,0.0018110495,0.0075041237,0.0061215265,-0.0031194396,0.44756585,-1.4653252,2.0032332,-2.1069329,-1.5707968,2.4227004,-0.024106447,0.07698222,-0.09185857,0.012633902,-0.009586863,-0.020907214,-0.15322891,-0.019153614,-9.212888,0.78888994,47.658226,-0.7361361,-1.941504,-3.2588875,-0.21813662,-0.10663048,-0.22129929,23.9375,24.1875,23.625,24.8125,24.6875,24.9375
0.08805377,-1.3469722,-1.8832664,-1.1583859,-0.030842902,0.050842457,-0.10593301,-0.37542298,-0.32906637,0.05996388,-3.0783129,0.62519103,-0.00014264265,-0.040732577,-0.0034366292,0.00011610302,0.008755743,0.0017418786,-0.0026824437,0.4475297,-1.465169,2.0030901,-2.1069086,-1.5708083,2.4226758,-0.024517763,0.07885816,-0.090292126,0.013677878,-0.008815265,-0.021757508,-0.15322891,0.019153614,-9.270349,0.83589023,47.666286,-0.7448474,-1.9267383,-3.432694,-0.20846048,-0.11506154,-0.21910056,23.9375,24.1875,23.625,24.8125,24.6875,24.9375
0.09005364,-1.1958417,-1.7513654,-1.2788886,-0.03833495,0.061019324,-0.11593746,-0.3755206,-0.3290683,0.059971187,-3.0782986,0.62518775,-7.9998215e-05,-0.041987147,-0.004051716,0.00057491567,0.007827902,0.0014013345,-0.0019070419,0.4474694,-1.4650124,2.002898,-2.1068957,-1.5708445,2.4226155,-0.025153646,0.08110937,-0.09418981,0.015224603,-0.007836264,-0.023168549,-0.21068975,0.114921674,-9.32781,0.7732232,47.658226,-0.7798201,-1.8973117,-3.4322038,-0.23146558,-0.12600446,-0.19852346,23.9375,24.1875,23.625,24.8125,24.6875,24.9375
0.092054665,-1.4069535,-2.2067006,-1.3453809,-0.037088957,0.066144794,-0.107447,-0.3756144,-0.32910523,0.059993602,-3.0783021,0.6251498,-2.8411712e-05,-0.04173227,-0.0038127191,2.0665344e-05,0.008216164,-4.1749954e-05,-0.0016439746,0.4474693,-1.4648325,2.0026348,-2.106836,-1.5708679,2.4225914,-0.025551796,0.08184532,-0.09382941,0.015595492,-0.007559935,-0.023830669,-0.24899697,0.17238252,-9.423578,0.78217715,47.675243,-0.75507593,-1.8984268,-3.4336414,-0.23215711,-0.13415971,-0.18956986,23.9375,24.1875,23.625,24.8125,24.6875,24.9375
0.09405494,-1.1337001,-1.8413216,-1.3564496,-0.052699856,0.08582498,-0.10758249,-0.37571096,-0.3290747,0.05997408,-3.0782466,0.6253112,-7.458873e-05,-0.04276091,-0.0038712616,-0.00034567245,0.008851783,-0.0006554775,-0.0017606415,0.44732517,-1.4646635,2.0024903,-2.1068237,-1.5708684,2.4225552,-0.026147837,0.08475908,-0.09630483,0.015985325,-0.007873482,-0.024307419,-0.24899697,0.17238252,-9.423578,0.7665104,47.657326,-0.7107973,-2.0249228,-3.56291,-0.20944609,-0.13956992,-0.17397231,23.9375,24.1875,23.625,24.8125,24.6875,24.9375
0.09605444,-1.9508628,-2.4646392,-1.4588653,-0.044890653,0.07314806,-0.102402695,-0.37576675,-0.3290694,0.059944373,-3.0781777,0.62522036,-0.0001595603,-0.04357423,-0.0035949496,0.000469803,0.00893294,0.0010741313,-0.0017442922,0.44728878,-1.4644724,2.0023339,-2.1067636,-1.5709041,2.422471,-0.02683734,0.08393121,-0.09735723,0.016342808,-0.00869895,-0.02501061,-0.19153613,0.22984336,-9.423578,0.85155696,47.658226,-0.7508035,-1.7704452,-3.5823116,-0.2160896,-0.12205728,-0.14914615,23.9375,24.1875,23.625,24.8125,24.6875,24.9375
0.09805421,-2.1480901,-2.4532247,-1.4964168,-0.04458728,0.06762414,-0.100718886,-0.37585983,-0.32910776,0.05995809,-3.078219,0.625229,-0.00016497266,-0.04527452,-0.0037645658,-0.0002422216,0.009645668,0.0005507147,-0.0019055329,0.44725254,-1.4642911,2.0020945,-2.1067283,-1.5708688,2.422435,-0.027764495,0.088627,-0.10081521,0.015887013,-0.009123437,-0.025773054,-0.30645782,0.2681506,-9.3661175,0.7978386,47.66987,-0.715014,-1.8440356,-3.6082108,-0.21053833,-0.13421416,-0.1578257,23.9375,24.1875,23.625,24.8125,24.6875,24.9375
0.100054055,-1.4646035,-1.9725844,-1.6208069,-0.0507612,0.075471334,-0.1133672,-0.37594733,-0.329094,0.059966043,-3.0781605,0.625254,-0.00014769562,-0.045746714,-0.003401797,0.00013823305,0.010479047,0.0016049147,-0.0014281431,0.44718045,-1.4641476,2.0019014,-2.1066558,-1.5709175,2.4223862,-0.02804488,0.08828584,-0.10139858,0.016223554,-0.010332393,-0.026528165,-0.36391866,0.28730422,-9.461885,0.779936,47.629562,-0.6660134,-1.8692842,-3.6172917,-0.19122082,-0.10505864,-0.13112311,23.9375,24.1875,23.625,24.8125,24.6875,24.9375
0.10205427,-1.7595167,-2.2841637,-1.6575295,-0.051218368,0.06606722,-0.10436198,-0.37604773,-0.32912758,0.059972916,-3.0782065,0.6251868,-0.00011536448,-0.04822188,-0.0038931326,0.0010073966,0.010047252,0.003838801,-0.0024399864,0.44714415,-1.4639548,2.001673,-2.1066558,-1.5709051,2.4223022,-0.028958455,0.09099309,-0.106419384,0.016338259,-0.010918517,-0.026425866,-0.2681506,0.30645782,-9.442732,0.8112748,47.672558,-0.68416154,-1.7770573,-3.623602,-0.18557404,-0.110325836,-0.1176081,23.9375,24.1875,23.625,24.8125,24.6875,24.9375
0.10405416,-1.1278119,-2.2276037,-1.6535223,-0.057870194,0.07786912,-0.11508554,-0.3761335,-0.3291173,0.059962597,-3.0781527,0.62523425,-0.0001120673,-0.048356656,-0.0033396743,-0.00028798965,0.011595411,0.0011324139,-0.0032132037,0.44707176,-1.4637861,2.0015051,-2.106632,-1.5709413,2.4222665,-0.02995383,0.09398092,-0.106899336,0.016939085,-0.011144943,-0.026646774,-0.24899697,0.4405331,-9.308656,0.7642693,47.686886,-0.6771561,-1.801954,-3.559584,-0.17553422,-0.104936525,-0.11979318,23.9375,24.1875,23.625,24.8125,24.6875,24.9375
0.10605385,-1.5438787,-2.6058,-2.0254169,-0.05277889,0.062465537,-0.09918347,-0.3762369,-0.32913736,0.059964452,-3.0781264,0.62528515,-0.00011438122,-0.05029599,-0.004139606,0.0011927251,0.010659865,0.003834017,-0.001879996,0.44702387,-1.46357,2.0012515,-2.1065838,-1.5709532,2.4222538,-0.02997413,0.09498766,-0.11162231,0.017814545,-0.011478283,-0.027996894,-0.21068975,0.36391866,-9.442732,0.7866488,47.672558,-0.6939107,-1.8354976,-3.4951277,-0.17936733,-0.080489516,-0.09490591,23.9375,24.1875,23.625,24.8125,24.6875,24.9375
0.10805376,-1.7177699,-3.1116726,-1.9063578,-0.057621352,0.06025638,-0.097927324,-0.37634623,-0.32912558,0.05995666,-3.0780802,0.62529534,-0.00011126597,-0.051776916,-0.004499533,0.0018775783,0.009558725,0.0053096935,-0.002262246,0.4469275,-1.463366,2.001036,-2.1065476,-1.5709895,2.42217,-0.0308572,0.09606173,-0.11436306,0.017670995,-0.011130264,-0.028496321,-0.24899697,0.3256114,-9.5385,0.7642693,47.69763,-0.69719476,-1.7367008,-3.445016,-0.16705234,-0.08663197,-0.08694729,23.9375,24.1875,23.625,24.8125,24.6875,24.9375
0.11005378,-1.9552611,-3.3876266,-1.9985499,-0.06433157,0.054743096,-0.09461731,-0.37643847,-0.3291336,0.05997208,-3.0780396,0.6252684,-8.123563e-05,-0.052760653,-0.0045264577,0.0018195297,0.009927176,0.004903631,-0.0045557306,0.44689125,-1.4631977,2.0007956,-2.1064637,-1.5710372,2.4221222,-0.03157893,0.098227665,-0.1168225,0.018489562,-0.011290019,-0.026922604,-0.17238252,0.49799395,-9.557653,0.7351769,47.672558,-0.67764103,-1.698544,-3.4233541,-0.1658141,-0.092282034,-0.08930289,23.9375,24.1875,23.625,24.8125,24.6875,24.9375
0.112053856,-1.5488366,-3.3800962,-2.0965147,-0.074477494,0.061024435,-0.0902569,-0.37656617,-0.32915428,0.059989758,-3.0780733,0.62533396,-1.6946535e-05,-0.05390822,-0.0046728794,0.0025190362,0.009667032,0.006467694,-0.005642262,0.44680703,-1.4630059,2.0005434,-2.1064637,-1.5710257,2.4220748,-0.032025397,0.09870705,-0.11901612,0.018682178,-0.011733575,-0.02628113,-0.22984336,0.4213795,-9.615114,0.8247004,47.67793,-0.6241476,-1.6455457,-3.428186,-0.1673851,-0.07519399,-0.08803466,23.9375,24.1875,23.625,24.8125,24.6875,24.9375
0.114053875,-1.7096812,-3.4948952,-1.9515519,-0.07759773,0.056566577,-0.099366315,-0.37666512,-0.3291658,0.059987493,-3.0780458,0.62530905,-5.4278815e-05,-0.054728568,-0.004972638,0.0016625269,0.009849425,0.004651411,-0.0060657864,0.4467469,-1.4627889,2.0002925,-2.1063917,-1.5710372,2.4220028,-0.032608487,0.102605686,-0.121432655,0.01891362,-0.011118964,-0.026439497,-0.22984336,0.36391866,-9.634268,0.8179876,47.666286,-0.7145411,-1.68233,-3.4490645,-0.15447551,-0.08624783,-0.08736268,23.9375,24.1875,23.625,24.8125,24.6875,24.9375
0.11605456,-1.3818816,-3.015538,-1.9709077,-0.082257725,0.060938444,-0.098944254,-0.37678313,-0.3291775,0.059982996,-3.0780299,0.6252862,-3.4627749e-06,-0.056135338,-0.005068097,0.0024431471,0.00965504,0.006324591,-0.006245387,0.44668666,-1.4625611,2.0000513,-2.1063917,-1.5710734,2.4219306,-0.03331284,0.10332672,-0.12412625,0.019293293,-0.011671177,-0.026961822,-0.17238252,0.4213795,-9.672575,0.8224646,47.704796,-0.7223245,-1.6685815,-3.4266067,-0.14605343,-0.08970808,-0.08389852,23.9375,24.1875,23.625,24.8125,24.6875,24.9375
0.11805443,-2.0600903,-3.3894382,-2.0427363,-0.0630589,0.03556968,-0.08859446,-0.3768998,-0.32919937,0.05999939,-3.078021,0.62530416,4.6622536e-05,-0.057156768,-0.0054223915,0.0010350195,0.009675896,0.0034244533,-0.0074882717,0.44663832,-1.4623555,1.9997758,-2.106344,-1.5710973,2.4218948,-0.03438763,0.10879979,-0.12696311,0.019276211,-0.010442644,-0.0267938,-0.21068975,0.4405331,-9.653421,0.779936,47.70032,-0.6174389,-1.7355223,-3.3447495,-0.1506127,-0.08734901,-0.07883862,23.9375,24.1875,23.625,24.8125,24.6875,24.9375
0.120053865,-1.3727286,-2.9590857,-2.109023,-0.072523475,0.0470093,-0.09336209,-0.3770127,-0.32920885,0.060008235,-3.07801,0.6253991,6.118374e-05,-0.058315013,-0.005798977,0.0024813355,0.0076986263,0.006062523,-0.008842116,0.44655395,-1.4621643,1.9995359,-2.1063077,-1.5710968,2.4218712,-0.035140138,0.10743331,-0.1287735,0.019216985,-0.009802064,-0.026192972,-0.11492168,0.40222588,-9.691729,0.7172743,47.689575,-0.58939874,-1.7790687,-3.40994,-0.12988216,-0.0988648,-0.08477977,23.9375,24.1875,23.625,24.8125,24.6875,24.9375
0.122053795,-1.4143263,-3.0876906,-1.9269432,-0.06466204,0.041933835,-0.09711668,-0.37712812,-0.32922795,0.060007315,-3.077989,0.6254127,5.5426e-05,-0.058826376,-0.005739265,0.0012240395,0.00964719,0.0039522313,-0.008468464,0.44649395,-1.4619232,1.9992608,-2.10626,-1.5711092,2.4218225,-0.03512925,0.11167716,-0.13070692,0.019653345,-0.010651881,-0.026552388,-0.11492168,0.38307226,-9.615114,0.8090337,47.67614,-0.630439,-1.707666,-3.45893,-0.13157363,-0.09970365,-0.08618881,23.9375,24.1875,23.625,24.8125,24.6875,24.9375
0.12405453,-0.85631156,-2.155844,-1.7028561,-0.07389836,0.057740357,-0.09805868,-0.37726763,-0.32923952,0.06002469,-3.078001,0.6254914,0.00014284991,-0.05976424,-0.0061466927,0.0023976187,0.009499906,0.006389197,-0.007636259,0.44639826,-1.4617199,1.9989961,-2.1062596,-1.5711216,2.4217746,-0.034573395,0.111222155,-0.13303202,0.020173559,-0.011573431,-0.02682663,-0.11492168,0.36391866,-9.595961,0.779936,47.684196,-0.70792806,-1.6636517,-3.2946792,-0.11237386,-0.08213001,-0.08500887,23.9375,24.1875,23.625,24.8125,24.6875,24.9375
0.12605439,-1.2591445,-2.184594,-1.7161323,-0.05911612,0.05014882,-0.10006838,-0.37739736,-0.3292781,0.060046904,-3.0780344,0.6254222,0.00021301853,-0.062059235,-0.0061423155,0.00264732,0.010453047,0.0074761007,-0.009196143,0.44636178,-1.4614909,1.9986838,-2.1062233,-1.571134,2.421691,-0.0357361,0.11479749,-0.1377003,0.020701887,-0.0129097,-0.026424555,-0.095768064,0.28730422,-9.442732,0.8023209,47.678825,-0.7276031,-1.7698525,-3.3728032,-0.09924546,-0.08393898,-0.0909846,23.9375,24.1875,23.625,24.8125,24.6875,24.9375
0.12805448,-0.97818583,-2.0297635,-1.5911081,-0.044190183,0.057159908,-0.103933185,-0.37750322,-0.32927737,0.0600469,-3.0779881,0.6254324,0.00021640614,-0.062063925,-0.0056263236,0.0018995786,0.0119717745,0.0055338102,-0.010540063,0.44628948,-1.4612867,1.9984444,-2.1061637,-1.5711702,2.421631,-0.036333058,0.11653539,-0.13819706,0.021868855,-0.013440009,-0.025676139,-0.038307227,0.28730422,-9.385271,0.83813137,47.693153,-0.6449794,-1.7035966,-3.403664,-0.080048665,-0.05794729,-0.09499028,23.9375,24.1875,23.625,24.8125,24.6875,24.9375
0.1300541,-1.6109184,-2.2368538,-1.5426196,-0.032623924,0.038354576,-0.0919069,-0.37765723,-0.32929173,0.060053896,-3.0779867,0.62545156,0.00028064448,-0.06250791,-0.006031741,0.0014817633,0.011275844,0.0034535711,-0.011819167,0.4461934,-1.4610223,1.9981331,-2.1061509,-1.5711936,2.4215474,-0.036979478,0.11909385,-0.14037004,0.02305269,-0.0119154155,-0.025045307,-0.05746084,0.28730422,-9.308656,0.8023209,47.691364,-0.63540816,-1.7650785,-3.3621926,-0.07776172,-0.07589776,-0.107329875,23.9375,24.1875,23.625,24.8125,24.6875,24.9375
0.13205406,-1.227646,-1.7490128,-1.294021,-0.043188468,0.040799227,-0.10282319,-0.377784,-0.32930547,0.06007495,-3.0779674,0.6255247,0.0003322523,-0.064216696,-0.006393229,0.0024811712,0.009664253,0.004679735,-0.012675122,0.446121,-1.4608183,1.9978455,-2.1060908,-1.5712174,2.4215233,-0.038439933,0.12004095,-0.1439093,0.02383817,-0.010996047,-0.025649741,-0.19153613,0.2681506,-9.308657,0.83365434,47.661808,-0.65541756,-1.7693684,-3.3862205,-0.068786345,-0.07000604,-0.1109547,23.9375,24.1875,23.625,24.8125,24.6875,24.9375
0.13405378,-1.026684,-1.662933,-1.2125967,-0.039283898,0.04826136,-0.1055325,-0.37790146,-0.32933438,0.060080327,-3.0779397,0.62563336,0.00028754928,-0.063270666,-0.0066056466,0.00017654889,0.010805152,-0.000685399,-0.011107081,0.44606096,-1.460565,1.9975337,-2.1060064,-1.571205,2.4215348,-0.038044773,0.12464308,-0.14392032,0.024573676,-0.009710068,-0.026824124,-0.24899697,0.15322891,-9.193734,0.80456203,47.679718,-0.6566335,-1.9085873,-3.3330307,-0.07164559,-0.10154542,-0.113189645,23.9375,24.1875,23.625,24.8125,24.6875,24.9375
0.13605374,-1.3883203,-2.0491102,-1.3263048,-0.038456984,0.049935658,-0.08841125,-0.378033,-0.32934654,0.06006351,-3.07792,0.62559044,0.0003210017,-0.06427484,-0.007453511,0.0005376541,0.011081926,-0.0002850434,-0.0105964625,0.44598937,-1.4602889,1.9972695,-2.1060183,-1.5712408,2.4214392,-0.037062198,0.12712784,-0.14779149,0.025718542,-0.010138356,-0.026349163,-0.22984336,0.24899697,-9.251195,0.7620334,47.65912,-0.7102138,-1.7662227,-3.293822,-0.061482295,-0.11477813,-0.11759271,23.9375,24.1875,23.625,24.8125,24.6875,24.9375
0.13805467,-1.5369643,-2.2414944,-1.1452398,-0.039361417,0.0574844,-0.09970193,-0.37818104,-0.32936585,0.060095612,-3.077912,0.625666,0.0004302103,-0.06483441,-0.0068388786,0.0004826432,0.012010843,-0.0008170844,-0.01205628,0.4459171,-1.4600731,1.9969462,-2.1059706,-1.5712775,2.4214153,-0.03828363,0.12788099,-0.14877872,0.026833978,-0.0107452925,-0.026110025,-0.28730422,0.34476504,-9.212888,0.77545905,47.66987,-0.7069642,-1.897079,-3.4413881,-0.06590451,-0.10339019,-0.13054088,23.9375,24.1875,23.625,24.8125,24.6875,24.9375
0.14005464,-1.154616,-2.1087856,-1.0745213,-0.05182097,0.075543046,-0.10908152,-0.37831113,-0.32937697,0.060094018,-3.0779083,0.62564605,0.0004114825,-0.06562443,-0.006861912,-0.00023815148,0.012256108,-0.0027267602,-0.012927067,0.44582066,-1.45982,1.9966587,-2.105922,-1.571277,2.421307,-0.03933134,0.13119291,-0.15099205,0.027560886,-0.010147189,-0.026286276,-0.2681506,0.2681506,-9.232041,0.83365434,47.66987,-0.70534784,-1.8285329,-3.38902,-0.07207443,-0.120868646,-0.13890263,23.9375,24.1875,23.625,24.8125,24.6875,24.9375
0.14205526,-1.6092434,-2.1209269,-0.8587225,-0.05607499,0.06843502,-0.103093185,-0.37843904,-0.32937193,0.060099717,-3.0778258,0.62570524,0.00042345165,-0.066309564,-0.0072714114,0.00038776666,0.01194076,-0.0019475078,-0.012469273,0.44573674,-1.4595804,1.9963583,-2.1058257,-1.5713371,2.4212708,-0.03912644,0.13168919,-0.15320373,0.02843481,-0.010202992,-0.026537659,-0.22984336,0.30645782,-9.097966,0.78217715,47.687782,-0.70544887,-1.5697067,-3.3821816,-0.05815264,-0.1163967,-0.15166496,23.9375,24.1875,23.625,24.8125,24.6875,24.9375
0.14405389,-1.2372494,-2.0633583,-0.9063756,-0.059431754,0.07453706,-0.106978625,-0.3785827,-0.3294194,0.0601122,-3.0778525,0.6256908,0.00044057635,-0.067598335,-0.007544961,-0.00021068646,0.012765766,-0.0026661935,-0.01222411,0.4456886,-1.4592915,1.9959987,-2.105778,-1.5713257,2.4212105,-0.039460763,0.1358,-0.15645623,0.028581599,-0.010644083,-0.027114203,-0.40222588,0.34476504,-9.136273,0.8112748,47.657326,-0.7019372,-1.6922907,-3.41603,-0.054578338,-0.11291768,-0.16410369,23.9375,24.1875,23.625,24.8125,24.6875,24.9375
0.14605443,-1.5862007,-2.3895867,-1.0264702,-0.04594786,0.053720184,-0.101666935,-0.37873098,-0.32942617,0.06012295,-3.077836,0.62584186,0.00046822333,-0.06792749,-0.007385074,-0.0009431087,0.013405117,-0.0041009393,-0.012645856,0.44556823,-1.4590513,1.9956998,-2.1057417,-1.5713257,2.4211867,-0.040055428,0.138012,-0.15730853,0.028790591,-0.010604417,-0.027286708,-0.36391866,0.22984336,-9.021352,0.7866488,47.678825,-0.7437277,-1.6338449,-3.3814504,-0.04607621,-0.1275902,-0.1710014,23.9375,24.1875,23.625,24.8125,24.6875,24.9375
0.14805439,-1.439581,-2.3092887,-1.0744617,-0.035864487,0.04894098,-0.10113777,-0.37882423,-0.32943913,0.06007872,-3.0777466,0.6257457,0.00033783284,-0.06905873,-0.007882359,-0.00034017852,0.013574338,-0.0026330538,-0.012111201,0.44553262,-1.4587274,1.9954232,-2.1056583,-1.5713614,2.4211028,-0.0395991,0.13933793,-0.16029416,0.029200103,-0.011399076,-0.027360464,-0.34476504,0.24899697,-9.040505,0.85155696,47.670765,-0.8028594,-1.6780373,-3.4531407,-0.042956892,-0.12887667,-0.18766385,23.9375,24.1875,23.625,24.8125,24.6875,24.9375
0.1500544,-1.1488689,-2.212209,-0.9516879,-0.03908521,0.049803663,-0.103661284,-0.37899986,-0.32945693,0.060124133,-3.0777583,0.62584436,0.00046298304,-0.0699475,-0.007881152,-0.00017890648,0.013531418,-0.002581766,-0.012277525,0.44542438,-1.4584993,1.9950527,-2.1055982,-1.5713853,2.4210548,-0.040380254,0.14062636,-0.16226071,0.029811032,-0.011384058,-0.027975153,-0.22984336,0.3256114,-9.078813,0.7777002,47.615234,-0.80393755,-1.6639752,-3.5302434,-0.029411882,-0.12017824,-0.19085607,23.9375,24.1875,23.625,24.8125,24.6875,24.9375
0.15205428,-1.5328786,-2.2420225,-1.0196717,-0.04173164,0.043434482,-0.100626335,-0.37910828,-0.32948765,0.060091887,-3.0777144,0.6258532,0.00034461787,-0.07022416,-0.008122247,-0.001284716,0.014718424,-0.004558113,-0.011161391,0.4453764,-1.4581745,1.9947528,-2.1055381,-1.5713733,2.4210181,-0.040015202,0.14430968,-0.16391717,0.030079072,-0.011609854,-0.02872348,-0.22984336,0.36391866,-9.078813,0.8179876,47.655537,-0.8303784,-1.7065079,-3.4939044,-0.0205024,-0.10471621,-0.21009889,23.9375,24.1875,23.625,24.8125,24.6875,24.9375
0.15405424,-1.3039677,-2.2132106,-0.9311299,-0.051403757,0.056346633,-0.10103515,-0.3792619,-0.32948396,0.06009739,-3.0776618,0.6258992,0.00035039618,-0.07157193,-0.008830842,0.001204532,0.012703064,-0.0003493176,-0.010123674,0.44525653,-1.4579,1.9944166,-2.1054537,-1.5714101,2.420934,-0.039873093,0.14168687,-0.16697761,0.031092715,-0.01161015,-0.029617837,-0.22984336,0.30645782,-9.040505,0.7642693,47.660015,-0.88829577,-1.4783556,-3.3340085,-0.02933355,-0.10361119,-0.22562715,23.9375,24.1875,23.625,24.8125,24.6875,24.9375
0.15605429,-1.2178024,-2.174714,-1.0975523,-0.04749482,0.045424424,-0.10159855,-0.37940314,-0.32950026,0.060086824,-3.0776052,0.6259274,0.00033746354,-0.07260841,-0.009052791,0.0014888173,0.012169003,-0.00078762823,-0.011350666,0.44518402,-1.4575878,1.9940809,-2.1053936,-1.5714453,2.4208865,-0.040812917,0.14340171,-0.16988169,0.03244356,-0.010943904,-0.02933002,-0.21068975,0.2681506,-9.059659,0.8157518,47.637623,-0.9145422,-1.5255957,-3.3724875,-0.048158765,-0.124039635,-0.21513864,23.9375,24.1875,23.625,24.8125,24.6875,24.9375
0.15805456,-0.8420788,-2.042721,-1.0630898,-0.04981984,0.052928552,-0.103217885,-0.3795796,-0.3295074,0.06010411,-3.0775583,0.625975,0.00044719566,-0.073524594,-0.008401824,0.0004549415,0.013846732,-0.003190718,-0.012636181,0.44508767,-1.4572991,1.9937099,-2.105345,-1.5715173,2.4208262,-0.042496044,0.14716683,-0.17201743,0.0337037,-0.011424997,-0.029725708,-0.15322891,0.24899697,-9.155427,0.7732232,47.664497,-0.8515802,-1.5185696,-3.373173,-0.033313118,-0.116792105,-0.23365301,23.9375,24.1875,23.625,24.8125,24.6875,24.9375
0.16005388,-0.72599036,-2.114937,-1.1393288,-0.0349775,0.045336068,-0.10155001,-0.3797092,-0.32953134,0.06009918,-3.0775423,0.6259502,0.00040281797,-0.073062964,-0.009463122,4.8640453e-05,0.013878195,-0.0049796477,-0.008644447,0.44501626,-1.4570111,1.9933852,-2.1052735,-1.5715173,2.4207416,-0.040585786,0.1493011,-0.17378265,0.0349574,-0.0106867775,-0.031807255,-0.1340753,0.22984336,-9.251195,0.83365434,47.63046,-0.9259007,-1.4490857,-3.3905792,-0.041760366,-0.122453466,-0.23520301,23.9375,24.1875,23.625,24.8125,24.6875,24.9375
0.16205408,-1.004476,-1.9653438,-1.3980436,-0.034998562,0.03292076,-0.09851138,-0.3798536,-0.32955793,0.060092047,-3.0775049,0.6259795,0.0003679462,-0.07377508,-0.010269767,0.0006594819,0.013466765,-0.0045784703,-0.0074132383,0.44494456,-1.4566872,1.9930257,-2.1052015,-1.5715293,2.4206932,-0.039830547,0.15058081,-0.17695695,0.03631052,-0.010493904,-0.03228165,-0.038307227,0.28730422,-9.251195,0.87393653,47.66539,-1.040127,-1.4844997,-3.3800325,-0.064298674,-0.12878929,-0.24355817,23.9375,24.1875,23.625,24.8125,24.6875,24.9375
0.16405433,-0.9695987,-2.1660082,-1.5412964,-0.039209537,0.03408964,-0.09919119,-0.38000157,-0.32958344,0.060072646,-3.0774782,0.62603277,0.00033404634,-0.075079635,-0.0095844,0.0006165065,0.014351677,-0.0050575254,-0.010031468,0.44485977,-1.4563508,1.9926909,-2.1051767,-1.5715293,2.4206452,-0.041847125,0.15245502,-0.17927524,0.037569754,-0.011090048,-0.031677365,-0.05746084,0.30645782,-9.346964,0.800085,47.67345,-0.9891242,-1.5407296,-3.4158142,-0.07405439,-0.11567257,-0.25860786,23.9375,24.1875,23.625,24.8125,24.6875,24.9375
0.16605428,-0.91151375,-2.1581647,-1.873944,-0.05864604,0.039440036,-0.09886174,-0.38013646,-0.3295901,0.06006566,-3.0773854,0.6260133,0.00022948389,-0.07438412,-0.009629642,-0.001583951,0.016569523,-0.011454415,-0.010053806,0.44477585,-1.4560255,1.9923071,-2.105008,-1.5715655,2.4205613,-0.041625675,0.15801316,-0.18114951,0.040610142,-0.010341151,-0.031432856,-0.05746084,0.34476504,-9.423578,0.8806493,47.691364,-1.0086901,-1.6448615,-3.52377,-0.11039891,-0.1309132,-0.26993337,23.9375,24.1875,23.625,24.8125,24.6875,24.9375
0.1680544,-0.8318076,-2.7886992,-2.0255713,-0.06281912,0.044882014,-0.09559245,-0.38027862,-0.3296021,0.06007884,-3.077347,0.6260829,0.00020995965,-0.07575232,-0.008862309,-0.0014740698,0.017688937,-0.012211215,-0.011136185,0.44467917,-1.4557616,1.991959,-2.1048996,-1.5715774,2.4205132,-0.043786578,0.15990537,-0.18403338,0.042766582,-0.011030517,-0.032508396,-0.019153614,0.2681506,-9.346964,0.83365434,47.670765,-0.9680518,-1.6641496,-3.4299955,-0.15483603,-0.13857624,-0.2895095,23.9375,24.1875,23.625,24.8125,24.6875,24.9375
0.17005461,-1.4853318,-3.0271096,-1.9361582,-0.0711659,0.040749457,-0.09379408,-0.38045475,-0.3296199,0.060078036,-3.077278,0.6261055,0.00023379755,-0.07605128,-0.0093623735,-0.0027848731,0.019247903,-0.013792502,-0.008892548,0.44459555,-1.4554006,1.9915408,-2.1048162,-1.571638,2.4204528,-0.042609725,0.16426939,-0.18582767,0.042293567,-0.011765858,-0.03357161,-0.019153614,0.38307226,-9.557653,0.7642693,47.70211,-1.0135117,-1.7729197,-3.4746833,-0.16939515,-0.11363508,-0.2867106,23.9375,24.1875,23.625,24.8125,24.6875,24.9375
0.17205466,-1.3737537,-2.8984926,-1.9585165,-0.07900005,0.042592842,-0.09699105,-0.3805768,-0.32962495,0.060041334,-3.0772054,0.62614816,6.980139e-05,-0.07666627,-0.009467698,-0.0032838697,0.01987522,-0.015326126,-0.009428142,0.4444877,-1.4550642,1.9912289,-2.1047199,-1.5716256,2.420381,-0.04299551,0.16709659,-0.1881392,0.0434313,-0.0116813155,-0.033419207,0.0,0.3256114,-9.557653,0.8179876,47.653748,-1.1596787,-1.9132361,-3.4593973,-0.17540494,-0.13263717,-0.31479797,23.9375,24.1875,23.625,24.8125,24.6875,24.9375
0.17405392,-1.4245961,-2.786297,-1.6847249,-0.064464144,0.035768658,-0.091506526,-0.38073936,-0.32965294,0.060051877,-3.077187,0.62608737,0.00013101747,-0.078864165,-0.009584182,-0.0023961049,0.019034626,-0.013365696,-0.010391677,0.4444269,-1.454752,1.9908441,-2.1046603,-1.5716738,2.420285,-0.044651296,0.1686722,-0.19201124,0.043593597,-0.0117746005,-0.034109097,-0.038307227,0.30645782,-9.576807,0.85826975,47.66091,-1.0452055,-1.86401,-3.4172077,-0.20369187,-0.12517741,-0.32440877,23.9375,24.1875,23.625,24.8125,24.6875,24.9375
0.17605405,-0.6991649,-2.3940742,-1.9423697,-0.06226604,0.03937848,-0.094314285,-0.38089564,-0.32967204,0.060061183,-3.0771341,0.62619203,9.451759e-05,-0.079675645,-0.009817556,-0.0022044233,0.01860973,-0.014193984,-0.011550711,0.44433072,-1.4544401,1.9904484,-2.1045392,-1.5716852,2.4202611,-0.045404088,0.17035833,-0.19474171,0.0451995,-0.011039998,-0.033702783,-0.019153614,0.24899697,-9.519346,0.8806493,47.657326,-1.04761,-1.8383529,-3.4453084,-0.21349883,-0.12431155,-0.3452263,23.9375,24.1875,23.625,24.8125,24.6875,24.9375
0.17805423,-1.0638453,-2.6844416,-1.8175273,-0.052248646,0.026177267,-0.09866398,-0.38107598,-0.32970032,0.06006006,-3.0771122,0.62622666,6.206271e-05,-0.07953873,-0.009584492,-0.0027388334,0.019462911,-0.015564965,-0.01307569,0.4442226,-1.4540683,1.9900182,-2.1044557,-1.5716852,2.4201777,-0.045562245,0.1714418,-0.19494967,0.045929674,-0.011221991,-0.032335285,-0.19153613,0.3256114,-9.519346,0.82694155,47.689575,-1.0589696,-1.7935904,-3.472379,-0.2470681,-0.13601294,-0.37932545,23.9375,24.1875,23.625,24.8125,24.6875,24.9375
0.18005401,-1.1141502,-2.9218915,-1.8189223,-0.056117386,0.040171348,-0.1021222,-0.38119385,-0.32970682,0.0600488,-3.0770395,0.62624913,-4.501019e-05,-0.08144672,-0.009552559,-0.0018338913,0.018783176,-0.011373477,-0.013632523,0.44413826,-1.453781,1.9896945,-2.1043246,-1.5716981,2.420117,-0.04649268,0.17134869,-0.19638313,0.043381926,-0.012423402,-0.0327036,-0.15322891,0.36391866,-9.5385,0.8940802,47.70211,-1.0864449,-1.6971889,-3.5808213,-0.25984815,-0.122290224,-0.39958423,23.9375,24.1875,23.625,24.8125,24.6875,24.9375
0.18205406,-1.3427464,-2.4538138,-1.5657784,-0.08497878,0.0614293,-0.10085639,-0.38140127,-0.32973307,0.060066488,-3.0770235,0.6263413,2.0383013e-05,-0.08217852,-0.009980461,-0.0020427562,0.018678796,-0.0126170525,-0.01230899,0.4440183,-1.4534206,1.9892391,-2.1042645,-1.5717219,2.4200568,-0.04672969,0.17403692,-0.19923973,0.044622146,-0.011800648,-0.03426444,-0.15322891,0.34476504,-9.557653,0.8985519,47.668976,-1.1409694,-1.8524745,-3.4765487,-0.28162184,-0.13519667,-0.4067449,23.9375,24.1875,23.625,24.8125,24.6875,24.9375
0.1840542,-1.7801092,-2.8392735,-1.4985776,-0.08483593,0.070496604,-0.09204437,-0.38155466,-0.32975683,0.06006039,-3.0769615,0.6263094,3.0717993e-06,-0.08276796,-0.009750101,-0.002518307,0.019426936,-0.014798606,-0.012179331,0.44395772,-1.4530724,1.9888433,-2.1041677,-1.5717696,2.4199846,-0.047830045,0.17661987,-0.20154084,0.04662697,-0.011543606,-0.03549342,-0.15322891,0.38307226,-9.519346,0.8560339,47.705692,-1.1062498,-1.7070022,-3.5539155,-0.29695538,-0.14005877,-0.4143858,23.9375,24.1875,23.625,24.8125,24.6875,24.9375
0.18605505,-1.7933878,-2.8410869,-1.1842047,-0.08123957,0.08026324,-0.102066,-0.38170832,-0.32977876,0.0600547,-3.0769298,0.626321,-5.854008e-05,-0.083282635,-0.01013482,-0.001961849,0.018315436,-0.014148867,-0.01092956,0.44386175,-1.4527369,1.9884609,-2.1040723,-1.5717696,2.4199002,-0.04802275,0.17658019,-0.2029037,0.04696,-0.01082621,-0.03693653,-0.2681506,0.34476507,-9.308657,0.87617236,47.66808,-1.1295578,-1.6937579,-3.6101766,-0.34204772,-0.15881395,-0.4154374,23.9375,24.1875,23.625,24.8125,24.6875,24.9375
0.18805441,-1.6330945,-2.6140344,-1.4271604,-0.0514263,0.08094804,-0.10104918,-0.3818992,-0.32981196,0.060070306,-3.0769029,0.6263525,-9.549383e-06,-0.085367225,-0.010540875,-0.0011571201,0.016975006,-0.01092315,-0.01067215,0.44377753,-1.4523767,1.988005,-2.1039894,-1.5718054,2.4198394,-0.048963692,0.17772524,-0.20565334,0.04507279,-0.011013217,-0.038132474,-0.24899697,0.22984336,-9.346964,0.9254084,47.65912,-1.1471943,-1.6883054,-3.5971565,-0.34534755,-0.17193286,-0.4335577,23.9375,24.1875,23.625,24.8125,24.6875,24.9375
0.1900544,-1.8653233,-1.6877453,-1.3026056,-0.041858852,0.07219616,-0.10428052,-0.3820928,-0.32984406,0.060080286,-3.0769222,0.6264144,2.26508e-05,-0.0878063,-0.011221928,-0.00041495255,0.015534478,-0.0071100136,-0.010860611,0.4436572,-1.4520289,1.9875864,-2.103954,-1.5717934,2.4197555,-0.049593974,0.17967923,-0.20897746,0.042380515,-0.011363321,-0.038571097,-0.17238252,0.13407528,-9.3661175,0.8023209,47.653748,-1.1557319,-1.6498716,-3.5798204,-0.34529865,-0.17085311,-0.44008768,23.9375,24.1875,23.625,24.8125,24.6875,24.9375
0.19205453,-1.832598,-1.7385954,-1.3482816,-0.023576904,0.06851768,-0.10373318,-0.38224325,-0.32986656,0.060063947,-3.076869,0.62642115,-5.3969354e-05,-0.08971592,-0.01209483,0.0005237726,0.013701802,-0.0039497246,-0.009119795,0.4435732,-1.4516695,1.9872016,-2.1038592,-1.5718054,2.4196827,-0.049829587,0.1808592,-0.2121222,0.040699434,-0.011080628,-0.040545188,-0.36391866,0.15322891,-9.32781,0.9164598,47.66271,-1.1531231,-1.4357097,-3.486651,-0.31148678,-0.1821822,-0.43777382,23.9375,24.1875,23.625,24.8125,24.6875,24.9375
0.1940538,-1.5093706,-0.7778111,-1.3589505,-0.032852102,0.07936604,-0.10909579,-0.38239717,-0.32989073,0.060041767,-3.0768056,0.62633,-9.927949e-05,-0.09239773,-0.0129381465,0.0017974847,0.012388921,-0.00017532798,-0.0075036827,0.44351313,-1.4512857,1.9868053,-2.1037753,-1.571853,2.4195743,-0.050317917,0.18284103,-0.2170904,0.03970952,-0.011533025,-0.04264449,-0.34476507,0.19153613,-9.385271,0.85826975,47.668976,-1.1593333,-1.4549956,-3.428535,-0.3093521,-0.18685561,-0.43544292,23.9375,24.1875,23.625,24.8125,24.6875,24.9375
0.19605368,-1.8362746,-1.2098849,-1.5238434,-0.026656486,0.07225277,-0.097539194,-0.3826175,-0.3299201,0.060060482,-3.076812,0.6264643,-9.388086e-05,-0.09336966,-0.01253518,0.0018417101,0.01270248,0.0005015009,-0.0064338893,0.44335666,-1.4509019,1.9863151,-2.1036918,-1.5718297,2.419501,-0.051490884,0.18369436,-0.21814711,0.039434534,-0.012111763,-0.044885408,-0.4405331,0.17238252,-9.461885,0.99702406,47.683304,-1.1800084,-1.4276534,-3.4878678,-0.31459618,-0.18140477,-0.41388887,23.9375,24.1875,23.625,24.8125,24.6875,24.9375
0.19805367,-2.0048823,-1.8889312,-1.5261542,-0.029057693,0.075357415,-0.10587732,-0.38275582,-0.32992154,0.060033318,-3.0767188,0.6263477,-0.00014688115,-0.09449725,-0.012753364,0.0015379202,0.013153493,8.790638e-05,-0.004601914,0.4432846,-1.4505537,1.985967,-2.103596,-1.5719017,2.4193685,-0.05189982,0.1867401,-0.22099376,0.039796293,-0.012354285,-0.047122687,-0.28730422,0.1340753,-9.423578,0.842603,47.679718,-1.1831417,-1.3890858,-3.446498,-0.300015,-0.1989297,-0.39631546,23.9375,24.1875,23.625,24.8125,24.6875,24.9375
0.20005402,-2.0527892,-2.3119686,-1.589083,-0.04464611,0.07779608,-0.099484086,-0.38296697,-0.3299444,0.06005521,-3.0766823,0.6264164,-0.00010028963,-0.09618625,-0.012656633,0.0011080155,0.013550619,0.0002460751,-0.0034508219,0.44316402,-1.4501809,1.9854764,-2.1034887,-1.5719379,2.4192958,-0.053241268,0.19018397,-0.2237729,0.03915397,-0.012791288,-0.049612112,-0.3256114,0.21068975,-9.442732,0.800085,47.687782,-1.1083374,-1.4813064,-3.3843565,-0.2826123,-0.19593391,-0.37519878,23.9375,24.1875,23.625,24.8125,24.6875,24.9375
0.20205402,-2.1696336,-2.401202,-1.680085,-0.052836604,0.08011727,-0.09842799,-0.38314033,-0.32996464,0.060055878,-3.0766337,0.62646276,-0.00015155607,-0.09730395,-0.0127619095,-0.00042579352,0.014749244,-0.0020895312,-0.0021540578,0.44305587,-1.4498193,1.9850439,-2.1033685,-1.5719498,2.419223,-0.053938743,0.19583869,-0.22659147,0.038937412,-0.012884841,-0.0516031,-0.51714754,0.2681506,-9.615114,0.83589023,47.65912,-1.090662,-1.6346242,-3.2864182,-0.28172052,-0.2013697,-0.34942183,23.9375,24.1875,23.625,24.8125,24.6875,24.9375
0.20405404,-2.166159,-2.4189858,-1.6192149,-0.07106847,0.08180308,-0.10092111,-0.3833631,-0.32999277,0.06006202,-3.0766256,0.6264606,-7.469469e-05,-0.0979674,-0.012282054,-0.0014246277,0.016600486,-0.0030213313,-0.0011595081,0.44293562,-1.4494115,1.9845661,-2.1033328,-1.571987,2.419103,-0.054520257,0.19877963,-0.22759555,0.038634866,-0.014161981,-0.05317533,-0.4405331,0.30645782,-9.576807,0.84708,47.657326,-1.124712,-1.6080954,-3.3622215,-0.28004935,-0.19748521,-0.32281238,23.9375,24.1875,23.625,24.8125,24.6875,24.9375
0.20605405,-2.731795,-3.4186194,-1.841685,-0.06409732,0.07635064,-0.09012207,-0.38355228,-0.32999903,0.060053788,-3.0765707,0.62644804,-0.00010206082,-0.098705165,-0.012375264,-0.0009317091,0.015423526,-0.0014238029,0.00032584884,0.44280335,-1.4490283,1.984135,-2.1032374,-1.5720223,2.41897,-0.0552007,0.19832525,-0.22805157,0.037589338,-0.013792843,-0.05534116,-0.36391866,0.4213795,-9.5385,0.87393653,47.62419,-1.10939,-1.6553705,-3.5684624,-0.26343828,-0.19810385,-0.28259295,23.9375,24.1875,23.625,24.8125,24.6875,24.9375
0.20805456,-2.4834006,-3.1495335,-1.7469721,-0.084517896,0.07938883,-0.098082624,-0.38376755,-0.33004537,0.060070194,-3.07659,0.626451,-3.1588905e-05,-0.10006737,-0.0122903595,-0.00059217325,0.0150659075,0.0007355918,0.0011368564,0.44270706,-1.4486325,1.9836444,-2.1031902,-1.5720347,2.4188735,-0.0561137,0.19898768,-0.22929715,0.036065787,-0.014401037,-0.057063226,-0.3256114,0.40222588,-9.519346,0.91198283,47.6636,-1.1432121,-1.5224979,-3.640432,-0.2509172,-0.1927144,-0.26647416,23.9375,24.1875,23.625,24.8125,24.6875,24.9375
0.21005459,-2.0073454,-3.5553916,-1.7032601,-0.078785226,0.07800551,-0.0970139,-0.38393146,-0.33005443,0.060049914,-3.0765152,0.62637717,-9.3437e-05,-0.1011242,-0.012193679,-0.0004931532,0.014600682,0.0012623469,0.0014716062,0.44261065,-1.4482491,1.9832376,-2.1030824,-1.5720824,2.418741,-0.057311337,0.20009881,-0.23076546,0.035740677,-0.014217426,-0.058593992,-0.34476504,0.38307226,-9.615114,0.95226496,47.62598,-1.0474942,-1.5728095,-3.7210042,-0.22218904,-0.20189773,-0.22878549,23.9375,24.1875,23.625,24.8125,24.6875,24.9375
0.21205473,-2.4096096,-3.3696926,-1.5305688,-0.08324477,0.06188797,-0.097135976,-0.38415334,-0.33007377,0.060057953,-3.0764832,0.62633127,-2.2497476e-05,-0.10257683,-0.012733322,-0.0003598209,0.014674915,0.002581712,0.0020021985,0.4424908,-1.4478408,1.9827465,-2.1030114,-1.572143,2.418597,-0.057124827,0.20268367,-0.23389915,0.035125624,-0.014857932,-0.0589344,-0.38307226,0.40222588,-9.576807,0.900793,47.63315,-1.1338341,-1.5538218,-3.7752943,-0.20332906,-0.19901326,-0.1937139,23.9375,24.1875,23.625,24.8125,24.6875,24.9375
0.21405387,-2.3255162,-3.2923517,-1.7121928,-0.071524896,0.0490887,-0.08894205,-0.38437352,-0.3301155,0.06006572,-3.0764987,0.62635535,4.7756876e-05,-0.1058293,-0.012449312,6.452435e-05,0.013440919,0.0047288323,-0.0019254097,0.44238156,-1.4474324,1.9822663,-2.1029875,-1.5721549,2.4185011,-0.060591944,0.20585239,-0.23818955,0.03377646,-0.014671267,-0.058472082,-0.34476504,0.34476504,-9.481039,0.90750587,47.63046,-1.046359,-1.5646045,-3.6654916,-0.16590458,-0.2092149,-0.16344202,23.9375,24.1875,23.625,24.8125,24.6875,24.9375
0.21605422,-1.5026741,-2.8570743,-1.6842765,-0.06731279,0.051854394,-0.093854435,-0.3846213,-0.33014497,0.060082052,-3.0765104,0.62643445,0.00013285856,-0.1063195,-0.012568778,-0.0005644282,0.014104259,0.0043092305,-0.0030029144,0.44222558,-1.4470125,1.9817508,-2.1029518,-1.5721668,2.4183934,-0.060467493,0.20816928,-0.23930185,0.03323559,-0.015090303,-0.05726899,-0.3256114,0.3256114,-9.423578,0.900793,47.66808,-0.88286257,-1.5712115,-3.6321287,-0.13550714,-0.18751544,-0.15096709,23.9375,24.1875,23.625,24.8125,24.6875,24.9375
0.21805447,-2.0266283,-2.8402264,-1.669363,-0.06032701,0.04031646,-0.088816315,-0.38481897,-0.3301638,0.060051966,-3.0764375,0.6264197,9.956052e-05,-0.10694883,-0.013505557,-0.00027455125,0.013423559,0.0033863613,-0.003799921,0.44211778,-1.4465567,1.9812955,-2.1028907,-1.5722145,2.418286,-0.059916567,0.21037991,-0.24299267,0.03525302,-0.014085704,-0.0559211,-0.26815057,0.28730422,-9.346964,0.80456203,47.66539,-1.0958743,-1.5180604,-3.629053,-0.0951214,-0.21380854,-0.16161531,23.9375,24.1875,23.625,24.8125,24.6875,24.9375
0.2200544,-1.6855978,-2.4971247,-1.6284766,-0.05329898,0.039245345,-0.09407976,-0.38504514,-0.3302063,0.060067154,-3.0764732,0.6263899,0.00015730962,-0.10825765,-0.013045468,-0.00041270084,0.013622577,0.0024709785,-0.006815697,0.4419971,-1.4461484,1.9807924,-2.102843,-1.5722145,2.4181426,-0.0620063,0.21263021,-0.24555863,0.036480412,-0.0138734365,-0.054994978,-0.17238252,0.34476504,-9.32781,0.9186956,47.65643,-0.96899784,-1.663893,-3.473195,-0.0802619,-0.2197718,-0.15367293,23.9375,24.1875,23.625,24.8125,24.6875,24.9375
0.22205435,-1.0909419,-2.2124007,-1.4077688,-0.042552397,0.046623792,-0.095903896,-0.38522756,-0.33022133,0.06005645,-3.0763943,0.62645364,0.00011373216,-0.110607006,-0.012668378,0.00057324016,0.012865576,0.0029703884,-0.012257688,0.441888,-1.4457527,1.980349,-2.1027343,-1.5722502,2.4180837,-0.065030284,0.21430138,-0.25028864,0.038763106,-0.013408542,-0.052575238,-0.11492168,0.28730422,-9.289502,0.82022345,47.642998,-0.8542064,-1.4874395,-3.4644039,-0.07135343,-0.23712696,-0.17092991,23.9375,24.1875,23.625,24.8125,24.6875,24.9375
0.22405443,-1.9268873,-2.1390717,-1.2801385,-0.024541952,0.019028585,-0.08931268,-0.38548326,-0.3302441,0.060079124,-3.076373,0.6264665,0.00022990859,-0.1115272,-0.014117175,0.0021281622,0.012513134,0.005386355,-0.010323698,0.441745,-1.4453214,1.9797972,-2.1026623,-1.5723103,2.4179518,-0.062633544,0.2147877,-0.254882,0.04053389,-0.014125958,-0.0521093,-0.17238252,0.28730422,-9.212888,0.83589023,47.66271,-0.9007628,-1.4359334,-3.3329265,-0.06373302,-0.2389358,-0.1579875,23.9375,24.1875,23.625,24.8125,24.6875,24.9375
0.22605442,-1.4061956,-2.0739822,-1.314971,-0.013552908,0.035524365,-0.094108105,-0.38571486,-0.33027816,0.06007891,-3.0763524,0.62652194,0.00023886748,-0.11280782,-0.013961643,0.0020664472,0.011789238,0.0058462513,-0.015437507,0.44161227,-1.4448657,1.9792703,-2.1025903,-1.5723222,2.4178567,-0.064290345,0.21633524,-0.25639886,0.039780106,-0.013669297,-0.048652418,-0.24899697,0.30645782,-9.193734,0.8717007,47.658226,-0.91346085,-1.46573,-3.3312593,-0.03991653,-0.24460074,-0.16824283,23.9375,24.1875,23.625,24.8125,24.6875,24.9375
0.22805427,-1.743125,-1.814438,-1.5115197,-0.022559531,0.04046619,-0.094696864,-0.38593498,-0.33030668,0.060084604,-3.0763237,0.62661475,0.00024855658,-0.11341251,-0.013311046,0.0015577393,0.012699383,0.0042872704,-0.020904738,0.44147977,-1.4444458,1.9787673,-2.1025064,-1.5723346,2.4177861,-0.06586421,0.21815977,-0.25764608,0.041006368,-0.013821577,-0.04475816,-0.30645782,0.30645782,-9.251195,0.90750587,47.68062,-0.8565322,-1.4046309,-3.3787315,-0.012058487,-0.26252648,-0.24361265,23.9375,24.1875,23.625,24.8125,24.6875,24.9375
0.23005429,-2.2576106,-2.046647,-1.2537298,-0.039766204,0.0391963,-0.09573968,-0.38615113,-0.33031863,0.060053088,-3.0762377,0.62663543,0.00017148205,-0.1132907,-0.013090621,0.0010328041,0.013801458,0.0009391358,-0.021742932,0.44133574,-1.4439539,1.9782652,-2.1024091,-1.5723704,2.4176664,-0.06639558,0.22025351,-0.25967833,0.044438455,-0.013388213,-0.044450913,-0.17238252,0.28730422,-9.212888,0.85155696,47.63852,-0.85795206,-1.3708029,-3.4872766,-0.02720157,-0.26952016,-0.24845973,23.9375,24.1875,23.625,24.8125,24.6875,24.9375
0.23205434,-1.7669345,-2.2661037,-1.1418098,-0.056550607,0.058532912,-0.09513534,-0.38638073,-0.33035585,0.060069133,-3.0762365,0.6267124,0.0001995862,-0.113326505,-0.012169236,0.00048149255,0.015988737,-0.00067161105,-0.022751076,0.44120333,-1.4435344,1.9777383,-2.1023247,-1.5723709,2.4175825,-0.06721639,0.22131002,-0.26008427,0.046181746,-0.0146745695,-0.044260666,-0.21068975,0.22984336,-9.174581,0.93436235,47.64927,-0.8145795,-1.309411,-3.5502293,-0.038695797,-0.27045107,-0.265449,23.9375,24.1875,23.625,24.8125,24.6875,24.9375
0.23405433,-2.2021475,-2.6133118,-1.2775601,-0.04284867,0.050406843,-0.09597728,-0.38662392,-0.33038896,0.060111288,-3.0762293,0.6267674,0.00033145942,-0.113776095,-0.012020818,-0.00079903647,0.017234696,-0.0037276028,-0.021591697,0.44108307,-1.4431496,1.977188,-2.1022289,-1.572419,2.4174979,-0.06794569,0.22542988,-0.26213795,0.047403052,-0.014498191,-0.04614953,-0.21068975,0.13407528,-9.251195,0.9030289,47.64389,-0.7855897,-1.5631907,-3.594186,-0.028748453,-0.2760987,-0.2616077,23.9375,24.1875,23.625,24.8125,24.6875,24.9375
0.23605414,-1.6516839,-1.8365556,-1.2806987,-0.03799336,0.053562578,-0.095596865,-0.38680428,-0.3303897,0.060046624,-3.0760946,0.6267806,0.00015119312,-0.11602451,-0.011216608,-0.0014275991,0.018414607,-0.0047198753,-0.026237328,0.4409501,-1.442645,1.9767445,-2.1021206,-1.5724548,2.4173908,-0.07090908,0.22988552,-0.26599753,0.048210032,-0.015155292,-0.044460647,-0.19153613,0.076614454,-9.193734,0.95897776,47.65912,-0.62834615,-1.5971568,-3.5953593,-0.018564252,-0.28992534,-0.27876344,23.9375,24.1875,23.625,24.8125,24.6875,24.9375
0.23805423,-2.008499,-1.8223586,-1.3267428,-0.010138089,0.024253815,-0.09029027,-0.38704813,-0.33041942,0.06005722,-3.0760763,0.6268522,0.00020160779,-0.11537963,-0.012507532,-0.0017550283,0.018067675,-0.006112625,-0.02412949,0.44080684,-1.4422009,1.9762048,-2.1020486,-1.5724782,2.417295,-0.06850952,0.23157018,-0.26743546,0.049069066,-0.01424876,-0.044171136,-0.095768064,0.095768064,-9.346964,0.947788,47.66808,-0.7828319,-1.6988643,-3.5152583,-0.007506777,-0.29545867,-0.31080252,23.9375,24.1875,23.625,24.8125,24.6875,24.9375
0.24005415,-1.4950901,-1.5637313,-1.2499839,-0.0065674726,0.020593623,-0.092585824,-0.38730904,-0.33043876,0.06004606,-3.0760148,0.6270104,0.00023458841,-0.11736386,-0.012390381,-0.0009659868,0.017946158,-0.004569716,-0.023776086,0.44063854,-1.4416976,1.9756535,-2.1020005,-1.5725149,2.4172337,-0.07001969,0.23305778,-0.27121595,0.049909104,-0.014807772,-0.046031337,-0.1340753,0.17238252,-9.289503,0.8560339,47.664497,-0.7533628,-1.7127366,-3.66714,0.0105773555,-0.3139998,-0.31627527,23.9375,24.1875,23.625,24.8125,24.6875,24.9375
0.24205409,-0.9568001,-1.5242523,-1.1193311,-0.01174741,0.03237878,-0.103015624,-0.38756612,-0.33047348,0.060076103,-3.0759668,0.62707853,0.00031921416,-0.120037,-0.012205718,0.00057352433,0.016971534,-0.002434628,-0.024699317,0.44051746,-1.4412411,1.9750413,-2.101868,-1.572575,2.4171617,-0.072604515,0.23404059,-0.276354,0.05170988,-0.014845973,-0.04769089,-0.19153613,0.15322891,-9.136273,0.90750587,47.657326,-0.5710582,-1.7931103,-3.4825382,0.008989131,-0.31309527,-0.2917743,23.9375,24.1875,23.625,24.8125,24.6875,24.9375
0.24405415,-1.6165426,-2.4281437,-1.5318726,-0.0058491477,0.012787676,-0.09222447,-0.3877886,-0.3304928,0.060070757,-3.0759206,0.62706596,0.00027981415,-0.11988235,-0.013417813,0.0012889223,0.01856521,-0.002621437,-0.02070715,0.44037473,-1.4407864,1.9745144,-2.1017473,-1.5725993,2.4170175,-0.06928329,0.23538391,-0.2804112,0.05527254,-0.016213091,-0.04835598,-0.38307226,0.21068975,-9.136273,0.87617236,47.67345,-0.7974386,-1.6515635,-3.4321227,-0.009477935,-0.30452484,-0.29725626,23.9375,24.1875,23.625,24.8125,24.6875,24.9375
0.24605417,-1.9251566,-2.5205054,-1.4874436,-0.04602896,0.029475639,-0.09159762,-0.3879776,-0.3305108,0.060036864,-3.0758033,0.62706125,0.0001276431,-0.1187575,-0.012513762,-0.00014543954,0.020898577,-0.008577911,-0.021820046,0.44026634,-1.4402946,1.9739999,-2.1015775,-1.572635,2.4169216,-0.07020026,0.23759064,-0.28074667,0.059779625,-0.015783807,-0.048159685,-0.3256114,0.30645782,-9.212888,0.8851263,47.687782,-0.8059435,-1.4725276,-3.4304993,-0.043477148,-0.31155735,-0.33120367,23.9375,24.1875,23.625,24.8125,24.6875,24.9375
0.24805452,-1.9782735,-3.065073,-1.2262198,-0.0869599,0.059509218,-0.1006543,-0.38824758,-0.33051488,0.060038336,-3.075713,0.6271774,8.22954e-05,-0.11841892,-0.012222321,-0.0009591178,0.02325051,-0.012966424,-0.021948857,0.44006237,-1.4397786,1.9733771,-2.1014087,-1.5726713,2.4168022,-0.07019433,0.24058461,-0.2834288,0.06443652,-0.016043495,-0.0480226,-0.40222588,0.40222588,-9.308656,0.8537928,47.64479,-0.78164184,-1.5118732,-3.4472594,-0.10772866,-0.3221242,-0.33759624,23.9375,24.1875,23.625,24.8125,24.6875,24.9375
0.2500544,-2.2163587,-3.7358766,-1.3391736,-0.089392506,0.06864631,-0.09642097,-0.38846058,-0.33053103,0.06001209,-3.075623,0.62729317,-5.654825e-05,-0.11806083,-0.012136847,-0.0012725939,0.024574943,-0.015671244,-0.022412036,0.43990645,-1.4392868,1.9728502,-2.1012642,-1.5726713,2.4167304,-0.06994721,0.24200034,-0.28517726,0.067779884,-0.016093606,-0.047310244,-0.40222588,0.53630114,-9.3661175,0.87393653,47.63046,-0.84133434,-1.6500422,-3.4632206,-0.16412136,-0.34937263,-0.35460842,23.9375,24.1875,23.625,24.8125,24.6875,24.9375
0.25205427,-2.6502662,-3.7567687,-1.5738863,-0.08779493,0.06748762,-0.08759726,-0.38866812,-0.33055794,0.05999102,-3.0755541,0.62719846,-0.00014630199,-0.11852264,-0.012743847,-0.00071460457,0.024813432,-0.015225431,-0.018974366,0.43979892,-1.4387954,1.9723119,-2.1011198,-1.5727075,2.416573,-0.06890929,0.24285159,-0.28787404,0.069316626,-0.0165129,-0.04970611,-0.38307226,0.49799395,-9.32781,0.86945957,47.622402,-0.87101376,-1.5295558,-3.528188,-0.23521715,-0.33434612,-0.3535174,23.9375,24.1875,23.625,24.8125,24.6875,24.9375
0.25405416,-2.7209563,-3.3207116,-1.346942,-0.090086825,0.07032746,-0.09173114,-0.38890648,-0.33057553,0.059973527,-3.0754104,0.6273216,-0.00017329855,-0.118844666,-0.013060905,-0.00063363934,0.02465623,-0.015355742,-0.01811907,0.439679,-1.4382681,1.9717249,-2.1009767,-1.5727915,2.416549,-0.06867533,0.24374321,-0.2893211,0.06991496,-0.016325155,-0.050326176,-0.3256114,0.38307226,-9.32781,0.86498255,47.639416,-0.9580351,-1.4531741,-3.5393682,-0.26085752,-0.34899256,-0.35192108,23.9375,24.1875,23.625,24.8125,24.6875,24.9375
0.25605422,-1.894508,-2.7055619,-1.4378153,-0.070092894,0.064600766,-0.095453486,-0.38916314,-0.3306059,0.059966736,-3.0753748,0.6273529,-0.00023820715,-0.11953125,-0.013726061,-0.0012976264,0.024209687,-0.01571192,-0.019390605,0.4395112,-1.4377398,1.9711145,-2.1008446,-1.572791,2.4164057,-0.06834298,0.24673483,-0.2910409,0.06877448,-0.015779523,-0.04872189,-0.095768064,0.36391866,-9.32781,0.8873621,47.62061,-0.98926425,-1.4561951,-3.6016374,-0.27057332,-0.362768,-0.36881137,23.9375,24.1875,23.625,24.8125,24.6875,24.9375
0.25805426,-1.7074914,-2.2142398,-1.4246378,-0.05580781,0.042318143,-0.09281648,-0.38942748,-0.33065447,0.059982277,-3.0753677,0.62744576,-0.00018470826,-0.12030449,-0.013446981,-0.0025198057,0.025538046,-0.017618168,-0.017706955,0.43937877,-1.4372474,1.9705042,-2.1007612,-1.5728034,2.4163325,-0.069199406,0.25064898,-0.29280737,0.06891027,-0.016180549,-0.051259905,-0.038307227,0.40222588,-9.251195,1.0328293,47.674347,-0.9672859,-1.7129762,-3.6827354,-0.27995157,-0.36007363,-0.38036638,23.9375,24.1875,23.625,24.8125,24.6875,24.9375
0.26005405,-1.0201188,-2.4988258,-1.2476722,-0.03118482,0.03000484,-0.088230476,-0.38963926,-0.33065698,0.059949476,-3.0752325,0.6274353,-0.00028124554,-0.123371474,-0.0146704,-0.0009023137,0.022969032,-0.012501153,-0.015475464,0.43924677,-1.436744,1.9699758,-2.1006067,-1.5728754,2.4162118,-0.069638476,0.2522777,-0.29796842,0.06670654,-0.016063003,-0.053925563,0.019153614,0.24899697,-9.11712,0.9231726,47.666286,-1.0300791,-1.5962832,-3.6169944,-0.29037732,-0.37292725,-0.36907536,23.9375,24.1875,23.625,24.8125,24.6875,24.9375
0.26205394,-0.6330419,-1.8332957,-1.5287168,-0.018182069,0.0016979321,-0.09198238,-0.38989142,-0.33070868,0.059936523,-3.0751863,0.62742335,-0.0003211919,-0.12516004,-0.01497006,-0.00053136295,0.02307608,-0.009031265,-0.0121042235,0.43913865,-1.4361802,1.9693416,-2.1004875,-1.5728997,2.4161026,-0.06953309,0.25380492,-0.300112,0.06422304,-0.017656943,-0.05718348,0.1340753,0.22984336,-9.193734,0.90750587,47.655537,-0.97688735,-1.6898983,-3.5318422,-0.26580656,-0.36955824,-0.3243044,23.9375,24.1875,23.625,24.8125,24.6875,24.9375
0.26405412,-0.38982633,-1.4862376,-1.5375723,-0.035266925,-0.0051864665,-0.10549857,-0.39014542,-0.33073053,0.059938014,-3.075129,0.6274891,-0.000319695,-0.12714857,-0.015012319,-2.1166663e-05,0.02251982,-0.0068018935,-0.013760555,0.4389823,-1.4356878,1.9687546,-2.1003683,-1.5729359,2.4159951,-0.070808806,0.25541165,-0.30298993,0.0632377,-0.018112913,-0.056799106,0.038307227,0.2873042,-9.174581,0.89631605,47.635834,-1.0217668,-1.841038,-3.4888287,-0.23692986,-0.38026872,-0.33227426,23.9375,24.1875,23.625,24.8125,24.6875,24.9375
0.26605394,-0.43974072,-2.3375018,-1.7291424,-0.043975513,0.006777415,-0.09718919,-0.3904138,-0.33075958,0.05994395,-3.0750954,0.6274793,-0.00030300947,-0.12777342,-0.015389069,-0.00014560588,0.022567425,-0.0073911548,-0.010671694,0.4388265,-1.435173,1.9681319,-2.100248,-1.5729717,2.415838,-0.070717104,0.25747752,-0.30535653,0.06407951,-0.017918067,-0.05979563,0.095768064,0.34476504,-9.174581,0.8806493,47.64837,-1.01617,-1.8221776,-3.5224023,-0.26307642,-0.3838407,-0.30592275,23.9375,24.1875,23.625,24.8125,24.6875,24.9375
0.26805392,-1.0216098,-3.14204,-1.9208219,-0.0646654,0.016114678,-0.09516704,-0.39066595,-0.3307673,0.05992386,-3.074975,0.62756854,-0.00042189675,-0.1299426,-0.015628347,-0.0004216478,0.02212694,-0.0046219714,-0.008535605,0.43864614,-1.4346206,1.9675101,-2.1000583,-1.573008,2.4157293,-0.07155103,0.26050907,-0.30746508,0.06045289,-0.018724836,-0.062758505,0.095768064,0.36391866,-9.404425,0.86945957,47.64837,-1.0060779,-1.7184496,-3.5538447,-0.21722999,-0.38632172,-0.26321122,23.9375,24.1875,23.625,24.8125,24.6875,24.9375
0.27005386,-1.1906188,-3.7687438,-1.9016551,-0.09697601,0.045649733,-0.09746789,-0.39092284,-0.3307994,0.059907548,-3.0749025,0.6275903,-0.0004395805,-0.13096035,-0.016025862,-0.0005275245,0.022377688,-0.004717883,-0.0062540104,0.43851423,-1.4340688,1.9668983,-2.0999496,-1.5730561,2.4156208,-0.07150637,0.26311886,-0.31043628,0.060997464,-0.018926103,-0.06499226,0.11492168,0.40222588,-9.423578,0.90750587,47.66987,-1.0035748,-1.8757217,-3.4757328,-0.22092822,-0.38732705,-0.22345243,23.9375,24.1875,23.625,24.8125,24.6875,24.9375
0.27205372,-1.8875266,-4.140985,-1.9375621,-0.09541145,0.043497548,-0.09286046,-0.39117098,-0.33085096,0.059903458,-3.0748944,0.6274903,-0.0005020283,-0.13263755,-0.016570581,-0.00026727942,0.021305474,-0.0032220366,-0.004573827,0.438394,-1.433529,1.9662641,-2.099807,-1.5730561,2.4154396,-0.07210265,0.26534352,-0.31345457,0.05997265,-0.018609062,-0.06726714,0.076614454,0.30645782,-9.423578,0.9186956,47.63852,-1.0554914,-1.8716643,-3.4942899,-0.22287917,-0.38527766,-0.18232945,23.9375,24.1875,23.625,24.8125,24.6875,24.9375
0.27405375,-1.833426,-3.4626806,-2.192709,-0.0853829,0.04246432,-0.08869612,-0.3914628,-0.33087787,0.059921365,-3.0748527,0.6275175,-0.000391329,-0.1326117,-0.016986296,-0.001136021,0.021438349,-0.003081811,-0.0015232046,0.43823838,-1.4330133,1.9656175,-2.0997117,-1.5731281,2.4153068,-0.071121715,0.26700982,-0.31297752,0.057746567,-0.01879708,-0.0693366,0.019153614,0.3256114,-9.615114,0.94331104,47.667187,-1.0722443,-1.7886975,-3.5865736,-0.18610933,-0.4136297,-0.14284095,23.9375,24.1875,23.625,24.8125,24.6875,24.9375
0.27605465,-1.4329836,-3.0216157,-2.3058796,-0.071519464,0.050830256,-0.09258318,-0.39170533,-0.33091983,0.05988733,-3.0747972,0.62754536,-0.0004988977,-0.1348192,-0.01668694,-0.0001891882,0.019137703,0.0002791315,-0.0032835011,0.43810543,-1.4324379,1.9650191,-2.0996048,-1.5731276,2.4151988,-0.07392095,0.26667026,-0.31439418,0.055476,-0.018157635,-0.07037554,-0.05746084,0.36391866,-9.691729,0.9164598,47.701214,-1.0520567,-1.9120026,-3.665555,-0.13691372,-0.4059252,-0.116347864,23.9375,24.1875,23.625,24.8125,24.6875,24.9375
0.27805388,-1.8552876,-2.98431,-2.3060563,-0.055480786,0.039054453,-0.086371735,-0.3919722,-0.33096322,0.059899908,-3.074765,0.62747884,-0.00046935378,-0.13551055,-0.018292554,0.0006328704,0.01820927,0.0030724048,-0.0008275427,0.43798637,-1.4319115,1.9643611,-2.0994618,-1.5731763,2.4150429,-0.07128744,0.26749787,-0.31711054,0.054437704,-0.018511146,-0.07019498,-0.05746084,0.34476504,-9.653421,0.83589023,47.71823,-1.1069216,-1.7463262,-3.7633572,-0.11778553,-0.405057,-0.082061104,23.9375,24.1875,23.625,24.8125,24.6875,24.9375
0.280054,-1.4195942,-2.3341022,-2.2137237,-0.05786259,0.056788556,-0.09295718,-0.39227018,-0.3309858,0.059876796,-3.0747142,0.627584,-0.0004402462,-0.13643467,-0.018183881,0.0007110634,0.018502956,0.004166823,-0.0027570145,0.4377943,-1.4313234,1.9637388,-2.0994256,-1.573212,2.4149234,-0.07171503,0.2684556,-0.31840527,0.05390879,-0.019242829,-0.06868969,-0.3256114,0.2681506,-9.672575,0.82694155,47.65912,-1.2755108,-1.7965617,-3.6559443,-0.087261826,-0.42895573,-0.06927452,23.9375,24.1875,23.625,24.8125,24.6875,24.9375
0.28205392,-1.3342074,-2.0366852,-2.1701682,-0.04788381,0.06953099,-0.09753658,-0.39253464,-0.33103567,0.059906404,-3.0746994,0.6274876,-0.00035695956,-0.13866799,-0.017171081,0.00061718,0.018694365,0.0037441927,-0.008692062,0.4376969,-1.4308316,1.9630803,-2.0992815,-1.5732721,2.4147682,-0.075424805,0.27122393,-0.32167393,0.054873135,-0.019235699,-0.06646323,-0.2681506,0.22984336,-9.653421,0.83589023,47.68062,-1.1001805,-1.826161,-3.7502515,-0.05890003,-0.43033922,-0.061935663,23.9375,24.1875,23.625,24.8125,24.6875,24.9375
0.28405398,-2.4713068,-2.2575855,-2.219833,-0.045592453,0.058380175,-0.08928566,-0.39281875,-0.33107352,0.059898235,-3.0746648,0.6275378,-0.00037762325,-0.13868803,-0.018428193,0.0005412081,0.019665893,0.0034087128,-0.0081471,0.43752998,-1.4302558,1.9624208,-2.0991733,-1.573285,2.4146376,-0.07258747,0.27373707,-0.32480365,0.056210253,-0.019974416,-0.06416618,-0.28730422,0.21068975,-9.691729,0.8090337,47.694946,-1.1902055,-1.7224844,-3.714694,-0.048704557,-0.42949235,-0.07329069,23.9375,24.1875,23.625,24.8125,24.6875,24.9375
0.28605404,-2.2880569,-2.267239,-1.8493179,-0.04763655,0.07305725,-0.09271863,-0.39306584,-0.33109125,0.05986432,-3.0745482,0.62761164,-0.00049685786,-0.13945137,-0.017619284,-2.238288e-05,0.021421343,0.002017935,-0.011624351,0.43737325,-1.4296803,1.9618095,-2.0990174,-1.5733207,2.4145424,-0.07398832,0.27594507,-0.32651135,0.05771747,-0.02097934,-0.062082887,-0.26815057,0.22984336,-9.768343,0.8873621,47.677036,-1.2590313,-1.8036609,-3.6657252,-0.023519952,-0.42619234,-0.07683183,23.9375,24.1875,23.625,24.8125,24.6875,24.9375
0.28805467,-2.5347147,-2.271971,-1.9944626,-0.04542547,0.06784713,-0.0870775,-0.3933633,-0.33116138,0.05989602,-3.0745804,0.62750316,-0.00035216144,-0.14027023,-0.017640945,-0.00020202079,0.022737317,-0.0002574584,-0.0145959705,0.43727732,-1.4291401,1.9611038,-2.098932,-1.5733694,2.414375,-0.07444158,0.2791805,-0.33073416,0.06132636,-0.021198584,-0.059563737,-0.51714754,0.21068975,-9.691729,0.9679317,47.65912,-1.2449473,-1.9211214,-3.7197232,-0.04530765,-0.42830908,-0.11631046,23.9375,24.1875,23.625,24.8125,24.6875,24.9375
0.29005462,-1.78146,-1.5274794,-1.9458913,-0.056535847,0.08869651,-0.10234014,-0.3936492,-0.33118212,0.059888136,-3.074487,0.6276956,-0.00040640947,-0.14154735,-0.01769588,-0.0008430505,0.022695089,-0.00021896619,-0.017531095,0.43708503,-1.4285645,1.9604324,-2.098777,-1.5733927,2.4143155,-0.075357854,0.282255,-0.33263874,0.06010404,-0.021184187,-0.057542305,-0.4213795,0.19153613,-9.787497,0.8627467,47.683304,-1.1762133,-1.9196584,-3.7059155,-0.01873025,-0.42862332,-0.13072029,23.9375,24.1875,23.625,24.8125,24.6875,24.9375
0.29205447,-2.0655355,-2.3717942,-1.9634808,-0.048018653,0.08487952,-0.09554571,-0.39395055,-0.33122274,0.059892006,-3.0744572,0.62767154,-0.00032219084,-0.14396489,-0.017522424,0.00022215399,0.022925595,0.002614631,-0.02079438,0.4369405,-1.4279891,1.95975,-2.0986931,-1.5734538,2.4141603,-0.07674132,0.2836315,-0.33688414,0.06050723,-0.022596043,-0.055655554,-0.36391866,0.11492168,-9.710882,0.95226496,47.695843,-1.1996249,-1.9886346,-3.5774245,0.003049069,-0.4209609,-0.15873976,23.9375,24.1875,23.625,24.8125,24.6875,24.9375
0.29405436,-2.6225536,-2.5390236,-1.5675815,-0.054135192,0.07375086,-0.08509905,-0.39423198,-0.33127826,0.059897244,-3.0744505,0.6277281,-0.00028313545,-0.14429583,-0.01712759,0.00045600173,0.024730695,0.0025731358,-0.022054076,0.43680856,-1.4274377,1.9590915,-2.0986092,-1.5734662,2.414065,-0.076614544,0.2840829,-0.33853075,0.06251007,-0.024209544,-0.054263227,-0.45968673,0.076614454,-9.557653,0.8806493,47.70211,-1.0839286,-1.8680158,-3.6584253,0.013735631,-0.41466635,-0.18575107,23.9375,24.1875,23.625,24.8125,24.6875,24.9375
0.2960543,-1.4837519,-1.2827587,-1.4113959,-0.060457222,0.093746506,-0.10627798,-0.39453375,-0.33128476,0.059889734,-3.0743234,0.6277593,-0.00021984712,-0.14501317,-0.017348653,0.0007206974,0.025596473,0.0031084965,-0.022217216,0.4366407,-1.4268497,1.9584097,-2.0984771,-1.5735868,2.4139335,-0.076079205,0.2854151,-0.34104773,0.06357122,-0.025225313,-0.053558983,-0.61291564,0.11492168,-9.346964,0.8851263,47.678825,-1.2532612,-1.7758667,-3.6710224,0.034927804,-0.39716554,-0.19941092,23.9375,24.1875,23.625,24.8125,24.6875,24.9375
0.29805443,-2.082189,-1.5147567,-1.6729681,-0.029097632,0.06715255,-0.092995524,-0.39484447,-0.33132496,0.059920218,-3.0742848,0.62788695,-0.00015584522,-0.14790592,-0.016267713,0.0026337204,0.024208017,0.006961129,-0.027242182,0.4364714,-1.4262995,1.9576777,-2.0983212,-1.5736226,2.4138494,-0.08017714,0.28407955,-0.34412354,0.06390236,-0.025599433,-0.05263021,-0.40222588,0.095768064,-9.519346,0.8851263,47.677036,-1.0990224,-1.6614635,-3.6622128,0.06490686,-0.39387885,-0.22762284,23.9375,24.1875,23.625,24.8125,24.6875,24.9375
0.30005434,-1.3658714,-1.2270017,-1.552013,-0.038839065,0.07700622,-0.101680055,-0.39514005,-0.33136126,0.05991981,-3.074253,0.62791634,-8.638942e-05,-0.14563146,-0.016037533,0.0012593098,0.027164519,0.0017442771,-0.024546284,0.4363162,-1.4257361,1.9570202,-2.0982478,-1.5736707,2.413717,-0.07826878,0.28512156,-0.3432292,0.06793652,-0.026064537,-0.053417943,-0.3256114,0.038307227,-9.481039,0.86498255,47.64479,-1.1722994,-1.5265731,-3.7652884,0.048083477,-0.3762024,-0.2371884,23.9375,24.1875,23.625,24.8125,24.6875,24.9375
0.30205426,-1.6923676,-1.2841723,-1.3167036,-0.030191202,0.04994936,-0.09102241,-0.39542374,-0.33141515,0.0599279,-3.0742064,0.6279649,-7.0633614e-05,-0.14678667,-0.015193214,0.0017044803,0.028503407,0.0004086371,-0.02541773,0.43619543,-1.4251612,1.9563135,-2.0981028,-1.573707,2.413633,-0.08028738,0.28645915,-0.34684032,0.07198019,-0.026716914,-0.05456138,-0.40222588,0.05746084,-9.346964,0.97240865,47.699425,-1.1641158,-1.4881146,-3.7317338,0.025120582,-0.3563317,-0.2481605,23.9375,24.1875,23.625,24.8125,24.6875,24.9375
0.3040543,-1.5682688,-1.2607965,-1.4920466,-0.01944159,0.046210285,-0.08922538,-0.3957565,-0.3314242,0.059943218,-3.0741258,0.628046,4.5527457e-05,-0.14933595,-0.015051068,0.004018054,0.028514821,0.0028164154,-0.029316194,0.4359908,-1.4245851,1.955594,-2.0979817,-1.5738033,2.41349,-0.081945375,0.2866265,-0.3534372,0.07623244,-0.027744506,-0.052315414,-0.38307226,0.038307227,-9.232041,0.95002913,47.658226,-1.1111056,-1.5823736,-3.6357155,0.0018352658,-0.33617622,-0.28670287,23.9375,24.1875,23.625,24.8125,24.6875,24.9375
0.30605426,-0.5775499,-0.45302776,-1.3176043,-0.01818487,0.05969034,-0.11032728,-0.39605936,-0.33143887,0.059947528,-3.0740185,0.62821543,4.9347924e-05,-0.14913948,-0.01432245,0.0018921217,0.031207234,-0.0039683483,-0.03082278,0.4357984,-1.424009,1.9548882,-2.097812,-1.5738634,2.4134178,-0.08328289,0.29211777,-0.355976,0.08055787,-0.027320296,-0.05214593,-0.15322891,-0.038307227,-9.270349,0.88960326,47.63852,-0.95642406,-1.6177747,-3.5282483,-0.050404802,-0.33126044,-0.3192045,23.9375,24.1875,23.625,24.8125,24.6875,24.9375
0.30805412,-1.2125487,-0.5609128,-1.4568862,-0.0021062563,0.024113476,-0.09267061,-0.3963689,-0.33149177,0.059959255,-3.0739894,0.6282482,9.174941e-05,-0.14890522,-0.013690705,0.00056669145,0.033098444,-0.009763048,-0.031489372,0.4356538,-1.4234085,1.9541458,-2.097679,-1.5738987,2.413298,-0.08461953,0.2958626,-0.35847145,0.085349575,-0.02658744,-0.052818507,-0.05746084,-0.095768064,-9.385271,0.97464454,47.65464,-0.9172118,-1.7389278,-3.5089853,-0.102578364,-0.3243397,-0.34835488,23.9375,24.1875,23.625,24.8125,24.6875,24.9375
0.31005406,-0.95105785,-0.6107881,-1.162532,-0.012236622,0.03382515,-0.10227391,-0.3966522,-0.3315011,0.05994577,-3.0738735,0.62833816,1.39957165e-05,-0.15083148,-0.013114123,0.0017919154,0.033990957,-0.009414634,-0.032280687,0.43546128,-1.4228207,1.9534615,-2.0974863,-1.5739473,2.413177,-0.0865765,0.29699963,-0.36366197,0.089455806,-0.027557788,-0.05397618,-0.19153613,0.019153614,-9.212889,0.9701675,47.64658,-0.8431644,-1.7945446,-3.3529377,-0.14648311,-0.30885023,-0.34679598,23.9375,24.1875,23.625,24.8125,24.6875,24.9375
0.3120542,-1.2900983,-0.8182151,-1.3818942,-0.004472552,0.031043775,-0.08950553,-0.39695278,-0.33152953,0.05996238,-3.0737941,0.6284976,8.448853e-06,-0.14978075,-0.011527893,6.1698454e-05,0.037713364,-0.014422321,-0.03663887,0.4352809,-1.4222548,1.9527334,-2.097294,-1.5739836,2.413107,-0.08765183,0.2988928,-0.3627762,0.092796154,-0.028809557,-0.05068862,-0.40222588,0.11492168,-9.11712,0.9231726,47.63673,-0.8207276,-1.7108322,-3.4869957,-0.21312505,-0.27051234,-0.40225935,23.9375,24.1875,23.625,24.8125,24.6875,24.9375
0.31405425,-1.4682589,-1.5765146,-1.5286566,-0.0044966806,0.04391588,-0.095605716,-0.3972606,-0.33155757,0.05997236,-3.0736988,0.6285138,3.4454024e-05,-0.14910214,-0.011165525,-0.001401351,0.03944857,-0.018670486,-0.035534825,0.43512478,-1.4216535,1.9519795,-2.0971014,-1.5740675,2.4129739,-0.08778089,0.3016787,-0.36330602,0.09511022,-0.02859795,-0.051921546,-0.22984336,0.21068975,-9.308657,0.94331104,47.651955,-0.7943773,-1.7327201,-3.6255424,-0.26904884,-0.25810477,-0.44653213,23.9375,24.1875,23.625,24.8125,24.6875,24.9375
0.31605414,-2.0129662,-2.4371653,-1.5023196,-0.042741973,0.054675147,-0.08644112,-0.39754236,-0.3315709,0.059957214,-3.073553,0.6285785,-5.4497235e-05,-0.14978531,-0.011018941,-0.0010524802,0.038536064,-0.017805843,-0.03447861,0.4349565,-1.4210408,1.9512619,-2.096874,-1.5741395,2.4128654,-0.088822395,0.3014161,-0.3639008,0.09478157,-0.028154459,-0.05401769,-0.21068975,0.21068975,-9.32781,0.95002913,47.666286,-0.7224945,-1.6733229,-3.8060904,-0.28312135,-0.26232636,-0.44660103,23.9375,24.1875,23.625,24.8125,24.6875,24.9375
0.31805402,-2.8492417,-3.2947774,-1.4232898,-0.06963254,0.04968219,-0.08343523,-0.39785525,-0.3316006,0.059981693,-3.0734935,0.62868017,-1.2137337e-05,-0.15221065,-0.0116164405,9.863793e-05,0.036975995,-0.012912373,-0.032681648,0.43477634,-1.4204766,1.9505199,-2.0966957,-1.5741876,2.412757,-0.08925925,0.30216107,-0.36689648,0.09192393,-0.028825628,-0.056246936,-0.21068975,0.22984336,-9.193734,0.9365982,47.672558,-0.72154117,-1.5519322,-3.7342932,-0.30529562,-0.24821973,-0.4532088,23.9375,24.1875,23.625,24.8125,24.6875,24.9375
0.3200539,-2.3885453,-3.2639065,-1.597322,-0.093616754,0.06379703,-0.088658944,-0.39814454,-0.3316126,0.059961706,-3.0733633,0.62876594,-0.000121906174,-0.15440732,-0.012663622,0.0020241793,0.035144407,-0.007737394,-0.030174198,0.4345845,-1.4198515,1.9498013,-2.0964806,-1.5742363,2.412636,-0.08876977,0.30192018,-0.37092593,0.0907158,-0.029372385,-0.05825732,-0.24899697,0.3256114,-9.404425,0.95897776,47.653748,-0.7886025,-1.3842992,-3.6755838,-0.3028483,-0.19946548,-0.44906336,23.9375,24.1875,23.625,24.8125,24.6875,24.9375
0.3220539,-1.5010158,-3.4416077,-1.6636418,-0.100998625,0.098326735,-0.102833666,-0.39850205,-0.33162606,0.060002483,-3.073292,0.6288823,2.7781864e-05,-0.15838417,-0.01426205,0.003678302,0.031256367,0.0012053057,-0.026338521,0.43436855,-1.4192744,1.9490098,-2.0963156,-1.5743321,2.4125025,-0.088944,0.30338392,-0.37490553,0.08345755,-0.029647,-0.062264387,-0.22984336,0.3256114,-9.461885,0.9679317,47.645687,-0.8042042,-1.329292,-3.5051877,-0.26939768,-0.18448445,-0.4454106,23.9375,24.1875,23.625,24.8125,24.6875,24.9375
0.3240539,-1.8223655,-3.4915164,-1.7667056,-0.08881916,0.08175111,-0.092168465,-0.39879847,-0.33166367,0.060006328,-3.073225,0.62890387,5.085234e-05,-0.160891,-0.015763782,0.0031328555,0.029141344,0.0040132343,-0.021597037,0.43422455,-1.4186851,1.9482907,-2.0961616,-1.5743917,2.4123812,-0.08871216,0.3084372,-0.3785112,0.07854537,-0.02894444,-0.06677324,-0.1340753,0.30645782,-9.461885,0.96569055,47.66271,-0.8233031,-1.3715677,-3.4622335,-0.20186372,-0.17750706,-0.39350936,23.9375,24.1875,23.625,24.8125,24.6875,24.9375
0.32605386,-2.1148114,-3.15022,-1.9473171,-0.073941335,0.056957263,-0.08566604,-0.3991099,-0.33171052,0.060000774,-3.073174,0.6289295,4.5198958e-05,-0.16102792,-0.016677694,0.0017331096,0.02926745,0.003171714,-0.019230366,0.43406928,-1.418046,1.9475383,-2.096019,-1.5744275,2.412249,-0.08722936,0.31218785,-0.37931517,0.07640435,-0.028717473,-0.06765629,-0.21068975,0.4405331,-9.576807,0.9612189,47.64389,-0.8782475,-1.6280193,-3.6953788,-0.17615388,-0.15904889,-0.38087982,23.9375,24.1875,23.625,24.8125,24.6875,24.9375
0.32805362,-1.5802349,-3.24488,-2.16865,-0.07078915,0.06864909,-0.08771381,-0.39945203,-0.33174422,0.060022715,-3.0731497,0.6289038,0.00016888596,-0.16310517,-0.016214052,0.00071518,0.027988603,0.0045187958,-0.017963443,0.43388808,-1.4174452,1.946772,-2.0959003,-1.5744995,2.4120555,-0.090078175,0.315271,-0.3796856,0.07190383,-0.028144527,-0.07177474,-0.30645782,0.5554548,-9.710882,0.97240865,47.687782,-0.73437583,-1.5975914,-3.798882,-0.10081406,-0.14636621,-0.3519569,23.9375,24.1875,23.625,24.8125,24.6875,24.9375
0.3300545,-1.59685,-3.488786,-2.0676067,-0.09077229,0.07438723,-0.094146624,-0.39977002,-0.3317615,0.06002346,-3.0730479,0.6289334,0.00015390353,-0.16207992,-0.017848155,-0.00034217723,0.028210776,0.002354225,-0.008062059,0.43369746,-1.4168191,1.9460057,-2.0956972,-1.574571,2.4118972,-0.08660352,0.3182341,-0.38092306,0.07219756,-0.027462572,-0.07820213,-0.19153613,0.6703765,-9.691729,0.9410752,47.686886,-0.9876262,-1.5548799,-3.808955,-0.07503168,-0.128645,-0.26574954,23.9375,24.1875,23.625,24.8125,24.6875,24.9375
0.33205566,-1.6694542,-3.695703,-1.9556257,-0.1061937,0.052149013,-0.090412274,-0.40011442,-0.3317977,0.06003132,-3.0730028,0.6290237,0.00022079423,-0.16402437,-0.01645973,-0.0007138518,0.02850511,0.0015292919,-0.012945484,0.4335039,-1.4161813,1.945228,-2.0955765,-1.5746192,2.4117663,-0.09068017,0.32056156,-0.38309973,0.07291317,-0.027384441,-0.07739534,-0.095768064,0.6512229,-9.653421,1.0149267,47.70659,-0.83258915,-1.7576582,-4.0110626,-0.056887172,-0.13388841,-0.23620978,23.9375,24.1875,23.625,24.8125,24.6875,24.9375
0.33405465,-1.454342,-4.263584,-1.6285264,-0.111855514,0.05380686,-0.078886345,-0.40043065,-0.33183777,0.06004995,-3.0729704,0.6289753,0.00028708467,-0.16410303,-0.017996611,0.00015132366,0.02738908,0.002868612,-0.008872014,0.43334892,-1.4155928,1.9444741,-2.095421,-1.5746793,2.4115858,-0.088162415,0.32072148,-0.38557792,0.07353069,-0.02694316,-0.07895253,-0.21068975,0.59376204,-9.5385,0.9701675,47.67345,-0.8345306,-1.6041028,-3.919312,-0.039630525,-0.11806161,-0.20512664,23.9375,24.1875,23.625,24.8125,24.6875,24.9375
0.3360548,-1.3740531,-3.926503,-1.7484155,-0.09140054,0.02830145,-0.08287421,-0.40079084,-0.33188426,0.060065355,-3.0729437,0.62904596,0.00041376098,-0.16631131,-0.018715847,0.00033974086,0.026554823,0.0030408981,-0.008919136,0.43316847,-1.414943,1.9436702,-2.0953252,-1.5747389,2.4114535,-0.08904398,0.32490614,-0.39123338,0.074479744,-0.02626765,-0.07978861,-0.095768064,0.47884035,-9.423578,1.0149267,47.670765,-0.90582955,-1.506288,-3.7779608,-0.0040944256,-0.09321931,-0.18393013,23.9375,24.1875,23.625,24.8125,24.6875,24.9375
0.33805472,-0.2020499,-2.193393,-1.8483961,-0.074972495,0.030426705,-0.096391365,-0.40109053,-0.33194232,0.060056917,-3.0729187,0.6289245,0.00036843042,-0.16777846,-0.019660031,0.001167132,0.025064627,0.0045607802,-0.0097993845,0.4330367,-1.4142939,1.9429048,-2.0951574,-1.5747627,2.4112496,-0.08893727,0.3264251,-0.39516464,0.07488349,-0.025562959,-0.07880168,-0.05746084,0.47884035,-9.423578,0.9992599,47.694946,-0.9465856,-1.5181043,-3.7421298,0.02148224,-0.093381636,-0.15226606,23.9375,24.1875,23.625,24.8125,24.6875,24.9375
0.34005404,-0.7130598,-2.4820917,-1.8118862,-0.039231487,0.016494473,-0.08372499,-0.40146837,-0.33197248,0.060075764,-3.0728984,0.6290558,0.0004702955,-0.16766948,-0.020560367,0.0015205285,0.02399801,0.0036055623,-0.01057518,0.43279693,-1.413645,1.9420904,-2.0950487,-1.574798,2.411095,-0.08797881,0.32706082,-0.39735004,0.07684661,-0.024186708,-0.07707427,-0.1340753,0.51714754,-9.500193,1.0261165,47.71554,-0.9590011,-1.5244029,-3.6598158,0.0403398,-0.113324754,-0.15154217,23.9375,24.1875,23.625,24.8125,24.6875,24.9375
0.3420542,-1.0201436,-2.136864,-1.709172,-0.059437905,0.019758144,-0.08865271,-0.40181196,-0.3320263,0.060100432,-3.0728574,0.62906796,0.00057444995,-0.16815963,-0.019654376,0.0013629757,0.023940384,-0.00026351784,-0.016081922,0.43265188,-1.4130075,1.9412645,-2.0948918,-1.5748695,2.4109633,-0.091002665,0.328509,-0.39989048,0.081422865,-0.02249909,-0.07459894,-0.076614454,0.4405331,-9.423578,0.9768804,47.68062,-0.9220923,-1.4839872,-3.6594086,0.02671692,-0.12656917,-0.1735797,23.9375,24.1875,23.625,24.8125,24.6875,24.9375
0.34405446,-1.3849043,-2.7094588,-1.3621379,-0.065172784,0.032713108,-0.08776874,-0.40212807,-0.33205894,0.060097326,-3.0727806,0.6291272,0.0004978581,-0.16636491,-0.021031141,0.00062220794,0.025037333,-0.004093805,-0.015500206,0.4324613,-1.412359,1.9404753,-2.0946748,-1.5748934,2.4108202,-0.08731585,0.33047146,-0.40146258,0.08497513,-0.02188417,-0.071494706,-0.11492168,0.36391866,-9.270349,1.0686398,47.67614,-1.149061,-1.3148081,-3.7271705,-0.010773279,-0.12931654,-0.18995437,23.9375,24.1875,23.625,24.8125,24.6875,24.9375
0.3460542,-1.3019664,-2.6630328,-1.417207,-0.07636035,0.044659406,-0.089832895,-0.4024566,-0.33205062,0.060058545,-3.0725994,0.6291503,0.00047415838,-0.16484146,-0.01893568,-0.0017608302,0.029855661,-0.01506749,-0.021246452,0.43225646,-1.4116601,1.93972,-2.094504,-1.5750254,2.410654,-0.08985464,0.33475834,-0.40333772,0.094545856,-0.021646136,-0.068286344,-0.038307227,0.30645782,-9.212888,1.0126908,47.64837,-1.1253076,-1.4771254,-3.773376,-0.06739566,-0.11416167,-0.20593116,23.9375,24.1875,23.625,24.8125,24.6875,24.9375
0.3480546,-1.0775275,-2.1764824,-1.3960936,-0.06461505,0.03307769,-0.09112554,-0.4028052,-0.3321262,0.06009334,-3.072614,0.6292496,0.00054241717,-0.16441107,-0.01958147,-0.0019350905,0.030835427,-0.01749643,-0.022699272,0.43210104,-1.4110231,1.9388703,-2.0943472,-1.5750254,2.4105592,-0.088319555,0.33663815,-0.4061,0.09805385,-0.02150849,-0.0652996,0.076614454,0.2681506,-9.193734,1.0283576,47.657326,-1.0160911,-1.5673587,-3.819184,-0.1335372,-0.12309756,-0.25067437,23.9375,24.1875,23.625,24.8125,24.6875,24.9375
0.35005367,-0.66082096,-1.3748243,-0.9451961,-0.0475535,0.024403835,-0.0887173,-0.40316898,-0.33219758,0.060126122,-3.072642,0.629236,0.0006204367,-0.16563703,-0.019985652,-0.0019805091,0.031143138,-0.019784216,-0.025009789,0.43193296,-1.410361,1.9379958,-2.0941904,-1.5750369,2.4103794,-0.08894182,0.34054086,-0.41156307,0.10182154,-0.02082998,-0.063613266,0.038307227,0.19153614,-8.983045,0.9612189,47.651955,-1.173717,-1.6102858,-3.6695871,-0.19348776,-0.12585108,-0.29449978,23.9375,24.1875,23.625,24.8125,24.6875,24.9375
0.35205382,-0.62188196,-1.0211437,-1.0402703,-0.0086209215,-0.0013333418,-0.088474266,-0.4034998,-0.33224934,0.060117844,-3.0725317,0.62936586,0.0006001463,-0.16694488,-0.020380177,-0.0016022301,0.03047972,-0.019757686,-0.025503859,0.43178853,-1.4096566,1.937158,-2.0939982,-1.575097,2.410331,-0.0895954,0.34257573,-0.41532278,0.10323521,-0.02025219,-0.06377268,0.019153614,0.15322891,-8.868123,0.9791215,47.667187,-1.1534232,-1.6457591,-3.5708218,-0.18625715,-0.13322687,-0.2880192,23.9375,24.1875,23.625,24.8125,24.6875,24.9375
0.35405555,-0.35502675,-0.54988194,-1.1303387,0.00723046,-0.0036333592,-0.08614876,-0.40382552,-0.3322716,0.060100216,-3.0724454,0.6294243,0.00050270715,-0.16798308,-0.020472985,-0.001065018,0.030181138,-0.019067446,-0.025772681,0.4315724,-1.4089786,1.9363688,-2.0937946,-1.5751208,2.4101632,-0.090153046,0.34337583,-0.41792774,0.104281425,-0.020286422,-0.06405879,-0.019153614,0.17238252,-8.90643,0.94331104,47.64927,-1.0985951,-1.6826394,-3.5372736,-0.22582777,-0.13836178,-0.31112483,23.9375,24.1875,23.625,24.8125,24.6875,24.9375
0.3560544,-0.92857414,-0.9719648,-0.92106956,-0.008846491,-0.0006424308,-0.082963854,-0.40417597,-0.3323211,0.060123403,-3.0723836,0.6295067,0.0004992517,-0.16941133,-0.020683626,-0.00034637313,0.029914012,-0.016838787,-0.025442934,0.43139243,-1.4083062,1.9354848,-2.0935557,-1.5751566,2.4100432,-0.090397246,0.3441145,-0.42058405,0.10405718,-0.020990843,-0.06462816,0.019153614,0.15322891,-8.829816,0.9612189,47.64479,-1.103958,-1.6626003,-3.5997648,-0.24882844,-0.14429016,-0.32838178,23.9375,24.1875,23.625,24.8125,24.6875,24.9375
0.3580548,-1.5707304,-2.0256627,-0.5637016,-0.04395597,0.026995577,-0.09021396,-0.40449777,-0.3323261,0.060076468,-3.0721993,0.62960297,0.0003749181,-0.1706195,-0.020904582,-0.00019772112,0.029153723,-0.015128793,-0.025787612,0.43118817,-1.4075726,1.9346951,-2.0933406,-1.5752414,2.4099238,-0.09086061,0.34522715,-0.42211744,0.10259681,-0.021037985,-0.06474273,-0.1340753,0.13407528,-8.734048,1.0529729,47.635834,-1.0881554,-1.4692645,-3.5177822,-0.24904904,-0.15098394,-0.32595986,23.9375,24.1875,23.625,24.8125,24.6875,24.9375
0.36005425,-2.370221,-2.8217223,-0.53939587,-0.067326225,0.0530802,-0.08153936,-0.4048248,-0.33238894,0.0600859,-3.0721636,0.629575,0.00034514087,-0.17254505,-0.021478098,0.0008363883,0.027059237,-0.01137113,-0.026550468,0.431044,-1.4069002,1.9338468,-2.093126,-1.5752648,2.4097674,-0.09153081,0.3454984,-0.42452428,0.10043826,-0.020721393,-0.064649686,-0.34476504,0.19153613,-8.7532015,1.0238806,47.63404,-1.1066875,-1.4891176,-3.664553,-0.24259949,-0.16461828,-0.3436814,23.9375,24.1875,23.625,24.8125,24.6875,24.9375
0.36205417,-2.5854003,-3.0591726,-0.7244164,-0.077794075,0.09036561,-0.090295374,-0.40517688,-0.33243847,0.06010637,-3.072087,0.62969345,0.00032735761,-0.17432952,-0.021690901,0.00022998192,0.02623273,-0.009555068,-0.027707096,0.4308637,-1.4062147,1.9329499,-2.0928757,-1.575301,2.4096715,-0.092496805,0.34849322,-0.426043,0.09696206,-0.020746185,-0.0644569,-0.4213795,0.28730422,-8.925584,1.061927,47.623295,-1.1329188,-1.3462713,-3.6160588,-0.20523712,-0.16515464,-0.38040224,23.9375,24.1875,23.625,24.8125,24.6875,24.9375
0.36405414,-2.7657962,-3.2614338,-1.1050572,-0.066252805,0.10242186,-0.08343261,-0.40556127,-0.33248296,0.060132604,-3.0720644,0.62978387,0.00040758375,-0.17737265,-0.023008347,0.0011065255,0.02346121,-0.004633069,-0.027344586,0.43064764,-1.4055333,1.932063,-2.0927098,-1.5753368,2.4095154,-0.09280755,0.35117832,-0.4305102,0.09310327,-0.020304978,-0.06513042,-0.24899697,0.24899697,-9.11712,1.0037369,47.617023,-1.1549993,-1.4928781,-3.572959,-0.16415817,-0.18326111,-0.4026193,23.9375,24.1875,23.625,24.8125,24.6875,24.9375
0.36605397,-3.3400335,-3.4741962,-1.0570807,-0.057964865,0.081716485,-0.07714211,-0.4058873,-0.33252636,0.06008147,-3.0719614,0.62987643,0.00022707887,-0.1786295,-0.02290601,-0.00039476174,0.023263084,-0.0042896196,-0.026093975,0.43045518,-1.4047589,1.931239,-2.0925195,-1.5753368,2.4093947,-0.0939178,0.3548309,-0.43070233,0.08923329,-0.020297362,-0.06748782,-0.4405331,0.24899697,-9.078813,1.0596858,47.64927,-1.0477412,-1.588398,-3.7569237,-0.12599576,-0.18792486,-0.37169945,23.9375,24.1875,23.625,24.8125,24.6875,24.9375
0.36805415,-2.335079,-2.601062,-1.1271434,-0.056094278,0.08862176,-0.08558558,-0.4062345,-0.33257142,0.06008691,-3.0718799,0.62993556,0.0002361236,-0.18082081,-0.023010096,0.0008154199,0.02267256,-0.0014334293,-0.028027067,0.43028688,-1.4040672,1.9303783,-2.0923154,-1.5753969,2.4092746,-0.09500201,0.35570446,-0.43479025,0.08960476,-0.02096204,-0.06663361,-0.6512228,0.2681506,-9.021352,0.9545008,47.687782,-1.0133064,-1.6361575,-3.6113496,-0.07349955,-0.18864739,-0.4105441,23.9375,24.1875,23.625,24.8125,24.6875,24.9375
0.37005433,-1.6762408,-1.8718874,-1.411979,-0.03590362,0.08395882,-0.08978295,-0.40659997,-0.33260462,0.060047787,-3.0717785,0.6300272,0.00021772488,-0.18291385,-0.023321843,0.00034224638,0.022722894,0.00068732706,-0.025300298,0.4300828,-1.4032918,1.929541,-2.0921967,-1.5754575,2.4091415,-0.095431864,0.3594038,-0.43763632,0.08682517,-0.02192137,-0.06978275,-0.59376204,0.2873042,-9.021352,0.9612189,47.645687,-1.0181818,-1.6991171,-3.5880742,-0.019518554,-0.19156453,-0.4008966,23.9375,24.1875,23.625,24.8125,24.6875,24.9375
