Tylouw/Master_Thesis_Code/training_data/batch_1/big_rod_t0.1/sample_25_session_1.csv
timestamp[s],tcp_force_x[N],tcp_force_y[N],tcp_force_z[N],tcp_force_rx[Nm?],tcp_force_ry[Nm?],tcp_force_rz[Nm?],tcp_pose_x[m],tcp_pose_y[m],tcp_pose_z[m],tcp_pose_rx[rot_vec_x],tcp_pose_ry[rot_vec_y],tcp_pose_rz[rot_vec_z],tcp_velo_x[m/s],tcp_velo_y[m/s],tcp_velo_z[m/s],tcp_velo_rx[rot_vec_x/s],tcp_velo_ry[rot_vec_y/s],tcp_velo_rz[rot_vec_z/s],q1[rad],q2[rad],q3[rad],q4[rad],q5[rad],q6[rad],qd1[rad/s],qd2[rad/s],qd3[rad/s],qd4[rad/s],qd5[rad/s],qd6[rad/s],tool_acc_x,tool_acc_y,tool_acc_z,current_of_whole_robot[A],voltage_of_whole_robot[V],current_J1[A],current_J2[A],current_J3[A],current_J4[A],current_J5[A],current_J6[A],temp_J1[C],temp_J2[C],temp_J3[C],temp_J4[C],temp_J5[C],temp_J6[C]
7.9203164e-07,1.4141735,0.2141213,1.1679413,-0.019383479,0.035547372,0.07450507,-0.37512153,-0.32962552,0.0020285673,3.0757086,-0.62377,-0.007575919,-8.314162e-38,-4.029206e-38,2.8979617e-38,-1.2442681e-37,2.567674e-37,2.2136e-41,0.44896615,-1.3790014,2.0837944,-2.2799313,-1.5710577,2.4235587,0.0,0.0,-0.0,-2.8532706e-37,0.0,-0.0,0.019153614,-0.019153614,-9.32781,0.74413085,47.689575,0.3748438,-3.474083,-2.4136615,-0.49297142,0.17043597,-0.07390704,24.1875,24.5625,23.9375,25.375,25.3125,25.5625
0.00205214,1.0093017,0.6616396,1.108085,-0.022806263,0.027316775,0.0760979,-0.375122,-0.32962814,0.0020285628,3.0756783,-0.62382185,-0.0075526657,-5.428585e-39,-2.630719e-39,1.892162e-39,-8.123982e-39,1.6765173e-38,1.445e-42,0.44895422,-1.3790014,2.0837944,-2.2799313,-1.5710334,2.423583,0.0,0.0,-0.0,-1.8629817e-38,0.0,-0.0,0.30645782,0.11492168,-9.308656,0.8112748,47.701214,0.34166873,-3.3831258,-2.439128,-0.4838917,0.16789375,-0.0624101,24.1875,24.5625,23.9375,25.375,25.3125,25.5625
0.004052514,1.1124704,0.3098664,1.2803744,-0.018944291,0.037035506,0.07908141,-0.37512994,-0.32961908,0.0020388793,3.0756676,-0.6238384,-0.007567819,-3.5445e-40,-1.71759e-40,1.2355e-40,-5.30411e-40,1.09466e-39,9.4e-44,0.44893014,-1.3790253,2.0837944,-2.2799194,-1.5710334,2.4235706,0.0,0.0,-0.0,-1.216394e-39,0.0,-0.0,0.11492168,0.038307227,-9.308656,0.7284641,47.67166,0.37485516,-3.4153335,-2.48039,-0.4885648,0.1613679,-0.06756781,24.1875,24.5625,23.9375,25.375,25.3125,25.5625
0.006053084,0.8615046,0.113825575,1.2566056,-0.029690027,0.03504666,0.07309831,-0.37512374,-0.3296245,0.0020388816,3.0756848,-0.6238033,-0.0075795953,-2.3142e-41,-1.1215e-41,8.067e-42,-3.4633e-41,7.1472e-41,6e-45,0.44895422,-1.3790253,2.0837944,-2.2799194,-1.5710458,2.4235706,0.0,0.0,-0.0,-7.9421e-41,0.0,-0.0,0.19153614,0.15322891,-9.385271,0.7530795,47.731667,0.32350725,-3.426474,-2.4809427,-0.49392,0.14628126,-0.059719704,24.1875,24.5625,23.9375,25.375,25.3125,25.5625
0.008053004,0.99496806,0.18729618,1.3793999,-0.04165749,0.03216441,0.07253103,-0.37512228,-0.32963467,0.0020377256,3.0756867,-0.6237464,-0.0075671687,-1.51e-42,-7.33e-43,5.27e-43,-2.262e-42,4.668e-42,0.0,0.44896615,-1.3790134,2.083783,-2.2799194,-1.5710334,2.4235468,0.0,0.0,-0.0,-5.186e-42,0.0,-0.0,0.114921674,0.1340753,-9.423578,0.7284641,47.70659,0.36902517,-3.4445744,-2.4698472,-0.49165025,0.14980087,-0.06598816,24.1875,24.5625,23.9375,25.375,25.3125,25.5625
0.010053022,1.4295508,0.29253206,1.1305448,-0.042847835,0.038128998,0.0685186,-0.3751078,-0.3296103,0.0020161695,3.0757136,-0.6238485,-0.007503314,-1e-43,-4.8e-44,3.5e-44,-1.49e-43,3.05e-43,0.0,0.44894207,-1.3790014,2.0838192,-2.279907,-1.5710458,2.423583,0.0,0.0,-0.0,-3.39e-43,0.0,-0.0,0.095768064,0.17238252,-9.404425,0.7038487,47.685097,0.33948016,-3.401298,-2.4910972,-0.49653572,0.15910122,-0.068887115,24.1875,24.5625,23.9375,25.375,25.3125,25.5625
0.012052627,1.0447283,0.20203826,1.1557647,-0.03156837,0.028282262,0.07083756,-0.37513053,-0.3296194,0.0020364665,3.0756752,-0.62384,-0.007551747,-7e-45,-3e-45,3e-45,-1e-44,2e-44,0.0,0.44893014,-1.3790134,2.083783,-2.279907,-1.5710334,2.4235706,0.0,0.0,-0.0,-2.2e-44,0.0,-0.0,0.15322891,0.1340753,-9.404425,0.75755644,47.670765,0.36343402,-3.4143176,-2.4624019,-0.49253047,0.17652208,-0.07202587,24.1875,24.5625,23.9375,25.375,25.3125,25.5625
0.014051959,1.4073673,0.22968416,1.308189,-0.024022732,0.042208966,0.07415552,-0.37511805,-0.32962385,0.0020273565,3.0757158,-0.6237715,-0.00756106,-0.0,-0.0,0.0,-0.0,1e-45,0.0,0.44896615,-1.3790014,2.0837944,-2.2799194,-1.5710577,2.4235587,0.0,0.0,-0.0,-1e-45,0.0,-0.0,0.13407528,0.095768064,-9.385271,0.71951014,47.66271,0.36770996,-3.4210186,-2.4796085,-0.4965266,0.15714118,-0.07596673,24.1875,24.5625,23.9375,25.375,25.3125,25.5625
0.016051687,0.8758363,0.6133928,1.3413517,-0.034885805,0.03167149,0.069717236,-0.3751101,-0.32962236,0.0020267933,3.0756862,-0.62378454,-0.0075523313,0.0,0.0,0.0,0.0,0.0,0.0,0.44895422,-1.3790253,2.0838306,-2.2799432,-1.5710334,2.4235587,0.0,0.0,-0.0,-0.0,0.0,-0.0,0.095768064,0.15322891,-9.423578,0.78217715,47.713753,0.34644067,-3.430464,-2.4670887,-0.5050636,0.1547024,-0.06588866,24.1875,24.5625,23.9375,25.375,25.3125,25.5625
0.018051988,0.55442643,0.05603975,1.2200571,-0.032317277,0.027055146,0.08581176,-0.37510103,-0.32961798,0.0020079534,3.0757263,-0.6238117,-0.0074608154,0.0,0.0,0.0,0.0,0.0,0.0,0.44895422,-1.3789773,2.0838077,-2.279895,-1.5710334,2.4235706,0.0,0.0,-0.0,-0.0,0.0,-0.0,0.076614454,0.11492168,-9.385271,0.7284641,47.68062,0.32151735,-3.4269316,-2.4568794,-0.50525486,0.16545439,-0.0724101,24.1875,24.5625,23.9375,25.375,25.3125,25.5625
0.020052094,0.7870484,0.03280053,1.1517609,-0.037418555,0.033104964,0.077734776,-0.37511098,-0.32962918,0.002026093,3.0756927,-0.62382555,-0.007522291,0.0,0.0,0.0,0.0,0.0,0.0,0.44896615,-1.3790014,2.0837944,-2.279907,-1.5710334,2.4235954,0.0,0.0,-0.0,-0.0,0.0,-0.0,0.2681506,0.19153613,-9.404425,0.7284641,47.686886,0.35497427,-3.4083557,-2.4645855,-0.4954744,0.14566399,-0.06346178,24.1875,24.5625,23.9375,25.375,25.3125,25.5625
0.022051904,0.959022,0.06924242,1.1795448,-0.035840664,0.03385889,0.07320106,-0.37514132,-0.32962465,0.002029893,3.0756674,-0.623878,-0.0075517553,0.0,0.0,0.0,0.0,0.0,0.0,0.44893014,-1.3789773,2.083759,-2.2799194,-1.5710334,2.4235954,0.0,0.0,-0.0,-0.0,0.0,-0.0,0.038307227,0.095768064,-9.423578,0.7351769,47.682407,0.35631084,-3.4109616,-2.4637332,-0.48295897,0.1516341,-0.06302321,24.1875,24.5625,23.9375,25.375,25.3125,25.5625
0.024052856,0.81689304,0.20421526,1.1539525,-0.03341419,0.027831253,0.07074595,-0.37512714,-0.32961756,0.0020285696,3.0757027,-0.6238467,-0.0075872387,0.0,0.0,0.0,0.0,0.0,0.0,0.44895422,-1.3790014,2.0837944,-2.2799313,-1.5710696,2.4235954,0.0,0.0,-0.0,-0.0,0.0,-0.0,0.17238252,0.11492168,-9.404425,0.6971306,47.698532,0.39785856,-3.4089828,-2.4123566,-0.48412752,0.16736488,-0.061162002,24.1875,24.5625,23.9375,25.375,25.3125,25.5625
0.026053755,1.1664559,0.32930917,1.0717567,-0.02825384,0.031733528,0.07016324,-0.37512958,-0.32961226,0.0020199597,3.0757034,-0.6238465,-0.0075860857,0.0,0.0,0.0,0.0,0.0,0.0,0.44894207,-1.3789895,2.0838077,-2.2799556,-1.5710696,2.423583,0.0,0.0,-0.0,-0.0,0.0,-0.0,-0.05746084,0.019153614,-9.308656,0.77545905,47.71017,0.38077086,-3.4346528,-2.456299,-0.49226463,0.15780924,-0.073125355,24.1875,24.5625,23.9375,25.375,25.3125,25.5625
0.0280532,0.65939516,0.3919177,1.1051292,-0.021126678,0.02168747,0.07699788,-0.37513748,-0.32963344,0.0020357405,3.0756624,-0.6238182,-0.007555588,0.0,0.0,0.0,0.0,0.0,0.0,0.44894207,-1.3789895,2.083759,-2.2799194,-1.5710214,2.4235706,0.0,0.0,-0.0,-0.0,0.0,-0.0,0.1340753,0.1340753,-9.385271,0.70608455,47.701214,0.35122102,-3.4505863,-2.4191797,-0.49465328,0.18000934,-0.06232305,24.1875,24.5625,23.9375,25.375,25.3125,25.5625
0.030053068,0.84236604,-0.11832307,1.0497475,-0.013942876,0.023320539,0.08251079,-0.37513664,-0.32962236,0.0020307796,3.0756676,-0.62387806,-0.0075514833,0.0,0.0,0.0,0.0,0.0,0.0,0.44893014,-1.3789895,2.0837715,-2.2799194,-1.5710334,2.4235954,0.0,0.0,-0.0,-0.0,0.0,-0.0,0.15322891,0.1340753,-9.423578,0.779936,47.692257,0.40855634,-3.4525557,-2.4241447,-0.47935432,0.1496671,-0.067534074,24.1875,24.5625,23.9375,25.375,25.3125,25.5625
0.032052796,0.9058932,0.14639126,1.0413545,-0.029499274,0.030065972,0.076854676,-0.375145,-0.3296069,0.0020434677,3.0756814,-0.6238804,-0.007616688,0.0,0.0,0.0,0.0,0.0,0.0,0.4489181,-1.3790253,2.083783,-2.2799194,-1.5710696,2.423583,0.0,0.0,-0.0,-0.0,0.0,-0.0,0.24899697,0.076614454,-9.404425,0.779936,47.698532,0.341518,-3.467614,-2.4638422,-0.49309248,0.14072624,-0.07102709,24.1875,24.5625,23.9375,25.375,25.3125,25.5625
0.03405226,0.91522926,0.060775418,0.95808786,-0.024247518,0.029055623,0.082638316,-0.37513196,-0.32962647,0.0020331442,3.0756717,-0.6238201,-0.0075669945,0.0,0.0,0.0,0.0,0.0,0.0,0.44894207,-1.3790014,2.083783,-2.2799313,-1.5710334,2.4235706,0.0,0.0,-0.0,-0.0,0.0,-0.0,0.114921674,0.19153613,-9.442732,0.7105615,47.683304,0.35814932,-3.4263818,-2.4869463,-0.49729443,0.16406147,-0.070525795,24.1875,24.5625,23.9375,25.375,25.3125,25.5625
0.03605228,0.8578537,-0.0147992615,1.0295243,-0.024174409,0.030514551,0.07224468,-0.37512165,-0.32962558,0.0020256925,3.0756943,-0.62380606,-0.0075895255,0.0,0.0,0.0,0.0,0.0,0.0,0.44896615,-1.3790014,2.0838077,-2.2799556,-1.5710577,2.423583,0.0,0.0,-0.0,-0.0,0.0,-0.0,0.11492168,0.17238252,-9.385271,0.7642693,47.707485,0.3720199,-3.4913583,-2.4402223,-0.49621704,0.16609147,-0.07053938,24.1875,24.5625,23.9375,25.375,25.3125,25.5625
0.03805257,1.171104,0.13641122,1.1354021,-0.023623763,0.038716815,0.07315346,-0.37513387,-0.32962513,0.002036519,3.0756984,-0.62378705,-0.007589622,0.0,0.0,0.0,0.0,0.0,0.0,0.44895422,-1.3790014,2.0837715,-2.2799194,-1.5710577,2.4235587,0.0,0.0,-0.0,-0.0,0.0,-0.0,0.11492168,0.076614454,-9.385271,0.7150385,47.687782,0.3526706,-3.4325035,-2.489515,-0.49595577,0.17034757,-0.06112941,24.1875,24.5625,23.9375,25.375,25.3125,25.5625
0.04005255,0.7488716,0.28171575,0.94951993,-0.020825611,0.028946687,0.07933837,-0.37512675,-0.32962394,0.0020261984,3.075686,-0.623823,-0.007537251,0.0,0.0,0.0,0.0,0.0,0.0,0.44894207,-1.3789895,2.083783,-2.2799194,-1.5710334,2.4235706,0.0,0.0,-0.0,-0.0,0.0,-0.0,0.11492168,0.095768064,-9.32781,0.7642693,47.695843,0.36431724,-3.4398227,-2.4896302,-0.48919183,0.15626773,-0.06722885,24.1875,24.5625,23.9375,25.375,25.3125,25.5625
0.042052347,0.5461548,0.062566064,1.0542649,-0.02119961,0.02542562,0.08572746,-0.37512898,-0.3296358,0.0020470913,3.0756445,-0.62379515,-0.0076011247,0.0,0.0,0.0,0.0,0.0,0.0,0.44895422,-1.3790374,2.0837944,-2.2799432,-1.5710214,2.4235706,0.0,0.0,-0.0,-0.0,0.0,-0.0,0.19153613,0.11492168,-9.385271,0.7866488,47.66987,0.32655162,-3.4403515,-2.3937209,-0.4851599,0.16232148,-0.068409234,24.1875,24.5625,23.9375,25.375,25.3125,25.5625
0.044053588,0.7627357,0.28233874,1.1097304,-0.035168298,0.03829428,0.07773203,-0.37513706,-0.3296116,0.0020274182,3.0757163,-0.62382925,-0.0075980974,0.0,0.0,0.0,0.0,0.0,0.0,0.44894207,-1.3789895,2.083783,-2.2799313,-1.5710815,2.4235706,0.0,0.0,-0.0,-0.0,0.0,-0.0,0.076614454,0.076614454,-9.442732,0.7396539,47.68062,0.40329254,-3.4368086,-2.4648812,-0.4965165,0.15174724,-0.08594726,24.1875,24.5625,23.9375,25.375,25.3125,25.5625
0.04605235,0.42367595,0.03499253,1.0690341,-0.030175177,0.030783383,0.077957906,-0.37513605,-0.32963493,0.0020334546,3.0756497,-0.623816,-0.007612695,0.0,0.0,0.0,0.0,0.0,0.0,0.44895422,-1.3790014,2.0837944,-2.2799795,-1.5710334,2.423583,0.0,0.0,-0.0,-0.0,0.0,-0.0,0.076614454,0.076614454,-9.423578,0.7530795,47.694946,0.3365561,-3.4328704,-2.4755437,-0.4770003,0.16872118,-0.06846933,24.1875,24.5625,23.9375,25.375,25.3125,25.5625
0.04805165,0.7128836,0.04041198,1.020228,-0.028938053,0.034568746,0.085999325,-0.37512577,-0.32963634,0.0020352493,3.0756516,-0.62381595,-0.0075168,0.0,0.0,0.0,0.0,0.0,0.0,0.44894207,-1.3790014,2.0837715,-2.279907,-1.5709976,2.4235706,0.0,0.0,-0.0,-0.0,0.0,-0.0,0.038307227,0.11492168,-9.442732,0.7172743,47.677036,0.35763067,-3.4339848,-2.4570885,-0.49702623,0.15621261,-0.0846629,24.1875,24.5625,23.9375,25.375,25.3125,25.5625
0.050052445,0.90494555,0.21521665,1.1703361,-0.030894646,0.035987604,0.07494284,-0.37512374,-0.32962897,0.0020343552,3.0756636,-0.6238578,-0.007567636,0.0,0.0,0.0,0.0,0.0,0.0,0.44895422,-1.3790134,2.0837944,-2.2799313,-1.5710334,2.4236073,0.0,0.0,-0.0,-0.0,0.0,-0.0,0.15322891,0.15322891,-9.442732,0.66803825,47.691364,0.35266998,-3.4078991,-2.4496174,-0.4877189,0.15914886,-0.067802526,24.1875,24.5625,23.9375,25.375,25.3125,25.5625
0.052052047,1.1076331,0.3944257,1.130516,-0.032036424,0.037169375,0.073276654,-0.3751444,-0.32962802,0.0020472729,3.0756555,-0.6238756,-0.0076086326,0.0,0.0,0.0,0.0,0.0,0.0,0.44894207,-1.3790134,2.083759,-2.2799194,-1.5710458,2.4236073,0.0,0.0,-0.0,-0.0,0.0,-0.0,0.038307227,0.11492168,-9.423578,0.69937176,47.699425,0.36503923,-3.4277272,-2.4520664,-0.49211356,0.15556082,-0.070987664,24.1875,24.5625,23.9375,25.375,25.3125,25.5625
0.054051735,0.26089343,-0.32612583,0.95807034,-0.012374166,0.01515068,0.09871655,-0.37511623,-0.32962313,0.002038567,3.0756762,-0.6238607,-0.0075105773,0.0,0.0,0.0,0.0,0.0,0.0,0.44894207,-1.3790253,2.083783,-2.2798712,-1.5710214,2.4235954,0.0,0.0,-0.0,-0.0,0.0,-0.0,0.11492168,0.24899697,-9.461885,0.75084364,47.67614,0.35312036,-3.435929,-2.4366384,-0.48243326,0.16601986,-0.07827909,24.1875,24.5625,23.9375,25.375,25.3125,25.5625
0.056052513,0.74525344,-0.014378537,1.0535994,-0.023806807,0.029211879,0.08441962,-0.3751274,-0.3296048,0.0020256466,3.0756958,-0.6238839,-0.007586284,0.0,0.0,0.0,0.0,0.0,0.0,0.44893014,-1.3790134,2.0838192,-2.2799432,-1.5710696,2.4235954,0.0,0.0,-0.0,-0.0,0.0,-0.0,0.019153614,0.15322891,-9.404425,0.8291774,47.71017,0.39396483,-3.37266,-2.4078188,-0.4925451,0.15463641,-0.06079682,24.1875,24.5625,23.9375,25.375,25.3125,25.5625
0.058051836,1.001782,0.09665647,1.1138963,-0.031408574,0.03520133,0.07555297,-0.37514538,-0.32963088,0.0020447269,3.0756488,-0.6237773,-0.007599894,0.0,0.0,0.0,0.0,0.0,0.0,0.44893014,-1.3790134,2.0837715,-2.2799432,-1.5710214,2.4235349,0.0,0.0,-0.0,-0.0,0.0,-0.0,0.076614454,0.15322891,-9.404425,0.6926589,47.70032,0.3307156,-3.4253702,-2.46967,-0.4820252,0.15596426,-0.07573958,24.1875,24.5625,23.9375,25.375,25.3125,25.5625
0.060052227,0.74470514,-0.2265071,1.0383002,-0.022540065,0.025547352,0.08033498,-0.3751188,-0.32961372,0.0020141127,3.0756972,-0.6238062,-0.007521886,0.0,0.0,0.0,0.0,0.0,0.0,0.44893014,-1.3789895,2.0838192,-2.2799432,-1.5710334,2.4235468,0.0,0.0,-0.0,-0.0,0.0,-0.0,0.019153614,0.1340753,-9.3661175,0.72622824,47.699425,0.38505274,-3.4362488,-2.4439158,-0.49627262,0.15340233,-0.07485984,24.1875,24.5625,23.9375,25.375,25.3125,25.5625
0.062051646,0.7116512,0.24849516,1.2125999,-0.029069798,0.024682548,0.08481614,-0.37513217,-0.32960498,0.0020216217,3.075708,-0.62384677,-0.007546298,0.0,0.0,0.0,0.0,0.0,0.0,0.4489181,-1.3789895,2.0837944,-2.2799194,-1.5710577,2.4235587,0.0,0.0,-0.0,-0.0,0.0,-0.0,0.11492168,0.15322891,-9.32781,0.7642693,47.691364,0.36177745,-3.4446929,-2.4670374,-0.47474545,0.15714097,-0.072830476,24.1875,24.5625,23.9375,25.375,25.3125,25.5625
0.064052515,1.1987314,0.25472102,1.0321413,-0.027713982,0.036550995,0.07277614,-0.37512633,-0.32961288,0.002042204,3.0756922,-0.6238052,-0.0075644404,0.0,0.0,0.0,0.0,0.0,0.0,0.44893014,-1.3790374,2.0837944,-2.279895,-1.5710458,2.4235468,0.0,0.0,-0.0,-0.0,0.0,-0.0,0.05746084,0.17238252,-9.32781,0.7083204,47.672558,0.27556223,-3.42456,-2.5005217,-0.492422,0.1414117,-0.08259876,24.1875,24.5625,23.9375,25.375,25.3125,25.5625
0.06605186,1.0786226,0.41193646,1.2005092,-0.02935511,0.03225311,0.08086028,-0.3751348,-0.3296279,0.0020331377,3.0756366,-0.62385124,-0.0075329086,0.0,0.0,0.0,0.0,0.0,0.0,0.4489181,-1.3790014,2.083783,-2.2799313,-1.5709976,2.4235706,0.0,0.0,-0.0,-0.0,0.0,-0.0,0.11492168,0.17238252,-9.423578,0.7933669,47.711063,0.36310884,-3.4282086,-2.4332957,-0.48227316,0.16128409,-0.0693908,24.1875,24.5625,23.9375,25.375,25.3125,25.5625
0.06805217,0.2490716,0.015033049,1.2726566,-0.021449825,0.01037001,0.08601779,-0.37511167,-0.3296015,0.002010437,3.07573,-0.6238511,-0.0074998736,0.0,0.0,0.0,0.0,0.0,0.0,0.44893014,-1.3789895,2.0838192,-2.279907,-1.5710577,2.4235706,0.0,0.0,-0.0,-0.0,0.0,-0.0,0.21068975,0.05746084,-9.442732,0.66132545,47.689575,0.31349307,-3.4198031,-2.464115,-0.48081058,0.17030644,-0.08150147,24.1875,24.5625,23.9375,25.375,25.3125,25.5625
0.070052005,1.1749128,0.41037378,1.300876,-0.03221363,0.035815246,0.0743121,-0.37512362,-0.32961157,0.0020290194,3.0757165,-0.6238297,-0.007597044,0.0,0.0,0.0,0.0,0.0,0.0,0.44895422,-1.3790134,2.0838077,-2.2799313,-1.5710815,2.423583,0.0,0.0,-0.0,-0.0,0.0,-0.0,0.1340753,0.17238252,-9.3661175,0.7418897,47.72719,0.3783097,-3.437976,-2.4522457,-0.4979077,0.15915902,-0.0780833,24.1875,24.5625,23.9375,25.375,25.3125,25.5625
0.07205165,0.6115653,-0.23406579,1.2169966,-0.019401958,0.027029803,0.082576856,-0.37513903,-0.32962987,0.0020460112,3.0756648,-0.6238187,-0.007581436,0.0,0.0,0.0,0.0,0.0,0.0,0.44894207,-1.3790134,2.083759,-2.279907,-1.5710334,2.4235706,0.0,0.0,-0.0,-0.0,0.0,-0.0,0.076614454,0.17238252,-9.3661175,0.7217513,47.687782,0.37289107,-3.446691,-2.4541438,-0.4894145,0.16358559,-0.060987286,24.1875,24.5625,23.9375,25.375,25.3125,25.5625
0.07405158,1.2064015,0.54160476,1.1603545,-0.0371441,0.044505753,0.07554122,-0.3751418,-0.3296161,0.002026145,3.0756943,-0.62384385,-0.007574445,0.0,0.0,0.0,0.0,0.0,0.0,0.44893014,-1.3789773,2.0837715,-2.2799313,-1.5710577,2.4235706,0.0,0.0,-0.0,-0.0,0.0,-0.0,0.11492168,0.05746084,-9.32781,0.7083204,47.679718,0.4101928,-3.4412947,-2.5040922,-0.4868204,0.16226454,-0.06664423,24.1875,24.5625,23.9375,25.375,25.3125,25.5625
0.07605271,0.8813582,0.29307824,1.2373314,-0.03195597,0.037366193,0.074178405,-0.37512037,-0.32959282,0.0020013293,3.0757537,-0.62387586,-0.007534236,0.0,0.0,0.0,0.0,0.0,0.0,0.44893014,-1.3789654,2.0838192,-2.2799313,-1.5710934,2.423583,0.0,0.0,-0.0,-0.0,0.0,-0.0,0.095768064,0.11492168,-9.32781,0.784413,47.70211,0.4045717,-3.4040504,-2.510221,-0.4802049,0.16986093,-0.07172957,24.1875,24.5625,23.9375,25.375,25.3125,25.5625
0.0780518,0.70515144,-0.05001687,1.1127292,-0.025207885,0.032529745,0.07748819,-0.37512115,-0.32961035,0.0020322776,3.0756965,-0.6238252,-0.0075475913,0.0,0.0,0.0,0.0,0.0,0.0,0.44893014,-1.3790253,2.0838077,-2.279907,-1.5710458,2.4235587,0.0,0.0,-0.0,-0.0,0.0,-0.0,0.038307227,0.19153613,-9.32781,0.7530795,47.691364,0.3854222,-3.4221683,-2.4257853,-0.48941642,0.14208384,-0.06468159,24.1875,24.5625,23.9375,25.375,25.3125,25.5625
0.08005219,0.31896067,0.057646345,1.2418003,-0.026379675,0.019372415,0.0784086,-0.37511733,-0.32961062,0.002016277,3.0757117,-0.623868,-0.0075295,0.0,0.0,0.0,0.0,0.0,0.0,0.44894207,-1.3789895,2.0838077,-2.2799194,-1.5710577,2.4235954,0.0,0.0,-0.0,-0.0,0.0,-0.0,0.019153614,0.17238252,-9.3661175,0.78888994,47.70659,0.3276412,-3.4686372,-2.4610112,-0.48672354,0.15495244,-0.0797435,24.1875,24.5625,23.9375,25.375,25.3125,25.5625
0.082052074,0.58452207,0.21525048,1.230243,-0.030316645,0.02598732,0.07714888,-0.37512624,-0.3296302,0.0020274092,3.0756786,-0.6238219,-0.007552047,0.0,0.0,0.0,0.0,0.0,0.0,0.44895422,-1.3789895,2.083783,-2.2799313,-1.5710334,2.423583,0.0,0.0,-0.0,-0.0,0.0,-0.0,0.076614454,0.15322891,-9.404425,0.7418897,47.672558,0.3979205,-3.4335551,-2.5175729,-0.4943453,0.14903346,-0.074153855,24.1875,24.5625,23.9375,25.375,25.3125,25.5625
0.08405182,0.61745983,-0.2621969,1.1355022,-0.021122761,0.02961406,0.087770596,-0.3751168,-0.32962564,0.002021617,3.0756927,-0.6238247,-0.007522922,0.0,0.0,0.0,0.0,0.0,0.0,0.44895422,-1.3789895,2.0837944,-2.2799194,-1.5710334,2.423583,0.0,0.0,-0.0,-0.0,0.0,-0.0,-0.019153614,0.24899697,-9.385271,0.7665104,47.701214,0.32125264,-3.3763998,-2.4571607,-0.4824391,0.15618625,-0.060327664,24.1875,24.5625,23.9375,25.375,25.3125,25.5625
0.08605163,0.62801695,-0.40083566,0.91751105,-0.020875145,0.031253137,0.09086044,-0.37510124,-0.32962644,0.0020129043,3.0757174,-0.62379146,-0.0075186496,0.0,0.0,0.0,0.0,0.0,0.0,0.4489782,-1.3789895,2.0838192,-2.2799313,-1.5710458,2.423583,0.0,0.0,-0.0,-0.0,0.0,-0.0,0.0,0.076614454,-9.423578,0.7329411,47.721813,0.38128403,-3.4496593,-2.460369,-0.47936517,0.16848974,-0.06933274,24.1875,24.5625,23.9375,25.375,25.3125,25.5625
0.08805198,0.69386196,0.30702743,1.0416967,-0.030406535,0.028626174,0.07851565,-0.3751039,-0.32961938,0.0020013177,3.0757222,-0.6237918,-0.0074768667,0.0,0.0,0.0,0.0,0.0,0.0,0.44895422,-1.3789654,2.0838192,-2.2799313,-1.5710334,2.4235587,0.0,0.0,-0.0,-0.0,0.0,-0.0,0.05746084,0.17238252,-9.289502,0.72622824,47.691364,0.3531615,-3.451145,-2.4730704,-0.49311337,0.16686311,-0.0777099,24.1875,24.5625,23.9375,25.375,25.3125,25.5625
0.09005228,0.34603047,-0.16707006,1.0088857,-0.018006012,0.019121341,0.08344616,-0.37510175,-0.32959875,0.002000009,3.0757573,-0.62383753,-0.007481777,0.0,0.0,0.0,0.0,0.0,0.0,0.44894207,-1.3789773,2.0838306,-2.279907,-1.5710696,2.4235706,0.0,0.0,-0.0,-0.0,0.0,-0.0,0.05746084,0.095768064,-9.3661175,0.7866488,47.71286,0.37272274,-3.4710557,-2.4534616,-0.49483445,0.14672865,-0.06459884,24.1875,24.5625,23.9375,25.375,25.3125,25.5625
0.09205237,0.5470502,-0.24368794,0.97330195,-0.016248947,0.022878492,0.08065078,-0.3751327,-0.3296224,0.002024932,3.0757034,-0.6237884,-0.0075482335,0.0,0.0,0.0,0.0,0.0,0.0,0.44894207,-1.3789773,2.0837715,-2.2799194,-1.5710458,2.4235468,0.0,0.0,-0.0,-0.0,0.0,-0.0,0.076614454,0.1340753,-9.385271,0.71951014,47.67166,0.38860238,-3.4475648,-2.4028952,-0.49248722,0.15958855,-0.059190735,24.1875,24.5625,23.9375,25.375,25.3125,25.5625
0.094052225,0.6134926,-0.18233888,0.9598974,-0.018659847,0.024449054,0.08646516,-0.37509087,-0.32961306,0.002004641,3.0757248,-0.6238511,-0.007447403,0.0,0.0,0.0,0.0,0.0,0.0,0.44895422,-1.3789895,2.0838306,-2.279895,-1.5710334,2.4235954,0.0,0.0,-0.0,-0.0,0.0,-0.0,0.095768064,0.076614454,-9.346964,0.8112748,47.67793,0.32773137,-3.4553542,-2.4509828,-0.4889779,0.14351776,-0.06391188,24.1875,24.5625,23.9375,25.375,25.3125,25.5625
0.09605205,0.90201235,0.3085337,1.2237747,-0.03169502,0.035084367,0.08416982,-0.37512767,-0.32961133,0.0020273589,3.0757213,-0.62379205,-0.007572535,0.0,0.0,0.0,0.0,0.0,0.0,0.44894207,-1.3790014,2.0837944,-2.2799194,-1.5710696,2.4235468,0.0,0.0,-0.0,-0.0,0.0,-0.0,0.076614454,0.1340753,-9.3661175,0.76874626,47.698532,0.3872644,-3.4346085,-2.4746432,-0.49612862,0.15096137,-0.07321115,24.1875,24.5625,23.9375,25.375,25.3125,25.5625
0.0980525,0.5701287,0.27763134,1.0552026,-0.028188469,0.024805697,0.08262488,-0.3751239,-0.3295988,0.0020186459,3.075727,-0.6238505,-0.0075678374,0.0,0.0,0.0,0.0,0.0,0.0,0.44893014,-1.3790014,2.0838192,-2.2799313,-1.5710815,2.4235706,0.0,0.0,-0.0,-0.0,0.0,-0.0,0.038307227,0.11492168,-9.346964,0.679228,47.678825,0.3409335,-3.4362235,-2.5061982,-0.48670948,0.15717533,-0.06665458,24.1875,24.5625,23.9375,25.375,25.3125,25.5625
0.100052334,0.42283443,0.23340924,1.0357124,-0.024235629,0.022502825,0.079419374,-0.3751337,-0.3296273,0.0020389366,3.075672,-0.62378204,-0.00758209,0.0,0.0,0.0,0.0,0.0,0.0,0.44894207,-1.3790134,2.083783,-2.2799313,-1.5710334,2.4235468,0.0,0.0,-0.0,-0.0,0.0,-0.0,0.05746084,0.15322891,-9.3661175,0.7239871,47.711063,0.34080714,-3.4548748,-2.44519,-0.5050919,0.15897283,-0.081592456,24.1875,24.5625,23.9375,25.375,25.3125,25.5625
0.1020516,0.71052235,-0.2498923,0.99220896,-0.015020206,0.028667465,0.08001232,-0.37512594,-0.3296105,0.002029017,3.0757036,-0.62384653,-0.007585692,0.0,0.0,0.0,0.0,0.0,0.0,0.44894207,-1.3790134,2.0838077,-2.2799313,-1.5710696,2.423583,0.0,0.0,-0.0,-0.0,0.0,-0.0,0.038307227,0.11492168,-9.385271,0.7150385,47.701214,0.33220702,-3.4025629,-2.4886568,-0.48501056,0.16504884,-0.07109893,24.1875,24.5625,23.9375,25.375,25.3125,25.5625
0.10405169,0.5643451,0.027998885,1.0879076,-0.022397239,0.021824967,0.087554276,-0.37509984,-0.32962376,0.0020219593,3.0756967,-0.6238454,-0.0075063854,0.0,0.0,0.0,0.0,0.0,0.0,0.44896615,-1.3790134,2.0838192,-2.279907,-1.5710334,2.4236073,0.0,0.0,-0.0,-0.0,0.0,-0.0,0.095768064,0.11492168,-9.404425,0.7150385,47.701214,0.37504965,-3.494967,-2.4767332,-0.4882502,0.15357304,-0.06600472,24.1875,24.5625,23.9375,25.375,25.3125,25.5625
0.106051646,0.59174734,0.12310729,1.0496707,-0.026889779,0.023404663,0.080754034,-0.37512472,-0.3296078,0.002027804,3.0756977,-0.6238644,-0.0075594806,0.0,0.0,0.0,0.0,0.0,0.0,0.44893014,-1.3790134,2.0838077,-2.2799194,-1.5710577,2.423583,0.0,0.0,-0.0,-0.0,0.0,-0.0,0.095768064,0.17238252,-9.3661175,0.7351769,47.72002,0.29395124,-3.463193,-2.4719145,-0.49774384,0.16385661,-0.07369867,24.1875,24.5625,23.9375,25.375,25.3125,25.5625
0.108052075,0.4335154,-0.08417954,0.9678296,-0.022075241,0.018654127,0.08288814,-0.3751184,-0.32960907,0.0020116428,3.0757341,-0.62385315,-0.0075519118,0.0,0.0,0.0,0.0,0.0,0.0,0.44895422,-1.3789773,2.0838077,-2.2799313,-1.5710815,2.4235954,0.0,0.0,-0.0,-0.0,0.0,-0.0,0.11492168,0.19153613,-9.3661175,0.6725152,47.686886,0.34262037,-3.4838405,-2.4413676,-0.47910535,0.15037946,-0.06664014,24.1875,24.5625,23.9375,25.375,25.3125,25.5625
0.11005222,0.39876214,-0.21706446,1.1419375,-0.021762704,0.019715322,0.08931965,-0.3751282,-0.3296138,0.0020273544,3.075699,-0.6238066,-0.0075498,0.0,0.0,0.0,0.0,0.0,0.0,0.44893014,-1.3790014,2.0837944,-2.2799194,-1.5710458,2.4235468,0.0,0.0,-0.0,-0.0,0.0,-0.0,0.076614454,0.17238252,-9.404425,0.7396539,47.691364,0.33897275,-3.4343576,-2.4846606,-0.500526,0.14155622,-0.07330442,24.1875,24.5625,23.9375,25.375,25.3125,25.5625
0.11205164,0.7766837,-0.032386914,0.91168344,-0.026433783,0.031581964,0.08424346,-0.375112,-0.32962328,0.0020223176,3.0756822,-0.62380284,-0.007552869,0.0,0.0,0.0,0.0,0.0,0.0,0.44895422,-1.3790134,2.0838306,-2.2799556,-1.5710334,2.4235706,0.0,0.0,-0.0,-0.0,0.0,-0.0,0.17238252,0.076614454,-9.481039,0.7486078,47.68062,0.3792193,-3.4414845,-2.4585238,-0.48923767,0.14824289,-0.06979831,24.1875,24.5625,23.9375,25.375,25.3125,25.5625
0.114051886,0.20521554,0.022985246,0.89909333,-0.028159117,0.018081076,0.08999641,-0.37512314,-0.32961774,0.0020190917,3.0757103,-0.62382793,-0.007518453,0.0,0.0,0.0,0.0,0.0,0.0,0.44894207,-1.3789773,2.083783,-2.279907,-1.5710458,2.4235706,0.0,0.0,-0.0,-0.0,0.0,-0.0,0.11492168,0.095768064,-9.404425,0.7463667,47.672558,0.3781671,-3.3811202,-2.4580774,-0.47512245,0.14535199,-0.07285167,24.1875,24.5625,23.9375,25.375,25.3125,25.5625
0.1160527,0.65489876,-0.078065656,0.9403819,-0.0266237,0.025872601,0.08786154,-0.37512314,-0.3296222,0.0020249393,3.0756934,-0.6238245,-0.0075217974,0.0,0.0,0.0,0.0,0.0,0.0,0.44894207,-1.3789895,2.083783,-2.279907,-1.5710334,2.4235706,0.0,0.0,-0.0,-0.0,0.0,-0.0,0.15322891,0.076614454,-9.346964,0.7933669,47.705692,0.38180822,-3.453618,-2.4858868,-0.47963005,0.17085238,-0.055833537,24.1875,24.5625,23.9375,25.375,25.3125,25.5625
0.11805213,0.79362315,-0.2971985,0.7541611,-0.018538909,0.02912365,0.08180653,-0.37512854,-0.32964602,0.0020472729,3.0756893,-0.62370867,-0.0076086647,0.0,0.0,0.0,0.0,0.0,0.0,0.4489901,-1.3790134,2.083759,-2.2799194,-1.5710458,2.4235468,0.0,0.0,-0.0,-0.0,0.0,-0.0,0.1340753,0.11492168,-9.308657,0.7351769,47.698532,0.39619493,-3.4255953,-2.493308,-0.4858015,0.14948584,-0.070515096,24.1875,24.5625,23.9375,25.375,25.3125,25.5625
0.12005207,0.10344723,-0.6894261,0.878175,-0.00833369,0.0153563805,0.09576165,-0.37515226,-0.32964042,0.0020522384,3.0756657,-0.6238002,-0.007649561,0.0,0.0,0.0,0.0,0.0,0.0,0.44896615,-1.3790014,2.0837352,-2.2799313,-1.5710577,2.423583,0.0,0.0,-0.0,-0.0,0.0,-0.0,0.13407528,0.11492168,-9.32781,0.6971306,47.691364,0.3005668,-3.4182193,-2.4483087,-0.48563448,0.15139602,-0.07516953,24.1875,24.5625,23.9375,25.375,25.3125,25.5625
0.12205192,0.10114916,-0.7199268,0.86602855,-0.008133643,0.016769115,0.09516963,-0.3751351,-0.32964283,0.0020507772,3.075649,-0.6237578,-0.0076694535,0.0,0.0,0.0,0.0,0.0,0.0,0.4489782,-1.3790374,2.0837944,-2.2799795,-1.5710458,2.4235706,0.0,0.0,-0.0,-0.0,0.0,-0.0,0.11492168,0.095768064,-9.385271,0.6971306,47.666286,0.4244058,-3.4527454,-2.4626923,-0.4875732,0.15550148,-0.07668103,24.1875,24.5625,23.9375,25.375,25.3125,25.5625
0.12405227,0.60854006,0.19128577,1.1169727,-0.028151426,0.028064357,0.08502034,-0.3751132,-0.3296194,0.0020145108,3.0757208,-0.62381065,-0.0075041563,0.0,0.0,0.0,0.0,0.0,0.0,0.44895422,-1.3789773,2.0837944,-2.279907,-1.5710458,2.4235706,0.0,0.0,-0.0,-0.0,0.0,-0.0,0.05746084,0.17238252,-9.442732,0.7172743,47.66091,0.32496297,-3.4486568,-2.4406953,-0.47439462,0.15095131,-0.06334343,24.1875,24.5625,23.9375,25.375,25.3125,25.5625
0.12605228,0.15358779,0.22278109,1.1323596,-0.025664609,0.018642977,0.083240286,-0.37515032,-0.32964614,0.0020649708,3.0756269,-0.62377244,-0.007645736,0.0,0.0,0.0,0.0,0.0,0.0,0.44895422,-1.3790374,2.0837467,-2.2799313,-1.5710214,2.4235587,0.0,0.0,-0.0,-0.0,0.0,-0.0,0.076614454,0.1340753,-9.423578,0.7418897,47.693153,0.37523746,-3.3895571,-2.4696074,-0.48654705,0.161404,-0.08749213,24.1875,24.5625,23.9375,25.375,25.3125,25.5625
0.12805173,0.83316195,-0.009033268,1.1029999,-0.017092926,0.03438638,0.08564167,-0.3751384,-0.32961875,0.002030782,3.075685,-0.62384194,-0.0075633856,0.0,0.0,0.0,0.0,0.0,0.0,0.44893014,-1.3789895,2.0837715,-2.2799194,-1.5710458,2.4235706,0.0,0.0,-0.0,-0.0,0.0,-0.0,0.019153614,0.1340753,-9.404425,0.7978386,47.677036,0.3229994,-3.435946,-2.431909,-0.49247172,0.16381223,-0.0663054,24.1875,24.5625,23.9375,25.375,25.3125,25.5625
0.13005212,0.70352024,0.13880777,1.19264,-0.023038052,0.0306113,0.08201946,-0.37515128,-0.32962707,0.0020439043,3.0756652,-0.6238387,-0.0076347627,0.0,0.0,0.0,0.0,0.0,0.0,0.44894207,-1.3790014,2.083759,-2.2799432,-1.5710577,2.423583,0.0,0.0,-0.0,-0.0,0.0,-0.0,0.019153614,0.095768064,-9.346964,0.72622824,47.67166,0.3587711,-3.4148142,-2.4611878,-0.47079885,0.1446534,-0.07758167,24.1875,24.5625,23.9375,25.375,25.3125,25.5625
0.13205205,0.61684734,0.25218198,1.1858265,-0.025896711,0.028951593,0.08226144,-0.37513778,-0.32959703,0.002021624,3.0757058,-0.6239044,-0.007557649,0.0,0.0,0.0,0.0,0.0,0.0,0.44890618,-1.3789895,2.0837944,-2.2799194,-1.5710696,2.423583,0.0,0.0,-0.0,-0.0,0.0,-0.0,0.095768064,0.11492168,-9.346964,0.7172743,47.658226,0.41251987,-3.507564,-2.452272,-0.47409105,0.15922771,-0.08616271,24.1875,24.5625,23.9375,25.375,25.3125,25.5625
0.13405252,0.9295866,-0.009172326,1.1829636,-0.022426877,0.037490565,0.08138582,-0.37516236,-0.32962176,0.0020510296,3.0756595,-0.62391466,-0.007646085,0.0,0.0,0.0,0.0,0.0,0.0,0.44893014,-1.3790014,2.0837352,-2.2799194,-1.5710696,2.4236193,0.0,0.0,-0.0,-0.0,0.0,-0.0,0.076614454,0.038307227,-9.442732,0.7351769,47.675243,0.3304488,-3.4459949,-2.4801474,-0.48696232,0.15555443,-0.08064008,24.1875,24.5625,23.9375,25.375,25.3125,25.5625
0.13605219,0.657848,-0.22938241,1.1638616,-0.017040825,0.030144328,0.08207992,-0.37514922,-0.32960898,0.0020319973,3.0756848,-0.62390095,-0.0076009776,0.0,0.0,0.0,0.0,0.0,0.0,0.4489181,-1.3789895,2.0837715,-2.2799313,-1.5710696,2.4235954,0.0,0.0,-0.0,-0.0,0.0,-0.0,0.095768064,0.076614454,-9.385271,0.6971306,47.693153,0.32700148,-3.4618187,-2.410469,-0.4793435,0.15223303,-0.07384388,24.1875,24.5625,23.9375,25.375,25.3125,25.5625
0.13805254,0.99136084,0.04273829,1.122026,-0.025098844,0.035650168,0.07842446,-0.3751255,-0.32962534,0.002044674,3.0756776,-0.6238019,-0.0075946287,0.0,0.0,0.0,0.0,0.0,0.0,0.44895422,-1.3790374,2.0837944,-2.2799194,-1.5710458,2.4235706,0.0,0.0,-0.0,-0.0,0.0,-0.0,0.038307227,0.15322891,-9.3661175,0.7597976,47.689575,0.32488826,-3.4483285,-2.4431028,-0.4856857,0.16258271,-0.07312244,24.1875,24.5625,23.9375,25.375,25.3125,25.5625
0.1400524,0.42335588,0.08953929,1.0185655,-0.02549513,0.0214235,0.08656748,-0.3751178,-0.32961324,0.0020162724,3.0757046,-0.62380767,-0.0075064334,0.0,0.0,0.0,0.0,0.0,0.0,0.44893014,-1.3789895,2.0838077,-2.2799194,-1.5710334,2.4235468,0.0,0.0,-0.0,-0.0,0.0,-0.0,0.038307227,0.17238252,-9.423578,0.7463667,47.71465,0.35967815,-3.424913,-2.4515193,-0.49198568,0.16105421,-0.066348284,24.1875,24.5625,23.9375,25.375,25.3125,25.5625
0.1420523,0.89428943,0.53192425,1.2324109,-0.04093166,0.034445796,0.07991295,-0.3751209,-0.32962313,0.0020249414,3.0757067,-0.6238078,-0.0075336047,0.0,0.0,0.0,0.0,0.0,0.0,0.44895422,-1.3789895,2.083783,-2.279907,-1.5710458,2.4235706,0.0,0.0,-0.0,-0.0,0.0,-0.0,0.0,0.17238252,-9.385271,0.7597976,47.71554,0.31988353,-3.3864627,-2.4645686,-0.47582626,0.16024627,-0.06740128,24.1875,24.5625,23.9375,25.375,25.3125,25.5625
0.14405224,0.94420654,0.17103598,1.1795863,-0.03162365,0.03131546,0.08134058,-0.3751227,-0.32963705,0.0020479898,3.07565,-0.6237962,-0.007558837,0.0,0.0,0.0,0.0,0.0,0.0,0.44895422,-1.3790374,2.083783,-2.279907,-1.5710095,2.4235706,0.0,0.0,-0.0,-0.0,0.0,-0.0,0.05746084,0.17238252,-9.461885,0.679228,47.70211,0.3943315,-3.458624,-2.433176,-0.4861887,0.1500296,-0.06811395,24.1875,24.5625,23.9375,25.375,25.3125,25.5625
0.14605226,0.67884994,-0.03333584,0.93942904,-0.024125675,0.024120267,0.071309626,-0.3751028,-0.32962313,0.0020091617,3.0757022,-0.6238465,-0.007464228,0.0,0.0,0.0,0.0,0.0,0.0,0.44895422,-1.3789773,2.0838077,-2.279907,-1.5710214,2.4235954,0.0,0.0,-0.0,-0.0,0.0,-0.0,0.05746084,0.17238252,-9.385271,0.800085,47.72092,0.331371,-3.427948,-2.450689,-0.48506284,0.1546573,-0.067773774,24.1875,24.5625,23.9375,25.375,25.3125,25.5625
0.14805168,0.9378172,0.14693543,1.1520174,-0.025848694,0.030056754,0.081309356,-0.37512028,-0.32962283,0.0020273544,3.075699,-0.62380624,-0.007549677,0.0,0.0,0.0,0.0,0.0,0.0,0.44895422,-1.3790014,2.0837944,-2.2799194,-1.5710458,2.4235706,0.0,0.0,-0.0,-0.0,0.0,-0.0,0.11492168,0.21068975,-9.385271,0.679228,47.711063,0.35132587,-3.4348874,-2.4733584,-0.47227997,0.15171717,-0.06915215,24.1875,24.5625,23.9375,25.375,25.3125,25.5625
0.15005246,0.3868612,-0.093460314,1.1189916,-0.023133898,0.017048977,0.08361392,-0.37513486,-0.3296256,0.002044676,3.0756876,-0.62376577,-0.007620164,0.0,0.0,0.0,0.0,0.0,0.0,0.44895422,-1.3790253,2.083783,-2.2799313,-1.5710577,2.4235468,0.0,0.0,-0.0,-0.0,0.0,-0.0,0.11492168,0.1340753,-9.461885,0.69937176,47.698532,0.34734347,-3.4834576,-2.4566913,-0.48967642,0.15348509,-0.08760396,24.1875,24.5625,23.9375,25.375,25.3125,25.5625
0.1520523,0.90973777,-0.029782603,1.1477413,-0.024712328,0.032106,0.07768107,-0.37512237,-0.32961306,0.0020260974,3.075712,-0.62382835,-0.007545638,0.0,0.0,0.0,0.0,0.0,0.0,0.44894207,-1.3790014,2.0837944,-2.279907,-1.5710577,2.4235706,0.0,0.0,-0.0,-0.0,0.0,-0.0,0.095768064,0.11492168,-9.385271,0.7620334,47.679718,0.34917855,-3.4503765,-2.4652026,-0.47550994,0.15747446,-0.070247814,24.1875,24.5625,23.9375,25.375,25.3125,25.5625
0.15405221,0.7490001,0.06873221,1.0794727,-0.028722638,0.028294345,0.08113211,-0.3750966,-0.32962865,0.002009164,3.0757303,-0.6237551,-0.007475644,0.0,0.0,0.0,0.0,0.0,0.0,0.4489782,-1.3789773,2.0838077,-2.279907,-1.5710334,2.4235587,0.0,0.0,-0.0,-0.0,0.0,-0.0,0.076614454,0.22984336,-9.385271,0.7172743,47.68062,0.3332755,-3.4407473,-2.4830883,-0.49228117,0.15746619,-0.07121794,24.1875,24.5625,23.9375,25.375,25.3125,25.5625
0.15605189,0.94602793,-0.3139094,1.0321058,-0.018662406,0.03419702,0.081531554,-0.37513393,-0.32961014,0.0020331466,3.0756767,-0.6238794,-0.007564772,0.0,0.0,0.0,0.0,0.0,0.0,0.4489181,-1.3790134,2.0837944,-2.2799194,-1.5710458,2.423583,0.0,0.0,-0.0,-0.0,0.0,-0.0,0.11492168,0.11492168,-9.442732,0.77545905,47.70211,0.35175392,-3.4403677,-2.4845374,-0.4859401,0.16295737,-0.0763133,24.1875,24.5625,23.9375,25.375,25.3125,25.5625
0.1580518,0.36755922,0.066275045,0.9800154,-0.02420504,0.016472105,0.087354526,-0.37514162,-0.32961386,0.0020331463,3.07567,-0.623878,-0.007578863,0.0,0.0,0.0,0.0,0.0,0.0,0.4489181,-1.3790014,2.083783,-2.2799313,-1.5710458,2.423583,0.0,0.0,-0.0,-0.0,0.0,-0.0,0.11492168,0.19153613,-9.404425,0.7396539,47.699425,0.38214973,-3.446122,-2.4761147,-0.49598026,0.1518974,-0.08140439,24.1875,24.5625,23.9375,25.375,25.3125,25.5625
0.16005169,0.92117685,0.2931809,1.086396,-0.030968694,0.029375674,0.08193664,-0.37513748,-0.3296249,0.0020412968,3.0756273,-0.6238693,-0.0075747706,0.0,0.0,0.0,0.0,0.0,0.0,0.4489181,-1.3790253,2.0837944,-2.2799432,-1.5710095,2.423583,0.0,0.0,-0.0,-0.0,0.0,-0.0,0.038307227,0.17238252,-9.3661175,0.779936,47.709274,0.31582358,-3.4722471,-2.4406598,-0.4881613,0.15444227,-0.0820519,24.1875,24.5625,23.9375,25.375,25.3125,25.5625
0.16205183,0.9861354,0.048529357,1.0454798,-0.026440524,0.033108406,0.079734825,-0.37513047,-0.32962778,0.002030782,3.0756962,-0.62378657,-0.0075633544,0.0,0.0,0.0,0.0,0.0,0.0,0.44895422,-1.3789895,2.0837715,-2.2799194,-1.5710458,2.4235587,0.0,0.0,-0.0,-0.0,0.0,-0.0,0.11492168,0.1340753,-9.3661175,0.7530795,47.691364,0.3567251,-3.4447236,-2.4389083,-0.49664468,0.1366616,-0.07960017,24.1875,24.5625,23.9375,25.375,25.3125,25.5625
0.16405238,0.81501544,-0.1701661,1.0911088,-0.01881946,0.02717227,0.08099637,-0.37512726,-0.32963496,0.002041299,3.0756478,-0.62381566,-0.007586059,0.0,0.0,0.0,0.0,0.0,0.0,0.44895422,-1.3790253,2.0837944,-2.2799432,-1.5710214,2.423583,0.0,0.0,-0.0,-0.0,0.0,-0.0,0.038307227,0.11492168,-9.385271,0.75084364,47.679718,0.34395742,-3.4829211,-2.457878,-0.48273453,0.1356966,-0.081893265,24.1875,24.5625,23.9375,25.375,25.3125,25.5625
0.16605207,0.38288385,0.17938325,1.065997,-0.028097833,0.019180272,0.08469617,-0.37510777,-0.32961473,0.0020219593,3.0757043,-0.62380767,-0.0075065717,0.0,0.0,0.0,0.0,0.0,0.0,0.44894207,-1.3790134,2.0838192,-2.279907,-1.5710334,2.4235587,0.0,0.0,-0.0,-0.0,0.0,-0.0,0.076614454,0.11492168,-9.442732,0.80456203,47.71465,0.31996578,-3.4576344,-2.4374082,-0.48303145,0.14334989,-0.07394659,24.1875,24.5625,23.9375,25.375,25.3125,25.5625
0.16805209,0.4905189,-0.2571489,1.055544,-0.018119229,0.023725096,0.08616108,-0.37512657,-0.32964104,0.0020319882,3.0756776,-0.62374455,-0.007554992,0.0,0.0,0.0,0.0,0.0,0.0,0.44896615,-1.3789895,2.0837715,-2.2799313,-1.5710214,2.4235468,0.0,0.0,-0.0,-0.0,0.0,-0.0,0.11492168,0.076614454,-9.461885,0.7530795,47.703007,0.38225323,-3.4508972,-2.4795318,-0.48662433,0.1526025,-0.0793998,24.1875,24.5625,23.9375,25.375,25.3125,25.5625
0.17005186,0.98899597,0.0049142665,1.1506112,-0.021066684,0.03394886,0.07944119,-0.37512723,-0.3296262,0.0020297759,3.075681,-0.6238224,-0.007579363,0.0,0.0,0.0,0.0,0.0,0.0,0.44895422,-1.3790014,2.0837944,-2.2799432,-1.5710458,2.423583,0.0,0.0,-0.0,-0.0,0.0,-0.0,0.076614454,0.019153614,-9.519346,0.7351769,47.68599,0.31170985,-3.4633908,-2.4604425,-0.46681002,0.15291971,-0.07606003,24.1875,24.5625,23.9375,25.375,25.3125,25.5625
0.17205186,0.7523955,0.17526214,1.0803707,-0.029790057,0.031245375,0.07764729,-0.3751015,-0.32961154,0.0020104393,3.0757465,-0.62381667,-0.0075111343,0.0,0.0,0.0,0.0,0.0,0.0,0.44896615,-1.3789895,2.0838192,-2.279907,-1.5710696,2.423583,0.0,0.0,-0.0,-0.0,0.0,-0.0,0.095768064,0.095768064,-9.308657,0.7217513,47.68599,0.39126003,-3.4377532,-2.4541395,-0.47290343,0.1515612,-0.07529147,24.1875,24.5625,23.875,25.375,25.3125,25.5625
0.17405236,0.5837545,-0.14693093,1.0271006,-0.019431667,0.031046806,0.07824623,-0.37513024,-0.32961908,0.0020295272,3.0757105,-0.6238483,-0.007570573,0.0,0.0,0.0,0.0,0.0,0.0,0.44895422,-1.3789895,2.0837715,-2.279907,-1.5710696,2.4235954,0.0,0.0,-0.0,-0.0,0.0,-0.0,0.15322891,0.095768064,-9.32781,0.6926589,47.66987,0.32912773,-3.4956558,-2.5389547,-0.49335867,0.15805475,-0.07977057,24.1875,24.5625,23.875,25.375,25.3125,25.5625
0.17605194,0.90716654,0.051550422,1.1266686,-0.02737761,0.03875617,0.0784682,-0.37511197,-0.329608,0.0020195423,3.075727,-0.6238314,-0.007514135,0.0,0.0,0.0,0.0,0.0,0.0,0.44894207,-1.3790014,2.0838077,-2.279895,-1.5710577,2.4235706,0.0,0.0,-0.0,-0.0,0.0,-0.0,0.095768064,0.19153613,-9.442732,0.7911258,47.688675,0.33123815,-3.408678,-2.507675,-0.47752815,0.15577702,-0.08458921,24.1875,24.5625,23.875,25.375,25.3125,25.5625
0.17805192,0.9596303,0.22374134,1.1439602,-0.030973582,0.040519074,0.08425832,-0.37510344,-0.32962552,0.0020232184,3.0757082,-0.6237508,-0.0075219944,0.0,0.0,0.0,0.0,0.0,0.0,0.44896615,-1.3790134,2.0838192,-2.2799194,-1.5710334,2.4235468,0.0,0.0,-0.0,-0.0,0.0,-0.0,0.095768064,0.15322891,-9.481039,0.7732232,47.69763,0.33785555,-3.4742446,-2.427245,-0.47739726,0.1409585,-0.08901617,24.1875,24.5625,23.875,25.375,25.3125,25.5625
0.1800518,0.53707784,0.22872199,1.1984546,-0.027795525,0.029295415,0.07475915,-0.37512264,-0.32963052,0.0020388751,3.0756528,-0.62381625,-0.0075450228,0.0,0.0,0.0,0.0,0.0,0.0,0.44894207,-1.3790253,2.0837944,-2.2799194,-1.5710095,2.4235706,0.0,0.0,-0.0,-0.0,0.0,-0.0,0.095768064,0.15322891,-9.442732,0.70608455,47.713753,0.35604906,-3.453707,-2.4577856,-0.49952906,0.14331755,-0.066201866,24.1875,24.5625,23.875,25.375,25.3125,25.5625
0.18205185,0.87679535,0.7567988,1.239493,-0.039906662,0.040486716,0.06773795,-0.3751137,-0.32963908,0.0020203444,3.075686,-0.6237653,-0.0074992715,0.0,0.0,0.0,0.0,0.0,0.0,0.44896615,-1.3789773,2.083783,-2.2799194,-1.5710095,2.4235587,0.0,0.0,-0.0,-0.0,0.0,-0.0,0.05746084,0.11492168,-9.461885,0.7642693,47.701214,0.32629147,-3.4534326,-2.4953852,-0.47310764,0.14089252,-0.07670009,24.1875,24.5625,23.875,25.375,25.3125,25.5625
0.1840524,0.43802732,0.5783732,1.3278961,-0.03224245,0.025638172,0.08268309,-0.3751223,-0.32963467,0.0020274092,3.0756824,-0.62380356,-0.007552016,0.0,0.0,0.0,0.0,0.0,0.0,0.44896615,-1.3789895,2.083783,-2.2799313,-1.5710334,2.423583,0.0,0.0,-0.0,-0.0,0.0,-0.0,0.038307227,0.095768064,-9.385271,0.6948948,47.70032,0.35588276,-3.4438224,-2.4388218,-0.48991123,0.15668708,-0.07684035,24.1875,24.5625,23.875,25.375,25.3125,25.5625
0.18605237,1.0125756,0.22968787,1.0774575,-0.028725801,0.038820297,0.08015739,-0.37509552,-0.32960436,0.0019963009,3.0757272,-0.62389016,-0.0074589173,0.0,0.0,0.0,0.0,0.0,0.0,0.44894207,-1.3789773,2.083843,-2.2799194,-1.5710458,2.4236073,0.0,0.0,-0.0,-0.0,0.0,-0.0,0.095768064,0.11492168,-9.442732,0.7866488,47.739727,0.3503107,-3.4552863,-2.4471548,-0.49980724,0.15248257,-0.08246426,24.1875,24.5625,23.875,25.375,25.3125,25.5625
0.18805234,0.5330286,0.17955233,1.1253268,-0.031137547,0.029558817,0.08507307,-0.3751053,-0.3296284,0.0020248846,3.075721,-0.6237723,-0.0075193034,0.0,0.0,0.0,0.0,0.0,0.0,0.4489782,-1.3790014,2.0837944,-2.279895,-1.5710458,2.4235706,0.0,0.0,-0.0,-0.0,0.0,-0.0,0.11492168,0.17238252,-9.385271,0.7105615,47.71554,0.37325564,-3.4345722,-2.4976153,-0.4875707,0.1546407,-0.077234305,24.1875,24.5625,23.875,25.375,25.3125,25.5625
0.19005217,0.4589754,-0.22127348,1.0214235,-0.020081257,0.023750518,0.09029137,-0.3751411,-0.32962003,0.002044674,3.0756671,-0.62381923,-0.007608813,0.0,0.0,0.0,0.0,0.0,0.0,0.44893014,-1.3790253,2.083783,-2.2799313,-1.5710458,2.4235587,0.0,0.0,-0.0,-0.0,0.0,-0.0,0.019153614,0.1340753,-9.423578,0.72622824,47.70032,0.33562356,-3.4520736,-2.484492,-0.48226064,0.15125723,-0.069384724,24.1875,24.5625,23.875,25.375,25.3125,25.5625
0.19205199,0.5753749,-0.077783465,1.1054789,-0.023046408,0.024143174,0.08167691,-0.37510377,-0.32961485,0.0020161695,3.0757213,-0.6238107,-0.0075033144,0.0,0.0,0.0,0.0,0.0,0.0,0.44895422,-1.3790014,2.0838192,-2.279907,-1.5710458,2.4235706,0.0,0.0,-0.0,-0.0,0.0,-0.0,0.076614454,0.17238252,-9.404425,0.73069996,47.711063,0.36946353,-3.4514186,-2.4543447,-0.48415524,0.14433187,-0.06553153,24.1875,24.5625,23.875,25.375,25.3125,25.5625
0.19405173,0.709352,0.040366042,1.0642204,-0.024677716,0.02660762,0.08350494,-0.37513644,-0.32962012,0.0020274068,3.075666,-0.6238382,-0.0075408197,0.0,0.0,0.0,0.0,0.0,0.0,0.4489181,-1.3789895,2.083783,-2.2799313,-1.5710214,2.4235587,0.0,0.0,-0.0,-0.0,0.0,-0.0,0.076614454,0.095768064,-9.346964,0.6971306,47.686886,0.33813137,-3.4533021,-2.45437,-0.49028236,0.15603325,-0.07911811,24.1875,24.5625,23.875,25.375,25.3125,25.5625
0.1960527,0.906314,0.20365892,1.1359578,-0.02894111,0.030425182,0.0716292,-0.37512773,-0.32961565,0.0020228324,3.075712,-0.62379014,-0.0075611263,0.0,0.0,0.0,0.0,0.0,0.0,0.44894207,-1.3789895,2.0837944,-2.2799313,-1.5710577,2.4235468,0.0,0.0,-0.0,-0.0,0.0,-0.0,0.095768064,0.11492168,-9.3661175,0.800085,47.728977,0.34538954,-3.429987,-2.4741523,-0.48619503,0.13119201,-0.070166536,24.1875,24.5625,23.875,25.375,25.3125,25.5625
0.19805206,0.56677973,-0.30012855,0.96488106,-0.015953675,0.021994086,0.082722455,-0.3751223,-0.3296302,0.0020215616,3.0757031,-0.62378794,-0.007548704,0.0,0.0,0.0,0.0,0.0,0.0,0.44896615,-1.3789773,2.083783,-2.2799313,-1.5710458,2.4235706,0.0,0.0,-0.0,-0.0,0.0,-0.0,0.019153614,0.15322891,-9.3661175,0.6769922,47.709274,0.34986442,-3.418929,-2.4943871,-0.48640892,0.1395036,-0.07720163,24.1875,24.5625,23.875,25.375,25.3125,25.5625
0.20005213,0.78484046,0.011411359,1.004302,-0.025676593,0.026561005,0.08804917,-0.3751528,-0.3296171,0.0020451888,3.0756965,-0.6238061,-0.007616553,0.0,0.0,0.0,0.0,0.0,0.0,0.44893014,-1.3790014,2.0837467,-2.279907,-1.5710696,2.4235468,0.0,0.0,-0.0,-0.0,0.0,-0.0,0.05746084,0.15322891,-9.385271,0.7732232,47.707485,0.3179127,-3.4317527,-2.486965,-0.48275322,0.14966866,-0.07419413,24.1875,24.5625,23.875,25.375,25.3125,25.5625
0.20205224,0.3525751,-0.35231787,1.0910815,-0.017619431,0.018753177,0.08403103,-0.37512088,-0.3296276,0.0020306741,3.075686,-0.6238234,-0.0075366194,0.0,0.0,0.0,0.0,0.0,0.0,0.44895422,-1.3790014,2.083783,-2.279907,-1.5710334,2.423583,0.0,0.0,-0.0,-0.0,0.0,-0.0,0.05746084,0.114921674,-9.346964,0.7284641,47.70032,0.36110616,-3.433744,-2.4217768,-0.48619032,0.15507725,-0.07338758,24.1875,24.5625,23.875,25.375,25.3125,25.5625
0.20405258,0.9412622,0.08835946,1.1008196,-0.028752081,0.036247753,0.07234811,-0.37512997,-0.32961467,0.00202283,3.0757065,-0.62376994,-0.0075498354,0.0,0.0,0.0,0.0,0.0,0.0,0.44893014,-1.3789895,2.0837944,-2.2799313,-1.5710458,2.423523,0.0,0.0,-0.0,-0.0,0.0,-0.0,0.11492168,0.17238252,-9.423578,0.7217513,47.670765,0.37922055,-3.3893235,-2.4399803,-0.49065328,0.14203486,-0.07196691,24.1875,24.5625,23.875,25.375,25.3125,25.5625
0.20605259,0.7940224,0.20373045,1.105413,-0.032260712,0.026830407,0.08115619,-0.37511286,-0.32962132,0.002027804,3.0757089,-0.62380904,-0.0075593884,0.0,0.0,0.0,0.0,0.0,0.0,0.44896615,-1.3790134,2.0838077,-2.2799194,-1.5710577,2.423583,0.0,0.0,-0.0,-0.0,0.0,-0.0,0.11492168,0.19153613,-9.3661175,0.800085,47.71554,0.3617626,-3.4240608,-2.4335406,-0.48457605,0.15352169,-0.083440825,24.1875,24.5625,23.875,25.375,25.3125,25.5625
0.20805258,0.63879305,0.42740786,1.1166893,-0.034226533,0.027288048,0.08160637,-0.37513667,-0.3296222,0.0020344905,3.0757031,-0.62384677,-0.0075860275,0.0,0.0,0.0,0.0,0.0,0.0,0.44895422,-1.3789895,2.083759,-2.279907,-1.5710696,2.4235954,0.0,0.0,-0.0,-0.0,0.0,-0.0,0.05746084,0.17238252,-9.32781,0.73069996,47.687782,0.3363553,-3.4422054,-2.4492633,-0.47754914,0.14965484,-0.07530938,24.1875,24.5625,23.875,25.375,25.3125,25.5625
0.21005262,0.7538176,-0.08665128,1.086434,-0.020461645,0.028034953,0.08145909,-0.3751417,-0.3296075,0.002024939,3.07572,-0.6238491,-0.0075823516,0.0,0.0,0.0,0.0,0.0,0.0,0.44893014,-1.3789773,2.0837715,-2.2799194,-1.5710815,2.4235706,0.0,0.0,-0.0,-0.0,0.0,-0.0,0.019153614,0.1340753,-9.32781,0.7486078,47.693153,0.33747065,-3.4990146,-2.4749959,-0.48322815,0.14163598,-0.08059695,24.1875,24.5625,23.875,25.375,25.3125,25.5625
0.21205188,0.7337217,-0.23899902,0.95551884,-0.01731938,0.028873637,0.08279516,-0.37514263,-0.32960367,0.0020340492,3.0757017,-0.6238455,-0.007559463,0.0,0.0,0.0,0.0,0.0,0.0,0.44890618,-1.3790014,2.0837715,-2.279895,-1.5710577,2.4235468,0.0,0.0,-0.0,-0.0,0.0,-0.0,0.1340753,0.1340753,-9.442732,0.7329411,47.701214,0.34232122,-3.4815278,-2.4298654,-0.4729178,0.1474115,-0.073736854,24.1875,24.5625,23.875,25.375,25.3125,25.5625
0.21405178,0.4645361,-0.0995417,0.8475638,-0.021198073,0.02339992,0.087544195,-0.37515417,-0.32961988,0.0020464505,3.0756907,-0.6238439,-0.0076432656,0.0,0.0,0.0,0.0,0.0,0.0,0.44894207,-1.3790014,2.0837467,-2.2799194,-1.5710815,2.423583,0.0,0.0,-0.0,-0.0,0.0,-0.0,0.13407528,0.1340753,-9.385271,0.779936,47.670765,0.3334263,-3.4053788,-2.4348617,-0.49926195,0.14218523,-0.0805138,24.1875,24.5625,23.875,25.375,25.3125,25.5625
0.21605185,0.4920272,-0.41776916,0.934939,-0.017419271,0.026908047,0.088241346,-0.37510556,-0.32964587,0.0020273458,3.075669,-0.62376165,-0.0075036283,0.0,0.0,0.0,0.0,0.0,0.0,0.4489782,-1.3790014,2.0837944,-2.2799194,-1.5709976,2.4235706,0.0,0.0,-0.0,-0.0,0.0,-0.0,0.11492168,0.17238252,-9.346964,0.76874626,47.72092,0.3678095,-3.4889235,-2.4037502,-0.48839372,0.14700341,-0.071630575,24.1875,24.5625,23.875,25.375,25.3125,25.5625
0.21805239,0.33150175,-0.10452637,1.011092,-0.017148325,0.021965785,0.08080654,-0.3751357,-0.3296283,0.0020241577,3.0756898,-0.6238047,-0.007536934,0.0,0.0,0.0,0.0,0.0,0.0,0.44894207,-1.3789654,2.083759,-2.2799194,-1.5710334,2.4235587,0.0,0.0,-0.0,-0.0,0.0,-0.0,0.05746084,0.095768064,-9.404425,0.75755644,47.711063,0.28069082,-3.453774,-2.4595337,-0.4770966,0.14988643,-0.06974056,24.1875,24.5625,23.875,25.375,25.3125,25.5625
0.22005253,0.92455465,0.22807917,1.0621355,-0.025234856,0.03341403,0.08276405,-0.37512606,-0.32962787,0.0020446696,3.0756512,-0.6238358,-0.007571407,0.0,0.0,0.0,0.0,0.0,0.0,0.44894207,-1.3790374,2.0837944,-2.2799194,-1.5710214,2.423583,0.0,0.0,-0.0,-0.0,0.0,-0.0,0.15322891,0.13407528,-9.3661175,0.74413085,47.70659,0.3144874,-3.4965124,-2.4415221,-0.48653477,0.14615089,-0.07330013,24.1875,24.5625,23.875,25.375,25.3125,25.5625
0.22205275,0.4655088,0.0023362893,1.0280299,-0.02055744,0.021829033,0.08593181,-0.37509343,-0.32961407,0.0020012679,3.0757608,-0.6237805,-0.00749714,0.0,0.0,0.0,0.0,0.0,0.0,0.4489782,-1.3789773,2.0838306,-2.2799194,-1.5710696,2.4235706,0.0,0.0,-0.0,-0.0,0.0,-0.0,0.095768064,0.11492168,-9.346964,0.75084364,47.684196,0.34423897,-3.4616318,-2.4511354,-0.4861801,0.15273254,-0.068261914,24.1875,24.5625,23.875,25.375,25.3125,25.5625
0.22405261,0.68506926,0.2205761,1.1948218,-0.02626502,0.02704173,0.083575964,-0.3751363,-0.32962003,0.0020479918,3.075648,-0.6238537,-0.0075703138,0.0,0.0,0.0,0.0,0.0,0.0,0.4489181,-1.3790374,2.083783,-2.279907,-1.5710214,2.4235706,0.0,0.0,-0.0,-0.0,0.0,-0.0,0.095768064,0.05746084,-9.32781,0.69937176,47.69763,0.34357834,-3.444076,-2.4793406,-0.48342928,0.14796054,-0.08554909,24.1875,24.5625,23.875,25.375,25.3125,25.5625
0.22605273,0.7119654,0.36140016,1.2619376,-0.030608479,0.027689893,0.07701992,-0.37511218,-0.32962337,0.0020328343,3.0757003,-0.62382627,-0.007507076,0.0,0.0,0.0,0.0,0.0,0.0,0.44895422,-1.3790134,2.083783,-2.2798712,-1.5710334,2.423583,0.0,0.0,-0.0,-0.0,0.0,-0.0,0.095768064,0.095768064,-9.385271,0.7866488,47.72719,0.31312138,-3.4620748,-2.4545941,-0.48188263,0.16345577,-0.09369219,24.1875,24.5625,23.875,25.375,25.3125,25.5625
0.22805217,0.7673768,-0.23652881,1.1036111,-0.016965078,0.03233333,0.076865375,-0.3751229,-0.32961997,0.002031883,3.0756729,-0.62383944,-0.0075260983,0.0,0.0,0.0,0.0,0.0,0.0,0.44893014,-1.3790134,2.0837944,-2.279907,-1.5710214,2.4235706,0.0,0.0,-0.0,-0.0,0.0,-0.0,0.095768064,0.11492168,-9.423578,0.6859408,47.698532,0.35807568,-3.4170573,-2.4500992,-0.46794212,0.14526094,-0.07840631,24.1875,24.5625,23.875,25.375,25.3125,25.5625
0.23005232,0.5847207,0.028088074,1.0933855,-0.021306394,0.025074981,0.08764566,-0.37511736,-0.3296149,0.0020220096,3.0757031,-0.62382656,-0.007533065,0.0,0.0,0.0,0.0,0.0,0.0,0.44894207,-1.3790014,2.0838077,-2.2799194,-1.5710458,2.4235706,0.0,0.0,-0.0,-0.0,0.0,-0.0,0.17238252,0.05746084,-9.346964,0.7083204,47.684196,0.3480735,-3.4343557,-2.4677515,-0.487868,0.15130228,-0.06904356,24.1875,24.5625,23.875,25.375,25.3125,25.5625
0.23205245,0.61344635,0.0027718884,1.0792665,-0.022712387,0.026586711,0.07633488,-0.3751276,-0.32963723,0.0020344835,3.0756826,-0.6238036,-0.0075514237,0.0,0.0,0.0,0.0,0.0,0.0,0.44896615,-1.3789895,2.083759,-2.279907,-1.5710334,2.423583,0.0,0.0,-0.0,-0.0,0.0,-0.0,0.11492168,0.11492168,-9.481039,0.7150385,47.679718,0.36088514,-3.4344454,-2.4368565,-0.47828427,0.14372036,-0.07555876,24.1875,24.5625,23.875,25.375,25.3125,25.5625
0.23405203,0.8706927,0.1179119,1.2083262,-0.026421431,0.030535784,0.07530719,-0.3751285,-0.32962033,0.0020158265,3.0757065,-0.6238081,-0.007533911,0.0,0.0,0.0,0.0,0.0,0.0,0.44894207,-1.3789654,2.083783,-2.2799313,-1.5710458,2.4235587,0.0,0.0,-0.0,-0.0,0.0,-0.0,0.05746084,0.15322891,-9.385271,0.78217715,47.694054,0.34882376,-3.4469514,-2.4842746,-0.47937387,0.14534482,-0.08664127,24.1875,24.5625,23.875,25.375,25.3125,25.5625
0.23605208,0.27273205,-0.07745347,0.88291246,-0.022208476,0.014549467,0.08546387,-0.37514657,-0.3296272,0.0020369536,3.075657,-0.62385607,-0.0075818286,0.0,0.0,0.0,0.0,0.0,0.0,0.44893014,-1.3789895,2.083759,-2.2799313,-1.5710334,2.423583,0.0,0.0,-0.0,-0.0,0.0,-0.0,0.095768064,0.15322891,-9.385271,0.8179876,47.729877,0.37488154,-3.430437,-2.4564157,-0.4765088,0.14436476,-0.08013144,24.1875,24.5625,23.875,25.375,25.3125,25.5625
0.23805222,0.61797965,-0.20069699,1.0329056,-0.02005678,0.023200618,0.09013156,-0.37514836,-0.32963234,0.0020381624,3.0756407,-0.6238527,-0.0075853043,0.0,0.0,0.0,0.0,0.0,0.0,0.44893014,-1.3789895,2.083759,-2.2799432,-1.5710214,2.423583,0.0,0.0,-0.0,-0.0,0.0,-0.0,0.15322891,0.11492168,-9.404425,0.6971306,47.69763,0.38861942,-3.4784367,-2.4839756,-0.4907702,0.15115997,-0.083554566,24.1875,24.5625,23.875,25.375,25.3125,25.5625
0.24005227,1.0126303,0.3538847,1.1230887,-0.033403154,0.03202336,0.081381425,-0.3751564,-0.32961887,0.0020464482,3.0756776,-0.62386036,-0.0076319133,0.0,0.0,0.0,0.0,0.0,0.0,0.44893014,-1.3790014,2.0837467,-2.2799194,-1.5710696,2.423583,0.0,0.0,-0.0,-0.0,0.0,-0.0,0.11492168,0.19153613,-9.346964,0.679228,47.709274,0.3045645,-3.4274058,-2.4344766,-0.47274113,0.14798963,-0.07955758,24.1875,24.5625,23.875,25.375,25.3125,25.5625
0.24205245,0.47193158,-0.09591209,0.9942288,-0.020542584,0.017309437,0.0903639,-0.375124,-0.32961175,0.0020359585,3.0756738,-0.6238596,-0.0075786095,0.0,0.0,0.0,0.0,0.0,0.0,0.44893014,-1.3790374,2.0838192,-2.2799313,-1.5710458,2.423583,0.0,0.0,-0.0,-0.0,0.0,-0.0,0.11492168,0.22984336,-9.423578,0.7597976,47.689575,0.35172394,-3.4070163,-2.4635346,-0.47502154,0.1497582,-0.066641964,24.1875,24.5625,23.875,25.375,25.3125,25.5625
0.24405213,0.8886355,0.025691912,1.174238,-0.030211614,0.031352036,0.07921502,-0.37511525,-0.32962918,0.0020083662,3.0756955,-0.62376726,-0.007510093,0.0,0.0,0.0,0.0,0.0,0.0,0.44895422,-1.3789654,2.0838077,-2.2799556,-1.5710214,2.4235468,0.0,0.0,-0.0,-0.0,0.0,-0.0,0.076614454,0.21068975,-9.423578,0.7463667,47.704796,0.3477797,-3.4550538,-2.442887,-0.48759463,0.15519631,-0.07147768,24.1875,24.5625,23.875,25.375,25.3125,25.5625
0.24605207,0.5489064,0.07647947,1.2181634,-0.024967987,0.01843197,0.08345228,-0.37512636,-0.3296,0.0020220166,3.0757272,-0.6238506,-0.007567244,0.0,0.0,0.0,0.0,0.0,0.0,0.44893014,-1.3790014,2.0838077,-2.2799194,-1.5710815,2.4235706,0.0,0.0,-0.0,-0.0,0.0,-0.0,0.05746084,0.19153613,-9.3661175,0.7553206,47.70211,0.366659,-3.4502234,-2.466587,-0.4620899,0.1630177,-0.07980003,24.1875,24.5625,23.875,25.375,25.3125,25.5625
0.24805215,0.87552416,0.39036423,1.2089882,-0.03399591,0.026412532,0.07714948,-0.3751561,-0.329608,0.0020389454,3.0756953,-0.6238252,-0.007642229,0.0,0.0,0.0,0.0,0.0,0.0,0.4489181,-1.3790014,2.0837715,-2.2799432,-1.5710815,2.4235468,0.0,0.0,-0.0,-0.0,0.0,-0.0,0.11492168,0.19153613,-9.308656,0.69937176,47.68599,0.3616811,-3.4547648,-2.4932861,-0.4733829,0.14462279,-0.07221809,24.1875,24.5625,23.875,25.375,25.3125,25.5625
0.25005212,0.50896335,-0.34606227,0.9873197,-0.01764374,0.019517815,0.08474988,-0.3751262,-0.32962143,0.0020262029,3.0757046,-0.6238272,-0.007560409,0.0,0.0,0.0,0.0,0.0,0.0,0.44895422,-1.3789895,2.083783,-2.2799194,-1.5710577,2.423583,0.0,0.0,-0.0,-0.0,0.0,-0.0,0.114921674,0.17238252,-9.32781,0.7329411,47.682407,0.39133358,-3.4703283,-2.4554467,-0.48520803,0.15805717,-0.08529013,24.1875,24.5625,23.875,25.375,25.3125,25.5625
0.25205228,0.45184746,-0.1139735,1.1663138,-0.02445945,0.022589572,0.08572419,-0.37511593,-0.32960787,0.0020150158,3.0757215,-0.6238112,-0.0075028175,0.0,0.0,0.0,0.0,0.0,0.0,0.44893014,-1.3789895,2.0838077,-2.279907,-1.5710458,2.4235468,0.0,0.0,-0.0,-0.0,0.0,-0.0,0.019153614,0.17238252,-9.346964,0.7217513,47.652847,0.3513489,-3.458392,-2.470814,-0.49169612,0.14119193,-0.07295109,24.1875,24.5625,23.875,25.375,25.3125,25.5625
0.25405204,0.92477465,0.26559582,1.1140801,-0.029844498,0.034132406,0.07602604,-0.3751237,-0.3296202,0.002033149,3.0756857,-0.62388146,-0.007575969,0.0,0.0,0.0,0.0,0.0,0.0,0.44895422,-1.3790134,2.0837944,-2.2799194,-1.5710577,2.4236193,0.0,0.0,-0.0,-0.0,0.0,-0.0,0.17238252,0.15322891,-9.385271,0.75084364,47.63673,0.34428173,-3.3975568,-2.4538803,-0.49437007,0.14088489,-0.07498257,24.1875,24.5625,23.875,25.375,25.3125,25.5625
0.25605178,0.8937068,0.27542397,1.029593,-0.02964562,0.031391654,0.08102931,-0.3751218,-0.32962155,0.002016534,3.0756752,-0.6238407,-0.00755148,0.0,0.0,0.0,0.0,0.0,0.0,0.44894207,-1.3789895,2.0838192,-2.279967,-1.5710334,2.423583,0.0,0.0,-0.0,-0.0,0.0,-0.0,0.19153613,0.076614454,-9.3661175,0.7351769,47.709274,0.30980265,-3.4131656,-2.4195595,-0.4797988,0.15252422,-0.07891195,24.1875,24.5625,23.875,25.375,25.3125,25.5625
0.25805193,1.5398146,0.06970566,1.0402001,-0.026830668,0.05107392,0.06634639,-0.375122,-0.32962814,0.0020152656,3.0756907,-0.62376636,-0.0075506256,0.0,0.0,0.0,0.0,0.0,0.0,0.44895422,-1.3789773,2.0838077,-2.279967,-1.5710334,2.4235468,0.0,0.0,-0.0,-0.0,0.0,-0.0,0.11492168,0.15322891,-9.385271,0.78888994,47.701214,0.3886532,-3.42795,-2.484445,-0.48155254,0.14054193,-0.07762546,24.1875,24.5625,23.875,25.375,25.3125,25.5625
0.2600519,1.0090783,0.19020228,1.0704957,-0.025450885,0.034554787,0.07345617,-0.3751089,-0.32960653,0.0020083254,3.075726,-0.6238312,-0.0075158905,0.0,0.0,0.0,0.0,0.0,0.0,0.44894207,-1.3789895,2.0838306,-2.2799313,-1.5710577,2.4235706,0.0,0.0,-0.0,-0.0,0.0,-0.0,0.038307227,0.095768064,-9.481039,0.7351769,47.709274,0.37456977,-3.3969095,-2.4941561,-0.4860044,0.14922194,-0.077980764,24.1875,24.5625,23.875,25.375,25.3125,25.5625
0.26205197,0.5357979,0.2789197,1.0800014,-0.029723706,0.027340448,0.08748226,-0.37510386,-0.3295848,0.002013758,3.0757792,-0.623823,-0.007505157,0.0,0.0,0.0,0.0,0.0,0.0,0.44893014,-1.3790134,2.0838306,-2.2798712,-1.5710934,2.4235468,0.0,0.0,-0.0,-0.0,0.0,-0.0,0.076614454,0.17238252,-9.346964,0.68818194,47.694946,0.37277552,-3.4268317,-2.4550056,-0.48268282,0.15659823,-0.072823994,24.1875,24.5625,23.875,25.375,25.3125,25.5625
0.26405254,0.37685814,0.006040055,1.0700227,-0.027901102,0.023098487,0.08506334,-0.37512612,-0.3296171,0.0020203555,3.0757172,-0.62384963,-0.0075565786,0.0,0.0,0.0,0.0,0.0,0.0,0.44895422,-1.3789773,2.083783,-2.2799194,-1.5710696,2.4235954,0.0,0.0,-0.0,-0.0,0.0,-0.0,0.05746084,0.1340753,-9.346964,0.73069996,47.705692,0.30008805,-3.3929386,-2.452448,-0.4843402,0.15979291,-0.0742626,24.1875,24.5625,23.875,25.375,25.3125,25.5625
0.26605237,0.8283036,-0.12672848,1.0023109,-0.019784339,0.037058655,0.08459972,-0.37511432,-0.32961565,0.002014117,3.0757234,-0.62377304,-0.007545045,0.0,0.0,0.0,0.0,0.0,0.0,0.44895422,-1.3789895,2.0838192,-2.2799432,-1.5710577,2.4235468,0.0,0.0,-0.0,-0.0,0.0,-0.0,0.038307227,0.1340753,-9.346964,0.69937176,47.690468,0.40355438,-3.468403,-2.4730844,-0.4860822,0.15591699,-0.07334144,24.1875,24.5625,23.875,25.375,25.3125,25.5625
0.2680526,0.85401046,0.13756731,1.0743484,-0.025936289,0.04039605,0.07804798,-0.375097,-0.32962438,0.0020036844,3.0757244,-0.6237928,-0.0075040604,0.0,0.0,0.0,0.0,0.0,0.0,0.4489782,-1.3789773,2.0838306,-2.2799432,-1.5710458,2.423583,0.0,0.0,-0.0,-0.0,0.0,-0.0,0.038307227,0.15322891,-9.385271,0.68146914,47.688675,0.35661522,-3.4261315,-2.5172198,-0.47524905,0.16046286,-0.06697968,24.1875,24.5625,23.875,25.375,25.3125,25.5625
0.27005252,0.75026053,-0.04598548,1.1617665,-0.022735259,0.034306746,0.08331221,-0.37514216,-0.32960984,0.00203526,3.075683,-0.62390053,-0.007574167,0.0,0.0,0.0,0.0,0.0,0.0,0.4489181,-1.3790014,2.0837715,-2.279907,-1.5710577,2.4235954,0.0,0.0,-0.0,-0.0,0.0,-0.0,0.019153614,0.1340753,-9.346964,0.7642693,47.70032,0.37131682,-3.4989638,-2.4469388,-0.48468062,0.14496878,-0.06544377,24.1875,24.5625,23.875,25.375,25.3125,25.5625
0.27205274,0.57743526,0.066876836,1.0581834,-0.02446296,0.029398223,0.081450626,-0.3751097,-0.32962218,0.0020265405,3.0756977,-0.62380594,-0.007520776,0.0,0.0,0.0,0.0,0.0,0.0,0.44895422,-1.3790134,2.0838077,-2.279907,-1.5710334,2.4235706,0.0,0.0,-0.0,-0.0,0.0,-0.0,0.038307227,0.1340753,-9.3661175,0.7105615,47.684196,0.38965565,-3.4237752,-2.487281,-0.47816053,0.15576991,-0.0725572,24.1875,24.5625,23.875,25.375,25.3125,25.5625
0.274052,0.5660872,0.43963137,1.1608073,-0.03232292,0.031807117,0.08319241,-0.375126,-0.32962355,0.0020388793,3.0756788,-0.6237834,-0.0075678504,0.0,0.0,0.0,0.0,0.0,0.0,0.44894207,-1.3790253,2.0837944,-2.2799194,-1.5710334,2.4235468,0.0,0.0,-0.0,-0.0,0.0,-0.0,-0.038307227,0.11492168,-9.385271,0.75755644,47.70032,0.33257687,-3.4555955,-2.4493256,-0.47692704,0.14054528,-0.07669766,24.1875,24.5625,23.875,25.375,25.3125,25.5625
0.27605206,0.24527597,-0.25007707,1.0205877,-0.014875807,0.02279335,0.09484957,-0.37510657,-0.3296076,0.0020083277,3.0757353,-0.6238335,-0.007527211,0.0,0.0,0.0,0.0,0.0,0.0,0.44895422,-1.3789895,2.0838306,-2.2799313,-1.5710696,2.423583,0.0,0.0,-0.0,-0.0,0.0,-0.0,0.0,0.17238252,-9.289502,0.7530795,47.729877,0.36357665,-3.4224641,-2.468073,-0.47692993,0.14165084,-0.077201046,24.1875,24.5625,23.875,25.375,25.3125,25.5625
0.27805236,0.994435,0.050181795,1.091087,-0.027602393,0.037664175,0.07931629,-0.3751331,-0.32962045,0.002033151,3.0757036,-0.6238072,-0.007601568,0.0,0.0,0.0,0.0,0.0,0.0,0.44895422,-1.3790014,2.083783,-2.2799313,-1.5710696,2.4235706,0.0,0.0,-0.0,-0.0,0.0,-0.0,0.05746084,0.095768064,-9.32781,0.7172743,47.70211,0.33612,-3.4535046,-2.4483519,-0.48755008,0.1576271,-0.07127025,24.1875,24.5625,23.875,25.375,25.3125,25.5625
0.28005254,0.9314016,0.3572684,1.0058486,-0.030072916,0.03720866,0.07220262,-0.37509033,-0.32961708,0.00200992,3.0757024,-0.6238069,-0.007480265,0.0,0.0,0.0,0.0,0.0,0.0,0.44895422,-1.3790134,2.0838554,-2.2799313,-1.5710214,2.4235706,0.0,0.0,-0.0,-0.0,0.0,-0.0,0.0,0.11492168,-9.251195,0.7284641,47.703903,0.40416664,-3.4042125,-2.506736,-0.4720927,0.14743116,-0.07983348,24.1875,24.5625,23.875,25.375,25.3125,25.5625
0.2820526,0.49371803,-0.3053359,0.898851,-0.0168314,0.018654875,0.08426988,-0.37510175,-0.32959875,0.0020103825,3.0757499,-0.6238361,-0.007496986,0.0,0.0,0.0,0.0,0.0,0.0,0.44894207,-1.3790014,2.0838306,-2.279895,-1.5710696,2.4235706,0.0,0.0,-0.0,-0.0,0.0,-0.0,0.19153613,0.1340753,-9.385271,0.73069996,47.684196,0.34587967,-3.4338691,-2.4659822,-0.47687668,0.1576525,-0.065928474,24.1875,24.5625,23.875,25.375,25.3125,25.5625
0.2840525,0.8802394,-0.12237247,1.1943374,-0.02040763,0.031059355,0.07612498,-0.37515563,-0.32964444,0.0020559153,3.0756397,-0.623756,-0.0076575438,0.0,0.0,0.0,0.0,0.0,0.0,0.44895422,-1.3790134,2.0837467,-2.2799556,-1.5710334,2.4235468,0.0,0.0,-0.0,-0.0,0.0,-0.0,0.17238252,0.17238252,-9.385271,0.72622824,47.685097,0.34747764,-3.4745402,-2.4250271,-0.46801186,0.16040832,-0.08256192,24.1875,24.5625,23.875,25.375,25.3125,25.5625
0.2860516,0.7553959,0.36978397,1.1456909,-0.033647206,0.026312439,0.07600303,-0.37512028,-0.32962283,0.0020273544,3.075695,-0.6238253,-0.0075496454,0.0,0.0,0.0,0.0,0.0,0.0,0.44895422,-1.3790014,2.0837944,-2.2799194,-1.5710458,2.423583,0.0,0.0,-0.0,-0.0,0.0,-0.0,0.095768064,0.11492168,-9.385271,0.7105615,47.684196,0.34077275,-3.4651003,-2.4806755,-0.49557862,0.15057287,-0.07218397,24.1875,24.5625,23.875,25.375,25.3125,25.5625
0.2880517,0.67593086,0.04391519,1.1031475,-0.023833591,0.028078163,0.08902119,-0.3751379,-0.32962936,0.0020273514,3.0756757,-0.6238018,-0.0075660828,0.0,0.0,0.0,0.0,0.0,0.0,0.44894207,-1.3789773,2.0837715,-2.2799432,-1.5710334,2.4235587,0.0,0.0,-0.0,-0.0,0.0,-0.0,0.095768064,0.1340753,-9.308656,0.78888994,47.679718,0.3555609,-3.4147477,-2.5090837,-0.4876927,0.1447486,-0.08036711,24.1875,24.5625,23.875,25.375,25.3125,25.5625
0.29005262,0.91736513,0.19653721,1.006922,-0.027447812,0.028847333,0.07580092,-0.37511745,-0.32963023,0.002024937,3.0756838,-0.6238229,-0.0075103515,0.0,0.0,0.0,0.0,0.0,0.0,0.44895422,-1.3789895,2.083783,-2.279907,-1.5710214,2.423583,0.0,0.0,-0.0,-0.0,0.0,-0.0,0.095768064,0.1340753,-9.32781,0.75755644,47.68599,0.3200183,-3.4510007,-2.457084,-0.47794124,0.15175031,-0.06882857,24.1875,24.5625,23.875,25.375,25.3125,25.5625
0.29205266,0.3253383,-0.4098501,0.8756511,-0.013751627,0.016370999,0.08618107,-0.37514803,-0.3296191,0.0020310462,3.0756726,-0.62383944,-0.0076199383,0.0,0.0,0.0,0.0,0.0,0.0,0.44893014,-1.3789895,2.083783,-2.279967,-1.5710577,2.4235706,0.0,0.0,-0.0,-0.0,0.0,-0.0,0.095768064,0.1340753,-9.32781,0.7620334,47.653748,0.3012836,-3.4211054,-2.4972482,-0.4797289,0.1380586,-0.08289313,24.1875,24.5625,23.875,25.375,25.3125,25.5625
0.29405186,0.73118055,-0.058863793,1.0581967,-0.024839196,0.02433488,0.07778355,-0.37511158,-0.3296231,0.0020220072,3.0756896,-0.62384397,-0.007521132,0.0,0.0,0.0,0.0,0.0,0.0,0.44895422,-1.3790014,2.0838077,-2.2799194,-1.5710334,2.4235954,0.0,0.0,-0.0,-0.0,0.0,-0.0,0.15322891,0.095768064,-9.289502,0.7933669,47.68062,0.35820496,-3.429694,-2.5092523,-0.48145157,0.1579001,-0.06981601,24.1875,24.5625,23.875,25.375,25.3125,25.5625
0.29605177,0.9005043,-0.14373852,0.9859353,-0.022928681,0.027631288,0.077613175,-0.37515885,-0.3296093,0.0020425785,3.075677,-0.6238406,-0.0076726847,0.0,0.0,0.0,0.0,0.0,0.0,0.4489181,-1.3790134,2.083783,-2.279967,-1.5710815,2.4235587,0.0,0.0,-0.0,-0.0,0.0,-0.0,0.19153613,0.17238252,-9.308656,0.7217513,47.696735,0.35346597,-3.428894,-2.4711635,-0.48406902,0.14122856,-0.059061877,24.1875,24.5625,23.875,25.375,25.3125,25.5625
0.29805186,0.9879532,0.015538724,1.0681937,-0.025946077,0.032000635,0.080522805,-0.37512332,-0.3296266,0.0020203465,3.0756876,-0.6238042,-0.007510716,0.0,0.0,0.0,0.0,0.0,0.0,0.44894207,-1.3789773,2.083783,-2.2799194,-1.5710214,2.4235587,0.0,0.0,-0.0,-0.0,0.0,-0.0,0.095768064,0.15322891,-9.3661175,0.8112748,47.713753,0.35368216,-3.4530802,-2.445417,-0.4819888,0.13868356,-0.06637026,24.1875,24.5625,23.875,25.375,25.3125,25.5625
0.30005166,1.2231542,0.022709208,1.084356,-0.02683022,0.036381107,0.07449111,-0.37511078,-0.32960963,0.002017433,3.0757437,-0.6237581,-0.007541625,0.0,0.0,0.0,0.0,0.0,0.0,0.44895422,-1.3790014,2.0838192,-2.2799194,-1.5710696,2.4235349,0.0,0.0,-0.0,-0.0,0.0,-0.0,0.095768064,0.24899697,-9.3661175,0.7105615,47.70032,0.352511,-3.4173672,-2.4526405,-0.47648597,0.14229827,-0.0696621,24.1875,24.5625,23.875,25.375,25.3125,25.5625
0.30205196,0.6941908,-0.03317698,1.1491328,-0.027911091,0.025677059,0.080816135,-0.3751327,-0.32963523,0.002045885,3.0756595,-0.6238189,-0.007623483,0.0,0.0,0.0,0.0,0.0,0.0,0.44896615,-1.3790253,2.083783,-2.2799432,-1.5710458,2.4235954,0.0,0.0,-0.0,-0.0,0.0,-0.0,0.076614454,0.21068975,-9.404425,0.7284641,47.682407,0.34926724,-3.4147396,-2.496544,-0.48785233,0.14694317,-0.060664665,24.1875,24.5625,23.875,25.375,25.3125,25.5625
0.3040518,1.3258405,-0.18219602,1.1139157,-0.022378977,0.045460153,0.078841835,-0.37511083,-0.32961395,0.0020129066,3.0757267,-0.6237928,-0.0075301556,0.0,0.0,0.0,0.0,0.0,0.0,0.44895422,-1.3789895,2.0838192,-2.2799313,-1.5710577,2.4235587,0.0,0.0,-0.0,-0.0,0.0,-0.0,0.15322891,0.21068975,-9.461885,0.7105615,47.68062,0.3187898,-3.4004264,-2.4885075,-0.49409747,0.1532306,-0.067681,24.1875,24.5625,23.875,25.375,25.3125,25.5625
0.30605188,0.8072587,0.056117173,1.1140723,-0.0265146,0.030709418,0.078255445,-0.3751576,-0.32960662,0.002051682,3.0756524,-0.62391347,-0.007661438,0.0,0.0,0.0,0.0,0.0,0.0,0.44890618,-1.3790374,2.083783,-2.2799432,-1.5710696,2.4235954,0.0,0.0,-0.0,-0.0,0.0,-0.0,0.019153614,0.11492168,-9.346964,0.7911258,47.693153,0.34942943,-3.3988256,-2.463126,-0.48090816,0.1544406,-0.07115646,24.1875,24.5625,23.875,25.375,25.3125,25.5625
0.30805188,0.6827246,0.21586148,1.2045791,-0.030054532,0.024401389,0.07141733,-0.37511542,-0.3296097,0.0020207528,3.0757198,-0.62382996,-0.007528994,0.0,0.0,0.0,0.0,0.0,0.0,0.44894207,-1.3790014,2.0838077,-2.279907,-1.5710577,2.4235706,0.0,0.0,-0.0,-0.0,0.0,-0.0,0.095768064,0.1340753,-9.423578,0.7642693,47.696735,0.35648954,-3.476733,-2.4532459,-0.47962302,0.15222491,-0.076342754,24.1875,24.5625,23.875,25.375,25.3125,25.5625
0.31005174,0.8815442,-0.3625645,1.0908163,-0.01598701,0.034490682,0.08348905,-0.3751296,-0.32961878,0.0020319403,3.0757143,-0.6237903,-0.0075867395,0.0,0.0,0.0,0.0,0.0,0.0,0.44895422,-1.3790014,2.083783,-2.2799194,-1.5710696,2.4235587,0.0,0.0,-0.0,-0.0,0.0,-0.0,0.095768064,0.17238252,-9.404425,0.71279734,47.672558,0.38174915,-3.4390366,-2.4738975,-0.48165745,0.15166725,-0.070065506,24.1875,24.5625,23.875,25.375,25.3125,25.5625
0.31205195,0.77615577,-0.15907523,1.025348,-0.019718003,0.03019563,0.08054379,-0.37512165,-0.32963228,0.0020340425,3.0756886,-0.6237658,-0.0075247367,0.0,0.0,0.0,0.0,0.0,0.0,0.44895422,-1.3790014,2.0837715,-2.279895,-1.5710214,2.4235468,0.0,0.0,-0.0,-0.0,0.0,-0.0,0.11492168,0.095768064,-9.385271,0.7463667,47.682407,0.3491447,-3.4658208,-2.466242,-0.47092128,0.13928138,-0.07693959,24.1875,24.5625,23.875,25.375,25.3125,25.5625
0.31405255,0.31791463,-0.09190731,1.0952885,-0.020416858,0.020772152,0.08657718,-0.37511984,-0.32962897,0.0020359582,3.0756898,-0.6237471,-0.007592701,0.0,0.0,0.0,0.0,0.0,0.0,0.44896615,-1.3790253,2.0838077,-2.2799432,-1.5710458,2.4235468,0.0,0.0,-0.0,-0.0,0.0,-0.0,0.095768064,0.15322891,-9.404425,0.8112748,47.691364,0.33648768,-3.4225745,-2.4610152,-0.488334,0.14595552,-0.07718374,24.1875,24.5625,23.875,25.375,25.3125,25.5625
0.3160526,0.28570986,-0.071645334,1.1399575,-0.022349713,0.02175277,0.081640966,-0.3751291,-0.32962063,0.002023673,3.0756955,-0.62386465,-0.0075326553,0.0,0.0,0.0,0.0,0.0,0.0,0.44894207,-1.3789773,2.0837715,-2.279907,-1.5710458,2.4235954,0.0,0.0,-0.0,-0.0,0.0,-0.0,0.095768064,0.17238252,-9.32781,0.68146914,47.70032,0.3691296,-3.4334369,-2.449801,-0.4819172,0.1267884,-0.07314897,24.1875,24.5625,23.875,25.375,25.3125,25.5625
0.31805265,0.9632482,0.41680205,1.0242916,-0.03235836,0.036634024,0.0722289,-0.37514246,-0.3296252,0.002038236,3.0756636,-0.6238963,-0.007552049,0.0,0.0,0.0,0.0,0.0,0.0,0.44893014,-1.3789895,2.0837467,-2.279895,-1.5710334,2.4236073,0.0,0.0,-0.0,-0.0,0.0,-0.0,0.095768064,0.1340753,-9.423578,0.75084364,47.683304,0.33092135,-3.45401,-2.408233,-0.47861266,0.14480694,-0.07436895,24.1875,24.5625,23.875,25.375,25.3125,25.5625
0.3200518,0.38688663,0.42191535,1.2543213,-0.027656442,0.024136674,0.08061033,-0.37512752,-0.32963273,0.002038939,3.0756776,-0.62380266,-0.0075937724,0.0,0.0,0.0,0.0,0.0,0.0,0.44896615,-1.3790134,2.083783,-2.2799313,-1.5710458,2.423583,0.0,0.0,-0.0,-0.0,0.0,-0.0,0.1340753,0.15322891,-9.404425,0.7351769,47.69763,0.3567051,-3.4256887,-2.397789,-0.4833914,0.14996739,-0.07529313,24.1875,24.5625,23.875,25.375,25.3125,25.5625
0.3220519,1.000637,0.30740398,1.0664904,-0.029874934,0.035450254,0.07232442,-0.37511942,-0.32960954,0.0020191497,3.0757093,-0.6238667,-0.0075045098,0.0,0.0,0.0,0.0,0.0,0.0,0.44893014,-1.3789895,2.0837944,-2.279895,-1.5710458,2.423583,0.0,0.0,-0.0,-0.0,0.0,-0.0,0.019153614,0.038307227,-9.385271,0.75755644,47.686886,0.3189675,-3.4398062,-2.497612,-0.47896367,0.13407034,-0.07482008,24.1875,24.5625,23.875,25.375,25.3125,25.5625
0.32405275,0.9218812,0.36849162,1.1692544,-0.029439634,0.033936173,0.07963827,-0.37511933,-0.3296009,0.0020150202,3.0757437,-0.62379664,-0.007525613,0.0,0.0,0.0,0.0,0.0,0.0,0.44893014,-1.3789895,2.0838077,-2.279907,-1.5710696,2.4235349,0.0,0.0,-0.0,-0.0,0.0,-0.0,0.076614454,0.1340753,-9.404425,0.7105615,47.655537,0.36366433,-3.4271479,-2.4183083,-0.46940768,0.16085166,-0.073142365,24.1875,24.5625,23.875,25.375,25.3125,25.5625
0.32605192,0.81583935,0.15471657,1.2020677,-0.024567032,0.030279273,0.08133138,-0.37513283,-0.3296353,0.0020460135,3.075674,-0.6238218,-0.007593148,0.0,0.0,0.0,0.0,0.0,0.0,0.44896615,-1.3790134,2.083759,-2.279907,-1.5710458,2.4235954,0.0,0.0,-0.0,-0.0,0.0,-0.0,0.076614454,0.095768064,-9.3661175,0.75084364,47.686886,0.31212187,-3.4405777,-2.4679742,-0.48631006,0.16367105,-0.068474986,24.1875,24.5625,23.875,25.375,25.3125,25.5625
0.32805204,1.1344618,0.448322,1.1015943,-0.031939622,0.038153343,0.072492294,-0.37512854,-0.32962257,0.0020295249,3.0757167,-0.6237716,-0.0075593144,0.0,0.0,0.0,0.0,0.0,0.0,0.44895422,-1.3789895,2.0837715,-2.279907,-1.5710577,2.4235468,0.0,0.0,-0.0,-0.0,0.0,-0.0,0.05746084,0.15322891,-9.461885,0.7150385,47.686886,0.35852063,-3.415276,-2.495815,-0.47797728,0.14532316,-0.07418801,24.1875,24.5625,23.875,25.375,25.3125,25.5625
0.3300518,1.0797154,0.15459913,1.172931,-0.029998628,0.037796788,0.07541485,-0.37514895,-0.32962814,0.0020542236,3.0756674,-0.62383956,-0.0076611415,0.0,0.0,0.0,0.0,0.0,0.0,0.44895422,-1.3790253,2.083759,-2.2799313,-1.5710696,2.4235954,0.0,0.0,-0.0,-0.0,0.0,-0.0,0.05746084,0.076614454,-9.423578,0.7239871,47.67345,0.3372373,-3.474402,-2.4502754,-0.46863872,0.15932392,-0.074074715,24.1875,24.5625,23.875,25.375,25.3125,25.5625
0.33205202,0.8694168,0.031715453,1.1372293,-0.022248423,0.031002989,0.075871035,-0.37512028,-0.32962283,0.0020169804,3.0757062,-0.62380767,-0.0075344685,0.0,0.0,0.0,0.0,0.0,0.0,0.44895422,-1.3789773,2.0837944,-2.2799313,-1.5710458,2.4235706,0.0,0.0,-0.0,-0.0,0.0,-0.0,0.038307227,0.076614454,-9.270349,0.7709874,47.686886,0.3633651,-3.4129949,-2.431614,-0.48367602,0.13986288,-0.08344218,24.1875,24.5625,23.875,25.375,25.3125,25.5625
0.33405206,0.8307213,0.12601322,0.9766552,-0.028163815,0.02959323,0.08156353,-0.37513623,-0.32959843,0.0020362074,3.075703,-0.623865,-0.007518567,0.0,0.0,0.0,0.0,0.0,0.0,0.44889414,-1.3790134,2.0837715,-2.2798593,-1.5710458,2.4235468,0.0,0.0,-0.0,-0.0,0.0,-0.0,0.095768064,0.19153613,-9.385271,0.77545905,47.68599,0.3454076,-3.4357967,-2.5106761,-0.48609054,0.16022094,-0.0706695,24.1875,24.5625,23.875,25.375,25.3125,25.5625
0.33605185,0.78449297,0.0030762078,1.1918669,-0.026479686,0.033067375,0.0818664,-0.3751265,-0.32961297,0.0020216194,3.0756986,-0.6238447,-0.007534854,0.0,0.0,0.0,0.0,0.0,0.0,0.44893014,-1.3789895,2.0837944,-2.2799194,-1.5710458,2.4235706,0.0,0.0,-0.0,-0.0,0.0,-0.0,0.1340753,0.15322891,-9.3661175,0.7866488,47.72629,0.33204588,-3.4860663,-2.438474,-0.48996866,0.14604852,-0.06683562,24.1875,24.5625,23.875,25.375,25.3125,25.5625
0.338052,0.89970547,0.36218336,1.205975,-0.03204002,0.032239586,0.07670741,-0.3751201,-0.3296165,0.002022003,3.0756676,-0.6238576,-0.007498523,0.0,0.0,0.0,0.0,0.0,0.0,0.4489181,-1.3790014,2.0838077,-2.2799194,-1.5710095,2.4235706,0.0,0.0,-0.0,-0.0,0.0,-0.0,0.095768064,0.22984336,-9.423578,0.7329411,47.71554,0.3686591,-3.4100742,-2.4848971,-0.4785207,0.13609369,-0.066511706,24.1875,24.5625,23.875,25.375,25.3125,25.5625
0.340052,0.25774276,-0.04919006,1.1771505,-0.023655405,0.013154967,0.08084377,-0.37513644,-0.32963705,0.0020472729,3.0756707,-0.62380123,-0.007608633,0.0,0.0,0.0,0.0,0.0,0.0,0.44896615,-1.3790134,2.083759,-2.2799194,-1.5710458,2.423583,0.0,0.0,-0.0,-0.0,0.0,-0.0,0.076614454,0.24899697,-9.442732,0.7463667,47.705692,0.325178,-3.4727452,-2.471076,-0.48130667,0.14233421,-0.06490337,24.1875,24.5625,23.875,25.375,25.3125,25.5625
0.34205198,0.9559674,0.42642465,1.2229314,-0.0354683,0.03156286,0.07510047,-0.37513274,-0.32960528,0.002019094,3.0757005,-0.6239231,-0.0075298036,0.0,0.0,0.0,0.0,0.0,0.0,0.4489181,-1.3789773,2.083783,-2.279907,-1.5710577,2.4236073,0.0,0.0,-0.0,-0.0,0.0,-0.0,0.13407528,0.095768064,-9.423578,0.7463667,47.693153,0.338234,-3.427815,-2.52183,-0.4793704,0.159328,-0.06668597,24.1875,24.5625,23.875,25.375,25.3125,25.5625
0.34405234,1.1211202,0.20215264,1.105591,-0.0290124,0.037579946,0.07812552,-0.37513787,-0.32962057,0.002026145,3.0757017,-0.6238072,-0.007574445,0.0,0.0,0.0,0.0,0.0,0.0,0.44894207,-1.3789773,2.0837715,-2.2799313,-1.5710577,2.4235587,0.0,0.0,-0.0,-0.0,0.0,-0.0,0.15322891,0.1340753,-9.3661175,0.7284641,47.684196,0.328145,-3.4682112,-2.4583316,-0.48882374,0.14928544,-0.068637304,24.1875,24.5625,23.875,25.375,25.3125,25.5625
0.34605262,1.0352198,0.13640434,1.142196,-0.030233825,0.037163604,0.07530719,-0.37512627,-0.3296345,0.002033142,3.0756624,-0.6238186,-0.007555548,0.0,0.0,0.0,0.0,0.0,0.0,0.44895422,-1.3790014,2.083783,-2.2799313,-1.5710214,2.423583,0.0,0.0,-0.0,-0.0,0.0,-0.0,0.11492168,0.19153613,-9.404425,0.7732232,47.701214,0.30974403,-3.444312,-2.451776,-0.4768017,0.14915243,-0.07710478,24.1875,24.5625,23.875,25.375,25.3125,25.5625
0.34805167,0.69284886,0.23587313,1.2636564,-0.028335271,0.024019616,0.07827953,-0.37511486,-0.32961816,0.002024429,3.0756822,-0.6238421,-0.007536822,0.0,0.0,0.0,0.0,0.0,0.0,0.44894207,-1.3790134,2.0838192,-2.2799313,-1.5710334,2.423583,0.0,0.0,-0.0,-0.0,0.0,-0.0,0.076614454,0.19153613,-9.442732,0.7105615,47.701214,0.32311493,-3.399918,-2.4710317,-0.4834727,0.14334342,-0.068837,24.1875,24.5625,23.875,25.375,25.3125,25.5625
0.35005262,0.6899125,0.05676046,1.1889818,-0.027787346,0.02705874,0.07546978,-0.37514922,-0.32960898,0.0020319973,3.0756848,-0.62390095,-0.0076009776,0.0,0.0,0.0,0.0,0.0,0.0,0.4489181,-1.3789895,2.0837715,-2.2799313,-1.5710696,2.4235954,0.0,0.0,-0.0,-0.0,0.0,-0.0,0.095768064,0.1340753,-9.346964,0.73741806,47.696735,0.31922996,-3.4523559,-2.4804115,-0.48737472,0.15363154,-0.076005645,24.1875,24.5625,23.875,25.375,25.3125,25.5625
0.35205263,0.8363643,0.20430687,1.1666163,-0.031455778,0.029740425,0.08140206,-0.37513515,-0.32963213,0.0020435227,3.075684,-0.6237841,-0.0076194527,0.0,0.0,0.0,0.0,0.0,0.0,0.44896615,-1.3790134,2.0837715,-2.2799313,-1.5710577,2.4235706,0.0,0.0,-0.0,-0.0,0.0,-0.0,0.05746084,0.038307227,-9.442732,0.6971306,47.68062,0.36155742,-3.4420261,-2.4771326,-0.47772446,0.14429444,-0.07030558,24.1875,24.5625,23.875,25.375,25.3125,25.5625
0.35405204,0.69444335,0.19738165,1.1731888,-0.029129274,0.02770217,0.07568664,-0.37512037,-0.32963595,0.0020240343,3.0756638,-0.62379897,-0.007529906,0.0,0.0,0.0,0.0,0.0,0.0,0.44895422,-1.3789895,2.0837944,-2.2799432,-1.5710095,2.4235706,0.0,0.0,-0.0,-0.0,0.0,-0.0,0.038307227,0.095768064,-9.346964,0.7530795,47.675243,0.3645037,-3.4783359,-2.4790995,-0.4789579,0.14345512,-0.07243845,24.1875,24.5625,23.875,25.375,25.3125,25.5625
0.35605213,0.21950416,-0.16469295,1.2376254,-0.023306008,0.018817045,0.0826904,-0.37511313,-0.32961732,0.0020186368,3.0757008,-0.6237879,-0.0075218813,0.0,0.0,0.0,0.0,0.0,0.0,0.44894207,-1.3790014,2.0838192,-2.2799313,-1.5710334,2.4235468,0.0,0.0,-0.0,-0.0,0.0,-0.0,0.038307227,0.11492168,-9.385271,0.75084364,47.71554,0.35364258,-3.4277458,-2.4537144,-0.46654886,0.15234002,-0.061558325,24.1875,24.5625,23.875,25.375,25.3125,25.5625
0.35805216,0.54041123,0.3238162,1.2586735,-0.031412933,0.0282267,0.081491984,-0.37513247,-0.32962462,0.0020377235,3.0756662,-0.6237999,-0.007555879,0.0,0.0,0.0,0.0,0.0,0.0,0.44893014,-1.3790134,2.083783,-2.2799194,-1.5710214,2.4235468,0.0,0.0,-0.0,-0.0,0.0,-0.0,0.11492168,0.076614454,-9.308656,0.7665104,47.691364,0.3582665,-3.4226522,-2.4518707,-0.46615702,0.14135174,-0.06321338,24.1875,24.5625,23.875,25.375,25.3125,25.5625
0.3600523,0.847015,0.5167653,1.2607359,-0.033321552,0.03441016,0.07192509,-0.37510562,-0.3296202,0.0020070525,3.0757036,-0.6238468,-0.007491658,0.0,0.0,0.0,0.0,0.0,0.0,0.44895422,-1.3789773,2.0838192,-2.2799313,-1.5710334,2.4235954,0.0,0.0,-0.0,-0.0,0.0,-0.0,0.05746084,0.05746084,-9.3661175,0.7351769,47.677036,0.38575542,-3.4579978,-2.4511561,-0.4872843,0.14092445,-0.0804462,24.1875,24.5625,23.875,25.375,25.3125,25.5625
0.3620523,0.80447704,0.19228332,1.2170908,-0.024154067,0.032147884,0.079477265,-0.3751052,-0.3296219,0.0020129043,3.0757136,-0.62380993,-0.0075186803,0.0,0.0,0.0,0.0,0.0,0.0,0.44896615,-1.3789895,2.0838192,-2.2799313,-1.5710458,2.423583,0.0,0.0,-0.0,-0.0,0.0,-0.0,0.038307227,0.076614454,-9.423578,0.7642693,47.678825,0.33763885,-3.4303348,-2.4888854,-0.48262608,0.1344209,-0.076327875,24.1875,24.5625,23.875,25.375,25.3125,25.5625
0.36405182,0.6976126,-0.16854718,1.1214063,-0.022937328,0.031866845,0.08314385,-0.37512824,-0.3296138,0.002024431,3.0756853,-0.623842,-0.007562814,0.0,0.0,0.0,0.0,0.0,0.0,0.44893014,-1.3790014,2.0838077,-2.2799432,-1.5710458,2.4235706,0.0,0.0,-0.0,-0.0,0.0,-0.0,0.05746084,0.15322891,-9.32781,0.71279734,47.66271,0.36339825,-3.4645696,-2.4857488,-0.47566235,0.14781146,-0.070778176,24.1875,24.5625,23.875,25.375,25.3125,25.5625
0.36605188,-0.048852827,-0.12609144,1.11588,-0.016066883,0.01763526,0.08671682,-0.37514058,-0.3296176,0.0020343617,3.0756965,-0.6238061,-0.0076164887,0.0,0.0,0.0,0.0,0.0,0.0,0.44894207,-1.3790014,2.083783,-2.2799432,-1.5710696,2.4235587,0.0,0.0,-0.0,-0.0,0.0,-0.0,0.05746084,0.19153613,-9.32781,0.7933669,47.711964,0.30233788,-3.39297,-2.4488156,-0.49061483,0.13900107,-0.071525134,24.1875,24.5625,23.875,25.375,25.3125,25.5625
0.3680519,1.1356188,0.124920465,1.1338902,-0.022552038,0.03934355,0.07314035,-0.37512475,-0.3296166,0.002021617,3.075689,-0.6238427,-0.007523016,0.0,0.0,0.0,0.0,0.0,0.0,0.44893014,-1.3789895,2.0837944,-2.2799194,-1.5710334,2.4235706,0.0,0.0,-0.0,-0.0,0.0,-0.0,0.076614454,0.21068975,-9.385271,0.7396539,47.691364,0.34239477,-3.4749553,-2.49402,-0.4796782,0.14434469,-0.06949013,24.1875,24.5625,23.875,25.375,25.3125,25.5625
0.3700519,0.7589735,0.0048980042,1.1775899,-0.020689659,0.030251296,0.08261303,-0.3751372,-0.3296333,0.0020458805,3.0756333,-0.623852,-0.0076003238,0.0,0.0,0.0,0.0,0.0,0.0,0.44894207,-1.3790253,2.083783,-2.2799432,-1.5710214,2.4235954,0.0,0.0,-0.0,-0.0,0.0,-0.0,0.076614454,0.1340753,-9.423578,0.6971306,47.685097,0.34235483,-3.4051805,-2.464564,-0.46780765,0.15038446,-0.07694134,24.1875,24.5625,23.875,25.375,25.3125,25.5625
0.3720521,0.8311479,0.45502895,1.1367017,-0.031323057,0.033852596,0.07615802,-0.37509602,-0.32962838,0.0020116915,3.0757225,-0.6237535,-0.007492014,0.0,0.0,0.0,0.0,0.0,0.0,0.4489782,-1.3789895,2.0838192,-2.2799194,-1.5710334,2.4235587,0.0,0.0,-0.0,-0.0,0.0,-0.0,0.038307227,0.05746084,-9.404425,0.7105615,47.694946,0.36703604,-3.4481332,-2.4443264,-0.48874894,0.14294422,-0.079435326,24.1875,24.5625,23.875,25.375,25.3125,25.5625
0.37405217,0.97115815,-0.28286433,1.0701367,-0.013447216,0.0379637,0.07626861,-0.37512997,-0.32961464,0.0020331466,3.0756805,-0.6238609,-0.0075647407,0.0,0.0,0.0,0.0,0.0,0.0,0.44893014,-1.3790134,2.0837944,-2.2799194,-1.5710458,2.423583,0.0,0.0,-0.0,-0.0,0.0,-0.0,0.095768064,0.17238252,-9.3661175,0.73069996,47.709274,0.31384453,-3.4296122,-2.4471748,-0.48093688,0.14150108,-0.06429656,24.1875,24.5625,23.875,25.375,25.3125,25.5625
0.37605217,0.56807446,-0.13518552,0.9395311,-0.018503578,0.025662877,0.08258033,-0.3751166,-0.32961246,0.0020145152,3.0757315,-0.62385255,-0.0075268596,0.0,0.0,0.0,0.0,0.0,0.0,0.44895422,-1.3789773,2.0837944,-2.279907,-1.5710696,2.4235954,0.0,0.0,-0.0,-0.0,0.0,-0.0,0.22984336,0.1340753,-9.32781,0.7709874,47.72002,0.32908142,-3.4769595,-2.4870143,-0.4733923,0.1333498,-0.06853731,24.1875,24.5625,23.875,25.375,25.3125,25.5625
0.37805226,0.7155159,0.025589984,1.1410309,-0.025293812,0.028685708,0.08101624,-0.37514418,-0.32962152,0.0020492624,3.0756993,-0.62376815,-0.007657196,0.0,0.0,0.0,0.0,0.0,0.0,0.44895422,-1.3790253,2.0837715,-2.2799313,-1.5710815,2.4235468,0.0,0.0,-0.0,-0.0,0.0,-0.0,0.11492168,0.19153613,-9.270349,0.7083204,47.716442,0.34016752,-3.4240155,-2.4877894,-0.47137535,0.12596664,-0.081273526,24.1875,24.5625,23.875,25.375,25.3125,25.5625
0.3800522,0.86599034,-0.12046274,0.9994576,-0.021446949,0.031347066,0.0782353,-0.37511832,-0.32961106,0.0020244336,3.0757012,-0.623846,-0.007560043,0.0,0.0,0.0,0.0,0.0,0.0,0.44894207,-1.3790134,2.0838192,-2.2799313,-1.5710577,2.423583,0.0,0.0,-0.0,-0.0,0.0,-0.0,0.095768064,0.22984336,-9.32781,0.7284641,47.701214,0.3316651,-3.4743104,-2.472733,-0.4749456,0.1485801,-0.07447992,24.1875,24.5625,23.875,25.375,25.3125,25.5625
0.38205236,0.63038677,-0.31056193,1.0359871,-0.016818758,0.024281984,0.0804555,-0.3751369,-0.329618,0.002045885,3.075663,-0.6238375,-0.00760955,0.0,0.0,0.0,0.0,0.0,0.0,0.44893014,-1.3790374,2.0837944,-2.2799313,-1.5710458,2.4235706,0.0,0.0,-0.0,-0.0,0.0,-0.0,0.095768064,0.19153613,-9.346964,0.7284641,47.682407,0.30921128,-3.4607453,-2.4548411,-0.47187504,0.13851961,-0.080923066,24.1875,24.5625,23.875,25.375,25.3125,25.5625
0.38405222,0.8614801,0.18068777,1.126281,-0.029785221,0.030426187,0.07924557,-0.3751394,-0.32961923,0.002038939,3.075659,-0.6238954,-0.0075938026,0.0,0.0,0.0,0.0,0.0,0.0,0.44893014,-1.3790134,2.083783,-2.2799313,-1.5710458,2.4236073,0.0,0.0,-0.0,-0.0,0.0,-0.0,0.1340753,0.1340753,-9.346964,0.72622824,47.681515,0.33522844,-3.4448757,-2.4876451,-0.48144943,0.14766511,-0.0795326,24.1875,24.5625,23.875,25.375,25.3125,25.5625
0.3860523,0.51008123,-0.014615144,1.0656726,-0.025415579,0.020465953,0.08204989,-0.37511685,-0.32959968,0.002021966,3.075725,-0.62385017,-0.0075411755,0.0,0.0,0.0,0.0,0.0,0.0,0.44893014,-1.3790134,2.0838192,-2.279907,-1.5710696,2.4235706,0.0,0.0,-0.0,-0.0,0.0,-0.0,0.076614454,0.17238252,-9.442732,0.800085,47.737934,0.37846747,-3.4507196,-2.5169687,-0.476673,0.14104193,-0.06811677,24.1875,24.5625,23.875,25.375,25.3125,25.5625
0.3880525,0.9312384,-0.057140116,1.1143135,-0.025076816,0.03356749,0.080292955,-0.37513372,-0.32962504,0.0020467876,3.0756724,-0.6238787,-0.0076039312,0.0,0.0,0.0,0.0,0.0,0.0,0.44895422,-1.3790253,2.0837715,-2.279907,-1.5710577,2.4236193,0.0,0.0,-0.0,-0.0,0.0,-0.0,0.11492168,0.1340753,-9.461885,0.7172743,47.704796,0.3537227,-3.3821054,-2.4016705,-0.4905023,0.15800054,-0.07452742,24.1875,24.5625,23.875,25.375,25.3125,25.5625
0.39005244,0.46049538,0.15731682,1.2664214,-0.03660195,0.019874128,0.07542796,-0.37513003,-0.32961246,0.002030681,3.0757143,-0.6238288,-0.0075712865,0.0,0.0,0.0,0.0,0.0,0.0,0.44894207,-1.3790014,2.083783,-2.279907,-1.5710696,2.4235706,0.0,0.0,-0.0,-0.0,0.0,-0.0,0.095768064,0.15322891,-9.308656,0.7553206,47.723602,0.29621482,-3.4351218,-2.442283,-0.49047625,0.13651147,-0.082813054,24.1875,24.5625,23.875,25.375,25.3125,25.5625
0.39205274,0.65672463,-0.24923943,1.3805252,-0.05311097,0.028508054,0.07775004,-0.37513995,-0.32961518,0.0020343666,3.075711,-0.62382865,-0.007639162,0.0,0.0,0.0,0.0,0.0,0.0,0.44895422,-1.3790014,2.083783,-2.2799432,-1.5710934,2.423583,0.0,0.0,-0.0,-0.0,0.0,-0.0,0.11492168,0.15322891,-9.32781,0.7642693,47.687782,0.3499719,-3.4478223,-2.5364804,-0.47825474,0.14663541,-0.07620242,24.1875,24.5625,23.875,25.375,25.3125,25.5625
0.3940523,0.7141156,-0.42288998,1.2360263,-0.055045735,0.027218254,0.07957533,-0.37511355,-0.32964116,0.0020235262,3.075674,-0.6237246,-0.0075704353,0.0,0.0,0.0,0.0,0.0,0.0,0.4489782,-1.3790014,2.0838192,-2.2799795,-1.5710214,2.4235468,0.0,0.0,-0.0,-0.0,0.0,-0.0,0.076614454,0.24899697,-9.270349,0.7620334,47.687782,0.3633775,-3.4460223,-2.449274,-0.48132023,0.14568838,-0.0689371,24.1875,24.5625,23.875,25.375,25.3125,25.5625
0.3960522,0.87121886,-0.3817996,1.1269523,-0.044558357,0.027556535,0.08311128,-0.37511942,-0.32963327,0.0020236708,3.075705,-0.6237692,-0.0075208494,0.0,0.0,0.0,0.0,0.0,0.0,0.44896615,-1.3789773,2.0837715,-2.279907,-1.5710334,2.4235587,0.0,0.0,-0.0,-0.0,0.0,-0.0,0.11492168,0.1340753,-9.32781,0.7284641,47.70659,0.36514303,-3.4701898,-2.4433594,-0.48572564,0.13305864,-0.061485186,24.1875,24.5625,23.875,25.375,25.3125,25.5625
0.39805233,0.70761585,-0.36496437,1.0629635,-0.04166991,0.028853578,0.081404775,-0.37511685,-0.3296299,0.0020451169,3.0756595,-0.6237982,-0.0075697983,0.0,0.0,0.0,0.0,0.0,0.0,0.44895422,-1.3790494,2.0838077,-2.2799194,-1.5710214,2.4235706,0.0,0.0,-0.0,-0.0,0.0,-0.0,0.17238252,0.1340753,-9.346964,0.73069996,47.68599,0.33659187,-3.4452724,-2.463955,-0.47568646,0.14840084,-0.08172616,24.1875,24.5625,23.875,25.375,25.3125,25.5625
0.40005255,1.0947555,0.22634476,1.406433,-0.04520504,0.03222523,0.07340288,-0.37513292,-0.32961816,0.0020297782,3.075694,-0.62380564,-0.00759084,0.0,0.0,0.0,0.0,0.0,0.0,0.44894207,-1.3790014,2.0837944,-2.2799432,-1.5710577,2.4235587,0.0,0.0,-0.0,-0.0,0.0,-0.0,0.095768064,0.17238252,-9.3661175,0.800085,47.696735,0.41008174,-3.4313912,-2.4718187,-0.48908728,0.14048043,-0.070926234,24.1875,24.5625,23.875,25.375,25.3125,25.5625
0.4020519,0.8345325,-0.14358462,1.1628861,-0.029221063,0.03257994,0.074453965,-0.37512493,-0.32962734,0.0020364644,3.0756698,-0.6238197,-0.007540333,0.0,0.0,0.0,0.0,0.0,0.0,0.44894207,-1.3790134,2.083783,-2.279907,-1.5710214,2.4235706,0.0,0.0,-0.0,-0.0,0.0,-0.0,0.1340753,0.15322891,-9.32781,0.7284641,47.66808,0.34898263,-3.445435,-2.48248,-0.485825,0.14546295,-0.069525264,24.1875,24.5625,23.875,25.375,25.3125,25.5625
0.4040518,0.95490664,0.25834495,1.3427349,-0.05480311,0.03494373,0.073278494,-0.3751357,-0.32963905,0.002049251,3.0756452,-0.6237952,-0.0075997636,0.0,0.0,0.0,0.0,0.0,0.0,0.44895422,-1.3790253,2.0837715,-2.2799313,-1.5710214,2.4235706,0.0,0.0,-0.0,-0.0,0.0,-0.0,0.095768064,0.11492168,-9.423578,0.7553206,47.677036,0.3112788,-3.4449663,-2.491326,-0.47441658,0.13633753,-0.08722466,24.1875,24.5625,23.875,25.375,25.3125,25.5625
0.406052,0.67659265,-0.17599322,1.3446311,-0.05639844,0.028791552,0.07991725,-0.37511158,-0.3296231,0.0020220072,3.0757048,-0.6237692,-0.007521257,0.0,0.0,0.0,0.0,0.0,0.0,0.44895422,-1.3790014,2.0838077,-2.2799194,-1.5710334,2.4235468,0.0,0.0,-0.0,-0.0,0.0,-0.0,0.038307227,0.05746084,-9.481039,0.73741806,47.71286,0.38665643,-3.4818177,-2.5041113,-0.48744842,0.13894892,-0.08666578,24.1875,24.5625,23.875,25.375,25.3125,25.5625
0.4080522,0.35459664,-0.06705091,1.3703343,-0.055650666,0.019696172,0.08255135,-0.37515265,-0.32961282,0.0020356167,3.0756478,-0.62391245,-0.0076091737,0.0,0.0,0.0,0.0,0.0,0.0,0.44890618,-1.3790014,2.083783,-2.2799556,-1.5710458,2.4235954,0.0,0.0,-0.0,-0.0,0.0,-0.0,0.038307227,0.11492168,-9.423578,0.7530795,47.694946,0.3920149,-3.4212565,-2.4736958,-0.48190826,0.15578613,-0.06756873,24.1875,24.5625,23.875,25.375,25.3125,25.5625
0.4100524,0.5232672,-0.1642771,1.3676504,-0.04680233,0.024358224,0.07537273,-0.37512514,-0.32961464,0.0020260909,3.0756724,-0.6238785,-0.0075110635,0.0,0.0,0.0,0.0,0.0,0.0,0.4489181,-1.3790014,2.0837944,-2.279907,-1.5710214,2.423583,0.0,0.0,-0.0,-0.0,0.0,-0.0,0.05746084,0.095768064,-9.442732,0.7172743,47.731667,0.371442,-3.473651,-2.4571426,-0.4844214,0.13000982,-0.06947708,24.1875,24.5625,23.875,25.375,25.3125,25.5625
0.41205227,0.6423268,-0.24173284,1.4138348,-0.03533574,0.02783846,0.085052915,-0.37510008,-0.329611,0.0020115862,3.0757146,-0.6238288,-0.0074772416,0.0,0.0,0.0,0.0,0.0,0.0,0.44894207,-1.3790014,2.0838306,-2.279907,-1.5710334,2.4235706,0.0,0.0,-0.0,-0.0,0.0,-0.0,0.0,0.076614454,-9.423578,0.7463667,47.682407,0.34605998,-3.393841,-2.4970465,-0.4787507,0.14565724,-0.072228566,24.1875,24.5625,23.875,25.375,25.3125,25.5625
0.4140525,0.7607385,-0.07944227,1.2894038,-0.034729034,0.029265232,0.07315372,-0.3751401,-0.32962403,0.0020423073,3.0756612,-0.62383705,-0.007581466,0.0,0.0,0.0,0.0,0.0,0.0,0.44893014,-1.3790134,2.0837715,-2.2799194,-1.5710334,2.4235706,0.0,0.0,-0.0,-0.0,0.0,-0.0,0.038307227,0.076614454,-9.3661175,0.7530795,47.701214,0.34550786,-3.4884775,-2.492401,-0.4787404,0.1399679,-0.06566392,24.1875,24.5625,23.875,25.375,25.3125,25.5625
0.4160519,0.67114854,-0.060877334,1.237396,-0.04041022,0.028064823,0.08175523,-0.37513542,-0.32962814,0.0020446717,3.0756574,-0.62381727,-0.007596913,0.0,0.0,0.0,0.0,0.0,0.0,0.44894207,-1.3790253,2.083783,-2.2799313,-1.5710334,2.4235706,0.0,0.0,-0.0,-0.0,0.0,-0.0,0.05746084,0.076614454,-9.3661175,0.7642693,47.711964,0.32504004,-3.476898,-2.4339385,-0.47094208,0.14025722,-0.07007791,24.1875,24.5625,23.875,25.375,25.3125,25.5625
0.41805196,0.7447682,-0.40307304,1.2136412,-0.036943052,0.03053757,0.07961652,-0.3751532,-0.32963228,0.0020451613,3.0756488,-0.6238353,-0.007638832,0.0,0.0,0.0,0.0,0.0,0.0,0.44894207,-1.3790014,2.083759,-2.2799556,-1.5710458,2.423583,0.0,0.0,-0.0,-0.0,0.0,-0.0,0.038307227,0.038307227,-9.385271,0.7016076,47.696735,0.34792656,-3.4734058,-2.5050926,-0.4842161,0.1379429,-0.08011891,24.1875,24.5625,23.875,25.375,25.3125,25.5625
0.4200519,0.449462,-0.70065796,1.0422286,-0.024941253,0.024000915,0.08396792,-0.37512702,-0.32963488,0.0020204033,3.0756922,-0.62374747,-0.0075249863,-2.9170977e-07,-1.4142105e-07,2.2457333e-07,-2.4458663e-07,5.048696e-07,2.2658687e-10,0.44895422,-1.3789654,2.0837715,-2.2799313,-1.5710214,2.4235349,0.0,0.0,-5.6099555e-07,-0.0,0.0,-0.0,0.076614454,0.15322891,-9.404425,0.7597976,47.70032,0.38328385,-3.439902,-2.482861,-0.48751017,0.14798689,-0.079790875,24.1875,24.5625,23.875,25.375,25.3125,25.5625
0.42205188,0.28112304,-0.4783051,1.1424788,-0.028260995,0.021172578,0.087351166,-0.3751123,-0.32960385,0.0020243786,3.075721,-0.62383026,-0.007557218,-3.913688e-09,-1.8972994e-09,3.0129128e-09,-3.2813594e-09,6.773511e-09,3.0409364e-12,0.44894207,-1.3790253,2.0838306,-2.2799194,-1.5710696,2.4235706,0.0,0.0,-7.526472e-09,-0.0,0.0,-0.0,0.038307227,0.11492168,-9.289502,0.7486078,47.691364,0.34510326,-3.4447532,-2.5035448,-0.47867423,0.13768835,-0.0716239,24.1875,24.5625,23.9375,25.375,25.3125,25.5625
0.4240521,0.46366522,-0.0009668521,1.139899,-0.034579825,0.024679853,0.08026761,-0.37513137,-0.32961103,0.002036598,3.0757399,-0.62383443,-0.007579134,-5.2505524e-11,-2.545471e-11,4.0423272e-11,-4.402473e-11,9.087476e-11,4.0792768e-14,0.44895422,-1.3790014,2.083759,-2.2798712,-1.5710934,2.423583,0.0,0.0,-1.0097723e-10,-0.0,0.0,-0.0,0.095768064,0.076614454,-9.289502,0.73741806,47.709274,0.36722034,-3.4326663,-2.4421225,-0.48511016,0.1376623,-0.06622502,24.1875,24.5625,23.9375,25.375,25.3125,25.5625
0.42605203,0.73633134,-0.09085016,1.258252,-0.031268656,0.029793566,0.07690942,-0.3751168,-0.32962117,0.0020157697,3.0757134,-0.6238091,-0.0075196098,-7.044517e-13,-3.4151853e-13,5.4230443e-13,-5.90648e-13,1.2192008e-12,5.472159e-16,0.44895422,-1.3789773,2.0837944,-2.2799194,-1.5710458,2.4235706,0.0,0.0,-1.3547384e-12,-0.0,0.0,-0.0,0.17238252,0.05746084,-9.270349,0.7665104,47.699425,0.30668238,-3.412746,-2.524312,-0.494071,0.13139805,-0.06515756,24.1875,24.5625,23.9375,25.375,25.3125,25.5625
0.42805222,0.7117837,-0.033017352,1.091729,-0.03661399,0.030668555,0.074236564,-0.3751115,-0.32962734,0.0020380653,3.075674,-0.6238011,-0.0075393114,-9.450832e-15,-4.5817693e-15,7.276123e-15,-7.924295e-15,1.6357135e-14,7.34398e-18,0.44895422,-1.3790374,2.0838077,-2.279907,-1.5710214,2.4235706,0.0,0.0,-1.8175543e-14,-0.0,0.0,-0.0,0.0,0.17238252,-9.385271,0.6859408,47.698532,0.34357476,-3.423337,-2.490178,-0.4875592,0.14959335,-0.07671718,24.1875,24.5625,23.9375,25.375,25.3125,25.5625
0.43005222,0.46190456,-0.51516235,1.0145302,-0.03368621,0.02203568,0.084304646,-0.37511942,-0.32960954,0.0020265428,3.0756998,-0.6238449,-0.0075326758,-1.2679857e-16,-6.146825e-17,9.7615114e-17,-1.0630926e-16,2.1945442e-16,9.851614e-20,0.44893014,-1.3790134,2.0838077,-2.279907,-1.5710458,2.4235706,0.0,0.0,-2.4384813e-16,-0.0,0.0,-0.0,0.11492168,0.15322891,-9.32781,0.78217715,47.696735,0.3070738,-3.4215875,-2.4647639,-0.48232344,0.13777232,-0.079851314,24.1875,24.5625,23.9375,25.375,25.3125,25.5625
0.4320523,0.5428845,-0.54122305,1.0309854,-0.044951886,0.0257426,0.07980078,-0.3751184,-0.32962194,0.0020318874,3.0756915,-0.6238444,-0.0075491937,-1.7011289e-18,-8.247083e-19,1.3096565e-18,-1.4263452e-18,2.9442266e-18,1.3217196e-21,0.44895422,-1.3790134,2.0837944,-2.279907,-1.5710458,2.4235954,0.0,0.0,-3.2715337e-18,-0.0,0.0,-0.0,0.076614454,0.038307227,-9.346964,0.7351769,47.6636,0.35300636,-3.4692316,-2.4516716,-0.48742402,0.1538617,-0.06868875,24.1875,24.5625,23.9375,25.375,25.3125,25.5625
0.43405247,0.93527406,-0.479083,0.9402688,-0.050100114,0.036541384,0.08226745,-0.37511685,-0.32959968,0.002021966,3.0757213,-0.6238692,-0.0075411443,-2.2823474e-20,-1.1064155e-20,1.7570085e-20,-1.913529e-20,3.9501018e-20,1.7732557e-23,0.44893014,-1.3790134,2.0838192,-2.279907,-1.5710696,2.423583,0.0,0.0,-4.38918e-20,-0.0,0.0,-0.0,0.15322891,0.11492168,-9.3661175,0.76874626,47.684196,0.36769548,-3.475319,-2.484929,-0.49051532,0.14626706,-0.06777465,24.1875,24.5625,23.9375,25.375,25.3125,25.5625
0.43605188,0.7564187,-0.5687652,1.1471108,-0.040122572,0.030288558,0.08061483,-0.37515616,-0.3296382,0.0020443872,3.0756426,-0.6238142,-0.0076275957,-3.0619135e-22,-1.4843715e-22,2.357509e-22,-2.5673065e-22,5.2995347e-22,2.378741e-25,0.44894207,-1.3789895,2.0837467,-2.2799556,-1.5710334,2.4235706,0.0,0.0,-5.888645e-22,-0.0,0.0,-0.0,0.095768064,0.13407528,-9.404425,0.6769922,47.70032,0.37205416,-3.432239,-2.4567637,-0.4831944,0.13746732,-0.07416466,24.1875,24.5625,23.9375,25.375,25.3125,25.5625
0.4380519,0.4068643,-0.7423024,0.988497,-0.041831873,0.01900665,0.08857802,-0.37513167,-0.32961994,0.0020343552,3.0756638,-0.62385744,-0.0075677615,-4.1080563e-24,-1.9914661e-24,3.1627284e-24,-3.4442846e-24,7.1100436e-24,3.1917973e-27,0.44893014,-1.3790134,2.0837944,-2.2799313,-1.5710334,2.423583,0.0,0.0,-7.9003686e-24,-0.0,0.0,-0.0,0.11492168,0.114921674,-9.346964,0.7933669,47.71286,0.33261538,-3.4996815,-2.4744189,-0.4812232,0.13796991,-0.07857702,24.1875,24.5625,23.9375,25.375,25.3125,25.5625
0.44005176,0.76118034,-0.4241508,0.99344295,-0.04149285,0.02802437,0.0791798,-0.37511027,-0.32961595,0.0020150135,3.075712,-0.62380916,-0.0074909185,-5.511616e-26,-2.6719517e-26,4.2428915e-26,-4.621061e-26,9.538975e-26,4.2816495e-29,0.44894207,-1.3789895,2.0838077,-2.279907,-1.5710334,2.4235587,0.0,0.0,-1.0599352e-25,-0.0,0.0,-0.0,0.038307227,0.076614454,-9.32781,0.779936,47.690468,0.36060742,-3.386232,-2.453256,-0.4811905,0.14422351,-0.08461605,24.1875,24.5625,23.9375,25.375,25.3125,25.5625
0.44205257,0.7621632,-0.30472335,1.0112902,-0.04185026,0.026655532,0.08128277,-0.37512776,-0.32961997,0.0020285652,3.0756803,-0.6238616,-0.0075645037,-7.394375e-28,-3.584686e-28,5.6927e-28,-6.199743e-28,1.27977515e-27,5.7447486e-31,0.44894207,-1.3790014,2.0837944,-2.2799313,-1.5710458,2.4235954,0.0,0.0,-1.4220383e-27,-0.0,0.0,-0.0,0.038307227,0.05746084,-9.346964,0.7329411,47.667187,0.31941116,-3.4484596,-2.5220509,-0.4606105,0.12706037,-0.07082223,24.1875,24.5625,23.9375,25.375,25.3125,25.5625
0.44405267,0.7590171,-0.41932172,1.0127033,-0.03912479,0.027923526,0.0836614,-0.37511835,-0.3296133,0.0020203649,3.075732,-0.623813,-0.007542105,-9.920564e-30,-4.8094947e-30,7.637202e-30,-8.317955e-30,1.7169717e-29,7.706818e-33,0.44895422,-1.3789895,2.0837944,-2.279907,-1.5710696,2.4235706,0.0,0.0,-1.9078459e-29,-0.0,0.0,-0.0,0.1340753,0.1340753,-9.423578,0.7732232,47.70032,0.30921057,-3.419416,-2.4458375,-0.47708,0.15047562,-0.07742273,24.1875,24.5625,23.9375,25.375,25.3125,25.5625
0.44605237,0.9145104,-0.2931724,0.9002415,-0.037950482,0.037449766,0.07933427,-0.37510008,-0.329611,0.0020115862,3.0757222,-0.6237922,-0.007477302,-1.3310005e-31,-6.452498e-32,1.0245921e-31,-1.1159318e-31,2.3035502e-31,1.0340345e-34,0.44894207,-1.3790014,2.0838306,-2.279907,-1.5710334,2.4235468,0.0,0.0,-2.5596187e-31,-0.0,0.0,-0.0,0.05746084,0.17238252,-9.442732,0.7150385,47.70032,0.2967183,-3.4513092,-2.4889865,-0.47379905,0.15214539,-0.085916646,24.1875,24.5625,23.9375,25.375,25.3125,25.5625
0.44805226,1.1646559,-0.1671738,1.0449339,-0.032936353,0.03952856,0.07755999,-0.37515795,-0.32964557,0.0020592376,3.075625,-0.62383085,-0.007656229,-1.785552e-33,-8.656368e-34,1.37487445e-33,-1.4972024e-33,3.090488e-33,1.3873793e-36,0.44895422,-1.3790134,2.0837352,-2.2799432,-1.5710334,2.4235954,0.0,0.0,-3.434055e-33,-0.0,0.0,-0.0,0.13407528,0.11492168,-9.385271,0.78217715,47.703903,0.34638527,-3.4018502,-2.5107443,-0.4821443,0.1524412,-0.07364862,24.1875,24.5625,23.9375,25.375,25.3125,25.5625
0.45005226,0.8204248,-0.13142934,1.049868,-0.037494395,0.02761498,0.0770693,-0.37512258,-0.32961968,0.0020249437,3.075716,-0.6238097,-0.007544988,-2.3956806e-35,-1.1614273e-35,1.8443251e-35,-2.0086884e-35,4.1462848e-35,1.861106e-38,0.44895422,-1.3789895,2.083783,-2.279907,-1.5710577,2.4235706,0.0,0.0,-4.6072238e-35,-0.0,0.0,-0.0,0.095768064,0.15322891,-9.3661175,0.77545905,47.70032,0.36354673,-3.4583192,-2.4491954,-0.4874102,0.15019001,-0.08084309,24.1875,24.5625,23.9375,25.375,25.3125,25.5625
0.45205218,1.4006646,0.3646971,1.0771848,-0.049266536,0.041855942,0.075388335,-0.37512514,-0.32962513,0.002037735,3.075724,-0.6237539,-0.007613095,-3.2140134e-37,-1.5582507e-37,2.474508e-37,-2.6950451e-37,5.5627056e-37,2.49724e-40,0.4489782,-1.3790134,2.083783,-2.2799194,-1.5710815,2.4235587,0.0,0.0,-6.1811786e-37,-0.0,0.0,-0.0,0.076614454,0.15322891,-9.346964,0.73741806,47.672558,0.3351124,-3.432029,-2.4536126,-0.4698097,0.1437607,-0.0768154,24.1875,24.5625,23.9375,25.375,25.3125,25.5625
0.45405224,0.7247395,-0.40226448,1.1426901,-0.03314533,0.024455383,0.08232269,-0.37510526,-0.32960474,0.0020173828,3.0757225,-0.62385035,-0.007515465,-4.312237e-39,-2.09051e-39,3.319606e-39,-3.615478e-39,7.463209e-39,3.35e-42,0.44894207,-1.3790134,2.0838306,-2.279907,-1.5710577,2.423583,0.0,0.0,-8.29284e-39,-0.0,0.0,-0.0,0.11492168,0.22984336,-9.32781,0.7016076,47.672558,0.33421654,-3.4640527,-2.5187416,-0.46464017,0.13746907,-0.077798635,24.1875,24.5625,23.9375,25.375,25.3125,25.5625
