Tylouw/Master_Thesis_Code/training_data/batch_1/big_rod_t0.1/sample_57_session_3.csv
timestamp[s],tcp_force_x[N],tcp_force_y[N],tcp_force_z[N],tcp_force_rx[Nm?],tcp_force_ry[Nm?],tcp_force_rz[Nm?],tcp_pose_x[m],tcp_pose_y[m],tcp_pose_z[m],tcp_pose_rx[rot_vec_x],tcp_pose_ry[rot_vec_y],tcp_pose_rz[rot_vec_z],tcp_velo_x[m/s],tcp_velo_y[m/s],tcp_velo_z[m/s],tcp_velo_rx[rot_vec_x/s],tcp_velo_ry[rot_vec_y/s],tcp_velo_rz[rot_vec_z/s],q1[rad],q2[rad],q3[rad],q4[rad],q5[rad],q6[rad],qd1[rad/s],qd2[rad/s],qd3[rad/s],qd4[rad/s],qd5[rad/s],qd6[rad/s],tool_acc_x,tool_acc_y,tool_acc_z,current_of_whole_robot[A],voltage_of_whole_robot[V],current_J1[A],current_J2[A],current_J3[A],current_J4[A],current_J5[A],current_J6[A],temp_J1[C],temp_J2[C],temp_J3[C],temp_J4[C],temp_J5[C],temp_J6[C]
9.710202e-07,-0.2362413,-0.4473595,0.61923337,-0.02002845,0.014961561,-0.0357446,-0.37290514,-0.3282043,0.05994854,-3.0784693,0.624825,-0.00023224819,0.0035428721,0.0017179631,-0.004725576,0.004843734,-0.010291588,7.1718955e-06,0.44812617,-1.470861,2.0095613,-2.107691,-1.5706977,2.4230194,-8.3294704e-05,0.004213621,0.0059319874,0.0012280816,0.000108974185,-9.392486e-05,0.05746084,0.21068975,-8.944737,0.72622824,47.7254,-0.21674901,-2.8442972,-2.4675982,-0.52679944,0.14139682,-0.15999131,25.25,25.8125,25.0,27.4375,28.0625,28.375
0.002053585,-0.08794534,0.19444065,0.7371674,-0.02142374,0.017062373,-0.037433185,-0.37289557,-0.32820818,0.059941985,-3.0784483,0.62482035,-0.00024558214,-0.00033650934,-0.00015846132,-0.0034680143,-0.0006421442,0.0010570879,1.1428326e-05,0.44815025,-1.4708488,2.0095613,-2.1076834,-1.5707096,2.4230433,-8.1781094e-05,0.0047017275,0.005375533,-0.011308621,0.00010639763,-9.254511e-05,0.05746084,0.22984336,-8.829816,0.7486078,47.682407,-0.20375678,-2.74818,-2.3954105,-0.4531198,0.12974115,-0.1598724,25.25,25.8125,25.0,27.4375,28.0625,28.375
0.004052625,0.1630178,0.26040986,0.64349234,-0.006547833,0.018586973,-0.042674303,-0.37288645,-0.3282169,0.05991611,-3.0784795,0.6249236,-0.00032711023,-0.0016939032,-0.00081482076,-0.0024931952,-0.0025452168,0.005001565,1.2917497e-05,0.44812617,-1.4708252,2.0096085,-2.107744,-1.5706376,2.4230795,-8.032132e-05,0.0041782823,0.0043643145,-0.0141535085,0.000103939914,-9.1205344e-05,0.076614454,0.19153613,-8.791509,0.77545905,47.685097,-0.20857355,-3.0203457,-2.5989983,-0.3724317,0.15235576,-0.14002997,25.25,25.8125,25.0,27.4375,28.0625,28.375
0.006052021,-0.21557197,0.72532713,0.3699929,0.008160496,-0.012973445,-0.034357198,-0.37288308,-0.32821307,0.05992084,-3.078475,0.62484527,-0.00030611642,-0.0010011381,-0.0004848917,-0.0016335136,-0.0015590994,0.0029759621,2.251817e-05,0.4481382,-1.4708376,2.009608,-2.1077297,-1.5706614,2.4230433,-6.8525194e-05,0.0026549904,0.0028582402,-0.0088712685,0.000101593185,-8.990367e-05,0.038307227,0.21068975,-8.944737,0.7777002,47.694054,-0.21166524,-2.9325523,-2.4526505,-0.39128792,0.14206228,-0.14994878,25.25,25.8125,25.0,27.4375,28.0625,28.375
0.0080520455,0.7326817,1.3855306,-0.052423395,0.03552827,-0.013549711,-0.041667067,-0.37289283,-0.3282349,0.0599236,-3.0785053,0.6248517,-0.0002736411,-5.9311315e-05,-3.176747e-05,-0.0013551929,-0.00020617884,0.00018805482,2.6593583e-05,0.4481623,-1.4708141,2.0095837,-2.107764,-1.5706495,2.4230676,-6.211469e-05,0.0017855017,0.0020932525,-0.0041379537,9.935016e-05,-8.86388e-05,0.019153614,0.1340753,-9.040505,0.7351769,47.66091,-0.24734429,-2.894084,-2.3580651,-0.43593937,0.14605282,-0.14999294,25.25,25.8125,25.0,27.4375,28.0625,28.375
0.010052084,0.3609721,1.0315632,-0.34957606,0.04724137,-0.02673879,-0.03954022,-0.37288386,-0.3282047,0.059900794,-3.0784369,0.6248573,-0.0003154701,0.00028909638,0.00014769369,-0.0012789064,0.00040035966,-0.001060342,5.85773e-06,0.4481382,-1.4708021,2.00962,-2.1077511,-1.5706857,2.4230556,-8.127466e-05,0.0016244975,0.0016373884,-0.0021331436,9.7204145e-05,-8.7409135e-05,-0.019153614,0.1340753,-9.212888,0.7597976,47.64479,-0.6184525,-2.2318714,-3.0954394,-0.4788612,0.13814168,-0.20621406,25.25,25.8125,25.0,27.4375,28.0625,28.375
0.012052211,0.47054198,0.5333958,-0.5052105,0.015725885,0.002190851,-0.041613534,-0.37287292,-0.32822093,0.059891135,-3.0784621,0.624824,-0.00034151526,0.00035009882,0.0002838124,-0.004519629,0.0034206966,-0.007381151,-0.00017443615,0.4481622,-1.4707869,2.009631,-2.107775,-1.5706614,2.4230556,-0.00029747697,0.009768042,2.9146642e-05,-0.001663167,0.000111680645,-0.00012122115,0.076614454,0.1340753,-9.3661175,0.75755644,47.678825,-0.65785944,-2.3423615,-3.2198474,-0.49039787,0.15543064,-0.23375921,25.25,25.8125,25.0,27.4375,28.0625,28.375
0.014052257,-0.6197006,-0.05683193,-0.7297865,-0.018844003,0.016780034,-0.04379192,-0.37287226,-0.3282045,0.05986888,-3.0784147,0.624853,-0.0004566891,-0.0054277675,0.0006147687,-0.0037751726,0.0024807814,-0.0054770634,-0.0019855301,0.44812378,-1.4707369,2.0096161,-2.1077273,-1.5706495,2.4230413,-0.0061843195,0.01705493,-0.009754531,-0.0012903071,0.0001116511,-0.0041900473,-0.095768064,0.1340753,-9.481039,0.7620334,47.66808,-0.40549123,-2.7832832,-3.0062485,-0.4870898,0.1595067,-0.2533289,25.25,25.8125,25.0,27.4375,28.0625,28.375
0.016052362,-1.4750621,-1.2982992,-0.7745086,-0.033283696,0.0406442,-0.038737614,-0.3728786,-0.3281991,0.05987027,-3.078407,0.6248675,-0.0004971157,-0.0055600614,0.0009840962,-0.0041972157,0.0029384538,-0.0064522144,0.0039897175,0.44809973,-1.4707246,2.0095913,-2.1076915,-1.5706376,2.4230273,-0.007004417,0.017917406,-0.009789722,-0.0010413021,0.00011851659,-0.010985325,-0.34476504,0.24899697,-9.672575,0.69937176,47.70211,-0.423725,-2.6821723,-3.1122336,-0.49202076,0.15661402,-0.19614151,25.25,25.8125,25.0,27.4375,28.0625,28.375
0.018052451,-2.2436526,-1.5496646,-0.65768576,-0.066360615,0.06483413,-0.04896779,-0.3728846,-0.3281868,0.05985889,-3.0783424,0.6247958,-0.0005017309,-0.0048400727,0.0011012399,-0.004786292,0.0036351606,-0.007931673,0.0053843483,0.44811186,-1.4706765,2.0095565,-2.1076553,-1.5706977,2.423003,-0.0065799267,0.018235527,-0.008881533,-0.00063326716,0.00013345963,-0.011956119,-0.40222588,0.3256114,-9.710882,0.68818194,47.651955,-0.58602226,-2.4500017,-3.5102592,-0.5071996,0.16404334,-0.19430774,25.25,25.8125,25.0,27.4375,28.0625,28.375
0.02005263,-2.2596033,-1.7343166,-0.7159261,-0.07245451,0.09053475,-0.054615587,-0.3728599,-0.32817912,0.05982535,-3.0783024,0.62478787,-0.00061679765,-0.006385035,0.00035064676,-0.004019309,0.0028301445,-0.0063868137,0.004901681,0.44811177,-1.47064,2.0095904,-2.107643,-1.5706857,2.423003,-0.0066087283,0.020007363,-0.012639552,-0.00038815633,0.00018154686,-0.0114998985,-0.5363012,0.47884035,-9.691729,0.800085,47.686886,-0.6220139,-2.378222,-3.4897122,-0.51044655,0.18208832,-0.22214317,25.25,25.8125,25.0,27.4375,28.0625,28.375
0.022052497,-2.1466298,-1.2641121,-0.8325194,-0.06709284,0.08305561,-0.068928964,-0.3728744,-0.32821164,0.059829276,-3.0783708,0.62466735,-0.0006223257,-0.0075830715,0.0009355502,-0.0044562058,0.0032600022,-0.00749731,0.0037668562,0.4481351,-1.4705912,2.0095308,-2.1076553,-1.5706495,2.4229424,-0.0088625215,0.022459384,-0.014453697,0.00016098116,0.00027244852,-0.012617734,-0.63206923,0.47884035,-9.787497,0.7978386,47.701214,-0.683949,-2.4388285,-3.3899333,-0.50187004,0.17755973,-0.24112615,25.25,25.8125,25.0,27.4375,28.0625,28.375
0.024051568,-1.1295749,-0.89923555,-0.8348969,-0.050705787,0.07701981,-0.09139354,-0.37289977,-0.32821783,0.05982025,-3.0783632,0.62478137,-0.00068656943,-0.008440388,-4.2271182e-05,-0.0036690221,0.00018025776,-0.0068619926,0.0050221565,0.44809875,-1.4705193,2.0094697,-2.107643,-1.5706128,2.4229782,-0.009492836,0.02276274,-0.01657031,5.861089e-05,0.002766403,-0.014507248,-0.5746084,0.49799395,-9.710882,0.80456203,47.696735,-0.6622149,-2.40092,-3.442776,-0.52120954,0.16368376,-0.25190854,25.25,25.8125,25.0,27.4375,28.0625,28.375
0.026052091,-1.6264008,-0.49746248,-0.76812786,-0.037954472,0.04922839,-0.10132842,-0.3729289,-0.3281977,0.059811246,-3.0783498,0.62475896,-0.0006624529,-0.009520697,-5.4081796e-05,-0.0026688252,-0.0015991842,-0.0052299974,0.0052252994,0.4480502,-1.4704837,2.0094569,-2.1076672,-1.5706362,2.4229174,-0.011056781,0.021818954,-0.017817171,3.8268727e-06,0.003659056,-0.016275592,-0.6512229,0.4405331,-9.710882,0.72622824,47.716442,-0.6813252,-2.2430887,-3.5077562,-0.5290766,0.15646519,-0.25236893,25.25,25.8125,25.0,27.4375,28.0625,28.375
0.028052086,-1.2984186,-0.9459068,-0.690624,-0.021427788,0.058641512,-0.1135977,-0.37293515,-0.3281876,0.059799924,-3.0783243,0.6248115,-0.0006915239,-0.011100457,2.0474281e-05,-0.0022182395,-0.0017034095,-0.0039747837,0.0048996145,0.44802585,-1.4704591,2.009456,-2.1076672,-1.5706366,2.422929,-0.012325927,0.023246525,-0.020416046,2.4986744e-07,0.0032026356,-0.017216383,-0.7086837,0.3256114,-9.710882,0.7620334,47.71554,-0.75105965,-2.2382123,-3.4182534,-0.5340986,0.15642923,-0.2475716,25.25,25.8125,25.0,27.4375,28.0625,28.375
0.03005213,-1.2954879,-0.5966745,-0.46597183,-0.016415732,0.07030845,-0.12603962,-0.3729867,-0.32822314,0.05982871,-3.0783951,0.6247297,-0.0006131615,-0.012511,-8.105051e-05,-0.0021474021,-0.0015270731,-0.0030866906,0.005387781,0.44803762,-1.4703984,2.0093234,-2.1076672,-1.5706247,2.422881,-0.013046406,0.025440913,-0.022885323,-0.00044690917,0.0026532996,-0.01842171,-0.59376204,0.2681506,-9.634268,0.779936,47.694946,-0.81842375,-2.3229678,-3.4212513,-0.53551453,0.1740457,-0.24960151,25.25,25.8125,25.0,27.4375,28.0625,28.375
0.03205208,-0.8362849,0.22750768,-0.1885793,-0.021657899,0.07812013,-0.1542976,-0.37300974,-0.3282063,0.059812043,-3.0783863,0.62474775,-0.0006545973,-0.014585725,6.588358e-05,-0.001620791,-0.0023204694,-0.0010595983,0.0038576012,0.4479769,-1.4703503,2.0093114,-2.1076796,-1.5706128,2.4228325,-0.015093185,0.026872193,-0.025421286,-0.0015120102,0.0024817102,-0.018935954,-0.40222588,0.17238252,-9.653421,0.84708,47.672558,-0.76935625,-2.307476,-3.4420338,-0.5091872,0.15912408,-0.22267726,25.25,25.8125,25.0,27.4375,28.0625,28.375
0.034051914,-0.52127695,0.3559565,-0.28835693,0.0018970316,0.079535685,-0.17200097,-0.37304488,-0.32821682,0.0598102,-3.07839,0.6247692,-0.0006402012,-0.015776964,-0.00010902269,-0.0012350562,-0.0036288756,-0.0005444954,0.0018561408,0.44796434,-1.4702778,2.009239,-2.1076915,-1.5706123,2.422833,-0.016492316,0.02789295,-0.027413627,-0.0015747468,0.0034341346,-0.018334188,-0.3256114,0.095768064,-9.519346,0.73741806,47.694946,-0.7746295,-2.311851,-3.4213953,-0.5156951,0.16325054,-0.21290407,25.25,25.8125,25.0,27.4375,28.0625,28.375
0.036052484,-0.67126167,0.84705126,-0.10274589,0.017321628,0.05012781,-0.18423088,-0.3731043,-0.32822245,0.059794694,-3.0784135,0.6247942,-0.0006475176,-0.016904695,-0.0008197156,-0.00031511934,-0.005977879,0.0005544822,0.00052922266,0.44790402,-1.4701581,2.009154,-2.1077397,-1.5705875,2.4227853,-0.017287245,0.028195135,-0.029896598,-0.001407024,0.0050712246,-0.017804027,-0.34476504,-0.038307227,-9.500193,0.78217715,47.683304,-0.7223506,-2.1654491,-3.40846,-0.51479614,0.16753632,-0.23340327,25.25,25.8125,25.0,27.4375,28.0625,28.375
0.038052548,-0.4508899,0.9515848,-0.11626246,0.033864204,0.037823256,-0.17357852,-0.3731226,-0.32821643,0.05979666,-3.0784235,0.62475777,-0.00067335094,-0.017805794,-0.0011941233,-2.7560172e-05,-0.0068249363,0.0010011788,0.00017708105,0.44786793,-1.4701337,2.0091174,-2.1077158,-1.5705756,2.4227252,-0.017785223,0.029381452,-0.03185993,-0.0014011185,0.0056369742,-0.017949725,-0.3256114,-0.1340753,-9.442732,0.8605109,47.66539,-0.6909193,-2.1314979,-3.3675885,-0.5178227,0.1439224,-0.23235105,25.25,25.8125,25.0,27.4375,28.0625,28.375
0.04005161,-0.23725809,1.2214952,-0.3080637,0.032645036,0.029786704,-0.16649885,-0.37315238,-0.32821593,0.059791554,-3.078432,0.6247979,-0.0006705391,-0.018941773,-0.0016750103,9.575178e-05,-0.0075041694,0.0013358564,0.00056560227,0.4478318,-1.470085,2.0090811,-2.1077397,-1.5705637,2.422713,-0.018225925,0.03148119,-0.03441631,-0.0015415642,0.0060984357,-0.018777924,-0.24899697,-0.1340753,-9.461885,0.7284641,47.72092,-0.68284976,-2.1694968,-3.3526711,-0.5088214,0.12863003,-0.2318415,25.25,25.8125,25.0,27.4375,28.0625,28.375
0.042052675,-0.25770506,0.7075678,-0.36021143,0.029945338,0.028033715,-0.16203153,-0.37319028,-0.3282299,0.05979385,-3.078473,0.62472916,-0.0006780612,-0.019768236,-0.0016274469,0.00022757098,-0.007708708,0.0018225556,0.00082993915,0.4478074,-1.4700129,2.0089967,-2.1077397,-1.5705398,2.4226406,-0.019044911,0.032363527,-0.035648648,-0.0017181667,0.0060687787,-0.019860186,-0.1340753,-0.1340753,-9.461885,0.800085,47.694946,-0.67841375,-2.2490575,-3.329949,-0.4960582,0.13881245,-0.22286388,25.25,25.8125,25.0,27.4375,28.0625,28.375
0.044051655,-0.5695262,0.40260226,-0.2434273,0.010588643,0.027905846,-0.15112498,-0.37322897,-0.3282038,0.059777625,-3.078395,0.62482846,-0.0007034344,-0.020749938,-0.0016468294,0.0005212885,-0.00782553,0.0024984337,0.0005756702,0.44774735,-1.4699287,2.0089362,-2.1077158,-1.5705756,2.4226525,-0.019768806,0.033356935,-0.03744916,-0.0015705783,0.00587706,-0.020328512,-0.17238252,0.019153614,-9.519346,0.7329411,47.716442,-0.6899401,-2.0908322,-3.376746,-0.49008995,0.117703035,-0.21262005,25.25,25.8125,25.0,27.4375,28.0625,28.375
0.0460522,-0.20600696,-0.060294773,-0.40289277,-0.005390858,0.03607942,-0.15416837,-0.3732659,-0.32823014,0.05979093,-3.0784614,0.62470734,-0.00068077864,-0.021776957,-0.0016183297,0.00075257063,-0.0074505685,0.0032230974,0.00064555876,0.44774714,-1.4698684,2.0088394,-2.1077158,-1.5705518,2.4225683,-0.020311406,0.03463213,-0.039430384,-0.0013526259,0.005222,-0.020938123,-0.05746084,0.095768064,-9.481039,0.7463667,47.68599,-0.71247894,-2.128652,-3.4438725,-0.4996251,0.12873104,-0.2114287,25.25,25.8125,25.0,27.4375,28.0625,28.375
0.0480523,-0.32070255,-0.10440928,-0.655793,-0.013061998,0.029424896,-0.1546577,-0.37330437,-0.32819945,0.059773676,-3.0784109,0.6248315,-0.00070020877,-0.022759616,-0.0015010344,0.001015321,-0.007249821,0.0038512705,0.0009066243,0.44766277,-1.4698082,2.0088155,-2.1077273,-1.5705642,2.4225678,-0.02111248,0.035621125,-0.04118678,-0.0010628296,0.00476541,-0.021998325,-0.019153614,0.21068975,-9.461885,0.7172743,47.672558,-0.65569603,-1.9947535,-3.425065,-0.50757116,0.13789749,-0.19693664,25.25,25.8125,25.0,27.4375,28.0625,28.375
0.050051905,-0.37630463,-0.76323146,-0.539664,-0.0123769455,0.01446446,-0.14463304,-0.37336782,-0.32820234,0.05978891,-3.0784075,0.6248309,-0.0006471717,-0.023819443,-0.0015757631,0.0013173192,-0.007727662,0.004377575,0.0010765701,0.44762635,-1.4697238,2.0086825,-2.1077034,-1.5705875,2.4225316,-0.022066718,0.036732633,-0.043138165,-0.00090537185,0.0049647307,-0.023121508,0.019153614,0.34476504,-9.519346,0.76874626,47.705692,-0.66387916,-1.9962413,-3.421081,-0.49271658,0.15744646,-0.18277876,25.25,25.8125,25.0,27.4375,28.0625,28.375
0.05205192,-0.22735868,-0.5880518,-0.55100626,-0.034296613,0.011064012,-0.15541156,-0.37340325,-0.32822797,0.059796356,-3.078448,0.6248005,-0.0006399094,-0.024555866,-0.0015729422,0.0017718623,-0.008140626,0.005251549,0.0018966893,0.4476261,-1.469652,2.0085866,-2.1077034,-1.5705637,2.4225073,-0.022733372,0.03683254,-0.044318475,-0.0007910798,0.004956217,-0.024607461,-0.019153614,0.45968673,-9.576807,0.7396539,47.689575,-0.623384,-1.9644363,-3.4641938,-0.5009676,0.13334537,-0.17158842,25.25,25.8125,25.0625,27.4375,28.0625,28.375
0.054051913,-0.6276908,-0.96501356,-0.5918993,-0.039530322,0.0025157598,-0.14976135,-0.37345514,-0.32821476,0.059807368,-3.0784552,0.6248014,-0.0006255518,-0.025543645,-0.0018490849,0.0018774854,-0.0082311155,0.0055994624,0.0023861318,0.44755414,-1.4696035,2.0085027,-2.1076796,-1.5705637,2.422435,-0.02305846,0.038639188,-0.046565793,-0.00070263504,0.0048831017,-0.025420183,-0.095768064,0.4213795,-9.519346,0.84708,47.694946,-0.6565206,-1.871618,-3.5177188,-0.49117538,0.1451322,-0.16157484,25.25,25.8125,25.0625,27.4375,28.0625,28.375
0.056052677,-0.3559188,-1.1969063,-0.7004827,-0.041844282,0.017133282,-0.14218585,-0.3735166,-0.32823372,0.05982827,-3.0785167,0.6248122,-0.0005584979,-0.026182456,-0.0018405556,0.0017044251,-0.007985726,0.005105041,0.0034902107,0.44751775,-1.4695429,2.0083935,-2.107703,-1.5705398,2.4223976,-0.023645656,0.04029652,-0.04808465,-0.00028842513,0.004874888,-0.027110046,-0.019153614,0.53630114,-9.576807,0.85155696,47.701214,-0.65449643,-1.8816936,-3.5110025,-0.4926635,0.14670241,-0.16047211,25.25,25.8125,25.0625,27.4375,28.0625,28.375
0.0580518,-0.6297044,-1.4506402,-0.69439965,-0.041005764,0.02098737,-0.13710687,-0.37357002,-0.32824472,0.05981879,-3.0785375,0.62475944,-0.0005710773,-0.02736225,-0.001832274,0.0018403117,-0.008208121,0.0054565743,0.003527574,0.44748145,-1.4694228,2.0082862,-2.1077154,-1.5705274,2.4223258,-0.024759024,0.04190004,-0.050179534,-0.00020987235,0.00491875,-0.028259391,-0.019153614,0.40222588,-9.576807,0.71951014,47.677036,-0.5977381,-1.8683885,-3.5049434,-0.496844,0.15263225,-0.13908729,25.25,25.8125,25.0625,27.4375,28.0625,28.375
0.06005249,-0.77603805,-1.2823744,-0.5903749,-0.04476964,0.022748895,-0.14295374,-0.37363866,-0.32823324,0.059820537,-3.0785503,0.62487733,-0.0005899078,-0.028187005,-0.002068718,0.0015016671,-0.008220789,0.0048462125,0.003454187,0.4473733,-1.4693379,2.008189,-2.1077154,-1.5704917,2.4222896,-0.025241513,0.044416044,-0.052174766,-0.00018525068,0.00519111,-0.02866738,0.05746084,0.51714754,-9.576807,0.82694155,47.682407,-0.59759665,-1.9199044,-3.540053,-0.4929601,0.15354827,-0.13393885,25.25,25.8125,25.0625,27.4375,28.0625,28.375
0.062051777,-0.353139,-1.0334651,-0.35163918,-0.04120656,0.03772295,-0.15226088,-0.37368453,-0.32825103,0.059825514,-3.0785706,0.62476534,-0.0005646757,-0.029040046,-0.0024111082,0.0017366535,-0.009000925,0.0051870504,0.0036779975,0.44737312,-1.4692419,2.0080693,-2.107703,-1.5705036,2.4222171,-0.025744164,0.045614857,-0.054038174,-0.00016776292,0.0057431133,-0.029393552,-0.076614454,0.4405331,-9.557653,0.7530795,47.68599,-0.63815033,-1.8176436,-3.5431433,-0.4934106,0.15982723,-0.13976768,25.25,25.8125,25.0625,27.4375,28.0625,28.375
0.0640517,-0.6564002,-1.0719632,-0.5016605,-0.024472322,0.024034187,-0.15108575,-0.37375128,-0.32825583,0.059840553,-3.0785885,0.62476766,-0.00046755897,-0.029918756,-0.002917388,0.0018447886,-0.009990494,0.0051632393,0.005553967,0.44733733,-1.4691693,2.0079606,-2.1077268,-1.570527,2.4221807,-0.026194792,0.047350496,-0.05619849,-0.00015343307,0.0066422364,-0.03171992,-0.076614454,0.40222588,-9.519346,0.7709874,47.666286,-0.70957446,-1.8382893,-3.5284686,-0.49824846,0.14117299,-0.107016,25.25,25.8125,25.0625,27.4375,28.0625,28.375
0.066052265,-0.42224878,-0.6184317,-0.34519178,-0.021957573,0.025872,-0.14914425,-0.3738195,-0.3282591,0.059845924,-3.0786278,0.62485355,-0.00050872,-0.031292647,-0.003332365,0.0021096496,-0.010467126,0.0058404035,0.005411417,0.44724086,-1.4690726,2.0078394,-2.1077154,-1.5704669,2.4221327,-0.026743738,0.049513523,-0.059188172,-0.00014137059,0.0067739333,-0.032124355,-0.11492168,0.4213795,-9.423578,0.8403672,47.63136,-0.6514887,-1.85446,-3.4592216,-0.47585225,0.14697295,-0.08496676,25.25,25.8125,25.0625,27.4375,28.0625,28.375
0.068052225,-0.7796828,-0.39471063,-0.3853031,-0.016192582,0.016229132,-0.14491919,-0.3738481,-0.32827285,0.059841275,-3.0786545,0.62468654,-0.00052386936,-0.031701945,-0.0034133117,0.002062643,-0.01093574,0.0055779708,0.0037467948,0.44724062,-1.4689887,2.007755,-2.107703,-1.5704669,2.422025,-0.027323222,0.050321583,-0.059974547,-0.00013106824,0.007308346,-0.031039706,-0.1340753,0.3256114,-9.404425,0.7396539,47.651955,-0.6831411,-1.8434827,-3.5137022,-0.48435205,0.14746305,-0.10499304,25.25,25.8125,25.0625,27.4375,28.0625,28.375
0.07005219,-0.20837623,-0.045414817,-0.12782168,-0.018995695,0.03542939,-0.14676136,-0.37393752,-0.32829943,0.059862174,-3.0787067,0.62485105,-0.0005060401,-0.033627547,-0.0042866864,0.002708147,-0.0112565765,0.0073823836,0.00358567,0.4471691,-1.4688678,2.0075743,-2.107703,-1.5704073,2.4220495,-0.027084928,0.0532025,-0.064625956,-0.00012216586,0.0068102065,-0.030635735,-0.19153613,0.2681506,-9.3661175,0.7642693,47.650166,-0.75037193,-1.8389676,-3.4453468,-0.47381347,0.14886904,-0.11943632,25.25,25.8125,25.0625,27.4375,28.0625,28.375
0.07205215,-0.90744376,-0.32828593,-0.17406045,-0.0056325425,0.025684044,-0.14628103,-0.37401494,-0.32829604,0.059869207,-3.078737,0.6248572,-0.000473517,-0.034149792,-0.0042567174,0.0018219238,-0.01098239,0.00558285,0.004025489,0.4470844,-1.468771,2.0074546,-2.1077154,-1.5703954,2.421965,-0.02796614,0.056168783,-0.06585961,-0.00011439777,0.007340045,-0.031956267,-0.13407528,0.24899697,-9.308656,0.7530795,47.653748,-0.7372198,-1.9868494,-3.3609333,-0.47411826,0.12690124,-0.11991663,25.25,25.8125,25.0625,27.4375,28.0625,28.375
0.074052095,-0.5859017,0.15664455,-0.09230307,-0.013515997,0.041062094,-0.15228264,-0.37407652,-0.32829174,0.059863534,-3.0787165,0.62483364,-0.00046506533,-0.03497817,-0.0046365457,0.0031830298,-0.012955809,0.007909955,0.004080645,0.44703627,-1.4686519,2.007334,-2.107703,-1.5704187,2.4219048,-0.028517555,0.054477546,-0.06712984,-0.0001075584,0.008110811,-0.032563813,-0.22984336,0.22984336,-9.385271,0.7978386,47.698532,-0.74279153,-1.7200773,-3.4838767,-0.46978194,0.12483636,-0.10901055,25.25,25.8125,25.0625,27.4375,28.0625,28.375
0.07605257,-0.827524,-0.058510214,-0.11467101,-0.0017209424,0.03796974,-0.14700523,-0.3741286,-0.32830665,0.059861805,-3.0787723,0.62472785,-0.0004579536,-0.03663247,-0.005549561,0.0039016397,-0.013488669,0.009712327,0.0051773586,0.4470008,-1.4685552,2.0072372,-2.1077268,-1.5703949,2.4217963,-0.028091393,0.056755647,-0.07129211,-7.676444e-05,0.007804495,-0.03323081,-0.34476504,0.24899697,-9.270349,0.7172743,47.703903,-0.7775944,-1.7035329,-3.428338,-0.46534696,0.11003779,-0.11680332,25.25,25.8125,25.0625,27.4375,28.0625,28.375
0.07805263,-1.0603527,0.101389326,-0.025671959,0.006116181,0.0354628,-0.14517719,-0.3742189,-0.32832268,0.059875168,-3.078816,0.62481296,-0.00046028694,-0.037591502,-0.0054445984,0.002649163,-0.012687378,0.0073985686,0.005384762,0.44691646,-1.4684218,2.0070574,-2.1077154,-1.5703467,2.4217596,-0.029335562,0.0613138,-0.07344295,-4.9734994e-05,0.008079406,-0.0346806,-0.30645782,0.15322891,-9.251195,0.78888994,47.711063,-0.8099508,-1.8218656,-3.1737092,-0.46892613,0.12929064,-0.104153976,25.25,25.8125,25.0625,27.4375,28.0625,28.375
0.08005175,-1.0199631,0.30894202,-0.043724373,0.0017322636,0.043611124,-0.15199451,-0.37429038,-0.32834852,0.059889995,3.0788438,-0.6246848,0.00042644254,-0.038673878,-0.005697996,0.0032106724,-0.013509767,0.008508383,0.004742489,0.4468921,-1.4683018,2.0068886,-2.107703,-1.5703348,2.4216518,-0.030009577,0.061981395,-0.07547111,-4.571217e-05,0.008338658,-0.03471119,-0.34476504,0.19153613,-9.2703495,0.8112748,47.687782,-0.7603023,-1.9180033,-3.4069479,-0.44498813,0.12280392,-0.113922186,25.25,25.8125,25.0625,27.4375,28.0625,28.375
0.082052454,-0.8697443,-0.27979767,-0.12636085,0.0050784973,0.043621764,-0.14025241,-0.37436596,-0.328349,0.059888776,3.0787995,-0.6246962,0.00040494,-0.03974522,-0.0061852634,0.004156769,-0.014571971,0.010396175,0.002827513,0.44680804,-1.4681941,2.0067813,-2.1077392,-1.5703105,2.4215806,-0.030149626,0.062025975,-0.07769992,-2.2214912e-05,0.008478894,-0.03293488,-0.34476504,0.15322891,-9.346964,0.7709874,47.691364,-0.7929976,-1.6728268,-3.2447383,-0.45614958,0.10321294,-0.1365376,25.25,25.8125,25.0625,27.4375,28.0625,28.375
0.08405262,-0.9544069,-0.019856496,-0.10893027,-0.010180875,0.04289345,-0.15097933,-0.37444627,-0.3283728,0.059895597,3.078775,-0.62472916,0.00040055288,-0.040945746,-0.0063079493,0.00361639,-0.014072747,0.00964608,0.0026517818,0.44677186,-1.4680371,2.0065877,-2.1077154,-1.5702986,2.4215682,-0.030912375,0.06557146,-0.0803727,-1.450475e-06,0.008348014,-0.033519454,-0.34476504,0.22984336,-9.404425,0.78217715,47.664497,-0.7827593,-1.7771649,-3.271589,-0.45435065,0.11306575,-0.15134373,25.25,25.8125,25.0625,27.4375,28.0625,28.375
0.08605188,-1.2558798,-0.62842274,-0.21013866,-0.008809848,0.040167794,-0.14175726,-0.37455174,-0.32837644,0.059915498,3.0787585,-0.6247258,0.00030458585,-0.041408136,-0.0062801773,0.002986074,-0.013642828,0.008510421,0.0037594987,0.4466992,-1.4679047,2.0063965,-2.1077154,-1.5703224,2.4214957,-0.031442814,0.06786797,-0.081460856,-9.470565e-08,0.008451443,-0.03515629,-0.34476504,0.21068975,-9.346964,0.86945957,47.684196,-0.82809746,-1.8422437,-3.2817621,-0.4467764,0.09802574,-0.14724705,25.25,25.8125,25.0625,27.4375,28.0625,28.375
0.088051945,-1.4869325,-0.4156462,-0.23942134,-0.02012736,0.039806634,-0.14024214,-0.3746375,-0.3284009,0.05992891,3.0786717,-0.624728,0.00028500386,-0.043760817,-0.0067160856,0.0040821005,-0.01472277,0.010979864,0.0027996367,0.4466272,-1.4677842,2.0062387,-2.1077392,-1.5702628,2.421436,-0.03267647,0.06959739,-0.08588089,-6.1836016e-09,0.008352557,-0.035426535,-0.3256114,0.2681506,-9.346964,0.7732232,47.686886,-0.78099406,-1.7584953,-3.2022405,-0.43995088,0.104803056,-0.15501742,25.25,25.8125,25.0625,27.4375,28.0625,28.375
0.090052,-0.8165527,-0.3911774,-0.16397464,-0.029418247,0.056839243,-0.148426,-0.37470925,-0.3284011,0.059933204,3.0787096,-0.6246784,0.00028026113,-0.043308612,-0.005678891,0.0024236587,-0.012921718,0.0076965266,0.0017764319,0.44657868,-1.4676517,2.0060723,-2.107691,-1.5702866,2.421352,-0.034069825,0.07168442,-0.08443056,0.00020221526,0.008149947,-0.035797108,-0.38307226,0.30645782,-9.423578,0.8112748,47.682407,-0.7318163,-1.8586361,-3.3462083,-0.40833324,0.10588831,-0.16955236,25.25,25.8125,25.0625,27.4375,28.0625,28.375
0.09205209,-1.5181371,-0.6157622,-0.18725881,-0.027678197,0.036229186,-0.14552008,-0.37480292,-0.32842726,0.059946507,3.0786676,-0.62463045,0.0002692991,-0.04433685,-0.005985221,0.0026775594,-0.012312118,0.0073441146,0.0018980777,0.44651875,-1.4674953,2.0058668,-2.1076782,-1.5702509,2.4212675,-0.03414596,0.074025184,-0.08801422,0.002029496,0.0077508665,-0.035992052,-0.34476504,0.30645782,-9.385271,0.83365434,47.698532,-0.74138045,-1.7869728,-3.3165424,-0.43845257,0.11378944,-0.18688187,25.25,25.8125,25.0625,27.4375,28.0625,28.375
0.09405256,-1.0638014,-0.43957514,-0.059141204,-0.030689428,0.03904099,-0.1449576,-0.37489623,-0.32842755,0.059933797,3.0786686,-0.62463003,0.0002719881,-0.04424508,-0.006177861,0.001769455,-0.011924252,0.0051457905,0.0027327004,0.44643486,-1.4673146,2.0056999,-2.10769,-1.5702509,2.4211833,-0.034095697,0.07651471,-0.08878252,0.002457316,0.008350399,-0.036776625,-0.21068975,0.30645782,-9.3661175,0.7709874,47.687782,-0.75933754,-1.783774,-3.187936,-0.4418243,0.098617435,-0.19941494,25.25,25.8125,25.0625,27.4375,28.0625,28.375
0.09605195,-1.1782869,-0.76977086,-0.24421826,-0.015390616,0.027409643,-0.14061435,-0.3749861,-0.328441,0.059932664,3.0786014,-0.624713,0.00023360828,-0.04615044,-0.006287753,0.00249824,-0.012578097,0.007380482,0.0018490467,0.44636232,-1.4671704,2.005555,-2.1077387,-1.5702266,2.4211712,-0.035343558,0.07774764,-0.09167361,0.0018204731,0.007970434,-0.037137803,-0.22984336,0.34476504,-9.308656,0.8112748,47.694054,-0.87028027,-1.8859088,-3.354062,-0.4371789,0.10589217,-0.22108874,25.25,25.8125,25.0625,27.4375,28.0625,28.375
0.09805274,-0.6344632,-0.5400325,-0.24390121,-0.020823732,0.027520457,-0.14847869,-0.37506905,-0.32846138,0.059951317,3.0786288,-0.624546,0.00021984085,-0.047403947,-0.005965099,0.0022675006,-0.012180587,0.0076161167,0.0008561397,0.44632584,-1.4670262,2.0053399,-2.1076787,-1.570227,2.4210272,-0.036759984,0.07981162,-0.09332245,0.0013664498,0.0075064674,-0.037559163,-0.19153613,0.36391866,-9.232041,0.77545905,47.68599,-0.6966661,-1.8177705,-3.2512493,-0.41331267,0.11916497,-0.21334726,25.25,25.8125,25.0625,27.4375,28.0625,28.375
0.10006116,-0.46262595,-0.5925284,-0.28811085,-0.012014656,0.020406364,-0.14627647,-0.3751963,-0.3284673,0.05996731,3.078591,-0.62455696,0.00011916365,-0.048734855,-0.0063986317,0.0022764474,-0.0128739895,0.007841865,0.0012303555,0.44622964,-1.4668574,2.005123,-2.1077025,-1.5702385,2.4209428,-0.037488278,0.082374744,-0.09611225,0.0010889617,0.008031982,-0.038659737,-0.17238252,0.38307226,-9.212888,0.779936,47.695843,-0.72158635,-1.9459792,-3.1655455,-0.41309148,0.12799866,-0.24818408,25.25,25.8125,25.0625,27.4375,28.0625,28.375
0.10205223,-0.57345676,-0.5142814,-0.15299433,-0.01272054,0.010683475,-0.13904081,-0.37530062,-0.328496,0.059972614,3.0785134,-0.6245998,0.000103955615,-0.05004689,-0.006196361,0.0025933022,-0.0137022445,0.0084645,-3.6966852e-05,0.44615698,-1.4666777,2.0049183,-2.1077263,-1.5701908,2.4209068,-0.039359864,0.08328977,-0.097833,0.00097652886,0.008509463,-0.039263073,-0.11492168,0.2681506,-9.32781,0.7642693,47.682407,-0.6760741,-1.8223369,-3.189314,-0.40397066,0.12630296,-0.24848333,25.25,25.8125,25.0625,27.4375,28.0625,28.375
0.104052134,-0.78779685,-0.42233434,-0.27826366,-0.019400876,0.010260365,-0.14612484,-0.37539905,-0.32850307,0.05997914,3.0785055,-0.62452114,8.8447734e-05,-0.050173476,-0.00631202,0.000512351,-0.012598906,0.0043455353,0.00091807876,0.44607285,-1.4665198,2.0047271,-2.107715,-1.5701784,2.4207747,-0.039773185,0.08876823,-0.09910432,0.00096019264,0.009290626,-0.04063066,-0.1340753,0.30645782,-9.346964,0.7530795,47.65912,-0.61260474,-2.0529122,-3.1671922,-0.3859406,0.11761835,-0.26644042,25.25,25.8125,25.0625,27.4375,28.0625,28.375
0.10605218,-0.62116796,-0.3661023,-0.05176649,-0.021044955,0.019966496,-0.14411213,-0.3754961,-0.32852027,0.059972763,3.0784829,-0.62449455,9.4612085e-05,-0.051501155,-0.007374342,0.0030200381,-0.014598688,0.00959197,0.0040816534,0.44600135,-1.4663292,2.0045345,-2.1077263,-1.5701545,2.4206896,-0.038651224,0.086154126,-0.10195968,0.0008378693,0.008826935,-0.04267029,-0.17238252,0.2681506,-9.32781,0.784413,47.66539,-0.79162544,-1.8305345,-3.138091,-0.38428846,0.1188048,-0.26070142,25.25,25.8125,25.0625,27.4375,28.0625,28.375
0.10805238,-0.74234706,-0.31075385,-0.18947649,-0.019588966,0.02007658,-0.13795884,-0.37559295,-0.32851776,0.0599715,3.0784564,-0.62456703,0.000134752,-0.051207237,-0.006841832,0.00064826634,-0.012948472,0.003913395,0.0026476618,0.4458928,-1.4661599,2.0043428,-2.1076906,-1.5701302,2.4206297,-0.04002017,0.09123347,-0.10240729,0.0020397026,0.00978984,-0.04260591,-0.21068975,0.22984336,-9.346964,0.75084364,47.675243,-0.79538465,-1.9054193,-3.2234364,-0.37672082,0.10311814,-0.28028962,25.25,25.8125,25.0625,27.4375,28.0625,28.375
0.11005235,-0.94032,-0.116447344,0.02357845,-0.017479701,0.00891336,-0.13914531,-0.37572783,-0.32854834,0.060007382,3.0783718,-0.62460846,1.1643173e-05,-0.052474134,-0.006606859,0.0021582337,-0.013808933,0.0059136003,0.00056295656,0.4458203,-1.4659923,2.0040786,-2.1077015,-1.5701183,2.420594,-0.04152807,0.08981016,-0.10465414,0.0035354514,0.009707403,-0.042027313,-0.11492168,0.2681506,-9.3661175,0.7777002,47.684196,-0.6615609,-1.9685662,-3.177636,-0.40247476,0.11174128,-0.31313956,25.25,25.8125,25.0625,27.4375,28.0625,28.375
0.112052485,-0.19316061,0.027022945,0.0012491645,-0.015417195,0.02438836,-0.14161745,-0.37582496,-0.3285481,0.059994515,3.078384,-0.6246093,6.878808e-05,-0.052741557,-0.006405918,0.0010144102,-0.01226849,0.0038699547,0.002291951,0.44572416,-1.4657878,2.0038745,-2.1076658,-1.5701064,2.420497,-0.041787293,0.09307045,-0.10571435,0.0038475806,0.009197004,-0.044014253,-0.05746084,0.30645782,-9.346964,0.8224646,47.701214,-0.75100344,-1.9780514,-3.2663293,-0.3878955,0.117625594,-0.3316673,25.25,25.8125,25.0625,27.4375,28.0625,28.375
0.114051625,-0.5381516,0.11543013,0.085586734,-0.015917901,0.02070486,-0.14023171,-0.3759339,-0.32856208,0.059992835,3.0783632,-0.62460536,2.5964231e-05,-0.053060222,-0.0068825386,0.0001983295,-0.012836455,0.0024563666,0.0032712216,0.44565207,-1.4655952,2.003672,-2.10769,-1.5701064,2.4204252,-0.041922867,0.09581474,-0.10672339,0.0031401361,0.010317531,-0.04512891,-0.1340753,0.22984336,-9.404425,0.7642693,47.690468,-0.7774589,-2.0306165,-3.3212204,-0.38398886,0.11007471,-0.3460216,25.25,25.8125,25.0625,27.4375,28.0625,28.375
0.11605232,-1.0234677,-0.021371895,0.10172268,-0.0060065663,0.00709552,-0.13901915,-0.37604076,-0.32859877,0.0600176,3.0783124,-0.6244402,-1.9006722e-05,-0.054174826,-0.0070786257,0.00017005872,-0.012871389,0.0032396885,0.004664963,0.44559196,-1.465439,2.003443,-2.10769,-1.5700582,2.4202685,-0.042337947,0.097726464,-0.10860824,0.0023961298,0.010010127,-0.04693505,-0.17238252,0.17238252,-9.32781,0.8224646,47.657326,-0.705356,-1.9118842,-3.2714953,-0.37077194,0.107548565,-0.3410183,25.25,25.8125,25.0625,27.4375,28.0625,28.375
0.118052416,-0.4650752,0.1663794,-0.030595178,0.00058338954,0.023661302,-0.14151743,-0.37618643,-0.3285983,0.060036615,3.078286,-0.6244933,-0.00014319592,-0.056409746,-0.007921322,0.0017334778,-0.014394781,0.0068115103,0.0025329783,0.44548392,-1.465247,2.0031908,-2.107702,-1.570094,2.4201972,-0.042635128,0.098568656,-0.1130766,0.0021419318,0.009839193,-0.04509655,-0.17238252,0.17238252,-9.270349,0.8023209,47.642998,-0.8262064,-1.9781306,-3.2196035,-0.3510915,0.106663674,-0.3923701,25.25,25.8125,25.0625,27.4375,28.0625,28.375
0.12005267,-0.36244878,0.47006634,0.07434131,-0.00351863,0.02671942,-0.14866257,-0.37625507,-0.32862115,0.060009368,3.0783038,-0.6244203,2.1683136e-05,-0.05503151,-0.007411294,-0.00034270322,-0.012926247,0.0024310802,0.0013066331,0.44542393,-1.4650186,2.0029876,-2.107642,-1.5700334,2.4200895,-0.042718586,0.100736804,-0.110755175,0.0022388524,0.01040283,-0.04395624,-0.076614454,0.22984336,-9.32781,0.8247004,47.678825,-0.7932452,-1.965904,-3.4291892,-0.35139337,0.11290552,-0.43443176,25.25,25.8125,25.0625,27.4375,28.0625,28.375
0.122051716,-0.50784963,0.13921326,-0.15645301,0.005117184,0.02036624,-0.13851298,-0.3763982,-0.32863417,0.06003555,3.0782526,-0.6244276,-0.00011093604,-0.05675134,-0.00787857,0.0014536122,-0.014236395,0.0049514025,0.0029625096,0.4453278,-1.4648392,2.0027354,-2.1076658,-1.5700458,2.4200046,-0.0434352,0.10036487,-0.11484785,0.0038658537,0.010500606,-0.046325978,-0.095768064,0.24899697,-9.289502,0.8112748,47.694054,-0.89030623,-1.8544142,-3.312056,-0.34050158,0.09839642,-0.45306313,25.25,25.8125,25.0625,27.4375,28.0625,28.375
0.124051705,-0.6433447,-0.1310474,-0.07975346,0.0043964656,0.019692207,-0.13612297,-0.37649614,-0.32863683,0.06000527,3.0782385,-0.6244615,-3.0192916e-05,-0.055874087,-0.008210724,5.4824177e-06,-0.013005918,0.0015384419,0.0063309143,0.44522014,-1.4646103,2.0025551,-2.1076777,-1.5700096,2.41992,-0.04225137,0.10331892,-0.114994854,0.0046716365,0.010861725,-0.048511047,-0.076614454,0.22984336,-9.308657,0.8784135,47.687782,-0.930357,-2.0366604,-3.4078631,-0.35350525,0.1021305,-0.45609903,25.25,25.8125,25.0625,27.4375,28.0625,28.375
0.12605235,-0.42026815,-0.045060895,-0.1611988,-0.0088801095,0.028747827,-0.14314511,-0.3765816,-0.32866254,0.059998896,3.0782478,-0.624368,7.5616845e-05,-0.0575593,-0.007488438,0.0013699303,-0.013766078,0.004075069,0.0055545345,0.44515917,-1.4643954,2.0023162,-2.1076057,-1.5699619,2.4197996,-0.04482665,0.101880856,-0.116670266,0.0051738597,0.010451822,-0.05030945,-0.05746084,0.1340753,-9.308656,0.78888994,47.70838,-0.9487157,-1.7295063,-3.4481478,-0.35750818,0.118662745,-0.464844,25.25,25.8125,25.0625,27.4375,28.0625,28.375
0.12805231,-0.8906777,-0.61049956,-0.27157846,-0.0025927888,0.012736792,-0.13835989,-0.37671372,-0.328694,0.0600023,3.0782034,-0.62429994,-4.2885265e-05,-0.05838415,-0.008054402,0.00031824032,-0.012578642,0.0028066223,0.007848332,0.4450995,-1.4641781,2.0020878,-2.1076891,-1.5699624,2.4197032,-0.044139717,0.10664897,-0.119471274,0.004866296,0.00992559,-0.051912356,-0.019153614,0.21068975,-9.289502,0.80679786,47.69763,-0.90755844,-1.931737,-3.5111408,-0.37425375,0.11029129,-0.48397738,25.25,25.8125,25.0625,27.4375,28.0625,28.375
0.13005191,-0.99862057,-0.6863165,-0.35153973,-0.0021432207,0.012678111,-0.13351896,-0.37683615,-0.32870197,0.060012937,3.0781643,-0.624347,-7.907694e-06,-0.057775777,-0.008508131,-0.00015314002,-0.011837864,0.0022767012,0.012802445,0.44497994,-1.4639742,2.001825,-2.10763,-1.5699261,2.4196181,-0.042427555,0.107466176,-0.11926314,0.0046447567,0.009487368,-0.055153847,-0.11492168,0.24899697,-9.346964,0.8806493,47.670765,-1.0589929,-1.7939545,-3.5188103,-0.35315648,0.10990489,-0.47573304,25.25,25.8125,25.0625,27.4375,28.0625,28.375
0.13205183,-0.8865995,-0.4697031,-0.40233874,-0.0052503776,0.011881253,-0.1389156,-0.37697837,-0.32869726,0.06001391,3.0781639,-0.62436444,-6.2547304e-05,-0.06103956,-0.009090679,0.0014411628,-0.013446188,0.0056926683,0.014395181,0.44485936,-1.4637458,2.001571,-2.10763,-1.56995,2.4195087,-0.04422726,0.109694935,-0.12543613,0.0048152786,0.009460327,-0.058542147,-0.038307227,0.24899697,-9.385271,0.82022345,47.66539,-1.0856957,-1.8055229,-3.3257575,-0.34461558,0.118597314,-0.45839822,25.25,25.8125,25.0625,27.4375,28.0625,28.375
0.13405176,-0.23084041,-0.25891232,-0.4567878,-0.0044233934,0.021638751,-0.1444483,-0.37708062,-0.32872498,0.060022626,3.0781393,-0.62426007,-3.193406e-05,-0.06097689,-0.008916032,0.0010125492,-0.0124862725,0.004701801,0.018778795,0.4447875,-1.4635538,2.0013306,-2.1075933,-1.5699028,2.419375,-0.044187747,0.110748254,-0.12577383,0.0054148897,0.009024354,-0.06288557,-0.019153614,0.30645782,-9.404425,0.7732232,47.687782,-1.1420151,-1.8423159,-3.4507782,-0.35343635,0.1262196,-0.43924558,25.25,25.8125,25.0625,27.4375,28.0625,28.375
0.13605247,-0.5250347,-0.26637414,-0.66080254,-0.005759691,0.008424177,-0.14052339,-0.37721214,-0.3287387,0.06001212,3.078132,-0.62416154,-2.2644257e-05,-0.062111262,-0.008272683,0.0010399258,-0.01230692,0.0041330117,0.020781895,0.44467863,-1.4633018,2.0010793,-2.1076052,-1.5698785,2.4192057,-0.04644286,0.11204108,-0.12753317,0.0064770277,0.009109662,-0.06714289,-0.05746084,0.30645782,-9.3661175,0.842603,47.687782,-1.0622127,-1.7843037,-3.423002,-0.34569246,0.122761324,-0.40365428,25.25,25.8125,25.0625,27.4375,28.0625,28.375
0.13805248,-0.525575,-0.35450554,-0.5629072,-0.02488821,0.0143830925,-0.1409873,-0.37732133,-0.32875708,0.0600117,3.0781662,-0.6240505,-5.987632e-05,-0.062841386,-0.009234782,0.001748108,-0.013161021,0.0049211094,0.025748888,0.44463095,-1.4630858,2.000839,-2.1075928,-1.5699023,2.4190845,-0.045574244,0.11310552,-0.13055387,0.007354305,0.009540642,-0.07123993,-0.076614454,0.36391866,-9.423578,0.7866488,47.679718,-1.1254972,-1.7119293,-3.3221831,-0.37312183,0.12224921,-0.3402592,25.25,25.8125,25.0625,27.4375,28.0625,28.375
0.1400524,-0.66324204,-0.8585472,-0.6192182,-0.030395914,0.026940001,-0.14083838,-0.37745774,-0.32877368,0.060015492,3.0781446,-0.62394774,1.1259448e-05,-0.06346382,-0.009207847,0.0015405711,-0.012453245,0.0046994137,0.028851768,0.4444991,-1.4628339,2.0005386,-2.1075332,-1.5698422,2.4188914,-0.045790754,0.114832126,-0.13208522,0.007673372,0.008996613,-0.07455789,-0.019153614,0.36391866,-9.442732,0.8179876,47.694946,-1.2483201,-1.6236675,-3.3741755,-0.37078986,0.1272793,-0.31206226,25.25,25.8125,25.0625,27.4375,28.0625,28.375
0.14205252,-1.0681927,-1.3676621,-0.63926977,-0.038050067,0.028752578,-0.1408914,-0.37758717,-0.3287989,0.0600358,3.0781386,-0.62384886,-7.325223e-05,-0.064851895,-0.009073137,0.001375485,-0.012408087,0.0045792363,0.030542564,0.44443846,-1.4626294,2.0002635,-2.1075208,-1.5698546,2.41877,-0.047276977,0.1173337,-0.13450225,0.0077184895,0.009009171,-0.07773266,-0.05746084,0.36391866,-9.634268,0.85155696,47.670765,-1.1653528,-1.7373616,-3.3192232,-0.38891745,0.14219067,-0.2640311,25.25,25.8125,25.0625,27.4375,28.0625,28.375
0.1440524,-1.0546371,-1.3334936,-0.81122595,-0.048101414,0.04022802,-0.13878502,-0.37770241,-0.3288114,0.060030743,3.0781205,-0.623769,1.4622571e-05,-0.065851845,-0.009307853,0.0010324015,-0.012636905,0.0035617964,0.031190954,0.4443181,-1.4624009,2.0000117,-2.1074731,-1.5697945,2.4186022,-0.048140895,0.12023976,-0.13706155,0.008196636,0.009648772,-0.079244025,-0.095768064,0.36391866,-9.557653,0.8157518,47.65912,-1.187991,-1.6894717,-3.3615828,-0.3868339,0.13788931,-0.21474919,25.25,25.8125,25.0625,27.4375,28.0625,28.375
0.14605232,-1.4362541,-1.4468603,-0.6849416,-0.04359979,0.03162201,-0.1396454,-0.37784848,-0.3288299,0.060049023,3.078129,-0.62361646,-0.00012292912,-0.06701121,-0.009319502,0.0014688678,-0.013245317,0.00453337,0.03154223,0.4442458,-1.4621848,1.9997367,-2.107497,-1.5698303,2.418434,-0.04922599,0.120998,-0.13891202,0.008148543,0.009784599,-0.08067856,-0.17238252,0.34476504,-9.634268,0.8560339,47.68062,-1.1818299,-1.790534,-3.3348556,-0.39120364,0.1348913,-0.18907517,25.25,25.8125,25.0625,27.4375,28.0625,28.375
0.14805236,-1.4998167,-0.6316187,-0.7712098,-0.045450933,0.027753338,-0.14129288,-0.377989,-0.328861,0.06004435,3.0780683,-0.62356526,-0.00011055116,-0.06761571,-0.009370459,0.00035278185,-0.012835135,0.002924018,0.030754887,0.44413757,-1.4619203,1.9994606,-2.1075213,-1.5697702,2.4183016,-0.049862105,0.12449901,-0.14010078,0.0074704555,0.0101054525,-0.08052588,-0.21068975,0.30645782,-9.576807,0.87617236,47.693153,-1.1995137,-1.7901609,-3.3983488,-0.39413226,0.14983472,-0.15144241,25.25,25.8125,25.0625,27.4375,28.0625,28.375
0.15005228,-1.3309525,-0.60148734,-0.6427703,-0.0362716,0.02748545,-0.13571516,-0.3781097,-0.3289041,0.060067415,3.07806,-0.6233726,-7.9309764e-05,-0.07009947,-0.010024184,0.0017198934,-0.0147106005,0.006525249,0.028154416,0.4440773,-1.4616925,1.9991368,-2.1074374,-1.5697216,2.4181223,-0.050933875,0.12558062,-0.14421974,0.0064529604,0.010241163,-0.078994386,-0.22984336,0.34476507,-9.595961,0.842603,47.672558,-1.134579,-1.695049,-3.3704891,-0.38018936,0.13791768,-0.15164566,25.25,25.8125,25.0625,27.4375,28.0625,28.375
0.15205218,-1.2638451,-0.62370837,-0.53212947,-0.020231558,0.0270001,-0.13337758,-0.37828398,-0.3288866,0.06004618,3.0780435,-0.6234665,-0.000104991836,-0.069532156,-0.009305258,-0.000119237426,-0.01346475,0.0032213572,0.025775537,0.44389695,-1.4613919,1.9988617,-2.107474,-1.569734,2.4180028,-0.05193212,0.12795423,-0.14254989,0.0059270337,0.010539445,-0.077614404,-0.22984336,0.36391866,-9.5385,0.83365434,47.686886,-1.1266571,-1.8617932,-3.4459352,-0.3546512,0.14228962,-0.1555378,25.25,25.8125,25.0625,27.4375,28.0625,28.375
0.15405226,-1.5538083,-0.7990977,-0.74102175,-0.000935457,0.015039895,-0.13051257,-0.37839895,-0.32892007,0.06003961,3.0780568,-0.6232802,-2.9092e-05,-0.07150979,-0.009495278,0.0007372786,-0.013909153,0.0054282453,0.020910045,0.4438245,-1.4611279,1.9985737,-2.107426,-1.5696863,2.4178126,-0.052949212,0.12936762,-0.14609532,0.005878462,0.009981695,-0.07376359,-0.21068975,0.30645782,-9.481039,0.8224646,47.679718,-1.2552477,-1.7459757,-3.314965,-0.36799863,0.1502352,-0.17357829,25.25,25.8125,25.0625,27.4375,28.0625,28.375
0.15605263,-0.9995094,0.070439205,-0.4941462,-0.008352583,0.034728106,-0.14273909,-0.37857464,-0.3289569,0.06008505,3.0779834,-0.62322986,-0.00016638932,-0.072778575,-0.009152688,8.5317035e-05,-0.014002389,0.004014708,0.014542561,0.44372788,-1.4608992,1.9982141,-2.107414,-1.5696739,2.417694,-0.05515719,0.13250975,-0.14813426,0.006007778,0.010675296,-0.0696018,-0.22984336,0.24899697,-9.442732,0.87617236,47.690468,-1.2251856,-1.7294091,-3.401784,-0.3769586,0.14640582,-0.23488069,25.25,25.8125,25.0625,27.4375,28.0625,28.375
0.15805173,-1.6860608,-0.5569332,-0.5718449,0.010099885,0.017003858,-0.13175362,-0.3787238,-0.32895738,0.06007074,3.077988,-0.6231352,-0.00019502,-0.073731594,-0.009130668,-0.0019333974,-0.012910373,0.0006830376,0.012578482,0.4435954,-1.4606338,1.9979614,-2.1074498,-1.5696739,2.4175022,-0.05631551,0.138762,-0.15033226,0.005430626,0.01111511,-0.068793744,-0.2681506,0.22984336,-9.481039,0.75755644,47.658226,-1.1330552,-1.7359326,-3.388782,-0.36655575,0.16035028,-0.27331838,25.25,25.8125,25.0625,27.4375,28.0625,28.375
0.16005166,-1.3888835,-0.35181758,-0.4630487,0.00816789,0.029084401,-0.14048718,-0.3788926,-0.32899773,0.060102724,3.0778863,-0.6231147,-0.00028445292,-0.075134575,-0.00989131,-0.0003368884,-0.014796344,0.004136316,0.0117878625,0.4434876,-1.4603945,1.9976262,-2.1074617,-1.5696257,2.4173946,-0.05626291,0.13788807,-0.15295073,0.0049975715,0.011337584,-0.067948036,-0.3256114,0.21068975,-9.289502,0.8247004,47.690468,-1.2236018,-1.8051672,-3.2327604,-0.34222996,0.16393974,-0.25716817,25.25,25.8125,25.0625,27.4375,28.0625,28.375
0.16205175,-1.4778275,0.058283962,-0.28158107,0.0019138444,0.043096405,-0.14035136,-0.37903982,-0.329019,0.060095087,3.077859,-0.6231878,-0.00024430457,-0.07664311,-0.010149128,-0.0006796521,-0.014946362,0.003212538,0.009032855,0.4433792,-1.4600936,1.9973024,-2.107426,-1.5696009,2.4173355,-0.057450052,0.14169809,-0.15655117,0.0055577047,0.011861787,-0.066378176,-0.45968673,0.19153613,-9.251195,0.842603,47.68062,-1.2063825,-2.0321183,-3.332008,-0.34075493,0.14869818,-0.30555785,25.25,25.8125,25.0625,27.4375,28.0625,28.375
0.16405164,-1.7337781,-0.34280142,-0.19153623,0.018305594,0.03809334,-0.1442577,-0.37918016,-0.32904083,0.060095336,3.0778553,-0.6230313,-0.00022286164,-0.07644879,-0.009700803,-0.00138016,-0.013925586,0.0011876966,0.010552269,0.44327098,-1.4598296,1.9970039,-2.1074011,-1.5695657,2.4171302,-0.058050755,0.142952,-0.15662079,0.0066462867,0.011813966,-0.0684983,-0.28730422,0.22984336,-9.308657,0.83813137,47.653748,-1.2103268,-1.883561,-3.385145,-0.34022212,0.15762638,-0.3186575,25.25,25.8125,25.0625,27.4375,28.0625,28.375
0.16605182,-1.8466027,-0.2491394,0.030571582,0.005410861,0.036424924,-0.14453681,-0.37936,-0.32906017,0.060102474,3.0778313,-0.6229879,-0.0003508845,-0.077107616,-0.009545309,-0.0012801191,-0.014093751,0.00092810777,0.010808531,0.44316262,-1.4595419,1.9966801,-2.1074493,-1.5695895,2.4169981,-0.059073426,0.14377244,-0.15795134,0.0073187556,0.012083671,-0.069775745,-0.36391866,0.22984336,-9.232041,0.8224646,47.657326,-1.1980064,-1.8320687,-3.402495,-0.34393758,0.1644544,-0.337119,25.25,25.8125,25.0625,27.4375,28.0625,28.375
0.1680518,-1.586462,-0.23959565,0.09808719,0.004206668,0.040233694,-0.14226069,-0.37949666,-0.3290632,0.060090963,3.0778508,-0.62297326,-0.00025219552,-0.07860569,-0.009566153,-0.0009914056,-0.014659212,0.001956104,0.009925526,0.4430301,-1.4592539,1.9963683,-2.1073654,-1.5695652,2.4168541,-0.060376875,0.14532696,-0.16028504,0.0069303247,0.012145078,-0.07019534,-0.47884035,0.2681506,-9.136273,0.83589023,47.642998,-1.2238462,-1.8267899,-3.4354424,-0.34756243,0.15880616,-0.34465823,25.25,25.8125,25.0625,27.4375,28.0625,28.375
0.1700518,-1.5588307,-0.18808101,0.105026394,0.005257781,0.036607295,-0.14261323,-0.37966347,-0.32910624,0.060100775,3.0777686,-0.6229193,-0.0002861102,-0.08026955,-0.009577002,-0.0003229817,-0.015031803,0.0038885272,0.008346578,0.44292176,-1.4589661,1.9960326,-2.1073897,-1.5695056,2.4167228,-0.061471775,0.14633203,-0.162902,0.0066434285,0.011652696,-0.06970854,-0.40222588,0.17238252,-9.155427,0.842603,47.6636,-1.1479356,-1.732472,-3.38477,-0.34264868,0.17162672,-0.34672585,25.25,25.8125,25.0625,27.4375,28.0625,28.375
0.1720518,-1.2559791,-0.10205368,-0.064392276,0.0044553047,0.033285584,-0.14213659,-0.37982285,-0.32910946,0.060078535,3.07777,-0.62293625,-0.00024212005,-0.080689445,-0.00931304,-0.00094577105,-0.014741705,0.0025260448,0.009971825,0.44277745,-1.4586421,1.9957217,-2.1073773,-1.5694932,2.416589,-0.062515266,0.14821965,-0.16366929,0.006882717,0.011975458,-0.07237717,-0.36391866,0.19153613,-9.097966,0.8314132,47.668976,-1.1496931,-1.7581005,-3.430357,-0.32332358,0.17951891,-0.3665787,25.25,25.8125,25.0625,27.4375,28.0625,28.375
0.1740518,-1.0177101,-0.07633117,-0.024176788,0.010516296,0.026718082,-0.14319703,-0.3800144,-0.32914045,0.0601075,3.0776906,-0.622845,-0.00031799087,-0.08207048,-0.009346948,-7.418677e-05,-0.015291693,0.004196186,0.0074187825,0.44263315,-1.4583664,1.9953498,-2.1073773,-1.569446,2.416398,-0.06349037,0.14854531,-0.16615972,0.0073070214,0.011759219,-0.07079672,-0.34476504,0.17238252,-9.136273,0.87617236,47.658226,-1.1540141,-1.6873528,-3.353551,-0.3340042,0.17706859,-0.3969075,25.25,25.8125,25.0625,27.4375,28.0625,28.375
0.17605202,-1.0233965,0.060699496,-0.04643608,0.011183626,0.02348667,-0.14365166,-0.38016447,-0.32914573,0.060097635,3.0776865,-0.6229195,-0.0002604393,-0.083623655,-0.009751978,0.0002830963,-0.016214594,0.0049668388,0.009324918,0.44250083,-1.4580659,1.9950255,-2.1073177,-1.5694331,2.416313,-0.06441377,0.15064617,-0.16934986,0.007308541,0.012258155,-0.073624834,-0.3256114,0.24899697,-9.078813,0.95226496,47.721813,-1.156885,-1.8611295,-3.476788,-0.3323956,0.18192625,-0.39728966,25.25,25.8125,25.0625,27.4375,28.0625,28.375
0.17805216,-1.3330598,-0.0490691,-0.12723117,0.014241114,0.018354058,-0.1406991,-0.38033983,-0.3291621,0.06010491,3.077719,-0.6227883,-0.00031205578,-0.0843621,-0.008561616,-0.00065056334,-0.014852945,0.0032583706,0.013087423,0.44239196,-1.4577543,1.994655,-2.1072814,-1.5694579,2.4161184,-0.06692084,0.15271986,-0.1696388,0.0076588155,0.01176866,-0.07989364,-0.17238252,0.21068975,-9.174581,0.8224646,47.707485,-1.132765,-1.5523975,-3.3876705,-0.3228698,0.19363096,-0.34301472,25.25,25.8125,25.0625,27.4375,28.0625,28.375
0.18005219,-1.1768209,-0.2077634,-0.23768902,0.015569062,0.018881332,-0.14065474,-0.38049975,-0.3291891,0.060094398,3.0776608,-0.6227194,-0.00030004818,-0.085496575,-0.008783275,0.0002965288,-0.016152672,0.004374741,0.013266642,0.4422596,-1.4574548,1.9943551,-2.1073172,-1.5693973,2.4159505,-0.06794127,0.15272081,-0.17204285,0.008502007,0.012467733,-0.08109209,-0.19153614,0.17238252,-9.289503,0.7866488,47.67166,-0.96922123,-1.5449245,-3.4735363,-0.31864187,0.20688108,-0.35181326,25.25,25.8125,25.0625,27.4375,28.0625,28.375
0.1820524,-1.7253305,-0.29384342,-0.21334581,0.006169304,0.0077356086,-0.13203003,-0.38070095,-0.3291884,0.060123216,3.07763,-0.6226908,-0.00037409886,-0.086479306,-0.009361318,0.00045764487,-0.016867429,0.0045462917,0.018172123,0.4420797,-1.4571786,1.9939717,-2.107269,-1.5693973,2.415757,-0.068074,0.15471643,-0.17471576,0.008724428,0.013047698,-0.08612807,-0.22984336,0.11492168,-9.2703495,0.82694155,47.690468,-1.1187627,-1.5482856,-3.3685007,-0.3315536,0.21356437,-0.30523562,25.25,25.8125,25.0625,27.4375,28.0625,28.375
0.18405224,-0.94949085,-0.28242427,-0.30435243,-0.0018950574,0.024446568,-0.1433372,-0.3808523,-0.32920662,0.060093794,3.077635,-0.6226134,-0.0002686538,-0.08837679,-0.008872939,0.0009911186,-0.017390415,0.0059407777,0.020419603,0.44194704,-1.4568306,1.9936475,-2.1072452,-1.5693492,2.4155755,-0.07053938,0.15573284,-0.1770908,0.008610885,0.012921236,-0.09084008,-0.1340753,0.1340753,-9.232041,0.83813137,47.703903,-1.0252403,-1.5738525,-3.348537,-0.32524186,0.21990627,-0.24324194,25.25,25.8125,25.0625,27.4375,28.0625,28.375
0.18605162,-1.3778093,-0.55714893,-0.7522782,0.011201747,0.0027760556,-0.1250015,-0.38104323,-0.329224,0.060100913,3.077643,-0.6224601,-0.0003773708,-0.088539265,-0.0077271895,-0.0013382764,-0.015099781,0.0011467829,0.02248802,0.44182596,-1.4565175,1.9932889,-2.1072686,-1.569373,2.415358,-0.07276793,0.16048923,-0.17725472,0.009336047,0.012914534,-0.09513562,-0.095768064,0.19153613,-9.3661175,0.84708,47.737934,-0.8028439,-1.6506982,-3.374848,-0.3216976,0.22064099,-0.17975253,25.25,25.8125,25.0625,27.4375,28.0625,28.375
0.1880519,-0.99953777,-0.48187023,-0.90964663,0.0035169213,0.013100881,-0.13865738,-0.3811995,-0.32923028,0.060073197,3.0776372,-0.62245566,-0.00023074898,-0.08932152,-0.0088285655,-0.00068380585,-0.015841132,0.0022325325,0.027513571,0.44165862,-1.45617,1.9929527,-2.107209,-1.5693125,2.4151888,-0.07149971,0.1618444,-0.18043385,0.009873456,0.013113671,-0.09889219,-0.1340753,0.2681506,-9.442732,0.76874626,47.696735,-0.9827892,-1.5481198,-3.372249,-0.31567758,0.22308002,-0.12132396,25.25,25.8125,25.0625,27.4375,28.0625,28.375
0.1900519,-0.7869241,-0.80491763,-1.0126343,-0.007441635,0.022648767,-0.14170624,-0.3813589,-0.32926908,0.060072005,3.0776103,-0.62227833,-0.00020271257,-0.0909665,-0.008486522,-0.0006772145,-0.016678477,0.0021539938,0.02604931,0.44154972,-1.4558578,1.992606,-2.107197,-1.5692528,2.4149728,-0.074078605,0.16385818,-0.18273465,0.009879643,0.013903767,-0.10000529,-0.15322891,0.24899697,-9.557653,0.8403672,47.699425,-0.89449763,-1.5763729,-3.3899412,-0.33659214,0.21557532,-0.08794016,25.25,25.8125,25.0625,27.4375,28.0625,28.375
0.19205183,-0.9521037,-0.5232984,-1.030364,-0.028690584,0.025316222,-0.13859572,-0.38154906,-0.3292583,0.060071893,3.0776515,-0.62226814,-0.00024677019,-0.09155137,-0.0081977565,-0.0018730874,-0.01506998,9.4634925e-05,0.02451283,0.4413934,-1.4555331,1.9922346,-2.1071494,-1.569301,2.4148052,-0.07470001,0.16763072,-0.18432683,0.010246819,0.013326907,-0.099088736,-0.15322891,0.2681506,-9.595961,0.75755644,47.705692,-0.8259815,-1.756983,-3.4673328,-0.3393137,0.24028832,-0.0691882,25.25,25.8125,25.0625,27.4375,28.0625,28.375
0.19405194,-0.75924724,-1.1419293,-1.0487323,-0.031524334,0.042160887,-0.1413206,-0.38173425,-0.32927978,0.060084786,3.0775678,-0.6222344,-0.00021053934,-0.09240427,-0.008174586,-0.0026648785,-0.014752778,-0.0014614935,0.020304738,0.4412132,-1.4552325,1.9918627,-2.1071126,-1.5692166,2.4146147,-0.075693324,0.17096117,-0.18631001,0.010447365,0.013701661,-0.09587213,-0.24899697,0.22984336,-9.768343,0.87617236,47.7254,-0.8019959,-1.8185148,-3.449265,-0.35788667,0.26270851,-0.07993465,25.25,25.8125,25.0625,27.4375,28.0625,28.375
0.19605203,-1.2882646,-1.2811369,-0.9551275,-0.04662731,0.038191766,-0.13482021,-0.38193905,-0.32931232,0.060090933,3.077523,-0.6220923,-0.00026666664,-0.09356204,-0.008100162,-0.0026331493,-0.0149443075,-0.0012490118,0.016034026,0.44106874,-1.4548845,1.9914674,-2.107137,-1.5691808,2.4143875,-0.07685552,0.1726445,-0.18832378,0.010504895,0.013783705,-0.09276139,-0.3256114,0.24899697,-9.672575,0.8537928,47.695843,-0.82255507,-1.9066367,-3.4899578,-0.34504128,0.27015907,-0.10768391,25.25,25.8125,25.0625,27.4375,28.0625,28.375
0.19805281,-1.2224039,-1.3687572,-0.79469264,-0.037692145,0.04009173,-0.14334445,-0.3821347,-0.32931277,0.060081962,3.0775585,-0.6220829,-0.00025725312,-0.0942776,-0.008069874,-0.0031042947,-0.015949016,-0.00213665,0.011173963,0.4409122,-1.4545126,1.9910606,-2.1070774,-1.5692042,2.4142208,-0.07834349,0.1744279,-0.1891565,0.0099191405,0.015062466,-0.0893892,-0.3256114,0.3256114,-9.653421,0.8717007,47.68599,-0.638855,-1.8355662,-3.4471135,-0.33572417,0.2561833,-0.1285129,25.25,25.8125,25.0625,27.4375,28.0625,28.375
0.2000521,-1.4224857,-0.80518574,-0.8740156,-0.034089338,0.03576949,-0.13825566,-0.38229352,-0.3293326,0.060048528,3.0775468,-0.6220047,-0.00015495277,-0.09540237,-0.009042989,-0.001975031,-0.017352264,0.0004999294,0.008798585,0.44076863,-1.4541532,1.9907373,-2.1070774,-1.5691441,2.41403,-0.07756859,0.17457566,-0.19186926,0.009503615,0.015193742,-0.086237974,-0.30645782,0.3256114,-9.595961,0.779936,47.696735,-0.8160145,-1.8990338,-3.4188619,-0.34351924,0.26216972,-0.17735186,25.25,25.8125,25.0625,27.4375,28.0625,28.375
0.20205244,-1.5206262,-1.0544268,-0.82128984,-0.01717834,0.028619846,-0.13470876,-0.38249844,-0.32937542,0.06006778,3.0774333,-0.62200403,-0.00016744775,-0.09778836,-0.008553239,-0.0014552553,-0.018815879,0.0021081055,0.0028076272,0.4406114,-1.453817,1.9903167,-2.107066,-1.5690602,2.413887,-0.080944814,0.17596811,-0.1944614,0.008628059,0.015828393,-0.0836205,-0.3256114,0.34476504,-9.595961,0.86498255,47.698532,-0.73346484,-1.8874102,-3.4014473,-0.33719742,0.2616263,-0.21650964,25.25,25.8125,25.0625,27.4375,28.0625,28.375
0.2040526,-1.1971202,-0.52437913,-0.8339886,-0.01641209,0.037374597,-0.13610093,-0.38270015,-0.32938102,0.06007132,3.0774305,-0.62198263,-0.0001807347,-0.09809992,-0.00956822,-0.002122803,-0.018576823,0.0017376851,0.003762073,0.44044387,-1.4534687,1.98991,-2.1070182,-1.5690602,2.4137068,-0.07923762,0.17918181,-0.19637305,0.007764843,0.0157656,-0.082865894,-0.34476504,0.34476504,-9.5385,0.85155696,47.677036,-0.6813838,-1.9243984,-3.5211434,-0.31127384,0.25890625,-0.25477916,25.25,25.8125,25.0625,27.4375,28.0625,28.375
0.20605204,-1.2584869,-0.59515023,-0.71486115,-0.015812138,0.041515585,-0.13917792,-0.38290662,-0.32939517,0.060066123,3.0774016,-0.6219779,-0.00023944785,-0.09838138,-0.0097679775,-0.0023353538,-0.018806932,0.0009830609,0.002685464,0.4402879,-1.4531091,1.9895271,-2.107042,-1.5690597,2.4135518,-0.07941248,0.18048874,-0.19749466,0.008163457,0.016298082,-0.081962906,-0.40222588,0.30645782,-9.442732,0.8717007,47.683304,-0.8836124,-1.7983229,-3.5414617,-0.2949522,0.28399596,-0.2727716,25.25,25.8125,25.0625,27.4375,28.0625,28.375
0.20805213,-1.5962292,-0.8689214,-0.54623085,-0.022247339,0.04492434,-0.1340919,-0.38311678,-0.32941943,0.06007736,3.0773225,-0.6219822,-0.00024161754,-0.0988931,-0.010009277,-0.0021729365,-0.019409556,0.0010644036,0.0004265101,0.44010782,-1.4527612,1.9891084,-2.1070182,-1.5689996,2.4133847,-0.079692334,0.18123728,-0.19881427,0.008407258,0.016809087,-0.07998245,-0.4213795,0.2681506,-9.442732,0.8224646,47.678825,-0.8017282,-1.7644961,-3.5351543,-0.32125676,0.27859357,-0.3313235,25.25,25.8125,25.0625,27.4375,28.0625,28.375
0.21005224,-1.32424,-0.4046405,-0.38908568,-0.020671431,0.046295255,-0.13370793,-0.38330686,-0.32942986,0.060061663,3.0773351,-0.62190527,-0.00021482055,-0.10040833,-0.010675519,-0.0012900523,-0.020680852,0.0028195377,0.0029820458,0.43995193,-1.4523894,1.9887246,-2.106994,-1.5689877,2.4131794,-0.079999916,0.18238457,-0.20220369,0.008526639,0.017209072,-0.08284393,-0.30645782,0.2681506,-9.289502,0.8672237,47.709274,-0.89677346,-1.7622881,-3.5320244,-0.29554003,0.26300025,-0.34712607,25.25,25.8125,25.0625,27.4375,28.0625,28.375
0.21205243,-1.7738196,-0.24258816,-0.32671022,0.00026560557,0.022010792,-0.13092716,-0.38351473,-0.32947263,0.060087454,3.077223,-0.6219227,-0.000278274,-0.10131502,-0.011545085,-0.0008498761,-0.021773107,0.0035953096,-0.0007213899,0.4398081,-1.4520657,1.988305,-2.106994,-1.5689272,2.413061,-0.079562835,0.18387224,-0.20494074,0.008607529,0.017865043,-0.07870018,-0.19153613,0.22984336,-9.308657,0.8784135,47.67345,-0.9060763,-1.6772025,-3.505784,-0.27410233,0.2647611,-0.41930482,25.25,25.8125,25.0625,27.4375,28.0625,28.375
0.21405233,-0.2947371,0.66765624,-0.26925963,0.0063595874,0.036083475,-0.1493915,-0.38374004,-0.32949513,0.060085647,3.077169,-0.62196946,-0.00027471714,-0.102277786,-0.012013576,6.7356894e-05,-0.022711681,0.005680654,-0.00029872358,0.439628,-1.4516588,1.9878501,-2.10697,-1.5688914,2.4129171,-0.07944735,0.18371335,-0.20689371,0.0084396815,0.017826818,-0.079005994,-0.11492168,0.24899697,-9.155427,0.87617236,47.657326,-0.9196068,-1.5117861,-3.5125995,-0.2683171,0.2812937,-0.4575908,25.25,25.8125,25.0625,27.4375,28.0625,28.375
0.21605247,-0.33543143,0.4280718,-0.39842716,0.03001726,0.016026156,-0.14064923,-0.38394397,-0.32951632,0.060071696,3.0771372,-0.6218823,-0.00031258038,-0.10374849,-0.013143839,0.00055657834,-0.023579046,0.007390339,0.0036284372,0.43947235,-1.4512868,1.9874781,-2.1070182,-1.5688676,2.4127114,-0.078624666,0.18618761,-0.21070695,0.007872167,0.017885607,-0.08210711,0.095768064,0.1340753,-9.136273,0.9030289,47.65643,-1.0701189,-1.542747,-3.4217277,-0.25136358,0.2805588,-0.47216725,25.25,25.8125,25.0625,27.4375,28.0625,28.375
0.21805167,-0.21007085,0.48365197,-0.46990687,0.037253104,-0.00014050191,-0.13308884,-0.38415548,-0.3295517,0.060082182,3.07708,-0.6218694,-0.000339244,-0.10545314,-0.01335072,0.0014876653,-0.024841936,0.009447582,0.0057617715,0.43932816,-1.4509151,1.9870342,-2.1069944,-1.5688313,2.4125667,-0.0798572,0.18678589,-0.21353051,0.0077088717,0.01815869,-0.08547056,0.095768064,0.1340753,-9.232041,0.86945957,47.658226,-1.0314373,-1.5140415,-3.3564842,-0.25851557,0.27607292,-0.47642586,25.25,25.8125,25.0625,27.4375,28.0625,28.375
0.22005184,0.05589802,0.42051336,-0.6189004,0.025838725,0.00030357882,-0.14015052,-0.38435712,-0.32956272,0.06007895,3.077096,-0.62179214,-0.00033739887,-0.10579606,-0.0130115645,0.0006144255,-0.023750892,0.0078073125,0.012869466,0.43917167,-1.4505427,1.9866151,-2.1069462,-1.5688313,2.4123602,-0.08054401,0.1892273,-0.21442017,0.008123,0.017882507,-0.09326451,0.1340753,0.17238252,-9.385271,0.8918391,47.65464,-1.038441,-1.545079,-3.3070111,-0.24067442,0.29186946,-0.41942716,25.25,25.8125,25.0625,27.4375,28.0625,28.375
0.22205196,0.55308795,0.19700976,-0.5227337,0.0023234705,0.014722827,-0.14543097,-0.38459173,-0.32957843,0.060092885,3.0770361,-0.62173957,-0.00041885706,-0.10633584,-0.013063253,-8.9481e-05,-0.023090277,0.0052274456,0.016136238,0.4389794,-1.4501823,1.9861835,-2.1069577,-1.5688075,2.412143,-0.08119296,0.19261156,-0.21708995,0.010035316,0.018396989,-0.09717732,0.11492168,0.15322891,-9.404425,0.86945957,47.64658,-1.0702547,-1.5954914,-3.3441691,-0.25424632,0.30609617,-0.40505645,25.25,25.8125,25.0625,27.4375,28.0625,28.375
0.224052,-0.19122776,-0.6646435,-0.8962298,-0.011030527,0.001615376,-0.14533639,-0.38477048,-0.3296003,0.060069155,3.077034,-0.6216175,-0.00031528005,-0.10757163,-0.013259812,-0.0013236672,-0.02200246,0.0032323208,0.025342021,0.4388234,-1.4497973,1.9857997,-2.1069214,-1.5687474,2.4119112,-0.08177002,0.19803575,-0.22044945,0.0102658495,0.018267374,-0.10695839,0.15322891,0.24899697,-9.32781,0.9388393,47.684196,-1.0335088,-1.8254449,-3.3713346,-0.24870813,0.31959715,-0.3326661,25.25,25.8125,25.0625,27.4375,28.0625,28.375
0.22605252,-0.7383362,-1.6136,-1.0317687,-0.024579164,-0.0013413256,-0.1277046,-0.3849659,-0.3296233,0.0600489,3.0770652,-0.6215465,-0.00021599143,-0.10801547,-0.012952445,-0.0020273842,-0.020709097,0.00125952,0.027724443,0.43867904,-1.4493654,1.9853443,-2.106837,-1.5687236,2.4117188,-0.08244868,0.20070103,-0.22223754,0.011736131,0.017933814,-0.11001976,0.076614454,0.34476507,-9.500193,0.88960326,47.723602,-1.0215331,-1.7248002,-3.3119016,-0.26894173,0.3068079,-0.26175487,25.25,25.8125,25.0625,27.4375,28.0625,28.375
0.22805245,-0.8412432,-2.0754347,-0.94216913,-0.043176293,0.016337497,-0.13058437,-0.38520667,-0.32964233,0.060067374,3.077022,-0.62147677,-0.0002677716,-0.109205924,-0.01354814,-0.0005022935,-0.022409834,0.003488451,0.031093048,0.4384872,-1.448982,1.9848655,-2.1068013,-1.5686988,2.4114892,-0.08271193,0.19994912,-0.22517587,0.012697096,0.0185374,-0.11364939,-0.038307227,0.5554548,-9.423578,0.842603,47.698532,-1.0513318,-1.7454218,-3.2647734,-0.28428033,0.31343138,-0.20713638,25.25,25.8125,25.0625,27.4375,28.0625,28.375
0.23005249,-1.5728879,-2.2174366,-1.2235157,-0.05552509,0.0043772366,-0.12841742,-0.3854099,-0.32967106,0.060065567,3.0770288,-0.621325,-0.00028449728,-0.109793544,-0.013556206,-0.000749924,-0.022894222,0.0033945127,0.03171955,0.43835482,-1.4485984,1.9844354,-2.106777,-1.5686868,2.4112616,-0.0834713,0.20114155,-0.22587587,0.012088891,0.019019352,-0.11503424,-0.019153614,0.6703765,-9.5385,0.8605109,47.66808,-1.0484529,-1.6481609,-3.400385,-0.26989534,0.33863044,-0.17444697,25.25,25.8125,25.0625,27.4375,28.0625,28.375
0.2320525,-0.80541813,-2.270813,-1.055298,-0.063327,0.026392637,-0.13515721,-0.38566732,-0.3296798,0.06008529,3.0769484,-0.6213092,-0.0003309248,-0.11011301,-0.013315833,-0.0012114159,-0.023015644,0.0025783048,0.029864706,0.43811458,-1.4482149,1.9839562,-2.1067536,-1.5686392,2.411022,-0.08441624,0.20227127,-0.22610934,0.011887046,0.019484386,-0.114122696,-0.038307227,0.6703765,-9.710882,0.89631605,47.67793,-1.1781248,-1.6751041,-3.5709033,-0.26824233,0.33547437,-0.15551212,25.25,25.8125,25.0625,27.4375,28.0625,28.375
0.23405245,-1.1921102,-2.116998,-0.85242885,-0.070957385,0.0162094,-0.13554572,-0.3858491,-0.3297183,0.060067113,3.07695,-0.621138,-0.00026816872,-0.11034321,-0.013716047,-0.0017661479,-0.023849702,0.0017522429,0.026248343,0.43799454,-1.4478192,1.98355,-2.1067297,-1.56859,2.410795,-0.08455061,0.20399815,-0.22667065,0.01111305,0.02058116,-0.11064014,-0.095768064,0.68953013,-9.615114,0.8806493,47.68599,-0.9715183,-1.5982435,-3.6128113,-0.26028877,0.3239611,-0.16620845,25.25,25.8125,25.0625,27.4375,28.0625,28.375
0.23605245,-0.976971,-1.914145,-0.85175693,-0.056165006,0.012419883,-0.13623376,-0.3861023,-0.32977057,0.06008587,3.0768173,-0.6210941,-0.00033901393,-0.11117592,-0.014417205,-0.0017349978,-0.024171632,0.0025074536,0.022295985,0.43781477,-1.4474112,1.9830588,-2.1067655,-1.5685061,2.410605,-0.08388533,0.20597568,-0.22890298,0.01055114,0.02055338,-0.10601859,-0.24899697,0.59376204,-9.500193,0.90527004,47.711063,-1.2140213,-1.6396289,-3.6378593,-0.26259333,0.33099675,-0.22351119,25.25,25.8125,25.0625,27.4375,28.0625,28.375
0.2380518,-0.5270664,-1.608599,-0.9608077,-0.033729363,0.022594957,-0.13083869,-0.38630432,-0.32979745,0.060056116,3.076832,-0.62100524,-0.00021992595,-0.11379952,-0.01307311,-0.0016852203,-0.024203062,0.0035959147,0.014095409,0.4376571,-1.4469552,1.982603,-2.1067064,-1.5684589,2.4103901,-0.0882877,0.20797084,-0.23117642,0.009832243,0.020103067,-0.10222018,-0.19153613,0.51714754,-9.500193,0.8023209,47.678825,-1.0772045,-1.6648558,-3.6394215,-0.24687576,0.3391055,-0.26739722,25.25,25.8125,25.0625,27.4375,28.0625,28.375
0.24005175,-0.117504135,-0.9704343,-0.94679713,-0.020435527,0.036820404,-0.14269497,-0.38653332,-0.32981983,0.06006003,3.076794,-0.6209953,-0.0002676374,-0.11362065,-0.0151723325,-0.0023574731,-0.025396753,0.0027309265,0.016402848,0.43749055,-1.4465587,1.9821476,-2.106695,-1.568446,2.4102225,-0.085145,0.21153812,-0.23348553,0.008849653,0.021549178,-0.10138162,-0.11492168,0.4213795,-9.32781,0.99031126,47.68599,-1.1632179,-1.7329828,-3.508927,-0.22479202,0.33193207,-0.29649368,25.25,25.8125,25.0625,27.4375,28.0625,28.375
0.24205188,-1.0422014,-0.68593264,-0.7420673,-0.0106546525,0.016469557,-0.13273309,-0.38676104,-0.32985762,0.06004789,3.0767758,-0.6208778,-0.0002874517,-0.1152295,-0.01532113,-0.0016383468,-0.026993405,0.0036299585,0.014663421,0.43734574,-1.4461153,1.9816812,-2.1067064,-1.5684212,2.410007,-0.08690554,0.21253097,-0.23643693,0.009319494,0.022614894,-0.10140019,-0.24899697,0.36391866,-9.32781,0.90750587,47.728977,-1.1471299,-1.6111195,-3.557596,-0.21346518,0.33307505,-0.30995676,25.25,25.8125,25.0625,27.4375,28.0625,28.375
0.2440519,-0.81480294,-0.41033185,-0.66586185,-0.0043361704,0.028961709,-0.13837905,-0.3869997,-0.32988507,0.06005069,3.0767078,-0.6208822,-0.0002350341,-0.11680118,-0.015465744,-0.0012787749,-0.028160216,0.004311891,0.013287126,0.43714127,-1.4456837,1.9811777,-2.1066463,-1.5683492,2.4098141,-0.08842882,0.21421623,-0.23923473,0.009329859,0.023381725,-0.10154506,-0.21068975,0.30645782,-9.270349,0.87617236,47.69763,-1.1349553,-1.5948764,-3.4869149,-0.19659115,0.32560027,-0.34325537,25.25,25.8125,25.0625,27.4375,28.0625,28.375
0.24605207,-0.90478283,-0.15847307,-0.5290791,-0.0009387522,0.039565917,-0.13615313,-0.3872614,-0.32994303,0.060081705,3.0765855,-0.62072444,-0.0003640007,-0.11800696,-0.015681222,-0.0011146883,-0.028259665,0.004651555,0.011359527,0.43697333,-1.4452877,1.9806741,-2.1066945,-1.5682772,2.4095635,-0.08896844,0.21622948,-0.24204941,0.009789821,0.023338744,-0.10015195,-0.17238252,0.24899697,-9.289502,0.8717007,47.691364,-1.1883713,-1.5116792,-3.4655952,-0.17970353,0.3131016,-0.39247456,25.25,25.8125,25.0625,27.4375,28.0625,28.375
0.24805197,-1.457183,-0.6828002,-0.2699785,0.01808785,0.03613377,-0.12905386,-0.3874466,-0.32996252,0.060043328,3.0766287,-0.620636,-0.00018412404,-0.12084394,-0.016635884,0.0021448021,-0.03081466,0.010442331,0.012935888,0.43681693,-1.4448328,1.9802297,-2.1065977,-1.5682296,2.4093466,-0.08950317,0.21464497,-0.24812524,0.011136212,0.023189733,-0.102263086,-0.24899697,0.13407528,-9.289502,0.9097417,47.70659,-1.0255041,-1.5047468,-3.3364587,-0.17708777,0.30654842,-0.3827203,25.25,25.8125,25.0625,27.4375,28.0625,28.375
0.25005192,-0.96521544,0.44307366,-0.078012526,0.011969071,0.05116024,-0.1421892,-0.3877249,-0.33002856,0.06007415,3.076499,-0.62055045,-0.00029665662,-0.12190193,-0.017895184,0.0019576852,-0.03109923,0.010502545,0.013906772,0.4366494,-1.4443885,1.9796666,-2.106622,-1.5681571,2.4091425,-0.08817425,0.21845338,-0.25204346,0.011080817,0.023431202,-0.10189912,-0.49799395,0.15322891,-9.193734,0.80679786,47.70032,-1.2286739,-1.4652574,-3.236548,-0.16265967,0.31043762,-0.4274074,25.25,25.8125,25.0625,27.4375,28.0625,28.375
0.25205207,-1.3109596,0.88578606,-0.29667026,0.018701987,0.052460603,-0.14580554,-0.38796896,-0.3300403,0.060068887,3.0764778,-0.62048703,-0.00030169857,-0.12362381,-0.016207542,0.0017708747,-0.031444356,0.009563355,0.016375631,0.43644354,-1.4439569,1.9791888,-2.1065977,-1.5681328,2.4089,-0.093169965,0.21948057,-0.25301078,0.011749175,0.024162449,-0.1093625,-0.4405331,0.22984336,-9.232041,0.86498255,47.68062,-1.0427902,-1.4797426,-3.1856449,-0.16326302,0.29521352,-0.3809715,25.25,25.8125,25.0625,27.4375,28.0625,28.375
0.2540523,-1.2012509,0.57635206,-0.68871003,0.0234252,0.07021208,-0.13824305,-0.38823363,-0.33007142,0.060074367,3.0764024,-0.62048626,-0.00033165843,-0.12342468,-0.017356552,0.0019276798,-0.032204017,0.0091963615,0.022463439,0.4362403,-1.443501,1.9786619,-2.1065857,-1.5680851,2.4087062,-0.091359414,0.22048171,-0.25476426,0.012530944,0.025023852,-0.11363714,-0.4405331,0.076614454,-9.385271,0.88289046,47.682407,-1.1742318,-1.3783467,-3.3064015,-0.14545573,0.2995249,-0.35529009,25.25,25.8125,25.0625,27.4375,28.0625,28.375
0.25605252,-1.8827837,0.35349527,-0.52835435,0.012103491,0.059877787,-0.13582633,-0.3884474,-0.330091,0.06005046,3.076408,-0.62036985,-0.00024038965,-0.123947695,-0.01619371,-2.813911e-05,-0.029920725,0.005606026,0.026858216,0.43605956,-1.4430565,1.9782065,-2.106538,-1.5680369,2.4084523,-0.09352152,0.22480157,-0.2553631,0.013057387,0.024483766,-0.12019465,-0.4213795,0.0,-9.385271,0.8940802,47.688675,-1.1310377,-1.6424756,-3.3833055,-0.15762213,0.30066478,-0.28759134,25.25,25.8125,25.0625,27.4375,28.0625,28.375
0.2580526,-2.0449142,-0.40340498,-0.23386319,0.0028678523,0.07299937,-0.13351546,-0.38869837,-0.3301344,0.06007442,3.0763597,-0.62020475,-0.00028307905,-0.123691015,-0.014764365,-0.0022626468,-0.026797878,0.0011914362,0.031411875,0.43589106,-1.4426363,1.9776686,-2.1064894,-1.5679892,2.4081872,-0.09523078,0.22846071,-0.25469282,0.014077871,0.0235451,-0.12645681,-0.47884035,0.038307227,-9.289502,0.8940802,47.668976,-1.0122408,-1.748522,-3.5242863,-0.16165572,0.3040104,-0.20869032,25.25,25.8125,25.0625,27.4375,28.0625,28.375
0.26005164,-1.3298243,-0.11920468,-0.49928576,0.0050476603,0.080233835,-0.13366424,-0.38894832,-0.33014458,0.060050774,3.07633,-0.62019724,-0.00022219351,-0.124865234,-0.01428055,-0.0022368375,-0.026416507,0.0019327927,0.031535733,0.43566284,-1.4421564,1.977178,-2.106465,-1.567942,2.4079583,-0.096606605,0.22959262,-0.2560739,0.013833712,0.02288716,-0.12795652,-0.38307226,0.0,-9.32781,0.88289046,47.67166,-1.0272906,-1.745044,-3.5122561,-0.14205363,0.30375075,-0.13178654,25.25,25.8125,25.0625,27.4375,28.0625,28.375
0.26205257,-1.0816884,0.23922817,-0.5032474,0.01705503,0.05501972,-0.13800669,-0.38921374,-0.33018374,0.06006987,3.076277,-0.6200141,-0.00031077245,-0.12721694,-0.014039244,-0.001293558,-0.02801955,0.0035266678,0.030662034,0.43548167,-1.4417251,1.9766496,-2.106465,-1.5679053,2.4076698,-0.09950932,0.23071715,-0.25966612,0.014191589,0.023680491,-0.12998097,-0.38307226,0.038307227,-9.289502,0.8717007,47.68062,-0.89172006,-1.7169012,-3.5291715,-0.1293291,0.29517806,-0.106869176,25.25,25.8125,25.0625,27.4375,28.0625,28.375
0.26405168,-1.1180015,0.098718524,-0.14479415,0.006279632,0.037170153,-0.13019025,-0.3894702,-0.33018863,0.060039215,3.0762753,-0.61999685,-0.00025595172,-0.1275421,-0.014010295,-0.0017372548,-0.028651675,0.0029103176,0.025211694,0.43525347,-1.4412212,1.9761475,-2.1064413,-1.567881,2.4074314,-0.100285955,0.23182565,-0.25986725,0.013569762,0.024501503,-0.12530708,-0.49799395,0.095768064,-9.193734,0.88960326,47.666286,-0.8322568,-1.7958866,-3.5281332,-0.12735437,0.29942763,-0.098022684,25.25,25.8125,25.0625,27.4375,28.0625,28.375
0.2660517,-1.1183425,-0.36965722,-0.2545196,0.0075008534,0.023719752,-0.12814674,-0.38971597,-0.33022496,0.06002839,3.0762029,-0.61998504,-0.00022006566,-0.12964638,-0.014555601,-0.0006636375,-0.030352354,0.0049506673,0.019938717,0.43506113,-1.4407539,1.975644,-2.1064298,-1.567809,2.407241,-0.101444624,0.23326239,-0.26408672,0.013785516,0.025172014,-0.121189475,-0.47884035,0.2681506,-9.155427,0.8806493,47.661808,-0.8013969,-1.7288281,-3.6131516,-0.11352296,0.281631,-0.13836782,25.25,25.8125,25.0625,27.4375,28.0625,28.375
0.26805174,-0.77349126,-0.522182,-0.44278198,0.0074028275,0.025577042,-0.13132355,-0.3899556,-0.33027142,0.060030162,3.0761492,-0.6198816,-0.00018372203,-0.13211063,-0.015262948,0.00063455704,-0.031396795,0.00787475,0.015156399,0.4348929,-1.4402986,1.9751166,-2.1063821,-1.567737,2.4070153,-0.10198071,0.23515268,-0.26934326,0.014061966,0.024872914,-0.11694005,-0.5363012,0.2681506,-9.136273,0.8672237,47.658226,-0.7997414,-1.5791397,-3.5408158,-0.108266525,0.3005232,-0.20285907,25.25,25.8125,25.0625,27.4375,28.0625,28.375
0.270052,-1.4173837,-1.1833265,-0.45363644,0.0046205563,0.0214994,-0.12414948,-0.39024404,-0.33028668,0.060039997,3.0761085,-0.61981636,-0.00026324092,-0.13363099,-0.015995199,0.0014365519,-0.032400735,0.008694053,0.011254407,0.43466505,-1.4398307,1.9745644,-2.1063693,-1.5677251,2.4067523,-0.102205634,0.23705134,-0.2737135,0.015362368,0.025436541,-0.113258645,-0.5746084,0.4405331,-9.232041,0.88289046,47.655537,-0.7829639,-1.5820096,-3.3915422,-0.109512836,0.28291857,-0.26254836,25.25,25.8125,25.0625,27.4375,28.0625,28.375
0.2720519,-1.2576138,-1.3336873,-0.43012437,-0.022729173,0.044975083,-0.12471857,-0.39048094,-0.33028883,0.059990115,3.076145,-0.6198631,-0.00010042475,-0.13311262,-0.016426923,0.00045183022,-0.032569714,0.005485881,0.008874731,0.43444908,-1.4392903,1.9740504,-2.1062849,-1.5677003,2.4065611,-0.10185527,0.23942207,-0.27455735,0.016669704,0.026927399,-0.11053006,-0.4405331,0.38307226,-9.232041,0.90527004,47.657326,-0.8511566,-1.6792313,-3.3476815,-0.11999742,0.27049333,-0.3124276,25.25,25.8125,25.0625,27.4375,28.0625,28.375
0.2740522,-1.2888813,-1.3677127,-0.501533,-0.043449674,0.063831344,-0.13238156,-0.39077938,-0.33034953,0.060029924,3.0760334,-0.61972606,-0.00019897948,-0.13358845,-0.016483845,0.0009563087,-0.03248978,0.005350973,0.0066517503,0.43425712,-1.4388233,1.9734277,-2.10626,-1.5676283,2.4062982,-0.10205178,0.23977624,-0.27664563,0.018567165,0.026924757,-0.10849963,-0.4405331,0.4213795,-9.308656,0.9231726,47.675243,-0.9449034,-1.665741,-3.3652463,-0.11724727,0.25547484,-0.37965244,25.25,25.8125,25.0625,27.4375,28.0625,28.375
0.2760524,-1.676472,-1.6794505,-0.3927386,-0.04538433,0.06776515,-0.1288738,-0.39103723,-0.3303654,0.060019273,3.076001,-0.6197381,-0.00016578133,-0.13416594,-0.01711007,0.0018840918,-0.03319921,0.006716211,0.0053203003,0.43404156,-1.438344,1.9729007,-2.1062124,-1.5675925,2.4060946,-0.101341076,0.23958878,-0.27886128,0.019436793,0.02699065,-0.106456734,-0.4213795,0.45968673,-9.346964,0.89631605,47.71465,-0.9984565,-1.509574,-3.3985565,-0.1405018,0.23269328,-0.43500522,25.25,25.8125,25.0625,27.4375,28.0625,28.375
0.27805245,-1.3161169,-1.4406165,-0.7330063,-0.034374207,0.06552756,-0.12385389,-0.3912978,-0.3303821,0.0599778,3.0759783,-0.6197735,-9.919508e-05,-0.13436012,-0.016178725,-0.00023044212,-0.031719074,0.0030897507,0.00285314,0.4338248,-1.4378037,1.9723862,-2.1062124,-1.5675558,2.405903,-0.10323599,0.24354893,-0.27854174,0.019077338,0.027172035,-0.10588479,-0.17238252,0.45968673,-9.385271,0.8717007,47.67166,-0.78779113,-1.6417675,-3.403373,-0.12810586,0.23395532,-0.49667758,25.25,25.8125,25.0625,27.4375,28.0625,28.375
0.28005177,-1.2516303,-0.85718286,-0.6838173,-0.040874384,0.035447154,-0.12899913,-0.39157072,-0.33045208,0.059987046,3.075864,-0.6197285,-6.745881e-06,-0.13475437,-0.017215291,-0.00016219384,-0.03268165,0.0030100725,0.0064344117,0.43363312,-1.4372768,1.9717516,-2.1061285,-1.5674242,2.405698,-0.10217109,0.24530461,-0.28085247,0.019324163,0.02808592,-0.108398646,-0.1340753,0.40222588,-9.481039,0.9030289,47.684196,-1.0038137,-1.612833,-3.577142,-0.13271774,0.22934997,-0.51737547,25.25,25.8125,25.0625,27.4375,28.0625,28.375
0.28205183,-0.85279816,-1.389468,-0.7109101,-0.022786565,0.024073752,-0.12771311,-0.39181122,-0.33046126,0.059940368,3.0758798,-0.6196922,7.7826524e-05,-0.13619182,-0.016445769,-0.0012153178,-0.03295817,0.0014553801,0.008565217,0.43342793,-1.4367602,1.9712723,-2.106117,-1.5673994,2.4054685,-0.105312556,0.24862932,-0.28216198,0.018625861,0.028995352,-0.1136705,-0.076614454,0.40222588,-9.308656,0.92093146,47.692257,-0.7014029,-1.6645241,-3.5794368,-0.11643964,0.21593668,-0.5019548,25.25,25.8125,25.0625,27.4375,28.0625,28.375
0.28405187,-0.3120637,-0.789049,-0.8939623,-0.008758955,0.0060301563,-0.12709756,-0.39214748,-0.33050457,0.05996979,3.0757983,-0.6196878,-6.1142615e-05,-0.1367871,-0.016835617,-0.0014189195,-0.033448774,0.0022714173,0.017881727,0.43321213,-1.4362206,1.9705905,-2.1060932,-1.5673875,2.4052608,-0.10507651,0.24995096,-0.28299388,0.017225856,0.029131407,-0.12274685,0.038307227,0.30645782,-9.346964,0.90750587,47.672558,-0.8521844,-1.7258283,-3.581618,-0.1060789,0.18412003,-0.43464333,25.25,25.8125,25.0625,27.4375,28.0625,28.375
0.28605235,0.34572637,-0.538245,-0.68894154,-0.0029324996,0.009218224,-0.13726385,-0.39240232,-0.33053547,0.059957907,3.0757463,-0.6194988,-2.6205347e-05,-0.13867055,-0.018167399,-0.0010158897,-0.034746975,0.0036412682,0.029235492,0.4329962,-1.4357517,1.9700879,-2.1060932,-1.5673035,2.4049337,-0.10455242,0.25352636,-0.2879903,0.01690874,0.029757276,-0.13357207,0.15322891,0.30645782,-9.404425,0.87617236,47.694946,-0.91870457,-1.8785284,-3.7051115,-0.07708967,0.18265969,-0.3664621,25.25,25.8125,25.0625,27.4375,28.0625,28.375
0.28805238,0.20834287,-0.3519454,-0.589183,0.010335414,0.000381628,-0.1285347,-0.39272177,-0.3305599,0.059973832,3.0756762,-0.6194409,-0.00010018663,-0.14003475,-0.01916615,0.00011753383,-0.03590906,0.005940912,0.036703475,0.4327448,-1.4352365,1.9694637,-2.1060688,-1.5672673,2.4046555,-0.10383832,0.25440037,-0.2917718,0.017275749,0.029873198,-0.14032167,0.22984336,0.2681506,-9.232041,0.9567419,47.667187,-0.9406338,-1.994149,-3.4197938,-0.064988196,0.15811995,-0.24227233,25.25,25.8125,25.0625,27.4375,28.0625,28.375
0.29005226,0.33385268,0.21479169,-0.80002266,0.024009319,-0.014386158,-0.13552679,-0.39298305,-0.33060426,0.05994387,3.0756817,-0.6193079,1.7449396e-05,-0.1415321,-0.018688932,-0.00013374508,-0.03607376,0.004686439,0.037801325,0.43256366,-1.4346608,1.9688648,-2.1059968,-1.5672067,2.4043908,-0.10633197,0.25712192,-0.29471678,0.018592836,0.030550862,-0.14391264,0.24899697,0.28730422,-9.270349,0.8717007,47.683304,-0.7578676,-1.9669983,-3.422285,-0.043686017,0.16558422,-0.16966397,25.25,25.8125,25.0625,27.4375,28.0625,28.375
0.29205224,0.24584639,0.16895574,-0.8979639,0.01657198,-0.017546661,-0.12064251,-0.3932473,-0.3306398,0.059937466,3.075632,-0.6191421,6.755655e-05,-0.14021663,-0.01984349,-0.0012640225,-0.03525224,0.001566356,0.04031554,0.43234882,-1.4341688,1.9683145,-2.1059601,-1.5671228,2.404079,-0.10336955,0.25973284,-0.29552728,0.01998484,0.031119734,-0.143463,0.22984336,0.2681506,-9.289502,0.8672237,47.667187,-1.0938517,-1.9899088,-3.368884,-0.052448407,0.14186826,-0.1422018,25.25,25.8125,25.0625,27.4375,28.0625,28.375
0.29405218,0.6946685,-0.30446503,-0.87120205,-0.007897448,-0.0057721958,-0.13280585,-0.3935341,-0.33067605,0.059937377,3.0755842,-0.6190593,9.3894465e-05,-0.14173713,-0.018774616,-0.0014074157,-0.03511685,0.0008218589,0.032943744,0.43213162,-1.4336413,1.9677042,-2.1059005,-1.5670623,2.4038165,-0.10662426,0.26138812,-0.2974261,0.020961601,0.03130318,-0.13934427,0.22984336,0.2681506,-9.442732,0.8940802,47.68599,-0.84488606,-2.018128,-3.4884012,-0.06284432,0.13281476,-0.15363583,25.25,25.8125,25.0625,27.4375,28.0625,28.375
0.2960522,-0.24499616,-1.8735423,-1.125886,-0.012642835,-0.014993562,-0.11472536,-0.39378446,-0.3307025,0.059893146,3.0756004,-0.618949,0.00024100007,-0.14210558,-0.019013928,-0.0011317632,-0.03412576,0.0012871829,0.028750094,0.4319282,-1.4330782,1.9671539,-2.1058404,-1.5670027,2.4035423,-0.10566969,0.26221228,-0.29939315,0.022097243,0.030187042,-0.1341988,0.15322891,0.28730422,-9.442732,0.9164598,47.672558,-1.0619634,-1.9972771,-3.4991167,-0.059042707,0.13632312,-0.2224141,25.25,25.8125,25.0625,27.4375,28.0625,28.375
0.29805243,0.12520267,-1.0399636,-1.0343349,-0.055658326,0.008419487,-0.1310148,-0.39409378,-0.33073416,0.059917983,3.0755274,-0.61887985,0.00015511311,-0.14262013,-0.019077282,-0.00080643763,-0.03431757,0.0011998682,0.022062728,0.43170014,-1.4325867,1.9665321,-2.1058037,-1.5669669,2.4032807,-0.106008306,0.2627374,-0.30112353,0.023289666,0.030396769,-0.12784655,0.05746084,0.2681506,-9.634268,0.9545008,47.65106,-1.0958312,-1.8895783,-3.5137143,-0.08468549,0.12025066,-0.28729928,25.25,25.8125,25.0625,27.4375,28.0625,28.375
0.30005258,-0.19065526,-1.4554378,-1.1744084,-0.04245168,0.016627662,-0.12691554,-0.39436454,-0.33079115,0.05990444,3.075485,-0.6187767,0.0002468758,-0.14378738,-0.018819839,-5.621676e-05,-0.034798574,0.0026454313,0.019914059,0.43151978,-1.4320238,1.9659089,-2.1057322,-1.566883,2.4030416,-0.10725192,0.26256415,-0.302877,0.023715816,0.030225221,-0.12694159,0.038307227,0.34476504,-9.576807,0.85826975,47.668976,-1.004644,-1.7988601,-3.5455627,-0.076717235,0.10009115,-0.32288375,25.25,25.8125,25.0625,27.4375,28.0625,28.375
0.30205187,-0.5126975,-1.1152074,-1.2495799,-0.033281583,0.026456958,-0.12511998,-0.3946705,-0.33082074,0.059919447,3.0753891,-0.61881334,0.00025334675,-0.14430453,-0.018830655,-0.00042780171,-0.034383994,0.001931835,0.01986602,0.43126762,-1.4315083,1.9652737,-2.1056597,-1.566811,2.4028249,-0.107499614,0.26446834,-0.30442515,0.024199301,0.030155329,-0.12713926,-0.05746084,0.34476504,-9.576807,0.85826975,47.637623,-1.0553743,-1.7622311,-3.658413,-0.082098804,0.0821989,-0.34040833,25.25,25.8125,25.0625,27.4375,28.0625,28.375
0.3040519,-0.6053712,-0.88312846,-1.0666806,-0.021391353,0.044282686,-0.1288849,-0.3949551,-0.33087972,0.05992025,3.0753338,-0.61864895,0.0002606093,-0.14510266,-0.018894542,-0.0006819913,-0.034597564,0.0015729951,0.018971683,0.43108734,-1.4309684,1.9646515,-2.105624,-1.566739,2.4025493,-0.10817945,0.26634783,-0.3061264,0.0242705,0.030503953,-0.12692216,-0.11492168,0.38307226,-9.710882,0.95002913,47.67345,-1.0290954,-1.9105667,-3.614244,-0.0924651,0.06341423,-0.35634357,25.25,25.8125,25.0625,27.4375,28.0625,28.375
0.30605197,-0.6242415,-0.33650392,-0.79229295,-0.0169831,0.0655264,-0.13411339,-0.39522785,-0.33091342,0.05989436,3.0752945,-0.6185823,0.00034260293,-0.14639226,-0.019067414,-0.00027141013,-0.035194486,0.0030344485,0.019329406,0.43087125,-1.4304172,1.9640769,-2.1055882,-1.566667,2.4022968,-0.108796604,0.26741168,-0.30830994,0.02383301,0.030434458,-0.12789649,-0.21068975,0.30645782,-9.557653,0.8940802,47.66808,-1.0438372,-1.7653328,-3.6567426,-0.086666636,0.06403793,-0.3729277,25.25,25.8125,25.0625,27.4375,28.0625,28.375
0.30805188,-1.2653171,-0.27949178,-1.0095899,0.00040664352,0.06827232,-0.12046586,-0.39553475,-0.330941,0.059889115,3.0752394,-0.61854994,0.00034214446,-0.14791368,-0.018828092,-0.0005930295,-0.034709867,0.0032296747,0.022854963,0.43063086,-1.4298652,1.9634541,-2.1055524,-1.5666188,2.4020436,-0.11006294,0.27025846,-0.31090513,0.023640906,0.029927697,-0.13268651,-0.15322891,0.21068975,-9.595961,0.93436235,47.672558,-1.043943,-1.9017122,-3.6741676,-0.073541135,0.051522978,-0.36771,25.25,25.8125,25.0625,27.4375,28.0625,28.375
0.31005195,-0.93114734,0.014812521,-0.9875628,0.012940609,0.066743,-0.13589951,-0.39583632,-0.3309829,0.05989952,3.0751772,-0.61843807,0.00032246494,-0.14938785,-0.018447733,-0.0007429663,-0.034083046,0.0035022066,0.028080206,0.43041423,-1.4293374,1.9628199,-2.1055043,-1.5665597,2.4017653,-0.111450255,0.27262285,-0.31343532,0.023864198,0.029268514,-0.13929696,-0.19153613,0.21068975,-9.672575,0.93436235,47.668976,-0.9808055,-1.8473535,-3.674809,-0.07720864,0.04426468,-0.29586047,25.25,25.8125,25.0625,27.4375,28.0625,28.375
0.31205198,-1.7911892,-0.38617125,-0.77837193,0.011870134,0.052087285,-0.1202062,-0.39612377,-0.33104888,0.059909955,3.0750911,-0.6182436,0.00034694967,-0.15049505,-0.01792073,-0.001750453,-0.032415096,0.002441171,0.03384207,0.43022195,-1.4288088,1.9621848,-2.1054566,-1.5664519,2.4014628,-0.11254861,0.2762708,-0.31543392,0.023927962,0.02822113,-0.14615571,-0.22984336,0.1340753,-9.576807,0.947788,47.658226,-0.97576416,-2.0080428,-3.6342864,-0.07224221,0.037398484,-0.22042479,25.25,25.8125,25.0625,27.4375,28.0625,28.375
0.31405202,-1.3602659,0.41931108,-0.46404532,-0.0061737536,0.053916633,-0.13007824,-0.39643925,-0.3310584,0.05989262,3.07507,-0.61821514,0.00035348255,-0.15201487,-0.018628364,-0.0003193297,-0.032176,0.006135156,0.041685745,0.4299584,-1.4282339,1.9615625,-2.1054204,-1.5664285,2.4011846,-0.11127218,0.2765627,-0.31926093,0.024249794,0.026480263,-0.15272343,-0.2873042,0.15322891,-9.442732,0.9164598,47.667187,-1.0057431,-2.071184,-3.6757097,-0.04861263,0.053426675,-0.1097173,25.25,25.8125,25.0625,27.4375,28.0625,28.375
0.3160521,-1.0171559,0.147947,-0.8267232,0.008625361,0.067520134,-0.12868729,-0.39676067,-0.33111566,0.059907857,3.0749989,-0.6180663,0.00030088666,-0.15360603,-0.017555911,-0.00027769647,-0.031285435,0.006628748,0.042113584,0.42975342,-1.4276708,1.9608792,-2.1053846,-1.5663689,2.400896,-0.11379097,0.27787736,-0.32111162,0.024739016,0.025487168,-0.15566862,-0.36391866,0.21068975,-9.500193,0.94331104,47.658226,-0.84443593,-1.9743466,-3.579939,-0.06784165,0.07765075,-0.077969685,25.25,25.8125,25.0625,27.4375,28.0625,28.375
0.31805226,-1.5177408,-0.21168193,-0.7834225,-0.0033488115,0.0698729,-0.12871914,-0.39705396,-0.33113512,0.059901103,3.07502,-0.61789834,0.00033997072,-0.1539224,-0.018565552,0.0010814506,-0.031622108,0.009104475,0.03969284,0.42952648,-1.4271194,1.960245,-2.1052878,-1.5663446,2.4005618,-0.111616924,0.27688652,-0.32344395,0.025664037,0.024748424,-0.15107466,-0.68953013,0.17238252,-9.481039,0.8717007,47.675243,-1.1348432,-2.0188074,-3.591511,-0.059154138,0.06774008,-0.0794739,25.25,25.8125,25.0625,27.4375,28.0625,28.375
0.32005242,-1.8421036,-0.0999283,-0.50397134,-0.017664025,0.07773633,-0.12958142,-0.39735147,-0.3311808,0.059902847,3.0749545,-0.6177552,0.00039620846,-0.15528265,-0.01773479,0.0012849733,-0.03052892,0.009249613,0.033225894,0.42929783,-1.4265692,1.9595984,-2.1052158,-1.5662493,2.4002523,-0.11345408,0.27817306,-0.32585055,0.02711113,0.023687415,-0.14644498,-0.61291564,0.11492168,-9.423578,0.9030289,47.674347,-0.9157127,-1.7664385,-3.5289068,-0.08372044,0.07385609,-0.11275832,25.25,25.8125,25.0625,27.4375,28.0625,28.375
0.32205245,-1.2569319,-0.03171434,-0.43073368,-0.010401699,0.0899537,-0.13455978,-0.39768174,-0.3312162,0.059916247,3.0749042,-0.61768985,0.0003256221,-0.15617537,-0.018236443,0.002453644,-0.030836333,0.011596637,0.027075728,0.42906997,-1.4260061,1.9589156,-2.105168,-1.5662259,2.3999906,-0.112699226,0.2777624,-0.32833835,0.027728785,0.022981677,-0.13953853,-0.5554548,0.095768064,-9.481039,0.97464454,47.657326,-1.0984733,-1.6157336,-3.5927882,-0.08363177,0.09940711,-0.16698535,25.25,25.8125,25.0625,27.4375,28.0625,28.375
0.32405254,-1.072836,1.033083,-0.54193926,-0.011993144,0.08037023,-0.13517067,-0.39798406,-0.33125383,0.059911013,3.0748522,-0.6176054,0.00031069302,-0.15754572,-0.017695114,0.002473152,-0.03092674,0.011659451,0.020426702,0.42885348,-1.4254543,1.9582933,-2.1051443,-1.5661772,2.3997283,-0.11473861,0.2792677,-0.33033016,0.02811195,0.023032118,-0.13492692,-0.5554548,0.17238252,-9.481039,0.91198283,47.68599,-1.0922383,-1.5819441,-3.536405,-0.093708575,0.10469644,-0.23760107,25.25,25.8125,25.0625,27.4375,28.0625,28.375
0.32605168,-0.9460418,0.41465017,-0.6621219,0.01281793,0.065858394,-0.13006003,-0.39833686,-0.3312837,0.059907805,3.0748243,-0.61748695,0.0002982633,-0.15779227,-0.017683186,0.0018743577,-0.030892106,0.010380814,0.014642788,0.42858922,-1.4248191,1.9575628,-2.1050837,-1.5661415,2.399394,-0.11513923,0.28103575,-0.33120874,0.028385153,0.023525346,-0.12954175,-0.40222588,0.05746084,-9.481039,0.9410752,47.692257,-1.0225737,-1.485242,-3.566711,-0.0938212,0.09781091,-0.3405968,25.25,25.8125,25.0625,27.4375,28.0625,28.375
0.32805184,-0.6181439,0.7128422,-0.5639222,0.00904053,0.055632953,-0.12691405,-0.3986458,-0.33131233,0.059916705,3.074761,-0.6174794,0.0002576673,-0.15890671,-0.015735576,0.0003352084,-0.028692417,0.0070411833,0.00671516,0.42835972,-1.424291,1.9569291,-2.1050355,-1.5661057,2.3991683,-0.1190805,0.28454867,-0.33216646,0.029776068,0.022912985,-0.12555459,-0.38307226,0.019153614,-9.461885,0.9231726,47.687782,-0.84698963,-1.577272,-3.7317524,-0.116447255,0.105715185,-0.3868608,25.25,25.8125,25.0625,27.4375,28.0625,28.375
0.3300519,-0.47504666,0.39655584,-0.66119725,0.028557766,0.038787566,-0.12734418,-0.3989907,-0.3313473,0.059946317,3.074637,-0.6175281,0.00017621543,-0.160108,-0.016717453,0.00036249522,-0.027773911,0.0076747998,0.007171259,0.42809656,-1.4237508,1.9562343,-2.1049879,-1.5660461,2.3989518,-0.1174468,0.28814203,-0.3366339,0.030467337,0.021820663,-0.12437415,-0.38307226,-0.019153614,-9.423578,1.0126908,47.666286,-0.96044135,-1.7931194,-3.6993675,-0.11727764,0.13680945,-0.47738415,25.25,25.8125,25.0625,27.4375,28.0625,28.375
0.33205172,-0.573835,0.4650731,-0.7234977,0.030248169,0.03088895,-0.12460232,-0.39930886,-0.3313874,0.05994831,3.0746212,-0.6174284,0.00010197187,-0.16205108,-0.016316673,-0.00010825355,-0.027237488,0.0069284556,0.008031858,0.42790386,-1.4231744,1.9555634,-2.1049511,-1.5660461,2.3986993,-0.11956339,0.29211423,-0.34042272,0.031204205,0.021656089,-0.12734844,-0.21068975,0.05746084,-9.404425,0.9186956,47.687782,-0.80959916,-1.8543684,-3.5837302,-0.111461,0.15792017,-0.49887556,25.25,25.8125,25.0625,27.4375,28.0625,28.375
0.33405194,-0.31517333,0.34260017,-0.5055791,0.015535297,0.04420868,-0.12937927,-0.39963245,-0.33140534,0.059937056,3.0745857,-0.6173962,0.0001741224,-0.16313528,-0.016959904,0.00060498127,-0.028566897,0.008253566,0.015447067,0.4276278,-1.4225732,1.9548806,-2.1048553,-1.565986,2.398408,-0.11959252,0.29289955,-0.3431661,0.03145098,0.022337692,-0.13479099,-0.15322891,0.038307227,-9.346964,0.947788,47.693153,-0.89547753,-1.8525096,-3.4829993,-0.12797071,0.15683863,-0.4647712,25.25,25.8125,25.0625,27.4375,28.0625,28.375
0.3360523,-0.5410062,0.041341987,-0.7034322,0.011442964,0.040959377,-0.12253795,-0.39995828,-0.33143818,0.059939,3.0745733,-0.6172535,0.0001543469,-0.16349612,-0.017199673,0.00037334472,-0.028248716,0.0067044343,0.025120875,0.42740002,-1.4219841,1.9541863,-2.1047828,-1.5659612,2.398093,-0.11957552,0.29502207,-0.34568122,0.033437405,0.02272939,-0.14444575,-0.11492168,0.19153613,-9.270349,0.9701675,47.716442,-0.9619664,-1.8085954,-3.4666557,-0.14880459,0.16798356,-0.3833667,25.25,25.8125,25.0625,27.4375,28.0625,28.375
0.3380524,-0.08394129,-0.11446784,-0.5633823,-0.011123247,0.0618024,-0.13273579,-0.40028244,-0.33146662,0.05994135,3.0745149,-0.61717826,0.00019053003,-0.16529371,-0.017490515,0.0019786367,-0.029324073,0.009170392,0.034482513,0.42713574,-1.4214076,1.9535025,-2.104698,-1.5658897,2.3977895,-0.12038941,0.2949967,-0.34982488,0.03498122,0.022722185,-0.15461963,-0.21068975,0.26815057,-9.346964,0.7553206,47.687782,-0.9579735,-1.773748,-3.373273,-0.18120809,0.17535688,-0.28847224,25.25,25.8125,25.0625,27.4375,28.0625,28.375
0.34005228,-1.030742,-1.1211051,-0.661878,-0.014037815,0.046420425,-0.12222257,-0.40060696,-0.3315114,0.05996198,3.0744789,-0.61701345,0.000108671666,-0.1645287,-0.017177114,0.0012159407,-0.02823855,0.007399714,0.04129237,0.42693183,-1.4208552,1.9528102,-2.1046388,-1.5658659,2.3974876,-0.12005256,0.29545146,-0.34893164,0.035734568,0.02250916,-0.16109227,-0.17238252,0.34476504,-9.308657,0.85826975,47.67793,-1.0102162,-1.5881122,-3.4859622,-0.19385359,0.19423082,-0.20042744,25.25,25.8125,25.0625,27.4375,28.0625,28.375
0.3420523,-0.5568971,-1.0398526,-0.8139915,-0.041934535,0.061400447,-0.12689234,-0.40098354,-0.33154646,0.06000806,3.0743978,-0.6169761,-1.4659109e-05,-0.16401957,-0.0161878,0.00046803782,-0.025972525,0.004347177,0.04259107,0.42666748,-1.4202776,1.952022,-2.1045415,-1.565842,2.3972108,-0.12077001,0.29642406,-0.3491958,0.03876526,0.021745937,-0.16310818,-0.095768064,0.45968673,-9.442732,0.8851263,47.711964,-0.9689702,-1.5875275,-3.717413,-0.22843784,0.22425905,-0.15997225,25.25,25.8125,25.0625,27.4375,28.0625,28.375
0.34405234,-1.1607449,-2.1303127,-1.0598426,-0.039171223,0.02631334,-0.110929966,-0.40130314,-0.3315467,0.059986234,3.0743995,-0.61692345,6.375645e-05,-0.16359267,-0.016286125,0.00055541657,-0.026377182,0.0034794854,0.036792934,0.4263796,-1.4196777,1.951363,-2.1044457,-1.5658058,2.3968902,-0.120545074,0.29593244,-0.34926578,0.03993031,0.022453262,-0.15708509,-0.15322891,0.4405331,-9.576807,0.97464454,47.677036,-1.040315,-1.4414034,-3.7906659,-0.2730794,0.2523226,-0.17928661,25.25,25.8125,25.0625,27.4375,28.0625,28.375
0.34605253,-0.32167688,-1.7343434,-0.7581583,-0.060024064,0.03054631,-0.11783105,-0.40161058,-0.3315895,0.059983186,3.0743704,-0.6167484,9.009489e-05,-0.1661791,-0.01706292,0.0011418479,-0.028610874,0.0068817507,0.028910462,0.42616335,-1.4191004,1.9506925,-2.1043746,-1.5657452,2.3965685,-0.12153191,0.29835325,-0.3528791,0.03708024,0.023048993,-0.1501854,-0.24899697,0.4213795,-9.308657,0.9612189,47.71017,-1.0011593,-1.3972259,-3.7368245,-0.2870178,0.25891218,-0.24325578,25.25,25.8125,25.0625,27.4375,28.0625,28.375
0.34805173,0.2741724,-1.1516829,-1.0091037,-0.05331675,0.022505479,-0.1320244,-0.40193954,-0.33162668,0.059985545,3.0743256,-0.61668277,6.349703e-05,-0.16740891,-0.017915646,-7.7873214e-05,-0.02909721,0.00589963,0.024956256,0.42593545,-1.4185098,1.9499968,-2.1043155,-1.5657095,2.3963058,-0.12140727,0.30352738,-0.35584173,0.035549887,0.023884391,-0.14610162,0.0,0.36391866,-9.481039,0.9455522,47.684196,-1.0083952,-1.5778282,-3.7146292,-0.2802566,0.2759108,-0.30836952,25.25,25.8125,25.0625,27.4375,28.0625,28.375
0.35005194,-0.5411526,-1.1460408,-1.0668905,-0.037765376,0.00083417876,-0.12058324,-0.40226758,-0.33165154,0.059973404,3.0742855,-0.61663735,0.000120669356,-0.169466,-0.01765134,9.902856e-05,-0.029453918,0.006152545,0.02227023,0.42567062,-1.4178964,1.9493021,-2.1042316,-1.5656494,2.396018,-0.12357179,0.30625507,-0.35973024,0.036345005,0.024100525,-0.14557801,0.0,0.47884035,-9.481039,0.8672237,47.679718,-0.9757442,-1.7539716,-3.6843052,-0.30374563,0.28862026,-0.33962274,25.25,25.8125,25.0625,27.4375,28.0625,28.375
0.35205206,-0.7116656,-1.2689177,-0.7609088,-0.035027165,0.0067675514,-0.12633897,-0.40263584,-0.33169842,0.059998948,3.074207,-0.6165432,4.636964e-05,-0.17052074,-0.020011494,0.0008811085,-0.0319702,0.0076393415,0.023674866,0.4254198,-1.4172826,1.9485234,-2.1041596,-1.5656003,2.3957188,-0.12110432,0.30879372,-0.36457273,0.03625802,0.025782278,-0.14450708,0.11492168,0.61291564,-9.481039,0.9925471,47.674347,-1.0992781,-1.6802564,-3.3480208,-0.3013824,0.28937542,-0.367747,25.25,25.8125,25.0625,27.4375,28.0625,28.375
0.35405204,-0.1259201,-1.1514081,-0.69771904,-0.034876596,0.026475098,-0.124248184,-0.40297714,-0.33173516,0.06001926,3.0741396,-0.61645436,2.742142e-05,-0.1729499,-0.018886158,0.00036943046,-0.033346526,0.007055659,0.018828351,0.42516586,-1.4167055,1.9477929,-2.1040637,-1.5655397,2.3954184,-0.12594771,0.3117827,-0.36682194,0.03549229,0.02728346,-0.14449798,0.038307227,0.57460845,-9.423578,0.92764956,47.65912,-0.8487567,-1.7978749,-3.4715285,-0.30844736,0.27624023,-0.38346213,25.25,25.8125,25.0625,27.4375,28.0625,28.375
0.35605237,-0.34635136,-0.8827991,-0.9698718,-0.035125338,0.01929391,-0.12612829,-0.40332523,-0.33176318,0.060031973,3.0741098,-0.61636686,-8.752169e-06,-0.17265369,-0.019375116,0.0005827058,-0.03393085,0.007699821,0.02564223,0.42491448,-1.4161048,1.9470524,-2.1039684,-1.5655159,2.3951166,-0.124858,0.311191,-0.36673662,0.035209615,0.02758222,-0.15022093,-0.095768064,0.5554548,-9.423578,0.9298854,47.65912,-1.007859,-1.8538128,-3.6350994,-0.31880754,0.28086406,-0.3801173,25.25,25.8125,25.0625,27.4375,28.0625,28.375
0.35805234,-0.8465277,-1.2120678,-0.5414859,-0.05242162,0.037560534,-0.1348769,-0.40367317,-0.3318226,0.060046665,3.0740013,-0.61622685,-4.253463e-05,-0.17365587,-0.018855877,0.00025437528,-0.03396292,0.0073205484,0.029928872,0.42467391,-1.4155041,1.9463209,-2.1039321,-1.56542,2.3948028,-0.1266066,0.3127957,-0.3680182,0.03527076,0.027806941,-0.15625286,0.0,0.5554548,-9.3661175,0.92764956,47.6636,-0.8794514,-1.640086,-3.6395574,-0.3142668,0.2928092,-0.32278198,25.25,25.8125,25.0625,27.4375,28.0625,28.375
0.3600522,-0.42731547,-1.0442084,-0.2996361,-0.06349118,0.054620124,-0.13956732,-0.40403715,-0.33186343,0.060042568,3.073947,-0.6161141,-4.475783e-05,-0.17395803,-0.018952696,-0.0011265476,-0.03303565,0.005611356,0.03924573,0.42440993,-1.4148422,1.945556,-2.103873,-1.56536,2.3944757,-0.12645431,0.31640348,-0.36909467,0.034744486,0.027709316,-0.165416,0.095768064,0.4213795,-9.32781,0.9679317,47.67793,-0.8688995,-1.5543598,-3.7255845,-0.33492798,0.32024664,-0.226204,25.25,25.8125,25.0625,27.4375,28.0625,28.375
0.36205217,-0.5538316,-1.0369014,-0.5067764,-0.040578973,0.03791097,-0.13074017,-0.4044052,-0.33189088,0.06006646,3.0739112,-0.6159695,-0.00018107591,-0.17585658,-0.01887974,-0.00056147977,-0.034632016,0.0075335996,0.04327093,0.4241571,-1.414253,1.9448131,-2.1038253,-1.5653595,2.3941376,-0.12842956,0.31740123,-0.37147093,0.033750493,0.02841137,-0.17141093,0.0,0.40222588,-9.3661175,1.005978,47.66539,-0.9249623,-1.6742501,-3.700757,-0.32004753,0.33455193,-0.114949554,25.25,25.8125,25.0625,27.4375,28.0625,28.375
0.36405233,-0.44263393,-0.58762306,-0.029828498,-0.049594298,0.036974914,-0.12855795,-0.4047521,-0.3319248,0.060064513,3.0738688,-0.61582255,-0.00017156386,-0.17646514,-0.022012927,0.00056619395,-0.037404906,0.010864134,0.04834907,0.42389506,-1.4136282,1.9440826,-2.1037543,-1.5652989,2.3937895,-0.12386906,0.31889,-0.375578,0.032209046,0.029569862,-0.17192276,-0.21068975,0.4405331,-9.251195,0.9992599,47.658226,-1.0747731,-1.5612459,-3.6595254,-0.31228322,0.3255304,-0.059817806,25.25,25.8125,25.0625,27.4375,28.0625,28.375
0.36605266,-0.7187954,-0.3424786,-0.0792563,-0.015011398,0.013317975,-0.13472353,-0.40508932,-0.33200026,0.060052168,3.0737798,-0.61555976,-0.00015255413,-0.1800118,-0.022486482,0.0028463874,-0.040917322,0.016207473,0.040873215,0.42367804,-1.4129791,1.943364,-2.1037548,-1.5651792,2.39342,-0.126399,0.31899458,-0.38080156,0.03100974,0.030558294,-0.16697003,-0.21068975,0.38307226,-9.136273,0.9321212,47.666286,-0.9384048,-1.53968,-3.5538044,-0.28553736,0.32289287,-0.08631261,25.25,25.8125,25.0625,27.4375,28.0625,28.375
0.36805162,-0.6445577,0.30510372,-0.2882906,0.0027251937,0.020395039,-0.1354963,-0.40546092,-0.33205062,0.060084965,3.0736842,-0.6155046,-0.00021823855,-0.18080962,-0.023310242,0.002690349,-0.041341342,0.016559498,0.034905225,0.42342636,-1.412366,1.9425615,-2.103659,-1.5651191,2.3931465,-0.1255506,0.3214328,-0.383336,0.030590294,0.030789096,-0.16014892,-0.28730422,0.38307226,-9.136273,0.9925471,47.68599,-1.1372743,-1.4482328,-3.4655828,-0.25787148,0.3311617,-0.15832122,25.25,25.8125,25.0625,27.4375,28.0625,28.375
0.3700526,-0.15093206,0.21295124,-0.329824,0.006210384,0.037601203,-0.1346527,-0.4057974,-0.33207437,0.060050026,3.0737019,-0.61547536,-0.00015725144,-0.18207432,-0.023328425,0.0021527065,-0.04169453,0.015550792,0.024684519,0.42318594,-1.4116802,1.9418315,-2.103575,-1.5651063,2.392886,-0.1268429,0.3246322,-0.38606852,0.030855821,0.03148483,-0.15121844,-0.3256114,0.40222588,-9.212888,0.95226496,47.66808,-1.0937426,-1.5248682,-3.5292652,-0.27074012,0.3172984,-0.24768883,25.25,25.8125,25.0625,27.4375,28.0625,28.375
0.37205252,-1.1044656,-0.2528227,-0.21601817,-0.0023084234,0.036128085,-0.12945169,-0.40619984,-0.33215302,0.060122047,3.073528,-0.61532664,-0.00036736947,-0.18245259,-0.022491196,0.000742845,-0.040596332,0.012585523,0.019284373,0.42294538,-1.4111027,1.9409937,-2.1035388,-1.5650223,2.3925753,-0.12863614,0.3276899,-0.38672325,0.031606946,0.031726502,-0.14760369,-0.30645782,0.40222588,-9.212888,1.005978,47.62867,-1.0135977,-1.5444932,-3.6201673,-0.27297184,0.33528143,-0.30529547,25.25,25.8125,25.0625,27.4375,28.0625,28.375
0.37405244,-1.4091465,-0.9385813,-0.12678143,-0.020244755,0.063952535,-0.1282691,-0.4065223,-0.33217755,0.06007295,3.073531,-0.6152726,-0.00019127048,-0.18247266,-0.021962594,-0.00041661842,-0.040004876,0.009857178,0.014454018,0.42268085,-1.410405,1.940276,-2.1034305,-1.5649508,2.3922768,-0.12980121,0.3299019,-0.38704535,0.032444146,0.032286298,-0.14393975,-0.5554548,0.4213795,-9.32781,0.99702406,47.639416,-0.97713983,-1.678118,-3.66693,-0.27666134,0.35130987,-0.40591824,25.25,25.8125,25.0625,27.4375,28.0625,28.375
