Tylouw/Master_Thesis_Code/training_data/batch_1/big_rod_t0.1/sample_30_session_2.csv
timestamp[s],tcp_force_x[N],tcp_force_y[N],tcp_force_z[N],tcp_force_rx[Nm?],tcp_force_ry[Nm?],tcp_force_rz[Nm?],tcp_pose_x[m],tcp_pose_y[m],tcp_pose_z[m],tcp_pose_rx[rot_vec_x],tcp_pose_ry[rot_vec_y],tcp_pose_rz[rot_vec_z],tcp_velo_x[m/s],tcp_velo_y[m/s],tcp_velo_z[m/s],tcp_velo_rx[rot_vec_x/s],tcp_velo_ry[rot_vec_y/s],tcp_velo_rz[rot_vec_z/s],q1[rad],q2[rad],q3[rad],q4[rad],q5[rad],q6[rad],qd1[rad/s],qd2[rad/s],qd3[rad/s],qd4[rad/s],qd5[rad/s],qd6[rad/s],tool_acc_x,tool_acc_y,tool_acc_z,current_of_whole_robot[A],voltage_of_whole_robot[V],current_J1[A],current_J2[A],current_J3[A],current_J4[A],current_J5[A],current_J6[A],temp_J1[C],temp_J2[C],temp_J3[C],temp_J4[C],temp_J5[C],temp_J6[C]
7.429626e-07,-0.95096165,-1.2506931,-0.5295479,-0.03960981,0.04345575,-0.0015067525,-0.37361893,-0.3287915,0.059922125,-3.0784464,0.6248357,-0.0003166881,-0.0018570841,-0.0009674867,0.00010121228,-0.0026212523,0.0049761618,9.797527e-05,0.44857025,-1.4686581,2.0071418,-2.1074193,-1.5706857,2.4234748,0.0,0.0012108095,-4.2170054e-06,-0.006827946,0.00018832668,-9.614239e-05,-0.019153614,0.076614454,-8.772355,0.7284641,47.703007,-0.0030954545,-2.6915085,-2.3709602,-0.4958055,0.14943464,-0.12653472,24.5,24.9375,24.25,26.0625,26.125,26.375
0.002052543,-0.87322336,-0.92048526,-0.31803414,-0.035735507,0.038720496,-0.0011545621,-0.37363443,-0.32879925,0.05993537,-3.0784874,0.62484455,-0.00032378087,-0.0013084317,-0.00069939374,-0.00240149,-0.0021869978,0.0040815393,9.554283e-05,0.44854617,-1.4686571,2.007108,-2.1074083,-1.5706495,2.423451,0.0,0.0037686683,0.004249856,-0.012645405,0.00018093809,-9.4131225e-05,0.019153614,-0.019153614,-8.619126,0.7329411,47.67166,-0.042827472,-2.6606333,-2.4274876,-0.4795621,0.14482477,-0.1257416,24.5,24.9375,24.25,26.0625,26.125,26.375
0.004052269,-1.0077049,-1.0108336,-0.39190394,-0.022543106,0.026701476,0.0036898043,-0.3736423,-0.32879874,0.05992464,-3.0785043,0.624867,-0.00024982105,-0.0017826097,-0.0009263842,-0.0022704878,-0.0029925783,0.005762225,9.404666e-05,0.44854617,-1.4686573,2.0071547,-2.107505,-1.5706614,2.4234629,0.0,0.0036659217,0.00452833,-0.014684888,0.00017395485,-9.2202456e-05,0.019153614,0.0,-8.580819,0.7530795,47.677036,-0.006985849,-3.0111115,-2.794499,-0.381215,0.15044886,-0.1219542,24.5,24.9375,24.25,26.0625,26.125,26.375
0.006052585,-0.31873053,-0.10110751,-0.5561322,-0.010005616,0.015242217,-0.00786822,-0.37363362,-0.32880738,0.059915695,-3.078514,0.62481135,-0.0002528884,-0.0013923657,-0.0007350091,-0.0013676021,-0.002250507,0.0042505832,9.175339e-05,0.44857025,-1.4686457,2.0071676,-2.107527,-1.5706614,2.423451,0.0,0.002489644,0.0026753969,-0.009971738,0.00016748,-9.035131e-05,0.05746084,0.05746084,-8.6574335,0.7172743,47.686886,-0.021822328,-2.9643304,-2.608235,-0.40036976,0.14124623,-0.13519418,24.5,24.9375,24.25,26.0625,26.125,26.375
0.008051993,0.112066895,-0.13601041,-1.0941391,0.028890517,-0.00684731,-0.0016919272,-0.37362453,-0.328803,0.059902478,-3.0784783,0.6248423,-0.00031228786,-0.0015824204,-0.00082463684,0.0001275924,-0.002365997,0.004512597,9.00483e-05,0.44857025,-1.4686226,2.0071666,-2.1075017,-1.5706614,2.4234748,0.0,0.0007981561,0.00022672646,-0.006117731,0.00016146942,-8.8572684e-05,0.05746084,0.0,-8.7532015,0.7642693,47.666286,-0.024024043,-2.81466,-2.5215344,-0.42411828,0.14035578,-0.12610438,24.5,24.9375,24.25,26.0625,26.125,26.375
0.0100522265,-0.20362663,0.16062902,-1.5779294,0.021627828,-0.024141805,0.0033622743,-0.37362295,-0.3287998,0.05990425,-3.0784662,0.6248398,-0.00027489086,-0.00096951233,-0.0005303141,6.725612e-05,-0.0014460112,0.002626007,9.613834e-05,0.44858217,-1.4686344,2.007178,-2.1075127,-1.5706857,2.4234867,8.416937e-06,0.00060509547,3.0418248e-06,-0.00360204,0.00015587569,-8.6863e-05,0.095768064,0.076614454,-8.983045,0.68146914,47.623295,-0.30469307,-2.0347276,-3.2805924,-0.44683844,0.14601466,-0.15313932,24.5,24.9375,24.25,26.0625,26.125,26.375
0.012052386,-0.38665155,-0.8796399,-1.5857868,-0.01327888,0.001995152,0.0033479757,-0.3736126,-0.3288037,0.059884496,-3.078466,0.62489814,-0.00040758855,-0.0024898585,-0.0012636072,-0.0013114653,3.1858876e-06,-0.0003932171,0.000118842174,0.4485582,-1.4685965,2.0071762,-2.1074884,-1.5706257,2.423499,1.12923935e-07,0.008178246,-0.0054348335,-0.0023882897,0.00015065631,-0.000113773975,0.11492168,0.038307227,-9.174581,0.72622824,47.67166,-0.36296597,-1.9451911,-3.467019,-0.44953364,0.123480715,-0.18089384,24.5,24.9375,24.25,26.0625,26.125,26.375
0.014051823,-1.3322115,-2.3465757,-1.6671325,-0.04321771,0.016628448,0.0075645377,-0.3736174,-0.32879058,0.059869695,-3.0783787,0.62486166,-0.00044332384,-0.0046551437,-0.001427781,-0.003320549,0.0022336298,-0.005038158,-0.0013621836,0.4485698,-1.4685326,2.007126,-2.1074278,-1.5706857,2.423499,-0.0016645431,0.017905401,-0.011964238,-0.00043337132,0.00014577566,-0.00029253244,0.019153614,0.15322891,-9.289503,0.77545905,47.666286,-0.4316529,-2.6363077,-3.1380682,-0.4276374,0.1285772,-0.2043452,24.5,24.9375,24.25,26.0625,26.125,26.375
0.016051672,-2.028901,-2.7826366,-1.7413373,-0.0855587,0.047147427,0.010020161,-0.37361526,-0.3287785,0.05986164,-3.0783446,0.62487197,-0.00047700512,-0.0058623957,-0.0011388179,-0.0028980314,0.001942152,-0.004377491,0.0012877784,0.44855714,-1.4685204,2.0071256,-2.1074035,-1.5706977,2.4234972,-0.0032851666,0.018576564,-0.013762895,-2.8296052e-05,0.00011669601,-0.004562004,-0.15322891,0.3256114,-9.442732,0.7777002,47.666286,-0.34802,-2.4646957,-3.37597,-0.44344902,0.10950793,-0.17036179,24.5,24.9375,24.25,26.0625,26.125,26.375
0.018052481,-1.5862321,-3.076131,-1.9856437,-0.11054692,0.09601836,-0.0108994935,-0.37361792,-0.32879284,0.059854977,-3.0783842,0.6247827,-0.000527696,-0.0051383404,-0.0008484498,-0.0027903733,0.0031340548,-0.006825388,0.0038086246,0.4485571,-1.4684846,2.0071013,-2.107402,-1.5706614,2.4234364,-0.0031675037,0.018341238,-0.014622596,0.0037891872,0.00010976762,-0.006965811,-0.17238252,0.49799395,-9.557653,0.77545905,47.675243,-0.36827552,-2.1868238,-3.4121852,-0.46288407,0.113143034,-0.16904163,24.5,24.9375,24.25,26.0625,26.125,26.375
0.020051708,-2.2646573,-3.321424,-2.048846,-0.12085278,0.09044758,-0.006641269,-0.37360057,-0.32878458,0.05982318,-3.0783477,0.6248145,-0.0006814099,-0.0058904006,-0.0013424109,-0.002971795,0.0033489699,-0.0072753048,0.0035431527,0.44853315,-1.4684358,2.0071123,-2.1073663,-1.5706257,2.4234369,-0.0029237887,0.020938369,-0.017161561,0.00422995,0.00010630541,-0.006454829,-0.3256114,0.7661445,-9.710882,0.7665104,47.661808,-0.56104666,-2.281787,-3.502003,-0.48305267,0.10278623,-0.17333758,24.5,24.9375,24.25,26.0625,26.125,26.375
0.022051811,-2.560911,-3.819673,-2.260915,-0.11244398,0.08347856,-0.009031345,-0.373618,-0.32878447,0.059830476,-3.0783339,0.62479275,-0.00065689936,-0.007005212,-0.0020023326,-0.002506853,0.0023818165,-0.0052295616,0.002892096,0.4485332,-1.4684114,2.0070636,-2.1073434,-1.5706495,2.4234252,-0.0026843084,0.021930639,-0.01899425,0.0028076242,8.412285e-05,-0.0055625816,-0.47884035,0.80445176,-9.844957,0.8023209,47.634937,-0.64502835,-2.23693,-3.4527555,-0.48141748,0.10187128,-0.2137686,24.5,24.9375,24.25,26.0625,26.125,26.375
0.024051875,-2.0102656,-3.4929976,-2.4861324,-0.11789153,0.08775369,-0.021603746,-0.37365836,-0.32878673,0.05983699,-3.0783277,0.6248111,-0.0006310425,-0.0087389825,-0.0021967224,-0.001988458,0.0015277854,-0.0034534503,0.002254803,0.44850877,-1.4683511,2.0069797,-2.1073315,-1.5706614,2.423413,-0.003890221,0.023384463,-0.021593837,0.0019824894,7.5709e-05,-0.006129164,-0.34476504,0.9002198,-9.959879,0.7620334,47.688675,-0.632517,-2.1678557,-3.4704952,-0.4482681,0.10727902,-0.21431288,24.5,24.9375,24.25,26.0625,26.125,26.375
0.026052406,-1.9535394,-3.5385365,-2.400333,-0.11284401,0.08152214,-0.018745456,-0.37365437,-0.32880154,0.059812292,-3.0783384,0.6247362,-0.0006713919,-0.01098183,-0.0020223109,-0.00054158905,0.00012324654,-0.00021604337,0.001266219,0.44853207,-1.4682914,2.0069788,-2.1073673,-1.5706495,2.4233882,-0.0061577274,0.023031356,-0.024452996,0.0016689189,-7.021639e-05,-0.007406043,-0.34476504,0.7086837,-9.959879,0.71951014,47.660015,-0.6290113,-2.0682774,-3.445555,-0.44263333,0.0893323,-0.21378687,24.5,24.9375,24.25,26.0625,26.125,26.375
0.028052652,-2.355901,-3.2335758,-2.3542757,-0.10419055,0.06317314,-0.017452298,-0.3737246,-0.3287945,0.05983231,-3.0783055,0.6248453,-0.00053791446,-0.012516309,-0.0020827975,-0.00032429374,-0.00019172546,0.000613129,0.0010862154,0.4484956,-1.4682308,2.006869,-2.1073792,-1.5707096,2.4234242,-0.007383314,0.024992816,-0.027052317,0.0014226735,-0.00015216992,-0.008449532,-0.47884035,0.5554548,-9.883265,0.7665104,47.61613,-0.58815414,-2.0925858,-3.4864788,-0.42881846,0.088818625,-0.22205302,24.5,24.9375,24.25,26.0625,26.125,26.375
0.030051712,-1.9400085,-2.5252943,-2.2381144,-0.08865234,0.07517099,-0.036598522,-0.37372392,-0.32882643,0.059815228,-3.0783439,0.6247946,-0.0006681166,-0.01367578,-0.0022081817,-0.0006923175,0.00012634374,6.0821523e-05,0.0011397597,0.4485074,-1.468146,2.0068095,-2.1073554,-1.5706376,2.4233994,-0.008168196,0.028071431,-0.029624349,0.0015523824,-0.00020540513,-0.00928586,-0.51714754,0.36391866,-9.80665,0.8247004,47.678825,-0.65412474,-2.1575012,-3.46375,-0.41583732,0.06510734,-0.22176936,24.5,24.9375,24.25,26.0625,26.125,26.375
0.032051805,-1.9745746,-2.0709803,-2.0749807,-0.061870497,0.0814858,-0.058445893,-0.3737369,-0.3288091,0.059793614,-3.0783093,0.6248075,-0.00070218515,-0.014461641,-0.0023682625,-0.0006241144,0.000588522,-0.00082951214,0.0010526794,0.44847113,-1.4680973,2.006808,-2.1073663,-1.5706495,2.4233756,-0.008560529,0.03018756,-0.032513306,0.0033278542,-0.00023847782,-0.009589494,-0.3256114,0.28730422,-9.749189,0.78217715,47.684196,-0.67577827,-2.2636778,-3.4282994,-0.42534563,0.070952505,-0.21785039,24.5,24.9375,24.25,26.0625,26.125,26.375
0.034052067,-1.595122,-1.3091431,-2.020914,-0.038617115,0.087203205,-0.071367286,-0.3737856,-0.3288259,0.05981829,-3.0783286,0.62475425,-0.0005910579,-0.016082732,-0.0023569588,8.068024e-05,0.00017395969,2.125251e-05,-0.00014233914,0.4484828,-1.4680489,2.0066984,-2.1073663,-1.5706857,2.4233518,-0.010055682,0.031486508,-0.03579497,0.0043637855,-0.00023799339,-0.009887786,-0.2681506,0.2681506,-9.768343,0.7329411,47.68062,-0.6901655,-2.2570243,-3.266128,-0.4084712,0.051330667,-0.23117805,24.5,24.9375,24.25,26.0625,26.125,26.375
0.036052547,-1.5998762,-0.77519864,-1.887828,-0.025061037,0.0771179,-0.07017947,-0.3738345,-0.3288432,0.059818912,-3.078356,0.62479883,-0.0006120218,-0.017683394,-0.0023279476,3.9774204e-05,-0.00012723023,0.00060572877,-0.0011183007,0.44844627,-1.4679523,2.0065906,-2.1073663,-1.5706495,2.4233396,-0.011571413,0.03388424,-0.03818973,0.0037037781,-0.00022678974,-0.010425589,-0.24899697,0.17238252,-9.710882,0.8247004,47.695843,-0.68677557,-2.2716146,-3.2481537,-0.40580344,0.036873907,-0.23314735,24.5,24.9375,24.25,26.0625,26.125,26.375
0.038052823,-1.1280962,-0.4333206,-1.705484,-0.02772075,0.07111211,-0.08667439,-0.37386587,-0.32883492,0.059818953,-3.078351,0.62481683,-0.0005841733,-0.019085154,-0.0031105375,0.0008262625,-0.001235408,0.002868229,-0.00046335498,0.4484103,-1.4679159,2.0065534,-2.1073787,-1.5706614,2.4233155,-0.011382488,0.034976535,-0.041015908,0.0029181596,-0.00021692981,-0.010889552,-0.21068975,0.0,-9.500193,0.7642693,47.687782,-0.7188785,-2.2288914,-3.226289,-0.3637891,0.029104918,-0.24776751,24.5,24.9375,24.25,26.0625,26.125,26.375
0.040051974,-1.1704607,-0.35352683,-1.7540138,-0.025274973,0.06627089,-0.09045048,-0.37391183,-0.32885045,0.05981952,-3.0783648,0.6247809,-0.00057032105,-0.020357735,-0.0030416425,0.0010490438,-0.0012005907,0.0038238598,-0.0006384964,0.4483979,-1.4678196,2.0064461,-2.1073787,-1.5706619,2.423279,-0.012362407,0.036374293,-0.043010097,0.0026700187,-0.0006676944,-0.011691938,-0.2681506,-0.114921674,-9.461885,0.7620334,47.701214,-0.792079,-2.200984,-3.2485523,-0.34889752,0.028286586,-0.25354135,24.5,24.9375,24.25,26.0625,26.125,26.375
0.04205211,-1.473748,-0.9471511,-1.7127362,-0.008142967,0.050265733,-0.09511667,-0.37394902,-0.3288662,0.059820537,-3.0783637,0.6248382,-0.00058040785,-0.022217305,-0.003302673,0.002004286,-0.0017365229,0.0052718036,-0.0010866811,0.44838557,-1.4677354,2.0063484,-2.1073663,-1.57065,2.4233027,-0.013459315,0.03785143,-0.04706494,0.0037111647,-0.0008189882,-0.012338014,-0.28730422,-0.11492168,-9.672575,0.6926589,47.69763,-0.7624888,-2.141923,-3.1479244,-0.32669622,0.014209748,-0.25269192,24.5,24.9375,24.25,26.0625,26.125,26.375
0.04405223,-0.6648146,-0.39966914,-1.7855918,-0.021718705,0.06325218,-0.12072166,-0.37402186,-0.3288843,0.059846133,-3.0784194,0.62477314,-0.00046387783,-0.022504766,-0.0027395876,0.0014119007,-1.2477004e-06,0.003497468,-0.0014098553,0.44836137,-1.4676628,2.0062153,-2.1073902,-1.5706619,2.423231,-0.014239348,0.039827563,-0.048235014,0.005258918,-0.0016116134,-0.012792835,-0.15322891,-0.095768064,-9.5385,0.7597976,47.64389,-0.73132193,-2.183594,-3.1392186,-0.33608514,0.019184818,-0.26242545,24.5,24.9375,24.25,26.0625,26.125,26.375
0.04605252,-1.0970744,-0.78820103,-1.7412701,-0.01731572,0.05917887,-0.117222056,-0.374054,-0.32886964,0.059835903,-3.0783627,0.62478,-0.00045130125,-0.02161437,-0.0021060435,0.0005344163,0.0017923127,8.6415435e-05,-0.0010424973,0.44833714,-1.4675905,2.0061562,-2.1073768,-1.5707101,2.4232183,-0.014529266,0.04078187,-0.04784831,0.007768993,-0.0017434127,-0.013450618,-0.21068975,-0.05746084,-9.442732,0.800085,47.679718,-0.73555064,-2.1524959,-3.3363113,-0.3493283,0.023905665,-0.2650509,24.5,24.9375,24.25,26.0625,26.125,26.375
0.04805277,-1.3984438,-1.566644,-1.819124,-0.01490601,0.06209191,-0.11686774,-0.37409124,-0.32887697,0.059847295,-3.07837,0.6248784,-0.00045843233,-0.023248093,-0.0024042595,0.0012420607,0.0014229781,0.0013572008,-0.0015927474,0.44830093,-1.4675419,2.0060713,-2.107353,-1.5706862,2.4232426,-0.0153007,0.042406507,-0.051401656,0.008393433,-0.001967468,-0.013669196,-0.2681506,-0.038307227,-9.519346,0.76874626,47.629562,-0.76123875,-2.107607,-3.2489588,-0.32442072,0.0153928455,-0.26856127,24.5,24.9375,24.25,26.0625,26.125,26.375
0.05005255,-1.1387091,-1.5334967,-1.7938716,-0.030867124,0.06502826,-0.12460948,-0.3741471,-0.32888046,0.059849672,-3.078358,0.6248562,-0.0004614995,-0.024642738,-0.002948249,0.0020559544,0.00045278517,0.0028740952,-0.0011123553,0.44826478,-1.4674338,2.0059388,-2.1073172,-1.5706981,2.4231942,-0.015686423,0.04347672,-0.05450482,0.008637719,-0.0017571609,-0.01453377,-0.24899697,0.11492168,-9.442732,0.7597976,47.64389,-0.73543125,-2.1331797,-3.2444415,-0.3391332,0.012175278,-0.2615235,24.5,24.9375,24.25,26.0625,26.125,26.375
0.052051783,-1.3266888,-2.013285,-1.9183546,-0.041905202,0.05907831,-0.1058871,-0.37416667,-0.32890087,0.05984061,-3.078363,0.6248767,-0.0005684251,-0.025446208,-0.0030813117,0.0022078676,0.00043527762,0.0024728808,-0.0016432203,0.44825265,-1.4673375,2.0058424,-2.1072686,-1.57065,2.4231942,-0.01629211,0.04504191,-0.05683418,0.009755872,-0.0015706272,-0.014607585,-0.26815057,0.21068975,-9.404425,0.800085,47.674347,-0.7538364,-1.9979603,-3.099028,-0.3244827,-0.010233607,-0.2543025,24.5,24.9375,24.25,26.0625,26.125,26.375
0.05405189,-1.7082509,-2.7554421,-1.8062621,-0.04794403,0.04904089,-0.09780822,-0.37424505,-0.32890013,0.059874646,-3.0783837,0.62488127,-0.00043095247,-0.024270894,-0.0025038603,0.000886653,0.0018759444,-0.00087252277,-0.0016255619,0.44820458,-1.4672893,2.0057113,-2.107268,-1.5706862,2.4231465,-0.016411323,0.045996327,-0.055065725,0.010671094,-0.0014121992,-0.0147460615,-0.24899697,0.3256114,-9.385271,0.7329411,47.672558,-0.72081745,-2.003789,-3.2978673,-0.33801162,-0.04050357,-0.24033362,24.5,24.9375,24.25,26.0625,26.125,26.375
0.05605209,-1.3871439,-2.5508237,-1.6822536,-0.06431712,0.058086615,-0.104425296,-0.37429538,-0.32889444,0.059872806,-3.07835,0.62493306,-0.00044749017,-0.026388228,-0.002627474,0.0016288006,0.0016990518,0.0008099133,-0.003576364,0.4481562,-1.4671928,2.0056012,-2.1072323,-1.5706981,2.4231348,-0.01770869,0.048049606,-0.05912457,0.01108568,-0.0019895383,-0.0140888505,-0.114921674,0.34476504,-9.404425,0.7396539,47.68062,-0.6922876,-1.934169,-3.255889,-0.3431989,-0.040496077,-0.25150168,24.5,24.9375,24.25,26.0625,26.125,26.375
0.058052614,-1.6932783,-2.9303958,-1.5381742,-0.05452597,0.04770415,-0.0933426,-0.3743599,-0.32893002,0.059904758,-3.078441,0.6248938,-0.00040401207,-0.027465235,-0.002932222,0.0022105442,0.001788384,0.002153257,-0.0038369754,0.44813216,-1.4671205,2.0054457,-2.1072204,-1.5706505,2.4230747,-0.017661711,0.04905371,-0.06164482,0.011432903,-0.0026555303,-0.013778588,-0.095768064,0.40222588,-9.385271,0.7933669,47.67166,-0.71841204,-1.9538567,-3.231391,-0.33525056,-0.044907093,-0.24392262,24.5,24.9375,24.25,26.0625,26.125,26.375
0.060051702,-1.5842961,-2.3386948,-1.4995338,-0.06910821,0.047676373,-0.10089572,-0.37440795,-0.3289359,0.059908822,-3.0784001,0.6249046,-0.00035761678,-0.028554745,-0.003102485,0.0023559565,0.0018563457,0.0032184687,-0.004143599,0.448132,-1.4670242,2.005325,-2.1071966,-1.5706986,2.4230866,-0.017973589,0.050567426,-0.06351779,0.010862809,-0.0031835886,-0.013781335,-0.11492168,0.40222588,-9.32781,0.7530795,47.668976,-0.7125414,-1.9172237,-3.2236848,-0.3235669,-0.053148903,-0.26126584,24.5,24.9375,24.25,26.0625,26.125,26.375
0.06205186,-1.3111929,-2.7133298,-1.4565548,-0.058022637,0.04567799,-0.09936498,-0.37449324,-0.32893237,0.059911717,-3.0783954,0.6249606,-0.00034494398,-0.029915756,-0.0036712773,0.0026141107,0.0009772691,0.0038894173,-0.004113121,0.44804794,-1.4668916,2.0051696,-2.1071842,-1.5706986,2.4230382,-0.018470304,0.0527737,-0.06649426,0.010645323,-0.0026886538,-0.014307331,-0.038307227,0.49799395,-9.308656,0.75084364,47.658226,-0.71901476,-1.8831671,-3.231451,-0.31214014,-0.047470294,-0.25879034,24.5,24.9375,24.25,26.0625,26.125,26.375
0.06405219,-1.1684688,-2.305314,-1.4734415,-0.06456367,0.042820666,-0.10363736,-0.3745421,-0.32892814,0.05989927,-3.0783374,0.6250456,-0.00036602584,-0.030640954,-0.0040044333,0.002729592,0.00050728687,0.0042100507,-0.003890071,0.44801176,-1.4667714,2.0050604,-2.1071603,-1.5707225,2.4230626,-0.018690044,0.05403852,-0.06812899,0.010521112,-0.0024082845,-0.014749375,-0.038307227,0.4213795,-9.270349,0.7978386,47.63136,-0.7541827,-1.9392153,-3.1999757,-0.3335409,-0.05779399,-0.26420218,24.5,24.9375,24.25,26.0625,26.125,26.375
0.066051915,-1.3129748,-2.7532732,-1.4208014,-0.056949414,0.03388799,-0.096833505,-0.3745871,-0.32894987,0.05991766,-3.0783844,0.62499666,-0.00038450008,-0.031859938,-0.0040549645,0.0030952871,0.00021522204,0.005136039,-0.004080895,0.44798744,-1.4666991,2.0049279,-2.1071126,-1.5706867,2.4230018,-0.019601714,0.055207364,-0.070256725,0.010519743,-0.0025507023,-0.015468541,-0.05746084,0.4405331,-9.270349,0.784413,47.68062,-0.7066915,-1.7552814,-3.191486,-0.3106499,-0.08326067,-0.25436616,24.5,24.9375,24.25,26.0625,26.125,26.375
0.06805209,-1.3587,-2.6548207,-1.3838625,-0.064558156,0.03317938,-0.09674004,-0.37467894,-0.32896194,0.059923116,-3.07836,0.62497187,-0.000257812,-0.03312793,-0.003985993,0.0020292194,0.0016913703,0.0039250012,-0.0040315343,0.44797528,-1.4665418,2.0047476,-2.1071365,-1.5707587,2.4229774,-0.020331241,0.059903033,-0.072921835,0.010221701,-0.0033625122,-0.016243644,-0.076614454,0.53630114,-9.212888,0.80679786,47.647476,-0.7199186,-1.9573128,-3.146315,-0.30985603,-0.08075225,-0.24707907,24.5,24.9375,24.25,26.0625,26.125,26.375
0.07005216,-1.2811867,-2.3861105,-1.260863,-0.05892655,0.04228715,-0.097586475,-0.3747511,-0.32896253,0.059934985,-3.078363,0.6250102,-0.00026699217,-0.034478292,-0.004418573,0.0037993153,0.000600227,0.007912981,-0.0030185278,0.44790322,-1.4664346,2.0045917,-2.1070893,-1.5707473,2.422929,-0.020230772,0.058306865,-0.07517911,0.01001044,-0.0041115135,-0.017153664,0.0,0.45968673,-9.212888,0.7866488,47.672558,-0.78396475,-1.7490819,-3.1682134,-0.28869715,-0.09409729,-0.24817622,24.5,24.9375,24.25,26.0625,26.125,26.375
0.07205234,-1.2727677,-2.3214293,-1.196897,-0.052788146,0.040244203,-0.094339356,-0.3748048,-0.3289799,0.05993441,-3.078379,0.62509066,-0.0002330481,-0.03524642,-0.004038313,0.0033363476,0.0019783091,0.007752426,-0.0029902696,0.44787905,-1.466338,2.004495,-2.1071255,-1.5707353,2.4229531,-0.020843742,0.06034902,-0.07634046,0.00987535,-0.0052863653,-0.01779186,-0.038307227,0.36391866,-9.193734,0.80679786,47.653748,-0.72378385,-1.7777965,-3.15413,-0.28640354,-0.093054734,-0.25178263,24.5,24.9375,24.25,26.0625,26.125,26.375
0.074052416,-0.8155051,-1.7761002,-1.1413401,-0.050853364,0.049972784,-0.09766739,-0.37485927,-0.3289784,0.05992539,-3.0783424,0.62498635,-0.0002884973,-0.03602592,-0.0037685563,0.0014778288,0.0040386063,0.004220807,-0.0034337763,0.4478428,-1.4661922,2.0043385,-2.1070526,-1.5707592,2.4228566,-0.021830386,0.066229545,-0.07868836,0.010418681,-0.0056190835,-0.01833189,-0.076614454,0.40222588,-9.193734,0.7642693,47.66987,-0.7280584,-1.9023335,-3.225186,-0.26867718,-0.09122923,-0.24865305,24.5,24.9375,24.25,26.0625,26.125,26.375
0.076051876,-1.4651355,-1.9430387,-1.1604209,-0.039234582,0.033642456,-0.095961146,-0.37497,-0.32900834,0.0599555,-3.0783992,0.6250554,-0.0002065962,-0.03681131,-0.003739267,0.0020488051,0.0047906954,0.0054918565,-0.0025418794,0.44778278,-1.4660484,2.004111,-2.1070526,-1.5707358,2.4228325,-0.021758622,0.0665541,-0.08052048,0.011110504,-0.0068482985,-0.01914936,-0.11492168,0.24899697,-9.232041,0.8224646,47.686886,-0.79349446,-1.945184,-3.1752486,-0.26472068,-0.06865637,-0.24082997,24.5,24.9375,24.25,26.0625,26.125,26.375
0.07805209,-1.3523531,-1.2614053,-1.0762129,-0.038227413,0.03851412,-0.097396605,-0.37503812,-0.32902387,0.05995908,-3.0783935,0.625073,-0.00017866098,-0.037884217,-0.0035040646,0.0019950757,0.006094436,0.006730898,-0.0020193933,0.44775873,-1.4659162,2.0039546,-2.1070411,-1.5707487,2.4228203,-0.022009194,0.06814742,-0.08201178,0.010461644,-0.008564548,-0.01991813,-0.095768064,0.22984336,-9.232041,0.7418897,47.658226,-0.76771885,-1.8629944,-3.2676818,-0.25633648,-0.054699104,-0.23161761,24.5,24.9375,24.25,26.0625,26.125,26.375
0.08005197,-0.8347605,-1.08329,-1.0543715,-0.031940237,0.0490318,-0.10489283,-0.37511796,-0.3290214,0.05996474,-3.0783658,0.6251061,-0.00015721392,-0.038570702,-0.0028204592,0.0007295894,0.0092678545,0.005126613,-0.0016021879,0.44769844,-1.4657831,2.0037868,-2.107005,-1.5707735,2.4227843,-0.022443535,0.07207806,-0.08354735,0.010893107,-0.0107331285,-0.020764388,-0.076614454,0.15322891,-9.251195,0.800085,47.658226,-0.73812395,-1.9093654,-3.251082,-0.24884021,-0.039403513,-0.21756521,24.5,24.9375,24.25,26.0625,26.125,26.375
0.08205259,-0.9279784,-1.228928,-0.95374095,-0.021161597,0.04907991,-0.10250382,-0.37517455,-0.32903588,0.059953872,-3.0783405,0.62512016,-0.0002033247,-0.03969303,-0.0029636237,0.0010354174,0.008976279,0.005747961,-0.0015418765,0.4476742,-1.4656268,2.0036314,-2.106969,-1.5707735,2.4227722,-0.023180049,0.07343222,-0.085799076,0.011103921,-0.01074459,-0.021559339,-0.13407528,0.1340753,-9.193734,0.7933669,47.670765,-0.7714199,-2.0081737,-3.3125,-0.23660392,-0.029037196,-0.22183686,24.5,24.9375,24.25,26.0625,26.125,26.375
0.0840159,-1.4229927,-0.8381215,-1.0788238,-0.024194494,0.03256641,-0.10167366,-0.37528938,-0.3290571,0.059985787,-3.078382,0.6249737,-2.6106181e-05,-0.039900158,-0.0031678383,0.00051349896,0.008781991,0.003946173,-0.0011907339,0.44765016,-1.4654826,2.003402,-2.1069806,-1.5708331,2.4226518,-0.023624038,0.07551083,-0.08706852,0.011829682,-0.009788678,-0.022356315,-0.24899697,0.15322891,-9.136273,0.80456203,47.711063,-0.8115336,-1.9868293,-3.3549132,-0.21120068,-0.034535095,-0.21836631,24.5,24.9375,24.25,26.0625,26.125,26.375
0.0860527,-1.0474416,-1.1958692,-1.1687573,-0.016222008,0.048627894,-0.09867684,-0.37534675,-0.3290489,0.059956476,-3.0783322,0.6251357,-0.00012557417,-0.041460574,-0.004152125,0.0012176922,0.0071767597,0.0043973564,-0.0006247952,0.4475661,-1.4653258,2.0032938,-2.1069686,-1.5708083,2.4226751,-0.024024552,0.07788156,-0.09153215,0.012816111,-0.008545737,-0.0233217,-0.22984336,0.038307227,-9.212888,0.78217715,47.68062,-0.8334749,-1.9876733,-3.2137556,-0.2391739,-0.045265283,-0.20910479,24.5,24.9375,24.25,26.0625,26.125,26.375
0.08805242,-1.6482406,-1.8984277,-1.4338727,-0.0125738,0.0383744,-0.09585598,-0.37541986,-0.32904994,0.059943084,-3.0782995,0.6250521,-0.00016514682,-0.040630452,-0.004054591,0.00013389628,0.0072781467,0.0015869772,0.000122050675,0.44751787,-1.4651457,2.003115,-2.1069205,-1.5708321,2.422579,-0.02420947,0.0790211,-0.09038292,0.013099525,-0.007419381,-0.024255723,-0.2681506,0.1340753,-9.251195,0.83589023,47.686886,-0.82058275,-1.9985315,-3.4577107,-0.22120655,-0.050070383,-0.18120712,24.5,24.9375,24.25,26.0625,26.125,26.375
0.09005204,-1.518581,-1.2982882,-1.2570454,-0.039869994,0.051599685,-0.092112154,-0.37549376,-0.3290556,0.059946213,-3.0782561,0.625005,-0.0001496206,-0.04215161,-0.004560968,0.0009557654,0.0063419016,0.00208911,-0.00027938557,0.4474936,-1.4649895,2.0029218,-2.10686,-1.5708798,2.4225311,-0.025051747,0.08070772,-0.09449381,0.014662254,-0.006798566,-0.024695326,-0.2681506,0.15322891,-9.385271,0.7284641,47.69763,-0.7854624,-1.9023218,-3.4856648,-0.22789353,-0.07155813,-0.17188051,24.5,24.9375,24.25,26.0625,26.125,26.375
0.09205234,-1.726282,-1.4763157,-1.2435856,-0.03958232,0.062472805,-0.096302666,-0.37559924,-0.3290786,0.05997392,-3.0783007,0.6250135,-8.605513e-05,-0.041705754,-0.0038907672,0.00011231813,0.0078098197,0.00038899537,0.0002885383,0.44743356,-1.4648458,2.0026944,-2.106836,-1.5708684,2.4224708,-0.025499858,0.08142913,-0.09346179,0.015078332,-0.007382212,-0.025711348,-0.34476504,0.24899697,-9.3661175,0.7978386,47.687782,-0.85053957,-1.7984579,-3.462192,-0.23699245,-0.080085784,-0.1555725,24.5,24.9375,24.25,26.0625,26.125,26.375
0.094052486,-1.940767,-1.698133,-1.2910951,-0.041358113,0.07277337,-0.09577613,-0.37568313,-0.32909983,0.0599796,-3.0783162,0.6251128,-0.000107931904,-0.042681813,-0.003707761,-0.0008746724,0.00958242,-0.0014970553,0.00039323396,0.44737324,-1.4646884,2.0025022,-2.1068113,-1.5708326,2.4224706,-0.02618862,0.08576563,-0.09619016,0.015940549,-0.008168497,-0.026501441,-0.3256114,0.24899697,-9.385271,0.77545905,47.6636,-0.78854007,-2.053874,-3.5397902,-0.22069906,-0.082688525,-0.14021006,24.5,24.9375,24.25,26.0625,26.125,26.375
0.09605184,-2.1237566,-1.8377818,-1.4208903,-0.040805157,0.074054,-0.09782417,-0.37577012,-0.32911825,0.05998033,-3.0783198,0.6250545,-9.44439e-05,-0.044325873,-0.003928917,0.00075874105,0.008204433,0.0021119295,0.00050712604,0.44733697,-1.4645092,2.0022976,-2.106788,-1.5708445,2.4223976,-0.027032858,0.08458096,-0.098578006,0.015663385,-0.008493394,-0.027457742,-0.36391866,0.19153613,-9.32781,0.7978386,47.674347,-0.7764273,-1.736428,-3.5630841,-0.21804634,-0.08660434,-0.13440694,24.5,24.9375,24.25,26.0625,26.125,26.375
0.09805244,-2.496302,-2.121329,-1.5885619,-0.027341891,0.055163976,-0.08763025,-0.37584606,-0.32910758,0.05995292,-3.0782535,0.6250993,-0.00014847965,-0.04518437,-0.0036951732,-0.00017892651,0.009570632,0.000702631,3.524407e-05,0.44726467,-1.4643162,2.0021422,-2.106764,-1.5708688,2.4223619,-0.027815662,0.0881802,-0.100443915,0.0157925,-0.00912129,-0.02776538,-0.2681506,0.19153613,-9.385271,0.784413,47.61882,-0.78474784,-1.758188,-3.6278095,-0.21619244,-0.06194949,-0.12267888,24.5,24.9375,24.25,26.0625,26.125,26.375
0.10005166,-1.8047962,-1.9073235,-1.5367322,-0.02991897,0.06729267,-0.094655074,-0.3759283,-0.32911068,0.059962213,-3.0782342,0.6251153,-0.00014943077,-0.04655782,-0.0035574483,0.0006544731,0.009670375,0.0032356884,-0.00062302407,0.44720444,-1.4641727,2.001949,-2.1067045,-1.5708812,2.4223142,-0.028502157,0.0881673,-0.102256924,0.015380995,-0.010311939,-0.027790142,-0.22984336,0.2681506,-9.423578,0.76874626,47.66987,-0.7489785,-1.821734,-3.5466344,-0.19429417,-0.05878659,-0.11237432,24.5,24.9375,24.25,26.0625,26.125,26.375
0.1020519,-1.6370938,-1.9711182,-1.6433893,-0.041607536,0.059007496,-0.09420799,-0.3760312,-0.3291347,0.05996564,-3.0782669,0.6249863,-0.00013761486,-0.047925048,-0.003731339,0.0008143687,0.010026733,0.0036250884,-0.00020600307,0.44715634,-1.463968,2.0017097,-2.1066797,-1.5708812,2.4221816,-0.029069306,0.09057254,-0.10542273,0.015945489,-0.010807262,-0.02877145,-0.2681506,0.21068975,-9.442732,0.7933669,47.683304,-0.7816613,-1.7839811,-3.6868815,-0.19259638,-0.04538614,-0.10397488,24.5,24.9375,24.25,26.0625,26.125,26.375
0.10405208,-1.5478396,-1.7405455,-1.5575556,-0.052257963,0.05532842,-0.09631509,-0.3761461,-0.32911703,0.059961546,-3.0781794,0.6251031,-0.00011220996,-0.04875816,-0.0034258242,8.830043e-05,0.011047088,0.002270575,-0.00013770889,0.4470599,-1.4637632,2.0014822,-2.106632,-1.5709413,2.4221694,-0.03015232,0.09356453,-0.107173145,0.016364422,-0.011145829,-0.029920507,-0.21068975,0.2681506,-9.442732,0.8090337,47.66539,-0.72679925,-1.8321732,-3.5351028,-0.17231447,-0.049540497,-0.08338227,24.5,24.9375,24.25,26.0625,26.125,26.375
0.106051974,-1.7252487,-2.4713163,-1.8057029,-0.04417926,0.05054352,-0.085058235,-0.37624413,-0.32914516,0.05998719,-3.0782135,0.6250524,-6.485598e-05,-0.05089584,-0.00427412,0.0011306108,0.010265399,0.0044858926,-0.0011428393,0.44702396,-1.4636068,2.00124,-2.1065843,-1.5709413,2.4220977,-0.030311542,0.09585657,-0.11219457,0.016759172,-0.011407023,-0.029071374,-0.2681506,0.34476504,-9.500193,0.784413,47.65643,-0.7333814,-1.8103194,-3.4526234,-0.17966917,-0.02978719,-0.08396825,24.5,24.9375,24.25,26.0625,26.125,26.375
0.10805209,-2.006131,-2.4949944,-1.6673751,-0.05269942,0.050516993,-0.08735194,-0.37633657,-0.32914042,0.059968743,-3.0781252,0.6251506,-8.030517e-05,-0.05159559,-0.0048032636,0.001732036,0.008720728,0.004393259,-0.0031241812,0.44696367,-1.4633912,2.001036,-2.1065476,-1.570989,2.42211,-0.0309057,0.09644293,-0.114497125,0.017884685,-0.0099772345,-0.02768526,-0.21068975,0.36391866,-9.481039,0.82694155,47.66539,-0.70484513,-1.7735946,-3.4303517,-0.17486586,-0.068519235,-0.09499042,24.5,24.9375,24.25,26.0625,26.125,26.375
0.110052034,-1.6861227,-2.332465,-1.7617944,-0.065923065,0.05868379,-0.09594253,-0.37644064,-0.32917783,0.059986714,-3.0781827,0.6250861,-8.4331055e-05,-0.05280408,-0.004803792,0.0020052998,0.0089789545,0.005163625,-0.004276794,0.4469155,-1.463199,2.0007718,-2.1065,-1.5709532,2.4220145,-0.03160065,0.09794758,-0.116866596,0.018169185,-0.010546586,-0.02722527,-0.21068975,0.34476504,-9.672575,0.78217715,47.68062,-0.732389,-1.6875832,-3.4244335,-0.1737439,-0.07646062,-0.08930618,24.5,24.9375,24.25,26.0625,26.125,26.375
0.11205236,-2.4346583,-3.2492669,-1.8269064,-0.05943249,0.045197904,-0.08826272,-0.37657538,-0.32914597,0.05998927,-3.0780718,0.6251976,1.6604108e-05,-0.05376063,-0.0050769104,0.002037009,0.008797098,0.004999209,-0.0039588697,0.44680724,-1.4629946,2.000532,-2.1064632,-1.5710615,2.4219902,-0.032091707,0.099976815,-0.119306676,0.018644404,-0.0103159165,-0.028033096,-0.30645782,0.51714754,-9.634268,0.7486078,47.668976,-0.710474,-1.622015,-3.436529,-0.17227215,-0.056832492,-0.088821664,24.5,24.9375,24.25,26.0625,26.125,26.375
0.11405178,-1.7554425,-2.9990811,-1.8572216,-0.073578894,0.054338425,-0.09058344,-0.37663752,-0.32916993,0.059974242,-3.0780764,0.6251408,-9.426418e-05,-0.0550086,-0.005396193,0.0022557508,0.008233548,0.00528043,-0.0044920724,0.44677114,-1.4628022,2.0003402,-2.1064036,-1.5710248,2.4219182,-0.032868445,0.10196318,-0.12208863,0.018942071,-0.009936213,-0.028274924,-0.21068975,0.38307226,-9.576807,0.67475104,47.675243,-0.73672426,-1.6822572,-3.3738232,-0.14670752,-0.04453385,-0.07963261,24.5,24.9375,24.25,26.0625,26.125,26.375
0.116023906,-1.1969002,-2.4091628,-1.7905983,-0.08276596,0.059325393,-0.09747017,-0.37676707,-0.32919136,0.059992574,-3.078083,0.6251221,-2.492022e-05,-0.056352127,-0.005238769,0.0021062938,0.0094507225,0.0058700168,-0.0050589633,0.446711,-1.4625859,2.0000513,-2.1063678,-1.5710496,2.4218457,-0.033447374,0.10452108,-0.12457427,0.018867511,-0.0112930145,-0.028282931,-0.17238252,0.4213795,-9.595961,0.79560274,47.686886,-0.6911554,-1.6799498,-3.3821745,-0.15334533,-0.05038739,-0.09802864,24.5,24.9375,24.25,26.0625,26.125,26.375
0.118052274,-1.6453164,-2.4821236,-1.8866627,-0.07333382,0.040801562,-0.09491624,-0.3768892,-0.32917908,0.059982836,-3.078002,0.62529886,-2.390469e-05,-0.057280872,-0.004597548,0.0009372353,0.0112184435,0.0041324184,-0.0060079517,0.4466023,-1.4623569,1.9998125,-2.1063316,-1.5710858,2.4218578,-0.034895275,0.108251035,-0.12605818,0.018952692,-0.012140699,-0.028778538,-0.21068975,0.4405331,-9.634268,0.82022345,47.64479,-0.74285436,-1.6601515,-3.4087648,-0.14525074,-0.03016147,-0.07099993,24.5,24.9375,24.25,26.0625,26.125,26.375
0.12005183,-1.7721016,-2.1805148,-1.7214974,-0.0710139,0.03367969,-0.08914946,-0.3769745,-0.3292052,0.059979476,-3.0780203,0.6251869,-6.470697e-05,-0.058918037,-0.0048341206,0.0024258972,0.010143065,0.007200367,-0.0067435773,0.4465661,-1.4621536,1.9995846,-2.106284,-1.5710739,2.4217496,-0.035673596,0.10764382,-0.12885995,0.019131368,-0.012502031,-0.02881881,-0.095768064,0.40222588,-9.5385,0.7866488,47.661808,-0.674647,-1.7627777,-3.4519212,-0.13282235,-0.01943618,-0.07123481,24.5,24.9375,24.25,26.0625,26.125,26.375
0.122052215,-1.4809369,-2.2175443,-1.7031646,-0.062260844,0.039105806,-0.087475,-0.37711915,-0.32921496,0.060006723,-3.0780156,0.62522525,9.494659e-05,-0.058789823,-0.0048548877,0.00067862903,0.011549577,0.0041243383,-0.0073683807,0.4464941,-1.4619606,1.999309,-2.106284,-1.5711335,2.4217024,-0.035545792,0.11174701,-0.12935895,0.018906644,-0.012441166,-0.02806639,-0.15322891,0.4213795,-9.481039,0.83813137,47.63673,-0.67936695,-1.7336824,-3.4996545,-0.12415653,-0.01876117,-0.10163958,24.5,24.9375,24.25,26.0625,26.125,26.375
0.12405243,-1.7467886,-2.2778513,-1.6892438,-0.054954145,0.030341916,-0.08615835,-0.37724364,-0.32924318,0.060011752,-3.0780206,0.6252063,9.5873336e-05,-0.06026369,-0.0061897608,0.002397338,0.009441315,0.007245088,-0.00740828,0.44643462,-1.4617091,1.9990085,-2.1062362,-1.5711335,2.4216306,-0.03473201,0.11174541,-0.1333921,0.019214084,-0.011894526,-0.027211534,-0.21068975,0.40222588,-9.576807,0.80679786,47.64658,-0.72042704,-1.6705487,-3.2991586,-0.102297306,-0.020720027,-0.10736357,24.5,24.9375,24.25,26.0625,26.125,26.375
0.12605222,-1.4680191,-1.9947851,-1.5373784,-0.050681747,0.03691065,-0.08860635,-0.3773749,-0.32925454,0.060026836,-3.07802,0.62520635,0.00018768624,-0.061796945,-0.0060952543,0.0021563917,0.0101976935,0.0067233997,-0.008384273,0.44636205,-1.461504,1.9987444,-2.1062233,-1.5711697,2.4215584,-0.03596262,0.1151436,-0.13680263,0.020023206,-0.012355667,-0.027463613,-0.038307227,0.30645782,-9.519346,0.8627467,47.672558,-0.7344911,-1.7744915,-3.4446154,-0.08260883,-0.015573017,-0.10582862,24.5,24.9375,24.25,26.0625,26.125,26.375
0.12805225,-1.3220736,-1.7916006,-1.320045,-0.041612133,0.03390704,-0.089523815,-0.37748462,-0.329273,0.060006768,-3.0779855,0.6253147,0.00012973534,-0.061772786,-0.0057512205,0.0013400364,0.011136366,0.0041104686,-0.008499231,0.44628963,-1.4612398,1.9984926,-2.106199,-1.5711578,2.4215581,-0.036757413,0.117224,-0.13759983,0.02150018,-0.012074104,-0.028143194,-0.05746084,0.30645782,-9.3661175,0.7620334,47.64389,-0.651147,-1.7575588,-3.4598455,-0.07712722,-0.010089111,-0.10668139,24.5,24.9375,24.25,26.0625,26.125,26.375
0.13005194,-1.223227,-1.9185855,-1.4051182,-0.029939942,0.03438956,-0.08693333,-0.37766814,-0.3293077,0.060078457,-3.078084,0.6253156,0.00039220444,-0.062706076,-0.0058102002,0.0011916549,0.011809243,0.0034328608,-0.0092311585,0.44620574,-1.4610714,1.998145,-2.1062114,-1.5711821,2.4214625,-0.0372548,0.11972837,-0.1402965,0.022593755,-0.012386592,-0.027908826,-0.11492168,0.28730422,-9.423578,0.7777002,47.629562,-0.6995982,-1.7983822,-3.3476744,-0.08324754,-0.033499006,-0.11986813,24.5,24.9375,24.25,26.0625,26.125,26.375
0.13205208,-1.0333147,-1.3442396,-1.1694931,-0.037057213,0.041265275,-0.10057011,-0.3778167,-0.32931468,0.060078032,-3.0780525,0.6253287,0.0004255191,-0.06432986,-0.00587615,0.0018975474,0.010907947,0.0042152274,-0.010731548,0.44610915,-1.4607953,1.9978322,-2.1061747,-1.5712179,2.4213784,-0.03888474,0.12097218,-0.14352256,0.023477389,-0.011916146,-0.028037399,-0.15322891,0.22984336,-9.32781,0.7866488,47.667187,-0.66232157,-1.8446501,-3.4056914,-0.06402228,-0.02229551,-0.13418245,24.5,24.9375,24.25,26.0625,26.125,26.375
0.13405207,-1.4080149,-1.433896,-1.2271163,-0.028342895,0.037982974,-0.0926103,-0.37788615,-0.32934192,0.060058244,-3.0779912,0.62529707,0.0002854645,-0.06353734,-0.0060230023,-0.00020505502,0.012245437,-0.0008686449,-0.010250077,0.44609708,-1.4605421,1.9975699,-2.1060545,-1.5712174,2.4213545,-0.038556695,0.12543009,-0.14392003,0.024576578,-0.010930852,-0.028190669,-0.15322891,0.22984336,-9.346964,0.81351066,47.694054,-0.70040715,-1.9680678,-3.3564973,-0.0710831,-0.023106972,-0.13936128,24.5,24.9375,24.25,26.0625,26.125,26.375
0.13605247,-1.9681764,-1.3322854,-1.2381341,-0.035172183,0.034257803,-0.08737829,-0.37801823,-0.32933736,0.06005722,-3.077958,0.62534595,0.0002667384,-0.06455756,-0.007450131,0.00065957615,0.0109741865,0.000140793,-0.0086058825,0.44597754,-1.4603024,1.9972934,-2.1059945,-1.5712289,2.42127,-0.037262227,0.1272168,-0.14812484,0.025531257,-0.010227628,-0.028539004,-0.1340753,0.22984336,-9.346964,0.8247004,47.71554,-0.769824,-1.7000198,-3.2415638,-0.061083607,-0.028520208,-0.15442482,24.5,24.9375,24.25,26.0625,26.125,26.375
0.13805258,-1.8485082,-1.9947301,-1.1112727,-0.032887284,0.046242245,-0.08996094,-0.37816414,-0.32936236,0.060084276,-3.0779612,0.6253654,0.00037371597,-0.06463399,-0.0071143764,3.1091506e-05,0.011292217,-0.0018294643,-0.009052228,0.4459174,-1.4600742,1.9969705,-2.1059582,-1.5712651,2.4212217,-0.03831849,0.12868321,-0.1485299,0.02638056,-0.009662524,-0.02915032,-0.22984336,0.21068975,-9.251195,0.8224646,47.678825,-0.7986146,-1.9782941,-3.4541335,-0.05270397,-0.03854877,-0.14415285,24.5,24.9375,24.25,26.0625,26.125,26.375
0.14005183,-1.5708385,-1.6823514,-1.1067026,-0.048613776,0.05334859,-0.095915526,-0.37828454,-0.3293923,0.060069166,-3.077946,0.6253445,0.00030019323,-0.065794915,-0.0068315403,-0.0002616512,0.011960894,-0.0025787435,-0.01045926,0.44585675,-1.4597735,1.9966587,-2.1058981,-1.5712527,2.4211502,-0.03968,0.13127254,-0.1509435,0.027170086,-0.009947891,-0.029102307,-0.24899697,0.2681506,-9.232041,0.76874626,47.657326,-0.6839911,-1.8484409,-3.4972894,-0.061741278,-0.04135195,-0.16119061,24.5,24.9375,24.25,26.0625,26.125,26.375
0.14205192,-2.198737,-2.008193,-1.0382192,-0.04674656,0.035478123,-0.08826872,-0.3784292,-0.32941228,0.060084734,-3.077957,0.6254229,0.0003871514,-0.06670514,-0.007084096,0.00037986858,0.012147612,-0.001356724,-0.010410587,0.4457728,-1.4595457,1.9963707,-2.1058981,-1.5712656,2.421114,-0.039536815,0.13192225,-0.15332198,0.027878184,-0.010645569,-0.029005967,-0.2681506,0.2681506,-9.11712,0.82022345,47.66271,-0.74191,-1.8580455,-3.4694786,-0.05918903,-0.04568997,-0.1803036,24.5,24.9375,24.25,26.0625,26.125,26.375
0.14405192,-1.769977,-2.0167463,-0.98849267,-0.043503497,0.049250066,-0.08959475,-0.3785728,-0.3294062,0.060098704,-3.0778666,0.62546206,0.0004365668,-0.06780722,-0.0074830754,0.00041974906,0.012075535,-0.0012323642,-0.010498459,0.44568884,-1.4592935,1.996035,-2.1057909,-1.5713495,2.4210663,-0.039765414,0.13429819,-0.15614411,0.02817766,-0.010640749,-0.029144594,-0.17238252,0.2681506,-9.155427,0.8179876,47.65912,-0.7897854,-1.7954448,-3.3654218,-0.04820738,-0.039340902,-0.18676068,24.5,24.9375,24.25,26.0625,26.125,26.375
0.1460524,-1.744647,-1.8534372,-0.9568644,-0.034322612,0.044548087,-0.09214975,-0.378707,-0.32943648,0.060093857,-3.077897,0.6255061,0.00039003725,-0.068541564,-0.007452196,0.00067722,0.012253911,-0.0004798789,-0.009862211,0.44559264,-1.4590179,1.995735,-2.1057665,-1.5713013,2.4209938,-0.04013055,0.13492315,-0.157489,0.028296882,-0.01112953,-0.030144356,-0.22984336,0.24899697,-9.193734,0.8493211,47.7451,-0.81676984,-1.5164852,-3.4471169,-0.035907798,-0.042248845,-0.20630768,24.5,24.9375,24.25,26.0625,26.125,26.375
0.1480526,-1.382463,-1.4975767,-0.94034094,-0.03414643,0.04742309,-0.08905372,-0.37886423,-0.32946056,0.06010831,-3.0778904,0.62550324,0.0004676789,-0.06912999,-0.007640079,-9.2286304e-05,0.013551107,-0.0019063578,-0.008461372,0.4455208,-1.4587411,1.995387,-2.1057303,-1.5713376,2.4209213,-0.03991412,0.13843566,-0.15980153,0.028942337,-0.0116885025,-0.031326562,-0.22984336,0.28730422,-9.193734,0.7978386,47.66987,-0.78847736,-1.6528447,-3.4214952,-0.046715986,-0.044501953,-0.21067998,24.5,24.9375,24.25,26.0625,26.125,26.375
0.1500518,-1.9666429,-1.5460365,-1.0190586,-0.031645007,0.030229859,-0.08955899,-0.3789657,-0.3294663,0.060093436,-3.0778158,0.6255275,0.0003555071,-0.06977526,-0.0076410025,-0.00069082587,0.013891134,-0.003623896,-0.0092766415,0.4454485,-1.4584764,1.9951004,-2.1056101,-1.5713495,2.4208739,-0.04076107,0.14125286,-0.16178451,0.02980181,-0.011261243,-0.031356584,-0.36391866,0.30645782,-9.136273,0.7777002,47.645687,-0.84479207,-1.750201,-3.5328248,-0.03380147,-0.03296701,-0.21965449,24.5,24.9375,24.25,26.0625,26.125,26.375
0.1520518,-1.646008,-1.8010072,-0.9747829,-0.033988096,0.040434465,-0.080245644,-0.37910792,-0.32947883,0.060105965,-3.0777845,0.6255198,0.0004128556,-0.06989399,-0.007667361,-0.0019464886,0.015737396,-0.006127243,-0.008156027,0.4453766,-1.4582235,1.9947776,-2.10555,-1.5713977,2.4208014,-0.040405877,0.14506447,-0.16335289,0.030612271,-0.011851084,-0.03211984,-0.28730422,0.24899697,-9.040505,0.8179876,47.679718,-0.8653051,-1.7787795,-3.470674,-0.025976345,-0.052822355,-0.2183097,24.5,24.9375,24.25,26.0625,26.125,26.375
0.15405239,-1.7921436,-1.8365314,-0.9531919,-0.044591226,0.038027413,-0.09029234,-0.37925884,-0.3294872,0.060077034,-3.077741,0.62556773,0.00034075815,-0.07143655,-0.008579379,0.00085281674,0.0129665965,-0.0013238413,-0.007261451,0.44525674,-1.4578775,1.9944519,-2.1055138,-1.5713972,2.4207172,-0.04034216,0.14207953,-0.1666799,0.031392198,-0.011428158,-0.032949686,-0.19153613,0.24899697,-9.174581,0.77545905,47.657326,-0.9020628,-1.4711465,-3.3561702,-0.03400656,-0.0391915,-0.22905919,24.5,24.9375,24.25,26.0625,26.125,26.375
0.15605192,-1.5893216,-1.7596701,-1.1799047,-0.04811421,0.03975615,-0.089938276,-0.37940356,-0.3295048,0.06010234,-3.077684,0.6255941,0.00042289,-0.07263793,-0.008586679,0.0011034817,0.013322913,-0.0012962422,-0.007806444,0.4452084,-1.4576253,1.9940923,-2.1054175,-1.5714697,2.420693,-0.041160066,0.14398313,-0.1696763,0.032611597,-0.011765308,-0.033220485,-0.15322891,0.22984336,-9.155427,0.80679786,47.66987,-0.9376199,-1.6303701,-3.426579,-0.040898822,-0.061844513,-0.2440073,24.5,24.9375,24.25,26.0625,26.125,26.375
0.15805216,-1.1308494,-2.1169364,-1.2180839,-0.046037123,0.046964504,-0.08784166,-0.37957197,-0.32951882,0.06011137,-3.077681,0.62565225,0.00040829487,-0.07382386,-0.008206034,0.0004976321,0.0141414525,-0.0024983697,-0.009744622,0.4450759,-1.4573249,1.9937218,-2.1053455,-1.5714577,2.4205973,-0.042747214,0.14715484,-0.1719787,0.033179734,-0.011991047,-0.03286743,-0.19153613,0.30645782,-9.212888,0.86945957,47.68062,-0.83800304,-1.5113263,-3.432283,-0.036422476,-0.037647653,-0.2733583,24.5,24.9375,24.25,26.0625,26.125,26.375
0.16005251,-1.0883412,-1.9432435,-1.1359574,-0.0397265,0.04030172,-0.09094767,-0.379682,-0.3295421,0.060077783,-3.0775995,0.62557584,0.0003330241,-0.07343945,-0.009682214,0.00044272636,0.013101778,-0.003573984,-0.0072651454,0.4450526,-1.4569888,1.9934095,-2.1052735,-1.5715054,2.420537,-0.040581673,0.14879762,-0.17390755,0.033981882,-0.010595376,-0.03318188,-0.19153613,0.30645782,-9.251195,0.8403672,47.70659,-0.9241651,-1.5333779,-3.328866,-0.04428669,-0.038924642,-0.28039244,24.5,24.9375,24.25,26.0625,26.125,26.375
0.16205174,-1.1758789,-1.4948434,-1.4069704,-0.0415102,0.02931708,-0.09333132,-0.37985465,-0.3295542,0.060082838,-3.077577,0.6256855,0.0003311722,-0.074433036,-0.010084785,0.0012876529,0.01294751,-0.0024943014,-0.006170255,0.44492075,-1.4566771,1.993038,-2.105213,-1.5715054,2.4204767,-0.040468387,0.14946413,-0.17692477,0.035290528,-0.010925938,-0.034161445,-0.11492168,0.28730422,-9.251195,0.7911258,47.651955,-1.1140311,-1.4039876,-3.4349313,-0.067188054,-0.045419708,-0.284746,24.5,24.9375,24.25,26.0625,26.125,26.375
0.1640526,-1.3001397,-1.8656601,-1.6614484,-0.032381836,0.022088788,-0.08290816,-0.37996924,-0.32958528,0.06007012,-3.0775473,0.6256029,0.00026571355,-0.07533958,-0.009592758,0.00050621794,0.013842596,-0.0047322954,-0.0079270275,0.4448841,-1.4563764,1.9927143,-2.105129,-1.5715173,2.4203925,-0.042279948,0.15269779,-0.1790685,0.036604587,-0.010774759,-0.034214575,-0.095768064,0.3256114,-9.346964,0.8090337,47.655537,-1.0681118,-1.5597075,-3.4405532,-0.05887202,-0.035680927,-0.30632004,24.5,24.9375,24.25,26.0625,26.125,26.375
0.16605207,-1.3087268,-1.7946337,-1.7251549,-0.04920511,0.021361755,-0.09250436,-0.3801287,-0.32959083,0.060062088,-3.0774858,0.62564677,0.00025124193,-0.07499687,-0.0096219815,-0.0013779142,0.015903432,-0.009254513,-0.0063223643,0.44477612,-1.456051,1.9923548,-2.1050565,-1.5715536,2.42032,-0.041951552,0.15752567,-0.18052715,0.038200326,-0.010692017,-0.035489522,-0.095768064,0.36391866,-9.404425,0.78888994,47.66808,-1.0738703,-1.6940389,-3.4646883,-0.07822319,-0.045502696,-0.3088005,24.5,24.9375,24.25,26.0625,26.125,26.375
0.16805227,-1.2635303,-2.0828822,-1.6900202,-0.06479101,0.026921064,-0.08994483,-0.38029853,-0.3296096,0.06008567,-3.0774646,0.6257401,0.00027587157,-0.07627832,-0.0088752,-0.0013508459,0.017186156,-0.010603336,-0.008694011,0.44466746,-1.4557632,1.991959,-2.1049597,-1.5715655,2.4202726,-0.0440664,0.15974215,-0.18372001,0.040946975,-0.011271474,-0.03523031,-0.038307227,0.30645782,-9.481039,0.84708,47.67345,-1.0087007,-1.638936,-3.452225,-0.12952475,-0.065865815,-0.3240322,24.5,24.9375,24.25,26.0625,26.125,26.375
0.17005236,-1.3130125,-2.8842483,-2.0733197,-0.058484763,0.030720802,-0.086899385,-0.38044104,-0.32963762,0.0600757,-3.0774283,0.6256753,0.00023437566,-0.07589574,-0.009702488,-0.00247092,0.017419804,-0.013527054,-0.009331986,0.44460788,-1.4554265,1.9915885,-2.1048758,-1.5715889,2.4201775,-0.042867925,0.16318864,-0.18521649,0.041733634,-0.0102279885,-0.033394374,-0.019153614,0.3256114,-9.519346,0.9030289,47.672558,-1.0922506,-1.7368972,-3.5085084,-0.1569952,-0.06642164,-0.3658528,24.5,24.9375,24.25,26.0625,26.125,26.375
0.17205234,-1.62593,-2.7327824,-1.7625135,-0.06450788,0.028240671,-0.087393284,-0.38059527,-0.329649,0.060065307,-3.0773652,0.62575734,0.00016981064,-0.07721482,-0.0098231705,-0.0028260404,0.017722243,-0.013460061,-0.010083782,0.44449973,-1.4550902,1.9912165,-2.10478,-1.5716013,2.4201288,-0.0435839,0.16622062,-0.1877212,0.041275624,-0.010540385,-0.033355348,0.05746084,0.2873042,-9.557653,0.88289046,47.651955,-1.1655191,-1.837989,-3.4595842,-0.14912842,-0.06467934,-0.40443295,24.5,24.9375,24.25,26.0625,26.125,26.375
0.17405242,-1.2491463,-2.1826186,-1.6537826,-0.0687722,0.036865614,-0.0935166,-0.38077548,-0.32966402,0.060083434,-3.0773404,0.6257706,0.00021743978,-0.07905444,-0.0097376,-0.0021865608,0.018130308,-0.012861094,-0.009328617,0.44439116,-1.4547781,1.9908088,-2.1046956,-1.5716375,2.420032,-0.044927478,0.16834716,-0.19200726,0.043067478,-0.011174539,-0.03545066,0.095768064,0.3256114,-9.519346,0.84708,47.642998,-1.0977001,-1.8826551,-3.3944612,-0.18362561,-0.05469185,-0.39326623,24.5,24.9375,24.25,26.0625,26.125,26.375
0.1760518,-1.4043335,-2.7215528,-1.8681269,-0.038104877,0.021430755,-0.08227266,-0.38093117,-0.32967395,0.060082637,-3.0773008,0.6258972,0.00018738054,-0.08047841,-0.010268386,-0.0016642001,0.016979875,-0.011878129,-0.0090250885,0.44427088,-1.4544781,1.9904608,-2.104624,-1.5716375,2.419996,-0.04558363,0.1699905,-0.1950928,0.043123152,-0.010568554,-0.036409486,0.038307227,0.30645782,-9.461885,0.91421866,47.694054,-1.1186767,-1.8031304,-3.4694686,-0.1974419,-0.049469247,-0.40109128,24.5,24.9375,24.25,26.0625,26.125,26.375
0.17805204,-1.3995054,-2.1829083,-1.792234,-0.045531437,0.02152387,-0.08765391,-0.3810557,-0.3297058,0.06004451,-3.077248,0.62573165,7.158059e-05,-0.07966965,-0.009486353,-0.0025084708,0.018975759,-0.015000742,-0.008413083,0.4442349,-1.4540946,1.9901022,-2.1045392,-1.5716614,2.4198637,-0.04599306,0.17075261,-0.19462569,0.045570534,-0.011027631,-0.03742963,-0.11492168,0.36391866,-9.423578,0.84708,47.64658,-1.106679,-1.8064195,-3.4430804,-0.23864144,-0.05885075,-0.4205823,24.5,24.9375,24.25,26.0625,26.125,26.375
0.18005209,-1.4505509,-2.1614487,-1.8612953,-0.047688313,0.027672777,-0.0848867,-0.38124266,-0.32972208,0.06007828,-3.077229,0.62584287,0.00013918949,-0.08051391,-0.009715234,-0.0023110567,0.01811227,-0.014189614,-0.0079021165,0.4441146,-1.453807,1.989683,-2.1044443,-1.5716852,2.4198155,-0.046568487,0.17156625,-0.19587773,0.044900555,-0.010602696,-0.038516454,-0.22984336,0.38307226,-9.442732,0.86498255,47.650166,-1.1668264,-1.7110062,-3.5415726,-0.26014373,-0.06911482,-0.42867723,24.5,24.9375,24.25,26.0625,26.125,26.375
0.18205225,-2.0417533,-2.665883,-1.8471496,-0.057750236,0.03681865,-0.086248174,-0.38139737,-0.32974675,0.060070455,-3.0771797,0.6257165,0.00010827038,-0.08260644,-0.010355863,-0.0019093174,0.017001867,-0.012208407,-0.0075365473,0.44405448,-1.4534465,1.9892753,-2.104337,-1.5717329,2.4196832,-0.047308303,0.17425771,-0.19956155,0.04362257,-0.010466367,-0.039618798,-0.1340753,0.36391866,-9.500193,0.8851263,47.63046,-1.1706654,-1.883656,-3.4743714,-0.25384432,-0.07297792,-0.43840346,24.5,24.9375,24.25,26.0625,26.125,26.375
0.18405235,-2.2646961,-3.1483226,-1.7758679,-0.062277097,0.05395485,-0.080315955,-0.38156435,-0.32976386,0.0600566,-3.077114,0.6259133,-6.729736e-06,-0.083304904,-0.009875774,-0.0024642374,0.018597698,-0.014112983,-0.0063718404,0.44392213,-1.4530741,1.9888676,-2.1042283,-1.5717095,2.4196823,-0.048364714,0.17700548,-0.20185596,0.045573864,-0.011097318,-0.04183656,-0.19153613,0.28730422,-9.442732,0.800085,47.682407,-1.1200187,-1.7447035,-3.58139,-0.27883515,-0.09280972,-0.4285463,24.5,24.9375,24.25,26.0625,26.125,26.375
0.18605173,-2.3014667,-2.5215378,-1.4240484,-0.065420784,0.06161923,-0.092373654,-0.381714,-0.32978404,0.060052782,-3.0770807,0.6258275,-2.0641499e-05,-0.083333105,-0.010046669,-0.0024956109,0.018446086,-0.015284194,-0.004039328,0.44385,-1.4527504,1.9884967,-2.1041439,-1.5717448,2.4195611,-0.048471835,0.17779586,-0.20303114,0.046943836,-0.010462155,-0.044276983,-0.2681506,0.30645782,-9.289502,0.85155696,47.66271,-1.1134005,-1.7375476,-3.5762267,-0.30401003,-0.08774692,-0.42709985,24.5,24.9375,24.25,26.0625,26.125,26.375
0.18805179,-2.2770343,-1.9796611,-1.3503201,-0.044762436,0.057642847,-0.093745895,-0.38189796,-0.32983515,0.060065646,-3.0771108,0.6258521,-1.2456505e-05,-0.08501529,-0.0103359185,-0.0018421438,0.017433798,-0.013414913,-0.0030915132,0.44376573,-1.4523906,1.9880527,-2.1040847,-1.5717214,2.4194887,-0.04946472,0.1790094,-0.2058154,0.04638928,-0.0103601925,-0.046216406,-0.2681506,0.22984336,-9.32781,0.842603,47.629562,-1.1676571,-1.7094691,-3.5495152,-0.34229255,-0.10776888,-0.41332954,24.5,24.9375,24.25,26.0625,26.125,26.375
0.19005187,-2.2559717,-1.553331,-1.3946395,-0.02046763,0.05367027,-0.08946728,-0.38207793,-0.32984784,0.060063865,-3.0770636,0.62588024,-3.6628044e-05,-0.087711975,-0.010736779,-0.00069383497,0.015978906,-0.0089109875,-0.0024510487,0.4436453,-1.4520308,1.9876341,-2.1039894,-1.5717453,2.419392,-0.050652154,0.1801423,-0.20921595,0.043962352,-0.010997975,-0.048039805,-0.22984336,0.17238252,-9.308657,0.83365434,47.67166,-1.1252689,-1.6591775,-3.487155,-0.32865056,-0.106162876,-0.41606247,24.5,24.9375,24.25,26.0625,26.125,26.375
0.19205205,-2.0658827,-1.1850586,-1.4665412,-0.008889924,0.049357872,-0.095524386,-0.38224474,-0.32986945,0.06004653,-3.0770242,0.62583196,-4.4836466e-05,-0.09007157,-0.012036075,0.0008959824,0.0133602,-0.003792223,0.0006422884,0.44356138,-1.4516594,1.9872493,-2.1039426,-1.5717815,2.4192834,-0.05040545,0.18067509,-0.21292953,0.041389212,-0.010848877,-0.05088375,-0.3256114,0.11492168,-9.270349,0.88289046,47.672558,-1.0957497,-1.4743056,-3.4285161,-0.32192945,-0.12246523,-0.37583023,24.5,24.9375,24.25,26.0625,26.125,26.375
0.19405238,-2.0162692,-1.1147418,-1.4583113,-0.0058734226,0.054073967,-0.08562991,-0.3824058,-0.32988182,0.060053486,-3.0769725,0.62580067,-7.205914e-05,-0.09204235,-0.012388963,0.0011965064,0.012814925,-0.0019117069,0.0027197928,0.44346526,-1.4513353,1.986842,-2.1038115,-1.5718173,2.4191747,-0.05124732,0.18314981,-0.21616462,0.040211678,-0.011179132,-0.053799406,-0.40222588,0.11492168,-9.193734,0.7978386,47.642998,-1.1783813,-1.4782436,-3.424786,-0.28304708,-0.10778546,-0.35325974,24.5,24.9375,24.25,26.0625,26.125,26.375
0.19605254,-1.9798126,-1.0253782,-1.5986428,-0.016630998,0.058085565,-0.09246531,-0.38259226,-0.32991683,0.060040627,-3.0769324,0.62579197,-9.6423435e-05,-0.09351494,-0.012521486,0.0016864287,0.01210553,-0.0005904609,0.003218139,0.44338086,-1.4509159,1.9863871,-2.103739,-1.5718416,2.4190903,-0.052314915,0.18435018,-0.21865004,0.039994486,-0.011115232,-0.05536362,-0.36391866,0.038307227,-9.3661175,0.95226496,47.704796,-1.1289011,-1.4399196,-3.458487,-0.29435742,-0.11619939,-0.3090762,24.5,24.9375,24.25,26.0625,26.125,26.375
0.19805172,-2.0104003,-1.477793,-1.7443101,-0.02461944,0.06497759,-0.087887116,-0.38278252,-0.32993436,0.060043123,-3.0768964,0.6258018,-0.00010595359,-0.094024464,-0.0123315,0.0009868918,0.012959491,-0.0018185179,0.0048780986,0.44326058,-1.4505435,1.9859442,-2.1036437,-1.5718654,2.418981,-0.05291195,0.1867731,-0.21988037,0.040272884,-0.0113664875,-0.057618845,-0.34476504,0.1340753,-9.442732,0.82022345,47.67614,-1.1163924,-1.4659183,-3.4700422,-0.2998021,-0.14444238,-0.2891969,24.5,24.9375,24.25,26.0625,26.125,26.375
0.20005183,-2.3032856,-2.0641181,-1.830488,-0.035132393,0.0698604,-0.08951126,-0.38298056,-0.3299487,0.060070936,-3.0768988,0.62580097,-3.928512e-05,-0.09572961,-0.012075275,0.00036612494,0.014553998,-0.0018364947,0.006368519,0.4431283,-1.4502307,1.9855121,-2.1035597,-1.5718902,2.4188483,-0.05389471,0.19085498,-0.22301185,0.040021468,-0.012808075,-0.060086466,-0.40222588,0.15322891,-9.461885,0.8560339,47.694946,-1.1104844,-1.5075555,-3.3458362,-0.3132304,-0.124015205,-0.24534765,24.5,24.9375,24.25,26.0625,26.125,26.375
0.2020521,-2.4174154,-2.1793194,-1.931933,-0.04790921,0.06976675,-0.08444552,-0.38316998,-0.32997665,0.060053248,-3.076835,0.625711,-8.5407046e-05,-0.097262084,-0.012484258,-0.0008325819,0.015281862,-0.0035246033,0.006752763,0.443044,-1.4497855,1.985031,-2.103452,-1.5719379,2.4187164,-0.054495417,0.19674475,-0.22688337,0.039834946,-0.012756803,-0.061067674,-0.4213795,0.3256114,-9.442732,0.86945957,47.64658,-1.1397703,-1.711621,-3.2623618,-0.28974804,-0.14311655,-0.19844553,24.5,24.9375,24.25,26.0625,26.125,26.375
0.20405224,-2.5095294,-2.6796591,-2.0056558,-0.055504836,0.07683031,-0.08894825,-0.38335386,-0.33000818,0.060068507,-3.07686,0.6257155,-9.665361e-05,-0.09777358,-0.011908774,-0.0014611722,0.016472448,-0.0037602442,0.006115202,0.44292378,-1.4494495,1.9846019,-2.1033685,-1.5719141,2.418596,-0.0553213,0.19820581,-0.2269966,0.039213598,-0.013734004,-0.061253283,-0.45968673,0.40222588,-9.519346,0.83813137,47.66091,-1.0992064,-1.6332554,-3.3861494,-0.2892074,-0.13181366,-0.1833606,24.5,24.9375,24.25,26.0625,26.125,26.375
0.20605259,-2.9631422,-3.2919471,-1.9845778,-0.06821968,0.07332196,-0.08413539,-0.3835456,-0.3300239,0.06004911,-3.0768044,0.6257622,-0.00016090031,-0.09844019,-0.01192014,-0.000993126,0.015431587,-0.002469267,0.005329964,0.4427916,-1.4490304,1.9841589,-2.103285,-1.5719265,2.4185004,-0.0560964,0.19773124,-0.22746477,0.03854006,-0.013354278,-0.06124315,-0.4405331,0.38307226,-9.576807,0.83589023,47.658226,-1.0891294,-1.7096304,-3.5756059,-0.28862795,-0.12454876,-0.14763781,24.5,24.9375,24.25,26.0625,26.125,26.375
0.20805195,-2.6221218,-2.9001315,-2.0577028,-0.08263862,0.073153116,-0.08527741,-0.383743,-0.33002955,0.06003982,-3.0767193,0.6257064,-0.00014168976,-0.0999201,-0.011972176,-0.00037048646,0.014832987,1.210419e-07,0.003963416,0.44268334,-1.4486233,1.9837035,-2.1031897,-1.5720104,2.4183686,-0.05691572,0.19819175,-0.22920546,0.037328698,-0.013880889,-0.060692713,-0.38307226,0.36391866,-9.672575,0.8985519,47.705692,-1.0897177,-1.6144502,-3.6254709,-0.26428437,-0.12027824,-0.15937069,24.5,24.9375,24.25,26.0625,26.125,26.375
0.21005209,-2.3596797,-3.3035414,-2.0475006,-0.07696829,0.06700538,-0.08849081,-0.38393927,-0.33005825,0.060039762,-3.0767343,0.6256339,-0.00014343251,-0.10091181,-0.01210466,-0.00066509756,0.014014584,0.0004383581,0.0009441095,0.44256306,-1.4482394,1.983261,-2.1031306,-1.5720104,2.4182014,-0.057865813,0.1999414,-0.23022512,0.035851672,-0.013332904,-0.05862391,-0.4405331,0.4213795,-9.615114,0.87617236,47.6636,-1.0249516,-1.631405,-3.7018197,-0.24438615,-0.13023402,-0.13771904,24.5,24.9375,24.25,26.0625,26.125,26.375
0.212052,-2.5843122,-3.1439342,-1.9140021,-0.081397034,0.05018179,-0.07939619,-0.38415524,-0.33009633,0.060060363,-3.076734,0.6256349,-5.1674382e-05,-0.10262894,-0.01262809,-0.0006377876,0.0139113525,0.001780244,-0.0014695267,0.4424669,-1.447855,1.9827703,-2.103071,-1.5720466,2.4181063,-0.058048755,0.20301516,-0.2335761,0.03487382,-0.013818821,-0.05639013,-0.38307226,0.4405331,-9.557653,0.842603,47.6636,-1.0639534,-1.7094293,-3.819798,-0.21645035,-0.13894093,-0.14848863,24.5,24.9375,24.25,26.0625,26.125,26.375
0.21405219,-1.9189007,-2.76842,-1.9762324,-0.06763187,0.052669276,-0.08760226,-0.38439673,-0.33012232,0.060065504,-3.0767388,0.62567693,2.921052e-06,-0.10564791,-0.012043805,-0.00024472486,0.012903689,0.0036833186,-0.0062272227,0.4423096,-1.4474227,1.9822668,-2.1030357,-1.5720581,2.417975,-0.06178773,0.20558223,-0.23717903,0.033756956,-0.013730517,-0.05536964,-0.22984336,0.4213795,-9.500193,0.842603,47.64927,-0.9559065,-1.6034169,-3.672792,-0.16850066,-0.16011542,-0.17251246,24.5,24.9375,24.25,26.0625,26.125,26.375
0.21605243,-1.812482,-2.3865802,-1.7221684,-0.056142624,0.04214205,-0.08579097,-0.3845782,-0.33012927,0.060030445,-3.0766394,0.6256752,-4.684463e-05,-0.1060593,-0.01301647,-0.00071689213,0.012829668,0.003926969,-0.005843322,0.4422022,-1.4469906,1.9818472,-2.1029642,-1.5721182,2.4178796,-0.060283665,0.20820709,-0.23884617,0.032544572,-0.013777802,-0.05424676,-0.21068975,0.34476504,-9.481039,0.83589023,47.672558,-0.90695876,-1.6381938,-3.6790237,-0.13758236,-0.13961995,-0.15778887,24.5,24.9375,24.25,26.0625,26.125,26.375
0.2180526,-2.1895564,-2.5405078,-1.7051146,-0.044233926,0.03188577,-0.07931516,-0.38482323,-0.3301722,0.060063247,-3.0766764,0.62568474,9.351e-05,-0.10745739,-0.013365228,-0.00034365788,0.012438763,0.004195696,-0.011655414,0.44208187,-1.4465948,1.9813207,-2.102928,-1.5721425,2.4177608,-0.06097966,0.21037355,-0.24243659,0.03356278,-0.013534239,-0.04913069,-0.30645782,0.24899697,-9.404425,0.8717007,47.64837,-1.0086248,-1.5697498,-3.576689,-0.09901854,-0.16948898,-0.21174382,24.5,24.9375,24.25,26.0625,26.125,26.375
0.22005188,-1.9957957,-2.2635977,-1.6637055,-0.03478448,0.033997912,-0.08284607,-0.38505012,-0.33021295,0.060077265,-3.0766678,0.625742,0.00015931288,-0.10887979,-0.012615922,-0.00022731749,0.012911947,0.0032686016,-0.016287293,0.44197315,-1.4461749,1.9808043,-2.102867,-1.5721663,2.4176893,-0.063544326,0.2121794,-0.24528334,0.035644986,-0.013562987,-0.04706272,-0.22984336,0.30645782,-9.404425,0.83589023,47.635834,-0.92934775,-1.6403329,-3.5469117,-0.09727955,-0.17864949,-0.24662107,24.5,24.9375,24.25,26.0625,26.125,26.375
0.22205192,-1.7735033,-2.1208475,-1.6363865,-0.0310437,0.03249973,-0.08735061,-0.38521862,-0.33022782,0.060028363,-3.0765758,0.6258022,-6.3922466e-06,-0.11132126,-0.012550766,0.00082848145,0.012232225,0.0050048367,-0.019385222,0.44185224,-1.4457195,1.9803842,-2.102771,-1.5721663,2.417618,-0.06567168,0.21385653,-0.24992518,0.03675007,-0.013703752,-0.04608766,-0.19153613,0.19153613,-9.385271,0.8560339,47.61613,-0.764107,-1.5379134,-3.4466732,-0.07409246,-0.17350873,-0.25550234,24.5,24.9375,24.25,26.0625,26.125,26.375
0.22405191,-1.5792413,-1.572621,-1.3440566,-0.035852373,0.028688231,-0.08875047,-0.38549605,-0.33024576,0.060068652,-3.076569,0.6258936,0.00023448071,-0.111853115,-0.013919287,0.0022011048,0.011940225,0.0061608367,-0.014784183,0.44169712,-1.4453237,1.9798454,-2.1027577,-1.5722502,2.4175212,-0.06339955,0.21437976,-0.25435206,0.03947488,-0.013933854,-0.048416097,-0.2681506,0.22984336,-9.289502,0.88960326,47.655537,-0.95881486,-1.4899619,-3.3847313,-0.0841268,-0.17249352,-0.25212085,24.5,24.9375,24.25,26.0625,26.125,26.375
0.22605167,-1.5261812,-1.5438652,-1.3041763,-0.02559241,0.03667238,-0.08932632,-0.3857065,-0.33028707,0.06006653,-3.0765622,0.62585545,0.00020184231,-0.112913884,-0.01303431,0.001839497,0.01275663,0.004742794,-0.018402973,0.44158834,-1.4448797,1.9793304,-2.1026618,-1.5722502,2.4173899,-0.06582468,0.21634422,-0.25615165,0.040942013,-0.014066304,-0.047221005,-0.28730422,0.3256114,-9.232041,0.8806493,47.64389,-0.8558764,-1.5231153,-3.3119981,-0.07799554,-0.17229855,-0.2627257,24.5,24.9375,24.25,26.0625,26.125,26.375
0.22805184,-1.7140318,-1.6065291,-1.405051,-0.0259219,0.03795642,-0.08984187,-0.38592616,-0.33030918,0.06005791,-3.0764997,0.6259768,0.00015266788,-0.11373613,-0.013411002,0.0017745345,0.011885516,0.0053150314,-0.019099977,0.44144416,-1.4444243,1.978815,-2.1025546,-1.5722622,2.4173298,-0.06614951,0.21777737,-0.25747833,0.039942198,-0.013530341,-0.0468486,-0.2681506,0.36391866,-9.32781,0.8537928,47.63673,-0.76963437,-1.4054666,-3.3941865,-0.038755015,-0.19819635,-0.3127661,24.5,24.9375,24.25,26.0625,26.125,26.375
0.230052,-1.8377949,-1.7481098,-1.3987281,-0.0475248,0.0471422,-0.096644714,-0.3861496,-0.33033735,0.060053684,-3.0764747,0.6259508,0.00018229484,-0.11395569,-0.013029469,0.0011666624,0.013372307,0.0025927136,-0.01787582,0.441324,-1.4439806,1.9783128,-2.1024935,-1.5722984,2.417197,-0.06687236,0.22021908,-0.25953394,0.04264672,-0.013712546,-0.04879444,-0.19153613,0.24899697,-9.3661175,0.94331104,47.651955,-0.80399823,-1.4193275,-3.495944,-0.027837023,-0.19551119,-0.3016581,24.5,24.9375,24.25,26.0625,26.125,26.375
0.23205216,-2.1826057,-2.1534362,-1.3619821,-0.04877512,0.05133845,-0.0842461,-0.38638738,-0.33035496,0.060080033,-3.0764391,0.62607706,0.00019065634,-0.11375012,-0.01261218,0.00089337846,0.014246218,0.00046825674,-0.01707687,0.4411559,-1.4435729,1.9777621,-2.102349,-1.5723103,2.4171126,-0.0674749,0.22091758,-0.26031607,0.04501892,-0.013594226,-0.05019645,-0.17238252,0.17238252,-9.212888,0.83589023,47.6636,-0.7414156,-1.3228083,-3.5189528,-0.018488951,-0.21483071,-0.29578033,24.5,24.9375,24.25,26.0625,26.125,26.375
0.23405227,-1.7992774,-1.6255207,-1.5007292,-0.0473866,0.05790723,-0.09262969,-0.38659713,-0.3303867,0.060061462,-3.0763836,0.62610525,0.00015050784,-0.11494007,-0.011312058,-0.0009409465,0.016727576,-0.0031151152,-0.019842418,0.4410469,-1.4431037,1.9772586,-2.1022651,-1.5723351,2.4170287,-0.07038553,0.22608554,-0.26226598,0.04610032,-0.014313487,-0.050337527,-0.34476504,0.19153613,-9.212888,0.9455522,47.666286,-0.76636165,-1.5998707,-3.5798178,-0.022868149,-0.22130822,-0.29811078,24.5,24.9375,24.25,26.0625,26.125,26.375
0.2360525,-2.2627683,-1.6365875,-1.4553066,-0.025681978,0.03811895,-0.08858408,-0.38683572,-0.33041164,0.060051244,-3.076359,0.6261769,0.00015598522,-0.115797825,-0.012355992,-0.0013550764,0.016549865,-0.0036192082,-0.019448105,0.44089118,-1.4426355,1.976745,-2.102217,-1.5723461,2.4169211,-0.069396414,0.22980066,-0.265592,0.04608836,-0.013945832,-0.04974149,-0.17238252,0.15322891,-9.251195,0.9030289,47.686886,-0.6277025,-1.7411537,-3.5890808,-0.0220829,-0.23910989,-0.32044238,24.5,24.9375,24.25,26.0625,26.125,26.375
0.23805162,-1.5952463,-1.07997,-1.3029568,-0.0130228195,0.03560455,-0.0887203,-0.38707307,-0.3304373,0.06005953,-3.0763254,0.6262463,0.00017799233,-0.116361834,-0.012261439,-0.001650757,0.017521648,-0.004130027,-0.019050784,0.4407471,-1.4421915,1.9762052,-2.102121,-1.5723709,2.416825,-0.06956351,0.23165646,-0.26725128,0.046766687,-0.014611062,-0.0503033,-0.17238252,0.11492168,-9.155427,0.8784135,47.647476,-0.69140273,-1.6871088,-3.5006347,-0.0016393815,-0.23652619,-0.35985094,24.5,24.9375,24.25,26.0625,26.125,26.375
0.24005252,-1.3021456,-0.94187057,-1.185943,-0.0036191293,0.02284628,-0.0920741,-0.38730803,-0.3304553,0.060057987,-3.0762684,0.6262544,0.00021756487,-0.11820751,-0.011700979,-0.00092514476,0.016879521,-0.0033698988,-0.021510482,0.4406142,-1.4417362,1.9756778,-2.1020367,-1.5724305,2.416705,-0.072310835,0.23245923,-0.27017802,0.047922995,-0.0143605815,-0.050590213,-0.19153613,0.1340753,-9.078813,0.8560339,47.615234,-0.6368219,-1.7222531,-3.5129683,0.024714129,-0.24869493,-0.36656928,24.5,24.9375,24.25,26.0625,26.125,26.375
0.2420517,-1.4111537,-1.1104665,-1.3686154,-0.005772208,0.009770912,-0.081705116,-0.38750613,-0.33047354,0.06000818,-3.076163,0.62632626,6.057554e-05,-0.11940726,-0.012792113,0.00030297096,0.016805395,-0.0010503937,-0.017917793,0.44048274,-1.4412202,1.9751867,-2.1019285,-1.5724429,2.4166322,-0.07067882,0.23346639,-0.27450627,0.049111716,-0.015299881,-0.052544363,-0.19153613,0.19153613,-9.002198,0.87617236,47.63225,-0.4982258,-1.7394637,-3.5124643,0.036896143,-0.25308266,-0.35384637,24.5,24.9375,24.25,26.0625,26.125,26.375
0.24405184,-1.3405288,-1.3078701,-1.2967473,-0.016279403,0.016710827,-0.092408076,-0.38778085,-0.3305063,0.060040694,-3.076173,0.6264233,0.000118735974,-0.119996846,-0.013478244,0.0008974958,0.01731031,-0.0015143772,-0.017302567,0.44030318,-1.440765,1.9745754,-2.1018198,-1.5724429,2.4165123,-0.06968729,0.2351505,-0.27854002,0.05209534,-0.01555922,-0.052166536,-0.24899697,0.36391866,-9.021352,0.8851263,47.63315,-0.7901515,-1.7357208,-3.6056395,0.022396049,-0.25095707,-0.36550164,24.5,24.9375,24.25,26.0625,26.125,26.375
0.24605218,-1.3297532,-1.4991113,-1.3941557,-0.04356244,0.032661602,-0.092127755,-0.38801348,-0.3305188,0.06003873,-3.076096,0.6263684,0.00012455338,-0.1202409,-0.012932393,0.00086909404,0.019329207,-0.004018185,-0.016795138,0.44017097,-1.4402977,1.9740237,-2.1016867,-1.5725154,2.416356,-0.070343316,0.23676644,-0.28138438,0.056443933,-0.016320271,-0.05332654,-0.24899697,0.40222588,-9.11712,0.94331104,47.684196,-0.71947396,-1.5163403,-3.38798,-0.010883643,-0.24112841,-0.38884658,24.5,24.9375,24.25,26.0625,26.125,26.375
0.24805239,-2.2524679,-2.9424438,-1.4744526,-0.05607604,0.03013683,-0.079289265,-0.38822246,-0.33053342,0.060006596,-3.075979,0.6264387,3.7084965e-06,-0.11965613,-0.012879756,0.00039666443,0.021228455,-0.008272574,-0.014407598,0.44003916,-1.4397933,1.9734963,-2.1015418,-1.5725511,2.4162836,-0.069936015,0.2389739,-0.28406686,0.0615689,-0.016231384,-0.055304706,-0.22984336,0.38307226,-9.270349,0.83589023,47.65912,-0.74688053,-1.4504058,-3.3683887,-0.05611012,-0.250548,-0.37333152,24.5,24.9375,24.25,26.0625,26.125,26.375
0.25005254,-2.3975449,-3.0569444,-1.3831844,-0.07249288,0.042224478,-0.083334915,-0.38847205,-0.3305473,0.06000702,-3.0759008,0.6264567,-5.779858e-05,-0.11937905,-0.01258962,-0.00048846053,0.02298468,-0.012249813,-0.010003014,0.43987107,-1.4392892,1.9728864,-2.101361,-1.5725874,2.4161372,-0.07022329,0.24172378,-0.2860656,0.06514986,-0.016137168,-0.059995215,-0.30645782,0.4405331,-9.232041,0.8806493,47.693153,-0.8190625,-1.6520633,-3.4597507,-0.10370896,-0.2555623,-0.33886647,24.5,24.9375,24.25,26.0625,26.125,26.375
0.25205177,-2.1038053,-3.2157152,-1.3736756,-0.072384045,0.05532527,-0.08461657,-0.38871527,-0.33058885,0.06000178,-3.075871,0.62646997,-5.394116e-05,-0.11856701,-0.012384697,-0.0007938388,0.024743794,-0.01444898,-0.009307776,0.4397513,-1.4387864,1.9723123,-2.1012762,-1.5726112,2.41603,-0.06940533,0.24211726,-0.28657162,0.06800061,-0.016790446,-0.05987085,-0.36391866,0.5363012,-9.251195,0.8291774,47.684196,-0.8406296,-1.5835809,-3.4523687,-0.15676856,-0.27035215,-0.3189875,24.5,24.9375,24.25,26.0625,26.125,26.375
0.2540518,-1.7034794,-2.5113747,-1.1810541,-0.08934346,0.07446457,-0.10041934,-0.388947,-0.33062047,0.060005374,-3.0758336,0.62647945,-0.00013163566,-0.118684836,-0.012751023,-0.00078761205,0.02407187,-0.015696175,-0.007080144,0.43960738,-1.4383069,1.9717253,-2.1011083,-1.5726107,2.4158971,-0.06951705,0.2431113,-0.28813592,0.06940239,-0.015662633,-0.06221226,-0.30645782,0.40222588,-9.174581,0.86945957,47.642998,-0.9127861,-1.4396565,-3.6318364,-0.20838222,-0.28875494,-0.30829173,24.5,24.9375,24.25,26.0625,26.125,26.375
0.25605208,-1.7292715,-2.3776677,-1.3862853,-0.06814088,0.05570481,-0.09382986,-0.38920754,-0.33062425,0.060001105,-3.075729,0.62649333,-9.0441536e-05,-0.118890546,-0.013100272,-0.0016866727,0.0251326,-0.01740653,-0.0028816066,0.43945152,-1.4378026,1.9711388,-2.1009877,-1.5727075,2.4157639,-0.06882914,0.2463497,-0.2899806,0.06999287,-0.015909621,-0.06572041,-0.1340753,0.4213795,-9.155427,0.9455522,47.65912,-0.9494283,-1.5115969,-3.678042,-0.24084337,-0.31021774,-0.2687654,24.5,24.9375,24.25,26.0625,26.125,26.375
0.25805247,-1.6949927,-1.9111903,-1.4325544,-0.05496197,0.03682757,-0.09109801,-0.3894123,-0.33067766,0.05997803,-3.0757113,0.62639254,-0.0002371959,-0.119966485,-0.013050917,-0.0026438655,0.025362305,-0.018332256,-0.0013667648,0.43935516,-1.4372864,1.9705766,-2.1008446,-1.5726827,2.4156072,-0.06991453,0.24987014,-0.29168242,0.069103904,-0.015743017,-0.06831823,-0.038307227,0.3256114,-9.251195,0.9791215,47.645687,-0.8937705,-1.6018803,-3.719893,-0.23843506,-0.31424716,-0.2317141,24.5,24.9375,24.25,26.0625,26.125,26.375
0.26005244,-1.1682804,-1.6484364,-1.398812,-0.047043975,0.02563911,-0.08754853,-0.3896621,-0.3306891,0.059955977,-3.0756166,0.6263713,-0.00028581472,-0.12231153,-0.013753823,-0.0008311919,0.024411593,-0.014604712,0.0007990401,0.43919912,-1.4367474,1.9699887,-2.100713,-1.5727433,2.4154506,-0.07010151,0.25053358,-0.29687515,0.06984634,-0.016491298,-0.07066483,0.076614454,0.30645782,-9.136273,0.85826975,47.64837,-0.9880044,-1.6201605,-3.6494017,-0.26534075,-0.3124048,-0.19537368,24.5,24.9375,24.25,26.0625,26.125,26.375
0.26205263,-0.72927195,-1.4891226,-1.6479259,-0.022604214,0.0042858645,-0.0854542,-0.389902,-0.33072406,0.05992706,-3.0755715,0.62641853,-0.0003622846,-0.12474202,-0.014578472,-0.0006678224,0.022903293,-0.011287325,0.0020927228,0.439055,-1.4362072,1.969426,-2.100631,-1.5727433,2.415342,-0.07058616,0.2536087,-0.30004713,0.06629348,-0.016562257,-0.07243927,0.19153613,0.3256114,-9.212888,0.90527004,47.652847,-0.927245,-1.769938,-3.4475555,-0.29059288,-0.3212216,-0.14677915,24.5,24.9375,24.25,26.0625,26.125,26.375
0.26405162,-0.9582273,-2.0778306,-1.8583893,-0.0068975473,-0.016452592,-0.079749376,-0.3901776,-0.33074552,0.05994928,-3.0754914,0.6264394,-0.00030158975,-0.12687649,-0.014743257,-0.00067693467,0.02237728,-0.009683051,0.0020956986,0.43891057,-1.4357022,1.9687666,-2.1004632,-1.5728272,2.4152215,-0.07191733,0.2566148,-0.30319232,0.06474632,-0.016784599,-0.07377024,0.13407528,0.36391866,-9.289502,0.8605109,47.666286,-0.92857766,-1.890764,-3.4733682,-0.24868736,-0.31327373,-0.10645524,24.5,24.9375,24.3125,26.0625,26.125,26.375
0.26605186,-0.61056405,-2.1193058,-1.8750039,-0.023467718,-0.005399726,-0.08544763,-0.39041567,-0.3307858,0.059955567,-3.0754998,0.6263263,-0.0003344602,-0.12720132,-0.014557202,-0.0009491217,0.023799134,-0.010500982,0.0018234875,0.43877846,-1.4352231,1.9681805,-2.100331,-1.5728277,2.415018,-0.07185683,0.2582096,-0.30479386,0.06609968,-0.017728308,-0.073433325,0.13407528,0.34476504,-9.32781,0.85826975,47.66271,-0.9399851,-1.9012346,-3.4000642,-0.262108,-0.30865258,-0.07993135,24.5,24.9375,24.3125,26.0625,26.125,26.375
0.26805198,-0.5306589,-2.0785427,-1.7825044,-0.053611383,0.0049831197,-0.091240406,-0.39066792,-0.33079615,0.059908353,-3.0753715,0.6263767,-0.00045505565,-0.12850212,-0.015041406,-0.0010958433,0.023150228,-0.00950051,-0.00028087336,0.43861058,-1.4346235,1.9675807,-2.1002004,-1.5728759,2.4148986,-0.072119735,0.2606242,-0.30702794,0.06473517,-0.017582783,-0.071588546,0.038307227,0.36391866,-9.385271,0.8940802,47.652847,-0.9435048,-1.8095065,-3.5503864,-0.28667212,-0.3363745,-0.05966857,24.5,24.9375,24.3125,26.0625,26.125,26.375
0.2700521,-1.3395746,-2.9628916,-1.7923808,-0.072726004,0.020189269,-0.09005989,-0.39092195,-0.33081597,0.05990888,-3.0752974,0.62632406,-0.00047571913,-0.1303286,-0.01573455,-0.0010925995,0.022272239,-0.006358024,-0.002523584,0.43846655,-1.4341075,1.9669579,-2.1000335,-1.5729359,2.4147317,-0.07199915,0.26301813,-0.3090587,0.061154943,-0.01813656,-0.069220245,0.0,0.28730422,-9.423578,0.89631605,47.67166,-0.93282175,-1.9760401,-3.5312428,-0.23783886,-0.34027812,-0.06670931,24.5,24.9375,24.3125,26.0625,26.125,26.375
0.27205217,-2.284863,-3.5409465,-2.1439514,-0.07927527,0.025547754,-0.07894543,-0.391162,-0.33087474,0.059900973,-3.0752869,0.6262841,-0.0005500808,-0.13190106,-0.016066246,-0.0005397484,0.021446204,-0.004865303,-0.005489798,0.43835837,-1.4335684,1.9663357,-2.099902,-1.5729235,2.4146004,-0.0727597,0.2644764,-0.31208006,0.061019674,-0.018029304,-0.06701254,0.038307227,0.30645782,-9.557653,0.87617236,47.657326,-0.9226991,-1.8585827,-3.5796385,-0.23106274,-0.35133916,-0.081265874,24.5,24.9375,24.3125,26.0625,26.125,26.375
0.27405235,-2.3073716,-3.7088478,-2.0921276,-0.07926889,0.034137692,-0.07510345,-0.39142093,-0.33087713,0.05988104,-3.075176,0.62633896,-0.000601954,-0.13242355,-0.016634364,-0.0011550593,0.021027574,-0.004844565,-0.007164444,0.4381785,-1.4330287,1.9657377,-2.0997589,-1.5729836,2.4144695,-0.07233311,0.26681373,-0.31311476,0.0595173,-0.017668122,-0.064910196,-0.019153614,0.3256114,-9.615114,0.8851263,47.629562,-1.0324618,-1.9081552,-3.5733163,-0.20815723,-0.36879897,-0.082212254,24.5,24.9375,24.3125,26.0625,26.125,26.375
0.27605176,-2.1781013,-3.2596502,-2.183894,-0.080202326,0.047454145,-0.07898786,-0.39169428,-0.33093163,0.059873942,-3.0751467,0.62635326,-0.0005975434,-0.1341919,-0.016130442,-0.0008207004,0.020244101,-0.0019716795,-0.011602203,0.4380578,-1.432453,1.9650801,-2.099664,-1.5730075,2.414362,-0.074370995,0.26706842,-0.31373245,0.056950513,-0.018181553,-0.062507555,-0.17238252,0.28730422,-9.749189,1.0082139,47.64389,-0.9347497,-1.8257253,-3.728396,-0.16576996,-0.3751228,-0.11394489,24.5,24.9375,24.3125,26.0625,26.125,26.375
0.27805185,-1.9175379,-2.930917,-2.2970517,-0.06266092,0.056796093,-0.08688126,-0.39197087,-0.33097088,0.059890296,-3.075124,0.6263666,-0.0005470369,-0.1351716,-0.018304186,0.0006773342,0.017765958,0.0027346474,-0.010659529,0.4379148,-1.4319383,1.9644321,-2.0995452,-1.5730437,2.4142306,-0.07133001,0.26685163,-0.3165235,0.054644838,-0.01794018,-0.060408782,-0.19153613,0.34476504,-9.825804,0.94331104,47.64389,-1.1700339,-1.778584,-3.846685,-0.15899451,-0.37583917,-0.13401881,24.5,24.9375,24.3125,26.0625,26.125,26.375
0.28005192,-2.2440052,-2.372122,-2.2225552,-0.065249205,0.05783061,-0.0842945,-0.39223763,-0.33100468,0.059881978,-3.0750632,0.62641287,-0.000561922,-0.1371953,-0.018324884,0.001539263,0.016546305,0.005105724,-0.013911645,0.43777034,-1.4313862,1.9637979,-2.0994256,-1.57308,2.4141233,-0.07302053,0.26768363,-0.31945127,0.05407506,-0.017847782,-0.05884541,-0.21068975,0.30645782,-9.730036,0.94331104,47.658226,-1.1203988,-1.7920691,-3.7304018,-0.12632263,-0.3842718,-0.17058675,24.5,24.9375,24.3125,26.0625,26.125,26.375
0.28205204,-2.173058,-2.0591419,-2.244077,-0.04610096,0.059918463,-0.08655816,-0.39252293,-0.33105794,0.059890755,-3.075072,0.6264166,-0.00048305234,-0.13829874,-0.017689545,0.0006188621,0.017296137,0.0038769268,-0.017075723,0.43763757,-1.4308469,1.9631523,-2.0993655,-1.5731038,2.4139922,-0.07495201,0.27070418,-0.32087067,0.053904742,-0.018004525,-0.057612095,-0.4213795,0.21068975,-9.749189,0.9925471,47.62598,-0.9644692,-1.7666627,-3.767179,-0.08621799,-0.4039436,-0.19396749,24.5,24.9375,24.3125,26.0625,26.125,26.375
0.28405252,-2.5001771,-2.0425818,-2.1886208,-0.03334261,0.056379568,-0.07930143,-0.39276713,-0.33108398,0.059858304,-3.0749617,0.6264492,-0.00057468633,-0.1387584,-0.018913591,0.0007274578,0.01720843,0.004047366,-0.015953794,0.43750644,-1.4302713,1.9625405,-2.099222,-1.573152,2.413896,-0.07304771,0.27301148,-0.32403898,0.054571256,-0.018007502,-0.05682627,-0.3256114,0.21068975,-9.768343,0.9791215,47.675243,-1.2288079,-1.7844137,-3.74109,-0.0621299,-0.3978541,-0.22008242,24.5,24.9375,24.3125,26.0625,26.125,26.375
0.2860522,-2.2595093,-1.7810943,-2.1652403,-0.036334727,0.07181708,-0.084932186,-0.39307466,-0.33111882,0.05986934,-3.0749435,0.62659943,-0.0005204184,-0.13988617,-0.018202845,1.5179754e-05,0.018685518,0.0027971012,-0.01850097,0.43731385,-1.4297191,1.9618691,-2.099138,-1.5731643,2.4138,-0.074692905,0.27601862,-0.32616493,0.055449534,-0.018815322,-0.055920776,-0.30645782,0.19153613,-9.730036,0.8717007,47.67793,-1.1075333,-1.8870211,-3.7488103,-0.054145534,-0.40764546,-0.2418182,24.5,24.9375,24.3125,26.0625,26.125,26.375
0.28805226,-2.283531,-1.7190377,-2.136299,-0.03301446,0.06951674,-0.08724705,-0.39336985,-0.33115503,0.059878953,-3.074901,0.6266097,-0.00048218132,-0.14110084,-0.017943837,0.00013209163,0.019786712,0.0024336362,-0.017670887,0.43715748,-1.4291552,1.9611763,-2.0990055,-1.573212,2.413656,-0.07556938,0.27820292,-0.32949898,0.057387974,-0.019666899,-0.057622712,-0.4213795,0.22984336,-9.768343,0.8851263,47.64389,-1.0853102,-1.8114104,-3.7398329,-0.027110362,-0.4236654,-0.25105244,24.5,24.9375,24.3125,26.0625,26.125,26.375
0.2900517,-2.2750552,-1.5494772,-2.2573142,-0.03454454,0.070461534,-0.0885326,-0.39363486,-0.33121648,0.059879705,-3.0748744,0.6265848,-0.0004236457,-0.14078945,-0.017537976,-0.0008199148,0.021958336,-0.00071084924,-0.019061837,0.43707374,-1.428604,1.9605287,-2.0989206,-1.5732607,2.4135606,-0.07557104,0.28058884,-0.3307805,0.0600534,-0.020296697,-0.056231093,-0.47884035,0.22984336,-9.749189,0.8717007,47.653748,-1.1205461,-2.068317,-3.7220674,-0.04559402,-0.429086,-0.27362972,24.5,24.9375,24.3125,26.0625,26.125,26.375
0.2920517,-2.2400253,-2.1503556,-2.0839887,-0.030115813,0.07452313,-0.08902302,-0.39392003,-0.3312403,0.059875794,-3.0748246,0.6267112,-0.00044623218,-0.14391424,-0.016761046,-0.0005938161,0.021979311,0.0014762232,-0.023143964,0.43688047,-1.4280522,1.9598831,-2.0988014,-1.5732726,2.413453,-0.078945786,0.2836029,-0.33461013,0.05889719,-0.021253765,-0.055517193,-0.45968673,0.22984336,-9.615114,0.95897776,47.64479,-1.0006919,-1.9204195,-3.71349,-0.012766499,-0.42977968,-0.31033638,24.5,24.9375,24.3125,26.0625,26.125,26.375
0.29405177,-2.503953,-2.2288477,-1.8868389,-0.038997658,0.06655961,-0.08893497,-0.39422566,-0.33127898,0.059873074,-3.074768,0.62677395,-0.000443174,-0.14493293,-0.018183459,0.0010090657,0.021970652,0.004942918,-0.020126222,0.43671334,-1.427441,1.959164,-2.0986698,-1.5733098,2.413333,-0.07618352,0.2838007,-0.33887202,0.05981552,-0.022722613,-0.055764876,-0.2681506,0.21068975,-9.5385,0.89631605,47.64837,-1.1587871,-1.9193008,-3.674468,0.0058020637,-0.41995272,-0.3389157,24.5,24.9375,24.3125,26.0625,26.125,26.375
0.29605222,-2.4160457,-2.3889642,-1.7335182,-0.035122678,0.07171183,-0.07703556,-0.3945038,-0.33132422,0.059873316,-3.07474,0.62672794,-0.00043047633,-0.14539678,-0.01733632,0.00071006705,0.023181977,0.0024213053,-0.020106113,0.43658087,-1.4268771,1.9584941,-2.0985487,-1.5733455,2.4131758,-0.078022674,0.2853671,-0.3408456,0.06301018,-0.022756958,-0.05762342,-0.57460845,0.15322891,-9.385271,0.9791215,47.690468,-1.1733752,-1.8038573,-3.6162744,0.018706698,-0.427808,-0.3466798,24.5,24.9375,24.3125,26.0625,26.125,26.375
0.2980523,-2.3204095,-1.735222,-2.034983,-0.01981422,0.05421937,-0.08309422,-0.39480424,-0.33135772,0.05988803,-3.0746672,0.6268516,-0.00037580196,-0.14742832,-0.016791878,0.0024821963,0.021523938,0.005519235,-0.026303886,0.43642372,-1.4263148,1.9577874,-2.0984046,-1.5734051,2.4131057,-0.08078601,0.283722,-0.34331414,0.0636175,-0.022560824,-0.05418921,-0.53630114,0.1340753,-9.481039,0.8940802,47.63225,-0.9529542,-1.6840161,-3.6522207,0.024170887,-0.42234036,-0.4038056,24.5,24.9375,24.3125,26.0625,26.125,26.375
0.30005246,-1.9335103,-1.340136,-1.8608416,-0.026576297,0.059714187,-0.08331315,-0.3951311,-0.3313888,0.059902962,-3.0746214,0.6269159,-0.00022434098,-0.14655581,-0.016818801,0.0019200493,0.02332555,0.0038926343,-0.023780286,0.4362563,-1.4257398,1.9570817,-2.0983326,-1.57349,2.4129848,-0.07928743,0.28443906,-0.34334424,0.065158375,-0.023502873,-0.05521251,-0.40222588,0.0,-9.5385,0.9365982,47.65643,-1.1247711,-1.6078129,-3.7260804,0.048725627,-0.40082777,-0.4416892,24.5,24.9375,24.3125,26.0625,26.125,26.375
0.30205253,-2.31044,-1.6827172,-1.6084603,-0.019386392,0.051574066,-0.07990819,-0.39542502,-0.33141214,0.05990257,-3.0745628,0.62703747,-0.00023477111,-0.14745988,-0.015580384,0.0017874106,0.025803447,0.0020663885,-0.023273664,0.43606365,-1.4251761,1.9564098,-2.0981996,-1.5735143,2.4128761,-0.08125031,0.2862181,-0.34603298,0.068762556,-0.024983501,-0.0576752,-0.34476507,0.076614454,-9.442732,0.9545008,47.666286,-0.9932878,-1.5939789,-3.7163248,0.018885132,-0.39224267,-0.44476816,24.5,24.9375,24.3125,26.0625,26.125,26.375
0.3040517,-2.151887,-1.3951707,-1.8397089,-0.0026984771,0.039735306,-0.078864284,-0.39574844,-0.33145422,0.05992507,-3.0745273,0.62704873,-8.56324e-05,-0.14934592,-0.015318884,0.0030134474,0.026631614,0.0024671378,-0.022638164,0.4359192,-1.4246,1.9556793,-2.0981023,-1.5735987,2.4127438,-0.08264145,0.2876838,-0.3515796,0.072818905,-0.025908755,-0.05969793,-0.34476507,0.019153614,-9.308657,1.0037369,47.651955,-0.9302846,-1.6349747,-3.7029557,0.0067928387,-0.37121385,-0.45118335,24.5,24.9375,24.3125,26.0625,26.125,26.375
0.30605233,-1.5781935,-0.45840853,-1.8678129,0.004100766,0.035621047,-0.08979174,-0.39602357,-0.33147097,0.059924576,-3.0744503,0.62706983,-0.00014479161,-0.15024596,-0.014758396,0.0024473437,0.028660128,-0.00044449492,-0.022110505,0.43573874,-1.4240485,1.9550074,-2.0979097,-1.573635,2.412587,-0.083933406,0.2913005,-0.3553932,0.07650168,-0.026528833,-0.061511885,-0.22984336,-0.05746084,-9.346964,0.94331104,47.65464,-0.82847446,-1.6455808,-3.5052125,-0.01217598,-0.37380296,-0.45992696,24.5,24.9375,24.3125,26.0625,26.125,26.375
0.3080524,-1.000183,-0.6674343,-1.8394387,0.02349474,0.029521883,-0.08412119,-0.39637318,-0.33150315,0.059956193,-3.0744026,0.62715304,-2.303116e-05,-0.15059689,-0.013714022,0.0011364535,0.032158494,-0.0054925764,-0.018511623,0.43554637,-1.4234481,1.9542168,-2.0977643,-1.573707,2.4124532,-0.085340954,0.29578912,-0.3588007,0.08145233,-0.027578034,-0.06651448,-0.24899697,-0.095768064,-9.32781,0.95002913,47.639416,-0.810223,-1.7674202,-3.493073,-0.069935545,-0.3665458,-0.44249937,24.5,24.9375,24.3125,26.0625,26.125,26.375
0.31005248,-1.7461725,-1.2067826,-1.6507834,0.026828125,0.012165303,-0.06804036,-0.3966347,-0.33154815,0.05994086,-3.0743594,0.62720025,-6.219456e-05,-0.15137641,-0.012996205,0.0017999064,0.03355082,-0.0066380254,-0.016602548,0.4354139,-1.4228839,1.9535826,-2.097655,-1.5737199,2.4123561,-0.08671337,0.29631454,-0.3620579,0.08579827,-0.028367208,-0.06979137,-0.2681506,0.0,-9.155427,0.9567419,47.651955,-0.692996,-1.9012651,-3.4047046,-0.116921514,-0.3438074,-0.39192903,24.5,24.9375,24.3125,26.0625,26.125,26.375
0.31205165,-1.0735502,-0.86578274,-1.8467722,0.008199547,0.030790608,-0.08994126,-0.3969294,-0.33155686,0.059942674,-3.0742433,0.62717444,-9.7338845e-05,-0.15059978,-0.012037271,0.00032776684,0.036455926,-0.011755871,-0.014824004,0.43523368,-1.4222947,1.9528536,-2.0974267,-1.5738038,2.4121754,-0.08738524,0.2989594,-0.3627564,0.08970068,-0.028852072,-0.07223775,-0.28730422,0.095768064,-9.212888,0.9410752,47.67345,-0.6643105,-1.7038338,-3.384855,-0.18867627,-0.33297414,-0.37779656,24.5,24.9375,24.3125,26.0625,26.125,26.375
0.31405172,-1.6673086,-1.8056233,-2.0238128,-0.00045230179,0.030321054,-0.07911814,-0.39728135,-0.3315787,0.059976894,-3.074196,0.6273143,-1.50071555e-05,-0.1492508,-0.011073083,-0.0013031303,0.03883266,-0.017621582,-0.009522741,0.43500552,-1.4217056,1.9520634,-2.0972574,-1.5738515,2.4120412,-0.08807309,0.30092558,-0.36231816,0.09358695,-0.028543826,-0.07823004,-0.22984336,0.15322891,-9.2703495,0.87393653,47.637623,-0.66678447,-1.7727611,-3.7702968,-0.2415649,-0.30885488,-0.33066058,24.5,24.9375,24.3125,26.0625,26.125,26.375
0.316052,-1.6993455,-2.4740014,-1.8483366,-0.040717006,0.061781656,-0.077286966,-0.3975373,-0.33157977,0.05995389,-3.07404,0.62728053,-0.00016598398,-0.14910223,-0.0104896985,-0.0017924212,0.040083565,-0.01962091,-0.0076501165,0.4348373,-1.4211164,1.9513825,-2.0969937,-1.573924,2.4118726,-0.08871612,0.30185005,-0.36285624,0.09552334,-0.02885825,-0.08073988,-0.15322891,0.19153613,-9.3661175,0.9231726,47.642998,-0.6195113,-1.6824752,-3.7354307,-0.2944482,-0.3072667,-0.25245216,24.5,24.9375,24.3125,26.0625,26.125,26.375
0.31805217,-1.9016863,-2.6143415,-1.5409241,-0.07156402,0.06991677,-0.08506002,-0.39784932,-0.33162007,0.059969928,-3.0739949,0.6272886,-0.00016518457,-0.15175974,-0.011217923,0.00047934742,0.038672727,-0.013587268,-0.0058451444,0.43466932,-1.4205159,1.9506153,-2.0968025,-1.5739602,2.411716,-0.08871647,0.3012957,-0.3673505,0.09449636,-0.030144092,-0.082537286,-0.26815057,0.15322891,-9.308656,0.9925471,47.65912,-0.62315035,-1.6724228,-3.8189504,-0.31687492,-0.29045126,-0.23075554,24.5,24.9375,24.3125,26.0625,26.125,26.375
0.32005227,-2.151755,-3.4055474,-1.8655475,-0.060399782,0.07165333,-0.07954427,-0.3981683,-0.3316311,0.05997433,-3.0738978,0.62719,-0.0001275259,-0.15444942,-0.012199327,0.0017966478,0.036557768,-0.007475019,-0.004281538,0.4344893,-1.4199033,1.9498609,-2.0966122,-1.5740684,2.4114876,-0.08867232,0.30206048,-0.37048498,0.090414576,-0.030828014,-0.08405043,-0.2873042,0.30645782,-9.251195,0.9455522,47.622402,-0.6723763,-1.4166708,-3.7015343,-0.31347245,-0.26356855,-0.17030644,24.5,24.9375,24.3125,26.0625,26.125,26.375
0.32205257,-2.3761187,-3.2749145,-1.9845178,-0.0660346,0.07259204,-0.08234165,-0.3984793,-0.3316839,0.059990246,-3.0739064,0.62719107,-0.000115259405,-0.15655902,-0.013625242,0.0030739037,0.0338546,-0.002829333,-0.0035630222,0.43432146,-1.4193144,1.9491175,-2.0964696,-1.574068,2.4113197,-0.08808799,0.3029245,-0.37393814,0.08764476,-0.030347707,-0.084184974,-0.19153613,0.34476504,-9.385271,0.9164598,47.62867,-0.75677377,-1.320668,-3.6746159,-0.3185101,-0.23580404,-0.160552,24.5,24.9375,24.3125,26.0625,26.125,26.375
0.32405192,-2.0159767,-3.2671404,-2.075674,-0.06389791,0.06584528,-0.074928105,-0.39878216,-0.3316743,0.05997892,-3.0737262,0.6272511,-8.850119e-05,-0.1609459,-0.015794,0.003984565,0.029558932,0.004758188,-0.0057903705,0.43414134,-1.4187121,1.9484109,-2.0962813,-1.574212,2.411201,-0.08820902,0.30730683,-0.37952054,0.080142096,-0.029675853,-0.08207452,-0.05746084,0.2681506,-9.442732,0.91198283,47.63046,-0.7128693,-1.4371798,-3.498197,-0.24211791,-0.22834098,-0.16336618,24.5,24.9375,24.3125,26.0625,26.125,26.375
0.3260523,-1.7617338,-3.0700736,-2.274812,-0.0668069,0.05865363,-0.08187484,-0.39911377,-0.33172518,0.06000275,-3.07374,0.6272358,-3.965988e-05,-0.1626567,-0.015370014,0.0021430908,0.03008362,0.0040588723,-0.009396968,0.433961,-1.4181098,1.9476331,-2.0961378,-1.5742239,2.4110098,-0.09019075,0.31254366,-0.3807845,0.07702484,-0.029862361,-0.08044817,-0.22984336,0.4213795,-9.481039,0.9701675,47.634937,-0.76415724,-1.6556039,-3.5581856,-0.19717236,-0.19099326,-0.15397292,24.5,24.9375,24.3125,26.0625,26.125,26.375
0.3280526,-2.3369515,-3.8484066,-2.4332469,-0.064864844,0.041150127,-0.06332983,-0.399455,-0.33175063,0.06001054,-3.0736804,0.6273178,2.5127163e-05,-0.1619416,-0.016619273,0.0007690022,0.03028775,0.0035555258,-0.009172299,0.43375805,-1.4174844,1.9468683,-2.096007,-1.574284,2.4108663,-0.0872388,0.31516287,-0.38023844,0.0744014,-0.029834809,-0.07772104,-0.3256114,0.5363012,-9.672575,0.98807013,47.61434,-0.7803092,-1.6087976,-3.6676016,-0.17454413,-0.18170191,-0.16035645,24.5,24.9375,24.3125,26.0625,26.125,26.375
0.33005187,-2.2901728,-3.927719,-2.3601933,-0.09048141,0.05137698,-0.06630475,-0.39978904,-0.33180094,0.060041312,-3.073642,0.6272925,0.00011863864,-0.16318016,-0.016724234,0.0004338392,0.029084394,0.004847969,-0.013772279,0.4336136,-1.4168712,1.9460539,-2.0958288,-1.5743555,2.4107115,-0.08834966,0.3167995,-0.38094187,0.07179118,-0.029283779,-0.074234195,-0.038307227,0.53630114,-9.672575,0.9791215,47.61613,-0.9015022,-1.6371992,-3.8004327,-0.11455047,-0.1651139,-0.197,24.5,24.9375,24.3125,26.0625,26.125,26.375
0.332052,-1.3424146,-3.6292849,-2.252999,-0.09891071,0.0532215,-0.0824841,-0.4001056,-0.33179635,0.06001243,-3.0734932,0.6273995,0.00013600405,-0.16420838,-0.015925167,-0.00055960787,0.029926438,0.0031275034,-0.019545706,0.43340868,-1.4162335,1.9453605,-2.0957086,-1.5744637,2.4105933,-0.090521045,0.3198122,-0.38240415,0.07215603,-0.029324409,-0.070629396,-0.057460837,0.51714754,-9.576807,1.0015011,47.612545,-0.62623423,-1.7065077,-3.9008803,-0.08688451,-0.1328439,-0.24352032,24.5,24.9375,24.3125,26.0625,26.125,26.375
0.33405232,-1.676894,-3.8709733,-1.9887444,-0.092381366,0.03946033,-0.067784205,-0.4004372,-0.33185682,0.06004333,-3.0734928,0.6273397,0.00026334784,-0.16553491,-0.017693575,0.0010841588,0.028003588,0.0064100684,-0.019368682,0.43327758,-1.4156328,1.94457,-2.095577,-1.5745238,2.4104254,-0.088587224,0.32027426,-0.38693622,0.07243715,-0.028959112,-0.068874,-0.24899697,0.45968673,-9.442732,1.0082139,47.63046,-0.82611585,-1.6220434,-3.943994,-0.058946766,-0.125533,-0.2894313,24.5,24.9375,24.3125,26.0625,26.125,26.375
0.33605173,-1.4584814,-3.3446693,-1.9062814,-0.073378175,0.032848764,-0.082706764,-0.40078047,-0.33189714,0.060041763,-3.0734704,0.62748873,0.00027391914,-0.16729522,-0.018648803,0.0011702246,0.026712304,0.0068144873,-0.020001864,0.43306154,-1.4149832,1.9438022,-2.0954697,-1.5745233,2.4103057,-0.08886391,0.3238623,-0.39146453,0.072460264,-0.027966183,-0.068519615,-0.038307227,0.4405331,-9.346964,0.9164598,47.65912,-0.81251276,-1.503588,-3.7005534,-0.025123056,-0.13068408,-0.29179105,24.5,24.9375,24.3125,26.0625,26.125,26.375
0.33805194,-1.356129,-2.1533735,-2.119701,-0.040093787,0.0035458263,-0.07512424,-0.4011077,-0.33193067,0.06004833,-3.0733948,0.62749135,0.00030206647,-0.16803633,-0.019320285,0.00086431,0.026295882,0.00569043,-0.01935185,0.4328934,-1.414345,1.9430126,-2.0952895,-1.5745949,2.4101496,-0.088714875,0.3268156,-0.39458406,0.073457755,-0.027125321,-0.06902198,-0.038307227,0.4213795,-9.404425,0.9321212,47.64837,-0.8571567,-1.5528054,-3.751556,0.0038793224,-0.11545426,-0.2984683,24.5,24.9375,24.3125,26.0625,26.125,26.375
0.340052,-0.5732158,-2.2571042,-2.201817,-0.026095437,0.016923198,-0.08240773,-0.40145034,-0.3319758,0.060055945,-3.0733583,0.6275019,0.00038317507,-0.16925584,-0.019957317,0.0020732458,0.024614463,0.0073886793,-0.019247366,0.43272564,-1.4136968,1.942222,-2.0951693,-1.5746545,2.4099936,-0.08900184,0.32682535,-0.397765,0.07436919,-0.026316406,-0.069416486,-0.15322891,0.47884035,-9.461885,0.92093146,47.63673,-0.95518076,-1.5917283,-3.6697125,0.011781664,-0.11750357,-0.30128795,24.5,24.9375,24.3125,26.0625,26.125,26.375
0.342052,-1.2785989,-2.8220801,-1.9279567,-0.03738499,0.010007602,-0.070366204,-0.4017979,-0.33201185,0.06007269,-3.0732744,0.6276177,0.0004443257,-0.16870861,-0.020938892,0.0017328404,0.025063042,0.00466108,-0.017434385,0.43254605,-1.4130473,1.9413952,-2.0949886,-1.5747269,2.4098978,-0.087142885,0.3291114,-0.40052587,0.07749643,-0.025579901,-0.06937282,0.019153614,0.4405331,-9.346964,0.9858343,47.64389,-0.86831796,-1.5165898,-3.6342742,0.039995097,-0.10828936,-0.34144264,24.5,24.9375,24.3125,26.0625,26.125,26.375
0.34405208,-1.4328103,-2.6298938,-1.765311,-0.065181695,0.025018755,-0.07361189,-0.40214345,-0.33205765,0.060068812,-3.073225,0.6277213,0.00044235642,-0.16743171,-0.020702835,0.0011339864,0.026680794,0.00028007803,-0.017390756,0.43235427,-1.4123625,1.9405822,-2.0948436,-1.5747503,2.4097776,-0.08662794,0.32993066,-0.40137017,0.08217152,-0.025205357,-0.06890339,-0.11492168,0.45968673,-9.308657,0.9567419,47.651955,-1.0871328,-1.4768907,-3.7046108,-0.019153897,-0.099639416,-0.35611293,24.5,24.9375,24.3125,26.0625,26.125,26.375
0.3460516,-1.1878624,-2.5702636,-1.6871133,-0.0701555,0.04338909,-0.07963821,-0.40246466,-0.3321177,0.060100257,-3.073236,0.62766844,0.0005013431,-0.16792193,-0.019159578,-0.00051925366,0.028372712,-0.0057086158,-0.021937111,0.43220899,-1.4117721,1.9397916,-2.0946743,-1.5747741,2.4095984,-0.090344116,0.33404663,-0.40344903,0.08627589,-0.024225507,-0.068077505,-0.095768064,0.40222588,-9.308656,0.9612189,47.657326,-0.84671617,-1.5554042,-3.8726478,-0.0067708134,-0.105930775,-0.3707397,24.5,24.9375,24.3125,26.0625,26.125,26.375
0.34805182,-1.234033,-2.4300396,-1.5710421,-0.053952094,0.031425346,-0.0827205,-0.40281183,-0.33214068,0.060088642,-3.0731177,0.6277355,0.00046722143,-0.1644063,-0.019474646,-0.0022360033,0.031710178,-0.015718691,-0.01680863,0.43200618,-1.4110631,1.9389538,-2.0944679,-1.5748457,2.4094534,-0.08748072,0.33642435,-0.40457404,0.09548767,-0.02306137,-0.07034681,-0.038307227,0.30645782,-9.385271,0.9298854,47.647476,-1.092838,-1.6181245,-3.8231626,-0.089925505,-0.11367613,-0.36356944,24.5,24.9375,24.3125,26.0625,26.125,26.375
0.35005182,-1.7106597,-2.2811139,-1.2438812,-0.043223966,0.023230813,-0.078287415,-0.40317523,-0.3321937,0.060115993,-3.073116,0.6278517,0.00057153066,-0.16682768,-0.0198336,-0.0013354793,0.031018216,-0.015719224,-0.018919382,0.4318135,-1.4104253,1.9381279,-2.0943468,-1.5748695,2.409334,-0.08913712,0.33969924,-0.41133624,0.09867968,-0.022439418,-0.06989383,-0.038307227,0.19153614,-9.174581,0.9634547,47.68599,-1.0261238,-1.7319314,-3.7053072,-0.14636509,-0.114970185,-0.38854808,24.5,24.9375,24.3125,26.0625,26.125,26.375
0.352052,-0.9641258,-1.5323894,-1.2523628,-0.00698541,0.012307776,-0.0741182,-0.40350753,-0.33222672,0.060110968,-3.073005,0.62782633,0.00057793007,-0.16832541,-0.020170217,-0.0008004915,0.03038799,-0.016069656,-0.018270507,0.43165725,-1.4097399,1.937302,-2.0941427,-1.5749654,2.4091768,-0.0901289,0.341969,-0.4159318,0.101040415,-0.021738144,-0.0715344,-0.038307227,0.15322891,-8.963891,1.0149267,47.672558,-0.9639598,-1.714262,-3.5265484,-0.184127,-0.13467896,-0.4119588,24.5,24.9375,24.3125,26.0625,26.125,26.375
0.35405245,-0.7379059,-0.75996786,-1.2835106,0.017579824,-0.0026832328,-0.08485499,-0.40385985,-0.3322857,0.06013147,-3.0729976,0.627879,0.00061031384,-0.16857128,-0.020242486,-0.0006539811,0.0301127,-0.01699098,-0.0124741765,0.43147698,-1.4090787,1.9364532,-2.0939744,-1.5749768,2.409031,-0.09048375,0.34258097,-0.4175747,0.10275965,-0.02112266,-0.07768853,0.038307227,0.2681506,-8.925584,0.96569055,47.65912,-1.033515,-1.6449889,-3.4713116,-0.21573189,-0.13491452,-0.3711478,24.5,24.9375,24.3125,26.0625,26.125,26.375
0.3560516,-0.56602263,-1.1485771,-1.210712,0.011293198,0.00027894042,-0.07656494,-0.404194,-0.33230808,0.060114857,-3.0728958,0.6278372,0.0005650161,-0.16933727,-0.021020146,0.00026455612,0.028967926,-0.015846126,-0.011150836,0.4312852,-1.4083816,1.9356397,-2.0937712,-1.5750488,2.4088268,-0.08996159,0.34284437,-0.42044383,0.10383192,-0.020579489,-0.07848953,-0.019153614,0.21068975,-8.90643,0.98807013,47.660015,-1.0442603,-1.6685543,-3.6157136,-0.24142268,-0.1451387,-0.32540792,24.5,24.9375,24.3125,26.0625,26.125,26.375
0.35805157,-1.046188,-1.6280905,-1.0814023,-0.014499636,0.012472176,-0.075683326,-0.40454957,-0.332375,0.060137242,-3.0728784,0.6278307,0.00055245537,-0.16964236,-0.020654269,-0.0006913276,0.029780047,-0.017444637,-0.008121502,0.43111718,-1.407685,1.9347314,-2.0935428,-1.5750607,2.4086576,-0.09070286,0.3450854,-0.42112058,0.104038745,-0.020666767,-0.08225932,-0.05746084,0.17238252,-8.676587,0.9925471,47.65643,-1.0838941,-1.5465493,-3.5839834,-0.24907859,-0.13321377,-0.2997831,24.5,24.9375,24.3125,26.0625,26.125,26.375
0.3600526,-1.9191998,-2.4343903,-1.1065995,-0.031292647,0.03275347,-0.076742314,-0.40487605,-0.33241266,0.060118005,-3.0727904,0.62782884,0.00045975973,-0.17135757,-0.021098034,0.00014002164,0.028836869,-0.014159245,-0.0042188144,0.43093705,-1.406976,1.9339064,-2.0933287,-1.5750974,2.4084883,-0.09086864,0.34574103,-0.42366335,0.10252427,-0.021216348,-0.08632239,-0.21068975,0.17238252,-8.791509,0.9835985,47.664497,-1.0736326,-1.4376426,-3.637938,-0.27017376,-0.14079931,-0.25799432,24.5,24.9375,24.3125,26.0625,26.125,26.375
0.36205167,-2.2797747,-2.475767,-1.0562633,-0.06138353,0.07565796,-0.076168224,-0.40520623,-0.3324431,0.060096268,-3.0726736,0.6278803,0.00029406618,-0.17374158,-0.021405166,0.000110615445,0.027438909,-0.0119511625,-0.003250091,0.4307325,-1.4062425,1.9330448,-2.0930545,-1.5751208,2.4083316,-0.09237449,0.34875786,-0.42675698,0.09999269,-0.02090599,-0.08879355,-0.28730422,0.13407528,-8.868123,1.0104496,47.658226,-0.9857092,-1.4568555,-3.651047,-0.2517841,-0.14009096,-0.21321079,24.5,24.9375,24.3125,26.0625,26.125,26.375
0.36405176,-2.361427,-2.505588,-1.2183248,-0.059805967,0.08987462,-0.088347234,-0.4055619,-0.33251432,0.060109068,-3.072655,0.6278934,0.0003504232,-0.17631094,-0.021932602,0.0005512794,0.025218379,-0.00781534,-0.00025132604,0.43058807,-1.4055446,1.9321722,-2.0929,-1.5751566,2.4081984,-0.09361559,0.35059974,-0.4291997,0.09588232,-0.020643681,-0.09303353,-0.15322891,0.076614454,-9.097966,0.9186956,47.677036,-1.0366678,-1.5108632,-3.596023,-0.20577794,-0.15590668,-0.13430274,24.5,24.9375,24.3125,26.0625,26.125,26.375
0.3660521,-3.1178038,-2.7595408,-1.1285784,-0.053683657,0.08245149,-0.0639752,-0.4058861,-0.33254468,0.06007894,-3.0725653,0.62772185,0.00027452956,-0.17897753,-0.022584483,8.509432e-05,0.023742717,-0.0049488754,-0.003407892,0.4304199,-1.4048228,1.9313587,-2.0926979,-1.5752286,2.4079354,-0.09462441,0.35482228,-0.4322876,0.091526486,-0.020522052,-0.09088184,-0.36391866,0.24899697,-9.021352,0.9455522,47.650166,-0.97098076,-1.5646815,-3.7279,-0.17510298,-0.1575573,-0.122513905,24.5,24.9375,24.3125,26.0625,26.125,26.375
0.36805212,-2.4026554,-2.2345405,-1.3865819,-0.039482027,0.085251495,-0.070325494,-0.406267,-0.33257523,0.06007419,-3.0725255,0.6278292,0.000264325,-0.18106571,-0.023047378,0.0007164837,0.021397455,-0.00056362833,-0.004545171,0.43016744,-1.404101,1.9304975,-2.0925438,-1.575241,2.4077556,-0.095556356,0.3553571,-0.4336607,0.08739495,-0.020236209,-0.090676725,-0.47884032,0.24899697,-9.002198,1.0126908,47.64389,-0.9279882,-1.6523113,-3.618994,-0.08549145,-0.18402523,-0.11980831,24.5,24.9375,24.3125,26.0625,26.125,26.375
0.37005246,-2.3887334,-1.8681736,-1.9981225,-0.00930241,0.058064107,-0.07237738,-0.4066166,-0.3326372,0.060072187,-3.0724747,0.62785774,0.0002586132,-0.18164279,-0.023923239,0.00036784343,0.021509388,-0.001617693,-0.0066374107,0.43001178,-1.4033803,1.9296249,-2.0923636,-1.5752763,2.407625,-0.09457257,0.35853887,-0.43708122,0.088645466,-0.019897414,-0.08760034,-0.40222588,0.2681506,-9.193734,0.9455522,47.64658,-0.97784555,-1.6286765,-3.6476684,-0.060535274,-0.19363444,-0.118947834,24.5,24.9375,24.3125,26.0625,26.125,26.375
0.37205264,-2.1049848,-2.0052328,-1.888022,-0.021667385,0.06316224,-0.070231706,-0.40699854,-0.33267245,0.060079776,-3.0724013,0.6279595,0.00023854931,-0.18362592,-0.02265191,-0.00057456497,0.02228894,-0.0012567972,-0.013529472,0.4297827,-1.4026464,1.9287041,-2.0921366,-1.5753125,2.4074695,-0.097786576,0.3615161,-0.43821645,0.0868132,-0.020757332,-0.083916694,-0.7469909,0.38307226,-9.32781,0.99702406,47.64927,-0.82404613,-1.7108574,-3.751348,-0.04535877,-0.18697953,-0.13585281,24.5,24.9375,24.3125,26.0625,26.125,26.375
0.37405175,-2.898583,-2.8275962,-1.8165649,-0.042043354,0.05906758,-0.07052852,-0.40735656,-0.33268297,0.06004882,-3.0722594,0.6280062,0.00021243123,-0.18247235,-0.023218818,-0.0016914686,0.025026407,-0.0037003558,-0.013256015,0.42956796,-1.4019009,1.9278682,-2.0919569,-1.5754093,2.407303,-0.094760634,0.36392748,-0.43913943,0.088692725,-0.022226786,-0.08115536,-0.63206923,0.30645782,-9.346964,0.91198283,47.619713,-1.0372896,-1.7211835,-3.7999115,0.010766071,-0.17013332,-0.1582004,24.5,24.9375,24.3125,26.0625,26.125,26.375
