Tylouw/Master_Thesis_Code/training_data/batch_1/big_rod_t0.1/sample_46_session_3.csv
timestamp[s],tcp_force_x[N],tcp_force_y[N],tcp_force_z[N],tcp_force_rx[Nm?],tcp_force_ry[Nm?],tcp_force_rz[Nm?],tcp_pose_x[m],tcp_pose_y[m],tcp_pose_z[m],tcp_pose_rx[rot_vec_x],tcp_pose_ry[rot_vec_y],tcp_pose_rz[rot_vec_z],tcp_velo_x[m/s],tcp_velo_y[m/s],tcp_velo_z[m/s],tcp_velo_rx[rot_vec_x/s],tcp_velo_ry[rot_vec_y/s],tcp_velo_rz[rot_vec_z/s],q1[rad],q2[rad],q3[rad],q4[rad],q5[rad],q6[rad],qd1[rad/s],qd2[rad/s],qd3[rad/s],qd4[rad/s],qd5[rad/s],qd6[rad/s],tool_acc_x,tool_acc_y,tool_acc_z,current_of_whole_robot[A],voltage_of_whole_robot[V],current_J1[A],current_J2[A],current_J3[A],current_J4[A],current_J5[A],current_J6[A],temp_J1[C],temp_J2[C],temp_J3[C],temp_J4[C],temp_J5[C],temp_J6[C]
1.4349935e-06,-0.26667985,-0.27062458,0.7339802,-0.021656679,0.01813634,-0.02487923,-0.37291163,-0.32821384,0.059952095,-3.0784829,0.62486655,-0.00018756153,0.0031952437,0.0015566484,-0.004515132,0.004585417,-0.00977215,-2.151352e-05,0.4481382,-1.470861,2.0095613,-2.1077268,-1.5706977,2.4230556,-0.000100554484,0.0044397283,0.0052236635,0.0011302029,0.00011513846,-8.201517e-05,0.15322891,0.21068975,-8.887277,0.7553206,47.686886,-0.23954836,-2.9122841,-2.4256568,-0.5096878,0.070401244,-0.122508705,25.0625,25.5625,24.875,27.1875,27.625,27.9375
0.002054228,-0.44991452,0.17699759,0.73081166,-0.020660793,0.010384858,-0.019206917,-0.37289837,-0.32820767,0.059945405,-3.0784845,0.62490565,-0.00026199085,0.00026922088,0.00014111793,-0.0035981687,0.00013577471,-0.0005663047,-1.8222447e-05,0.44811413,-1.4708729,2.0095851,-2.1077068,-1.5706614,2.4230556,-9.871636e-05,0.0044266516,0.005539375,-0.009397241,0.00011338283,-8.0547026e-05,0.05746084,0.24899697,-8.848969,0.7620334,47.687782,-0.32262784,-2.7996862,-2.2969086,-0.46744838,0.0728899,-0.11119625,25.0625,25.5625,24.875,27.1875,27.625,27.9375
0.004054109,-0.08511566,0.583318,0.71930456,-0.01893196,0.01807218,-0.026544144,-0.372915,-0.32822642,0.059943754,-3.0785234,0.62487435,-0.00022740186,-0.0012077257,-0.00056327507,-0.0025344307,-0.0019809692,0.00388388,-1.637516e-05,0.44812617,-1.4708372,2.0095608,-2.107755,-1.5706495,2.4230433,-9.69441e-05,0.0037471151,0.004601769,-0.012707916,8.346638e-05,-7.913055e-05,0.076614454,0.22984336,-8.829816,0.7284641,47.711063,-0.26013273,-2.9802282,-2.6177478,-0.35828048,0.07585926,-0.11057618,25.0625,25.5625,24.875,27.1875,27.625,27.9375
0.006053558,0.37999153,0.6732953,0.7252742,0.010488433,0.00880887,-0.024597837,-0.3728981,-0.32823744,0.059944276,-3.0785224,0.62487435,-0.00022919459,-0.00049367925,-0.00021749466,-0.0018633432,-0.0008393821,0.0015368095,-1.6849246e-05,0.4481623,-1.4708495,2.0095727,-2.107753,-1.5706495,2.4230795,-9.5234456e-05,0.0026253387,0.0030984688,-0.007472874,8.01618e-05,-7.77631e-05,0.038307227,0.15322891,-8.983045,0.7105615,47.705692,-0.2645921,-2.95745,-2.5376148,-0.37529132,0.08442487,-0.101907685,25.0625,25.5625,24.875,27.1875,27.625,27.9375
0.00805349,0.9899299,1.7884605,0.36815652,0.037049986,-0.011423685,-0.02588988,-0.3728896,-0.32823968,0.059930384,-3.0785053,0.62481356,-0.0002891586,0.00010373228,7.125434e-05,-0.0014128159,0.00011823392,-0.00043545983,-1.718856e-05,0.4481742,-1.470814,2.0095599,-2.1077278,-1.5706495,2.4230556,-9.358405e-05,0.0018405911,0.0019945735,-0.0033917762,7.8642115e-05,-7.644221e-05,-0.05746084,0.1340753,-8.925584,0.7329411,47.69763,-0.24191543,-2.9343488,-2.3727994,-0.44532958,0.06782694,-0.11576056,25.0625,25.5625,24.875,27.1875,27.625,27.9375
0.010053435,1.026155,1.5956662,-0.17326888,0.049398907,-0.013654168,-0.027633913,-0.37285984,-0.32821897,0.05988317,-3.0784411,0.62483877,-0.0004086623,0.00029225525,0.00016740584,-0.0012736147,0.00051372836,-0.001249365,-2.7126407e-05,0.4481623,-1.4707781,2.0096314,-2.1077397,-1.5706495,2.4230676,-0.00010208088,0.0017156575,0.0014542445,-0.0018216051,7.728379e-05,-7.516525e-05,-0.038307227,0.095768064,-9.155427,0.71279734,47.67345,-0.62558496,-2.1970758,-3.0447412,-0.47359762,0.07484191,-0.189183,25.0625,25.5625,24.875,27.1875,27.625,27.9375
0.012053264,0.23662043,0.96358824,-0.25017688,0.016444348,-0.0042971647,-0.02424796,-0.37288308,-0.32822588,0.059904553,-3.078462,0.62486213,-0.0003260481,0.00020570889,0.00019778879,-0.004534925,0.003513959,-0.007494372,-0.00012933751,0.44816223,-1.4707869,2.0095947,-2.1077511,-1.5706614,2.4230795,-0.00024332659,0.010261907,-0.0005236158,-0.0014616897,7.5978525e-05,-0.0001117505,0.05746084,0.019153614,-9.3661175,0.7284641,47.713753,-0.65593344,-2.446324,-3.2941775,-0.47908354,0.08923749,-0.20782188,25.0625,25.5625,24.875,27.1875,27.625,27.9375
0.014054313,-0.5950743,-0.23561192,-0.313811,-0.021116722,0.02403416,-0.025367465,-0.37287733,-0.32820025,0.05987906,-3.0783906,0.6248668,-0.00040543528,-0.0058083413,0.0009830962,-0.0037121533,0.0024962889,-0.0054255733,-0.0014457919,0.4481357,-1.4707488,2.0096033,-2.1077158,-1.5706857,2.423065,-0.007198491,0.017052561,-0.009927177,-0.0011552807,7.471686e-05,-0.0057438207,-0.019153614,0.05746084,-9.481039,0.7239871,47.690468,-0.45008528,-2.7421274,-2.9641917,-0.48446086,0.09484038,-0.21630028,25.0625,25.5625,24.875,27.1875,27.625,27.9375
0.016053578,-1.3287858,-0.7746296,-0.5363236,-0.054994117,0.046243172,-0.025000297,-0.37287137,-0.32819715,0.059866067,-3.0783806,0.6248042,-0.00045176328,-0.006041267,0.0013988796,-0.0040324484,0.0028769106,-0.006252946,0.0038913696,0.44813532,-1.4707246,2.0096037,-2.1077034,-1.5706857,2.4230268,-0.008201629,0.017783457,-0.010067239,-0.00083671504,8.722016e-05,-0.012084043,-0.21068975,0.19153613,-9.749189,0.7486078,47.71823,-0.3673146,-2.6059265,-3.0315454,-0.4932773,0.098355114,-0.16896516,25.0625,25.5625,24.875,27.1875,27.625,27.9375
0.018053807,-1.8719482,-1.6985413,-0.7157169,-0.06590399,0.076905675,-0.033397898,-0.3728818,-0.32817048,0.059836112,-3.0783267,0.6248499,-0.0005424475,-0.0053196945,0.0013983058,-0.004584029,0.0034852899,-0.007563762,0.005509686,0.44807562,-1.4706646,2.0096037,-2.107691,-1.5706857,2.4230025,-0.0075573106,0.018116677,-0.009231215,-0.0005612136,0.00010734066,-0.013058621,-0.40222588,0.2681506,-9.883265,0.78217715,47.688675,-0.5576335,-2.415487,-3.50136,-0.4976191,0.11631043,-0.16536792,25.0625,25.5625,24.875,27.1875,27.625,27.9375
0.020053402,-2.0974743,-1.4569695,-0.58867717,-0.082751885,0.09199196,-0.039774053,-0.37288716,-0.32819888,0.059850104,-3.0783842,0.6247851,-0.00054687745,-0.006374448,0.00078418566,-0.0042738756,0.0027513073,-0.007013608,0.005267797,0.44809955,-1.470652,2.009555,-2.1076791,-1.5706495,2.4229786,-0.007646884,0.01990891,-0.011929654,-0.0004698689,0.0005255896,-0.012905266,-0.53630114,0.34476504,-9.844957,0.85155696,47.694054,-0.68040717,-2.4090004,-3.5079112,-0.5066336,0.11856118,-0.18241581,25.0625,25.5625,24.875,27.1875,27.625,27.9375
0.02205335,-1.566649,-1.1078557,-0.48756164,-0.065538995,0.09895179,-0.064625,-0.37289894,-0.3281984,0.059835467,-3.078367,0.6247629,-0.00059446646,-0.0072636046,0.00018406242,-0.0044619734,0.00073494174,-0.008260361,0.0053209225,0.44808692,-1.4705913,2.0095193,-2.1076672,-1.5706481,2.4229543,-0.008922152,0.022293989,-0.014128697,-0.0004144548,0.0028771767,-0.014236828,-0.6512229,0.49799395,-9.691729,0.7620334,47.70838,-0.6027485,-2.4657402,-3.4589136,-0.52201915,0.08765836,-0.19277099,25.0625,25.5625,24.875,27.1875,27.625,27.9375
0.024054173,-1.3029423,-0.5358113,-0.41242912,-0.04360604,0.079793625,-0.07918956,-0.3729315,-0.32821837,0.05984472,-3.0784283,0.62469757,-0.00052859914,-0.008360441,-0.00027806926,-0.003639232,-0.0010180292,-0.0071335216,0.005894439,0.44808677,-1.4705554,2.0094697,-2.1077154,-1.5706362,2.4229057,-0.009787554,0.022539755,-0.016325533,-0.000242382,0.003964767,-0.015676428,-0.51714754,0.47884035,-9.80665,0.7463667,47.701214,-0.72729397,-2.3991706,-3.4340124,-0.5168575,0.09426227,-0.21322387,25.0625,25.5625,24.875,27.1875,27.625,27.9375
0.026053628,-0.76356316,-0.063689746,-0.4222996,-0.039296143,0.07438943,-0.09712068,-0.3729277,-0.3282058,0.05982279,-3.0783792,0.62478346,-0.0006549518,-0.009423993,6.124041e-05,-0.0027224976,-0.0015171915,-0.0052637574,0.005996177,0.44805035,-1.4705079,2.0094569,-2.1076672,-1.5706123,2.422929,-0.011145584,0.02159714,-0.017427057,-9.801733e-05,0.0036002493,-0.017135302,-0.59376204,0.40222588,-9.672575,0.7642693,47.698532,-0.7326955,-2.1991727,-3.4999685,-0.5257624,0.095771395,-0.2125504,25.0625,25.5625,24.875,27.1875,27.625,27.9375
0.028053446,-1.1820142,-0.20275103,-0.36021304,-0.03097635,0.057285227,-0.10590661,-0.37297204,-0.32818836,0.059811607,-3.0783472,0.6247963,-0.00062084827,-0.011178489,0.00017622623,-0.0022877473,-0.0015213542,-0.003928429,0.006322513,0.4480017,-1.4704351,2.0094082,-2.107691,-1.5706486,2.4228926,-0.012563579,0.023296032,-0.020277161,-0.00015075921,0.0030181631,-0.01887643,-0.6512228,0.2681506,-9.576807,0.73741806,47.660015,-0.70970243,-2.2590852,-3.4379659,-0.524843,0.09425768,-0.208738,25.0625,25.5625,24.875,27.1875,27.625,27.9375
0.030054245,-1.1130828,-0.16822597,-0.21833462,-0.024909036,0.068099275,-0.12746224,-0.37296864,-0.32819942,0.05979528,-3.0783398,0.6247951,-0.000728982,-0.012591907,0.00024550816,-0.0023153867,-0.0013974527,-0.0036877608,0.0055067283,0.44800135,-1.4703746,2.009371,-2.1076553,-1.5706128,2.4228923,-0.013830672,0.02563117,-0.022777537,-0.00014734581,0.0027955263,-0.019325573,-0.5554548,0.22984336,-9.557653,0.7597976,47.703007,-0.77671915,-2.3429835,-3.4339347,-0.5345617,0.09592147,-0.19268233,25.0625,25.5625,24.875,27.1875,27.625,27.9375
0.032053642,-1.0569435,0.20757355,-0.11887311,-0.020458886,0.07160834,-0.13258019,-0.37299007,-0.32821375,0.05979138,-3.0783892,0.6246719,-0.00071130117,-0.014013502,0.0002904676,-0.0018474084,-0.0023281546,-0.0028191416,0.003634503,0.44800073,-1.4703264,2.0093353,-2.107691,-1.5706009,2.4228086,-0.01551917,0.026614496,-0.024925785,-0.00016987551,0.0032540914,-0.019141298,-0.51714754,0.076614454,-9.595961,0.7866488,47.701214,-0.75332415,-2.278195,-3.4497323,-0.5379845,0.11131267,-0.1830033,25.0625,25.5625,24.875,27.1875,27.625,27.9375
0.034054097,-1.0224899,0.19691879,-0.14672473,-0.00084183697,0.06825613,-0.14677477,-0.3730634,-0.328215,0.059818003,-3.0784135,0.62471664,-0.00058350456,-0.015291963,6.168551e-05,-0.001431054,-0.0040736157,-0.0024684751,0.0014597912,0.44795218,-1.4702779,2.0092266,-2.1077154,-1.5706242,2.422785,-0.01721028,0.027710978,-0.027081186,-0.00018836267,0.0046726703,-0.018658824,-0.45968673,-0.038307227,-9.519346,0.73741806,47.696735,-0.7043897,-2.2292066,-3.401618,-0.5267437,0.08471748,-0.18365294,25.0625,25.5625,24.875,27.1875,27.625,27.9375
0.036053505,-0.8009494,0.5976825,-0.26674896,0.02034519,0.056677688,-0.15105389,-0.3730819,-0.32821992,0.059791967,-3.0784106,0.6247547,-0.00063723687,-0.016450541,-0.000741033,-0.00047505062,-0.0060236217,-0.00089112396,0.0009185281,0.44792804,-1.470194,2.0092022,-2.1077507,-1.5705999,2.422785,-0.01747746,0.028120974,-0.029715424,-0.00023366816,0.005741165,-0.018385392,-0.30645782,-0.05746084,-9.519346,0.779936,47.70838,-0.7144508,-2.1828737,-3.3519878,-0.53042734,0.084276155,-0.18649426,25.0625,25.5625,24.875,27.1875,27.625,27.9375
0.038054228,-0.4610676,1.1739452,-0.100103945,0.02740551,0.045741063,-0.13815594,-0.37311652,-0.3282245,0.059794392,-3.078461,0.6248035,-0.0007046222,-0.017688796,-0.001114789,-9.764757e-05,-0.0072924388,6.878633e-05,0.0006704247,0.4478557,-1.4701457,2.0091412,-2.1077397,-1.570527,2.4227366,-0.018387403,0.029360445,-0.031815495,-0.00078861107,0.0064632446,-0.019047083,-0.24899697,-0.095768064,-9.481039,0.7709874,47.66539,-0.7279066,-2.148337,-3.3566508,-0.53055024,0.06749365,-0.17150605,25.0625,25.5625,24.875,27.1875,27.625,27.9375
0.040053844,-0.26411146,1.3415942,-0.17451312,0.025481448,0.04021945,-0.13794678,-0.3731865,-0.32822803,0.059819352,-3.0784738,0.6247672,-0.00056801114,-0.019215325,-0.0014868143,3.0934225e-05,-0.0076234625,0.0019091022,0.0016623014,0.44783163,-1.470085,2.00902,-2.1077516,-1.5705756,2.4226885,-0.018731114,0.03144896,-0.034019064,-0.0024747748,0.005957025,-0.020379055,-0.17238252,-0.1340753,-9.3661175,0.78217715,47.70032,-0.70260465,-2.1737769,-3.4131198,-0.5078547,0.07771173,-0.17689726,25.0625,25.5625,24.875,27.1875,27.625,27.9375
0.042053543,-0.122461036,0.5188971,-0.30889365,0.026832022,0.043357592,-0.13227993,-0.37320942,-0.3282373,0.05982567,-3.0785038,0.62481093,-0.0006144528,-0.020168819,-0.0017036163,0.000419046,-0.008021548,0.0033393672,0.0019313144,0.44779554,-1.4700489,2.0089605,-2.1077278,-1.5705274,2.4226758,-0.019009022,0.032110967,-0.035487205,-0.0031281102,0.0056918813,-0.02092428,-0.095768064,-0.095768064,-9.404425,0.7284641,47.686886,-0.722303,-2.1504245,-3.3090672,-0.48495334,0.077383295,-0.17464393,25.0625,25.5625,24.875,27.1875,27.625,27.9375
0.04405398,0.06304957,0.44762635,-0.18386042,0.0050477716,0.040901612,-0.12578359,-0.3732326,-0.32822675,0.059789285,-3.0784497,0.62476265,-0.0006812385,-0.021311669,-0.0012711048,0.00075804634,-0.0077715637,0.00393302,0.0005993812,0.44777104,-1.469929,2.0089123,-2.1077278,-1.5705518,2.4226282,-0.020530885,0.03282867,-0.03718242,-0.0025761158,0.005205717,-0.021112664,-0.019153614,0.114921674,-9.442732,0.8291774,47.684196,-0.6819583,-2.1181054,-3.376359,-0.4886021,0.06582384,-0.17561333,25.0625,25.5625,24.875,27.1875,27.625,27.9375
0.04605374,-0.36138898,0.11028139,-0.4715807,-0.009986105,0.023897486,-0.12717351,-0.373276,-0.32824373,0.05980419,-3.0785089,0.62471575,-0.00064441544,-0.021873655,-0.0015800531,0.00092683727,-0.008143883,0.0037356603,0.0017645048,0.447747,-1.4698807,2.008828,-2.1077397,-1.5705274,2.4225674,-0.020742841,0.0339783,-0.038985092,-0.0019072561,0.0056249257,-0.022489268,-0.05746084,0.11492168,-9.461885,0.8717007,47.72808,-0.735384,-2.01575,-3.4463077,-0.5027499,0.08492084,-0.16442953,25.0625,25.5625,24.875,27.1875,27.625,27.9375
0.048053306,-0.040647004,-0.35647503,-0.2619066,-0.018409131,0.021475486,-0.12800802,-0.37332466,-0.3282073,0.05979654,-3.0784502,0.62476206,-0.00068147446,-0.022224162,-0.001348027,0.0007105052,-0.0072509637,0.002671717,0.0025423209,0.44765073,-1.4698083,2.008755,-2.107691,-1.5705518,2.4225075,-0.021260044,0.035388093,-0.04033209,-0.0006232529,0.0052794064,-0.023783201,-0.076614454,0.21068975,-9.615114,0.76874626,47.686886,-0.72630006,-2.0097017,-3.4796839,-0.4974796,0.06848234,-0.16284159,25.0625,25.5625,24.875,27.1875,27.625,27.9375
0.050054315,0.050004374,-0.6352264,-0.36016932,-0.022269253,0.023906643,-0.1297729,-0.37337342,-0.3282262,0.059811827,-3.0784874,0.6247117,-0.00059512374,-0.023226004,-0.0011092576,0.00083993614,-0.0070657325,0.00304435,0.0022163054,0.4476503,-1.4697479,2.0086591,-2.1077154,-1.5705642,2.422471,-0.022394067,0.036507595,-0.04190471,-0.0004250199,0.004949249,-0.02458918,0.019153614,0.30645782,-9.557653,0.7642693,47.689575,-0.6294296,-2.0330756,-3.4255936,-0.51165974,0.09173477,-0.15003492,25.0625,25.5625,24.875,27.1875,27.625,27.9375
0.052053757,0.02734923,-1.007405,-0.52388716,-0.022313135,0.023276804,-0.12414931,-0.3734141,-0.3282031,0.059792854,-3.0784423,0.6247794,-0.0006281021,-0.024550928,-0.0011490642,0.0016440933,-0.0077216653,0.004862163,0.0023820028,0.44757795,-1.469664,2.0086105,-2.1077154,-1.5705761,2.4224467,-0.023382843,0.036705095,-0.04395234,-0.0004968091,0.0047482573,-0.025742149,-0.019153614,0.40222588,-9.615114,0.7329411,47.652847,-0.67489153,-1.9679973,-3.538855,-0.5122827,0.11325121,-0.13706458,25.0625,25.5625,24.875,27.1875,27.625,27.9375
0.054053597,-0.3433194,-1.2243788,-0.47383195,-0.02990281,0.020127658,-0.12242459,-0.37347093,-0.32822248,0.059815355,-3.078509,0.62479144,-0.00061464484,-0.02538277,-0.0012481413,0.0015626136,-0.007803798,0.0047464105,0.0030711251,0.4475298,-1.4696037,2.0084898,-2.107703,-1.5705274,2.4223976,-0.02403078,0.038428992,-0.04567533,-0.00042788146,0.004869819,-0.027077941,0.095768064,0.4405331,-9.557653,0.7709874,47.65912,-0.6409044,-1.8691763,-3.502451,-0.5206983,0.09941466,-0.12827742,25.0625,25.5625,24.875,27.1875,27.625,27.9375
0.056053918,-0.22396225,-0.90387857,-0.4633626,-0.04340592,0.023419023,-0.12076259,-0.37351206,-0.3282123,0.059794307,-3.0784698,0.6248216,-0.00065012084,-0.02590043,-0.0013328481,0.0011483115,-0.0076113497,0.0035717497,0.0036844122,0.4474816,-1.469495,2.0084188,-2.107703,-1.5705398,2.4223733,-0.024563927,0.040617622,-0.047254,0.00010310658,0.005201176,-0.0282241,0.0,0.4405331,-9.576807,0.71279734,47.689575,-0.6424817,-1.9550269,-3.5235267,-0.51610196,0.10757585,-0.1309001,25.0625,25.5625,24.875,27.1875,27.625,27.9375
0.058053594,-0.3927265,-0.91285545,-0.4422355,-0.043549497,0.027717903,-0.12999813,-0.3735606,-0.3282338,0.05981332,-3.07852,0.6247744,-0.0006001773,-0.026973162,-0.0018729081,0.0017930736,-0.008772027,0.0047647376,0.0041951337,0.44746947,-1.4694349,2.0083091,-2.107703,-1.5705274,2.4223254,-0.024876509,0.041409843,-0.049597993,7.5640215e-05,0.0057274266,-0.029046647,-0.11492168,0.45968673,-9.615114,0.7486078,47.657326,-0.6700496,-1.8390446,-3.5078168,-0.51415145,0.1052919,-0.12195605,25.0625,25.5625,24.875,27.1875,27.625,27.9375
0.06005406,-0.46470353,-1.0973241,-0.34249476,-0.04640644,0.030301819,-0.12750368,-0.37360686,-0.3282372,0.05981644,-3.078562,0.62478226,-0.0006064702,-0.027518012,-0.0021569934,0.0011685032,-0.008983005,0.0034320941,0.0049181725,0.44740933,-1.4693741,2.008238,-2.1077154,-1.5704912,2.4222648,-0.025351204,0.04412611,-0.05113469,4.9387654e-06,0.006491343,-0.030244369,-0.095768064,0.4213795,-9.634268,0.7978386,47.694054,-0.6726817,-1.8850408,-3.5438714,-0.5145092,0.10299389,-0.11877972,25.0625,25.5625,24.875,27.1875,27.625,27.9375
0.062053777,-0.60542876,-1.1758952,-0.24896282,-0.040833607,0.031609178,-0.11666612,-0.3736899,-0.32824323,0.059839506,-3.078608,0.62479055,-0.0005415431,-0.028431613,-0.0025097511,0.0016297987,-0.009625476,0.0043923925,0.006422,0.44733718,-1.4692898,2.0080926,-2.1077154,-1.5704793,2.422192,-0.025619792,0.044933043,-0.053080417,3.2246612e-07,0.006652688,-0.032015406,-0.076614454,0.40222588,-9.653421,0.8247004,47.701214,-0.67785454,-1.8575051,-3.5759516,-0.52804965,0.09398419,-0.09078348,25.0625,25.5625,24.875,27.1875,27.625,27.9375
0.06405351,-0.48151982,-0.8384129,-0.20939234,-0.03215397,0.03607205,-0.12584291,-0.3737428,-0.32824954,0.059818607,-3.0786047,0.6247321,-0.00057303195,-0.02955923,-0.0028513172,0.0018685929,-0.010399497,0.0048126793,0.006790368,0.4473009,-1.4691457,2.0079849,-2.1077268,-1.5704793,2.4221199,-0.026343055,0.046570316,-0.055432677,2.1054735e-08,0.0071628024,-0.033106524,-0.095768064,0.4405331,-9.461885,0.800085,47.71554,-0.70039624,-1.8146604,-3.5426192,-0.52508235,0.11142515,-0.07336855,25.0625,25.5625,24.875,27.1875,27.625,27.9375
0.06605389,-0.36294767,-0.3196037,-0.011752688,-0.030287547,0.03734633,-0.12350692,-0.3738104,-0.32826754,0.05985504,-3.078672,0.62474716,-0.00046441675,-0.030739993,-0.003281986,0.0018610506,-0.011032773,0.0047582034,0.004983345,0.44726464,-1.4691088,2.0078638,-2.1077392,-1.5704664,2.4220846,-0.027002288,0.049040597,-0.058129206,1.3747237e-09,0.00775554,-0.031957112,-0.11492168,0.38307226,-9.423578,0.78888994,47.71554,-0.66159654,-1.8369751,-3.4513423,-0.52036846,0.09632006,-0.08522383,25.0625,25.5625,24.875,27.1875,27.625,27.9375
0.06805371,-0.7438722,-0.3379071,0.023789095,-0.01619027,0.029030133,-0.122284085,-0.37385774,-0.32825208,0.059835706,-3.0786288,0.6247766,-0.0005403106,-0.03130674,-0.0036915732,0.0020936658,-0.011845156,0.0050541637,0.004681973,0.44719258,-1.4689888,2.007768,-2.107703,-1.5704664,2.4220364,-0.027147662,0.04985495,-0.05956332,8.9759616e-11,0.008355794,-0.031801734,-0.15322891,0.47884035,-9.423578,0.8291774,47.698532,-0.68406725,-1.7893052,-3.549836,-0.52196276,0.07785096,-0.094169706,25.0625,25.5625,24.875,27.1875,27.625,27.9375
0.070053436,-0.7965753,-0.110602446,0.034350175,-0.0160027,0.032306857,-0.11759427,-0.37395307,-0.32827902,0.059861187,-3.0787182,0.6247755,-0.00045318448,-0.03298053,-0.0043405606,0.0027454954,-0.012857344,0.006446764,0.0052839285,0.4471325,-1.4688803,2.0075986,-2.1077392,-1.5704306,2.4219644,-0.027645966,0.05182789,-0.06322897,5.8606618e-12,0.008661893,-0.032899234,-0.28730422,0.30645782,-9.308656,0.7530795,47.701214,-0.7085955,-1.7418232,-3.4983573,-0.5190382,0.0810327,-0.100447044,25.0625,25.5625,24.875,27.1875,27.625,27.9375
0.07205403,-0.8247596,-0.15015395,0.114536606,-0.0094876345,0.037514754,-0.12158574,-0.37402877,-0.32829016,0.05987361,-3.078778,0.6247686,-0.00042923685,-0.03393785,-0.004658849,0.0020096388,-0.012991295,0.0049257693,0.005136653,0.4470602,-1.4687831,2.007466,-2.1077507,-1.5703944,2.4218802,-0.028434549,0.055579327,-0.0656677,3.8265932e-13,0.009437256,-0.033539433,-0.19153613,0.2681506,-9.308657,0.78888994,47.672558,-0.6991714,-1.8956671,-3.3400886,-0.51485866,0.05805347,-0.08934903,25.0625,25.5625,24.875,27.1875,27.625,27.9375
0.07405358,-0.49084786,0.14404905,0.1266214,-0.010892838,0.04642569,-0.13091339,-0.37408233,-0.32830343,0.059880238,-3.0788243,0.6247577,-0.00043459632,-0.034250256,-0.0047293077,0.0027301183,-0.013809116,0.006234389,0.0057820817,0.44701204,-1.4686998,2.0073593,-2.1077507,-1.5703582,2.4218194,-0.028694812,0.054332078,-0.06595281,2.4984922e-14,0.009609486,-0.034445237,-0.22984336,0.24899697,-9.212888,0.779936,47.677036,-0.7541788,-1.7098339,-3.492923,-0.5186099,0.059797008,-0.095913276,25.0625,25.5625,24.875,27.1875,27.625,27.9375
0.07605346,-0.64782536,0.0039916523,0.24055369,-0.0052488497,0.048650943,-0.12288433,-0.37416133,-0.3283117,0.059871227,-3.0788422,0.6246643,-0.00040705493,-0.03593155,-0.0051818355,0.0032870267,-0.014256512,0.0076693385,0.007079329,0.44696394,-1.4685433,2.0072134,-2.1077745,-1.5703701,2.421711,-0.029211301,0.056370094,-0.06947707,1.6313369e-15,0.009385834,-0.036256064,-0.21068975,0.19153613,-9.289502,0.7553206,47.7245,-0.7849064,-1.7609577,-3.5211468,-0.51873153,0.06970865,-0.08159467,25.0625,25.5625,24.875,27.1875,27.625,27.9375
0.078054264,-0.69422746,0.276264,0.13021009,-0.0019158103,0.04611246,-0.12602891,-0.3742124,-0.32832977,0.059885815,3.0788622,-0.62466884,0.00045603275,-0.037902053,-0.005468872,0.0033080159,-0.013892267,0.008313797,0.0059570917,0.44692764,-1.4684463,2.007057,-2.107703,-1.5703348,2.421675,-0.030038288,0.06008017,-0.07360709,1.0651464e-16,0.00877016,-0.03595684,-0.22984336,0.21068975,-9.232041,0.7284641,47.71554,-0.7771262,-1.7558854,-3.2216823,-0.4987167,0.066215016,-0.078748524,25.0625,25.5625,24.875,27.1875,27.625,27.9375
0.08005467,-1.0549806,-0.108614855,-0.056168042,0.007479807,0.039256144,-0.12059941,-0.37431604,-0.3283333,0.059897605,3.0788054,-0.62471676,0.00039527757,-0.037386388,-0.005154024,0.0017408779,-0.012814498,0.0051395134,0.0039094714,0.44683155,-1.4683136,2.0068896,-2.1077268,-1.5703219,2.421616,-0.03042546,0.062676154,-0.07287516,6.954645e-18,0.009175082,-0.034296587,-0.30645782,0.19153613,-9.289502,0.80679786,47.709274,-0.75412965,-1.913111,-3.4916215,-0.5118328,0.058961928,-0.11902917,25.0625,25.5625,24.875,27.1875,27.625,27.9375
0.082054704,-1.027964,0.20230365,0.16018414,-0.009015123,0.04104176,-0.12371706,-0.3743842,-0.32834482,0.05990237,3.0787992,-0.6246573,0.0003894613,-0.03952344,-0.0060477606,0.0042133504,-0.015404967,0.010023229,0.004272365,0.4467834,-1.4681944,2.006745,-2.1077154,-1.57031,2.4215317,-0.03082172,0.06115957,-0.076881945,4.540886e-19,0.0093935225,-0.03505384,-0.30645782,0.24899697,-9.32781,0.75084364,47.696735,-0.8206899,-1.6558235,-3.3169591,-0.50209177,0.05911862,-0.12731443,25.0625,25.5625,24.875,27.1875,27.625,27.9375
0.08405349,-1.3851514,-0.46081528,0.023695407,-0.0009806051,0.03519317,-0.117717825,-0.37447536,-0.3283738,0.059923228,3.0787132,-0.6246008,0.0003151569,-0.040493168,-0.0061018933,0.003437817,-0.014425526,0.008940148,0.005009975,0.44672325,-1.4680853,2.0065882,-2.107763,-1.5702628,2.4214473,-0.031308923,0.064873725,-0.07919213,2.9648738e-20,0.008977395,-0.03627517,-0.3256114,0.30645782,-9.346964,0.8023209,47.698532,-0.78583074,-1.7783518,-3.2823017,-0.51214206,0.07054672,-0.13257357,25.0625,25.5625,24.875,27.1875,27.625,27.9375
0.086053595,-1.5327936,-0.26960227,-0.12679042,-0.015258669,0.0342004,-0.122153714,-0.37456238,-0.32837942,0.059934232,3.078695,-0.6245968,0.000246462,-0.041125797,-0.0059885797,0.0030914687,-0.014096838,0.008420292,0.0049550934,0.44666302,-1.4679649,2.0064332,-2.1077745,-1.5702747,2.421387,-0.032037046,0.06663866,-0.08034569,1.9358508e-21,0.008905573,-0.036946945,-0.30645782,0.28730422,-9.308657,0.800085,47.686886,-0.8247007,-1.8313214,-3.2797022,-0.5009608,0.060650095,-0.12961198,25.0625,25.5625,24.875,27.1875,27.625,27.9375
0.08805328,-1.0320542,-0.67973906,-0.19683555,-0.012456915,0.052551247,-0.12313684,-0.3746289,-0.32838163,0.059918884,3.0787344,-0.6245866,0.00029300185,-0.04332916,-0.006512064,0.00368889,-0.015642764,0.009502563,0.003630078,0.44661462,-1.4677962,2.006275,-2.1077392,-1.5702862,2.4213274,-0.033661425,0.06931492,-0.084668994,1.2639721e-22,0.0098222,-0.03724515,-0.34476504,0.22984336,-9.423578,0.8314132,47.687782,-0.80279124,-1.7714585,-3.2201064,-0.49856,0.05140817,-0.14305136,25.0625,25.5625,24.875,27.1875,27.625,27.9375
0.09005434,-0.81782466,-0.569705,-0.12142475,-0.017935771,0.052680403,-0.12104804,-0.37473357,-0.32839814,0.05993365,3.0786555,-0.62460834,0.0002676847,-0.042840883,-0.005681778,0.0022959707,-0.013753879,0.007065545,0.0034177627,0.44651827,-1.4676521,2.0060852,-2.1077507,-1.570238,2.4212546,-0.034328666,0.07096666,-0.08330175,8.252835e-24,0.009177358,-0.03769914,-0.30645782,0.22984336,-9.3661175,0.79560274,47.68062,-0.819623,-1.8794396,-3.2340536,-0.4823664,0.058806263,-0.15497835,25.0625,25.5625,24.875,27.1875,27.625,27.9375
0.09205342,-1.0303065,-0.5963248,-0.1723833,-0.028667193,0.049465597,-0.123218074,-0.37480476,-0.32842806,0.059946664,3.0786407,-0.62450945,0.00025974071,-0.043780033,-0.0059108147,0.0021059127,-0.013914968,0.0067693647,0.003424964,0.44649383,-1.4675193,2.005904,-2.1077268,-1.5702142,2.4211705,-0.034924652,0.07326263,-0.0853998,5.3885116e-25,0.009447326,-0.038300905,-0.28730422,0.28730422,-9.308656,0.8090337,47.675243,-0.764295,-1.7289376,-3.3541317,-0.48058277,0.06394304,-0.17477667,25.0625,25.5625,24.875,27.1875,27.625,27.9375
0.09405388,-0.7354722,-0.36082372,-0.012507408,-0.035143334,0.05208838,-0.12525502,-0.37488684,-0.32843372,0.05994789,3.0786161,-0.62450385,0.00023928877,-0.045432955,-0.0070577394,0.003135901,-0.015568555,0.008784501,0.004109742,0.44642213,-1.4673871,2.0057585,-2.1077392,-1.5702022,2.4210985,-0.0346723,0.07489765,-0.08956732,3.518313e-26,0.010061859,-0.038731255,-0.28730422,0.2681506,-9.289502,0.84708,47.65912,-0.8437296,-1.8565514,-3.1727276,-0.47614175,0.054053035,-0.19029316,25.0625,25.5625,24.875,27.1875,27.625,27.9375
0.09605436,-0.6221565,-0.24029613,-0.006639108,-0.026267422,0.041813757,-0.12218452,-0.3749902,-0.32842982,0.059954707,3.0786252,-0.62448686,0.00018971313,-0.045951176,-0.006174877,0.0018928379,-0.014261234,0.0065727783,0.0029376491,0.4463374,-1.4672304,2.0055678,-2.1077268,-1.5702261,2.4210021,-0.03663425,0.07766412,-0.08977343,2.2972067e-27,0.009839019,-0.039520048,-0.17238252,0.2681506,-9.270349,0.8314132,47.699425,-0.77369493,-1.796147,-3.3643112,-0.48686627,0.06515594,-0.20788947,25.0625,25.5625,24.875,27.1875,27.625,27.9375
0.09805359,-0.48112193,-0.32597342,-0.07863351,-0.017817173,0.026396992,-0.11872851,-0.37510574,-0.32844913,0.059983745,3.0785563,-0.6245111,0.00012230413,-0.04748252,-0.006196468,0.0022800025,-0.014523227,0.0076227547,0.0027896904,0.44625306,-1.4670862,2.0053399,-2.1077154,-1.5702022,2.4209418,-0.03781504,0.07926769,-0.09243432,1.4999118e-28,0.009620547,-0.04055007,-0.19153613,0.2681506,-9.346964,0.7172743,47.672558,-0.768044,-1.837713,-3.2737422,-0.47105178,0.059704155,-0.22947173,25.0625,25.5625,24.875,27.1875,27.625,27.9375
0.10005316,-0.8394602,-0.20394546,-0.11218084,-0.020204453,0.01146391,-0.11310752,-0.37518567,-0.32846195,0.059966967,3.0785418,-0.6244708,0.00017150429,-0.04893169,-0.0061708894,0.0024563305,-0.015573185,0.0077743023,0.0015024489,0.44618028,-1.4669058,2.0051825,-2.1077268,-1.570166,2.4208457,-0.039752536,0.08098877,-0.09474594,9.7933515e-30,0.010497973,-0.041200005,-0.076614454,0.2873042,-9.270349,0.8224646,47.694054,-0.6966672,-1.8835206,-3.1954892,-0.4765576,0.046337713,-0.24594286,25.0625,25.5625,24.875,27.1875,27.625,27.9375
0.102053925,-0.52910894,-0.39893687,-0.13669929,-0.011177648,0.019160658,-0.119290575,-0.37528795,-0.32846856,0.059964176,3.0785124,-0.62448263,0.00017983656,-0.050045718,-0.006221074,0.0028646013,-0.015062055,0.009197129,0.0039673503,0.44608417,-1.4667258,2.0049908,-2.1077268,-1.5701421,2.4207609,-0.039921656,0.08205216,-0.09686551,6.394359e-31,0.009420641,-0.04383108,-0.13407528,0.34476504,-9.289502,0.8314132,47.672558,-0.65303904,-1.860471,-3.1735115,-0.44375634,0.06606134,-0.24981079,25.0625,25.5625,24.875,27.1875,27.625,27.9375
0.10405348,-0.12733646,-0.84224796,-0.20856173,-0.0026361225,0.03395826,-0.12588364,-0.3753902,-0.32847762,0.059956368,3.078489,-0.62451476,0.0001776112,-0.050222196,-0.0066148564,0.0014764679,-0.014006749,0.006678298,0.0050681937,0.4460007,-1.4665328,2.0047991,-2.1077392,-1.5701302,2.4207006,-0.039420124,0.08638538,-0.09846999,4.1750594e-32,0.00955348,-0.044428863,-0.19153613,0.36391866,-9.308656,0.800085,47.723602,-0.74632335,-1.9192922,-3.1389804,-0.4389729,0.06253593,-0.2589073,25.0625,25.5625,24.875,27.1875,27.625,27.9375
0.1060533,-0.5050687,-0.30793634,0.042006113,-0.020690229,0.03435482,-0.11815092,-0.37549472,-0.32850456,0.059976276,3.0784483,-0.624431,0.00012428449,-0.051254626,-0.007359209,0.0031237898,-0.0165766,0.009461804,0.0038895037,0.44594038,-1.4663776,2.0045826,-2.1077392,-1.5701059,2.4205933,-0.039694447,0.08476617,-0.10047319,2.7260155e-33,0.010670467,-0.04352442,-0.05746084,0.30645782,-9.385271,0.779936,47.677036,-0.8026004,-1.8442199,-3.2124376,-0.4506297,0.060399476,-0.28413004,25.0625,25.5625,24.875,27.1875,27.625,27.9375
0.108054675,-0.7267921,-0.74039614,-0.18724713,-0.012813179,0.025798269,-0.11072851,-0.37559888,-0.32851395,0.05999724,3.0784142,-0.6244433,9.288352e-05,-0.05209353,-0.0066713598,0.0021022242,-0.0159614,0.007501457,0.0030462919,0.44585556,-1.466233,2.004367,-2.107703,-1.5700935,2.4205205,-0.041922566,0.087680645,-0.101352654,1.7798933e-34,0.010962068,-0.044908363,-0.038307227,0.34476504,-9.404425,0.7486078,47.689575,-0.72477734,-1.7407799,-3.2237353,-0.43999246,0.034794502,-0.3046148,25.0625,25.5625,24.875,27.1875,27.625,27.9375
0.11005367,-0.5317315,-0.28901294,-0.25253958,-0.025898611,0.022231037,-0.117126934,-0.37568116,-0.3285087,0.05996935,3.0784419,-0.6244105,0.00013682502,-0.053110007,-0.0070712175,0.0020685047,-0.016173866,0.007590653,0.003627864,0.44577143,-1.4660403,2.0042217,-2.1077154,-1.5700935,2.4204125,-0.042176828,0.089968674,-0.103812,1.1621431e-35,0.011109838,-0.04574299,-0.095768064,0.3256114,-9.3661175,0.8224646,47.694946,-0.70396435,-2.0470648,-3.1648011,-0.4274568,0.033354726,-0.30917948,25.0625,25.5625,24.875,27.1875,27.625,27.9375
0.112054184,-0.6659336,-0.5654194,-0.20452574,-0.021495387,0.01948733,-0.114491016,-0.37582022,-0.32855445,0.059992354,3.0783534,-0.6243718,6.601599e-05,-0.052902926,-0.0068453215,0.00085628615,-0.0149262715,0.0054057725,0.0057397787,0.44569954,-1.4658239,2.003936,-2.1077392,-1.5700458,2.420328,-0.042275805,0.09239242,-0.10372178,7.587964e-37,0.01093208,-0.047952358,-0.076614454,0.24899697,-9.308656,0.7866488,47.69763,-0.77145416,-1.901216,-3.3437293,-0.42884153,0.056080848,-0.30666,25.0625,25.5625,24.875,27.1875,27.625,27.9375
0.11405442,-0.49771836,-0.074770264,-0.00516342,-0.016940568,0.020422822,-0.1210232,-0.37590677,-0.3285533,0.05998075,3.0783632,-0.62433624,0.00013425678,-0.053517148,-0.006594174,9.011883e-06,-0.01400635,0.0037673237,0.004088348,0.4456032,-1.4656432,2.0037553,-2.107703,-1.570022,2.4202082,-0.04320016,0.09533523,-0.10511346,0.00032613956,0.010805092,-0.04722437,-0.13407528,0.21068975,-9.32781,0.7709874,47.68599,-0.7664836,-2.0454164,-3.3536441,-0.41861933,0.051778093,-0.35328868,25.0625,25.5625,24.875,27.1875,27.625,27.9375
0.11605388,-0.932942,-0.15226242,-0.11901245,-0.003364074,0.012564293,-0.10838442,-0.37603262,-0.32856718,0.059999682,3.0783002,-0.62430406,2.6043754e-05,-0.054139208,-0.0072178664,0.0004285777,-0.01477669,0.0045163305,0.002620848,0.4455074,-1.4654874,2.0035512,-2.1077507,-1.5700096,2.4201005,-0.042824555,0.096142136,-0.10699103,0.0003883292,0.011178392,-0.045379456,-0.095768064,0.21068975,-9.32781,0.73069996,47.72719,-0.75120807,-1.892453,-3.3969145,-0.40515792,0.061625946,-0.39465624,25.0625,25.5625,24.875,27.1875,27.625,27.9375
0.11805388,-0.6072733,0.138674,0.025145648,-0.0029946156,0.02261128,-0.12002233,-0.37615153,-0.32859644,0.060011726,3.078266,-0.6242767,-2.2901646e-05,-0.05554888,-0.0075445194,0.0007915418,-0.015383932,0.0053828494,0.0040174243,0.445447,-1.465283,2.0032985,-2.1077507,-1.5699977,2.4200275,-0.04358246,0.09795796,-0.10983942,0.0003790335,0.01135065,-0.047531657,-0.019153614,0.21068975,-9.346964,0.8627467,47.7254,-0.8292777,-2.0099256,-3.4049807,-0.41208115,0.050800614,-0.42783535,25.0625,25.5625,24.875,27.1875,27.625,27.9375
0.12005381,-0.5952506,0.26315525,0.1337015,-0.0028281144,0.029465385,-0.11643177,-0.37627053,-0.3286134,0.060032483,3.0781972,-0.62428075,-3.494723e-05,-0.055364035,-0.007179499,-0.00015664006,-0.0137260705,0.003966556,0.0062277373,0.44533908,-1.4651147,2.00306,-2.1077268,-1.5699495,2.419931,-0.04348626,0.09969703,-0.10960565,0.0004064356,0.010469511,-0.04964426,-0.114921674,0.2681506,-9.308657,0.8717007,47.737934,-0.8222014,-1.9015746,-3.4655476,-0.39716494,0.035395667,-0.4287419,25.0625,25.5625,24.875,27.1875,27.625,27.9375
0.12205371,-0.7154068,0.15105735,0.05260264,-0.0071026217,0.034072265,-0.12152688,-0.37636802,-0.32862625,0.06002082,3.078209,-0.62424326,5.5942505e-06,-0.056939956,-0.008363697,0.0015185643,-0.015618962,0.0073197074,0.009029673,0.4452673,-1.4648991,2.0028436,-2.107703,-1.5699376,2.4198344,-0.042844094,0.09969578,-0.11346708,0.00042934783,0.010725942,-0.051802322,-0.11492168,0.19153613,-9.308656,0.784413,47.64479,-0.9350575,-1.9571552,-3.4625359,-0.39784008,0.043290712,-0.44362035,25.0625,25.5625,24.875,27.1875,27.625,27.9375
0.12405365,-0.6769468,0.057072047,-0.005896949,-0.009260509,0.03171495,-0.11940379,-0.3764827,-0.32862774,0.060004465,3.0782151,-0.6242065,3.5188015e-05,-0.057019513,-0.007445677,-0.00077839184,-0.0132806515,0.002881972,0.009173838,0.44515878,-1.4646697,2.002628,-2.1077025,-1.5699257,2.4197023,-0.044483807,0.10448165,-0.11358441,0.0007765219,0.01052838,-0.05358547,-0.095768064,0.15322891,-9.289502,0.82022345,47.67614,-0.9547953,-2.0116065,-3.4239044,-0.38269013,0.060965873,-0.45612738,25.0625,25.5625,24.875,27.1875,27.625,27.9375
0.12605385,-0.8760956,-0.22008353,-0.060327422,-0.007073809,0.018733546,-0.11836414,-0.37656912,-0.328635,0.0599741,3.0782483,-0.624134,0.00010484622,-0.058050245,-0.007548739,0.0009989627,-0.014768081,0.006229681,0.0119423745,0.4450865,-1.4644431,2.0024478,-2.1077025,-1.5699137,2.4195807,-0.04513212,0.10193252,-0.11491939,0.001002561,0.010426635,-0.057002433,-0.095768064,0.19153613,-9.32781,0.8851263,47.71554,-0.893033,-1.79971,-3.4596305,-0.38708806,0.06119584,-0.45070654,25.0625,25.5625,24.875,27.1875,27.625,27.9375
0.12805372,-0.49536356,0.07176428,-0.05351617,-0.01491669,0.01957786,-0.12125284,-0.37674183,-0.3286543,0.06001726,3.0781574,-0.6241121,-8.8222485e-05,-0.05717203,-0.008176601,-0.0011072129,-0.012763752,0.0018350651,0.016842918,0.4449673,-1.4642618,2.0021598,-2.1077502,-1.5699137,2.4194596,-0.043207947,0.10698604,-0.11584686,0.0017086937,0.010520454,-0.059976183,-0.17238252,0.21068975,-9.32781,0.6948948,47.693153,-1.0808809,-1.8518746,-3.539951,-0.36116028,0.04358304,-0.43767062,25.0625,25.5625,24.875,27.1875,27.625,27.9375
0.13005322,-0.52936965,-0.08528652,0.010312923,-0.007789788,0.01802417,-0.119889796,-0.3768404,-0.3286671,0.059996277,3.0781906,-0.62407887,-3.0872438e-06,-0.059299335,-0.008262076,0.0007537592,-0.013814812,0.005761773,0.019564355,0.44489485,-1.4640106,2.00192,-2.1077025,-1.5699023,2.4193623,-0.044437636,0.10613951,-0.119264096,0.0019822824,0.009771451,-0.063925445,-0.095768064,0.19153613,-9.289502,0.83589023,47.68599,-1.1209192,-1.7432408,-3.4472876,-0.37904096,0.05338416,-0.41248226,25.0625,25.5625,24.875,27.1875,27.625,27.9375
0.13205393,-0.5108537,0.11779588,-0.114819884,-0.004283947,0.012670498,-0.11736827,-0.37696666,-0.32869387,0.06001376,3.0781288,-0.6240069,-3.127026e-05,-0.060141053,-0.00867799,0.0006433413,-0.014416264,0.005385143,0.023255916,0.44479874,-1.4638183,2.0016677,-2.107702,-1.5698537,2.4192293,-0.044870976,0.108290926,-0.121424966,0.0020772242,0.010479085,-0.0680489,0.0,0.22984336,-9.270349,0.8291774,47.698532,-1.089447,-1.7884223,-3.6316843,-0.3730713,0.06288871,-0.39279664,25.0625,25.5625,24.875,27.1875,27.625,27.9375
0.13405377,-0.17754038,-0.012332473,-0.0498693,-0.011273473,0.027570868,-0.13242573,-0.37706423,-0.32870835,0.060013022,3.0781622,-0.6238394,-3.128324e-05,-0.061091665,-0.008364314,0.00027426783,-0.014095963,0.004902745,0.025959218,0.44473812,-1.4636259,2.0014517,-2.1076787,-1.5698537,2.41906,-0.046241455,0.11031145,-0.12281792,0.0020266145,0.010397218,-0.0721215,-0.019153614,0.19153613,-9.346964,0.73069996,47.678825,-1.0995553,-1.7840257,-3.5106516,-0.3742311,0.055306256,-0.35966668,25.0625,25.5625,24.875,27.1875,27.625,27.9375
0.13605407,-0.9822488,-0.40008146,-0.20763971,-0.007783264,0.01143694,-0.11625319,-0.3772052,-0.32872453,0.0600141,3.0781174,-0.6238077,-4.2811545e-05,-0.06294928,-0.00874686,0.0013867883,-0.014649224,0.0075113582,0.029411301,0.44461805,-1.4633859,2.001187,-2.10769,-1.5698184,2.418926,-0.046747237,0.11124899,-0.12645094,0.0021380268,0.0097732805,-0.07607625,-0.095768064,0.3256114,-9.3661175,0.85826975,47.699425,-1.0986674,-1.747917,-3.38658,-0.35080108,0.06895624,-0.3088879,25.0625,25.5625,24.875,27.1875,27.625,27.9375
0.13805366,-0.8968618,-0.52106637,-0.33817488,-0.015769968,0.020956622,-0.11792873,-0.37736082,-0.3287653,0.060066663,3.0780418,-0.6236548,-0.00022710838,-0.06370742,-0.0097285,0.0019403525,-0.015340137,0.008070624,0.034456715,0.4445463,-1.4632177,2.0008867,-2.1077144,-1.569806,2.4187686,-0.045834824,0.112777,-0.12961118,0.002971463,0.010167515,-0.08020621,-0.1340753,0.3256114,-9.3661175,0.83365434,47.696735,-1.170047,-1.6940849,-3.3733685,-0.36883748,0.08016768,-0.24384066,25.0625,25.5625,24.875,27.1875,27.625,27.9375
0.14005412,-1.448947,-0.95033485,-0.40454,-0.022587352,0.022814656,-0.117498815,-0.37747422,-0.3287657,0.060029663,3.0780983,-0.62355155,-0.0001233021,-0.06464787,-0.008999005,0.0019468113,-0.014970593,0.0073173684,0.033936765,0.44443753,-1.4629297,2.0006478,-2.1076896,-1.5697945,2.4185884,-0.048010454,0.113791645,-0.13107394,0.0042618797,0.010154184,-0.08186205,-0.05746084,0.3256114,-9.481039,0.8627467,47.71554,-1.1715187,-1.704193,-3.4099283,-0.36894375,0.085284166,-0.21611392,25.0625,25.5625,24.875,27.1875,27.625,27.9375
0.14205378,-0.72179234,-0.6842616,-0.48727754,-0.045924254,0.035477925,-0.12523207,-0.37759608,-0.32879204,0.060053717,3.0780888,-0.62345344,-0.00018218694,-0.06567348,-0.008924965,0.0017674556,-0.014409808,0.006854656,0.034169972,0.44437742,-1.4627376,2.0003722,-2.1076534,-1.5697945,2.4184685,-0.048844818,0.11615045,-0.13344173,0.0049322564,0.0098486375,-0.08292738,-0.05746084,0.38307226,-9.576807,0.8247004,47.66091,-1.1793083,-1.7076051,-3.3624196,-0.3774721,0.086418,-0.18735415,25.0625,25.5625,24.875,27.1875,27.625,27.9375
0.14405335,-0.9249339,-1.0728544,-0.41398567,-0.045208797,0.034563676,-0.120205425,-0.3777164,-0.32879436,0.060022082,3.078081,-0.6233558,-7.977587e-05,-0.06666588,-0.009453144,0.00261447,-0.016262174,0.007866805,0.033147547,0.44423318,-1.4624739,2.0001562,-2.1076653,-1.569734,2.4182644,-0.04954643,0.116302095,-0.13565998,0.0052906717,0.011080905,-0.08260678,-0.17238252,0.4213795,-9.595961,0.90527004,47.705692,-1.1856287,-1.604223,-3.4201283,-0.38442498,0.085685074,-0.16639459,25.0625,25.5625,24.875,27.1875,27.625,27.9375
0.14605393,-1.1776639,-0.98284215,-0.33173808,-0.046108294,0.035256803,-0.11467065,-0.37787613,-0.3288152,0.060040083,3.0780842,-0.6232048,-0.00016375686,-0.0672407,-0.009115015,0.000968559,-0.014988993,0.005188316,0.03012012,0.44413662,-1.4622207,1.9998325,-2.1076534,-1.5697454,2.4180734,-0.050670072,0.12071483,-0.13670132,0.00488366,0.011083807,-0.08070099,-0.28730422,0.4405331,-9.557653,0.9097417,47.704796,-1.1778476,-1.8850534,-3.4025586,-0.36685908,0.103221744,-0.15018952,25.0625,25.5625,24.875,27.1875,27.625,27.9375
0.14805359,-1.2956585,-1.2389299,-0.4517533,-0.03379781,0.032752343,-0.11500345,-0.37799066,-0.32882273,0.060043197,3.0780933,-0.6231107,-0.00015386294,-0.06838312,-0.009090997,0.0012348429,-0.015253134,0.006114702,0.029065648,0.44404042,-1.4620169,1.9995922,-2.1076176,-1.569734,2.4179175,-0.051605433,0.12178753,-0.13846,0.0046221456,0.010921063,-0.08058054,-0.28730422,0.4405331,-9.653421,0.7418897,47.66271,-1.1467308,-1.6915762,-3.3704052,-0.36072433,0.10935862,-0.16888796,25.0625,25.5625,24.875,27.1875,27.625,27.9375
0.15005326,-1.4491698,-0.9051743,-0.37803158,-0.031606082,0.032911293,-0.11211534,-0.37812433,-0.32885692,0.06003537,3.078038,-0.6231035,-0.000110025365,-0.069200486,-0.009219406,0.0013442958,-0.01670224,0.006106371,0.022052728,0.44394386,-1.461741,1.9993051,-2.1076176,-1.5696734,2.4178236,-0.052948073,0.12263118,-0.13960081,0.0043008877,0.01222802,-0.0749103,-0.28730422,0.36391866,-9.634268,0.83589023,47.67166,-1.1765614,-1.7105503,-3.4872463,-0.356709,0.09792653,-0.19078076,25.0625,25.5625,24.875,27.1875,27.625,27.9375
0.1520544,-0.978354,-0.02211332,-0.20862858,-0.039747212,0.045984477,-0.12574652,-0.37829664,-0.32888606,0.060063463,3.0779974,-0.62292427,-0.00023358133,-0.07043815,-0.009647891,0.0009305962,-0.016763128,0.0054296847,0.01798173,0.44383577,-1.4615005,1.9989804,-2.1076415,-1.569661,2.417609,-0.053456884,0.12625653,-0.14270167,0.00435936,0.012573579,-0.07134472,-0.30645782,0.24899697,-9.519346,0.8560339,47.683304,-1.1590363,-1.5632982,-3.3168583,-0.36384052,0.096057005,-0.24029635,25.0625,25.5625,24.875,27.1875,27.625,27.9375
0.1540541,-1.0499573,-0.38915932,-0.24678035,-0.013270959,0.041095573,-0.12430147,-0.37842336,-0.32888457,0.060044594,3.0779858,-0.6229597,-0.0001785752,-0.07211428,-0.009911603,0.00052743056,-0.017029902,0.0049964148,0.017488098,0.44370332,-1.4612473,1.998741,-2.10763,-1.5696367,2.4175003,-0.054716676,0.1301843,-0.14609426,0.0041035973,0.012993109,-0.07210888,-0.28730422,0.22984336,-9.519346,0.9097417,47.705692,-1.1750542,-1.681778,-3.455533,-0.34352258,0.09384392,-0.25589368,25.0625,25.5625,24.875,27.1875,27.625,27.9375
0.156054,-0.55781645,0.09151203,-0.22007264,-0.011810667,0.051030625,-0.12167227,-0.37858006,-0.32891643,0.060075525,3.0779502,-0.6228593,-0.00023035955,-0.07245702,-0.009478281,-0.00046477502,-0.015835524,0.0031901628,0.013873531,0.443607,-1.4610069,1.9983934,-2.1075819,-1.5696133,2.417346,-0.055600904,0.13276039,-0.14675349,0.004332369,0.012691691,-0.06937694,-0.26815057,0.21068975,-9.481039,0.8179876,47.70032,-1.2186186,-1.7672203,-3.4318347,-0.34912848,0.105877385,-0.28952783,25.0625,25.5625,24.875,27.1875,27.625,27.9375
0.15805385,-0.46034154,0.33255222,-0.0024791,-0.009240391,0.05719463,-0.13570233,-0.37872654,-0.32892868,0.06006663,3.0779326,-0.62283534,-0.00027382394,-0.073712416,-0.009741336,-0.0005515879,-0.016546665,0.0031510093,0.013295853,0.44349864,-1.4607427,1.9981297,-2.1076176,-1.5696129,2.4172251,-0.056642957,0.13516565,-0.14919549,0.004098847,0.013348998,-0.069839455,-0.2681506,0.22984336,-9.404425,0.8090337,47.67345,-1.2802788,-1.6858178,-3.4446023,-0.33107245,0.115799025,-0.3223486,25.0625,25.5625,24.875,27.1875,27.625,27.9375
0.16005337,-1.4363714,-0.3595527,0.012184871,0.010034787,0.033867404,-0.11626949,-0.37887594,-0.32898068,0.060084723,3.077866,-0.6226881,-0.00028155558,-0.076581486,-0.010160338,0.000562078,-0.018234422,0.0056860223,0.0131939,0.44341388,-1.4604782,1.9977931,-2.1076062,-1.5695409,2.417057,-0.058682147,0.13745755,-0.15425915,0.0038632096,0.013781544,-0.07177283,-0.24899697,0.11492168,-9.32781,0.85826975,47.688675,-1.1700585,-1.8760722,-3.289575,-0.32997692,0.10669844,-0.3344761,25.0625,25.5625,24.875,27.1875,27.625,27.9375
0.16205421,-0.9977045,0.26828083,0.19742368,0.00012745928,0.041393455,-0.1172034,-0.3790416,-0.3289805,0.06008747,3.0778408,-0.6227397,-0.000279925,-0.07562094,-0.009294368,-0.0025344891,-0.01534579,-0.0005014954,0.0133612305,0.44325763,-1.4602009,1.9974717,-2.10757,-1.5695289,2.4169364,-0.059439622,0.14258304,-0.15297857,0.0042894147,0.013832954,-0.072697684,-0.38307226,0.1340753,-9.270349,0.8247004,47.691364,-1.1723866,-1.9031367,-3.3879037,-0.32332402,0.1196332,-0.33494627,25.0625,25.5625,24.875,27.1875,27.625,27.9375
0.16405356,-0.75327814,0.097766176,0.30805722,0.0017293863,0.053567227,-0.12548545,-0.37920743,-0.32900408,0.06009335,3.0777924,-0.62269264,-0.00033353674,-0.07644862,-0.009252592,-0.0018000226,-0.015954886,0.00080032664,0.012342608,0.44313735,-1.4599255,1.9971589,-2.1075938,-1.5695046,2.416793,-0.060215455,0.14214571,-0.154283,0.004597212,0.013827855,-0.072453536,-0.45968673,0.21068975,-9.174581,0.78888994,47.701214,-1.1736459,-1.8427342,-3.4108608,-0.3229258,0.1158527,-0.35778686,25.0625,25.5625,24.875,27.1875,27.625,27.9375
0.16605334,-1.6619376,0.052490145,0.2667335,0.0032898562,0.038731042,-0.11503848,-0.3793859,-0.32904628,0.060122028,3.077729,-0.62262,-0.00042963424,-0.07781927,-0.009072454,-0.0012633189,-0.01582093,0.0019118774,0.013378802,0.44304094,-1.4596498,1.9967879,-2.1075933,-1.5694808,2.4166596,-0.06134079,0.14311196,-0.15674548,0.0051541696,0.013236343,-0.07461223,-0.40222588,0.21068975,-9.136273,0.8247004,47.711063,-1.1672225,-1.7825804,-3.4042273,-0.31982768,0.13065702,-0.38621122,25.0625,25.5625,24.875,27.1875,27.625,27.9375
0.16805388,-2.0355132,0.0060353004,0.44605312,0.006975397,0.03496658,-0.11756366,-0.37954903,-0.3290577,0.060123283,3.077677,-0.6226106,-0.00041317803,-0.07887848,-0.008961849,-0.0013256822,-0.01574892,0.0016825215,0.011643615,0.44288456,-1.4593737,1.9964765,-2.1075814,-1.5694326,2.4165041,-0.062471624,0.14500797,-0.15884143,0.005597159,0.013268448,-0.07400628,-0.40222588,0.095768064,-9.078813,0.8247004,47.670765,-1.177124,-1.8508523,-3.3724155,-0.32487932,0.13773987,-0.3801431,25.0625,25.5625,24.875,27.1875,27.625,27.9375
0.1700535,-1.0394006,0.70152813,0.5778566,-0.003543993,0.048863143,-0.13511881,-0.3797056,-0.32906345,0.060107436,3.0777087,-0.6225399,-0.00040970655,-0.0800905,-0.008954736,-0.0008555054,-0.015952684,0.0024488359,0.012193677,0.4427644,-1.459062,1.9961647,-2.107569,-1.5694455,2.416336,-0.06343055,0.14605387,-0.16125531,0.0061883037,0.013122226,-0.075514086,-0.38307226,0.22984336,-9.040505,0.91198283,47.70838,-1.1529738,-1.7207582,-3.3493748,-0.32437712,0.16599573,-0.41168422,25.0625,25.5625,24.875,27.1875,27.625,27.9375
0.17205395,-0.53178596,0.49958962,0.4017177,0.005997188,0.052144356,-0.13071801,-0.37983304,-0.32907504,0.06007901,3.0777082,-0.6224788,-0.00027661482,-0.08142235,-0.009224306,-0.00053822104,-0.016975034,0.0028851882,0.017616183,0.44263193,-1.4587619,1.9958891,-2.1075332,-1.5693849,2.4161656,-0.06457135,0.14772527,-0.16391328,0.006353924,0.013857556,-0.082076825,-0.36391866,0.19153613,-9.002198,0.82022345,47.66987,-1.1212585,-1.7721379,-3.3717701,-0.32996178,0.1409303,-0.37301564,25.0625,25.5625,24.875,27.1875,27.625,27.9375
0.1740536,-0.9118313,0.43731782,0.5828559,0.012182206,0.028953884,-0.12133336,-0.3800236,-0.3291101,0.06010043,3.0776482,-0.6223508,-0.00038915937,-0.08242351,-0.009031829,-0.00049369066,-0.016254071,0.0037415277,0.018442893,0.44251177,-1.4584739,1.995529,-2.107569,-1.5693611,2.4159734,-0.065101966,0.1490502,-0.16547337,0.006132902,0.01284711,-0.08343132,-0.28730422,0.19153613,-9.155427,0.93436235,47.703903,-1.1317623,-1.685483,-3.3760219,-0.30494913,0.15815452,-0.35750777,25.0625,25.5625,24.875,27.1875,27.625,27.9375
0.17605348,-0.5293124,0.38075256,0.29966953,0.015150599,0.030528812,-0.12663338,-0.3801774,-0.3291272,0.060104396,3.0776448,-0.62223303,-0.00038048,-0.08352001,-0.008045589,-0.0015001573,-0.01599082,0.0014245036,0.020024177,0.44239056,-1.4581974,1.9952053,-2.1075332,-1.5693368,2.4157794,-0.06838537,0.15195076,-0.16650341,0.0064757923,0.013607714,-0.08829521,-0.19153613,0.19153613,-9.002198,0.8537928,47.721813,-1.0469748,-1.8331428,-3.4018388,-0.30931506,0.16253418,-0.31474045,25.0625,25.5625,24.875,27.1875,27.625,27.9375
0.17805414,-0.6677666,-0.09340464,0.33824298,0.010628261,0.031406924,-0.12349926,-0.38033432,-0.329125,0.060092576,3.0776691,-0.62217677,-0.0003524849,-0.084779,-0.008852933,0.0007867169,-0.018071037,0.005981142,0.025702016,0.4422469,-1.4578991,1.9948934,-2.1074975,-1.5693368,2.4155977,-0.06791065,0.14941573,-0.16896862,0.0064760176,0.013537733,-0.0934977,-0.2681506,0.15322891,-9.078813,0.7553206,47.707485,-0.98411596,-1.547678,-3.2594643,-0.3084541,0.1876216,-0.26926878,25.0625,25.5625,24.875,27.1875,27.625,27.9375
0.1800536,-0.58340484,0.05580881,0.06019331,0.0028867042,0.031069018,-0.12524205,-0.38051754,-0.32913715,0.060093958,3.077659,-0.6220956,-0.00034262892,-0.08621274,-0.009418679,0.0014384224,-0.019182151,0.006861412,0.029621787,0.44209054,-1.457575,1.9945225,-2.1074612,-1.5693125,2.4153922,-0.06850473,0.15103714,-0.17243765,0.00706036,0.014167717,-0.098009616,-0.30645782,0.17238252,-9.174581,0.8314132,47.707485,-1.1179345,-1.5723639,-3.4046373,-0.3096692,0.18406887,-0.19715688,25.0625,25.5625,24.875,27.1875,27.625,27.9375
0.18205339,-1.0905243,-0.2128603,-0.009279492,0.000731669,0.022398759,-0.11562721,-0.38069794,-0.32914943,0.060088336,3.0776477,-0.62203485,-0.00035956813,-0.08692522,-0.007863084,3.3938744e-05,-0.017458072,0.003633451,0.030099168,0.44194558,-1.4572506,1.9941753,-2.1074607,-1.569301,2.415211,-0.07187533,0.15397434,-0.1727735,0.008122854,0.014000463,-0.101856984,-0.22984336,0.2681506,-9.212888,0.83589023,47.71286,-0.95380795,-1.5642483,-3.372493,-0.32414782,0.21248949,-0.12925933,25.0625,25.5625,24.875,27.1875,27.625,27.9375
0.18405399,-0.7509222,-0.09978099,-0.10041977,-0.007972771,0.031414617,-0.118292846,-0.38087144,-0.32916987,0.060101226,3.0776303,-0.62183833,-0.0004107011,-0.08778177,-0.008118586,0.00039640642,-0.018552536,0.003607219,0.03051554,0.4418131,-1.4569747,1.9938396,-2.1074603,-1.5692762,2.4149582,-0.07278792,0.15491648,-0.1748448,0.0088102715,0.0150073245,-0.103184275,-0.22984336,0.24899697,-9.308657,0.83365434,47.713753,-0.8122202,-1.6184311,-3.46388,-0.32622683,0.20215982,-0.08661005,25.0625,25.5625,24.875,27.1875,27.625,27.9375
0.1860534,-1.0635352,-0.45594206,-0.28201872,-0.0005626972,0.016265288,-0.11083874,-0.3810206,-0.3291937,0.060065977,3.0775986,-0.62183326,-0.0002569368,-0.08882057,-0.008575102,-0.0001236464,-0.018219668,0.0031845937,0.029750746,0.44166908,-1.4566147,1.9935154,-2.107437,-1.5691923,2.4148152,-0.07272922,0.15842783,-0.17754342,0.008532163,0.0148751065,-0.10235959,-0.22984336,0.2681506,-9.32781,0.87393653,47.709274,-0.9540596,-1.4733356,-3.3728833,-0.3381,0.19978616,-0.07692148,25.0625,25.5625,24.875,27.1875,27.625,27.9375
0.18805394,-0.9240638,-0.20250727,-0.5403679,-0.01141701,0.023482936,-0.116725594,-0.3812157,-0.32919165,0.060076155,3.0775945,-0.6217202,-0.0002486878,-0.090101086,-0.008212382,0.0007087626,-0.019436108,0.004778192,0.024688352,0.44147643,-1.4563032,1.9931325,-2.1073768,-1.5691684,2.4145527,-0.07475764,0.15778844,-0.17876016,0.008427488,0.015290648,-0.099325046,-0.22984336,0.3256114,-9.423578,0.88960326,47.693153,-0.82173777,-1.4879973,-3.5716026,-0.33518654,0.20928794,-0.08039362,25.0625,25.5625,24.875,27.1875,27.625,27.9375
0.19005358,-1.2602526,-0.3170194,-0.7075241,-0.01811513,0.019234603,-0.11233838,-0.38139054,-0.3292103,0.060068153,3.077603,-0.621646,-0.0002602973,-0.09077907,-0.0077664633,-0.00073510146,-0.017888129,0.0019666892,0.020418532,0.44135624,-1.455966,1.9927734,-2.1073644,-1.5691684,2.4143853,-0.076009974,0.16211808,-0.1804452,0.008984745,0.015088367,-0.09630598,-0.22984336,0.30645782,-9.557653,0.84708,47.73256,-0.88911176,-1.7295747,-3.4587502,-0.33898336,0.22572729,-0.08941685,25.0625,25.5625,24.875,27.1875,27.625,27.9375
0.19205332,-1.0732334,-0.790615,-0.91892993,-0.021199657,0.034891307,-0.11516281,-0.3815732,-0.32923055,0.060072433,3.0775545,-0.6215817,-0.00025857805,-0.091142915,-0.007835565,-0.0018427995,-0.017651767,-0.000515425,0.016055563,0.44119975,-1.4556535,1.9924139,-2.1073525,-1.5691198,2.414195,-0.076717354,0.16552672,-0.18181558,0.009290749,0.015932532,-0.09264891,-0.19153613,0.24899697,-9.653421,0.84484416,47.679718,-0.7892231,-1.6237268,-3.5248456,-0.33693027,0.22672585,-0.14050457,25.0625,25.5625,24.875,27.1875,27.625,27.9375
0.1940542,-1.0641744,-1.179754,-0.8232161,-0.034336247,0.05043763,-0.11844346,-0.3817674,-0.32921916,0.060082734,3.0775363,-0.6216378,-0.00027286512,-0.092630275,-0.007414222,-0.0026970038,-0.016904876,-0.0018414824,0.01101195,0.4410072,-1.4553528,1.9920424,-2.107293,-1.5691203,2.41404,-0.07868188,0.16953006,-0.18437526,0.00936424,0.015816262,-0.089567654,-0.34476504,0.3256114,-9.691729,0.8784135,47.684196,-0.7971976,-1.8964566,-3.4540105,-0.36702853,0.24930632,-0.17089286,25.0625,25.5625,24.875,27.1875,27.625,27.9375
0.19605377,-1.7964127,-1.4619207,-0.91765773,-0.037157383,0.04227854,-0.10827179,-0.3819477,-0.32924277,0.060062546,3.077496,-0.62163097,-0.000198027,-0.092999674,-0.007772758,-0.0030224437,-0.017190717,-0.0026898822,0.008402141,0.44085124,-1.4549807,1.9916724,-2.107281,-1.5690597,2.413885,-0.07870027,0.17139405,-0.18581349,0.009585724,0.016430521,-0.086975664,-0.34476504,0.34476504,-9.653421,0.87393653,47.73525,-0.6723267,-1.9596889,-3.5276308,-0.36952937,0.2441338,-0.21983105,25.0625,25.5625,24.875,27.1875,27.625,27.9375
0.19805337,-1.275527,-0.91861403,-0.6987215,-0.03673443,0.058199365,-0.116055004,-0.38212124,-0.3292742,0.06005218,3.0775146,-0.62145954,-0.00022850586,-0.093977235,-0.008265368,-0.0031275356,-0.018080965,-0.0026927688,0.007989505,0.440756,-1.4546326,1.9913119,-2.1072934,-1.5690593,2.4136808,-0.07914206,0.17358568,-0.18797311,0.00917535,0.017234,-0.08700301,-0.2681506,0.28730422,-9.634268,0.80456203,47.716442,-0.7360741,-1.868854,-3.4836283,-0.36670563,0.25798008,-0.25026977,25.0625,25.5625,24.875,27.1875,27.625,27.9375
0.20005405,-1.1246755,-0.5111847,-0.566604,-0.030765878,0.053289823,-0.12471779,-0.38231894,-0.32929426,0.060058147,3.0774336,-0.6214472,-0.00017918216,-0.09760535,-0.008241419,-0.0014830228,-0.020771904,0.0014792557,0.0019753713,0.44056275,-1.4542968,1.9909166,-2.1072576,-1.5689753,2.4134903,-0.08275053,0.17469175,-0.19272932,0.007908933,0.017875664,-0.084593974,-0.3256114,0.40222588,-9.557653,0.7709874,47.703007,-0.65909934,-1.8678963,-3.5342553,-0.33849555,0.25401586,-0.28906026,25.0625,25.5625,24.875,27.1875,27.625,27.9375
0.20205362,-1.0267029,-0.26883018,-0.4983275,-0.02404027,0.050141074,-0.120240234,-0.38253018,-0.32931742,0.060066972,3.0773616,-0.6214711,-0.0002195234,-0.09654654,-0.00972771,-0.0027063983,-0.02057734,-0.0006693372,0.0039224485,0.44039494,-1.4539484,1.9905089,-2.107258,-1.5689386,2.4133468,-0.079494275,0.17773338,-0.19326212,0.0074280496,0.018618286,-0.08328304,-0.30645782,0.36391866,-9.519346,0.92764956,47.652847,-0.7323643,-1.8393579,-3.5198126,-0.36228645,0.25507593,-0.3598605,25.0625,25.5625,24.875,27.1875,27.625,27.9375
0.20405404,-0.96643305,-0.50804615,-0.71983826,-0.008072607,0.047750257,-0.108232856,-0.3827195,-0.3293208,0.060055014,3.0773845,-0.6214168,-0.00025771846,-0.098112576,-0.0100019,-0.0024158251,-0.02199174,0.00082494965,0.004144994,0.44025046,-1.4536006,1.9901494,-2.1072586,-1.5689629,2.4131658,-0.08073814,0.17921609,-0.19532074,0.0060501546,0.01925766,-0.08474766,-0.3256114,0.36391866,-9.557653,0.8806493,47.687782,-0.8222722,-1.8325673,-3.4227927,-0.32170475,0.25552982,-0.3600345,25.0625,25.5625,24.875,27.1875,27.625,27.9375
0.20605382,-1.0587841,-0.4030394,-0.62547296,-0.012798135,0.04597213,-0.11018841,-0.38294628,-0.32932776,0.060072523,3.077276,-0.6215293,-0.00027561202,-0.09865692,-0.010176389,-0.0019309132,-0.022324266,0.0018189766,0.0015027587,0.4400237,-1.4532651,1.9897302,-2.1072342,-1.5689029,2.4130232,-0.080739595,0.17921346,-0.19652162,0.0062183663,0.019136358,-0.08210524,-0.28730422,0.30645782,-9.5385,0.8224646,47.67793,-0.82419544,-1.7773985,-3.455716,-0.31044406,0.26015174,-0.4446751,25.0625,25.5625,24.875,27.1875,27.625,27.9375
0.20805354,-1.5287162,-1.1057909,-0.51452607,-0.013929652,0.04310212,-0.10224521,-0.38313887,-0.32935444,0.06006456,3.0772877,-0.62139636,-0.00030513905,-0.100288905,-0.0109422365,-0.0009855776,-0.023343371,0.003438652,0.0031042183,0.43990356,-1.4528935,1.9893345,-2.1072338,-1.5689029,2.412819,-0.08085704,0.18079478,-0.2006601,0.0068804403,0.019367123,-0.08382144,-0.24899697,0.2681506,-9.3661175,0.800085,47.684196,-0.88512504,-1.7846314,-3.5196042,-0.30702674,0.2749817,-0.46007353,25.0625,25.5625,24.875,27.1875,27.625,27.9375
0.21005417,-1.1734126,-0.82546455,-0.4689821,-0.023642337,0.047665887,-0.11824655,-0.38332015,-0.32936278,0.060049705,3.0772636,-0.62140745,-0.0002553159,-0.10019766,-0.011254327,-0.001711555,-0.022761784,0.0017487289,0.0066299555,0.43973577,-1.4525455,1.9889754,-2.10721,-1.5688671,2.4126613,-0.08027442,0.18306535,-0.20172192,0.0074589998,0.019564655,-0.08676415,-0.17238252,0.2681506,-9.385271,0.8493211,47.701214,-0.91292787,-1.7141583,-3.6455488,-0.3214909,0.29464105,-0.48430845,25.0625,25.5625,24.875,27.1875,27.625,27.9375
0.21205378,-1.0982157,-0.778019,-0.26148507,-0.01063137,0.034574457,-0.11240268,-0.38352814,-0.3294078,0.060067818,3.07717,-0.6213078,-0.00026570895,-0.10085016,-0.011953453,-0.00027275828,-0.024760975,0.0043122554,0.013085763,0.43957993,-1.4521986,1.9885448,-2.107198,-1.5687822,2.4124553,-0.079975754,0.18136404,-0.2031746,0.0074611525,0.02029704,-0.092919484,-0.095768064,0.21068975,-9.404425,0.84484416,47.705692,-0.9056525,-1.5545464,-3.473884,-0.3078557,0.28662407,-0.46712703,25.0625,25.5625,24.875,27.1875,27.625,27.9375
0.21405375,-0.8159553,-0.48730814,-0.20323716,0.00045731172,0.01591616,-0.110021815,-0.38377097,-0.32942566,0.060071364,3.0770998,-0.621291,-0.00032234067,-0.10186737,-0.012687896,0.0002699259,-0.026183248,0.0054992256,0.017396329,0.43937594,-1.4518031,1.9881014,-2.1072218,-1.5687464,2.41225,-0.07996141,0.18239184,-0.20555606,0.0071480605,0.021089913,-0.09721276,0.0,0.21068975,-9.3661175,0.8851263,47.688675,-1.0465423,-1.52085,-3.4962244,-0.29722947,0.27583855,-0.4281703,25.0625,25.5625,24.875,27.1875,27.625,27.9375
0.21605346,-0.25149184,0.08498683,-0.33034897,0.002870825,0.0023849239,-0.114412785,-0.38399014,-0.32945597,0.060079567,3.077079,-0.62112796,-0.0004001105,-0.10337367,-0.012895002,0.00034821188,-0.026789403,0.0064448244,0.024310986,0.4392318,-1.4514308,1.9876703,-2.1072338,-1.5687345,2.412007,-0.08094621,0.18454638,-0.20802152,0.0063634333,0.021251654,-0.10510896,0.11492168,0.19153613,-9.270349,0.8717007,47.7254,-1.0310686,-1.535484,-3.43855,-0.2877094,0.28798506,-0.38968104,25.0625,25.5625,24.875,27.1875,27.625,27.9375
0.21805346,0.088994995,0.23726957,-0.36716777,0.014868262,-0.009714985,-0.12010195,-0.3841845,-0.32950032,0.06008795,3.0770059,-0.6209955,-0.00038367708,-0.105503425,-0.013292975,0.0015923439,-0.027675068,0.00942174,0.02950035,0.43908736,-1.4510831,1.9872607,-2.1072218,-1.5686501,2.4117894,-0.08171442,0.18551528,-0.21199766,0.0063246484,0.020797068,-0.1110634,0.21068975,0.19153613,-9.155427,0.90750587,47.679718,-1.0383803,-1.513691,-3.3517878,-0.26788118,0.28933007,-0.2940518,25.0625,25.5625,24.875,27.1875,27.625,27.9375
0.22005403,0.37941763,0.46618053,-0.26201633,0.009733669,-0.01351186,-0.12271358,-0.38437873,-0.3294877,0.060057104,3.0770488,-0.6209661,-0.00030628874,-0.10669552,-0.013150137,0.0016605048,-0.027685571,0.009207014,0.032472964,0.43889374,-1.4506873,1.9868788,-2.1071742,-1.5686501,2.4115722,-0.08302654,0.1873852,-0.21450388,0.007162793,0.020898508,-0.115348086,0.2681506,0.17238252,-9.174581,0.9768804,47.68062,-0.96895504,-1.4700961,-3.4697337,-0.27313888,0.30709076,-0.25036874,25.0625,25.5625,24.875,27.1875,27.625,27.9375
0.22205387,0.5324879,0.23579904,-0.22740696,-0.004462044,-0.0034100036,-0.12263731,-0.3846005,-0.32952124,0.06006886,3.0769944,-0.62087595,-0.00036043616,-0.10656265,-0.012982183,9.245226e-05,-0.026159273,0.005574655,0.035079308,0.4387378,-1.4503145,1.9864358,-2.1071737,-1.5686144,2.4113672,-0.08327643,0.19123995,-0.215547,0.008300268,0.021076178,-0.1182021,0.1340753,0.22984336,-9.346964,0.8224646,47.693153,-0.99355423,-1.6191001,-3.4544141,-0.2680697,0.3097525,-0.20081857,25.0625,25.5625,24.875,27.1875,27.625,27.9375
0.22405371,-0.02608876,-0.24752453,-0.2863909,-0.016765453,-0.003941122,-0.11552047,-0.38480142,-0.3295455,0.060072955,3.0770009,-0.62062573,-0.00035546804,-0.10711457,-0.013348198,-0.00035287798,-0.026145495,0.004163707,0.035276297,0.43858275,-1.4499545,1.9860162,-2.107137,-1.5685781,2.4110553,-0.08341304,0.19396968,-0.21783523,0.009148231,0.021665651,-0.11853373,0.11492168,0.26815057,-9.385271,0.9097417,47.716442,-0.9880111,-1.5923774,-3.3947802,-0.2655971,0.33490717,-0.17651898,25.0625,25.5625,24.875,27.1875,27.625,27.9375
0.22605355,-0.3534357,-0.9604444,-0.5544243,-0.020078488,0.0009690261,-0.11025348,-0.38502064,-0.32956916,0.060071267,3.0769706,-0.6205049,-0.0003404515,-0.10835733,-0.013659724,-1.5555828e-05,-0.026375953,0.004796011,0.03267051,0.4384028,-1.4495587,1.9855727,-2.1071131,-1.56853,2.410804,-0.08381188,0.19577657,-0.22081302,0.0096543,0.021602225,-0.11632465,0.095768064,0.36391866,-9.3661175,0.8806493,47.68599,-1.0759643,-1.6573226,-3.3245866,-0.25484586,0.3245936,-0.17464355,25.0625,25.5625,24.875,27.1875,27.625,27.9375
0.22805393,-0.8383873,-1.1509075,-0.68574435,-0.034545958,0.002236088,-0.104005024,-0.3852434,-0.32959005,0.060069054,3.0769594,-0.6204863,-0.00037003282,-0.10943693,-0.014485142,0.0006076507,-0.026888268,0.0048625665,0.029045189,0.43824676,-1.4491508,1.9851164,-2.1070883,-1.56853,2.410638,-0.08344787,0.19781502,-0.22502363,0.011542655,0.02203116,-0.11233266,0.038307227,0.47884035,-9.404425,0.78888994,47.691364,-1.0449445,-1.7368664,-3.313653,-0.29445535,0.323863,-0.19123971,25.0625,25.5625,24.875,27.1875,27.625,27.9375
0.23005345,-0.37096897,-1.3437754,-0.9008145,-0.05525576,0.0268092,-0.10983499,-0.38540024,-0.32962042,0.060046244,3.0769515,-0.62035334,-0.0001874807,-0.1102433,-0.013440901,-8.461191e-06,-0.027038114,0.0030861644,0.02091566,0.43810195,-1.4487786,1.9847335,-2.1070044,-1.5684336,2.4104114,-0.086608596,0.19919513,-0.22533607,0.012020454,0.022906302,-0.107365124,-0.05746084,0.53630114,-9.423578,0.8537928,47.68062,-1.0225416,-1.6738434,-3.3157625,-0.28335798,0.3298052,-0.2574873,25.0625,25.5625,24.875,27.1875,27.625,27.9375
0.23205398,-0.90762514,-1.785497,-0.7619623,-0.056894638,0.014527696,-0.11267883,-0.38564187,-0.32963496,0.060063217,3.076904,-0.62036425,-0.0002470931,-0.108684905,-0.014182055,-0.001778381,-0.025525058,-0.00026999222,0.021235852,0.43790975,-1.4483941,1.9842566,-2.1069686,-1.5684212,2.4102323,-0.0838453,0.20205356,-0.22457135,0.012078821,0.02296536,-0.10492087,-0.095768064,0.53630114,-9.500193,0.8493211,47.703007,-1.1095066,-1.7739668,-3.4257622,-0.3045724,0.3319317,-0.29716885,25.0625,25.5625,24.875,27.1875,27.625,27.9375
0.23405388,-0.9802007,-1.8149701,-0.46620506,-0.06815069,0.032320604,-0.11156241,-0.3858954,-0.32968274,0.060080532,3.0768383,-0.6202169,-0.0003490583,-0.109749176,-0.013942606,-0.0020966092,-0.025731139,-0.0008045441,0.019950528,0.4377532,-1.4479742,1.9837531,-2.1069925,-1.5683855,2.4099925,-0.085423306,0.20411754,-0.22623107,0.012077945,0.023388471,-0.10520988,-0.15322891,0.63206923,-9.557653,0.8985519,47.689575,-1.2016292,-1.6926713,-3.5588613,-0.29774207,0.35720387,-0.32878894,25.0625,25.5625,24.875,27.1875,27.625,27.9375
0.23605342,-0.7320826,-1.5935123,-0.6205338,-0.060158335,0.04808377,-0.11042233,-0.38610232,-0.32969823,0.060075093,3.0767868,-0.6201859,-0.00030984406,-0.110393584,-0.013714585,-0.0017846582,-0.026750296,0.00010598837,0.01863453,0.43756172,-1.4476033,1.9833454,-2.106969,-1.5683254,2.4097884,-0.0866908,0.20365772,-0.226346,0.011404964,0.0239272,-0.105160855,-0.22984336,0.49799395,-9.442732,0.8560339,47.701214,-1.0520152,-1.5673138,-3.6527038,-0.29037887,0.35497335,-0.3477813,25.0625,25.5625,24.875,27.1875,27.625,27.9375
0.238054,-0.7447754,-0.714907,-0.7935186,-0.050132573,0.04666182,-0.118567005,-0.38631892,-0.329735,0.06005536,3.076744,-0.62010276,-0.00024043267,-0.11103414,-0.014369795,-0.0023491671,-0.027171332,-0.00010866137,0.017640037,0.43739295,-1.4471592,1.982891,-2.1069577,-1.5682529,2.4095733,-0.08627756,0.20639963,-0.22795527,0.0102952635,0.024392586,-0.10375157,-0.15322891,0.45968673,-9.500193,0.93436235,47.675243,-1.2226212,-1.5968832,-3.6681938,-0.28808835,0.34993452,-0.39433414,25.0625,25.5625,24.875,27.1875,27.625,27.9375
0.24005407,-1.0712727,-0.6487925,-0.1904793,-0.03290426,0.040034514,-0.11092502,-0.38654628,-0.32977098,0.060047284,3.076677,-0.62006664,-0.00020342875,-0.112928815,-0.015043475,-0.0015483785,-0.029230958,0.0023709186,0.01934621,0.43721387,-1.4467275,1.9824237,-2.1069462,-1.5681809,2.4093804,-0.08714642,0.20767175,-0.23098361,0.008948214,0.025208417,-0.106323674,-0.22984336,0.40222588,-9.423578,0.8672237,47.70032,-1.2223058,-1.6003765,-3.693265,-0.27749243,0.3273608,-0.405545,25.0625,25.5625,24.875,27.1875,27.625,27.9375
0.24205366,-0.8925464,-0.123418376,-0.2974714,-0.02480768,0.03757963,-0.115425915,-0.38675722,-0.3298141,0.060053103,3.0766633,-0.619852,-0.00025504775,-0.11431275,-0.015793983,-0.0014612296,-0.030618668,0.0029545168,0.019019786,0.43709365,-1.4463433,1.9819802,-2.1069462,-1.5681561,2.4091282,-0.08757165,0.21022749,-0.23395969,0.008254735,0.026218846,-0.10641846,-0.24899697,0.28730422,-9.385271,0.87617236,47.687782,-1.1666427,-1.6657507,-3.644797,-0.25512058,0.3317097,-0.43317822,25.0625,25.5625,24.875,27.1875,27.625,27.9375
0.24405408,-1.3223927,-0.1830426,-0.4182408,0.0028585102,0.031751376,-0.11512606,-0.38700157,-0.3298309,0.06004274,3.0765927,-0.6198737,-0.00020139161,-0.11641731,-0.015537098,-0.00087396515,-0.03239267,0.0040219566,0.02322056,0.43686467,-1.4458997,1.9815015,-2.106922,-1.5680841,2.408922,-0.09055716,0.21152732,-0.23681259,0.008117424,0.027387109,-0.11360231,-0.34476504,0.24899697,-9.385271,0.8224646,47.65643,-1.1944268,-1.6590468,-3.581255,-0.2486057,0.32544354,-0.373062,25.0625,25.5625,24.875,27.1875,27.625,27.9375
0.24605392,-1.0989364,0.40797284,-0.26734772,-0.009810935,0.041034598,-0.114618935,-0.38724443,-0.32987982,0.060066488,3.0765443,-0.61970717,-0.00027476705,-0.11732207,-0.017062673,0.0004943598,-0.033718802,0.0068112905,0.03036556,0.43672016,-1.445492,1.980985,-2.106898,-1.5680479,2.40868,-0.088478945,0.2117728,-0.24034436,0.008336075,0.027424501,-0.118665084,-0.24899697,0.24899697,-9.3661175,0.86945957,47.652847,-1.2969713,-1.6699109,-3.5269043,-0.23825684,0.32527968,-0.33488506,25.0625,25.5625,24.875,27.1875,27.625,27.9375
0.24805358,-1.2242976,0.39950117,-0.13192223,-0.0041715107,0.058792487,-0.11435218,-0.38747236,-0.32991973,0.060069695,3.0764656,-0.6196093,-0.00025659587,-0.12005041,-0.016811833,0.0014681392,-0.034500256,0.009299054,0.03478516,0.4365405,-1.4450843,1.9805182,-2.1068866,-1.567964,2.4084494,-0.09101047,0.21344809,-0.24451554,0.008281383,0.027095739,-0.12561284,-0.30645782,0.076614454,-9.289503,0.79560274,47.660015,-1.2942684,-1.683469,-3.4404266,-0.23536527,0.33239728,-0.25876176,25.0625,25.5625,24.875,27.1875,27.625,27.9375
0.25005317,-1.1294817,0.64884,-0.07474761,0.004462606,0.07103229,-0.12053932,-0.387705,-0.32995927,0.060048606,3.0764515,-0.6194303,-0.00020104331,-0.12151723,-0.01676709,0.0018978008,-0.0351312,0.009982051,0.040245406,0.43637204,-1.444605,1.9800261,-2.1068742,-1.5679039,2.4081712,-0.092481464,0.2148052,-0.24723129,0.008783995,0.02739274,-0.1325426,-0.38307226,-0.019153614,-9.270349,0.91198283,47.674347,-1.0280737,-1.5195999,-3.3458593,-0.21810417,0.32425722,-0.1739248,25.0625,25.5625,24.875,27.1875,27.625,27.9375
0.25205368,-2.0102293,0.27759483,-0.44220585,0.02943712,0.05170507,-0.10634369,-0.3879632,-0.32998285,0.06007022,3.0764031,-0.61930543,-0.00025724253,-0.122610174,-0.017266618,0.0029147994,-0.036728173,0.01090758,0.039659232,0.43616793,-1.4441973,1.9795111,-2.106838,-1.5678676,2.4078956,-0.093121186,0.21503988,-0.2501719,0.009983204,0.028459972,-0.1325923,-0.57460845,0.11492168,-9.32781,0.94331104,47.688675,-1.1971676,-1.5188923,-3.1589665,-0.22693247,0.308047,-0.12806135,25.0625,25.5625,24.875,27.1875,27.625,27.9375
0.2540543,-1.31217,0.64116085,-0.24065775,0.015125821,0.078867294,-0.111158565,-0.3882271,-0.3300305,0.060080133,3.0762932,-0.61916786,-0.00028697588,-0.12337754,-0.017356044,0.0029439798,-0.038089633,0.010717047,0.039363112,0.4359635,-1.4437544,1.9789971,-2.1068618,-1.5677708,2.4076195,-0.094405055,0.21598972,-0.2513537,0.009829719,0.029791586,-0.13357572,-0.6703765,0.1340753,-9.404425,0.86498255,47.67614,-1.1588281,-1.3972135,-3.3362403,-0.21679324,0.2714766,-0.093211964,25.0625,25.5625,24.875,27.1875,27.625,27.9375
0.25605407,-1.9000114,0.20621192,-0.5867085,0.009237855,0.065233335,-0.10984157,-0.38844344,-0.33004832,0.060074434,3.076303,-0.61909884,-0.0002315819,-0.123821385,-0.016570924,0.00054720644,-0.035724852,0.0057167113,0.03313023,0.43579352,-1.4433331,1.9785179,-2.1067774,-1.567747,2.4074054,-0.096133515,0.22196245,-0.25293142,0.010961753,0.029748425,-0.12907077,-0.5554548,0.019153614,-9.442732,0.80679786,47.677036,-1.0249069,-1.5638431,-3.31193,-0.221035,0.2848419,-0.1368872,25.0625,25.5625,24.875,27.1875,27.625,27.9375
0.25805342,-1.866585,-0.12507768,-0.5847978,-0.010724,0.07574954,-0.098796226,-0.38871023,-0.33005884,0.060047783,3.0762877,-0.6190395,-0.00022225364,-0.12328127,-0.015634751,-0.0016654632,-0.034771606,0.00072889694,0.026642637,0.4355663,-1.442829,1.9780153,-2.1067894,-1.5677227,2.4071434,-0.098112755,0.22515537,-0.2516758,0.011430291,0.030988032,-0.12456164,-0.5363012,0.095768064,-9.404425,0.8717007,47.677036,-1.0567348,-1.6851816,-3.336952,-0.22696841,0.27350152,-0.1905461,25.0625,25.5625,24.875,27.1875,27.625,27.9375
0.26005313,-2.2940238,-0.6046594,-0.375137,-0.017404277,0.060794547,-0.10310847,-0.38893393,-0.33010864,0.060049016,3.0762048,-0.6189291,-0.00012306597,-0.12468642,-0.015253959,-0.0019871173,-0.034606706,0.0003663603,0.020587482,0.43538564,-1.4423965,1.9775132,-2.1067297,-1.5676025,2.4069045,-0.099938,0.22769038,-0.25390217,0.011528065,0.030981129,-0.12033007,-0.5363012,0.038307227,-9.404425,0.89631605,47.67793,-0.8464416,-1.7668519,-3.5051606,-0.21251187,0.24049693,-0.2391625,25.0625,25.5625,24.875,27.1875,27.625,27.9375
0.26205385,-1.1835573,-0.18498707,-0.3717448,-0.0080712335,0.06869359,-0.107042305,-0.38923195,-0.33011967,0.06005468,3.0761619,-0.61886483,-0.00027100425,-0.12587333,-0.014531989,-0.0023615875,-0.033391006,0.0005499893,0.015975982,0.43515712,-1.4419291,1.9769858,-2.1067774,-1.5676149,2.4066417,-0.101410404,0.22961603,-0.25526533,0.011312291,0.029806685,-0.11718789,-0.49799395,0.095768064,-9.404425,0.88960326,47.672558,-0.8160449,-1.7039478,-3.5684223,-0.20973554,0.2449533,-0.28087577,25.0625,25.5625,24.875,27.1875,27.625,27.9375
0.2640537,-0.96535224,0.2878179,-0.26670432,-0.001039157,0.049972918,-0.10546175,-0.38946038,-0.33015206,0.06004023,3.07611,-0.6188175,-0.00017721446,-0.12755162,-0.014664279,-0.0024806808,-0.033493288,0.0016738012,0.012610577,0.43496487,-1.4414732,1.9764956,-2.1067302,-1.5675315,2.4064267,-0.10226603,0.2323446,-0.25789765,0.010163216,0.029412843,-0.114676975,-0.45968673,0.15322891,-9.232042,0.9254084,47.689575,-0.817957,-1.7309351,-3.4790196,-0.20418246,0.2515456,-0.32354796,25.0625,25.5625,24.875,27.1875,27.625,27.9375
0.26605347,-1.0563765,0.3345782,-0.08449551,0.0052809794,0.033784803,-0.10463309,-0.38969094,-0.3301684,0.06001695,3.0760584,-0.618847,-7.9642494e-05,-0.12908173,-0.01521787,-0.002125551,-0.03505624,0.0027666292,0.009686828,0.4347487,-1.4410173,1.9760278,-2.1066945,-1.567459,2.4062357,-0.10309428,0.23421876,-0.2607667,0.009513515,0.030358087,-0.11257959,-0.36391866,0.17238252,-9.174581,0.87393653,47.728977,-0.8437086,-1.6543947,-3.5681796,-0.17433305,0.23472092,-0.388117,25.0625,25.5625,24.875,27.1875,27.625,27.9375
0.26805377,-0.36481354,0.31404635,-0.15154998,0.0016727895,0.03363885,-0.1090705,-0.38995728,-0.33021912,0.06000484,3.076007,-0.61868376,-0.00012550993,-0.13001911,-0.016236177,-0.0005890034,-0.037623808,0.004821414,0.007918854,0.4345808,-1.4405142,1.9755005,-2.1067421,-1.5674103,2.4059727,-0.102899194,0.23334038,-0.2635624,0.010241977,0.031823695,-0.110612035,-0.2681506,0.22984336,-9.136273,0.94331104,47.691364,-0.86136657,-1.6961596,-3.6182084,-0.16882998,0.20111406,-0.42987502,25.0625,25.5625,24.875,27.1875,27.625,27.9375
0.27005348,-0.78437287,-0.320942,-0.16831832,-0.005384939,0.017647192,-0.1069763,-0.390252,-0.33023492,0.060014386,3.0759568,-0.6186907,-0.0001625443,-0.13194402,-0.017394807,0.0008169834,-0.039167807,0.007278192,0.009170078,0.43434083,-1.4400219,1.9749135,-2.106694,-1.5673865,2.4057438,-0.10255539,0.23483227,-0.26875067,0.0110719325,0.03219341,-0.11151507,-0.45968673,0.36391866,-9.174581,0.90750587,47.723602,-0.907956,-1.7006323,-3.492318,-0.17057858,0.18039678,-0.5061289,25.0625,25.5625,24.875,27.1875,27.625,27.9375
0.27205414,-0.33006167,-0.8327897,-0.45756865,-0.01295485,0.03626271,-0.11395178,-0.39048207,-0.33024386,0.059985433,3.075937,-0.6187052,-6.38918e-06,-0.1327558,-0.017308043,0.0011310014,-0.039167784,0.0076179504,0.011909847,0.43411234,-1.4395429,1.9744209,-2.1066096,-1.5673145,2.405527,-0.103222735,0.23556738,-0.2705933,0.011898373,0.032053858,-0.114923984,-0.34476507,0.36391866,-9.174581,0.8918391,47.703903,-0.86107963,-1.6698309,-3.325692,-0.15563414,0.18190049,-0.49004436,25.0625,25.5625,24.875,27.1875,27.625,27.9375
0.27405417,-0.75396085,-1.0015132,-0.5620355,-0.025717964,0.033540133,-0.11211121,-0.39078245,-0.3303071,0.060029604,3.0757692,-0.6186463,-0.00012682054,-0.13432282,-0.016598914,0.0008212225,-0.038510684,0.006552672,0.01969361,0.43390784,-1.4390992,1.973823,-2.106621,-1.5672187,2.4053075,-0.10569159,0.23843786,-0.27352512,0.013255091,0.031952303,-0.12517011,-0.21068975,0.4405331,-9.32781,0.8605109,47.71554,-0.89465857,-1.6342232,-3.3816981,-0.16505343,0.20039213,-0.4292727,25.0625,25.5625,24.875,27.1875,27.625,27.9375
0.27605408,-1.2695063,-1.7219359,-0.41064593,-0.048533928,0.045050345,-0.10354927,-0.39104018,-0.33031905,0.06000509,3.0757902,-0.6185485,-5.8222366e-05,-0.13414966,-0.018368192,0.0017859641,-0.039844844,0.0075493343,0.029994678,0.43369287,-1.438584,1.9732846,-2.106561,-1.5671943,2.405029,-0.10272655,0.2384891,-0.27616742,0.014413088,0.03275969,-0.13250566,-0.19153614,0.49799395,-9.3661175,0.95897776,47.694054,-1.0116699,-1.6365626,-3.4267554,-0.163777,0.15595105,-0.36957794,25.0625,25.5625,24.875,27.1875,27.625,27.9375
0.27805355,-1.0946752,-1.862506,-0.5263366,-0.054429576,0.052426577,-0.10974029,-0.39129928,-0.33033422,0.059982616,3.0757656,-0.6184448,3.9304618e-05,-0.13579877,-0.016568333,0.0015100783,-0.039565943,0.006634554,0.03473233,0.43345127,-1.4380809,1.9727577,-2.1065128,-1.5671219,2.404726,-0.10743415,0.23962244,-0.2771152,0.015224642,0.032916583,-0.14195144,-0.114921674,0.6512228,-9.3661175,0.83589023,47.68062,-0.8526361,-1.5655098,-3.3808491,-0.17515782,0.15134022,-0.26901022,25.0625,25.5625,24.875,27.1875,27.625,27.9375
0.2800533,-1.1833717,-1.4842433,-0.7907312,-0.041556425,0.031802543,-0.106109455,-0.3915263,-0.33039021,0.059962925,3.0757704,-0.61817193,9.534208e-05,-0.1357668,-0.017982556,0.0013401643,-0.03979133,0.0067284047,0.04246308,0.43332022,-1.4375888,1.9722422,-2.106489,-1.5670618,2.4044242,-0.10485012,0.24172859,-0.27916825,0.015022209,0.03309251,-0.14709687,-0.038307227,0.5746084,-9.442732,0.88289046,47.651955,-0.9652009,-1.5712211,-3.4974198,-0.16999878,0.12802216,-0.19525175,25.0625,25.5625,24.875,27.1875,27.625,27.9375
0.28205377,-0.44394368,-1.0461184,-0.624519,-0.0426639,0.044029936,-0.106535055,-0.39180595,-0.3304303,0.059965316,3.0756893,-0.6180791,0.00014159852,-0.13618957,-0.017384272,-0.00041732116,-0.038152326,0.0043389983,0.04271423,0.4330918,-1.4370838,1.9716562,-2.1064413,-1.5669659,2.4041483,-0.10588794,0.24564214,-0.27953553,0.01436083,0.03261855,-0.14838465,-0.019153614,0.53630114,-9.404425,0.9992599,47.64479,-0.91823965,-1.7920836,-3.5936003,-0.15939802,0.111598775,-0.13682956,25.0625,25.5625,24.875,27.1875,27.625,27.9375
0.2840538,-0.7759542,-0.8880558,-0.87271845,-0.02821327,0.02543635,-0.09929733,-0.39211667,-0.33045688,0.05998071,3.0756123,-0.61798745,3.7605078e-05,-0.137231,-0.017913759,0.0002196763,-0.039532483,0.006204886,0.03995107,0.43285176,-1.4365933,1.9710702,-2.1064537,-1.5669302,2.4038613,-0.10599955,0.24600062,-0.28130886,0.0135048665,0.033096664,-0.14572814,-0.05746084,0.4405331,-9.308656,0.8717007,47.66808,-0.92710495,-1.7213409,-3.6449556,-0.13440591,0.10429406,-0.14522406,25.0625,25.5625,24.875,27.1875,27.625,27.9375
0.2860534,-0.014804393,-0.1018207,-0.6548821,-0.011070318,0.024217239,-0.111833185,-0.39240402,-0.33049154,0.05995928,3.0755556,-0.61790425,7.462282e-05,-0.1387145,-0.017022852,-0.00058978394,-0.038698837,0.0054487586,0.03098711,0.43262324,-1.436041,1.9704956,-2.1064541,-1.5668586,2.4035883,-0.10848607,0.24901041,-0.2829023,0.01312018,0.03264353,-0.13924938,0.076614454,0.36391866,-9.461885,0.900793,47.667187,-0.9076135,-1.7841928,-3.723576,-0.124050066,0.09349979,-0.22896373,25.0625,25.5625,24.875,27.1875,27.625,27.9375
0.28805417,0.49227685,0.07823287,-0.6010526,-0.007617275,0.02622978,-0.10867304,-0.39268398,-0.33053902,0.059972722,3.0754812,-0.61777455,2.438295e-05,-0.13967341,-0.019038592,-0.00040460035,-0.038706306,0.00665667,0.02861606,0.4324322,-1.4355612,1.96992,-2.1064417,-1.5667986,2.403326,-0.105174854,0.25284928,-0.28775474,0.013029002,0.032133393,-0.13356215,0.1340753,0.34476504,-9.385271,0.9321212,47.65912,-1.0821099,-1.8281541,-3.5708742,-0.09335373,0.09582704,-0.28028813,25.0625,25.5625,24.875,27.1875,27.625,27.9375
0.29005387,0.43065453,-0.107838586,-0.8370196,-0.0009921977,0.006919845,-0.10635083,-0.39295104,-0.33057454,0.059957422,3.0754318,-0.61770934,0.00011708373,-0.14199567,-0.017718058,-0.00036865709,-0.038517214,0.0068288753,0.023283672,0.4322149,-1.4350331,1.9693445,-2.1063821,-1.5667146,2.4030745,-0.10929621,0.25491494,-0.29042283,0.013568846,0.031884827,-0.13235055,0.21068975,0.3256114,-9.270349,0.9097417,47.694946,-0.9652816,-1.8610628,-3.4796286,-0.102693036,0.0838611,-0.31044918,25.0625,25.5625,24.875,27.1875,27.625,27.9375
0.29205337,0.5101649,-0.26369095,-0.7804296,0.0072052726,-0.0036750159,-0.114546284,-0.3932376,-0.33060104,0.05993483,3.0754018,-0.6176238,0.00014712867,-0.1417602,-0.0194056,-0.0002598483,-0.038130634,0.0075255525,0.027049666,0.43198806,-1.4344814,1.9687694,-2.1063697,-1.5666665,2.4027984,-0.105475895,0.25668684,-0.29285887,0.01377808,0.031243568,-0.13229555,0.15322891,0.4405331,-9.32781,0.86945957,47.682407,-1.1449863,-1.9314361,-3.4681509,-0.09358582,0.07698145,-0.33684915,25.0625,25.5625,24.875,27.1875,27.625,27.9375
0.29405335,0.34576726,-0.08861164,-0.8282944,-0.014649415,-0.004369499,-0.103998706,-0.39350304,-0.33065128,0.05991677,3.0753565,-0.6175192,0.00019938214,-0.14281562,-0.018528046,-0.00027796617,-0.03666781,0.0073428755,0.025073258,0.43180755,-1.433942,1.9681948,-2.1063454,-1.566595,2.4025586,-0.10706032,0.25794983,-0.29469556,0.015148158,0.02999499,-0.13190435,0.095768064,0.34476504,-9.423578,0.8806493,47.651955,-1.0954545,-1.8936875,-3.4761052,-0.09349215,0.09450452,-0.3590904,25.0625,25.5625,24.875,27.1875,27.625,27.9375
0.2960538,0.3874883,-0.5989531,-0.80998963,-0.029885925,0.015892196,-0.111326136,-0.3938082,-0.330683,0.05994678,3.0753157,-0.6173376,0.00010022428,-0.14387752,-0.017772572,-0.00028490525,-0.03528798,0.0072124763,0.024654422,0.43159115,-1.4334624,1.9675726,-2.1062973,-1.5665716,2.4022343,-0.108454876,0.25935066,-0.2966817,0.016447097,0.028814873,-0.13287824,0.076614454,0.28730422,-9.519346,0.92764956,47.660015,-1.1148415,-1.9439743,-3.4683075,-0.10004312,0.087515235,-0.38002235,25.0625,25.5625,24.875,27.1875,27.625,27.9375
0.2980538,0.104659885,-0.8461369,-0.7368252,-0.041639697,0.029916769,-0.11231447,-0.39408594,-0.33071274,0.059927188,3.0752635,-0.6173049,0.00016795659,-0.14427896,-0.017526954,-0.00045728998,-0.033860415,0.0064568506,0.029191107,0.43136314,-1.4329224,1.9669975,-2.1062605,-1.5665001,2.4019928,-0.10850107,0.26085943,-0.29850915,0.018087586,0.027851403,-0.1374621,0.0,0.28730422,-9.519346,0.89631605,47.66271,-1.0638169,-1.9825615,-3.4834034,-0.093919404,0.111185,-0.36668217,25.0625,25.5625,24.875,27.1875,27.625,27.9375
0.30005357,-0.619601,-1.0450822,-0.68320274,-0.031502716,0.028772574,-0.10693242,-0.3943507,-0.33072558,0.059887253,3.0752652,-0.61726236,0.00031398318,-0.14532681,-0.017542325,0.00091340987,-0.034450807,0.008404283,0.035949405,0.43112293,-1.4323602,1.9664353,-2.1061885,-1.56644,2.401726,-0.109072834,0.25982577,-0.30095395,0.01959664,0.027587293,-0.14479417,0.0,0.28730422,-9.481039,0.95226496,47.635834,-1.1106809,-1.882929,-3.4667113,-0.108154476,0.12333703,-0.316526,25.0625,25.5625,24.875,27.1875,27.625,27.9375
0.30205402,-0.58670515,-0.5214467,-0.8021092,-0.016309882,0.05027331,-0.10742103,-0.39469856,-0.33080074,0.059952024,3.0751033,-0.6170526,7.734811e-05,-0.14622055,-0.017639786,0.0012035596,-0.03489404,0.009080474,0.042971887,0.4309188,-1.4318808,1.9657525,-2.1062238,-1.566368,2.401412,-0.109639704,0.26069102,-0.30274743,0.01977305,0.027765917,-0.15237616,-0.1340753,0.21068975,-9.5385,0.9321212,47.64389,-1.0830487,-1.7408602,-3.5606804,-0.108386084,0.12756461,-0.21254641,25.0625,25.5625,24.875,27.1875,27.625,27.9375
0.30405363,-0.7914676,0.1188181,-0.915187,-0.00034738955,0.058543656,-0.109834015,-0.39493075,-0.33082885,0.0599005,3.0751598,-0.61686796,0.00031096302,-0.14695115,-0.017301286,0.0009625218,-0.035261855,0.008979563,0.04758572,0.4307266,-1.4313054,1.9651903,-2.1061046,-1.566296,2.4010973,-0.111022,0.2616769,-0.30337173,0.019390477,0.028141372,-0.1583753,-0.095768064,0.15322891,-9.595961,0.8985519,47.694946,-1.0973866,-1.743647,-3.617229,-0.10178407,0.10973794,-0.1060328,25.0625,25.5625,24.875,27.1875,27.625,27.9375
0.3060534,-1.2060571,0.47599953,-1.0201755,0.0053801932,0.06025223,-0.10925982,-0.39524838,-0.33086976,0.05991701,3.075066,-0.6167148,0.00024106994,-0.14774956,-0.016704706,-0.00034830312,-0.033791713,0.006829122,0.048639435,0.43048596,-1.4307895,1.9645675,-2.1061046,-1.566224,2.4007733,-0.11238886,0.26548967,-0.30490652,0.019710733,0.027729716,-0.1607926,-0.22984336,0.11492168,-9.5385,0.8985519,47.677036,-1.0645524,-1.7759595,-3.6388893,-0.098258,0.099909976,-0.062049665,25.0625,25.5625,24.875,27.1875,27.625,27.9375
0.3080534,-1.2609313,0.22080997,-0.6612623,0.0043511395,0.07515868,-0.10472581,-0.39553007,-0.3309096,0.059910316,3.0750327,-0.61659646,0.00028172604,-0.14979519,-0.016879654,0.0004011622,-0.034214508,0.009040224,0.042881906,0.43028164,-1.4302498,1.9639567,-2.1060445,-1.5661639,2.4004996,-0.11331964,0.26716557,-0.30862084,0.019559367,0.027174648,-0.15596451,-0.38307226,0.11492168,-9.481039,0.8493211,47.664497,-0.96598333,-1.7792385,-3.6902237,-0.09226418,0.09997645,-0.07962418,25.0625,25.5625,24.875,27.1875,27.625,27.9375
0.31005335,-1.2384228,0.23300077,-0.654613,0.009199471,0.082671635,-0.10217525,-0.39583132,-0.33093202,0.059895825,3.075004,-0.61642027,0.0003061479,-0.15024589,-0.01653244,-0.00012086809,-0.032863185,0.008542009,0.03735389,0.43002963,-1.4296983,1.9633583,-2.1060207,-1.5661043,2.4001415,-0.11353397,0.2689046,-0.30960676,0.019818703,0.02614561,-0.1506514,-0.51714754,0.15322891,-9.519346,0.900793,47.66539,-1.0318282,-1.856504,-3.687317,-0.08432399,0.10755737,-0.10076344,25.0625,25.5625,24.875,27.1875,27.625,27.9375
0.3120548,-1.1663122,0.53327364,-0.6072437,-0.00051098823,0.094983645,-0.10889042,-0.39612877,-0.33095017,0.059898455,3.075004,-0.6163495,0.0002763322,-0.15241037,-0.015365872,-0.000349486,-0.03156511,0.008406408,0.027206056,0.4298124,-1.42917,1.9627355,-2.1059487,-1.5661048,2.3998804,-0.116619274,0.2718654,-0.3127848,0.020678312,0.02500368,-0.14358841,-0.61291564,0.22984336,-9.557653,0.9254084,47.692257,-0.92147565,-1.7889702,-3.6564784,-0.078238495,0.1434844,-0.20280483,25.0625,25.5625,24.875,27.1875,27.625,27.9375
0.31405333,-2.106913,0.04802642,-0.57067436,0.0024423713,0.080474384,-0.09538177,-0.39644065,-0.3309933,0.059897922,3.0749278,-0.6162386,0.00029256011,-0.15206587,-0.016951641,-0.0005349371,-0.031407677,0.007966994,0.02395053,0.42957386,-1.4286066,1.9620885,-2.1059124,-1.5660208,2.3995826,-0.113329135,0.27406913,-0.31515154,0.021294525,0.025031278,-0.1370404,-0.59376204,0.17238252,-9.557653,0.97464454,47.675243,-1.146654,-1.9980726,-3.7145274,-0.09383657,0.15888083,-0.2766708,25.0625,25.5625,24.875,27.1875,27.625,27.9375
0.31605387,-1.4352628,0.32418433,-0.5081233,0.00075760286,0.08599598,-0.11202311,-0.39677593,-0.33104375,0.05994013,3.0748184,-0.61614114,0.0001825104,-0.15405342,-0.016343944,-0.0005495431,-0.032084778,0.008171957,0.019018574,0.4293445,-1.4280906,1.9613947,-2.1058648,-1.5659603,2.3993068,-0.11632196,0.2763059,-0.3177707,0.021211931,0.025571883,-0.13509575,-0.6512229,0.1340753,-9.576807,0.93436235,47.73077,-1.0081403,-1.9144673,-3.5704513,-0.08153943,0.15908626,-0.34221995,25.0625,25.5625,24.875,27.1875,27.625,27.9375
0.3180537,-1.8962705,-0.23184004,-0.4922412,0.002511782,0.07870386,-0.0968072,-0.39706823,-0.3310816,0.05993532,3.0747573,-0.6160927,0.00019177273,-0.1543566,-0.017381577,0.00040085756,-0.032859694,0.010383282,0.015698902,0.42912948,-1.4275515,1.9607843,-2.1058285,-1.5659012,2.3990695,-0.11441785,0.27579504,-0.31946608,0.021074886,0.025344545,-0.12987098,-0.80445176,0.21068975,-9.423578,0.9030289,47.65912,-1.1484585,-1.8442602,-3.5945272,-0.085794695,0.16622408,-0.43226576,25.0625,25.5625,24.875,27.1875,27.625,27.9375
0.3200536,-1.1651319,-0.34889024,-0.7321839,-0.008115933,0.09427404,-0.10340131,-0.39741766,-0.33110383,0.059943885,3.0747325,-0.61599106,9.7258875e-05,-0.15601054,-0.016829686,0.00026241728,-0.032339547,0.010687828,0.014188295,0.42887676,-1.4269642,1.9600881,-2.1057932,-1.5659012,2.398757,-0.11628416,0.27814457,-0.32201263,0.02122168,0.024756158,-0.1302247,-0.5363012,0.22984336,-9.3661175,0.9947882,47.672558,-1.1456319,-1.8280542,-3.5502832,-0.07770051,0.17899445,-0.49364156,25.0625,25.5625,24.875,27.1875,27.625,27.9375
0.3220534,-1.1189879,-0.423922,-0.60071087,-0.011936654,0.08228218,-0.10473513,-0.3977097,-0.33114526,0.059928074,3.0746694,-0.61593676,0.00013370688,-0.1581713,-0.016746137,0.0023847164,-0.0331196,0.0155592,0.018702883,0.42866057,-1.4264015,1.9594783,-2.105769,-1.5658292,2.3985152,-0.11727803,0.27655652,-0.3252137,0.021301897,0.023460442,-0.13573422,-0.36391866,0.17238252,-9.461885,0.9791215,47.63404,-1.0813432,-1.6629312,-3.5360246,-0.060332246,0.21311131,-0.4998784,25.0625,25.5625,24.875,27.1875,27.625,27.9375
0.3240539,-0.900139,0.016397063,-0.2696849,-0.026621955,0.071194425,-0.10812067,-0.39804292,-0.33115628,0.059935484,3.0746047,-0.61591893,0.00011596565,-0.16064854,-0.015038248,0.0029423782,-0.03270119,0.017243452,0.024177598,0.428371,-1.4258506,1.9588202,-2.1057088,-1.565782,2.3982232,-0.12162913,0.2771401,-0.32735667,0.021567624,0.022423953,-0.1455604,-0.4022259,0.21068975,-9.423578,0.9097417,47.657326,-0.92550063,-1.5300558,-3.5785398,-0.07311578,0.24009475,-0.43910414,25.0625,25.5625,24.875,27.1875,27.625,27.9375
0.32605374,-0.7084304,-0.051808264,-0.5828624,-0.0018742074,0.05257343,-0.09827043,-0.39837217,-0.33119813,0.05994037,3.0745647,-0.61576855,3.3171294e-05,-0.16017537,-0.016624099,0.0024978542,-0.03359891,0.0160704,0.03787703,0.42815593,-1.4252746,1.9581498,-2.1056964,-1.5657576,2.3979197,-0.119099714,0.279371,-0.32908866,0.021820994,0.023781512,-0.15672529,-0.4213795,0.1340753,-9.442732,0.95897776,47.65912,-1.0119174,-1.5898333,-3.5926723,-0.056283023,0.24817166,-0.325315,25.0625,25.5625,24.875,27.1875,27.625,27.9375
0.3280532,-0.3025854,-0.0032462324,-0.67493176,0.0023520135,0.04984168,-0.108297355,-0.398676,-0.33122733,0.0599382,3.0745575,-0.6156676,4.239436e-05,-0.16111864,-0.01575044,0.0013662162,-0.033972993,0.013505196,0.043025427,0.42793906,-1.4247103,1.9574922,-2.105613,-1.5657328,2.397641,-0.122279555,0.2822267,-0.3299652,0.022065077,0.02522176,-0.16505006,-0.22984336,0.05746084,-9.5385,0.8605109,47.67345,-0.81425464,-1.5733888,-3.564936,-0.049230263,0.26093736,-0.22536692,25.0625,25.5625,24.875,27.1875,27.625,27.9375
0.3300539,-0.7407814,0.14710496,-0.51962095,-0.005367777,0.03835166,-0.1032417,-0.39902934,-0.3312462,0.059950158,3.0744793,-0.6155924,6.3995167e-06,-0.16092585,-0.016275259,0.00091547566,-0.034046303,0.0123510165,0.047005024,0.42763922,-1.4241351,1.956798,-2.1055648,-1.5656723,2.3973045,-0.12137763,0.28374988,-0.3309396,0.022567032,0.02579661,-0.16812463,-0.21068975,0.095768064,-9.423578,0.98135734,47.672558,-0.9728093,-1.6926079,-3.7158837,-0.04997605,0.259083,-0.15999596,25.0625,25.5625,24.875,27.1875,27.625,27.9375
0.33205354,-0.40089974,0.02539374,-0.6515639,-0.005771626,0.040664226,-0.10086296,-0.39935574,-0.33128777,0.059956037,3.07444,-0.6153362,-5.6836085e-05,-0.16245216,-0.017186543,0.0004399019,-0.034250163,0.011702851,0.043702915,0.42741147,-1.4235709,1.956138,-2.1055524,-1.5656241,2.396922,-0.12115161,0.28854936,-0.33555415,0.022882385,0.026248373,-0.16459075,-0.21068975,0.11492168,-9.385271,0.9701675,47.701214,-0.984558,-1.7945266,-3.6580012,-0.03503195,0.27213007,-0.14691831,25.0625,25.5625,24.875,27.1875,27.625,27.9375
0.3340542,-0.7121923,-0.36340126,-0.4587121,0.00058801356,0.03666006,-0.10008711,-0.39965513,-0.33130136,0.05993573,3.0744393,-0.61524415,-3.1681815e-05,-0.16361383,-0.017256375,-6.942185e-05,-0.03475856,0.010380068,0.03583283,0.42717102,-1.4230058,1.9555281,-2.1055043,-1.5655998,2.3966246,-0.12249766,0.29170647,-0.33827162,0.023410212,0.027236013,-0.15806316,-0.24899697,0.24899697,-9.404425,0.8806493,47.684196,-0.961293,-1.9008605,-3.4653094,-0.038118124,0.28659022,-0.20867711,25.0625,25.5625,24.875,27.1875,27.625,27.9375
0.33605385,-0.186984,-0.025973251,-0.20579436,-0.0012365688,0.05202744,-0.097947165,-0.4000202,-0.33134836,0.05997915,3.0742846,-0.6151765,-0.000100477635,-0.16502896,-0.018148376,0.0015458688,-0.036683425,0.012992195,0.030660555,0.42688298,-1.4224534,1.9547848,-2.1054442,-1.565492,2.3963144,-0.12232357,0.291436,-0.34196806,0.024197705,0.027907692,-0.15271045,-0.11492168,0.15322891,-9.270349,0.86945957,47.668976,-0.94621116,-1.8553824,-3.4680474,-0.035596896,0.28916293,-0.2913237,25.0625,25.5625,24.875,27.1875,27.625,27.9375
0.33805385,-0.05095037,0.17441718,-0.4778248,0.008103429,0.028922644,-0.10928794,-0.4003362,-0.33139378,0.05996632,3.0742717,-0.61502016,-9.5359865e-05,-0.16586353,-0.018246103,0.0010457847,-0.036680024,0.0114844665,0.028958574,0.426679,-1.4218398,1.9541019,-2.1053965,-1.5654553,2.3960147,-0.12311091,0.2943469,-0.34456778,0.025264977,0.028530613,-0.15179265,0.038307227,0.2681506,-9.404425,0.9545008,47.681515,-0.99950695,-1.8998905,-3.4457016,-0.027280938,0.30683014,-0.3330206,25.0625,25.5625,24.875,27.1875,27.625,27.9375
0.34005344,-0.03804655,-0.08388953,-0.39063218,-0.014542334,0.01625687,-0.10865134,-0.40067676,-0.33142096,0.05997545,3.0741894,-0.61498463,-0.00015829259,-0.167108,-0.018783933,0.0019669165,-0.03692526,0.013365628,0.028163189,0.42641512,-1.4212753,1.95343,-2.1053717,-1.5654081,2.3957396,-0.12266245,0.2951779,-0.3479435,0.026005976,0.027984569,-0.15054655,-0.05746084,0.47884032,-9.385271,0.8560339,47.698532,-1.0139539,-1.7498729,-3.3512151,-0.034340635,0.31675875,-0.3595972,25.0625,25.5625,24.875,27.1875,27.625,27.9375
0.34205353,0.021489097,-0.65017295,-0.4294658,-0.028737437,0.018273365,-0.104411446,-0.4010034,-0.33143762,0.059970435,3.0742004,-0.6148715,-0.0001828013,-0.16683508,-0.01814749,0.0009385801,-0.035862796,0.010700038,0.027207645,0.42617446,-1.4206858,1.9527506,-2.1052997,-1.5654081,2.3954272,-0.12354126,0.29674482,-0.34783164,0.02719957,0.028130952,-0.1504694,-0.13407528,0.59376204,-9.289502,0.9791215,47.658226,-1.1004881,-1.7220943,-3.503258,-0.035751984,0.34727764,-0.37949824,25.0625,25.5625,24.875,27.1875,27.625,27.9375
0.34405413,-0.1098892,-1.1640675,-0.8397203,-0.046514466,0.021855345,-0.103837796,-0.40134928,-0.3314735,0.059997838,3.074108,-0.6147724,-0.00019576757,-0.16635072,-0.017988037,0.0015506826,-0.036079805,0.010421386,0.032735873,0.42589858,-1.4201223,1.9520215,-2.1052039,-1.5653237,2.3951015,-0.12349878,0.29495484,-0.3477769,0.029147359,0.028487155,-0.1559536,0.076614454,0.61291564,-9.423578,0.8985519,47.65106,-1.0750154,-1.6651826,-3.671969,-0.047660917,0.3639654,-0.37014222,25.0625,25.5625,24.875,27.1875,27.625,27.9375
0.34605405,-0.37172297,-2.0777361,-0.7354977,-0.053356342,0.01762433,-0.10062128,-0.40166357,-0.33150586,0.059972167,3.0740976,-0.6146133,-0.00012272452,-0.16632612,-0.017297402,0.0011477383,-0.036306188,0.007850454,0.03690723,0.42565808,-1.4194974,1.9513506,-2.1051428,-1.5652632,2.3947632,-0.12542391,0.29551062,-0.34815028,0.03125745,0.029786412,-0.162048,0.038307227,0.47884035,-9.481039,1.0194036,47.67345,-0.9564414,-1.4604728,-3.77522,-0.06562998,0.3512023,-0.33075452,25.0625,25.5625,24.875,27.1875,27.625,27.9375
0.34805393,-0.591342,-1.5626168,-0.55492944,-0.06870954,0.020256395,-0.10990594,-0.402048,-0.33153796,0.060013235,3.0740168,-0.6144926,-0.00028110264,-0.16672902,-0.018837482,0.00048535413,-0.03649613,0.0063892948,0.048912767,0.42538288,-1.4189192,1.9505838,-2.1050947,-1.5652388,2.3944235,-0.123347834,0.2999046,-0.3520091,0.03203758,0.030625187,-0.17196935,0.076614454,0.59376204,-9.481039,0.9321212,47.66808,-1.0978032,-1.4990957,-3.7398922,-0.0937141,0.38152567,-0.21845812,25.0625,25.5625,24.875,27.1875,27.625,27.9375
0.3500537,-0.17510042,-1.3556916,-0.90269864,-0.039136205,0.016753878,-0.10369827,-0.40236276,-0.33159134,0.06003124,3.0739532,-0.6142876,-0.00027790715,-0.16890907,-0.017604465,-1.1658524e-05,-0.037148576,0.0051661693,0.050830185,0.42516518,-1.4183655,1.9498891,-2.1050107,-1.5651544,2.3940861,-0.12796661,0.30287966,-0.35454082,0.032492362,0.0317609,-0.17849977,-0.038307227,0.49799395,-9.634268,0.9186956,47.65912,-0.7880062,-1.7549583,-3.6933925,-0.10160686,0.382009,-0.113671586,25.0625,25.5625,24.875,27.1875,27.625,27.9375
0.3520535,0.017924925,-0.7107653,-0.86531895,-0.039374128,0.02545133,-0.10491002,-0.40269545,-0.33164248,0.060031634,3.0738761,-0.6141174,-0.00022451766,-0.17008774,-0.018990315,0.00022548743,-0.038363002,0.0049580922,0.052297678,0.42491361,-1.4177525,1.949169,-2.1049383,-1.5650462,2.3937383,-0.12705271,0.30623227,-0.35936695,0.033681024,0.03295876,-0.1790469,-0.095768064,0.51714754,-9.634268,0.99702406,47.683304,-1.0087729,-1.737769,-3.6568036,-0.14048569,0.38152674,-0.07076843,25.0625,25.5625,24.875,27.1875,27.625,27.9375
0.35405412,-0.89490265,-1.545559,-0.611135,-0.022737598,0.018879587,-0.10059408,-0.40303373,-0.33165893,0.06002287,3.0738583,-0.6140035,-0.00024435105,-0.17211327,-0.018822977,0.00047743082,-0.039612148,0.005495303,0.04397513,0.42464882,-1.4171506,1.9484876,-2.1048906,-1.5650214,2.393405,-0.12944087,0.3084478,-0.36266562,0.033736818,0.03385459,-0.17310737,-0.038307227,0.4405331,-9.500193,0.97464454,47.705692,-0.9059072,-1.7780049,-3.464467,-0.13719402,0.38017377,-0.09994649,25.0625,25.5625,24.875,27.1875,27.625,27.9375
0.35605398,-0.29762354,-0.46993992,-0.67136705,-0.03484038,0.030043587,-0.10706602,-0.40337414,-0.33172217,0.060034513,3.073788,-0.6138181,-0.00021620885,-0.17260872,-0.01998685,0.0009350461,-0.041620243,0.0070830793,0.038030386,0.42442134,-1.4165252,1.9477218,-2.1047957,-1.5649256,2.393071,-0.12833601,0.3088525,-0.36404097,0.032413717,0.035007194,-0.16605242,-0.11492168,0.47884035,-9.404425,0.8314132,47.689575,-0.8819947,-1.8871827,-3.3992295,-0.13162008,0.38776407,-0.15156756,25.0625,25.5625,24.875,27.1875,27.625,27.9375
0.35805383,-0.32984224,-0.80278957,-0.62500733,-0.041538283,0.033567064,-0.10992337,-0.4037397,-0.33175236,0.06005783,3.0737016,-0.6137677,-0.0002926513,-0.17338814,-0.01912767,2.4092384e-05,-0.040528152,0.00467315,0.02935318,0.42414457,-1.415937,1.9469794,-2.1047347,-1.5648774,2.392774,-0.1303502,0.31168044,-0.36572307,0.0338933,0.03499631,-0.15938553,-0.22984336,0.51714754,-9.5385,0.96569055,47.687782,-0.8856647,-1.7192447,-3.6405864,-0.14321923,0.36893594,-0.27027428,25.0625,25.5625,24.875,27.1875,27.625,27.9375
0.36005336,-0.79947567,-1.1445479,-0.36417392,-0.06123145,0.034217533,-0.11393235,-0.4040581,-0.33181456,0.060046338,3.0736191,-0.6136172,-0.00020914509,-0.1719014,-0.020585513,-0.00030404824,-0.04057423,0.0026847038,0.027277324,0.4239179,-1.4153117,1.9462737,-2.104674,-1.5647568,2.3924642,-0.1269007,0.31245694,-0.36644393,0.035622943,0.035842236,-0.15385728,-0.1340753,0.4405331,-9.5385,0.8985519,47.652847,-1.0875282,-1.6293831,-3.6503966,-0.17230938,0.3913325,-0.33409527,25.0625,25.5625,24.875,27.1875,27.625,27.9375
0.36205393,-0.76873803,-1.17055,-0.013126676,-0.064787336,0.03877426,-0.11045463,-0.40442815,-0.3318379,0.060066648,3.0735598,-0.6135688,-0.00029258183,-0.17266648,-0.020266779,-0.0008179348,-0.040245656,0.0019468947,0.022630194,0.42364135,-1.4147099,1.9455193,-2.1046026,-1.5647329,2.3921654,-0.12793563,0.3144681,-0.3677926,0.035760574,0.035844956,-0.15024163,-0.11492168,0.34476504,-9.385271,0.9947882,47.691364,-0.9940601,-1.6478224,-3.6804948,-0.20526777,0.39166316,-0.43464157,25.0625,25.5625,24.875,27.1875,27.625,27.9375
0.36405373,-0.74039507,-0.422731,0.16717498,-0.047109693,0.035973117,-0.11559681,-0.40478414,-0.33188468,0.060074784,3.0734518,-0.6134896,-0.000267914,-0.17395867,-0.02010208,-0.0007903911,-0.040665593,0.0013431247,0.019999595,0.42336506,-1.4140849,1.9447659,-2.1045306,-1.5646251,2.3918538,-0.1295291,0.31656504,-0.37073064,0.03699732,0.036481045,-0.14919956,-0.19153613,0.38307226,-9.212888,0.9768804,47.695843,-1.0975776,-1.5601988,-3.7576222,-0.21331829,0.39109543,-0.4961509,25.0625,25.5625,24.875,27.1875,27.625,27.9375
0.36605352,-0.122337446,0.3593588,0.2881836,-0.01068087,0.03897806,-0.12532674,-0.4051237,-0.33194235,0.06008324,3.0733485,-0.613407,-0.00029580036,-0.17570421,-0.020966155,-0.00033222814,-0.042650446,0.002453578,0.024664955,0.4231368,-1.4134836,1.9440469,-2.1044943,-1.5645403,2.3915875,-0.13013472,0.3189748,-0.37465551,0.03673312,0.037866026,-0.15446162,-0.05746084,0.22984336,-9.251195,1.0283576,47.68062,-1.0636075,-1.4847095,-3.664184,-0.2375246,0.38313687,-0.50151503,25.0625,25.5625,24.875,27.1875,27.625,27.9375
0.36805406,0.0080807675,0.94646543,0.19192557,0.020119872,0.026559671,-0.12792648,-0.40550384,-0.33197865,0.06008661,3.0732949,-0.61325574,-0.00034473924,-0.17882623,-0.02224828,0.0016526866,-0.046896033,0.008034193,0.034584984,0.42286047,-1.4128231,1.9432682,-2.1044476,-1.5644916,2.391224,-0.1312432,0.3195282,-0.379411,0.034183852,0.03949903,-0.1654803,-0.019153614,0.24899697,-9.193734,1.0171678,47.68599,-1.0466387,-1.459783,-3.5383272,-0.21557146,0.36002672,-0.39299095,25.0625,25.5625,24.875,27.1875,27.625,27.9375
0.3700537,-0.3078804,1.0424469,0.29043508,0.019027127,0.029004766,-0.121037506,-0.40584457,-0.33202955,0.06008402,3.0732484,-0.61310405,-0.00028211507,-0.17972057,-0.022547008,0.0013434975,-0.048591122,0.0076595917,0.046069637,0.42262003,-1.4121739,1.9425019,-2.1043403,-1.5644072,2.390895,-0.13240351,0.3214299,-0.3809374,0.03355094,0.04126067,-0.17811903,-0.24899697,0.2681506,-9.11712,1.0171678,47.694946,-0.9633,-1.4357077,-3.4447994,-0.187823,0.35696316,-0.26035202,25.0625,25.5625,24.875,27.1875,27.625,27.9375
0.3720532,-0.96380186,0.29461765,-0.049614944,0.015980016,0.035385936,-0.116024934,-0.4061999,-0.3320783,0.060095366,3.07318,-0.61287624,-0.00026654487,-0.17989905,-0.02289336,0.0009670718,-0.04879772,0.0047908938,0.05243829,0.4223562,-1.4115484,1.9417361,-2.104255,-1.5643104,2.3904977,-0.13266125,0.3239553,-0.38385925,0.036544427,0.04267361,-0.18473808,-0.30645782,0.28730422,-9.155427,0.9791215,47.679718,-1.0379314,-1.500233,-3.4924731,-0.21543984,0.31985626,-0.1831474,25.0625,25.5625,24.875,27.1875,27.625,27.9375
