Tylouw/Master_Thesis_Code/training_data/batch_1/big_rod_t0.1/sample_96_session_4.csv
timestamp[s],tcp_force_x[N],tcp_force_y[N],tcp_force_z[N],tcp_force_rx[Nm?],tcp_force_ry[Nm?],tcp_force_rz[Nm?],tcp_pose_x[m],tcp_pose_y[m],tcp_pose_z[m],tcp_pose_rx[rot_vec_x],tcp_pose_ry[rot_vec_y],tcp_pose_rz[rot_vec_z],tcp_velo_x[m/s],tcp_velo_y[m/s],tcp_velo_z[m/s],tcp_velo_rx[rot_vec_x/s],tcp_velo_ry[rot_vec_y/s],tcp_velo_rz[rot_vec_z/s],q1[rad],q2[rad],q3[rad],q4[rad],q5[rad],q6[rad],qd1[rad/s],qd2[rad/s],qd3[rad/s],qd4[rad/s],qd5[rad/s],qd6[rad/s],tool_acc_x,tool_acc_y,tool_acc_z,current_of_whole_robot[A],voltage_of_whole_robot[V],current_J1[A],current_J2[A],current_J3[A],current_J4[A],current_J5[A],current_J6[A],temp_J1[C],temp_J2[C],temp_J3[C],temp_J4[C],temp_J5[C],temp_J6[C]
6.95989e-07,-0.18178584,-0.27985597,0.5320863,-0.023199452,0.011181613,-0.0194461,-0.3728881,-0.3282241,0.0599578,-3.0785089,0.624872,-0.00028836553,0.0030589472,0.001442308,-0.004292075,0.0038671081,-0.008400926,6.302502e-05,0.4481382,-1.4708852,2.0095613,-2.1076677,-1.5706376,2.4230556,-4.36082e-05,0.003629626,0.0059305583,-0.00031383336,0.00016659276,-0.000109831504,0.095768064,0.17238252,-8.925584,0.73741806,47.73077,-0.12532488,-2.8804407,-2.5237343,-0.5183801,0.16276509,-0.14028026,25.875,26.6875,25.8125,28.6875,29.625,30.0625
0.002052461,0.052310027,-0.3716109,0.32127783,-0.010075156,0.015090491,-0.021239474,-0.37289372,-0.32822466,0.059940554,-3.0784929,0.62486845,-0.00026065006,-0.0006644597,-0.00035798748,-0.002697093,-0.001338906,0.0023740013,6.612654e-05,0.44815028,-1.4708492,2.0095732,-2.1077197,-1.5706614,2.4230676,-4.2576805e-05,0.0036581005,0.004700287,-0.011078725,0.0001628251,-0.00010796564,0.095768064,0.19153613,-8.848969,0.7172743,47.690468,-0.14954257,-2.7419844,-2.3917267,-0.46518517,0.16517077,-0.12689942,25.875,26.6875,25.8125,28.6875,29.625,30.0625
0.004052679,-0.52237886,-0.11674129,0.37180468,-0.005317802,0.004852515,-0.008687632,-0.3728855,-0.32823357,0.059932217,-3.0784962,0.62488836,-0.000338301,-0.0020566916,-0.0010307323,-0.0020780193,-0.0032219095,0.0062760925,6.679569e-05,0.44815028,-1.4708253,2.0095608,-2.1076963,-1.5706257,2.4230795,-4.1592837e-05,0.0037218623,0.00407084,-0.014845698,0.00015922435,-0.000106147665,0.11492168,0.17238252,-9.002198,0.7172743,47.68062,-0.118891954,-3.0152311,-2.5477214,-0.36038816,0.16203427,-0.13480319,25.875,26.6875,25.8125,28.6875,29.625,30.0625
0.006051844,-0.21964681,0.33943698,0.36639312,0.0036065485,-0.0022512171,-0.020184468,-0.37289754,-0.32822227,0.059925497,-3.0785217,0.6248549,-0.00026948945,-0.0010028763,-0.00052021036,-0.0018762925,-0.0015188461,0.002765732,6.491306e-05,0.4481262,-1.4708374,2.009608,-2.1077774,-1.5706376,2.4230313,-4.065354e-05,0.0031471308,0.0029646647,-0.009263115,0.00015577917,-0.00010438878,0.11492168,0.19153613,-8.944737,0.7284641,47.691364,-0.163357,-3.007718,-2.492115,-0.38537773,0.14788046,-0.1413295,25.875,26.6875,25.8125,28.6875,29.625,30.0625
0.008052016,0.82550895,1.364823,-0.025905943,0.018440139,-0.0033318365,-0.03080987,-0.37290815,-0.32819968,0.059911583,-3.078456,0.6249382,-0.00030678787,-0.0002003349,-0.00013121481,-0.0014730784,-0.00026075527,0.00017619209,6.322379e-05,0.4480902,-1.4708018,2.0095952,-2.107752,-1.5706614,2.4230556,-3.975566e-05,0.0023215383,0.0018441521,-0.004438032,0.00015247999,-0.00010268728,0.038307227,0.17238252,-9.078813,0.7665104,47.691364,-0.14213927,-2.9519703,-2.421541,-0.4297039,0.14850771,-0.13329004,25.875,26.6875,25.8125,28.6875,29.625,30.0625
0.010052161,0.70285195,0.87903255,-0.50036156,0.045188975,-0.015401967,-0.027288826,-0.3728829,-0.32821304,0.05990502,-3.0784564,0.62486124,-0.0003375572,0.00023176233,7.8559475e-05,-0.0012262714,0.00036977162,-0.0011174597,6.192791e-05,0.44813824,-1.470802,2.0096076,-2.1077397,-1.5706614,2.4230556,-3.8896604e-05,0.0017716825,0.0013041138,-0.0019090179,0.00014931764,-0.00010104046,0.0,0.15322891,-9.3661175,0.72622824,47.66808,-0.44489574,-2.2458727,-3.1388204,-0.4626202,0.14631549,-0.19315733,25.875,26.6875,25.8125,28.625,29.625,30.0625
0.012052285,0.32463455,0.37203583,-0.6930007,0.022967026,-0.0006977037,-0.028520588,-0.37288207,-0.32820806,0.059896786,-3.0784073,0.62483174,-0.00032402616,-1.5928928e-05,-1.5381722e-05,-0.004302674,0.0033080305,-0.007230823,7.943666e-05,0.4481623,-1.4707751,2.0095942,-2.1077273,-1.5707096,2.4230676,-9.20098e-05,0.010456355,-0.0013355057,-0.0011712725,0.00014628375,-0.00016890977,0.076614454,0.076614454,-9.3661175,0.800085,47.691364,-0.56415737,-2.382563,-3.330553,-0.4768587,0.13571382,-0.22882551,25.875,26.6875,25.8125,28.625,29.625,30.0625
0.014052449,0.19590817,-0.14187808,-0.76159453,-0.010557688,0.03016085,-0.028788336,-0.37290442,-0.32821232,0.059899826,-3.0784492,0.62491554,-0.00039182263,-0.0050694356,-0.00031783263,-0.0034650601,0.0022756048,-0.0051278775,0.0023268426,0.4481011,-1.4707488,2.0095556,-2.1077158,-1.5706376,2.4230533,-0.0041253995,0.017199699,-0.010719649,-0.00087392505,0.00014337091,-0.0064430726,-0.019153614,0.19153613,-9.595961,0.7284641,47.691364,-0.54538757,-2.7184305,-2.987598,-0.46452338,0.1517457,-0.21125889,25.875,26.6875,25.8125,28.625,29.625,30.0625
0.016052244,-1.0324361,-1.4353836,-0.9908638,-0.027585467,0.045785453,-0.024941772,-0.37284234,-0.3282092,0.059832577,-3.0783694,0.62478304,-0.00057698484,-0.005617262,0.0010806745,-0.004359031,0.0032115371,-0.0070710084,0.0035519558,0.4481598,-1.4706764,2.0096276,-2.107703,-1.5706495,2.4230394,-0.007254432,0.0184798,-0.010141871,-0.00057572476,0.00014057163,-0.01079747,-0.2681506,0.30645782,-9.749189,0.784413,47.689575,-0.26810694,-2.7279286,-3.236887,-0.47550458,0.13901997,-0.16107172,25.875,26.6875,25.8125,28.625,29.625,30.0625
0.018052068,-1.6551791,-1.9057795,-0.86484647,-0.06155525,0.0724616,-0.038299568,-0.3728812,-0.3282069,0.05985871,-3.0783896,0.62480533,-0.0005579936,-0.005230592,0.0008133581,-0.004741968,0.0038881784,-0.008471323,0.005198855,0.44811198,-1.470664,2.0095432,-2.1076553,-1.5706376,2.423003,-0.0063980734,0.019646678,-0.010778065,0.0004488564,0.00013787976,-0.011587736,-0.3256114,0.34476504,-9.844957,0.73069996,47.703007,-0.35842425,-2.3851378,-3.5013819,-0.46989185,0.15308046,-0.1660879,25.875,26.6875,25.8125,28.625,29.625,30.0625
0.020052206,-2.0691085,-1.8594023,-0.8578861,-0.07636796,0.09274767,-0.037045814,-0.37288648,-0.32819465,0.059838723,-3.0783606,0.6247795,-0.0005657241,-0.0058805593,0.00017960175,-0.004087582,0.0035788415,-0.007830624,0.0064353924,0.44810027,-1.4706279,2.0095546,-2.1076787,-1.5706614,2.4229789,-0.005796677,0.02045301,-0.013419702,0.0015723275,0.00013528882,-0.012221492,-0.49799395,0.45968673,-9.787497,0.75084364,47.678825,-0.5382309,-2.4068284,-3.416145,-0.48355967,0.1519758,-0.1876125,25.875,26.6875,25.8125,28.625,29.625,30.0625
0.022052234,-1.5421586,-1.6003928,-0.95416325,-0.064528026,0.101365164,-0.063765176,-0.37287614,-0.32820016,0.05981668,-3.078334,0.62473565,-0.0006684436,-0.0068289796,0.00023186226,-0.0041990373,0.0038293921,-0.008357409,0.0071764817,0.44811192,-1.4705672,2.0095303,-2.107642,-1.5706495,2.4229665,-0.0067583118,0.022514734,-0.015582342,0.002256475,0.00013279362,-0.0139227975,-0.5554548,0.5746084,-9.768343,0.7217513,47.694054,-0.5964892,-2.484954,-3.4769616,-0.49954122,0.14180233,-0.17375669,25.875,26.6875,25.8125,28.625,29.625,30.0625
0.024052395,-1.6827371,-1.2850683,-1.0091877,-0.04332673,0.0749988,-0.07310116,-0.3728975,-0.3281998,0.059818327,-3.0783503,0.6247191,-0.000704714,-0.008265248,0.000110512054,-0.0034294052,0.0028962588,-0.0064260256,0.007270113,0.44807565,-1.4705312,2.0094817,-2.1076186,-1.5706257,2.4229178,-0.007835136,0.0229026,-0.017672604,0.0018140854,0.00013038867,-0.015091802,-0.51714754,0.49799395,-9.768343,0.779936,47.686886,-0.6246552,-2.416471,-3.473504,-0.4971015,0.1427471,-0.18529812,25.875,26.6875,25.8125,28.625,29.625,30.0625
0.026052171,-1.2159078,-0.7892615,-0.9434642,-0.03719929,0.059150435,-0.092647776,-0.37293896,-0.32819805,0.059828844,-3.0783508,0.6247,-0.00055605994,-0.010034582,-0.00029489986,-0.0025836052,0.0015072551,-0.003549063,0.0072439,0.44807532,-1.4705071,2.009445,-2.1076791,-1.5706857,2.4229057,-0.008680912,0.023581132,-0.020005802,0.000272982,0.00012806935,-0.015909387,-0.5363012,0.4405331,-9.730036,0.7642693,47.709274,-0.59575754,-2.2636433,-3.5082035,-0.48041838,0.14102477,-0.19569443,25.875,26.6875,25.8125,28.625,29.625,30.0625
0.02805217,-0.9351917,-0.5487964,-0.8909652,-0.038405277,0.051441267,-0.10481915,-0.37295264,-0.32820466,0.059817597,-3.0783718,0.6247052,-0.0006055471,-0.0115212025,8.186248e-05,-0.0024846185,0.0012558328,-0.0030324494,0.0055959946,0.4480507,-1.4704585,2.0094202,-2.107691,-1.5706495,2.4228816,-0.010741038,0.02511726,-0.021860784,1.7823775e-05,0.0001258312,-0.016320173,-0.51714754,0.34476504,-9.672575,0.68146914,47.677036,-0.63787353,-2.309712,-3.4853773,-0.4521848,0.13280672,-0.20013766,25.875,26.6875,25.8125,28.625,29.625,30.0625
0.030052438,-1.1329769,-0.49883953,-0.6548663,-0.028573606,0.05321739,-0.11584004,-0.3729741,-0.32820436,0.059805173,-3.0783231,0.6247524,-0.00065424904,-0.012384476,-0.0004706798,-0.0022387034,0.00093496253,-0.0023742418,0.0066178646,0.44803864,-1.4703743,2.0093482,-2.1076553,-1.5706614,2.4229052,-0.010486504,0.026701339,-0.024160754,1.1637651e-06,0.00012366984,-0.017085876,-0.4405331,0.30645782,-9.672575,0.75084364,47.67793,-0.6527698,-2.2658849,-3.4331415,-0.45483577,0.11802387,-0.21043101,25.875,26.6875,25.8125,28.625,29.625,30.0625
0.032052465,-0.90776503,-0.3974415,-0.4677706,-0.0051408615,0.061401304,-0.14054507,-0.37300456,-0.32821247,0.059798937,-3.0783317,0.6247161,-0.0006519858,-0.014045758,-0.00044881843,-0.0017818415,0.0004112499,-0.0012952186,0.0063380776,0.4480261,-1.4703019,2.0092857,-2.1076672,-1.5706614,2.422869,-0.012037883,0.028236408,-0.026894322,7.598555e-08,0.00012166604,-0.018355582,-0.4405331,0.19153613,-9.576807,0.7866488,47.687782,-0.69673234,-2.2705433,-3.4223318,-0.44884574,0.15197915,-0.1931588,25.875,26.6875,25.8125,28.625,29.625,30.0625
0.034052163,-1.0793525,0.25190216,-0.34382012,0.0020751117,0.055729117,-0.15460002,-0.3730664,-0.32820824,0.059803262,-3.0783622,0.6247227,-0.00061941025,-0.015782202,-0.0005916846,-0.00061272347,-0.00074674067,0.0011350792,0.0052013155,0.44795376,-1.47023,2.0092022,-2.107691,-1.5706495,2.422797,-0.013336031,0.028326374,-0.029676022,4.9613127e-09,0.000107343265,-0.018515253,-0.2681506,0.095768064,-9.5385,0.7351769,47.705692,-0.67617524,-2.2361524,-3.409428,-0.43081552,0.13184518,-0.17602013,25.875,26.6875,25.8125,28.625,29.625,30.0625
0.036051963,-0.84465575,0.5669811,-0.44429165,0.016085299,0.048227288,-0.16432886,-0.37308094,-0.3282386,0.059820857,-3.078421,0.6246974,-0.0006344868,-0.0170522,-0.00068955653,-9.173299e-05,-0.0013034723,0.0022922389,0.003579684,0.44796535,-1.4702057,2.0091298,-2.1076672,-1.5706018,2.4227853,-0.014305199,0.0292299,-0.031862713,3.239383e-10,0.000104113344,-0.017861325,-0.24899697,0.019153614,-9.5385,0.7642693,47.71554,-0.7221582,-2.1666164,-3.3961253,-0.42396924,0.14001873,-0.1819605,25.875,26.6875,25.8125,28.625,29.625,30.0625
0.038052153,-0.6388575,0.6528488,-0.4770446,0.0291993,0.043601096,-0.1811306,-0.37312198,-0.32822832,0.05979505,-3.0783799,0.6247092,-0.0006827215,-0.01847607,-0.00049962907,-0.00011615497,-0.0013729117,0.0024301629,0.0014579993,0.4479167,-1.4700853,2.0090568,-2.1076672,-1.5706137,2.4227493,-0.015954718,0.03135513,-0.034142483,2.1150857e-11,0.00010171126,-0.017387463,-0.21068975,-0.095768064,-9.461885,0.77545905,47.71465,-0.6697234,-2.180356,-3.4142628,-0.4001342,0.120038494,-0.19446608,25.875,26.6875,25.8125,28.625,29.625,30.0625
0.040052187,0.16778837,0.5991238,-0.41446126,0.03103075,0.043786716,-0.1899812,-0.37316316,-0.32822472,0.059799273,-3.0783885,0.6246921,-0.0006419534,-0.019804439,-0.0007311193,-0.00012358974,-0.0014760416,0.002637195,0.0010132798,0.44788048,-1.4700364,2.0089962,-2.1076791,-1.5706257,2.4227014,-0.016725402,0.03389152,-0.03691038,1.3809998e-12,9.9460034e-05,-0.01771136,-0.19153613,-0.019153614,-9.500193,0.81351066,47.721813,-0.65430593,-2.2207458,-3.3852246,-0.40836233,0.118634894,-0.17608353,25.875,26.6875,25.8125,28.625,29.625,30.0625
0.042051688,-0.31022874,0.65924066,-0.4785463,0.025958315,0.017789084,-0.19659077,-0.3732107,-0.3282264,0.05981106,-3.0783916,0.62465346,-0.00058976817,-0.02068727,-0.0011358545,0.00037531593,-0.002006188,0.003736232,0.001612796,0.4478565,-1.4699762,2.0089004,-2.1076672,-1.5706495,2.422653,-0.016763981,0.03465887,-0.038898453,9.0169415e-14,9.730899e-05,-0.018348139,-0.19153613,0.019153614,-9.404425,0.800085,47.72719,-0.5982411,-2.14568,-3.3836904,-0.38165647,0.120800965,-0.18065372,25.875,26.6875,25.8125,28.625,29.625,30.0625
0.044051908,-0.16697444,0.15512823,-0.40864643,0.009928615,0.02487363,-0.19710195,-0.3732375,-0.32821983,0.0597949,-3.078353,0.62466455,-0.0005699252,-0.02149125,-0.0010897367,0.00064966653,-0.0021482045,0.0040301937,0.0014233723,0.4478443,-1.469904,2.0088637,-2.107691,-1.5706857,2.4226527,-0.017579654,0.0354264,-0.04048464,0.0004914225,9.524911e-05,-0.018973462,-0.1340753,0.095768064,-9.461885,0.75084364,47.728977,-0.6318221,-2.1325548,-3.409543,-0.36894098,0.11820765,-0.17918803,25.875,26.6875,25.8125,28.625,29.625,30.0625
0.046052407,-0.43296668,-0.05413365,-0.4741689,-0.004062309,0.021050734,-0.18737018,-0.37329268,-0.32822132,0.059798583,-3.0783842,0.6247289,-0.00057471124,-0.021670587,-0.0011653933,0.0010406458,-0.0016871376,0.0030798325,0.0016019234,0.44777232,-1.4698321,2.0087788,-2.107702,-1.5706495,2.422617,-0.017595464,0.035958238,-0.04256081,0.0030927307,9.327467e-05,-0.019167257,-0.11492168,0.17238252,-9.442732,0.800085,47.741516,-0.6516104,-2.0988064,-3.4472213,-0.37654912,0.12323043,-0.18596464,25.875,26.6875,25.8125,28.625,29.625,30.0625
0.04805253,-0.046346083,-0.087360054,-0.6815824,-0.012580338,0.030986194,-0.17969601,-0.37333855,-0.32822627,0.059811693,-3.0783749,0.62472695,-0.00056402397,-0.022142284,-0.000863757,0.00082686654,-0.0009868398,0.0016247719,0.0022589357,0.44774798,-1.4697596,2.0086582,-2.1076534,-1.5706614,2.4225926,-0.018588739,0.037556414,-0.04420644,0.0047545293,9.138054e-05,-0.020816794,-0.24899697,0.19153613,-9.481039,0.7351769,47.70032,-0.6351483,-2.0154328,-3.4507859,-0.3859606,0.12527035,-0.1635788,25.875,26.6875,25.8125,28.625,29.625,30.0625
0.050052214,-0.23572125,-0.8861038,-0.89218974,-0.009600036,0.02883727,-0.17282316,-0.37336808,-0.32822558,0.0598004,-3.0783668,0.6247054,-0.0006206574,-0.023164526,-0.0011212752,0.0012702077,-0.0014327039,0.0025827843,0.003128157,0.44771174,-1.4696754,2.0085862,-2.1076295,-1.5706495,2.422544,-0.019019393,0.038514525,-0.046294864,0.0048283683,7.28427e-05,-0.02211526,-0.076614454,0.2681506,-9.576807,0.7418897,47.71286,-0.64393187,-1.9773688,-3.437519,-0.38532424,0.124098234,-0.17097014,25.875,26.6875,25.8125,28.625,29.625,30.0625
0.0520527,-0.17405611,-1.2006038,-0.80011624,-0.027663894,0.03194499,-0.17791606,-0.37341195,-0.32822764,0.059796695,-3.0783596,0.6247418,-0.00062070566,-0.02430217,-0.001495086,0.0017410354,-0.00213688,0.0040409793,0.0038426653,0.44767565,-1.4695911,2.0085022,-2.10763,-1.5706495,2.4225316,-0.019346308,0.039478905,-0.04830572,0.0042553917,7.032916e-05,-0.02315516,-0.038307227,0.28730422,-9.576807,0.779936,47.71286,-0.68475676,-1.9651594,-3.55898,-0.39047313,0.13662995,-0.15761235,25.875,26.6875,25.8125,28.625,29.625,30.0625
0.054051742,-0.27820036,-1.3276209,-0.9481988,-0.036901556,0.027871756,-0.16875201,-0.37349427,-0.3282243,0.0598211,-3.078376,0.6246873,-0.00048515425,-0.025314068,-0.0013852303,0.0014286657,-0.001962242,0.003674202,0.0040336456,0.44762716,-1.4695185,2.0083692,-2.1076415,-1.5706977,2.4224472,-0.020467557,0.04172788,-0.050034724,0.004140304,6.8911664e-05,-0.024465961,-0.095768064,0.30645782,-9.5385,0.74413085,47.698532,-0.6204863,-1.8857684,-3.5347705,-0.3790607,0.121629424,-0.14115073,25.875,26.6875,25.8125,28.625,29.625,30.0625
0.05605209,-0.573432,-1.4511701,-0.88891727,-0.038309276,0.017744988,-0.16814731,-0.37350988,-0.3282407,0.059816387,-3.0784051,0.6247128,-0.0005720735,-0.025966587,-0.0015021956,0.0016212529,-0.0018260682,0.003387532,0.0042710584,0.44760308,-1.4694582,2.0083082,-2.1076171,-1.5706376,2.4224353,-0.020838676,0.04297126,-0.052105557,0.00528652,6.761271e-05,-0.025073396,-0.05746084,0.4213795,-9.730036,0.75084364,47.734352,-0.612943,-1.907438,-3.5544949,-0.37761995,0.12044752,-0.12439543,25.875,26.6875,25.8125,28.625,29.625,30.0625
0.058052294,-0.6513078,-1.6078562,-0.8253208,-0.035840195,0.014064017,-0.16292875,-0.37357542,-0.32821897,0.05981152,-3.0783412,0.6246785,-0.0005603467,-0.026314085,-0.0016330503,0.0010245891,-0.0010992594,0.0018690033,0.0053348867,0.44754326,-1.4693376,2.008176,-2.1075695,-1.5706977,2.4223623,-0.020904679,0.045564774,-0.053759843,0.00602909,6.6365974e-05,-0.026202055,-0.019153614,0.36391866,-9.710882,0.8247004,47.7254,-0.6338397,-1.8413489,-3.5264335,-0.38930786,0.124071866,-0.12717232,25.875,26.6875,25.8125,28.625,29.625,30.0625
0.06005233,-0.992502,-1.3944029,-0.7510459,-0.030837784,0.011688691,-0.1575819,-0.37362406,-0.32824028,0.05981905,-3.0783823,0.62462956,-0.00052891136,-0.027226595,-0.0018440237,0.0013027564,-0.0013106462,0.002304744,0.0058140536,0.447531,-1.4692533,2.0080688,-2.107581,-1.5706857,2.4223144,-0.021334065,0.046815697,-0.055857778,0.0063919574,6.516458e-05,-0.027109263,-0.038307227,0.40222588,-9.576807,0.779936,47.694946,-0.59708786,-1.913177,-3.6637688,-0.38561654,0.11911404,-0.13543987,25.875,26.6875,25.8125,28.625,29.625,30.0625
0.06205239,0.0787038,-0.82774025,-0.46443444,-0.038026974,0.041494053,-0.17241596,-0.37369072,-0.32826617,0.059836194,-3.0784435,0.6246224,-0.00050219585,-0.02873557,-0.0020795953,0.0017275093,-0.001890726,0.0035036483,0.0057757013,0.44749457,-1.469157,2.0079238,-2.1075814,-1.5706495,2.4222658,-0.022256719,0.048446145,-0.05856939,0.0061421334,6.4006e-05,-0.027991615,-0.076614454,0.4213795,-9.557653,0.779936,47.699425,-0.58832806,-1.8833961,-3.5635252,-0.3730672,0.13740203,-0.11269866,25.875,26.6875,25.8125,28.625,29.625,30.0625
0.06405257,-0.0992575,-1.0925444,-0.46339935,-0.024586514,0.04131846,-0.17058033,-0.37374303,-0.3282595,0.059847794,-3.078429,0.62465745,-0.00051814766,-0.029723873,-0.0022182693,0.0016614974,-0.0016801938,0.003057126,0.0063750455,0.4474345,-1.4690843,2.0078037,-2.1075213,-1.5706495,2.4222295,-0.022889147,0.050756644,-0.06112825,0.0068839896,6.2887884e-05,-0.029221714,-0.076614454,0.4213795,-9.519346,0.7866488,47.699425,-0.65870625,-1.8391459,-3.5442958,-0.35639828,0.13040935,-0.09690765,25.875,26.6875,25.8125,28.625,29.625,30.0625
0.06605174,-0.7310663,-1.088061,-0.39692146,-0.020521116,0.02737217,-0.15732819,-0.37380332,-0.32827166,0.05985278,-3.0784793,0.6246477,-0.00048235166,-0.030114371,-0.002280777,0.0016674744,-0.0014577167,0.0025954314,0.0076388526,0.4473864,-1.4690001,2.0077078,-2.1075566,-1.5706257,2.422169,-0.023120914,0.05182646,-0.06250905,0.007708019,6.180813e-05,-0.030716537,-0.1340753,0.51714754,-9.346964,0.76874626,47.687782,-0.67899525,-1.8219697,-3.5639343,-0.3674332,0.114515275,-0.07192012,25.875,26.6875,25.8125,28.625,29.625,30.0625
0.06805188,-0.57709396,-0.7526942,-0.34844413,-0.021388907,0.023553539,-0.1681788,-0.37389487,-0.32826006,0.059864067,-3.0784442,0.6246026,-0.00035507462,-0.032589577,-0.0032821882,0.0026931157,-0.0027933265,0.0053569884,0.006739832,0.44733828,-1.4688795,2.0075495,-2.107557,-1.5707096,2.4220974,-0.023480328,0.054479912,-0.06764764,0.007123132,6.076486e-05,-0.030173277,-0.24899697,0.38307226,-9.308656,0.779936,47.64837,-0.6180121,-1.8347149,-3.4583998,-0.35872573,0.12076942,-0.07627267,25.875,26.6875,25.8125,28.625,29.625,30.0625
0.07005195,-0.5799563,-0.9275016,-0.33621854,-0.0055576456,0.024503825,-0.15987067,-0.37394124,-0.32828698,0.059866864,-3.0784924,0.6245549,-0.00040270237,-0.03236839,-0.0031142433,0.0011938751,-0.0014574197,0.0025747893,0.006326417,0.4473141,-1.4687704,2.007418,-2.1075332,-1.5706614,2.4220374,-0.023592684,0.057657525,-0.06769829,0.007083987,5.975622e-05,-0.029871684,-0.17238252,0.34476507,-9.308656,0.7620334,47.65912,-0.6140024,-1.921859,-3.459484,-0.35181582,0.112122715,-0.08707122,25.875,26.6875,25.8125,28.625,29.625,30.0625
0.07205209,0.050360657,-0.2395547,-0.21169089,-0.0121811135,0.03696953,-0.17152253,-0.3740019,-0.32830995,0.059862744,-3.0785205,0.62459934,-0.00042111124,-0.03362286,-0.003357815,0.00268635,-0.0028473677,0.005466456,0.0057064993,0.44727796,-1.4686391,2.0072858,-2.1075451,-1.5706257,2.4220254,-0.024266046,0.056326956,-0.0696918,0.0072007636,5.8780504e-05,-0.029924197,-0.15322891,0.22984336,-9.346964,0.76874626,47.65912,-0.6875211,-1.7293588,-3.5222387,-0.3538883,0.112676755,-0.1071407,25.875,26.6875,25.8125,28.625,29.625,30.0625
0.07405205,-1.0138687,-0.40143713,-0.3376257,-0.0032364929,0.012109034,-0.16074355,-0.3740873,-0.32828718,0.059863683,-3.078465,0.62466425,-0.00041480424,-0.03619789,-0.0043051206,0.00409097,-0.0040404825,0.007929598,0.00675641,0.44718185,-1.4685066,2.007127,-2.107497,-1.5706614,2.421977,-0.024813864,0.05876326,-0.07581221,0.008146706,5.7836154e-05,-0.03151818,-0.1340753,0.2681506,-9.32781,0.82022345,47.672558,-0.648288,-1.7002665,-3.3445885,-0.34423727,0.10900442,-0.09501159,25.875,26.6875,25.8125,28.625,29.625,30.0625
0.07605243,-0.97818506,-0.26466084,-0.31169274,0.0005330442,0.018297706,-0.15571773,-0.37416002,-0.32831383,0.05988725,-3.0785449,0.6245648,-0.00032518376,-0.03525174,-0.003770552,0.0013646269,-0.001377034,0.0023902673,0.0073153554,0.44715786,-1.4684211,2.0069845,-2.1075208,-1.5706495,2.421881,-0.024957266,0.06356267,-0.07495195,0.008633719,5.6921708e-05,-0.032220423,-0.17238252,0.24899697,-9.32781,0.779936,47.70211,-0.72133815,-1.8717389,-3.3874264,-0.34315902,0.10758508,-0.085018665,25.875,26.6875,25.8125,28.625,29.625,30.0625
0.07805172,-0.61366314,-0.54275423,-0.36817712,0.0075891535,0.029850557,-0.16662057,-0.37423363,-0.32832158,0.059889242,-3.0785298,0.62457997,-0.00038135267,-0.0376127,-0.0045110835,0.0033569247,-0.0033941173,0.006574144,0.007290964,0.44709754,-1.4682653,2.0067923,-2.1074488,-1.5706376,2.421832,-0.025698312,0.06340133,-0.079326354,0.008525061,5.6035668e-05,-0.032934487,-0.19153613,0.21068975,-9.270349,0.7642693,47.682407,-0.71005714,-1.8867058,-3.4316359,-0.34608227,0.11487241,-0.07751058,25.875,26.6875,25.8125,28.625,29.625,30.0625
0.08005188,-0.74086165,-0.33388665,-0.24988194,-0.005159374,0.038466543,-0.16398206,-0.37431327,-0.32834512,0.05990328,-3.0785756,0.6245117,-0.00034832224,-0.038501956,-0.0047543636,0.0036579703,-0.0033988329,0.00658107,0.008296304,0.44706142,-1.4681332,2.006612,-2.1074364,-1.5706257,2.4217477,-0.02604113,0.064912364,-0.08193326,0.009612903,5.5176843e-05,-0.034281183,-0.21068975,0.22984336,-9.289502,0.8023209,47.68062,-0.71779954,-1.6628811,-3.2564008,-0.32694024,0.10616431,-0.06834511,25.875,26.6875,25.8125,28.625,29.625,30.0625
0.082052425,-0.44531554,-0.418608,-0.39005682,-0.010098616,0.0462405,-0.16320911,-0.37440372,-0.3283483,0.05992921,-3.0785964,0.62449664,-0.00025096926,-0.038862284,-0.0050071343,0.002711017,-0.0024571922,0.0046183267,0.0076752924,0.44700152,-1.4680362,2.0064433,-2.1074245,-1.5706495,2.421676,-0.025886508,0.068471745,-0.08378873,0.010085243,5.4343927e-05,-0.033504024,-0.40222588,0.24899697,-9.270349,0.7463667,47.670765,-0.7173375,-1.8354418,-3.2815547,-0.3509506,0.1105027,-0.07503435,25.875,26.6875,25.8125,28.625,29.625,30.0625
0.084052324,-1.0069234,-0.7110775,-0.40289134,-0.007990101,0.040525906,-0.16547306,-0.37446365,-0.32835588,0.059909236,-3.0785844,0.62445796,-0.0003229545,-0.040186957,-0.005135364,0.0030593916,-0.0027299013,0.005176106,0.0052857073,0.44695327,-1.4678679,2.0062983,-2.1073997,-1.5706376,2.421605,-0.026839564,0.07013719,-0.08653507,0.010545876,5.353574e-05,-0.032065757,-0.34476504,0.19153614,-9.346964,0.7597976,47.68599,-0.7428472,-1.8047578,-3.2790499,-0.34525958,0.11754852,-0.09782477,25.875,26.6875,25.8125,28.625,29.625,30.0625
0.086051695,-0.9814087,-0.59646404,-0.60849106,-0.013852727,0.045853678,-0.16352268,-0.3745359,-0.3283544,0.059900995,-3.0785677,0.62445384,-0.0003286174,-0.039871894,-0.004766876,0.0018176684,-0.0013902988,0.0023856522,0.0055151265,0.44689304,-1.4677234,2.0061557,-2.1073883,-1.5706495,2.4215446,-0.027239066,0.07250624,-0.086450025,0.0111866845,5.2751246e-05,-0.03269456,-0.3256114,0.28730422,-9.32781,0.7418897,47.693153,-0.68784606,-1.8344103,-3.2726312,-0.3455103,0.09973696,-0.135239,25.875,26.6875,25.8125,28.625,29.625,30.0625
0.088051744,-1.3466951,-1.292467,-0.43575424,-0.0068094954,0.040605962,-0.14658292,-0.37461573,-0.32836527,0.059907176,-3.0785816,0.6244366,-0.0003395319,-0.040488992,-0.0048708194,0.0017154871,-0.0012844658,0.0021594232,0.006806118,0.44683295,-1.467579,2.0059745,-2.107352,-1.5706376,2.421472,-0.027594479,0.074020445,-0.087943256,0.011415666,5.1989475e-05,-0.034339923,-0.38307226,0.24899697,-9.346964,0.7396539,47.675243,-0.7140107,-1.7799327,-3.4095657,-0.35050362,0.09606865,-0.112149745,25.875,26.6875,25.8125,28.625,29.625,30.0625
0.09005186,-0.656091,-0.75736684,-0.41090608,-0.021418333,0.060022805,-0.16677667,-0.3747249,-0.32838792,0.059936553,-3.0786307,0.62436974,-0.00023726848,-0.04335545,-0.0058286698,0.0031803122,-0.002766899,0.0052321255,0.006690829,0.44678462,-1.4674345,2.0057456,-2.1073406,-1.5706495,2.421376,-0.028382678,0.07650118,-0.09409879,0.011678376,5.1249364e-05,-0.035008874,-0.36391866,0.21068975,-9.404425,0.82022345,47.694946,-0.71509635,-1.8490274,-3.1639247,-0.33820534,0.111435264,-0.117388576,25.875,26.6875,25.8125,28.625,29.625,30.0625
0.092052,-1.2599843,-0.9956736,-0.5345283,-0.01114567,0.03879498,-0.15755363,-0.3748237,-0.32839927,0.05993472,-3.0786238,0.62442625,-0.0001979434,-0.04326201,-0.0055599418,0.002076398,-0.0018890292,0.0034033083,0.0063590286,0.4467245,-1.467254,2.005554,-2.107352,-1.5706614,2.4213521,-0.02879282,0.07859325,-0.09380075,0.011316479,5.0530023e-05,-0.035086986,-0.22984336,0.36391866,-9.308657,0.80679786,47.66987,-0.75127006,-1.7736633,-3.345185,-0.34989268,0.09462917,-0.13422847,25.875,26.6875,25.8125,28.625,29.625,30.0625
0.09405214,-1.2999942,-1.012811,-0.4513622,-0.0052823084,0.031938978,-0.15897106,-0.37489304,-0.32841772,0.05995387,-3.078645,0.6243724,-0.00020860488,-0.04491406,-0.0058949664,0.0026458157,-0.0026719144,0.0050230897,0.0055595674,0.4466882,-1.4671336,2.0053613,-2.1072805,-1.5706495,2.4212797,-0.029651921,0.0801564,-0.09673707,0.010891021,4.983057e-05,-0.03514453,-0.17238252,0.3256114,-9.308656,0.77545905,47.682407,-0.70776427,-1.949033,-3.2250032,-0.3604908,0.099854544,-0.14552984,25.875,26.6875,25.8125,28.625,29.625,30.0625
0.09605254,-1.1611828,-0.98279494,-0.375858,-0.0073827985,0.030832445,-0.15122128,-0.37498888,-0.32844463,0.059954785,-3.0786877,0.6243429,-0.00022824321,-0.04635027,-0.005872751,0.0026949926,-0.0028366437,0.005383915,0.004918309,0.44662777,-1.4669414,2.0051448,-2.107268,-1.5706137,2.4211955,-0.030974219,0.08232033,-0.0992306,0.010825293,3.7676065e-05,-0.03582374,-0.22984336,0.30645782,-9.32781,0.7978386,47.721813,-0.68159604,-1.82185,-3.232783,-0.34297645,0.08886011,-0.16312161,25.875,26.6875,25.8125,28.625,29.625,30.0625
0.09805204,-0.65390044,-1.0854913,-0.52753574,-0.006054006,0.03097474,-0.16025074,-0.37510923,-0.32843426,0.059968527,-3.0786676,0.6243971,-0.0001237066,-0.047321063,-0.0059850747,0.0023735492,-0.0028855605,0.005482309,0.0047242856,0.4465316,-1.4667848,2.0049412,-2.1072686,-1.5706614,2.421136,-0.031626724,0.084543936,-0.10077173,0.01003121,3.6419286e-05,-0.03628075,-0.17238252,0.30645782,-9.385271,0.7016076,47.70838,-0.61947167,-1.910283,-3.2525215,-0.34103152,0.08834396,-0.17232926,25.875,26.6875,25.8125,28.625,29.625,30.0625
0.10005193,-0.556347,-0.6295807,-0.31939682,-0.019871568,0.031059599,-0.1576499,-0.3751465,-0.3284414,0.059925135,-3.078634,0.6243329,-0.00028157994,-0.04896093,-0.0061414433,0.0026322687,-0.003473935,0.0066871233,0.0041724998,0.4464951,-1.4665928,2.004821,-2.1072328,-1.5706376,2.4210637,-0.03281057,0.08649105,-0.10336674,0.009339135,3.5886336e-05,-0.036910806,-0.24899697,0.2681506,-9.32781,0.7709874,47.701214,-0.6739378,-1.7919912,-3.1969554,-0.31855205,0.09097026,-0.20233521,25.875,26.6875,25.8125,28.625,29.625,30.0625
0.10205188,-0.5370499,-0.7184014,-0.33600047,-0.023996161,0.031773124,-0.15949824,-0.3752684,-0.3284556,0.05995639,-3.0786736,0.6243203,-0.00020705642,-0.04924698,-0.0065286956,0.0024292988,-0.0030990976,0.005906599,0.0052693705,0.44641146,-1.4664361,2.0045688,-2.107197,-1.5706376,2.4209673,-0.032328926,0.08836097,-0.10515002,0.010118317,3.5412475e-05,-0.03752493,-0.22984336,0.2873042,-9.3661175,0.80456203,47.71017,-0.66972053,-1.9855335,-3.2873616,-0.32702583,0.07301816,-0.19203667,25.875,26.6875,25.8125,28.625,29.625,30.0625
0.10405199,-0.43524766,-1.1870558,-0.5063604,-0.0154181365,0.029785698,-0.15783793,-0.37536833,-0.32848215,0.059964467,-3.0786974,0.6243639,-0.00017292766,-0.05062255,-0.006504887,0.0035752282,-0.0041916748,0.008185138,0.0044528185,0.44636282,-1.4662567,2.0043528,-2.107197,-1.5706257,2.420943,-0.033603534,0.087701395,-0.10707883,0.010180176,3.4953828e-05,-0.037982002,-0.13407528,0.3256114,-9.308656,0.6971306,47.667187,-0.6929202,-1.8271029,-3.2531905,-0.338625,0.07700148,-0.2252014,25.875,26.6875,25.8125,28.625,29.625,30.0625
0.10605179,-0.4097354,-1.0271137,-0.52721715,-0.021732014,0.019963076,-0.15898664,-0.3754797,-0.3284543,0.059956655,-3.0786128,0.6243654,-0.00012692333,-0.051065426,-0.0062719216,0.001111833,-0.002006513,0.003610061,0.005107941,0.44626653,-1.4660627,2.0041487,-2.1071603,-1.5707096,2.4208586,-0.03442929,0.094379574,-0.10883811,0.010327973,3.450711e-05,-0.03946086,-0.076614454,0.2681506,-9.385271,0.74413085,47.687782,-0.66784775,-2.0522768,-3.2120886,-0.31802374,0.082042366,-0.23319018,25.875,26.6875,25.8125,28.625,29.625,30.0625
0.10805211,-0.3859571,-1.0976177,-0.5242681,-0.017779239,0.018282734,-0.15961954,-0.3756007,-0.32851294,0.05998038,-3.0787349,0.62431216,-8.945493e-05,-0.05167651,-0.0062846113,0.0013254065,-0.0022902002,0.004206192,0.006582975,0.44621852,-1.4658592,2.003873,-2.1071732,-1.5706376,2.420762,-0.03494276,0.09478628,-0.10976104,0.01018664,3.4071647e-05,-0.041448753,-0.15322891,0.30645782,-9.346964,0.80456203,47.70211,-0.6237323,-1.884802,-3.3254428,-0.325081,0.085100934,-0.23281452,25.875,26.6875,25.8125,28.625,29.625,30.0625
0.11005231,-0.26047403,-0.44963086,-0.3793445,-0.025492955,0.023180889,-0.16750263,-0.37568045,-0.32852554,0.05997804,-3.0787556,0.6242778,-0.00015515205,-0.052718177,-0.0058887647,0.0008009078,-0.0019016573,0.003546129,0.0054225265,0.44614598,-1.4656906,2.003682,-2.1071255,-1.5706018,2.4206655,-0.036565892,0.09715489,-0.11113022,0.00995204,-3.58646e-05,-0.041910104,-0.13407528,0.3256114,-9.346964,0.78217715,47.71286,-0.63539064,-1.9066124,-3.3319676,-0.32253847,0.07884952,-0.2415084,25.875,26.6875,25.8125,28.625,29.625,30.0625
0.11205243,-0.7428784,-0.7793022,-0.61046696,-0.0018876658,0.009416121,-0.15460652,-0.3758063,-0.32851103,0.05998389,-3.0787,0.6242872,-4.7050584e-05,-0.053344328,-0.0059064403,0.00069914333,-0.0016472009,0.0030326718,0.0039279396,0.44606173,-1.4654984,2.003454,-2.1071126,-1.5706857,2.4205945,-0.03707668,0.09874506,-0.112819485,0.01062084,-4.4514178e-05,-0.040925276,-0.076614454,0.22984336,-9.346964,0.7709874,47.689575,-0.56278086,-1.9490316,-3.36804,-0.29150695,0.08045099,-0.27289248,25.875,26.6875,25.8125,28.625,29.625,30.0625
0.11405163,-0.49350291,-0.34393778,-0.35065982,-0.0020197232,0.014952552,-0.15463443,-0.37591842,-0.32852906,0.059984095,-3.078722,0.62417376,-1.9513027e-05,-0.054624826,-0.007200979,0.0014650159,-0.0022566176,0.004289156,0.006762521,0.4460023,-1.465282,2.0032122,-2.1071007,-1.5706977,2.4204617,-0.03579491,0.10109428,-0.11736633,0.011421262,-4.404773e-05,-0.042475305,-0.05746084,0.19153613,-9.346964,0.7709874,47.694054,-0.6656028,-1.952766,-3.2477531,-0.30363593,0.06578727,-0.29610145,25.875,26.6875,25.8125,28.625,29.625,30.0625
0.11605201,-0.5059092,-0.1746547,-0.4116734,0.00427867,0.016057232,-0.15470573,-0.37604374,-0.32855538,0.060000714,-3.0787716,0.6242997,6.5733766e-06,-0.053813335,-0.006496672,3.0507423e-05,-0.0008906746,0.0014450859,0.006811699,0.44590604,-1.4650898,2.0029624,-2.1071007,-1.5706495,2.4204378,-0.03636519,0.10237884,-0.11551945,0.011446908,-4.3035223e-05,-0.0430957,-0.038307227,0.22984336,-9.308656,0.85826975,47.70659,-0.6948545,-2.0022879,-3.4590335,-0.30188772,0.08251264,-0.3118925,25.875,26.6875,25.8125,28.625,29.625,30.0625
0.1180521,-0.3608545,-0.34868997,-0.4784936,0.0029949322,0.013782823,-0.15253952,-0.37612987,-0.32857734,0.06000062,-3.078785,0.62412894,-3.7609e-05,-0.056205135,-0.0066866786,0.0013949319,-0.0025296214,0.004846954,0.0068079713,0.44586942,-1.4648861,2.0027215,-2.1070287,-1.5706495,2.420293,-0.03815451,0.10278341,-0.11893741,0.010683997,-4.2032894e-05,-0.044879045,-0.05746084,0.22984336,-9.346964,0.79560274,47.701214,-0.66406715,-1.8565841,-3.3613548,-0.277444,0.07847024,-0.3238467,25.875,26.6875,25.8125,28.625,29.625,30.0625
0.120052435,-0.67754066,-0.74719393,-0.57262987,-0.000550761,0.0117836185,-0.14352123,-0.37623724,-0.32862276,0.06001819,-3.0788364,0.6241208,-3.0235547e-05,-0.0557194,-0.0064771622,-0.0008514192,-5.5740442e-05,-0.0003244129,0.006491948,0.44583347,-1.4646806,2.0024464,-2.1069925,-1.5706137,2.4202456,-0.03810098,0.10797652,-0.11987361,0.012161396,-4.107389e-05,-0.044508584,-0.095768064,0.1340753,-9.32781,0.84484416,47.701214,-0.6550575,-1.9997694,-3.5250304,-0.27591944,0.07159443,-0.3440889,25.875,26.6875,25.8125,28.625,29.625,30.0625
0.1220525,-0.22993137,-0.37043944,-0.37861404,-0.013087471,0.024353225,-0.16266623,-0.3763704,-0.32859275,0.05999196,-3.0787568,0.62422085,-2.8557495e-05,-0.056437816,-0.0067586554,0.0011511773,-0.0017130618,0.0031366146,0.0045841755,0.44568938,-1.4644301,2.0022304,-2.1069925,-1.5706614,2.4201744,-0.038196374,0.10473417,-0.12104339,0.012734335,-4.015753e-05,-0.042696252,-0.05746084,0.1340753,-9.289503,0.83365434,47.704796,-0.6622652,-1.783247,-3.5462587,-0.2944383,0.07226969,-0.40078926,25.875,26.6875,25.8125,28.625,29.625,30.0625
0.12405253,-0.41749674,-0.11959895,-0.42037848,-0.011270359,0.03186999,-0.1595616,-0.37646836,-0.32862067,0.0599962,-3.0788069,0.62415224,-4.888581e-05,-0.058206256,-0.007226912,0.000534405,-0.001282221,0.0022131542,0.005702814,0.44562924,-1.4642367,2.002002,-2.1069686,-1.5706257,2.4200652,-0.038901653,0.10993467,-0.12543355,0.012944316,-3.9281174e-05,-0.04451687,-0.11492168,0.19153613,-9.346964,0.78217715,47.709274,-0.7437937,-1.836719,-3.4731603,-0.27738905,0.06473322,-0.41190946,25.875,26.6875,25.8125,28.625,29.625,30.0625
0.12605187,-1.0141699,-0.46718815,-0.6700194,0.01240068,0.023711946,-0.15395257,-0.3766103,-0.3286419,0.06002833,-3.0788386,0.6241573,7.873744e-05,-0.058039643,-0.007078355,0.0005287128,-0.0013136042,0.0022880887,0.007921392,0.44555718,-1.4640453,2.0017145,-2.1069567,-1.5706495,2.4199924,-0.039011184,0.10937963,-0.124788344,0.0127716875,-3.8442213e-05,-0.046845447,-0.095768064,0.17238252,-9.404425,0.85826975,47.69763,-0.7083104,-1.766815,-3.620277,-0.27893382,0.069447994,-0.43270466,25.875,26.6875,25.8125,28.625,29.625,30.0625
0.12805206,-1.2281526,-0.21990333,-0.4634885,0.004532726,0.021327337,-0.15318069,-0.3767429,-0.32865435,0.0600467,-3.0788672,0.6241237,0.000121982644,-0.059331425,-0.0075991317,0.0006767423,-0.0014491989,0.0026007302,0.009486591,0.44546115,-1.4638408,2.0014384,-2.10692,-1.5706495,2.419872,-0.03916903,0.11202215,-0.12815066,0.013150798,-5.520247e-05,-0.04856623,-0.21068975,0.22984336,-9.3661175,0.83589023,47.65643,-0.7058169,-1.7880433,-3.465754,-0.25739118,0.065369226,-0.44350255,25.875,26.6875,25.8125,28.625,29.625,30.0625
0.13005257,-0.32847318,0.11944923,-0.4103922,-0.007991093,0.0337132,-0.17174414,-0.37683877,-0.3286662,0.060007237,-3.078839,0.6240983,2.158339e-05,-0.061095826,-0.008188981,0.0014071631,-0.002010624,0.003751975,0.0108317835,0.4453889,-1.4635646,2.0012214,-2.1069086,-1.5706376,2.4197876,-0.039638203,0.11425264,-0.13250975,0.013998993,-5.5219232e-05,-0.050377987,-0.22984336,0.24899697,-9.423578,0.8717007,47.693153,-0.7851094,-1.7413573,-3.4572563,-0.2576093,0.058323972,-0.44486398,25.875,26.6875,25.8125,28.625,29.625,30.0625
0.13205174,-0.8174515,-0.61169195,-0.74901605,-0.0113002015,0.019384673,-0.15537815,-0.37695882,-0.32867482,0.060006145,-3.0788238,0.6240543,1.8985679e-06,-0.061871618,-0.00853191,0.0018437877,-0.0023185953,0.004384675,0.013118082,0.445305,-1.4633248,2.0009453,-2.106848,-1.5706495,2.4196784,-0.03967686,0.115124375,-0.13462062,0.014533609,-5.4185766e-05,-0.05270178,-0.22984336,0.21068975,-9.385271,0.8179876,47.70032,-0.7719953,-1.7234819,-3.43544,-0.26849788,0.062006213,-0.44448832,25.875,26.6875,25.8125,28.625,29.625,30.0625
0.13405195,-0.70652306,-0.9920563,-0.8873087,-0.022205764,0.029418817,-0.1570138,-0.37708458,-0.3287034,0.060031913,-3.078883,0.62394804,7.741669e-05,-0.062196113,-0.009279683,0.0021903068,-0.0023675745,0.004486657,0.017846942,0.44524536,-1.4631326,2.0006688,-2.1068242,-1.5706495,2.4195452,-0.038555186,0.11629454,-0.13697001,0.015599273,-5.3124502e-05,-0.056307755,-0.21068975,0.36391866,-9.519346,0.8090337,47.719128,-0.93197644,-1.7070107,-3.391632,-0.26382616,0.05286958,-0.44229576,25.875,26.6875,25.8125,28.625,29.625,30.0625
0.1360526,-0.96902037,-1.4837985,-0.8720396,-0.033778705,0.034769025,-0.16504315,-0.37721416,-0.32872248,0.060043473,-3.0789058,0.62385666,0.00011614326,-0.06401785,-0.008745121,0.0024515446,-0.0027341659,0.0052821715,0.01782752,0.4451725,-1.4629046,2.0003822,-2.106788,-1.5706614,2.4194126,-0.041161906,0.11778992,-0.13921584,0.015472948,-6.831006e-05,-0.058893505,-0.21068975,0.34476504,-9.653421,0.8179876,47.734352,-0.81627595,-1.5871217,-3.3998609,-0.2567398,0.05013684,-0.42494705,25.875,26.6875,25.8125,28.625,29.625,30.0625
0.13805264,-0.908332,-1.5563769,-1.002911,-0.052024104,0.043818366,-0.16456155,-0.37733272,-0.3287346,0.060025837,-3.0788782,0.62384844,5.4982633e-05,-0.06491489,-0.009252524,0.0022957472,-0.002670869,0.005159998,0.022289572,0.44508857,-1.4626282,2.0001066,-2.1067402,-1.5706614,2.4193273,-0.040992938,0.12040142,-0.14180018,0.015582792,-8.071808e-05,-0.063184746,-0.21068975,0.38307226,-9.672575,0.79560274,47.70659,-0.79131126,-1.6562123,-3.439976,-0.25701186,0.05510471,-0.395364,25.875,26.6875,25.8125,28.625,29.625,30.0625
0.14005178,-1.3417276,-2.017325,-1.0667237,-0.043289077,0.038509827,-0.15787968,-0.3774684,-0.32873362,0.060030006,-3.0788722,0.62374765,6.2932166e-05,-0.06482257,-0.010193057,0.001495779,-0.0020223684,0.0037968128,0.027945781,0.4449812,-1.4623877,1.9998177,-2.1066802,-1.5706857,2.419158,-0.03913055,0.123612426,-0.1435542,0.015633281,-8.331442e-05,-0.066977106,-0.17238252,0.45968673,-9.672575,0.8403672,47.701214,-0.999307,-1.5755311,-3.474587,-0.2453499,0.05607388,-0.36202312,25.875,26.6875,25.8125,28.625,29.625,30.0625
0.14205195,-1.6569254,-1.8186972,-1.0216447,-0.04043907,0.033799775,-0.1490484,-0.37761176,-0.3287766,0.06006182,-3.0789516,0.6236466,0.00018217546,-0.06633407,-0.010224999,0.0022002365,-0.002834993,0.005820173,0.030631138,0.4449327,-1.4621718,1.9995064,-2.1066802,-1.5706857,2.4190366,-0.04031677,0.12409856,-0.1455853,0.015002045,-0.00021973676,-0.07084712,-0.19153613,0.4405331,-9.653421,0.800085,47.709274,-1.026796,-1.7195401,-3.416694,-0.23700675,0.06368763,-0.32230905,25.875,26.6875,25.8125,28.625,29.625,30.0625
0.14405243,-1.2504678,-1.7735964,-1.0649064,-0.031126438,0.022967173,-0.14664432,-0.37772244,-0.32880223,0.060045633,-3.0789797,0.6235921,8.977059e-05,-0.06700886,-0.010478569,0.0011578655,-0.002034297,0.0041975193,0.034036167,0.4448488,-1.461907,1.9992427,-2.1066444,-1.5706376,2.4189153,-0.040410265,0.12810111,-0.14761728,0.014843927,-0.00025107717,-0.07434379,-0.076614454,0.4213795,-9.576807,0.78217715,47.67166,-0.99378043,-1.7187911,-3.453424,-0.24245365,0.06035146,-0.29025272,25.875,26.6875,25.8125,28.625,29.625,30.0625
0.14605181,-0.52142346,-1.0952399,-0.76054037,-0.038879033,0.031108651,-0.16835834,-0.37789604,-0.3287995,0.06006596,-3.0789983,0.6234797,0.000236743,-0.06812091,-0.01026336,0.0010840716,-0.0023114823,0.004758718,0.03539495,0.44472834,-1.461667,1.9989308,-2.1066449,-1.5706977,2.4187226,-0.041788116,0.12943581,-0.14876607,0.014027232,-0.00024050847,-0.07707942,-0.1340753,0.36391866,-9.481039,0.88960326,47.698532,-1.065137,-1.4690069,-3.4525576,-0.21052715,0.03917806,-0.24319679,25.875,26.6875,25.8125,28.625,29.625,30.0625
0.1480518,-0.6609972,-1.0805551,-0.6772423,-0.030228844,0.013292305,-0.15650071,-0.37804335,-0.32882944,0.060069174,-3.079033,0.6233902,0.00023769213,-0.06978989,-0.010682544,0.0010367468,-0.002362584,0.0049148956,0.035818994,0.4446441,-1.4613782,1.9985961,-2.106609,-1.5706857,2.4185784,-0.042460818,0.13293771,-0.15260549,0.014202657,-0.00026804078,-0.07817347,-0.1340753,0.38307226,-9.385271,0.784413,47.695843,-0.9717839,-1.6436702,-3.3183422,-0.20100686,0.05801409,-0.19107363,25.875,26.6875,25.8125,28.625,29.625,30.0625
0.15005195,-0.20237355,-0.9182398,-0.6611624,-0.01682699,0.017948287,-0.162498,-0.3781788,-0.32887563,0.060091063,-3.0791352,0.62317854,0.00026307444,-0.07003665,-0.011295324,0.00015075803,-0.0017154488,0.003539216,0.037439454,0.4445846,-1.4611373,1.9982713,-2.1065733,-1.5706495,2.418374,-0.041525505,0.13635458,-0.15435167,0.014055005,-0.00026053673,-0.07885712,-0.11492168,0.30645782,-9.346964,0.8090337,47.689575,-1.0802219,-1.799848,-3.432942,-0.18289602,0.045843605,-0.15786482,25.875,26.6875,25.8125,28.625,29.625,30.0625
0.15205204,-0.92782515,-0.90448004,-0.25061506,-0.013042631,0.011841708,-0.15390389,-0.37830937,-0.32890162,0.060085986,-3.0791438,0.6230859,0.0002719583,-0.07095175,-0.01118449,-0.00018778072,-0.0013100243,0.0026538793,0.035321888,0.44452405,-1.4608611,1.9979719,-2.1065485,-1.5706614,2.4182549,-0.042541634,0.1387876,-0.15644969,0.0146928625,-0.00024888167,-0.07775435,-0.095768064,0.30645782,-9.385271,0.80456203,47.693153,-1.1546028,-1.7591047,-3.4092636,-0.16927513,0.052178457,-0.14838555,25.875,26.6875,25.8125,28.625,29.625,30.0625
0.15405177,-0.72884136,-0.44152597,-0.3687006,-0.015131088,0.017368514,-0.15173708,-0.37846613,-0.32892293,0.06008201,-3.0791683,0.6229387,0.00032315098,-0.07266676,-0.011254259,-0.0006905802,-0.00092547364,0.00180827,0.03143818,0.4444397,-1.4605598,1.9976476,-2.1065485,-1.5706857,2.4180758,-0.043931168,0.14307559,-0.1601638,0.015046301,-0.00023793566,-0.07525755,-0.076614454,0.34476504,-9.308656,0.78888994,47.68062,-1.108852,-1.920893,-3.2782621,-0.1631945,0.036098346,-0.14897712,25.875,26.6875,25.8125,28.625,29.625,30.0625
0.15605189,-0.79601437,-0.45074573,-0.33222952,-0.007568953,0.010447889,-0.15531084,-0.3786341,-0.32894143,0.06012185,3.079199,-0.622945,-0.0003747597,-0.07400441,-0.01174743,0.0004551786,-0.0017997707,0.0036639476,0.030853527,0.4443076,-1.4603326,1.9972886,-2.1064765,-1.5706614,2.417944,-0.044169478,0.14342989,-0.16339973,0.015878564,-0.00024646937,-0.074909575,-0.05746084,0.3256114,-9.289502,0.8179876,47.65912,-1.0186756,-1.7126696,-3.3394752,-0.14408226,0.043716937,-0.16226979,25.875,26.6875,25.8125,28.625,29.625,30.0625
0.15805198,-0.8638682,-0.812457,-0.23050383,-0.0056407326,0.017439624,-0.15631787,-0.37880623,-0.32896155,0.060125303,3.0792124,-0.6228927,-0.000492986,-0.0739946,-0.011362936,-0.0005877006,-0.00077424815,0.0015353966,0.025118427,0.44422337,-1.4600325,1.9969538,-2.1065004,-1.5707096,2.4178257,-0.04484764,0.14559482,-0.16352223,0.016196221,-0.0002538398,-0.06985241,-0.095768064,0.24899697,-9.251195,0.85826975,47.698532,-1.1362034,-1.9028858,-3.431117,-0.12939367,0.0469429,-0.18247482,25.875,26.6875,25.8125,28.625,29.625,30.0625
0.1600521,-0.86247134,-0.8467579,-0.05185792,-0.0039778594,0.019191395,-0.15585548,-0.37891728,-0.3289912,0.060114264,3.0792305,-0.6227448,-0.000359284,-0.074502066,-0.011150713,-0.0011010631,-3.21289e-05,-5.7800895e-05,0.020949222,0.444139,-1.4597561,1.9966539,-2.106416,-1.5706495,2.417647,-0.045682,0.14786036,-0.16515115,0.0173217,-0.00024509415,-0.06651665,-0.22984336,0.30645782,-9.174581,0.85155696,47.707485,-1.1324027,-1.8118358,-3.4289448,-0.12199123,0.052613582,-0.24342129,25.875,26.6875,25.8125,28.625,29.625,30.0625
0.16205227,-0.81284136,-0.3686651,0.07454285,-0.009449919,0.021730049,-0.1584645,-0.37909278,-0.32901293,0.0601182,3.079204,-0.62273973,-0.00044474503,-0.075744025,-0.011149842,-0.0006941475,-0.00025870986,0.0003978456,0.020131284,0.44403058,-1.4594562,1.9963182,-2.1064398,-1.5706614,2.417539,-0.046768475,0.14917426,-0.16775993,0.018106977,-0.00023598644,-0.06678381,-0.19153613,0.22984336,-9.136273,0.8627467,47.703903,-1.2353224,-1.7763929,-3.3388138,-0.12646934,0.03239933,-0.26423568,25.875,26.6875,25.8125,28.625,29.625,30.0625
0.16405243,-0.78502846,-0.22380807,0.09930697,-0.008233407,0.030136574,-0.16072497,-0.37921938,-0.32903883,0.06009559,-3.079264,0.62261844,0.00037825355,-0.07788157,-0.0108978115,0.00035565931,-0.001340903,0.0026270149,0.016584065,0.44398192,-1.4591206,1.995982,-2.1063683,-1.5706857,2.4174073,-0.049132034,0.14964965,-0.17074578,0.018138105,-0.00022746905,-0.06559846,-0.19153613,0.21068975,-9.059659,0.7777002,47.698532,-1.1062793,-1.7373719,-3.3734875,-0.11297257,0.04006708,-0.26271346,25.875,26.6875,25.8125,28.625,29.625,30.0625
0.16605172,-1.1741076,-0.071592204,0.15416092,-0.00079031516,0.01988886,-0.15837516,-0.37940356,-0.3290626,0.060126413,3.0792265,-0.6226116,-0.0005124404,-0.07834494,-0.010976717,-6.38337e-05,-0.0008983528,0.0016893699,0.015472308,0.44386178,-1.4588685,1.9956349,-2.1063807,-1.5706857,2.4172878,-0.04937016,0.1517379,-0.17223468,0.018575761,-0.00021954146,-0.06472387,-0.21068975,0.17238252,-9.078813,0.900793,47.694054,-1.1584957,-1.7213326,-3.3664732,-0.11004099,0.032780364,-0.3139509,25.875,26.6875,25.8125,28.625,29.625,30.0625
0.16805176,-0.7109965,0.19157147,-0.07400772,0.010477114,0.027574517,-0.15617782,-0.37953824,-0.32908848,0.06010927,3.0792522,-0.62251914,-0.0004016523,-0.07935095,-0.010853395,-0.0003039024,-0.00068364985,0.001204685,0.016254414,0.44376543,-1.4585444,1.9952983,-2.1063077,-1.5706495,2.4171307,-0.05047561,0.15391877,-0.17422873,0.018920988,-0.00021214735,-0.06661013,-0.24899697,0.15322891,-9.11712,0.83589023,47.705692,-1.105951,-1.668385,-3.3659563,-0.09100233,0.028117225,-0.31496412,25.875,26.6875,25.8125,28.625,29.625,30.0625
0.17005174,-0.8650131,0.13177218,-0.027122565,0.025799498,0.030403769,-0.1556969,-0.37972942,-0.3291218,0.060123153,3.0792563,-0.62246233,-0.00050948886,-0.08066602,-0.010869696,-0.00037649152,-0.0002535306,0.00031797227,0.016406978,0.44368115,-1.4582077,1.9948906,-2.1062958,-1.5706857,2.4170108,-0.051582336,0.15689763,-0.17776693,0.020463308,-0.0002196114,-0.06786744,-0.38307226,0.11492168,-9.097966,0.8179876,47.71286,-1.160816,-1.693589,-3.3772638,-0.08158685,0.03484013,-0.31997156,25.875,26.6875,25.8125,28.625,29.625,30.0625
0.17205195,-1.0697176,0.08667227,0.012778382,0.029091744,0.030871086,-0.15880169,-0.37987775,-0.32914785,0.06013358,3.0792396,-0.6223242,-0.0005048815,-0.08130476,-0.011050578,0.0016546365,-0.0014468282,0.002850039,0.01636546,0.44357312,-1.4579457,1.9945678,-2.106259,-1.5706495,2.4168189,-0.05177697,0.15395474,-0.17965725,0.022499882,-0.0002261789,-0.068020575,-0.45968673,0.1340753,-9.155427,0.9321212,47.717335,-1.1089671,-1.5523883,-3.4338107,-0.08648105,0.028219972,-0.33274698,25.875,26.6875,25.8125,28.625,29.625,30.0625
0.17405209,-1.0640335,0.43735966,-0.10261001,0.019765176,0.03492104,-0.16198413,-0.3800314,-0.32916108,0.06010737,3.079248,-0.62238467,-0.00042982842,-0.08149855,-0.01076337,0.00091989816,-0.00055511895,0.0009514029,0.014947082,0.44345278,-1.4575969,1.9942325,-2.1062224,-1.5706376,2.4167354,-0.052456345,0.15605184,-0.18056038,0.02340442,-0.00022014252,-0.067281075,-0.30645782,0.05746084,-9.174581,0.83589023,47.68062,-1.1487951,-1.6558583,-3.4124753,-0.093789384,0.018119683,-0.37105182,25.875,26.6875,25.8125,28.625,29.625,30.0625
0.1760525,-0.99812436,0.4502129,-0.24028431,0.012212843,0.033866495,-0.16238494,-0.3801825,-0.32917732,0.060110465,3.0792906,-0.62229496,-0.00040935224,-0.082737245,-0.010633601,0.0007619191,-0.00026873173,0.00032220478,0.01666957,0.44335628,-1.457297,1.9938735,-2.1061385,-1.5706495,2.4165778,-0.053775966,0.15861729,-0.18328358,0.024252264,-0.00021366667,-0.070321545,-0.28730422,0.038307227,-9.251195,0.93436235,47.713753,-1.0902762,-1.5425391,-3.42238,-0.08161732,0.020374745,-0.3738454,25.875,26.6875,25.8125,28.625,29.625,30.0625
0.17805162,-0.9985613,0.033765763,-0.41967854,0.01674431,0.03282183,-0.16162662,-0.38037303,-0.32917792,0.060108766,3.0793176,-0.6223401,-0.00042831752,-0.08409414,-0.010700965,0.0009940187,-0.00041959138,0.0006121421,0.014659998,0.443212,-1.4569486,1.9934772,-2.1060789,-1.5706857,2.4164586,-0.054821737,0.16057481,-0.18617971,0.024861889,-0.00020751155,-0.06935606,-0.24899697,0.05746084,-9.270349,0.8627467,47.686886,-1.0986825,-1.5528271,-3.388333,-0.087683536,0.033139378,-0.394188,25.875,26.6875,25.8125,28.625,29.625,30.0625
0.18005176,-1.6800711,-0.7498637,-0.73009336,0.029844372,0.01937083,-0.1465096,-0.3805409,-0.32920653,0.060116068,3.0793223,-0.62224346,-0.00045665068,-0.08437003,-0.010530225,0.0001007456,0.00052846957,-0.0013447854,0.016444566,0.4431158,-1.4566369,1.9931062,-2.1060426,-1.5706857,2.4163017,-0.05534238,0.16325006,-0.18729243,0.02547354,-0.00022372766,-0.07166047,-0.24899697,0.1340753,-9.346964,0.8314132,47.6636,-1.1173395,-1.441014,-3.4483285,-0.07525025,0.012413527,-0.3937889,25.875,26.6875,25.8125,28.625,29.625,30.0625
0.18205182,-1.0568497,-0.3679834,-0.8088777,0.010949814,0.037576847,-0.16693585,-0.38069248,-0.32923383,0.060121477,3.0793347,-0.62214535,-0.00037568316,-0.08519617,-0.010366124,0.00065869803,0.0002200719,-0.0007092383,0.022219297,0.44300744,-1.456325,1.9927229,-2.1059344,-1.5706495,2.4161308,-0.056350008,0.16328336,-0.18883985,0.026283138,-0.0002203639,-0.07844225,-0.3256114,0.1340753,-9.442732,0.800085,47.695843,-1.0857115,-1.4497366,-3.517506,-0.08297359,0.014673136,-0.34959868,25.875,26.6875,25.8125,28.625,29.625,30.0625
0.18405196,-1.1715971,-0.81345487,-0.9934907,-9.391119e-05,0.039878406,-0.15220141,-0.38085106,-0.32924718,0.06010008,3.0793772,-0.62209725,-0.0003381208,-0.08588105,-0.010051735,-0.0006107022,0.0014708737,-0.003296861,0.02160788,0.44289923,-1.4559764,1.9923762,-2.1058981,-1.5706614,2.4159875,-0.057493497,0.16735823,-0.190656,0.02689757,-0.0002470265,-0.07897288,-0.2681506,0.19153613,-9.500193,0.7978386,47.70659,-1.0201218,-1.6928726,-3.4234915,-0.098244324,0.02693414,-0.3487237,25.875,26.6875,25.8125,28.625,29.625,30.0625
0.1860525,-1.2742882,-1.2419374,-1.0946684,-0.009523859,0.037556853,-0.15255089,-0.38104066,-0.32927093,0.0601111,3.0793755,-0.62205607,-0.00032517262,-0.08686848,-0.009936832,-0.0016887913,0.0024333724,-0.0052692103,0.024642821,0.4427669,-1.4556274,1.9919442,-2.1058142,-1.5706495,2.41583,-0.05852481,0.1716128,-0.19304718,0.027229365,-0.0002758874,-0.08303727,-0.22984336,0.17238253,-9.710882,0.7486078,47.70032,-1.041865,-1.663949,-3.4549317,-0.10598807,0.0004990222,-0.3307802,25.875,26.6875,25.8125,28.625,29.625,30.0625
0.18805261,-1.0405256,-1.0665205,-0.9356127,-0.043001268,0.050272394,-0.16221121,-0.38121346,-0.3292887,0.060093056,-3.0794036,0.62196356,0.00027842016,-0.08752537,-0.009724238,-0.0027781068,0.003448939,-0.007374423,0.028440906,0.44264644,-1.4552552,1.9915608,-2.1057665,-1.5706495,2.4156485,-0.059451755,0.17523722,-0.19473538,0.02763007,-0.00029766103,-0.08776096,-0.2681506,0.3256114,-9.80665,0.800085,47.704796,-0.9963579,-1.8364744,-3.5584877,-0.10561868,0.003777341,-0.2600687,25.875,26.6875,25.8125,28.625,29.625,30.0625
0.19005255,-1.2219015,-2.0175946,-1.0623512,-0.030845057,0.047270365,-0.15416418,-0.38138002,-0.32929906,0.06009845,-3.0794287,0.62179226,0.00028942447,-0.08897863,-0.009824326,-0.002738894,0.0035089336,-0.006609888,0.03233871,0.44252616,-1.4549546,1.9912008,-2.105707,-1.5706619,2.4154184,-0.060258232,0.17754436,-0.19736151,0.027283669,-0.0006860279,-0.09246288,-0.19153613,0.34476504,-9.749189,0.83365434,47.711063,-1.0607922,-1.8383925,-3.5296369,-0.119251,0.015620327,-0.19585603,25.875,26.6875,25.8125,28.625,29.625,30.0625
0.1920526,-1.1674232,-1.3178606,-0.9127556,-0.03745779,0.036973305,-0.15016803,-0.3815392,-0.3293253,0.060083706,-3.07943,0.62173414,0.00020415246,-0.09141658,-0.009899491,-0.0018520906,0.0025850553,-0.0043452145,0.033893123,0.44241768,-1.4545949,1.9908179,-2.1056345,-1.5706381,2.4152737,-0.0621431,0.17931315,-0.2013756,0.027089214,-0.00083479047,-0.09589945,-0.21068975,0.3256114,-9.672575,0.86945957,47.68062,-0.9645155,-1.881705,-3.3794813,-0.10197586,0.009550666,-0.13540344,25.875,26.6875,25.8125,28.625,29.625,30.0625
0.19405183,-0.8812662,-1.2596111,-1.0709676,-0.03369878,0.033468824,-0.15807776,-0.3817513,-0.32934648,0.060099777,3.0794713,-0.62158877,-0.00025382414,-0.09293479,-0.009861935,-0.0013526632,0.0018721547,-0.0030700322,0.034330226,0.44226107,-1.4542466,1.9903859,-2.1055996,-1.5706261,2.4150214,-0.06357084,0.18036327,-0.20370653,0.026913058,-0.00073748414,-0.09776306,-0.2681506,0.36391866,-9.672575,0.7463667,47.71465,-0.81947243,-1.8117598,-3.4297674,-0.09989852,-0.0006120484,-0.10088297,25.875,26.6875,25.8125,28.625,29.625,30.0625
0.1960519,-0.624105,-1.0773557,-0.9066985,-0.034901038,0.035995223,-0.14978944,-0.38190997,-0.32934928,0.06007535,-3.079446,0.6214288,0.00023230376,-0.09250858,-0.010548956,-0.0019220312,0.002224016,-0.0038527618,0.03543334,0.4421657,-1.4538865,1.9900273,-2.1055396,-1.5706862,2.4148297,-0.06189145,0.18189041,-0.2041015,0.026633097,-0.00072850066,-0.09718635,-0.2681506,0.40222588,-9.634268,0.8157518,47.72092,-1.0224624,-1.9216928,-3.4862132,-0.07531503,-0.0048484374,-0.067247435,25.875,26.6875,25.8125,28.625,29.625,30.0625
0.19805193,-0.84945595,-1.3608744,-0.7775416,-0.022349387,0.02702454,-0.1505741,-0.38212687,-0.32937494,0.06010014,-3.0794926,0.6213831,0.00030563978,-0.09344342,-0.009808905,-0.0030784423,0.0031389722,-0.005906602,0.030704074,0.44202095,-1.4535385,1.9895724,-2.1054919,-1.5706857,2.414651,-0.06407878,0.18523479,-0.20524983,0.02668513,-0.0006745548,-0.09464349,-0.24899697,0.45968673,-9.576807,0.76874626,47.71017,-0.93071854,-1.8976988,-3.5817251,-0.08073107,0.011830478,-0.05530288,25.875,26.6875,25.8125,28.625,29.625,30.0625
0.20005187,-1.2927504,-1.7458699,-0.92700046,-0.020993654,0.01671385,-0.15074503,-0.38233307,-0.32939497,0.06008974,-3.0795064,0.6213505,0.00031883223,-0.09514156,-0.008510269,-0.0027653156,0.002825308,-0.0053979047,0.023795374,0.4418756,-1.4531429,1.9891528,-2.105479,-1.5706857,2.4144838,-0.067980215,0.1854617,-0.20635475,0.026969397,-0.0006106715,-0.09163588,-0.19153613,0.36391866,-9.500193,0.7642693,47.713753,-0.7863995,-1.7443554,-3.498898,-0.07704102,0.0037099333,-0.08553083,25.875,26.6875,25.8125,28.625,29.625,30.0625
0.20205188,-1.5269372,-1.9824431,-0.71926004,-0.030980447,0.013572666,-0.14423081,-0.38250312,-0.32941192,0.060085397,-3.0795052,0.6212539,0.00027433285,-0.09554274,-0.010064415,-0.0020295256,0.0021882812,-0.0041999626,0.022873204,0.44175667,-1.4527957,1.988757,-2.1053956,-1.5706857,2.414305,-0.065447524,0.18670674,-0.2096448,0.027659435,-0.00055674184,-0.088179335,-0.24899697,0.34476504,-9.461885,0.7978386,47.67166,-0.86584055,-1.7701372,-3.5154185,-0.07098727,-0.002039572,-0.10726915,25.875,26.6875,25.8125,28.625,29.625,30.0625
0.20405197,-0.769708,-1.2512361,-0.5376648,-0.02058513,0.040477663,-0.1519905,-0.38268915,-0.32943776,0.060076397,-3.0795176,0.62110525,0.00026731344,-0.0973121,-0.0101389345,-0.0013937554,0.0015721179,-0.0028746226,0.018509384,0.44164804,-1.4524113,1.9883384,-2.1053474,-1.5706977,2.4141023,-0.06681733,0.18819392,-0.21289463,0.02796007,-0.000574517,-0.08518345,-0.28730422,0.2681506,-9.404425,0.8537928,47.672558,-0.8770057,-1.7419164,-3.5480585,-0.062250152,0.012206335,-0.14658631,25.875,26.6875,25.8125,28.625,29.625,30.0625
0.20605202,-1.364146,-0.6575248,-0.767042,-0.0022819454,0.024325388,-0.14175959,-0.3829016,-0.32943514,0.06007689,-3.0794961,0.6211797,0.00025204904,-0.09848058,-0.009698938,-0.0012680227,0.0014647075,-0.0027387752,0.014154274,0.44145554,-1.4520398,1.9879068,-2.1052759,-1.5706977,2.4139593,-0.06862753,0.18929823,-0.21457268,0.028365381,-0.0005399817,-0.08263771,-0.24899697,0.21068975,-9.308656,0.7911258,47.71286,-0.7934444,-1.6829689,-3.589129,-0.0708553,-0.012813404,-0.18485165,25.875,26.6875,25.8125,28.625,29.625,30.0625
0.20805216,-0.80776876,-0.027091697,-0.36803946,0.017284848,0.024444718,-0.1568611,-0.38312638,-0.3294623,0.060086474,-3.0795176,0.6211271,0.00033474385,-0.10058095,-0.010553615,0.00076046155,-0.00045965012,0.00123508,0.011462462,0.44132334,-1.4516449,1.987439,-2.1052516,-1.5707215,2.413792,-0.06886617,0.18896084,-0.2189867,0.028700097,-0.00050281064,-0.08018244,-0.17238252,0.17238252,-9.289502,0.93436235,47.694054,-0.7614734,-1.5397251,-3.509606,-0.06503023,-0.0064941533,-0.2347756,25.875,26.6875,25.8125,28.625,29.625,30.0625
0.21005215,0.07368111,0.5006554,-0.62991935,0.02038813,0.03750713,-0.16552725,-0.38331643,-0.32951596,0.060092602,-3.0795875,0.62106365,0.00029229044,-0.10145347,-0.010514747,0.00032423664,-7.396896e-06,0.00019617945,0.012452034,0.4412151,-1.4512609,1.9869832,-2.1051915,-1.5706614,2.4136355,-0.06968349,0.19164163,-0.22120059,0.029370265,-0.00047000416,-0.081988044,-0.21068975,0.15322891,-9.32781,0.8851263,47.681515,-0.7492186,-1.4720922,-3.4087906,-0.03933972,-0.011234039,-0.2461133,25.875,26.6875,25.8125,28.625,29.625,30.0625
0.2120522,-0.62404627,0.4459708,-0.62910074,0.038100284,0.011725922,-0.153188,-0.3835058,-0.3295153,0.06006327,-3.0795586,0.6210594,0.00022896915,-0.10238583,-0.010231628,0.00041936463,0.00012650537,-0.00016933131,0.008393184,0.44104695,-1.450865,1.9866003,-2.1051548,-1.5706614,2.4134686,-0.0709939,0.19293128,-0.22317569,0.030443667,-0.0004411907,-0.07923874,-0.28730422,0.13407528,-9.289502,0.86945957,47.713753,-0.76197875,-1.5136518,-3.297965,-0.06318848,-0.012577504,-0.30157173,25.875,26.6875,25.8125,28.625,29.625,30.0625
0.21405211,-1.0374,0.1626973,-0.7251082,0.04054765,0.0057433546,-0.14427605,-0.3836992,-0.32954648,0.06007864,-3.0795693,0.62094724,0.00026647723,-0.10378727,-0.010392879,0.0009845516,-1.0832945e-05,5.4392178e-05,0.007064343,0.4409504,-1.4505048,1.986144,-2.1050708,-1.5706857,2.413301,-0.0719016,0.19470172,-0.22689587,0.03213056,-0.0004157043,-0.078815855,-0.22984336,0.0,-9.308656,0.82022345,47.701214,-0.5453696,-1.4552336,-3.3384194,-0.07797085,-0.010515276,-0.35005963,25.875,26.6875,25.8125,28.625,29.625,30.0625
0.21605217,-1.2673692,-0.12840652,-0.8322419,0.022237957,0.013556074,-0.14517722,-0.38391152,-0.32955682,0.060075764,-3.0795648,0.62104094,0.00019886719,-0.10427298,-0.010657933,0.0003559688,0.001327638,-0.0028438887,0.007183134,0.44075853,-1.4501084,1.9856886,-2.104986,-1.5706495,2.4131684,-0.07179243,0.19863465,-0.2305988,0.035095707,-0.00039300395,-0.07882372,-0.19153613,0.038307227,-9.289503,0.9097417,47.734352,-0.7764174,-1.6523248,-3.324617,-0.1105309,-0.0011984156,-0.35452622,25.875,26.6875,25.8125,28.625,29.625,30.0625
0.21805267,-0.7679206,-0.26954347,-0.76098704,0.011496356,0.038999297,-0.15349653,-0.3841201,-0.32956702,0.060080286,-3.0795186,0.6209961,0.00020920268,-0.105752476,-0.010228487,-0.00030266988,0.0023658678,-0.0051078745,0.0026912875,0.44062582,-1.4497111,1.9852098,-2.1048772,-1.5706977,2.413014,-0.073850274,0.20288013,-0.23436673,0.037105255,-0.00037265592,-0.07638764,-0.22984336,0.15322891,-9.404425,0.8224646,47.72092,-0.6950789,-1.8580914,-3.3508382,-0.13021648,-0.015153477,-0.42633778,25.875,26.6875,25.8125,28.625,29.625,30.0625
0.22005202,-1.082107,-0.9870316,-0.9058483,0.008785707,0.056997273,-0.1511677,-0.3843304,-0.32961714,0.06010236,-3.0796096,0.62093616,0.00021227663,-0.106397875,-0.01056857,-0.0003139702,0.0022027874,-0.0049316734,0.0045835124,0.44049376,-1.4493395,1.9847306,-2.1048176,-1.5706376,2.4128332,-0.07378004,0.20437247,-0.23607841,0.037099924,-0.00030089403,-0.07820871,-0.28730422,0.24899697,-9.442732,0.8493211,47.694946,-0.49801153,-1.8028353,-3.2964783,-0.15081766,-0.027192064,-0.4511176,25.875,26.6875,25.8125,28.625,29.625,30.0625
0.22205219,-1.3429552,-1.1696931,-0.81478906,-0.020562924,0.06480453,-0.15390082,-0.38453,-0.32962364,0.06007626,-3.0795488,0.6208245,0.00016463645,-0.10489427,-0.010431902,-0.0016434864,0.0041077365,-0.0089704655,0.008547539,0.4403623,-1.4488963,1.9842757,-2.1047328,-1.5706857,2.41264,-0.07266227,0.20590112,-0.23532988,0.03928418,-0.00030230384,-0.08105585,-0.24899697,0.28730422,-9.404425,1.005978,47.674347,-0.77900684,-1.7790389,-3.4474406,-0.1773618,-0.008729687,-0.46362728,25.875,26.6875,25.8125,28.625,29.625,30.0625
0.22405228,-1.6950911,-1.0207236,-0.8345927,-0.029997973,0.05428154,-0.15131344,-0.38475075,-0.32964393,0.060088906,-3.0795803,0.62084705,0.00014172013,-0.10525835,-0.0100826975,-0.0030442367,0.0055111093,-0.011938484,0.013196047,0.44018197,-1.4485115,1.9837974,-2.1046488,-1.5706495,2.41247,-0.07356095,0.20977467,-0.2367119,0.04007823,-0.0003091976,-0.08660201,-0.2681506,0.2681506,-9.346964,0.9365982,47.66271,-0.71970564,-1.6727954,-3.52185,-0.20340413,-0.01744537,-0.4619574,25.875,26.6875,25.8125,28.625,29.625,30.0625
0.22605255,-1.6602564,-1.4824263,-0.9776141,-0.017913586,0.0375999,-0.1475409,-0.38493854,-0.32963586,0.06005738,-3.0795004,0.62080866,5.3442527e-05,-0.10476986,-0.009952582,-0.0036703525,0.006442973,-0.013865623,0.018083483,0.44002622,-1.4480921,1.9833788,-2.104553,-1.5706857,2.4123008,-0.073300675,0.21080199,-0.23678094,0.041256886,-0.00033957142,-0.09122936,-0.34476504,0.22984336,-9.3661175,0.8179876,47.68062,-0.7852497,-1.5665836,-3.6517003,-0.23062539,-0.040449284,-0.41550046,25.875,26.6875,25.8125,28.625,29.625,30.0625
0.22805256,-1.4205415,-1.4089161,-0.7318442,-0.026651759,0.031934693,-0.15158394,-0.3851741,-0.32967845,0.060079273,-3.079571,0.62066495,7.337337e-05,-0.105314955,-0.010505387,-0.0026362212,0.0057370956,-0.012298797,0.02400889,0.43988228,-1.4476728,1.9828404,-2.1044686,-1.5706614,2.4120586,-0.07267548,0.21021079,-0.23876621,0.04211696,-0.00036958678,-0.096528925,-0.2873042,0.40222588,-9.346964,0.8247004,47.672558,-0.8035929,-1.5811999,-3.7064059,-0.25879943,-0.03997223,-0.39504355,25.875,26.6875,25.8125,28.625,29.625,30.0625
0.23005264,-1.0236564,-1.3762828,-0.8083359,-0.016595991,0.022098636,-0.15355,-0.38541588,-0.3296913,0.06010153,-3.0795739,0.62064075,0.00019463696,-0.10733831,-0.011305685,-0.0023274878,0.0050980635,-0.009781504,0.032437064,0.43972638,-1.4472885,1.9823488,-2.1044219,-1.5707101,2.4118876,-0.072574854,0.2131167,-0.24238111,0.04027201,-0.0008708619,-0.10485303,-0.15322891,0.40222588,-9.3661175,0.85155696,47.66987,-0.8640108,-1.6331723,-3.624733,-0.2617092,-0.0323697,-0.2920015,25.875,26.6875,25.8125,28.625,29.625,30.0625
0.2320517,-0.72742385,-1.3681456,-0.7910007,-0.014155467,0.013388057,-0.15238623,-0.3856123,-0.3297368,0.060072947,-3.0796146,0.62041754,5.704113e-05,-0.10858993,-0.0119501455,-0.002286373,0.0043088426,-0.008298605,0.03574498,0.43960643,-1.4468088,1.9818581,-2.1043384,-1.5706619,2.4116235,-0.072472,0.21518278,-0.24452195,0.038673483,-0.00080512936,-0.10805643,-0.15322891,0.4213795,-9.404425,0.88289046,47.682407,-0.9015813,-1.6101644,-3.6714664,-0.27177653,-0.039311536,-0.25036442,25.875,26.6875,25.8125,28.625,29.625,30.0625
0.23405173,-0.106475174,-1.1174011,-0.527137,-0.036075115,0.02781189,-0.15921736,-0.38581774,-0.32972172,0.060054336,-3.079527,0.62035793,6.1159776e-06,-0.109836966,-0.012554539,-0.0021817377,0.004190803,-0.0080709355,0.039310955,0.43943858,-1.4463885,1.9814028,-2.1042187,-1.570722,2.41143,-0.07238407,0.21795514,-0.24806961,0.0391855,-0.00081273186,-0.111532316,-0.11492168,0.45968673,-9.3661175,0.8985519,47.70211,-0.9419671,-1.678668,-3.5060706,-0.25702885,-0.027588114,-0.1984559,25.875,26.6875,25.8125,28.625,29.625,30.0625
0.23605196,-0.6415427,-1.3125937,-0.62230396,-0.035566293,0.007762173,-0.15089254,-0.38606223,-0.32975492,0.06005116,-3.079568,0.6202896,-2.9095438e-06,-0.11139208,-0.013098484,-0.0009832853,0.0032427993,-0.0062711653,0.039539505,0.4392703,-1.4459212,1.9808754,-2.10417,-1.5706981,2.411214,-0.07272819,0.21868362,-0.25199082,0.04034848,-0.0007262494,-0.11210336,0.05746084,0.45968673,-9.270349,0.8940802,47.692257,-0.8894905,-1.6917872,-3.4806845,-0.287691,-0.042584643,-0.17763326,25.875,26.6875,25.8125,28.625,29.625,30.0625
0.2380519,-0.56583905,-1.3068696,-0.7736448,-0.029961724,0.00039398624,-0.1421224,-0.38628688,-0.32980055,0.060067616,-3.0796177,0.62016606,1.5236096e-05,-0.11289206,-0.013347482,-0.0007421192,0.002842106,-0.00541667,0.03778569,0.43915024,-1.4455007,1.9803475,-2.1040866,-1.5706862,2.411011,-0.073518336,0.22078444,-0.25497016,0.04028476,-0.000731543,-0.11113791,0.05746084,0.34476504,-9.232041,0.86945957,47.691364,-0.9836813,-1.7843678,-3.3587275,-0.3246578,-0.022855418,-0.14960366,25.875,26.6875,25.8125,28.625,29.625,30.0625
0.24005187,-0.06056931,-1.015657,-0.5371307,-0.03102695,0.011408098,-0.1493986,-0.3865179,-0.32981256,0.060052067,-3.0795965,0.6200288,4.254863e-06,-0.11535056,-0.0142378025,0.00097324623,0.0006560559,-0.0009346208,0.03352173,0.43899396,-1.445034,1.9798435,-2.104015,-1.5707215,2.410772,-0.07399436,0.221196,-0.2591845,0.039097887,-0.0006738805,-0.1073476,0.019153614,0.34476504,-9.232041,0.93436235,47.67614,-0.9747634,-1.7091912,-3.3199377,-0.3186208,-0.041847914,-0.17314842,25.875,26.6875,25.8125,28.625,29.625,30.0625
0.24205197,0.037401028,-0.48655957,-0.8068358,-0.026192822,0.0069790003,-0.15105137,-0.38673696,-0.32983813,0.060047857,-3.079608,0.6199378,-1.2257982e-05,-0.11636349,-0.014401711,0.0012897258,2.1085349e-05,0.00034266166,0.028300311,0.43884996,-1.4446025,1.9793528,-2.1039436,-1.5707215,2.4105701,-0.07453116,0.22193782,-0.26067835,0.038424578,-0.0006474841,-0.102662124,0.019153614,0.40222588,-9.251195,0.88289046,47.701214,-0.9708617,-1.4731636,-3.235324,-0.2932629,-0.039869916,-0.22118461,25.875,26.6875,25.8125,28.625,29.625,30.0625
0.24405198,-0.33773845,-1.3505534,-0.99673057,-0.00016741094,0.007303251,-0.1332333,-0.386976,-0.32988146,0.060048312,-3.0796492,0.6198708,-2.0401836e-05,-0.11722448,-0.01440821,0.0012413437,-0.00030061873,0.0008461707,0.024257576,0.43870562,-1.444135,1.9788135,-2.103884,-1.5706977,2.4103792,-0.0752532,0.22313547,-0.2618762,0.037835,-0.00057243946,-0.0993408,-0.019153614,0.40222588,-9.423578,0.8627467,47.703903,-0.95094633,-1.5894961,-3.3460808,-0.32927185,-0.037289508,-0.26125267,25.875,26.6875,25.8125,28.625,29.625,30.0625
0.246052,-0.34660822,-1.0984308,-0.8788983,-0.028184323,0.016678972,-0.1492353,-0.3872223,-0.32989398,0.060056735,-3.079629,0.6198284,1.1635525e-05,-0.11818679,-0.014855474,0.0015466952,-0.00081352337,0.0017767766,0.02344669,0.43853772,-1.4436918,1.9782752,-2.1037881,-1.5707334,2.4101877,-0.07523963,0.22443484,-0.26409405,0.037689585,-0.0005081544,-0.098515205,0.05746084,0.4213795,-9.461885,0.89631605,47.691364,-1.0062184,-1.4740436,-3.4983683,-0.3267257,-0.034792766,-0.30739927,25.875,26.6875,25.8125,28.625,29.625,30.0625
0.24805203,-0.7534136,-1.6517174,-0.9556179,-0.03041374,0.016245183,-0.14691748,-0.38745078,-0.32991713,0.060032107,-3.0796223,0.61971134,-5.4008942e-05,-0.11804822,-0.01426296,-0.0014165281,0.0015821713,-0.0033115745,0.02303765,0.4383814,-1.4431982,1.9777607,-2.1037161,-1.5707334,2.4099596,-0.076138146,0.23046213,-0.2641005,0.037292894,-0.0005232639,-0.099003814,0.019153614,0.38307226,-9.385271,0.8940802,47.72808,-1.0094762,-1.6217899,-3.5499825,-0.3233051,-0.033219066,-0.31540596,25.875,26.6875,25.8125,28.625,29.625,30.0625
0.25005215,-0.46916643,-1.418714,-0.78363776,-0.035326723,0.029819982,-0.15255828,-0.38765612,-0.3299727,0.060026668,-3.0796795,0.619587,-0.00011540561,-0.11858569,-0.014901426,-0.0023407403,0.001915492,-0.0041057444,0.023957765,0.43827355,-1.4427537,1.9772576,-2.103645,-1.5706857,2.4097672,-0.07539526,0.23402838,-0.26588118,0.036372576,-0.00049572124,-0.09917954,-0.076614454,0.30645782,-9.3661175,0.900793,47.71554,-1.029162,-1.6908171,-3.5812888,-0.31770346,-0.047112904,-0.34711805,25.875,26.6875,25.8125,28.625,29.625,30.0625
0.2520523,-0.56395274,-1.56244,-0.7600004,-0.015548043,0.02592828,-0.13957576,-0.3878906,-0.32998317,0.06000697,-3.0796506,0.61956435,-0.00012430752,-0.12113245,-0.014446182,-0.0021055883,0.0011435008,-0.0025813761,0.019500738,0.43810466,-1.4422863,1.9767665,-2.1035974,-1.5707096,2.409588,-0.0784021,0.2364573,-0.2690284,0.035380755,-0.0004552366,-0.09772733,-0.019153614,0.3256114,-9.385271,0.86945957,47.67614,-0.97855264,-1.822016,-3.613367,-0.3020855,-0.04625248,-0.37284717,25.875,26.6875,25.8125,28.625,29.625,30.0625
0.25405225,-0.8056004,-0.9400018,-0.82554764,0.00083188724,0.0058945855,-0.14424679,-0.38813472,-0.33003157,0.060003746,-3.0797038,0.619495,-0.0001728236,-0.12106138,-0.015909966,-0.002202022,0.00073736627,-0.0016924478,0.024737146,0.43794978,-1.4417942,1.9762043,-2.1035254,-1.5706614,2.4093835,-0.07556693,0.23804156,-0.27043927,0.034234736,-0.00047126738,-0.1001275,-0.019153614,0.36391866,-9.481039,0.89631605,47.687782,-1.1232008,-1.7557352,-3.4926386,-0.27804556,-0.045137316,-0.37586692,25.875,26.6875,25.8125,28.625,29.625,30.0625
0.25605232,-0.051785298,-0.1972823,-0.6977581,-0.010693524,0.013327479,-0.15156434,-0.38837892,-0.3300596,0.05999798,-3.0796933,0.6193764,-0.00018258135,-0.1225488,-0.016184384,-0.0026637716,0.0007426237,-0.0017708434,0.023967791,0.43780535,-1.4413015,1.9756416,-2.1034305,-1.5706857,2.4091668,-0.07629836,0.24165763,-0.27343854,0.03368878,-0.00045329853,-0.10008753,-0.038307227,0.30645782,-9.385271,0.8806493,47.737934,-1.1626452,-1.9694059,-3.532609,-0.261687,-0.056674536,-0.4171381,25.875,26.6875,25.8125,28.625,29.625,30.0625
0.25805175,-0.4279034,-0.60185343,-0.6387462,0.0038492042,0.010406284,-0.15187962,-0.3886267,-0.3300976,0.060003728,-3.0797396,0.6192679,-0.00023039964,-0.12569898,-0.01607569,-0.00051821885,-0.0016614479,0.0032652922,0.028692627,0.43763635,-1.440823,1.9750656,-2.1033227,-1.5706495,2.4089246,-0.07916972,0.2408999,-0.27741095,0.032841563,-0.00042383175,-0.1076818,-0.05746084,0.38307226,-9.270349,0.8851263,47.711063,-0.97951293,-1.8009452,-3.5411334,-0.24859366,-0.06587508,-0.363199,25.875,26.6875,25.8125,28.625,29.625,30.0625
0.26005182,-0.33748806,-0.47682497,-0.8046701,-0.0033423975,0.02130734,-0.15602665,-0.38888428,-0.33011553,0.059999943,-3.0797172,0.6191629,-0.00013373808,-0.12672776,-0.017938012,0.00075545005,-0.0030390208,0.0062470683,0.035202898,0.43749353,-1.4403439,1.9745268,-2.103287,-1.5707215,2.4087195,-0.076553546,0.24184799,-0.28145796,0.032647762,-0.0004462095,-0.111573756,-0.21068975,0.34476504,-9.289502,0.8291774,47.691364,-1.2418034,-1.7530764,-3.4438975,-0.21316537,-0.06295151,-0.32790625,25.875,26.6875,25.8125,28.625,29.625,30.0625
0.26205188,-1.1458435,-1.228212,-0.7773305,-0.021180268,0.028805284,-0.15043113,-0.3891178,-0.33017492,0.059985366,-3.079778,0.6190372,-0.00022137201,-0.12731609,-0.017274521,0.00055452023,-0.00288312,0.005865188,0.040089667,0.43736073,-1.4398288,1.9739636,-2.103215,-1.5706614,2.408501,-0.07822496,0.24237072,-0.28174898,0.03283419,-0.00042934023,-0.11813203,-0.34476504,0.36391866,-9.32781,0.8537928,47.701214,-1.1566628,-1.6889725,-3.543963,-0.2264657,-0.06087373,-0.2720258,25.875,26.6875,25.8125,28.625,29.625,30.0625
0.26405182,-2.0235262,-1.6583495,-0.7047005,-0.0436072,0.047370497,-0.14605506,-0.38934985,-0.3301863,0.059965983,-3.0797524,0.61887586,-0.0002489499,-0.12888508,-0.017676288,0.00037433134,-0.002817855,0.0055904873,0.044717006,0.43720463,-1.4393483,1.9734477,-2.1031315,-1.5706977,2.4082477,-0.078804374,0.24606287,-0.2857388,0.033403374,-0.00038562008,-0.12333652,-0.40222588,0.3256114,-9.346964,0.8717007,47.672558,-1.1835508,-1.7049787,-3.4693484,-0.2173453,-0.07494406,-0.2001661,25.875,26.6875,25.8125,28.625,29.625,30.0625
0.2660518,-1.5542805,-1.7585421,-0.9924849,-0.043415274,0.08143916,-0.14984691,-0.38960323,-0.33021846,0.05995469,-3.0797818,0.61870646,-0.00029344833,-0.12955678,-0.017930035,0.0013029294,-0.003295036,0.0066511305,0.047474936,0.43703666,-1.4388331,1.9728736,-2.1030471,-1.5706857,2.4079707,-0.0788268,0.2457064,-0.2878887,0.03474823,-0.0004068054,-0.12611632,-0.49799395,0.36391866,-9.423578,0.8112748,47.66987,-1.246424,-1.6484458,-3.3883812,-0.21261388,-0.0778127,-0.12819293,25.875,26.6875,25.8125,28.625,29.625,30.0625
0.26805192,-2.1017842,-1.4154388,-0.7140307,-0.05337369,0.10078627,-0.14844823,-0.3898847,-0.3302394,0.059958965,-3.0797715,0.6186478,-0.0002475582,-0.13180202,-0.016960036,0.0017058331,-0.0037709738,0.007631325,0.045554023,0.43685532,-1.4383178,1.9722637,-2.1029632,-1.5707215,2.4077544,-0.0824679,0.24700817,-0.29043227,0.034895863,-0.00039329188,-0.12783529,-0.7278373,0.34476504,-9.423578,0.86945957,47.70211,-1.1235598,-1.6102965,-3.5768719,-0.20669767,-0.08328058,-0.116829716,25.875,26.6875,25.8125,28.625,29.625,30.0625
0.27005196,-2.7562652,-1.4921179,-0.84689635,-0.029964115,0.093707584,-0.14178097,-0.39014757,-0.33028698,0.059957232,-3.0798707,0.6184764,-0.0002744754,-0.13183485,-0.018085051,0.0013646659,-0.004139853,0.008486373,0.04282482,0.4366762,-1.4378141,1.9716886,-2.102916,-1.5706614,2.4074562,-0.08033103,0.24861896,-0.29118133,0.03311168,-0.00042049433,-0.12296839,-0.7278373,0.26815057,-9.442732,0.84708,47.72002,-1.289353,-1.5890458,-3.5816445,-0.16596419,-0.08166167,-0.116066806,25.875,26.6875,25.8125,28.625,29.625,30.0625
0.27205235,-1.4845303,-0.705272,-0.8710691,-0.012520309,0.11058085,-0.14867401,-0.3903966,-0.33033815,0.059942983,-3.0798995,0.61833215,-0.00027801373,-0.13331805,-0.017311383,0.0005649149,-0.0036084203,0.0072961696,0.036256585,0.43655515,-1.4372861,1.9711145,-2.1028678,-1.5706614,2.4072418,-0.08297234,0.25183344,-0.29311043,0.033130005,-0.00040101274,-0.119040266,-0.7086837,0.21068975,-9.385271,0.8873621,47.683304,-1.2415785,-1.6182356,-3.6466403,-0.13750318,-0.069526084,-0.1377965,25.875,26.6875,25.8125,28.625,29.625,30.0625
0.2740517,-1.5002915,-0.15047014,-0.695379,0.0016309693,0.09551972,-0.14347924,-0.39070794,-0.3303647,0.059969287,-3.0798979,0.6183153,-0.00013259157,-0.13414197,-0.017211074,-0.00024161313,-0.003083014,0.0061302967,0.031097025,0.43637493,-1.4367702,1.9704555,-2.1027963,-1.5707215,2.4070518,-0.08379038,0.25490242,-0.29483807,0.033060916,-0.00037745223,-0.11469768,-0.7469909,0.11492168,-9.404425,0.9186956,47.68062,-0.9773484,-1.7147852,-3.7455153,-0.11730939,-0.09145212,-0.19982761,25.875,26.6875,25.8125,28.625,29.625,30.0625
0.2760518,-0.88018906,0.20125875,-0.7693186,0.02996581,0.070721194,-0.14829248,-0.39096174,-0.33042032,0.059946954,-3.0799723,0.6181968,-0.00018928714,-0.13613862,-0.017937321,0.00062595657,-0.0040274905,0.008177059,0.026925404,0.4362188,-1.4362301,1.969891,-2.1027725,-1.5706614,2.4068127,-0.084087096,0.2569827,-0.29934588,0.03324171,-0.00039363417,-0.11082038,-0.51714754,0.038307227,-9.385271,0.9835985,47.684196,-1.1362585,-1.7981628,-3.6492057,-0.09893712,-0.105423495,-0.24298891,25.875,26.6875,25.8125,28.625,29.625,30.0625
0.27805197,-0.89257336,0.6432779,-0.8478693,0.046397794,0.04201498,-0.143306,-0.39124152,-0.33045095,0.059930395,-3.0799952,0.6181268,-0.00020562675,-0.13720453,-0.017461304,0.00010664413,-0.0031985482,0.00637586,0.02287429,0.4360263,-1.4356775,1.9692935,-2.1027243,-1.5706495,2.406574,-0.08579025,0.25995308,-0.3020411,0.034950964,-0.00038435613,-0.10847124,-0.53630114,0.05746084,-9.3661175,0.8985519,47.68599,-1.0507293,-1.9011031,-3.5315728,-0.07694767,-0.09794538,-0.29279953,25.875,26.6875,25.8125,28.625,29.625,30.0625
0.28005192,-0.61168224,0.5461887,-0.9452266,0.049129635,0.030466653,-0.14268385,-0.39152682,-0.3304605,0.059953026,-3.0799665,0.618122,-7.971023e-05,-0.13833874,-0.016897598,0.00045908146,-0.0029923306,0.0062881117,0.01887594,0.43584573,-1.4352106,1.9686946,-2.1026394,-1.5707215,2.4063945,-0.0876116,0.26076338,-0.3042272,0.03648654,-0.00052870513,-0.10629335,-0.5363012,0.05746084,-9.308657,0.8806493,47.66808,-0.98288405,-1.9203746,-3.476419,-0.049303092,-0.10379809,-0.34665295,25.875,26.6875,25.8125,28.625,29.625,30.0625
0.282052,-0.41238332,0.40484992,-1.0550034,0.03217798,0.03018407,-0.14316697,-0.39179692,-0.3305037,0.059920125,-3.0799901,0.6180704,-0.00021425483,-0.13989893,-0.016802184,0.00022995283,-0.0029701684,0.006390839,0.015712492,0.43565336,-1.4346107,1.9680723,-2.102556,-1.5706614,2.4061673,-0.08898305,0.26357952,-0.30701613,0.036382478,-0.00060324406,-0.10449961,-0.4405331,0.076614454,-9.5385,0.8493211,47.694946,-0.9003175,-1.8500338,-3.5582154,-0.05172401,-0.0975717,-0.4008137,25.875,26.6875,25.8125,28.625,29.625,30.0625
0.2840521,-0.35933086,-0.20160756,-0.94914806,0.0017341689,0.049509063,-0.15105727,-0.3920817,-0.33052352,0.05990851,-3.0799465,0.6180441,-0.00016068998,-0.14097388,-0.015938966,4.5881927e-05,-0.002230845,0.004913885,0.012090308,0.43548456,-1.4340594,1.967461,-2.102495,-1.5707215,2.405988,-0.09136395,0.2653782,-0.30924192,0.038454745,-0.0006492501,-0.10325757,-0.4405331,0.076614454,-9.442732,0.94331104,47.66987,-0.8570283,-1.9065554,-3.5786572,-0.032536127,-0.09787487,-0.4706104,25.875,26.6875,25.8125,28.625,29.625,30.0625
0.28605202,-1.4148642,-1.2297357,-1.152628,-0.019217545,0.033140976,-0.13793992,-0.39235842,-0.3305501,0.059914615,-3.079955,0.6179487,-0.00015301182,-0.14187276,-0.015084226,0.00013523665,-0.00047619612,0.0034507865,0.011598799,0.43530396,-1.4335436,1.9668382,-2.1023858,-1.5707339,2.4057472,-0.09296782,0.2669582,-0.31213504,0.04183662,-0.0016213434,-0.10436755,-0.2873042,0.05746084,-9.500193,0.8851263,47.711964,-0.76569355,-1.9366282,-3.4859896,-0.047686704,-0.10777435,-0.5108111,25.875,26.6875,25.8125,28.625,29.625,30.0625
0.28805196,-0.31121504,-0.6409717,-0.93481064,-0.034911722,0.06483195,-0.15593584,-0.39264557,-0.33059686,0.05992803,-3.0799937,0.6179156,-0.000119546276,-0.14310955,-0.015229469,0.00041752466,4.747991e-05,0.0037405405,0.0150112035,0.43513596,-1.4330163,1.9661912,-2.1023018,-1.5707225,2.405554,-0.09327628,0.26903695,-0.3155677,0.043151338,-0.002219243,-0.10808594,-0.1340753,0.1340753,-9.442732,0.9992599,47.70838,-0.7411617,-1.80287,-3.439424,-0.060093213,-0.07668722,-0.5003129,25.875,26.6875,25.8125,28.625,29.625,30.0625
0.29005212,-0.89419353,-0.67476475,-1.1303858,-0.014556942,0.049516328,-0.1542891,-0.3929267,-0.3306079,0.05991667,-3.0799832,0.61790776,-0.00017954626,-0.14267738,-0.014600389,-4.0733354e-05,0.0005375029,0.002266517,0.024546081,0.43490764,-1.4324769,1.9655813,-2.1021936,-1.5707105,2.4053226,-0.094064355,0.26882076,-0.31459147,0.04393367,-0.0020445294,-0.11841013,-0.1340753,0.17238252,-9.500193,0.87617236,47.70211,-0.66754985,-1.9323335,-3.5101953,-0.07064913,-0.085833475,-0.44117123,25.875,26.6875,25.8125,28.625,29.625,30.0625
0.29205218,-1.303233,-0.76158214,-1.4001744,0.0063315555,0.028299734,-0.13667035,-0.39320847,-0.33064142,0.059892554,-3.0799792,0.6177881,-0.0002429322,-0.14373739,-0.014816265,0.0008177038,-0.0004933359,0.0038763378,0.029994192,0.43472752,-1.4318783,1.9649361,-2.1020982,-1.5707101,2.4050686,-0.09463972,0.26869777,-0.31662908,0.04419834,-0.0017985905,-0.12443331,-0.1340753,0.15322891,-9.5385,0.8717007,47.72092,-0.6690484,-1.7540317,-3.597793,-0.05785034,-0.0970379,-0.38013393,25.875,26.6875,25.8125,28.625,29.625,30.0625
0.29405254,-0.40846127,-0.6108165,-1.0999874,0.008074373,0.044613026,-0.15028983,-0.39351672,-0.33067414,0.059934843,-3.0800269,0.61769587,-8.883072e-05,-0.1453601,-0.015594341,0.0020302702,-0.0018311322,0.0058927424,0.03913068,0.43454766,-1.4313982,1.9642757,-2.1020138,-1.5707463,2.4048257,-0.09474394,0.26962477,-0.3207547,0.044997375,-0.0014302379,-0.13367297,-0.11492168,0.17238252,-9.519346,0.8806493,47.72808,-0.6917591,-1.8023267,-3.6085286,-0.024095811,-0.10798246,-0.27115726,25.875,26.6875,25.8125,28.625,29.625,30.0625
0.2960527,-0.4972225,-0.4165645,-1.050811,0.008646708,0.037076235,-0.14648287,-0.39381585,-0.33070028,0.059921764,-3.0800538,0.6175432,-0.00013260658,-0.1451538,-0.016050007,0.0010580266,-0.0010938628,0.0038662862,0.045559317,0.43433192,-1.430811,1.9636177,-2.1019185,-1.5707339,2.4045117,-0.0937477,0.27239797,-0.3219636,0.045581833,-0.0012507718,-0.13910504,-0.17238252,0.19153613,-9.519346,0.900793,47.72092,-0.76292986,-1.7116845,-3.6076612,-0.018801354,-0.10517746,-0.21177697,25.875,26.6875,25.8125,28.625,29.625,30.0625
0.29805198,-0.47248596,-0.4373126,-1.146181,0.006093139,0.033143442,-0.1467996,-0.39409748,-0.33073974,0.05991374,-3.0800939,0.6173776,-0.000121680045,-0.14594164,-0.016051522,0.000747195,-0.0004933126,0.002721212,0.047696024,0.43416363,-1.4302589,1.9629954,-2.101858,-1.5707339,2.4042354,-0.09428141,0.27492243,-0.32457703,0.04696216,-0.0013150077,-0.14177424,-0.05746084,0.17238252,-9.500193,0.8179876,47.701214,-0.7168888,-1.7623584,-3.6513205,-0.029195506,-0.09747961,-0.148986,25.875,26.6875,25.8125,28.625,29.625,30.0625
0.30005202,0.042231854,-0.6014809,-0.9947558,0.007826618,0.041295957,-0.15181127,-0.3943839,-0.33075705,0.059910048,-3.0800788,0.617298,-0.00015679149,-0.14695245,-0.015160662,0.00044170688,0.00069293985,0.001004146,0.044713594,0.43395922,-1.4297075,1.9623474,-2.1017253,-1.5707463,2.4039836,-0.096429646,0.2770355,-0.32695034,0.04927877,-0.001673558,-0.14093864,0.038307227,0.22984336,-9.423578,0.84484416,47.703007,-0.7766775,-1.798661,-3.6125379,-0.045947716,-0.09412053,-0.13200277,25.875,26.6875,25.8125,28.625,29.625,30.0625
0.30205214,-0.22357145,-0.8009634,-1.0055194,0.001119242,0.016602622,-0.13939333,-0.3947005,-0.3307936,0.059931457,-3.0801098,0.6170975,-8.335898e-05,-0.14627261,-0.016103407,-7.784904e-05,0.0025066277,-0.0014329948,0.038554072,0.43377998,-1.4291433,1.9616297,-2.1016042,-1.5707825,2.4036758,-0.093632475,0.27974096,-0.32966277,0.05225828,-0.0022875005,-0.1319801,0.0,0.34476504,-9.500193,0.83365434,47.704796,-0.75491786,-1.8323399,-3.582087,-0.07570988,-0.09467356,-0.19732384,25.875,26.6875,25.8125,28.625,29.625,30.0625
0.3040523,0.038584042,-0.9864941,-0.9809617,-0.011989453,0.01412401,-0.1442143,-0.39498726,-0.33085215,0.05994305,-3.0801945,0.6169823,-8.490072e-05,-0.14727882,-0.015423994,-0.0005851385,0.0040027997,-0.003843925,0.032177757,0.43361136,-1.4286038,1.9609708,-2.1015198,-1.5707344,2.403425,-0.09540787,0.28285128,-0.3328411,0.055150833,-0.0026275348,-0.12737751,-0.05746084,0.36391866,-9.404425,0.91198283,47.70032,-0.8430804,-1.9158015,-3.5798712,-0.08956765,-0.07943499,-0.25652683,25.875,26.6875,25.8125,28.625,29.625,30.0625
0.30605236,0.26647645,-0.9379325,-0.96650547,-0.02256262,0.011728801,-0.14295866,-0.39530244,-0.33086732,0.05993979,-3.080201,0.61694676,-9.0007736e-05,-0.14773107,-0.015015281,-0.0009462205,0.005533323,-0.005727266,0.028285354,0.4333712,-1.4280276,1.9603008,-2.101423,-1.5707344,2.4031622,-0.09602981,0.28498995,-0.3351864,0.05771171,-0.0032260201,-0.12410539,-0.019153614,0.34476504,-9.442732,0.8493211,47.71554,-0.639663,-1.8999453,-3.6098614,-0.12957945,-0.081132755,-0.30167425,25.875,26.6875,25.8125,28.625,29.625,30.0625
0.30805242,-0.14714906,-1.8028342,-1.234848,-0.023947801,0.0071356785,-0.14078888,-0.39559716,-0.33087963,0.059915803,-3.0801234,0.6169684,-0.00014949209,-0.14805995,-0.014736151,-0.00049420766,0.0071343128,-0.0058040842,0.028387273,0.43316728,-1.4274168,1.9596304,-2.1012905,-1.5707711,2.402982,-0.09578122,0.28526175,-0.33727688,0.060272414,-0.0046561607,-0.12395581,0.15322891,0.4213795,-9.385271,0.8784135,47.72271,-0.817078,-1.8387095,-3.5210261,-0.16814537,-0.07031554,-0.32633513,25.875,26.6875,25.8125,28.625,29.625,30.0625
0.31005254,-0.06996493,-1.6629977,-0.5863594,-0.04024801,0.020329384,-0.14161277,-0.39589137,-0.33093113,0.059932817,-3.0801742,0.6167855,-0.000121787496,-0.148648,-0.015027902,-0.0001647437,0.0077570244,-0.005700515,0.028737739,0.43301177,-1.4268651,1.9589361,-2.1011703,-1.5707716,2.4027064,-0.09525766,0.28648457,-0.33993545,0.061877165,-0.005265448,-0.1237809,0.076614454,0.38307226,-9.3661175,0.90527004,47.737934,-0.8619013,-1.8357574,-3.5766816,-0.18983075,-0.032475553,-0.3428268,25.875,26.6875,25.8125,28.625,29.625,30.0625
0.31205168,0.06658584,-1.0710491,-0.6682305,-0.02780313,0.021780362,-0.14562179,-0.39618644,-0.33092612,0.059902392,-3.080093,0.6167115,-0.00020027936,-0.14949092,-0.015633253,0.0015336429,0.0072068144,-0.0029058757,0.029555662,0.43278366,-1.4262551,1.9582781,-2.1010263,-1.5708193,2.4024427,-0.09431147,0.28514916,-0.3427823,0.063287385,-0.0059547694,-0.12365031,0.0,0.38307226,-9.270349,0.86945957,47.701214,-0.8738611,-1.6156673,-3.5097306,-0.23701037,-0.05029235,-0.37772816,25.875,26.6875,25.8125,28.625,29.625,30.0625
0.3140519,0.45871913,-0.7463398,-0.91117704,-0.0009954878,0.024112297,-0.15372516,-0.39647928,-0.33096913,0.059912927,-3.0801406,0.616624,-0.00023545478,-0.15022081,-0.014455419,0.0007872942,0.007598236,-0.004723376,0.029045476,0.43259066,-1.4257033,1.9575952,-2.1008947,-1.5707835,2.4021895,-0.09722875,0.28664187,-0.34306383,0.063892014,-0.00554945,-0.1260582,0.1340753,0.38307226,-9.32781,0.9321212,47.670765,-0.8013867,-1.6195786,-3.5358582,-0.25018775,0.00054488285,-0.37649855,25.875,26.6875,25.8125,28.625,29.625,30.0625
0.31605205,0.6089912,-0.22114329,-0.7104791,-0.011900587,0.017581228,-0.1537522,-0.39677984,-0.3310286,0.05993894,-3.0801938,0.6164761,-0.0001255483,-0.14966658,-0.016190488,0.0006189265,0.0072034304,-0.0048237983,0.037205234,0.43246007,-1.4251641,1.9569019,-2.1008108,-1.5708073,2.4019604,-0.09378097,0.2882778,-0.3446631,0.063775145,-0.005146003,-0.1307705,0.2681506,0.28730422,-9.3661175,0.8717007,47.696735,-1.0599898,-1.5309825,-3.6902857,-0.26827976,0.004682645,-0.33268243,25.875,26.6875,25.8125,28.625,29.625,30.0625
0.31805217,0.6393388,-0.43763104,-0.73324573,-0.0068405233,0.0037787233,-0.15030897,-0.39709312,-0.33105925,0.05993228,-3.0802035,0.61633986,-0.00019921329,-0.15253088,-0.015699264,0.002284289,0.0051146555,-0.00218605,0.04083373,0.4322429,-1.4245405,1.9561704,-2.1006548,-1.5707949,2.4016573,-0.09747813,0.28834212,-0.34892118,0.064695306,-0.0043715253,-0.13809569,0.1340753,0.3256114,-9.308657,0.9231726,47.687782,-0.9659421,-1.6192039,-3.7326555,-0.2954101,0.009512052,-0.27960044,25.875,26.6875,25.8125,28.625,29.625,30.0625
0.32005224,0.71429294,0.009368962,-0.7945442,-0.01574036,0.0027578895,-0.14694071,-0.39740652,-0.33107382,0.059943177,-3.080206,0.61621934,-0.00015302745,-0.15341638,-0.01798831,0.0010559387,0.0039398726,-0.0018642119,0.05101389,0.43202806,-1.4239881,1.9554881,-2.100536,-1.5708307,2.4013674,-0.09455447,0.29414696,-0.3521156,0.061290156,-0.0034556587,-0.145351,0.05746084,0.24899697,-9.346964,0.8985519,47.686886,-1.0277425,-1.6920335,-3.506433,-0.28102478,-0.012748302,-0.17051429,25.875,26.6875,25.8125,28.625,29.625,30.0625
0.32205224,0.053092513,-0.96404296,-1.2105743,0.01630779,-0.008621178,-0.13395117,-0.39772278,-0.33110386,0.05994521,-3.0802023,0.61615825,-0.00015795059,-0.15534982,-0.01864244,0.0010733897,0.002410254,-0.00082247716,0.05410992,0.43182355,-1.4233881,1.9547685,-2.100405,-1.5708426,2.4011257,-0.095494226,0.29732236,-0.35567316,0.060079504,-0.0025165658,-0.14938626,0.05746084,0.19153613,-9.385271,0.95226496,47.703903,-1.0563548,-1.8015466,-3.4433336,-0.2830537,-0.009024988,-0.098726444,25.875,26.6875,25.8125,28.625,29.625,30.0625
0.3240524,0.38701925,-0.36763003,-0.7167506,-0.014558537,0.04060471,-0.1591098,-0.39799377,-0.33117187,0.059931763,-3.0802696,0.61588335,-0.00029702001,-0.15593487,-0.01855248,0.0003945119,0.0028193586,-0.0028793728,0.055359717,0.43167925,-1.422775,1.9540633,-2.1002486,-1.5707821,2.4008017,-0.09636851,0.300152,-0.35784373,0.06146664,-0.0020397895,-0.15151018,0.0,0.2681506,-9.385271,0.9791215,47.655537,-0.9914223,-1.8318512,-3.4561076,-0.2947889,0.008712019,-0.047645926,25.875,26.6875,25.8125,28.625,29.625,30.0625
0.3260525,-0.8742567,-0.7320717,-0.96971023,-0.009404541,0.030335518,-0.13399346,-0.39828527,-0.3312011,0.059922338,-3.0802724,0.6157331,-0.0003581165,-0.15812638,-0.0191245,0.0011603873,0.000585858,0.0007673299,0.049404167,0.43148687,-1.4221861,1.9533795,-2.1001065,-1.5707821,2.4005156,-0.09738195,0.30123222,-0.3603552,0.05865033,-0.0015539981,-0.1465673,-0.15322891,0.30645782,-9.404425,0.9030289,47.694946,-1.02336,-1.7870326,-3.3602052,-0.3058111,-0.023074377,-0.07612584,25.875,26.6875,25.8125,28.625,29.625,30.0625
0.32805178,-1.0037514,-0.7746424,-1.0876923,-0.024137968,0.055360675,-0.13814509,-0.39861375,-0.331226,0.059947446,-3.0802984,0.6156447,-0.00028012155,-0.15858519,-0.019641813,0.00053591415,4.0141305e-05,0.001525281,0.04501442,0.43127117,-1.4216328,1.9526623,-2.0999877,-1.5708059,2.4002419,-0.096828185,0.30301318,-0.36055166,0.056145974,-0.0013728903,-0.14162369,-0.36391866,0.3256114,-9.519346,0.8537928,47.684196,-1.0355201,-1.8428111,-3.5423772,-0.25299913,-0.025722846,-0.108582035,25.875,26.6875,25.8125,28.625,29.625,30.0625
0.33005184,-1.6162238,-2.0314033,-1.2031202,-0.035119385,0.07272036,-0.1359028,-0.39893338,-0.33129644,0.059964094,-3.0803816,0.61543417,-0.00026076243,-0.15911697,-0.019236576,0.00063370966,-0.00037003885,0.0019804048,0.0365205,0.4311148,-1.4210204,1.9518965,-2.099868,-1.5707821,2.399944,-0.09802425,0.30283424,-0.36068296,0.05587536,-0.001184064,-0.13432653,-0.40222588,0.36391866,-9.576807,0.9298854,47.667187,-1.055915,-1.758776,-3.7411382,-0.2593754,-0.025352146,-0.17233491,25.875,26.6875,25.8125,28.625,29.625,30.0625
0.33205208,-1.6241615,-2.0204322,-1.1366879,-0.062432516,0.08559848,-0.13855267,-0.39924866,-0.3313214,0.0599747,-3.080369,0.6153957,-0.00024355663,-0.15954573,-0.019157715,-0.0004786483,-9.2485236e-05,0.0009747756,0.031750306,0.43091074,-1.4204434,1.9511794,-2.099725,-1.5708059,2.399718,-0.09851985,0.30545342,-0.36101916,0.054619104,-0.0010184844,-0.13005179,-0.40222588,0.4213795,-9.634268,0.9701675,47.692257,-1.0566819,-1.599926,-3.9130704,-0.23402107,-0.024684507,-0.24956371,25.875,26.6875,25.8125,28.625,29.625,30.0625
0.33405206,-1.3410696,-1.8367544,-1.3698666,-0.06784677,0.093445696,-0.14153318,-0.39956793,-0.33134925,0.059962172,-3.0804088,0.6153096,-0.00029503723,-0.16233523,-0.02003057,0.0019926825,-0.0032316002,0.007489811,0.027305165,0.43067035,-1.4198307,1.9504846,-2.0996296,-1.5707701,2.3994193,-0.09922437,0.3041666,-0.36489928,0.052560292,-0.0008993821,-0.1263097,-0.51714754,0.47884035,-9.768343,0.9612189,47.687782,-1.0581386,-1.560956,-3.818798,-0.2253153,-0.025955232,-0.3284377,25.875,26.6875,25.8125,28.625,29.625,30.0625
0.33605215,-1.3505222,-1.8041453,-1.163329,-0.06637523,0.094373174,-0.14417067,-0.3998973,-0.3313937,0.059955563,-3.0804224,0.61521876,-0.0002458258,-0.16504365,-0.020386683,0.0033223825,-0.005513828,0.011726633,0.021670103,0.4304899,-1.419194,1.9497541,-2.0995586,-1.5707935,2.399181,-0.10092372,0.30482307,-0.3684332,0.050631862,-0.0006000358,-0.12237276,-0.63206923,0.40222588,-9.768343,0.95226496,47.66091,-0.9900233,-1.4503794,-3.8045938,-0.18592596,-0.01458081,-0.39032954,25.875,26.6875,25.8125,28.625,29.625,30.0625
0.33805236,-1.6940753,-1.3446355,-1.3813556,-0.05615554,0.08267575,-0.13923924,-0.40022573,-0.33145452,0.059971385,-3.080477,0.61515176,-0.0002261432,-0.16740394,-0.021069499,0.002304802,-0.005510028,0.0115063805,0.02006645,0.43030968,-1.4185793,1.9489864,-2.0994394,-1.5707697,2.3989525,-0.10160029,0.31130725,-0.37342665,0.049345817,-0.0005187233,-0.12144255,-0.49799395,0.3256114,-9.825804,0.947788,47.66987,-0.9640055,-1.5561669,-3.739521,-0.14217287,-0.038995408,-0.4721976,25.875,26.6875,25.8125,28.625,29.625,30.0625
0.34005222,-1.3221577,-0.82792157,-1.3183422,-0.03618513,0.08371608,-0.13776155,-0.40057704,-0.33146694,0.05998908,-3.0804768,0.6150927,-0.00012766011,-0.16898942,-0.021226399,0.0017840167,-0.0054532634,0.011457604,0.022318473,0.43006927,-1.4179895,1.9482449,-2.0993316,-1.5708174,2.3986757,-0.1024852,0.31500638,-0.37653127,0.048813224,-0.0005503961,-0.124577664,-0.5746084,0.28730422,-9.921572,0.9567419,47.675243,-0.9442842,-1.724211,-3.573001,-0.12880331,-0.029816091,-0.49219388,25.875,26.6875,25.8125,28.625,29.625,30.0625
0.34205243,-1.052676,-0.42945868,-1.2378055,-0.019547172,0.09172626,-0.14625075,-0.4009213,-0.33154574,0.05999374,-3.0805628,0.61495095,-0.000104912804,-0.16991654,-0.020808786,0.0011804441,-0.0050365925,0.010446756,0.028385937,0.429901,-1.417316,1.9474424,-2.0992477,-1.5707816,2.3984087,-0.103922464,0.31739357,-0.37817213,0.049162693,-0.00050449185,-0.13208185,-0.80445176,0.30645782,-9.768343,0.98807013,47.677036,-0.99332905,-1.8196442,-3.6280599,-0.09452895,-0.03172222,-0.4487979,25.875,26.6875,25.8125,28.625,29.625,30.0625
0.34405255,-1.4758558,-0.426426,-1.3813797,-0.012762213,0.098146535,-0.146343,-0.40125737,-0.33156174,0.060002957,-3.080591,0.61491185,-6.538207e-05,-0.16906194,-0.021534937,-5.7790156e-05,-0.003915396,0.007910447,0.039937854,0.42964956,-1.4167386,1.9467367,-2.0991514,-1.5707816,2.3981297,-0.10179127,0.320139,-0.37882388,0.04984039,-0.00046167633,-0.14150244,-0.61291564,0.24899697,-9.749189,0.95226496,47.69763,-1.0379732,-1.7083095,-3.7866511,-0.062383577,-0.03301887,-0.37866592,25.875,26.6875,25.8125,28.625,29.625,30.0625
0.34605208,-1.3226069,-0.684147,-1.0308557,-0.018649243,0.101886064,-0.14524037,-0.40159816,-0.3316233,0.060019396,-3.0806754,0.6147132,-6.0415696e-06,-0.17004228,-0.020511441,-0.00025405013,-0.003485835,0.00705231,0.046307355,0.429469,-1.4161133,1.945959,-2.0990555,-1.5707697,2.397815,-0.10431566,0.32117125,-0.3800006,0.050944623,-0.00048645595,-0.15039623,-0.4405331,0.19153613,-9.710882,1.048496,47.694946,-1.0042412,-1.8927529,-3.8534777,-0.034162574,-0.030918993,-0.2721724,25.875,26.6875,25.8125,28.625,29.625,30.0625
0.34805256,-1.1532327,-0.9464048,-0.60121185,-0.038061447,0.10156203,-0.14627326,-0.40196273,-0.33167854,0.06004127,-3.0807712,0.6145554,0.00012674909,-0.17030598,-0.020983899,5.1407857e-05,-0.0031471176,0.006287558,0.053092852,0.4292652,-1.4154887,1.9451803,-2.099007,-1.5707697,2.3975012,-0.10356786,0.32239085,-0.38284767,0.053407736,-0.00045930094,-0.15643333,-0.47884035,0.11492168,-9.423578,1.0328293,47.695843,-0.9590914,-1.704984,-3.8933945,-0.057615243,-0.02849554,-0.19911712,25.875,26.6875,25.8125,28.625,29.625,30.0625
0.35005242,-0.89349777,-0.88692784,-0.38150704,-0.017092843,0.080186255,-0.13552359,-0.40231568,-0.33171922,0.060065147,-3.0808084,0.61456054,0.00017091137,-0.17133616,-0.02125234,-7.175376e-06,-0.002947037,0.005894886,0.055701453,0.42903706,-1.4148749,1.9443902,-2.0988753,-1.5707573,2.397272,-0.103794314,0.32490045,-0.38604087,0.05453354,-0.00047361298,-0.15926708,-0.40222588,0.0,-9.385271,1.0149267,47.684196,-1.0392867,-1.6541748,-3.7361197,-0.035809364,-0.04524196,-0.14454067,25.875,26.6875,25.8125,28.625,29.625,30.0625
0.3520526,-0.27354452,0.28007585,-0.6079416,0.0031691012,0.045440078,-0.14046301,-0.4026763,-0.331768,0.060085863,-3.0808766,0.6143101,0.00033513695,-0.17492573,-0.021698156,0.0023209825,-0.0057955813,0.012138396,0.04768903,0.4288564,-1.4142501,1.9436105,-2.0988157,-1.5708054,2.396927,-0.10583739,0.32482433,-0.39104974,0.052749604,-0.0004787625,-0.15329552,-0.22984336,-0.076614454,-9.442732,0.95226496,47.686886,-0.8477051,-1.7183785,-3.563027,0.0058473637,-0.038112056,-0.16806263,25.875,26.6875,25.8125,28.625,29.625,30.0625
0.35405165,0.47861052,0.93119913,-0.18190403,0.020330148,0.03530292,-0.1495982,-0.40305194,-0.33180967,0.060093474,-3.0809293,0.61428505,0.0003688965,-0.17674275,-0.02243349,0.0026022457,-0.0061336304,0.013007385,0.041487034,0.42860445,-1.413577,1.9427966,-2.0987198,-1.5707816,2.3966534,-0.105833866,0.32815024,-0.39585015,0.053298317,-0.0005325274,-0.14708771,-0.4213795,0.0,-9.270349,0.89631605,47.684196,-0.9549904,-1.5854828,-3.5220013,0.04371966,-0.058621287,-0.21958849,25.875,26.6875,25.8125,28.625,29.625,30.0625
0.3560518,0.23995876,0.42584822,-0.15193251,0.044804085,0.012281257,-0.13921565,-0.40341046,-0.3318667,0.060107693,3.0809343,-0.61415553,-0.0004053091,-0.17821054,-0.020755328,0.0035594478,-0.005956208,0.012843379,0.03348582,0.42838705,-1.4129282,1.941995,-2.0986226,-1.5707458,2.396355,-0.10987375,0.32722133,-0.39789048,0.05649672,-0.0006125746,-0.14312652,-0.45968673,0.1340753,-9.136273,0.98135734,47.694946,-0.7506698,-1.5132833,-3.504568,0.07789632,-0.053587623,-0.31114185,25.875,26.6875,25.8125,28.625,29.625,30.0625
0.3580519,0.047595605,0.3800562,-0.3551058,0.03337105,0.017770972,-0.14518021,-0.40376186,-0.33189404,0.06010403,-3.080993,0.6140687,0.00047011554,-0.17665936,-0.02103728,0.0017128863,-0.0032153567,0.00773074,0.035169344,0.42818382,-1.4122666,1.9412163,-2.0985138,-1.5708059,2.3960907,-0.10772162,0.33068725,-0.3985539,0.05947639,-0.00097381877,-0.14265761,-0.38307226,0.17238252,-9.155427,0.9030289,47.685097,-0.8570105,-1.5169685,-3.5232832,0.06972802,-0.036162306,-0.3253818,25.875,26.6875,25.8125,28.625,29.625,30.0625
0.36005217,-0.004006778,-0.43346882,-0.4809125,0.009713307,0.04600783,-0.14393911,-0.4041313,-0.33192113,0.060128015,-3.0810106,0.61397845,0.00053156825,-0.17821322,-0.019568233,0.0010479178,-0.0021538562,0.0060400725,0.030089157,0.42794266,-1.4116293,1.9403914,-2.098358,-1.5708302,2.3957915,-0.11133084,0.33333588,-0.40059957,0.06085006,-0.0012332057,-0.14118567,-0.24899697,0.21068975,-9.136273,0.91198283,47.705692,-0.68510914,-1.477382,-3.649837,0.09521377,-0.033338502,-0.35932994,25.875,26.6875,25.8125,28.625,29.625,30.0625
0.36205217,-0.8219727,-1.1419955,0.019570151,-0.02692017,0.05563843,-0.13867363,-0.40448126,-0.33197337,0.06013115,3.0810244,-0.6138443,-0.00052767736,-0.1764392,-0.019842356,-6.471817e-05,0.00046097464,0.00021991228,0.032197855,0.42773947,-1.4109558,1.939577,-2.098224,-1.5708178,2.3955033,-0.10927117,0.3357306,-0.40233836,0.06657626,-0.0011865258,-0.14123502,-0.22984336,0.24899697,-9.078813,0.97240865,47.686886,-0.8307626,-1.6434178,-3.6752653,0.04297529,-0.031576067,-0.36689866,25.875,26.6875,25.8125,28.625,29.625,30.0625
0.36405253,-0.8057586,-1.1824324,0.34288374,-0.052107383,0.065967575,-0.14246328,-0.4048468,-0.33199593,0.06013134,3.081022,-0.6138034,-0.00048275015,-0.1761809,-0.01927404,-0.0012467348,0.0027078826,-0.0050714226,0.03535032,0.4274631,-1.4102823,1.9387635,-2.098067,-1.570794,2.3952022,-0.11002142,0.33927396,-0.40506804,0.07151155,-0.0010336614,-0.14513737,-0.11492168,0.22984336,-9.059659,0.98807013,47.66987,-0.8439578,-1.6781534,-3.7439435,0.0054624765,-0.031081341,-0.3739819,25.875,26.6875,25.8125,28.625,29.625,30.0625
0.36605257,-0.691384,-1.0789841,0.28818366,-0.02822053,0.051872388,-0.15510477,-0.40518847,-0.33205932,0.060139477,3.0810258,-0.6136465,-0.00053729804,-0.17715621,-0.019649534,-0.0008062365,0.0030374548,-0.005984481,0.040714182,0.42729527,-1.4096327,1.9379729,-2.0979698,-1.570794,2.3949363,-0.110080756,0.3414726,-0.40956083,0.07477224,-0.0009504505,-0.15055926,0.0,0.15322891,-8.925584,0.9634547,47.703903,-0.8942809,-1.6326451,-3.5739672,-0.03788241,-0.046738185,-0.31314752,25.875,26.6875,25.8125,28.625,29.625,30.0625
0.36805168,-0.15935342,-0.46017885,0.13058148,0.011070396,0.026519045,-0.1542416,-0.40557736,-0.33208442,0.06014372,3.0810757,-0.6135157,-0.000580218,-0.17776424,-0.019786483,-0.00021461213,0.0032311263,-0.0065583666,0.049737543,0.42704332,-1.4089236,1.9371113,-2.0978258,-1.5708302,2.394597,-0.11022021,0.34230375,-0.41277528,0.077750795,-0.00088672386,-0.15972152,0.038307227,0.32561144,-8.810662,0.98135734,47.686886,-0.82718027,-1.6210682,-3.510665,-0.058801375,-0.053956382,-0.24519302,25.875,26.6875,25.8125,28.625,29.625,30.0625
0.3700518,0.21221444,-0.19484094,0.044590116,0.030553842,-0.012091895,-0.15005675,-0.40590465,-0.33211657,0.060129024,-3.0811315,0.6133494,0.0005354873,-0.1774668,-0.019895451,-0.00055772316,0.004325881,-0.009200977,0.058182266,0.4268394,-1.4082624,1.9363474,-2.0976803,-1.5708421,2.3942828,-0.10971239,0.34399644,-0.4149142,0.081052065,-0.0007924846,-0.16765825,-0.038307227,0.4405331,-8.810662,0.9835985,47.67793,-0.9208336,-1.5351766,-3.542552,-0.087586254,-0.03619173,-0.130084,25.875,26.6875,25.8125,28.625,29.625,30.0625
