Tylouw/Master_Thesis_Code/training_data/batch_1/big_rod_t0.1/sample_37_session_3.csv
timestamp[s],tcp_force_x[N],tcp_force_y[N],tcp_force_z[N],tcp_force_rx[Nm?],tcp_force_ry[Nm?],tcp_force_rz[Nm?],tcp_pose_x[m],tcp_pose_y[m],tcp_pose_z[m],tcp_pose_rx[rot_vec_x],tcp_pose_ry[rot_vec_y],tcp_pose_rz[rot_vec_z],tcp_velo_x[m/s],tcp_velo_y[m/s],tcp_velo_z[m/s],tcp_velo_rx[rot_vec_x/s],tcp_velo_ry[rot_vec_y/s],tcp_velo_rz[rot_vec_z/s],q1[rad],q2[rad],q3[rad],q4[rad],q5[rad],q6[rad],qd1[rad/s],qd2[rad/s],qd3[rad/s],qd4[rad/s],qd5[rad/s],qd6[rad/s],tool_acc_x,tool_acc_y,tool_acc_z,current_of_whole_robot[A],voltage_of_whole_robot[V],current_J1[A],current_J2[A],current_J3[A],current_J4[A],current_J5[A],current_J6[A],temp_J1[C],temp_J2[C],temp_J3[C],temp_J4[C],temp_J5[C],temp_J6[C]
6.9802627e-07,-0.82229394,-0.5940515,0.04441646,-0.020236408,0.003844073,-0.017542273,-0.3728974,-0.3282136,0.05994407,-3.078493,0.6248491,-0.00026807038,0.0033596512,0.0016269339,-0.0047519826,0.0045180963,-0.009630356,8.9996183e-07,0.44812617,-1.4708608,2.0095742,-2.107703,-1.5706614,2.4230313,-8.221987e-05,0.004270083,0.006164997,0.00020156041,0.00011412927,-8.64151e-05,0.076614454,0.24899697,-8.983045,0.62999195,47.677036,-0.28050506,-2.8719707,-2.55133,-0.5262202,0.16054174,-0.10864003,24.875,25.375,24.75,26.875,27.25,27.5
0.002058186,0.15586564,-0.26887786,-0.00088829605,-0.012497233,0.020795,-0.02566459,-0.3728935,-0.328231,0.05993869,-3.0785208,0.6248355,-0.00031058173,-0.00033986656,-0.00016253153,-0.0033008796,-0.00079388305,0.0013599362,5.048583e-06,0.4481382,-1.470837,2.0095613,-2.1077073,-1.5706257,2.4230313,-8.074456e-05,0.0042897984,0.0054427655,-0.011302625,0.000112107016,-8.5245796e-05,0.05746084,0.095768064,-8.848969,0.6926589,47.682407,-0.23914266,-2.7815208,-2.4023128,-0.48448387,0.15710682,-0.12412697,24.875,25.375,24.75,26.875,27.25,27.5
0.004057586,-0.8729421,-0.79950166,-0.051594954,0.012886227,-0.004284768,-0.01285948,-0.37289947,-0.3282082,0.05992869,-3.0784745,0.6249609,-0.00025968094,-0.0016511348,-0.0007967514,-0.0025543638,-0.0026584347,0.005222346,6.6739262e-06,0.44811413,-1.470849,2.0096085,-2.107756,-1.5706614,2.4230914,-7.932126e-05,0.004010049,0.0048088836,-0.014677903,0.000110147594,-8.410774e-05,0.11492168,0.17238252,-8.944737,0.6635613,47.666286,-0.2708781,-3.0180316,-2.5728629,-0.3695147,0.15236379,-0.13030763,24.875,25.375,24.75,26.875,27.25,27.5
0.006054657,-0.25846434,0.39497903,-0.15212624,0.0122904815,-0.00962153,-0.025265602,-0.372894,-0.32822242,0.05990816,-3.0784597,0.62486154,-0.0002676044,-0.00094783836,-0.0004590976,-0.0017031919,-0.0017206653,0.0032781658,5.9783774e-06,0.4481623,-1.4707899,2.0095956,-2.1077774,-1.5706857,2.4230795,-7.79474e-05,0.0024107962,0.0034412884,-0.009552546,0.0001158682,-8.2999635e-05,0.0,0.11492168,-8.944737,0.7530795,47.68599,-0.15700611,-2.938682,-2.4953375,-0.39057678,0.1521917,-0.119804054,24.875,25.375,24.75,26.875,27.25,27.5
0.008053187,0.2121098,0.76269096,-0.602235,0.047936805,-0.029595785,-0.014052552,-0.37289074,-0.3282168,0.059920207,-3.078484,0.62490517,-0.0002633531,-3.0159088e-05,-1.7671422e-05,-0.001353549,-0.00032816455,0.00039137175,5.2061014e-06,0.4481382,-1.470838,2.0096204,-2.107776,-1.5706614,2.4230795,-7.662023e-05,0.0015672544,0.0024038765,-0.004466502,0.00012111706,-8.192046e-05,0.05746084,0.1340753,-8.983045,0.7732232,47.701214,-0.23106703,-2.9300466,-2.4513657,-0.44327104,0.14010812,-0.12569737,24.875,25.375,24.75,26.875,27.25,27.5
0.010052218,0.2647778,0.97604173,-0.84439135,0.051046617,-0.031582426,-0.018389512,-0.37290397,-0.32820806,0.059910946,-3.0784478,0.62487876,-0.00028450842,-5.249584e-05,-2.3484432e-05,-0.0009997599,-5.7061985e-05,-0.00016503916,1.3608848e-06,0.44812617,-1.4707901,2.0095837,-2.1077516,-1.5706857,2.4230556,-8.525421e-05,0.0015092399,0.0012350276,-0.0026206984,0.00011957564,-8.656271e-05,0.019153614,0.1340753,-9.270349,0.7284641,47.698532,-0.58886564,-2.2639585,-3.060184,-0.47723675,0.16423298,-0.19300756,24.875,25.375,24.75,26.875,27.25,27.5
0.012052292,-0.043907076,0.60967606,-1.0254436,0.021763097,-0.020738686,-0.029363323,-0.37289295,-0.32820272,0.059901413,-3.0784307,0.6248172,-0.0003446863,-0.00081061455,-0.0003754514,-0.0026570018,0.0015839252,-0.0035865027,-1.0546138e-05,0.44812617,-1.4707763,2.0095823,-2.1077158,-1.5706857,2.4230194,-0.00011686443,0.007817313,-0.0020624418,-0.0018366718,0.00011783997,-0.000103513645,0.19153613,0.038307227,-9.404425,0.6926589,47.66271,-0.6842811,-2.1018922,-3.11473,-0.48327708,0.17172125,-0.2287128,24.875,25.375,24.75,26.875,27.25,27.5
0.014010175,-0.91912013,-0.69573545,-1.167661,-0.0062610433,0.0015685353,-0.01889144,-0.37286058,-0.3281859,0.05986192,-3.0783656,0.6248419,-0.00046643615,-0.004962213,0.00058249314,-0.0045873187,0.0031012301,-0.007001031,0.00054637156,0.44812396,-1.4707482,2.009639,-2.1077034,-1.5706857,2.4230409,-0.005769179,0.018328516,-0.009259826,-0.0014171775,0.00021229728,-0.0063070697,0.038307227,0.15322891,-9.634268,0.72622824,47.66808,-0.5404648,-2.8233159,-2.9037871,-0.49357873,0.17148775,-0.21448414,24.875,25.375,24.75,26.875,27.25,27.5
0.016052466,-1.9266487,-1.577685,-1.1943275,-0.039445132,0.019624123,-0.023170803,-0.37287745,-0.32819828,0.05986434,-3.0784073,0.6248286,-0.00051269826,-0.005558524,0.0017470251,-0.004412121,0.0030088383,-0.0069365497,0.003528112,0.44809926,-1.4707127,2.0095918,-2.1076915,-1.5706376,2.4230025,-0.008537728,0.017280359,-0.008572409,-0.0011552295,0.00026655613,-0.012058126,-0.24899697,0.22984336,-9.749189,0.7665104,47.709274,-0.3852316,-2.7592921,-3.1033094,-0.5150661,0.180344,-0.16908681,24.875,25.375,24.75,26.875,27.25,27.5
0.018052379,-2.1524398,-1.9044441,-1.3781695,-0.072475374,0.05781487,-0.035173856,-0.37286416,-0.32819858,0.059834376,-3.0783687,0.624801,-0.000603821,-0.0045835045,0.0011512582,-0.0048421305,0.0024163034,-0.0089598615,0.0052071223,0.44811156,-1.4706526,2.0095918,-2.1076791,-1.5706371,2.4230025,-0.0074872347,0.017710816,-0.008241923,-0.00035452328,0.001678597,-0.01268993,-0.4405331,0.3256114,-9.787497,0.76874626,47.69763,-0.5601022,-2.4361548,-3.465306,-0.52126443,0.1689114,-0.16246991,24.875,25.375,24.75,26.875,27.25,27.5
0.020052722,-1.5364187,-1.5326791,-1.3225836,-0.08403776,0.102554455,-0.055062123,-0.3728849,-0.32818526,0.059838824,-3.0783274,0.6248503,-0.0005446128,-0.006070872,0.00017444645,-0.0038650408,9.4218965e-05,-0.0075529693,0.0051985895,0.44809955,-1.4706402,2.009568,-2.1076791,-1.5706843,2.4230266,-0.008004352,0.01884327,-0.011746451,-0.00026249085,0.0031544256,-0.013199251,-0.49799395,0.38307226,-9.902418,0.8224646,47.716442,-0.66360307,-2.3747468,-3.431594,-0.5309037,0.16680348,-0.19501519,24.875,25.375,24.75,26.875,27.25,27.5
0.022051925,-2.1920395,-1.3843509,-1.2185757,-0.06166533,0.080644004,-0.06060229,-0.37288487,-0.32820454,0.05981642,-3.078365,0.6247032,-0.0006232021,-0.0070310906,-0.00031501023,-0.004072978,-0.0005089146,-0.008048573,0.0063233473,0.44811127,-1.4705673,2.0095422,-2.107691,-1.5706481,2.4229417,-0.008468982,0.021494651,-0.014168489,-0.00030898053,0.003906155,-0.014788422,-0.57460845,0.51714754,-9.883265,0.800085,47.701214,-0.7166723,-2.4507053,-3.3933465,-0.53525114,0.16969132,-0.20794475,24.875,25.375,24.75,26.875,27.25,27.5
0.02405217,-2.0578606,-1.1115332,-1.4353948,-0.034030132,0.06223498,-0.07183729,-0.37291494,-0.3281955,0.059814833,-3.078361,0.62481844,-0.00064621016,-0.008357034,-0.00017174709,-0.0034186693,-0.0017039289,-0.006885707,0.0055507673,0.44805077,-1.4705315,2.0095065,-2.107691,-1.5706242,2.4229536,-0.010329251,0.021667102,-0.01584435,-0.00037293578,0.004474667,-0.015876241,-0.6512228,0.34476504,-9.825804,0.779936,47.684196,-0.7344488,-2.3923504,-3.4024043,-0.54292095,0.16228303,-0.21646732,24.875,25.375,24.75,26.875,27.25,27.5
0.026051711,-1.6848428,-1.0118806,-1.3524854,-0.02369442,0.05444745,-0.090805784,-0.37291703,-0.3282095,0.059811324,-3.0783908,0.62474793,-0.0007099865,-0.009250226,0.0001043505,-0.0028956595,-0.0025124683,-0.005984527,0.00492622,0.44805023,-1.4704956,2.0094697,-2.1076672,-1.5705875,2.4229052,-0.01188826,0.02134435,-0.016691916,-0.00036581693,0.004810263,-0.016811056,-0.68953013,0.34476504,-9.768343,0.75755644,47.687782,-0.7597546,-2.2808268,-3.4178886,-0.5565921,0.16589028,-0.2233265,24.875,25.375,24.75,26.875,27.25,27.5
0.028052667,-1.9336746,-1.1728635,-1.3999702,-0.020811215,0.039500672,-0.09753955,-0.3729523,-0.3282091,0.05981179,-3.0783956,0.62474865,-0.0006681003,-0.010757979,-0.00030133454,-0.0022273553,-0.0041329646,-0.0046931016,0.0054781884,0.44802576,-1.4704473,2.009421,-2.107691,-1.5705999,2.4228806,-0.013102559,0.022409683,-0.019325895,-0.0006666004,0.005704367,-0.018577226,-0.59376204,0.38307226,-9.80665,0.79560274,47.68599,-0.7878263,-2.2950165,-3.459188,-0.5571047,0.16138026,-0.21466562,24.875,25.375,24.75,26.875,27.25,27.5
0.030051796,-1.7447939,-0.9308673,-1.0867622,-0.028158115,0.05018112,-0.11998587,-0.37296623,-0.32822007,0.0598088,-3.0784104,0.62469393,-0.00069324736,-0.012442811,-0.00047689409,-0.0021814608,-0.0049581756,-0.003117818,0.005363392,0.4480253,-1.4703985,2.009372,-2.10768,-1.5705875,2.4228442,-0.014341336,0.02448347,-0.021272868,-0.0025707504,0.005756403,-0.019699316,-0.61291564,0.24899697,-9.691729,0.7620334,47.66987,-0.81199825,-2.3341467,-3.4309921,-0.5470445,0.1544007,-0.19775452,24.875,25.375,24.75,26.875,27.25,27.5
0.032051913,-1.8013155,-0.70725536,-1.0402142,-0.021870973,0.05839667,-0.1350898,-0.37302908,-0.32822075,0.0598175,-3.0784323,0.6247952,-0.0006709383,-0.014352049,-0.0007455565,-0.0015508946,-0.0064672697,-0.0010969159,0.0038006362,0.4479529,-1.4703263,2.0092757,-2.1076925,-1.5705632,2.4228323,-0.01589383,0.025813121,-0.023913676,-0.0037355504,0.006233745,-0.019687686,-0.47884035,0.13407528,-9.519346,0.75755644,47.682407,-0.8079395,-2.32195,-3.4393997,-0.5333545,0.14464208,-0.1880946,24.875,25.375,24.75,26.875,27.25,27.5
0.03405233,-1.5996503,-0.5869598,-0.9598704,0.005037918,0.057789437,-0.13535774,-0.37304947,-0.32821992,0.05980325,-3.0784507,0.62480074,-0.00069467403,-0.015513859,-0.0010433033,-0.0012282389,-0.008186768,-0.0008703339,0.0015173436,0.44791627,-1.4702778,2.0092633,-2.1077282,-1.5705389,2.4227967,-0.017370673,0.02700372,-0.025932765,-0.0038604713,0.0076814597,-0.018882772,-0.28730422,-0.05746084,-9.576807,0.7642693,47.67166,-0.77393043,-2.2947755,-3.3580937,-0.5322205,0.14014949,-0.19233808,24.875,25.375,24.75,26.875,27.25,27.5
0.03605304,-1.5327619,0.6020823,-0.89104915,0.015420452,0.037466098,-0.14086178,-0.37307993,-0.32823247,0.05980028,-3.0784645,0.6247463,-0.00062779465,-0.016306601,-0.0016471,-0.00048132677,-0.009406858,6.45624e-05,0.0010054072,0.44792828,-1.470218,2.009215,-2.1077754,-1.5705627,2.4227731,-0.017424636,0.027357448,-0.028146232,-0.0033748304,0.008373582,-0.018424682,-0.24899697,0.038307227,-9.519346,0.7172743,47.68062,-0.7902829,-2.2569277,-3.3656669,-0.52396834,0.12642966,-0.20304707,24.875,25.375,24.75,26.875,27.25,27.5
0.038052097,-1.37076,0.6189002,-1.000872,0.047059193,0.025925823,-0.12243999,-0.3730768,-0.32820112,0.059760273,-3.0783985,0.6247709,-0.00081361673,-0.017223729,-0.0017290058,-0.00032329015,-0.009747898,0.00033300035,0.001079192,0.44785598,-1.4701457,2.0092142,-2.1077163,-1.5705389,2.4227245,-0.018229548,0.028598191,-0.029900834,-0.0032502697,0.008558612,-0.01930366,-0.21068975,-0.038307227,-9.5385,0.7284641,47.709274,-0.7957561,-2.133544,-3.3860564,-0.5291574,0.12476975,-0.20053793,24.875,25.375,24.75,26.875,27.25,27.5
0.040052127,-0.8071134,0.75010705,-0.9641153,0.046771206,0.031122195,-0.12835708,-0.37316602,-0.3282314,0.059805933,-3.0784945,0.6247714,-0.000619429,-0.018410966,-0.0019052236,-0.00017270292,-0.010275199,0.0009936839,0.0011450582,0.44783172,-1.4700971,2.0090697,-2.107776,-1.5705389,2.4226885,-0.019100897,0.030206982,-0.0319173,-0.003666947,0.008745233,-0.02023833,-0.17238252,-0.038307227,-9.500193,0.7329411,47.701214,-0.7705164,-2.1348007,-3.3664696,-0.5368757,0.13362372,-0.18793716,24.875,25.375,24.75,26.875,27.25,27.5
0.04205197,-0.466864,0.27784386,-1.0962903,0.038001783,0.035004042,-0.13048762,-0.37320516,-0.32824206,0.059807185,-3.0785291,0.6247972,-0.0006641098,-0.019817244,-0.0021524206,0.0003655397,-0.010564724,0.002769887,0.0015572578,0.44778356,-1.4700247,2.0089848,-2.1077645,-1.5704907,2.422652,-0.019563857,0.031396087,-0.03434837,-0.00414816,0.008230743,-0.021110674,-0.15322891,-0.019153614,-9.385271,0.71279734,47.698532,-0.7821634,-2.20182,-3.3422165,-0.52685726,0.12156086,-0.19203073,24.875,25.375,24.75,26.875,27.25,27.5
0.044052333,-1.2180357,-0.13564932,-1.0485559,0.012242487,0.015552541,-0.1158351,-0.37322074,-0.32823446,0.059775062,-3.0785065,0.6248121,-0.0007340737,-0.021114526,-0.0019647344,0.0009909982,-0.010531489,0.0043602553,0.0012928499,0.4477473,-1.4699409,2.008972,-2.1077883,-1.5704793,2.422628,-0.020604586,0.031837184,-0.03628839,-0.004065272,0.0075071473,-0.021884708,-0.076614454,0.038307227,-9.385271,0.7866488,47.696735,-0.6946371,-2.0951931,-3.3908467,-0.5171572,0.13767867,-0.18081562,24.875,25.375,24.75,26.875,27.25,27.5
0.046051785,-1.0299531,-0.93173105,-1.2737758,0.0010200775,0.012381004,-0.11378401,-0.37328115,-0.32821432,0.059775263,-3.0784652,0.6248222,-0.0006904185,-0.021862363,-0.0013195646,0.0010174058,-0.009439362,0.0042256596,0.0015405546,0.44768673,-1.4698567,2.008876,-2.1077754,-1.570527,2.422579,-0.021866057,0.032655403,-0.037468433,-0.0031066258,0.0065802117,-0.023391455,-0.038307227,0.05746084,-9.442732,0.7620334,47.652847,-0.7631829,-2.0674896,-3.3964586,-0.5265888,0.13015881,-0.17947683,24.875,25.375,24.75,26.875,27.25,27.5
0.04805196,-0.8678766,-0.9983993,-1.1805121,-0.0121831875,0.0022109507,-0.11356111,-0.3733279,-0.328222,0.05979471,-3.0785105,0.62479377,-0.0006416999,-0.022442035,-0.0013517714,0.0011106358,-0.009397803,0.0038799897,0.0015731199,0.44765058,-1.4698205,2.0087917,-2.1077754,-1.570515,2.4225194,-0.02240545,0.033761464,-0.039089814,-0.0022615932,0.0066919643,-0.023962421,-0.019153614,0.19153613,-9.442732,0.7329411,47.6636,-0.77447176,-2.0572684,-3.3904505,-0.5241822,0.14453551,-0.15734334,24.875,25.375,24.75,26.875,27.25,27.5
0.050052445,-0.5830134,-1.0315641,-1.3870137,-0.01652918,-0.0015704879,-0.12334429,-0.37337625,-0.32823476,0.05980774,-3.0785577,0.62476414,-0.00062026974,-0.023296159,-0.001641387,0.0012146462,-0.00986649,0.0038611402,0.0024035994,0.44761446,-1.4697601,2.0086954,-2.107775,-1.5704912,2.422459,-0.022923946,0.03535468,-0.041140668,-0.0019905223,0.007119371,-0.025310598,-0.038307227,0.30645782,-9.461885,0.7620334,47.689575,-0.70922554,-1.9667746,-3.3803244,-0.54441184,0.14879505,-0.14642069,24.875,25.375,24.75,26.875,27.25,27.5
0.052053,-0.78881913,-1.1113493,-1.3588005,-0.016520316,-0.008231644,-0.11905847,-0.37339625,-0.32821673,0.05977431,-3.0785136,0.6248509,-0.0007054106,-0.023816302,-0.0016786524,0.0013764305,-0.010059037,0.0038828724,0.0028219237,0.44755423,-1.4696759,2.0086825,-2.1077874,-1.5704793,2.4224584,-0.023433171,0.036006615,-0.042329863,-0.001555999,0.0072804866,-0.02623821,0.019153614,0.28730422,-9.557653,0.7463667,47.686886,-0.7118633,-2.0090547,-3.4140632,-0.5423173,0.15477903,-0.14754456,24.875,25.375,24.75,26.875,27.25,27.5
0.054052137,-1.1589824,-1.4573407,-1.2802994,-0.016012715,-0.0035496387,-0.11266002,-0.37346104,-0.32822677,0.05979875,-3.0785406,0.624875,-0.0006734456,-0.024831846,-0.0016769298,0.001817071,-0.01053443,0.004721324,0.003177903,0.44750586,-1.4696038,2.008539,-2.1077511,-1.5704669,2.4224217,-0.024396881,0.036602948,-0.044029396,-0.0014138895,0.0073436014,-0.027556704,0.0,0.34476507,-9.557653,0.7978386,47.6636,-0.70166445,-1.9358615,-3.4998984,-0.5598699,0.15019399,-0.14126322,24.875,25.375,24.75,26.875,27.25,27.5
0.05605249,-0.38185382,-1.2170576,-1.2500136,-0.04113355,0.026204659,-0.12771179,-0.373503,-0.3282451,0.0597933,-3.0786035,0.6248303,-0.00068981,-0.025680806,-0.0019148017,0.0015656104,-0.011331815,0.004178722,0.003413443,0.4474695,-1.4695193,2.008467,-2.1077874,-1.5704187,2.4223495,-0.025361257,0.038670607,-0.04565799,-0.0017105124,0.008293523,-0.028756918,-0.05746084,0.4405331,-9.672575,0.85155696,47.70032,-0.72909236,-1.8706152,-3.451693,-0.5740248,0.14083396,-0.13325347,24.875,25.375,24.75,26.875,27.25,27.5
0.058052413,-1.4736462,-1.7800075,-1.3029169,-0.042842932,0.0014949072,-0.108267,-0.37357235,-0.32822937,0.059810944,-3.0785925,0.62480825,-0.00059805386,-0.026987432,-0.002205046,0.0017337127,-0.012274119,0.0047691753,0.0032901722,0.44740924,-1.4694587,2.0083573,-2.1077754,-1.5704664,2.422277,-0.026396567,0.040488943,-0.04793066,-0.0021991357,0.008882892,-0.029667992,-0.076614454,0.47884035,-9.576807,0.7709874,47.71554,-0.6725765,-1.8618116,-3.4977884,-0.5448607,0.13613912,-0.12802073,24.875,25.375,24.75,26.875,27.25,27.5
0.06005231,-0.84337217,-1.2919122,-1.1322224,-0.055391423,0.020392245,-0.12103404,-0.3735822,-0.32823643,0.059790354,-3.0786176,0.6247742,-0.00071618677,-0.028063659,-0.0025415213,0.0020882348,-0.012744742,0.005948803,0.0041905176,0.44737315,-1.4693863,2.0083225,-2.107764,-1.5704068,2.4222164,-0.02667677,0.04167103,-0.04994606,-0.0026304107,0.008789943,-0.030847281,-0.076614454,0.45968673,-9.557653,0.75755644,47.729877,-0.66596544,-1.847882,-3.5211692,-0.5521131,0.14400811,-0.11562292,24.875,25.375,24.75,26.875,27.25,27.5
0.062052373,-1.1361966,-1.5301758,-1.344724,-0.038326323,0.01743764,-0.11430181,-0.3736647,-0.32824236,0.05982159,-3.0786448,0.624875,-0.0006526766,-0.028596297,-0.0026763142,0.0015490461,-0.012599907,0.0047223973,0.0057878746,0.44730097,-1.4693136,2.0081656,-2.1077402,-1.5703944,2.4222038,-0.02717086,0.04413449,-0.051469065,-0.0024026392,0.00918884,-0.032937728,-0.05746084,0.45968673,-9.500193,0.7284641,47.698532,-0.74519616,-1.8110299,-3.5393896,-0.5537563,0.15902784,-0.09676227,24.875,25.375,24.75,26.875,27.25,27.5
0.06405168,-1.0217593,-1.2054524,-1.1100303,-0.032222588,0.01504011,-0.11649783,-0.37374005,-0.328281,0.059849173,-3.0787504,0.6247819,-0.0005405515,-0.02954575,-0.0030496968,0.0018586325,-0.013730399,0.005140173,0.0049575022,0.4472887,-1.4692293,2.0080206,-2.1077878,-1.5703701,2.42212,-0.027893208,0.045263115,-0.05340754,-0.0024605445,0.010026899,-0.032828867,-0.15322891,0.36391866,-9.481039,0.7642693,47.696735,-0.7403134,-1.8434435,-3.535338,-0.5539748,0.1431443,-0.081878275,24.875,25.375,24.75,26.875,27.25,27.5
0.06605204,-0.87329656,-0.7917988,-0.8666598,-0.030082963,0.017843477,-0.12639248,-0.37379703,-0.32828104,0.059831638,-3.0787559,0.6248032,-0.00055356027,-0.03080512,-0.003555114,0.0020601796,-0.014688881,0.0056404127,0.003808379,0.4472286,-1.4691089,2.0079367,-2.1078236,-1.5703577,2.4220726,-0.028516116,0.04731463,-0.056069653,-0.0027168756,0.01066933,-0.032301836,-0.11492168,0.28730422,-9.461885,0.7329411,47.672558,-0.6583972,-1.7747782,-3.4925694,-0.54513335,0.1405151,-0.094460815,24.875,25.375,24.75,26.875,27.25,27.5
0.06805204,-1.5562774,-0.33653498,-0.9244293,-0.026872069,0.008334095,-0.11711243,-0.37387708,-0.32828352,0.05985458,-3.0788174,0.6247776,-0.00050172594,-0.03193116,-0.0041632126,0.0023080092,-0.015623014,0.0064757676,0.0034931535,0.4471445,-1.4690366,2.0078046,-2.1078236,-1.5703338,2.421965,-0.028710445,0.049094584,-0.05847346,-0.0032502278,0.011147034,-0.032179266,-0.15322891,0.30645782,-9.346964,0.80679786,47.67166,-0.7392931,-1.8343692,-3.4432406,-0.5545669,0.13941233,-0.096969,24.875,25.375,24.75,26.875,27.25,27.5
0.070052125,-1.7748153,-1.1413407,-0.84296507,0.0010134664,0.014367212,-0.10634604,-0.37393278,-0.32827213,0.059852246,-3.0787933,0.6248293,-0.00053129974,-0.03288076,-0.004320478,0.0026629688,-0.01663837,0.0073127598,0.0041877604,0.4470722,-1.4689405,2.0076964,-2.1077883,-1.5703334,2.421928,-0.029641269,0.0496986,-0.05986176,-0.0036605035,0.011696559,-0.03380489,-0.21068975,0.28730422,-9.404425,0.8403672,47.698532,-0.7562924,-1.7863688,-3.4623659,-0.54639,0.11426215,-0.08777889,24.875,25.375,24.75,26.875,27.25,27.5
0.072052054,-1.6765941,-0.53648126,-0.66520196,-0.0045646043,0.022119798,-0.12125586,-0.3740007,-0.328305,0.05986774,3.0788112,-0.6247357,0.00047455396,-0.034761913,-0.005018345,0.0026699828,-0.016738258,0.00783371,0.004426229,0.44704816,-1.468843,2.007562,-2.107824,-1.5702976,2.4218433,-0.029936472,0.0537512,-0.06430611,-0.0037795743,0.011554387,-0.03433415,-0.19153613,0.2681506,-9.346964,0.79560274,47.71823,-0.7460374,-1.8670301,-3.3714166,-0.53386146,0.123255596,-0.090191886,24.875,25.375,24.75,26.875,27.25,27.5
0.074052,-1.8270485,-0.46268466,-0.66593343,-0.0016871397,0.026685435,-0.110403545,-0.37405306,-0.32831135,0.059860703,3.078768,-0.62476563,0.0004941267,-0.034549873,-0.005036915,0.0024756345,-0.01717255,0.007155458,0.0052281558,0.44698802,-1.4687473,2.0074785,-2.1078484,-1.5702614,2.4218073,-0.03016696,0.053783026,-0.063896,-0.0037978813,0.012241073,-0.035367824,-0.21068975,0.24899697,-9.289502,0.779936,47.672558,-0.8658308,-1.8583705,-3.3282456,-0.53945243,0.106133826,-0.10275702,24.875,25.375,24.75,26.875,27.25,27.5
0.07605242,-1.7150558,-0.40981522,-0.5729171,0.003027669,0.02822155,-0.1194948,-0.37414932,-0.3283428,0.059890106,3.0787318,-0.624681,0.00041750702,-0.035541076,-0.004928334,0.0027750523,-0.01737541,0.0075855893,0.0053173113,0.4469517,-1.468615,2.007263,-2.1078355,-1.5702494,2.421723,-0.031259026,0.054663584,-0.0656456,-0.0034032003,0.012238106,-0.036547128,-0.24899697,0.15322891,-9.193734,0.779936,47.694946,-0.78863746,-1.7272186,-3.4754338,-0.53832436,0.09903227,-0.09369271,24.875,25.375,24.75,26.875,27.25,27.5
0.07805247,-1.2395936,-0.32463077,-0.5456947,0.00757237,0.031226346,-0.1176444,-0.37421474,-0.32833847,0.059884865,3.0786796,-0.624729,0.00048801443,-0.03817092,-0.006127125,0.00450888,-0.019146794,0.011347725,0.004383946,0.44684362,-1.4685068,2.0071533,-2.1078236,-1.5701894,2.4216514,-0.03135427,0.05631237,-0.07143302,-0.0034193695,0.012198833,-0.03570537,-0.26815057,0.076614454,-9.232041,0.8179876,47.691364,-0.7773573,-1.7034558,-3.2834687,-0.5460843,0.096254036,-0.11010039,24.875,25.375,24.75,26.875,27.25,27.5
0.08005243,-1.4219643,-0.22446214,-0.52288085,0.010943131,0.022390852,-0.11921632,-0.37427095,-0.3283594,0.059870467,3.0786853,-0.624635,0.0005561225,-0.037540983,-0.0055593457,0.0020156675,-0.016765328,0.0063555427,0.0028725774,0.44680735,-1.4683496,2.0070107,-2.1078117,-1.5701531,2.4215558,-0.031854376,0.060931176,-0.0708872,-0.0030515352,0.0122100925,-0.034694172,-0.34476504,0.15322891,-9.270349,0.7620334,47.679718,-0.80266845,-1.9331198,-3.2900536,-0.55115473,0.089093156,-0.12940985,24.875,25.375,24.75,26.875,27.25,27.5
0.08205204,-1.2124944,-0.21872124,-0.55513585,0.00645258,0.029798103,-0.11499114,-0.37433493,-0.32836458,0.05986645,3.0786245,-0.6246797,0.00054349896,-0.0393161,-0.0058606616,0.003789919,-0.017926227,0.010208692,0.0038799734,0.44673526,-1.468254,2.0069258,-2.1078594,-1.5701178,2.4215193,-0.032465924,0.059895903,-0.073820375,-0.0030546375,0.011588167,-0.036310095,-0.3256114,0.19153613,-9.232041,0.75084364,47.660015,-0.82914007,-1.764776,-3.323073,-0.5530561,0.10875506,-0.1387639,24.875,25.375,24.75,26.875,27.25,27.5
0.08405203,-1.3870217,-0.52801555,-0.4979241,0.0060782535,0.028238598,-0.11578044,-0.37447912,-0.32838726,0.05994101,3.0785327,-0.6246798,0.00029705634,-0.040364012,-0.006097826,0.0034977188,-0.018086651,0.009663119,0.0041895853,0.44666302,-1.4681691,2.0066617,-2.1078594,-1.5701412,2.421459,-0.033215463,0.06264909,-0.07618667,-0.003019757,0.011971354,-0.03736589,-0.24899697,0.21068975,-9.289502,0.7866488,47.685097,-0.8163723,-1.7092402,-3.2731981,-0.5388156,0.099962376,-0.1398071,24.875,25.375,24.75,26.875,27.25,27.5
0.08605268,-1.4461626,-0.76087135,-0.71674037,0.0019319276,0.027281921,-0.11380958,-0.37456998,-0.32839018,0.059932757,3.0785015,-0.62471247,0.0002774442,-0.041714698,-0.005754556,0.0032203442,-0.01729887,0.0093131,0.0028690551,0.44657847,-1.4680126,2.0065167,-2.1078956,-1.5701298,2.4213989,-0.034692496,0.06534526,-0.078613356,-0.00262977,0.011410045,-0.037519578,-0.30645782,0.2681506,-9.308657,0.784413,47.666286,-0.7427336,-1.833622,-3.2209318,-0.54164684,0.092953615,-0.13811728,24.875,25.375,24.75,26.875,27.25,27.5
0.08805263,-1.8103888,-1.1876296,-0.7952328,-0.0012593131,0.02662722,-0.10844944,-0.3746138,-0.32839632,0.059917696,3.078536,-0.6246426,0.00035074478,-0.042263675,-0.0055418876,0.0028884478,-0.01689566,0.00862855,0.002679906,0.44654223,-1.4678802,2.0063975,-2.1078594,-1.5701178,2.4213147,-0.03553566,0.066896856,-0.079625554,-0.002376232,0.011339148,-0.0381733,-0.34476504,0.28730422,-9.32781,0.74413085,47.657326,-0.7813736,-1.8372687,-3.3647287,-0.551667,0.09567317,-0.15297556,24.875,25.375,24.75,26.875,27.25,27.5
0.0900525,-1.4707922,-0.55243284,-0.74532217,-0.021452768,0.037453312,-0.12286791,-0.3747072,-0.32839444,0.05992115,3.078515,-0.6246574,0.00034590022,-0.044153363,-0.006120411,0.003592232,-0.01733861,0.010227854,0.002775913,0.44644606,-1.4677355,2.0062277,-2.1078475,-1.5701059,2.4212306,-0.035946336,0.0692267,-0.08387524,-0.002087349,0.011041755,-0.038676616,-0.38307226,0.2681506,-9.289502,0.78888994,47.67166,-0.8263519,-1.8998567,-3.0602756,-0.5597594,0.10219784,-0.16877314,24.875,25.375,24.75,26.875,27.25,27.5
0.09205252,-1.7627555,-0.8331768,-0.8843789,-0.015348322,0.03178702,-0.11438358,-0.37478927,-0.3284409,0.059936516,3.0784504,-0.624509,0.00034149466,-0.043347,-0.005684795,0.0023038317,-0.015394815,0.0077810492,0.0035556857,0.4464103,-1.4675913,2.0060365,-2.107859,-1.5700339,2.4211104,-0.03555941,0.07081255,-0.082753934,-0.0017424051,0.010350836,-0.039068405,-0.28730422,0.34476504,-9.3661175,0.784413,47.68599,-0.88143045,-1.7991638,-3.3229728,-0.5530322,0.105198115,-0.1769065,24.875,25.375,24.75,26.875,27.25,27.5
0.094052434,-1.9147769,-1.2425097,-0.8157993,-0.015573094,0.023803087,-0.11030155,-0.37488383,-0.32842863,0.059931684,3.0784156,-0.62463766,0.00032603298,-0.045542322,-0.0054875677,0.002687793,-0.015973369,0.008720633,0.0016716054,0.4463014,-1.4674468,2.0058916,-2.1078713,-1.5700334,2.4210863,-0.037975553,0.07315208,-0.08622466,-0.0017074568,0.010461918,-0.03959809,-0.3256114,0.30645782,-9.404425,0.78888994,47.690468,-0.75430065,-1.8635194,-3.227939,-0.56357545,0.102840826,-0.20123476,24.875,25.375,24.75,26.875,27.25,27.5
0.096051656,-1.3558308,-0.60033274,-0.70906615,-0.030824156,0.02714122,-0.11431949,-0.37496093,-0.32843778,0.059932932,3.078426,-0.624544,0.00033849583,-0.046021048,-0.0052465354,0.0020424293,-0.015815036,0.0075048204,0.0009881983,0.44624108,-1.4673022,2.0057242,-2.1078475,-1.570022,2.4209664,-0.039108146,0.07508701,-0.08685163,-0.0018503843,0.010843036,-0.040047113,-0.21068975,0.30645782,-9.3661175,0.7329411,47.66539,-0.7914428,-1.9542248,-3.173995,-0.5729803,0.117779166,-0.22389063,24.875,25.375,24.75,26.875,27.25,27.5
0.09805187,-1.2193105,-0.72843206,-0.7403133,-0.023012836,0.020377748,-0.11052536,-0.3750798,-0.3284542,0.059950545,3.078355,-0.6245877,0.00024498452,-0.047926135,-0.0049620406,0.002178418,-0.01541831,0.008766007,0.00027791093,0.44615632,-1.4671458,2.00552,-2.1078837,-1.5700101,2.420918,-0.040737025,0.077401765,-0.08959937,-0.0023787906,0.0099385725,-0.04096151,-0.21068975,0.30645782,-9.385271,0.78217715,47.682407,-0.7397893,-1.825624,-3.2868457,-0.5647057,0.1018132,-0.23090795,24.875,25.375,24.75,26.875,27.25,27.5
0.1000518,-1.3296115,-1.0321186,-0.79505026,-0.009303246,0.011791887,-0.10784907,-0.37518296,-0.32847846,0.059968848,3.0783205,-0.62446505,0.00021908255,-0.049449734,-0.005244949,0.0025760888,-0.016343594,0.0102589615,0.0008228463,0.4460841,-1.4669896,2.0053036,-2.1078718,-1.5699738,2.4207737,-0.04169429,0.07888883,-0.091957845,-0.003251086,0.010125576,-0.042461608,-0.19153613,0.24899697,-9.32781,0.7665104,47.713753,-0.7272818,-1.9720021,-3.1716251,-0.55644894,0.11042903,-0.25121042,24.875,25.375,24.75,26.875,27.25,27.5
0.102051824,-1.1402432,-1.0157942,-0.88275516,-0.00090984534,0.014635225,-0.10738476,-0.37526715,-0.32846358,0.059938576,3.0783405,-0.62448573,0.0002367674,-0.04989203,-0.0059543042,0.0026066434,-0.016369553,0.0109212715,0.004237948,0.4459885,-1.4668095,2.005183,-2.107908,-1.5699862,2.4206886,-0.040570907,0.08039274,-0.09358769,-0.003731236,0.009859795,-0.04475192,-0.17238252,0.2681506,-9.212888,0.7418897,47.684196,-0.8049359,-1.8514981,-3.1650608,-0.53982854,0.11086003,-0.24575886,24.875,25.375,24.75,26.875,27.25,27.5
0.10405182,-0.9350244,-0.23517108,-0.7675148,-0.013755703,0.020361865,-0.11868418,-0.37535605,-0.32849172,0.059947014,3.0782857,-0.6244558,0.00023939059,-0.050664593,-0.0061344593,0.0028894779,-0.016958402,0.011251291,0.0032661594,0.4459284,-1.4666533,2.0049918,-2.1079075,-1.5699381,2.4206169,-0.041179817,0.08123191,-0.095227495,-0.0034811506,0.010248274,-0.044388175,-0.17238252,0.28730422,-9.346964,0.8291774,47.682407,-0.82826155,-1.8355739,-3.165233,-0.54339886,0.124688506,-0.2664668,24.875,25.375,24.75,26.875,27.25,27.5
0.10605228,-1.2774305,-0.6813876,-0.7866003,-0.0024933408,0.014282733,-0.11213627,-0.3754769,-0.32850057,0.05998453,3.078248,-0.6244687,0.00013878143,-0.052012485,-0.0056581716,0.0015841954,-0.01593011,0.008693011,0.0007821563,0.44584364,-1.4665197,2.0047505,-2.1078718,-1.5699495,2.420545,-0.04339274,0.08617838,-0.09777056,-0.0031333358,0.010423646,-0.044114396,-0.095768064,0.2681506,-9.270349,0.7777002,47.66808,-0.71307486,-2.050681,-3.1155524,-0.5424284,0.128534,-0.3009594,24.875,25.375,24.75,26.875,27.25,27.5
0.10805236,-1.7295699,-1.0172504,-0.757498,0.0010746857,-0.0019761678,-0.10617828,-0.37557426,-0.32852194,0.05996969,3.0782068,-0.62442136,0.0002225395,-0.05264866,-0.005827589,0.002985757,-0.017232515,0.010996978,0.001889482,0.44574746,-1.4663051,2.0045483,-2.1078718,-1.569878,2.4204247,-0.04375261,0.08408779,-0.09881019,-0.0026389956,0.01060568,-0.04558184,-0.1340753,0.28730422,-9.308656,0.78888994,47.678825,-0.74099994,-1.762449,-3.1862803,-0.55634755,0.12656946,-0.3139874,24.875,25.375,24.75,26.875,27.25,27.5
0.11005255,-1.3105887,-1.1205702,-0.8817106,-0.0073387083,0.005501818,-0.103757106,-0.37570474,-0.32852912,0.059990782,3.078198,-0.6243991,7.248359e-05,-0.052840132,-0.005952985,0.0010063968,-0.01576281,0.007068366,0.0032743984,0.44567534,-1.4661354,2.0043185,-2.1078956,-1.5699257,2.42034,-0.043926172,0.089633584,-0.1004593,-0.0023590645,0.0109758405,-0.047138087,-0.21068975,0.2873042,-9.404425,0.7665104,47.701214,-0.8056542,-1.9418778,-3.2073202,-0.5525172,0.12048747,-0.3251705,24.875,25.375,24.75,26.875,27.25,27.5
0.11205262,-1.1700046,-0.76542914,-0.8707893,-0.021983512,0.008803059,-0.113366984,-0.3758159,-0.32853144,0.059997484,3.0781376,-0.6244824,7.779976e-05,-0.05347993,-0.006066392,0.0020776337,-0.016788263,0.0090937475,0.003932822,0.44555533,-1.4659681,2.0041163,-2.1078837,-1.5698899,2.4202797,-0.044304974,0.088152625,-0.101311184,-0.0022922975,0.011029741,-0.048174907,-0.15322891,0.22984336,-9.346964,0.7486078,47.687782,-0.80654824,-1.9344487,-3.2164292,-0.5602816,0.12708157,-0.33816478,24.875,25.375,24.75,26.875,27.25,27.5
0.114051886,-1.1978179,-0.9664484,-0.9515016,-0.017699905,0.014329584,-0.111198045,-0.37592918,-0.3285605,0.060018647,3.0780673,-0.6244314,8.766437e-06,-0.054082476,-0.006052921,0.0008930633,-0.015671404,0.007476442,0.0015589766,0.4454832,-1.4658111,2.0039003,-2.1079075,-1.5698537,2.4201849,-0.044648543,0.0919622,-0.10269564,-0.0027743687,0.010718814,-0.04614189,-0.15322891,0.21068975,-9.346964,0.80679786,47.709274,-0.8334149,-1.955807,-3.245268,-0.55435526,0.113534376,-0.37916982,24.875,25.375,24.75,26.875,27.25,27.5
0.11605227,-1.2384167,-0.860063,-0.7944002,-0.011346661,0.014574884,-0.1107004,-0.37602264,-0.3285606,0.059988994,3.0780497,-0.6244842,8.9064844e-05,-0.054242466,-0.0060451017,-0.000113451046,-0.015530213,0.005625959,0.0013588424,0.445375,-1.4655945,2.0037324,-2.1079195,-1.5698179,2.420112,-0.045241006,0.09445126,-0.103062205,-0.0031653587,0.011386836,-0.046534613,-0.11492168,0.17238252,-9.3661175,0.800085,47.65912,-0.86055756,-2.0577688,-3.332357,-0.5486754,0.14360315,-0.43365663,24.875,25.375,24.75,26.875,27.25,27.5
0.11805226,-1.2715558,-0.6511069,-0.6327055,-0.002501881,0.0071324334,-0.11096816,-0.37614468,-0.328568,0.05999628,3.0780392,-0.6244236,4.34457e-05,-0.055455334,-0.006688394,0.00021702213,-0.016286377,0.006665304,0.0037019944,0.44527897,-1.4654022,2.003504,-2.10792,-1.5698179,2.4199796,-0.04526548,0.09631105,-0.10579679,-0.0035522976,0.0116189085,-0.048900075,-0.076614454,0.1340753,-9.2703495,0.78217715,47.694946,-0.8361517,-1.9014503,-3.270417,-0.55100095,0.14338924,-0.44050467,24.875,25.375,24.75,26.875,27.25,27.5
0.12005218,-0.8513756,-0.31114882,-0.6597829,0.010428612,0.010180803,-0.11665144,-0.3762646,-0.3285856,0.06001141,3.0779796,-0.62437123,-6.499548e-05,-0.056848906,-0.007582699,0.0014802493,-0.017849583,0.008944746,0.006079402,0.44519523,-1.4652466,2.0033114,-2.1079795,-1.569805,2.4198709,-0.04511514,0.09672539,-0.10922471,-0.0032674777,0.012048612,-0.05112443,-0.05746084,0.22984336,-9.289502,0.7732232,47.691364,-0.99299574,-1.9982824,-3.2878835,-0.5362253,0.15827528,-0.45916015,24.875,25.375,24.75,26.875,27.25,27.5
0.12205255,-0.5679631,-0.13545279,-0.8505264,0.012873992,0.007213228,-0.114217,-0.3763752,-0.32859805,0.06000983,3.0779312,-0.62441933,-1.7124676e-05,-0.05631894,-0.006716064,-0.0002715025,-0.017033547,0.00482856,0.0060295,0.4450865,-1.4650419,2.003084,-2.1079552,-1.5697569,2.4197984,-0.046943776,0.09900265,-0.107832015,-0.0028695257,0.013090771,-0.052904725,-0.11492168,0.22984336,-9.232041,0.8717007,47.703903,-0.92507464,-1.9835827,-3.3792005,-0.5450736,0.145996,-0.46021745,24.875,25.375,24.75,26.875,27.25,27.5
0.12405245,-1.0894778,-0.6179973,-0.977515,0.012272948,-0.008600825,-0.108917855,-0.37649444,-0.32863203,0.060017586,3.0779142,-0.6242591,-5.6015226e-05,-0.057663176,-0.008084917,0.001680159,-0.01854124,0.008732815,0.010565075,0.44502705,-1.4648267,2.0028317,-2.1079671,-1.5697335,2.4196413,-0.045354635,0.098435186,-0.11177403,-0.0025275361,0.012768438,-0.05584817,0.0,0.22984336,-9.270349,0.784413,47.666286,-0.9658212,-1.823247,-3.4218798,-0.52335566,0.15891556,-0.46599352,24.875,25.375,24.75,26.875,27.25,27.5
0.12605183,-1.3741066,-0.8424525,-0.8258921,0.004265717,-0.010177781,-0.099412985,-0.37663078,-0.3286466,0.0600236,3.0778441,-0.6243193,-7.8428035e-05,-0.05695628,-0.0077807284,-0.00027738215,-0.016434582,0.0049921027,0.014488577,0.44490725,-1.4646095,2.0025814,-2.1079795,-1.5696973,2.419568,-0.045076452,0.10192695,-0.11121616,-0.0022863352,0.012485403,-0.059492584,-0.019153614,0.22984336,-9.3661175,0.81351066,47.709274,-1.1410587,-2.0371885,-3.4045138,-0.52831584,0.15112978,-0.45220017,24.875,25.375,24.75,26.875,27.25,27.5
0.12805183,-1.0884511,-0.81875527,-0.7491113,-0.009755432,0.013051089,-0.11400542,-0.37671015,-0.3286545,0.060006384,3.0779223,-0.6241222,-3.0755084e-05,-0.058405004,-0.0075579393,0.0013863815,-0.017521808,0.0081717735,0.016151508,0.4448586,-1.4644066,2.0023887,-2.1079428,-1.5697092,2.4193866,-0.046518482,0.10001047,-0.1130224,-0.0018978231,0.012095274,-0.06259721,-0.038307227,0.19153613,-9.251195,0.7911258,47.678825,-1.0891594,-1.7618618,-3.4187255,-0.54157054,0.16229513,-0.43739387,24.875,25.375,24.75,26.875,27.25,27.5
0.13005207,-1.0886374,-0.67207074,-0.6492968,-0.019100763,0.0088826725,-0.120744795,-0.37684903,-0.32867002,0.0600164,3.077856,-0.6241643,-5.291151e-05,-0.05840007,-0.0074693984,-0.0011410451,-0.01637175,0.0029041586,0.019544164,0.44473845,-1.4641888,2.0021255,-2.1079428,-1.569673,2.4193013,-0.047489148,0.10607084,-0.11397092,-0.0017566734,0.013329214,-0.06695953,-0.019153614,0.24899697,-9.251195,0.76874626,47.666286,-1.2096232,-2.0501997,-3.4909654,-0.54866886,0.16999623,-0.41197455,24.875,25.375,24.75,26.875,27.25,27.5
0.1320521,-1.2726445,-1.0284672,-0.8122412,-0.0060308077,-0.0046566105,-0.11433403,-0.37695444,-0.32868645,0.060003497,3.077836,-0.6240632,-9.233445e-06,-0.06030849,-0.008000035,0.001095862,-0.019026851,0.007049271,0.022780662,0.444642,-1.463974,2.001921,-2.1079547,-1.5696248,2.4191444,-0.048598975,0.104231834,-0.117108315,-0.0016581479,0.013940735,-0.07130485,0.019153614,0.22984336,-9.270349,0.8247004,47.66808,-1.0518079,-1.7412856,-3.3898783,-0.5322992,0.18329617,-0.37134722,24.875,25.375,24.75,26.875,27.25,27.5
0.13405201,-0.8704885,-0.45577294,-0.8523192,-0.010709978,-0.0011151095,-0.120708466,-0.37707534,-0.32869354,0.060016528,3.0777953,-0.6239741,-3.4001754e-05,-0.060431432,-0.008836206,0.00023727959,-0.01913252,0.0053128554,0.028095964,0.44452235,-1.4638053,2.001705,-2.1079547,-1.5695885,2.4189744,-0.04769307,0.10758735,-0.11883738,-0.0017570178,0.014787242,-0.07571269,0.0,0.1340753,-9.32781,0.8851263,47.687782,-1.1897519,-1.8189719,-3.578169,-0.55082875,0.18717013,-0.32722083,24.875,25.375,24.75,26.875,27.25,27.5
0.13605236,-0.550141,-0.57765913,-1.0045389,0.0027333717,0.008855318,-0.11926508,-0.37720788,-0.3287014,0.060014784,3.077816,-0.6238806,-5.92083e-05,-0.061516933,-0.008440878,-2.051091e-05,-0.019030422,0.0049077594,0.030336669,0.44442573,-1.4635651,2.0014412,-2.1079428,-1.5696,2.418817,-0.049440607,0.10944411,-0.120333,-0.0017045245,0.014871243,-0.079699725,-0.038307227,0.24899697,-9.251195,0.83365434,47.674347,-1.2060431,-1.9033027,-3.358333,-0.54200315,0.1855736,-0.27715057,24.875,25.375,24.75,26.875,27.25,27.5
0.13805224,-1.1604342,-0.8064292,-1.0002413,0.0010589202,0.0039025333,-0.11403164,-0.37731442,-0.32873097,0.060016286,3.0777824,-0.6237776,-4.5036573e-05,-0.06375559,-0.008957151,0.001440006,-0.020845959,0.008149917,0.031500112,0.4443533,-1.4633613,2.0012128,-2.1079433,-1.5695523,2.4186847,-0.050624877,0.10995448,-0.12417677,-0.0020725576,0.01511241,-0.08204486,0.0,0.2681506,-9.385271,0.8247004,47.70032,-1.1093494,-1.7281523,-3.3967662,-0.54294956,0.19048241,-0.22787967,24.875,25.375,24.75,26.875,27.25,27.5
0.14005238,-1.5368559,-0.86621577,-1.1797271,-0.01821828,0.00768224,-0.11373912,-0.3774464,-0.32872146,0.06000076,3.0777905,-0.6237213,-1.9771474e-05,-0.064871654,-0.009036542,0.0019456694,-0.021130985,0.009377118,0.032472078,0.4442091,-1.4631213,2.0009835,-2.1079428,-1.5695404,2.4185045,-0.051265705,0.11068034,-0.12617181,-0.0020281868,0.014840891,-0.08365642,-0.1340753,0.30645782,-9.481039,0.8224646,47.68062,-1.1974845,-1.705589,-3.3321102,-0.5536057,0.18979833,-0.19848531,24.875,25.375,24.75,26.875,27.25,27.5
0.14205231,-1.6777482,-1.4458342,-1.229354,-0.024349123,0.018278034,-0.10791533,-0.37757632,-0.32876447,0.060023934,3.0777462,-0.6235392,-8.989836e-05,-0.066396534,-0.009349196,0.0025595666,-0.022451567,0.010294187,0.031250328,0.44414866,-1.4629172,2.0007079,-2.1079547,-1.5695041,2.4183362,-0.052564304,0.11201268,-0.12911807,-0.0018086284,0.015641607,-0.08373073,-0.19153613,0.3256114,-9.519346,0.8717007,47.686886,-1.1666679,-1.6534998,-3.4010162,-0.5536038,0.19823098,-0.17363715,24.875,25.375,24.75,26.875,27.25,27.5
0.14405224,-2.1372242,-1.7094421,-1.3451487,-0.031270824,0.01772415,-0.104873575,-0.37771013,-0.3287708,0.060021747,3.077747,-0.6234633,-2.4941945e-05,-0.0667268,-0.009014245,0.0015929822,-0.021305218,0.008377739,0.029651511,0.4440165,-1.4626647,2.0004203,-2.1078951,-1.5694684,2.4181566,-0.053315464,0.11471476,-0.1300127,-0.001388019,0.015428433,-0.08288255,-0.22984336,0.36391866,-9.5385,0.7978386,47.65464,-1.2019167,-1.7117076,-3.4017696,-0.5637051,0.20495912,-0.15298577,24.875,25.375,24.75,26.875,27.25,27.5
0.14605232,-1.9488908,-1.8122619,-1.3638567,-0.032618903,0.030292274,-0.11310567,-0.37785184,-0.3288046,0.060024798,3.0776708,-0.62335366,-9.840308e-05,-0.06812833,-0.009291137,0.0023442195,-0.022688994,0.009496833,0.026478037,0.44392008,-1.4624369,2.000181,-2.107979,-1.5694197,2.4180017,-0.054543618,0.11547963,-0.13266523,-0.0011046566,0.016200187,-0.08093467,-0.22984336,0.34476504,-9.615114,0.8537928,47.645687,-1.1494272,-1.5695198,-3.348422,-0.5716331,0.23067379,-0.17620805,24.875,25.375,24.75,26.875,27.25,27.5
0.14805225,-1.9143963,-1.7690933,-1.3840432,-0.030044993,0.029240072,-0.10370889,-0.37798265,-0.3288287,0.06003952,3.077676,-0.6231832,-0.00015699601,-0.068740346,-0.009170016,0.0014569056,-0.021783493,0.008013514,0.022909708,0.4438479,-1.4622201,1.999905,-2.1079667,-1.5694197,2.4178226,-0.055174213,0.11858834,-0.1341052,-0.0010463325,0.016018743,-0.07799483,-0.28730422,0.34476504,-9.710882,0.84484416,47.658226,-1.2299621,-1.8957738,-3.4165087,-0.5636531,0.23662911,-0.17997319,24.875,25.375,24.75,26.875,27.25,27.5
0.15005216,-1.850555,-1.3330067,-1.269034,-0.023719592,0.030424874,-0.109013684,-0.37809527,-0.32884628,0.060016938,3.077667,-0.6231654,-2.5118225e-05,-0.069518715,-0.009088363,0.0012642376,-0.021972159,0.00761973,0.017373633,0.4437395,-1.4619445,1.9996413,-2.107919,-1.5693597,2.4177043,-0.05621923,0.12016506,-0.13544719,-0.0010063696,0.016348522,-0.07350397,-0.4213795,0.34476504,-9.634268,0.7978386,47.66271,-1.1807811,-1.6651789,-3.3944726,-0.5791749,0.24252468,-0.23806626,24.875,25.375,24.75,26.875,27.25,27.5
0.1520522,-2.0294366,-0.91930026,-1.1815817,-0.023187991,0.030454144,-0.112631716,-0.37826988,-0.328857,0.06005335,3.0775907,-0.6230929,-0.00017782439,-0.07041401,-0.009213202,0.0014904905,-0.022944247,0.007739793,0.015285295,0.4435951,-1.4617523,1.9993538,-2.1079547,-1.5693473,2.4175246,-0.05730988,0.12114656,-0.13710311,-0.0008584484,0.017182762,-0.07250349,-0.4213795,0.2681506,-9.5385,0.85826975,47.672558,-1.1156807,-1.6185472,-3.3845792,-0.581974,0.2403045,-0.28735155,24.875,25.375,24.75,26.875,27.25,27.5
0.15405235,-2.1024306,-0.8774766,-1.2425846,-0.01625733,0.03297559,-0.11316911,-0.37841105,-0.32889903,0.060060192,3.077521,-0.6230411,-0.0001525775,-0.07212601,-0.009845159,0.00083829986,-0.022936335,0.006833462,0.0134633,0.443499,-1.4614867,1.9990419,-2.1079428,-1.5692753,2.4174051,-0.057884872,0.12635194,-0.14136793,-0.00097296335,0.017557938,-0.07125279,-0.38307226,0.21068975,-9.519346,0.8873621,47.667187,-1.3049579,-1.6121469,-3.2251906,-0.5659168,0.23545483,-0.28609455,24.875,25.375,24.75,26.875,27.25,27.5
0.15605253,-1.849522,-0.51900977,-1.0330276,-0.010760164,0.034443498,-0.11230788,-0.3785675,-0.32892007,0.060074687,3.0774517,-0.6230092,-0.00018078998,-0.07350886,-0.009349397,8.570524e-06,-0.023303205,0.006477244,0.009850522,0.44336617,-1.4612463,1.9987429,-2.1079433,-1.5692271,2.4172614,-0.06033497,0.12911189,-0.14212844,-0.0028054386,0.018041344,-0.07008794,-0.36391866,0.21068975,-9.442732,0.83589023,47.698532,-1.1975341,-1.767341,-3.500558,-0.56171215,0.25134498,-0.34391287,24.875,25.375,24.75,26.875,27.25,27.5
0.15805249,-1.8983907,-0.55774844,-1.0450598,-0.00012187834,0.034160893,-0.12705743,-0.37872502,-0.32897812,0.06009523,3.0773637,-0.6228369,-0.00027516249,-0.074733526,-0.009315517,-0.00018203478,-0.023414146,0.007094871,0.01066061,0.4432938,-1.4609941,1.9984311,-2.1080039,-1.5691675,2.4170928,-0.061355095,0.1311214,-0.14370874,-0.0038315603,0.017882753,-0.071914524,-0.30645782,0.19153613,-9.3661175,0.8314132,47.696735,-1.1874261,-1.7583131,-3.393647,-0.544141,0.25132713,-0.3392319,24.875,25.375,24.75,26.875,27.25,27.5
0.16005245,-1.4054725,0.037594806,-0.8169023,-0.0008999983,0.033915836,-0.11961434,-0.37886807,-0.32896718,0.060074132,3.0773566,-0.6228543,-0.00024946878,-0.07602955,-0.009544979,-0.00022308885,-0.023984928,0.006966337,0.011074712,0.44313738,-1.4607298,1.9981898,-2.1080158,-1.5691551,2.4169483,-0.06242915,0.13359323,-0.14640519,-0.0037318172,0.018451583,-0.07340117,-0.36391866,0.076614454,-9.32781,0.78888994,47.698532,-1.1549134,-1.7866969,-3.3364606,-0.5391591,0.24647774,-0.33762035,24.875,25.375,24.75,26.875,27.1875,27.5
0.1620525,-1.6426251,-0.3932388,-0.7824538,0.0180795,0.022297207,-0.114198886,-0.37903517,-0.32897216,0.06008957,3.077313,-0.6228654,-0.00026938537,-0.07707874,-0.009718091,-0.0002855654,-0.02415755,0.00656094,0.0101319365,0.4429812,-1.4604771,1.9978665,-2.1079795,-1.5691308,2.4168048,-0.06322358,0.13587615,-0.14894624,-0.0031780757,0.018782048,-0.07325066,-0.30645782,0.038307227,-9.346964,0.7978386,47.705692,-1.2374926,-1.9081485,-3.2905502,-0.529611,0.27147704,-0.35109195,24.875,25.375,24.75,26.875,27.1875,27.5
0.16405226,-1.477543,0.08966668,-0.4688662,0.013910087,0.023556503,-0.119409576,-0.37920195,-0.32899815,0.06009975,3.0772414,-0.6228118,-0.00031147382,-0.07721503,-0.009202199,-0.0023981335,-0.022311434,0.0024606495,0.009788365,0.44284874,-1.4602118,1.9975551,-2.1080034,-1.5690826,2.4166481,-0.06433604,0.1407568,-0.14961301,-0.0028892616,0.01887855,-0.074017264,-0.34476504,0.038307227,-9.270349,0.7709874,47.686886,-1.1559125,-1.8892734,-3.266704,-0.5374007,0.2733161,-0.3783751,24.875,25.375,24.75,26.875,27.1875,27.5
0.16605179,-1.3571881,0.13396397,-0.48331442,0.0068645417,0.03153717,-0.12118464,-0.3793584,-0.32903412,0.060101304,3.0771644,-0.62271863,-0.00031957353,-0.079259545,-0.009949015,-0.00024713782,-0.025008043,0.006358511,0.010470178,0.4427284,-1.459937,1.9972557,-2.1080391,-1.5690111,2.4164796,-0.065239206,0.13969938,-0.15345056,-0.002664322,0.019645695,-0.075599276,-0.40222588,0.17238252,-9.212888,0.8112748,47.64837,-1.1848054,-1.8399806,-3.1992044,-0.5357537,0.25831392,-0.3719926,24.875,25.375,24.75,26.875,27.1875,27.5
0.16805176,-1.372449,-0.26297054,-0.54289407,0.0022347306,0.04180182,-0.11976558,-0.37947005,-0.3290254,0.060055975,3.0772083,-0.6227287,-0.00015952032,-0.07970519,-0.009412586,-0.00075907237,-0.024765125,0.0052664327,0.009196488,0.442596,-1.459637,1.9970163,-2.107991,-1.5689863,2.416348,-0.06676717,0.14093252,-0.15371509,-0.0025379858,0.019887878,-0.07585551,-0.2681506,0.076614454,-9.174581,0.82694155,47.684196,-1.1230547,-1.8236628,-3.368136,-0.53276163,0.27795497,-0.4075239,24.875,25.375,24.75,26.875,27.1875,27.5
0.17005178,-1.0451903,-0.10049689,-0.18562849,-0.009148313,0.047446165,-0.13263528,-0.3796917,-0.32907748,0.060115743,3.0770957,-0.6226247,-0.00040239823,-0.08028277,-0.009536464,-0.00094739225,-0.024220522,0.0050286627,0.014558523,0.4424882,-1.4593729,1.9965981,-2.1080391,-1.5689749,2.41619,-0.0667589,0.14272252,-0.1553756,-0.002206646,0.019519664,-0.08120423,-0.40222588,0.17238252,-9.040505,0.7866488,47.68599,-1.1918925,-1.8623604,-3.3645039,-0.5260404,0.28339627,-0.39379883,24.875,25.375,24.75,26.875,27.1875,27.5
0.17205168,-1.9522253,-0.7275555,-0.28690073,0.0085066855,0.025958467,-0.110105455,-0.37984586,-0.3290558,0.060084946,3.0770934,-0.6226828,-0.00031989565,-0.08239332,-0.00855478,-0.00041968038,-0.025097962,0.005963041,0.0131139625,0.4422946,-1.4590734,1.996334,-2.1080267,-1.568951,2.416033,-0.07068034,0.14343193,-0.15744387,-0.0020595195,0.019911204,-0.08368089,-0.30645782,0.17238252,-8.983045,0.9164598,47.66539,-1.0209147,-1.7304957,-3.3638566,-0.5190629,0.2732587,-0.34525055,24.875,25.375,24.75,26.875,27.1875,27.5
0.17405255,-1.7906613,-0.7859677,-0.34269375,0.013559508,0.018839309,-0.105011046,-0.38001078,-0.32907945,0.060107574,3.0770497,-0.6226124,-0.00037248572,-0.08276616,-0.01001644,-1.8321542e-05,-0.026380407,0.00641033,0.018429773,0.44217545,-1.4588212,1.9959973,-2.108003,-1.5689262,2.4158757,-0.06890195,0.1450085,-0.16019319,-0.0018331264,0.020885827,-0.0872154,-0.34476504,0.1340753,-9.040505,0.82022345,47.692257,-1.1197436,-1.7721004,-3.2988186,-0.53133154,0.29179817,-0.33376923,24.875,25.375,24.75,26.875,27.1875,27.5
0.17605336,-1.342001,-0.3176656,-0.32049492,0.013470398,0.017185112,-0.12070125,-0.38018277,-0.32911184,0.0601052,3.076994,-0.6225032,-0.000374245,-0.083643846,-0.009506378,-0.00044192726,-0.026641125,0.00543759,0.021743122,0.4420427,-1.4585092,1.9956626,-2.1080267,-1.5688661,2.415682,-0.07103311,0.1466539,-0.16109896,-0.0017902721,0.02155047,-0.09265825,-0.2681506,0.22984336,-9.002198,0.7396539,47.716442,-1.0899694,-1.6187696,-3.389451,-0.5261931,0.30216002,-0.27149424,24.875,25.375,24.75,26.875,27.1875,27.5
0.17805243,-1.0189338,0.1276773,-0.31863728,0.012477302,0.010671928,-0.11899452,-0.38034907,-0.32912594,0.06009697,3.076989,-0.6223095,-0.0003689881,-0.085488856,-0.0080708675,-0.0017418201,-0.02605794,0.0029099244,0.022143904,0.44189698,-1.4582084,1.9953507,-2.1080387,-1.5688299,2.4154162,-0.07567718,0.15080473,-0.16278778,-0.0017048555,0.022113234,-0.097701065,-0.17238252,0.19153614,-9.021352,0.78217715,47.672558,-0.95411897,-1.6962334,-3.3283622,-0.5285728,0.30945733,-0.22248904,24.875,25.375,24.75,26.875,27.1875,27.5
0.18005238,-1.0201714,-0.38515857,-0.5912588,0.009732959,0.0067821364,-0.11446015,-0.38053545,-0.32913166,0.060104936,3.076932,-0.62229407,-0.00039681475,-0.086678535,-0.009885571,0.0014000094,-0.02910472,0.009167775,0.028782152,0.44171798,-1.457922,1.995015,-2.1080387,-1.5687937,2.415235,-0.07335577,0.14737202,-0.16618085,-0.0018239733,0.02219911,-0.102015495,-0.2681506,0.22984336,-9.097966,0.7463667,47.692257,-0.9826846,-1.5801692,-3.4202995,-0.5152558,0.30052412,-0.16357543,24.875,25.375,24.75,26.875,27.1875,27.5
0.18205224,-1.2486943,-0.6616436,-0.74520105,0.0066821133,0.006140552,-0.10676488,-0.380701,-0.3291628,0.060116142,3.0768495,-0.6222202,-0.00037606177,-0.08702508,-0.0087640695,0.0002218177,-0.028378014,0.0067352215,0.02819258,0.441573,-1.4576457,1.9946803,-2.1080267,-1.5687097,2.4150546,-0.075968735,0.1492489,-0.16562492,-0.0017328487,0.022594126,-0.10403795,-0.19153613,0.19153613,-9.136273,0.77545905,47.65912,-0.9389117,-1.6720518,-3.4417782,-0.5162474,0.29916215,-0.09970475,24.875,25.375,24.75,26.875,27.1875,27.5
0.18405229,-0.97899514,-0.5598761,-0.7123723,-0.00083856797,0.025148239,-0.11421427,-0.38088012,-0.32916844,0.06008817,3.0768626,-0.6220705,-0.00037804988,-0.08819999,-0.00859656,-3.564548e-05,-0.028588822,0.0061092908,0.025875347,0.44141635,-1.4572974,1.9943689,-2.1080744,-1.5686973,2.414803,-0.077578194,0.15157197,-0.16772044,-0.0014825617,0.023050994,-0.10332846,-0.17238252,0.24899697,-9.270349,0.779936,47.68062,-0.8525789,-1.6162329,-3.3791332,-0.5101925,0.30876788,-0.09248112,24.875,25.375,24.75,26.875,27.1875,27.5
0.18605255,-1.3039929,-0.9238192,-0.97839606,0.002368743,0.019116826,-0.1126205,-0.3810315,-0.32916942,0.060077347,3.0768614,-0.6220724,-0.00028523963,-0.089387655,-0.008813298,0.00024225684,-0.02909277,0.0065163583,0.022786193,0.4412601,-1.4569976,1.9940447,-2.108003,-1.5686616,2.4146483,-0.07836256,0.15320499,-0.17029418,-0.0011230751,0.023322271,-0.101023175,-0.22984336,0.21068975,-9.289502,0.8224646,47.707485,-0.8282202,-1.584245,-3.3641598,-0.51100314,0.312629,-0.066244826,24.875,25.375,24.75,26.875,27.1875,27.5
0.1880519,-1.4764963,-0.20272121,-0.98083127,-0.013360011,0.013696342,-0.109983146,-0.38121596,-0.32921436,0.06008811,3.076752,-0.62193686,-0.00031292057,-0.090172395,-0.008835836,0.00016747379,-0.028982423,0.0064552207,0.01886599,0.4411161,-1.4566976,1.993698,-2.1080506,-1.5685652,2.4144337,-0.07891645,0.1547828,-0.17196131,-0.00092456175,0.02325178,-0.097653665,-0.21068975,0.21068975,-9.3661175,0.7284641,47.670765,-0.8634509,-1.4159831,-3.430569,-0.5250509,0.3235787,-0.10005325,24.875,25.375,24.75,26.875,27.1875,27.5
0.19005181,-1.7110596,-0.993129,-1.2737696,0.0051081814,0.0093819555,-0.105174065,-0.3814051,-0.3292198,0.060067486,3.076748,-0.62188166,-0.00024792968,-0.09148681,-0.0074359863,-0.00022279726,-0.029591342,0.0052541164,0.011221174,0.44093454,-1.4563258,1.993327,-2.1080267,-1.568529,2.4142184,-0.08333153,0.1557587,-0.17223388,-0.0008039961,0.02431014,-0.094424106,-0.22984336,0.21068975,-9.461885,0.7933669,47.66987,-0.62166,-1.6643622,-3.4744668,-0.5102533,0.31631598,-0.1355415,24.875,25.375,24.75,26.875,27.1875,27.5
0.1920518,-1.0269624,-0.48936287,-1.4525973,-0.0020103217,0.025999263,-0.12186816,-0.38156545,-0.32924473,0.060067322,3.0766816,-0.62184954,-0.00020821618,-0.09183369,-0.008542308,-0.0015453425,-0.028762903,0.0029329623,0.009594546,0.44079104,-1.4560363,1.9930032,-2.1080148,-1.568457,2.4140635,-0.08169223,0.16116348,-0.17527452,-0.00071268604,0.02454388,-0.09115512,-0.28730422,0.2681506,-9.576807,0.80679786,47.677036,-0.8092539,-1.7374269,-3.4409885,-0.5199054,0.32794994,-0.16706167,24.875,25.375,24.75,26.875,27.1875,27.5
0.19405216,-1.7733436,-0.7185903,-1.5086457,-0.010714795,0.016813895,-0.105023,-0.38175407,-0.3292393,0.06005346,3.076708,-0.62180084,-0.00020417164,-0.09378645,-0.008040732,-0.0012765767,-0.029385637,0.0035289805,0.0039978023,0.44062215,-1.4556884,1.9926428,-2.10799,-1.5684689,2.413861,-0.0844943,0.16292517,-0.17791718,-0.0006401351,0.024844065,-0.08835902,-0.36391866,0.17238252,-9.730036,0.90527004,47.6636,-0.72536445,-1.7338837,-3.4685163,-0.5150006,0.34380275,-0.21007809,24.875,25.375,24.75,26.875,27.1875,27.5
0.1960525,-1.3222897,-0.62194055,-1.3731136,-0.035585113,0.046187308,-0.12105348,-0.3819834,-0.3292602,0.060105477,3.0765562,-0.6218069,-0.00035620207,-0.09370425,-0.00860694,-0.0025913103,-0.028620837,0.0010422412,0.004266611,0.4404185,-1.4554355,1.9922484,-2.1080143,-1.5684088,2.4136808,-0.083557576,0.16682158,-0.17928956,-0.00058101676,0.025226137,-0.08768558,-0.30645782,0.22984336,-9.710882,0.83589023,47.716442,-0.56729245,-1.8344401,-3.4853318,-0.5268744,0.33846077,-0.25184986,24.875,25.375,24.75,26.875,27.1875,27.5
0.19805223,-1.7909936,-1.1721686,-1.5000896,-0.039880276,0.043842524,-0.109003715,-0.38214433,-0.32927006,0.060058832,3.076599,-0.6217591,-0.00025423107,-0.094376385,-0.009195294,-0.0028246383,-0.028994033,0.00046425447,0.002838663,0.44028646,-1.4550395,1.9919122,-2.1080024,-1.5683964,2.4135137,-0.083393306,0.16927338,-0.18159492,-0.00036463243,0.025798187,-0.08609347,-0.24899697,0.28730422,-9.691729,0.800085,47.69763,-0.78555906,-1.8866322,-3.466806,-0.5246016,0.3408053,-0.27021658,24.875,25.375,24.75,26.875,27.1875,27.5
0.20005223,-1.965804,-1.796911,-1.4582016,-0.0273611,0.04079701,-0.10414492,-0.38235518,-0.3293077,0.060088888,3.0764172,-0.6217619,-0.00027993,-0.09500438,-0.009551972,-0.0029104368,-0.029530115,0.000101880636,0.00047376673,0.4400824,-1.4547514,1.9915289,-2.1080263,-1.5682644,2.4133346,-0.08364652,0.17096034,-0.18335913,-0.00017832592,0.02644296,-0.08397735,-0.30645782,0.30645782,-9.615114,0.7597976,47.707485,-0.7280135,-1.9899131,-3.5560021,-0.53128535,0.3285901,-0.33701298,24.875,25.375,24.75,26.875,27.1875,27.5
0.20205224,-1.5120442,-1.0185513,-1.3797038,-0.031132026,0.03545362,-0.11007988,-0.3825273,-0.32931623,0.06005851,3.0764444,-0.6216878,-0.00022224673,-0.09583472,-0.009934539,-0.0027311586,-0.029777724,0.0007180331,0.0027491008,0.43993855,-1.4543797,1.9911822,-2.1080143,-1.5682524,2.4131413,-0.0835905,0.1723635,-0.18538442,-0.00020901958,0.02640303,-0.08619643,-0.24899697,0.30645782,-9.576807,0.75755644,47.65912,-0.82735777,-1.8757536,-3.4846213,-0.5165895,0.34131265,-0.3512625,24.875,25.375,24.75,26.875,27.1875,27.5
0.20405224,-1.2318242,-0.6226976,-1.1127814,-0.01978782,0.021910915,-0.1137507,-0.38270828,-0.32931602,0.060052823,3.0764153,-0.6217422,-0.00022732734,-0.09724665,-0.010920298,-0.0022539569,-0.030690946,0.0018469645,-0.0004922258,0.43977076,-1.4540673,1.9908451,-2.1080024,-1.5682405,2.4130113,-0.083170675,0.17477918,-0.18921408,-0.00020944515,0.026736937,-0.08253235,-0.1340753,0.24899697,-9.5385,0.8247004,47.684196,-0.9053742,-1.8831128,-3.4100914,-0.52450967,0.3541375,-0.42234206,24.875,25.375,24.75,26.875,27.1875,27.5
0.20605242,-0.9038493,-0.67635596,-1.2880087,-0.0018285539,0.010631788,-0.11611494,-0.38292715,-0.32934237,0.060061786,3.0763187,-0.6217409,-0.00023581699,-0.09856032,-0.011985888,-0.0004174255,-0.033452295,0.0051048785,0.00076606165,0.4395788,-1.4537085,1.9904255,-2.1080024,-1.568168,2.412831,-0.08302179,0.1736188,-0.19218126,-0.0001953737,0.027852988,-0.083638266,-0.05746084,0.3256114,-9.5385,0.9186956,47.694946,-0.95981914,-1.7731845,-3.3753269,-0.5269712,0.3463028,-0.47349283,24.875,25.375,24.75,26.875,27.1875,27.5
0.20805235,-1.2006807,-0.68182635,-1.3346355,-0.0066627865,-0.006992175,-0.10793992,-0.38313493,-0.32937628,0.06007273,3.076211,-0.62173474,-0.0002705038,-0.09820104,-0.011954907,-0.001819011,-0.032551605,0.0024003037,0.0038092888,0.43941107,-1.4533722,1.9900316,-2.1080263,-1.568096,2.4126735,-0.08293658,0.17639379,-0.1921218,-0.00018224822,0.028204475,-0.08659359,-0.095768064,0.30645782,-9.576807,0.7777002,47.672558,-0.99703324,-1.8266659,-3.4083266,-0.5198671,0.3478305,-0.4905994,24.875,25.375,24.75,26.875,27.1875,27.5
0.21005203,-0.80539274,-0.8393958,-1.2159675,-0.023741685,0.011987967,-0.117199995,-0.3833186,-0.32937488,0.06004025,3.0762281,-0.62169677,-0.0001860999,-0.099106446,-0.012025589,-0.0019951295,-0.032599557,0.0022664436,0.0093773035,0.4392308,-1.4529879,1.9896725,-2.1080024,-1.5680717,2.4124675,-0.08361389,0.17835608,-0.1939725,-0.00017072294,0.028311856,-0.09283908,-0.05746084,0.40222588,-9.481039,0.7933669,47.707485,-1.0349047,-1.9033778,-3.4613266,-0.51391774,0.34842682,-0.48282933,24.875,25.375,24.75,26.875,27.1875,27.5
0.21205208,-1.1069711,-1.3146865,-1.0367249,-0.04060647,0.012913648,-0.10826607,-0.3835416,-0.3294004,0.06005162,3.0761797,-0.6216272,-0.000282255,-0.1006658,-0.012196891,-0.0009350192,-0.03335559,0.0046915743,0.01367404,0.43907437,-1.4526287,1.989252,-2.1080263,-1.5680598,2.4122741,-0.084379755,0.17853716,-0.19666079,-0.00016056489,0.027980361,-0.097898126,0.038307227,0.3256114,-9.385271,0.77545905,47.685097,-1.0063837,-1.6801519,-3.3835633,-0.5153868,0.3496554,-0.43139148,24.875,25.375,24.75,26.875,27.1875,27.5
0.21405186,-0.50568795,-1.4426178,-0.94841856,-0.046640866,0.019438386,-0.11304246,-0.38373345,-0.32946932,0.06008503,3.0760531,-0.62140536,-0.00032006163,-0.10209289,-0.012473583,0.00015682251,-0.035086725,0.006691491,0.019123804,0.43895388,-1.452329,1.9888448,-2.1080382,-1.5679396,2.4120314,-0.085553266,0.17838056,-0.19902942,-0.0001515491,0.028720735,-0.10451643,0.11492168,0.34476504,-9.404425,0.8806493,47.672558,-0.96040976,-1.72139,-3.4565563,-0.50991476,0.35012913,-0.38173044,24.875,25.375,24.75,26.875,27.1875,27.5
0.21605207,-0.5415432,-1.1810149,-0.98193645,-0.034981646,-0.00055701635,-0.11025988,-0.383954,-0.3294682,0.06006423,3.0760472,-0.62138194,-0.0003071262,-0.10229121,-0.012927332,-0.00023601524,-0.036646947,0.005247821,0.025475428,0.4387498,-1.4519215,1.988438,-2.1080382,-1.5679268,2.4118137,-0.08617412,0.17991185,-0.19990641,-0.00014349182,0.030764004,-0.111486934,0.076614454,0.3256114,-9.308657,0.82022345,47.685097,-1.0248444,-1.6630793,-3.4782078,-0.5037466,0.34291458,-0.31392863,24.875,25.375,24.75,26.875,27.1875,27.5
0.21805206,0.043928586,-0.7519598,-0.880283,-0.016209353,-0.010567972,-0.11609939,-0.38416207,-0.3294932,0.06005702,3.075979,-0.6212688,-0.0002726958,-0.10316023,-0.013499992,-0.00026214542,-0.037750486,0.0050423034,0.029526932,0.43855765,-1.4515494,1.9880427,-2.10805,-1.5678424,2.4115598,-0.08653582,0.1819495,-0.2021711,-0.00017556806,0.031863034,-0.11589683,0.095768064,0.36391866,-9.212888,0.8247004,47.711964,-1.0126593,-1.5739518,-3.4320874,-0.49541157,0.32689646,-0.27131897,24.875,25.375,24.75,26.875,27.1875,27.5
0.2200521,0.30890918,-0.26311696,-0.91683495,0.00024259351,-0.019542621,-0.113930196,-0.3843529,-0.32951868,0.060043827,3.075898,-0.62119293,-0.00018502842,-0.104386136,-0.014344539,0.00042508641,-0.04016494,0.005870491,0.032299273,0.4383655,-1.4511895,1.9876717,-2.10805,-1.5677336,2.4113307,-0.08719995,0.18305601,-0.20503353,-0.00017253753,0.03370439,-0.11932996,0.17238252,0.2681506,-9.251195,0.80456203,47.72629,-1.0186331,-1.5554955,-3.4561992,-0.4991566,0.33467937,-0.20871666,24.875,25.375,24.75,26.875,27.1875,27.5
0.22205202,-0.2533189,-0.11252772,-1.2262834,0.01692605,-0.037376408,-0.108254656,-0.38457623,-0.32955754,0.060076393,3.0758145,-0.6210415,-0.00029249545,-0.10558162,-0.015822368,0.0016909753,-0.04313986,0.007790463,0.033262543,0.43820974,-1.450866,1.9872392,-2.1080625,-1.567685,2.4110913,-0.08669598,0.18356507,-0.20854539,-0.00016498023,0.035595022,-0.11978163,0.11492168,0.28730422,-9.289502,0.95897776,47.672558,-1.0565794,-1.502794,-3.2919645,-0.5026976,0.29206192,-0.18561997,24.875,25.375,24.75,26.875,27.1875,27.5
0.22405194,-0.14913347,-0.31624717,-1.326924,0.014837457,-0.02150685,-0.10213477,-0.3847726,-0.32959536,0.06007749,3.0757535,-0.6208975,-0.00025764003,-0.10809046,-0.014869125,0.0016202122,-0.043208327,0.008022473,0.026880095,0.43805233,-1.4505056,1.986832,-2.10805,-1.5676011,2.410852,-0.09056184,0.18647562,-0.21169382,-0.00015777152,0.03555392,-0.11726181,0.095768064,0.30645782,-9.346964,0.83589023,47.668976,-0.94920206,-1.4240389,-3.4636059,-0.4850619,0.2691509,-0.17686722,24.875,25.375,24.75,26.875,27.1875,27.5
0.22605234,-1.04144,-1.0353163,-1.270439,-0.0052202265,-0.009441802,-0.10848428,-0.38497642,-0.32963374,0.06006455,3.0756752,-0.6208444,-0.00015554826,-0.10753089,-0.016130643,0.00078054285,-0.042524155,0.006653692,0.025613649,0.4378734,-1.4500972,1.9864005,-2.1080263,-1.5674928,2.41065,-0.0876385,0.18938784,-0.21310434,-0.00012322309,0.03550612,-0.11307105,0.019153614,0.38307226,-9.423578,0.8537928,47.698532,-1.1564527,-1.6469609,-3.425754,-0.48177224,0.2728632,-0.21313544,24.875,25.375,24.75,26.875,27.1875,27.5
0.22805226,-1.2235302,-1.2213025,-1.0962175,-0.027693896,0.014113247,-0.10445172,-0.38519397,-0.32963866,0.060051657,3.075665,-0.6207498,-0.00012012466,-0.108706824,-0.015331812,-0.00048451283,-0.042671863,0.0038563742,0.017786104,0.43766847,-1.4497002,1.9859813,-2.1080024,-1.5674566,2.4103875,-0.09093883,0.19309333,-0.21444196,-2.7335214e-05,0.036816716,-0.108541526,-0.11492168,0.34476504,-9.442732,0.8403672,47.664497,-1.0914298,-1.8267832,-3.308209,-0.4802736,0.23800617,-0.2613328,24.875,25.375,24.75,26.875,27.1875,27.5
0.23005235,-1.4889365,-1.8847904,-1.3447129,-0.03168229,0.024928864,-0.1044168,-0.3853951,-0.32968858,0.060067818,3.0755634,-0.62063223,-9.2957365e-05,-0.10871127,-0.017058298,-0.000537168,-0.044294037,0.0032160445,0.017926192,0.43751323,-1.4493525,1.9855508,-2.1079786,-1.5673479,2.410172,-0.08883758,0.19534223,-0.21691883,9.8368284e-05,0.03855725,-0.10657497,-0.1340753,0.40222588,-9.385271,0.83365434,47.688675,-1.0936084,-1.7169733,-3.3242722,-0.48104912,0.20241854,-0.3051058,24.875,25.375,24.75,26.875,27.1875,27.5
0.23205224,-1.7467463,-1.7793193,-1.4648356,-0.040259324,0.02324909,-0.10206838,-0.38560912,-0.32972005,0.06004554,3.0755615,-0.62053645,-7.169267e-05,-0.11136455,-0.017906656,0.0012477526,-0.046693653,0.006746317,0.016805934,0.43736866,-1.4489092,1.9851063,-2.1079786,-1.5673236,2.4099681,-0.08995815,0.19628248,-0.22214791,0.00017869729,0.039227895,-0.106571764,-0.19153613,0.47884035,-9.481039,0.8985519,47.699425,-1.184802,-1.6917975,-3.227707,-0.47077498,0.19171682,-0.3332249,24.875,25.375,24.75,26.875,27.1875,27.5
0.23405206,-1.4388328,-1.6314743,-1.7482162,-0.032543007,0.024697445,-0.10549498,-0.38584173,-0.32975984,0.060082823,3.0753815,-0.62053794,-0.00019219723,-0.11129694,-0.01711953,9.3333954e-05,-0.045506924,0.0046658176,0.015208376,0.43717644,-1.4486094,1.9847001,-2.1080382,-1.5672282,2.4098,-0.09116242,0.19795795,-0.22143729,0.00019700713,0.03905675,-0.1061725,-0.2681506,0.57460845,-9.5385,0.8537928,47.684196,-1.1918986,-1.6365702,-3.2980392,-0.47908753,0.17313832,-0.36114413,24.875,25.375,24.75,26.875,27.1875,27.5
0.23605244,-1.6010814,-1.6298093,-1.6163286,-0.030968325,0.027553296,-0.097378254,-0.3860486,-0.3297879,0.060049854,3.0753486,-0.6204564,-3.987545e-05,-0.11039986,-0.016674936,-0.00075798103,-0.044736233,0.0023051314,0.013789021,0.4369844,-1.4481539,1.984258,-2.108002,-1.5671319,2.4095614,-0.09132971,0.19823022,-0.22007455,0.0010394892,0.0393583,-0.10492319,-0.34476507,0.45968673,-9.576807,0.90527004,47.672558,-1.162357,-1.5513188,-3.5120597,-0.48954976,0.1555132,-0.40318274,24.875,25.375,24.75,26.875,27.1875,27.5
0.23805211,-1.9925787,-1.6490798,-1.2718178,-0.032176822,0.03566838,-0.10633601,-0.3862866,-0.329843,0.060088545,3.075193,-0.6203663,-0.0001461976,-0.11214618,-0.016105972,-0.0009038327,-0.044788573,0.0022992296,0.0133424755,0.43681544,-1.4478178,1.9838022,-2.1080377,-1.5670356,2.4093564,-0.09386807,0.2006125,-0.2224677,0.0010575465,0.039428595,-0.107007354,-0.34476504,0.38307226,-9.500193,0.8806493,47.698532,-0.97256565,-1.6295769,-3.5254447,-0.4763713,0.122249074,-0.3961451,24.875,25.375,24.75,26.875,27.1875,27.5
0.24005206,-2.4502995,-1.4935038,-1.437997,-0.01643945,0.03615958,-0.10323849,-0.38652083,-0.32987124,0.06010017,3.0751297,-0.6202939,-0.00014846353,-0.11145054,-0.01694623,-0.0016854879,-0.044342287,0.0010112325,0.015670704,0.43662417,-1.4474216,1.9833244,-2.108002,-1.5669755,2.4091282,-0.091732025,0.20244806,-0.22277184,0.00089624885,0.039577205,-0.10719726,-0.4213795,0.40222588,-9.404425,0.8717007,47.696735,-1.2525557,-1.597611,-3.6384034,-0.4699635,0.110120416,-0.42371207,24.875,25.375,24.75,26.875,27.1875,27.5
0.24205202,-2.3092096,-0.91166186,-1.3062578,-0.010083066,0.048342004,-0.10063256,-0.3867347,-0.32991198,0.060061436,3.0750563,-0.6201815,-6.31404e-05,-0.1135297,-0.015181369,-0.0022415468,-0.044227127,0.00019710051,0.017524498,0.43644235,-1.4469657,1.9829167,-2.108062,-1.5668677,2.4088857,-0.09689196,0.2045984,-0.2239647,0.00076910487,0.039838336,-0.11420949,-0.45968673,0.32561144,-9.461885,0.9321212,47.6636,-0.99760383,-1.6475878,-3.6396236,-0.46749166,0.0788178,-0.38119313,24.875,25.375,24.75,26.875,27.1875,27.5
0.24405192,-1.7372113,-0.5315032,-0.9562345,0.0022166858,0.064405054,-0.1033225,-0.3869586,-0.3299435,0.060064163,3.0749743,-0.6201405,-2.9905008e-05,-0.11436165,-0.01612759,-0.0025078426,-0.043643717,0.0004534705,0.025044208,0.43625104,-1.4465692,1.9824613,-2.1080382,-1.5667843,2.4086795,-0.09537859,0.20795397,-0.22716786,0.0006730388,0.039218552,-0.120213255,-0.30645782,0.17238252,-9.461885,0.90527004,47.66808,-1.1588005,-1.6995265,-3.6595294,-0.44345665,0.061915245,-0.3466464,24.875,25.375,24.75,26.875,27.1875,27.5
0.24605201,-2.3495195,-0.3367679,-0.9528549,0.029925441,0.0404535,-0.093179226,-0.38718173,-0.32998276,0.060054746,3.0749044,-0.6200084,5.5881916e-05,-0.11661582,-0.01583338,-0.0017695598,-0.044009045,0.0025459395,0.029662596,0.43605837,-1.4461378,1.9819945,-2.1080143,-1.566676,2.4084134,-0.09743826,0.20940535,-0.23054688,0.00059830846,0.038682237,-0.12688982,-0.4213795,0.19153613,-9.270349,0.86945957,47.685097,-1.0813314,-1.6582357,-3.5667155,-0.4440329,0.045883253,-0.28131175,24.875,25.375,24.75,26.875,27.1875,27.5
0.24805221,-2.6053126,0.48894855,-0.96537024,0.03306671,0.034176026,-0.09714957,-0.38745818,-0.33001435,0.060091924,3.0748107,-0.61992776,-7.8945006e-05,-0.11852696,-0.015503741,-0.001091193,-0.043894865,0.0046379003,0.035096824,0.4358539,-1.4457422,1.9814667,-2.1080143,-1.5666407,2.408171,-0.09897755,0.2104977,-0.23338431,0.00053853745,0.037730902,-0.13385825,-0.49799395,0.15322891,-9.174581,0.87393653,47.68062,-1.0450847,-1.5745847,-3.544742,-0.4499126,0.03713421,-0.21918318,24.875,25.375,24.75,26.875,27.1875,27.5
0.25005212,-1.9100616,0.26393184,-0.99540156,0.049118597,0.05201231,-0.10433963,-0.38771802,-0.33005086,0.06009982,3.074695,-0.6197717,-0.00010043533,-0.12074129,-0.015073884,-0.00028494862,-0.043813087,0.0070215347,0.03290873,0.4356252,-1.4453228,1.980987,-2.10805,-1.566533,2.4078598,-0.10088012,0.21164878,-0.23658708,0.00048964337,0.03666099,-0.13356917,-0.40222588,0.1340753,-9.251195,0.86498255,47.68599,-0.98649377,-1.5365448,-3.4550438,-0.43677998,0.03791546,-0.14475654,24.875,25.375,24.75,26.875,27.1875,27.5
0.25205204,-1.6405897,0.25854215,-0.84041584,0.036895808,0.06288042,-0.09746524,-0.38793492,-0.3300628,0.060074333,3.074673,-0.61971056,-1.525741e-05,-0.12287498,-0.014375899,0.0007029678,-0.043298878,0.009863575,0.030720824,0.43542054,-1.444891,1.9805559,-2.1080263,-1.5664738,2.40762,-0.102822855,0.2119944,-0.23933701,0.0005545708,0.03499125,-0.1333262,-0.47884035,0.05746084,-9.212888,0.86945957,47.66808,-0.89672685,-1.5500747,-3.503374,-0.4150434,0.0496269,-0.10641755,24.875,25.375,24.75,26.875,27.1875,27.5
0.25405243,-1.829859,0.21316896,-0.6823048,0.032066584,0.06431092,-0.102094986,-0.3881798,-0.33009484,0.060070887,3.074637,-0.6195713,-8.513142e-05,-0.1255114,-0.014177498,0.0018481764,-0.04281628,0.013297048,0.025832672,0.43525222,-1.4444594,1.9800881,-2.1080625,-1.56645,2.4073696,-0.104130894,0.21346408,-0.24368435,0.00052367337,0.03309964,-0.12974426,-0.6703765,0.0,-9.136273,0.82694155,47.66539,-0.8196985,-1.4060555,-3.2520475,-0.41212368,0.060845874,-0.1477066,24.875,25.375,24.75,26.875,27.1875,27.5
0.25605172,-1.998406,0.19823518,-0.94945854,0.035569284,0.05723306,-0.102210246,-0.38845113,-0.3301191,0.060075846,3.074529,-0.61957157,-5.7577403e-05,-0.12715758,-0.013824562,0.0018709933,-0.04188239,0.014115507,0.02016344,0.4349998,-1.4440037,1.9795603,-2.1080382,-1.5663546,2.4071314,-0.10530266,0.21582045,-0.24650021,0.0006407479,0.031901594,-0.1252456,-0.61291564,0.038307227,-9.251195,0.85155696,47.67793,-0.77721745,-1.3836813,-3.1662302,-0.3865364,0.060464934,-0.17218783,24.875,25.375,24.75,26.875,27.1875,27.5
0.25805175,-2.1117804,0.12204593,-1.28811,0.029840585,0.054445755,-0.09809466,-0.38865322,-0.33015484,0.060043383,3.0745263,-0.61940014,5.6369525e-05,-0.12718782,-0.01327472,0.0018048187,-0.040703546,0.012845464,0.015387358,0.4348437,-1.4435483,1.9791178,-2.1080134,-1.5662826,2.4068687,-0.105906665,0.21619922,-0.24735872,0.0027671657,0.031357486,-0.12107581,-0.4405331,0.038307227,-9.346964,0.90750587,47.709274,-0.77316755,-1.3192428,-3.2756343,-0.41707426,0.07653667,-0.24681008,24.875,25.375,24.75,26.875,27.1875,27.5
0.26005265,-2.1679623,-0.43706855,-1.2918499,0.015672643,0.059730936,-0.105658844,-0.38889915,-0.33016747,0.06004837,3.0744514,-0.61942536,6.8643065e-05,-0.1274175,-0.012858852,-0.00015949759,-0.037638187,0.008996428,0.012051584,0.43461567,-1.4431388,1.9786385,-2.1079772,-1.566223,2.4066663,-0.10601062,0.22157589,-0.24931018,0.004128517,0.03019711,-0.117843516,-0.51714754,0.17238252,-9.461885,0.8672237,47.7254,-0.8460865,-1.6387007,-3.3396752,-0.4266081,0.07671363,-0.3198949,24.875,25.375,24.75,26.875,27.1875,27.5
0.2620519,-1.9999014,-1.0357087,-1.1818057,-0.006584669,0.07180907,-0.09461934,-0.38918543,-0.3301728,0.060039636,3.0743988,-0.6194148,1.6749735e-05,-0.12783833,-0.012111747,-0.0013844759,-0.03499413,0.008092927,0.009233961,0.4343636,-1.4426589,1.978125,-2.108001,-1.5661997,2.4064147,-0.10631059,0.22433457,-0.24959655,0.0035953503,0.028181644,-0.115327165,-0.5363012,0.17238252,-9.3661175,0.8985519,47.68062,-0.82804644,-1.7044117,-3.3478708,-0.41137338,0.10972728,-0.37670666,24.875,25.375,24.75,26.875,27.1875,27.5
0.26405206,-2.0676,-0.91548216,-1.1106192,-0.021251384,0.0672146,-0.1028398,-0.38943946,-0.33018073,0.06005404,3.074393,-0.6192996,-4.333511e-05,-0.12797634,-0.011907608,-0.0024061424,-0.03379362,0.007114366,0.007487753,0.4341596,-1.4422506,1.9776224,-2.1079533,-1.5661997,2.4061399,-0.106266774,0.2265608,-0.24968265,0.0028484818,0.027506247,-0.11353666,-0.45968673,0.22984336,-9.3661175,0.8403672,47.672558,-0.93582463,-1.704884,-3.5541294,-0.3858049,0.13146195,-0.40284437,24.875,25.375,24.75,26.875,27.1875,27.5
0.26605234,-1.3446686,-1.003812,-1.1859245,-0.014955892,0.05416187,-0.10506845,-0.38968167,-0.33021462,0.060023397,3.0742996,-0.6193212,5.655009e-05,-0.1297089,-0.010996023,-0.0023326008,-0.03377148,0.008051367,0.0029865433,0.43394274,-1.4417593,1.9771432,-2.1079652,-1.5660919,2.4059486,-0.109056965,0.22772987,-0.251149,0.0023171075,0.027086621,-0.111825585,-0.22984336,0.22984336,-9.3661175,0.8157518,47.67166,-0.9045969,-1.7951157,-3.5420983,-0.38848996,0.15169773,-0.46737218,24.875,25.375,24.75,26.875,27.1875,27.5
0.2680525,-1.3033297,-1.0146877,-1.1290749,-0.0017776382,0.010067735,-0.099325925,-0.38995013,-0.3302315,0.060020417,3.0742495,-0.61928815,2.0868292e-06,-0.13026538,-0.012690159,-0.0023041202,-0.034236237,0.0088102715,0.0073797693,0.43372753,-1.4413024,1.9766392,-2.107978,-1.566068,2.4057195,-0.106392324,0.2306419,-0.25448483,0.0018729671,0.027198184,-0.11355028,-0.1340753,0.2681506,-9.270349,0.91421866,47.716442,-0.9501575,-1.8634274,-3.6096826,-0.3577866,0.16495763,-0.5008788,24.875,25.375,24.75,26.875,27.1875,27.5
0.27005234,-0.1601891,-0.7185423,-0.9945011,-0.0048472127,-0.0011457419,-0.10202187,-0.3902194,-0.33025843,0.060020976,3.0741968,-0.61922,-4.023741e-05,-0.1327541,-0.011515206,-0.001311783,-0.03531126,0.0109711215,0.0066433065,0.43352216,-1.4408358,1.9761132,-2.107978,-1.5660318,2.4054787,-0.110639,0.23054709,-0.25673425,0.0018301408,0.027284179,-0.11705786,-0.15322891,0.4213795,-9.193734,0.86945957,47.704796,-0.84709704,-1.8276014,-3.591482,-0.36540556,0.18596661,-0.52748024,24.875,25.375,24.75,26.875,27.1875,27.5
0.2720519,-0.25956023,-1.1085399,-1.2369516,0.002688506,-0.026118483,-0.10371491,-0.39049542,-0.33028272,0.06001289,3.074103,-0.61921155,-4.974518e-05,-0.13360439,-0.013133639,0.00024265044,-0.03622842,0.014193809,0.019376982,0.43328315,-1.4403569,1.9755982,-2.1080015,-1.5659603,2.4052467,-0.10796567,0.23059456,-0.26056343,0.0023651253,0.026803715,-0.12711608,-0.13407528,0.40222588,-9.193734,0.99702406,47.682407,-0.9613059,-1.6340024,-3.5161238,-0.35290545,0.20278105,-0.44945645,24.875,25.375,24.75,26.875,27.1875,27.5
0.27405196,-0.13035889,-1.0903065,-1.1662754,-0.029108109,-0.017784724,-0.10732505,-0.39073592,-0.33031422,0.05999489,3.0740907,-0.6190692,-5.979266e-06,-0.13488166,-0.013529253,0.00085806556,-0.036911335,0.014920323,0.028774437,0.433103,-1.4398775,1.9750942,-2.1079772,-1.5659117,2.4049795,-0.10846992,0.23200965,-0.26390344,0.0034000794,0.027152747,-0.13701577,-0.1340753,0.49799395,-9.289502,0.8672237,47.677036,-0.8908311,-1.5827236,-3.4657345,-0.34749156,0.2304025,-0.3823499,24.875,25.375,24.75,26.875,27.1875,27.5
0.27605224,-0.65392876,-2.0773942,-1.1489159,-0.039628323,0.006446105,-0.104033776,-0.39101154,-0.3303181,0.0599892,3.0740752,-0.6189659,1.2884344e-05,-0.13591968,-0.013862764,0.0006928318,-0.03648559,0.013492683,0.036263403,0.43285078,-1.439397,1.9745549,-2.1079285,-1.5658759,2.404665,-0.10879389,0.23537335,-0.2679207,0.005575957,0.027396888,-0.1448262,-0.095768064,0.6512228,-9.232041,0.9030289,47.66987,-0.9274796,-1.67154,-3.4248846,-0.34448498,0.24507153,-0.27738696,24.875,25.375,24.75,26.875,27.1875,27.5
0.27805224,-1.1120491,-2.5153096,-1.2387017,-0.037543617,0.023524264,-0.10290759,-0.39127186,-0.33032918,0.059964407,3.0740142,-0.6189142,0.000117286654,-0.13679332,-0.012660262,0.00045018535,-0.035955343,0.0119942995,0.03789896,0.43258566,-1.4389054,1.9740523,-2.1079042,-1.56578,2.4043756,-0.11174392,0.2363601,-0.26897788,0.007271732,0.027566165,-0.1494119,0.038307227,0.63206923,-9.251195,0.9545008,47.68599,-0.90933645,-1.635782,-3.3770208,-0.36839807,0.28614217,-0.18611449,24.875,25.375,24.75,26.875,27.1875,27.5
0.28005233,-1.3060014,-2.7469838,-1.2882655,-0.048198305,0.04103785,-0.095105,-0.3915791,-0.33035985,0.059986666,3.0739598,-0.61876565,-2.4442534e-05,-0.13613252,-0.015157999,0.0013443799,-0.038630184,0.012178618,0.04221398,0.43237108,-1.4384265,1.9734644,-2.1079156,-1.5657672,2.4040756,-0.10804031,0.23652494,-0.27156168,0.008404823,0.029940316,-0.15001425,0.0,0.59376204,-9.251195,0.9545008,47.67793,-1.0449082,-1.6019057,-3.3573127,-0.38196307,0.28728977,-0.13685516,24.875,25.375,24.75,26.875,27.1875,27.5
0.2820524,-1.3337253,-2.1668718,-1.2697215,-0.041586187,0.021264262,-0.09390549,-0.39185455,-0.33039764,0.059985027,3.0739057,-0.61860657,-4.3934957e-05,-0.13824105,-0.014334092,0.0016510393,-0.04053955,0.012042408,0.032944318,0.43216568,-1.4379345,1.9729136,-2.1079156,-1.5657066,2.403778,-0.112411134,0.23784672,-0.27393824,0.008768579,0.031723607,-0.1451087,-0.05746084,0.5746084,-9.289502,0.87617236,47.681515,-0.9638734,-1.5722308,-3.3561444,-0.40111208,0.27505252,-0.152275,24.875,25.375,24.75,26.875,27.1875,27.5
0.28405237,-0.52965444,-1.2790457,-1.4842076,-0.027352327,0.011212285,-0.10099457,-0.39213654,-0.33041993,0.05998394,3.0738382,-0.61851585,-6.442626e-05,-0.13726297,-0.015157296,0.0003343852,-0.039631516,0.01045425,0.030510155,0.4319268,-1.4374548,1.9723753,-2.107916,-1.5656465,2.4034915,-0.10984721,0.24016109,-0.27341717,0.007747939,0.031559434,-0.14010903,0.0,0.49799395,-9.3661175,0.8918391,47.693153,-1.0700471,-1.6308844,-3.3252506,-0.38142312,0.29322058,-0.22936042,24.875,25.375,24.75,26.875,27.1875,27.5
0.28605244,-0.50323635,-1.4174345,-1.4842209,-0.010091611,0.0029963108,-0.099684246,-0.39240837,-0.33047554,0.05997052,3.0737448,-0.6184437,-3.4190245e-05,-0.13852173,-0.015329175,0.00057422917,-0.04136427,0.01117727,0.022911016,0.43173406,-1.4369273,1.9718136,-2.107928,-1.5655502,2.403266,-0.11131933,0.24123459,-0.275111,0.006970827,0.032813888,-0.13397677,-0.019153614,0.40222588,-9.346964,0.87617236,47.703903,-1.0486048,-1.7107472,-3.5680933,-0.3811934,0.30953088,-0.31491035,24.875,25.375,24.75,26.875,27.1875,27.5
0.28805235,-0.38276324,-0.650005,-1.5298736,-0.0111328745,-0.0005532787,-0.110323094,-0.3926702,-0.33049852,0.059941713,3.07372,-0.6183426,6.362097e-05,-0.1390249,-0.0150480205,-0.0013699316,-0.040374756,0.007969283,0.021108873,0.43150586,-1.4363989,1.9712747,-2.1078923,-1.5654777,2.402978,-0.11244332,0.24608211,-0.27616474,0.006517115,0.033253726,-0.13329737,0.05746084,0.36391866,-9.251195,0.9768804,47.685097,-0.98605007,-1.7724209,-3.57161,-0.3653961,0.31239682,-0.3382821,24.875,25.375,24.75,26.875,27.1875,27.5
0.29005173,-0.10618888,-0.29532513,-1.4934316,-0.005002272,0.006687993,-0.098923,-0.39295214,-0.33050254,0.059936605,3.0736725,-0.61835164,-1.8563807e-07,-0.13960083,-0.015166406,-0.0018359254,-0.040373746,0.0073645534,0.020935707,0.4312658,-1.4359311,1.9707607,-2.1079042,-1.5654658,2.40275,-0.11277305,0.24815105,-0.27750865,0.006351425,0.033516355,-0.13345064,0.15322891,0.30645782,-9.404425,0.8717007,47.692257,-1.0285617,-1.7682674,-3.5857477,-0.35739058,0.31195754,-0.37094656,24.875,25.375,24.75,26.875,27.1875,27.5
0.29205266,-0.67147624,-0.5459923,-1.2199504,-0.0014831101,2.8591687e-05,-0.09980632,-0.39324462,-0.33055672,0.05993549,3.0735896,-0.6182393,3.1223829e-06,-0.14072073,-0.015085693,-0.002809682,-0.03991709,0.005391895,0.019788254,0.43106136,-1.4353904,1.9701499,-2.1078923,-1.5653814,2.4024863,-0.11403187,0.25232768,-0.28026485,0.006931338,0.033934005,-0.1335575,0.11492168,0.28730422,-9.32781,0.9545008,47.682407,-1.000268,-1.8974457,-3.6411676,-0.33713996,0.32649273,-0.37650102,24.875,25.375,24.75,26.875,27.1875,27.5
0.29405293,-0.15553239,-0.11389015,-1.2251825,-0.0027342867,0.016319796,-0.11085488,-0.39353663,-0.3306058,0.059946816,3.0734692,-0.618175,9.551694e-06,-0.14308342,-0.01602155,-0.00094839855,-0.042703886,0.009210018,0.021077404,0.43083304,-1.4348872,1.96955,-2.1078684,-1.5652736,2.4022336,-0.11482065,0.25254345,-0.28480327,0.0066507854,0.034883715,-0.13562864,0.076614454,0.19153613,-9.251195,0.8918391,47.68062,-1.0032098,-1.9284399,-3.4975948,-0.33703595,0.34049308,-0.39159173,24.875,25.375,24.75,26.875,27.1875,27.5
0.29605237,-0.24336314,0.0634565,-1.3028313,0.008603296,0.01626044,-0.106300324,-0.39381012,-0.33064052,0.05992018,3.073413,-0.61804515,3.0554198e-05,-0.14397648,-0.016609633,-0.00077826343,-0.044138156,0.008790733,0.025896126,0.430617,-1.4343597,1.9690226,-2.1079042,-1.5652007,2.401944,-0.11537199,0.2543446,-0.28751838,0.0073880726,0.036389224,-0.14099273,-0.019153614,0.17238252,-9.289503,0.8985519,47.664497,-1.0533313,-1.942247,-3.4316308,-0.3287274,0.34725457,-0.35370833,24.875,25.375,24.75,26.875,27.1875,27.5
0.29805252,-0.3146034,-0.033622634,-1.4345403,0.0026174712,0.0050749127,-0.108735934,-0.39409742,-0.33066356,0.059934314,3.0733674,-0.61795384,5.59328e-05,-0.14550094,-0.016676778,-0.00011517099,-0.04470254,0.009578055,0.033227805,0.4303766,-1.433868,1.9684123,-2.1078079,-1.5651406,2.4016526,-0.11656191,0.25568816,-0.2909409,0.008579064,0.036611855,-0.14951177,-0.076614454,0.21068975,-9.519346,0.86945957,47.65106,-0.91263056,-1.9357762,-3.4582925,-0.33814493,0.34899092,-0.27615064,24.875,25.375,24.75,26.875,27.1875,27.5
0.3000522,-0.5098456,-0.3650194,-1.5601914,-0.019033473,0.022878928,-0.10554187,-0.39437398,-0.33068115,0.05989269,3.0733216,-0.6178255,0.00015995462,-0.145413,-0.016013637,-0.00081452477,-0.04441701,0.0077964165,0.041121766,0.43011218,-1.4333165,1.9678859,-2.1078193,-1.5650448,2.401314,-0.1179179,0.2564225,-0.29044187,0.009157711,0.037138794,-0.15876181,-0.19153613,0.21068975,-9.5385,0.91198283,47.658226,-0.9476955,-1.9270892,-3.466589,-0.34907562,0.35208312,-0.16747688,24.875,25.375,24.75,26.875,27.1875,27.5
0.302052,-1.6531656,-1.4105455,-1.62116,-0.01936055,0.02506209,-0.09121304,-0.39464536,-0.3307232,0.05987502,3.0733144,-0.61757296,0.00019795705,-0.14604974,-0.016657095,0.0003145867,-0.045771927,0.009286742,0.043302596,0.42992046,-1.4327778,1.9673108,-2.1077955,-1.5649847,2.4009657,-0.11757463,0.25577992,-0.29263335,0.0100971935,0.037760653,-0.16059697,-0.30645782,0.17238252,-9.557653,0.9388393,47.657326,-0.999846,-1.9754844,-3.5997345,-0.35710204,0.35696092,-0.10635814,24.875,25.375,24.75,26.875,27.1875,27.5
0.30405247,-1.2987264,-1.2620054,-1.556041,-0.022911914,0.061147165,-0.106602944,-0.39495867,-0.3307491,0.05989883,3.0732274,-0.61745965,0.0001590294,-0.14668176,-0.017007586,0.00021169828,-0.046243176,0.008540221,0.042846035,0.42965597,-1.4322861,1.9666885,-2.1077468,-1.5649122,2.400642,-0.11782569,0.25768876,-0.29486272,0.010917934,0.038516615,-0.16038556,-0.47884035,0.17238252,-9.595961,0.85155696,47.64479,-0.94957316,-1.8611436,-3.5584974,-0.36648148,0.36497697,-0.05595985,24.875,25.375,24.75,26.875,27.1875,27.5
0.30605283,-1.9943918,-0.8877467,-1.656256,-0.018235432,0.06698011,-0.09859941,-0.3952384,-0.3307834,0.059874233,3.0731704,-0.6173173,0.00020349128,-0.14803839,-0.01690933,0.0012467499,-0.048204448,0.010259635,0.036041807,0.42942765,-1.4317471,1.9661368,-2.1077592,-1.5648278,2.4003322,-0.11971273,0.25697726,-0.29654288,0.010919998,0.039570566,-0.15546425,-0.53630114,0.17238252,-9.653421,0.9254084,47.65912,-1.0683702,-1.740071,-3.4633255,-0.36267376,0.35600984,-0.089404285,24.875,25.375,24.75,26.875,27.1875,27.5
0.30803668,-2.11917,-0.5311397,-1.58595,0.0016000709,0.07321538,-0.08827122,-0.39555532,-0.33082458,0.059889074,3.0730903,-0.61720604,0.00018149274,-0.14737378,-0.01797969,3.865681e-05,-0.04899683,0.007292234,0.03095148,0.42918828,-1.4312078,1.9654807,-2.1077116,-1.5647548,2.400034,-0.118336245,0.2599436,-0.29730406,0.011059452,0.041515745,-0.14898899,-0.5746084,0.21068975,-9.557653,0.9410752,47.69763,-1.0281683,-1.7264209,-3.6229653,-0.37865603,0.35403988,-0.15680785,24.875,25.375,24.75,26.875,27.1875,27.5
0.310053,-2.0522816,-0.1738611,-1.6109859,0.01691775,0.078651145,-0.10014032,-0.39585593,-0.33087865,0.059899352,3.072951,-0.61710423,0.00019631599,-0.1482414,-0.01807281,-0.00016730602,-0.049567774,0.007286605,0.024544373,0.42894787,-1.4306915,1.9648694,-2.1076996,-1.5646228,2.399748,-0.11909898,0.26162672,-0.29875535,0.010589471,0.04202823,-0.143339,-0.5363012,0.21068975,-9.634268,0.88960326,47.705692,-1.1490136,-1.8018558,-3.6761475,-0.35896486,0.3601951,-0.21989115,24.875,25.375,24.75,26.875,27.1875,27.5
0.312008,-1.8317103,0.23545317,-1.4018164,0.002429659,0.082625814,-0.09633095,-0.3961704,-0.33090457,0.05991016,3.072879,-0.6170557,0.000120318095,-0.15044929,-0.018470429,0.00031193864,-0.05111996,0.008574313,0.015842274,0.4287072,-1.4301757,1.9642566,-2.1076877,-1.5645865,2.3994868,-0.12065279,0.2642113,-0.30281845,0.010220898,0.042883206,-0.13618235,-0.40222588,0.114921674,-9.672575,0.98807013,47.672558,-1.0062265,-1.7649546,-3.677597,-0.35734177,0.35032314,-0.32657534,24.875,25.375,24.75,26.875,27.1875,27.5
0.31403875,-1.3505427,-0.05246462,-1.3438549,0.0024484687,0.07574485,-0.099255785,-0.39646685,-0.3309346,0.059880592,3.0728014,-0.6170424,0.00023837516,-0.1511328,-0.017477283,-0.00076554995,-0.050116055,0.0064292965,0.010414585,0.42844287,-1.4295878,1.9636487,-2.1076515,-1.5644788,2.3992243,-0.12288147,0.26673102,-0.30349112,0.010748752,0.042852696,-0.13298385,-0.38307226,0.11492168,-9.615114,0.9925471,47.66808,-1.0017788,-1.8950578,-3.55948,-0.342385,0.34501296,-0.37795675,24.875,25.375,24.75,26.875,27.1875,27.5
0.316052,-1.5540142,-0.618196,-1.4256045,0.0039275084,0.048667233,-0.087811746,-0.39674795,-0.33098668,0.059883527,3.0727217,-0.6168923,0.0002644015,-0.15259911,-0.018504936,-0.00012388513,-0.05184814,0.007965905,0.00835924,0.42823893,-1.4290721,1.9630483,-2.1076152,-1.564382,2.398937,-0.122722946,0.26854852,-0.3070576,0.010385156,0.043783985,-0.13076343,-0.4213795,0.17238252,-9.595961,0.88289046,47.66987,-0.9323346,-1.8477931,-3.6707149,-0.35250008,0.32988214,-0.48505172,24.875,25.375,24.75,26.875,27.1875,27.5
0.3180526,-1.0124344,-0.7551114,-1.5305073,-0.009480252,0.04732611,-0.09201374,-0.39704207,-0.3309975,0.059866693,3.072678,-0.61686486,0.0003193151,-0.15427141,-0.01736513,-0.001142872,-0.051531088,0.005871633,0.007293527,0.42797336,-1.4285322,1.9624623,-2.1075675,-1.5643224,2.3986602,-0.1264516,0.27221859,-0.3091554,0.010883994,0.04438006,-0.13342366,-0.34476507,0.21068975,-9.5385,0.8784135,47.666286,-0.80363184,-1.9136728,-3.6302333,-0.33825427,0.3285123,-0.50455725,24.875,25.375,24.75,26.875,27.1875,27.5
0.32005268,-0.9325262,-0.49544278,-1.3197553,-0.028380098,0.03735155,-0.100333855,-0.39739922,-0.33104303,0.059891503,3.0724854,-0.6168751,0.00020693576,-0.15314811,-0.01872044,-0.0019060678,-0.052219626,0.0034438388,0.017692387,0.42768636,-1.4279923,1.9618033,-2.1076148,-1.5642132,2.3984048,-0.12398865,0.27406764,-0.3098332,0.011708257,0.046079054,-0.14134738,-0.17238252,0.22984336,-9.595961,0.9388393,47.686886,-0.94330215,-2.0431495,-3.5531793,-0.36311686,0.32627413,-0.48400697,24.875,25.375,24.75,26.875,27.1875,27.5
0.32205266,-1.835841,-1.2281787,-1.1573442,-0.016617363,0.00868728,-0.08636252,-0.397718,-0.33107924,0.059908375,3.0724008,-0.6167939,0.00015477694,-0.15507303,-0.020304322,0.0002153231,-0.056531213,0.007194406,0.028126338,0.42744642,-1.4274656,1.9611577,-2.1075795,-1.5641526,2.3981254,-0.12414818,0.27356532,-0.31414783,0.011403977,0.048503645,-0.15192811,-0.22984336,0.21068975,-9.519346,0.9186956,47.693153,-0.96424574,-1.8304485,-3.582137,-0.34555972,0.30741972,-0.38494563,24.875,25.375,24.75,26.875,27.1875,27.5
0.32405266,-0.68560845,-1.1259571,-1.1266876,-0.019775128,0.038897622,-0.09823805,-0.39802358,-0.3311217,0.05988528,3.0723515,-0.6166052,0.00022710636,-0.15552467,-0.020066878,-0.0005527402,-0.056881934,0.005344826,0.036992833,0.42720586,-1.4268657,1.9605225,-2.1075552,-1.5640563,2.3977735,-0.12556031,0.27572098,-0.3150958,0.011823986,0.0496436,-0.16220275,-0.21068975,0.22984336,-9.404425,0.9321212,47.69763,-0.939937,-1.8056064,-3.5103002,-0.35678595,0.27328014,-0.274265,24.875,25.375,24.75,26.875,27.1875,27.5
0.3260524,-0.9043051,-1.071149,-1.2922815,-0.021344397,0.029262882,-0.09064026,-0.39833012,-0.3311476,0.059895772,3.0722704,-0.61650926,0.00024065984,-0.15696293,-0.022008162,0.0024036407,-0.061862573,0.009938567,0.043861967,0.42694208,-1.4263514,1.9598998,-2.1074955,-1.5639714,2.3974605,-0.12481341,0.2731513,-0.3191165,0.012228401,0.05231064,-0.16831325,-0.038307227,0.30645782,-9.404425,0.8851263,47.698532,-0.99987656,-1.7021669,-3.5928688,-0.35437596,0.257922,-0.18277419,24.875,25.375,24.75,26.875,27.1875,27.5
0.32805276,-0.09576358,-0.2741076,-0.98545605,-0.048763208,0.03670514,-0.106968656,-0.39864513,-0.33121145,0.059898175,3.072152,-0.6162534,0.00026535644,-0.15793748,-0.02230924,0.0024503055,-0.06327854,0.009954883,0.044191584,0.4267019,-1.425788,1.9592532,-2.1074955,-1.5638269,2.397076,-0.1257813,0.27465627,-0.32103562,0.012082732,0.05361661,-0.16960159,-0.05746084,0.36391866,-9.423578,0.92764956,47.684196,-1.0091534,-1.5530134,-3.5829945,-0.35431266,0.21835649,-0.13172232,24.875,25.375,24.75,26.875,27.1875,27.5
0.3300523,0.009238372,-0.42536524,-0.99817413,-0.035785425,0.025690213,-0.10481005,-0.3990006,-0.33123907,0.059908886,3.0720289,-0.6162315,0.00021914643,-0.15952864,-0.022267135,0.0029286866,-0.06300825,0.012075451,0.03896078,0.4264018,-1.4252127,1.9585708,-2.1074836,-1.563743,2.3967783,-0.12628554,0.2759299,-0.3236062,0.011562878,0.052490678,-0.16487247,-0.15322891,0.34476504,-9.232041,1.061927,47.672558,-0.9759324,-1.5518711,-3.5099993,-0.34587866,0.21100478,-0.1874105,24.875,25.375,24.75,26.875,27.1875,27.5
0.3320276,0.26077735,-0.44875154,-1.2125548,-0.018877562,0.0125579145,-0.1042103,-0.39931482,-0.33130017,0.05992714,3.0718856,-0.6161297,0.00019254982,-0.16016465,-0.022529788,0.002206741,-0.06329933,0.011219403,0.030281056,0.42617366,-1.4246838,1.9579242,-2.1074722,-1.5636228,2.3965054,-0.12658502,0.27860814,-0.32498917,0.010897887,0.053089943,-0.1564836,-0.076614454,0.3256114,-9.442732,0.99702406,47.66987,-1.0158881,-1.6041363,-3.506659,-0.3525539,0.20102686,-0.26829857,24.875,25.375,24.75,26.875,27.1875,27.5
0.33405235,0.4988206,-0.5163697,-1.2418082,-0.028126493,0.013958362,-0.101025246,-0.39964056,-0.3313448,0.059926637,3.0717902,-0.615996,0.00018995383,-0.1602647,-0.022967273,0.0015168294,-0.06440289,0.009570662,0.027633028,0.42592177,-1.4241089,1.9572672,-2.1074598,-1.5635265,2.3961825,-0.12682107,0.28059798,-0.3257947,0.010764348,0.054782,-0.1540617,0.095768064,0.3256114,-9.3661175,0.9254084,47.66539,-0.996541,-1.6870198,-3.6726425,-0.3303634,0.16000693,-0.30709857,24.875,25.375,24.75,26.875,27.1875,27.5
0.33605182,-0.16034755,-1.2598398,-1.3754282,-0.009681501,-0.0030863679,-0.09076581,-0.39995316,-0.33137825,0.059925314,3.0717142,-0.6158853,0.00020466796,-0.1611579,-0.022369463,-0.00024115462,-0.0631587,0.006424328,0.024920104,0.42566875,-1.4235564,1.956632,-2.107424,-1.5634426,2.3958704,-0.12861605,0.28549498,-0.32759026,0.01106193,0.054956283,-0.15313941,0.095768064,0.28730422,-9.346964,0.94331104,47.692257,-1.0127611,-1.8009226,-3.7552147,-0.33769932,0.12595505,-0.3471701,24.875,25.375,24.75,26.875,27.1875,27.5
0.3380362,-0.56096,-0.66270256,-0.9185345,-0.028463395,0.0006530696,-0.09650939,-0.4002953,-0.33142594,0.059947226,3.0715942,-0.6157809,0.00012795675,-0.16254483,-0.02294911,2.8083949e-05,-0.061163235,0.008870834,0.027101872,0.42541775,-1.4230033,1.9559482,-2.107412,-1.5633591,2.39557,-0.1267447,0.28815183,-0.3313288,0.01077796,0.052147914,-0.15345186,0.0,0.34476504,-9.481039,0.9410752,47.65643,-1.1201183,-1.981976,-3.5330186,-0.3179297,0.14375366,-0.3649447,24.875,25.375,24.75,26.875,27.1875,27.5
0.340052,-0.6471396,-0.7317547,-0.9862841,-0.0158796,0.016921353,-0.099221215,-0.40061045,-0.33146808,0.05993223,3.0714662,-0.6156807,0.00019752096,-0.16532782,-0.0220385,0.0016934471,-0.06283517,0.011724221,0.023307495,0.42514014,-1.4224275,1.9553255,-2.107412,-1.5632151,2.3952465,-0.13077106,0.287601,-0.3348242,0.011572328,0.052505884,-0.15367916,0.1340753,0.30645782,-9.3661175,0.900793,47.683304,-0.8585241,-1.8753238,-3.5402136,-0.33600414,0.14749011,-0.40987355,24.875,25.375,24.75,26.875,27.1875,27.5
0.3420518,-0.36998343,-0.121293426,-1.0506601,-0.0056459466,0.02017655,-0.10656013,-0.40096077,-0.33152515,0.059958212,3.071323,-0.6155889,0.00017293825,-0.16631514,-0.022399241,0.0013334895,-0.0622689,0.0116935475,0.029301664,0.42487657,-1.4218497,1.9545954,-2.1073635,-1.5630955,2.3949444,-0.13047776,0.29059803,-0.33761054,0.011699916,0.05205229,-0.15937535,0.11492168,0.36391866,-9.232041,0.9791215,47.666286,-0.966205,-1.8639863,-3.4818416,-0.32488805,0.12489915,-0.3525913,24.875,25.375,24.75,26.875,27.1875,27.5
0.34405175,-0.93246937,-0.65925765,-1.0463688,-0.0025661981,0.01955097,-0.10063264,-0.4012646,-0.33154705,0.059948545,3.0712729,-0.61545956,0.00023206821,-0.168641,-0.0214466,0.002352257,-0.061119176,0.014843141,0.036430836,0.42461172,-1.4212974,1.9539727,-2.1073039,-1.5630125,2.3946054,-0.13249244,0.29108262,-0.34072268,0.012036342,0.049760647,-0.16852677,0.076614454,0.3256114,-9.270349,0.88960326,47.67166,-0.88384455,-1.739099,-3.476897,-0.3091618,0.14057367,-0.2788924,24.875,25.375,24.75,26.875,27.1875,27.5
0.34605262,-1.0501771,-0.74002445,-1.1433583,-0.0016633731,0.025127191,-0.098569535,-0.401606,-0.33159322,0.059951436,3.0711534,-0.61531377,0.00023495866,-0.16890131,-0.021549636,0.0022320822,-0.059217952,0.015719663,0.046849456,0.4243364,-1.4207084,1.9532903,-2.107292,-1.5628928,2.3942547,-0.13105005,0.29228136,-0.34203506,0.012244799,0.047737103,-0.17750712,0.0,0.47884035,-9.270349,0.8784135,47.68062,-0.9142977,-1.6055037,-3.320116,-0.31784,0.14731275,-0.16163686,24.875,25.375,24.75,26.875,27.1875,27.5
0.34805226,-1.0138023,-0.5525811,-1.4067372,-0.017278068,0.031859353,-0.10619034,-0.40195313,-0.331631,0.05998172,3.0710847,-0.6151257,0.000101702586,-0.16918184,-0.020537997,0.0024045964,-0.05728732,0.015787434,0.04879275,0.42409602,-1.4201676,1.952597,-2.1072671,-1.5628575,2.393906,-0.13183525,0.29188308,-0.34250453,0.013890696,0.045999214,-0.18023737,0.019153614,0.51714754,-9.461885,0.8918391,47.657326,-0.90450656,-1.6582165,-3.5059128,-0.33081913,0.17418242,-0.086547434,24.875,25.375,24.75,26.875,27.1875,27.5
0.35005212,-1.4383843,-1.5235045,-1.1826328,-0.029624047,0.043901656,-0.09848956,-0.40228266,-0.33167353,0.059971,3.0710185,-0.61497897,0.00018393456,-0.16890284,-0.019713134,0.0020347799,-0.05493612,0.015555195,0.045879886,0.42383254,-1.4195434,1.9518908,-2.1071951,-1.5627502,2.3935597,-0.1316181,0.291756,-0.34185126,0.014557645,0.043948926,-0.17711613,-0.2681506,0.40222588,-9.557653,0.9679317,47.658226,-1.1768816,-1.4490038,-3.6974978,-0.3601951,0.18335465,-0.080348566,24.875,25.375,24.75,26.875,27.1875,27.5
0.35205245,-1.9270846,-2.1217732,-1.1469638,-0.03459942,0.048901744,-0.09336123,-0.4026213,-0.33172244,0.060001858,3.0709004,-0.61478496,0.000104980754,-0.16905184,-0.019865114,0.0007200895,-0.05282136,0.013734244,0.03932706,0.42358083,-1.4190137,1.951209,-2.1071713,-1.5626544,2.3932023,-0.13054205,0.29560566,-0.34347898,0.01483665,0.042755563,-0.16948552,-0.3256114,0.30645782,-9.461885,0.9925471,47.642998,-1.0907592,-1.4386296,-3.8761866,-0.35253668,0.21631564,-0.14813793,24.875,25.375,24.75,26.875,27.1875,27.5
0.35402542,-2.1689882,-1.4328932,-1.418469,-0.024175242,0.04196331,-0.08272904,-0.40297854,-0.33177215,0.060012966,3.0707743,-0.61470795,5.750021e-05,-0.17126423,-0.019288495,8.1471764e-05,-0.05183591,0.0137740355,0.02859413,0.42331588,-1.4184107,1.9504904,-2.1071594,-1.562559,2.392906,-0.13262542,0.29983342,-0.34693825,0.014397976,0.041809157,-0.16083337,-0.28730422,0.28730422,-9.634268,0.96569055,47.63673,-1.11831,-1.6566157,-3.7964945,-0.35800534,0.2447946,-0.23939237,24.875,25.375,24.75,26.875,27.1875,27.5
0.35605183,-1.7872276,-1.1721745,-1.4414093,-0.005111766,0.048475526,-0.09881028,-0.40331352,-0.33180565,0.059985768,3.070691,-0.6146543,0.00011438378,-0.17286292,-0.019667936,-0.00024811926,-0.05241195,0.013956951,0.023446424,0.42303964,-1.4177737,1.9498199,-2.107148,-1.5624627,2.3926072,-0.13336308,0.30327222,-0.35016263,0.013769833,0.042238254,-0.15641871,-0.2681506,0.30645782,-9.710882,0.96569055,47.64479,-1.1146679,-1.743182,-3.6983237,-0.34493172,0.26278102,-0.3117895,24.875,25.375,24.75,26.875,27.1875,27.5
0.3580522,-1.5235022,-0.623384,-1.191805,-0.008006128,0.0496418,-0.108033635,-0.4036378,-0.33184522,0.05999456,3.0706296,-0.61449105,0.00010405696,-0.17467365,-0.019590829,0.00040886048,-0.052596822,0.016446212,0.017968314,0.4227994,-1.4172083,1.949138,-2.1070883,-1.5623912,2.3922732,-0.13427193,0.3042875,-0.3528191,0.013052087,0.041368507,-0.15184958,-0.34476507,0.38307226,-9.595961,1.0395473,47.686886,-1.0784243,-1.7216196,-3.6103835,-0.32504016,0.2711931,-0.4074437,24.875,25.375,24.75,26.875,27.1875,27.5
0.36003533,-1.9413929,-0.24892381,-1.07915,-0.0057588117,0.040644255,-0.10493845,-0.40400204,-0.33189136,0.06001051,3.070499,-0.61442655,5.310081e-05,-0.1777997,-0.020150686,0.0011214118,-0.05391357,0.018912481,0.014211985,0.42252296,-1.4166061,1.9484056,-2.1070645,-1.5622953,2.3919737,-0.13576326,0.30800727,-0.3587409,0.012471298,0.04155666,-0.1495763,-0.49799395,0.30645782,-9.481039,0.90527004,47.645687,-1.0411305,-1.7335455,-3.4759169,-0.29694223,0.27519035,-0.48846027,24.875,25.375,24.75,26.875,27.1875,27.5
0.3620521,-1.6881735,-0.20122318,-1.090394,-0.008989663,0.044877604,-0.10802114,-0.4043851,-0.3319331,0.060046215,3.070356,-0.614395,-0.0001066972,-0.17834295,-0.019662397,0.0016022162,-0.05419283,0.019681126,0.015556787,0.4222467,-1.4160303,1.9476637,-2.1070645,-1.5622352,2.391697,-0.13689868,0.3072197,-0.35919774,0.012941585,0.041547123,-0.15205045,-0.5746084,0.34476504,-9.442732,0.9298854,47.677036,-1.0324326,-1.7684686,-3.430491,-0.31516838,0.2949612,-0.51519454,24.875,25.375,24.75,26.875,27.1875,27.5
0.36405206,-1.8678523,-0.6910844,-1.1644375,-0.014997838,0.05708274,-0.11175308,-0.4047478,-0.33197433,0.06006397,3.0702624,-0.6142331,-0.00015089088,-0.17864585,-0.019961646,0.0012916412,-0.05488743,0.018817365,0.026771525,0.4219707,-1.4154296,1.9469227,-2.1070163,-1.5621508,2.3913321,-0.1371232,0.30874744,-0.3604992,0.013336361,0.042628128,-0.16348124,-0.40222588,0.28730422,-9.519346,1.0507371,47.66987,-1.0234059,-1.5657914,-3.6925611,-0.29002088,0.31623453,-0.45870388,24.875,25.375,24.75,26.875,27.1875,27.5
0.3660526,-1.5727867,-0.8751081,-0.9196348,-0.041136257,0.07528959,-0.11207463,-0.4050769,-0.33203283,0.060065076,3.0701582,-0.6140905,-0.000113786125,-0.17831181,-0.019660855,-0.00075460353,-0.052989583,0.014385443,0.038597114,0.42173067,-1.4148264,1.9462165,-2.1069677,-1.5620307,2.3910167,-0.13734964,0.31317317,-0.36144346,0.014808455,0.042805295,-0.17553055,-0.30645782,0.30645782,-9.576807,0.98135734,47.672558,-1.1517842,-1.6488247,-3.6813269,-0.32031614,0.30496392,-0.36265552,24.875,25.375,24.75,26.875,27.1875,27.5
0.36805192,-1.9692298,-1.4267172,-0.7197116,-0.043186557,0.06656323,-0.113903485,-0.40546247,-0.33210152,0.06008737,3.070034,-0.6138482,-0.00022667526,-0.17908493,-0.02015626,1.2652071e-05,-0.054309063,0.015922975,0.046655543,0.42147863,-1.4141903,1.9454378,-2.1069796,-1.5619344,2.3906298,-0.13732865,0.31307152,-0.3632641,0.014883351,0.04346346,-0.18355855,-0.4213795,0.21068975,-9.308657,0.98135734,47.658226,-0.99498034,-1.6559646,-3.7516248,-0.3012532,0.31378096,-0.25504273,24.875,25.375,24.75,26.875,27.1875,27.5
0.3700524,-1.5597415,-0.59910446,-0.5595104,-0.030879581,0.06451253,-0.120024964,-0.40583438,-0.33211902,0.060094688,3.069913,-0.6137856,-0.00028748417,-0.18127947,-0.01916849,-0.0002878125,-0.055369295,0.016021924,0.0456061,0.42115328,-1.4136015,1.9447445,-2.10698,-1.5618495,2.3902814,-0.14131863,0.3154497,-0.3652886,0.0140579445,0.044434395,-0.18648902,-0.47884035,0.17238252,-9.270349,0.9791215,47.694054,-0.9805521,-1.5363791,-3.764874,-0.2833756,0.32940447,-0.17440552,24.875,25.375,24.75,26.875,27.1875,27.5
0.3720091,-1.4197866,-0.11826715,-0.6974523,0.015751222,0.03164607,-0.103980444,-0.40616614,-0.3321525,0.060061716,3.0698917,-0.61357224,-0.00019949045,-0.1828426,-0.021821056,0.0019471105,-0.060317755,0.020599255,0.043213163,0.4208899,-1.412941,1.9440488,-2.1069329,-1.5617651,2.3898876,-0.13931698,0.31504184,-0.36976987,0.012726324,0.047046926,-0.18207987,-0.4405331,0.19153613,-9.212888,0.9947882,47.696735,-1.1657815,-1.4979911,-3.6635747,-0.25974888,0.3305977,-0.16941437,24.875,25.375,24.75,26.875,27.1875,27.5
0.37405252,-0.5636934,0.52996105,-0.43196523,0.02910789,0.025695013,-0.11722472,-0.406536,-0.33221084,0.060078017,3.0697494,-0.61345005,-0.00027038032,-0.18511169,-0.022343006,0.0026072573,-0.060322892,0.022853112,0.036936574,0.42062604,-1.412327,1.9433054,-2.1069329,-1.5616578,2.3895662,-0.13944097,0.31789318,-0.37474403,0.012769826,0.04611485,-0.1759236,-0.4213795,0.15322891,-9.097966,0.9545008,47.679718,-1.1879497,-1.371107,-3.5004294,-0.2489129,0.3290781,-0.24883023,24.875,25.375,24.75,26.875,27.1875,27.5
0.37605274,-0.6136034,0.93600863,-0.61637104,0.032910097,0.020936636,-0.11969751,-0.40691534,-0.33224475,0.06008717,3.0696568,-0.6133181,-0.000300693,-0.18574826,-0.022278324,0.0019649495,-0.060415447,0.0215898,0.031438272,0.42032567,-1.4116899,1.94254,-2.1068852,-1.5615734,2.3891957,-0.14025979,0.32027307,-0.37626284,0.013008472,0.046708476,-0.17123666,-0.47884032,0.24899697,-9.059659,0.9186956,47.655537,-1.155554,-1.4939818,-3.4854527,-0.21556282,0.36070353,-0.3301826,24.875,25.375,24.75,26.875,27.1875,27.5
0.37803093,-0.95324695,0.35751545,-0.847507,0.015362615,0.0200576,-0.11872767,-0.4072996,-0.33230498,0.060108192,3.0695076,-0.613212,-0.00040845643,-0.18679796,-0.021677554,0.0015106124,-0.060486432,0.019528646,0.026814653,0.420061,-1.4110644,1.9417742,-2.1068957,-1.5614766,2.3888845,-0.14259301,0.32274053,-0.37866342,0.01479922,0.04763449,-0.16893367,-0.22984336,0.3256114,-9.174581,1.0328293,47.66987,-1.1893344,-1.5694623,-3.5177915,-0.21895003,0.34504855,-0.3739907,24.875,25.375,24.75,26.875,27.1875,27.5
