Tylouw/Master_Thesis_Code/test_recorded_data/trial3/insertion_10_2026-01-23_13-40-58.csv
num_insertion,tcp_force_x[N],tcp_force_y[N],tcp_force_z[N],tcp_force_rx[Nm?],tcp_force_ry[Nm?],tcp_force_rz[Nm?],tcp_pose_x[m],tcp_pose_y[m],tcp_pose_z[m],tcp_pose_rx[rot_vec_x],tcp_pose_ry[rot_vec_y],tcp_pose_rz[rot_vec_z],tcp_velo_x[m/s],tcp_velo_y[m/s],tcp_velo_z[m/s],tcp_velo_rx[rot_vec_x/s],tcp_velo_ry[rot_vec_y/s],tcp_velo_rz[rot_vec_z/s],q1[rad],q2[rad],q3[rad],q4[rad],q5[rad],q6[rad],qd1[rad/s],qd2[rad/s],qd3[rad/s],qd4[rad/s],qd5[rad/s],qd6[rad/s],tool_acc_x,tool_acc_y,tool_acc_z,current_of_whole_robot[A],voltage_of_whole_robot[V],current_J1[A],current_J2[A],current_J3[A],current_J4[A],current_J5[A],current_J6[A],temp_J1[C],temp_J2[C],temp_J3[C],temp_J4[C],temp_J5[C],temp_J6[C]
1.0,1.083899437148248,0.764772235850563,-0.9563267460219588,-0.002998556833347741,-0.027242499564809165,-0.07596294289037285,-0.538846603842301,-0.3244786206167982,0.2600605850670936,-3.078696780495866,0.6248470046340896,0.00017485211188729313,0.0006997367063492097,-0.00103927438779189,0.0015733479545872184,-0.00183141183535724,0.005714076744361802,0.0016280950823130043,0.32656165957450867,-1.1519744259170075,1.6624248663531702,-2.0797559223570765,-1.571345631276266,2.3015692234039307,0.001984492177143693,-0.002483542077243328,0.0008862074464559555,-0.004401813726872206,-0.00010699099948396906,0.00035447804839350283,0.40222588181495667,-0.019153613597154617,-9.155426979064941,0.7418897151947021,47.690467834472656,-0.13551273941993713,-4.299343585968018,-2.4356648921966553,-0.3940250873565674,0.023456308990716934,-0.15258145332336426,25.0625,25.75,24.8125,27.5,28.4375,28.9375
1.0,-0.6391866299453663,-0.8514921523673321,-1.2523240564927787,-0.04664088459544688,0.029182722942315775,-0.06751470858892418,-0.5388277772801461,-0.3244693506509707,0.2600216601549236,-3.0786202062582086,0.6248127161510945,2.9020537611490034e-05,0.00035713278000001534,-0.0005602954672189872,0.0009160998658066782,-0.0006872484449910887,0.0023417410517675066,0.0007596934191718336,0.3265373706817627,-1.1519619685462494,1.6624134222613733,-2.0796829662718714,-1.5713933149920862,2.3015451431274414,0.0010666137095540762,-0.001307495404034853,1.595142293808749e-07,-0.0011306697269901633,-0.00010291304351994768,0.000306417525280267,-0.13407528400421143,0.17238251864910126,-9.308655738830566,0.6993717551231384,47.68867492675781,-0.1844562292098999,-3.957834243774414,-2.101356029510498,-0.46130627393722534,0.01267238799482584,-0.13928943872451782,25.0625,25.75,24.8125,27.5,28.4375,28.9375
1.0,-2.658963318187876,-2.7730878447003553,-1.0322619063457594,-0.12735424281431987,0.13003819708127784,-0.06611965979235723,-0.5388145868533939,-0.3244906963458405,0.26002021052461377,-3.0786538879318632,0.6247421342349561,5.79196188003643e-06,0.0024857686754163806,0.000298780225320876,-0.0032306467805169165,0.0023801941503606263,-0.006665787452590262,0.0005921959126773484,0.32657331228256226,-1.1519616705230256,1.6624162832843226,-2.0796829662718714,-1.571369473134176,2.301532745361328,0.0008611817029304802,-0.00044764578342437744,0.008053028956055641,-0.0005279016913846135,-9.913438407238573e-05,0.00026967236772179604,-0.363918662071228,0.3064578175544739,-9.366117477416992,0.7642692923545837,47.68598937988281,-0.12400305271148682,-3.860921859741211,-2.450465202331543,-0.5348538756370544,0.020051738247275352,-0.14801715314388275,25.0625,25.75,24.8125,27.5,28.4375,28.9375
1.0,-0.4893214386045675,-0.5267419746983968,-0.9594177403417087,-0.05011751825653328,0.09469948551895441,-0.07718616016290526,-0.5388013774550449,-0.32449518736627536,0.2600292940445109,-3.0787035901766795,0.6247133309240407,8.438906856107993e-05,0.0003503463845625937,-0.00043572117273900905,-0.0007070876931617531,-0.0018204696648502572,0.005625589931946956,0.0006263182390428248,0.32658523321151733,-1.1519974929145356,1.6624625364886683,-2.0797583065428675,-1.571357552205221,2.301520347595215,0.0008704701904207468,0.00013029543333686888,0.0035924569237977266,-0.009634642861783504,-9.56232615862973e-05,0.0002407997235422954,-0.2106897532939911,0.2106897532939911,-9.21288776397705,0.7732232213020325,47.687782287597656,-0.1752292513847351,-3.803636312484741,-2.1946372985839844,-0.5448670387268066,0.016182804480195045,-0.15197083353996277,25.0625,25.75,24.8125,27.5,28.4375,28.9375
1.0,-0.10159446178046722,0.61442061645977,-0.9694794339368668,0.012230198158428057,-0.006633809422988934,-0.07130470608687645,-0.5388205832562537,-0.3244743431516026,0.2600257844902165,-3.0787317010980186,0.6247959991208676,9.117617925255579e-05,-0.00035930121897696207,-0.0006066187235940171,-0.00010959307155716198,-0.0035451784579417665,0.010667040589982205,0.0005376857975206638,0.32653728127479553,-1.1519853335670014,1.66246205965151,-2.0797959766783656,-1.5713217894183558,2.301520347595215,0.0007605834980495274,0.00043015219853259623,0.0029474594630301,-0.014617826789617538,-9.235263132723048e-05,0.0002175136178266257,-0.17238251864910126,0.13407529890537262,-9.097966194152832,0.7508436441421509,47.70658874511719,-0.14510251581668854,-3.6725685596466064,-1.92631196975708,-0.49371054768562317,0.02709808200597763,-0.1665099859237671,25.0625,25.75,24.8125,27.5,28.4375,28.9375
1.0,-0.39887549276374634,-0.3582090543646881,-0.7134622706917969,-0.03669639897131914,0.03131642345345482,-0.07182494378481674,-0.5388061498760449,-0.32449677291273854,0.26001483710798007,-3.078707873993195,0.6247540705985056,0.0001172354934880657,0.0002370457743891104,-0.0003692959998559217,-0.0027023642936361432,-0.0016488793216803536,0.005126926454278133,0.0005470509197913841,0.32658517360687256,-1.1519726377776642,1.6624744574176233,-2.0798193416991175,-1.571357552205221,2.3015451431274414,0.0007104033720679581,0.0026135998778045177,0.0055337930098176,-0.013531920500099659,-0.00010319302964489907,0.00015903056191746145,-0.09576806426048279,-0.19153612852096558,-9.097966194152832,0.7038487195968628,47.72270965576172,-0.2226465493440628,-3.7030043601989746,-2.001861333847046,-0.5521649122238159,0.0020112914498895407,-0.16683614253997803,25.0625,25.75,24.8125,27.5,28.4375,28.9375
1.0,-0.31747532727639605,0.2536786458069733,-0.6685756407679572,-0.010812203016167855,0.01816510023873191,-0.06605617910238991,-0.5388110838615309,-0.32448287066983644,0.2599876674170898,-3.078714716324333,0.6247542117687834,0.00013512043351220868,-0.0002453525503057573,-0.00045803380995555314,-0.0021449201237332496,-0.0024655622430691825,0.0075121523964243216,0.0004425279123735192,0.32656118273735046,-1.1519486767104645,1.6625216642962855,-2.0799037418761195,-1.571357552205221,2.301520347595215,0.0005933943903073668,0.002712283981963992,0.0044909254647791386,-0.015108908526599407,-0.00010084173845825717,0.00014581404684577137,0.2298433631658554,-0.28730419278144836,-9.078812599182129,0.7575564384460449,47.68330383300781,-0.19201436638832092,-3.4776182174682617,-1.8329908847808838,-0.5663409233093262,0.005790832452476025,-0.1768607795238495,25.0625,25.75,24.8125,27.5,28.4375,28.9375
1.0,1.050854743739391,0.8498757417493462,-1.0348890415911653,0.016177355322096135,-0.014682574423162405,-0.07124632775077991,-0.5388035250985401,-0.32448934196598855,0.25997180012157795,-3.078722493111469,0.6247365755676765,0.00010897267150172048,-7.932309068989766e-06,-0.000322761864608091,-0.003118240368471373,-0.0022704478368590006,0.006925304199130001,0.0003690384458966714,0.3265731930732727,-1.1519363981536408,1.6625459829913538,-2.079928060571188,-1.571345631276266,2.301520347595215,0.0005094058578833938,0.0033154014963656664,0.006248013116419315,-0.016850704327225685,-9.771760960575193e-05,0.00013488350668922067,0.19153612852096558,-0.2298433631658554,-9.078812599182129,0.7821771502494812,47.687782287597656,-0.2082153558731079,-3.400442361831665,-1.8238813877105713,-0.5466124415397644,0.010243572294712067,-0.17152930796146393,25.0625,25.75,24.8125,27.5,28.4375,28.9375
1.0,0.6632847984665792,0.00421941025702563,-1.0206349536129655,-0.0466476404248931,0.00619174873675701,-0.07557734500915911,-0.5388129883027097,-0.32447068153903524,0.25994125432413207,-3.0786317167316075,0.6248535259891069,0.0001191530011292773,0.0007626341013224592,1.821477876113237e-05,-0.007072786389669658,0.0007626191672847289,-0.0019661609424438805,0.00026168220932680817,0.3265492022037506,-1.151899204855301,1.6625712553607386,-2.0799628696837367,-1.5714057127581995,2.3015809059143066,0.0003907423815689981,0.006962277926504612,0.009581884369254112,-0.014436873607337475,-0.0001048309204634279,0.00012547930236905813,0.2106897532939911,-0.05746084079146385,-9.232041358947754,0.6702793836593628,47.68867492675781,-0.2583746016025543,-3.509204387664795,-1.8797816038131714,-0.5711870193481445,0.013363218866288662,-0.18441247940063477,25.0625,25.75,24.8125,27.5,28.4375,28.9375
1.0,-0.07960466915673853,-1.2567773789406922,-1.1407973766392312,-0.06742462805503455,0.037445862562460686,-0.07344094865269743,-0.5388037007795853,-0.3244725434814763,0.2599088196050017,-3.0786579952021724,0.6248399202489598,3.100116388500378e-05,0.0013027003763144034,0.0002308263051235672,-0.00743242906045308,0.0015129267386765595,-0.004096123471796943,0.00026051008993323066,0.3265491724014282,-1.1518753331950684,1.662619415913717,-2.0799981556334437,-1.571357552205221,2.3015689849853516,0.000350180926034227,0.0063752904534339905,0.010858920402824879,-0.012868762947618961,-0.00012559187598526478,8.679345773998648e-05,0.15322890877723694,0.19153612852096558,-9.232041358947754,0.7195101380348206,47.694053649902344,-0.2335377335548401,-3.3869097232818604,-1.8079676628112793,-0.6301038265228271,0.004725242964923382,-0.18343600630760193,25.0625,25.75,24.8125,27.5,28.4375,28.9375
1.0,-0.3088140214416908,-1.370775478792182,-1.2422403075279091,-0.05616459453188202,0.02465190306433711,-0.06596167985154841,-0.538789017160144,-0.32448055210815496,0.259856755253574,-3.0786153772379383,0.624792906671828,-3.249717211540263e-05,0.0009789890344322225,0.000265083428932756,-0.008967048397019681,0.0017740077977529067,-0.0048236197287695615,5.010846854780036e-05,0.32657307386398315,-1.1518265169909974,1.662680451069967,-2.0800472698607386,-1.5713813940631312,2.3015689849853516,0.00013082184887025505,0.008767235092818737,0.01152087189257145,-0.015149793587625027,-0.0001433909055776894,7.739975990261883e-05,0.19153612852096558,0.2298433631658554,-9.308656692504883,0.7105615139007568,47.71375274658203,-0.20216289162635803,-3.321972370147705,-1.8112690448760986,-0.6353064775466919,0.010866183787584305,-0.19828587770462036,25.0625,25.75,24.8125,27.5,28.4375,28.9375
1.0,0.2375690249830362,-0.9997912360578503,-1.251932091427874,-0.07321280825164447,0.02427839240699174,-0.07292873358987788,-0.5388017671739217,-0.32446274541148795,0.25982732915233575,-3.0786321013775972,0.624796037329126,-2.419632322626497e-05,0.0009489387632568689,0.0002649303078020502,-0.009350382156379773,0.0011157303574225118,-0.0029205012442450806,7.27340591132686e-05,0.32653704285621643,-1.1517905753901978,1.6627162138568323,-2.080132146874899,-1.571369473134176,2.301532745361328,0.00011418966460041702,0.009084770455956459,0.012750687077641487,-0.018710898235440254,-0.00013635266805067658,3.686806303448975e-05,0.1149216815829277,0.3064578175544739,-9.327810287475586,0.7575564384460449,47.72987747192383,-0.2514762580394745,-3.2324934005737305,-1.8014976978302002,-0.6334790587425232,0.02163255400955677,-0.19343730807304382,25.0625,25.75,24.8125,27.5,28.4375,28.9375
1.0,-0.23940346256571404,-1.189799231321437,-1.0116225720816137,-0.07520511084125339,0.024286563201411808,-0.06583290423978437,-0.5388049587308678,-0.32446132703774094,0.2597914319296245,-3.07860013138067,0.6247895024163264,-3.8034381078878626e-05,0.0005139333269750927,0.0001594778278880245,-0.011095841977280724,0.0012347688181701024,-0.0032493268468769495,4.445491488139011e-05,0.32653704285621643,-1.1517416697791596,1.6627405325519007,-2.0801812611021937,-1.5713933149920862,2.301532745361328,5.091425191494636e-05,0.012035205960273743,0.013311436399817467,-0.02187241241335869,-0.00014998363621998578,1.1473033509901143e-06,0.07661445438861847,0.28730419278144836,-9.232041358947754,0.7575564384460449,47.6895751953125,-0.24351662397384644,-3.260496139526367,-1.7853376865386963,-0.6246345043182373,0.017985749989748,-0.20269359648227692,25.0625,25.75,24.8125,27.5,28.4375,28.9375
1.0,0.427435091869081,-0.7595957893317076,-1.0884889357644199,-0.05814221346852466,0.039001167237459784,-0.07675479676319073,-0.5387994021837386,-0.32445793964183434,0.25976396100198107,-3.078656997984956,0.6248593396777865,-3.662271810631191e-05,0.000231834773400129,6.624812363650638e-05,-0.01096433998860417,0.00023617969203268825,-0.00034244579003132755,3.885070417187995e-05,0.32652512192726135,-1.1517295104316254,1.6628130117999476,-2.080301900903219,-1.5713337103473108,2.3015570640563965,4.5537737605627626e-05,0.012220317497849464,0.01354499626904726,-0.02536470629274845,-0.0001444786466890946,4.891134164353161e-09,0.19153612852096558,0.26815059781074524,-9.193734169006348,0.7284641265869141,47.6949462890625,-0.18922123312950134,-3.308323383331299,-1.7390598058700562,-0.611446738243103,0.019973905757069588,-0.21283578872680664,25.0625,25.75,24.8125,27.5,28.4375,28.9375
1.0,0.2024862074423954,-0.2492912366155121,-0.9205299663486689,-0.04989426804600587,0.01996122189399549,-0.07414942183423857,-0.5388113518458514,-0.3244516672617006,0.2597253497228387,-3.07863803393927,0.6248557076769887,-1.4764908531379223e-05,-4.8372594987958855e-05,-2.7099402612094216e-05,-0.011465984999308666,-0.00029235829176090466,0.0011784806370502329,3.364348067599759e-05,0.32651305198669434,-1.1516692799380799,1.6628358999835413,-2.0803872547545375,-1.571357552205221,2.3015451431274414,4.135271956329234e-05,0.013264999724924564,0.01390879601240158,-0.028383316472172737,-0.00013814799604006112,2.0851672818955613e-11,0.15322890877723694,0.17238251864910126,-9.136273384094238,0.7284641265869141,47.70121383666992,-0.21793316304683685,-3.2482261657714844,-1.7076349258422852,-0.6005653142929077,0.016313787549734116,-0.20754531025886536,25.0625,25.75,24.8125,27.5,28.4375,28.9375
1.0,-0.39882464433290615,-1.0772746448284969,-1.044059961563203,-0.02745863075067718,0.007715449909251982,-0.0665334900605665,-0.538792880838248,-0.32447273332940324,0.25967375626710804,-3.078634431521685,0.6247781620086955,4.520031705807044e-05,-0.0002724749155814756,-0.00010167593041259571,-0.012429578333349432,-0.0004898120170139138,0.0017268635827139684,2.93365350061795e-05,0.32656097412109375,-1.1516206127456208,1.6629203001605433,-2.080543657342428,-1.5713933149920862,2.3015451431274414,3.787212335737422e-05,0.014815534465014935,0.014563428238034248,-0.031171249225735664,-0.00013234362995717674,8.889394618625743e-14,0.15322890877723694,0.1149216815829277,-9.174580574035645,0.7284641265869141,47.70658874511719,-0.17704738676548004,-3.3426527976989746,-1.698645830154419,-0.5786333084106445,0.009215153753757477,-0.2147125005722046,25.0625,25.75,24.8125,27.5,28.4375,28.9375
1.0,-0.19840604013148463,-0.09137244586229491,-0.9521278887139375,-0.03255012140466776,0.02443745973442145,-0.07289043411915,-0.5387868246844926,-0.32447972298756544,0.2595721981210627,-3.0786250388081267,0.624697797860909,-6.048613080852216e-05,-0.000656844291162677,-0.00023076254951985472,-0.012241421611169067,-0.0016403930055192187,0.005070173572915685,0.0008098529028828962,0.3265730142593384,-1.151500718002655,1.663016144429342,-2.080688615838522,-1.5713813940631312,2.3015081882476807,3.36269149556756e-05,0.01512116752564907,0.01458513643592596,-0.035034481436014175,-0.00012449770292732865,-0.0007862802594900131,0.05746084079146385,0.0,-9.193734169006348,0.7374180555343628,47.68061828613281,-0.22757703065872192,-3.2640533447265625,-1.6353752613067627,-0.5531537532806396,0.005062684882432222,-0.21301788091659546,25.0625,25.75,24.8125,27.5,28.4375,28.9375
1.0,-0.6705746484034053,-0.6026231918769489,-1.074635153983694,-0.03092250990145182,0.01530322551644359,-0.060509198798637524,-0.5387955540822419,-0.3244929363006287,0.2595500000766085,-3.078676677650695,0.6247282854166384,1.7172305971282156e-05,-0.0008143913985957985,-0.0002833189552127746,-0.013067421634745374,-0.001791300273782014,0.005487846647830098,0.0007003030995012551,0.32658493518829346,-1.1514523488334198,1.6630290190326136,-2.0808211765685023,-1.571357552205221,2.301532506942749,3.128864409518428e-05,0.016379883512854576,0.015235325321555138,-0.03738738223910332,-0.00011976410314673558,-0.0006797714740969241,-0.038307227194309235,0.05746084079146385,-9.117119789123535,0.7732232213020325,47.7164421081543,-0.24067816138267517,-3.283266544342041,-1.6309075355529785,-0.5171558856964111,0.022807778790593147,-0.2122398316860199,25.0625,25.75,24.8125,27.5,28.4375,28.9375
1.0,-0.9700663055328238,-0.7079330290958217,-0.9502287496280959,-0.041130436464231826,0.0183262790041823,-0.07228623601063125,-0.538794308218415,-0.3244691954701374,0.2594478387401112,-3.078629667697756,0.6247763001425133,-8.170898239063337e-05,-0.0005674593582732559,-0.0001980006056464963,-0.014950498779715419,-0.0010418632406012313,0.003264512715699714,0.0006511436599195699,0.32654905319213867,-1.151355729704239,1.6631611029254358,-2.0809771023192347,-1.571357552205221,2.301532506942749,2.9254520995891653e-05,0.01823604851961136,0.01726611703634262,-0.03892810642719269,-0.00011537733371369541,-0.0006327700684778392,0.0,0.019153613597154617,-9.232041358947754,0.7597975730895996,47.692256927490234,-0.25859740376472473,-3.3230597972869873,-1.6366138458251953,-0.47633957862854004,0.01454590167850256,-0.2269623577594757,25.0625,25.75,24.8125,27.5,28.4375,28.9375
1.0,-0.5298373786805254,-0.5340409052634747,-0.9984112726450245,-0.0401546483962929,0.03134330730522432,-0.07936544656380205,-0.5388065639821586,-0.324485178618076,0.2594333610432565,-3.0786600531731487,0.6247440800863673,9.197142494739412e-05,-0.00044049609006949864,-0.00015386600949073256,-0.015942701857556172,-0.0009155385180203687,0.002874356328501534,0.0006085054049324634,0.3265730142593384,-1.1513074797442933,1.6631620565997522,-2.0811335049071253,-1.5713933149920862,2.301532506942749,2.7468830012367107e-05,0.01914500631392002,0.018679920583963394,-0.040840838104486465,-0.00011130073107779026,-0.0005924224969930947,-0.019153613597154617,0.09576806426048279,-9.27034854888916,0.7038487195968628,47.693153381347656,-0.28433385491371155,-3.366811752319336,-1.6522969007492065,-0.4598120450973511,0.002230289625003934,-0.22073985636234283,25.0625,25.75,24.8125,27.5,28.4375,28.9375
1.0,-0.04896583847114769,-0.4463081312140831,-0.9313532961765356,-0.0418075658837878,0.02912282538535404,-0.0740458819882586,-0.5387935880389053,-0.3244947337494434,0.25933104132231655,-3.0786849590193066,0.6247302261605472,-3.6192452017488884e-05,-0.0005753694114478899,-0.0001991754949802223,-0.016199296169700103,-0.0010168390898694782,0.00315486391792179,0.0006007187483825239,0.32658493518829346,-1.1511994165233155,1.663281265889303,-2.081301351586813,-1.5713337103473108,2.301532506942749,2.5888430172926746e-05,0.019715690985322,0.018660450354218483,-0.04169021174311638,-0.00010750219371402636,-0.0005864774575456977,0.05746084079146385,0.07661445438861847,-9.27034854888916,0.6881819367408752,47.699424743652344,-0.3498814105987549,-3.3737754821777344,-1.6766903400421143,-0.46555691957473755,0.01804826594889164,-0.222305566072464,25.0625,25.75,24.875,27.5,28.4375,28.9375
1.0,-0.2823864127097929,-0.620241768214371,-1.0216054325439206,-0.03816821522121948,0.014343895424584802,-0.07548582201084524,-0.5388022800500423,-0.3244808789179198,0.25928654724948663,-3.0786909525890733,0.6247699060587073,3.746698142785708e-05,-0.0006950140115293471,-0.00022347813906890712,-0.01685043599738873,-0.00046916446463947603,0.0015314437491264073,0.0006508244229065174,0.32656097412109375,-1.1511509877494355,1.6633523146258753,-2.081468244592184,-1.571345631276266,2.301532506942749,1.1571486879802251e-07,0.02086906135082245,0.01833026297390461,-0.04080011323094368,-0.00010395439312560484,-0.0006618598708882928,0.09576806426048279,0.05746084079146385,-9.27034854888916,0.7127973437309265,47.6734504699707,-0.3551943004131317,-3.3395044803619385,-1.5165702104568481,-0.4878847301006317,-0.005283511243760586,-0.22311970591545105,25.0625,25.75,24.875,27.5,28.4375,28.9375
1.0,0.15591006670557597,-0.84761483732318,-0.9280658965756603,-0.040284287223997975,0.023725009702861215,-0.06857782226519754,-0.5388235307258378,-0.3244712988268374,0.2592092477368475,-3.0786606485359806,0.6248017937305587,1.0902091878106885e-05,-0.00011343780497100606,-2.3823915179436708e-05,-0.018591162406366473,0.0009758249688914086,-0.0026779428876219174,0.0011572696568708822,0.32653701305389404,-1.151030645971634,1.6633895079242151,-2.08159937481069,-1.571357552205221,2.30153226852417,2.082826966454121e-11,0.022021416574716568,0.020390015095472336,-0.03956179693341255,-0.00011476381769170985,-0.0011675105197355151,0.17238251864910126,0.15322890877723694,-9.21288776397705,0.6478998064994812,47.73883056640625,-0.3434884548187256,-3.4256324768066406,-1.6112170219421387,-0.5081818103790283,0.003862791694700718,-0.21970027685165405,25.0625,25.75,24.875,27.5,28.4375,28.9375
1.0,0.049566754695439474,-0.5739241574134466,-0.714639230827205,-0.03713423046309702,0.013306983495151062,-0.07848581219361417,-0.538820052944975,-0.32445860860677767,0.2591223398265309,-3.0786187556822457,0.6247925129155734,6.251744870510845e-06,-0.000374634040708675,-0.00011306025598633312,-0.01938349278026345,0.0011997974850198202,-0.0033560417476383407,0.0010891163948134218,0.32652509212493896,-1.1509463053992768,1.6635096708880823,-2.0817796192564906,-1.5713933149920862,2.3015198707580566,3.7490152583925795e-15,0.023579273372888565,0.020156221464276314,-0.0401717945933342,-0.0001114479819079861,-0.0010993883479386568,0.19153612852096558,0.17238251864910126,-9.21288776397705,0.6948947906494141,47.694053649902344,-0.39633944630622864,-3.388906955718994,-1.6003429889678955,-0.5595114231109619,0.023255959153175354,-0.22142350673675537,25.0625,25.75,24.875,27.5,28.4375,28.9375
1.0,0.3282886658238007,-0.3782939437072562,-0.8237696782774051,-0.03803301603268691,0.005265848580032038,-0.07589825039240457,-0.5388191114950046,-0.32445827926649434,0.25906637288100165,-3.078651457198013,0.6247228189442223,5.461016843415262e-05,0.0001010522999779178,4.867550226372115e-05,-0.01935765433531083,0.0010830965724733892,-0.0030170515746992064,0.0010589301069289265,0.32652509212493896,-1.1508867007545014,1.6635940710650843,-2.081959386865133,-1.5713933149920862,2.3014721870422363,6.748095493237558e-19,0.02248856984078884,0.021830091252923012,-0.0411134772002697,-0.00010810255480464548,-0.0010695966193452477,0.2298433631658554,0.07661445438861847,-9.174580574035645,0.7575564384460449,47.64747619628906,-0.44654762744903564,-3.230099678039551,-1.6172735691070557,-0.5572860836982727,-0.0031861381139606237,-0.20670567452907562,25.0625,25.75,24.875,27.5,28.4375,28.9375
1.0,0.16540792016573774,-1.0546489142800766,-0.8780202104194552,-0.02459921827858628,0.0032042274922457203,-0.07232767401814413,-0.5388256161816936,-0.32445266164726294,0.2589621354645172,-3.078612365809829,0.6247346008886221,-4.3040455428803436e-05,-0.00013758301188813825,-2.989161390464441e-05,-0.020945258728078623,0.0014332408505303247,-0.003987539800511301,0.0009153691984454672,0.32651305198669434,-1.150753842001297,1.663677994404928,-2.082104345361227,-1.5713933149920862,2.3014724254608154,1.214633495793545e-22,0.024946846067905426,0.02247362770140171,-0.04318365827202797,-0.00013210180622991174,-0.0009263787651434541,0.24899697303771973,0.0,-9.174580574035645,0.7597975730895996,47.71375274658203,-0.3853476941585541,-3.36635160446167,-1.6858793497085571,-0.5900763273239136,0.007756419479846954,-0.2207726240158081,25.0625,25.75,24.875,27.5,28.4375,28.9375
1.0,0.18513103876655618,-0.7811503318347177,-0.9111485845275255,-0.036349771870951245,0.01836058589778381,-0.06717096207811449,-0.5388220229740853,-0.3244617445089284,0.2588822862395347,-3.0786217465213457,0.624755545424786,-8.209626275332293e-05,0.00017430186676245955,7.579756955848878e-05,-0.022109190637953084,0.0026561531371675088,-0.007600034586895056,0.00082920344515299,0.32652509212493896,-1.1506576103023072,1.66376239458193,-2.0822702846922816,-1.571369473134176,2.3014962673187256,2.1862973380153196e-26,0.025966091081500053,0.02323397994041443,-0.04114936292171478,-0.00012501342280302197,-0.0008391608134843409,0.09576806426048279,0.2298433631658554,-9.155426979064941,0.7821771502494812,47.69136428833008,-0.3847481310367584,-3.3222193717956543,-1.640695571899414,-0.6360308527946472,0.006254756823182106,-0.21560344099998474,25.0625,25.75,24.875,27.5,28.4375,28.9375
1.0,-0.0031853332041897886,-0.8589005827297375,-0.8310856657702965,-0.04200542390632885,0.02260090478166657,-0.07425697472795012,-0.5388124758738029,-0.3244637171726796,0.2587824222572079,-3.078573669996424,0.6247075568215742,-0.00016095211433740032,0.00033017934419340034,0.0001283951343743807,-0.023275005236251593,0.0028264342074634926,-0.008127941975686887,0.0008419730178459121,0.32653701305389404,-1.1505493980697175,1.663870636616842,-2.082414766351217,-1.5713933149920862,2.3014843463897705,3.935258297739323e-30,0.027039116248488426,0.02487058937549591,-0.04330441355705261,-0.00011843361426144838,-0.0008524725562892854,0.15322890877723694,0.1149216815829277,-9.174580574035645,0.7284641265869141,47.694053649902344,-0.37922388315200806,-3.3081045150756836,-1.6426177024841309,-0.7024214267730713,0.011139164678752422,-0.22329282760620117,25.0625,25.75,24.875,27.5,28.4375,28.9375
1.0,0.0799762555844531,-0.5250288548850666,-0.8087493852603007,-0.05320725272116075,0.03225371849560039,-0.0769700303042243,-0.5388067259059732,-0.3244851223495238,0.2586891612922326,-3.07858392505205,0.6246902543163093,-0.0001441284759926971,0.0004351785618581079,0.00016364211304709756,-0.023769909281322086,0.0026574374817981473,-0.007653168453739791,0.0009189171031327607,0.3265730142593384,-1.1504294139197846,1.663966480885641,-2.0826431713499964,-1.5713933149920862,2.3015081882476807,7.083325083253634e-34,0.0273507758975029,0.025999272242188454,-0.04524868726730347,-0.0001125109993154183,-0.0009300575475208461,0.13407529890537262,0.019153613597154617,-9.232041358947754,0.7172743082046509,47.66360092163086,-0.40605494379997253,-3.3408560752868652,-1.6230814456939697,-0.735785961151123,0.01975800283253193,-0.2227839231491089,25.0625,25.75,24.875,27.5,28.4375,28.9375
1.0,0.026444174590876293,-0.15412716629898562,-0.9804414941584829,-0.03841866382419483,0.022474944595927124,-0.07193768422055025,-0.5388179962333633,-0.32446158150687054,0.2586049138005395,-3.078569642627683,0.6247642825442543,-0.00025421434857728336,0.0002738044232497758,0.00010817503628779639,-0.024529371358224934,0.0027418381272883334,-0.007927948200985005,0.0009138253394240875,0.32652509212493896,-1.1503330928138276,1.6640504042254847,-2.0827633343138636,-1.571357552205221,2.3015081882476807,1.2749736498434777e-37,0.028617989271879196,0.026231423020362854,-0.04646071046590805,-0.00010715262760641053,-0.0009252411546185613,0.15322890877723694,0.1149216815829277,-9.232041358947754,0.6993717551231384,47.68419647216797,-0.4214649200439453,-3.3296597003936768,-1.6072636842727661,-0.800134539604187,0.013248198665678501,-0.22586345672607422,25.0625,25.75,24.875,27.5,28.4375,28.9375
1.0,0.0688976445589454,-0.5905108901181089,-1.0606895917228667,-0.03962788732386391,0.03613839316466705,-0.07369173319179703,-0.5388241520890021,-0.3244624109282838,0.258483866598721,-3.0785420002656263,0.6247587282812744,-0.0002940639824457363,9.536156139298306e-05,4.699960408481543e-05,-0.02548652276227928,0.0021580282506037424,-0.006243528177436296,0.000977643147119606,0.32652509212493896,-1.150176779632904,1.6641586462603968,-2.082991739312643,-1.571369473134176,2.3015081882476807,2.294906495024753e-41,0.02997264266014099,0.027515260502696037,-0.05088192969560623,-0.00010228149767499417,-0.0009905231418088078,0.15322890877723694,0.05746084079146385,-9.232041358947754,0.7687462568283081,47.71554183959961,-0.4826138913631439,-3.401519536972046,-1.630199670791626,-0.8144760131835938,0.005458901636302471,-0.22325925529003143,25.0625,25.75,24.875,27.5,28.4375,28.9375
1.0,-0.643290013123595,-0.9293618631431615,-1.0243733497929837,-0.04018655176888428,0.031280933204814634,-0.06860150215181215,-0.5388126611809722,-0.32447272946787664,0.25836607349096125,-3.078531208575223,0.6246419081656837,-0.0003488256669951551,5.378975207651461e-05,0.00018678292216389828,-0.025925374433142804,0.0015588203232474794,-0.004504389564479535,0.0007477933025341684,0.3265489637851715,-1.1500447255424042,1.664290730153219,-2.0832087002196253,-1.5713813940631312,2.3014605045318604,-0.00023768584651406854,0.030256155878305435,0.02891395427286625,-0.05440361797809601,-9.783390851225704e-05,-0.0009996144799515605,0.07661445438861847,-0.019153613597154617,-9.232041358947754,0.7418897151947021,47.67524337768555,-0.42795801162719727,-3.4080734252929688,-1.6395879983901978,-0.8329304456710815,0.004018773790448904,-0.21994084119796753,25.0625,25.75,24.875,27.5,28.4375,28.9375
1.0,-0.555738480105396,-0.4434849099506671,-1.010630067276604,-0.04920096320678864,0.03569856423853833,-0.07218201368188644,-0.5388109684293976,-0.324474640401134,0.2582804791807582,-3.0785579109436982,0.6246474903307364,-0.00035051613406671914,-0.00047534790474060854,1.7762029048072176e-05,-0.026811892145896295,-0.00012210844258145874,0.0003877400771055349,0.0006278740877037785,0.3265369236469269,-1.1498641830733796,1.6644590536700647,-2.083534379998678,-1.571369473134176,2.3015081882476807,-0.00025583055685274303,0.03198446333408356,0.030419552698731422,-0.06281034648418427,-9.184360533254221e-05,-0.0009008587803691626,0.038307227194309235,0.019153613597154617,-9.308655738830566,0.7956027388572693,47.687782287597656,-0.48032593727111816,-3.410226583480835,-1.676926851272583,-0.7921826839447021,-0.004898899234831333,-0.21255365014076233,25.0625,25.75,24.875,27.5,28.4375,28.9375
1.0,-0.5146134562191593,-0.9490397577404179,-1.3787272498519907,-0.04818589861714202,0.04184987995254274,-0.07175065680402395,-0.5388257643303485,-0.32445252712275857,0.2581072009139818,-3.078520515068889,0.6247168023184156,-0.00030231207905752995,-0.0012571944678926648,-0.0002641049644506317,-0.026890253760605942,-0.002938901403137705,0.0086754145058936,0.0004305995165241187,0.3265129625797272,-1.1497439605048676,1.6646035353290003,-2.0838500461974085,-1.5713933149920862,2.3014724254608154,-0.0002297094470122829,0.033031657338142395,0.03162994608283043,-0.07382116466760635,-0.0001057356275850907,-0.0006816562963649631,0.07661445438861847,0.0,-9.366117477416992,0.7105615139007568,47.692256927490234,-0.4495065212249756,-3.475538730621338,-1.6980397701263428,-0.7194352746009827,0.015286976471543312,-0.20885053277015686,25.0625,25.75,24.875,27.5,28.4375,28.9375
1.0,-0.23104541267609918,-0.971740375825821,-1.2374187086483248,-0.05179683770990981,0.04481446040478646,-0.07510695331896854,-0.5388219375132425,-0.3244783353399756,0.25798986376973515,-3.078565913123721,0.6246494202315193,-0.0003312817064114224,-0.0011692054565890513,-0.00022117481145386968,-0.02799669982924893,-0.0032380895397652537,0.009530480449030215,0.00036027370286439606,0.3265489637851715,-1.1495878559402009,1.6647117773639124,-2.084114213983053,-1.571357552205221,2.3014605045318604,-0.000250090379267931,0.034049347043037415,0.03360491618514061,-0.07771966606378555,-0.00010189303429797292,-0.0006329576717689633,0.0,0.15322890877723694,-9.289502143859863,0.6389458775520325,47.674346923828125,-0.4954614043235779,-3.5020322799682617,-1.7475444078445435,-0.6471201181411743,0.0024299025535583496,-0.2083817422389984,25.0625,25.75,24.875,27.5,28.4375,28.9375
1.0,-0.7456643464330841,-1.0515756279330442,-1.3381899426095936,-0.04721074779249919,0.028499323014716523,-0.0637034799005864,-0.5388194609506476,-0.32448271599765366,0.25788164715962003,-3.078581970624901,0.6246527973486706,-0.00021402747714564953,-0.0015070742520616662,-0.0003256294615759202,-0.029306006999142445,-0.0037961284702415,0.011137202309191989,0.0003111165215599503,0.3265608847141266,-1.149466947918274,1.6648677031146448,-2.084463735620016,-1.5713813940631312,2.3014724254608154,-0.0002668748202268034,0.03616317734122276,0.0347554087638855,-0.08268484473228455,-9.818802209338173e-05,-0.0006021864828653634,0.05746084079146385,0.15322890877723694,-9.385271072387695,0.6434228420257568,47.66360092163086,-0.4908265173435211,-3.549433708190918,-1.7206529378890991,-0.5590723752975464,0.006226592231541872,-0.21067120134830475,25.0625,25.75,24.875,27.5,28.4375,28.9375
1.0,0.3463039365839605,-0.5608593190437333,-1.1636674259234494,-0.045852588014994186,0.03622697130825481,-0.07751150142782601,-0.5388198661379329,-0.32448158492984563,0.25775483733179727,-3.07859126925269,0.6246739349349101,-0.00014233678463257773,-0.0010585718357076922,-0.00016303926893874025,-0.029934621240436932,-0.0030968334379808857,0.009077940754109746,0.00015856228637093733,0.3265608847141266,-1.149323270922043,1.6650360266314905,-2.0848218403258265,-1.5713933149920862,2.3014843463897705,-0.00028231475153006613,0.03612295165657997,0.03603010252118111,-0.08174454420804977,-9.474267426412553e-05,-0.00046458671567961574,0.15322890877723694,0.09576806426048279,-9.404424667358398,0.7709873914718628,47.681514739990234,-0.5655279159545898,-3.564774751663208,-1.818597435951233,-0.524899959564209,0.009724043309688568,-0.21594811975955963,25.0625,25.75,24.875,27.5,28.4375,28.9375
1.0,0.10773822468168635,-0.049518107179172974,-1.0314474350566407,-0.03575539395584219,0.007157222712792035,-0.08362113560995377,-0.5388367499732946,-0.3244689843483047,0.2576568071872908,-3.078673712890962,0.6247103595563299,-5.5224322646116054e-05,-0.0005808406902433577,8.085314046066067e-05,-0.032176623389372,-0.0005385967824236439,0.0015574735231147943,6.40181574115771e-05,0.326524943113327,-1.149202511911728,1.6651681105243128,-2.0851670704283656,-1.571345631276266,2.3014605045318604,-0.0004072018782608211,0.03832793980836868,0.036959242075681686,-0.07693497836589813,-9.15308264666237e-05,-0.0004925375105813146,0.13407529890537262,0.17238251864910126,-9.251194953918457,0.7038487195968628,47.674346923828125,-0.5131580829620361,-3.7292537689208984,-1.8607603311538696,-0.5396913290023804,-0.0004935264587402344,-0.2249215990304947,25.0625,25.75,24.875,27.5,28.4375,28.9375
1.0,0.06009255490983275,-0.1340732131897743,-0.8101611277917731,-0.016997572594424318,-0.006763668117984422,-0.07402047244832943,-0.5388588168855879,-0.3244636456249137,0.257531078475443,-3.078639868603491,0.6247610836984256,2.9755322808137482e-05,-0.00017174460435162396,0.00026130174739008436,-0.032569895775412784,0.0006516394041595099,-0.0019155542625892668,0.0001615555911643721,0.32651287317276,-1.1490229231170197,1.6652758757220667,-2.085489412347311,-1.5713933149920862,2.3014843463897705,-0.0004696522664744407,0.03819667547941208,0.03724202513694763,-0.07341522723436356,-9.579535253578797e-05,-0.0006510877865366638,0.24899697303771973,0.07661445438861847,-9.078812599182129,0.7105615139007568,47.699424743652344,-0.5808156132698059,-3.542412281036377,-1.7717459201812744,-0.5612568855285645,0.006396184675395489,-0.2199111431837082,25.0625,25.75,24.875,27.5,28.4375,28.9375
1.0,0.4141278647873138,0.07517690987226847,-0.6962073291112526,-0.028315764688702103,0.003977145712632583,-0.07147453325126797,-0.5388546902865107,-0.32446739188034057,0.2573980635149853,-3.0786088112647327,0.6247166608018285,-1.30088132384326e-06,0.00029811733842897184,0.000695405354427527,-0.03387158848660498,0.0017849407208251687,-0.005227734815409928,-0.00029614104729452266,0.3265247642993927,-1.1488667887500306,1.6654194037066858,-2.085752149621481,-1.5714176336871546,2.3014724254608154,-0.0008906302973628044,0.03872702270746231,0.03924132138490677,-0.07244417071342468,-9.99736221274361e-05,-0.0006136756273917854,0.24899697303771973,-0.15322890877723694,-9.136273384094238,0.7262282371520996,47.702110290527344,-0.539222002029419,-3.575327157974243,-1.8964122533798218,-0.588189959526062,0.008330986835062504,-0.21055205166339874,25.0625,25.75,24.875,27.5,28.4375,28.9375
1.0,0.3921105155609409,-0.24323155376233602,-0.68902874557769,-0.013813564983211053,-0.0030408777558506195,-0.06690669835498789,-0.5388482623203565,-0.3244611604884804,0.2572405510999575,-3.0786144363200676,0.6247182029569333,-9.978939254928454e-05,0.0003807063720845344,0.0007206486128734621,-0.03443810351314084,0.002889538800363694,-0.008458350557559962,-0.00032807361804646027,0.32651272416114807,-1.1486983460238953,1.6656120459186,-2.086062093774313,-1.5713813940631312,2.3014605045318604,-0.0008854928892105818,0.03953811526298523,0.038688719272613525,-0.06928838789463043,-0.00010374842531746253,-0.0005752446013502777,0.2298433631658554,-0.038307227194309235,-8.983044624328613,0.6881819367408752,47.687782287597656,-0.5156395435333252,-3.628289222717285,-1.7027356624603271,-0.6568316221237183,0.008408819325268269,-0.2102423906326294,25.0625,25.75,24.875,27.5,28.4375,28.9375
1.0,0.45174115142729376,-0.31161005025175204,-0.9375830222955931,-0.020739899966336413,-0.0034482444543503356,-0.06834985750366485,-0.5388517913840919,-0.32445587494250366,0.25712943892764195,-3.078605599362795,0.6247546955668509,-0.0001416938627717774,0.0007466688835815505,0.000817206075971643,-0.03565444951248941,0.003846620325276618,-0.011259021189385127,-0.00034362668858580186,0.3265008330345154,-1.1485663813403626,1.6657317320453089,-2.086290021935934,-1.571369473134176,2.3014724254608154,-0.0008413392351940274,0.040473248809576035,0.03998449072241783,-0.06855957955121994,-0.00010743840539362282,-0.0005149513599462807,0.2298433631658554,-0.038307227194309235,-9.002198219299316,0.7575564384460449,47.69584274291992,-0.501771092414856,-3.5296287536621094,-1.7901175022125244,-0.7161738872528076,0.007874664850533009,-0.20699018239974976,25.0625,25.75,24.875,27.5,28.4375,28.9375
1.0,0.03572234044268485,-0.4799571020834217,-0.8439901278738904,-0.028275696334667227,-0.003456190773700861,-0.07619562936418249,-0.5388318916110887,-0.3244595775810602,0.2569488124824682,-3.0785161552782014,0.6246789933225813,-0.0002692350321197692,0.0008557890079438187,0.0008622400898214902,-0.03634873545235578,0.004579469952872628,-0.013420862021233722,-0.0003979941824990899,0.3265247941017151,-1.1483742755702515,1.6659358183490198,-2.0865642033019007,-1.5714176336871546,2.3014605045318604,-0.0008537906687706709,0.041268955916166306,0.040161874145269394,-0.06725001335144043,-0.00010435293370392174,-0.00047235889360308647,0.2298433631658554,0.09576806426048279,-9.059659004211426,0.7239871025085449,47.6627082824707,-0.549687385559082,-3.518547534942627,-1.840883731842041,-0.8019660115242004,0.0009819716215133667,-0.19342255592346191,25.0625,25.75,24.875,27.5,28.4375,28.9375
1.0,-0.016064888038564096,-0.9825008363826415,-0.8695396331086348,-0.0458248897985168,0.024991804344879465,-0.07410464254137507,-0.53882696250413,-0.32445912829274853,0.25681038070596884,-3.0785106655787744,0.6246390370862815,-0.00034335811709705123,0.0009060393246202006,0.0008698051679008257,-0.037165353538655986,0.003933879609053347,-0.011544805574602985,-0.0003920784707610894,0.3265247941017151,-1.14821811140094,1.6660922209369105,-2.0868293247618617,-1.5714057127581995,2.301436185836792,-0.0008393782773055136,0.041974812746047974,0.04207936301827431,-0.07185737788677216,-0.00010141341772396117,-0.00046545275836251676,0.19153612852096558,0.13407529890537262,-9.078812599182129,0.7441308498382568,47.70121383666992,-0.5503992438316345,-3.4912962913513184,-1.8251686096191406,-0.8146263360977173,-0.007449363358318806,-0.20017343759536743,25.0625,25.75,24.875,27.5,28.4375,28.9375
1.0,-0.910522107776845,-1.2726938007220263,-0.9618891223544658,-0.07021499418253527,0.03321728230917501,-0.0745276399753679,-0.5388156982129422,-0.324449998803823,0.25664820326634513,-3.0784718219869194,0.6246704617028881,-0.0005057790863504386,0.00016524667096723527,0.0006451047388859375,-0.03653490809031258,0.0014298121526065874,-0.004218547915628332,-0.0004887683281149199,0.32651275396347046,-1.1480503541282197,1.666283909474508,-2.087083478967184,-1.5713813940631312,2.3014485836029053,-0.0008826552075333893,0.04216349869966507,0.042217548936605453,-0.07992660999298096,-9.87600433290936e-05,-0.00041533526382409036,0.15322890877723694,0.15322890877723694,-9.174580574035645,0.7642692923545837,47.718231201171875,-0.5520081520080566,-3.482048511505127,-1.836456537246704,-0.8203977346420288,0.007462104316800833,-0.20629540085792542,25.0625,25.75,24.875,27.5,28.4375,28.9375
1.0,-1.0828017559839778,-1.457589563867046,-1.401366694163975,-0.07058600454584517,0.045291171352855215,-0.06916678109892693,-0.538809620114156,-0.3244621404755316,0.25651595855262616,-3.078480237395779,0.6246142089706425,-0.0004778306543634671,-0.0004569442177725924,0.000639160134907242,-0.03709914558029601,-0.00048689108936179903,0.0014083234180138253,-0.0008510230829743294,0.3265365958213806,-1.1478939813426514,1.6664398352252405,-2.087409635583395,-1.5713933149920862,2.301436185836792,-0.0011987185571342707,0.04345470666885376,0.043668635189533234,-0.08861324936151505,-0.0001057420449797064,-0.000372372567653656,0.019153613597154617,0.2298433631658554,-9.442731857299805,0.7083203792572021,47.70121383666992,-0.5804625153541565,-3.570173501968384,-1.8628828525543213,-0.7393112182617188,-0.0017465592827647924,-0.20629137754440308,25.0625,25.75,24.875,27.5,28.4375,28.9375
1.0,-1.6000283286538493,-1.744160846973665,-1.503476553646442,-0.07357356901247822,0.04446425731140216,-0.062072928226098334,-0.538811912762374,-0.3244511256120112,0.25633522594042435,-3.0784963389023914,0.6246373264630455,-0.0005360129439047249,-0.0010822539926434243,0.00030137663444948645,-0.037200756135142315,-0.002769183560303008,0.008072678563302252,-0.0007551987829111124,0.3265126943588257,-1.1476897162250062,1.6666553656207483,-2.0878077946104945,-1.571357552205221,2.301424503326416,-0.0010073843877762556,0.04448254778981209,0.04448479413986206,-0.09750154614448547,-0.00010104266402777284,-0.00028031927649863064,-0.019153613597154617,0.2298433631658554,-9.461885452270508,0.7127973437309265,47.66718673706055,-0.5857300758361816,-3.521885871887207,-1.8789616823196411,-0.6544462442398071,0.006537444889545441,-0.20532295107841492,25.0625,25.75,24.875,27.5,28.4375,28.9375
1.0,-0.6616468004060405,-1.3037265704179426,-1.552350007353115,-0.06385085808343194,0.052873030586159456,-0.07562597534357014,-0.5388059687715098,-0.3244466118912169,0.2561502243423561,-3.078446364986946,0.6247234876656936,-0.0005489387411849552,-0.0011761911618509157,0.00010589488933230211,-0.0386053566871651,-0.003261892398568882,0.009481686717448718,-0.0005060281891174651,0.32650086283683777,-1.1473893088153382,1.666931454335348,-2.0884558163084925,-1.5713933149920862,2.3014488220214844,-0.0007563498802483082,0.04642738774418831,0.046120576560497284,-0.10257481038570404,-9.466601477470249e-05,-0.00028013013070449233,0.019153613597154617,0.13407529890537262,-9.557653427124023,0.6725152134895325,47.69853210449219,-0.5827144384384155,-3.6961002349853516,-1.9500054121017456,-0.5716098546981812,0.0003871070221066475,-0.21384559571743011,25.0625,25.75,24.875,27.5,28.4375,28.9375
1.0,0.1115633593082607,-0.5078536020209766,-1.600507685202502,-0.02276498143329063,0.02207378577482992,-0.07312010423229288,-0.538826202241951,-0.3244663124724686,0.25592291627815483,-3.078544133161318,0.6247435469626169,-0.00043173519997238586,-0.0008456610908883612,0.00023165211363764096,-0.04004523367757374,-0.0010589471416176392,0.0030034199141201158,-0.0005123554448921881,0.3265248239040375,-1.1471729141524811,1.6671116987811487,-2.088872571984762,-1.5713337103473108,2.3014965057373047,-0.0007769622025080025,0.04801543429493904,0.04595521092414856,-0.097154900431633,-9.084365592570975e-05,-0.0002919745456892997,0.05746084079146385,0.17238251864910126,-9.461885452270508,0.7083203792572021,47.699424743652344,-0.6216202974319458,-3.6180057525634766,-1.8891749382019043,-0.5823891162872314,-0.0069017368368804455,-0.2089202105998993,25.0625,25.75,24.875,27.5,28.4375,28.9375
1.0,0.5125232330259407,0.22688976476091005,-1.5543594635900786,-0.0188671896374001,0.012946221877557264,-0.07494010621226213,-0.5388396239778955,-0.32444367887464576,0.25578858903965795,-3.078530580795388,0.624741398619215,-0.00035859545025301203,-0.0003274934465056474,0.000522432464847985,-0.041035654740651704,0.0009420175764231642,-0.0028738012748014104,-0.000677644032967865,0.326488733291626,-1.1470168393901368,1.6672800222979944,-2.0892301998534144,-1.571369473134176,2.3014607429504395,-0.0009532355470582843,0.04849930480122566,0.04632456600666046,-0.09179963171482086,-8.731817069929093e-05,-0.00030064841848798096,0.038307227194309235,-0.09576806426048279,-9.442731857299805,0.7150384783744812,47.70838165283203,-0.5892585515975952,-3.7131078243255615,-1.806687831878662,-0.6463276743888855,0.0030899099074304104,-0.20330366492271423,25.0625,25.75,24.875,27.5,28.4375,28.9375
1.0,0.0721750745195299,0.4018018160265891,-1.3654908802141086,-0.007753708449675377,-0.0010028683965753618,-0.07773742191731632,-0.5388250043159915,-0.3244504109756862,0.2556033756497329,-3.078493821836187,0.6246761671371889,-0.00037905791747538394,-0.00034497433337868377,0.0006084847627710751,-0.03981624572927965,0.0013459600903794394,-0.004056305553778091,-0.000717071457796305,0.3265126645565033,-1.1468134385398407,1.6675060431109827,-2.089623590508932,-1.5714057127581995,2.3014485836029053,-0.001095771323889494,0.047148894518613815,0.04443008080124855,-0.08730518072843552,-8.405604603467509e-05,-0.00040234572952613235,0.17238251864910126,-0.2106897532939911,-9.346963882446289,0.7038487195968628,47.6707649230957,-0.6370161175727844,-3.5746383666992188,-1.7114506959915161,-0.7443646192550659,0.003180617932230234,-0.19751708209514618,25.0625,25.75,24.875,27.5,28.4375,28.9375
1.0,-0.13840565161626148,-0.08962365460680882,-1.2736293444969107,-0.003776808865222179,0.0004378877548090721,-0.06616775482006047,-0.5388455645810315,-0.3244455602502907,0.2554649583415236,-3.078519114326362,0.6247392391934871,-0.00039304927031408104,0.00025015701549604405,0.0010179081421480896,-0.04147132160552261,0.0028586703212893916,-0.008481136130453275,-0.0009887670539720397,0.32648858428001404,-1.146621511583664,1.6676257292376917,-2.0899464092650355,-1.571369473134176,2.3014605045318604,-0.0014128534821793437,0.048014216125011444,0.046622175723314285,-0.08568631857633591,-8.90057417564094e-05,-0.0004466867248993367,0.1149216815829277,-0.26815059781074524,-9.404424667358398,0.7418897151947021,47.72092056274414,-0.6416193246841431,-3.5964345932006836,-1.7130391597747803,-0.8226891756057739,-0.002054127398878336,-0.19355514645576477,25.0,25.75,24.875,27.5,28.4375,28.9375
1.0,0.09726833181961628,-0.2078865675621779,-1.1969020700354098,-0.03033060110480737,0.028720114027301707,-0.07947862346550971,-0.5388439596894519,-0.3244294316012147,0.25530869010179125,-3.0784852570335812,0.6247899999754623,-0.00045638765239489553,-9.361992607163446e-05,0.0009088367367859222,-0.04021199995639237,0.00047953207965776055,-0.001485536646148794,-0.0010023927305178823,0.32646462321281433,-1.146453933124878,1.6678178946124476,-2.090259691277975,-1.571369473134176,2.3014724254608154,-0.0014247678918763995,0.046659357845783234,0.04714573174715042,-0.09224410355091095,-9.381974814459682e-05,-0.00044787145452573895,0.24899697303771973,-0.1149216815829277,-9.289502143859863,0.6881819367408752,47.699424743652344,-0.642711341381073,-3.3389182090759277,-1.7637312412261963,-0.850695013999939,-0.0009567299857735634,-0.19220982491970062,25.0,25.75,24.875,27.5,28.4375,28.9375
1.0,-0.6703620177577932,-1.1636633175434095,-1.4909982028590545,-0.05214034484122025,0.04039258619485989,-0.0633437560539684,-0.5388433510537785,-0.32443322310478595,0.2551760441664779,-3.0784909056029375,0.6247337297202827,-0.00036010876444858206,-0.0010424436582203154,0.0005959010787430113,-0.040299292809934495,-0.002028354296682761,0.005842169477388259,-0.0010222354464334976,0.32647666335105896,-1.1462974709323426,1.667985741292135,-2.0906340084471644,-1.5714057127581995,2.3014485836029053,-0.0014411258744075894,0.04816332831978798,0.04740398749709129,-0.10175132751464844,-9.070171654457226e-05,-0.0004481161304283887,0.05746084079146385,0.05746084079146385,-9.404424667358398,0.7083203792572021,47.690467834472656,-0.6295852661132812,-3.423539638519287,-1.6226080656051636,-0.8196873664855957,-0.005300345364958048,-0.205096036195755,25.0,25.75,24.875,27.5,28.4375,28.9375
1.0,-0.8949125857561273,-1.672420511650469,-1.5855125902055607,-0.08009100121654972,0.061884088461618164,-0.07341850949601539,-0.5388443466192019,-0.324413820416536,0.2549689146655628,-3.078492529281236,0.6247724990627608,-0.00044971093693992737,-0.0016371954957214445,0.0007799831589502391,-0.03876390753056374,-0.005784267448824209,0.0168537068422191,-0.0015412678455147175,0.3264404535293579,-1.146070347433426,1.6682379881488245,-2.0910688839354457,-1.571369473134176,2.301436185836792,-0.002037361264228821,0.04626014083623886,0.049193840473890305,-0.11327246576547623,-8.775394962867722e-05,-0.0005302679492160678,0.0,0.2298433631658554,-9.519346237182617,0.7060845494270325,47.700321197509766,-0.6343523263931274,-3.1846718788146973,-1.6796952486038208,-0.6882011890411377,-0.0034609385766088963,-0.20831406116485596,25.0,25.75,24.875,27.5,28.4375,28.9375
1.0,-1.2290874858524983,-1.7842541779301002,-1.577504652695115,-0.08246655879191829,0.051564375056869866,-0.0661114466372147,-0.5388465910374092,-0.3244198608436249,0.25480934447139936,-3.07851126268343,0.6247962106057987,-0.0003150986666966046,-0.0025520654663937106,0.0005040301454226825,-0.03940555063567835,-0.007362365400451001,0.021490224920471653,-0.0016941989684276827,0.32645246386528015,-1.145877943640091,1.668441120778219,-2.0915500126280726,-1.5713933149920862,2.3014605045318604,-0.0020906892605125904,0.04857146367430687,0.04902847111225128,-0.12031611800193787,-9.730524470796809e-05,-0.0004332878743298352,-0.038307227194309235,0.3064578175544739,-9.461885452270508,0.7575564384460449,47.70390319824219,-0.6259185075759888,-3.210414409637451,-1.6171118021011353,-0.5760605335235596,0.010259144008159637,-0.21884042024612427,25.0,25.75,24.875,27.5,28.4375,28.9375
1.0,-0.7208986156584225,-1.4335936807360738,-1.7228436117453743,-0.06379499184060569,0.032513654742553605,-0.06366876743554073,-0.5388464487775422,-0.3244263077028947,0.25464772908087585,-3.07853868920396,0.6247826832433122,-0.00021310224790398082,-0.0019145130256877018,0.0004993320699561101,-0.04015147196903946,-0.005660121160572551,0.016535631969148645,-0.0013472469901961816,0.3264645040035248,-1.14568583786998,1.6686456839190882,-2.0920149288573207,-1.5714057127581995,2.3014605045318604,-0.0017470126040279865,0.04879879206418991,0.04935494065284729,-0.11563105881214142,-0.0001089451543521136,-0.0004345516790635884,-0.019153613597154617,0.28730422258377075,-9.481039047241211,0.6658024191856384,47.6976318359375,-0.6132602095603943,-3.2092971801757812,-1.6238696575164795,-0.5827133059501648,-0.008473986759781837,-0.2030418962240219,25.0,25.75,24.875,27.5,28.4375,28.9375
1.0,-0.015061499247375265,-0.6623052905223774,-1.7629547993402002,-0.031275039998759094,0.00035006054250083,-0.06576634993210766,-0.5388643515232066,-0.3244233946149255,0.25450207183037266,-3.078584830172588,0.6247723959968073,-6.158509821479613e-05,-0.0013513047019829351,0.0007206951986999479,-0.04244900377813504,-0.0030031236012181073,0.00888806615260762,-0.0014104693637914322,0.3264525830745697,-1.1454933446696778,1.6688135305987757,-2.092480321923727,-1.5714176336871546,2.301436185836792,-0.0017838726053014398,0.05099204182624817,0.050429221242666245,-0.11080265790224075,-0.00015885198081377894,-0.000405656493967399,0.038307227194309235,0.2298433631658554,-9.327810287475586,0.7418897151947021,47.68867492675781,-0.6416511535644531,-3.23128604888916,-1.6272172927856445,-0.6357522010803223,-0.01678612269461155,-0.2005319446325302,25.0,25.75,24.875,27.5,28.4375,28.9375
1.0,0.24064980527287494,-0.11216087977688757,-1.330738454953328,-0.02652192791457227,-0.0032623265003686947,-0.0735956829031122,-0.538879622924057,-0.3244035433319767,0.2543472209933554,-3.0786479128493527,0.6249018844734331,-1.4734773257875275e-05,-0.0015167719815937738,0.000982856395336634,-0.04299921337755781,-0.0016920464859132157,0.005122477650865482,-0.0019161788663822612,0.326404333114624,-1.1453130406192322,1.6690166632281702,-2.092933794061178,-1.571357552205221,2.3014605045318604,-0.002269910415634513,0.05203435942530632,0.049311183393001556,-0.10673964768648148,-0.00018555855785962194,-0.00038424378726631403,0.2106897532939911,0.019153613597154617,-9.289502143859863,0.7777001857757568,47.702110290527344,-0.6666368842124939,-3.280282974243164,-1.4877781867980957,-0.6774260997772217,-0.001636258326470852,-0.19274334609508514,25.0,25.75,24.875,27.5,28.4375,28.9375
1.0,0.46357994223951926,-0.044208148634343775,-1.0256220176953272,-0.004795902766683677,-0.0017811930722567144,-0.06385349919803775,-0.5388863760175178,-0.32440727869802893,0.2541705485329021,-3.0786085151325153,0.6247975647987114,1.096328070523371e-05,-0.0010979970846240004,0.0013283019727741608,-0.04616199925109596,0.0013448661595729325,-0.0038385260375006333,-0.0022231387514956066,0.3264162838459015,-1.1450839799693604,1.669184986745016,-2.0933152637877406,-1.5714176336871546,2.301412343978882,-0.0025833738036453724,0.055496156215667725,0.050609078258275986,-0.10203775763511658,-0.0001745901972753927,-0.0003881191078107804,0.26815059781074524,-0.15322890877723694,-9.155426979064941,0.7486078143119812,47.686885833740234,-0.5874093770980835,-3.369823455810547,-1.3168144226074219,-0.8015179634094238,-0.02054176665842533,-0.19823595881462097,25.0,25.75,24.875,27.5,28.4375,28.9375
1.0,0.6246106198169605,0.3360817713084194,-0.8058617602210932,-0.001993774553646182,-0.01297199669749598,-0.06487245436445158,-0.5388895052115461,-0.32442899196328945,0.2540145679685254,-3.078701379768948,0.6247977203046233,0.00010407357465237235,-0.0004722277537196296,0.0013626513748557813,-0.046025161089544665,0.0004538701956429847,-0.0012497828979423733,-0.00199450066088936,0.32644033432006836,-1.1448807579329987,1.6693647543536585,-2.093795438806051,-1.571369473134176,2.301424503326416,-0.0023097156081348658,0.05397661775350571,0.053325001150369644,-0.10597191005945206,-0.00016398989828303456,-0.0003447404596954584,0.26815059781074524,-0.325611412525177,-8.983044624328613,0.7262282371520996,47.681514739990234,-0.6420892477035522,-3.146756172180176,-1.4031271934509277,-0.8255771994590759,-0.0030433121137320995,-0.20572370290756226,25.0,25.75,24.875,27.5,28.4375,28.9375
1.0,0.002749120773979513,-0.4165311461545127,-0.9039494817012781,-0.01784117571580617,0.008054544921128845,-0.062278718077098796,-0.5388949284287793,-0.3243959691506557,0.2538235880036005,-3.0786347387590407,0.6248796229671968,8.350588080304143e-05,-0.0009889230691694168,0.000994349909197896,-0.04810452475013017,-0.0008360449779236146,0.002474680647824388,-0.0016946358477508317,0.3263925313949585,-1.1446758669665833,1.6696060339557093,-2.094205518762106,-1.5714057127581995,2.301436185836792,-0.002014701720327139,0.057471200823783875,0.05532326549291611,-0.11540624499320984,-0.00015459918358828872,-0.0003528161905705929,0.15322890877723694,-0.13407529890537262,-8.96389102935791,0.7306999564170837,47.700321197509766,-0.6065931916236877,-3.2730941772460938,-1.4343032836914062,-0.7726545333862305,-0.004388443194329739,-0.1975097358226776,25.0,25.75,24.875,27.5,28.4375,28.9375
1.0,-0.48109823931823387,-1.1448695775363085,-0.7506286450656287,-0.055368757197502075,0.051808159040070426,-0.06935250059126274,-0.538881552416537,-0.32439142000553106,0.2535910672506182,-3.078614783648376,0.6248374644415194,6.4093439821478296e-06,-0.0015765366256439396,0.0007016239314857165,-0.04637669728569781,-0.004353042688779052,0.012843166139124321,-0.0015411674478576446,0.32639259099960327,-1.1444243651679535,1.6698930899249476,-2.094687601129049,-1.5714057127581995,2.301412343978882,-0.0018699615029618144,0.055915527045726776,0.055826395750045776,-0.12530240416526794,-0.00017038083751685917,-0.0003659192589111626,0.1149216741323471,0.0,-8.96389102935791,0.6590895652770996,47.69584274291992,-0.6426067352294922,-3.3201043605804443,-1.501021146774292,-0.6578273773193359,-0.005428466945886612,-0.20143745839595795,25.0,25.75,24.875,27.5,28.4375,28.9375
1.0,-1.3222017771533674,-1.626007590784285,-1.0455036727197642,-0.06514744099036432,0.0456211286592403,-0.07256353154585982,-0.5388715059103365,-0.324406161221031,0.2534152629735764,-3.078644123634347,0.6248631780146454,2.010214649242472e-05,-0.0009767594175926451,0.0006585417550267362,-0.04707600698170343,-0.0041723630044284065,0.012273931103944249,-0.001057006702546063,0.3264046609401703,-1.1441486042789002,1.6702535788165491,-2.0954300365843714,-1.5713813940631312,2.301424264907837,-0.0014909792225807905,0.05583206191658974,0.05786361172795296,-0.126659095287323,-0.000157778529683128,-0.0004715344402939081,-0.038307227194309235,0.28730422258377075,-9.174580574035645,0.6456586718559265,47.7191276550293,-0.6631079316139221,-3.175103187561035,-1.7729218006134033,-0.5487658977508545,-0.01805613934993744,-0.21251605451107025,25.0,25.75,24.875,27.5,28.4375,28.9375
1.0,-0.2674755789251897,-0.9264428921089493,-1.148481947622507,-0.04272815199211657,0.014410389034493903,-0.07064563740509355,-0.5388807032403337,-0.3244026878817659,0.2531429822577804,-3.0787176528933045,0.6248779649233565,0.00018191946967024825,2.6699588016067868e-05,0.0009832418739430695,-0.04951273647758335,-0.0009810340435462625,0.0029463977923446017,-0.0009329939130706112,0.3264046311378479,-1.1438963276198884,1.6704571882831019,-2.095931192437643,-1.571369473134176,2.301436185836792,-0.0014621823793277144,0.05746125057339668,0.05969231575727463,-0.12025860697031021,-0.0001702814333839342,-0.0005636000423692167,-0.13407528400421143,0.325611412525177,-9.155426979064941,0.6590895652770996,47.694053649902344,-0.7580263614654541,-3.263423442840576,-1.8136756420135498,-0.6128489971160889,-0.013463489711284637,-0.19946499168872833,25.0,25.75,24.875,27.5,28.4375,28.9375
1.0,-0.050512040732297814,-0.5656440585461482,-1.1956194521439605,-0.021437414526808196,0.0006108839773678321,-0.07011126695437178,-0.5388829882494407,-0.32441118241962896,0.25295980222406816,-3.078737699726052,0.6248631484862763,0.00022498607877468062,0.0004356112943880763,0.001379330160186086,-0.05091064125582004,0.0019329807307573192,-0.005623214011493669,-0.0013409628675243217,0.326416552066803,-1.143668071632721,1.6706603209124964,-2.0963946781554164,-1.571369473134176,2.301436185836792,-0.0018584439530968666,0.05877433344721794,0.05917441472411156,-0.11200229078531265,-0.00016389289521612227,-0.0005482985870912671,0.019153613597154617,0.17238251864910126,-9.097966194152832,0.7329410910606384,47.6734504699707,-0.6552990078926086,-3.399467945098877,-1.7992662191390991,-0.6943774819374084,-0.00503943394869566,-0.2055080533027649,25.0,25.75,24.875,27.5,28.4375,28.9375
1.0,0.5335616894022169,0.06236410019689498,-1.136744469369478,-0.01175080258802101,0.0011291741761071984,-0.06939762017686837,-0.5388995088221363,-0.3243727115978623,0.25272634145840794,-3.07864452232778,0.6248641485653238,0.0001278669938938593,0.000427179144170863,0.0016047776845025425,-0.05182516905300138,0.00394468235758637,-0.011553629138614083,-0.001706881203290534,0.3263564705848694,-1.1433917444995423,1.6709001700030726,-2.096811433831686,-1.5714176336871546,2.3013885021209717,-0.0022111996077001095,0.060218311846256256,0.057854387909173965,-0.10586395114660263,-0.00015676186012569815,-0.0005324943922460079,0.17238251864910126,-0.1149216815829277,-9.097966194152832,0.7172743082046509,47.699424743652344,-0.6406917572021484,-3.443842887878418,-1.678720235824585,-0.8084858655929565,-0.011098052375018597,-0.19145095348358154,25.0,25.75,24.875,27.5,28.4375,28.9375
1.0,0.2685826294342313,-0.12455742924639066,-1.2825209417507832,-0.005145633073019383,-0.009681646936036646,-0.0691836329077102,-0.5388906566217674,-0.32438504044661637,0.2525325740076312,-3.0786851813961436,0.6248916626510399,2.3730556862000706e-05,-0.00010935109179309811,0.001425659500186514,-0.05140233814255997,0.0023159025258618782,-0.00680108825430753,-0.0016964905441833834,0.326368510723114,-1.143163875942566,1.6711157003985804,-2.097220560113424,-1.571345631276266,2.301412343978882,-0.002217907225713134,0.060491893440485,0.05768362432718277,-0.11099063605070114,-0.0001502202358096838,-0.0005517865647561848,0.325611412525177,-0.19153612852096558,-9.193734169006348,0.7239871025085449,47.702110290527344,-0.6384963989257812,-3.508333683013916,-1.6834118366241455,-0.7963628768920898,-0.011043630540370941,-0.187997967004776,25.0,25.75,24.875,27.5,28.4375,28.9375
1.0,-0.17783890561907173,-0.8528306506243697,-1.4191289028965082,-0.02339526717993378,0.0068793276724973765,-0.06161793192673809,-0.5388820110271609,-0.3243847669891976,0.25230453444404943,-3.0786148468917727,0.6248584407397976,-3.291119973448485e-05,-0.0009580019275104889,0.001263236939980716,-0.050886044793022354,-0.001025225182470153,0.0029711991685849675,-0.001920284277094984,0.3263803720474243,-1.1429000061801453,1.6713674704181116,-2.0976668796935023,-1.5713933149920862,2.301412343978882,-0.0024139706511050463,0.06075616553425789,0.05881422013044357,-0.12271320074796677,-0.00014420294610317796,-0.000528909673448652,0.2106897532939911,-0.05746084079146385,-9.327810287475586,0.6859408020973206,47.703006744384766,-0.40224552154541016,-3.540526866912842,-1.722664713859558,-0.67991042137146,-0.02018197998404503,-0.18597453832626343,25.0,25.75,24.875,27.5,28.4375,28.9375
1.0,-1.3557388516853335,-1.9213879399467242,-1.739243899166906,-0.04820715310218333,0.03516377088856909,-0.059555965753638064,-0.5388774486008825,-0.3243757349828228,0.2521000804439202,-3.0786049330178287,0.6248559147690724,-6.219174285960642e-05,-0.0017702496018664072,0.0001640401165780839,-0.04917878520284529,-0.004210206157491008,0.01240085332395095,-0.0006989779243965411,0.32636889815330505,-1.142672286634781,1.6716187636004847,-2.0981246433653773,-1.5713933149920862,2.3014004230499268,-0.001142821740359068,0.06057380884885788,0.05699662119150162,-0.13066616654396057,-0.00017371289141010493,-0.00048270158004015684,0.1149216815829277,0.13407528400421143,-9.500192642211914,0.6680382490158081,47.703006744384766,-0.47703659534454346,-3.595656394958496,-1.6810314655303955,-0.5497303605079651,-0.01066720113158226,-0.2006664276123047,25.0,25.75,24.875,27.5,28.4375,28.9375
1.0,-0.9522720777482759,-2.2483971853933795,-2.2243190674311193,-0.0634283770740891,0.040701555139720624,-0.06163084084686253,-0.5388752111687706,-0.32436720257152285,0.2518788640036879,-3.0785899833165646,0.6248913164029641,-8.464671411209852e-05,9.136819682015189e-06,0.0005104055903023859,-0.0523264462223887,-0.0012341660862481034,0.0036326272892231097,-0.0003030295049846561,0.32635697722435,-1.1424200695804139,1.6718838850604456,-2.098625799218649,-1.5713933149920862,2.301412343978882,-0.0007442172500304878,0.061606794595718384,0.06201629340648651,-0.1274593323469162,-0.0001624434080440551,-0.000477962865261361,0.07661445438861847,0.26815059781074524,-9.557653427124023,0.7441308498382568,47.685096740722656,-0.4653357267379761,-3.6459414958953857,-1.929309606552124,-0.5240791440010071,-0.011640816926956177,-0.20277252793312073,25.0,25.75,24.875,27.5,28.4375,28.9375
1.0,-0.4592336539609012,-2.2097846164412376,-2.159173688601809,-0.0523104675694245,0.0021421562901418785,-0.05644712356148932,-0.5388710757639491,-0.3243644841485158,0.25166001606926225,-3.078575055572571,0.6249075480419064,-7.869940509053478e-05,0.00040249848645121134,0.0005987485445046935,-0.05307308655765843,0.001150304954274311,-0.0033038650408951714,-0.00021663246631249575,0.32635700702667236,-1.142168180351593,1.6721466223346155,-2.099137922326559,-1.5714057127581995,2.301424264907837,-0.000670864712446928,0.06237262859940529,0.06091678887605667,-0.11979077011346817,-0.0001812783448258415,-0.0004877561586908996,-0.038307227194309235,0.40222588181495667,-9.653421401977539,0.6948947906494141,47.699424743652344,-0.4710790812969208,-3.5682554244995117,-1.940232276916504,-0.591575026512146,-0.014119215309619904,-0.20390158891677856,25.0,25.75,24.875,27.5,28.4375,28.9375
1.0,-0.25398324111009274,-1.2306786889961758,-2.013695526225396,-0.060681553616833736,0.016183324421314524,-0.07328570447253636,-0.5388953235204006,-0.32434828394141185,0.2514795409787618,-3.0785787271691705,0.6249274934364073,-2.3162135119306605e-05,0.0012692048736442061,0.0008088486626667608,-0.05263825831137141,0.0026929169458647056,-0.007759601441059994,-9.11503029075516e-05,0.3263213038444519,-1.141928808098175,1.6723259131061,-2.099590917626852,-1.5714176336871546,2.3014004230499268,-0.0005372968735173345,0.060517434030771255,0.06107872352004051,-0.11338233202695847,-0.0001984733244171366,-0.0004772179527208209,0.07661445438861847,0.2298433631658554,-9.615114212036133,0.6971306204795837,47.731666564941406,-0.46530961990356445,-3.5425517559051514,-2.039053201675415,-0.6622904539108276,-0.013872266747057438,-0.19529438018798828,25.0,25.75,24.875,27.5,28.4375,28.9375
1.0,-0.26225793262050406,-1.129456960722489,-1.7784781274260972,-0.03320559630037508,0.010109451453878336,-0.059537958367664484,-0.5388692979546118,-0.3243742499638672,0.25123872938246256,-3.0785652806943617,0.6249056768845842,-0.000185165496573672,0.0011431063541156054,0.0007068535385484848,-0.05328389934710175,0.0043713478127197355,-0.012725003307225705,-6.31833773223708e-05,0.32636913657188416,-1.1416526299766083,1.6725886503802698,-2.10003199199819,-1.5713813940631312,2.301436185836792,-0.0004480881034396589,0.06212162226438522,0.059020813554525375,-0.10768720507621765,-0.00018693348101805896,-0.0004135750059504062,0.2298433631658554,0.15322890877723694,-9.53849983215332,0.7351769208908081,47.72092056274414,-0.4752453863620758,-3.6767256259918213,-1.9329636096954346,-0.7787981033325195,-0.017275065183639526,-0.20167748630046844,25.0,25.75,24.875,27.5,28.4375,28.9375
1.0,0.604727141296802,0.096555346235181,-1.6525200247022998,-0.01881349797692103,-0.00872693117242678,-0.0675261360844591,-0.538880336337705,-0.3243599525807883,0.2510516091930776,-3.078557700395915,0.6249043007027041,-0.00013200236388066975,0.0006923092500189861,0.0005105652356209335,-0.051719327901322366,0.0029955778986995086,-0.00871593836622635,1.9764333975040788e-07,0.326345294713974,-1.1414252084544678,1.6728032271014612,-2.100499292413229,-1.5714057127581995,2.301412343978882,-0.0003842927108053118,0.06095857545733452,0.05742891877889633,-0.1091708391904831,-0.0001764617336448282,-0.0004142365069128573,0.28730422258377075,-0.05746084079146385,-9.366117477416992,0.6702793836593628,47.70121383666992,-0.5138421058654785,-3.5651824474334717,-1.803719401359558,-0.816099226474762,-0.013003409840166569,-0.19339948892593384,25.0,25.75,24.875,27.5,28.4375,28.9375
1.0,-0.05931820503931601,-0.046382422409946854,-1.5386122402786222,-0.019578479171106614,-0.0033548966242203156,-0.07199810637968651,-0.5388783401820586,-0.3243773005836534,0.25087190675985443,-3.0786021842762987,0.6248562389361217,-0.00011803519314029489,-9.116615951197161e-05,0.0002136115630626115,-0.04978638090360467,7.867286870478993e-05,-0.00011964735770640714,3.8782080963534334e-05,0.32636916637420654,-1.141197846536972,1.6729958693133753,-2.1009441814818324,-1.5713813940631312,2.3014004230499268,-0.0003364033764228225,0.05965078994631767,0.05639222264289856,-0.11590401828289032,-0.00018782549886964262,-0.00040818616980686784,0.2298433631658554,-0.07661445438861847,-9.442731857299805,0.7933669090270996,47.686885833740234,-0.48930513858795166,-3.564866542816162,-1.7310154438018799,-0.7537274360656738,-0.018903255462646484,-0.19011127948760986,25.0,25.75,24.875,27.5,28.4375,28.9375
1.0,-1.1664999855780593,-1.0156935264524654,-1.8646440563017617,-0.040452897180535935,0.03876844295375324,-0.061785816996787445,-0.5388781209611416,-0.32436938166695867,0.2506737857756368,-3.078600232290616,0.6248753579710241,-0.00011478274586485547,-0.0010868960662546385,-0.00015040142314062804,-0.04963136625005001,-0.002428326087715641,0.007198968471866202,6.401319496391743e-05,0.3263571262359619,-1.1409693223289032,1.673234764729635,-2.1014143429198207,-1.5713813940631312,2.3014004230499268,-0.00029912861646153033,0.061041802167892456,0.05611221864819527,-0.12475112080574036,-0.00018133773119188845,-0.00039981870213523507,0.13407529890537262,-0.09576806426048279,-9.557653427124023,0.7284641265869141,47.70748519897461,-0.5260155200958252,-3.536797046661377,-1.680363655090332,-0.6434930562973022,-0.012109327130019665,-0.19148707389831543,25.0,25.75,24.875,27.5,28.4375,28.9375
1.0,-1.1249729013351717,-2.082966509902069,-1.9259987903683544,-0.057669800339638054,0.06998478327576566,-0.06693810664106085,-0.538882322573881,-0.32436059044930976,0.2504625307171756,-3.078578430358819,0.6249473105817557,-6.003777765053562e-05,-0.0010420824156556656,-0.0001556552475891131,-0.04763778733010876,-0.00459370157759136,0.013541962127867737,0.00011280104994232945,0.3263453543186188,-1.14071877420459,1.673486057912008,-2.1019426784911097,-1.5714057127581995,2.301436185836792,-0.0002692903217393905,0.058070529252290726,0.056733667850494385,-0.12910374999046326,-0.0001726529299048707,-0.0004211075429338962,-0.1149216815829277,0.15322890877723694,-9.653421401977539,0.7150384783744812,47.71375274658203,-0.5328872203826904,-3.4185714721679688,-1.7205032110214233,-0.5537174940109253,-0.01440800167620182,-0.19647905230522156,25.0,25.75,24.875,27.5,28.4375,28.9375
1.0,-0.9216134273771777,-1.3318684033620962,-1.9181721010472799,-0.0573686582518439,0.046823388897239526,-0.06174167333980572,-0.5388826359141982,-0.3243683363353817,0.2502771976881634,-3.0786127267066634,0.6248973883457796,1.774927618731613e-06,-0.0007523307939379859,-7.373267797377406e-05,-0.04748874276712163,-0.003412223821046099,0.010057388843439029,0.00014939185472281061,0.3263571560382843,-1.1404909950545807,1.6737011114703577,-2.102431436578268,-1.5714057127581995,2.301412343978882,-0.00024486688198521733,0.05763566493988037,0.0558844693005085,-0.12414028495550156,-0.0001647515600780025,-0.00043137333705089986,-0.2106897532939911,0.2106897532939911,-9.749189376831055,0.6769921779632568,47.71017074584961,-0.5021098852157593,-3.4390201568603516,-1.6801650524139404,-0.5794163942337036,-0.012853923253715038,-0.18337836861610413,25.0,25.75,24.875,27.5,28.4375,28.9375
1.0,-0.27678445001266405,-0.6182251441415035,-2.0064287445773594,-0.02904017053249406,0.0252424198888873,-0.06683975383719987,-0.5388997867530159,-0.32436122271015294,0.2501012694101814,-3.078659266249477,0.6249453552932563,7.247662746510036e-05,0.0002493701600879753,0.0002473636550002622,-0.048983798170826875,0.0011270002281483014,-0.0032871528538810733,0.00035809674816159975,0.326381117105484,-1.1401671034148713,1.6740368048297327,-2.103180547753805,-1.5714057127581995,2.3013885021209717,-0.0002155430120183155,0.05853079631924629,0.05480927601456642,-0.10986483097076416,-0.00015416838868986815,-0.0006046615890227258,-0.038307227194309235,0.2298433631658554,-9.59596061706543,0.7329410910606384,47.69853210449219,-0.518978476524353,-3.4344825744628906,-1.600846529006958,-0.7103934288024902,-0.010157214477658272,-0.17466475069522858,25.0,25.75,24.875,27.5,28.4375,28.9375
1.0,-0.33501492507834923,-0.5010060186737383,-1.5683721075570893,-0.014473452522403247,0.009906485553569377,-0.06889292564276799,-0.5388986272662726,-0.3243699909816749,0.24981093427551776,-3.0786298288687726,0.6248248591934895,0.00011471722962525775,0.0008518628268374764,0.00044156621984585317,-0.049590428257365635,0.002821120738457762,-0.008272690420457245,0.000366766237362818,0.3263571858406067,-1.1399033230594178,1.6742046515094202,-2.1035858593382777,-1.5714414755450647,2.3013646602630615,-0.00019960739882662892,0.05845436081290245,0.05517943575978279,-0.10489307343959808,-0.00014783690858166665,-0.0005952497012913227,0.13407529890537262,-0.05746084079146385,-9.423578262329102,0.7083203792572021,47.72897720336914,-0.5539140701293945,-3.3314948081970215,-1.6279511451721191,-0.8205931782722473,-0.01777886226773262,-0.18676134943962097,25.0,25.75,24.875,27.5,28.4375,28.9375
1.0,0.3292236889661759,0.08625681355921587,-1.4618576183974556,-0.00852961508141271,0.010223160108154435,-0.07305554110843314,-0.5388935134910028,-0.32436305923416253,0.24959971818998322,-3.0786338516437706,0.6248257411491699,4.966079947038944e-05,-0.0005683094920225178,-4.8866004776962676e-05,-0.04718756988953928,0.00012074134338096781,-0.0002790502389269854,0.0003518353539857347,0.32634538412094116,-1.1396636825850983,1.6744549910174769,-2.104042192498678,-1.5714176336871546,2.3013527393341064,-0.00018586558871902525,0.05797668546438217,0.05129653960466385,-0.10896985232830048,-0.00017125435988418758,-0.0005689173704013228,0.3064578175544739,-0.19153612852096558,-9.289502143859863,0.6769921779632568,47.72629165649414,-0.4860242009162903,-3.4034180641174316,-1.3585214614868164,-0.8153643608093262,-0.013167756609618664,-0.18360787630081177,25.0,25.75,24.875,27.5,28.4375,28.9375
1.0,0.10741598473386453,-0.27496956518970095,-1.423686329398282,-0.028880782884126315,0.02228599902997327,-0.07225815138961181,-0.5388972036442068,-0.32437195633549204,0.24941985659496174,-3.0786537394980913,0.6248875394234881,0.00013327001666347307,-0.0009615377165095796,-0.00019174286631040127,-0.04693832728880146,-0.0022624108157882667,0.006671937319173554,0.00034301559485389174,0.3263571858406067,-1.1394357544234772,1.6746586004840296,-2.1045357189574183,-1.5714176336871546,2.3014004230499268,-0.00017389489221386611,0.05797027423977852,0.0527515783905983,-0.11776665598154068,-0.00016014599532354623,-0.0005518280668184161,0.3447650372982025,-0.038307227194309235,-9.53849983215332,0.7083203792572021,47.68240737915039,-0.5548447370529175,-3.2539267539978027,-1.428853988647461,-0.7169132232666016,-0.013905426487326622,-0.17952466011047363,25.0,25.75,24.875,27.5,28.4375,28.9375
1.0,-0.9272834643198951,-1.5097883776455774,-1.8374146617380651,-0.050516301613027684,0.030817758585463997,-0.06442346108043809,-0.5389000004280838,-0.32435221476694104,0.2492540179963883,-3.078685816520369,0.6249325429362962,0.000164657851295419,-0.0013702455783642636,-0.00033883647605643236,-0.04676675590415793,-0.0044111089970425305,0.012937320981620152,0.0002993572976592461,0.32632142305374146,-1.1392559868148346,1.6748870054828089,-2.1049815617003382,-1.5713933149920862,2.3013885021209717,-0.00016337244596797973,0.05814831331372261,0.05394376069307327,-0.12576045095920563,-0.0001495077885920182,-0.0005009984597563744,0.17238251864910126,0.07661445438861847,-9.423578262329102,0.6881819367408752,47.711063385009766,-0.5766308307647705,-3.234168291091919,-1.4993739128112793,-0.6314843893051147,-0.015209040604531765,-0.18465857207775116,25.0,25.75,24.875,27.5,28.4375,28.9375
1.0,-0.8192035417722678,-1.6124105074172348,-1.7597066358292235,-0.07386948127323385,0.034134397257130175,-0.06269932729341966,-0.5389077396607781,-0.3243665901050927,0.24911000923434545,-3.078728567486925,0.6249603573685607,0.00040342438350969936,-0.0012473654099663335,-0.0002822341718058244,-0.047187753803833034,-0.0045314045962051306,0.013408888945169574,0.00021030989293448866,0.32634538412094116,-1.1390639704516907,1.6750667730914515,-2.1055084667601527,-1.5714295546161097,2.301424264907837,-0.0001797211152734235,0.05837724730372429,0.05499880388379097,-0.12752953171730042,-0.0001888617262011394,-0.0004289073986001313,0.038307227194309235,0.24899697303771973,-9.53849983215332,0.7239871025085449,47.70121383666992,-0.5620148181915283,-3.315035343170166,-1.5667476654052734,-0.5495460033416748,-0.025796566158533096,-0.18920351564884186,25.0,25.75,24.875,27.5,28.4375,28.9375
1.0,-0.02241472874877576,-1.3252012230535244,-1.5295665006692025,-0.0586521625621717,0.019806500557978154,-0.07240919233565124,-0.5389099919366067,-0.3243774916456126,0.24887408246202633,-3.0787584692805305,0.6249095979014025,0.0003784681504654547,-0.0004438453845261337,-1.5177728449276421e-05,-0.04891190255265867,-0.0017676024415842389,0.005285181545748624,0.00022514985424270523,0.3263571858406067,-1.1387638610652466,1.6753070990191858,-2.106044908563131,-1.5714057127581995,2.3014004230499268,-0.0001700248831184581,0.05949719250202179,0.05588154122233391,-0.12095122784376144,-0.00018472383089829236,-0.00043094990542158484,-0.038307227194309235,0.26815059781074524,-9.366117477416992,0.6769921779632568,47.71733474731445,-0.5080494284629822,-3.342822551727295,-1.6569339036941528,-0.5693393349647522,-0.01815023273229599,-0.18356871604919434,25.0,25.75,24.875,27.5,28.4375,28.9375
1.0,0.3193174346491959,-1.0712529326915423,-1.590190739753245,-0.03309790893550006,-0.0011855234804000001,-0.062240317523079215,-0.5389047989120878,-0.3243822711141368,0.24871684629699853,-3.0787999234364047,0.6248607274402495,0.0004972188545424097,0.0007405920142725872,0.00038423844027675984,-0.050518488351642896,0.001220369365929684,-0.0034303201476802137,0.00028608120668981336,0.3263692259788513,-1.1385838848403473,1.6755226294146937,-2.106521268884176,-1.5714176336871546,2.3013765811920166,-0.0001613176427781582,0.059693288058042526,0.057638347148895264,-0.11369066685438156,-0.00019933737348765135,-0.0004797702422365546,0.07661445438861847,0.28730422258377075,-9.366117477416992,0.7217512726783752,47.7218132019043,-0.5447865724563599,-3.328648328781128,-1.7445313930511475,-0.6311707496643066,-0.019175954163074493,-0.19380450248718262,25.0,25.75,24.875,27.5,28.4375,28.9375
1.0,0.21229082766745788,-0.5049848014299979,-1.3478619925569464,-0.025441656072726988,-0.0014914476445002309,-0.06333860319332744,-0.538924302168655,-0.3243746573871762,0.24852870458190066,-3.0788058025233824,0.6249385923064886,0.0005152570639374152,0.0006198082593096687,0.00036303032602552507,-0.05054667113658108,0.003259630774825263,-0.00909131595866677,0.00031919026521894876,0.32634538412094116,-1.1383317869952698,1.675701920186178,-2.1069733105101527,-1.5714057127581995,2.3014004230499268,-0.00017534589278511703,0.06050371006131172,0.054715968668460846,-0.10556234419345856,-0.00030325481202453375,-0.0005235270946286619,0.2106897532939911,0.1149216815829277,-9.21288776397705,0.7754590511322021,47.687782287597656,-0.5570952296257019,-3.4933104515075684,-1.543575644493103,-0.7213011980056763,-0.008739409036934376,-0.18298760056495667,25.0,25.75,24.875,27.5,28.4375,28.9375
1.0,0.7497493934275204,0.4152373276764606,-0.9742641954558954,-0.00170622681129339,-0.012015086698110876,-0.07508559668079653,-0.5389177946731629,-0.3243813802499206,0.24832783668919642,3.0788188555575604,-0.6248652390666332,-0.0004887989314617399,0.0012597766604611946,0.0005753327219166614,-0.05048706624650685,0.003877618452612218,-0.010904400473628688,0.0003362130248989643,0.3263571858406067,-1.1380924445441742,1.6759288946734827,-2.1074277363219203,-1.5713933149920862,2.3013646602630615,-0.00016723426233511418,0.05926746129989624,0.05587703734636307,-0.10357165336608887,-0.00029983799322508276,-0.0005316439783200622,0.26815059781074524,-0.17238251864910126,-9.078812599182129,0.6859408020973206,47.67882537841797,-0.5253642201423645,-3.274108409881592,-1.660187840461731,-0.7935001850128174,-0.005484776571393013,-0.18644708395004272,25.0,25.75,24.875,27.5,28.4375,28.9375
1.0,0.33925286656946774,0.32007521712675335,-0.8769492821004017,-0.0004509751437458383,-0.008835839663547571,-0.07170423901002392,-0.5389286727326981,-0.32437611598303195,0.2481326343517241,-3.0787920109218994,0.6249552587219137,0.0004839619438555489,0.0004018135624354313,0.00023849896861312828,-0.04939130660935284,0.001431548821029246,-0.0038425560514768024,0.00037758419625653157,0.32634541392326355,-1.1378407043269654,1.6761205832110804,-2.1078607044615687,-1.5714057127581995,2.301412343978882,-0.00010437308083055541,0.05926702171564102,0.05484990403056145,-0.11001753062009811,-0.00026470632292330265,-0.0005131927318871021,0.3064578175544739,-0.2298433631658554,-9.078812599182129,0.6702793836593628,47.6707649230957,-0.5372589230537415,-3.2990708351135254,-1.4148720502853394,-0.7640883922576904,-0.006423060782253742,-0.184799462556839,25.0,25.75,24.875,27.5,28.4375,28.9375
1.0,-0.7808775410668729,-0.7079511414581627,-0.9778398356679422,-0.018628208741327007,0.01841369521912573,-0.05903744613190293,-0.5389154995853733,-0.32438306674183975,0.24790672444033746,-3.07877301293306,0.6249709386350913,0.0003273723510841775,-0.0002628204077642092,5.765275302747663e-06,-0.04933616784600251,-0.0009588045509200011,0.003071665477618957,0.00037018741599099134,0.3263572156429291,-1.137576625948288,1.6763599554644983,-2.108270307580465,-1.571369473134176,2.301436185836792,-9.903883619699627e-05,0.06009218096733093,0.055607251822948456,-0.11891574412584305,-0.0002368330751778558,-0.0005041927215643227,0.1149216815829277,-0.15322890877723694,-9.155426979064941,0.6792280077934265,47.70121383666992,-0.531608521938324,-3.3263208866119385,-1.4815146923065186,-0.6818267107009888,0.00021167926024645567,-0.18778187036514282,25.0,25.75,24.875,27.5,28.4375,28.9375
1.0,-1.1274364232161225,-1.4906460024582087,-1.4193615509667323,-0.04360862847480707,0.0434889688146518,-0.06524657474620785,-0.5389196993761759,-0.32436519025488897,0.24771842319047357,-3.0787836826556547,0.6248578637863452,0.00040616033386458065,-0.0006238397144971879,-0.0001223300279447436,-0.04852699893761132,-0.0031738281750844644,0.009500604624157503,0.0003913863251020846,0.3263333737850189,-1.1373610955527802,1.676600758229391,-2.1087638340392054,-1.5714057127581995,2.301340341567993,-9.48629603954032e-05,0.0593874529004097,0.056312195956707,-0.12571580708026886,-0.00021427198953460902,-0.0005243020132184029,-0.05746084079146385,0.13407528400421143,-9.232041358947754,0.6523714661598206,47.71733474731445,-0.5528497695922852,-3.3124337196350098,-1.5557993650436401,-0.5733604431152344,-0.026301518082618713,-0.19092747569084167,25.0,25.75,24.875,27.5,28.4375,28.9375
1.0,-1.1104643055575174,-1.7110802561869942,-1.5608482726149295,-0.052888289688729384,0.042105756144958574,-0.0709236428738188,-0.5389157656183778,-0.32435863585101643,0.24752612423619091,3.0788064230869776,-0.6249399736696832,-0.00043251792844639235,0.00011531669087736432,0.00012501922195122775,-0.049511106605215544,-0.0017855147681028276,0.005372413791859415,0.0004623847293160556,0.32632145285606384,-1.1371452373317261,1.676852051411764,-2.109264989892477,-1.5713813940631312,2.3013765811920166,-9.102540207095444e-05,0.0594022162258625,0.05794169008731842,-0.1230047419667244,-0.0001956363848876208,-0.0005901193944737315,-0.019153613597154617,0.19153612852096558,-9.404424667358398,0.7329410910606384,47.71196365356445,-0.563183069229126,-3.2348408699035645,-1.6162350177764893,-0.5465339422225952,-0.012278703972697258,-0.1811506450176239,25.0,25.75,24.875,27.5,28.4375,28.9375
1.0,-0.45509684021203867,-1.1407710713043506,-1.4951800291440982,-0.043736496093076976,0.025764110217497957,-0.07438330619231708,-0.5388957448212865,-0.32437121452013584,0.2473143080700435,-3.078764741961348,0.6248934199147538,0.00040872581652175204,0.001054350319366692,0.00044426430955425,-0.05092528987772946,0.0011826301285036802,-0.003284829239077305,0.0004560149405172388,0.3263572156429291,-1.1369051200202485,1.6771028677569788,-2.1097175083556117,-1.5714176336871546,2.3013885021209717,-8.748603431740776e-05,0.059898264706134796,0.058692242950201035,-0.11509942263364792,-0.00021118677977938205,-0.0005765586975030601,-0.1149216815829277,0.2298433631658554,-9.327810287475586,0.6523714661598206,47.685096740722656,-0.5489858984947205,-3.347726821899414,-1.6870265007019043,-0.6258694529533386,-0.015037797391414642,-0.18349125981330872,25.0,25.75,24.875,27.5,28.4375,28.9375
1.0,0.12758490638601608,-0.7875199521197669,-1.4884270970075528,-0.03552533543052767,0.022344414435971807,-0.06707564746324986,-0.5389133052806138,-0.32435519645993255,0.24710682299946302,-3.078784018502075,0.6248975998188335,0.00042257067406004605,0.001727358204255873,0.0006703522315506255,-0.053826595568060756,0.004996508160678364,-0.014524246566720331,0.0005446716877633862,0.32632145285606384,-1.136640415792801,1.6773198286639612,-2.1102167568602503,-1.5714057127581995,2.3013527393341064,-8.421171514783055e-05,0.06299450993537903,0.05907691270112991,-0.1067114919424057,-0.00019996004994027317,-0.0006577494787052274,0.038307227194309235,0.19153612852096558,-9.327810287475586,0.6881819367408752,47.687782287597656,-0.5620253086090088,-3.3873820304870605,-1.7508816719055176,-0.721399188041687,-0.009592048823833466,-0.1728048324584961,25.0,25.75,24.875,27.5,28.4375,28.9375
1.0,0.2761711097727002,-0.03571801631529441,-1.307184304941055,-0.02391350308777393,0.004599546096327062,-0.06885946841581536,-0.53891274296433,-0.32436147267960086,0.24691554867471882,-3.078770769217743,0.6249141997661383,0.0004317654046957049,0.002259417513142391,0.0008573400570743722,-0.053144710766383024,0.005895159911665776,-0.017188025851089927,0.0004906583241005522,0.3263333737850189,-1.136401192550995,1.6775224844561976,-2.1106587849059046,-1.5714176336871546,2.3013765811920166,-9.551064431434497e-05,0.06129027530550957,0.05883976072072983,-0.10195886343717575,-0.0001861882774392143,-0.0006132853450253606,0.19153612852096558,0.038307227194309235,-9.327810287475586,0.7060845494270325,47.7218132019043,-0.5630666613578796,-3.3540682792663574,-1.6901813745498657,-0.8252407312393188,-0.010791991837322712,-0.18561391532421112,25.0,25.75,24.875,27.5,28.4375,28.9375
1.0,0.5663996300565217,0.08994572214423283,-1.2828351092946466,-0.020393496783748317,0.004490285180993008,-0.07619876891011475,-0.5389070442005433,-0.32436074207435983,0.24657813874451623,-3.0787259558851807,0.624924504637921,0.0002788927445948453,0.0007750648629700185,0.0003674770425671018,-0.0528145493135711,0.0026533223440475258,-0.0076661278035784,0.0003833356219821521,0.3263333737850189,-1.135992781524994,1.6778696219073694,-2.1113091907896937,-1.5714057127581995,2.3013885021209717,-0.00011792103032348678,0.06332913786172867,0.057744015008211136,-0.1129605695605278,-0.00019682194397319108,-0.0005330958520062268,0.28730422258377075,-0.09576806426048279,-9.366117477416992,0.7284641265869141,47.70121383666992,-0.5596873760223389,-3.44581937789917,-1.6780481338500977,-0.7809582948684692,-0.021753225475549698,-0.1719888299703598,25.0,25.75,24.875,27.5,28.4375,28.9375
1.0,-0.37106256390459685,-1.008092264908731,-1.5524964455427075,-0.028190951173959155,0.02059140541772559,-0.05708853239442425,-0.5389174914667169,-0.32435399631361345,0.2463825622821671,-3.0787044685159386,0.6249012780650349,0.0002821333342118438,-0.0001511942799459631,0.00015658136654895673,-0.05245800578478447,0.00013468979092716446,-0.00032465625304305433,0.00020066697855263232,0.32632139325141907,-1.1357407730868836,1.6780622641192835,-2.1117426357665003,-1.5714295546161097,2.3013646602630615,-0.0002808099379763007,0.06419436633586884,0.05767407640814781,-0.1215173602104187,-0.00018527550855651498,-0.0005170412478037179,0.26815059781074524,0.038307227194309235,-9.27034854888916,0.6411817073822021,47.711063385009766,-0.6246668100357056,-3.5697743892669678,-1.7304599285125732,-0.6918728947639465,-0.009887550957500935,-0.17579567432403564,25.0,25.75,24.875,27.5,28.4375,28.9375
1.0,-0.7949268148176208,-1.9655496015155924,-1.932874074170263,-0.05873219173532675,0.04822432386502851,-0.06918776457102681,-0.5388923527797778,-0.3243634491090046,0.24615921983590297,-3.0787046040569086,0.624920545356899,0.0002166353377383504,-1.3109493458484968e-05,0.0002247186650727714,-0.05282211952622606,-0.001312210793799334,0.0038850775642594055,8.26144223650576e-05,0.3263453245162964,-1.1355008047870179,1.6783493200885218,-2.1122356853880824,-1.5714057127581995,2.3014004230499268,-0.0003149141266476363,0.06402474641799927,0.06036088988184929,-0.12848597764968872,-0.00017498325905762613,-0.0004358999722171575,0.07661445438861847,0.2106897532939911,-9.500192642211914,0.7150384783744812,47.70658874511719,-0.592113733291626,-3.504542589187622,-1.7876582145690918,-0.5645492672920227,-0.030042804777622223,-0.17055928707122803,25.0,25.75,24.875,27.5,28.4375,28.9375
1.0,-0.8198807667520789,-1.6714719764638444,-1.742649584428255,-0.07986068710142691,0.044377011205108535,-0.0646045170163805,-0.5388951066486992,-0.3243656636788021,0.24596526284411702,-3.078751564471154,0.6248921621380327,0.00028466715533781775,5.6660423599127796e-05,0.00025777109753359124,-0.05229138230547461,-0.00042834367708500447,0.001343377543538784,3.336880020716153e-05,0.3263453245162964,-1.135261521940567,1.6785772482501429,-2.112760683099264,-1.5713933149920862,2.3013765811920166,-0.0003270654415246099,0.06348281353712082,0.05882946774363518,-0.123721644282341,-0.0001893491280497983,-0.0003970188554376364,-0.09576806426048279,0.28730419278144836,-9.500192642211914,0.7127973437309265,47.71464920043945,-0.5714422464370728,-3.477160692214966,-1.8522469997406006,-0.5553934574127197,-0.01010528951883316,-0.16863255202770233,25.0,25.75,24.875,27.5,28.4375,28.9375
1.0,0.2376822127916858,-0.9532845667262828,-1.9241334698205073,-0.04694885666131687,0.025635107407154398,-0.07293222356877256,-0.5388892379482059,-0.32436109103849436,0.24576746109927117,-3.078722809112588,0.624924704178213,0.00030021350422113383,0.0008380240371816437,0.0005053492852248965,-0.053196156453475966,0.0018738061163831765,-0.005435077750016387,7.0630519802023e-05,0.3263453245162964,-1.1350335341743012,1.6788161436664026,-2.113225122491354,-1.5714176336871546,2.3014004230499268,-0.0002999906428158283,0.06355667859315872,0.05930343642830849,-0.11711078137159348,-0.00017998265684582293,-0.00040423369500786066,-0.05746084079146385,0.325611412525177,-9.500192642211914,0.6635612845420837,47.70838165283203,-0.5696514248847961,-3.489826202392578,-1.8526403903961182,-0.6378217339515686,-0.014638721942901611,-0.1647031605243683,25.0,25.75,24.875,27.5,28.4375,28.9375
1.0,-0.1587700750535455,-0.8442920159936831,-1.6869896952664287,-0.045532068520911226,0.021838128265324133,-0.0707317381963218,-0.5388959261230465,-0.3243580939949264,0.2455421079077007,-3.078726062280092,0.6248875450712658,0.00021096719596483063,0.0011559017516956178,0.0005956857225376782,-0.05279932556943407,0.003717768206748376,-0.010918260097003722,0.00010258851111697088,0.32633331418037415,-1.1347458821586152,1.6790311972247522,-2.113676687280172,-1.5713933149920862,2.3013646602630615,-0.00027691342984326184,0.06292138248682022,0.0573931448161602,-0.10878033936023712,-0.00015325588174164295,-0.000409836124163121,0.09576806426048279,0.24899697303771973,-9.385271072387695,0.7083203792572021,47.7164421081543,-0.6187658309936523,-3.464852809906006,-1.7468558549880981,-0.7031422853469849,-0.020316332578659058,-0.19413483142852783,25.0,25.75,24.875,27.5,28.4375,28.9375
1.0,0.00455879774974613,-0.4618010648581142,-1.6991195590792338,-0.022601915239813926,0.011560881384929422,-0.06761415125821314,-0.5389078295437354,-0.3243518316566957,0.2453307248130401,-3.078695713935195,0.624900651517356,0.0002115925090970305,0.001363665121681938,0.0006524585368588422,-0.05272055425769613,0.005151713367053958,-0.015152083458572248,0.00017640309886336302,0.32632139325141907,-1.1344702404788514,1.6792343298541468,-2.1141420803465785,-1.5714176336871546,2.3013646602630615,-0.0002571347577031702,0.06279940903186798,0.05603202059864998,-0.10282722115516663,-0.00014323584036901593,-0.00046147117973305285,0.19153612852096558,-0.09576806426048279,-9.423578262329102,0.6702793836593628,47.7218132019043,-0.6157242655754089,-3.4417190551757812,-1.7040008306503296,-0.806727409362793,-0.01865340769290924,-0.17787997424602509,25.0,25.75,24.875,27.5,28.4375,28.9375
1.0,0.12828722575067367,0.18131494042961807,-1.5932259588999471,0.0004047753012258832,-0.013123774546581568,-0.06662956597600839,-0.538902582639282,-0.324340932785709,0.24512147403733034,-3.0786618912153063,0.6248941849312231,0.00015425615833176916,0.0011047409763489976,0.0006211904759473343,-0.0529857333636977,0.004547114286498543,-0.01341217308546728,0.00010576547702243437,0.32630932331085205,-1.1342301231673737,1.6794751326190394,-2.1145740948119105,-1.5714295546161097,2.3013527393341064,-0.0003461612795945257,0.06352368742227554,0.05627595633268356,-0.10563738644123077,-0.00013466131349559873,-0.0004810075624845922,0.3064578175544739,-0.13407529890537262,-9.27034854888916,0.7463666796684265,47.70658874511719,-0.5967295169830322,-3.4607388973236084,-1.628065586090088,-0.8442539572715759,-0.029725825414061546,-0.18328283727169037,25.0,25.75,24.875,27.5,28.4375,28.9375
1.0,-0.029925802249748834,-0.05861285582173577,-1.7115592324868134,-0.005419057968251724,-0.0012249911700269894,-0.07101672654060655,-0.5388827767824705,-0.3243600414871048,0.2449142486951974,-3.0786868374666283,0.6248609374175571,0.000126067688232631,-0.0003546777857037583,0.00013079592823132382,-0.04965669761712156,0.00019290624063697265,-0.0006537089946079406,4.879568091495064e-05,0.3263453245162964,-1.1339909595302125,1.6797240416156214,-2.1150557003416957,-1.5714057127581995,2.3013646602630615,-0.000358045770553872,0.06153883785009384,0.05342010408639908,-0.11427769064903259,-0.0001270565262529999,-0.0004405633662827313,0.2298433631658554,-0.13407529890537262,-9.366117477416992,0.7150384783744812,47.69584274291992,-0.5239377021789551,-3.3205647468566895,-1.510934591293335,-0.7955417633056641,-0.01627356745302677,-0.1725706160068512,25.0,25.75,24.875,27.5,28.4375,28.9375
1.0,-0.43150600349937135,-1.0903165897516252,-1.6415485118546298,-0.04910977727201621,0.04321093643349239,-0.07356426939007676,-0.5388762026759092,-0.32436033100807743,0.24472162735890793,-3.078681798353524,0.6248410232565456,2.4652013862258543e-05,-0.00033829653048948185,0.00011251282930675675,-0.05254376317151708,-8.514135421479877e-05,0.00018643959705083306,8.544205653620299e-05,0.3263453245162964,-1.1337619584849854,1.6799290815936487,-2.115429540673727,-1.5713813940631312,2.3013527393341064,-0.0003180596686434001,0.06505396217107773,0.056912317872047424,-0.12216991186141968,-0.0001441047788830474,-0.00043971798731945455,0.1149216815829277,0.0,-9.461885452270508,0.6702793836593628,47.72629165649414,-0.5589499473571777,-3.5865182876586914,-1.6479851007461548,-0.7066261172294617,-0.01640659011900425,-0.18050983548164368,25.0,25.75,24.875,27.5,28.4375,28.9375
1.0,-1.1852174628192294,-1.7439292077413908,-1.9021888828218978,-0.07391311639359782,0.05942694503183656,-0.06464507308357967,-0.5388770330725177,-0.3243543061229805,0.24449656203793518,-3.0786368682696366,0.624812095751393,7.571268640912841e-05,-0.0008006444289523554,-6.786757336106612e-05,-0.04859562143202164,-0.0035185689151244638,0.010264604827182238,6.377719077557171e-05,0.3263453543186188,-1.1334877771190186,1.6801803747760218,-2.115957876245016,-1.5714414755450647,2.301340341567993,-0.0002845359849743545,0.060431916266679764,0.0554162859916687,-0.126698836684227,-0.00013699398550670594,-0.00038757684524171054,-0.05746084079146385,0.15322890877723694,-9.634267807006836,0.7418897151947021,47.72987747192383,-0.5522821545600891,-3.2842602729797363,-1.6046311855316162,-0.6069779396057129,-0.022026285529136658,-0.18438655138015747,25.0,25.75,24.875,27.5,28.4375,28.9375
1.0,-0.8976996143866,-1.6004329845396352,-1.9899907781039483,-0.07440845267168326,0.051653314892012143,-0.06773337380792892,-0.5388869268060885,-0.3243614041923474,0.24430756882100343,-3.078691023171924,0.6248433024554638,0.00012172854064656031,0.00026231337794547436,0.0002780745652567449,-0.05016475380476313,-0.001100113819965113,0.003214125461301107,0.00010011436483457894,0.3263453543186188,-1.1332359474948426,1.6803739706622522,-2.1164585552611292,-1.5714057127581995,2.3013527393341064,-0.00025740719866007566,0.060740876942873,0.05742202326655388,-0.12155977636575699,-0.00015065485786180943,-0.0003941693576052785,-0.17238251864910126,0.26815059781074524,-9.672574996948242,0.7105615139007568,47.723602294921875,-0.6122164726257324,-3.348590135574341,-1.7964622974395752,-0.6202758550643921,-0.025574102997779846,-0.17215865850448608,25.0,25.75,24.875,27.5,28.4375,28.9375
1.0,-0.07963331791757788,-0.6010112649596134,-1.8079874436289793,-0.04783009030502231,0.026207619845687737,-0.06871850069520402,-0.5388700157854028,-0.3243570340530917,0.24410719940614486,-3.0786421620678897,0.6247946786274633,0.00015085885701199506,0.0004753511689599539,0.00033543941983486217,-0.05007192196555287,1.716046661554688e-05,-7.619859339129464e-05,0.00010392284805438171,0.3263571560382843,-1.1330201786807557,1.6806367079364222,-2.1169239483275355,-1.571465317402975,2.301340341567993,-0.00023500126553699374,0.06050979346036911,0.056485000997781754,-0.11691685765981674,-0.00014509573520626873,-0.0003736951621249318,-0.05746084079146385,0.2298433631658554,-9.653421401977539,0.7060845494270325,47.71554183959961,-0.6088141798973083,-3.271817207336426,-1.7612026929855347,-0.6716141700744629,-0.033242084085941315,-0.1813051700592041,25.0,25.75,24.875,27.5,28.4375,28.9375
1.0,-0.021764330778623026,-0.45950548757868515,-1.6158345292053606,-0.02744781845490785,0.005635616555577068,-0.06647739094575685,-0.5388910815411401,-0.3243549570045454,0.2439264087738647,-3.0787043122421447,0.624865754840043,0.00016504352955085458,0.000868720484411261,0.0004819149022748585,-0.05044689909879397,0.002311337061554386,-0.006761618058311228,0.00010136896489673197,0.32633331418037415,-1.132768378858902,1.680803124104635,-2.117387910882467,-1.5714057127581995,2.3013527393341064,-0.0002521944115869701,0.0607140026986599,0.05519865080714226,-0.1087665855884552,-0.00015835449448786676,-0.00038483523530885577,0.15322890877723694,0.1149216815829277,-9.404424667358398,0.6971306204795837,47.674346923828125,-0.628997802734375,-3.2906785011291504,-1.7369974851608276,-0.750919759273529,-0.03766438364982605,-0.1741892397403717,25.0,25.75,24.875,27.5,28.4375,28.9375
1.0,0.10679865173983312,-0.06810807331197033,-1.4463645413194532,-0.009338370254901359,-0.005264768800312085,-0.06626918071532603,-0.5389084715143115,-0.32434404699236524,0.24372663974381242,-3.078703071993266,0.6248452577930711,0.00018586412947233855,0.0006383659712487426,0.00042765544081971394,-0.052922278229517686,0.004441822609406214,-0.013058483314978026,0.0001005424966210382,0.32630935311317444,-1.1325029593757172,1.6809943358050745,-2.1178533039488734,-1.5714176336871546,2.301316022872925,-0.00029022162198089063,0.0647980123758316,0.05434636026620865,-0.10535081475973129,-0.00015184095536824316,-0.0004200148396193981,0.28730422258377075,-0.15322890877723694,-9.289502143859863,0.7620334029197693,47.699424743652344,-0.6062778234481812,-3.498561382293701,-1.6442358493804932,-0.8392400145530701,-0.023351438343524933,-0.1787634938955307,25.0,25.75,24.875,27.5,28.4375,28.9375
1.0,-0.06703448378313384,-0.31199084612876626,-1.3274736460046972,-0.034331796805771,0.013369853004747592,-0.061480650016824956,-0.5388926786989734,-0.32435280977398523,0.24343437938237217,-3.0786551520241603,0.6248947699090823,0.00012048747050201295,-0.0010338615855629283,0.0002901439076556346,-0.05032505764649179,-0.0007863722729553519,0.0023831380173152277,-0.00046907779278171303,0.32633310556411743,-1.1321559709361573,1.6813176313983362,-2.1184689007201136,-1.5714295546161097,2.3013765811920166,-0.0009503734181635082,0.06350520998239517,0.0534529909491539,-0.11946727335453033,-0.0001852574641816318,-0.0005172729142941535,0.28730422258377075,-0.17238251864910126,-9.346963882446289,0.7262282371520996,47.68867492675781,-0.5862712264060974,-3.4169929027557373,-1.5490047931671143,-0.7299569845199585,-0.02901514619588852,-0.16905033588409424,25.0,25.75,24.875,27.5,28.4375,28.9375
