Tylouw/Master_Thesis_Code/test_recorded_data/trial3/insertion_2_2026-01-23_13-39-33.csv
num_insertion,tcp_force_x[N],tcp_force_y[N],tcp_force_z[N],tcp_force_rx[Nm?],tcp_force_ry[Nm?],tcp_force_rz[Nm?],tcp_pose_x[m],tcp_pose_y[m],tcp_pose_z[m],tcp_pose_rx[rot_vec_x],tcp_pose_ry[rot_vec_y],tcp_pose_rz[rot_vec_z],tcp_velo_x[m/s],tcp_velo_y[m/s],tcp_velo_z[m/s],tcp_velo_rx[rot_vec_x/s],tcp_velo_ry[rot_vec_y/s],tcp_velo_rz[rot_vec_z/s],q1[rad],q2[rad],q3[rad],q4[rad],q5[rad],q6[rad],qd1[rad/s],qd2[rad/s],qd3[rad/s],qd4[rad/s],qd5[rad/s],qd6[rad/s],tool_acc_x,tool_acc_y,tool_acc_z,current_of_whole_robot[A],voltage_of_whole_robot[V],current_J1[A],current_J2[A],current_J3[A],current_J4[A],current_J5[A],current_J6[A],temp_J1[C],temp_J2[C],temp_J3[C],temp_J4[C],temp_J5[C],temp_J6[C]
1.0,0.4707098660258776,0.7348358454215511,-0.5885738110025306,-0.009113505822420424,-0.04235583306918373,-0.06899671641665882,-0.5388435034328664,-0.3244646938106161,0.26003461617509327,-3.078683975469473,0.6249217468440624,0.00010677940425949192,0.0023262992293054353,-0.0012577467682545148,0.001582214447184122,-0.0015278314217019905,0.00481947071118039,0.0006840765624677959,0.32651424407958984,-1.1519633394530793,1.6624024550067347,-2.0797559223570765,-1.571345631276266,2.301581859588623,0.0031730644404888153,-0.005110718309879303,0.00453767878934741,-0.004481119103729725,-9.92756977211684e-05,0.002486976096406579,0.5746083855628967,-0.19153612852096558,-9.21288776397705,0.8224645853042603,47.703006744384766,-0.1901269257068634,-4.097731590270996,-2.611875057220459,-0.3923020660877228,0.026994433254003525,-0.15622782707214355,24.9375,25.5625,24.75,27.3125,28.125,28.6875
1.0,0.7276774627839908,0.9516612473282504,-0.8427637123311998,-0.010855447605553684,-0.028068873762255746,-0.0688209428791901,-0.5388274196281022,-0.32449653810232915,0.2600560545416245,-3.0787320199724215,0.6247568111116754,0.0001824094434895777,0.0004827739950900284,-0.0009600959830757653,0.0018341530491357333,-0.00176159211330231,0.005518772805002563,0.002543505975782576,0.3265736401081085,-1.1519863468459626,1.6623886267291468,-2.0797678432860316,-1.571357552205221,2.30153226852417,0.0017490956233814359,-0.0024596918374300003,2.794133615680039e-05,-0.0033601776231080294,-0.00010993099567713216,-0.0007959951180964708,0.05746083706617355,0.13407528400421143,-9.28950309753418,0.7284641265869141,47.72092056274414,-0.15435399115085602,-4.234582901000977,-2.3576407432556152,-0.3882831335067749,0.02590268850326538,-0.14098097383975983,24.9375,25.5625,24.75,27.3125,28.125,28.6875
1.0,-2.428080615118852,-2.0393725816156296,-0.7406731669406973,-0.10601268822069693,0.06427115608900608,-0.062222798708557694,-0.5388144837440771,-0.32450348369867055,0.2600366870522573,-3.0787156529083277,0.6247741070275009,3.718267036837978e-05,0.0003823478076344855,-0.0006551374128916999,0.0002436747396713052,-0.00014774341298141104,0.0007654475923786771,0.001711015923796592,0.3265853524208069,-1.1519736510566254,1.66240102449526,-2.0797068081297816,-1.5713217894183558,2.3015568256378174,0.0012266612611711025,-0.00032381631899625063,5.0293418318858585e-09,-0.000448233651695773,-0.00010673035285435617,-0.00048442528350278735,-0.3064578175544739,0.2298433631658554,-9.327810287475586,0.6881819367408752,47.686885833740234,-0.13986295461654663,-3.9959073066711426,-2.0697193145751953,-0.4996187090873718,0.010811902582645416,-0.14468155801296234,24.9375,25.5625,24.75,27.3125,28.125,28.6875
1.0,-1.4824357098072378,-0.4056303154582672,-0.3706818606826544,-0.05499965984142431,0.06782093901436276,-0.07452931591500311,-0.5388101852778725,-0.3244736547420197,0.2600156223761699,-3.078656865995063,0.6248010051327814,4.522614939344565e-05,0.0007861034156777873,-0.00031387145045735075,-0.0011744545107970677,-0.0009151038592084095,0.002994895635415851,0.001068224073084832,0.32654938101768494,-1.1519854825786133,1.6624739805804651,-2.0797459087767542,-1.571369473134176,2.3015451431274414,0.0009126560180447996,-7.819783709450689e-10,0.004343916196376085,-0.007473743986338377,-0.0001021864009089768,-0.00015798144158907235,-0.24899697303771973,0.19153612852096558,-9.155426979064941,0.7060845494270325,47.712860107421875,-0.13884392380714417,-3.781909942626953,-2.214913845062256,-0.5568584203720093,0.02056306228041649,-0.15383583307266235,24.9375,25.5625,24.75,27.3125,28.125,28.6875
1.0,0.09830302372482885,0.9132212934388025,-0.46311773799953593,0.0032545930765607144,-0.0009669594910446792,-0.074523272526212,-0.538805793637243,-0.32451365643329433,0.2600190088531559,-3.07874029026565,0.6246820575556838,0.0001269372781692022,-4.088828406703844e-05,-0.0010060403764102453,6.434329232121074e-05,-0.0038591607640272576,0.011608852999108731,0.0017759177483828168,0.32660943269729614,-1.1519615215114136,1.6624496618853968,-2.0798198185362757,-1.571345631276266,2.301520347595215,0.0015437740366905928,-1.4075333509399462e-13,0.0033755863551050425,-0.015608591958880424,-9.936579590430483e-05,-0.00023794347362127155,-0.24899697303771973,0.07661445438861847,-9.059659004211426,0.7262282371520996,47.6707649230957,-0.17174577713012695,-3.64082932472229,-1.9820914268493652,-0.48240262269973755,0.011157211847603321,-0.16037560999393463,24.9375,25.5625,24.75,27.3125,28.125,28.6875
1.0,-0.5427609504655989,-0.08187720341690236,-0.24897020546973878,-0.05115684886628921,0.01813860045245156,-0.07175483921609278,-0.5388182412639463,-0.32450476241657616,0.2600257040818954,-3.078765504207965,0.6247457147019819,0.00015312454139061266,0.0003772762729259419,-0.0006336051911893209,-0.0029122522687154706,-0.001434321393348395,0.0044759079375502765,0.001375534948580034,0.3265853524208069,-1.15196047843013,1.6624382177936,-2.0798427067198695,-1.5713217894183558,2.301532745361328,0.0011899741366505623,0.0029512534383684397,0.005439421162009239,-0.013089831918478012,-9.669688006397337e-05,-0.00018967482901643962,-0.019153613597154617,-0.24899697303771973,-9.078812599182129,0.6859408020973206,47.67703628540039,-0.20096395909786224,-3.6616597175598145,-2.019598960876465,-0.5216236114501953,0.00773592246696353,-0.17034681141376495,24.9375,25.5625,24.75,27.3125,28.125,28.6875
1.0,-0.24458789574212686,0.4777771166353334,-0.22670592905534392,-0.02624387432176631,0.024150456090860514,-0.0679175211482097,-0.5388175302571441,-0.3245031721874067,0.26002085883485404,-3.0787731312553297,0.624747512374771,0.00021124912246879676,8.508646159706827e-05,-0.00046614834926697813,-0.00250155621588404,-0.0018829325502982073,0.005873912183957901,0.0009350904489814353,0.32658520340919495,-1.1519605976394196,1.6624630133258265,-2.0799032650389613,-1.5713337103473108,2.301532745361328,0.0007829547394067049,0.002692530630156398,0.005056284833699465,-0.01391590479761362,-0.00012314024206716567,-0.00015662913210690022,0.1149216815829277,-0.2298433631658554,-9.040505409240723,0.7284641265869141,47.685096740722656,-0.15834437310695648,-3.5467233657836914,-1.8852617740631104,-0.5763952732086182,0.01174845453351736,-0.17515075206756592,24.9375,25.5625,24.75,27.3125,28.125,28.6875
1.0,0.2174947832741902,1.179830427392456,-0.6574170717014391,0.008280165769144851,-0.02761014957554566,-0.06444688972187701,-0.5388067428541962,-0.3244904583661595,0.2599751909949165,-3.078728514350156,0.6247966242177321,0.00015690126584094012,5.4981254151666605e-05,-0.0003750296093549246,-0.003044073066658449,-0.0022682915496597075,0.006991586129538531,0.0008035596953910851,0.3265732228755951,-1.1519364577582856,1.662546459828512,-2.079963823358053,-1.571345631276266,2.3015570640563965,0.0006266208365559578,0.0031685165595263243,0.006270413286983967,-0.016788264736533165,-0.00012081688328180462,-0.00018238894699607044,0.19153612852096558,-0.07661445438861847,-9.117119789123535,0.7239871025085449,47.731666564941406,-0.229111447930336,-3.453305721282959,-1.860826849937439,-0.5365866422653198,0.012444056570529938,-0.17551350593566895,24.9375,25.5625,24.75,27.3125,28.125,28.6875
1.0,-0.1206471370763101,-0.09943303670506981,-0.7861621138651381,-0.04645739317331867,-0.020709224911011327,-0.06559504097037737,-0.5388128867745456,-0.3244900291580532,0.2599542456855455,-3.078689953257582,0.6248461130631253,0.00015573940708444233,0.0008489768260341573,-3.700099530982961e-05,-0.006976525672038558,0.0007936312492913422,-0.002024872851357167,0.0006933451073604475,0.3265731930732727,-1.1518992644599457,1.6625474135028284,-2.079987188378805,-1.571369473134176,2.3015928268432617,0.0005226707435213029,0.006761163007467985,0.009583809413015842,-0.014172140508890152,-0.00011467715376056731,-0.00017417105846107006,0.2106897532939911,-0.07661445438861847,-9.078812599182129,0.7597975730895996,47.685096740722656,-0.14122208952903748,-3.460911750793457,-1.9146356582641602,-0.5581508874893188,0.010014422237873077,-0.18772658705711365,24.9375,25.5625,24.75,27.3125,28.125,28.6875
1.0,-0.40889819944025796,-1.3104797377627486,-0.9365659401605578,-0.07942456092159397,0.02114497974111639,-0.06538292954665956,-0.5388005471114775,-0.3244676807952733,0.2599194973239647,-3.0786435114432193,0.6248178998352015,9.256018789199379e-05,0.0009126658611436171,0.000225056264168312,-0.0070918499383364675,0.0013730544580556187,-0.003621520256985119,0.00036031169608672037,0.32654911279678345,-1.1518992644599457,1.6626313368426722,-2.080010553399557,-1.5713933149920862,2.3015570640563965,0.0001577694056322798,0.006649310234934092,0.009595234878361225,-0.01237346138805151,-0.00014701885811518878,-0.0002052751515293494,0.09576806426048279,0.19153612852096558,-9.346963882446289,0.6837049722671509,47.6394157409668,-0.22236889600753784,-3.3491406440734863,-1.8409391641616821,-0.634158730506897,0.002731539774686098,-0.19121456146240234,24.9375,25.5625,24.75,27.3125,28.125,28.6875
1.0,-0.3191958543515092,-0.8758353969560685,-0.8717097863875939,-0.07019927890798743,0.026783727718044856,-0.07187393764386772,-0.5388155584265842,-0.3244687007362696,0.259863461757884,-3.0786477913167696,0.6247992140659288,-1.8160838232219393e-05,0.0008629122676883828,0.0002671168171976885,-0.009077677751273303,0.001940320248061684,-0.005307118582372915,0.0003388937921374949,0.32653704285621643,-1.1518024665168305,1.6626318136798304,-2.0800472698607386,-1.571357552205221,2.301532745361328,6.71080342726782e-05,0.009147931821644306,0.01112186536192894,-0.014620237983763218,-0.0001456714526284486,-0.00027486594626680017,0.19153612852096558,0.40222588181495667,-9.308655738830566,0.7508436441421509,47.69584274291992,-0.20190127193927765,-3.3889412879943848,-1.8254010677337646,-0.6391491293907166,0.018997523933649063,-0.19897416234016418,24.9375,25.5625,24.75,27.3125,28.125,28.6875
1.0,-0.6214099051220762,-1.2717675833890567,-0.9363931694534056,-0.07493711811852485,-0.0016025354657351366,-0.07306480836256499,-0.5387973059234794,-0.324472980415932,0.2598036030095572,-3.0785700869343846,0.6248221226565817,-6.0991151974123586e-05,0.000971962682004894,0.00031150433607697993,-0.010107905444939409,0.0015374355878130892,-0.004093193117816897,0.0003767794777356199,0.32656100392341614,-1.15175415695224,1.6627166906939905,-2.080120702783102,-1.5714057127581995,2.3015809059143066,5.8386642194818705e-05,0.009981172159314156,0.01325318031013012,-0.018863782286643982,-0.00015880519640631974,-0.00032280568848364055,0.05746084079146385,0.24899697303771973,-9.404424667358398,0.7172743082046509,47.67524337768555,-0.18044613301753998,-3.3090553283691406,-1.8881683349609375,-0.6378545761108398,0.023477056995034218,-0.19601915776729584,24.9375,25.5625,24.75,27.3125,28.125,28.6875
1.0,-0.021850706576293955,-0.9874792942340322,-0.693878720571684,-0.09303982235648105,0.018927285142892655,-0.08135635250489778,-0.538797572346514,-0.32447306930027126,0.25979150640183835,-3.07859727547889,0.6247501079066314,-2.801512500789168e-05,0.0006800572595104284,0.0002158354000771355,-0.01092027374101126,0.0012490357434877452,-0.003279488441506553,0.00042012369269366307,0.32656100392341614,-1.1517417889884491,1.6627405325519007,-2.0801812611021937,-1.5714057127581995,2.301532506942749,5.168005736777559e-05,0.011474061757326126,0.01363304816186428,-0.021599797531962395,-0.00015240878565236926,-0.00037369836354628205,0.09576806426048279,0.28730422258377075,-9.232041358947754,0.7956027388572693,47.718231201171875,-0.22490398585796356,-3.357503890991211,-1.8433101177215576,-0.6320456862449646,0.020811915397644043,-0.19754013419151306,24.9375,25.5625,24.75,27.3125,28.125,28.6875
1.0,0.05333824790605642,-0.20791446268432143,-0.6098021213922845,-0.06548056209419223,0.02094858964096031,-0.07679583534420611,-0.5387891549579116,-0.32446748275337317,0.2597331743376359,-3.0785993600035773,0.6248279071001275,-0.0001312018949837106,0.00025628273658030753,0.00012087902725440179,-0.011272586240438007,0.0006605345408407799,-0.0010959747919762096,0.0005116283646273707,0.32654905319213867,-1.151693509226181,1.6628244558917444,-2.0802656612791957,-1.571357552205221,2.3015687465667725,9.302228320962058e-09,0.012557310983538628,0.013691440224647522,-0.024997791275382042,-0.0003035683184862137,-0.0005178101127967238,0.325611412525177,0.3064578175544739,-9.251194953918457,0.8202234506607056,47.671661376953125,-0.18941614031791687,-3.3568789958953857,-1.8005093336105347,-0.6278589963912964,0.027760010212659836,-0.20264306664466858,24.9375,25.5625,24.75,27.3125,28.125,28.6875
1.0,0.12160978646298727,0.04637797303161009,-0.3593411377600383,-0.06401095514745468,0.007353407377666352,-0.0761297647527868,-0.5387869478247896,-0.3244797853853342,0.25970692759329805,-3.0786299143187095,0.6246986589989786,-4.594511792609432e-05,-0.00013611769620483936,-1.6341344359464143e-05,-0.011411878256592862,-0.00023849759392746516,0.0014276728307872969,0.0005338211571586924,0.3265730142593384,-1.1516571205905457,1.6628606955157679,-2.0803872547545375,-1.5713813940631312,2.3015081882476807,1.6743680010186668e-12,0.01333638932555914,0.013707191683351994,-0.028471441939473152,-0.0002699161705095321,-0.000541358720511198,0.13407529890537262,0.2106897532939911,-9.136273384094238,0.7732232213020325,47.700321197509766,-0.2753365635871887,-3.3604397773742676,-1.7390950918197632,-0.5971558690071106,0.01473963726311922,-0.2087448686361313,24.9375,25.5625,24.75,27.3125,28.125,28.6875
1.0,-0.28392315350795455,-0.5179901964132598,-0.5533774663990507,-0.050939857186918805,0.0048828885443803136,-0.06810330212963772,-0.5387987468616544,-0.3244863034869708,0.2596840042514065,-3.0786645136383086,0.6247837611934375,1.603692347733962e-05,-0.00036000476681072286,-9.553129387969034e-05,-0.012357425075864473,-0.00042008928580899974,0.0018584312324502889,0.0005153056241459595,0.3265730142593384,-1.151608632212021,1.6628721396075647,-2.0805069408812464,-1.571357552205221,2.3015568256378174,3.0138035774282925e-16,0.014878199435770512,0.014287088997662067,-0.031059494242072105,-0.00024100416339933872,-0.0005236463039182127,0.17238251864910126,0.19153612852096558,-9.136273384094238,0.7329410910606384,47.68419647216797,-0.22295093536376953,-3.328925609588623,-1.6737806797027588,-0.5867748260498047,0.005381577182561159,-0.19488853216171265,24.9375,25.5625,24.75,27.3125,28.125,28.6875
1.0,-0.5255515515870013,-0.2393265427914396,-0.6784908240689621,-0.05114337677584717,0.010901536211318667,-0.06547345485869271,-0.5388058986437115,-0.32447192099579214,0.25962065741541274,-3.0786484928743025,0.6247799617090424,8.345957579055364e-06,-0.0005037084818107128,-0.0001468724260124351,-0.012787739158483667,-0.0008246569224297402,0.0029659685870737206,0.0004927150392184718,0.32654905319213867,-1.1515364807895203,1.6629450956927698,-2.080639501611227,-1.571369473134176,2.301532506942749,5.4247402837674e-20,0.015588280744850636,0.0148211270570755,-0.03348249942064285,-0.00021768042643088847,-0.0005019035888835788,0.07661445438861847,0.07661445438861847,-9.117119789123535,0.7127973437309265,47.702110290527344,-0.2579030692577362,-3.302490234375,-1.7209410667419434,-0.5663752555847168,0.0012888804776594043,-0.2056073546409607,24.9375,25.5625,24.75,27.3125,28.125,28.6875
1.0,-0.5975764664555455,-0.1691502193217615,-0.582334198699945,-0.041128009754997266,0.018048755228642473,-0.07571052248062024,-0.538799451841624,-0.3244643951070703,0.25954646255591834,-3.0786164569635774,0.6248317969233319,-0.00012304132795172215,-0.0006923710821393619,-0.0002171279642533316,-0.013655941822678942,-0.0010548804123355106,0.003449724009222067,0.00047653617691833833,0.32653701305389404,-1.1514641505530854,1.6630290190326136,-2.08071293453359,-1.571345631276266,2.3015568256378174,9.764340424539294e-24,0.01696343533694744,0.01544614601880312,-0.03601492568850517,-0.0001594877685420215,-0.00048654674901627004,0.1149216815829277,0.07661445438861847,-9.117119789123535,0.7665104269981384,47.681514739990234,-0.25048673152923584,-3.3565919399261475,-1.7039799690246582,-0.5443741679191589,0.021141745150089264,-0.20685267448425293,24.9375,25.5625,24.75,27.3125,28.125,28.6875
1.0,-0.20223747836892175,-0.3138710328621945,-0.661924023680696,-0.05205662385124494,0.031286172799059465,-0.07422622892003801,-0.5388108694693209,-0.3244682813441669,0.25951862710315576,-3.0786675221063984,0.6248231640500528,6.366346255242181e-06,-0.0009035764409255806,-0.0002909916403500309,-0.014663485604290928,-0.0013659027778946755,0.004289005650211822,0.0004677639196063548,0.32656097412109375,-1.1513556402972718,1.6631372610675257,-2.080989500085348,-1.571345631276266,2.3015449047088623,2.3579736583483476e-29,0.018516289070248604,0.016317497938871384,-0.03933390602469444,-0.00014022165851201862,-0.0004788263759110123,0.0,0.0,-9.28950309753418,0.7217512726783752,47.679718017578125,-0.2482047975063324,-3.2924604415893555,-1.6589866876602173,-0.501126766204834,0.016204308718442917,-0.22636166214942932,24.9375,25.5625,24.75,27.3125,28.125,28.6875
1.0,-1.2433804096848233,-0.5730529951483674,-0.6634476893303316,-0.05572010343100997,0.027009602687649525,-0.06542925503568282,-0.5388090110775543,-0.32446763094937353,0.2594046368396735,-3.0786436859091593,0.6248183994248752,-5.996774593383663e-05,-0.0006877443307638851,-0.0002183355104424346,-0.015664044303756796,-0.0011087796719176774,0.003498202323805525,0.0005264009143219326,0.32653701305389404,-1.1512834888747712,1.6631854216205042,-2.0810967884459437,-1.571345631276266,2.3015449047088623,4.244269290437722e-33,0.019283071160316467,0.01784774474799633,-0.04079949110746384,-0.0001300863514188677,-0.0005377958295866847,-0.05746084079146385,0.09576806426048279,-9.21288776397705,0.6926589012145996,47.6949462890625,-0.3057944178581238,-3.289653778076172,-1.7363094091415405,-0.4935549199581146,0.012548703700304031,-0.21637806296348572,24.9375,25.5625,24.75,27.3125,28.125,28.6875
1.0,-0.6241452416204638,-0.4917028352933013,-0.8244676936765388,-0.045868416066910486,0.023580173511477377,-0.06916274642077014,-0.5388026974086407,-0.3244785290355189,0.25934155765066075,-3.078647414160404,0.624760912420386,-7.263760390206038e-06,-0.0006612155880166699,-0.00021012807610738143,-0.016375556789101756,-0.0010128411378296923,0.0031833306822152984,0.0009100970002434356,0.32656097412109375,-1.151211218242981,1.6632683912860315,-2.0812770328917445,-1.571369473134176,2.301532506942749,7.63953484438831e-37,0.020084073767066002,0.018628519028425217,-0.04205236956477165,-0.00012131941912230104,-0.0009218129562214017,0.05746084079146385,0.07661445438861847,-9.308656692504883,0.7217512726783752,47.68867492675781,-0.2612617015838623,-3.2944564819335938,-1.663292407989502,-0.4829866886138916,0.017949633300304413,-0.19995874166488647,24.9375,25.5625,24.75,27.3125,28.125,28.6875
1.0,-0.27106178548464227,-0.20620831308358056,-0.6682677773862808,-0.05454541474975361,0.013683812325331113,-0.07723494489896823,-0.5387984047567487,-0.32449261590075384,0.2592743556478667,-3.078652644831501,0.6247626235279761,6.75641935696571e-06,-0.0009114482192900428,-0.00029615547545115543,-0.01693890105632255,-0.0005604747784137114,0.0018248412155298357,0.0008654935630063315,0.32658493518829346,-1.1511267882636567,1.6633408705340784,-2.081444402734274,-1.571369473134176,2.3015568256378174,1.375094183041943e-40,0.02141460031270981,0.017856745049357414,-0.04117933288216591,-0.00011365668615326285,-0.000876742706168443,0.019153613597154617,0.1149216815829277,-9.193734169006348,0.7195101380348206,47.703006744384766,-0.2786003351211548,-3.350546360015869,-1.7202799320220947,-0.48295336961746216,0.009746139869093895,-0.19238489866256714,24.9375,25.5625,24.75,27.3125,28.125,28.6875
1.0,-0.41444496449312573,-0.4970865330148302,-0.5247332123843926,-0.05014380873753946,0.009792048773188119,-0.07251117072438033,-0.5387970148188286,-0.32448438773910143,0.2591860053190827,-3.0786343834703978,0.624700109171975,-7.547535177408838e-05,-0.0005594557566641791,-0.00018315528223543338,-0.01835178081964679,0.00048459721780093465,-0.001457609697619148,0.0007338392254250857,0.3265730142593384,-1.1510305267623444,1.6634367148028772,-2.081576009789938,-1.571369473134176,2.3015081882476807,2.5223372357846707e-44,0.022604044526815414,0.01919637806713581,-0.04026441648602486,-4.5274973672349006e-05,-0.0007445003720931709,0.15322890877723694,0.15322890877723694,-9.155426979064941,0.7239871025085449,47.651954650878906,-0.322407990694046,-3.3776352405548096,-1.6689507961273193,-0.5214182138442993,0.014972389675676823,-0.2187829613685608,24.9375,25.5625,24.75,27.3125,28.125,28.6875
1.0,0.6177122429775157,0.42568631372855303,-0.325667106731004,-0.0677008992989886,0.02886588251907151,-0.0853162290035078,-0.5388172534529048,-0.32448470668355345,0.259120959664105,-3.0786542100948364,0.6247426516454475,-3.849061062502223e-05,-0.00047047771144621717,-0.00015314387503357366,-0.019804582439567592,0.0012641724287055125,-0.003769973416558851,0.0006053807345304266,0.32656097412109375,-1.1509218972972413,1.6634734312640589,-2.0817557773985804,-1.571357552205221,2.3015201091766357,0.0,0.024316828697919846,0.020156005397439003,-0.0404965803027153,-4.0248316508950666e-05,-0.0006157797761261463,0.19153612852096558,0.15322890877723694,-9.174580574035645,0.7642692923545837,47.6707649230957,-0.34538668394088745,-3.420403480529785,-1.676208734512329,-0.5364258885383606,0.01093817874789238,-0.19373095035552979,24.9375,25.5625,24.75,27.3125,28.125,28.6875
1.0,0.3756697462703799,-0.008336332380438988,-0.554256521609037,-0.050870042000999316,0.002276383464596958,-0.0758110561120076,-0.5388320214184058,-0.3244741484511169,0.25904772221083805,-3.078674244138002,0.624766177163021,2.6045320709009753e-05,-0.0005114081000484521,-0.00010311847307342402,-0.019680064725162153,0.0010432066715164972,-0.0031317922897479288,0.0004693815699051328,0.32653698325157166,-1.1508261126330872,1.6635573546039026,-2.0819832287230433,-1.571357552205221,2.3015081882476807,-9.905685146804899e-05,0.024138810113072395,0.020258596166968346,-0.04109649732708931,-3.694015322253108e-05,-0.0005791110452264547,0.17238251864910126,0.13407529890537262,-9.193734169006348,0.7530794739723206,47.687782287597656,-0.30986905097961426,-3.2672791481018066,-1.6478676795959473,-0.57649827003479,0.008479139767587185,-0.2152830958366394,24.9375,25.5625,24.75,27.3125,28.125,28.6875
1.0,0.6813709133111983,0.32469665324957686,-0.3935286462049551,-0.06282181109633662,0.011474134894819785,-0.08871524052978293,-0.538826898583973,-0.32448287980447293,0.2589610132947174,-3.078622451662391,0.6246599083311304,-1.8048529570686223e-05,-0.0001567992357252037,4.120672903795235e-05,-0.02146340865094657,0.0016409842104417166,-0.00490342079586046,0.0004689397126998586,0.326560914516449,-1.1507178407958527,1.6636303106891077,-2.0821038685240687,-1.5714057127581995,2.3014724254608154,-0.0001352840627077967,0.02558322437107563,0.022757407277822495,-0.043170008808374405,-3.413735976209864e-05,-0.0006152568967081606,0.15322890877723694,0.09576806426048279,-9.193734169006348,0.6725152134895325,47.67255783081055,-0.3263969421386719,-3.409163236618042,-1.6571778059005737,-0.5954932570457458,0.01482821349054575,-0.21547290682792664,24.9375,25.5625,24.75,27.3125,28.125,28.6875
1.0,-0.027161695542678332,-0.4947665504146373,-0.4742759393177497,-0.05346268152700138,0.0024439306717782966,-0.07295221162543217,-0.5388189454213647,-0.32447871628552244,0.25887270044436395,-3.0786318289895704,0.624777419290663,-0.0001182115737233948,-0.000216650600324086,3.8126675462434534e-05,-0.02168316997604523,0.0023230471551071922,-0.006912998467092201,0.00042698689815729785,0.3265489935874939,-1.150633530025818,1.663750473652975,-2.0822698078551234,-1.571345631276266,2.301532506942749,-0.00016230395704042166,0.026147324591875076,0.021934762597084045,-0.04078925773501396,-3.1729796319268644e-05,-0.0005993609083816409,0.17238251864910126,0.09576806426048279,-9.174580574035645,0.7060845494270325,47.702110290527344,-0.28045469522476196,-3.4230196475982666,-1.6536943912506104,-0.6421409845352173,0.011018525809049606,-0.19705894589424133,24.9375,25.5625,24.75,27.3125,28.125,28.6875
1.0,0.040330568455496124,-0.4543423978937364,-0.43452819586093816,-0.06295107631701781,0.008574964366429638,-0.08381958768980262,-0.5388184592550924,-0.32449034795788817,0.25879154611317623,-3.0786116356768893,0.6246959233531026,-0.0001044699723214262,-3.319621631040432e-05,9.2847070265575e-05,-0.023253870319448342,0.002804445766938733,-0.008341658785459921,0.0004236749869152124,0.3265729546546936,-1.1505251091769715,1.6638215223895472,-2.0824386082091273,-1.5713813940631312,2.3015081882476807,-0.00015028519555926323,0.027720900252461433,0.023722782731056213,-0.04264329746365547,-2.963985207316e-05,-0.0005843555554747581,0.15322890877723694,0.09576806426048279,-9.136273384094238,0.7105615139007568,47.6976318359375,-0.32139289379119873,-3.3930583000183105,-1.59158456325531,-0.7001570463180542,0.011821764521300793,-0.21112076938152313,24.9375,25.5625,24.75,27.3125,28.125,28.6875
1.0,0.2802290496892035,-0.15808600763613337,-0.45297767473004596,-0.07025510709424093,0.022915581614234196,-0.07928916780147272,-0.5388104357307357,-0.3244888497787344,0.2586973015225573,-3.0786076386623784,0.6246761046551385,-0.0001634405946940185,4.706198953030192e-05,0.00011505911363197107,-0.023545324629118174,0.002365008128963458,-0.006986498226783265,0.00048222986056066204,0.3265729546546936,-1.150429145698883,1.6639421621905726,-2.082618852654928,-1.571369473134176,2.3014962673187256,-0.00013870387920178473,0.027774710208177567,0.024913795292377472,-0.04531254991889,-5.193852848606184e-05,-0.0006322482950054109,0.09576806426048279,0.13407528400421143,-9.21288776397705,0.7217512726783752,47.686885833740234,-0.3090669512748718,-3.3335108757019043,-1.6791419982910156,-0.718120813369751,0.027949757874011993,-0.20210137963294983,24.9375,25.5625,24.75,27.3125,28.125,28.6875
1.0,-0.346390424899186,-0.1538403113383444,-0.5843580763674034,-0.05244127215433947,0.005702470621611465,-0.07743675758149637,-0.5388166305734817,-0.32448062577103176,0.25859030903568647,-3.0785504102481247,0.6247028840323419,-0.00022661975908950323,-0.0001628543616059671,3.736773490568313e-05,-0.025307172615324225,0.0032380805932018275,-0.00956382026053215,0.0005373332634060685,0.326560914516449,-1.1502962869456788,1.6640375296222132,-2.0827866993346156,-1.5713933149920862,2.3015081882476807,-0.0001287802297156304,0.030536198988556862,0.025118310004472733,-0.04555739089846611,-5.236314973444678e-05,-0.0006770708714611828,0.15322890877723694,0.07661445438861847,-9.174580574035645,0.7038487195968628,47.668975830078125,-0.37452319264411926,-3.4465856552124023,-1.6449251174926758,-0.7947490811347961,0.01818496361374855,-0.20471373200416565,24.9375,25.5625,24.75,27.3125,28.125,28.6875
1.0,-0.40902071701878695,-0.35927564313539073,-0.4213728081048201,-0.05538579071776249,0.02052437621445198,-0.06684695249740771,-0.538819295330688,-0.3244931045363778,0.258464878314835,-3.0785587538914596,0.6246662872934817,-0.00033675147648503837,-0.00010295978958946213,5.193332129722613e-05,-0.02556415303896781,0.0023633375520470505,-0.007010465861845419,0.0005032284324703246,0.326572984457016,-1.150128499870636,1.6641343275653284,-2.0829912624754847,-1.571357552205221,2.3014962673187256,-0.00012018147390335798,0.03048436902463436,0.026739126071333885,-0.049825385212898254,-4.9497826694278046e-05,-0.0006359553663060069,0.09576806426048279,0.07661445438861847,-9.174580574035645,0.7195101380348206,47.6949462890625,-0.3410337567329407,-3.402341365814209,-1.6656674146652222,-0.808771550655365,-0.004633566364645958,-0.19665858149528503,24.9375,25.5625,24.75,27.3125,28.125,28.6875
1.0,-0.3720157119595218,-0.12310159197712818,-0.5236216730899735,-0.06928530977086206,0.032736222322269255,-0.07874310088955852,-0.5388298306912247,-0.32447987131812933,0.25837823726454745,-3.0785263248303285,0.6247172476736997,-0.000358648036024282,-0.00022113054849772263,6.523957066775782e-06,-0.025643950719859518,0.0015774854390002142,-0.00471839489766382,0.0005184663168003529,0.3265490233898163,-1.150020645265915,1.6642187277423304,-2.083160539666647,-1.571369473134176,2.3015081882476807,-0.00011265951616223902,0.030634265393018723,0.02745639905333519,-0.0531156100332737,-4.69175138277933e-05,-0.0006449238862842321,0.0,0.019153613597154617,-9.232041358947754,0.7038487195968628,47.66001510620117,-0.3311336040496826,-3.506119728088379,-1.6437801122665405,-0.8434315919876099,0.006382144521921873,-0.2067299485206604,24.9375,25.5625,24.75,27.3125,28.125,28.6875
1.0,-0.5307821287217566,0.061186665812185875,-0.6397943834673325,-0.05990282792470172,0.027352255202108905,-0.08312806373151832,-0.538827738042674,-0.324467520032662,0.2582534311435748,-3.0784717889354987,0.6247445864527849,-0.00037589555370154035,-0.000671033594462279,-0.00015121985399640955,-0.026394576230195543,-5.364072106502218e-05,4.1286503784890836e-05,0.0005454766418047923,0.32653698325157166,-1.1498881739429017,1.6643746534930628,-2.0834151707091273,-1.5714057127581995,2.3015201091766357,-0.00010602328256936744,0.03205837309360504,0.028980696573853493,-0.061095453798770905,-4.4592659833142534e-05,-0.0006681791273877025,0.05746084079146385,0.07661445438861847,-9.289502143859863,0.6680382490158081,47.64657974243164,-0.3547619581222534,-3.444552421569824,-1.6850736141204834,-0.8055129051208496,0.008193927817046642,-0.19758975505828857,24.9375,25.5625,24.75,27.3125,28.125,28.6875
1.0,-0.5208277961049042,-0.4889604177919239,-0.675475045100565,-0.06324439526886548,0.04030821587542216,-0.06636659960435522,-0.538836605301905,-0.3244936411970139,0.25816857010748395,-3.078573684369167,0.6247669455679958,-0.0003208055796366249,-0.001497306509973036,-0.00043860675964404864,-0.027463216560338014,-0.0023206716343633924,0.006653482181108137,0.00035361120430966574,0.32658490538597107,-1.149695263510086,1.6645544211017054,-2.08382572750234,-1.5713813940631312,2.3014962673187256,-9.741643589222804e-05,0.034504566341638565,0.03046802431344986,-0.07201895117759705,-4.150769018451683e-05,-0.0004716472758445889,0.0,0.019153613597154617,-9.366117477416992,0.7217512726783752,47.65911865234375,-0.39794015884399414,-3.5157225131988525,-1.6868284940719604,-0.7213395833969116,-0.0002588618081063032,-0.19108864665031433,24.9375,25.5625,24.75,27.3125,28.125,28.6875
1.0,-0.5604884657293203,-0.18963453109908993,-0.6556318511986394,-0.07717826068585865,0.03931382201074285,-0.0871979313319914,-0.5388244971936155,-0.32448448476007563,0.2579720013930486,-3.0785244134944696,0.6246599265838888,-0.0003609589180007633,-0.0014712304792338727,-0.0004330423421870115,-0.027998688991609382,-0.0030292574971256224,0.008720406205139744,0.00027528940434997707,0.32656094431877136,-1.1495515567115326,1.664698902760641,-2.08410181621694,-1.5713813940631312,2.3014843463897705,-9.241483348887414e-05,0.034898318350315094,0.032085854560136795,-0.07621552795171738,-3.967775410274044e-05,-0.00038982430123724043,0.019153613597154617,0.13407529890537262,-9.346963882446289,0.6792280077934265,47.65374755859375,-0.4174402356147766,-3.4827511310577393,-1.7706044912338257,-0.64922034740448,0.003397261491045356,-0.1968744695186615,24.9375,25.5625,24.75,27.3125,28.125,28.6875
1.0,-0.6304255227987344,-0.30764852380029356,-0.6870263867460513,-0.06702203873039438,0.028996530987569838,-0.08090766356709948,-0.5388457881152978,-0.3244774128638546,0.25785770817618986,-3.0785633750723793,0.6247068253323885,-0.0002717190016709777,-0.0019532794731041115,-0.0006001940945902205,-0.029212679923151155,-0.003998453053144251,0.011538337933186846,0.00022006518371884038,0.32653698325157166,-1.149394766693451,1.66481858888735,-2.0844513378539027,-1.571369473134176,2.3014845848083496,-8.790178981143981e-05,0.03711584210395813,0.03317226842045784,-0.08249938488006592,-3.8002312066964805e-05,-0.00033221489866264164,0.0,0.0,-9.366117477416992,0.6814691424369812,47.66718673706055,-0.43898504972457886,-3.585111379623413,-1.7335577011108398,-0.5518710613250732,0.007628618739545345,-0.18703435361385345,24.9375,25.5625,24.75,27.3125,28.125,28.6875
1.0,-0.32193805229346895,-0.6127534347618488,-0.622290289796447,-0.058298008783088225,0.023234844119209706,-0.07507257886611418,-0.538848166220745,-0.3244937713640525,0.25777360333264376,-3.078635319149038,0.624683225701002,-9.584332138098928e-05,-0.0017533558417418367,-0.0005210622672478622,-0.03115705941270342,-0.002855013205165172,0.008166604201510271,0.00016091762130115384,0.32656094431877136,-1.149286226635315,1.6649392286883753,-2.0848103962340296,-1.571369473134176,2.3014845848083496,-0.00010474980808794498,0.039264217019081116,0.03459407389163971,-0.08250921964645386,-3.646253389888443e-05,-0.0002894476056098938,0.019153613597154617,0.15322890877723694,-9.385271072387695,0.7374180555343628,47.651954650878906,-0.41374215483665466,-3.6011900901794434,-1.8024225234985352,-0.5087687969207764,0.009399146772921085,-0.19202542304992676,24.9375,25.5625,24.75,27.3125,28.125,28.6875
1.0,0.18886088630603315,0.35531812350456077,-0.48811054743298155,-0.05624133788730439,0.009530776484983239,-0.08014433755811039,-0.5388587877943029,-0.32449210884797747,0.257626242765091,-3.0786371264629926,0.6246838114319601,-0.00016645353684053597,-0.00097676799810872,-0.00020612479312003587,-0.031114981093407365,-0.0014475454872070893,0.004049401446126185,5.2127334154300324e-05,0.3265489935874939,-1.1490948659232636,1.6650713125811976,-2.0850960216917933,-1.571345631276266,2.3014726638793945,-0.00018242906662635505,0.03787907212972641,0.03529510274529457,-0.0774739682674408,-3.5042892704950646e-05,-0.00025644231936894357,0.09576806426048279,0.15322890877723694,-9.308655738830566,0.6926589012145996,47.679718017578125,-0.433687299489975,-3.5935325622558594,-1.7686156034469604,-0.5267600417137146,0.007135404273867607,-0.1980348825454712,24.9375,25.5625,24.75,27.3125,28.125,28.6875
1.0,0.05787987263671274,0.10427960152754467,-0.5773954869827126,-0.02920981210076875,-0.013921664801659078,-0.07436745598379187,-0.5388567866425663,-0.32450570141728524,0.25750977565059185,-3.0786396108769125,0.624703395314526,-0.00011350030094252292,-0.0006003687247551241,-5.783525155081147e-05,-0.033018132216709295,0.0005859382001298032,-0.0018776807189031033,-4.095873485600223e-07,0.3265729248523712,-1.1489502352527161,1.665203873311178,-2.085405489007467,-1.571357552205221,2.3015084266662598,-0.00021056288096588105,0.039830584079027176,0.036103252321481705,-0.07396740466356277,-4.947207708028145e-05,-0.00023019679065328091,0.17238251864910126,0.1149216741323471,-9.174580574035645,0.7597975730895996,47.718231201171875,-0.419208824634552,-3.672726631164551,-1.7810724973678589,-0.5698221921920776,0.012513061985373497,-0.19741353392601013,24.9375,25.5625,24.75,27.3125,28.125,28.6875
1.0,0.20498930659755873,0.524568603715457,-0.3785358697641903,-0.04776731865116587,-0.006045275566245949,-0.07945465490929565,-0.5388693428024541,-0.3244736489681717,0.25735879244953874,-3.078574921992593,0.6247483154373319,-0.00011129985540129828,-0.0006503671080304048,0.0003283710884498679,-0.034645682254394634,0.0019173955790794494,-0.005795814805352951,-0.0006414377048429151,0.3265247941017151,-1.1487817925265809,1.665384594594137,-2.0857283077635707,-1.5714057127581995,2.3014965057373047,-0.0008312220452353358,0.04178917780518532,0.03671678528189659,-0.07240135222673416,-4.876186358160339e-05,-0.00020882461103610694,0.2106897532939911,0.019153613597154617,-9.02135181427002,0.6456586718559265,47.67792892456055,-0.35785993933677673,-3.6878013610839844,-1.8404159545898438,-0.5945203900337219,-0.001587962033227086,-0.18475353717803955,24.9375,25.5625,24.75,27.3125,28.125,28.6875
1.0,0.2147574391379541,0.31919006690112467,-0.2504038409173793,-0.03994558849022956,-0.012456047331599183,-0.07327998112739112,-0.5388659250680831,-0.3244865103393454,0.25724062895795563,-3.0786224746561803,0.6247773436922925,-0.0001586842227607613,-3.873102669202812e-05,0.0005528395962635519,-0.0337117381629269,0.002271291884723793,-0.006820499113384989,-0.0006835124671625796,0.32653671503067017,-1.14863874137912,1.6655152479754847,-2.0860024891295375,-1.571345631276266,2.301520347595215,-0.0008564342861063778,0.039468199014663696,0.03717108815908432,-0.06945060193538666,-4.706635809270665e-05,-0.00019108578271698207,0.2298433631658554,0.038307227194309235,-8.944737434387207,0.6881819367408752,47.699424743652344,-0.44766953587532043,-3.5265626907348633,-1.8535903692245483,-0.6422300934791565,-0.00323015870526433,-0.19626908004283905,24.9375,25.5625,24.75,27.3125,28.125,28.6875
1.0,0.651022364118276,0.16595995174473893,-0.33366605690670353,-0.03701128829923617,-0.015919728404508747,-0.07652620245031014,-0.5388544162593025,-0.3245009860838784,0.25709837656685225,-3.078563200999643,0.6247074896837482,-0.00020496204357255612,0.0004833685155773007,0.0006196211845102224,-0.03584704142954164,0.0038721435575852087,-0.011485433255392263,-0.0005238767624327205,0.3265727758407593,-1.148470090036728,1.6656597296344202,-2.0862537823119105,-1.5713933149920862,2.301520347595215,-0.0006828125333413482,0.04140566289424896,0.039072953164577484,-0.06835795193910599,-5.9634254284901544e-05,-0.0001761252642609179,0.24899697303771973,0.09576806426048279,-8.9064302444458,0.6747510433197021,47.67792892456055,-0.4304237961769104,-3.6065332889556885,-1.8091998100280762,-0.7049412131309509,0.005218057427555323,-0.18893778324127197,24.9375,25.5625,24.75,27.3125,28.125,28.6875
1.0,0.18216385219539138,-0.03712063636296892,-0.10627170732670797,-0.062092733901602706,-0.009024525838420559,-0.08047205547692454,-0.538874247113093,-0.3244855961783586,0.2569792454450636,-3.0785769861623336,0.62474904953149,-0.00018481757034848027,0.0009239504712878665,0.000736397039402044,-0.03630181945921776,0.00456641938126331,-0.01352283518103191,-0.00048478974736531434,0.32653677463531494,-1.1483143132976075,1.6657803694354456,-2.0865522823729457,-1.5713813940631312,2.3015084266662598,-0.000631556729786098,0.0412260927259922,0.04005439206957817,-0.06700737029314041,-5.866033097845502e-05,-0.00016333725943695754,0.24899697303771973,0.07661445438861847,-8.925583839416504,0.7463666796684265,47.69136428833008,-0.4473814368247986,-3.6058950424194336,-1.846679449081421,-0.7934362888336182,-0.011050446890294552,-0.17618629336357117,24.9375,25.5625,24.75,27.3125,28.125,28.6875
1.0,0.022922630714975578,-0.6451631353225845,-0.37175358916319495,-0.07023496615327757,0.018798351587007975,-0.07284655025005422,-0.5388646269285631,-0.3244848341236352,0.2568174894856488,-3.078538710420792,0.6247413092309402,-0.000365269051924414,8.144718701657435e-05,0.00037398478935127223,-0.03591953684638665,0.0030106319605917096,-0.008978084341594719,-0.00038213324908582705,0.3265368342399597,-1.1481339496425171,1.665947739277975,-2.086781164208883,-1.571357552205221,2.3015084266662598,-0.0005159806460142136,0.042293351143598557,0.03873275965452194,-0.07155665755271912,-5.681301627191715e-05,-0.0001522808597655967,0.19153612852096558,0.05746084079146385,-9.117119789123535,0.7150384783744812,47.65016555786133,-0.5526667833328247,-3.5985944271087646,-1.775573492050171,-0.80987948179245,-0.006049087271094322,-0.19402408599853516,24.9375,25.5625,24.75,27.3125,28.125,28.6875
1.0,-0.6070317930344877,-0.8977696406047672,-0.6754021768419478,-0.0766691175512696,0.025239833427130078,-0.07525314469335938,-0.5388609440905839,-0.32447725774697,0.2566780277445237,-3.0784631414503285,0.6247068014561116,-0.00039690951100799284,0.00010189931766325668,0.0003766595103707998,-0.036989151475488216,0.0018744210055664974,-0.005535015054854159,-0.00038105984597389326,0.3265368342399597,-1.1479778748801728,1.6661041418658655,-2.0870353184142054,-1.5714176336871546,2.3014965057373047,-0.0005027329898439348,0.04321280121803284,0.0415499284863472,-0.07891874015331268,-9.643461817177013e-05,-0.00014262703189160675,0.17238251864910126,0.26815059781074524,-9.251194953918457,0.6814691424369812,47.64031219482422,-0.4374467730522156,-3.598395586013794,-1.8191840648651123,-0.8068892359733582,-0.004973296541720629,-0.18503403663635254,24.9375,25.5625,24.75,27.3125,28.125,28.6875
1.0,-1.27100883996832,-1.2927481534630219,-0.8321462824596744,-0.08462051427595178,0.03136899704306795,-0.06619908504893017,-0.5388451406410896,-0.324499030157993,0.2565175788849843,-3.078505290812479,0.6246961487401911,-0.0004058212413795084,-0.0005849363944221747,0.00013698754645057203,-0.03666567205719503,-0.0006675651034450638,0.0018968069596219407,-0.0003851688770016234,0.32657283544540405,-1.147797779445984,1.66630727449526,-2.087433477441305,-1.5713813940631312,2.301520347595215,-0.0004947461420670152,0.04367208108305931,0.042213279753923416,-0.08789590001106262,-9.280995436711237e-05,-0.00013412395492196083,0.09576806426048279,0.2298433631658554,-9.366117477416992,0.7732232213020325,47.702110290527344,-0.4312121868133545,-3.5657854080200195,-1.8279542922973633,-0.7555263638496399,0.00033664319198578596,-0.1771615594625473,24.9375,25.5625,24.75,27.3125,28.125,28.6875
1.0,-1.2404039513146223,-0.8940140743774979,-0.7769258180971641,-0.08562649127047894,0.03928561494739352,-0.07757813648407234,-0.5388585591656417,-0.3244646518604447,0.2563112984362007,-3.0784297896060595,0.624738759565895,-0.0005836595186826619,-0.0011641787501993712,-0.00010430022917105674,-0.03693929891835396,-0.0027583515024137517,0.008002751235112933,-0.0003288674158451715,0.3265129029750824,-1.1475577813437958,1.6665118376361292,-2.0877472362914027,-1.5713813940631312,2.3014965057373047,-0.00042760471114888787,0.044766854494810104,0.043259408324956894,-0.0964907854795456,-8.913461351767182e-05,-0.00012657791376113892,-0.038307227194309235,0.2106897532939911,-9.442731857299805,0.7217512726783752,47.69584274291992,-0.5044757723808289,-3.596153497695923,-1.831601858139038,-0.6658462285995483,-0.002868406707420945,-0.18841496109962463,24.9375,25.5625,24.75,27.3125,28.125,28.6875
1.0,-1.1763625986874238,-0.6397501599892146,-1.0672162208364027,-0.07490185713707621,0.032736222070118004,-0.07266553492594048,-0.5388502679074578,-0.3244696425154587,0.25615596879813046,-3.0784581964885454,0.6247253935947004,-0.0005174183123742563,-0.0016461271463493788,-0.00030110230403946063,-0.03767999952774845,-0.004107342351399669,0.011957771954426249,-0.00030775803793020736,0.3265249729156494,-1.1473894578269501,1.6667278448687952,-2.0881806812682093,-1.5713813940631312,2.3014965057373047,-0.0003764872089959681,0.046382252126932144,0.04422567039728165,-0.10325118154287338,-9.417577530257404e-05,-9.902739839162678e-05,0.0,0.2106897532939911,-9.404424667358398,0.7239871025085449,47.702110290527344,-0.5498340129852295,-3.6226985454559326,-1.8520536422729492,-0.5558244585990906,-0.01521589420735836,-0.1815938949584961,24.9375,25.5625,24.75,27.3125,28.125,28.6875
1.0,-0.7390685279282154,-0.1404479651108385,-1.263243500129548,-0.066742177477184,0.018057324969987985,-0.07664852343150501,-0.5388583107539658,-0.32451248119519804,0.25604218272597423,-3.0785713836568944,0.6246145246654924,-0.0003172578975734539,-0.001282884543564893,-0.00020283041178919837,-0.03897069709511141,-0.0025802857703026926,0.007488560097077544,-0.00027411918232289205,0.3265848159790039,-1.1472091239741822,1.6668346563922327,-2.0886227093138636,-1.571369473134176,2.3014726638793945,-0.00033628943492658436,0.04757233336567879,0.0448404997587204,-0.10033318400382996,-9.907198545988649e-05,-9.10340531845577e-05,0.0,0.07661445438861847,-9.346963882446289,0.7508436441421509,47.687782287597656,-0.5394548177719116,-3.6746556758880615,-1.9096179008483887,-0.5556735992431641,-0.004744299687445164,-0.16159380972385406,24.9375,25.5625,24.75,27.3125,28.125,28.6875
1.0,0.31253585018382557,0.6995133728610406,-1.032711410595504,-0.027769311755730313,0.00013072661708769806,-0.07959013948040433,-0.5388884911544803,-0.3244878266173521,0.25579897895873266,-3.0785307721250708,0.6247405351841157,-0.00024657748233252596,-0.0005419102948908676,2.0591276529947422e-05,-0.040165918238792196,0.00036099795844332633,-0.0011056217061966036,-0.00023051496463399038,0.3265369236469269,-1.1468971532634278,1.667086426411764,-2.089217802087301,-1.5714057127581995,2.3015084266662598,-0.00028986638062633574,0.04823852330446243,0.04469772428274155,-0.09177302569150925,-0.00010754371032817289,-8.460290700895712e-05,0.1149216815829277,0.0,-9.346963882446289,0.6747510433197021,47.731666564941406,-0.5472865104675293,-3.647869110107422,-1.8437851667404175,-0.6614440679550171,-0.014486247673630714,-0.15016776323318481,24.9375,25.5625,24.75,27.3125,28.125,28.6875
1.0,0.3097674476913181,0.6678189433117979,-1.111904116319981,-0.024016234308924113,-0.0026488814007315543,-0.07534540070674144,-0.5388766027897097,-0.32448753054079693,0.25561149382515874,-3.078541349652051,0.6246275492817137,-0.00039347402869102064,7.801304376866748e-05,0.00024065494242652186,-0.04218881029082517,0.0027074143610484156,-0.007997947819065617,-0.00024559170889325955,0.3265368938446045,-1.1466925901225586,1.66730243364443,-2.0895515880980433,-1.571369473134176,2.301436424255371,-0.0003033359535038471,0.04993083328008652,0.04596104472875595,-0.0874478667974472,-0.00010589940211502835,-8.080484985839576e-05,0.15322890877723694,-0.24899697303771973,-9.289502143859863,0.6881819367408752,47.70838165283203,-0.5835686922073364,-3.6485190391540527,-1.7615184783935547,-0.7264046669006348,-0.0026614824309945107,-0.17104175686836243,24.9375,25.5625,24.75,27.3125,28.125,28.6875
1.0,-0.04461776625493258,0.11699893495156194,-1.0261537100858213,-0.01432334179811612,-0.008232322293104926,-0.06546976388200797,-0.538881101339527,-0.32448129986401286,0.2554600387345854,-3.0785295696479933,0.6247216193413189,-0.0003756440951081377,-2.8230399455986076e-05,0.00020120912891118575,-0.038842329691435855,0.0013313520538265403,-0.003946107941418151,-0.0002453811271943186,0.3265249729156494,-1.1465143126300354,1.6674817244159144,-2.0899225674071253,-1.571369473134176,2.3014845848083496,-0.0002996272232849151,0.04588807001709938,0.04350578039884567,-0.08522897958755493,-0.00010246314923278987,-7.733311940683052e-05,0.325611412525177,-0.17238251864910126,-9.327810287475586,0.7396538853645325,47.699424743652344,-0.5637442469596863,-3.3539319038391113,-1.6530922651290894,-0.8093187212944031,0.0017115920782089233,-0.162027508020401,24.9375,25.5625,24.75,27.3125,28.125,28.6875
1.0,-0.040593804479403486,0.16284060411645437,-0.8010355499435422,-0.0472305658791612,0.018676061200496533,-0.07830401306676311,-0.5388935534396353,-0.3244739026135714,0.25531905437384783,-3.0784974191264087,0.6247535538108866,-0.0003318912053228621,8.515113351547129e-05,0.0002794228041264862,-0.04125964549727476,0.0017077426528382738,-0.005080287394108061,-0.0003105707899529361,0.3265129327774048,-1.1463334423354645,1.6676257292376917,-2.0902587376036585,-1.5714057127581995,2.3014965057373047,-0.00036059002741239965,0.04857417941093445,0.04620371386408806,-0.08941806107759476,-9.923527977662161e-05,-7.414738502120599e-05,0.09576806426048279,-0.13407529890537262,-9.385271072387695,0.6702793836593628,47.71017074584961,-0.5380496978759766,-3.4425699710845947,-1.741005778312683,-0.8606570363044739,-0.009405175223946571,-0.16323797404766083,24.9375,25.5625,24.75,27.3125,28.125,28.6875
1.0,-1.0785976327807874,-0.955995179400507,-1.083145151955499,-0.06567195063589688,0.028879476654228606,-0.07140009425853541,-0.5388821548473512,-0.3244658973536636,0.2551374535761212,-3.078481869326494,0.6247509861619102,-0.0004884464743133157,-0.0004130665788474094,0.0005213305850623269,-0.03954650611311863,-0.001208419074873381,0.0035109308495911936,-0.0009627845783465776,0.3265007734298706,-1.146142230635025,1.6678426901446741,-2.0905729732909144,-1.571369473134176,2.3014845848083496,-0.000993167283013463,0.04644126072525978,0.04706575348973274,-0.0972198098897934,-0.00010948551062028855,-5.8004981838166714e-05,0.2106897532939911,0.09576806426048279,-9.385271072387695,0.6993717551231384,47.730770111083984,-0.5408308506011963,-3.3486247062683105,-1.7683205604553223,-0.8193264603614807,-0.031067444011569023,-0.16047005355358124,24.9375,25.5625,24.75,27.3125,28.125,28.6875
1.0,-1.3528143315726686,-1.655006288198053,-1.1893934506873338,-0.0875850945769418,0.04932495206693393,-0.0686118521500297,-0.538869635444805,-0.3244849329866394,0.25498984559339133,-3.078509642539888,0.6247183679625674,-0.00043411048967429924,-0.0018263056948118462,-2.9747306581963153e-06,-0.03970212315649316,-0.0048016872134794995,0.014011071090366584,-0.0009093356771186345,0.3265366852283478,-1.1459736985019227,1.6680334250079554,-2.0909725628294886,-1.571369473134176,2.3014965057373047,-0.0009277815697714686,0.048802513629198074,0.04721030965447426,-0.11082356423139572,-0.0001066876866389066,-5.1397295464994386e-05,0.038307227194309235,0.19153612852096558,-9.59596061706543,0.7530794739723206,47.72270965576172,-0.5415157675743103,-3.2904534339904785,-1.628311038017273,-0.7151716947555542,-0.019705191254615784,-0.1513034850358963,24.9375,25.5625,24.75,27.3125,28.125,28.6875
1.0,-1.6426339024768843,-1.927292849965757,-1.3155040214420226,-0.10592494430253846,0.04852117949972755,-0.06689499353026829,-0.5388811654363587,-0.32447331519171907,0.25481998203960254,-3.078522849606366,0.6247786814574581,-0.00036878874961418214,-0.002365652322738993,-0.00028550548434239196,-0.039867909912437355,-0.006862820293716121,0.02025935223144607,-0.0007510109517802585,0.32651278376579285,-1.1457694631865998,1.6682379881488245,-2.0914298496642054,-1.571369473134176,2.3015084266662598,-0.0007643377757631242,0.04974399879574776,0.04821208864450455,-0.11934584379196167,-0.00017641672457102686,-4.949415597366169e-05,-0.038307227194309235,0.325611412525177,-9.576807022094727,0.6904177665710449,47.731666564941406,-0.5482348203659058,-3.221968650817871,-1.757178783416748,-0.6013498306274414,-0.028071561828255653,-0.15481522679328918,24.9375,25.5625,24.75,27.3125,28.125,28.6875
1.0,-0.8263777382218989,-1.3804736989750435,-1.207890443348841,-0.08738375203921009,0.030701625161790223,-0.06471299893270453,-0.5388823888428285,-0.3244621685502445,0.25467455816299733,-3.078526012235677,0.6248176755171977,-0.00022818529262367407,-0.002216212319179982,-0.00026165687580577196,-0.04049666862721609,-0.006070122500967388,0.01798436667280709,-0.0007073770563238063,0.32650086283683777,-1.1456132692149659,1.6684535185443323,-2.091884275475973,-1.5714057127581995,2.301520347595215,-0.000719805306289345,0.050433509051799774,0.048323776572942734,-0.11773793399333954,-0.000193186744581908,-4.781646202900447e-05,-0.038307227194309235,0.4213795065879822,-9.385271072387695,0.7127973437309265,47.690467834472656,-0.520152747631073,-3.2370996475219727,-1.6765379905700684,-0.567994236946106,-0.009195650927722454,-0.1442049890756607,24.9375,25.5625,24.75,27.3125,28.125,28.6875
1.0,0.2781112622430606,-0.20941988700535946,-0.9216185513165788,-0.05457576146152308,0.001975230932407701,-0.07181672971378746,-0.5389196150696307,-0.3244580151566623,0.25449638747544817,-3.0785685504630256,0.6248267423127255,-7.636475720908477e-05,-0.0019803382731756144,-0.00015695101797804614,-0.041460257541703745,-0.004110875223664085,0.012220196960328281,-0.0008247688969878362,0.32647690176963806,-1.1453491014293213,1.6686084906207483,-2.0924087963499964,-1.5714176336871546,2.3014965057373047,-0.0007578840595670044,0.05159515142440796,0.047622665762901306,-0.11211041361093521,-0.0001878796610981226,3.388357436051592e-05,-0.019153613597154617,0.28730422258377075,-9.366117477416992,0.6501356363296509,47.7164421081543,-0.49411290884017944,-3.2414331436157227,-1.5646955966949463,-0.6149461269378662,-0.02099008671939373,-0.13740992546081543,24.9375,25.5625,24.75,27.3125,28.125,28.6875
1.0,0.10237019671719004,0.28120077184617237,-0.5727375944815744,-0.043964135687333546,-0.011294809658558731,-0.07876408887040778,-0.5388920508526995,-0.32449246105400337,0.25434770620122227,-3.078648553213583,0.6247857583921217,-3.8778805127372995e-05,-0.0016766713814015694,0.00012209923443343157,-0.04351765165203563,-0.0018823911235010247,0.005634725932492333,-0.0010939078526781695,0.3265366554260254,-1.1451926094344635,1.6688254515277308,-2.0928384266295375,-1.571369473134176,2.301520347595215,-0.0010300028370693326,0.05380922183394432,0.04829583317041397,-0.10804537683725357,-0.00017568808107171208,3.298281444585882e-05,0.3447650372982025,0.07661445438861847,-9.193734169006348,0.7217512726783752,47.703006744384766,-0.5173256397247314,-3.264681816101074,-1.5282936096191406,-0.6638338565826416,-0.017752066254615784,-0.14118506014347076,24.9375,25.5625,24.75,27.3125,28.125,28.6875
1.0,0.39599171337436206,0.5399998359887909,-0.3961373968730764,-0.025109465327948055,-0.01429945462629913,-0.08212800110785136,-0.5389295909185472,-0.32447154498510605,0.25417043228318814,-3.078648132214578,0.6248054641703487,4.285786404705291e-05,-0.0009207489997220467,0.00048230750215023704,-0.043466035464920054,-0.00035678886148497236,0.0012244273900351326,-0.001257834186476418,0.3264886438846588,-1.144941197042801,1.6689799467669886,-2.093290945092672,-1.5713933149920862,2.3014845848083496,-0.001185412285849452,0.05243999511003494,0.04885891079902649,-0.10257253795862198,-0.00019150243315380067,4.362576873973012e-05,0.3064578175544739,-0.19153612852096558,-9.078812599182129,0.6613254547119141,47.704795837402344,-0.5216755867004395,-3.144658088684082,-1.3136553764343262,-0.7802696228027344,-0.02017807401716709,-0.14299045503139496,24.9375,25.5625,24.75,27.3125,28.125,28.6875
1.0,1.0640421703721699,1.318025243815181,-0.18455215171689726,-0.01775038633170954,-0.015128056057714782,-0.08118724589574491,-0.5389234295368353,-0.32448626872493785,0.25396417541182176,-3.078635554685373,0.624764598316842,-5.1170371752492145e-05,-0.0011324086419849226,0.0003630364291998034,-0.047220419011328764,0.0012259355472952955,-0.0034851441174510124,-0.00118842447768211,0.3265126645565033,-1.1446875196746369,1.6691845099078577,-2.093687196771139,-1.5713813940631312,2.3014845848083496,-0.0011137549299746752,0.05785820260643959,0.05025269836187363,-0.10441617667675018,-0.00018136060680262744,4.6080080210231245e-05,0.49799394607543945,-0.24899697303771973,-8.983044624328613,0.7418897151947021,47.687782287597656,-0.5350119471549988,-3.246157169342041,-1.3501536846160889,-0.8298555612564087,-0.016580481082201004,-0.12975820899009705,24.9375,25.5625,24.75,27.3125,28.125,28.6875
1.0,0.02903329381913175,0.234113069288612,-0.2959804504783524,-0.019256829235823,-0.00992478757758745,-0.06722052161688476,-0.5389322174162777,-0.32449053445576853,0.2538405796884017,-3.0787086107122184,0.6247987178107804,0.00012104643500699842,-0.0011225940946772645,0.00025334571727695754,-0.04521448927839523,-0.002073090393207177,0.006172229658068872,-0.0010318490210173689,0.32651272416114807,-1.1445327860168,1.6693533102618616,-2.094144960443014,-1.571369473134176,2.3014965057373047,-0.0009416669490747154,0.05474385619163513,0.0520746149122715,-0.11332908272743225,-0.0001714900863589719,5.749047704739496e-05,0.2298433631658554,-0.13407529890537262,-8.887276649475098,0.7150384783744812,47.6734504699707,-0.5500598549842834,-3.028012275695801,-1.4082317352294922,-0.7793360352516174,-0.023200012743473053,-0.13476437330245972,24.9375,25.5625,24.75,27.3125,28.125,28.6875
1.0,-0.5245456049602767,-0.44164248739391065,-0.43801092952832654,-0.06278782518359005,0.026843970847021264,-0.0710466424853102,-0.5389207863297821,-0.32448416892349663,0.2536370632765243,-3.0786739887468957,0.6248107997891927,0.00010879750489387272,-0.001428542345056719,-3.7110266315767497e-06,-0.04700472290698563,-0.0036758325327091615,0.010820112969404504,-0.0008084253562528113,0.32651281356811523,-1.1443160337260743,1.6696174780475062,-2.094603200952047,-1.5713933149920862,2.3015084266662598,-0.0007074635941535234,0.0573195181787014,0.05490252003073692,-0.12364909052848816,-0.00016263574070762843,6.460922304540873e-05,0.07661445438861847,0.07661445438861847,-8.944737434387207,0.7351769208908081,47.70121383666992,-0.5719484686851501,-3.292407989501953,-1.559654712677002,-0.6615415215492249,-0.021230079233646393,-0.14199863374233246,24.9375,25.5625,24.75,27.3125,28.125,28.6875
1.0,-1.1712581079563877,-1.2006489722029356,-0.44958071390778814,-0.07219919540190456,0.040676135247685805,-0.07286055912666553,-0.53891162786026,-0.32449787154377574,0.25343322229155407,-3.0787009179069167,0.6247398013680733,0.00010275935919781935,-0.002321222312577489,-0.00042040955392050767,-0.04478664273504057,-0.006516212261371093,0.019126267238864687,-0.0006448772860459294,0.3265368342399597,-1.1440766912749787,1.6698558966266077,-2.095083852807516,-1.5713813940631312,2.3014845848083496,-0.0005360406357795,0.05603977292776108,0.05290128290653229,-0.1291465014219284,-0.00015465061005670577,6.965905777178705e-05,-0.09576806426048279,0.19153612852096558,-9.155426979064941,0.6725152134895325,47.75315856933594,-0.6068835258483887,-3.165872573852539,-1.478135347366333,-0.5485778450965881,-0.011146032251417637,-0.13443729281425476,24.9375,25.5625,24.75,27.3125,28.125,28.6875
1.0,-1.3155314706096142,-1.6165876052873414,-0.7698440401525797,-0.05466659404147627,0.019097699378341524,-0.06014074922688301,-0.538932573232343,-0.324477877748896,0.2532514941576642,-3.078679372219916,0.6248313075390882,0.0002058952220976479,-0.00026195628925358114,0.00029303220344486293,-0.04942306621624498,-0.0007830754906509403,0.002339767882052401,-0.00065202428638379,0.32652491331100464,-1.1437281233123322,1.6702173391925257,-2.0958219967284144,-1.5713933149920862,2.3014845848083496,-0.0005516421515494585,0.058661509305238724,0.05740164592862129,-0.11853004992008209,-0.00016460762708447874,6.659612699877471e-05,-0.17238251864910126,0.3064578175544739,-9.174580574035645,0.7284641265869141,47.70658874511719,-0.5913644433021545,-3.2603821754455566,-1.799116849899292,-0.6139950752258301,-0.029042763635516167,-0.12580230832099915,24.9375,25.5625,24.75,27.3125,28.125,28.6875
1.0,-0.15565923542633112,-0.13098546037033806,-0.7195289078618934,-0.044970767977188957,0.005405516270216414,-0.07409071746934291,-0.5389396464902895,-0.32446468150771896,0.2529289318208683,-3.0786690239210133,0.6248106053993974,0.00016454103770116102,0.0003831793774395716,0.0005048942319307663,-0.05084439873901216,0.0021235302729489085,-0.006207205465413654,-0.0008069252562331188,0.3264769911766052,-1.1434639257243653,1.670419994984762,-2.096285959283346,-1.5714176336871546,2.3014726638793945,-0.0005403656978160143,0.05977923423051834,0.05725583806633949,-0.11047425866127014,-0.0001574210327817127,0.0002362982922932133,-0.038307227194309235,0.24899697303771973,-9.174580574035645,0.7016075849533081,47.718231201171875,-0.6062362194061279,-3.254636287689209,-1.7947230339050293,-0.7010446786880493,-0.02143709361553192,-0.1277533322572708,24.9375,25.5625,24.75,27.3125,28.125,28.6875
1.0,0.26186127207650023,0.5305146206477139,-0.5866728005541514,-0.0434205212156861,-0.004185167011756984,-0.07618165801651745,-0.5389414714202005,-0.3244833527868963,0.2527449350285662,-3.078687056230444,0.6248526367318258,0.00015690896015133922,0.00040514751586503067,0.0005931213312497454,-0.05190724384861329,0.004072144560535601,-0.011832571625719017,-0.0009343015486536338,0.32650089263916016,-1.1432235103896637,1.6706002394305628,-2.096715589562887,-1.5713933149920862,2.301520347595215,-0.0006595354061573744,0.06145763397216797,0.05610297620296478,-0.10504651069641113,-0.00018823951540980488,0.00024694702005945146,0.2106897532939911,0.019153613597154617,-8.983044624328613,0.6859408020973206,47.71375274658203,-0.6206899285316467,-3.393087863922119,-1.7539398670196533,-0.7988452315330505,-0.027241379022598267,-0.1326521337032318,24.9375,25.5625,24.75,27.3125,28.125,28.6875
1.0,0.55716289242253,0.30374661211705395,-0.6703286817439521,-0.02163032949953559,-0.006212875011966091,-0.07120720175104385,-0.5389331666872027,-0.32448029986334803,0.25252288554796787,-3.078659837123605,0.6248095500578643,6.02204809546493e-05,-0.000540434465065753,0.0008460512590822528,-0.05161393630447642,0.0027266471220664325,-0.00793959207318217,-0.0018126096532626722,0.3265005946159363,-1.1429713827422638,1.6708515326129358,-2.0971480808653773,-1.5713933149920862,2.3014965057373047,-0.001547406311146915,0.06223440542817116,0.05528552457690239,-0.10912475734949112,-0.00017403859237674624,0.0002356281183892861,0.2298433631658554,-0.19153612852096558,-9.155426979064941,0.7777001857757568,47.71733474731445,-0.5703668594360352,-3.516801357269287,-1.6890113353729248,-0.799872875213623,-0.024991227313876152,-0.1210285946726799,24.9375,25.5625,24.75,27.3125,28.125,28.6875
1.0,0.10102706890347943,-0.004736604180911451,-0.9364037571932703,-0.034961039402733284,0.005003680018068203,-0.06932205977171886,-0.5389598950638341,-0.3244451749143303,0.2523379782793391,-3.078661519028737,0.6249445216982952,6.077122825046575e-05,-0.0012905019705852492,0.000644174009732848,-0.05138394058220716,-5.9045621350634764e-05,0.00025282010189501864,-0.001878617089996545,0.32642868161201477,-1.142743394975998,1.6710551420794886,-2.0975944004454554,-1.571369473134176,2.3015084266662598,-0.0016281265998259187,0.0628383681178093,0.056248102337121964,-0.11934436112642288,-0.00018544435442890972,0.0002167520287912339,0.26815059781074524,-0.13407529890537262,-9.251194953918457,0.7709873914718628,47.687782287597656,-0.5450369715690613,-3.614506721496582,-1.714697241783142,-0.7137455940246582,-0.020006082952022552,-0.11465947329998016,24.9375,25.5625,24.75,27.3125,28.125,28.6875
1.0,-1.218642643157739,-1.2779731554175595,-1.192177613538697,-0.0644341662296449,0.025514072180234888,-0.058527655809079364,-0.5389552891595184,-0.32445794771295206,0.2521243462432494,-3.0786368789557943,0.6249011261859704,7.728616380670977e-06,-0.002401505027029669,9.108745323496276e-05,-0.05142985698627563,-0.0027373959840594946,0.008072642624620754,-0.001629594524990261,0.32645273208618164,-1.14247880995784,1.6712701956378382,-2.0980283222594203,-1.5713813940631312,2.3015084266662598,-0.0013600698439404368,0.06483370810747147,0.0557967871427536,-0.12915416061878204,-0.00018082847236655653,0.0002318148035556078,0.17238251864910126,-0.019153613597154617,-9.346963882446289,0.6859408020973206,47.69584274291992,-0.5460413098335266,-3.7776198387145996,-1.6826858520507812,-0.5804247856140137,-0.03342355042695999,-0.10470695048570633,24.9375,25.5625,24.75,27.3125,28.125,28.6875
1.0,-0.9654497107777986,-1.2772412185547892,-1.3733192734205963,-0.09467889536092228,0.045821935115208226,-0.0727177695938286,-0.5389374617182365,-0.32446091456126563,0.25190150442725345,-3.078639249963782,0.6248825629795259,-3.49635518241657e-05,-0.0013066380317566623,0.0002487436532114101,-0.05085951135407856,-0.0026789383403619618,0.007961202040517779,-0.0013111745013362488,0.32646477222442627,-1.1422400933555146,1.6715582052813929,-2.0985309086241664,-1.571369473134176,2.3015084266662598,-0.0010265778983011842,0.06209228187799454,0.05826478451490402,-0.12875637412071228,-0.00019402208272367716,0.00024690007558092475,-0.038307227194309235,0.24899697303771973,-9.557653427124023,0.6971306204795837,47.68061828613281,-0.4061746597290039,-3.589388370513916,-1.8979136943817139,-0.5322252511978149,-0.017919201403856277,-0.11007894575595856,24.9375,25.5625,24.75,27.3125,28.125,28.6875
1.0,-0.5046208391220424,-1.1159327169711633,-1.656037595661701,-0.06851555265960141,0.014448473368895213,-0.06284881876648121,-0.538944972784527,-0.32446356302220775,0.25170207563438435,-3.0786593137962366,0.624867481713102,7.808411770440294e-06,-0.00026293078248231037,0.0002718749200477602,-0.051960739151784084,0.0001924354925863322,-0.0004792133424663196,-0.0007828540109881862,0.3264649510383606,-1.141988293533661,1.6717737356769007,-2.099030157128805,-1.571369473134176,2.3014965057373047,-0.0005158602143637836,0.06231299415230751,0.05857226997613907,-0.12036912888288498,-0.0001860607007984072,0.0002328943373868242,-0.07661445438861847,0.40222588181495667,-9.59596061706543,0.7239871025085449,47.704795837402344,-0.36856770515441895,-3.6473679542541504,-1.8197150230407715,-0.5675209760665894,-0.015487117692828178,-0.11858352273702621,24.875,25.5625,24.75,27.3125,28.125,28.6875
1.0,-0.08426304752730057,-0.9733107648991307,-1.4134346956468442,-0.06823742582267216,0.016028550203316925,-0.07154904835255019,-0.5389501074653639,-0.3244525492913377,0.25149225599536346,-3.078602105090161,0.6248749140151071,9.039396020710897e-06,-7.069550857556035e-05,0.00019402817260216935,-0.05305251880945625,0.0020829329666900735,-0.005986203023604373,-0.0006053534491777821,0.3264531195163727,-1.1417358082583924,1.6720016638385218,-2.099483629266256,-1.5714176336871546,2.3014965057373047,-0.00029272306710481644,0.06389816105365753,0.05768740177154541,-0.11524694412946701,-0.00020035933994222432,0.00028085336089134216,0.038307227194309235,0.325611412525177,-9.653421401977539,0.7239871025085449,47.68867492675781,-0.4041152894496918,-3.6409263610839844,-1.8903483152389526,-0.6511760950088501,-0.023849066346883774,-0.11735129356384277,24.875,25.5625,24.75,27.3125,28.125,28.6875
1.0,-0.4548915224503057,-0.8681289111799929,-1.5073919280246708,-0.05503826791622641,0.0002453139737697216,-0.055885100197275855,-0.5389673618550417,-0.32444667790071163,0.2512914359201274,-3.0786279672784103,0.6248996584539004,-2.4490311041595635e-05,0.0010764357903680897,0.00048570177354761215,-0.05369763407570666,0.0047389209976526625,-0.013795908642533767,-0.00042378167408439375,0.32642921805381775,-1.1414723557284852,1.6721933523761194,-2.0999356708922328,-1.5713813940631312,2.3014845848083496,-0.00014174800890032202,0.06304281949996948,0.05847932770848274,-0.1069345772266388,-0.00019018629973288625,0.00025373228709213436,0.2298433631658554,0.15322890877723694,-9.615114212036133,0.7396538853645325,47.692256927490234,-0.3996398448944092,-3.6522183418273926,-1.9201292991638184,-0.7365365624427795,-0.03307609632611275,-0.11192059516906738,24.875,25.5625,24.75,27.3125,28.125,28.6875
1.0,-0.2269257111738787,-0.1064228259720605,-1.378750192544117,-0.017606556602898123,-0.028951103313880393,-0.06098861567791721,-0.5389372445792433,-0.32445969090168486,0.2510465705431042,-3.0785764590882425,0.6248509580435166,-0.0001881888412417636,0.0009139585877394091,0.00040524655994858436,-0.052528352239497346,0.004539765271924839,-0.013001716702205188,-0.0003911443605115004,0.32646510004997253,-1.1412089628032227,1.672480885182516,-2.10036625484609,-1.5713813940631312,2.3014965057373047,-9.286641579819843e-05,0.062014855444431305,0.05684806406497955,-0.10509121417999268,-0.0002549119817558676,0.0002704964717850089,0.28730419278144836,-0.038307227194309235,-9.366117477416992,0.7262282371520996,47.70390319824219,-0.39206379652023315,-3.575286865234375,-1.9045329093933105,-0.8228211402893066,-0.022750340402126312,-0.10557530075311661,24.875,25.5625,24.75,27.3125,28.125,28.6875
1.0,0.08734544757268778,0.6207160609836659,-1.2703637603153466,-0.02689517795401087,-0.017961819000118756,-0.061186076930562994,-0.538950529361282,-0.324453901437456,0.25087702685624896,-3.078591183526977,0.6248350183606591,-8.400303517638931e-05,-0.00028853468611009833,-1.7416526610992806e-05,-0.05239689415556475,0.00214824329183934,-0.006085901117879723,-0.00039247458738938244,0.32645317912101746,-1.140992448931076,1.672671143208639,-2.1008359394469203,-1.5714057127581995,2.3014726638793945,-7.697117689531296e-05,0.06389430165290833,0.055766500532627106,-0.11320669949054718,-0.0002296042803209275,0.0002843014954123646,0.363918662071228,-0.17238251864910126,-9.423578262329102,0.7486078143119812,47.72092056274414,-0.4123014807701111,-3.6383681297302246,-1.8442275524139404,-0.7685835361480713,-0.027357211336493492,-0.09578078240156174,24.875,25.5625,24.75,27.3125,28.125,28.6875
1.0,-0.5505554580081073,-0.4242061058415769,-1.3228118952796555,-0.05873998626758599,0.020236787444354944,-0.06177186646339754,-0.5389476081261525,-0.32445418023285544,0.25067510431030066,-3.078580564452585,0.6248904091196703,-0.00012281748067691442,-0.0009263591788632172,-0.0002446515162434997,-0.0489167390491143,-0.0021608733682734163,0.006504712102252696,-0.00036694044303792704,0.32645317912101746,-1.1407540005496521,1.67289907137026,-2.101281305352682,-1.5713933149920862,2.3015084266662598,-6.572550046257675e-05,0.06004733964800835,0.05527028441429138,-0.12217115610837936,-0.00020833998860325664,0.0002654022828210145,0.2298433631658554,-0.038307227194309235,-9.461885452270508,0.6993717551231384,47.71733474731445,-0.4512319564819336,-3.4759607315063477,-1.7580938339233398,-0.6631124019622803,-0.022137250751256943,-0.10847803950309753,24.875,25.5625,24.75,27.3125,28.125,28.6875
1.0,-1.2137547722379636,-1.4084153414184617,-1.3827259488146004,-0.0844852538600189,0.0638183649225893,-0.070868518380083,-0.5389564646548161,-0.3244623817697331,0.2504658458266818,-3.0785673523019144,0.624887849805542,-8.544853344187874e-05,-0.001229563079110725,-0.00039236953488482577,-0.04851509674424115,-0.0037810968817342107,0.01119842236551531,-0.000318044460711669,0.3264651298522949,-1.1404782694629212,1.6731022039996546,-2.101773878137106,-1.5714176336871546,2.301520347595215,-2.845387143679545e-07,0.05990274250507355,0.05578025057911873,-0.12750199437141418,-0.00019067968241870403,0.00027960364241153,0.019153613597154617,0.1149216815829277,-9.634267807006836,0.6792280077934265,47.679718017578125,-0.4130236506462097,-3.484042167663574,-1.769756555557251,-0.5954866409301758,-0.026346934959292412,-0.08639436960220337,24.875,25.5625,24.75,27.3125,28.125,28.6875
1.0,-1.4954967622749624,-1.4652660351469229,-1.7188994910272932,-0.07470750550770203,0.04756862937499175,-0.05960881921600788,-0.5389478364524696,-0.32446978538446486,0.25025686432232674,-3.078608937548456,0.6248773159099599,-5.9194270595322804e-05,-0.0007851932748979316,-0.00024274205530749087,-0.04879157259957385,-0.002434943759730496,0.00720909535942945,-0.00037796673903261124,0.32647716999053955,-1.1402385395816346,1.6733654181109827,-2.1023107967772425,-1.5713933149920862,2.301520347595215,-5.121595855750449e-11,0.05968080833554268,0.05571277439594269,-0.1230022981762886,-0.00017577983089722693,0.0003416344989091158,-0.1149216815829277,0.325611412525177,-9.710882186889648,0.6411817073822021,47.68330383300781,-0.4077689051628113,-3.4173953533172607,-1.8172893524169922,-0.5762459635734558,-0.03281128406524658,-0.07433826476335526,24.875,25.5625,24.75,27.3125,28.125,28.6875
1.0,-0.5485242526961563,-0.3921066803906451,-1.4925943548491059,-0.048426649589579256,0.01946085876617469,-0.0658891509489693,-0.5389457520024143,-0.32448460218875436,0.24998272637620703,-3.0786561745447942,0.6248488708412432,4.7296934608671185e-05,-0.00015639201510428982,-2.7474503394325574e-05,-0.04855864320458656,0.00038896567448807375,-0.0010244917796666435,-0.0003707117869062331,0.32650113105773926,-1.1399032038501282,1.6736891905414026,-2.103048940698141,-1.5713933149920862,2.301520347595215,-1.2368052164496153e-16,0.05883366987109184,0.053767383098602295,-0.11150537431240082,-0.00018667828408069909,0.00033891890780068934,-0.17238251864910126,0.2106897532939911,-9.691728591918945,0.7105615139007568,47.71554183959961,-0.3748716115951538,-3.3058388233184814,-1.7469818592071533,-0.6812504529953003,-0.019282400608062744,-0.07696393877267838,24.875,25.5625,24.75,27.3125,28.125,28.6875
1.0,0.09774232960016753,0.29668275420456325,-1.2938784501410459,-0.04002686036758768,0.02026053416000374,-0.06693427757388892,-0.5389677396408242,-0.3244699396444149,0.24981938895637723,-3.078669840828261,0.6249497113150813,9.836984783629082e-05,0.0005102976356758512,0.00019865116150173036,-0.0494375659209861,0.002734570534327601,-0.007931623511714486,-0.00038031699877977,0.3264651298522949,-1.1396873456290741,1.6738570372210901,-2.1034776173033656,-1.5713813940631312,2.3015453815460205,-2.2262057228481684e-20,0.05909796804189682,0.05382490158081055,-0.10453267395496368,-0.00017645674233790487,0.000351542083080858,0.13407529890537262,0.05746084079146385,-9.481039047241211,0.6926589012145996,47.71733474731445,-0.40906471014022827,-3.335787773132324,-1.7215464115142822,-0.8085095882415771,-0.046225257217884064,-0.09632912278175354,24.875,25.5625,24.75,27.3125,28.125,28.6875
1.0,-0.11304928480507034,0.9454237005340619,-0.9019144730198746,-0.031853217710193296,-0.0003279140809652834,-0.06909744792760497,-0.5389789697993768,-0.32445562427952696,0.24959902486136362,-3.078621229100947,0.6249382443295529,3.777356973473544e-05,-0.00030821304941239865,-8.148615014518518e-05,-0.04836599445153617,0.0014243959739338214,-0.004126455804782491,-0.0003684256739041771,0.3264411687850952,-1.139411376123764,1.6740716139422815,-2.1039096317686976,-1.5714057127581995,2.301520347595215,-4.00709154327341e-24,0.05928646773099899,0.05156475305557251,-0.10648542642593384,-0.00016563847020734102,0.00033849343890324235,0.26815059781074524,-0.15322890877723694,-9.385271072387695,0.7195101380348206,47.6949462890625,-0.4312328100204468,-3.3238120079040527,-1.5027447938919067,-0.8394760489463806,-0.015157518908381462,-0.08185798674821854,24.875,25.5625,24.75,27.3125,28.125,28.6875
1.0,0.24231288944389437,0.5501153211827637,-1.080038098952587,-0.033673155048516284,0.004523608083611559,-0.06603720158185959,-0.5389741069934835,-0.3244708083081577,0.24942307002558195,-3.0786592188037063,0.624907809920152,8.123496173852766e-05,-0.0010134196136293877,-0.0003227768350871458,-0.047994031356165104,-0.0014991104924306545,0.004407800588525645,-0.00036284314921912296,0.3264651298522949,-1.1391954284957428,1.6742752234088343,-2.104368825952047,-1.5713933149920862,2.301520347595215,-7.212622567687267e-28,0.05965616554021835,0.05257609859108925,-0.11688759177923203,-0.00015606374654453248,0.0003285186248831451,0.26815059781074524,-0.19153612852096558,-9.404424667358398,0.7329410910606384,47.72808074951172,-0.37130284309387207,-3.2825138568878174,-1.5169410705566406,-0.7693014740943909,-0.03430040180683136,-0.08274029195308685,24.875,25.5625,24.75,27.3125,28.125,28.6875
1.0,-0.4180166562382002,-0.4053091371204657,-1.278396675308704,-0.05271215204427476,0.0181526697671207,-0.06186614584610839,-0.5389848306445789,-0.3244718900125514,0.24925771908947697,-3.0786698968205677,0.624910155270865,0.00018458572067206553,-0.002256695988408978,-0.0007474397144486968,-0.0462369281721052,-0.004791805230408112,0.014032660528429485,-0.0003755098639308753,0.3264651298522949,-1.1389797192863007,1.6744545141803187,-2.104826112786764,-1.5714176336871546,2.301520347595215,-1.2982466414506908e-31,0.059415303170681,0.05075244978070259,-0.12499558180570602,-0.00014753569848835468,0.0003373149666003883,0.15322890877723694,0.019153613597154617,-9.404424667358398,0.6814691424369812,47.71017074584961,-0.3787103295326233,-3.333951473236084,-1.382490634918213,-0.6322280764579773,-0.03749678283929825,-0.07470973581075668,24.875,25.5625,24.75,27.3125,28.125,28.6875
1.0,-1.187698075790085,-1.777385648519243,-1.18321310838975,-0.07349488223035122,0.03526866097817233,-0.060262997811551595,-0.5389849563315176,-0.32446671448625725,0.2490535387545931,-3.078687237288412,0.6249334441781627,0.00016509844409850328,-0.0022553173400817845,-0.0007452575903982902,-0.04703056333565864,-0.004976856160276663,0.014615215642636608,-0.0004106039432378983,0.32645320892333984,-1.1387396317771454,1.6746934095965784,-2.105305334130758,-1.5713933149920862,2.301520586013794,-2.3367979650937242e-35,0.060367193073034286,0.05184801667928696,-0.12765412032604218,-0.0001628012687433511,0.00037151642027311027,0.0,0.2106897532939911,-9.385271072387695,0.7060845494270325,47.711063385009766,-0.3670029640197754,-3.330319881439209,-1.5197166204452515,-0.5608869791030884,-0.017579782754182816,-0.07550949603319168,24.875,25.5625,24.75,27.3125,28.125,28.6875
1.0,-1.259619649949766,-1.7588784868615772,-1.2533328492945204,-0.0844732782713647,0.021300791961743355,-0.05471416423062548,-0.5389924802779954,-0.3244731978430144,0.24888349253643724,-3.0787223653887934,0.6249614471348682,0.00038363845392112107,-0.001453778596887984,-0.00047062147648518237,-0.04810968080321707,-0.00275146466396484,0.008136015858172875,-0.0004038378637035607,0.3264651298522949,-1.1385236841491242,1.6749094168292444,-2.105877538720602,-1.5714295546161097,2.3015453815460205,-4.2061528848004785e-39,0.06055169180035591,0.05275571346282959,-0.12189557403326035,-0.00017713630222715437,0.0003673663013614714,-0.038307227194309235,0.3447650372982025,-9.423578262329102,0.7709873914718628,47.6949462890625,-0.39707982540130615,-3.3043806552886963,-1.5926711559295654,-0.5547640323638916,-0.013585496693849564,-0.06551165133714676,24.875,25.5625,24.75,27.3125,28.125,28.6875
1.0,-0.2511864784162937,-0.759178325446071,-1.013572908096897,-0.07498052002129921,0.005744002077507228,-0.06591510978482795,-0.5390049346145164,-0.32447991882383004,0.24870499766790966,-3.078778677183148,0.6249334307073592,0.00044087868598054376,-0.0007720012684413606,-0.00023608680309374915,-0.048311286549051626,-0.0008936540524150578,0.0027647150234419264,-0.00038587988343504056,0.3264651298522949,-1.1382841032794495,1.6750896612750452,-2.106353899041647,-1.5714057127581995,2.301520586013794,-7.567011707354012e-43,0.05983532965183258,0.0527789331972599,-0.1155189499258995,-0.00019889565010089427,0.0003520600439514965,0.05746084079146385,0.325611412525177,-9.366117477416992,0.7239871025085449,47.72002029418945,-0.4213363528251648,-3.3435676097869873,-1.5408155918121338,-0.612522542476654,-0.021990928798913956,-0.07590839266777039,24.875,25.5625,24.75,27.3125,28.125,28.6875
1.0,0.07849386597389725,-0.3945041759142689,-0.7801199024579772,-0.04352565089656936,-0.010796027778515606,-0.056775730613983916,-0.5390248135780915,-0.3244583590784831,0.24851618113893592,-3.078728799253523,0.6250589064315384,0.0005231457490573046,-0.0003989193005441125,-0.00010669698055307316,-0.04961504497909932,0.0015388808921169717,-0.004310147875247494,-0.0003925986603066023,0.32642924785614014,-1.1380439561656495,1.6752927939044397,-2.1068302593626917,-1.5714533964740198,2.3015692234039307,-0.0,0.06126357614994049,0.052264854311943054,-0.10895171761512756,-0.00021961069433018565,0.0003617926558945328,0.2106897532939911,0.2298433631658554,-9.136273384094238,0.8023208975791931,47.69584274291992,-0.34390488266944885,-3.2661123275756836,-1.4953639507293701,-0.6881277561187744,-0.017195764929056168,-0.07135973125696182,24.875,25.5625,24.75,27.3125,28.125,28.6875
1.0,0.6346285471452584,0.5940891661658352,-0.35042288215263795,-0.02682676453499109,-0.021674130930014964,-0.06443352722506614,-0.5390326529708879,-0.32446730631530646,0.24831766124312465,-3.0787790774562045,0.62501134241184,0.00044105772302486406,0.00048462717298462983,0.00019571432788412346,-0.04952203840949234,0.0029161842652177107,-0.00829119133311398,-0.00047288724362774587,0.32642924785614014,-1.1377805930427094,1.6754720846759241,-2.1072479687132777,-1.5713933149920862,2.3015329837799072,0.0,0.059640176594257355,0.0532352477312088,-0.10408618301153183,-0.0002337363694095984,0.0004440697666723281,0.3064578175544739,-0.19153612852096558,-9.117119789123535,0.6859408020973206,47.7244987487793,-0.3701518476009369,-3.229513645172119,-1.5151355266571045,-0.7631169557571411,-0.02661728858947754,-0.07122708112001419,24.875,25.5625,24.75,27.3125,28.125,28.6875
1.0,0.5505680250608994,0.7792151770531821,-0.444167238464793,-0.012323903388475183,-0.027161302589531235,-0.06530962805900659,-0.539019163286564,-0.32447969119073106,0.2481056955951755,-3.0787157451821137,0.624941026501561,0.0004216908293475496,-0.0005054939221423507,-0.00014286499970203714,-0.050061205577403685,0.002197998602470776,-0.0062431867137259746,-0.00047481889441101715,0.3264651298522949,-1.1375278693488617,1.6757004896747034,-2.1076799831786097,-1.5714533964740198,2.3015329837799072,0.0,0.062292493879795074,0.05143801122903824,-0.10711144655942917,-0.00022123265080153942,0.00044481217628344893,0.38307225704193115,-0.17238251864910126,-8.983044624328613,0.6456586718559265,47.68867492675781,-0.42473942041397095,-3.3751001358032227,-1.3147857189178467,-0.7865154147148132,-0.04184240475296974,-0.06886397302150726,24.875,25.5625,24.75,27.3125,28.125,28.6875
1.0,-0.09670045395968363,0.3751523205697655,-0.5358090155548795,-0.031087913765242156,0.0052848600482635275,-0.059804657320622914,-0.539029864279585,-0.32449488882919014,0.24794871511358318,-3.0788155525709877,0.6248842535039963,0.000541201513797472,-0.00011523016555190165,-1.1248635845398125e-05,-0.04981544920036005,0.0001490729753976298,-0.0002686336210922668,-0.0004790290761683942,0.32647716999053955,-1.1373125475696106,1.6758697668658655,-2.108173986474508,-1.5714176336871546,2.301496744155884,0.0,0.060686443001031876,0.05504585802555084,-0.11542939394712448,-0.0002084311709040776,0.00044551832252182066,0.26815059781074524,-0.17238251864910126,-8.983044624328613,0.6881819367408752,47.7164421081543,-0.348823606967926,-3.329296112060547,-1.5210301876068115,-0.7151532173156738,-0.028803382068872452,-0.06331318616867065,24.875,25.5625,24.75,27.3125,28.125,28.6875
1.0,-1.1167601728047813,-0.7886552254443964,-0.7042440021002083,-0.05759597367267752,0.020566085191887688,-0.06440093923265679,-0.5390337143965205,-0.32448316151935713,0.24774661827651986,3.0787995907074652,-0.6249387795440888,-0.0004924160055359866,-0.0013925330832049725,-0.0004476328081329948,-0.049401843683202,-0.0024969295489310063,0.00743854180880718,-0.0004837714304308478,0.32645320892333984,-1.1370723110488434,1.676096264516012,-2.10861935238027,-1.5713933149920862,2.301508665084839,0.0,0.062315866351127625,0.05375346913933754,-0.1239151731133461,-0.00019702341523952782,0.00044655619421973825,0.15322890877723694,0.038307227194309235,-9.136273384094238,0.7217512726783752,47.68598937988281,-0.3674902617931366,-3.264317035675049,-1.4606163501739502,-0.6195282936096191,-0.02846325933933258,-0.05820508673787117,24.875,25.5625,24.75,27.3125,28.125,28.6875
1.0,-0.7196890145719924,-1.003613793337802,-1.1181271667885657,-0.0746601670837713,0.04423877011688917,-0.06910854697258408,-0.5390289401052012,-0.3244736874066006,0.24752760007041139,-3.0787765236043994,0.6250124433854092,0.000427330022846909,-0.0009095824003914276,-0.0002771239850386334,-0.04898144823881274,-0.0030802340839949922,0.009337575062227257,-0.0005057752727073578,0.3264411687850952,-1.1368210774711152,1.6763485113727015,-2.109075208703512,-1.5713933149920862,2.3015453815460205,0.0,0.060658048838377,0.05564664304256439,-0.12613610923290253,-0.0002544348535593599,0.0004676042008213699,-0.038307227194309235,0.17238251864910126,-9.385271072387695,0.6725152134895325,47.731666564941406,-0.40611952543258667,-3.2135798931121826,-1.6285583972930908,-0.5299374461174011,-0.03567561134696007,-0.07219524681568146,24.875,25.5625,24.75,27.3125,28.125,28.6875
1.0,-0.46501083470902127,-0.8813514626311251,-1.1297742706058305,-0.07138776645463277,0.02984884602697858,-0.06203133163632801,-0.5390326055532115,-0.3244852335396098,0.24733193501192474,3.078790231793838,-0.6249182620857157,-0.00044986453920219463,-0.00029381445514480844,-6.372309296530304e-05,-0.05250793700021188,0.0012974797198171007,-0.003424200057545789,-0.0004991806022064513,0.32645320892333984,-1.136567847137787,1.676551644002096,-2.1095625362791957,-1.571369473134176,2.301496744155884,0.0,0.0647563710808754,0.05587104707956314,-0.11696705967187881,-0.00028602208476513624,0.0004657258978113532,-0.13407529890537262,0.2298433631658554,-9.366117477416992,0.7016075849533081,47.70927429199219,-0.3814009726047516,-3.4657769203186035,-1.6458632946014404,-0.6022147536277771,-0.042547304183244705,-0.05425538122653961,24.875,25.5625,24.75,27.3125,28.125,28.6875
1.0,-0.20325279115449973,-0.22552091211140157,-1.0084441041023775,-0.0604958881601936,0.024755741963476532,-0.07167025132338636,-0.5390289458906782,-0.32448665207396044,0.24710591710829738,-3.078760940649826,0.6249712726526535,0.0004358179670236818,0.00046063936067289367,0.00018983925606507463,-0.05203089406095324,0.0029334152969037928,-0.00830398176695033,-0.0004919621590676083,0.3264651298522949,-1.1362926822951813,1.676791016255514,-2.1100388966002406,-1.5714176336871546,2.3015453815460205,0.0,0.0630297064781189,0.055587638169527054,-0.10981038212776184,-0.00025399570586159825,0.0004612861084751785,0.0,0.24899697303771973,-9.385271072387695,0.7150384783744812,47.687782287597656,-0.3366817831993103,-3.3157858848571777,-1.6869330406188965,-0.6796860098838806,-0.02328558638691902,-0.05718051642179489,24.875,25.5625,24.75,27.3125,28.125,28.6875
1.0,0.377139782811549,0.3610880875528564,-0.905293386234884,-0.049746451753045776,0.012163896073277242,-0.069629880823762,-0.5390390538212527,-0.3244861315092625,0.24693022924655805,3.0788003002981275,-0.6249589145968859,-0.0004347746286613435,0.0009967792465328796,0.0003698410783194111,-0.05309918840196987,0.005404259199810055,-0.015630681360239287,-0.0004882693809934036,0.32645320892333984,-1.136064575319626,1.6769703070269983,-2.110467096368307,-1.5713813940631312,2.301520586013794,0.0,0.06384638696908951,0.055233605206012726,-0.1025410145521164,-0.00022822368191555142,0.00046082522021606565,0.09576806426048279,0.038307227194309235,-9.327810287475586,0.7284641265869141,47.68240737915039,-0.34382933378219604,-3.4136931896209717,-1.6424140930175781,-0.7954391241073608,-0.025313494727015495,-0.04609716683626175,24.875,25.5625,24.75,27.3125,28.125,28.6875
1.0,-0.052811569491999555,0.7346346464747237,-0.8247523265474831,-0.0379045564883408,-0.008608127250278926,-0.061364822561870175,-0.53905878556999,-0.32447744441249055,0.2466220852964069,-3.078714490128034,0.6249807885115586,0.0004249416278131012,0.0006532428850631135,0.0002538556180937271,-0.05398628972957673,0.0049312463452158666,-0.01422906355639657,-0.0005454769048167734,0.3264411687850952,-1.1356561940959473,1.6772468725787562,-2.11110319713735,-1.5714533964740198,2.3015329837799072,0.0,0.06561825424432755,0.0556161142885685,-0.10617460310459137,-0.000237681160797365,0.0005167223862372339,0.26815059781074524,-0.15322890877723694,-9.251194953918457,0.7217512726783752,47.6949462890625,-0.3107841908931732,-3.532304286956787,-1.6363403797149658,-0.8357696533203125,-0.049000512808561325,-0.060676004737615585,24.875,25.5625,24.75,27.3125,28.125,28.6875
1.0,-0.5533329046201004,-0.017422857264357855,-0.5991770767824561,-0.04942718202771982,0.0014438134157717837,-0.06390856975370915,-0.5390315972577718,-0.32449154094556276,0.2463944563985143,-3.078684071971539,0.6248972041803769,0.00029814670582695976,-0.00015055384301632864,-2.201524888780568e-05,-0.05359925644986235,0.0018783595800443845,-0.005345594633439243,-0.0005950045867822237,0.32647716999053955,-1.1354042750648041,1.6775105635272425,-2.111525674859518,-1.5714533964740198,2.301520586013794,0.0,0.06617585569620132,0.05641574040055275,-0.11692523211240768,-0.00021845773153472692,0.00056162552209571,0.28730422258377075,-0.038307227194309235,-9.251194953918457,0.7239871025085449,47.736141204833984,-0.34053319692611694,-3.559243679046631,-1.696864128112793,-0.7367308139801025,-0.04301553964614868,-0.05317758023738861,24.875,25.5625,24.75,27.3125,28.125,28.6875
1.0,-0.6412372299438047,-0.9975920621164203,-1.0439849922385678,-0.07386781329164016,0.031043999733517104,-0.060208154531754945,-0.5390126733734086,-0.3244965632168776,0.24619255577716687,-3.0787182416442507,0.6249251034201172,0.0002899804515156643,-0.0006151296336501865,-0.000179489972793666,-0.052621517927490924,-0.0011558261666656329,0.003577609444993425,-0.0008566000183775095,0.32648909091949463,-1.1351887446692963,1.6777856985675257,-2.1120315990843714,-1.5714176336871546,2.3015453815460205,0.0,0.06527958065271378,0.057696327567100525,-0.12673446536064148,-0.0002270145487273112,0.0008188572246581316,0.07661445438861847,0.2106897532939911,-9.346963882446289,0.6456586718559265,47.6976318359375,-0.3279399871826172,-3.5628774166107178,-1.7492660284042358,-0.616249680519104,-0.023276332765817642,-0.042859770357608795,24.875,25.5625,24.75,27.3125,28.125,28.6875
1.0,-1.0807131442320117,-1.1307421236598048,-1.0715539381939676,-0.09617404178016624,0.032301360769477754,-0.0617293828078202,-0.539018493390584,-0.32448827484380405,0.2459611790554245,-3.078690053500277,0.624898920890343,0.0002737164772501345,0.00017948325730972765,9.33081883568272e-05,-0.05303389956366041,-0.0003680107342655376,0.001335898441975318,-0.0008682902052529404,0.32647716999053955,-1.1349014204791565,1.6780265013324183,-2.1125341854491175,-1.5714414755450647,2.301520586013794,0.0,0.0643288716673851,0.05969494208693504,-0.12540630996227264,-0.0002465083380229771,0.0008312460849992931,0.05746084079146385,0.24899697303771973,-9.423578262329102,0.7172743082046509,47.69673538208008,-0.3520255982875824,-3.4322304725646973,-1.878026008605957,-0.5575522184371948,-0.03444570302963257,-0.05287613719701767,24.875,25.5625,24.75,27.3125,28.125,28.6875
1.0,-0.02869304952265636,-0.6869667693046114,-1.061161721216285,-0.06309481395330895,0.012530655670893589,-0.059304478258175225,-0.539027088959383,-0.3244911803376965,0.24576761196062924,-3.078697103272878,0.62497856102347,0.0003328657544392245,0.0005181374332965818,0.0002097627435261688,-0.052730888232804855,0.0016549188372441417,-0.004552134108343703,-0.0008414166988024706,0.32647716999053955,-1.1346497696689148,1.678230110798971,-2.113033433953756,-1.5714414755450647,2.3015692234039307,0.0,0.06377699971199036,0.05780533701181412,-0.11673898994922638,-0.00025771270156838,0.0008078509708866477,-0.05746084079146385,0.363918662071228,-9.423578262329102,0.6926589012145996,47.71733474731445,-0.33790719509124756,-3.4480621814727783,-1.8301517963409424,-0.5984175205230713,-0.04169609397649765,-0.051441021263599396,24.875,25.5625,24.75,27.3125,28.125,28.6875
1.0,0.3916206797981711,0.036737267715905145,-1.0944915336396386,-0.06884315057054813,0.016068982761441832,-0.07381210139635598,-0.5390337318028644,-0.32447910284467824,0.24554304573071506,-3.0786873936816592,0.6250152434401409,0.00028764192266695883,0.001539508367123408,0.0005552678467818295,-0.05298762557140522,0.0036288743818285573,-0.010398803411830249,-0.0006552991202151982,0.32645320892333984,-1.134374426012375,1.6784690062152308,-2.113521715203756,-1.5714295546161097,2.3015692234039307,0.0,0.06245279312133789,0.05878715589642525,-0.11022581160068512,-0.00023468919971492141,0.0006245056283660233,0.09576806426048279,0.2106897532939911,-9.404424667358398,0.6613254547119141,47.66360092163086,-0.35440778732299805,-3.311939001083374,-1.9348335266113281,-0.67186039686203,-0.0301181823015213,-0.05098066106438637,24.875,25.5625,24.8125,27.3125,28.125,28.6875
1.0,0.22620136095873677,0.39570929945768823,-1.0292237729145917,-0.0561942105183194,0.009439056448873478,-0.06854832071759824,-0.5390364848975241,-0.32449433326517074,0.2453538492087089,-3.078716385319199,0.6248476355764595,0.0003095402927229337,0.001161789822900989,0.0004287256863731726,-0.053789133554867356,0.00552305628380537,-0.015902279940447118,-0.0006006990845640059,0.32647716999053955,-1.1341217023185273,1.678647820149557,-2.113962789575094,-1.5714414755450647,2.3014848232269287,0.0,0.06474783271551132,0.05593688786029816,-0.10385024547576904,-0.00025464760255999863,0.0005727132083848119,0.15322890877723694,0.019153613597154617,-9.404424667358398,0.6971306204795837,47.6734504699707,-0.30644428730010986,-3.5676193237304688,-1.7467622756958008,-0.7859683036804199,-0.026530098170042038,-0.06133773922920227,24.875,25.5625,24.8125,27.3125,28.125,28.6875
1.0,0.8627727045618568,1.186803613300206,-0.8771729212996595,-0.03450206832004438,-0.0034312647447504764,-0.07105513703131205,-0.5390484667540794,-0.3244930723990707,0.24516264162059176,-3.0787225858259633,0.6249846456572348,0.0003229142275600246,0.0009724110278248578,0.00036181916514960535,-0.05313003979385403,0.005283062701534983,-0.015263026723695474,-0.0005095265825059761,0.3264651298522949,-1.1338702899268647,1.6788390318499964,-2.114429613152975,-1.5714176336871546,2.3015573024749756,0.0,0.06433971971273422,0.054814811795949936,-0.1030026227235794,-0.00023301882902160287,0.00048162799794226885,0.3447650372982025,-0.09576806426048279,-9.385271072387695,0.7284641265869141,47.700321197509766,-0.3443565368652344,-3.4300568103790283,-1.6622357368469238,-0.838046133518219,-0.025326184928417206,-0.04766256734728813,24.875,25.5625,24.8125,27.3125,28.125,28.6875
1.0,0.37823945711328966,0.3349245411292453,-1.0948793358709905,-0.021696149953524084,-0.005475373499457288,-0.057262205216256544,-0.5390261458762363,-0.3244997567472916,0.2449387035964685,-3.078672191197591,0.624917027560253,0.00018919089105972212,0.0003829313727734604,0.00015884064311962596,-0.051064056119221365,0.0025286713131853107,-0.007233896113564863,-0.0005071358536874384,0.32648909091949463,-1.1336191457561036,1.6790898481952112,-2.1148263416686,-1.5714295546161097,2.3015453815460205,0.0,0.06245112791657448,0.05409581959247589,-0.10888349264860153,-0.00021450464555528015,0.0004761544696521014,0.26815059781074524,0.019153613597154617,-9.327810287475586,0.7620334029197693,47.71375274658203,-0.3380213975906372,-3.4793829917907715,-1.6349656581878662,-0.8099112510681152,-0.027951501309871674,-0.0659615620970726,24.875,25.5625,24.8125,27.3125,28.125,28.6875
1.0,-0.9105291240161781,-0.44749677866861703,-1.1161544994887265,-0.05671631772926389,0.017309032997138273,-0.054154328759723654,-0.53903574028785,-0.3244628796165835,0.2447389731369809,-3.078622538769048,0.6249632602764582,0.00011846422592827413,-0.0004133262063025062,-0.00011413092899691563,-0.05058917232994931,0.00023400409883602436,-0.0005635560741238439,-0.0005104252772668424,0.32642924785614014,-1.1333910685828705,1.6793177763568323,-2.115223547021383,-1.5714414755450647,2.301520586013794,0.0,0.06306388229131699,0.053851328790187836,-0.11630575358867645,-0.00019871472613886,0.00047611992340534925,0.13407529890537262,0.07661445438861847,-9.366117477416992,0.7284641265869141,47.705692291259766,-0.36456218361854553,-3.4196219444274902,-1.5990042686462402,-0.7564891576766968,-0.030094310641288757,-0.041145555675029755,24.875,25.5625,24.8125,27.3125,28.125,28.6875
1.0,-1.9764256729476501,-1.5450998683681323,-1.20485824697829,-0.08835384886106289,0.0484455660116633,-0.05124238339734787,-0.5390210629372842,-0.3244914850291312,0.244535401057542,-3.0786594735598145,0.6249531066551922,0.00013410044785338413,-0.0006126809746997898,-0.0001803313183391595,-0.05032203254603291,-0.0019132719823658812,0.005782213354430371,-0.0004691285695279539,0.32647716999053955,-1.1331394177726288,1.6795461813556116,-2.1157294712462367,-1.5714176336871546,2.3015573024749756,0.0,0.06268523633480072,0.05564481019973755,-0.12441978603601456,-0.00021539628505706787,0.0004313398676458746,0.019153613597154617,0.17238251864910126,-9.404424667358398,0.7351769208908081,47.6707649230957,-0.3203754425048828,-3.3542640209198,-1.6837131977081299,-0.6496435403823853,-0.02297016978263855,-0.04430505633354187,24.875,25.5625,24.8125,27.3125,28.125,28.6875
1.0,-1.3706167638312459,-1.0414193761040356,-1.2684612781907354,-0.08798057742174459,0.045413111084023225,-0.062167642946308624,-0.5390286741998791,-0.3244980466045243,0.24431917918724577,-3.078626098961541,0.6249655882367258,0.00016195442346217325,-0.0010047408935699262,-0.00031389954760338904,-0.050014903428839005,-0.0021607107798150165,0.00650695044316229,-0.00047915474139769175,0.32648909091949463,-1.1328514081290741,1.679748837147848,-2.1162201366820277,-1.5714533964740198,2.3015811443328857,0.0,0.063136525452137,0.054276593029499054,-0.12426865100860596,-0.00021623856446240097,0.0004412562702782452,-0.13407529890537262,0.28730422258377075,-9.615114212036133,0.6993717551231384,47.712860107421875,-0.3406504988670349,-3.459657669067383,-1.6778171062469482,-0.5953765511512756,-0.02548971399664879,-0.04010853171348572,24.875,25.5625,24.8125,27.3125,28.125,28.6875
1.0,-0.3607670108827024,-0.628129912712136,-1.1983467180723666,-0.06081980895128225,0.01702113750119179,-0.056994012307803786,-0.5390227428929664,-0.32448418768635273,0.24411160261957615,-3.078674386444111,0.6249369488034408,0.00016066283121817947,0.0002979944475601443,0.00013002133272968988,-0.05029402847576724,-7.523777174473135e-05,0.0004117118198818607,-0.0004811679674237916,0.3264651298522949,-1.1326242846301575,1.6800254026996058,-2.116744180718893,-1.5714176336871546,2.3015329837799072,0.0,0.06125533580780029,0.05610506981611252,-0.11777382344007492,-0.00021696592739317566,0.0004461219650693238,-0.17238251864910126,0.28730419278144836,-9.557653427124023,0.6769921779632568,47.71017074584961,-0.3154064416885376,-3.2616219520568848,-1.7855887413024902,-0.6361315250396729,-0.03086988814175129,-0.04723593592643738,24.875,25.5625,24.8125,27.3125,28.125,28.6875
1.0,-0.3990451267885005,-0.25378944356836,-1.2064449595918143,-0.052755241072839756,0.004081398127387944,-0.0591655597588626,-0.5390326229625739,-0.32449410162550557,0.24390374514389496,-3.0786383808750397,0.624968582123186,0.000117649177293066,0.00035794011620527403,0.00015088796277360319,-0.0497128858279898,0.0016985322450505985,-0.004764724572935365,-0.000693131560362154,0.32647716999053955,-1.132336602812149,1.6801922957049769,-2.1171604595580042,-1.5714295546161097,2.3015692234039307,0.0,0.06088489294052124,0.05332215130329132,-0.10914850980043411,-0.00022246205480769277,0.0006614948506467044,-0.07661445438861847,0.2298433631658554,-9.442731857299805,0.7284641265869141,47.70658874511719,-0.3438382148742676,-3.378553628921509,-1.6938211917877197,-0.7203552722930908,-0.03943739831447601,-0.03647894412279129,24.875,25.5625,24.8125,27.3125,28.125,28.6875
1.0,0.02244178103689254,0.15969011784625617,-1.1273675729877486,-0.039169744485266784,0.004639452291942077,-0.062016062766975966,-0.5390502956498888,-0.32448328685915373,0.24372245292337988,-3.078644510503714,0.624970219408636,0.00016987589497502188,0.000295502762485459,0.0001294362602431623,-0.05258618329457303,0.004555291834737364,-0.013180849885407207,-0.0005709425075908446,0.32645320892333984,-1.1320952636054535,1.6803720633136194,-2.117613454858297,-1.5714414755450647,2.3015453815460205,0.0,0.06529667228460312,0.05248352885246277,-0.10383392870426178,-0.00021868242765776813,0.0005422442918643355,0.24899697303771973,-0.05746084079146385,-9.481039047241211,0.6971306204795837,47.70927429199219,-0.29607200622558594,-3.509298801422119,-1.619176983833313,-0.826359212398529,-0.03076629340648651,-0.0390583872795105,24.875,25.5625,24.8125,27.3125,28.125,28.6875
1.0,0.03032989400332441,0.02773113025445853,-0.9982060851635782,-0.025643736502196007,-0.014869505733673221,-0.0557413303279348,-0.5390459417503789,-0.3244920236021482,0.24350305752086868,-3.0786482997807005,0.6249123835361563,7.259075640986772e-05,-0.00024066879005135207,-5.5333182135733694e-05,-0.051903946938004285,0.002929807583741385,-0.008476264649963235,-0.0005572365498693207,0.3264651298522949,-1.1318195027164002,1.6805861631976526,-2.1180459461607875,-1.5714176336871546,2.301520586013794,0.0,0.06526491791009903,0.051991015672683716,-0.10828714817762375,-0.00019937580509576946,0.0005263835191726685,0.325611412525177,-0.15322890877723694,-9.308655738830566,0.7060845494270325,47.712860107421875,-0.29554805159568787,-3.6063358783721924,-1.560215950012207,-0.8210083246231079,-0.02898421138525009,-0.04803043231368065,24.875,25.5625,24.8125,27.3125,28.125,28.6875
