Tylouw/Master_Thesis_Code/test_recorded_data/trial3/insertion_5_2026-01-23_13-40-05.csv
num_insertion,tcp_force_x[N],tcp_force_y[N],tcp_force_z[N],tcp_force_rx[Nm?],tcp_force_ry[Nm?],tcp_force_rz[Nm?],tcp_pose_x[m],tcp_pose_y[m],tcp_pose_z[m],tcp_pose_rx[rot_vec_x],tcp_pose_ry[rot_vec_y],tcp_pose_rz[rot_vec_z],tcp_velo_x[m/s],tcp_velo_y[m/s],tcp_velo_z[m/s],tcp_velo_rx[rot_vec_x/s],tcp_velo_ry[rot_vec_y/s],tcp_velo_rz[rot_vec_z/s],q1[rad],q2[rad],q3[rad],q4[rad],q5[rad],q6[rad],qd1[rad/s],qd2[rad/s],qd3[rad/s],qd4[rad/s],qd5[rad/s],qd6[rad/s],tool_acc_x,tool_acc_y,tool_acc_z,current_of_whole_robot[A],voltage_of_whole_robot[V],current_J1[A],current_J2[A],current_J3[A],current_J4[A],current_J5[A],current_J6[A],temp_J1[C],temp_J2[C],temp_J3[C],temp_J4[C],temp_J5[C],temp_J6[C]
1.0,1.3758960503569897,0.32839998306568835,-1.1603692398678689,0.0017947175760079362,-0.02082809981107233,-0.0743456039855304,-0.5388367537086957,-0.3244688233777697,0.2600102181257543,-3.0786710929902266,0.6248420510860394,6.718538622835805e-05,0.0023278620481992935,-0.0010940635147568887,0.0008892505911235667,-0.0011366604811790374,0.0035963639475371802,0.0014584920683245644,0.32652607560157776,-1.151939110164978,1.662426773701803,-2.07976832012319,-1.571357552205221,2.3015456199645996,0.0029183202423155308,-0.004377532750368118,0.00508579146116972,-0.004478679038584232,-7.623223791597411e-05,0.0014579582493752241,0.6129156351089478,-0.2106897532939911,-9.136273384094238,0.8045620322227478,47.674346923828125,-0.18943268060684204,-4.211462020874023,-2.710087776184082,-0.40314480662345886,0.07811786234378815,-0.16798870265483856,24.9375,25.625,24.8125,27.375,28.25,28.75
1.0,0.374379365142634,-0.06656016713284095,-1.4086703429708425,0.014452951044938163,-0.02793247982639031,-0.06594622079117231,-0.5388182616703698,-0.32447529153729,0.26001108008274326,-3.0786446301247703,0.6247786580090681,3.800913010549781e-05,0.0003995510201606303,-0.0008767099582166311,0.0016020750411833752,-0.0016420148220618461,0.00505636158087617,0.0007661789936011066,0.32654958963394165,-1.151962236767151,1.6624487082110804,-2.079731603662008,-1.5713813940631312,2.3015329837799072,0.0015713837929069996,-0.002091399859637022,1.3013762327318545e-05,-0.0032370793633162975,-7.443103095283732e-05,0.0008036848157644272,0.05746084079146385,0.07661445438861847,-9.27034854888916,0.8090336918830872,47.692256927490234,-0.1591738760471344,-4.3136420249938965,-2.2548201084136963,-0.3990362286567688,0.0914761871099472,-0.17544734477996826,24.9375,25.625,24.8125,27.375,28.25,28.75
1.0,-1.6623621435298714,-2.7279753408107648,-1.2368982515437756,-0.10531671875295462,0.10251956877158991,-0.07013612603555477,-0.5388180194435845,-0.32446983134950186,0.26000036789564485,-3.0786113411064315,0.6248303093854286,-9.628266440723134e-05,0.0004093144301058713,-0.0007133917286640722,0.00013771661780059732,-9.988814124207682e-05,0.0005192456823168011,0.0007353442882836039,0.32653746008872986,-1.1519496601871033,1.662436310444967,-2.079646726647848,-1.571357552205221,2.3015573024749756,0.0013250645715743303,-0.00016614582273177803,2.3424311379471874e-09,-0.00035734305856749415,-7.271298090927303e-05,0.0005896685761399567,-0.26815056800842285,0.28730422258377075,-9.308655738830566,0.6993717551231384,47.64120864868164,-0.14460095763206482,-4.012717247009277,-2.0448074340820312,-0.5006551742553711,0.0782548040151596,-0.1854114681482315,24.9375,25.625,24.8125,27.375,28.25,28.75
1.0,-2.573569743436502,-2.465682589733138,-0.747494191074522,-0.11740272725248298,0.13209398242145629,-0.07415750049458827,-0.538808912023788,-0.32448477130516207,0.2600164233587717,-3.078665307998375,0.6247838863003252,-5.303804906527245e-05,0.001168020177293155,-0.0009533344705237954,-0.0011713328599181143,-0.0009822392737735678,0.0029583435721974804,0.0016601135456033324,0.32658568024635315,-1.1519735616496583,1.662450138722555,-2.079709669152731,-1.571357552205221,2.3015573024749756,0.0020856705959886312,-4.0122266620201685e-10,0.004330964758992195,-0.007447897922247648,-2.6906176572083496e-05,0.00042303785448893905,-0.28730419278144836,0.17238251864910126,-9.155426979064941,0.7418897151947021,47.685096740722656,-0.2679659128189087,-3.7660274505615234,-2.214710235595703,-0.5657055377960205,0.0701436772942543,-0.1763644814491272,24.9375,25.625,24.8125,27.375,28.25,28.8125
1.0,0.6984722331814188,0.9843141555883781,-0.8605023144706138,-0.006427135612339318,0.019819756809150456,-0.0850941247738819,-0.5388076374738775,-0.3245053503691579,0.2600145569355684,-3.078718543101805,0.624736326497285,0.00013576462177839193,7.864835384515695e-05,-0.0011293979730807868,-2.145378390561089e-05,-0.00398383090347862,0.011728582718315877,0.001490181029041094,0.3265976011753082,-1.1519615215114136,1.6624625364886683,-2.079832216302389,-1.571357552205221,2.3015451431274414,0.0017836765618994832,-7.22186592754144e-14,0.003671071957796812,-0.01605769619345665,-1.997487197513692e-05,0.0002874288766179234,-0.19153612852096558,0.13407528400421143,-9.040505409240723,0.7866488099098206,47.679718017578125,-0.25827211141586304,-3.6748743057250977,-1.9353868961334229,-0.4850500524044037,0.07669414579868317,-0.1915782243013382,24.9375,25.625,24.8125,27.375,28.25,28.8125
1.0,-0.3602729703654155,-0.5638256710397268,-0.5204505116331313,-0.048520325362351735,0.04530230597845097,-0.07884932738239281,-0.5388083130756216,-0.32448860614422453,0.25995417425220574,-3.0786698462949924,0.6247063412165338,2.8165780724493473e-05,0.00030959002679329214,-0.0006009195642817184,-0.0027884265703361755,-0.0016344233423472186,0.004764199586664458,0.0008975579497257493,0.3265734016895294,-1.1519005459598084,1.6625221411334437,-2.0798665485777796,-1.571369473134176,2.3015084266662598,0.0010885297087952495,0.002861352637410164,0.0053114136680960655,-0.013209480792284012,-1.6788160905889526e-07,0.00018664322851691395,-0.07661445438861847,-0.17238251864910126,-8.96389102935791,0.6904177665710449,47.6734504699707,-0.18557634949684143,-3.72432279586792,-2.0115761756896973,-0.555773913860321,0.07943210005760193,-0.20198874175548553,24.9375,25.625,24.8125,27.375,28.25,28.8125
1.0,-0.021355876332413648,0.3498236847903065,-0.5254774782903506,-0.01785422761687204,0.043649360143312256,-0.08014472033101219,-0.5388254395688501,-0.32449558234050935,0.2599901946012516,-3.078719522905373,0.6247557535937128,0.00014835626581681248,3.340749296136163e-05,-0.00040830432664627493,-0.0024494579271590795,-0.001993770799557572,0.005817938846315115,0.0007572281239074632,0.3265732228755951,-1.1519127053073426,1.6624630133258265,-2.079890867272848,-1.571357552205221,2.301532745361328,0.0006468602805398405,0.0026591166388243437,0.004949271213263273,-0.013758478686213493,-7.15705716913817e-10,-0.0001149863310274668,0.17238251864910126,-0.24899697303771973,-9.097966194152832,0.6792280077934265,47.66986846923828,-0.224087193608284,-3.5491414070129395,-1.8340696096420288,-0.5872337818145752,0.06714063882827759,-0.18988054990768433,24.9375,25.625,24.8125,27.375,28.25,28.8125
1.0,1.1364367901728911,0.8154691330008985,-0.7164097375670148,0.013465075104136704,0.005891243205848063,-0.07870280616393699,-0.5388000625136452,-0.3245036995757201,0.2599507100388523,-3.0787140664040322,0.6247163760879219,7.573225949757065e-05,0.00010746945700374265,-0.00022395880241248204,-0.0031666601871371465,-0.002356452997421265,0.006875925427950045,0.0005063008540233433,0.32659712433815,-1.1519004863551636,1.662546459828512,-2.079939981500143,-1.571345631276266,2.301532745361328,0.0004020493070129305,0.0030529445502907038,0.006778939161449671,-0.017100395634770393,-3.0511652232556585e-12,-0.00010996888886438683,0.19153612852096558,-0.1149216815829277,-9.078812599182129,0.7396538853645325,47.686885833740234,-0.18000753223896027,-3.4464111328125,-1.8156702518463135,-0.5487734079360962,0.06929363310337067,-0.21087384223937988,24.9375,25.625,24.8125,27.375,28.25,28.8125
1.0,0.9722803589192526,-0.6410735225707558,-1.0034587798529413,-0.03470486079644175,0.012553077844227623,-0.07587428608994562,-0.5388051634481178,-0.32448735625811187,0.25994062867621986,-3.0786987138398203,0.6247715693963416,0.00013896022773274982,0.0007088474763675018,2.943683154238035e-05,-0.006759237603822583,0.0004622044152195522,-0.0014078779753509377,0.0004712226306222571,0.32657313346862793,-1.1518992942622681,1.6625836531268519,-2.080011030236715,-1.571369473134176,2.3015451431274414,0.0003282596589997411,0.006624623201787472,0.009355847723782063,-0.014498772099614143,-1.300759528571633e-14,-0.00014680277672596276,0.26815059781074524,0.019153613597154617,-9.174580574035645,0.7642692923545837,47.686885833740234,-0.1993553191423416,-3.547445774078369,-1.9064326286315918,-0.5631386041641235,0.07023432850837708,-0.20451006293296814,24.9375,25.625,24.8125,27.375,28.25,28.8125
1.0,-0.18464017090785956,-1.3071245194419616,-1.1737365230487746,-0.06691964342936195,0.03206242790644116,-0.07656038715039329,-0.5387975492343535,-0.3244781476999286,0.25989592537100054,-3.078664817278658,0.6247443335788606,-2.2033268522877626e-06,0.0012706050834551121,0.0002970627746925434,-0.007592535198774256,0.0015590276870685938,-0.004621406405475441,0.0004061564113089905,0.3265610337257385,-1.1518632632545014,1.6626318136798304,-2.0799981556334437,-1.571357552205221,2.301520347595215,0.0002111145731760189,0.006586930714547634,0.010859472677111626,-0.012569156475365162,-5.5453414024501626e-17,-0.000197957968339324,0.2106897532939911,0.05746083706617355,-9.251194953918457,0.7217512726783752,47.6707649230957,-0.1866542100906372,-3.413431167602539,-1.8263788223266602,-0.6280954480171204,0.06772254407405853,-0.19651123881340027,24.9375,25.625,24.8125,27.375,28.25,28.8125
1.0,-0.3049667472069526,-1.4176895790312458,-1.2195485097536247,-0.06075661471867554,0.036430678361122584,-0.08063624475941031,-0.5388042395327708,-0.3244713521544155,0.259851549336777,-3.0786274923909587,0.6247556432632794,-5.778530153929311e-05,0.0009159245502985132,0.000444013831799621,-0.009191943785852086,0.0017030512893418778,-0.005061794576098531,0.0002461459739198648,0.3265489935874939,-1.1518024963191529,1.6626561323748987,-2.0800353489317835,-1.571369473134176,2.3015201091766357,-0.00020096369553357363,0.008958053775131702,0.011831920593976974,-0.015449462458491325,-2.3640659055582435e-19,-0.0004507115518208593,0.13407529890537262,0.325611412525177,-9.27034854888916,0.7418897151947021,47.68061828613281,-0.15431322157382965,-3.432115077972412,-1.8729647397994995,-0.6360415816307068,0.06904715299606323,-0.2181335985660553,24.9375,25.625,24.8125,27.375,28.25,28.8125
1.0,0.012075944278574391,-1.5843557514517819,-1.2668156400991004,-0.07286446650270473,0.031262424075234635,-0.08045852842799721,-0.5387909333594412,-0.3244770342763845,0.25981425752562903,-3.0786397516171093,0.6247980221066776,-7.726632507245017e-05,0.0008302331966583006,0.0004386811679105058,-0.00954673253693397,0.0011817560934419015,-0.003538175520795934,0.0002399735359648112,0.3265608847141266,-1.151778296833374,1.6627286116229456,-2.0801316700377406,-1.571345631276266,2.3015568256378174,-0.00023761689953971654,0.009385854005813599,0.012695273384451866,-0.018350938335061073,-1.0078382921681902e-21,-0.00048220696044154465,0.13407529890537262,0.3447650372982025,-9.366117477416992,0.6948947906494141,47.692256927490234,-0.18297773599624634,-3.3553647994995117,-1.8289589881896973,-0.666387677192688,0.0755033791065216,-0.21621719002723694,24.9375,25.625,24.8125,27.375,28.25,28.8125
1.0,-0.09737418390897035,-1.5717022759340493,-1.1257938625970005,-0.08454509211473586,0.03445351433304293,-0.07238958247943945,-0.5387784837583038,-0.32447155282650386,0.25976219186334604,-3.078603087558891,0.6248096288978866,-0.00013078276180586898,0.0005331862024638523,0.00031963438636254554,-0.010398243740837497,0.0008509677529020117,-0.002581104157966927,0.0002550015269824468,0.326560914516449,-1.1517419081977387,1.6628125349627894,-2.080205579797262,-1.571357552205221,2.3015687465667725,-0.00020998387481085956,0.010947435162961483,0.013130624778568745,-0.02136048674583435,-4.29657312434467e-24,-0.0004705239844042808,0.15322890877723694,0.3064578175544739,-9.251194953918457,0.7933669090270996,47.658226013183594,-0.1881553679704666,-3.3645575046539307,-1.8032829761505127,-0.6488972306251526,0.08186057209968567,-0.2168438732624054,24.9375,25.625,24.8125,27.375,28.25,28.8125
1.0,-0.18851955295374312,-1.1205312812450776,-1.1172801268477508,-0.06311078975491423,0.025992306621469657,-0.0778833341341593,-0.5387970744302927,-0.3244598270481901,0.2597554522406046,-3.0786124399391657,0.6248117150263377,-3.107506080989393e-05,0.0001509356693297015,0.00017518937949718026,-0.01082557540254235,5.428718123958221e-05,-0.0002558507768279228,0.0004291538039054293,0.32653695344924927,-1.1517175895026703,1.6628130117999476,-2.080289979974264,-1.5713813940631312,2.3015449047088623,-0.00018804529099725187,0.012068863958120346,0.013408325612545013,-0.02521759644150734,-1.8316965033243017e-26,-0.0006240875809453428,0.13407529890537262,0.26815059781074524,-9.308655738830566,0.7754590511322021,47.651954650878906,-0.21635566651821136,-3.34553861618042,-1.7650535106658936,-0.6289194822311401,0.09079230576753616,-0.22397631406784058,24.9375,25.625,24.8125,27.375,28.25,28.8125
1.0,0.568996269858032,-1.0546958625341623,-1.0013366547521907,-0.05408687545768455,0.033277986823915966,-0.08042433703156054,-0.538806550496886,-0.324466799048197,0.25970306165338364,-3.078637778704448,0.6248169819421097,-7.348104938540505e-05,-0.00019128170999147204,7.475826506031622e-05,-0.011529865776971541,-0.000416451793314158,0.0011123884287901104,0.0006053744086847023,0.32653695344924927,-1.151633010511734,1.6628358999835413,-2.0803872547545375,-1.571345631276266,2.3015449047088623,-0.0002127966727130115,0.013482910580933094,0.013761076144874096,-0.028431344777345657,-7.808810552376863e-29,-0.0008260984905064106,0.17238251864910126,0.24899697303771973,-9.251194953918457,0.7351769208908081,47.7164421081543,-0.18301859498023987,-3.37996768951416,-1.7677795886993408,-0.6146595478057861,0.06993056833744049,-0.21938705444335938,24.9375,25.625,24.8125,27.375,28.25,28.8125
1.0,0.31349607467131857,-0.9400457212663077,-1.1230846309597478,-0.04774775308871198,0.02147009375158951,-0.08113049512150781,-0.5387973121429094,-0.32445214681258105,0.2596201987685165,-3.078569901456138,0.624782115916112,-0.0001600939892775689,-0.0005931482527828233,-7.402637974769893e-05,-0.012039737164900659,-0.0010415547337456804,0.0029333998325635695,0.0011609951242941563,0.3265250325202942,-1.1515606802752991,1.6629446188556116,-2.0804835758604945,-1.5713813940631312,2.3015198707580566,-0.0001944291580002755,0.014791890047490597,0.013844229280948639,-0.03174890950322151,-3.329018574339461e-31,-0.0013644779101014137,0.19153612852096558,0.1149216741323471,-9.27034854888916,0.7083203792572021,47.685096740722656,-0.20620471239089966,-3.388428211212158,-1.7217391729354858,-0.5786685347557068,0.08502021431922913,-0.21732264757156372,24.9375,25.625,24.8125,27.375,28.25,28.8125
1.0,0.47019191965483853,-0.42649943290604314,-0.9719519167077773,-0.04553260296929708,0.03670299319041739,-0.08619882898943095,-0.5387692728913214,-0.32447245129036656,0.2595645539426115,-3.078589990150349,0.6246330041007548,-0.00015009654984523866,-0.00065623409033271,-0.00012781351119518807,-0.012598477559237504,-0.0012876895681179056,0.003648079882316476,0.0010181050349028474,0.3265729546546936,-1.1515244108489533,1.6630528608905237,-2.0806285343565882,-1.5713933149920862,2.3014721870422363,-0.00014462500985246152,0.01554650254547596,0.014564086683094501,-0.03397923335433006,-1.4192128088206379e-33,-0.001172493095509708,0.09576806426048279,0.019153613597154617,-9.193734169006348,0.7038487195968628,47.68598937988281,-0.19350963830947876,-3.3825902938842773,-1.6719199419021606,-0.5536559820175171,0.07048868387937546,-0.2260187268257141,24.9375,25.625,24.8125,27.375,28.25,28.8125
1.0,-0.06737533093019771,-0.548537735630273,-1.0128150928902124,-0.04031383409844566,0.03596655818427827,-0.07581196358151078,-0.5387971712562502,-0.32447014449095296,0.259527224323722,-3.0786276185505637,0.6247556331213395,-9.74567284606703e-05,-0.0007463086304144466,-0.0001662243814910863,-0.012971312140146248,-0.0016684133850426255,0.004759608055932463,0.0010466464081525303,0.3265489935874939,-1.1514403086951752,1.6630528608905237,-2.0807725391783656,-1.571357552205221,2.3015198707580566,-0.00013262235734146088,0.01607927866280079,0.015194697305560112,-0.036317501217126846,-6.050326964360375e-36,-0.0011898315278813243,0.07661445438861847,-0.019153613597154617,-9.155426979064941,0.7530794739723206,47.6976318359375,-0.2556441128253937,-3.3776211738586426,-1.6983492374420166,-0.5280441641807556,0.08803999423980713,-0.2067999243736267,24.9375,25.625,24.8125,27.375,28.25,28.8125
1.0,-0.3301287724564111,-1.046311169150802,-1.2561683258610334,-0.03914812206647686,0.037690747984744276,-0.07178812492579274,-0.5387972741784721,-0.3244728813463611,0.2594778194494681,-3.0786061834542524,0.6247129766624512,-2.730169599760542e-05,-0.0008249692312574572,-0.0001988350303870328,-0.013734016556849917,-0.0018459217923646148,0.005271488281587467,0.0010971982187947065,0.32656094431877136,-1.1513799887946625,1.6631134192096155,-2.080917020837301,-1.5714057127581995,2.3015079498291016,-0.00012352103658486158,0.017094062641263008,0.0160563625395298,-0.03873579204082489,-2.579348783546033e-38,-0.0012320134555920959,0.09576806426048279,0.038307227194309235,-9.21288776397705,0.7575564384460449,47.6734504699707,-0.3170018196105957,-3.3745641708374023,-1.649350881576538,-0.5162458419799805,0.07193706929683685,-0.22515204548835754,24.9375,25.625,24.8125,27.375,28.25,28.8125
1.0,-0.7900651308664739,-1.0648076245037819,-1.134342545577957,-0.03911535193795326,0.03780667716730007,-0.0684108907717119,-0.538789652111425,-0.3244740740661432,0.25940685098090493,-3.0786166562471884,0.6246961170639425,-0.00012207662991340566,-0.0007011548864183817,-0.00016159321913736773,-0.015092159474845619,-0.001352604498694409,0.0038147868046753716,0.0010410588099476967,0.32656094431877136,-1.1513075989535828,1.6631978193866175,-2.0810252628722132,-1.571369473134176,2.3014960289001465,-0.00011558882397366688,0.018543779850006104,0.01739884540438652,-0.03998997062444687,-1.0996129179403272e-40,-0.0011680852621793747,0.038307227194309235,-0.019153613597154617,-9.232041358947754,0.7418897151947021,47.686885833740234,-0.2980664372444153,-3.3304522037506104,-1.6641323566436768,-0.4889757037162781,0.08763241767883301,-0.2077343910932541,24.9375,25.625,24.8125,27.375,28.25,28.8125
1.0,-0.42508140697306057,-1.0239873555022236,-1.3423623855952302,-0.03263552779109472,0.0397736781315449,-0.07428842446831958,-0.5387985865041146,-0.324475856629475,0.25932821964061475,-3.0786133163963405,0.6246954966406194,-9.495818983905171e-05,-0.0007876767716466235,-0.0001974584028934937,-0.01655514879969526,-0.0009315979775379406,0.0025663315211981626,0.001110980921371794,0.32656094431877136,-1.1511869889548798,1.6632807890521448,-2.081301351586813,-1.571369473134176,2.3015079498291016,-0.00010543284588493407,0.02055690996348858,0.018264181911945343,-0.04155091941356659,-3.0828566215145976e-44,-0.0012280812952667475,-0.019153613597154617,0.019153613597154617,-9.289502143859863,0.7150384783744812,47.71017074584961,-0.37144190073013306,-3.4010236263275146,-1.7072126865386963,-0.4802612066268921,0.07770122587680817,-0.21416905522346497,24.9375,25.625,24.8125,27.375,28.25,28.8125
1.0,0.09450096320110296,-0.9482391257823559,-1.094686599638873,-0.04677264732728563,0.04288181069587377,-0.08240632916824625,-0.5388068714292205,-0.32446185712511255,0.2592436410916842,-3.078614044765744,0.6246959134093807,-5.651630410069194e-05,-0.0006817630348325229,-0.000149572129637166,-0.016896243078153815,-0.000527624332221784,0.0013807752905523494,0.0011572011708817478,0.32653698325157166,-1.1511029166034241,1.6633771101581019,-2.0814439258971156,-1.5713933149920862,2.3014721870422363,-0.00012349658936727792,0.02082679234445095,0.018492329865694046,-0.04079649597406387,-0.0,-0.0012919988948851824,0.05746084079146385,0.09576806426048279,-9.251194953918457,0.7083203792572021,47.681514739990234,-0.2957111895084381,-3.357699394226074,-1.5874576568603516,-0.48503732681274414,0.07407782971858978,-0.20415040850639343,24.9375,25.625,24.8125,27.375,28.25,28.8125
1.0,0.4281952590560501,-0.7481226437762005,-1.1693370647874934,-0.050498553223488014,0.04191923946133358,-0.08354588268735569,-0.5388099726097767,-0.32446790498179423,0.259177673147441,-3.0786546319752213,0.6247616705591577,-6.358237070918216e-05,-0.0002058390602124416,9.513793718647722e-06,-0.018883495122752378,0.0009097447634184703,-0.0028433595290399383,0.0009337600321506188,0.32653698325157166,-1.1510184866240998,1.6634495894061487,-2.081623693505758,-1.571345631276266,2.3015079498291016,-0.00011829627328552306,0.022500434890389442,0.020485825836658478,-0.04000154882669449,-0.0,-0.0010625682771205902,0.13407528400421143,0.019153613597154617,-9.193734169006348,0.7060845494270325,47.68330383300781,-0.3108161985874176,-3.391016960144043,-1.718496322631836,-0.5056737661361694,0.0778854638338089,-0.21279138326644897,24.9375,25.625,24.8125,27.375,28.25,28.8125
1.0,0.2545679621861726,-1.1513334432073237,-1.0691791324727653,-0.028293730833102285,0.02080053668119227,-0.07317672006304313,-0.5388085954236637,-0.3244804640787832,0.2590994710927561,-3.0786233375295717,0.6246599907946316,-0.00012691669141147907,-0.0004396424538930018,-2.4125993875612327e-05,-0.018806671128194657,0.0007269478372197724,-0.0023098743598046687,0.0006218037140555052,0.326560914516449,-1.15091027439151,1.6634977499591272,-2.081719537774557,-1.571369473134176,2.3014724254608154,-0.0001892197469715029,0.02282571978867054,0.01993657648563385,-0.04034150391817093,-0.0,-0.000821684196125716,0.13407529890537262,0.07661445438861847,-9.232041358947754,0.7441308498382568,47.6895751953125,-0.28839144110679626,-3.4521901607513428,-1.657135248184204,-0.5400322675704956,0.08269717544317245,-0.2089613527059555,24.9375,25.625,24.8125,27.375,28.25,28.8125
1.0,0.3659327898277632,-0.5902637096736827,-1.1833942380715206,-0.03968943523449853,0.014491218300667234,-0.0778219990290321,-0.5388203337759271,-0.32447137237875884,0.25901327998743995,-3.0786404146760846,0.6247402843422503,-0.00011412026121326995,4.194810712208245e-05,0.0001690843856291529,-0.020076851555039295,0.001352178981665776,-0.004146915398751935,0.00033283601903191047,0.3265369236469269,-1.1508022409728547,1.6635940710650843,-2.081947465936178,-1.571345631276266,2.3014962673187256,-0.00023373481235466897,0.02339966967701912,0.02222483977675438,-0.04126313701272011,-0.0,-0.0005772828008048236,0.17238251864910126,0.019153613597154617,-9.193734169006348,0.7642692923545837,47.70927429199219,-0.2883303463459015,-3.3526079654693604,-1.6594114303588867,-0.5668928623199463,0.056867439299821854,-0.196955144405365,24.9375,25.625,24.8125,27.375,28.25,28.8125
1.0,0.4422062730282091,-0.8452243249733726,-1.2499659115869357,-0.047668713242196535,0.023073187349039626,-0.07156998185267416,-0.538802882785024,-0.32449641707410765,0.2589302300487286,-3.0786466046078034,0.6245886418867261,-0.00017957230366220784,-0.0004797519673405389,0.0003852699843169673,-0.020709797383955064,0.001227186312694518,-0.003790611312328923,-0.0004002479201058498,0.32658466696739197,-1.15070594966922,1.663677994404928,-2.0820795498290003,-1.571345631276266,2.3014485836029053,-0.000840289518237114,0.0248138215392828,0.022058743983507156,-0.04288875311613083,-0.0,-0.0004512112063821405,0.15322890877723694,0.05746084079146385,-9.21288776397705,0.7665104269981384,47.71375274658203,-0.3086943030357361,-3.3681254386901855,-1.6313917636871338,-0.584178626537323,0.08134826272726059,-0.19757330417633057,24.9375,25.625,24.8125,27.375,28.25,28.8125
1.0,-0.22859532453666848,-1.2084377782459732,-1.2329775681962927,-0.03821964587548083,0.008192071885236638,-0.06880468678541388,-0.5388117698336535,-0.3244593399525396,0.2588391437906383,-3.07860901610649,0.6246570543540261,-0.00020560508081684365,-6.646830797355213e-05,0.00041748688491598826,-0.021378280429459166,0.0021571661542085572,-0.00651820761945141,-0.0002523419152656965,0.32652485370635986,-1.1506217283061524,1.6638100782977503,-2.0822698078551234,-1.571357552205221,2.301436185836792,-0.000672884052619338,0.02507438324391842,0.02278546616435051,-0.04099425673484802,-0.0,-0.00043083037598989904,0.2298433631658554,0.15322890877723694,-9.251195907592773,0.7463666796684265,47.686885833740234,-0.3558843433856964,-3.3533341884613037,-1.610170602798462,-0.6515380144119263,0.06501583009958267,-0.2114432156085968,24.9375,25.625,24.8125,27.375,28.25,28.8125
1.0,0.33366037459514225,-1.2047153831249187,-1.2380617207782756,-0.05226391733330456,0.029051773837403448,-0.06944698288010884,-0.5388216861412347,-0.32444987560190813,0.2587559997085273,-3.078537670775901,0.6247388989365322,-0.0002006732270866394,0.0001039807905397162,0.00038857809189572724,-0.022917828721888446,0.002521395760535012,-0.007598493235781025,-0.00016311546124576952,0.32651287317276,-1.1505133670619507,1.6638830343829554,-2.082426687280172,-1.5714057127581995,2.3014843463897705,-0.0005385820404626429,0.026693886145949364,0.024520643055438995,-0.04320891574025154,-0.0,-0.0003862217126879841,0.1149216815829277,0.07661445438861847,-9.193734169006348,0.6747510433197021,47.6734504699707,-0.33849862217903137,-3.407656192779541,-1.6412169933319092,-0.6976059079170227,0.08873336017131805,-0.2159833163022995,24.9375,25.625,24.8125,27.375,28.25,28.8125
1.0,0.14539206266251142,-1.4400095836758453,-1.3553163804406874,-0.05210212097184952,0.03008357295923405,-0.0735967860819805,-0.5388121300859267,-0.32446596667768324,0.2586661722698474,-3.0785506940084644,0.6246845475981144,-0.0003090045932176943,0.0001472712140079607,0.00039310472991307857,-0.023402520595125674,0.002242076091682192,-0.0067832096173509274,-0.00019632436426566136,0.3265368342399597,-1.1504052740386506,1.6639660040484827,-2.0825592480101527,-1.571369473134176,2.3014726638793945,-0.0005227200454100966,0.02710571140050888,0.025572629645466805,-0.04553451016545296,-0.0,-0.00033792690373957157,0.2106897532939911,0.17238251864910126,-9.193734169006348,0.6702793836593628,47.687782287597656,-0.369728147983551,-3.40688157081604,-1.640735387802124,-0.7181221842765808,0.08429664373397827,-0.20537331700325012,24.9375,25.625,24.8125,27.375,28.25,28.8125
1.0,0.16623796163578441,-1.209489873579923,-1.1885771581042206,-0.036830286903102104,0.025951380947923104,-0.06109523263717106,-0.538811921308829,-0.3244608493008814,0.25856927492067255,-3.0785138003047448,0.6246575012696947,-0.0002716015696963519,-1.1524341196320072e-05,0.0002914206996484821,-0.025016730842469703,0.002875713431942258,-0.008658040817009964,-0.00011198646937227017,0.3265368640422821,-1.1502965551665802,1.6640856901751917,-2.082787176171774,-1.5714176336871546,2.3014605045318604,-0.00044911145232617855,0.029563743621110916,0.02601967379450798,-0.0464605949819088,-0.0,-0.0003486017812974751,0.2106897532939911,0.09576806426048279,-9.251194953918457,0.7620334029197693,47.703006744384766,-0.35428377985954285,-3.4775328636169434,-1.6541645526885986,-0.8053154349327087,0.09307242929935455,-0.1913086473941803,24.9375,25.625,24.8125,27.375,28.25,28.8125
1.0,-0.062149147043490505,-1.1552443028541626,-1.1164240969989077,-0.044477544583899076,0.04034641239850604,-0.07555577100012792,-0.5388111510918793,-0.3244668721455051,0.2584606898162494,-3.0785320481736904,0.6247382405931816,-0.0003683731637308081,-0.00015092112579380684,0.00024388116171782364,-0.024700992527101416,0.001655052072431648,-0.005079500431315249,-0.0001469895637308446,0.3265368640422821,-1.1501647394946595,1.664194409047262,-2.082991739312643,-1.571357552205221,2.3015084266662598,-0.0004491168656386435,0.029176300391554832,0.02678566239774227,-0.05062011629343033,-0.0,-0.00031528735416941345,0.17238251864910126,0.09576806426048279,-9.21288776397705,0.6635612845420837,47.6976318359375,-0.3413543105125427,-3.394521951675415,-1.6330549716949463,-0.817467987537384,0.08394306898117065,-0.2034739851951599,24.9375,25.625,24.8125,27.375,28.25,28.8125
1.0,0.0718806177680904,-1.0038815092542448,-1.1905670418470737,-0.0444944012457828,0.04800005632966972,-0.08826106077609784,-0.538799150583334,-0.32447832891525663,0.2583700128929261,-3.0785623078591975,0.6245906815744385,-0.00036834071509129975,-0.00016951432460225735,0.00020534952604444313,-0.025459549082866004,0.0011808217472122665,-0.0036968464720933156,-8.695197317345392e-05,0.3265608251094818,-1.1500685972026368,1.6643150488482874,-2.0832087002196253,-1.571357552205221,2.301436424255371,-0.0003993710270151496,0.03001445159316063,0.028173649683594704,-0.0543079748749733,-0.0,-0.00032680947333574295,0.019153613597154617,0.05746084079146385,-9.232041358947754,0.7306999564170837,47.6976318359375,-0.4192839562892914,-3.358461380004883,-1.6319758892059326,-0.8445601463317871,0.0767534077167511,-0.20327430963516235,24.9375,25.625,24.8125,27.375,28.25,28.8125
1.0,-1.0052694854230093,-1.5367038167423346,-1.395290395721593,-0.03732280355373673,0.033432455354824794,-0.06431350530124354,-0.5388163016721813,-0.3244739361467889,0.25826828861984447,-3.0785304177949353,0.6246804984406571,-0.00033124377423311685,-0.0007207193323354785,-8.340793044194021e-06,-0.02565998920081073,-0.0008621059038926384,0.0022804307562754177,-7.679513318325148e-05,0.3265489339828491,-1.1499243539622803,1.6643994490252894,-2.0834509334959925,-1.5713813940631312,2.3014845848083496,-0.00035948664299212396,0.030925210565328598,0.029233520850539207,-0.06259535998106003,-0.0,-0.00030021643033251166,0.019153613597154617,0.07661445438861847,-9.346963882446289,0.6926589012145996,47.649269104003906,-0.4400162398815155,-3.402299404144287,-1.6552025079727173,-0.7998307943344116,0.0698065310716629,-0.20030415058135986,24.9375,25.625,24.8125,27.375,28.25,28.8125
1.0,-0.444715039478501,-0.9952921644998072,-1.3273351890782223,-0.05872359752792837,0.056982220398672415,-0.07778008687288118,-0.5388339709184911,-0.32445658494818125,0.2581834716840359,-3.078530291867843,0.6247764517772872,-0.0002812008094041262,-0.0008138197883076339,-0.00010209377945695703,-0.02653369693000842,-0.001356438948423233,0.003719811763120029,-2.2644851438866672e-05,0.3265129625797272,-1.1498159927180787,1.6644952932940882,-2.0836922130980433,-1.5713813940631312,2.3015084266662598,-0.00026372316642664373,0.0320873036980629,0.030487651005387306,-0.06653346866369247,-0.0,-0.000259903259575367,0.05746084079146385,0.038307227194309235,-9.366117477416992,0.7195101380348206,47.67882537841797,-0.38862186670303345,-3.505795478820801,-1.7359652519226074,-0.7773506045341492,0.05615134537220001,-0.20061245560646057,24.9375,25.625,24.8125,27.375,28.25,28.8125
1.0,-0.2696778635860444,-0.7951276008155346,-1.1661917655738623,-0.06521621404281944,0.0641743288868295,-0.0895735314135187,-0.5388083360667283,-0.3244621406622674,0.2580570583271651,-3.078529875158952,0.6246998575013951,-0.0002870299328750422,-0.0012042140753688122,-0.0002276001365875877,-0.02731621921681423,-0.0027591004488443224,0.00781772919821647,-7.767778956397484e-05,0.3265369236469269,-1.1497076016715546,1.664698902760641,-2.0839930973448695,-1.5713933149920862,2.3014845848083496,-0.000275164726190269,0.03347232937812805,0.03196277841925621,-0.07372494041919708,-0.0,-0.00021888487390242517,-0.13407529890537262,0.19153612852096558,-9.28950309753418,0.7016075849533081,47.68867492675781,-0.47861984372138977,-3.53521728515625,-1.7397222518920898,-0.6772867441177368,0.05967474728822708,-0.20177918672561646,24.9375,25.625,24.8125,27.375,28.25,28.8125
1.0,-0.921785117100074,-1.573924126127594,-1.3403590813532489,-0.04512590306666941,0.04450615825188615,-0.07047346122358966,-0.5388220795459204,-0.32447207414492857,0.2579345511422367,-3.078504843592914,0.624694628211936,-0.00028142430035815833,-0.0016160886740283174,-0.0003571888661487309,-0.027815539961019674,-0.004334756695243383,0.012424798098817929,-9.679869201385786e-05,0.3265489637851715,-1.1495275062373658,1.6647833029376429,-2.08424772838735,-1.5714176336871546,2.3014965057373047,-0.0002916406374424696,0.03452159836888313,0.033267587423324585,-0.08094808459281921,-0.0,-0.0002189079677918926,-0.019153613597154617,0.1149216815829277,-9.404424667358398,0.7306999564170837,47.67792892456055,-0.4807981252670288,-3.5170507431030273,-1.7518023252487183,-0.6074772477149963,0.06412149965763092,-0.18832316994667053,24.9375,25.625,24.8125,27.375,28.25,28.8125
1.0,-0.4003035861874039,-1.001201796858222,-1.1540350156753136,-0.056093795936306944,0.046943013643427886,-0.07848412628062902,-0.5388328288876559,-0.3244627105503096,0.25782149846294117,-3.078563245834186,0.6247260349568806,-0.00018769345148579987,-0.001499817378218974,-0.0003306969074096731,-0.028853306639584297,-0.004389511646094567,0.01257821517261905,-7.629563111930256e-05,0.3265250027179718,-1.1493950945189972,1.6649392286883753,-2.0846196613707484,-1.5713933149920862,2.3014845848083496,-0.00027113198302686214,0.03549584373831749,0.0348927304148674,-0.08371034264564514,-0.0,-0.00021972204558551311,0.019153613597154617,0.1149216815829277,-9.28950309753418,0.8112748265266418,47.6976318359375,-0.4634297490119934,-3.4781394004821777,-1.801706075668335,-0.5062789916992188,0.0777566060423851,-0.1882660686969757,24.9375,25.625,24.8125,27.375,28.25,28.8125
1.0,0.3594954760348438,-0.7141925001534785,-0.9515890074143274,-0.021824572295878857,0.020827968354396466,-0.07611932045342161,-0.538843703763962,-0.3244765739487261,0.25764534335181627,-3.0786442016940767,0.6247238422418484,-5.1773808029489395e-05,-0.0008842750818299199,4.03618126607096e-05,-0.03169646783374255,-0.0012061858124254618,0.003231217351252111,-0.0002840908294609016,0.3265368342399597,-1.1491663318923493,1.6651437918292444,-2.085167547265524,-1.571369473134176,2.3014845848083496,-0.0005189601797610521,0.038196876645088196,0.03627424314618111,-0.07791867852210999,-0.0,-0.000256833533057943,0.09576806426048279,0.13407529890537262,-9.155426979064941,0.7441308498382568,47.72270965576172,-0.46557602286338806,-3.6401724815368652,-1.8044569492340088,-0.5243479013442993,0.058230236172676086,-0.19305838644504547,24.9375,25.625,24.8125,27.375,28.25,28.8125
1.0,0.3937626608567364,-0.4813535894925776,-1.0461633742881757,-0.018802130639309706,0.004393008445750451,-0.06935614983815691,-0.5388458664969532,-0.3244579144428504,0.2575386529781277,-3.078628091090161,0.624701753593711,5.884453966782074e-06,-0.0005867674545875284,0.00019665781969865426,-0.03206094855016004,4.193798805805985e-05,-0.0004257466305798081,-0.00038032683080925197,0.3265128433704376,-1.1490585666945954,1.665300194417135,-2.0854531727232875,-1.5714057127581995,2.3014488220214844,-0.0006034581456333399,0.03827454149723053,0.03610295429825783,-0.07396096736192703,-0.0,-0.00024349144950974733,0.19153612852096558,0.019153613597154617,-9.117119789123535,0.6434228420257568,47.69584274291992,-0.49679046869277954,-3.561190128326416,-1.7530906200408936,-0.5618083477020264,0.058313868939876556,-0.18242385983467102,24.9375,25.625,24.8125,27.375,28.25,28.8125
1.0,-0.08493445586850118,-0.6926104645517812,-0.8357963594075868,-0.027156390748785807,-0.0011369418416229127,-0.06867666822234833,-0.5388713219214749,-0.3244546939053938,0.2574164506109797,-3.0786650010829,0.6247672737511577,2.3887128535222823e-05,-2.404770314035336e-05,0.0007611262243678602,-0.03384291081970893,0.0017062009853415709,-0.005310141296611254,-0.0008547636251369261,0.3264887034893036,-1.1488782924464722,1.665396515523092,-2.085764547387594,-1.571369473134176,2.3014607429504395,-0.0011770229320973158,0.0392003208398819,0.03842620551586151,-0.07204985618591309,-0.0,-0.00034145457902923226,0.24899697303771973,0.0,-9.117119789123535,0.6769921779632568,47.658226013183594,-0.47040361166000366,-3.6300559043884277,-1.7977603673934937,-0.6005077958106995,0.08511506021022797,-0.19071625173091888,24.9375,25.625,24.8125,27.375,28.25,28.8125
1.0,1.0884121394453818,0.05849017766968739,-0.5608758495236997,-0.03449511490695957,0.01459079415574606,-0.08842703536560034,-0.5388583347006626,-0.32445301737666266,0.2572834534122822,-3.078620596376595,0.6247772058560752,6.107966986633132e-05,-0.0003048569470902396,0.000678480899022514,-0.0337851133288085,0.0022704276434560248,-0.0069674550557545295,-0.0009169963959895402,0.3265007436275482,-1.1487460893443604,1.6655867735492151,-2.086086412469381,-1.5714176336871546,2.3014845848083496,-0.00119715032633394,0.03990466147661209,0.03668968006968498,-0.06926695257425308,-0.0,-0.00029829543200321496,0.325611412525177,-0.038307227194309235,-8.868123054504395,0.7038487195968628,47.687782287597656,-0.44930899143218994,-3.6765975952148438,-1.6853015422821045,-0.6421447992324829,0.08113525062799454,-0.18712013959884644,24.9375,25.625,24.8125,27.375,28.25,28.8125
1.0,0.36153838478349265,-0.7951535022563411,-0.8886152928227641,-0.0219407346534839,-0.00864384061783426,-0.07411086913405875,-0.5388531333807128,-0.324445955118847,0.25713230977501966,-3.0785908088370464,0.6247523608533436,-0.00010761855832677927,0.00042705928814473944,0.0008990363060419992,-0.03548674890693349,0.0035653880798675298,-0.010769374832872082,-0.0008610151182849141,0.3264887034893036,-1.1485780042460938,1.6657441298114222,-2.086301942864889,-1.5713933149920862,2.3014607429504395,-0.001152446144260466,0.04071081802248955,0.03929632902145386,-0.0686633437871933,-0.0,-0.00030892802169546485,0.26815059781074524,0.038307227194309235,-8.925583839416504,0.7665104269981384,47.685096740722656,-0.44835951924324036,-3.605269432067871,-1.796837329864502,-0.705407977104187,0.052065469324588776,-0.20100098848342896,24.9375,25.625,24.8125,27.375,28.25,28.8125
1.0,1.0529580837770007,-0.5125087096543475,-0.8335582463236166,-0.04675244553827232,0.019108913033637848,-0.08854826762972637,-0.5388424473248784,-0.3244694399502204,0.2569688153202885,-3.0785887174488806,0.6246752516500479,-0.0002671592022158826,0.0008948433195991564,0.0009821251203490857,-0.036893047461954355,0.004837566163669313,-0.014503976030149735,-0.0007683070156052231,0.3265247344970703,-1.1483738285354157,1.665887180958883,-2.086552759210104,-1.571357552205221,2.3014488220214844,-0.0010346225462853909,0.041793785989284515,0.04063957557082176,-0.06714420765638351,-0.0,-0.00028288483736105263,0.26815056800842285,0.15322890877723694,-8.983044624328613,0.7105615139007568,47.690467834472656,-0.47669750452041626,-3.545801877975464,-1.766347885131836,-0.7879695892333984,0.07192966341972351,-0.20372505486011505,24.9375,25.625,24.8125,27.375,28.25,28.8125
1.0,0.04400125507050706,-1.1887015573981174,-0.8774231674486532,-0.056208414102649984,0.03127191894247483,-0.07512371441309686,-0.5388340226373681,-0.3244587296766805,0.256825475075549,-3.0785601218666763,0.6247270800398437,-0.00031590233996119246,0.0005320304140976366,0.0008334641390779721,-0.03681164395820153,0.0036175101577876306,-0.010933195981915837,-0.0007583747514859208,0.3265126943588257,-1.1482298535159607,1.6660798231707972,-2.08685364345693,-1.571357552205221,2.3014726638793945,-0.0009961312171071768,0.042207542806863785,0.04088813439011574,-0.07157997786998749,-0.0,-0.0002560738066677004,0.17238251864910126,0.17238251864910126,-9.136273384094238,0.7530794739723206,47.685096740722656,-0.5233497619628906,-3.5538554191589355,-1.7584319114685059,-0.8115164041519165,0.06830451637506485,-0.20703309774398804,24.9375,25.625,24.8125,27.375,28.25,28.8125
1.0,-0.7148051035086285,-2.0222612843157646,-1.2754539248849275,-0.057236537649709665,0.036740400878175095,-0.07085842997288709,-0.5388386971523916,-0.32445651507882345,0.256701083301452,-3.0785101577514458,0.6247361428164231,-0.00033251885568098117,-0.00014827376524893018,0.0007275212698497216,-0.03671238428311108,0.0014029825393591184,-0.0044502263556248966,-0.0009388082861763577,0.3265126347541809,-1.1480738383582612,1.6661995092975062,-2.0870963535704554,-1.5713933149920862,2.3014845848083496,-0.0011899464298039675,0.042851731181144714,0.04163262993097305,-0.0798194408416748,-0.0,-0.00027268557460047305,0.13407529890537262,0.3064578175544739,-9.193734169006348,0.6725152134895325,47.68419647216797,-0.470221608877182,-3.522195339202881,-1.7470622062683105,-0.8072278499603271,0.055229924619197845,-0.19539767503738403,24.9375,25.625,24.8125,27.375,28.25,28.8125
1.0,-0.837956603113666,-1.817876768311731,-1.4814443626430234,-0.06819993217459315,0.04575706597933354,-0.06840112847285953,-0.5388475387936074,-0.32445428379249386,0.25654637228884786,-3.078541155174945,0.6247235132611537,-0.0003333972723085813,-0.0007285927998597116,0.0004730599051206274,-0.03703136825686198,-0.0006480809757355324,0.0015499093229089896,-0.000845086230934993,0.3265007436275482,-1.1478814643672486,1.6663668791400355,-2.0874697170653285,-1.571369473134176,2.3014607429504395,-0.0011024933774024248,0.044018395245075226,0.04266854003071785,-0.08836302161216736,-0.0,-0.00028220590320415795,0.07661445438861847,0.24899697303771973,-9.251194953918457,0.6769921779632568,47.693153381347656,-0.49842846393585205,-3.5587306022644043,-1.82896089553833,-0.7410904169082642,0.062147267162799835,-0.19694653153419495,24.9375,25.625,24.8125,27.375,28.25,28.8125
1.0,-1.1934714631683385,-1.9956113643209608,-1.7049026893644172,-0.06930212440298085,0.04766955712662477,-0.0732984409338181,-0.538834565776626,-0.3244511460076791,0.25636532184828437,-3.078510636131956,0.6247173271382288,-0.00045563239218139676,-0.0012825947868205512,0.00015115006489372067,-0.03705713860912409,-0.002910784928110173,0.008173072657192344,-0.0006598957178080159,0.3265008330345154,-1.1476893883994599,1.6665838400470179,-2.0877958736815394,-1.571357552205221,2.3014607429504395,-0.0008974630618467927,0.044814981520175934,0.043598223477602005,-0.0970882922410965,-0.0,-0.0002657714067026973,0.0,0.28730422258377075,-9.423578262329102,0.7597975730895996,47.699424743652344,-0.5712471008300781,-3.5644702911376953,-1.840861201286316,-0.6611630916595459,0.06228462606668472,-0.2003474235534668,24.9375,25.625,24.8125,27.375,28.25,28.8125
1.0,-0.837311388713376,-1.813456437534422,-1.725217029370727,-0.06943821931373056,0.06141957410963643,-0.07902963941812678,-0.5388321706318471,-0.3244465726274442,0.25618526787584706,-3.0784710301750455,0.6247284289234836,-0.00044431029722317614,-0.001416975778318735,2.2859418434185805e-05,-0.03820937520560776,-0.003554727313631618,0.010047190554631961,-0.0005405827119121913,0.32650086283683777,-1.147484914665558,1.6667998472796839,-2.0882040462889613,-1.5713933149920862,2.3014726638793945,-0.0007701772847212851,0.0464077927172184,0.04516447335481644,-0.10222901403903961,-0.0,-0.0002595313417259604,-0.038307227194309235,0.19153612852096558,-9.461885452270508,0.7463666796684265,47.70121383666992,-0.5524716377258301,-3.615588665008545,-1.8739080429077148,-0.5644069910049438,0.06518634408712387,-0.18509113788604736,24.9375,25.625,24.8125,27.375,28.25,28.8125
1.0,-0.5222048699571953,-1.0881214173174192,-1.794720055363622,-0.05017711974556638,0.03573204170624987,-0.06760644011402724,-0.5388502376490601,-0.32444863861507767,0.25603415102094595,-3.0785364058909863,0.6247421973110467,-0.0003777900014006308,-0.0009694774202957234,0.00017233539331908956,-0.03967812840706539,-0.0021033279877308688,0.005785664664886597,-0.0005611686740884521,0.32648882269859314,-1.1472805899432679,1.666955296193258,-2.0886341534056605,-1.571357552205221,2.3014607429504395,-0.0007652439526282251,0.04758656397461891,0.04638668894767761,-0.10012807697057724,-0.0,-0.0002328485279576853,0.038307227194309235,0.15322890877723694,-9.461885452270508,0.6792280077934265,47.703006744384766,-0.5682439804077148,-3.6697046756744385,-1.8940064907073975,-0.5504729747772217,0.06294049322605133,-0.20134152472019196,24.9375,25.625,24.8125,27.375,28.25,28.8125
1.0,0.4769377814503449,0.017028234136746728,-1.6656505053275832,-0.030940351124043062,0.02949557087682622,-0.08931429500509065,-0.5388667106263512,-0.32442844559042816,0.2558765007361705,-3.0785240050988283,0.6247582851925709,-0.0003292232158689046,-0.0005496609404814813,0.00024929231916548606,-0.04050197129548863,-0.00016072397522555172,8.886258951722875e-05,-0.00043688278044121543,0.32645297050476074,-1.1470886331847687,1.6671345869647425,-2.089027544061178,-1.5713813940631312,2.301436424255371,-0.0006633334560319781,0.04827052727341652,0.046019963920116425,-0.09442640841007233,-0.0,-0.0002528177574276924,0.1149216741323471,-0.05746084079146385,-9.481039047241211,0.6814691424369812,47.692256927490234,-0.5731894969940186,-3.6697604656219482,-1.8292338848114014,-0.6182748079299927,0.05257438123226166,-0.2006302773952484,24.9375,25.625,24.8125,27.375,28.25,28.8125
1.0,0.09590772254337014,-0.23542146004351228,-1.719027858142731,-0.009425887123013073,0.011365275293731516,-0.07836896940267006,-0.5388575660299438,-0.3244485906813894,0.2557253766197285,-3.078547813258264,0.6247257151442838,-0.0002853717103608841,0.00044209623390892294,0.0006659376094012605,-0.04218438786580367,0.0022372996960633162,-0.0069415557754174545,-0.0005768696604019913,0.32648882269859314,-1.1469085675529023,1.6673157850848597,-2.089421411553854,-1.5713813940631312,2.3014488220214844,-0.0007842977065593004,0.048689089715480804,0.0481652095913887,-0.0895620733499527,-0.0,-0.00023148975742515177,0.15322890877723694,-0.17238251864910126,-9.404424667358398,0.6904177665710449,47.686885833740234,-0.5632684230804443,-3.697892189025879,-1.9227428436279297,-0.6868873834609985,0.0443304106593132,-0.19588935375213623,24.9375,25.625,24.8125,27.375,28.25,28.8125
1.0,0.3500605658785832,-0.023687724451061612,-1.5075042094149764,-0.01653288333549323,0.017985109347113042,-0.07870698265993038,-0.5388706880459078,-0.32442710765932165,0.25555559864058064,-3.078505310815724,0.6247358896277001,-0.00031778914464188415,-0.0004135871958813146,0.0005714965762264796,-0.04142995938242753,0.0026329078362905736,-0.008106443430942209,-0.0008625085040420602,0.3264528214931488,-1.146704302435257,1.6674945990191858,-2.089766641656393,-1.5714057127581995,2.301424503326416,-0.001088006072677672,0.04958222806453705,0.044245507568120956,-0.08530528098344803,-0.0,-0.0002481131232343614,0.17238251864910126,-0.17238251864910126,-9.308655738830566,0.7597975730895996,47.70121383666992,-0.5549094676971436,-3.6689085960388184,-1.6297564506530762,-0.7882105112075806,0.05863431841135025,-0.19433146715164185,24.9375,25.625,24.8125,27.375,28.25,28.8125
1.0,0.23962079466421782,-0.14768975216870225,-1.1728901739240332,-0.030769739572590347,0.03189076852167649,-0.0813153632965774,-0.538850517557984,-0.32443834218935724,0.25538777804065577,-3.0784916941150273,0.6247338322773742,-0.0004317744627378401,0.0004486495480834265,0.0008412009679482561,-0.039812240494765325,0.0015899007256434548,-0.005020948461783233,-0.0008444492382522406,0.3264768123626709,-1.1465260249427338,1.6676977316485804,-2.0900784931578578,-1.5713813940631312,2.3014488220214844,-0.0010513336164876819,0.045587893575429916,0.0465005561709404,-0.0868230015039444,-0.0,-0.00023053324548527598,0.2298433631658554,-0.1149216815829277,-9.289502143859863,0.7374180555343628,47.69584274291992,-0.5830079913139343,-3.374701976776123,-1.691126823425293,-0.8506526947021484,0.05810309201478958,-0.19317206740379333,24.9375,25.625,24.8125,27.375,28.25,28.8125
1.0,-0.37207842477939523,-0.7981551950648906,-1.4181476156959034,-0.05117958833083962,0.04039009964808561,-0.07362453828216942,-0.538846447319441,-0.32443814301297225,0.25521809285905184,-3.0784929786649537,0.624753495439913,-0.00045650620315651014,-0.0010548442620080725,0.00041812189337169696,-0.04011330432638023,-0.001917580557054199,0.005236815263530262,-0.0009820835193536292,0.3264886736869812,-1.1462613505176087,1.6679742972003382,-2.090621610681051,-1.5713933149920862,2.3014726638793945,-0.0011885685380548239,0.04820934683084488,0.04660823196172714,-0.10039298236370087,-0.0,-0.00023539949324913323,0.0,0.1149216815829277,-9.404424667358398,0.7239871025085449,47.67792892456055,-0.6089837551116943,-3.4344687461853027,-1.576446533203125,-0.8169891834259033,0.04235994815826416,-0.20118486881256104,24.9375,25.625,24.8125,27.375,28.25,28.8125
1.0,-0.7768167645211308,-2.022571982808043,-1.5656618987189617,-0.07863668584388636,0.068246900663668,-0.07824561179799847,-0.5388570953339445,-0.3244326116501283,0.2549919328588631,-3.078506148315439,0.6247758602225528,-0.00037502383052220146,-0.0015556679013103071,0.00042345969259165303,-0.03920999999182085,-0.005411060029962375,0.01548163513108583,-0.0012707100347884694,0.32646462321281433,-1.146057890062668,1.6681655089007776,-2.0910569630064906,-1.5713813940631312,2.3014607429504395,-0.0014596147229894996,0.047138478606939316,0.04875611886382103,-0.11229407787322998,-1.5471574954517564e-07,-0.00022274712682701647,0.019153613597154617,0.24899697303771973,-9.53849983215332,0.7665104269981384,47.70838165283203,-0.6169254779815674,-3.205594539642334,-1.7560439109802246,-0.6975903511047363,0.055156707763671875,-0.19881471991539001,24.9375,25.625,24.8125,27.375,28.25,28.8125
1.0,-0.8020039464667573,-2.136607375715535,-1.7119081211076792,-0.08567708805688001,0.06632485696002689,-0.0673040553570619,-0.5388612065894944,-0.32441837234197646,0.25483796712916434,-3.0785291949832945,0.6248193060374507,-0.00029254280581990485,-0.002335880924709509,0.00033049867566710314,-0.039072846960361104,-0.007563919957856315,0.021785312072279246,-0.0015218726525574131,0.32644057273864746,-1.145889626150467,1.6683815161334437,-2.0915023289122523,-1.5713813940631312,2.3014607429504395,-0.001725749229080975,0.047938328236341476,0.04910644143819809,-0.12010541558265686,-6.595775592366238e-10,-0.00024085016048047692,-0.07661445438861847,0.24899697303771973,-9.519346237182617,0.7262282371520996,47.686885833740234,-0.5760324001312256,-3.313586711883545,-1.6390445232391357,-0.5765043497085571,0.04812856763601303,-0.19018055498600006,24.9375,25.625,24.8125,27.375,28.25,28.8125
1.0,-0.5508225809555993,-1.3211027590352984,-1.6367094530533715,-0.08056841878293255,0.04478522121606476,-0.07799360771661822,-0.5388721273054141,-0.3244298918197087,0.2547022560701131,-3.0786105727252755,0.6247778190618277,-0.0001019392293088747,-0.0018917721496861863,0.0004907291625869368,-0.04013386633578022,-0.005975550603267962,0.017124260646142923,-0.001519208139523637,0.3264526128768921,-1.1457095605186005,1.6685493628131312,-2.0919910869994105,-1.5713813940631312,2.301436424255371,-0.00173932162579149,0.04867482930421829,0.04967925697565079,-0.11649047583341599,-2.811882454309411e-12,-0.00025542525690980256,-0.038307227194309235,0.325611412525177,-9.481039047241211,0.7508436441421509,47.693153381347656,-0.5476478338241577,-3.1886579990386963,-1.6488405466079712,-0.5756900310516357,0.057334743440151215,-0.18829792737960815,24.9375,25.625,24.8125,27.375,28.25,28.8125
1.0,-0.18630343276451505,-0.8257106206970691,-1.5732144639654893,-0.04179294227158449,0.0037749385888269805,-0.06789128386072475,-0.5388813455596433,-0.32443175783304484,0.2545308816449785,-3.0786136519416685,0.624855831107009,-1.67631388115334e-05,-0.001593370136224751,0.0006016416514649097,-0.04213889853808159,-0.0035269726724989885,0.009931106797696645,-0.0015134154741797317,0.3264526128768921,-1.1454929572394867,1.6687420050250452,-2.0924564800658167,-1.5713933149920862,2.3014845848083496,-0.0017531899502500892,0.05107618868350983,0.04972406104207039,-0.11133815348148346,-1.198749656667903e-14,-0.00027257855981588364,0.038307227194309235,0.19153612852096558,-9.308655738830566,0.7508436441421509,47.705692291259766,-0.589949369430542,-3.22305965423584,-1.561020016670227,-0.6291728019714355,0.04991571232676506,-0.1877794861793518,24.9375,25.625,24.8125,27.375,28.25,28.8125
1.0,0.7714430523486994,-0.48241877399607547,-1.3354967181710264,-0.026410925107342484,0.009416844774475524,-0.07462235855052109,-0.5388800114519695,-0.3244233790928589,0.2543300023362356,-3.078609160156189,0.6248172808454555,-5.101676378262004e-05,-0.0014647045848093423,0.0008168435455687931,-0.042693514360828064,-0.002232598803839821,0.0061342314025717905,-0.0017928460437856694,0.3264404535293579,-1.145264909868576,1.6689804236041468,-2.092898031274313,-1.5713933149920862,2.3014488220214844,-0.002017009537667036,0.05165445804595947,0.04931700974702835,-0.1074979230761528,-5.1104574819730637e-17,-0.00025535005261190236,0.19153612852096558,0.0,-9.251194953918457,0.6904177665710449,47.69853210449219,-0.5247068405151367,-3.2125015258789062,-1.3707382678985596,-0.6902563571929932,0.053581856191158295,-0.19064348936080933,24.9375,25.625,24.8125,27.375,28.25,28.8125
1.0,0.9647001992106014,-0.12349788514546878,-0.9130887972065701,-0.018360096968376656,0.012360231545152343,-0.08248516975387214,-0.5388878731062919,-0.32441572448324424,0.254177841503503,-3.078614571865439,0.6248568039019978,5.857801193546125e-05,-0.0007813380945999576,0.0011779654759750497,-0.04606794008297746,0.001073916798131617,-0.0035810633332582827,-0.0019726591708933362,0.32642850279808044,-1.145083801155426,1.669173542653219,-2.0933391056456507,-1.5714176336871546,2.3014607429504395,-0.002213964704424143,0.05494193360209465,0.051268912851810455,-0.10247474908828735,-2.178668363903085e-19,-0.00026965964934788644,0.3256114423274994,-0.1149216741323471,-9.059659004211426,0.7441308498382568,47.70658874511719,-0.5615825057029724,-3.3327484130859375,-1.4525771141052246,-0.7882741093635559,0.04040586203336716,-0.20802746713161469,24.9375,25.625,24.8125,27.375,28.25,28.8125
1.0,0.9533646619634678,0.1002787842034269,-0.7660312873814529,-0.004800274276044825,-0.0006896013173861835,-0.07962057328424879,-0.538895360918602,-0.3244208250510963,0.2540360175569182,-3.0786682616541974,0.6248870349258688,0.00013899196095527354,-0.00046295763087236125,0.0011953587266556763,-0.0458205894612049,0.00028410224057389246,-0.0012591852648529789,-0.0017899187081035384,0.32642853260040283,-1.1449044209769745,1.6693409124957483,-2.093759676019186,-1.5713933149920862,2.3014726638793945,-0.0020737643353641033,0.053882844746112823,0.05287662521004677,-0.10547591000795364,-9.28800437429699e-22,-0.00031346900505013764,0.38307225704193115,-0.28730422258377075,-8.96389102935791,0.7575564384460449,47.67882537841797,-0.547584593296051,-3.137953996658325,-1.3480799198150635,-0.8421674966812134,0.04069237411022186,-0.19796979427337646,24.9375,25.625,24.8125,27.375,28.25,28.8125
1.0,0.7309025541192836,-0.20299157474537788,-0.7068591144503705,-0.03041804333836061,0.023965858650601333,-0.08267949505871636,-0.5389002354234692,-0.3243991342081129,0.25381595688443215,-3.078635407427533,0.6248417849524178,2.628673507897517e-05,-0.0009569546028241754,0.0008172589091126857,-0.047558036207963596,-0.0012021538440444867,0.00307349963627593,-0.0014562193874149464,0.32639262080192566,-1.1446514588645478,1.6695812384234827,-2.094170232812399,-1.5713933149920862,2.301412582397461,-0.0017502944683656096,0.05689225345849991,0.05479084327816963,-0.11498003453016281,-3.9596218383017354e-24,-0.0003270382294431329,0.2106897532939911,-0.15322890877723694,-8.983044624328613,0.7016075849533081,47.687782287597656,-0.5962139368057251,-3.2677338123321533,-1.4237539768218994,-0.7600187063217163,0.06396893411874771,-0.19585183262825012,24.9375,25.625,24.8125,27.375,28.25,28.8125
1.0,-0.6376524023248475,-1.4874584293020632,-0.8381737583809685,-0.06275128544040363,0.05503750281426812,-0.07369412790424837,-0.5388758232100983,-0.324406408604188,0.25360887213063926,-3.0786055116793327,0.6248164398917132,-6.770023800427924e-05,-0.0016482412608543207,0.00045285459526495586,-0.04610458056825474,-0.004458878300024937,0.012681115831832056,-0.0012435909729749841,0.32641667127609253,-1.144436077480652,1.6698444525348108,-2.0945798359312953,-1.5713933149920862,2.301424503326416,-0.0015491574304178357,0.055986981838941574,0.05487760156393051,-0.12430606782436371,-1.825328217819333e-05,-0.00034260735264979303,0.05746084079146385,-0.019153613597154617,-9.02135181427002,0.7083203792572021,47.700321197509766,-0.5694037675857544,-3.315268039703369,-1.5256338119506836,-0.6602107882499695,0.04995811730623245,-0.1975792646408081,24.9375,25.625,24.8125,27.375,28.25,28.8125
1.0,-1.2412494150012683,-2.282683008589767,-0.9694292700133299,-0.06759077196532086,0.06590279117858926,-0.07246690481213332,-0.5388997871289217,-0.32439371052529115,0.25346002158089026,-3.0786802461674876,0.6249472717505509,0.00012326708023691245,-0.001176013193018481,0.0005090946903825099,-0.046145855033202614,-0.005287821053368513,0.015783294310243102,-0.001037522303721364,0.32638072967529297,-1.1442445081523438,1.6700380484210413,-2.0951200924315394,-1.571369473134176,2.3014605045318604,-0.0013533246237784624,0.05490517243742943,0.05759575217962265,-0.1291457861661911,-0.00023265345953404903,-0.0003544637584127486,-0.07661445438861847,0.3256114423274994,-9.155426979064941,0.7195101380348206,47.69584274291992,-0.669788658618927,-3.2355804443359375,-1.6448246240615845,-0.5635476112365723,0.03319384157657623,-0.19361847639083862,24.9375,25.625,24.8125,27.375,28.25,28.8125
1.0,-0.8912524175430067,-1.8004454537803047,-1.033577727613936,-0.05078358182341147,0.03633008284575835,-0.06776932617001596,-0.5388944767596754,-0.3244087037634431,0.2532594130523424,-3.0787351761525974,0.6248430597693589,0.00017319814961003107,-0.0007083866442016525,0.0005976026863590188,-0.04822785860156773,-0.0024647077277842157,0.007425660083474392,-0.0009246197884643951,0.32640472054481506,-1.144004003410675,1.6702774206744593,-2.0956441364684046,-1.571357552205221,2.301412343978882,-0.00124741077888757,0.057240039110183716,0.05761377885937691,-0.12267716974020004,-0.00021168978128116578,-0.00035843008663505316,-0.13407529890537262,0.40222588181495667,-9.117119789123535,0.7172743082046509,47.6976318359375,-0.6099140048027039,-3.2359209060668945,-1.7498657703399658,-0.5952129364013672,0.05744218826293945,-0.193775475025177,24.9375,25.625,24.8125,27.375,28.25,28.8125
1.0,0.5749733734540545,-0.6518950525556616,-1.0492557351232432,-0.04749811533460605,0.035396348807119116,-0.08442740484504802,-0.5388998756179645,-0.32439904219725935,0.2530562828100352,-3.0787077635683975,0.624876195637265,0.00022812195994120342,0.00045592614906843,0.0010016054858796191,-0.05088829508852842,0.0013510966474818377,-0.003739340290183319,-0.0009573960728891501,0.3263928294181824,-1.1437635582736512,1.6705172697650355,-2.0961443386473597,-1.5713933149920862,2.301424503326416,-0.0012567153898999095,0.05892907455563545,0.05944307893514633,-0.11439644545316696,-0.000222076298086904,-0.00033099568099714816,-0.1149216815829277,0.28730422258377075,-9.155426979064941,0.6792280077934265,47.68598937988281,-0.6401445865631104,-3.3597412109375,-1.7878422737121582,-0.6390401124954224,0.05064273253083229,-0.1880267709493637,24.9375,25.625,24.8125,27.375,28.25,28.8125
1.0,0.5480449189279413,-0.36370908443256245,-1.070491278238439,-0.022928326306208106,0.01628524442734159,-0.06668929993951797,-0.5388963348680911,-0.3244210529913809,0.2528582941271637,-3.0787160079196516,0.6248593098918436,0.00023881700620092197,0.000455122854122544,0.0013371565509201055,-0.051533797949985506,0.003332502457026811,-0.009578030297842677,-0.0014323206858561862,0.32642862200737,-1.1435114604285737,1.6707208792315882,-2.0966083012022914,-1.5713933149920862,2.3014485836029053,-0.001775072538293898,0.05990554392337799,0.058065224438905716,-0.10782934725284576,-0.0002137508854502812,-0.0003717041981872171,0.05746084079146385,0.07661445438861847,-9.097966194152832,0.6881819367408752,47.6627082824707,-0.5998680591583252,-3.3968472480773926,-1.747865080833435,-0.7485007047653198,0.046987295150756836,-0.18514060974121094,24.9375,25.625,24.8125,27.375,28.25,28.8125
1.0,1.0101557157320538,0.030527904916125004,-0.984098128715031,-0.011475395088937093,0.011933849511933822,-0.07261656934456251,-0.5389105996633472,-0.3243843152727732,0.25264062785291974,-3.0786457241328185,0.6249219600126154,0.0001609159476814303,0.00023380147777416678,0.0014952312329405443,-0.051828778737328995,0.0036017438962115266,-0.010422648225630049,-0.001845649243949297,0.3263685405254364,-1.143259422188141,1.6709592978106897,-2.097027441064352,-1.5714176336871546,2.301436424255371,-0.0021371878683567047,0.06060921773314476,0.0576225146651268,-0.10720402002334595,-0.00019810444791801274,-0.0003202107618562877,0.28730419278144836,-0.15322890877723694,-9.097966194152832,0.7665104269981384,47.67792892456055,-0.5438621044158936,-3.4168334007263184,-1.6500192880630493,-0.796282172203064,0.04934482276439667,-0.19357463717460632,24.9375,25.625,24.8125,27.375,28.25,28.8125
1.0,0.5830670316570321,-0.552833354628828,-1.3235414933156986,-0.01137445546507973,0.014529596089840134,-0.07028116989540148,-0.538902614977081,-0.3243997152633351,0.2524164003890713,-3.078632311254666,0.6248618369557506,1.5606160156958875e-05,-0.0008584507726382792,0.001013622315088919,-0.05113549381677871,0.0007429967452504472,-0.0020915567319194097,-0.0016673567444531853,0.3263925611972809,-1.1429833334735413,1.6711743513690394,-2.0974260769286097,-1.5713933149920862,2.301424503326416,-0.0019707423634827137,0.06156757101416588,0.056725963950157166,-0.11607374250888824,-0.00018456157704349607,-0.0003358320100232959,0.28730419278144836,-0.28730422258377075,-9.174580574035645,0.7709873914718628,47.70121383666992,-0.3677743673324585,-3.5124876499176025,-1.669217824935913,-0.7469132542610168,0.053057096898555756,-0.19139304757118225,24.9375,25.625,24.8125,27.375,28.25,28.8125
1.0,-0.06731361296254362,-1.055826287633329,-1.3768053517704835,-0.042820511287160606,0.03436893069565364,-0.06856899274398925,-0.5388927074001886,-0.32439793398055333,0.2522357112930221,-3.0786540457388045,0.6249045822564704,5.702367292959392e-05,-0.0007401317422925832,1.2431228653238504e-05,-0.051310383318492664,-0.002093147165571997,0.006180595965531861,-8.252501110338504e-05,0.32639312744140625,-1.1427913171103974,1.671427075062887,-2.0979086361327113,-1.5713813940631312,2.3014488220214844,-0.00036880018888041377,0.0619548000395298,0.059244755655527115,-0.12772460281848907,-0.00017275144637096673,-0.00032337740412913263,0.15322890877723694,-0.038307227194309235,-9.327810287475586,0.7217512726783752,47.6680793762207,-0.46489688754081726,-3.5141568183898926,-1.8002406358718872,-0.5625746250152588,0.04902822896838188,-0.20083537697792053,24.9375,25.625,24.8125,27.375,28.25,28.8125
1.0,-0.6150918336170816,-2.2447798977901927,-1.8988606742170808,-0.08523230004777471,0.04799681757330576,-0.06952486110257873,-0.5388929225810166,-0.32439022149259555,0.251901108925286,-3.078626216298053,0.6249183500246198,-1.2029968841956326e-05,-0.0003691988949103912,-9.959681752362856e-05,-0.05123992469988396,-0.002069798437775623,0.006150566148581627,0.0003018230814100114,0.32638120651245117,-1.1423957508853455,1.6717990080462855,-2.098625799218649,-1.5713813940631312,2.3014488220214844,-8.906089754567859e-10,0.06141478940844536,0.059873636811971664,-0.12777750194072723,-0.00018386196461506188,-0.00033900729613378644,-0.038307227194309235,0.3064578175544739,-9.615114212036133,0.7306999564170837,47.66449737548828,-0.5123430490493774,-3.5788679122924805,-1.8193647861480713,-0.5258145332336426,0.04021071642637253,-0.19340938329696655,24.9375,25.625,24.8125,27.375,28.25,28.8125
1.0,0.3664737525818238,-1.7361165644832672,-2.194160330332005,-0.07052269176841325,0.036448906988618315,-0.0718176095738662,-0.5388782363725456,-0.3243723964925012,0.25166688548706767,-3.0785610454871977,0.6249040697471199,-4.332491260186833e-05,0.00015360162458315617,8.333031802111738e-05,-0.05351298436259068,0.0013537125809553415,-0.003765810644453611,0.00032161916989971906,0.3263692855834961,-1.14215503752742,1.6721099058734339,-2.099126478234762,-1.5714295546161097,2.301436185836792,-1.603064875939017e-13,0.0639399066567421,0.05968150496482849,-0.11961980164051056,-0.0002281490742461756,-0.0003549005778040737,0.0,0.4405331015586853,-9.59596061706543,0.7687462568283081,47.73524856567383,-0.507472813129425,-3.622803211212158,-1.8921723365783691,-0.5894461870193481,0.04627036303281784,-0.19947904348373413,24.9375,25.625,24.8125,27.375,28.25,28.8125
1.0,-0.04535719943797012,-1.319613598862268,-1.8815741936414747,-0.07221039893127916,0.042714915906326076,-0.07947887728551557,-0.538878348578972,-0.32439427099801255,0.25148409733433263,-3.0786170726962787,0.6249167453206146,-7.787309528982532e-05,0.0013441445405679392,0.0004917706663466265,-0.053053714697264595,0.0028458194032018173,-0.008030186967380643,0.00028150983830621697,0.3263932466506958,-1.141916201715805,1.6722896734820765,-2.0995551548399867,-1.571369473134176,2.3014607429504395,-2.885460086469137e-17,0.061247050762176514,0.061103880405426025,-0.11383151262998581,-0.00025696237571537495,-0.00031255901558324695,0.05746084079146385,0.325611412525177,-9.672574996948242,0.6904177665710449,47.71733474731445,-0.5067960023880005,-3.4804482460021973,-2.0161972045898438,-0.6556574702262878,0.036816954612731934,-0.185019850730896,24.9375,25.625,24.8125,27.375,28.25,28.8125
1.0,-0.22219704668913381,-1.1671080229669486,-1.726825678764693,-0.04452996524839657,0.027033275563230173,-0.07409394978171811,-0.5389116302550961,-0.32438219936308815,0.25126406856772654,-3.078604205358787,0.6249139459749755,-0.00011567574120567323,0.0013124193767752425,0.00047882625217019424,-0.05351142821387095,0.00471805925905362,-0.013588345517014717,0.00029724746774114464,0.32635724544525146,-1.1416041117957612,1.6724570433246058,-2.1000071964659632,-1.571369473134176,2.301424503326416,-5.193725702346245e-21,0.06240648776292801,0.05897652730345726,-0.10699865221977234,-0.00023713058908469975,-0.00032551505137234926,0.2106897532939911,0.1149216815829277,-9.59596061706543,0.6769921779632568,47.690467834472656,-0.45963987708091736,-3.6542840003967285,-1.869860291481018,-0.7794110178947449,0.04673287272453308,-0.18546991050243378,24.9375,25.625,24.8125,27.375,28.25,28.8125
1.0,0.7208944848276777,-0.43867223020242624,-1.5520820504171418,-0.017502074346829356,0.005061874357332843,-0.06661333278780188,-0.5388959523589987,-0.3243834007469707,0.2510544988293374,-3.078573417197811,0.6249275442809819,-0.00015418463735474575,0.0008746794778631677,0.00032758673889832533,-0.05237355307998249,0.0036695869093316454,-0.010568387271221277,0.00030995218619027213,0.3263692855834961,-1.1413764220527192,1.6727197805987757,-2.100462575952047,-1.5713813940631312,2.3014488220214844,-9.348523361142567e-25,0.06177515164017677,0.05753367021679878,-0.10812123119831085,-0.00021799303067382425,-0.0003390394849702716,0.325611412525177,-0.15322890877723694,-9.385271072387695,0.6881819367408752,47.674346923828125,-0.47530049085617065,-3.6647515296936035,-1.786445140838623,-0.8271484375,0.04083001986145973,-0.18988704681396484,24.9375,25.625,24.8125,27.375,28.25,28.8125
1.0,0.48374104102018434,-0.3735303393156997,-1.564922659227459,-0.022041538086327972,0.018799237695726077,-0.07314409213582429,-0.5388978844292178,-0.324387975263969,0.25087138768669387,-3.0785603863251136,0.6249055406714907,-8.927280199999267e-05,0.00021154464997005088,9.978924820453049e-05,-0.05036287368356671,0.0005996035655235049,-0.0016068164177483113,0.0003173197422427522,0.32638120651245117,-1.1411492389491578,1.6729233900653284,-2.100920339623922,-1.5714176336871546,2.3014485836029053,-1.6827011220744122e-28,0.06005224958062172,0.05701667070388794,-0.11535419523715973,-0.00020170529023744166,-0.0003499247832223773,0.3447650372982025,-0.13407529890537262,-9.461885452270508,0.7486078143119812,47.687782287597656,-0.4942355155944824,-3.6341958045959473,-1.7668423652648926,-0.7705624103546143,0.04172641783952713,-0.1929662823677063,24.9375,25.625,24.8125,27.375,28.25,28.8125
1.0,-0.562752875945177,-0.7938050678629593,-1.7185967816419159,-0.045919402063871906,0.051475864369273615,-0.07216075473209632,-0.5389065313726611,-0.32435984973623583,0.250652369321941,-3.0785311939009756,0.62493744732821,-0.00015109815608374755,-0.0009181285436548081,-0.0002866024425849448,-0.04859513415259318,-0.002984523597035421,0.008861222787651267,0.00038076617178923035,0.3263334035873413,-1.1408975583365937,1.6731746832477015,-2.101378103295797,-1.5714176336871546,2.301424264907837,-3.02880254808931e-32,0.05949873477220535,0.05590939149260521,-0.1247580498456955,-0.00018768207519315183,-0.00041770897223614156,0.15322890877723694,-0.1149216815829277,-9.53849983215332,0.6769921779632568,47.692256927490234,-0.5099228620529175,-3.6452813148498535,-1.743632197380066,-0.6686232089996338,0.04428907483816147,-0.19171561300754547,24.9375,25.625,24.8125,27.375,28.25,28.8125
1.0,-1.136509716062885,-1.694636693024445,-1.9741878676633204,-0.07064132442507254,0.06253412390039034,-0.06822666577030295,-0.5389011645823921,-0.3243670671043565,0.250474956313687,-3.078602301140464,0.6248564678125953,-4.5902331776699174e-05,-0.0011832628484108613,-0.00037824557380257076,-0.04810880522570883,-0.004474776642636782,0.013194225961429846,0.00037198363130511896,0.32634544372558594,-1.140693948870041,1.6734145323382776,-2.1019064388670863,-1.5714057127581995,2.3013765811920166,-5.451737460684079e-36,0.05915316939353943,0.05636480450630188,-0.1294500082731247,-0.00017548270989209414,-0.00041102414252236485,-0.038307227194309235,0.15322890877723694,-9.59596061706543,0.6769921779632568,47.66001510620117,-0.5435900688171387,-3.4846301078796387,-1.7482991218566895,-0.5530002117156982,0.0420042909681797,-0.190852552652359,24.9375,25.625,24.8125,27.375,28.25,28.8125
1.0,-1.0586428205222713,-1.791427876952843,-1.996690031813548,-0.060098959433247695,0.04967133775636549,-0.06933675257009696,-0.5389080735872784,-0.32438617918407114,0.25029656982538123,-3.0786522446185267,0.624905122888213,7.115903896752701e-05,-0.0002919686706615824,-7.595620479115622e-05,-0.0474360303864971,-0.003331842507738969,0.009827473970658826,0.0003337951315710998,0.3263692855834961,-1.1404550534537812,1.6736062208758753,-2.1024309597411097,-1.5713933149920862,2.301424264907837,-9.81292880806597e-40,0.0567665658891201,0.05697518587112427,-0.12411833554506302,-0.00016477247118018568,-0.00037091379635967314,-0.15322890877723694,0.2106897532939911,-9.691728591918945,0.7105615139007568,47.6949462890625,-0.5210267901420593,-3.3170526027679443,-1.8281581401824951,-0.568946123123169,0.029468029737472534,-0.1779715120792389,24.9375,25.625,24.8125,27.375,28.25,28.8125
1.0,-0.6626228022057066,-1.1819360003875619,-1.9329131808359825,-0.03185613456340672,0.014589975927849353,-0.0675284438391726,-0.5389056630546258,-0.3243555395083836,0.2500878641406593,-3.0786354418045194,0.62494034147917,6.879184048444799e-06,0.0006052608093529809,0.00022880166292541985,-0.049590612507500936,7.629254530544522e-05,-0.00020415073019569102,0.00034697131508722005,0.32632148265838623,-1.1402385395816346,1.673882309590475,-2.1028834782042445,-1.5713813940631312,2.3014004230499268,-1.7656360650492695e-43,0.058353472501039505,0.05782795324921608,-0.11596326529979706,-0.00015529440133832395,-0.00038024975219741464,-0.05746084079146385,0.26815059781074524,-9.576807022094727,0.6769921779632568,47.686885833740234,-0.42708754539489746,-3.3856587409973145,-1.8473695516586304,-0.6268652677536011,0.025864269584417343,-0.18829521536827087,24.9375,25.625,24.8125,27.375,28.25,28.8125
1.0,0.32661303506338546,-0.45019473006797484,-1.7057902162209801,-0.03615780403603967,0.027503199030799695,-0.08442506357495756,-0.5389166002762502,-0.3243890127382137,0.24990055874264247,-3.078674714040811,0.6248719686943975,0.0001087221611832383,0.0006080556101784227,0.00030719236684530356,-0.04919128155892263,0.00226693213490444,-0.006612945349180849,0.00021491353739516508,0.3263692557811737,-1.1399627786925812,1.6740368048297327,-2.103382249871725,-1.5713933149920862,2.3014004230499268,-0.00011880105739692226,0.05838608369231224,0.05460647493600845,-0.10600154101848602,-0.0001588649902259931,-0.0003631323343142867,0.09576806426048279,0.019153613597154617,-9.53849983215332,0.7754590511322021,47.679718017578125,-0.5024716854095459,-3.3981125354766846,-1.5884263515472412,-0.7493942975997925,0.042577408254146576,-0.18323694169521332,24.9375,25.625,24.8125,27.375,28.25,28.8125
1.0,0.012257260445805634,-0.4294834514160472,-1.4794096878657776,-0.028098380533043053,0.018512908340010806,-0.07381309978971635,-0.5389070070676228,-0.3243921617168322,0.24970458193324357,-3.0786313488072006,0.6248823994629624,3.6889932854623834e-05,0.0007418862676444356,0.0003061863247860012,-0.04926456493798427,0.00240262724963618,-0.006998980230335523,0.00027431890556190526,0.3263811767101288,-1.1397350293448945,1.6742523352252405,-2.1037656269469203,-1.5714057127581995,2.301424264907837,-4.649598486139439e-05,0.05831565335392952,0.05482475832104683,-0.10574021935462952,-0.00016243132995441556,-0.0003501207393128425,0.26815059781074524,-0.19153612852096558,-9.481039047241211,0.6948947906494141,47.69853210449219,-0.4502366781234741,-3.3928723335266113,-1.630739688873291,-0.8160341382026672,0.03209873288869858,-0.1919635832309723,24.9375,25.625,24.8125,27.375,28.25,28.8125
1.0,0.320533011204612,-0.07905078497484576,-1.426586779710209,-0.02173738286632987,0.02188088609712486,-0.07823379657298114,-0.538911160046036,-0.3243910721450406,0.24952740987823052,-3.0786464251426615,0.6248665016779392,0.00014058381126503858,-0.00048254556507658266,-0.0001147721864206099,-0.047089287899203976,-0.0007052547664093487,0.0020927928344416746,0.0002663567025630831,0.32638120651245117,-1.139519379740097,1.674466911946432,-2.1042586765685023,-1.5714295546161097,2.301412343978882,-4.2131512600462884e-05,0.05758406221866608,0.052346888929605484,-0.11213906854391098,-0.00015451402578037232,-0.0003410649369470775,0.17238251864910126,-0.09576806426048279,-9.385271072387695,0.6725152134895325,47.68867492675781,-0.5120237469673157,-3.2826452255249023,-1.4617199897766113,-0.7954246997833252,0.032897334545850754,-0.21670961380004883,24.9375,25.625,24.8125,27.375,28.25,28.8125
1.0,-0.06462915942555625,-1.0576171444122422,-1.6181011373376655,-0.048779985078360164,0.04475519987526825,-0.07507965769050198,-0.5389204217819107,-0.3243734594843865,0.24933795313570895,-3.0786393928501923,0.6249226697721328,7.60789949464977e-05,-0.0011714886673686556,-0.00032785783704519013,-0.04652457766362427,-0.0036347762039704275,0.010657469882818611,0.00024232844623295547,0.32634541392326355,-1.1392915707877656,1.6746709982501429,-2.10465731243276,-1.5714057127581995,2.301412343978882,-7.650900079170242e-05,0.05766080319881439,0.05324356257915497,-0.12216432392597198,-0.0001472887088311836,-0.00035569173633120954,0.19153612852096558,-0.019153613597154617,-9.461885452270508,0.6814691424369812,47.6734504699707,-0.48191970586776733,-3.2922534942626953,-1.4606496095657349,-0.7006694078445435,0.02514812722802162,-0.190558522939682,24.9375,25.625,24.8125,27.375,28.25,28.8125
1.0,-0.9959013721543745,-2.182595140462623,-1.7983757177371906,-0.07777975522334855,0.058833202054085515,-0.06914519942066506,-0.5389220086401101,-0.3243752776449125,0.24916577690540428,-3.0786793272607,0.6250273841379599,0.00019699998121294453,-0.0014129664498601844,-0.00041228939336986883,-0.04693528531175671,-0.004798112199736607,0.014101460350033306,0.00026042693711633214,0.32634541392326355,-1.1390874248794098,1.6748984495746058,-2.105185648004049,-1.5713933149920862,2.3014724254608154,-7.097260095179081e-05,0.05842474102973938,0.05438495799899101,-0.12770478427410126,-0.00016012799460440874,-0.00037043311749584973,0.09576806426048279,0.19153612852096558,-9.481039047241211,0.6478998064994812,47.692256927490234,-0.5185772180557251,-3.3341503143310547,-1.5314302444458008,-0.5945688486099243,0.02799183875322342,-0.19257867336273193,24.9375,25.625,24.8125,27.375,28.25,28.8125
1.0,-0.4925194752720995,-1.693693612862315,-1.6081096596739302,-0.08132615424874745,0.04750956308230883,-0.07661635147096342,-0.5389269170464551,-0.3243924101159779,0.24899820892756497,-3.0787840296652393,0.6249335711137222,0.0004209021669250632,-0.0009860503520534745,-0.00027081676681296176,-0.04807212735157947,-0.003427906886557507,0.010058916509338142,0.00027781014444817957,0.3263692557811737,-1.1388713878444214,1.6751144568072718,-2.1057831249632777,-1.5713933149920862,2.301424264907837,-6.578477041330189e-05,0.059278253465890884,0.055206477642059326,-0.125111386179924,-0.00015413576329592615,-0.0003813320363406092,-0.019153613597154617,0.28730422258377075,-9.53849983215332,0.7866488099098206,47.674346923828125,-0.45280593633651733,-3.358757495880127,-1.5857796669006348,-0.5512016415596008,0.0287235789000988,-0.19129669666290283,24.9375,25.625,24.8125,27.375,28.25,28.8125
1.0,0.36879672894898075,-1.03412667486312,-1.398946275011825,-0.04278737260044013,0.010260229268932145,-0.07705207962737617,-0.5389275158115698,-0.32437177315370597,0.24868446992059567,-3.0787899069471503,0.6249353254289044,0.00036025020891557863,0.0006044721547494869,0.00028647001808408017,-0.050100386324673174,0.0007031339803167321,-0.0020398380436106337,0.0003562806193083055,0.3263333737850189,-1.138511673813202,1.6754868666278284,-2.1064850292601527,-1.571369473134176,2.3013885021209717,-8.892120240489021e-05,0.05941598117351532,0.0572577528655529,-0.11451581120491028,-0.00015815232472959906,-0.00047807610826566815,0.13407528400421143,0.2106897532939911,-9.366117477416992,0.7553206086158752,47.68330383300781,-0.47018012404441833,-3.325012445449829,-1.6712450981140137,-0.6064149141311646,0.018927283585071564,-0.1944115161895752,24.9375,25.625,24.8125,27.375,28.25,28.8125
1.0,0.8006792195448896,-0.40937497284045377,-1.1099043856676574,-0.03417310182424539,0.012440975799729933,-0.08225702747202443,-0.5389353622700048,-0.3243874055184386,0.2485079946355216,-3.0788049704702667,0.624938582901912,0.00047401642119428736,0.0004403559507435137,0.0002272973653291483,-0.049142324011137925,0.002126145904580297,-0.006193186223595452,0.00035985484194527245,0.3263572156429291,-1.13827200353656,1.6756652037249964,-2.1069733105101527,-1.5713933149920862,2.301412343978882,-8.343098306795582e-05,0.05901214852929115,0.05374456197023392,-0.106208436191082,-0.0001623720454517752,-0.00047309600631706417,0.24899697303771973,0.07661445438861847,-9.078812599182129,0.7239871025085449,47.70748519897461,-0.5010958909988403,-3.3396589756011963,-1.5012938976287842,-0.7067224383354187,0.03215518966317177,-0.19440393149852753,24.9375,25.625,24.8125,27.375,28.25,28.8125
1.0,0.8756459082127889,0.15306112353120782,-1.0541296153686064,-0.007470423102881865,-0.0013423299726926569,-0.0751350045113796,-0.5389463347593353,-0.3243898173515887,0.24830792368117105,-3.0788031554776665,0.6249193008215772,0.0004954654131864785,0.0012887966078555298,0.0005123693329466888,-0.05142363080774076,0.004152841870676854,-0.012174883852215691,0.0003547770322725736,0.3263572156429291,-1.138007716541626,1.6758578459369105,-2.107439180413717,-1.5714057127581995,2.3014004230499268,-7.857513264752924e-05,0.06051736697554588,0.056359998881816864,-0.10401340574026108,-0.00015321576211135834,-0.0004616646037902683,0.3447650372982025,-0.09576806426048279,-9.097966194152832,0.7441308498382568,47.700321197509766,-0.512313723564148,-3.301841974258423,-1.5931416749954224,-0.7892115712165833,0.02328726463019848,-0.1991294026374817,24.9375,25.625,24.8125,27.375,28.25,28.8125
1.0,0.6879945978909663,-0.008121178637202908,-0.9435900610859367,-0.005544759471753612,0.004689008275827708,-0.07682694939854325,-0.5389412829166933,-0.3243906273882669,0.2481505909870393,3.078768859662565,-0.6249897867738123,-0.0005146927788487296,8.749612093673296e-05,9.92028596150251e-05,-0.048174857731025665,0.0006101768771181894,-0.0017976606466117255,0.0003542579214246814,0.3263572156429291,-1.1378285151771088,1.6760595480548304,-2.1078487835326136,-1.5713813940631312,2.3014485836029053,-7.425348303513601e-05,0.058312445878982544,0.053344372659921646,-0.10975813865661621,-0.0001449878327548504,-0.00046013621613383293,0.363918662071228,-0.1149216815829277,-8.9064302444458,0.7530794739723206,47.692256927490234,-0.5083085298538208,-3.2820606231689453,-1.4463605880737305,-0.760516881942749,0.018691720440983772,-0.19518809020519257,24.9375,25.625,24.8125,27.375,28.25,28.8125
1.0,-0.3584873496941863,-0.6259453911150398,-1.1015812951274628,-0.03428697259344664,0.025625689180369993,-0.06918908073955056,-0.5389400328708371,-0.3243929464740883,0.24796258386166653,3.0788140143044123,-0.6249025893667729,-0.0005861298196435638,-0.00028176839669788494,-1.4475746228491534e-05,-0.04927398874825552,-0.0009791708801389653,0.002824303303125971,0.00030982080948148004,0.3263692557811737,-1.1376001101783295,1.6762760321246546,-2.1083184681334437,-1.5714295546161097,2.3014004230499268,-9.383839642396197e-05,0.06007498875260353,0.055375806987285614,-0.11843971908092499,-0.00013759844296146184,-0.00043859577272087336,0.2298433631658554,-0.1149216815829277,-9.232041358947754,0.7239871025085449,47.69584274291992,-0.507199227809906,-3.297138214111328,-1.5611519813537598,-0.6705060005187988,0.02690277248620987,-0.1901734173297882,24.9375,25.625,24.8125,27.375,28.25,28.8125
1.0,-0.9877145236620432,-2.00432834278223,-1.4166288192048426,-0.04886801744418056,0.049330096046623965,-0.05981817411952853,-0.5389273654426546,-0.3243794218187235,0.24772984955626887,-3.078813139024719,0.6249027009077674,0.00039481426636922833,-0.0007363313366160926,-0.00017312240008954014,-0.04806568874942576,-0.0035198908509081845,0.010259597767413175,0.00031674735626095675,0.32634541392326355,-1.137348697786667,1.676551644002096,-2.1087399921812953,-1.571369473134176,2.3013765811920166,-8.919295942177996e-05,0.059007227420806885,0.055765703320503235,-0.12561924755573273,-0.00013092569133732468,-0.00044419290497899055,0.019153613597154617,0.17238251864910126,-9.308656692504883,0.6702793836593628,47.70121383666992,-0.556760311126709,-3.2575526237487793,-1.5490357875823975,-0.5468002557754517,0.034943655133247375,-0.1877163052558899,24.9375,25.625,24.8125,27.375,28.25,28.8125
1.0,-1.0118968440945566,-1.650426010333839,-1.4147134778289727,-0.07397538731716502,0.05154059306866124,-0.07446718691463806,-0.5389213905638126,-0.32437356272158774,0.24753876515977047,-3.078787360313672,0.624897612239776,0.0004352898586921068,-0.00030527871220732575,-2.7394098734596754e-05,-0.04946862479336041,-0.002075575237768028,0.006061788489670468,0.0003316634996740836,0.32634541392326355,-1.1371325713447114,1.6767914930926722,-2.1092049084105433,-1.5714057127581995,2.3013765811920166,-8.498191164107993e-05,0.060194652527570724,0.05681970715522766,-0.12342135608196259,-0.00014558904513251036,-0.0004536242049653083,-0.07661445438861847,0.28730419278144836,-9.27034854888916,0.7665104269981384,47.70748519897461,-0.5303773283958435,-3.245245933532715,-1.6386698484420776,-0.5031067132949829,0.0142006641253829,-0.1889200359582901,24.9375,25.625,24.8125,27.375,28.25,28.8125
1.0,-0.056840718609009966,-1.3061105371726145,-1.4145756848740565,-0.06937760846700164,0.04662439341355314,-0.07379637965701762,-0.5389160653085754,-0.3244027684185366,0.24734597495486016,3.0788211486888803,-0.6248663262300914,-0.0005111746545579124,0.000791235589639291,0.00034476822941867716,-0.0502348820836727,0.0005755316350665274,-0.0016707705232461348,0.000344316533048444,0.3263932168483734,-1.1368808609298249,1.6769960562335413,-2.1097175083556117,-1.5714057127581995,2.3014004230499268,-8.115063246805221e-05,0.05948282405734062,0.05777886509895325,-0.11549428105354309,-0.00015652064757887274,-0.00045897281961515546,-0.15322890877723694,0.28730422258377075,-9.404424667358398,0.7284641265869141,47.70838165283203,-0.4957684874534607,-3.191633701324463,-1.765167236328125,-0.5990762114524841,0.02208075486123562,-0.1715773195028305,24.9375,25.625,24.8125,27.375,28.25,28.8125
1.0,0.3773954816419648,-0.6717869151072359,-1.05410320299467,-0.05629043514525739,0.04276838329138923,-0.0811663503642045,-0.5389314845514915,-0.32438993336405814,0.24713196588464875,-3.0787708188805807,0.6249519873092362,0.0004908469928255884,0.0014139504962874898,0.0005545022803030535,-0.05423960628787437,0.004994082414367722,-0.01467070888713831,0.00036827167285719524,0.3263692557811737,-1.1366034013083954,1.6771991888629358,-2.1101695499815882,-1.5714295546161097,2.301436185836792,-7.76499291532673e-05,0.06417784839868546,0.05844351276755333,-0.10712363570928574,-0.00015241191431414336,-0.00047493548481725156,0.09576806426048279,0.17238251864910126,-9.442731857299805,0.7374180555343628,47.68240737915039,-0.5074275135993958,-3.484236240386963,-1.7410571575164795,-0.6926102638244629,0.019345078617334366,-0.18582136929035187,24.9375,25.625,24.8125,27.375,28.25,28.8125
1.0,0.3058326033893865,-0.6937784034144023,-1.3144264542159172,-0.023147906320065137,0.01431139725892644,-0.06574132268295757,-0.5389275702101485,-0.3243898239169366,0.24691227533549348,-3.0787812612661596,0.6248588025414378,0.00042935725410588044,0.0019381921719489143,0.0007374001203225122,-0.053238006206741614,0.0060175703773642265,-0.017460416593180383,0.0003424353299071997,0.3263692557811737,-1.1363403660110016,1.6774385611163538,-2.110633989373678,-1.5714176336871546,2.3013765811920166,-7.443885988323018e-05,0.062125563621520996,0.057743873447179794,-0.10140086710453033,-0.00021532159007620066,-0.0004437288735061884,0.17238251864910126,0.05746084079146385,-9.327810287475586,0.7508436441421509,47.70658874511719,-0.5347565412521362,-3.3056578636169434,-1.7475253343582153,-0.7854793667793274,0.017312295734882355,-0.18185022473335266,24.9375,25.625,24.8125,27.375,28.25,28.8125
1.0,0.6944701183013784,0.031198143671913092,-1.2233292194993755,-0.023003190121055964,0.0045422358536606824,-0.07556433515112858,-0.5389430503971369,-0.32437957226412406,0.24673705400807494,-3.078775466326163,0.624953422122164,0.0004628930240497262,0.001569171651798991,0.0006482309492688225,-0.05369917793326835,0.005211238798414718,-0.01516407419186848,0.0002825035542495379,0.32634538412094116,-1.1361122292331238,1.6776178518878382,-2.1110664806761683,-1.5714176336871546,2.301412343978882,-0.00013365184713620692,0.0632876381278038,0.05807081609964371,-0.10532360523939133,-0.00019681468256749213,-0.00044457585318014026,0.24899697303771973,-0.17238251864910126,-9.232041358947754,0.7777001857757568,47.702110290527344,-0.5020416975021362,-3.4377145767211914,-1.77647066116333,-0.80826735496521,0.019878525286912918,-0.1784328818321228,24.9375,25.625,24.8125,27.375,28.25,28.8125
1.0,0.328114829134707,-0.3744561134232501,-1.4410699763659949,-0.030186013021408414,0.016699051289784037,-0.07591312325898054,-0.5389376259331761,-0.3243686298813317,0.24651848783951477,-3.0787220462891125,0.624962013748306,0.00036188463446681246,0.0003084329362173991,0.00023040725035577153,-0.05295336066158721,0.0019041602973105937,-0.005525972424106996,0.00025401306793175065,0.32633334398269653,-1.135859952574112,1.6778577009784144,-2.1114775143065394,-1.5714295546161097,2.301412343978882,-0.00015408168837893754,0.06430540233850479,0.05733301490545273,-0.11579326540231705,-0.0001809818932088092,-0.00044114116462878883,0.38307225704193115,-0.17238251864910126,-9.289502143859863,0.7105615139007568,47.703006744384766,-0.5462126731872559,-3.4419023990631104,-1.6878128051757812,-0.7160384654998779,0.01484045572578907,-0.18435683846473694,24.9375,25.625,24.8125,27.375,28.25,28.8125
1.0,-0.5951342939488401,-1.2882826500439208,-1.4046998948413065,-0.056733636540197,0.038893787057444645,-0.06996052800514418,-0.5389389407144006,-0.3243781199111446,0.2462933089419651,-3.078743347934266,0.6248899817438365,0.0003401196015796248,-0.0006287329463591137,-7.981214133834308e-05,-0.05192916620344186,-0.0011974192262946077,0.003524587650451781,0.00018287531107896935,0.32634538412094116,-1.1355723601630707,1.678084675465719,-2.111983438531393,-1.5714176336871546,2.3013765811920166,-0.00017017099889926612,0.06434492766857147,0.057079389691352844,-0.12514641880989075,-0.00016750593204051256,-0.00039034264045767486,0.19153612852096558,-0.038307227194309235,-9.27034854888916,0.7486078143119812,47.702110290527344,-0.4430502653121948,-3.486694812774658,-1.767202615737915,-0.6042088270187378,0.010626716539263725,-0.18122582137584686,24.9375,25.625,24.8125,27.375,28.25,28.8125
1.0,-0.6725845490348626,-1.7400348761593452,-1.5629445961457475,-0.07855460190796495,0.05427531723091103,-0.07445843769955578,-0.5389184809510423,-0.32438786100682926,0.24609446809173866,-3.078762924246724,0.6248751129274286,0.00034488100777267953,0.00047534397627081406,0.00029267526020038636,-0.05319975620494355,-0.0004646955073144016,0.0014379324860413541,0.0001946253831684662,0.3263692259788513,-1.135356680755951,1.6783493200885218,-2.112474580804342,-1.5714057127581995,2.3013885021209717,-0.00016146157577168196,0.06376822292804718,0.06111028045415878,-0.12638910114765167,-0.000186529170605354,-0.0003934882115572691,-0.05746084079146385,0.2298433631658554,-9.576807022094727,0.7016075849533081,47.692256927490234,-0.4931899905204773,-3.4787797927856445,-1.868124008178711,-0.5350228548049927,-6.240746006369591e-05,-0.18510937690734863,24.9375,25.625,24.8125,27.375,28.25,28.8125
1.0,-0.5141328708223956,-1.585879599033837,-1.628887752404209,-0.07281482034694978,0.03697632753373728,-0.07539839378617902,-0.53891933045985,-0.3243713912649493,0.2458759890639226,-3.0787364748379185,0.6249463867005476,0.0003484266561630884,0.0005053223514570499,0.0002964611620822161,-0.05315302654313157,0.001578876188970283,-0.004590575570715291,0.00016995856140212298,0.32634538412094116,-1.1351047319224854,1.67861253419985,-2.112985750237936,-1.5714176336871546,2.301412343978882,-0.00015358882956206799,0.06421586126089096,0.058414336293935776,-0.11777535825967789,-0.00017495184147264808,-0.0003574740549083799,-0.15322890877723694,0.3064578175544739,-9.500192642211914,0.6411817073822021,47.67524337768555,-0.5466326475143433,-3.5192384719848633,-1.78978431224823,-0.568047821521759,0.016309985890984535,-0.18997113406658173,24.9375,25.625,24.8125,27.375,28.25,28.8125
1.0,-0.2815263774145903,-0.978665998441647,-1.735409422076334,-0.045916491741181883,0.018693035596181407,-0.0649087523047164,-0.5389144041830909,-0.32436968851901404,0.2456635793354947,-3.0787315126327774,0.6249077593866809,0.00031271816815808725,0.0011638841132170375,0.0005282910240412135,-0.05304413699753872,0.00384683917607171,-0.0111971485887522,0.00010468923533830813,0.3263571858406067,-1.1346852642348786,1.678948227559225,-2.1136890850462855,-1.5713933149920862,2.301412582397461,-0.00016355598927475512,0.0633016973733902,0.05744226276874542,-0.10890408605337143,-0.00018601352348923683,-0.00029853457817807794,0.038307227194309235,0.2298433631658554,-9.404424667358398,0.7463666796684265,47.6734504699707,-0.527861475944519,-3.455280065536499,-1.8007489442825317,-0.6830908060073853,0.02219397947192192,-0.19357064366340637,24.9375,25.625,24.8125,27.375,28.25,28.8125
1.0,-0.029045802289971057,-0.8018158953884297,-1.5737998653282128,-0.026295981273021275,0.0210468813453654,-0.07085706039544397,-0.5389143385797216,-0.3243863613197161,0.2453385600692545,-3.078732161200694,0.6248317945541911,0.00023342696943209855,0.0013848930349353574,0.0005977707863884999,-0.05256754049409985,0.0052705136962186575,-0.01539630043436565,0.00013028699229418087,0.3263692259788513,-1.1344337624362488,1.6791618506061,-2.114129205743307,-1.5714057127581995,2.3013648986816406,-0.0001564586564199999,0.0626508891582489,0.05571836978197098,-0.10209548473358154,-0.0001756551064318046,-0.0003143808280583471,0.17238251864910126,0.0,-9.366117477416992,0.6523714661598206,47.67613983154297,-0.5276486277580261,-3.4523472785949707,-1.6675922870635986,-0.7874783873558044,0.012924466282129288,-0.18421809375286102,24.9375,25.625,24.8125,27.375,28.25,28.8125
1.0,0.18601462361065532,0.04724522625965112,-1.5065303549544293,-0.012197283412232428,-0.0030629529522297094,-0.07006209495803492,-0.5389230437058661,-0.3243672814877214,0.2451313450959358,-3.07869704971507,0.6249397577019362,0.0001580867252147595,0.000330143215930217,0.0003220134831486152,-0.05276261817191174,0.004467540117636342,-0.013088673109237019,1.1704932404204811e-05,0.32633331418037415,-1.1341812771609803,1.679377857838766,-2.114549776116842,-1.5713933149920862,2.301400661468506,-0.00028653984190896153,0.0649128258228302,0.0535692423582077,-0.10465159267187119,-0.00016637692169751972,-0.0003270076122134924,0.325611412525177,-0.17238251864910126,-9.366117477416992,0.6747510433197021,47.67255783081055,-0.46209409832954407,-3.4911580085754395,-1.5496580600738525,-0.8146418333053589,0.024546870961785316,-0.18487992882728577,24.9375,25.625,24.8125,27.375,28.25,28.8125
1.0,0.5249604583870064,-0.34546612342853283,-1.536901888429579,-0.01864964036299905,0.018098952293612094,-0.08076999081477376,-0.5389359571730318,-0.3243601156291648,0.24494778518187943,-3.0786821466085352,0.6249559929075001,0.00023845354455462426,-0.00011030800046077649,0.00015027767196911025,-0.050541624192115255,0.00125821837207241,-0.003687616835481937,4.309006965496834e-05,0.32632139325141907,-1.1339421433261414,1.6795695463763636,-2.115018983880514,-1.5714295546161097,2.301400661468506,-0.00025473246932961047,0.06241391971707344,0.053748857229948044,-0.11226609349250793,-0.00015802956477273256,-0.0003304263227619231,0.2298433631658554,-0.09576806426048279,-9.385271072387695,0.7217512726783752,47.693153381347656,-0.5256392955780029,-3.333212375640869,-1.65375554561615,-0.7893851399421692,0.0049376534298062325,-0.19420075416564941,24.9375,25.625,24.8125,27.375,28.25,28.8125
1.0,-0.5987810751349587,-1.2987728797313807,-1.6728030554451336,-0.055812303357261256,0.04999457295647439,-0.06799333256474115,-0.5389285253354538,-0.3243600617187046,0.24474350803303302,-3.0786915898441487,0.6249008302539933,0.00015771818018196917,-0.0008416266125271096,-0.0001142221406763902,-0.050933647193905446,-0.0007455367085123717,0.0022132987453011123,4.724524432370733e-05,0.32632139325141907,-1.1337019068053742,1.6797965208636683,-2.115440984765524,-1.5714057127581995,2.3013648986816406,-0.00022882445773575455,0.06403477489948273,0.054297927767038345,-0.12066782265901566,-0.00017053866758942604,-0.00031212676549330354,0.09576806426048279,0.05746084079146385,-9.519346237182617,0.7127973437309265,47.70927429199219,-0.5458248853683472,-3.524120807647705,-1.5175451040267944,-0.7065122127532959,0.009020889177918434,-0.19515559077262878,24.9375,25.625,24.8125,27.375,28.25,28.8125
1.0,-1.5168834184044855,-2.38658650327314,-2.013235731474032,-0.06951316965177273,0.05891052059944431,-0.06551568063728759,-0.5389134197409338,-0.32438193580800356,0.24451936306468003,-3.078708459524529,0.6248276755689963,4.807782727087892e-05,-0.0008042037127793894,-0.00011601453386322529,-0.049774107772655576,-0.0026185451516358336,0.007697201578966166,0.00017657692253991264,0.3263571858406067,-1.1334266823581238,1.6800249258624476,-2.115885396996969,-1.571369473134176,2.3013527393341064,-0.00020769995171576738,0.062143027782440186,0.05548405274748802,-0.1257571578025818,-0.00016412940749432892,-0.000422805140260607,0.038307227194309235,0.09576806426048279,-9.615114212036133,0.7463666796684265,47.686885833740234,-0.5479151010513306,-3.403996467590332,-1.7020094394683838,-0.5894132852554321,0.021877259016036987,-0.18296286463737488,24.9375,25.625,24.8125,27.375,28.25,28.8125
1.0,-0.9496018606007789,-1.8374481507975862,-1.8507784988621736,-0.07729218759992937,0.058926573071880636,-0.0707300607973626,-0.5389016441315307,-0.32438066666546445,0.24428998529150348,-3.0786465890622132,0.6248914842638377,6.706614517764978e-05,0.00010505441919267321,0.00018152940611210585,-0.05004849508007954,-0.0014377213777702674,0.004222842703976839,0.00021645211102476743,0.3263692259788513,-1.1331634682467957,1.6803010145770472,-2.116410871545309,-1.5714176336871546,2.301412343978882,-0.00019014648569282144,0.060895904898643494,0.057148028165102005,-0.12250450998544693,-0.00015725490811746567,-0.0004436801827978343,-0.13407528400421143,0.28730422258377075,-9.615114212036133,0.6859408020973206,47.703006744384766,-0.5191861391067505,-3.323193073272705,-1.754241943359375,-0.5949253439903259,0.01756840944290161,-0.19426357746124268,24.9375,25.625,24.8125,27.375,28.25,28.8125
1.0,-0.19910412210198009,-0.7773773871344813,-1.7994699303340362,-0.04871517569243066,0.026392309870868748,-0.07503965183075671,-0.5389008345752015,-0.32438936291848436,0.24412482772875557,-3.078704677856258,0.6248653548016143,0.00016734839274760245,0.000534049590086723,0.00031804534233522894,-0.05156680556148738,0.0008917088357593847,-0.002619259832996565,0.0002349487605719714,0.3263811469078064,-1.1329590839198609,1.6805041472064417,-2.116899629632467,-1.5714057127581995,2.3014004230499268,-0.00017532873607706279,0.06246822699904442,0.05712823197245598,-0.11682926118373871,-0.0001564488629810512,-0.00044460248318500817,-0.019153613597154617,0.28730419278144836,-9.59596061706543,0.7284641265869141,47.69673538208008,-0.5084286332130432,-3.302816390991211,-1.7960554361343384,-0.6581289768218994,0.005098050460219383,-0.17917078733444214,24.9375,25.625,24.8125,27.375,28.25,28.8125
1.0,0.18007499902291646,-0.8212529241982232,-1.74102717753071,-0.03181099838378638,0.015330821120639992,-0.06980127616454583,-0.5389172126543783,-0.32437810863398725,0.24393212024881655,-3.0787178492214426,0.6248684485422641,0.00023883469992710707,0.0009268555825252887,0.0004634308855602472,-0.051127041631645664,0.0026262643358158574,-0.007727855223898766,0.00018142577986926151,0.3263571858406067,-1.132707641725876,1.680706802998678,-2.117399831811422,-1.5714176336871546,2.3013765811920166,-0.0001950287987710908,0.06154359132051468,0.05564504116773605,-0.10902641713619232,-0.00014631697558797896,-0.00040767836617305875,0.2298433631658554,0.0,-9.481039047241211,0.6948947906494141,47.6949462890625,-0.5333551168441772,-3.280351400375366,-1.7065911293029785,-0.7273498773574829,0.004263182636350393,-0.18859407305717468,24.9375,25.625,24.8125,27.375,28.25,28.8125
1.0,0.35763489378255625,-0.3945961316436495,-1.3274280659724247,-0.007879464565604757,-0.004290751226715719,-0.06495600786838773,-0.538908720254959,-0.32437644269795046,0.24371816212207106,-3.0786798987849977,0.6249182595220121,0.00012641253787568793,0.0008458958450119324,0.00044871413241158144,-0.05195158961862168,0.003962731876262508,-0.011602081581156158,0.00021844651220163008,0.3263571858406067,-1.1324551862529297,1.6809352079974573,-2.117805143395895,-1.5714057127581995,2.301412343978882,-0.00021194174769334495,0.06309021264314651,0.054525554180145264,-0.10535528510808945,-0.00016391590179409832,-0.0004598686355166137,0.26815059781074524,-0.09576806426048279,-9.346963882446289,0.6769921779632568,47.685096740722656,-0.5507532954216003,-3.5264525413513184,-1.6186540126800537,-0.8014587163925171,0.014673998579382896,-0.17227526009082794,24.9375,25.625,24.8125,27.375,28.25,28.8125
1.0,0.3529779837057472,0.1320341822772474,-1.3666451923643157,-0.025645886095453124,0.000645394106876699,-0.07561468880537818,-0.5389255602673783,-0.3243744736233772,0.24352818204048263,-3.0786737052951376,0.6248979355567799,9.719665444137167e-05,-3.29364694486513e-05,0.0001585696874243788,-0.05126911246596037,0.0015822543137602302,-0.004654023682323981,0.00018829559856864333,0.3263453543186188,-1.132191316490509,1.6810906569110315,-2.1182033024229945,-1.5714057127581995,2.3013885021209717,-0.00022752460790798068,0.06358598917722702,0.05392201244831085,-0.11259205639362335,-0.00015536730643361807,-0.00044863487710244954,0.325611412525177,-0.19153612852096558,-9.27034854888916,0.7418897151947021,47.68330383300781,-0.5326931476593018,-3.3556714057922363,-1.5713427066802979,-0.7640711069107056,0.0074906256049871445,-0.1771581619977951,24.9375,25.625,24.8125,27.375,28.25,28.8125
