Tylouw/Master_Thesis_Code/test_recorded_data/trial3/insertion_4_2026-01-23_13-39-54.csv
num_insertion,tcp_force_x[N],tcp_force_y[N],tcp_force_z[N],tcp_force_rx[Nm?],tcp_force_ry[Nm?],tcp_force_rz[Nm?],tcp_pose_x[m],tcp_pose_y[m],tcp_pose_z[m],tcp_pose_rx[rot_vec_x],tcp_pose_ry[rot_vec_y],tcp_pose_rz[rot_vec_z],tcp_velo_x[m/s],tcp_velo_y[m/s],tcp_velo_z[m/s],tcp_velo_rx[rot_vec_x/s],tcp_velo_ry[rot_vec_y/s],tcp_velo_rz[rot_vec_z/s],q1[rad],q2[rad],q3[rad],q4[rad],q5[rad],q6[rad],qd1[rad/s],qd2[rad/s],qd3[rad/s],qd4[rad/s],qd5[rad/s],qd6[rad/s],tool_acc_x,tool_acc_y,tool_acc_z,current_of_whole_robot[A],voltage_of_whole_robot[V],current_J1[A],current_J2[A],current_J3[A],current_J4[A],current_J5[A],current_J6[A],temp_J1[C],temp_J2[C],temp_J3[C],temp_J4[C],temp_J5[C],temp_J6[C]
1.0,0.3835762833299412,0.6060265586098175,-0.9005479248696152,0.005100763388398174,-0.04829405823263108,-0.06275966827596481,-0.5388478526692865,-0.324477887547494,0.26002595882733837,-3.078660712245596,0.6248206707201663,0.0001025661014339628,0.002564654241334844,-0.0010222554602849052,0.0008832384344128092,-0.0009780806399252212,0.0032478779860723225,0.0015421533221437363,0.3265380561351776,-1.1519273978522797,1.6623666922198694,-2.0797320804991664,-1.5713813940631312,2.3015456199645996,0.0029378640465438366,-0.004840731620788574,0.005689315963536501,-0.004237902816385031,-0.00011277648445684463,0.0013939791824668646,0.5171475410461426,-0.17238251864910126,-9.059659004211426,0.7463666796684265,47.6627082824707,-0.2313789427280426,-4.174622058868408,-2.707711696624756,-0.41338038444519043,0.039217542856931686,-0.14438581466674805,24.9375,25.625,24.8125,27.375,28.25,28.75
1.0,0.4945952574328026,0.4239346093884923,-1.224691201475827,0.019213906163581172,-0.0405286315996468,-0.06540503831655138,-0.5388316736312316,-0.3244695100799446,0.25999854415608353,-3.0785973623842535,0.6248463202713715,2.5151034127778654e-05,0.0005519455225873504,-0.0008850297833465584,0.0020334505525764464,-0.0017209905630190593,0.0054019544188520525,0.0009647820695649743,0.3265375792980194,-1.1519266229918976,1.6624248663531702,-2.079719682733053,-1.5714057127581995,2.3015692234039307,0.0016696772072464228,-0.002885834313929081,5.036976654082537e-05,-0.00283253425732255,-0.00010935126920230687,0.0007034718873910606,0.1149216890335083,0.07661445438861847,-9.174580574035645,0.7306999564170837,47.67882537841797,-0.19671647250652313,-4.261124610900879,-2.309147596359253,-0.4048917591571808,0.02011623978614807,-0.16358450055122375,24.9375,25.625,24.8125,27.375,28.25,28.75
1.0,-2.4385930581682373,-2.361232122714587,-1.2236781439030178,-0.09046522132972744,0.068980949300928,-0.060018454283485415,-0.5388199512552155,-0.32448880210169295,0.260027077197545,-3.0786234783355004,0.6247750472964869,5.609634760744456e-05,0.0024281545161800467,0.0002518648027912775,-0.004181093073772542,0.002733885972491165,-0.007695153959280683,0.00046769805129890773,0.32657331228256226,-1.1519492727569123,1.6624277273761194,-2.0796834431090296,-1.571345631276266,2.3015329837799072,0.0009042921592481434,0.0009027647320181131,0.008481964468955994,-0.0012187851825729012,-0.00010458601173013449,0.0004372718103695661,-0.325611412525177,0.28730422258377075,-9.423578262329102,0.7888899445533752,47.69853210449219,-0.15033212304115295,-4.00970458984375,-2.4572999477386475,-0.5399772524833679,0.03598402440547943,-0.151017427444458,24.9375,25.625,24.8125,27.375,28.25,28.75
1.0,-2.187229762009335,-1.0177202992499432,-0.8623646561950716,-0.03732615092493563,0.0570090910195575,-0.061625934275726345,-0.5388195825675778,-0.3244782814421968,0.2600143837307354,-3.078657107981793,0.6248197412911699,1.861976584441076e-05,0.0011970166646501476,-0.0006591206187452596,-0.0015757533866693587,-0.0003488524773724573,0.0013324431229868796,0.0013879426241462465,0.3265496492385864,-1.1519614321044465,1.6624377409564417,-2.0797211132445277,-1.571357552205221,2.3015570640563965,0.001659917994402349,0.0002540833957027644,0.004622758366167545,-0.006250360049307346,-0.00010163303522858769,0.00027012365171685815,-0.40222588181495667,0.2106897532939911,-9.097966194152832,0.7844129800796509,47.70121383666992,-0.21639308333396912,-3.8051114082336426,-2.1903207302093506,-0.575312077999115,0.04433537274599075,-0.1662488579750061,24.9375,25.625,24.8125,27.375,28.25,28.75
1.0,-0.1366204959045496,1.1017183047200965,-0.6172840608550608,0.01386421049885357,-0.012395507912318752,-0.07276398265477438,-0.5388092564055613,-0.32448900998847363,0.25998679447022965,-3.0786617367453912,0.62478243625139,4.776428198168142e-05,6.76065857934622e-06,-0.0009533549885732992,-0.0005651342181383161,-0.003658535592553556,0.01101584695969157,0.0012612134459637383,0.32657352089881897,-1.1519373518279572,1.6624863783465784,-2.079808374444479,-1.571369473134176,2.3015570640563965,0.0014877563808113337,0.0006392599898390472,0.004070893861353397,-0.01631706953048706,-9.884267637971789e-05,0.0002206354693043977,-0.19153612852096558,0.15322890877723694,-9.002198219299316,0.7933669090270996,47.69136428833008,-0.2245841920375824,-3.697995901107788,-1.9860889911651611,-0.49408024549484253,0.015436595305800438,-0.1813562661409378,24.9375,25.625,24.8125,27.375,28.25,28.75
1.0,-0.7217989387719574,-0.21468014696951984,-0.4942444476171342,-0.03812580256587292,0.023597012059236318,-0.06818704446921216,-0.5388131340430464,-0.32449148988777077,0.2600198755581944,-3.0787098314980774,0.624773386253413,0.00013271219820634644,0.000258421896477686,-0.0005594326650267539,-0.0027977902174855154,-0.0017136357170541953,0.005293246680248156,0.00114353441526451,0.32657337188720703,-1.1519726079753418,1.6624630133258265,-2.0798193416991175,-1.571357552205221,2.3015451431274414,0.0010132972383871675,0.0028756042011082172,0.005470403470098972,-0.013908912427723408,-9.620141645427793e-05,-0.00013468702672980726,-0.1149216815829277,-0.19153614342212677,-9.059659004211426,0.7956027388572693,47.72092056274414,-0.2151605784893036,-3.6641011238098145,-1.996168613433838,-0.535258948802948,0.041275426745414734,-0.16510343551635742,24.9375,25.625,24.8125,27.375,28.25,28.75
1.0,-0.8262060144292452,0.10648196409164012,-0.663173067391782,-0.007448578453006933,0.018833826936993127,-0.06518087638328625,-0.5388246301268339,-0.32447972891331894,0.2600051500978948,-3.0787049945002596,0.6248302257214843,0.00015016132743886273,-4.577889984886707e-05,-0.0003722240279268514,-0.0021074389432303073,-0.002148969600731017,0.006565841721012817,0.0006864883694963831,0.326549232006073,-1.151948795919754,1.6624739805804651,-2.079867025414938,-1.571357552205221,2.3015570640563965,0.0005648160586133599,0.002304047578945756,0.004704753868281841,-0.01391670759767294,-9.369757754029706e-05,-0.00012629915727302432,0.13407529890537262,-0.19153612852096558,-9.097966194152832,0.7217512726783752,47.68867492675781,-0.20679721236228943,-3.555065155029297,-1.8116850852966309,-0.5767405033111572,0.026237495243549347,-0.18149417638778687,24.9375,25.625,24.8125,27.375,28.25,28.75
1.0,0.028238945563742512,1.2616406568172438,-0.9199867224092895,0.018376183684873232,-0.029044732464545732,-0.06741696551484397,-0.5388120865813358,-0.32448973741748544,0.25995575055236053,-3.07869608880641,0.6247312077081569,0.00011051676733255012,9.229724972745249e-05,-0.00023503018691950015,-0.004551626656423113,-0.00138749229024074,0.004306542901243676,0.0005862997473793728,0.3265731632709503,-1.1518997710994263,1.6625340620623987,-2.079939981500143,-1.571369473134176,2.301520347595215,0.00042619454325176775,0.004941719584167004,0.007185123860836029,-0.016650596633553505,-9.132105333264917e-05,-0.00016516399045940489,0.17238251864910126,-0.13407529890537262,-9.059659004211426,0.7195101380348206,47.71196365356445,-0.17070171236991882,-3.581871509552002,-1.8168774843215942,-0.5605672597885132,0.025448553264141083,-0.1808975338935852,24.9375,25.625,24.8125,27.375,28.25,28.75
1.0,-0.2847598354082999,-0.8766703968150243,-1.0695493478439797,-0.015528217190960238,-0.027147806405819958,-0.05755718584595403,-0.5388211287475625,-0.3244694181832641,0.2599404007036972,-3.0786758001067267,0.6248245945471005,0.00010689257234802216,0.0009998909015508832,0.00012728944422589055,-0.006425605564352423,0.000344846492643,-0.0007809736725532465,0.0005369988111108674,0.3265371322631836,-1.1518875819495697,1.6625598112689417,-2.07997526744985,-1.571369473134176,2.3015451431274414,0.00034456566208973527,0.00555419409647584,0.010175070725381374,-0.014878661371767521,-8.906188304536045e-05,-0.000196380729903467,0.15322890877723694,-0.15322890877723694,-9.27034854888916,0.7642692923545837,47.692256927490234,-0.19662092626094818,-3.500370502471924,-1.9005885124206543,-0.5737334489822388,0.012618092820048332,-0.17848211526870728,24.9375,25.625,24.8125,27.375,28.25,28.75
1.0,-0.6581489413137718,-1.2801147471628371,-1.2065991323285252,-0.05481079507741395,0.008783424395359056,-0.06202749116814103,-0.5388104670428259,-0.3244800713591684,0.25991402384116125,-3.078662825190462,0.6248027000309888,9.793383280600756e-05,0.0008349544398505613,0.00015148952393660483,-0.0076165751781729725,0.0014122793156038835,-0.00399476728136955,0.00043347586266152935,0.3265610635280609,-1.1518630546382447,1.6625960508929651,-2.080022474328512,-1.5713813940631312,2.3015570640563965,0.0002172575332224369,0.007504879031330347,0.00973464548587799,-0.013002641499042511,-6.559104076586664e-05,-0.00021917870617471635,0.17238251864910126,0.07661445438861847,-9.366117477416992,0.7374180555343628,47.66360092163086,-0.17769306898117065,-3.391469955444336,-1.7997161149978638,-0.6352219581604004,0.038307130336761475,-0.1895628720521927,24.9375,25.625,24.8125,27.375,28.25,28.75
1.0,-1.223674300105116,-1.6858299269707384,-1.2768756839992232,-0.042126958380918615,0.004151231243162166,-0.05497427389589774,-0.5388126649789574,-0.3244626055785712,0.2598638688535163,-3.0786188883926595,0.6247930181561496,5.2379552654834434e-05,0.0010079024527295337,0.00044983902122747345,-0.008699769506598476,0.001635662606537388,-0.004632631782977534,0.00021989339228096642,0.32653695344924927,-1.151814804678299,1.6626561323748987,-2.080083032647604,-1.5714057127581995,2.301532506942749,-0.00015000950952526182,0.0081816166639328,0.011686240322887897,-0.014955172315239906,-7.300133438548073e-05,-0.0003733305202331394,0.13407529890537262,0.26815059781074524,-9.308655738830566,0.7486078143119812,47.66360092163086,-0.17061501741409302,-3.3723528385162354,-1.8417657613754272,-0.6467065811157227,0.025816520676016808,-0.18957114219665527,24.9375,25.625,24.8125,27.375,28.25,28.75
1.0,-0.4026127753717642,-1.1672573735287772,-1.2990906608120432,-0.060057600726057606,0.007032300246190712,-0.0658129539256853,-0.5388028560463157,-0.32445925662145536,0.25982019909222687,-3.0785736411907605,0.6248036750732169,-6.13194721283171e-05,0.0008725386537553211,0.00042725540619528284,-0.010054143132337665,0.0015263627723813228,-0.0043230670804467975,0.0002095454523796583,0.32653695344924927,-1.151778207426407,1.6627042929278772,-2.0800839863219203,-1.5714057127581995,2.3015449047088623,-0.00018576299771666527,0.009987441822886467,0.01302406843751669,-0.018427100032567978,-7.416286825900897e-05,-0.0003997053427156061,0.09576806426048279,0.26815059781074524,-9.366117477416992,0.6971306204795837,47.70658874511719,-0.17482024431228638,-3.3025412559509277,-1.8053226470947266,-0.6448631286621094,0.0416872613132,-0.19919522106647491,24.9375,25.625,24.8125,27.375,28.25,28.75
1.0,-0.7230779176293372,-1.32044558054003,-1.0748276130699554,-0.07556633032593515,0.0039090963865719384,-0.06784734166538255,-0.5387950409888933,-0.32446695945881393,0.25980089727708977,-3.078615985861599,0.624793089666087,-3.129645608973191e-05,0.0006671142177853463,0.0003470294708255783,-0.010522862934187723,0.0009462076238796487,-0.002617611179124508,0.00018048633129856014,0.3265489935874939,-1.151765988474228,1.662752930318014,-2.0801812611021937,-1.5713813940631312,2.3015449047088623,-0.00016924712690524757,0.010827095247805119,0.013656090013682842,-0.0217001810669899,-7.812290277797729e-05,-0.0003552492125891149,0.1149216815829277,0.325611412525177,-9.327810287475586,0.7127973437309265,47.668975830078125,-0.17302531003952026,-3.3012828826904297,-1.8420419692993164,-0.6551984548568726,0.023562464863061905,-0.20148029923439026,24.9375,25.625,24.8125,27.375,28.25,28.75
1.0,-0.8830294112948779,-1.0486349212687864,-0.9406237056034316,-0.04875909031694704,0.0022617817988538833,-0.06343931421849947,-0.5387860522259131,-0.3244626362307319,0.2597355941446281,-3.078576908918269,0.6247851465678028,-0.00010179154285726427,0.00031583806439916084,0.00021553651601508537,-0.010837309267509003,0.00017212341400953235,-0.0003450773221873718,0.0002474202992386888,0.3265489935874939,-1.1517056685737153,1.6628358999835413,-2.0802656612791957,-1.5713933149920862,2.3015449047088623,-0.0001503912644693628,0.011756102554500103,0.013877958059310913,-0.02525181509554386,-8.200621959986165e-05,-0.00040458040894009173,0.2106897532939911,0.24899697303771973,-9.27034854888916,0.7597975730895996,47.685096740722656,-0.1822769045829773,-3.337338447570801,-1.7657229900360107,-0.6245462894439697,0.027422428131103516,-0.20897862315177917,24.9375,25.625,24.8125,27.375,28.25,28.75
1.0,-0.13130402377426303,-0.44378062567175425,-0.843689567962393,-0.045620560305875496,0.007330337690983955,-0.06923297085940691,-0.5387932632670891,-0.32446378537963555,0.25968387752734984,-3.0785898569761456,0.6247289696172664,-5.9724402235950425e-05,-5.500751308028726e-05,7.925464927527913e-05,-0.011465969978713549,-0.0003868159525954935,0.001275414208305272,0.0003614154051655274,0.3265489935874939,-1.1516332191279908,1.6628850142108362,-2.0804110966124476,-1.5714057127581995,2.3015081882476807,-0.00013531476724892855,0.013149822130799294,0.01411849819123745,-0.028600268065929413,-7.995014311745763e-05,-0.0005046119913458824,0.2106897532939911,0.24899697303771973,-9.21288776397705,0.7486078143119812,47.70658874511719,-0.28653383255004883,-3.3439559936523438,-1.7860445976257324,-0.617006778717041,0.038332827389240265,-0.22136536240577698,24.9375,25.625,24.8125,27.375,28.25,28.75
1.0,-0.34573009389460596,-0.6951665353580802,-0.8800459581367497,-0.04346819003551537,0.0031109356730576482,-0.07038491247985555,-0.538790697293955,-0.3244589054385582,0.25963483852891084,-3.0785838305563082,0.6248250562099202,-0.00013738931212726107,-0.0003175515534511827,-1.8331647795044095e-05,-0.012065520750216012,-0.0007620322629328719,0.0023595480496580628,0.00045491108614882376,0.32653698325157166,-1.1515848499587555,1.6629450956927698,-2.0804835758604945,-1.571369473134176,2.3015568256378174,-0.00012298660294618458,0.01432301476597786,0.014440798200666904,-0.0312429741024971,-7.797127909725532e-05,-0.0005866294959560037,0.09576806426048279,0.17238251864910126,-9.21288776397705,0.7284641265869141,47.68867492675781,-0.25822925567626953,-3.3685660362243652,-1.7597858905792236,-0.6029946804046631,0.03581180423498154,-0.2165229320526123,24.9375,25.625,24.8125,27.375,28.25,28.75
1.0,-0.5259449500625175,-0.5460376325885543,-0.9409095658920629,-0.031917189903223245,0.008045258460503503,-0.06806963845948265,-0.5387920803676419,-0.32447492897105196,0.25958775636196674,-3.0786073739649886,0.6247723912889261,-0.00010411300841830881,-0.0004803868549422676,-8.060933817199159e-05,-0.012630078113260031,-0.0011717878028131875,0.003546735671599502,0.000633503280645194,0.32656094431877136,-1.151512698536255,1.6629813353167933,-2.080616613427633,-1.571369473134176,2.3015449047088623,-0.00011271741823293269,0.015227829106152058,0.01509612612426281,-0.03405904769897461,-7.60879775043577e-05,-0.0007558873621746898,0.15322890877723694,0.13407529890537262,-9.232041358947754,0.7642692923545837,47.702110290527344,-0.27693626284599304,-3.3441247940063477,-1.726700782775879,-0.5599128603935242,0.03324846178293228,-0.20796532928943634,24.9375,25.625,24.8125,27.375,28.25,28.75
1.0,-0.7799898455178346,-0.4855816728553861,-1.0341660274113482,-0.028848272090364065,0.009955563313957898,-0.061964849545493146,-0.5388058872427076,-0.32444470836511236,0.2595498632244351,-3.0785756677756124,0.6248029840829274,-5.879528158087899e-05,-0.0005634690502415015,-0.00011460813050947967,-0.013386305185809959,-0.0013603843538974355,0.004086313515570674,0.0007001824643411993,0.32651302218437195,-1.1514763099006196,1.6630409399615687,-2.0807248554625453,-1.5714057127581995,2.3015201091766357,-0.00010403098713140935,0.016240818426012993,0.015950120985507965,-0.03649764508008957,-7.42933843866922e-05,-0.0008146227919496596,0.05746084079146385,-0.019153613597154617,-9.21288776397705,0.7105615139007568,47.69584274291992,-0.2627469003200531,-3.3900811672210693,-1.7334550619125366,-0.5305875539779663,0.028476698324084282,-0.22467412054538727,24.9375,25.625,24.8125,27.375,28.25,28.75
1.0,-0.9116238998563092,-0.5298854102465655,-1.079187803611739,-0.03112610254556772,0.011812761877643577,-0.06500579407374542,-0.5388099572767164,-0.3244732655497921,0.25949391166828606,-3.0786547213204947,0.6247233083046457,-6.76343580631478e-06,-0.0007939393394171059,-0.00020028064970115255,-0.014401365579858867,-0.0016054059166425343,0.004783466050795839,0.0006517093822611024,0.3265490233898163,-1.1513798099807282,1.6631248633014124,-2.0809651813902796,-1.571369473134176,2.3015201091766357,-9.325161227025092e-05,0.01786351017653942,0.01669251173734665,-0.03960161283612251,-7.175489008659497e-05,-0.0007563048857264221,0.019153613597154617,-0.019153613597154617,-9.289502143859863,0.7284641265869141,47.681514739990234,-0.2826598286628723,-3.382981300354004,-1.6529638767242432,-0.5081176161766052,0.03477725014090538,-0.21517451107501984,24.9375,25.625,24.8125,27.375,28.25,28.75
1.0,-1.3929478264487682,-1.1347976191510547,-1.1414289568445208,-0.0236401253116992,0.01577926181645437,-0.06268978829345498,-0.5387963184648775,-0.3244829115525537,0.25939030904628724,-3.078632774100392,0.6247187220057154,-3.076077540204326e-05,-0.000463364495571814,-9.154750634504881e-05,-0.015579526125479883,-0.001256805615533166,0.003750388832042531,0.0006505461546655206,0.326572984457016,-1.1512716871551056,1.6632097403155726,-2.0811335049071253,-1.5713813940631312,2.3015201091766357,-8.722640632186085e-05,0.018615223467350006,0.018690168857574463,-0.04126068949699402,-7.015683513600379e-05,-0.0007494702585972846,-0.019153613597154617,-0.019153613597154617,-9.346963882446289,0.7217512726783752,47.68867492675781,-0.3019680082798004,-3.3698267936706543,-1.725066065788269,-0.5138362646102905,0.021496552973985672,-0.21237066388130188,24.9375,25.625,24.8125,27.375,28.25,28.75
1.0,-0.5995875646751824,-0.26191524561585533,-1.1379057396633394,-0.038996019559094916,0.021928642851583087,-0.07620790639499606,-0.5388112802290115,-0.32446863894797,0.2593193209939379,-3.078588968661372,0.6247482026044449,-1.8318184897084327e-05,-0.0006878590963304451,-0.00017850897406110168,-0.01616644038892108,-0.0011494933732140577,0.003217197540417897,0.0006857539949222299,0.3265490233898163,-1.1511753660491486,1.6632688681231897,-2.0812770328917445,-1.5714176336871546,2.3015201091766357,-8.193266694433987e-05,0.01984485797584057,0.018399246037006378,-0.04166025295853615,-2.2963313313084655e-06,-0.0007794947014190257,0.09576806426048279,0.13407529890537262,-9.289502143859863,0.7016075849533081,47.679718017578125,-0.2826467752456665,-3.3394575119018555,-1.7194461822509766,-0.4918513596057892,0.019318871200084686,-0.20784154534339905,24.9375,25.625,24.8125,27.375,28.25,28.75
1.0,-0.8487224649698866,-0.5246829952695169,-1.2963033383264846,-0.03909942513595215,0.005627608503086424,-0.05834612171364782,-0.5387863257804169,-0.32449754308373363,0.2592352010805109,-3.078625307944544,0.6247374411010514,-0.0001160087802002174,-0.0008978429774700746,-0.00025334246910372655,-0.016582810278110843,-0.0008532288448481566,0.002334247745661022,0.0009278775036208327,0.3265969455242157,-1.1510909658721467,1.6633771101581019,-2.081432958642477,-1.571357552205221,2.3015565872192383,-7.724449096713215e-05,0.020877107977867126,0.017793353646993637,-0.04115528613328934,-9.7896206696646e-09,-0.00101663323584944,-0.038307227194309235,0.05746084079146385,-9.27034854888916,0.7956027388572693,47.687782287597656,-0.2962510883808136,-3.3512444496154785,-1.6251733303070068,-0.5191162824630737,0.031436532735824585,-0.20194151997566223,24.9375,25.625,24.8125,27.375,28.25,28.75
1.0,-1.0917458832492901,-0.8394120503816104,-1.1806656005624283,-0.03952046834376167,-0.003777475213972927,-0.05826961447266689,-0.5388006230915211,-0.3244933395259269,0.25918719620477737,-3.078655500039854,0.6246849805510589,-2.8056236732294365e-05,-0.0003564116755308573,-5.546004828274313e-05,-0.018321886803109696,0.00046810438235112396,-0.0015457723860128811,0.000993075541471105,0.32658490538597107,-1.1510187846473237,1.6634257475482386,-2.081611772576803,-1.571369473134176,2.3015079498291016,-9.740527457324788e-05,0.022069048136472702,0.01989164762198925,-0.04034670442342758,-4.173469209112213e-11,-0.0011012625182047486,0.13407529890537262,0.13407529890537262,-9.232041358947754,0.7709873914718628,47.68598937988281,-0.30906936526298523,-3.350456953048706,-1.6522717475891113,-0.5283025503158569,0.04126063361763954,-0.2067819982767105,24.9375,25.625,24.8125,27.375,28.25,28.75
1.0,-0.8201288258780244,-0.9777925907761873,-1.0058746718573364,-0.020337469934542215,-0.01196527458791461,-0.05770008434212513,-0.538810174483265,-0.324470778657819,0.2590928074090028,-3.0785947830121083,0.6247301505555349,-9.043042693141657e-05,-0.0004002723727839615,-5.840894054030801e-05,-0.019030921898992522,0.0008676266803293999,-0.0027242124221102176,0.0009246621405845448,0.3265490233898163,-1.1509103339961548,1.6635211149798792,-2.0817557773985804,-1.5713933149920862,2.3015079498291016,-0.00011570927745196968,0.02309170737862587,0.02006501704454422,-0.040298424661159515,-1.7792153384280085e-13,-0.0010509592248126864,0.1149216815829277,0.1149216815829277,-9.27034854888916,0.6859408020973206,47.68419647216797,-0.34939974546432495,-3.3751800060272217,-1.6282920837402344,-0.5478711724281311,0.03014339506626129,-0.21053996682167053,24.9375,25.625,24.8125,27.375,28.25,28.75
1.0,-0.8591066307363033,-0.80312926607963,-0.894186046152387,-0.01984194206458723,-0.0265563624853368,-0.057852361179729785,-0.538821057520425,-0.3244847021323162,0.2590422232569949,-3.07866542823545,0.6247260005019625,1.8468961866709996e-05,-0.00024496678127065564,3.465899996342461e-05,-0.019538953769667803,0.0010274500482914445,-0.003194317253092641,0.0007241228135475364,0.326560914516449,-1.150826410656311,1.6635702292071741,-2.0819832287230433,-1.571369473134176,2.3015081882476807,-0.0001774140546331182,0.02334836684167385,0.02102104015648365,-0.04101452976465225,-7.585075222335037e-16,-0.0009122797637246549,0.13407529890537262,0.038307227194309235,-9.21288776397705,0.7083203792572021,47.699424743652344,-0.3136693835258484,-3.291395425796509,-1.6482930183410645,-0.5691463947296143,0.038989804685115814,-0.2068278193473816,24.9375,25.625,24.8125,27.375,28.25,28.75
1.0,-0.6585023164117696,-0.7040226619739507,-0.9948239671036335,-0.02737359672040343,-0.01719299382955868,-0.06429884204111154,-0.5388357021111139,-0.3244638585746693,0.2589585792830421,-3.078609607744879,0.6247148685313295,-6.108195844320514e-05,-0.0001329183530134685,0.0001018167172530383,-0.020754403438652563,0.0012809336371011589,-0.003947179711003122,0.0004666550056627459,0.3265250027179718,-1.150718168621399,1.663630787526266,-2.0820795498290003,-1.5713933149920862,2.3014724254608154,-0.0002217511646449566,0.02455984801054001,0.02252236381173134,-0.04293292760848999,-3.2336363708785284e-18,-0.0006995848962105811,0.07661445438861847,0.15322890877723694,-9.232041358947754,0.7642692923545837,47.71375274658203,-0.32694557309150696,-3.3789172172546387,-1.7221674919128418,-0.5947609543800354,0.030642785131931305,-0.2078269124031067,24.9375,25.625,24.8125,27.375,28.25,28.75
1.0,-0.48195088215590687,-1.2300213552670534,-0.9401979956654851,-0.02712511223246765,-0.003237752798224763,-0.06394150537828096,-0.5388322627873655,-0.3244612581935373,0.2588784982665019,-3.0785950226619656,0.6247313544821881,-5.277554735121145e-05,-0.00022282578145726943,0.0004152985108634773,-0.02161142592067266,0.002301439610048726,-0.0069451598199866795,-3.0449409516889034e-05,0.3265248239040375,-1.1506337088397522,1.6637375990497034,-2.0822698078551234,-1.5714057127581995,2.3014843463897705,-0.0007514827302657068,0.025665519759058952,0.022443562746047974,-0.04079290106892586,-1.378549805195039e-20,-0.0007311803638003767,0.19153612852096558,0.019153613597154617,-9.193734169006348,0.7060845494270325,47.703006744384766,-0.3178606629371643,-3.4335012435913086,-1.6430225372314453,-0.6533381938934326,0.023649640381336212,-0.19515076279640198,24.9375,25.625,24.8125,27.375,28.25,28.75
1.0,-0.609434021534527,-0.9452742538685233,-1.077264004252443,-0.03737848957445488,-0.0020662262634180938,-0.062152141601260015,-0.5388344592935294,-0.32446051313870056,0.25877883757654685,-3.0786260397890644,0.6247188454254868,-0.0001657056215089142,-0.0002138182281301833,0.0002966903734648511,-0.022784234313880006,0.00243713894489219,-0.0073549860405770036,0.00022642464353366345,0.3265128433704376,-1.1505133372596283,1.6638339201556605,-2.0824386082091273,-1.571345631276266,2.3014605045318604,-0.0005638497532345355,0.027186697348952293,0.023460572585463524,-0.04289935901761055,-5.876973985306915e-23,-0.000800935784354806,0.2106897532939911,0.15322890877723694,-9.136273384094238,0.7217512726783752,47.687782287597656,-0.3703293800354004,-3.457409620285034,-1.6110947132110596,-0.709699273109436,0.029366469010710716,-0.2049340158700943,24.9375,25.625,24.8125,27.375,28.25,28.75
1.0,-0.3923594876120358,-1.0617405371093072,-0.9415256938956715,-0.03996970916342319,0.00884826285805569,-0.06501634526785809,-0.5388263418969349,-0.3244670331194869,0.2587021628373799,-3.0785823630208764,0.6246714133357485,-0.00011974312720343138,0.00012682154057391815,0.0003395009042600698,-0.023794662712713802,0.002543243138233369,-0.007670328285756936,0.0003302321287775984,0.3265368640422821,-1.1504291755012055,1.6639311949359339,-2.082618852654928,-1.5714057127581995,2.3014605045318604,-0.00045080570271238685,0.027736185118556023,0.025495821610093117,-0.04515143111348152,-2.505446393847156e-25,-0.000792319537140429,0.15322890877723694,0.19153612852096558,-9.193734169006348,0.7150384783744812,47.692256927490234,-0.3794238567352295,-3.398702383041382,-1.6873304843902588,-0.7455028295516968,0.02911132201552391,-0.20562005043029785,24.9375,25.625,24.8125,27.375,28.25,28.75
1.0,-0.5886319567808791,-0.5775110802770643,-1.0213845853847303,-0.03460477343810134,-0.0026228536188490584,-0.058408021092491866,-0.5388305795378779,-0.3244800982256088,0.2585798638048322,-3.07857039682116,0.6247070992505024,-0.0002462046154105262,-7.608228655712514e-05,0.00022167793407867783,-0.025203115229170642,0.0031506393571035774,-0.009466799299506298,0.00040543267291064984,0.3265489339828491,-1.1502605837634583,1.6640141646014612,-2.0827986202635707,-1.571369473134176,2.3014962673187256,-0.000375535775674507,0.03004620410501957,0.025586452335119247,-0.04565567895770073,-1.0681109249144446e-27,-0.0007920877542346716,0.09576806426048279,0.1149216815829277,-9.232041358947754,0.6837049722671509,47.693153381347656,-0.37742987275123596,-3.3902671337127686,-1.626147985458374,-0.8066003322601318,0.03393607586622238,-0.19803482294082642,24.9375,25.625,24.8125,27.375,28.25,28.75
1.0,-0.31130254523841805,-0.1438305913946657,-0.7141909741059376,-0.04961707335912618,0.023117609444291393,-0.0864599663891753,-0.5388251861254668,-0.3244626874637987,0.2584948147644004,-3.0785548591426366,0.6247233168507883,-0.00027905549601914617,-0.0001350239345683634,0.0001667759806733573,-0.025711164463359554,0.002395670934242349,-0.007260520192292493,0.0003864088188672206,0.3265249729156494,-1.1501883131316681,1.6641472021686,-2.082979818383688,-1.571369473134176,2.3014843463897705,-0.0003218076308257878,0.03060559742152691,0.026915226131677628,-0.04987570643424988,-4.5535243157633514e-30,-0.0007208305178210139,0.09576806426048279,0.1149216815829277,-9.174580574035645,0.6613254547119141,47.66718673706055,-0.4341201186180115,-3.4947242736816406,-1.6458747386932373,-0.8099578619003296,0.026238640770316124,-0.19032174348831177,24.9375,25.625,24.8125,27.375,28.25,28.75
1.0,-0.6518127993048026,-0.6464638458718525,-0.7840366859407814,-0.04025901438955941,0.025155196187398303,-0.06848698234843822,-0.5388196603879695,-0.3244647293065107,0.258388865832592,-3.078503613088023,0.6247320057476174,-0.0002974804894289168,-0.00029691653529419736,0.00012203988069302349,-0.025993391476438928,0.0015888167867725634,-0.004900320181438612,0.00027879830969131016,0.3265368938446045,-1.150068299179413,1.6642664114581507,-2.083184381524557,-1.5714057127581995,2.3015081882476807,-0.0003378076944500208,0.031065190210938454,0.027780339121818542,-0.053694725036621094,-1.9412391420019638e-32,-0.0006306204595603049,0.05746084079146385,0.09576806426048279,-9.251194953918457,0.7508436441421509,47.67792892456055,-0.37208443880081177,-3.519571304321289,-1.612682819366455,-0.8339539766311646,0.02944408543407917,-0.20332199335098267,24.9375,25.625,24.8125,27.375,28.25,28.75
1.0,-1.1419115903247572,-0.5137860653269921,-1.0795305881996136,-0.042489527674381924,0.01691247221243017,-0.07180354204479474,-0.53884143275797,-0.3244526513494647,0.2582842792052998,-3.078554515877788,0.6247044875808812,-0.00029212504348107607,-0.000718305504906089,-4.592740665295794e-05,-0.025747539622118353,-0.0005175918962898086,0.0012696392182851167,0.0002557460629103083,0.3265010416507721,-1.1499244433692475,1.664363209401266,-2.0834504566588343,-1.571369473134176,2.3014485836029053,-0.00030026515014469624,0.031156180426478386,0.028828777372837067,-0.06135373190045357,-8.275807393743967e-35,-0.000573035329580307,0.05746084079146385,-0.019153613597154617,-9.327810287475586,0.6926589012145996,47.6313591003418,-0.40280574560165405,-3.410897970199585,-1.6511752605438232,-0.8066120147705078,0.022196928039193153,-0.1972801387310028,24.9375,25.625,24.8125,27.375,28.25,28.75
1.0,-0.7576760019522215,-0.5450337063184072,-1.081382202864687,-0.044218817119681446,0.03225511153775762,-0.06762370624888893,-0.5388266188179801,-0.324477455660427,0.25816254404051675,-3.0785370246066512,0.6246815230980491,-0.000314439319353081,-0.0010755627624888632,-0.0001871022166837096,-0.02657769804397867,-0.0013438164339825576,0.0036778795103988115,0.00022811538049305339,0.3265489637851715,-1.1497800809196015,1.6644952932940882,-2.08370365718984,-1.5713813940631312,2.3014843463897705,-0.00027021148707717657,0.03270846977829933,0.029666872695088387,-0.06629014015197754,-3.528106092400182e-37,-0.0005170440999791026,0.0,0.019153613597154617,-9.366117477416992,0.7038487195968628,47.656429290771484,-0.42523306608200073,-3.434013605117798,-1.6075820922851562,-0.7786521911621094,0.017836615443229675,-0.20764997601509094,24.9375,25.625,24.8125,27.375,28.25,28.75
1.0,-1.1015620956584864,-1.1768110831376482,-1.2014685811330947,-0.041422926389416394,0.03205746079037195,-0.06635090854231537,-0.5388298187511044,-0.32445515325832724,0.2580701847109694,-3.0785535770029777,0.6247236223840826,-0.00024913375230397044,-0.0014073108715649037,-0.00029741874539277423,-0.02804968103914816,-0.003094058674094149,0.008789118467876493,0.00017780075185352148,0.3265489637851715,-1.1495874983123322,1.664664093648092,-2.0840898952879847,-1.5713933149920862,2.3014843463897705,-0.0002740747295320034,0.0346817821264267,0.03258591890335083,-0.07658509165048599,-9.820579897681183e-41,-0.0004741962475236505,0.05746084079146385,0.038307227194309235,-9.366117477416992,0.7486078143119812,47.73793411254883,-0.45957982540130615,-3.557921886444092,-1.724685549736023,-0.6528114676475525,0.032918523997068405,-0.20867371559143066,24.9375,25.625,24.8125,27.375,28.25,28.75
1.0,-0.9378724578228985,-0.7674888997938258,-1.1308801269773672,-0.04586552828850436,0.027669329315656806,-0.07683301615339717,-0.5388212221644086,-0.32448831693720037,0.25787851862231215,-3.078616157212543,0.624659845568046,-0.0002687141179135775,-0.00184438152868427,-0.0004371236994780759,-0.028855440794576984,-0.004097290003525579,0.011715232111750127,7.387151351195267e-05,0.3265608847141266,-1.1494550567916413,1.6648553053485315,-2.0844508610167445,-1.5713337103473108,2.3014724254608154,-0.00028815685072913766,0.03630601242184639,0.03340714052319527,-0.08212381601333618,-4.189882408331203e-43,-0.0003862863522954285,0.07661445438861847,0.05746084079146385,-9.366117477416992,0.7172743082046509,47.700321197509766,-0.424899160861969,-3.5945727825164795,-1.787761926651001,-0.5613759756088257,0.026672251522541046,-0.2016083002090454,24.9375,25.625,24.8125,27.375,28.25,28.75
1.0,-0.8227321332361061,-0.9556847297287925,-1.0713593303349347,-0.03391126993375773,0.013275695943248319,-0.06583696040776273,-0.5388458402914356,-0.32448271435032106,0.2577545268853366,-3.078584056390597,0.6247106190193926,-0.00014205633089256101,-0.0016915325056859995,-0.00043822061856444485,-0.02978900118907504,-0.003671665686351299,0.010549682249474217,0.00013267503049557374,0.3265489935874939,-1.1492749017528077,1.6649640242206019,-2.0847984753050746,-1.5713933149920862,2.3014962673187256,-0.00020142052380833775,0.03724854439496994,0.03436284884810448,-0.08278147876262665,-2.8500928237917833e-05,-0.00035834600566886365,0.07661445438861847,0.038307227194309235,-9.385271072387695,0.6971306204795837,47.699424743652344,-0.43275558948516846,-3.5640649795532227,-1.7558178901672363,-0.5021061897277832,0.018888188526034355,-0.20237785577774048,24.9375,25.625,24.8125,27.375,28.25,28.75
1.0,-0.07113749236543418,-0.6837493205670584,-0.8678193841034236,-0.023715977235975228,0.008453681750792919,-0.07192678594525395,-0.5388551243532842,-0.3244792735483726,0.257645515868052,-3.078630819523076,0.6247396700719281,-4.1611662102308376e-05,-0.0009374570374402433,-0.00014187997286321618,-0.03179608192946615,-0.0010417451383462747,0.0029793194104621675,9.4081867413838e-05,0.3265369236469269,-1.149142549639084,1.665107552205221,-2.0851556263365687,-1.5713813940631312,2.3014962673187256,-0.0002540650311857462,0.03863461688160896,0.03581884503364563,-0.07760942727327347,-7.524786633439362e-05,-0.0003698452783282846,0.13407529890537262,0.09576806426048279,-9.232041358947754,0.7351769208908081,47.67524337768555,-0.5031012892723083,-3.618318557739258,-1.7684695720672607,-0.514340877532959,0.025257637724280357,-0.2020215094089508,24.9375,25.625,24.8125,27.375,28.25,28.75
1.0,0.3566376598029213,0.14127557872379096,-0.6613053114552204,-0.019769415117939143,-0.003502535440118107,-0.07791884236129241,-0.5388695155725347,-0.3244737313373244,0.25752036846057097,-3.078599567325643,0.6247528165920482,-4.250232818623958e-05,-0.000962116768471905,0.00019366304347643147,-0.03238253335874597,0.00021859363601435842,-0.0007250593110612158,-0.0004498295681418934,0.3265247941017151,-1.1489743453315278,1.6652162710772913,-2.0854178867735804,-1.5714057127581995,2.3014962673187256,-0.0007839161553420126,0.03936196491122246,0.035301171243190765,-0.07390619814395905,-7.300976722035557e-05,-0.0003542270860634744,0.2106897532939911,0.05746084079146385,-9.155426979064941,0.7396538853645325,47.702110290527344,-0.4981703460216522,-3.583644390106201,-1.7668006420135498,-0.5478392243385315,0.029081691056489944,-0.2065548598766327,24.9375,25.625,24.8125,27.375,28.25,28.75
1.0,-0.35845271617084273,-0.6690309142465114,-0.7703935310755246,-0.007305841355804745,-0.016254235211611654,-0.06780984784049279,-0.5388711964036398,-0.32447024917562384,0.25740407062513326,-3.078631615634464,0.6247792677490881,-5.783550728215946e-05,-0.00025506285245719464,0.0005624068188586684,-0.03475978139762797,0.002069888702452398,-0.0061695769656319845,-0.0006811562598468331,0.32651272416114807,-1.1488419038108368,1.6653602758990687,-2.0857044659056605,-1.571369473134176,2.3014965057373047,-0.0009805995505303144,0.040986835956573486,0.03814394026994705,-0.07262316346168518,-7.071593427099288e-05,-0.0003185096720699221,0.19153612852096558,0.0,-9.040505409240723,0.7418897151947021,47.700321197509766,-0.4208466410636902,-3.653111696243286,-1.80434250831604,-0.5928076505661011,0.02668558806180954,-0.1970158815383911,24.9375,25.625,24.8125,27.375,28.25,28.75
1.0,0.13184432260764975,0.09359835822822149,-0.6271822087298662,-0.025099351651470328,-0.015177089030714876,-0.06743819760551334,-0.5388662269906908,-0.32447902605726675,0.2572638127385299,-3.0786076915070852,0.624659650166335,-3.619006200722109e-05,-0.0003449374064903863,0.0005480651257984564,-0.033560628174852156,0.002060591821318647,-0.006117831068162593,-0.0006943780108779414,0.3265366554260254,-1.1486744445613404,1.6655152479754847,-2.0860148868956507,-1.5714176336871546,2.3014488220214844,-0.0010052203433588147,0.03978274017572403,0.03646715730428696,-0.06979427486658096,-7.531537266913801e-05,-0.0003291276516392827,0.24899697303771973,0.1149216815829277,-8.944737434387207,0.7351769208908081,47.686885833740234,-0.46051281690597534,-3.523224353790283,-1.714216709136963,-0.6450722217559814,0.0033238111063838005,-0.1985875964164734,24.9375,25.625,24.8125,27.375,28.25,28.75
1.0,0.5330873149534758,0.05256564803082098,-0.6730791154881598,-0.02439349977491734,-0.017269759840606067,-0.07882607845504641,-0.5388807021738093,-0.3244644533391382,0.25711040083630177,-3.0785952383180724,0.6247529916227794,-0.00013338209249243448,0.0003645395464311257,0.0007674366392849017,-0.035748558400154694,0.0037775429966938902,-0.011147831898268604,-0.0006841008337166684,0.326500803232193,-1.1484821897796174,1.6656602064715784,-2.086301942864889,-1.5713813940631312,2.3014726638793945,-0.0009695954504422843,0.04131346940994263,0.039025478065013885,-0.06856833398342133,-7.98109540482983e-05,-0.0003027595521416515,0.26815059781074524,0.038307227194309235,-8.9064302444458,0.7083203792572021,47.700321197509766,-0.5051444172859192,-3.5175390243530273,-1.7772061824798584,-0.7067965269088745,0.014960289001464844,-0.20136243104934692,24.9375,25.625,24.8125,27.375,28.25,28.75
1.0,-0.5741486551802749,-0.8265814526358819,-0.6735545489848661,-0.02663932052665778,-0.03106790364443127,-0.06230768908986633,-0.5388526379534326,-0.3244769426545209,0.25697272107052643,-3.078547069519524,0.6247239145121574,-0.00023965208246015695,0.0011502720080193633,0.000983627490624929,-0.03700678000497115,0.0051045192492047975,-0.015043658915489425,-0.0006142230540733565,0.32653671503067017,-1.1483502847007294,1.665839974080221,-2.0865284405150355,-1.5713933149920862,2.3014965057373047,-0.0008903153357096016,0.04151912406086922,0.04121139645576477,-0.06684429198503494,-7.754730177111924e-05,-0.0002923843858297914,0.28730422258377075,0.09576806426048279,-9.040505409240723,0.7956027388572693,47.6949462890625,-0.4609224200248718,-3.5354604721069336,-1.8244540691375732,-0.797258734703064,0.010875983163714409,-0.19334426522254944,24.9375,25.625,24.8125,27.375,28.25,28.75
1.0,-0.647535514887271,-0.9831614410164349,-0.7636985945414826,-0.047013219931178254,0.007988686811669768,-0.07096824598584797,-0.5388612921500858,-0.32445904950457405,0.25682842763251756,-3.0785556529890052,0.6246679838309767,-0.0003224831524590811,0.0002290201417594815,0.0007293224741822128,-0.03593321452496696,0.0031226514663157635,-0.009226687299288296,-0.0007297195260244371,0.326500803232193,-1.1481823188117524,1.6659958998309534,-2.0868054829039515,-1.571369473134176,2.301424503326416,-0.0009817405370995402,0.04168356955051422,0.03961709886789322,-0.07155974209308624,-8.157291449606419e-05,-0.00027040892746299505,0.17238251864910126,0.15322890877723694,-9.097966194152832,0.7821771502494812,47.70121383666992,-0.4888053834438324,-3.554398536682129,-1.6588785648345947,-0.8221348524093628,0.02679838426411152,-0.193755641579628,24.9375,25.625,24.8125,27.375,28.25,28.75
1.0,-1.469189140111006,-1.4332699268129352,-1.1431549664232978,-0.058774793294340405,0.01037950281432341,-0.06144954278825525,-0.5388549731787836,-0.3244492672431108,0.25669230834195206,-3.078453688100487,0.6247436373956659,-0.00032756540341036917,0.00011293234278201806,0.0008153839677636038,-0.037043174371937035,0.002033195138174774,-0.006032180630187125,-0.0009071221440212871,0.32650071382522583,-1.1480378669551392,1.666163746510641,-2.087072034875387,-1.5714414755450647,2.3014845848083496,-0.0011742992792278528,0.0428260937333107,0.042143143713474274,-0.07860349863767624,-8.553021325496957e-05,-0.0002880157553590834,0.19153612852096558,0.2298433631658554,-9.232041358947754,0.6926589012145996,47.671661376953125,-0.4766732454299927,-3.5915088653564453,-1.8333418369293213,-0.8227096796035767,0.017785847187042236,-0.1966364085674286,24.9375,25.625,24.8125,27.375,28.25,28.75
1.0,-1.2951992072611649,-1.7172346662473759,-1.1069825831303333,-0.06413079963944515,0.03202948168583449,-0.06682231091071855,-0.5388490513785742,-0.32445233409287444,0.25652210514904616,-3.0784878919665015,0.6247316179123664,-0.0003953251588046989,-0.00046214585626142273,0.00048030603633240313,-0.036559184244084345,-0.0005864509678632083,0.0016348311296789648,-0.0007233429440148885,0.326500803232193,-1.1478461784175416,1.6663673559771937,-2.0874458752074183,-1.5713933149920862,2.3014726638793945,-0.0009605058585293591,0.04297918081283569,0.04287078604102135,-0.087586410343647,-8.329496631631628e-05,-0.0002616322599351406,0.038307227194309235,0.325611412525177,-9.308655738830566,0.7284641265869141,47.71464920043945,-0.49053412675857544,-3.5436370372772217,-1.855696201324463,-0.752998948097229,0.025140270590782166,-0.1917763650417328,24.9375,25.625,24.8125,27.375,28.25,28.75
1.0,-1.5516606472182415,-1.4510813297869758,-1.233056428098915,-0.06715245335958701,0.03544466133809057,-0.0707261119097021,-0.5388543261508313,-0.3244515776773306,0.25636596760430463,-3.078461058224693,0.6247644302407763,-0.0003742778586929629,-0.0011868485395963248,0.00015566898831528245,-0.037189315460406554,-0.00263642104858337,0.007620136286810155,-0.0006109355749022841,0.3265008330345154,-1.147653655414917,1.6665352026568812,-2.0878077946104945,-1.5714176336871546,2.3014965057373047,-0.0008410279406234622,0.044848594814538956,0.04375406354665756,-0.09666573256254196,-8.114922820823267e-05,-0.00025795167312026024,-0.038307227194309235,0.2106897532939911,-9.423578262329102,0.7418897151947021,47.67792892456055,-0.5525760650634766,-3.5215535163879395,-1.9077128171920776,-0.6701236963272095,0.02622271701693535,-0.20190590620040894,24.9375,25.625,24.8125,27.375,28.25,28.75
1.0,-1.5083786591247559,-1.3306678904340024,-1.3455897727427721,-0.05963663257139291,0.024282770022417265,-0.0647610347821395,-0.5388528161404045,-0.3244548968732475,0.256191042102119,-3.0784994093192717,0.624734139476644,-0.00040390418836397515,-0.0014691672019255435,-8.28312754204939e-05,-0.0380880375119841,-0.003699526287085324,0.010716412559454018,-0.00039646036036085016,0.32650092244148254,-1.1474492710879822,1.6667397657977503,-2.0882164440550746,-1.5713813940631312,2.3014726638793945,-0.0006220305222086608,0.04641593247652054,0.04499177634716034,-0.10274446755647659,-7.911126158433035e-05,-0.0002555950195528567,-0.038307227194309235,0.17238251864910126,-9.519346237182617,0.7239871025085449,47.6707649230957,-0.5709014534950256,-3.6207571029663086,-1.9101812839508057,-0.5696256160736084,0.025406528264284134,-0.20124192535877228,24.9375,25.625,24.8125,27.375,28.25,28.75
1.0,-1.1313824250397693,-0.5216210834832244,-1.363386631183109,-0.04541395166816863,0.009755421263361569,-0.05859040937047538,-0.5388692239903233,-0.32445666477242896,0.25603965567712567,-3.078515229194371,0.6246793911014651,-0.000280407367650932,-0.0012165347426209684,-2.574235577377255e-05,-0.039496822806437196,-0.0022806668749143825,0.00654152440401394,-0.0003362508659436268,0.32650092244148254,-1.1472447675517579,1.6668956915484827,-2.088647028008932,-1.5714176336871546,2.301436424255371,-0.0005774238961748779,0.04796656221151352,0.04550234600901604,-0.10039627552032471,-7.717313565080985e-05,-0.0002699614269658923,-0.019153613597154617,0.13407528400421143,-9.53849983215332,0.7575564384460449,47.68867492675781,-0.5503869652748108,-3.6701416969299316,-1.958470344543457,-0.5425465106964111,0.02779385633766651,-0.19228020310401917,24.9375,25.625,24.8125,27.375,28.25,28.75
1.0,0.15020711994159175,0.037359135578300146,-1.2552702408698067,-0.018984113422479115,0.00481454267101464,-0.06974785913088555,-0.5388645981005892,-0.3244510454051451,0.25586457582469896,-3.0785175810179743,0.62475750013926,-0.00034676661607511305,-0.000760962898178083,0.00016073945877816622,-0.04022726866183256,-0.00024721177870156206,0.0005749425405608303,-0.0003351539604629765,0.3264888823032379,-1.147052840595581,1.6671116987811487,-2.089027544061178,-1.5713813940631312,2.3014726638793945,-0.0006257464410737157,0.04838553071022034,0.04518042504787445,-0.09418974816799164,-7.53277272451669e-05,-0.0003168040420860052,0.038307227194309235,-0.05746084079146385,-9.461885452270508,0.7038487195968628,47.71733474731445,-0.5698226094245911,-3.638920307159424,-1.848466157913208,-0.6068708896636963,0.012924185022711754,-0.19478964805603027,24.9375,25.625,24.8125,27.375,28.25,28.75
1.0,-0.3074708179070872,0.015275532339313627,-1.167203085971871,0.0009847999463858705,-0.015887989168865857,-0.06699632527929932,-0.5388694561674741,-0.32447195349747054,0.2557244456220713,-3.0785687754120916,0.6247489519855844,-0.00032933652084398443,-0.00035139630767236954,0.0004126707331891603,-0.040166839227790366,0.0008914924252473699,-0.002761050166269366,-0.000545402884337548,0.32651278376579285,-1.1468613904765625,1.667243782673971,-2.0893851719298304,-1.571345631276266,2.3014845848083496,-0.0007991322199814022,0.04763857275247574,0.045107606798410416,-0.08984497934579849,-7.356842252193019e-05,-0.00027829292230308056,0.19153612852096558,-0.1149216741323471,-9.327810287475586,0.6635612845420837,47.692256927490234,-0.5834687352180481,-3.601701259613037,-1.8048460483551025,-0.688355565071106,0.01730487495660782,-0.19938215613365173,24.9375,25.625,24.8125,27.375,28.25,28.75
1.0,0.027425401801392205,0.29799226534668877,-1.1331197816945129,-0.0056353940198714215,-0.0021252492399080865,-0.06952804322243335,-0.538900954460412,-0.32442965961072706,0.25557048982033387,-3.0785103136806273,0.6248332558567766,-0.0002528223291954134,-0.00013456934596723134,0.0007274550265588194,-0.03967252568867596,0.001765579369958071,-0.005322395486291597,-0.0009120842280417735,0.3264647424221039,-1.1466099780849,1.667506519948141,-2.0899583301939906,-1.5714057127581995,2.3014845848083496,-0.0011706348741427064,0.046604223549366,0.04444089159369469,-0.08543755114078522,-7.10784224793315e-05,-0.0002815599727910012,0.2106897532939911,-0.26815059781074524,-9.366117477416992,0.7575564384460449,47.699424743652344,-0.6035995483398438,-3.4888193607330322,-1.5685036182403564,-0.8138207197189331,0.027809038758277893,-0.19398340582847595,24.9375,25.625,24.8125,27.375,28.25,28.75
1.0,-0.34738237083242157,-0.39958793176130253,-1.2638834546089934,-0.022497649882390357,0.012354254089484238,-0.07062246066951654,-0.5388702243890074,-0.3244437748959686,0.25530258371184766,-3.0784657883090967,0.6247477468451171,-0.0004565155844391241,-8.05877797577806e-05,0.0007186356678316853,-0.04064626365523986,0.001255938463400814,-0.0038418922480594575,-0.0008668820708418858,0.3264767825603485,-1.1463817817023774,1.667722527180807,-2.090222497979635,-1.5713933149920862,2.3014607429504395,-0.0011288252426311374,0.04756412282586098,0.046320926398038864,-0.08984324336051941,-6.950993702048436e-05,-0.0002864403068087995,0.15322890877723694,-0.15322890877723694,-9.327810287475586,0.6904177665710449,47.687782287597656,-0.5677492022514343,-3.3463401794433594,-1.690532922744751,-0.8738188743591309,0.013462931849062443,-0.20161256194114685,24.9375,25.625,24.8125,27.375,28.25,28.75
1.0,-1.0526729828329224,-1.3154130521645255,-1.3472780564619269,-0.04550333446894756,0.02465115759902469,-0.06295969018573812,-0.5388728579317197,-0.32443681166157035,0.25514615805394625,-3.078469765343182,0.6247680772049365,-0.0004366425765232333,-0.0011775924505841799,0.0004134162711240974,-0.03970591969275207,-0.0017694447975198178,0.004806096273496563,-0.00100223094699821,0.3264647126197815,-1.1462016862681885,1.6679142157184046,-2.090609212914938,-1.5713933149920862,2.3014607429504395,-0.001245691324584186,0.047994185239076614,0.04559912160038948,-0.0987132340669632,-2.963317626836215e-07,-0.0002718297182582319,0.07661445438861847,-0.038307227194309235,-9.404424667358398,0.7530794739723206,47.703006744384766,-0.6006840467453003,-3.3905303478240967,-1.6991991996765137,-0.8128852844238281,0.014663536101579666,-0.19637800753116608,24.9375,25.625,24.8125,27.375,28.25,28.75
1.0,-1.3069156569790035,-1.7128690586854582,-1.4991405572583287,-0.07918442244594662,0.051186444014326954,-0.07560270817127639,-0.5388701575018102,-0.32443582705750224,0.25496103316606883,-3.078455558605778,0.6247264681048444,-0.0004979771019864541,-0.0017579508488470134,0.00025359896067360686,-0.039991905960729046,-0.004791957433183489,0.013655032918907076,-0.0010605604343921378,0.3264646530151367,-1.1459855896285553,1.6681183020221155,-2.0909844837584437,-1.5713933149920862,2.301436424255371,-0.001304019009694457,0.04877493530511856,0.048009321093559265,-0.11125507950782776,-1.2633087909108554e-09,-0.0002767031255643815,0.05746084079146385,0.325611412525177,-9.53849983215332,0.7687462568283081,47.71554183959961,-0.5465226769447327,-3.2643957138061523,-1.6858978271484375,-0.7053511738777161,0.009577803313732147,-0.18935483694076538,24.9375,25.625,24.8125,27.375,28.25,28.75
1.0,-1.7853407435839395,-2.090691348157991,-1.523348064358848,-0.09034031639454296,0.04659569556754467,-0.0660776381218843,-0.5388763001795335,-0.3244353490752215,0.25482036086143744,-3.0784747311142473,0.6248077302740193,-0.00032980337735134634,-0.0024289137062306816,5.754394960113836e-05,-0.0396059893747111,-0.0071951368925979526,0.02069430057732565,-0.0011258692477301253,0.3264646530151367,-1.1458176237395783,1.6683099905597132,-2.091454168359274,-1.5714176336871546,2.3014845848083496,-0.001354161649942398,0.04912782460451126,0.0485311858355999,-0.11956802010536194,-5.3856832188392545e-12,-0.00026492963661439717,-0.05746084079146385,0.3064578175544739,-9.672574996948242,0.7060845494270325,47.69584274291992,-0.5303699374198914,-3.214855909347534,-1.6978278160095215,-0.6007038950920105,0.016657549887895584,-0.18893936276435852,24.9375,25.625,24.8125,27.375,28.25,28.75
1.0,-1.0002362172575299,-1.270253797937037,-1.5306164793093502,-0.07626331690702856,0.03180340355077619,-0.06645106392227387,-0.5388902998873291,-0.3244425875420337,0.25465573584325485,-3.0785689811629586,0.6247501591365675,-0.00018988703517671478,-0.0020953346121178706,0.0003479768032448009,-0.04042839082698672,-0.005864371569565263,0.017015441837262803,-0.0013776017825121469,0.32646456360816956,-1.1456016165069123,1.6685016790973108,-2.0919796429076136,-1.5713933149920862,2.301436424255371,-0.00161452847532928,0.04956189543008804,0.04915814474225044,-0.11671744287014008,-7.236622332129627e-05,-0.0002721461351029575,-0.07661445438861847,0.325611412525177,-9.461885452270508,0.7060845494270325,47.699424743652344,-0.6145880818367004,-3.210968255996704,-1.7092804908752441,-0.5706202983856201,0.02496575191617012,-0.19811655580997467,24.9375,25.625,24.8125,27.375,28.25,28.75
1.0,0.011162039054164963,-0.5786897841909464,-1.3397327744703846,-0.03958364392051223,0.009341352800981417,-0.07180047827568814,-0.538906470921756,-0.3244247507224358,0.2544867525657505,-3.078571009493812,0.6248855429199868,-0.0001138460904990457,-0.0019545919383143475,0.000479268658513587,-0.041891964301608846,-0.0037502592565511876,0.010908162888053106,-0.0014798948693901296,0.3264286518096924,-1.1453971725753327,1.6687057654010218,-2.0924445591368617,-1.5713933149920862,2.3014845848083496,-0.0017372636357322335,0.05148909240961075,0.048661407083272934,-0.11168507486581802,-0.00010480584751348943,-0.00029021681984886527,0.13407529890537262,0.26815059781074524,-9.366117477416992,0.6971306204795837,47.693153381347656,-0.5467338562011719,-3.2452917098999023,-1.6090811491012573,-0.6202749013900757,0.009794952347874641,-0.18985328078269958,24.9375,25.625,24.8125,27.375,28.25,28.75
1.0,-0.3440549846382845,-0.3396524908512615,-1.0119102180608024,-0.02111975623225819,-0.019501836330692704,-0.0640987515060787,-0.538897848389969,-0.324447593074486,0.25431906484107875,-3.07862537875851,0.624782008261925,-0.00010184684945851593,-0.0015968389950469287,0.0005995093634910047,-0.043226487733179206,-0.001873182361824074,0.0053824995093143995,-0.0015027427330885077,0.32646453380584717,-1.1451928478530427,1.668896500264303,-2.092862745324606,-1.571369473134176,2.3014488220214844,-0.0017353314906358719,0.05283012613654137,0.04885609447956085,-0.10738500952720642,-0.00010028725228039548,-0.00026344010257162154,0.2106897532939911,0.0,-9.327810287475586,0.6881819367408752,47.69853210449219,-0.5976460576057434,-3.319542407989502,-1.530659556388855,-0.688407301902771,0.015500277280807495,-0.1835135817527771,24.9375,25.625,24.8125,27.375,28.25,28.75
1.0,0.4642714734519349,0.25179091936855463,-0.740367383718597,-0.0034133164741629507,-0.018540987685354376,-0.07014190457779375,-0.5389188621688984,-0.324439131698962,0.2541749624489074,-3.0786652482281,0.62478984142252,5.7769739112169106e-06,-0.0011930521706975301,0.0008201155770461836,-0.044497972706988284,0.00016500582253589638,-0.000611589017204552,-0.001612884574039267,0.3264405131340027,-1.1450007122806092,1.6690529028521937,-2.093290945092672,-1.571369473134176,2.301424503326416,-0.0018636054592207074,0.05394476279616356,0.04906102269887924,-0.10237344354391098,-9.600855264579877e-05,-0.00027930905343964696,0.3447650372982025,-0.17238251864910126,-9.136273384094238,0.7642692923545837,47.70927429199219,-0.5532927513122559,-3.3384451866149902,-1.299699306488037,-0.7816842794418335,0.006343740038573742,-0.17586766183376312,24.9375,25.625,24.8125,27.375,28.25,28.75
1.0,0.5218775593170799,0.5047202826576086,-0.6161468428292335,0.01024681431276604,-0.030464966829971626,-0.07243852824055952,-0.5389102931284069,-0.324451731345377,0.254008923356594,-3.078673827474455,0.6248115089792883,3.840854780423176e-05,-0.0008435597070356574,0.0009787303591630603,-0.046676301778447844,0.0008228717588960813,-0.002567566013264209,-0.0016967164788491834,0.32646444439888,-1.1448080998710175,1.6692569891559046,-2.0937119923033656,-1.571369473134176,2.3014607429504395,-0.0019247428281232715,0.055937718600034714,0.05186082050204277,-0.10510256886482239,-9.20793681871146e-05,-0.00025715577066875994,0.4213795065879822,-0.28730422258377075,-8.983044624328613,0.6926589012145996,47.68867492675781,-0.5711995363235474,-3.2478280067443848,-1.45326828956604,-0.8209322690963745,0.017864901572465897,-0.19451141357421875,24.9375,25.625,24.8125,27.375,28.25,28.75
1.0,0.3258174593051127,0.12146268469859568,-0.5848181233617594,-0.013255334751010038,-0.001163406580348276,-0.07571648790902277,-0.5389437167543868,-0.3244307561082465,0.2538156056546873,-3.0786677872763266,0.6248871945860544,9.798644732043085e-05,-0.001561673893486819,0.0006678725107930457,-0.04549790304034507,-0.0022050359518435295,0.006298842039558011,-0.0015853664498579915,0.32641658186912537,-1.1445445579341431,1.6694377104388636,-2.0941935978331507,-1.5713813940631312,2.3014607429504395,-0.001823458238504827,0.05540937930345535,0.051952894777059555,-0.11403548717498779,-8.845921547617763e-05,-0.0002711091365199536,0.26815059781074524,-0.19153612852096558,-8.887276649475098,0.7530794739723206,47.70658874511719,-0.5821831822395325,-3.1541953086853027,-1.3702630996704102,-0.7753927707672119,0.0069930944591760635,-0.18949270248413086,24.9375,25.625,24.8125,27.375,28.25,28.75
1.0,-1.2796016278309699,-1.425927632759453,-0.7170467723239298,-0.024631774823153322,0.011118170260538816,-0.05772522768412032,-0.5389192927017022,-0.32443806698649874,0.2536160579450879,-3.078660485427602,0.6248082714595131,3.4927819246611386e-05,-0.0014425815609320238,0.0004381075639916659,-0.047289241925961414,-0.003626458148971179,0.010464009938619043,-0.0011900133597242792,0.326440691947937,-1.1443400543979187,1.669701878224508,-2.0946160755553187,-1.5713813940631312,2.301436424255371,-0.0014061098918318748,0.05723844841122627,0.05576576665043831,-0.12407844513654709,-9.348981257062405e-05,-0.00025263705174438655,0.13407528400421143,0.019153613597154617,-8.887276649475098,0.7172743082046509,47.70658874511719,-0.6388375759124756,-3.3529903888702393,-1.6640030145645142,-0.660101056098938,0.007588738575577736,-0.17668871581554413,24.9375,25.625,24.8125,27.375,28.25,28.75
1.0,-1.6463140110062342,-1.6425371669829167,-0.8251780155014344,-0.05952366288581873,0.03250570385366211,-0.05889264915692701,-0.5389321527976685,-0.32441653200453957,0.2534493140353209,-3.0786641223488305,0.6249057947973041,0.00017076765606743418,-0.002084541250390397,9.639368139514671e-05,-0.04514125299264345,-0.006332877620999286,0.018425921197436586,-0.0009657399050095075,0.32640475034713745,-1.1441487532905121,1.6699283758746546,-2.0951200924315394,-1.5714057127581995,2.3014607429504395,-0.0012162023922428489,0.05553830415010452,0.0545005202293396,-0.1295223832130432,-9.837585821514949e-05,-0.00028976352768950164,-0.1149216815829277,0.2106897532939911,-9.040505409240723,0.6635612845420837,47.699424743652344,-0.6273486614227295,-3.190868616104126,-1.5668437480926514,-0.5387334823608398,0.006678058300167322,-0.18458932638168335,24.9375,25.625,24.8125,27.375,28.25,28.75
1.0,-1.6806862370454339,-1.5842522729614839,-0.9855672583134907,-0.04881230784741017,0.00901781657199905,-0.05827307257441757,-0.5389245974205937,-0.324415264518136,0.25320728202523457,-3.0786520724811757,0.6248843844800619,8.680637671652142e-05,-0.0005284151608632817,0.00048722016700465665,-0.048699669869222466,-0.0023852756321143635,0.006827945366061502,-0.0007548744206714063,0.3264048099517822,-1.1438723069480439,1.670206371937887,-2.0956202946104945,-1.5713933149920862,2.3014488220214844,-0.0010017576860263944,0.057647451758384705,0.058207955211400986,-0.1230875700712204,-9.49516543187201e-05,-0.00028273864882066846,-0.17238251864910126,0.363918662071228,-9.193734169006348,0.7060845494270325,47.692256927490234,-0.6457870006561279,-3.2954812049865723,-1.8412635326385498,-0.5663756728172302,-0.009825984947383404,-0.17553561925888062,24.9375,25.625,24.8125,27.375,28.25,28.75
1.0,-0.742077257852446,-0.8745245079453476,-1.0540822816504847,-0.033881836983706226,0.0047811965744152755,-0.06440060399477145,-0.5389297855994322,-0.3244235104060795,0.2530553499695184,-3.0786740204571434,0.6249271139814525,0.00020449700853011245,7.633773883067384e-05,0.0007602260702689308,-0.05031571200282218,0.0007498758803297595,-0.0023576164404421926,-0.0008587875566448048,0.32641682028770447,-1.1436798435500641,1.6703856627093714,-2.096071859399313,-1.5714057127581995,2.3014845848083496,-0.0011039850069209933,0.05905083939433098,0.05800199136137962,-0.11457912623882294,-9.92527129710652e-05,-0.0002772838342934847,0.038307227194309235,0.2298433631658554,-9.136273384094238,0.6680382490158081,47.687782287597656,-0.6192528009414673,-3.375483751296997,-1.7336593866348267,-0.6228624582290649,0.012164457701146603,-0.19097962975502014,24.9375,25.625,24.8125,27.375,28.25,28.75
1.0,-0.4987338780950298,-0.36589891236151073,-0.97882759603241,-0.02432945673064936,-0.011452992678558104,-0.05896016327021042,-0.5389495211341641,-0.32439621911558886,0.25286592048197043,-3.0787123713321716,0.6249742453699728,0.0001789773646014012,0.00019216006666671664,0.0010851509946658861,-0.051371970598016826,0.0030665783142202695,-0.009145585134923511,-0.001284047771866923,0.3263567090034485,-1.1434516471675416,1.670600716267721,-2.096524854699606,-1.571357552205221,2.3014488220214844,-0.0015427871840074658,0.06040245294570923,0.05697040632367134,-0.10772670805454254,-0.00010346439376007766,-0.0002878578961826861,0.1149216815829277,0.05746084079146385,-9.193734169006348,0.6993717551231384,47.674346923828125,-0.6079715490341187,-3.466291904449463,-1.704798698425293,-0.7406474351882935,0.010205047205090523,-0.1925380527973175,24.9375,25.625,24.8125,27.375,28.25,28.75
1.0,0.24678699450130126,0.44842367736071465,-0.7797070568792548,-0.012156128642530992,-0.014502278670178888,-0.06732999818487642,-0.5389419355122967,-0.3244181572173597,0.2526286563664119,-3.0786974040757995,0.6248557974051764,3.679909940539327e-05,-0.00012966906736858283,0.0011874674878261957,-0.05149909585506192,0.0033814138300251287,-0.010082547936306167,-0.00162982614761276,0.32639259099960327,-1.1431515675834198,1.6708162466632288,-2.09694304088735,-1.571345631276266,2.301412582397461,-0.0018696381011977792,0.06115761399269104,0.05592211335897446,-0.10644514113664627,-0.00010020510671893135,-0.0002684298960957676,0.24899697303771973,-0.1149216815829277,-9.193734169006348,0.6881819367408752,47.68867492675781,-0.5728158354759216,-3.512605667114258,-1.6651661396026611,-0.807531476020813,0.0060892789624631405,-0.1945485770702362,24.9375,25.625,24.8125,27.375,28.25,28.75
1.0,-0.17241898776052045,-0.3071201347445193,-1.0899871085498511,-0.0036971246968349964,-0.015437902599606238,-0.06438261351277891,-0.5389459735477649,-0.32441575584229654,0.2524338511690678,-3.078645907776063,0.6249035277697532,3.612620024687825e-05,-0.0012827894463982533,0.0007061032092879456,-0.05109070275342293,-0.0006020675725984605,0.0016117293220833373,-0.0014943001786624228,0.32639265060424805,-1.1428036254695435,1.6711633841144007,-2.0975829563536585,-1.5713813940631312,2.301436424255371,-0.0017318626632913947,0.06228768825531006,0.05665723234415054,-0.12066444754600525,-0.00010907135583693162,-0.00027200233307667077,0.325611412525177,-0.2106897532939911,-9.232041358947754,0.7262282371520996,47.71733474731445,-0.6083863377571106,-3.5861129760742188,-1.6910088062286377,-0.7101981043815613,-0.00687319366261363,-0.1775835156440735,24.9375,25.625,24.8125,27.375,28.25,28.75
1.0,-0.7858954806286944,-1.1422702847413992,-1.6045414013628616,-0.050206112700911465,0.027053280148551323,-0.06626528278254984,-0.5389480538261139,-0.32439970709578236,0.25211457610510496,-3.078615653511079,0.6248586218499603,-3.340073220861467e-05,-0.001538235610671359,0.00044553070800579985,-0.0522257774754498,-0.0022573948849892314,0.006440941391958533,-0.0012492230678394522,0.3263687789440155,-1.1425391894629975,1.671379868184225,-2.0980402431883753,-1.5713933149920862,2.301400661468506,-0.0014647968346253037,0.06400179862976074,0.05892005190253258,-0.12974640727043152,-0.00010608263983158395,-0.00025338950217701495,0.2298433631658554,0.07661445438861847,-9.423578262329102,0.6881819367408752,47.681514739990234,-0.366607129573822,-3.650073528289795,-1.7781651020050049,-0.5811734199523926,0.003878347110003233,-0.18571409583091736,24.9375,25.625,24.8125,27.375,28.25,28.75
1.0,-1.1268425489789091,-1.703893800161608,-1.7234437487600014,-0.067798345136197,0.03919315706107418,-0.06287273746159949,-0.5389479753005031,-0.32438443692936236,0.251882661971384,-3.0785766555103193,0.6249656556045962,-8.09686322544243e-05,-0.0014900248500680912,-0.0002999965534102676,-0.05002127488767636,-0.003334105284435067,0.009723227250598505,-5.136332323529732e-05,0.3263453543186188,-1.142276094560959,1.67165452638735,-2.0985433063902796,-1.5713933149920862,2.3014488220214844,-0.0002863135887309909,0.06185761094093323,0.05670546367764473,-0.12884172797203064,-0.00014108973846305162,-0.0002729847910813987,0.019153613597154617,0.24899697303771973,-9.500192642211914,0.6680382490158081,47.6976318359375,-0.4274692237377167,-3.535430669784546,-1.7289624214172363,-0.5188826322555542,0.007651780731976032,-0.18492278456687927,24.9375,25.625,24.8125,27.375,28.25,28.75
1.0,-0.5939938868774772,-1.589754205700722,-1.8513912693151293,-0.057300357657699266,0.005021749103605769,-0.060658666788009366,-0.5389466987210189,-0.3244021511009751,0.251692311887886,-3.0785882970883667,0.6248718718488186,4.753721952504882e-05,0.00027934331001916945,0.0002894003427324385,-0.05414927521095409,0.0014496968200383127,-0.004308209263320103,-3.096994384769059e-05,0.326381117105484,-1.1420354408076783,1.671870533620016,-2.0990668735899867,-1.5714414755450647,2.301424503326416,-0.0002646961947903037,0.06428076326847076,0.060865290462970734,-0.12060020118951797,-0.00014478281082119793,-0.0002673845738172531,-0.019153613597154617,0.3447650372982025,-9.576807022094727,0.7396538853645325,47.70121383666992,-0.4867267608642578,-3.8043107986450195,-2.017211437225342,-0.5771941542625427,-0.008106645196676254,-0.1936718225479126,24.9375,25.625,24.8125,27.375,28.25,28.75
1.0,-0.4370456983528562,-1.089964433539652,-1.7676634508663764,-0.06526853212481784,0.0044781917540411414,-0.07037617328784554,-0.5389464522448806,-0.32441487196058116,0.2514908300210013,-3.078630390801777,0.6249005292330788,2.1826019265462168e-05,0.0004245550663505305,0.0004379290604206351,-0.05324757019822383,0.002457544618432531,-0.007195352096172227,-0.0001823409031198109,0.32639309763908386,-1.1417842370322724,1.672086540852682,-2.09954371074819,-1.5713933149920862,2.3014488220214844,-0.00041450851131230593,0.0630917027592659,0.059124648571014404,-0.11461254209280014,-0.0001631729828659445,-0.0002636791905388236,0.038307227194309235,0.3447650372982025,-9.634267807006836,0.7016075849533081,47.730770111083984,-0.5238512754440308,-3.6030092239379883,-1.929600715637207,-0.6476738452911377,0.009249202907085419,-0.19657163321971893,24.9375,25.625,24.8125,27.375,28.25,28.75
1.0,-0.8411116670361031,-0.7582650513197398,-1.5978953430965075,-0.046493269318934896,0.003738979540446767,-0.05990673458328047,-0.5389483279561792,-0.3243908227447384,0.2512865847604408,-3.0785857666183913,0.6249102805787223,-5.369787474315468e-05,0.0011312292265285681,0.0006278047889673037,-0.05301191877627255,0.004439825940076749,-0.013026269916710315,-8.633834108968762e-05,0.3263571262359619,-1.1415566366961976,1.6723254362689417,-2.099947591821188,-1.5714057127581995,2.301424503326416,-0.00033794541377574205,0.061906848102808,0.058434076607227325,-0.10657848417758942,-0.00015398247342091054,-0.0002799850481096655,0.26815059781074524,0.15322890877723694,-9.481039047241211,0.6904177665710449,47.71375274658203,-0.4926166832447052,-3.6448709964752197,-1.917370319366455,-0.7676042318344116,0.0028801560401916504,-0.19056734442710876,24.9375,25.625,24.8125,27.375,28.25,28.75
1.0,0.26886113361838165,0.22834849699893456,-1.482228361076153,-0.008535298570605261,-0.022280993463843567,-0.06942836292384863,-0.5389466537723583,-0.32439681048886465,0.2510529291973301,-3.078545279154576,0.6249409711157278,-0.00010904506567482984,0.0007130300133834604,0.0004496778353059512,-0.052179973333861006,0.003958794543904511,-0.011639677178596845,-5.55412989934166e-05,0.32636919617652893,-1.1412689250758667,1.6725643316852015,-2.100426813165182,-1.5714176336871546,2.3014607429504395,-0.00028450912213884294,0.06178384646773338,0.05661056190729141,-0.10609962046146393,-0.00014567429025191814,-0.00025743417791090906,0.3447650372982025,-0.05746084079146385,-9.500192642211914,0.6725152134895325,47.67255783081055,-0.4767705500125885,-3.556795597076416,-1.810045599937439,-0.8320667743682861,-0.00667198933660984,-0.18630248308181763,24.9375,25.625,24.8125,27.375,28.25,28.75
1.0,-0.12169469042960371,0.15375897705376212,-1.459936367499848,-0.010373525617818236,-0.028560654193110595,-0.0647312763429129,-0.5389439331086306,-0.3243918395837794,0.25085542060609733,-3.0785635469605106,0.6249252741689781,-0.00018393040793643207,-0.0002580610827655921,9.48828637082555e-05,-0.05090688672335981,0.0010078988413617042,-0.002949863944513663,-5.9768941085011976e-06,0.3263571560382843,-1.1410412055305024,1.6727917830096644,-2.1008483372130335,-1.5713813940631312,2.301436424255371,-0.000245669245487079,0.06166050210595131,0.05575362592935562,-0.11429648846387863,-0.00015821901615709066,-0.0002718227042350918,0.3064578175544739,-0.05746084079146385,-9.461885452270508,0.7038487195968628,47.687782287597656,-0.49390992522239685,-3.6183862686157227,-1.7382087707519531,-0.7585052251815796,-0.007897336035966873,-0.19894355535507202,24.9375,25.625,24.8125,27.375,28.25,28.75
1.0,-1.0853289053273796,-0.733402733227244,-1.572763948380339,-0.04564091533872937,0.026815166634684556,-0.06855770696966267,-0.5389581978815091,-0.32438777832457283,0.25067128112575615,-3.0785731402471344,0.624927182053374,-0.00012244817853095092,-0.0010644900022949385,-0.0001996459511717797,-0.04891826702858094,-0.002417424358339676,0.0070874717820995905,1.3817091008642415e-06,0.32634538412094116,-1.1408019226840516,1.672983471547262,-2.1013180218138636,-1.5713933149920862,2.301424503326416,-0.0002161623997380957,0.06019675359129906,0.05524003505706787,-0.12292486429214478,-0.00015338705270551145,-0.00025374634424224496,0.15322890877723694,0.038307227194309235,-9.53849983215332,0.7284641265869141,47.71464920043945,-0.47290104627609253,-3.468322992324829,-1.7352845668792725,-0.6813811659812927,-0.0070074754767119884,-0.18121206760406494,24.9375,25.625,24.8125,27.375,28.25,28.75
1.0,-1.8914786651867685,-1.6409391592792497,-1.6637871281346808,-0.07185658295610602,0.05943837640987077,-0.06541616089566009,-0.538936614037139,-0.3244023254340619,0.2504633702130289,-3.0785647899805824,0.6248874634181998,-0.00012889478360027262,-0.0015236260941925044,-0.00037182360549098317,-0.04933320663403101,-0.003516433601539251,0.010276342720093373,5.2552355677325626e-05,0.3263811469078064,-1.1405737561038514,1.6732476393329065,-2.1017986736693324,-1.5714057127581995,2.301436424255371,-0.00019298419647384435,0.06147167459130287,0.0555378720164299,-0.1278705596923828,-0.00014627598284278065,-0.00028368798666633666,-0.05746084079146385,0.2298433631658554,-9.749189376831055,0.7105615139007568,47.712860107421875,-0.4221304655075073,-3.585906505584717,-1.7264199256896973,-0.5839093327522278,0.0015639191260561347,-0.18957039713859558,24.9375,25.625,24.8125,27.375,28.25,28.75
1.0,-1.4084150483095712,-1.4238748536307804,-1.8572150331369852,-0.06406723800092069,0.039629059319797676,-0.06621882421284869,-0.538956338597231,-0.3243934572219411,0.2502718292167882,-3.0785946939397757,0.6248939824100326,-4.866486806202908e-05,-0.0007793480576312158,-0.00013129631231909348,-0.04815913301751733,-0.002915269003657263,0.008515620070040744,9.063809916754769e-05,0.3263571858406067,-1.1403228801539917,1.6734498182879847,-2.1023112736144007,-1.5714057127581995,2.301412582397461,-0.00017429528816137463,0.05867442861199379,0.055790986865758896,-0.12346592545509338,-0.00013978470815345645,-0.0003016613482031971,-0.19153612852096558,0.26815059781074524,-9.691728591918945,0.7105615139007568,47.699424743652344,-0.4602419137954712,-3.3840420246124268,-1.7868499755859375,-0.5833163857460022,-0.009417782537639141,-0.17912395298480988,24.9375,25.625,24.8125,27.375,28.25,28.75
1.0,-0.7276474184004277,-0.510515145736832,-1.7518313953668634,-0.04111598889393047,0.015231774758960192,-0.07194082940877022,-0.5389442981375827,-0.3243931511639882,0.25007898237686094,-3.078641857753821,0.624961949499833,-2.5880070542707863e-06,-0.00020814825234757688,2.6839184680468474e-05,-0.048730627609673116,-0.0004986129865360031,0.0014123818715085197,0.00015879469102257244,0.3263572156429291,-1.1401190024665375,1.6737263838397425,-2.102847238580221,-1.571369473134176,2.3014488220214844,-0.0001191880801343359,0.058841001242399216,0.055033616721630096,-0.11537204682826996,-0.0001338450820185244,-0.00031133342417888343,-0.2106897532939911,0.28730422258377075,-9.634267807006836,0.6881819367408752,47.687782287597656,-0.45858192443847656,-3.471388339996338,-1.7804527282714844,-0.665073037147522,-0.012733596377074718,-0.18106326460838318,24.9375,25.625,24.8125,27.375,28.25,28.75
1.0,-0.7106421321488198,-0.48607948583837973,-1.5374091041841869,-0.028678748734195857,0.011662134350362027,-0.06415258696337958,-0.5389517905208219,-0.3243996949368375,0.2498699056623399,-3.078602252874727,0.6249347169668129,-1.078997260204904e-05,0.0005214912706229626,0.00026853791842522704,-0.04968136105320109,0.002270217754985713,-0.006723039606061313,0.00014912338000704355,0.3263692557811737,-1.1398432117751618,1.6739171187030237,-2.1032868824400843,-1.5714057127581995,2.3014488220214844,-0.00010951200965791941,0.05917888879776001,0.05481008440256119,-0.10689272731542587,-0.00012838965631090105,-0.00028833418036811054,0.07661445438861847,0.07661445438861847,-9.576807022094727,0.6747510433197021,47.686885833740234,-0.5008351802825928,-3.342313766479492,-1.7251824140548706,-0.7443246841430664,0.0012248381972312927,-0.17351090908050537,24.9375,25.625,24.8125,27.375,28.25,28.75
1.0,-0.1609818330342054,0.2506353421600993,-1.3699055213745857,-0.01197809595996251,0.00029213369370409935,-0.06704685323209707,-0.5389550563382834,-0.3244085109939491,0.24972676581351594,-3.078661561687473,0.6248889673587468,0.00011949585736123502,-6.496632660819528e-05,8.467390790013976e-05,-0.04841710327957918,0.0018153395087015774,-0.005400967277479575,0.00013242893467555508,0.3263811469078064,-1.1396634739688416,1.6740954558001917,-2.103741308251852,-1.5714057127581995,2.301424503326416,-0.00013504047819878906,0.058821260929107666,0.052034471184015274,-0.10515762865543365,-0.0001233614602824673,-0.0002968763583339751,0.17238251864910126,-0.13407529890537262,-9.481039047241211,0.7418897151947021,47.71196365356445,-0.4656194746494293,-3.3374218940734863,-1.561171054840088,-0.8128845691680908,0.007126153446733952,-0.1820686161518097,24.9375,25.625,24.8125,27.375,28.25,28.75
1.0,-0.08250638270344055,0.2972439994505759,-1.3027289960673443,-0.009136424093330561,-0.01232618004412209,-0.05688853141777867,-0.538977667404514,-0.32439803088042285,0.2495301622502859,-3.078699455257207,0.624916036782512,8.179344171680854e-05,-0.00032183801383680363,-9.429764791770799e-06,-0.04818058148234202,0.000331181141218464,-0.0010651142141231344,0.00012123302264961189,0.32634541392326355,-1.1393996340087433,1.6742757002459925,-2.1041861973204554,-1.571357552205221,2.301400661468506,-0.00012563238851726055,0.05876306816935539,0.052787553519010544,-0.11043533682823181,-0.00011871234892169014,-0.0002785245014820248,0.3447650372982025,-0.325611412525177,-9.346963882446289,0.7888899445533752,47.71733474731445,-0.45623910427093506,-3.3441715240478516,-1.556414246559143,-0.7951487898826599,-0.02714560553431511,-0.19295714795589447,24.9375,25.625,24.8125,27.375,28.25,28.75
1.0,-0.6225056335234612,-0.17275359509529598,-1.3773346445236692,-0.026598901386603483,0.0036858125541127506,-0.0627591347738591,-0.5389674832753578,-0.3243997004069465,0.24932152590740875,-3.0786612532779283,0.6248894974022778,3.930992718221984e-05,-0.0019274385246842243,-0.0005631059258301289,-0.04682690636707977,-0.0044597587282059325,0.013004193071123542,0.00014906713750399226,0.3263572156429291,-1.1390755635550995,1.6746352354632776,-2.104849954644674,-1.5713933149920862,2.301400661468506,-0.0001137261715484783,0.059439077973365784,0.05215787515044212,-0.12534432113170624,-0.0001284027093788609,-0.00030095857800915837,0.15322890877723694,0.038307227194309235,-9.442731857299805,0.7508436441421509,47.68330383300781,-0.5222840309143066,-3.3450801372528076,-1.4901683330535889,-0.6212290525436401,-0.01999068632721901,-0.18218204379081726,24.9375,25.625,24.8125,27.375,28.25,28.75
1.0,-1.682506728835353,-1.9150934833783837,-1.5682531186695734,-0.07802501288413553,0.03313562913118917,-0.05949944563961282,-0.5389804288339394,-0.3244068479391572,0.24908952458083894,-3.078691225934355,0.6249338892665296,0.00028950733394830195,-0.002116439959858738,-0.0006268801496232936,-0.04699469717277437,-0.004964941821725232,0.014628297767772181,0.00011961426824691094,0.3263692557811737,-1.138859586124756,1.6747906843768519,-2.1053530178465785,-1.5714295546161097,2.301436424255371,-0.00010696774552343413,0.05994794890284538,0.05239150673151016,-0.12778699398040771,-0.0001760423183441162,-0.00026569553301669657,0.09576806426048279,0.2106897532939911,-9.461885452270508,0.7351769208908081,47.71554183959961,-0.48180413246154785,-3.3478055000305176,-1.4624263048171997,-0.5484374761581421,-0.013513046316802502,-0.18803517520427704,24.9375,25.625,24.8125,27.375,28.25,28.75
1.0,-1.0063618784202795,-1.8623661060637469,-1.4943221175087595,-0.06796993949232438,0.018078386405071298,-0.0637096671896751,-0.5389749056709596,-0.32441268259214,0.24888348261599347,-3.078739817011754,0.6248676193079575,0.000380151996947896,-0.0011605760262630384,-0.00030259924551763505,-0.04824207217822026,-0.0024319333241243427,0.007276734057855797,0.00014758808575158366,0.3263811767101288,-1.1386197072318573,1.6750553289996546,-2.105924745599264,-1.5714295546161097,2.301400661468506,-0.00010096757614519447,0.06009047105908394,0.05359195917844772,-0.12135426700115204,-0.00020028148719575256,-0.00028470970573835075,-0.038307227194309235,0.4596867263317108,-9.461885452270508,0.6859408020973206,47.686885833740234,-0.5073590874671936,-3.3716444969177246,-1.5562552213668823,-0.5672228336334229,-0.005609028972685337,-0.1891452670097351,24.9375,25.625,24.8125,27.375,28.25,28.75
1.0,-0.1741847469759123,-1.2989351566783127,-1.4016911001141683,-0.03680401039305035,-0.0023904983314721046,-0.06546382099720256,-0.5389997765563387,-0.3243991536972567,0.24870496402158393,-3.0787639065567616,0.624949206313582,0.000448243994122857,-0.0007041450142835829,-0.00014879540107780854,-0.04996742990596123,6.877399371155831e-05,-1.7681152850546187e-05,0.00017115693811689517,0.32634541392326355,-1.138379232292511,1.675234619771139,-2.1064020595946253,-1.5714176336871546,2.301412582397461,-9.560461330693215e-05,0.06187032535672188,0.05372275412082672,-0.11555373668670654,-0.00021599778847303241,-0.00030011433409526944,-0.019153613597154617,0.3447650372982025,-9.442731857299805,0.6971306204795837,47.69584274291992,-0.5249817371368408,-3.494659662246704,-1.469895362854004,-0.6149311065673828,-0.009500092826783657,-0.18402159214019775,24.9375,25.625,24.8125,27.375,28.25,28.75
1.0,-0.13387038130373177,-0.692331902426488,-1.0441205877738544,-0.02499740764847974,-0.014766357242214753,-0.0628964653175614,-0.5390214004383992,-0.32440524657146574,0.24853870521813706,-3.078796621461963,0.6249751910304788,0.0005835830005725303,0.00019388976606614852,0.00015255166747449333,-0.04955039065481824,0.0018907512494372948,-0.005381494500255347,0.00018999621038080536,0.32634541392326355,-1.1381400388530274,1.6753900686847132,-2.106889864007467,-1.5714295546161097,2.301424503326416,-9.078302537091076e-05,0.05994269996881485,0.0537647120654583,-0.10800328850746155,-0.00020398771448526531,-0.0003111999831162393,0.17238251864910126,0.15322890877723694,-9.21288776397705,0.6837049722671509,47.692256927490234,-0.4710814356803894,-3.3115148544311523,-1.437089443206787,-0.677593469619751,0.000284045934677124,-0.18805494904518127,24.9375,25.625,24.8125,27.375,28.25,28.75
1.0,-0.08967929326583696,0.35505683393930043,-0.8189473477839435,-0.01154623858910856,-0.03153553401882762,-0.07177147636880817,-0.5390103260466793,-0.3244181874753929,0.2483549445017732,3.0788082105461467,-0.6249013407373291,-0.0005720572934872238,-8.206223232184563e-05,3.241933768871593e-05,-0.050325519993586254,0.003293886472850164,-0.009541515461892714,0.00020836660264128348,0.3263692557811737,-1.1379237932017823,1.6756046454059046,-2.107319494287008,-1.5714176336871546,2.301400661468506,-5.2222814701963216e-05,0.06190158426761627,0.05178612843155861,-0.10359333455562592,-0.0001930489670485258,-0.0002890731848310679,0.363918662071228,-0.09576806426048279,-9.078812599182129,0.6971306204795837,47.68330383300781,-0.48556339740753174,-3.469777822494507,-1.3948032855987549,-0.7657142877578735,-0.0088710468262434,-0.18654325604438782,24.9375,25.625,24.8125,27.375,28.25,28.75
1.0,0.4612071582316143,0.8863325072696346,-0.6268163562732365,-0.0015660775083269681,-0.020152280418001076,-0.0761256656832669,-0.5390151667216357,-0.3244185621736116,0.2481641624775512,3.078803571529308,-0.6249388075940073,-0.0005994384772368449,0.00016363078252937808,0.00011057985202311183,-0.05051237156234853,0.002234933710554913,-0.006465060101006081,0.00024987728534004344,0.3263692557811737,-1.1376841527274628,1.6758087317096155,-2.107776781121725,-1.5714295546161097,2.301424503326416,-4.52729691460263e-05,0.06138819083571434,0.054102424532175064,-0.1086498573422432,-0.00018322348478250206,-0.00032567602465860546,0.363918662071228,-0.2106897532939911,-8.983044624328613,0.7150384783744812,47.72270965576172,-0.4624409079551697,-3.332827568054199,-1.4441580772399902,-0.7603821754455566,-0.010829172097146511,-0.17746908962726593,24.9375,25.625,24.8125,27.375,28.25,28.75
1.0,-0.11150879220676504,0.3179063671385832,-0.6226264784346819,-0.02460133786277158,0.009345242667543878,-0.07174274747093241,-0.5390030281683473,-0.3244156690569334,0.2479314145359821,-3.0787886057325347,0.6248977114456655,0.0004782112979784106,-0.0008847474545810736,-0.0002490166580914192,-0.048733993664076866,-0.001147267493205798,0.0034271501516998167,0.00020704004533481232,0.3263692855834961,-1.1374204617789765,1.6760724226581019,-2.1082221470274867,-1.5714176336871546,2.301400661468506,-4.31039952673018e-05,0.06069188192486763,0.05299920216202736,-0.11730475723743439,-0.00017434915935155004,-0.0002847719588316977,0.24899697303771973,-0.17238251864910126,-9.078812599182129,0.6881819367408752,47.694053649902344,-0.4905504882335663,-3.3223798274993896,-1.3467485904693604,-0.6948856115341187,-0.011935437098145485,-0.18084654211997986,24.9375,25.625,24.8125,27.375,28.25,28.75
1.0,-1.211569930867701,-0.9380462778010283,-0.9273787049668671,-0.03740047358181016,0.018063514916573948,-0.068488604139421,-0.5390081048520756,-0.32442766753977276,0.24773963673807986,3.078814377377817,-0.6248650099383768,-0.0004936314767450402,-0.0007735107323505106,-0.0002070032679219642,-0.048718425036525084,-0.0030118741111119355,0.009055801675061703,0.0002240626617703795,0.32638120651245117,-1.1371689301780243,1.676265064870016,-2.108692308465475,-1.5713933149920862,2.301388740539551,-4.113393515581265e-05,0.05999927595257759,0.05578186362981796,-0.12532396614551544,-0.00022582635574508458,-0.00030307972338050604,0.05746084079146385,-0.038307227194309235,-9.308655738830566,0.6769921779632568,47.70121383666992,-0.5112631320953369,-3.276808261871338,-1.539933681488037,-0.5612850785255432,0.003923076204955578,-0.1830691695213318,24.9375,25.625,24.8125,27.375,28.25,28.75
1.0,-1.1303815754204285,-0.9723081133882046,-1.2684387241554782,-0.06282627134667515,0.0301124989925364,-0.06857577806719478,-0.5390030840091392,-0.32443120122583163,0.2475288345263033,-3.078801338702674,0.6249005643670608,0.0005092941445149056,-0.0005493888583092233,-0.00013690181716088243,-0.049777063338831806,-0.002078748909748876,0.0064081865341813265,0.0002312871997254661,0.3263932466506958,-1.1369167429259797,1.676504913960592,-2.1091820202269496,-1.5714176336871546,2.301424503326416,-2.6398267436889e-05,0.06109055504202843,0.0564429797232151,-0.12426922470331192,-0.0002568642667029053,-0.00029485143022611737,-0.05746084079146385,0.2106897532939911,-9.21288776397705,0.6993717551231384,47.681514739990234,-0.467872679233551,-3.3182661533355713,-1.6116678714752197,-0.49786752462387085,-0.032147470861673355,-0.17820140719413757,24.9375,25.625,24.8125,27.375,28.25,28.75
1.0,-1.350320925663765,-1.3220231654345977,-1.419654901068064,-0.045698714323180914,0.010161297242730565,-0.06312808195362322,-0.5390120961298106,-0.32441341405386204,0.24733011452494136,-3.0787974833548346,0.6249577288771686,0.00045210805137871156,0.0003630419806772414,0.00016627761541885625,-0.050795697688190936,0.0007414961087449544,-0.0019395806871646336,0.00023652171831171705,0.32635724544525146,-1.1366769832423707,1.6767204443561,-2.1096097431578578,-1.5713933149920862,2.301424503326416,-1.8845643353415653e-05,0.06113668903708458,0.05680406838655472,-0.11586521565914154,-0.00023075683566275984,-0.00028883470804430544,-0.019153613597154617,0.24899697303771973,-9.346963882446289,0.6948947906494141,47.685096740722656,-0.5087891817092896,-3.2308573722839355,-1.6790250539779663,-0.5744667649269104,-0.005862955003976822,-0.18063995242118835,24.9375,25.625,24.8125,27.375,28.25,28.75
1.0,-0.6168079490668799,-1.063676958186326,-1.3382476023865293,-0.03345268320935515,0.006020027604329179,-0.06400809085991056,-0.538993591137707,-0.3244213275044043,0.24710692567088333,-3.0787774633831697,0.6248772681443361,0.0003929436171016085,0.001014404140643691,0.0004199852071007613,-0.05116555154781669,0.0029413397408089978,-0.008450998788134748,0.0002001410949588507,0.3263811767101288,-1.1364252430251618,1.676983658467428,-2.1100741825499476,-1.5714057127581995,2.301400661468506,-7.137363718356937e-05,0.060762032866477966,0.056458696722984314,-0.10827226936817169,-0.00020928765297867358,-0.0003017879498656839,0.019153613597154617,0.2106897532939911,-9.442731857299805,0.7060845494270325,47.6976318359375,-0.48827898502349854,-3.2795801162719727,-1.6305394172668457,-0.6679128408432007,-0.008268868550658226,-0.16572576761245728,24.9375,25.625,24.8125,27.375,28.25,28.75
1.0,-0.03241508582329984,-0.3198399476006559,-1.3310620836259686,-0.022198583822753616,0.002669503495210673,-0.06717422522247515,-0.5390069720681093,-0.3244194167294082,0.2468899515788801,-3.078754224273466,0.624949198971923,0.00032933783408230926,0.0015188034028305332,0.0005841291192965056,-0.05346558282036882,0.005792570341030577,-0.016882879465588002,0.00022940347586110463,0.3263692557811737,-1.1361366373351593,1.6771753470050257,-2.1105152569212855,-1.5713933149920862,2.301436424255371,-6.219885108293965e-05,0.06325427442789078,0.056857071816921234,-0.10226202756166458,-0.00019147252896800637,-0.00031881817267276347,0.15322890877723694,0.0,-9.346963882446289,0.7306999564170837,47.687782287597656,-0.4463423490524292,-3.3875539302825928,-1.674789309501648,-0.784095048904419,-0.01788686402142048,-0.17153631150722504,24.9375,25.625,24.8125,27.375,28.25,28.75
1.0,0.2724599971451981,-0.003308175405698527,-1.0582738362852282,-0.013814401476986907,-0.0035403274997924637,-0.07567263114571504,-0.5389934196065052,-0.32443808190477663,0.24668960023904668,-3.078772976961899,0.6248575005578725,0.0003278045095826919,0.0013413704130848943,0.0005173151055690551,-0.05406503567782192,0.005675958802241453,-0.016594162021134447,0.00020232404790451373,0.3264051377773285,-1.1358964902213593,1.6774032751666468,-2.1109825573363246,-1.5713933149920862,2.301412582397461,-5.464490095619112e-05,0.06439714133739471,0.05699824169278145,-0.10385698080062866,-0.00017645380285102874,-0.00028474259306676686,0.3064578175544739,-0.07661445438861847,-9.308656692504883,0.7150384783744812,47.70838165283203,-0.5101887583732605,-3.4645752906799316,-1.7004395723342896,-0.815732479095459,-0.0028877360746264458,-0.17284369468688965,24.9375,25.625,24.8125,27.375,28.25,28.75
1.0,-0.1891598283166361,-0.14808952944569748,-1.2092608199131616,-0.019989353440260847,-0.004763451946370149,-0.060534201770858345,-0.5390213327562158,-0.32441796174389187,0.24651627039619503,-3.078724587034008,0.6249052657347048,0.0004110709217937148,0.0005254615557622004,0.00026539897835644,-0.05351243833284097,0.002717977535728745,-0.007868513968274813,0.00017601822009047694,0.3263692557811737,-1.1356564921191712,1.6775592009173792,-2.1114050350584925,-1.5714533964740198,2.301412582397461,-9.165285882772878e-05,0.0647507905960083,0.05755648761987686,-0.11398224532604218,-0.0001957662170752883,-0.0002998213458340615,0.4213795065879822,-0.15322890877723694,-9.327810287475586,0.6658024191856384,47.694053649902344,-0.5320494174957275,-3.4913482666015625,-1.7885384559631348,-0.7444376945495605,-0.021833386272192,-0.17708848416805267,24.9375,25.625,24.8125,27.375,28.25,28.75
1.0,-0.9401289443347894,-1.0681955835155386,-1.169769870179812,-0.04711443007383817,0.016040376949889586,-0.05762561281827565,-0.5390098376463462,-0.3244022843405751,0.24628289383395585,-3.0787132213159865,0.624941448278066,0.0002871306086272115,-0.0003471378434977239,-3.5620301953553864e-05,-0.0526867045791452,-0.0002564896921154806,0.0008095902326870347,0.00014840152414774844,0.32634541392326355,-1.1354047519019623,1.6778472105609339,-2.1118747196593226,-1.5714176336871546,2.301412582397461,-8.793041342869401e-05,0.06494300812482834,0.057547446340322495,-0.12333912402391434,-0.00018302997341379523,-0.0002726609236560762,0.15322890877723694,0.019153613597154617,-9.289502143859863,0.7418897151947021,47.66628646850586,-0.5080499649047852,-3.5022573471069336,-1.7577412128448486,-0.6151814460754395,-0.012198702432215214,-0.17954331636428833,24.9375,25.625,24.8125,27.375,28.25,28.75
1.0,-1.291850283508014,-1.8276776415746692,-1.4862797808085388,-0.07165549920104997,0.043141461433013464,-0.06369755188838332,-0.5389924139587986,-0.32441055951089615,0.24606976299979338,-3.0787129223971563,0.6248651640204396,0.00028075759677879535,-0.00032810766665551357,-3.4023034550509314e-05,-0.052348146458430125,-0.0012819840228669365,0.0038273443977812323,0.00012965922955576807,0.3263692557811737,-1.1351650220206757,1.6781109015094202,-2.1123668156065882,-1.5714295546161097,2.301388740539551,-8.010453166207299e-05,0.06429595500230789,0.05849700793623924,-0.1268288642168045,-0.00018542355974204838,-0.0002476578811183572,0.038307227194309235,0.19153612852096558,-9.53849983215332,0.7821771502494812,47.70927429199219,-0.4873485267162323,-3.4417176246643066,-1.9008630514144897,-0.5388822555541992,-0.008105923421680927,-0.1723252236843109,24.9375,25.625,24.8125,27.375,28.25,28.75
1.0,-0.7135258162844462,-1.5516158473972204,-1.3347619695453743,-0.06126747326729984,0.028501711030627052,-0.06705491543776533,-0.5389993172381083,-0.32441413563541854,0.2458565315631248,-3.0787210842980044,0.6249053021303718,0.0002844405746185454,0.0015877439865553788,0.0006141985605910656,-0.05414454897582574,0.0031847598234113553,-0.009210369527996087,0.00015096400753709645,0.3263692557811737,-1.1347938042930146,1.6784337202655237,-2.1131159267821253,-1.571369473134176,2.301436424255371,-7.066934631438926e-05,0.06356961280107498,0.0608939528465271,-0.11471779644489288,-0.00020190693612676114,-0.0002539587439969182,-0.15322890877723694,0.3064578175544739,-9.404424667358398,0.7239871025085449,47.70658874511719,-0.477104514837265,-3.446383237838745,-2.046491861343384,-0.6033458709716797,-0.024292029440402985,-0.17148533463478088,24.9375,25.625,24.8125,27.375,28.25,28.75
1.0,-0.40126802254153615,-1.0800426580312372,-1.5717503044105883,-0.03412409473694794,0.007666201058286831,-0.06481803048937759,-0.5389973920216262,-0.32442243535904786,0.24553876138161168,-3.078730898692268,0.6248694405946492,0.0002509011683965306,0.001252085517079667,0.0004958462474558942,-0.05275216937844557,0.0036185995093380046,-0.010488605662235402,0.00017196675841080715,0.3263811767101288,-1.134494201546051,1.6786616484271448,-2.1135813198485316,-1.5714057127581995,2.301400661468506,-6.552410923177376e-05,0.06275182962417603,0.057616282254457474,-0.10927250981330872,-0.00019721216813195497,-0.000268010888248682,-0.019153613597154617,0.2298433631658554,-9.423578262329102,0.7351769208908081,47.679718017578125,-0.5236645340919495,-3.346137762069702,-1.7792569398880005,-0.6976914405822754,-0.03001529723405838,-0.18151597678661346,24.9375,25.625,24.8125,27.375,28.25,28.75
1.0,0.2824869037116373,-0.1755929912280888,-1.2909576277663288,-0.022516006988614563,0.012319320037946578,-0.07344716965028691,-0.5390026998107881,-0.3244280200332681,0.24533477734453238,-3.078757755820356,0.6248943019011044,0.00022004901158217323,0.001307211462803421,0.0005106261153739871,-0.05297603565685509,0.005097723323665365,-0.01485929458603879,0.0001606818209575916,0.3263811767101288,-1.1342303317836304,1.6788643042193812,-2.114046712914938,-1.571369473134176,2.301412582397461,-6.107717490522191e-05,0.06332676112651825,0.056044768542051315,-0.10366175323724747,-0.00018699446809478104,-0.0002499483816791326,0.2298433631658554,-0.038307227194309235,-9.366117477416992,0.7396538853645325,47.668975830078125,-0.4818423390388489,-3.333040237426758,-1.7202938795089722,-0.759819746017456,-0.013324081897735596,-0.17538005113601685,24.9375,25.625,24.8125,27.375,28.25,28.75
1.0,-0.10838324898020882,0.5223712948853461,-1.250698773080738,-0.0009034514707622204,-0.024370557209742245,-0.0632048253690709,-0.539004715015727,-0.3244171409424692,0.24514482609423752,-3.078722216646504,0.6248872072900068,0.00023367246201180626,0.001027189132865014,0.00042935996979563104,-0.05121117912048211,0.00403165306498361,-0.011749478498558227,0.00013994749606556885,0.3263692557811737,-1.134002999668457,1.6790784041034144,-2.1144772968687953,-1.5714057127581995,2.301400661468506,-8.463859558105469e-05,0.06153302639722824,0.05452914163470268,-0.1036398857831955,-0.00017776087042875588,-0.0002533076622057706,0.28730422258377075,-0.19153612852096558,-9.385271072387695,0.7060845494270325,47.69584274291992,-0.5387256741523743,-3.3318262100219727,-1.6480772495269775,-0.8308683037757874,-0.020623236894607544,-0.17445194721221924,24.9375,25.625,24.8125,27.375,28.25,28.75
1.0,-0.3107651955611822,0.36554508673510366,-1.243622099349582,-0.012040656595261962,-0.021085193198885806,-0.06789811185794274,-0.5389992261366308,-0.32441399765829554,0.24494029880674476,-3.0786907146451106,0.6249000854779727,0.00019278913885036777,6.07417085494493e-05,9.692092771355252e-05,-0.053032641436794724,0.0034702195085183803,-0.010160787618584886,0.00011683261946434884,0.3263692557811737,-1.1337616604617615,1.6793068091021937,-2.1149102650084437,-1.5714176336871546,2.301412582397461,-8.066683949436992e-05,0.06575452536344528,0.05399524047970772,-0.10901235789060593,-0.00016939625493250787,-0.00022807760979048908,0.28730419278144836,-0.15322890877723694,-9.385271072387695,0.7105615139007568,47.68061828613281,-0.4905875027179718,-3.5052366256713867,-1.583252191543579,-0.790439784526825,-0.02715037763118744,-0.18269044160842896,24.9375,25.625,24.8125,27.375,28.25,28.75
1.0,-0.9474681073503949,-0.8373509808475099,-1.603438671631633,-0.04486950759953984,0.026132927114968414,-0.06086010671137023,-0.5389907716823176,-0.32439435781040427,0.2447151053410934,-3.0786193880065795,0.6249048254732233,4.260560340474545e-05,5.9988730903073785e-05,9.193774947521973e-05,-0.050625091200198695,0.00025784723584103584,-0.0007633602402946763,0.00013772653837089232,0.32634541392326355,-1.13351126134906,1.679559055958883,-2.115295549432272,-1.5714295546161097,2.301400661468506,-7.611875480506569e-05,0.06207643821835518,0.055434443056583405,-0.11670482158660889,-0.00015471359074581414,-0.00024830448091961443,0.17238251864910126,0.07661445438861847,-9.519346237182617,0.6993717551231384,47.6949462890625,-0.4908505082130432,-3.3334484100341797,-1.659062147140503,-0.7222239971160889,-0.016107844188809395,-0.18951836228370667,24.9375,25.625,24.8125,27.375,28.25,28.75
1.0,-1.5516453875887597,-1.6568273486373797,-1.5596159536348109,-0.07455998343606934,0.05836206484075393,-0.06677229992018281,-0.5389747044920429,-0.3244068465429649,0.24450740411978444,-3.078643991670042,0.6248718933897454,1.3685492301661072e-05,-0.00117507674324258,-0.0003325682838977353,-0.048886128035123703,-0.0029017099418490954,0.008469776129245413,0.00015449220308788746,0.3263692557811737,-1.1332715612700959,1.6798084417926233,-2.115777631799215,-1.5714057127581995,2.301400661468506,-7.205583824543282e-05,0.061866145581007004,0.053488485515117645,-0.12430734932422638,-0.00014472701877821237,-0.00026479933876544237,0.019153613597154617,0.24899697303771973,-9.59596061706543,0.6948947906494141,47.70927429199219,-0.5085881948471069,-3.390204429626465,-1.5550243854522705,-0.6380162239074707,-0.019131749868392944,-0.18753132224082947,24.9375,25.625,24.8125,27.375,28.25,28.75
1.0,-1.511643405697679,-1.7778256271206012,-1.7644880066079494,-0.0715537987433536,0.04739399964363676,-0.06245052575074919,-0.5389850357020735,-0.32442590640038405,0.24432756685644919,-3.078703881288007,0.6248459408163131,0.0001555626632103782,-0.00022883709300735552,-1.0637894711165062e-05,-0.0500669432639062,-0.0017753770468785727,0.005225227053766495,0.00016473386468686461,0.3263932168483734,-1.1330198806575318,1.6799896399127405,-2.1163155041136683,-1.5714057127581995,2.301400661468506,-6.840491550974548e-05,0.06161356344819069,0.0563926100730896,-0.12352442741394043,-0.00016305249300785363,-0.0002706960076466203,-0.13407529890537262,0.3064578175544739,-9.710882186889648,0.7016075849533081,47.70927429199219,-0.4572841227054596,-3.231921672821045,-1.775113821029663,-0.5916002988815308,-0.021089430898427963,-0.18150165677070618,24.9375,25.625,24.8125,27.375,28.25,28.75
1.0,-0.9771950035572899,-1.4230009969208068,-1.939490583135096,-0.04042452342866107,0.016779796163108825,-0.054286819688458186,-0.5389918584453672,-0.3244191379135661,0.2441352164717761,-3.0787029114449207,0.6248843663229073,0.00020876595811017269,-9.7080520941506e-05,3.366263311906285e-05,-0.04958874838695915,-0.00014113564896319695,0.000489123947018449,0.00015997875548017003,0.3263811767101288,-1.13278021038089,1.6802051703082483,-2.11680330852651,-1.5714176336871546,2.301412582397461,-6.510592356789857e-05,0.06118394061923027,0.054149650037288666,-0.11584172397851944,-0.00017907378787640482,-0.0002595919359009713,-0.09576806426048279,0.3447650372982025,-9.59596061706543,0.7217512726783752,47.681514739990234,-0.4811728596687317,-3.2881059646606445,-1.6631109714508057,-0.6515307426452637,-0.023386463522911072,-0.17974750697612762,24.9375,25.625,24.8125,27.375,28.25,28.75
1.0,-0.36607597910084966,-0.8504471153633606,-1.72422911701859,-0.029083796304835537,0.010334979269820552,-0.05960456680472986,-0.5390105619041037,-0.3244111728286401,0.243930539320094,-3.0787014545255524,0.6249036001230976,0.0001759506787351336,0.00020830008700308916,0.00013741403541184976,-0.0531739908320809,0.0038814535309224995,-0.011296460763481954,0.00022801160992976102,0.3263572156429291,-1.1325025719455262,1.6803844610797327,-2.1172434292235316,-1.5714057127581995,2.301400661468506,-6.211051368154585e-05,0.0659697949886322,0.05380190908908844,-0.10782665014266968,-0.00019247386080678552,-0.00032031768932938576,0.1149216815829277,0.2106897532939911,-9.53849983215332,0.6523714661598206,47.6976318359375,-0.4922475218772888,-3.508819818496704,-1.655940055847168,-0.7411618232727051,-0.02023225836455822,-0.17816850543022156,24.9375,25.625,24.8125,27.375,28.25,28.75
1.0,-0.37395567618751424,-0.2897080821339431,-1.4825406315180176,-0.01707264748414716,-0.015392853864380902,-0.05910951850989958,-0.5390147507556974,-0.3244011615547738,0.2437356357654154,-3.0786641741740626,0.6249341895642684,0.00020356219409878545,0.00042212889101377743,0.00021971998100765925,-0.051383769208827715,0.0038310198747150592,-0.0111541173713653,0.00023906805369567353,0.32634541392326355,-1.1322639149478455,1.6805995146380823,-2.1176969013609828,-1.5714414755450647,2.301412582397461,-7.837831799406558e-05,0.06333155930042267,0.05257222801446915,-0.10410977154970169,-0.00018431383068673313,-0.0003466051130089909,0.26815056800842285,-0.038307227194309235,-9.346963882446289,0.7262282371520996,47.681514739990234,-0.5320266485214233,-3.3076119422912598,-1.5782475471496582,-0.8211736679077148,-0.0418296717107296,-0.19133618474006653,24.9375,25.625,24.8125,27.375,28.25,28.75
