Tylouw/Master_Thesis_Code/test_recorded_data/real_test/real_testinsertion_4_2026-02-20_16-41-37.csv
num_insertion,tcp_force_x[N],tcp_force_y[N],tcp_force_z[N],tcp_force_rx[Nm?],tcp_force_ry[Nm?],tcp_force_rz[Nm?],tcp_pose_x[m],tcp_pose_y[m],tcp_pose_z[m],tcp_pose_rx[rot_vec_x],tcp_pose_ry[rot_vec_y],tcp_pose_rz[rot_vec_z],tcp_velo_x[m/s],tcp_velo_y[m/s],tcp_velo_z[m/s],tcp_velo_rx[rot_vec_x/s],tcp_velo_ry[rot_vec_y/s],tcp_velo_rz[rot_vec_z/s],q1[rad],q2[rad],q3[rad],q4[rad],q5[rad],q6[rad],qd1[rad/s],qd2[rad/s],qd3[rad/s],qd4[rad/s],qd5[rad/s],qd6[rad/s],tool_acc_x,tool_acc_y,tool_acc_z,current_of_whole_robot[A],voltage_of_whole_robot[V],current_J1[A],current_J2[A],current_J3[A],current_J4[A],current_J5[A],current_J6[A],temp_J1[C],temp_J2[C],temp_J3[C],temp_J4[C],temp_J5[C],temp_J6[C]
1.0,0.0247356436905716,-0.3483134157820979,-0.16004228925671374,-0.017544427179149332,0.030037674874430754,-0.012123908064336221,-0.3736622122239594,-0.32882053520514076,0.08494387306005269,-3.0785467938152875,0.6248565971089701,-0.0002299120260359005,-0.001196731936284566,-0.0006264030461321039,-0.0021174751274453413,-0.002470020501343601,0.004762605328017473,6.24377568186425e-05,0.4485461711883545,-1.4686575022390862,2.0071080366717737,-2.1074921093382777,-1.5706375280963343,2.4234509468078613,0.0,0.0029599268455058336,0.004536809399724007,-0.012859894894063473,0.00014075404033064842,-6.117798329796642e-05,0.038307227194309235,-0.019153613597154617,-8.65743350982666,0.7553206086158752,47.6949462890625,-0.01489490456879139,-2.9211838245391846,-2.796426773071289,-0.3696945011615753,0.1329192966222763,-0.13066020607948303,28.0625,28.875,28.375,32.375,35.0,36.0
1.0,0.286197799054168,0.4781632334591559,-1.4288311934453923,0.026913179144764335,-0.02421095816485636,-0.0033306742283695113,-0.37365804033656314,-0.32878816293123336,0.08490036126932649,-3.0784509229263493,0.6248562613521731,-0.0002374295664335393,-0.0012752223361244058,-0.0006634526197176331,0.0004899208677245141,-0.0015679404186139743,0.002920858730788173,9.185815538458659e-06,0.44853413105010986,-1.468610444372036,2.0071662108050745,-2.1075364551939906,-1.570709530507223,2.4234509468078613,0.0,0.0007789685041643679,-0.0013541975058615208,-0.0027371456380933523,0.000137139912112616,-7.705763891863171e-06,0.07661445438861847,-0.038307227194309235,-9.02135181427002,0.8000850081443787,47.70748519897461,-0.2776429057121277,-2.1663079261779785,-3.195758819580078,-0.44712233543395996,0.12297580391168594,-0.17605465650558472,28.0625,28.875,28.375,32.375,35.0,36.0
1.0,-1.7522688818073764,-2.9957001727791095,-1.8733006799710266,-0.06853558390146325,0.04843112494695375,0.0014136233916701227,-0.3736310456981727,-0.32879486339739417,0.08487007572890218,-3.0783867226239106,0.6248233959557223,-0.0004427634817504528,-0.00637978159430285,-0.0002305261078672421,-0.0024225706614994496,0.0018036848247840807,-0.004025601504348906,-8.177398761845256e-05,0.4485563039779663,-1.4685330626419564,2.0071256796466272,-2.107427259484762,-1.5706856886493128,2.4234607219696045,-0.0054347822442650795,0.016992885619401932,-0.013277186080813408,0.00069255824200809,9.131192928180099e-05,-0.005342764314264059,-0.13407529890537262,0.24899697303771973,-9.442731857299805,0.7306999564170837,47.692256927490234,-0.21194268763065338,-2.442646026611328,-3.337372303009033,-0.42050841450691223,0.10841475427150726,-0.18938754498958588,28.0625,28.875,28.375,32.375,35.0,36.0
1.0,-2.298719431414605,-2.9604318680362534,-2.1812561986097343,-0.09637997607915874,0.08906875071854388,-0.008509853989585347,-0.37365354657200534,-0.32878530328342825,0.08485219534820193,-3.078332383583987,0.6248110344079482,-0.0004963072244714234,-0.006402679627594033,-0.0010176668093902902,-0.0028629403201366746,0.003335826577427154,-0.0071493879226195035,0.0034866386711221026,0.44853273034095764,-1.4684478354505082,2.0070646444903772,-2.1073905430235804,-1.570709530507223,2.423436403274536,-0.003963875118643045,0.02068636380136013,-0.01716597191989422,0.004366619978100061,6.384847074514255e-05,-0.0074383835308253765,-0.38307225704193115,0.6320692300796509,-9.730035781860352,0.7754590511322021,47.6680793762207,-0.42903104424476624,-2.2074623107910156,-3.4888558387756348,-0.46235567331314087,0.07293406128883362,-0.1598356068134308,28.0625,28.875,28.375,32.375,35.0,36.0
1.0,-2.1791698084629054,-2.990278134605417,-2.4394785262607996,-0.1259450736106206,0.07422337408581119,-0.03250458437496176,-0.37366487178084434,-0.3287863164749538,0.08480370298901552,-3.0782674918822415,0.6247611963531079,-0.0006177409598521269,-0.010859822490962102,-0.001756695949691301,-0.00086695403763444,0.0006067576040614507,-0.001379092190653621,0.0002740782503768196,0.4485316872596741,-1.4683031526258965,2.0070140997516077,-2.1073786220946253,-1.570721451436178,2.423412561416626,-0.00659079710021615,0.023492466658353806,-0.02437800168991089,0.002389822853729129,5.224101187195629e-07,-0.006847301498055458,-0.5554547905921936,0.7661445140838623,-10.074800491333008,0.7687462568283081,47.658226013183594,-0.4261733591556549,-2.2673044204711914,-3.561241626739502,-0.41404566168785095,0.058077551424503326,-0.2041432112455368,28.0625,28.875,28.375,32.375,35.0,36.0
1.0,-2.394820715146781,-2.49467346085547,-2.306314145515017,-0.08298774535147618,0.06129805789457626,-0.04082270424602001,-0.37376333155759145,-0.3287851725060139,0.08481794777594817,-3.078261458531376,0.62485506996432,-0.0005613663732948336,-0.012828270383086529,-0.002156848795684275,-0.0005136543486645869,0.0007232039616656631,-0.0016386154409443834,0.0012527301725730276,0.44844740629196167,-1.4681701523116608,2.0068324247943323,-2.107366224328512,-1.570733372365133,2.4233877658843994,-0.007628206163644791,0.027202049270272255,-0.029701750725507736,0.004287807270884514,2.227116269182261e-09,-0.008860155940055847,-0.5363011956214905,0.4596867263317108,-9.959878921508789,0.7866488099098206,47.69584274291992,-0.5564435720443726,-2.1115260124206543,-3.53928279876709,-0.40276038646698,0.02242373675107956,-0.21014991402626038,28.0625,28.875,28.375,32.375,35.0,36.0
1.0,-1.6791254252221246,-1.0482087908308324,-2.062577906790171,-0.02222496909395812,0.05007638216216444,-0.06885339798273796,-0.3738420709403242,-0.3288322117270064,0.08482197570528097,-3.078310263098688,0.624808692435077,-0.0006052156747782502,-0.01785808625287101,-0.002836489436482187,0.0008038555026781463,-0.00037065538545355114,0.002919249712553802,-0.001006472341254722,0.4484345316886902,-1.4679763850620766,2.00660211244692,-2.107330938378805,-1.570686165486471,2.42333984375,-0.010293023660779,0.032954126596450806,-0.03876148909330368,0.003017985261976719,-0.0010127550922334194,-0.009256988763809204,-0.19153612852096558,0.19153612852096558,-9.710882186889648,0.7262282371520996,47.690467834472656,-0.6100540161132812,-2.2259771823883057,-3.2164273262023926,-0.37204450368881226,0.02365051582455635,-0.25498491525650024,28.0625,28.875,28.375,32.375,35.0,36.0
1.0,-0.781825657155722,-0.6512753461460272,-1.7029973271354586,-0.025547244629178283,0.04442209862702849,-0.09404247094041726,-0.3739245899285057,-0.3288320471655618,0.08483691249914188,-3.0782980549021017,0.6248826360097494,-0.000538419570396372,-0.021607827356397186,-0.0032492728164350156,0.0020390938733565608,-0.00083318923963324,0.003578952902678793,-0.0013508591081296453,0.44834962487220764,-1.4677591410330315,2.0063117186175745,-2.1073056660094203,-1.570698086415426,2.423255205154419,-0.012995990924537182,0.03800183907151222,-0.04790297523140907,0.006315694190561771,-0.0008944732835516334,-0.011610587127506733,-0.2106897532939911,-0.038307227194309235,-9.634267807006836,0.7239871025085449,47.68240737915039,-0.631321907043457,-2.116501569747925,-3.1486825942993164,-0.32348254323005676,-0.0228755921125412,-0.2689453661441803,28.0625,28.875,28.375,32.375,35.0,36.0
1.0,-0.6632026869265348,-0.6012612904719263,-1.6685860449602419,-0.010390322536960594,0.053429441259503704,-0.09550257241885626,-0.37406871308815914,-0.32887326302993924,0.08483873962725022,-3.0783495043949425,0.6248550633739475,-0.00047706607455458647,-0.02202713431913867,-0.0023802466434689694,0.0009712137277499266,0.0019605287154397222,0.0008629537032292553,-0.001190636372081031,0.4483131766319275,-1.467590482240059,2.006144348775045,-2.1073528728880824,-1.5706985632525843,2.4232428073883057,-0.014169670641422272,0.041027773171663284,-0.04923846945166588,0.008288335986435413,-0.0022332777734845877,-0.012941169552505016,-0.17238251864910126,0.09576806426048279,-9.461885452270508,0.7262282371520996,47.660911560058594,-0.6047959327697754,-2.1451661586761475,-3.301196575164795,-0.3201265335083008,-0.05982593446969986,-0.26672911643981934,28.0625,28.875,28.375,32.375,35.0,36.0
1.0,-0.5890238857170575,-1.543219858643732,-1.5045866176000955,-0.04903115466933196,0.05347282951850851,-0.09459319457149327,-0.3742131276161852,-0.32886949864722537,0.0848661803610393,-3.0783051043285297,0.6248842391950212,-0.0004312795748759852,-0.025463334384901587,-0.003443410369099682,0.0027631949394253037,0.0014662410392801573,0.003108077372683726,-0.0012501206884183557,0.448204904794693,-1.4673733425191422,2.005817715321676,-2.107243677178854,-1.5707467238055628,2.423158645629883,-0.01495272945612669,0.045136429369449615,-0.05855078622698784,0.011255351826548576,-0.0027741421945393085,-0.013658354058861732,-0.28730422258377075,0.2298433631658554,-9.442731857299805,0.7463666796684265,47.67882537841797,-0.6380481123924255,-2.048874855041504,-3.027254581451416,-0.3262675702571869,-0.08192507922649384,-0.2630261182785034,28.0625,28.875,28.375,32.375,35.0,36.0
1.0,-0.7365324496248331,-1.9056591595881256,-1.5551886596179594,-0.07720613057465431,0.04847916565455271,-0.08794583090898994,-0.37431217845434445,-0.3289164587322228,0.0848941168853847,-3.0783583421750924,0.6248752873616147,-0.0004210552114386038,-0.026757792848234995,-0.0033194491431640994,0.0023890166674221383,0.0025853371058809555,0.0024991352768178546,-0.0019349009206952837,0.4481806457042694,-1.4671926212361832,2.0055411497699183,-2.1071835956969203,-1.5707109610186976,2.4231221675872803,-0.015890274196863174,0.04838288947939873,-0.0614229254424572,0.011917843483388424,-0.0035230270586907864,-0.013907738029956818,-0.17238251864910126,0.3447650372982025,-9.442731857299805,0.7665104269981384,47.671661376953125,-0.5987246036529541,-1.918436050415039,-3.201930046081543,-0.32876694202423096,-0.11921359598636627,-0.25523290038108826,28.0625,28.875,28.375,32.375,35.0,36.0
1.0,-1.4664765931707069,-2.479429893874325,-1.5929740653840871,-0.04777002244350273,0.04726534994667974,-0.07772175628368844,-0.3744927001032215,-0.3289232290991816,0.08492052324178184,-3.0783412317393006,0.6249491948853613,-0.00029953428239704906,-0.030741886939320104,-0.003133562078327207,0.0028196617087599416,0.004960515261880702,0.006733133773120381,-0.0017285762762446477,0.4480600357055664,-1.4669272017529984,2.0051806608783167,-2.1071487865843714,-1.5707600752459925,2.4230501651763916,-0.017355652526021004,0.05369691923260689,-0.06790031492710114,0.010307004675269127,-0.007515174802392721,-0.015566952526569366,-0.05746084079146385,0.5554547905921936,-9.346963882446289,0.7262282371520996,47.67703628540039,-0.6513907313346863,-1.963958740234375,-3.180478096008301,-0.2980152666568756,-0.07562123239040375,-0.2650529146194458,28.0625,28.875,28.375,32.375,35.0,36.0
1.0,-1.4027791694755374,-1.8167175324522673,-1.3334350568186046,-0.05616996314794319,0.0383270749170924,-0.07772282810227425,-0.37460975480071523,-0.32894942822500267,0.08492917826527732,-3.0783239501922055,0.6249439938612319,-0.0003008730674983611,-0.033199146046882295,-0.002128409908524798,0.003222516957203,0.009478194687804692,0.009611909053507547,-0.0015097955322090247,0.44801175594329834,-1.4666867491653939,2.0048797766314905,-2.1070767841734828,-1.5707743803607386,2.4230010509490967,-0.018143394961953163,0.05654195323586464,-0.07214268296957016,0.011084993369877338,-0.012841734103858471,-0.016560502350330353,-0.15322890877723694,0.47884035110473633,-9.28950309753418,0.7844129800796509,47.6895751953125,-0.6360470056533813,-1.8814716339111328,-3.1950840950012207,-0.2970200479030609,-0.02475043758749962,-0.25066691637039185,28.0625,28.875,28.375,32.375,35.0,36.0
1.0,-0.7085055597391875,-1.76765527150148,-1.1431103465416814,-0.05637049868207041,0.041762938938605526,-0.0814614837561709,-0.3748293221318194,-0.3289720748226251,0.084949988949852,-3.078307416130275,0.6249397327897185,-0.00018612157631887763,-0.035411009647567084,-0.0036269291457035617,0.0033357902346012806,0.007051730266831179,0.008575798836261693,-0.00020808182287544372,0.447891503572464,-1.4663134676269074,2.0044100920306605,-2.107028146783346,-1.5708330313311976,2.4228806495666504,-0.018963197246193886,0.061963289976119995,-0.0785975381731987,0.011988961137831211,-0.010217035189270973,-0.018683142960071564,-0.09576806426048279,0.3447650372982025,-9.174580574035645,0.7016075849533081,47.660911560058594,-0.6582349538803101,-1.7890573740005493,-3.19362211227417,-0.26123154163360596,-0.041429173201322556,-0.24993515014648438,28.0625,28.875,28.375,32.375,35.0,36.0
1.0,-1.1163520428668792,-0.9315717563849955,-1.1099755623858631,-0.04235480504485667,0.02906726180169142,-0.0833585023427114,-0.3750552613848194,-0.3290092582706248,0.08496506927854919,-3.078303012465642,0.6249366896667012,-0.00013684762885265487,-0.03768492482383123,-0.00425635401997942,0.0023044370748820943,0.007073386286947976,0.006531857640141529,0.001416128693397932,0.4477711021900177,-1.4658920031837006,2.003895107899801,-2.1069566212096156,-1.5708568731891077,2.4227592945098877,-0.020362721756100655,0.06906627118587494,-0.0841490775346756,0.012283568270504475,-0.009362884797155857,-0.021704407408833504,-0.17238251864910126,0.2106897532939911,-9.232041358947754,0.7844129800796509,47.68419647216797,-0.6618455648422241,-1.8422659635543823,-3.214779853820801,-0.2266749143600464,-0.06524530798196793,-0.23857972025871277,28.0625,28.875,28.375,32.375,35.0,36.0
1.0,-0.8223413576261467,-0.8114947580809463,-1.2626776916464753,-0.013141155976280943,0.03599150935953275,-0.07709626482073866,-0.3752133734327224,-0.3290452775927529,0.08498821052600458,-3.0783335510402376,0.624904483264047,-2.66993132832127e-05,-0.03952824609277081,-0.0037429682692749163,0.0013745893989912995,0.009773266720803862,0.004645993635019619,0.0014822144476068916,0.44771039485931396,-1.4656263601830979,2.0035465399371546,-2.106943746606344,-1.570881191884176,2.4226748943328857,-0.021975357085466385,0.07454967498779297,-0.08846433460712433,0.013988367281854153,-0.010984390042722225,-0.023378020152449608,-0.13407529890537262,0.09576806426048279,-9.174580574035645,0.7239871025085449,47.6707649230957,-0.7016432881355286,-2.038351535797119,-3.2583422660827637,-0.2287381887435913,-0.06882505863904953,-0.22586703300476074,28.0625,28.875,28.375,32.375,35.0,36.0
1.0,-1.2218052177582879,-1.2780063940747077,-1.376547305348172,-0.02866752437715172,0.032324928961652115,-0.07969832698279863,-0.3754482546104571,-0.32905611295424964,0.08497908771260229,-3.078219590013131,0.6248609491381665,-2.6896858058512075e-05,-0.04065433768674113,-0.003366390190586336,-3.354060050856557e-05,0.012708869995724776,0.0012562242767733718,0.00311797183006347,0.447578102350235,-1.4651332435062905,2.002993885670797,-2.1068111858763636,-1.5709779898272913,2.42253041267395,-0.02294575423002243,0.08032354712486267,-0.09214416146278381,0.016220076009631157,-0.012169242836534977,-0.02597881481051445,-0.17238251864910126,0.15322890877723694,-9.232041358947754,0.7866488099098206,47.699424743652344,-0.7078405618667603,-1.9513252973556519,-3.4729204177856445,-0.20661084353923798,-0.04063758999109268,-0.16973060369491577,28.0625,28.875,28.375,32.375,35.0,36.0
1.0,-1.3978126725482762,-1.4012329601031723,-1.3973921842564896,-0.0452075531241813,0.05086727017658308,-0.08094800022830446,-0.3756109530071426,-0.32910417288824195,0.0849855910873489,-3.078265257495378,0.6247728504202874,-3.567930575064066e-05,-0.04278473319107551,-0.0034214214965977755,0.0006787613916173465,0.0128734976160566,0.002050583193331866,0.003261705008842899,0.4475055932998657,-1.4647972595742722,2.0025976339923304,-2.106763025323385,-1.570953671132223,2.4223973751068115,-0.024446401745080948,0.0829019770026207,-0.09702261537313461,0.01787606254220009,-0.012668604962527752,-0.02761966921389103,-0.19153612852096558,0.2106897532939911,-9.346963882446289,0.7486078143119812,47.693153381347656,-0.7198418378829956,-1.8981142044067383,-3.4393622875213623,-0.19287890195846558,-0.06412540376186371,-0.13202477991580963,28.0625,28.875,28.375,32.375,35.0,36.0
1.0,-1.5525725832885606,-1.4014087470650143,-1.6273464348639108,-0.025464965902149517,0.0623482498126081,-0.08010036670846286,-0.37587899781751877,-0.3291005432932362,0.08497717319865633,-3.078136971806268,0.6248620562872158,-7.497464516281399e-05,-0.04570633605626398,-0.003987509696151303,8.360282298070613e-05,0.013394382916643974,0.000850552546981658,0.0031121849417099223,0.44730105996131897,-1.4642675679973145,2.0019972960101526,-2.1066070995726527,-1.5710256735431116,2.4222652912139893,-0.02602335996925831,0.09031040221452713,-0.10409054905176163,0.018837472423911095,-0.0126357926055789,-0.029041120782494545,-0.3064578175544739,0.19153612852096558,-9.481039047241211,0.7620334029197693,47.6367301940918,-0.6920592784881592,-1.8644416332244873,-3.491161584854126,-0.1849934458732605,-0.06637223809957504,-0.11148463934659958,28.0625,28.875,28.375,32.375,35.0,36.0
1.0,-1.1805663675817786,-1.6937463933842265,-1.7614344399200386,-0.03919105406009188,0.050704985486175545,-0.07886811958668802,-0.37607404208493095,-0.3291128235517163,0.08499306114084962,-3.0780920339657203,0.6248714920342174,2.4082915865154764e-05,-0.04819786890973742,-0.004616456360301473,0.0009771677954189904,0.012847513203761457,0.0029952644650076588,0.0034234343735155617,0.4471927583217621,-1.4639312711409112,2.0015762487994593,-2.106547018090719,-1.5710981527911585,2.4221689701080322,-0.026802726089954376,0.09332633018493652,-0.10955691337585449,0.019115151837468147,-0.013081432320177555,-0.03012765757739544,-0.24899697303771973,0.3447650372982025,-9.404424667358398,0.7844129800796509,47.66986846923828,-0.7276756763458252,-1.8449958562850952,-3.4648685455322266,-0.1559460461139679,-0.07488025724887848,-0.06131263077259064,28.0625,28.875,28.375,32.375,35.0,36.0
1.0,-1.2137395062185776,-2.129619466856868,-2.0025289835749818,-0.06206501365801583,0.05930222122351471,-0.07729361967226954,-0.37636605444836563,-0.3291523888879042,0.08499724625510954,-3.078018295503511,0.6248002983480248,3.1358075895530095e-05,-0.05177979232489222,-0.004183096052270068,0.0013632059629474238,0.015887431132841613,0.004590778064728428,-0.00010548613235598567,0.4470481872558594,-1.4633305010250588,2.0008681456195276,-2.1063910923399867,-1.5711711088763636,2.421989917755127,-0.028679611161351204,0.09893541783094406,-0.11709817498922348,0.020932268351316452,-0.01652541197836399,-0.02846362255513668,-0.3064578175544739,0.38307225704193115,-9.59596061706543,0.7553206086158752,47.66001510620117,-0.7212073802947998,-1.870332956314087,-3.4227631092071533,-0.14205864071846008,-0.018102645874023438,-0.07778660953044891,28.0625,28.875,28.375,32.375,35.0,36.0
1.0,-1.3154936236426416,-2.7622817697659006,-2.1206968767515493,-0.07523269898765722,0.0480533125350347,-0.07177941718996449,-0.37666980141012496,-0.3291644926746213,0.08500658846053824,-3.0779163903423874,0.6247789814613872,5.907940257613465e-05,-0.05414986811076442,-0.005645635170315019,0.0018738619207862527,0.012489456660695755,0.003001638565746561,-0.0012851634942531373,0.4468555450439453,-1.4627537441304703,2.000171486531393,-2.1062222919859828,-1.571265999470846,2.421797513961792,-0.030372293666005135,0.1038757935166359,-0.12427843362092972,0.023117179051041603,-0.01278683915734291,-0.028979003429412842,-0.17238251864910126,0.38307225704193115,-9.691728591918945,0.7508436441421509,47.692256927490234,-0.6631510257720947,-1.7355260848999023,-3.451584815979004,-0.13699723780155182,-0.03362118452787399,-0.07690773904323578,28.0625,28.875,28.375,32.375,35.0,36.0
1.0,-1.4273861371150338,-2.6283913040978906,-1.9311508455811275,-0.06666801619305304,0.02976916623267173,-0.06565012856763894,-0.3769045125167199,-0.3292062923543448,0.08501560961694679,-3.077902240588756,0.624679805001469,0.00014420557717207698,-0.055815568045078166,-0.005979432919855701,0.00021450763470917512,0.014502869529684834,0.00044293759171029834,-0.0021345890850064143,0.44675949215888977,-1.4622959730080147,1.999631706868307,-2.1061631641783656,-1.5713265577899378,2.4216418266296387,-0.030783571302890778,0.1112898737192154,-0.12877053022384644,0.02337266504764557,-0.0135055435821414,-0.028536105528473854,-0.13407528400421143,0.4213795065879822,-9.691728591918945,0.6702793836593628,47.693153381347656,-0.7040899395942688,-1.923809289932251,-3.3329694271087646,-0.09432698786258698,-0.02102792263031006,-0.07795394212007523,28.0625,28.875,28.375,32.375,35.0,36.0
1.0,-1.7183008105669004,-2.1106692233495528,-1.8739339896290663,-0.043002486532653664,0.026794041359576054,-0.0697505169597283,-0.37727533438183347,-0.3292485728468101,0.0850499838622773,-3.0778721490239076,0.624848039285583,0.00020815654500986157,-0.05845693200895417,-0.006430854103020927,0.001075819491851018,0.012448009989813281,9.681980594697345e-06,-0.005569684554240346,0.44651851058006287,-1.4616481077722092,1.9988039175616663,-2.106018205682272,-1.5713494459735315,2.4215102195739746,-0.03353195637464523,0.11477261036634445,-0.13522587716579437,0.02583811990916729,-0.011473303660750389,-0.027850307524204254,-0.09576806426048279,0.3064578175544739,-9.576807022094727,0.7888899445533752,47.67524337768555,-0.6178559064865112,-1.7761166095733643,-3.44777512550354,-0.07654208689928055,-0.06550711393356323,-0.10318351536989212,28.0,28.875,28.375,32.375,34.9375,36.0
1.0,-1.3675184805639211,-1.6147854551719962,-1.5911869051573961,-0.0339217439483805,0.027154188056571698,-0.07533577591367378,-0.3775210907894438,-0.3292763739783914,0.08506766493369436,-3.077824000050002,0.6249142652244037,0.00029256950633296347,-0.06056696245765848,-0.0075181193931467905,0.0015470845428992585,0.012403829451712995,0.0008397079494744568,-0.004835894698003749,0.4463866949081421,-1.4612035688808938,1.9982526938067835,-2.10593380550527,-1.5714100042926233,2.421426296234131,-0.03316876292228699,0.11910334974527359,-0.141383558511734,0.026895012706518173,-0.011802748776972294,-0.028216660022735596,-0.1149216815829277,0.3064578175544739,-9.308655738830566,0.8157517910003662,47.65911865234375,-0.7194021940231323,-1.8466029167175293,-3.371392250061035,-0.0687614232301712,-0.0698433667421341,-0.11211511492729187,28.0,28.875,28.375,32.375,34.9375,36.0
1.0,-0.9281967482125519,-1.4759855368258572,-1.4413679809066529,-0.022656718573047786,0.034303537374978946,-0.0742831639843492,-0.3779123736707304,-0.3293432407186041,0.0850944669669697,-3.0778076550090074,0.6248912097967818,0.00033855840689667015,-0.0647212778605364,-0.007575339784990065,0.001514753357937707,0.013428019113990044,0.00045289264471900663,-0.007287435796253041,0.44618162512779236,-1.4604578551701088,1.9973281065570276,-2.1057659588255824,-1.5714457670794886,2.4212095737457275,-0.03626866266131401,0.12699468433856964,-0.15060988068580627,0.02901976928114891,-0.012575507164001465,-0.028857845813035965,-0.19153612852096558,0.24899697303771973,-9.385271072387695,0.8493211269378662,47.68240737915039,-0.6697996854782104,-1.9070905447006226,-3.394195079803467,-0.038270361721515656,-0.052096299827098846,-0.14528018236160278,28.0,28.875,28.375,32.375,34.9375,36.0
1.0,-1.0831539103132881,-0.9330433845642425,-1.1479076569948419,-0.049766666391418565,0.043038088766382536,-0.08016696158145424,-0.3781491368590836,-0.3294027300214744,0.08511279661481985,-3.077772641039044,0.62490249551644,0.00039588184665486313,-0.0644096088123743,-0.007555690511852405,-0.0002222550146987429,0.016014883616808123,-0.00353215917558967,-0.005693727909446819,0.4461098313331604,-1.4599773821285744,1.9967296759234827,-2.1056577167906703,-1.5714944044696253,2.421149730682373,-0.035622186958789825,0.1313295215368271,-0.1518571823835373,0.03064245730638504,-0.013189311139285564,-0.0298031996935606,-0.19153612852096558,0.2106897532939911,-9.232041358947754,0.7866488099098206,47.67524337768555,-0.647812008857727,-1.8786160945892334,-3.4330391883850098,-0.026238560676574707,-0.06036065146327019,-0.16868892312049866,28.0,28.875,28.375,32.375,34.9375,36.0
1.0,-1.4322962736205647,-1.3755592527223373,-0.9142944210334512,-0.03484768622068946,0.036122755839311585,-0.07767280262324461,-0.3785769666824789,-0.329429518184757,0.08511696419838805,-3.0776267935551798,0.6249482898362198,0.00045597980766142225,-0.06714410247428071,-0.007828732176811253,-0.0002843210287272534,0.01667794537942211,-0.004924745398534102,-0.006244049706400315,0.44585707783699036,-1.45914892226968,1.9957588354693812,-2.105465074578756,-1.5716260115252894,2.420944929122925,-0.037501562386751175,0.13737772405147552,-0.15915192663669586,0.03342282772064209,-0.013200939632952213,-0.03112737275660038,-0.2106897532939911,0.2298433631658554,-9.097966194152832,0.7978386282920837,47.6895751953125,-0.6744967699050903,-1.6662487983703613,-3.3258605003356934,-0.016447072848677635,-0.09331240504980087,-0.20988327264785767,28.0,28.875,28.375,32.375,34.9375,36.0
1.0,-0.9612900350540681,-1.3078069506377479,-1.0330861628186334,-0.030324049309033634,0.04150708666730306,-0.088855128470688,-0.37899189996232274,-0.3294986802735587,0.08513298608544495,-3.077589448431766,0.6249962704661587,0.000458438421999213,-0.06886275853196637,-0.00786106886279496,-0.00022950138722464464,0.0182609500551759,-0.006666850679397624,-0.0038570390251239026,0.445628821849823,-1.4583329495838662,1.9947765509234827,-2.105283876458639,-1.5716503302203577,2.4207520484924316,-0.03849926218390465,0.1416436731815338,-0.16498206555843353,0.037236347794532776,-0.013886990025639534,-0.034507766366004944,-0.19153612852096558,0.325611412525177,-9.155426979064941,0.8493211269378662,47.68419647216797,-0.7200641632080078,-1.6579875946044922,-3.4009222984313965,-0.018573805689811707,-0.12484027445316315,-0.2080916464328766,28.0,28.875,28.375,32.375,34.9375,36.0
1.0,-1.2507812656902992,-1.6311237351592016,-1.0353221466841993,-0.0409696026218549,0.04372135298338577,-0.07933941328078431,-0.3792407514217397,-0.3295104840773012,0.08511008816599328,-3.0774449756779374,0.6249477031299092,0.0003299025826419844,-0.07049216263151752,-0.007991982017709717,-0.0005620002099958174,0.020031567959999493,-0.008608132410011,-0.0055504334460531116,0.4454725980758667,-1.457756371503212,1.9941404501544397,-2.105067869225973,-1.5717228094684046,2.4205844402313232,-0.0392007939517498,0.14657555520534515,-0.1704649180173874,0.04030146449804306,-0.014660018496215343,-0.03350915387272835,-0.3064578175544739,0.2106897532939911,-9.136273384094238,0.7709873914718628,47.69673538208008,-0.8009176254272461,-1.544257402420044,-3.452697277069092,-0.06185141205787659,-0.13927686214447021,-0.2564736306667328,28.0,28.875,28.375,32.375,34.9375,36.0
1.0,-1.15490901969407,-1.5459111425596133,-1.3471764763091167,-0.023133338451081634,0.03593504892727262,-0.07478584801824419,-0.3796594652434545,-0.32955896749259106,0.0850840033443499,-3.077282837107733,0.6250287581214923,0.00021562411735028472,-0.07328518268857326,-0.008965578065406033,0.0004532489891214213,0.019830762592610976,-0.00817057571733981,-0.004421495955627422,0.44523248076438904,-1.4568322163871308,1.993120018635885,-2.1048275432982386,-1.5717948118792933,2.4204163551330566,-0.03980827331542969,0.15127317607402802,-0.17886482179164886,0.04351447522640228,-0.014687989838421345,-0.03523896634578705,-0.1149216815829277,0.26815059781074524,-9.327810287475586,0.8045620322227478,47.704795837402344,-0.8524988889694214,-1.520761251449585,-3.477891445159912,-0.11344538629055023,-0.14123481512069702,-0.28530454635620117,28.0,28.875,28.375,32.375,34.9375,36.0
1.0,-0.5205569586261267,-1.3567008302063073,-1.4986985328515883,-0.043776691877786954,0.04054937010124858,-0.08518661571551124,-0.3799484845930537,-0.32958755713401217,0.08508647808459063,-3.077166706275314,0.6250233815522126,0.0001298973741473667,-0.07339938215395225,-0.00840781392071812,-0.0013912514615029585,0.02362189603599649,-0.013576542370460727,-0.00420062492289465,0.4450643062591553,-1.4562197563103219,1.9923794905291956,-2.104586740533346,-1.5718548933612269,2.420260190963745,-0.0402274951338768,0.15671589970588684,-0.18164663016796112,0.047363683581352234,-0.015786875039339066,-0.03587355464696884,0.019153613597154617,0.24899697303771973,-9.461885452270508,0.8627467155456543,47.70121383666992,-0.8655131459236145,-1.4825844764709473,-3.4638009071350098,-0.18385526537895203,-0.15342119336128235,-0.32502585649490356,28.0,28.875,28.375,32.375,34.9375,36.0
1.0,-1.4431352184393518,-2.1612742788464794,-1.8247292789600655,-0.05989653458801581,0.01845494321916248,-0.0727460988234009,-0.38042306219537914,-0.32963195804745254,0.08508361566133676,-3.0769550000980694,0.6250549138114332,8.228036006119122e-05,-0.07624322990789457,-0.009105450332711752,-0.0033515002430182,0.025824855416292897,-0.016656738327003606,-0.004207307768401995,0.4448120892047882,-1.4552217286876221,1.9912036100970667,-2.1042634449400843,-1.5719993750201624,2.420055627822876,-0.040976665914058685,0.16736355423927307,-0.1893041580915451,0.04809432476758957,-0.016476469114422798,-0.03660646080970764,-0.038307227194309235,0.26815059781074524,-9.634267807006836,0.8739365339279175,47.693153381347656,-0.9526825547218323,-1.89898681640625,-3.441852569580078,-0.25998228788375854,-0.13790908455848694,-0.3831327557563782,28.0,28.875,28.375,32.375,34.9375,36.0
1.0,-1.0405414682028589,-2.3332858086618877,-1.8994957052058863,-0.048680912826302936,0.018972673446955204,-0.06767105196165941,-0.38070352848458433,-0.32968344653461135,0.08506899486830563,-3.0768787303998404,0.6249613233356643,-2.2502526958975806e-05,-0.07859149162677016,-0.009722458371728752,-0.002698789781806119,0.02514326658349495,-0.01654509759262343,-0.0028406403685655238,0.44467949867248535,-1.4545735281756897,1.9904726187335413,-2.1040712795653285,-1.5720351378070276,2.419874906539917,-0.04222073033452034,0.1711699217557907,-0.19561335444450378,0.050193872302770615,-0.0159283634275198,-0.0392134003341198,-0.038307227194309235,0.40222588181495667,-9.461885452270508,0.8448441624641418,47.70748519897461,-0.9907108545303345,-1.9631187915802002,-3.5090696811676025,-0.3163507580757141,-0.16781777143478394,-0.42162007093429565,28.0,28.875,28.375,32.375,34.9375,36.0
1.0,-1.705549843518336,-2.5709757573742245,-1.8584252286107257,-0.07642372226377057,0.03886441006268444,-0.07747710472052895,-0.3812038438963149,-0.3297366062784146,0.08507177084273757,-3.076722481438194,0.6250215126699494,-7.127011078278603e-05,-0.08197396251205925,-0.010334049251577632,-0.003240226493099211,0.025115368830333874,-0.014959820753067309,0.0001285857866218168,0.4443916976451874,-1.4535531488111992,1.98926288286318,-2.103772302667135,-1.5721314589129847,2.4196455478668213,-0.043588925153017044,0.17799200117588043,-0.2016127109527588,0.0479152649641037,-0.016619937494397163,-0.04354245960712433,-0.1149216815829277,0.5171475410461426,-9.59596061706543,0.7709873914718628,47.686885833740234,-1.033705711364746,-1.8024513721466064,-3.5304603576660156,-0.3355952501296997,-0.18718992173671722,-0.4364250898361206,28.0,28.875,28.375,32.375,34.9375,36.0
1.0,-1.6910202681548554,-2.4748250903888334,-1.5118591454013273,-0.07406916202563171,0.06419167046082551,-0.07836511344512526,-0.381707247762106,-0.3297994828421978,0.0850581857014702,-3.0766002079908064,0.6249156371446688,-9.020498751046758e-05,-0.08616244637387847,-0.011490929231206202,-0.002489675761106382,0.022284441351719614,-0.008971609424392606,0.005978654181275626,0.4441267251968384,-1.4524976176074524,1.9880645910846155,-2.103535314599508,-1.5722392241107386,2.4193310737609863,-0.045044172555208206,0.18244823813438416,-0.20722727477550507,0.04242885857820511,-0.016681592911481857,-0.050841134041547775,-0.28730422258377075,0.3064578175544739,-9.461885452270508,0.8493211269378662,47.70748519897461,-1.0882956981658936,-1.756380558013916,-3.59688401222229,-0.31036216020584106,-0.18635430932044983,-0.3838890790939331,28.0,28.875,28.375,32.375,34.9375,36.0
1.0,-1.333842731521571,-1.179869735989754,-1.5582161250619484,-0.03838218907388362,0.05280134408110252,-0.0866031570100271,-0.38207158680317127,-0.329851894412175,0.08504859945519705,-3.0765538966599575,0.6248637998625018,-0.00011529366012167763,-0.09079211773410599,-0.012742367883941728,0.0010812855021281606,0.01784029374158558,0.0005451516958019859,0.009331772068777965,0.4439226984977722,-1.4517430377057572,1.9872129599200647,-2.103392263452047,-1.5722759405719202,2.4191012382507324,-0.046699270606040955,0.18206673860549927,-0.2144506275653839,0.039517272263765335,-0.01679057441651821,-0.05584381893277168,-0.24899697303771973,0.2106897532939911,-9.461885452270508,0.8493211269378662,47.725399017333984,-1.0675486326217651,-1.568995475769043,-3.468796968460083,-0.28046396374702454,-0.2387717068195343,-0.32417482137680054,28.0,28.875,28.375,32.375,34.9375,36.0
1.0,-2.0167105459796644,-1.3061518784932606,-2.071806561338986,-0.01523598968514596,0.04335329518286705,-0.07646954161595601,-0.3826107816841777,-0.32993304592303974,0.0850538760061664,-3.076467236852242,0.6247457468704535,-0.00013057596495276804,-0.0949538102819746,-0.013355723175587258,0.0014257749252175307,0.016497121736717,0.003108451060606608,0.013518840497172106,0.44364577531814575,-1.4506389883211632,1.9859069029437464,-2.103117605248922,-1.5723593870746058,2.418762683868408,-0.04920312762260437,0.18815718591213226,-0.22186653316020966,0.03792955353856087,-0.016713114455342293,-0.06252868473529816,-0.2106897532939911,0.13407529890537262,-9.576807022094727,0.8493211269378662,47.71375274658203,-0.9892914295196533,-1.4696663618087769,-3.5183300971984863,-0.18351969122886658,-0.27829214930534363,-0.20803755521774292,28.0,28.875,28.375,32.375,34.9375,36.0
1.0,-1.91208005937082,-1.5526165618001104,-1.9556690835403538,-0.03876221554386231,0.06989125281935173,-0.08187245923183811,-0.38299568872892165,-0.3299709815824825,0.08504547747698094,-3.0763735232789458,0.6246303392009896,-9.132390988859851e-05,-0.09767756962552707,-0.013650725347740792,7.660830324628776e-05,0.019574900502650455,0.0014645974145320775,0.013295363016697773,0.44344162940979004,-1.4498576906374474,1.985018555318014,-2.10296167949819,-1.572468105946676,2.418499231338501,-0.04971586540341377,0.1969379037618637,-0.22897614538669586,0.03906085342168808,-0.01880495995283127,-0.06280612200498581,-0.40222588181495667,0.17238251864910126,-9.53849983215332,0.9075058698654175,47.657325744628906,-1.0706919431686401,-1.6497077941894531,-3.2215781211853027,-0.15963336825370789,-0.27892422676086426,-0.1439225971698761,28.0,28.875,28.375,32.375,34.9375,36.0
1.0,-2.3781137632291625,-2.9111252702205936,-2.089289925621233,-0.05418533008773105,0.06737717523723402,-0.07318690428852881,-0.383564364248979,-0.33005755909899226,0.08505882669447437,-3.0762966566191414,0.6244619085789591,-4.2026705396180385e-05,-0.0988316292651896,-0.012535629911758207,-0.0009240746061692635,0.022471280069742607,-0.0011260544568106727,0.007762413467151813,0.4431651532649994,-1.448718161588051,1.983654801045553,-2.1026975117125453,-1.5725768248187464,2.418128490447998,-0.05176936089992523,0.20072408020496368,-0.2316993921995163,0.04158107936382294,-0.020309917628765106,-0.05932033807039261,-0.5746083855628967,0.325611412525177,-9.615114212036133,0.9007930159568787,47.71196365356445,-1.05580735206604,-1.6867294311523438,-3.602383613586426,-0.11054809391498566,-0.3148289918899536,-0.14969927072525024,28.0,28.875,28.375,32.375,34.9375,36.0
1.0,-1.4978411363015889,-2.1416705728926235,-1.9959106701994505,-0.04841444575454808,0.050311341857528655,-0.07711599562364375,-0.38399223703759183,-0.3301000964072512,0.08507878329621349,-3.0762169494976463,0.6245057335115926,5.815796597790464e-05,-0.10096433628284182,-0.012381767414391155,-0.0011651934816599857,0.02279690797046202,-0.002100767855208975,0.0024791801961271814,0.442924439907074,-1.4479261574200173,1.982685391102926,-2.1025296650328578,-1.5726726690875452,2.417926073074341,-0.05392351374030113,0.20501171052455902,-0.2364240437746048,0.04303417727351189,-0.020190389826893806,-0.05618920177221298,-0.325611412525177,0.3064578175544739,-9.576807022094727,0.9343623518943787,47.699424743652344,-1.0309865474700928,-1.7681989669799805,-3.763500928878784,-0.10794738680124283,-0.3098881244659424,-0.15698619186878204,28.0,28.875,28.375,32.375,34.9375,36.0
1.0,-1.5715843301995598,-1.8096502335832176,-1.5125868354449272,-0.04985510314432461,0.02722487504334136,-0.08113520140303056,-0.38461333403171255,-0.3301866673096567,0.08507456101550898,-3.076141575883828,0.6244364438401442,8.609810396532989e-05,-0.10477765793758398,-0.012853873560268701,-0.0006164666483993982,0.02262484020871935,-0.001805455489095381,-0.0075236374556296864,0.442587673664093,-1.4466785726002236,1.9812467733966272,-2.1023007831969203,-1.572756592427389,2.4175567626953125,-0.056298013776540756,0.21139299869537354,-0.24563731253147125,0.04553115367889404,-0.020169485360383987,-0.04855521395802498,-0.28730422258377075,0.28730419278144836,-9.327810287475586,0.8269415497779846,47.693153381347656,-0.9795081615447998,-1.7474706172943115,-3.6364052295684814,-0.030780714005231857,-0.3488425016403198,-0.23402774333953857,28.0,28.875,28.375,32.375,34.9375,36.0
1.0,-1.06229392162822,-1.2375664020966224,-1.173853292538967,-0.041410168785800915,0.03930929509250493,-0.09127355535834665,-0.3852727500545244,-0.33025399958910223,0.08507288673522648,-3.0759521076887295,0.6245707883001909,0.0001543058827158668,-0.10980336895185669,-0.013449835167252198,0.0024004977136975005,0.021959250713576427,0.002528154570897258,-0.010634889124940775,0.4422268271446228,-1.4453717780164261,1.9797237555133265,-2.1020242176451625,-1.5729129950152796,2.4173052310943604,-0.05869792774319649,0.21501454710960388,-0.25786274671554565,0.04992523789405823,-0.021444588899612427,-0.04783305525779724,-0.26815059781074524,0.24899697303771973,-9.193734169006348,0.7754590511322021,47.704795837402344,-0.8725289106369019,-1.5752965211868286,-3.3227219581604004,-0.013282408006489277,-0.3847388029098511,-0.2892802953720093,28.0,28.875,28.375,32.375,34.9375,36.0
1.0,-1.2687526464446353,-1.4553829404601224,-1.5009682647358717,-0.014392289686844981,0.04384656360846516,-0.08323360732901955,-0.38567264809982593,-0.330308755663567,0.08504238850400639,-3.075843031425828,0.624527317860075,1.7311138996604324e-06,-0.11059204125064645,-0.012503749274040361,0.0015348879263738422,0.02448708626846533,-0.001572184880592621,-0.009310370385963329,0.4419982135295868,-1.4444722098163147,1.9787300268756312,-2.10178341488027,-1.572949234639303,2.4170641899108887,-0.060711946338415146,0.21870775520801544,-0.26121360063552856,0.054358016699552536,-0.021987348794937134,-0.051165755838155746,-0.2298433631658554,0.24899697303771973,-9.21288776397705,0.8090336918830872,47.65016555786133,-0.8893303275108337,-1.418468952178955,-3.4173381328582764,-0.006249655969440937,-0.4023902118206024,-0.28187036514282227,28.0,28.875,28.375,32.375,34.9375,36.0
1.0,-1.5593253971945558,-1.7420468732611254,-1.2489998231257127,-0.0343498636188045,0.02610024695796353,-0.07590487150123301,-0.3863538702757357,-0.330379186423907,0.0850561634238659,-3.075660922598279,0.6246043435124806,6.066047451964963e-05,-0.10989291153746233,-0.010433523391057641,-0.0019204072067449715,0.03192672967574417,-0.013890553782234985,-0.011091302575096267,0.4416253864765167,-1.4431397926858445,1.9771259466754358,-2.1014443836607875,-1.5731056372271937,2.4167640209198,-0.0628732293844223,0.22675274312496185,-0.26485687494277954,0.06426109373569489,-0.02344209887087345,-0.05153948813676834,-0.2106897532939911,0.17238251864910126,-9.21288776397705,0.8336543440818787,47.67882537841797,-0.8012043237686157,-1.5717031955718994,-3.5577781200408936,-0.09662213921546936,-0.4160769581794739,-0.3463016748428345,28.0,28.875,28.375,32.375,34.9375,36.0
1.0,-0.7639962171894158,-0.5343615338411127,-1.2380632245001149,-0.0037636632350984854,0.014781382712450246,-0.08312354466133208,-0.3867996603473878,-0.33041183074591923,0.08505538710882082,-3.0755079401268497,0.6246661566644589,5.113034771461768e-05,-0.11135346208570625,-0.009573039752151135,-0.0032196555652113804,0.035743369558027704,-0.018234332134362305,-0.009596216443123577,0.44136106967926025,-1.4422511917403718,1.976072136555807,-2.101192136804098,-1.573214356099264,2.4165587425231934,-0.06464832276105881,0.23291447758674622,-0.27002671360969543,0.06881271302700043,-0.025055967271327972,-0.054799824953079224,-0.09576806426048279,-0.038307227194309235,-9.097966194152832,0.831413209438324,47.668975830078125,-0.7666282653808594,-1.7358412742614746,-3.561889171600342,-0.16357865929603577,-0.40505528450012207,-0.3380715847015381,28.0,28.875,28.375,32.375,34.9375,36.0
1.0,-0.47202080764004006,-0.732340682527789,-1.0652718485043555,-0.008993116844291757,0.026909682599428608,-0.09440022799530845,-0.3874676948392416,-0.330473500741174,0.08502070232137482,-3.0752452969920836,0.6247264766126063,-0.00015524774161536462,-0.11729950446817328,-0.009391785702030813,1.6949461788922244e-06,0.03595291148553622,-0.013410649612341218,-0.010524598164924695,0.4409636855125427,-1.4408002656749268,1.9744160811053675,-2.1007353268065394,-1.5733354727374476,2.416234016418457,-0.06861355900764465,0.2368585765361786,-0.28329527378082275,0.07384809106588364,-0.027354387566447258,-0.057816032320261,-0.13407529890537262,0.26815059781074524,-9.040505409240723,0.8067978620529175,47.6734504699707,-0.5806847810745239,-1.791562557220459,-3.375061511993408,-0.24839794635772705,-0.3990192413330078,-0.3397114872932434,28.0,28.875,28.375,32.375,34.9375,36.0
1.0,-2.187501695274218,-2.8437676164187433,-1.3332965980995677,-0.07095661820359839,0.04898557783965516,-0.08165058080029974,-0.387893976476956,-0.3304807812677384,0.08498091008734404,-3.074957831332034,0.6247209227518992,-0.0003434592856012748,-0.11914039434469205,-0.010212186537508043,0.00022720234926996085,0.03755070272019933,-0.010937602291685134,-0.005255945793777091,0.44070011377334595,-1.4398293656161805,1.9733274618731897,-2.1003524265685023,-1.5734923521624964,2.4160048961639404,-0.0670592337846756,0.2405650019645691,-0.2880815863609314,0.07335516810417175,-0.029897654429078102,-0.061510346829891205,-0.363918662071228,0.38307225704193115,-9.193734169006348,0.8784134984016418,47.69673538208008,-0.6826841235160828,-1.5904567241668701,-3.3496320247650146,-0.3000630736351013,-0.3983358144760132,-0.31183046102523804,28.0,28.875,28.375,32.375,34.9375,36.0
1.0,-3.0495113389577186,-2.982403111084939,-1.5500706191688125,-0.10143615988248553,0.11568080556961405,-0.09183807865649636,-0.3886073005291044,-0.3305506142607824,0.08496256625763743,-3.0747299332000995,0.6245505595931482,-0.00042025136503077726,-0.12278964135063544,-0.010716068660137816,0.00013087596649438233,0.03744494513403728,-0.0047231187677460726,0.00430136586168009,0.4403160810470581,-1.4383303833058854,1.9715803305255335,-2.0999118290343226,-1.5736730734454554,2.4155452251434326,-0.06754427403211594,0.24515631794929504,-0.29190152883529663,0.06687320023775101,-0.03252239525318146,-0.0715327039361,-0.4213795065879822,0.4405331015586853,-9.500192642211914,0.9119828343391418,47.681514739990234,-0.7178590297698975,-1.6869568824768066,-3.617249011993408,-0.30781009793281555,-0.3514688313007355,-0.2141197919845581,28.0,28.875,28.375,32.375,34.9375,36.0
1.0,-1.4581080223116365,-1.521467785588914,-1.7289800359342955,-0.04566462760712009,0.0844017703223363,-0.092669157174148,-0.38939967176502605,-0.33062893719031955,0.08494234477765439,-3.0745640447970723,0.6244930479281814,-0.00035747770871994214,-0.1282975634528722,-0.01331465387607981,-2.5757418293683654e-05,0.033472368859041826,0.0037816984435813405,0.009408297408307426,0.4398721754550934,-1.436746285562851,1.9697721640216272,-2.099616666833395,-1.5738409201251429,2.415088176727295,-0.06731152534484863,0.2537152171134949,-0.2991420328617096,0.05612648278474808,-0.03261723741889,-0.07639744132757187,-0.4405331015586853,0.3447650372982025,-9.442731857299805,0.8515569567680359,47.67792892456055,-0.7715083360671997,-1.7267364263534546,-3.605452060699463,-0.169231578707695,-0.33269447088241577,-0.09158216416835785,28.0,28.875,28.375,32.375,34.9375,36.0
1.0,-1.17688300800992,-1.421342169810619,-2.1652772444715933,-0.030746087250983337,0.033432281216345526,-0.07957878804689934,-0.3899050169329302,-0.33066189054592154,0.0849134090133547,-3.074368538271311,0.6244908126125054,-0.0003245579446717906,-0.1321848476805929,-0.014018161380837207,0.0006686724439755562,0.035489024714387106,0.00873682688596557,0.00716443123188007,0.4395963251590729,-1.4357016694596787,1.968609635029928,-2.099401136437887,-1.574010197316305,2.414837121963501,-0.06687024235725403,0.2593383491039276,-0.3070180416107178,0.054755691438913345,-0.03657398372888565,-0.07368732988834381,-0.2298433631658554,0.3447650372982025,-9.500192642211914,0.8291773796081543,47.6707649230957,-0.8247094750404358,-1.9338083267211914,-3.5858359336853027,-0.08697351068258286,-0.2718520164489746,-0.05556797981262207,28.0,28.875,28.375,32.375,34.9375,36.0
1.0,-0.3004902632423597,-2.261341779676364,-2.058440836571802,-0.09395528645486531,0.03624527746270628,-0.0973275592580288,-0.3907212586526821,-0.33074448974410403,0.08490825145557826,-3.0741482871776102,0.624370397886664,-0.00014655239471341816,-0.13372427529328884,-0.014127484937385918,-8.940563805756291e-05,0.03832154202142539,0.004801966164879082,-0.0010513971959790064,0.4392002522945404,-1.4340831649354477,1.966717545186178,-2.0990759334959925,-1.5742748419391077,2.414395809173584,-0.06727613508701324,0.26578080654144287,-0.3142138421535492,0.06027357280254364,-0.03745172917842865,-0.06586897373199463,-0.038307227194309235,0.40222588181495667,-9.615114212036133,0.9052700400352478,47.692256927490234,-0.921866774559021,-2.0563979148864746,-3.564119338989258,-0.019809825345873833,-0.19819599390029907,-0.089336097240448,28.0,28.875,28.375,32.375,34.9375,36.0
1.0,-0.2324616976361995,-2.2101861641802714,-2.266131663262263,-0.0729078702979564,0.0061264477502844805,-0.09020064640124316,-0.3912438915738093,-0.3308089160259275,0.08489250504510262,-3.0740029948804892,0.6243428259627993,-0.00021403065908917504,-0.1350381008813052,-0.01380179311687091,-0.000890079951925972,0.03919367048342567,0.002311228178635982,-0.007186439755981863,0.43892380595207214,-1.4329797488502045,1.9654362837420862,-2.0987760029234828,-1.5743706862079065,2.4141218662261963,-0.0690351277589798,0.26992112398147583,-0.3178212642669678,0.06236527860164642,-0.03718407452106476,-0.061488062143325806,0.038307227194309235,0.363918662071228,-9.634267807006836,0.9007930159568787,47.67613983154297,-0.8817387819290161,-2.0007588863372803,-3.622189998626709,-0.013692900538444519,-0.14872124791145325,-0.14062616229057312,28.0,28.875,28.375,32.375,34.9375,36.0
1.0,-0.6881648439607158,-1.4343495437431355,-1.939309873420639,-0.04305371791532006,0.00023160108554294394,-0.08004045407392124,-0.3920930645361023,-0.33089215787279685,0.0848760440737682,-3.0737726792778566,0.6243914962399886,-8.672134617103407e-05,-0.13685249116459833,-0.0154442261043784,0.0011781985248717976,0.034900173934815364,0.0029778192073384208,-0.010881355920610493,0.438479483127594,-1.431289867763855,1.963485066090719,-2.0984517536559046,-1.574597183858053,2.4137392044067383,-0.06955495476722717,0.27081286907196045,-0.32483696937561035,0.06603259593248367,-0.0335872657597065,-0.058324914425611496,0.1149216815829277,0.28730422258377075,-9.500192642211914,0.9007930159568787,47.65553665161133,-0.9183908700942993,-1.9228720664978027,-3.611083984375,0.015569640323519707,-0.11369894444942474,-0.23323576152324677,28.0,28.875,28.375,32.375,34.9375,36.0
1.0,-0.6330228386516428,-1.455668526837689,-2.0976576252002688,-0.029971192169049973,0.006403928049070555,-0.08441403450500289,-0.3926404373068279,-0.33095475567624405,0.08487944823771654,-3.0736046864314406,0.6244505640499128,-8.323956561918715e-06,-0.13693986225722335,-0.016278046871722206,0.0004241593637450754,0.03540545792765595,-0.0028683969153478713,-0.01038498540958413,0.43821579217910767,-1.4301987898400803,1.9621790091144007,-2.0981861553587855,-1.5747526327716272,2.4135351181030273,-0.06919363886117935,0.27567243576049805,-0.3302842080593109,0.07210297882556915,-0.03156856447458267,-0.05846588313579559,0.2106897532939911,0.15322890877723694,-9.634267807006836,0.8560339212417603,47.68240737915039,-1.0143951177597046,-1.885693073272705,-3.6373937129974365,0.024278689175844193,-0.11732398718595505,-0.242642343044281,28.0,28.875,28.375,32.375,34.9375,36.0
1.0,-0.5034435377604284,-0.9734985833301688,-1.8142091795310973,-0.03512800742550572,0.017696636201492654,-0.08577880294601813,-0.39348530673421583,-0.3310783101089131,0.08491627622049597,-3.0734393318723714,0.6244898315576203,6.1555589522839e-05,-0.13617693144146253,-0.016580830082440583,-0.0012005508554155033,0.03842309649847067,-0.01606240866804136,-0.008991987656091723,0.43780770897865295,-1.4285434645465394,1.960107151662008,-2.0977145634093226,-1.5749076048480433,2.4131743907928467,-0.06950151920318604,0.2833155691623688,-0.3388913869857788,0.08625677973031998,-0.028709860518574715,-0.06017659604549408,-0.09576806426048279,0.3064578175544739,-9.404424667358398,0.9231725931167603,47.66986846923828,-1.0976386070251465,-1.9302948713302612,-3.5903425216674805,-0.07832260429859161,-0.1477368175983429,-0.32594895362854004,28.0,28.875,28.375,32.375,34.9375,36.0
1.0,-1.171339716378247,-1.4515628191818244,-1.497765991787634,-0.04135737903006606,0.02860847003600052,-0.0782870725066642,-0.3942822330271774,-0.3311754405993868,0.08489896220485685,-3.0731460944038207,0.6245630962295396,-0.00014860166711479916,-0.136906236735094,-0.0159248282612368,-0.0008533830521528825,0.039951436271295535,-0.022878354217271236,-0.011500329226805071,0.43738698959350586,-1.4268291753581543,1.958060089741842,-2.0971127949156703,-1.5750511328326624,2.412838935852051,-0.07200317829847336,0.2864508032798767,-0.3461880683898926,0.09721434861421585,-0.027227118611335754,-0.060168519616127014,-0.28730422258377075,0.3064578175544739,-9.174580574035645,0.8537927865982056,47.68867492675781,-1.1236847639083862,-1.9178345203399658,-3.571852207183838,-0.27900034189224243,-0.1562230885028839,-0.42508095502853394,28.0,28.875,28.375,32.375,34.9375,36.0
1.0,-1.3227080988015245,-1.3150224018431103,-1.7515220160914806,-0.04361944941937698,0.034855917517944986,-0.08723791283128186,-0.3948408415050175,-0.33122446065233013,0.08488677532838323,-3.072925661712217,0.6245520366352805,-0.0001764577720004832,-0.13918436457415254,-0.01655667555885656,0.0007567182530045815,0.03726782307341816,-0.018029759770952582,-0.008080518533139694,0.4370986223220825,-1.4256675702384491,1.9566839377032679,-2.0967546902098597,-1.57521897951235,2.4125733375549316,-0.07285438477993011,0.28620702028274536,-0.34943705797195435,0.09513980895280838,-0.026894928887486458,-0.06443606317043304,-0.19153612852096558,0.15322890877723694,-9.442731857299805,0.9768803715705872,47.6680793762207,-1.0352030992507935,-1.574784755706787,-3.735269784927368,-0.3169785439968109,-0.17332971096038818,-0.4399372339248657,28.0,28.875,28.375,32.375,34.9375,36.0
1.0,-2.3180576258904457,-1.5717306645537321,-1.7605536079853783,-0.034759640800541634,0.05271168314888493,-0.06874228121580953,-0.395718259698186,-0.3313664831451693,0.08492793599274046,-3.072817724326281,0.6244444420127239,-0.0001439453499154195,-0.14762386996262472,-0.02016458273929129,0.0028739757530690264,0.02898615726608543,-0.0023930448308124275,0.0021323015009265395,0.43667852878570557,-1.4239403021386643,1.9545043150531214,-2.0962449512877406,-1.5753386656390589,2.4121015071868896,-0.07374200969934464,0.2937885820865631,-0.3600907027721405,0.08046597987413406,-0.026118066161870956,-0.07553070038557053,-0.24899697303771973,0.1149216815829277,-9.461885452270508,0.8694595694541931,47.67524337768555,-1.0989258289337158,-1.635802984237671,-3.4916627407073975,-0.20814311504364014,-0.18635880947113037,-0.3503696024417877,28.0,28.875,28.375,32.375,34.9375,36.0
1.0,-2.6462393462428704,-2.2998386585769675,-1.9447157148740832,-0.026379596056856462,0.0721967135190491,-0.0725601992703127,-0.39631478420451,-0.33143459295947203,0.08495381214802683,-3.0727079700878717,0.6243982753828179,-8.254140738187352e-05,-0.1512603299032392,-0.020439496399355755,0.0019062773701927964,0.02843756761315782,-0.000247741126375236,0.007760266338465535,0.4363657236099243,-1.4227990818074723,1.953066651021139,-2.0959116421141566,-1.5754593054400843,2.4117751121520996,-0.07589437812566757,0.30060961842536926,-0.365060418844223,0.07638559490442276,-0.02658364176750183,-0.08330420404672623,-0.40222588181495667,0.26815059781074524,-9.481039047241211,0.8336543440818787,47.69136428833008,-0.9667099714279175,-1.804565668106079,-3.49832820892334,-0.13430345058441162,-0.20412226021289825,-0.23702795803546906,28.0,28.875,28.375,32.375,34.9375,36.0
1.0,-2.6264024081955677,-2.997449193070503,-2.2740574251142993,-0.07823900135857223,0.09502691846101907,-0.08049795203148691,-0.39723192401235247,-0.331540230515572,0.08495346647968827,-3.072511998309593,0.624297676925132,-7.140950552699095e-05,-0.15265640399689767,-0.018322585337307445,0.0007835880999003249,0.03174461010249026,-0.0027019922551476637,0.007272158773459575,0.43588462471961975,-1.4209600997022171,1.9508536497699183,-2.0954190693297328,-1.575639549885885,2.4112582206726074,-0.07945849746465683,0.3035827577114105,-0.36697348952293396,0.07891135662794113,-0.028571223840117455,-0.08636697381734848,-0.5746084451675415,0.4213795065879822,-9.710882186889648,0.9589777588844299,47.67613983154297,-0.9759556651115417,-1.796776533126831,-3.930856704711914,-0.06366625428199768,-0.2231939136981964,-0.1254730373620987,28.0,28.875,28.375,32.375,34.9375,36.0
1.0,-1.6848329710360281,-2.549803731896522,-2.3657456868923816,-0.08903001359189402,0.08922868778492253,-0.08816665062231048,-0.3978513288457179,-0.331607404937255,0.08496502926061084,-3.07239279265019,0.6242369124163798,-3.835962438142908e-06,-0.15863951950569283,-0.01884522848610762,0.004535782697993751,0.029650625237249203,0.004053246819333356,-0.0038099168154610147,0.4354154169559479,-1.4191455406001587,1.9486244360553187,-2.0949393711485804,-1.5758321920977991,2.410757541656494,-0.08274078369140625,0.30633604526519775,-0.37995514273643494,0.08214659988880157,-0.029525740072131157,-0.07855509966611862,-0.5171475410461426,0.3064578175544739,-9.806650161743164,0.938839316368103,47.69853210449219,-0.7284990549087524,-1.4702311754226685,-3.565988540649414,-0.02927963063120842,-0.22254270315170288,-0.14882278442382812,28.0,28.875,28.375,32.375,34.9375,36.0
1.0,-1.2697468836803503,-0.9833136349398912,-2.152987764777207,-0.021843934334569864,0.03834358814443363,-0.07880812388599585,-0.3988473369601913,-0.3317447562947847,0.0850151031493191,-3.0723190619570535,0.624264904143324,0.00018496140389511652,-0.15864042373817916,-0.017796082899247306,0.00028104172921046615,0.033976409686588195,-0.00758405611705458,-0.012553783838544635,0.4350428283214569,-1.4179042291692276,1.9470461050616663,-2.0946861706175746,-1.5759037176715296,2.410423517227173,-0.08503228425979614,0.31661170721054077,-0.3836885988712311,0.08799522370100021,-0.028511250391602516,-0.07210882008075714,-0.5171475410461426,0.24899697303771973,-9.768342971801758,0.8873621225357056,47.702110290527344,-0.6889182329177856,-1.7983152866363525,-3.7222137451171875,-0.046765170991420746,-0.2553282678127289,-0.26406314969062805,28.0,28.875,28.375,32.375,34.9375,36.0
1.0,-0.6476551809063474,-0.502871899599433,-1.6447121000832716,-0.0021316141741580374,0.03309029671669134,-0.0855873555439797,-0.399776251693554,-0.33185911528986267,0.08504467869903937,-3.072101352005898,0.6244102860247586,0.0001606977935320373,-0.15721405416509823,-0.016493096600365912,-0.0014330986244732952,0.04069202120546473,-0.02096114244472437,-0.01365305434926059,0.4345507025718689,-1.416076586847641,1.9447467962848108,-2.0940944157042445,-1.5760481993304651,2.4100520610809326,-0.08562543243169785,0.32237163186073303,-0.3905346691608429,0.10402322560548782,-0.028966082260012627,-0.07159673422574997,-0.1149216815829277,-0.07661445438861847,-9.327810287475586,0.9768803715705872,47.68061828613281,-0.6909103393554688,-1.9268169403076172,-3.748168468475342,-0.21062998473644257,-0.285473108291626,-0.30757376551628113,28.0,28.875,28.375,32.375,34.9375,36.0
1.0,-0.023928942504801556,-0.07592215128338584,-1.4816767924734595,0.00878600502862118,0.0036889640233269,-0.08339346048675986,-0.40042158609818485,-0.3319055489344989,0.08504124019335346,-3.0718699234627844,0.6244375381989362,0.0001246224359618072,-0.16041253433730387,-0.01728824776857894,-0.00046828965647305185,0.04176831436125364,-0.019264367304738406,-0.013738825808736158,0.4341907501220703,-1.4147778761437912,1.9431646505938929,-2.0936624012389125,-1.5762165228473108,2.409740447998047,-0.08565641939640045,0.32752060890197754,-0.39970213174819946,0.1069398745894432,-0.030692949891090393,-0.07152431458234787,0.05746084079146385,-0.05746084079146385,-9.251194953918457,0.8851262927055359,47.671661376953125,-0.7532689571380615,-1.7774031162261963,-3.5730061531066895,-0.2827283442020416,-0.30855733156204224,-0.3262770175933838,28.0,28.875,28.375,32.375,34.9375,36.0
1.0,-1.7711863164835968,-2.9024540315738725,-1.451095558481437,-0.0633671223882006,0.012210292306836068,-0.06918903276345284,-0.40144358020665616,-0.3320171431441708,0.08511380327272333,-3.071641832396359,0.6245208245236827,0.00030394405059066317,-0.16441885087106678,-0.019779239565891324,0.0018326050701742824,0.03769036945304611,-0.009745504111777856,-0.010860703844766673,0.4336753487586975,-1.4128795278123398,1.940674130116598,-2.093041559258932,-1.5764568487750452,2.409308433532715,-0.0840163305401802,0.3296627700328827,-0.4067735970020294,0.10147975385189056,-0.031045712530612946,-0.07275619357824326,-0.038307227194309235,0.28730422258377075,-9.193734169006348,0.9791215062141418,47.6707649230957,-0.9180957078933716,-1.4058805704116821,-3.5342941284179688,-0.2629811465740204,-0.3413972854614258,-0.3697403073310852,28.0,28.875,28.375,32.375,34.9375,36.0
1.0,-1.8750079227873089,-3.5277211135098008,-1.6964185643966236,-0.09575920319201625,0.07069930062892063,-0.0787798056866141,-0.40205909927832995,-0.3320673572162862,0.08508495469636909,-3.071387545265014,0.624555942088356,0.000126359008271696,-0.16728608561161967,-0.020653308723751138,0.0006190028658478741,0.036333830216491184,-0.006028469158094102,-0.002223551116464287,0.43332743644714355,-1.4115565878203888,1.9391081968890589,-2.092565198937887,-1.5765884558307093,2.4090168476104736,-0.08440287411212921,0.3353405296802521,-0.4093477725982666,0.09436094015836716,-0.03146180883049965,-0.08176814764738083,-0.09576806426048279,0.4596867263317108,-9.346963882446289,0.9142186641693115,47.690467834472656,-0.8205262422561646,-1.499542474746704,-3.7631587982177734,-0.15916216373443604,-0.3319185674190521,-0.33882296085357666,28.0,28.875,28.375,32.375,34.9375,36.0
1.0,-1.6412654671527827,-3.046830042935178,-1.7556483359732298,-0.05910557140693857,0.03987036784455836,-0.0744071338682455,-0.4031206576262854,-0.3322227702614944,0.08513859245727443,-3.0713063336809876,0.6244932848500258,0.00032773240752749516,-0.1728671010503498,-0.022604484921685545,0.0012321245973848497,0.03517550835677808,0.0014300508912162505,0.00797539486056184,0.43281131982803345,-1.4095597726157685,1.93657094637026,-2.092076440850729,-1.576745335255758,2.4084737300872803,-0.08396033197641373,0.3434806168079376,-0.41958966851234436,0.08912623673677444,-0.033620938658714294,-0.09150852262973785,-0.19153612852096558,0.9193734526634216,-9.251194953918457,0.938839316368103,47.67613983154297,-0.9251354932785034,-1.6655058860778809,-3.6340322494506836,-0.04137372970581055,-0.35283416509628296,-0.23182687163352966,28.0,28.875,28.375,32.375,34.9375,36.0
1.0,-1.5608028482339873,-3.430112925608865,-1.4318074131051859,-0.08536426901873888,0.024070689202353692,-0.07103739749007917,-0.40380652752745183,-0.33231111428556087,0.08512527589967225,-3.0711412636268016,0.624434247258423,0.0002971404359383276,-0.17480553633881607,-0.02177814507338363,0.0012034762380062145,0.03889116055004509,0.0007948170540549907,0.009256602711995812,0.4322952330112457,-1.4074682456306,1.9340480009662073,-2.091464181939596,-1.5769503752337855,2.4079091548919678,-0.08487610518932343,0.34726786613464355,-0.425513356924057,0.09335878491401672,-0.03676518797874451,-0.09367991983890533,-0.3447650372982025,0.8044517636299133,-9.097966194152832,1.0216394662857056,47.66001510620117,-1.0692663192749023,-1.506012201309204,-3.753262519836426,0.04178551211953163,-0.3331988453865051,-0.10013265907764435,28.0,28.875,28.375,32.375,34.9375,36.0
1.0,-0.7364963844793195,-2.168689836584285,-1.1033937531028457,-0.07341199714916027,0.06008652158526477,-0.08779526398301114,-0.4048803203418368,-0.3324519436063649,0.08512685174158494,-3.0709240044492776,0.6242373821182365,0.00041145045987864954,-0.175672767527459,-0.021665109749349695,0.0008940293642855099,0.04360845147729221,-0.004486526859442505,0.005389761725766495,0.43198341131210327,-1.4059892457774659,1.9322541395770472,-2.091125627557272,-1.5771310965167444,2.407538890838623,-0.08437207341194153,0.3528710603713989,-0.43392086029052734,0.1029425859451294,-0.038821861147880554,-0.08929376304149628,-0.05746084079146385,0.3447650372982025,-9.078812599182129,1.0082138776779175,47.66628646850586,-1.143733263015747,-1.6045925617218018,-3.5779190063476562,-0.007812390569597483,-0.31065136194229126,-0.0969361811876297,28.0,28.875,28.375,32.375,34.9375,36.0
1.0,0.12355216774416933,1.1114533054445936,-1.118072479245754,0.06715467136466974,-0.01029890160272515,-0.08956780387225777,-0.405940763024936,-0.3325758932404932,0.08509516347725479,-3.0706291516737205,0.6242186352595023,0.00040651799545977604,-0.17628072295147545,-0.01998713895556513,-0.001463736686693434,0.0512475974927825,-0.017295336106544,-0.005740451173290556,0.431466668844223,-1.4037996542504807,1.9296577612506312,-2.090545793572897,-1.577371899281637,2.407050848007202,-0.08663284778594971,0.36252906918525696,-0.44385212659835815,0.11807049065828323,-0.04037708789110184,-0.08040584623813629,-0.07661445438861847,-0.13407529890537262,-8.791508674621582,1.0484960079193115,47.6707649230957,-1.034854769706726,-1.7854297161102295,-3.4580283164978027,-0.1350530982017517,-0.30425161123275757,-0.2074304223060608,28.0,28.875,28.375,32.375,34.9375,36.0
1.0,-0.2625727365127257,0.6303592142600652,-0.9442272368043131,0.05902474051717976,-0.008972640725345513,-0.07920786686446239,-0.40664877843611213,-0.33266143545032373,0.08506359044467862,-3.0703877771344845,0.6242642881297837,0.0002927791893047358,-0.17653928519542733,-0.018457459841913538,-0.0033477960763039845,0.05736487284091818,-0.023364732971104002,-0.010492891435763763,0.4311183989048004,-1.402283714418747,1.9278643766986292,-2.090077062646383,-1.5775168577777308,2.406764030456543,-0.08757560700178146,0.3678913414478302,-0.4477599561214447,0.12469878792762756,-0.04340166226029396,-0.0765688568353653,-0.2298433631658554,-0.3447650372982025,-8.829815864562988,0.9746445417404175,47.68419647216797,-1.0242207050323486,-1.9182970523834229,-3.4860682487487793,-0.22054418921470642,-0.2638207972049713,-0.28783118724823,28.0625,28.875,28.375,32.375,34.9375,36.0625
1.0,-1.6381529297217605,-0.9256601708456261,-1.6660264424271245,-0.019468869768246706,0.07357358021066869,-0.09201538600470707,-0.40770951239937603,-0.332752616546285,0.08501834151254728,-3.0699637199051453,0.6242898316833739,6.783641882191979e-05,-0.1826569046784783,-0.018443444946128873,-0.0012302527883383688,0.05585041447509349,-0.010842521076741145,-0.015485440083955651,0.4305536150932312,-1.4000256967595597,1.9251626173602503,-2.0892778835692347,-1.5777700583087366,2.4062728881835938,-0.08998905122280121,0.37007278203964233,-0.4541242718696594,0.11686025559902191,-0.047323644161224365,-0.07394564151763916,-0.19153612852096558,-0.38307225704193115,-9.232041358947754,1.0037368535995483,47.671661376953125,-0.9802815318107605,-1.7533522844314575,-3.62968373298645,-0.20271417498588562,-0.2082834392786026,-0.38048064708709717,28.0625,28.875,28.375,32.375,34.9375,36.0625
1.0,-2.417115783182264,-1.8434363409525898,-1.846948739559445,-0.0408007813652756,0.08868165159271431,-0.0800194179859689,-0.40840845148519517,-0.33282365546884174,0.0849814531406585,-3.0696655157838593,0.6243042854095688,-5.377480751680552e-05,-0.18765554680417296,-0.019447847206995474,-3.759451447141379e-05,0.05186310919796482,-0.0022212551497314955,-0.018428567319509356,0.4302169680595398,-1.39851068079982,1.9233678022967737,-2.0887662372984828,-1.5779622236834925,2.4059858322143555,-0.09207218140363693,0.3735981285572052,-0.4598305821418762,0.10951951146125793,-0.04734868183732033,-0.07307161390781403,-0.47884035110473633,0.038307227194309235,-9.423578262329102,0.9835984706878662,47.654640197753906,-0.9785294532775879,-1.848759412765503,-3.568317413330078,-0.09111203253269196,-0.14521726965904236,-0.43596306443214417,28.0625,28.875,28.375,32.375,34.9375,36.0625
1.0,-1.7708583494148264,-2.6845701523074235,-3.201524947760442,-0.060361126086628775,0.09281141263951816,-0.09241512742565898,-0.4094816846309997,-0.3329037667622634,0.08490963321584208,-3.0691962812018923,0.6244081869806097,-0.00021743995335539245,-0.1868142284731143,-0.019338056333223358,-0.004426857556519048,0.055503466244272284,-0.011760573290017388,-0.010035579920117582,0.4296531081199646,-1.3962139946273346,1.9206917921649378,-2.088046213189596,-1.5782621542560022,2.405550718307495,-0.09155838191509247,0.3826264441013336,-0.46181899309158325,0.11255868524312973,-0.0467655248939991,-0.0809393972158432,-0.8236054182052612,0.4405331015586853,-9.921571731567383,1.012690782546997,47.67613983154297,-0.9942861795425415,-2.0328376293182373,-4.0174479484558105,-0.0315091572701931,-0.12227821350097656,-0.4590153694152832,28.0625,28.875,28.375,32.375,34.9375,36.0625
1.0,-2.992962831525457,-4.284248769283411,-3.0081513146075687,-0.1356002448841531,0.09274268095608998,-0.07588508463236952,-0.4102529616773199,-0.3329590345527312,0.08490214663076448,-3.0689412828923213,0.6243839700610981,-0.00020677985273822864,-0.18698373446221841,-0.019343748630290068,-0.0022905473039218395,0.0545305872246626,-0.01574705312983469,0.0010043474712624761,0.42924490571022034,-1.3946764481118699,1.9188020865069788,-2.0875517330565394,-1.5784772078143519,2.4051623344421387,-0.09286115318536758,0.38142433762550354,-0.46824759244918823,0.12326795607805252,-0.044308871030807495,-0.09329431504011154,-0.6512228846549988,0.5554547905921936,-10.228029251098633,1.0305933952331543,47.67882537841797,-0.8665177822113037,-1.8713374137878418,-4.170289993286133,-0.11896108090877533,-0.09649335592985153,-0.366794228553772,28.0625,28.875,28.375,32.375,34.9375,36.0625
1.0,-1.1106851134584228,-2.971877010400146,-3.194407661618868,-0.07356855354148031,0.04070701431777195,-0.07183387679929629,-0.4114080344050953,-0.33308629140726304,0.08489989594996561,-3.068648648137252,0.6242760193462886,-0.00019194128252054344,-0.18984805466951937,-0.020097176066156915,-0.0025453695538165816,0.05344444575890939,-0.02416588298366382,0.009836342118031319,0.42867982387542725,-1.3923551750234147,1.9159296194659632,-2.086830278436178,-1.5787399450885218,2.4045703411102295,-0.0960359200835228,0.3906894028186798,-0.4819231629371643,0.13472245633602142,-0.03993428498506546,-0.10532324016094208,-0.3064578175544739,0.38307225704193115,-10.132261276245117,0.932121217250824,47.6707649230957,-0.8213074207305908,-1.9885711669921875,-3.7297511100769043,-0.32187461853027344,-0.12593969702720642,-0.18099737167358398,28.0625,28.875,28.375,32.375,34.9375,36.0625
1.0,-0.7904478231576137,-2.2037305628035315,-2.5700721330792016,-0.056812860438703885,0.043467603594604366,-0.07547304388505685,-0.4126047629101659,-0.33321353036404466,0.08491380998017864,-3.0683980617126636,0.6242051154246201,-0.00020235149282792246,-0.19625342142969054,-0.02254245212408125,-0.0014270437056028912,0.04532566072585883,-0.01482978885670566,0.003101194539661886,0.42805516719818115,-1.3899988395026703,1.9129646460162562,-2.0860678158202113,-1.5789545218097132,2.4039363861083984,-0.09850796312093735,0.39695242047309875,-0.49057358503341675,0.1252223700284958,-0.03648218512535095,-0.10107650607824326,0.15322890877723694,0.019153613597154617,-9.84495735168457,0.9365981817245483,47.6707649230957,-0.762553334236145,-2.0840063095092773,-3.9213902950286865,-0.25036078691482544,-0.1732884645462036,-0.12860330939292908,28.0625,28.875,28.375,32.375,34.9375,36.0625
1.0,-1.026805701748337,-1.5258759249591476,-2.631633570186583,-0.038339306483610294,0.018418292485815033,-0.0707034248398418,-0.41339983888114806,-0.33333306516078814,0.08491044674042328,-3.068281512216619,0.6242026373155005,-0.00017725654549331438,-0.20249068146381705,-0.025450832360910294,0.002569711237792056,0.03749936166942334,0.0006475478851217909,-0.006120537753624922,0.4276832044124603,-1.3884010922959824,1.9110029379474085,-2.085652013818258,-1.579062287007467,2.4035794734954834,-0.09855856001377106,0.39760249853134155,-0.4989200234413147,0.11564020812511444,-0.03578100726008415,-0.09190499782562256,-0.038307227194309235,0.019153613597154617,-9.787496566772461,0.9052700400352478,47.65284729003906,-0.7193195223808289,-1.9514081478118896,-3.583186388015747,-0.10034970939159393,-0.21755070984363556,-0.23828861117362976,28.0625,28.875,28.375,32.375,34.9375,36.0625
1.0,-1.2966248957830033,-2.510497963588421,-2.575848419382466,-0.028440746906267102,0.019609305213149783,-0.06736193595805892,-0.41463711719432833,-0.33348783246167363,0.08497364362531976,-3.0680594817340103,0.6242336127665776,4.8464971697635165e-05,-0.20233026394634043,-0.025471574080595735,-0.0009209052156313325,0.04077800721803456,-0.006435491764651115,-0.009861337385261987,0.42710748314857483,-1.3860683751157303,1.907954517995016,-2.0849324665465296,-1.5793264547931116,2.4030542373657227,-0.09794687479734421,0.4057657718658447,-0.5020187497138977,0.1183747947216034,-0.035813603550195694,-0.08755175769329071,-0.19153612852096558,0.1149216815829277,-9.634267807006836,0.9410752058029175,47.66449737548828,-0.7416279315948486,-1.906600832939148,-3.8508355617523193,-0.016382960602641106,-0.25256937742233276,-0.30888983607292175,28.0625,28.875,28.375,32.375,34.9375,36.0625
1.0,-0.9971846643651014,-1.7240302674026626,-2.4643143831646883,-0.04875766928407463,0.04787850232819149,-0.07570166264496905,-0.4154529371212272,-0.33359784230745626,0.08497663818131898,-3.0679063417882633,0.6243140903106524,6.350194510514356e-05,-0.20511537636632943,-0.02700473580625333,0.0019847615450968637,0.03883926998805809,-0.003355138990756185,-0.010462787400113666,0.42671167850494385,-1.3844456535628815,1.90593129793276,-2.084463735620016,-1.5794461409198206,2.4027302265167236,-0.0974770188331604,0.40710151195526123,-0.5119515061378479,0.1233491450548172,-0.03534214198589325,-0.08647933602333069,0.07661445438861847,0.28730422258377075,-9.691728591918945,0.9746445417404175,47.6680793762207,-0.8788754940032959,-1.859487771987915,-3.7315006256103516,0.016245927661657333,-0.27272477746009827,-0.3586043119430542,28.0625,28.875,28.375,32.375,34.9375,36.0625
1.0,-0.6308805249847855,-2.2226461861468474,-1.9807875126078098,-0.055705415511001215,0.02696296219650177,-0.07760060209330141,-0.4166860540815938,-0.33373861019282425,0.08499888608424677,-3.0676084833965107,0.6243596293856281,0.00010302400327742948,-0.2017581283373223,-0.02543436092770102,0.0005878788770490784,0.04753088068095145,-0.01948753976699836,-0.004425368564953611,0.4261120557785034,-1.3820187461427231,1.9028366247760218,-2.0836545429625453,-1.57969838777651,2.40220046043396,-0.09637432545423508,0.4105542004108429,-0.5184872150421143,0.14463312923908234,-0.036609020084142685,-0.09140067547559738,-0.1149216815829277,0.38307225704193115,-9.461885452270508,0.965690553188324,47.6707649230957,-0.9215825796127319,-1.6492555141448975,-3.8653290271759033,-0.16159752011299133,-0.34452348947525024,-0.3543570637702942,28.0625,28.875,28.375,32.375,34.9375,36.0625
1.0,-0.5560049263616511,-1.5166672825634813,-1.1491789864574757,-0.050396981352432105,0.02859004089111629,-0.08336458388789646,-0.4175316958380365,-0.33388164364441303,0.08505303874994963,-3.067541017216998,0.6242818851031376,0.00016778038662354383,-0.20397749651234567,-0.026463412271607034,0.0007084649553925024,0.0486771834871897,-0.021806612451457645,0.009906726275589695,0.4255363345146179,-1.379553647046425,1.899630371724264,-2.082839151422018,-1.5798667112933558,2.401548147201538,-0.09579618275165558,0.4169427156448364,-0.5286245942115784,0.15080682933330536,-0.03682192787528038,-0.1051487848162651,0.0,0.2106897532939911,-9.040505409240723,1.012690782546997,47.66360092163086,-1.080779790878296,-1.6022635698318481,-3.724438190460205,-0.25785523653030396,-0.40727144479751587,-0.19916151463985443,28.0625,28.875,28.375,32.375,34.9375,36.0625
1.0,-1.4872440639343725,-1.8702059549374406,-0.6474765819788076,-0.04053046600502533,0.06026615275551585,-0.07619029845629953,-0.41876355860007913,-0.3340336537052966,0.08504870368718398,-3.067234406883056,0.6241510775402165,4.886640559323282e-05,-0.21164645544624044,-0.02783417964442042,0.0027839169118513765,0.043500295562637785,-0.005814343873239794,0.0124374006108708,0.42515167593955994,-1.377870799308159,1.8974908033954065,-2.0821973286070765,-1.5800235907184046,2.401162624359131,-0.09808702766895294,0.421064555644989,-0.5358183979988098,0.1371077448129654,-0.03881717473268509,-0.10994419455528259,-0.13407528400421143,0.24899697303771973,-8.676587104797363,0.9567419290542603,47.66449737548828,-0.9539759159088135,-1.6743788719177246,-3.566502094268799,-0.13919486105442047,-0.41341185569763184,-0.07117316871881485,28.0625,28.875,28.375,32.375,34.9375,36.0625
1.0,-1.1245392742005118,-1.4779448157436224,-0.16326299246239137,-0.03687698295914939,0.0688360426424078,-0.08617287809524832,-0.4200700612478624,-0.3342137132909944,0.08505085598115286,-3.0670038315587593,0.6240479835789867,0.00013442863280270192,-0.21731143475582235,-0.027698952344411828,0.005159641784960432,0.04235735232987477,0.004945072538106187,0.0024993523164601184,0.4245629608631134,-1.3752640944770356,1.894226376210348,-2.081444402734274,-1.5802648703204554,2.4005420207977295,-0.10042576491832733,0.42289724946022034,-0.5433977246284485,0.13261708617210388,-0.042207613587379456,-0.10231137275695801,-0.3064578175544739,0.17238251864910126,-8.504204750061035,1.0417832136154175,47.700321197509766,-0.9593106508255005,-1.4015991687774658,-3.641541004180908,0.03718023747205734,-0.44393301010131836,-0.08240829408168793,28.0625,28.875,28.375,32.375,34.9375,36.0625
1.0,-1.1868127889441544,-0.7146724033131543,-0.4277229728671048,-0.0012527539958286302,0.037687517234248805,-0.07633252335351363,-0.4208981413000706,-0.3342975109780611,0.08500419825386862,-3.0667460937590683,0.6239572792861511,1.684996511380752e-05,-0.2190868927259028,-0.026246145484746644,0.004173779463923883,0.04998834614123436,0.0016144113635392073,-0.006196458166639815,0.42415475845336914,-1.3735084545663376,1.8921211401568812,-2.080878873864645,-1.5804465452777308,2.4001128673553467,-0.10088197141885757,0.42933419346809387,-0.5511256456375122,0.14015065133571625,-0.04776066541671753,-0.09401323646306992,-0.49799394607543945,0.19153612852096558,-8.523358345031738,0.965690553188324,47.67792892456055,-0.9329450130462646,-1.4004614353179932,-3.5365962982177734,0.059509918093681335,-0.4084351658821106,-0.14937475323677063,28.0625,28.875,28.375,32.375,34.9375,36.0625
1.0,-1.3090299923879671,-0.26246144693052487,-0.9181722230324083,0.035613190656574985,0.020536764617213727,-0.06135619170800405,-0.42218742364456596,-0.3344577640634904,0.0849906964101656,-3.066331067986982,0.623966276947196,-4.500657258623363e-05,-0.2143940434784913,-0.022596856477257097,-0.0007008162526705402,0.06646651827200258,-0.020316632537664987,-0.014592317366843577,0.4235914647579193,-1.3708394926837464,1.888763729725973,-2.079925676385397,-1.5807607809649866,2.3996126651763916,-0.09968701750040054,0.43715226650238037,-0.5555290579795837,0.16356582939624786,-0.05368897318840027,-0.08435880392789841,-0.5554547905921936,0.26815059781074524,-8.638279914855957,1.0037368535995483,47.651954650878906,-1.1234666109085083,-1.7152502536773682,-3.739241123199463,-0.20654211938381195,-0.3458736538887024,-0.30933845043182373,28.0625,28.875,28.375,32.375,34.9375,36.0625
1.0,-1.5658924901071694,-1.4257441429881457,-1.1695723504248645,-0.02011138627236543,0.04237561698793524,-0.06330887636609683,-0.42303937784977347,-0.33453851759047043,0.08495846519976841,-3.065977439393597,0.6240069704045452,-0.00021407781793221544,-0.22046174452798084,-0.022309937182498733,0.0017936439113938518,0.06631438021771845,-0.01135638117106397,-0.019585024664784845,0.42318248748779297,-1.3690239650062104,1.8865135351764124,-2.0792085132994593,-1.5809782187091272,2.399277925491333,-0.1026156023144722,0.44046178460121155,-0.5655145049095154,0.1620049774646759,-0.057282570749521255,-0.08224419504404068,-0.24899697303771973,0.15322890877723694,-9.117119789123535,1.0686397552490234,47.67792892456055,-1.0407770872116089,-1.7206450700759888,-3.5656046867370605,-0.25591427087783813,-0.3005158603191376,-0.3885008692741394,28.0625,28.875,28.375,32.375,34.9375,36.0625
1.0,-2.359518834487426,-3.3097339601753464,-2.210723324763464,-0.08876925727907695,0.11077658389934564,-0.06966891845095935,-0.42435014464139864,-0.3346432799274452,0.0849285273617143,-3.065439061510389,0.624039476443244,-0.00030839466116187056,-0.2263581413870954,-0.022169621932936808,-0.0017035480617931694,0.06691551850113432,-0.0032487618876617377,-0.01640629571480952,0.42255762219429016,-1.3663168114474793,1.8831194082843226,-2.078172822991842,-1.5813754240619105,2.398747682571411,-0.10473363101482391,0.45158976316452026,-0.5684623122215271,0.14656862616539001,-0.06129277125000954,-0.08748260140419006,-0.5171475410461426,0.15322890877723694,-9.672574996948242,0.999259889125824,47.6895751953125,-0.9057571291923523,-2.084608316421509,-3.8717546463012695,-0.08620847761631012,-0.17365193367004395,-0.48704469203948975,28.0625,28.875,28.375,32.375,34.9375,36.0625
1.0,-1.4423333850733562,-2.348574562956481,-2.4544267088727483,-0.07618698702743922,0.09225778091951253,-0.08296477788550069,-0.42527852894952156,-0.334729780604838,0.08492166933812006,-3.0651918912081664,0.6241134280913697,-0.0002432592981227337,-0.23038517556188337,-0.023650592399400153,-0.00015722035925031246,0.06168273813000152,-0.0010196577482804161,-0.0009153679307924295,0.4219450056552887,-1.363577814107277,1.8796880880938929,-2.0773936710753382,-1.581710163746969,2.398153305053711,-0.10691330581903458,0.45574483275413513,-0.5784236192703247,0.14792482554912567,-0.05761856585741043,-0.10518311709165573,-0.6129156351089478,0.26815059781074524,-9.883264541625977,1.0484960079193115,47.70390319824219,-0.7896182537078857,-2.0868911743164062,-3.897958517074585,0.0015096751740202308,-0.1329854130744934,-0.3314732015132904,28.0625,28.875,28.375,32.375,34.9375,36.0625
1.0,0.07064531181329894,-0.8614010660218192,-3.233470409901593,-0.030097688717943452,0.01601160650993936,-0.08837515038488399,-0.4266557486660206,-0.33486843920341275,0.08490327388884616,-3.0648037692360406,0.6240368720842586,-0.00017316416873001012,-0.22514271688164417,-0.022015931174055817,-0.00453548951075688,0.06930190684054949,-0.021507859630424928,0.00903754628757733,0.42146551609039307,-1.3617265683463593,1.8773568312274378,-2.07671656231069,-1.581949536000387,2.397742509841919,-0.10605981200933456,0.4608841836452484,-0.5792185664176941,0.16523395478725433,-0.05625864863395691,-0.11428745836019516,-0.1149216815829277,0.17238251864910126,-10.228029251098633,1.039547324180603,47.6707649230957,-0.8581652641296387,-2.0441250801086426,-4.059268951416016,-0.11948622763156891,-0.1274879425764084,-0.1930348128080368,28.0625,28.875,28.375,32.375,34.9375,36.0625
1.0,-0.45123701067451394,-2.165435962709153,-3.0371043202230315,-0.059498407573173484,0.05416160910726047,-0.07659162540031429,-0.4280066432025516,-0.33501157053150826,0.08489238681347361,-3.064374564150746,0.6238117634892619,-0.00035336996155674387,-0.22759176055712194,-0.023787787557096696,-0.004977666881265523,0.0659742704902115,-0.02980658123100482,0.0024175164061459586,0.4208407700061798,-1.35892807066951,1.8737652937518519,-2.0755650005736292,-1.5822714010821741,2.3970370292663574,-0.1080358549952507,0.4702706038951874,-0.5930711030960083,0.1758747547864914,-0.049868300557136536,-0.10968459397554398,-0.038307227194309235,0.1149216815829277,-10.285490036010742,1.0708755254745483,47.64657974243164,-0.8527228832244873,-2.344940185546875,-3.9347872734069824,-0.34868746995925903,-0.15050634741783142,-0.1367407739162445,28.0625,28.875,28.375,32.375,34.9375,36.0625
1.0,-2.452652899015639,-3.321421414093938,-2.9451233827816665,-0.1004199231803495,0.08006755880660908,-0.06921425596877255,-0.4289449905116708,-0.3351009531992199,0.08492132310949665,-3.0641710207272554,0.623848703912576,-0.0002805667765226879,-0.23465222095662364,-0.027398573967324837,-0.0008189202959887889,0.053967449565363514,-0.009236856927010121,-0.008270985138792875,0.42037275433540344,-1.3571418982795258,1.8714082876788538,-2.0749246082701625,-1.5824621359454554,2.396620750427246,-0.10837777704000473,0.46958622336387634,-0.5986711382865906,0.1585490107536316,-0.04729844629764557,-0.09935862571001053,0.24899697303771973,0.05746084079146385,-10.323797225952148,1.0574499368667603,47.687782287597656,-0.8770265579223633,-2.165410041809082,-4.006014823913574,-0.1922059953212738,-0.17348119616508484,-0.24719974398612976,28.0625,28.875,28.375,32.375,34.9375,36.0625
1.0,-0.2970455330966702,-1.4511044704773006,-3.26999196521104,-0.05727770631305118,0.028313962515954146,-0.08515905131388825,-0.4303577634740246,-0.3352815982621735,0.08494781405101698,-3.0639074862894797,0.6239043295964187,-0.0001402041798796479,-0.2381656714360391,-0.029423786879079084,-0.0014159823569169958,0.052148904032109214,-0.006800208318356952,-0.009084614780550546,0.4197372794151306,-1.3543940794518967,1.8678396383868616,-2.0740391216673792,-1.5827263037311,2.396057367324829,-0.10743624716997147,0.47745996713638306,-0.6075457334518433,0.15654778480529785,-0.04666592925786972,-0.09760524332523346,0.09576806426048279,0.24899697303771973,-10.266336441040039,1.0641627311706543,47.681514739990234,-0.9450938105583191,-2.0705342292785645,-4.105198860168457,-0.0362299308180809,-0.19236065447330475,-0.3139813542366028,28.0625,28.875,28.375,32.375,34.9375,36.0625
1.0,-0.10516567408109923,-1.825699334611433,-2.1519331732773797,-0.05328481596979182,0.015013968432153326,-0.08117678961374113,-0.4313025189637569,-0.3354172095558884,0.08499100371988111,-3.0637245234742827,0.6239219471656109,-6.039615693189758e-05,-0.23611939660854114,-0.028841861661805954,-0.0010735974620853074,0.05542589744085388,-0.016601363228211333,-0.010034991961607384,0.4193412959575653,-1.352559657101967,1.8653739134417933,-2.073351045648092,-1.5829060713397425,2.395698308944702,-0.10708463937044144,0.4779188334941864,-0.6130649447441101,0.17187148332595825,-0.04564983397722244,-0.09631166607141495,-0.3447650671005249,0.4405331015586853,-9.787496566772461,1.0753525495529175,47.63404083251953,-0.9663243293762207,-1.8897912502288818,-4.100398540496826,-0.13443750143051147,-0.24768942594528198,-0.3702811896800995,28.0625,28.875,28.375,32.375,34.9375,36.0625
1.0,-1.3627431746028522,-2.149709964524235,-1.118479194319964,-0.06469878658592891,0.023025062021465162,-0.07857808675059874,-0.43273967929127893,-0.3356031712280558,0.08501079005279852,-3.0634077452087825,0.6239404542066296,-8.602436368821931e-05,-0.2390553596969235,-0.0303798857117027,0.0015752173058518417,0.053890459703147715,-0.016744752159963933,-0.001230606379459126,0.4186941087245941,-1.3496930462173005,1.8616250197040003,-2.0722838840880335,-1.5831573645221155,2.3951075077056885,-0.10691458731889725,0.48133584856987,-0.6265665888786316,0.18129870295524597,-0.04431599751114845,-0.10495097190141678,-0.05746084079146385,0.3447650372982025,-9.289502143859863,1.0977320671081543,47.62777328491211,-1.0880413055419922,-1.7212517261505127,-3.7583794593811035,-0.2760326564311981,-0.30475619435310364,-0.32896023988723755,28.0625,28.875,28.375,32.375,34.9375,36.0625
1.0,-1.1853233419647382,-2.004573777892633,-0.7770802450491425,-0.0819284445861089,0.06530896170187883,-0.08579534422390352,-0.4337329383681852,-0.33575239956365055,0.08506859721665988,-3.063286841499802,0.6239246043183775,4.757146421831409e-05,-0.24894402788162415,-0.032970390055577656,0.0028065561759524895,0.04666833885614254,0.0017729336181424448,0.011832136657940875,0.4180465638637543,-1.3468364489129563,1.8578041235553187,-2.0713077984251917,-1.583398167287008,2.3943822383880615,-0.10885512828826904,0.49017712473869324,-0.6373099088668823,0.1631082147359848,-0.0454598143696785,-0.11994114518165588,-0.1149216815829277,0.28730419278144836,-8.983044624328613,1.0775883197784424,47.63225173950195,-1.0268793106079102,-1.788177490234375,-3.7244272232055664,-0.025340698659420013,-0.32912054657936096,-0.12251076102256775,28.0625,28.875,28.375,32.3125,34.9375,36.0625
1.0,-0.9675555835228686,-1.600446278720031,-0.4819066725763092,-0.050506052525419655,0.05515913159726764,-0.07945421276903886,-0.43525252712111956,-0.33594869310565123,0.08509873167138474,-3.0630778778615833,0.6236643222008901,0.0002593326808551155,-0.25173739513109417,-0.03289400134506683,0.005255128096852798,0.04575838698037247,0.0063989822455835735,0.009369435235806522,0.41761505603790283,-1.3448706281236191,1.855218235646383,-2.070672651330465,-1.5836141745196741,2.3939032554626465,-0.11014305800199509,0.48973917961120605,-0.6436908841133118,0.16530466079711914,-0.04651222005486488,-0.11875496059656143,-0.4213795065879822,0.651222825050354,-8.561665534973145,1.0887781381607056,47.65016555786133,-1.0967020988464355,-1.511601448059082,-3.859450340270996,0.0758131891489029,-0.38999438285827637,-0.06071852147579193,28.0625,28.875,28.375,32.3125,34.9375,36.0625
1.0,-1.4213300876905723,-1.5905061826995024,-0.20684490777516626,-0.03723646077859655,0.047398205941397424,-0.07310222840334125,-0.4367364217440006,-0.33614882371057303,0.08509602899784105,-3.06272743387675,0.6235918424578428,0.00019099694237751272,-0.24650829134810062,-0.02808252447485142,0.0008890362071236125,0.06364524934625389,-0.018414578678331975,-0.006288059737457427,0.41698017716407776,-1.341845766907074,1.851292912160055,-2.069536348382467,-1.5838921705829065,2.393272638320923,-0.11037543416023254,0.4961766302585602,-0.6493350267410278,0.1946089267730713,-0.052654992789030075,-0.10325279086828232,-0.8427590131759644,0.4405331015586853,-8.485051155090332,1.0932551622390747,47.612545013427734,-0.9781142473220825,-1.6105732917785645,-3.85984468460083,-0.12333282828330994,-0.36193856596946716,-0.16835737228393555,28.0625,28.875,28.375,32.3125,34.9375,36.0625
1.0,-1.4238147030296104,-0.9896147957588548,0.4757723853449404,-0.023109569589003915,0.07606177453727801,-0.08804554940834622,-0.4377534325475115,-0.33628958829076566,0.08511709242369661,-3.062522168666743,0.6235897922689276,0.00021637250694623246,-0.25134979327850543,-0.027726750354878635,0.0013931894570014198,0.0675370359749349,-0.017460844119001333,-0.016230928949367854,0.4165481925010681,-1.3398297739079972,1.8486207167254847,-2.0687815151610316,-1.584073845540182,2.3928685188293457,-0.11209100484848022,0.5045692324638367,-0.6628954410552979,0.20056365430355072,-0.05656806007027626,-0.09497376531362534,-0.28730422258377075,0.09576806426048279,-8.33182144165039,1.0350704193115234,47.6313591003418,-0.9679620265960693,-1.6754108667373657,-3.5145678520202637,-0.2473926842212677,-0.33589768409729004,-0.2886480987071991,28.0625,28.875,28.375,32.3125,34.9375,36.0625
1.0,-1.252346077102055,-0.3493249630182972,-0.47217191265817987,0.0007892378232287958,0.06609483068278063,-0.07755672366017971,-0.43927812891896173,-0.3364331981526412,0.08504942776933883,-3.061979092184439,0.6237393616977146,0.00011987534782755671,-0.26121567201875495,-0.027393053844018488,0.0027928661678123154,0.06319593072561945,0.005211149032471285,-0.024907876647078817,0.4158519506454468,-1.3366636049798508,1.844659153615133,-2.0676518879332484,-1.5844596068011683,2.3923418521881104,-0.11657771468162537,0.5086424946784973,-0.6676342487335205,0.17873959243297577,-0.06183961406350136,-0.09070701152086258,-0.038307227194309235,-0.2298433631658554,-8.676587104797363,1.1268244981765747,47.63404083251953,-0.8878774642944336,-1.7250792980194092,-3.636578321456909,0.05470666289329529,-0.2900853157043457,-0.4180983901023865,28.0625,28.875,28.375,32.3125,34.9375,36.0625
1.0,-0.8590882056910845,-0.4541450293367315,-0.8992401741595851,-0.009850511413882625,0.04765001126134828,-0.0952201516256591,-0.44031387051183346,-0.3365483350193023,0.08503298046409749,-3.061638947937975,0.6237181820968863,0.00016829892168825897,-0.26146328345904024,-0.025830048349799208,-0.00048014702815404636,0.0715279793063144,-0.003579233833629559,-0.022624226287750765,0.41543272137641907,-1.3345507395318528,1.8419421354876917,-2.0668822727599085,-1.5847609678851526,2.3919570446014404,-0.11673513054847717,0.5174874663352966,-0.6738638281822205,0.18745946884155273,-0.06595617532730103,-0.0930912122130394,-0.3064578175544739,-0.13407529890537262,-8.925583839416504,1.012690782546997,47.64479064941406,-0.773362934589386,-2.037680149078369,-3.6336660385131836,0.07696652412414551,-0.17972303926944733,-0.49456340074539185,28.0625,28.875,28.375,32.3125,34.9375,36.0625
1.0,0.15321154134957338,0.07903503475803603,-2.0300647154979865,0.019726456035332865,0.008335129878565104,-0.08755575724250221,-0.4418520874548526,-0.3366997468205975,0.08496459240952825,-3.061099044255528,0.6237561619857436,-7.942274783771642e-06,-0.2559142617701811,-0.0226653839535258,-0.0033910256100371863,0.08374950996657964,-0.027493325460170567,-0.0042281797018954015,0.41473835706710815,-1.3313250255635758,1.8378718535052698,-2.0656520328917445,-1.5851338545428675,2.391362428665161,-0.11634974181652069,0.5212571024894714,-0.6795968413352966,0.21590428054332733,-0.06769257038831711,-0.11106088757514954,-0.28730422258377075,-0.19153612852096558,-9.500192642211914,1.1245886087417603,47.660911560058594,-0.8632671236991882,-1.939377784729004,-3.942103862762451,-0.23407292366027832,-0.09479715675115585,-0.3344954550266266,28.0625,28.875,28.375,32.3125,34.9375,36.0625
1.0,-1.0280042416319812,-1.3441310068923054,-2.2719623283412584,-0.03564014376525841,0.030580330825961614,-0.08515027874314442,-0.44286320880844854,-0.33679382407230485,0.08494382748714982,-3.060771457574018,0.6236375446914896,-0.00014814231008401137,-0.26269522976179743,-0.0280080199433134,-0.00478454900027553,0.07089974169295617,-0.017651060863094325,0.00876924787677208,0.4140316843986511,-1.328167275791504,1.833742920552389,-2.064329763452047,-1.5854910055743616,2.390626907348633,-0.1159425675868988,0.5330538749694824,-0.6887175440788269,0.19874870777130127,-0.06016261875629425,-0.12371992319822311,-0.038307227194309235,-0.2298433631658554,-10.20887565612793,0.999259889125824,47.62419128417969,-0.8848791122436523,-2.5063655376434326,-3.954263210296631,-0.09378409385681152,-0.1311003416776657,-0.16719231009483337,28.0625,28.875,28.375,32.3125,34.9375,36.0625
1.0,-2.003166669787491,-3.726549587891886,-3.0410780978656615,-0.12526590183875772,0.11222348433143693,-0.08584125525808348,-0.4444173027520883,-0.3369241931604126,0.0848891437715619,-3.060256146376134,0.6235594868847103,-0.00023990007137274078,-0.2627587877335765,-0.029982898384973884,-0.004605051354598031,0.06661292702181493,-0.018201477246692403,0.004494196696198008,0.4135530889034271,-1.326044963007309,1.8310850302325647,-2.0635396442809046,-1.5857771078692835,2.3901731967926025,-0.11453381180763245,0.5342873930931091,-0.6918476819992065,0.19943338632583618,-0.05601349472999573,-0.11807290464639664,-0.13407529890537262,0.05746084079146385,-10.41956615447998,1.0977320671081543,47.614341735839844,-1.0658254623413086,-2.3450400829315186,-4.136218070983887,-0.043477341532707214,-0.17369869351387024,-0.14338470995426178,28.0625,28.875,28.375,32.3125,34.9375,36.0625
1.0,0.48510533455313926,-1.1720771655287132,-3.819182438818879,-0.019652178226766754,-0.031102140790773038,-0.08646611267924323,-0.4459621693699549,-0.33709201856600846,0.08484090814451134,-3.0598019131646828,0.6235383050830271,-0.00035997418611630563,-0.2593834259773185,-0.029242654133808072,-0.007309756539051973,0.07438040351782728,-0.037809505555685505,-0.007654825909583468,0.41287100315093994,-1.3228536260179062,1.826989475880758,-2.062322279016012,-1.5861132780658167,2.3895423412323,-0.11314667761325836,0.5416321158409119,-0.7014451622962952,0.22289200127124786,-0.055143553763628006,-0.10452792048454285,0.019153613597154617,0.24899697303771973,-10.47702693939209,1.0328292846679688,47.63225173950195,-1.0553890466690063,-2.3503952026367188,-4.102855205535889,-0.24001410603523254,-0.1982038915157318,-0.2927766442298889,28.0625,28.875,28.375,32.3125,34.9375,36.0625
1.0,0.07401648270694317,-2.6937608148861054,-3.531372694895435,-0.05320006448759346,-0.023915971266892138,-0.08897638075697846,-0.4470073614622173,-0.3372147616954266,0.08485203434366625,-3.0595119053661843,0.6234914777547678,-0.0004207720891726385,-0.2652935176238238,-0.030903185192609713,-0.003080918011603273,0.06573917347751025,-0.027619466414180647,-0.010461522322752312,0.41242653131484985,-1.3207427126220246,1.8241522947894495,-2.0614010296263636,-1.5863397757159632,2.3891098499298096,-0.1163855642080307,0.5418463945388794,-0.7117658853530884,0.22013118863105774,-0.05139516294002533,-0.10499745607376099,-0.07661445438861847,0.6129156351089478,-10.381258964538574,1.2096351385116577,47.617923736572266,-0.9727427959442139,-2.3158323764801025,-4.384833335876465,-0.2866387665271759,-0.2681102454662323,-0.33665671944618225,28.0625,28.875,28.375,32.3125,34.9375,36.0625
1.0,-4.16442497022263,-7.584127246062618,-2.2030089689392076,-0.27581644833481855,0.19329606454101986,-0.08932310373323993,-0.4486461046344057,-0.33741007992780325,0.08489615363831521,-3.0591619322181716,0.623526844016092,-0.00039218909693900395,-0.27274924453607113,-0.03294359968034803,-0.0010999661978352243,0.0573763290540169,-0.013422692414120148,-0.013537506418666398,0.4117072522640228,-1.3175408107093354,1.8197949568377894,-2.0600768528380335,-1.5866392294513147,2.388462781906128,-0.11883711069822311,0.5463650226593018,-0.7208234071731567,0.2082495391368866,-0.04950883984565735,-0.10439011454582214,-0.325611412525177,0.8236054182052612,-10.5344877243042,1.1111576557159424,47.625083923339844,-0.902527928352356,-2.090663433074951,-4.346740245819092,-0.07653660327196121,-0.33569666743278503,-0.3937872350215912,28.0625,28.875,28.375,32.3125,34.9375,36.0625
1.0,-1.7026032905443573,-3.4405402492494312,-2.2974662310016645,-0.1377404214604489,0.08994698624181342,-0.1026234732007399,-0.4497660370546739,-0.3375945293544289,0.08492860802278196,-3.0590731932319195,0.6235570591964541,-0.00023949365706822754,-0.2742213669413674,-0.032726448360594816,0.0006366319967461546,0.05951511594796324,-0.01960446012972772,-0.005228625911846405,0.4112636148929596,-1.315380946998932,1.816883389149801,-2.0593649349608363,-1.586771313344137,2.3880512714385986,-0.12006047368049622,0.549935519695282,-0.7336703538894653,0.22385941445827484,-0.04910992085933685,-0.11392943561077118,-0.07661445438861847,0.7469909191131592,-10.017339706420898,1.1089218854904175,47.645687103271484,-0.9271532297134399,-2.197176218032837,-3.9673659801483154,-0.197923481464386,-0.36365893483161926,-0.29154253005981445,28.0625,28.875,28.375,32.3125,34.9375,36.0625
1.0,0.739285034233728,0.06700350993053403,-1.3743935077700344,0.03044096142595565,-0.06330475839558333,-0.105444780435398,-0.45151452839156686,-0.3378397530808393,0.08500626538387523,-3.058862424345684,0.6233655769083729,0.00012234741225055054,-0.28070130703567936,-0.0344621681430198,0.005221424463267235,0.05565457634608844,-0.003036653566486261,0.008527445321081878,0.4105810225009918,-1.3120725613883515,1.812333885823385,-2.058183332482809,-1.5871203581439417,2.3872792720794678,-0.11942894011735916,0.5498464703559875,-0.7441093325614929,0.21738369762897491,-0.052392467856407166,-0.12701916694641113,-0.4213795065879822,0.5554547905921936,-9.059659004211426,1.140255331993103,47.61344528198242,-0.8884528279304504,-1.7713942527770996,-4.079658508300781,-0.10912266373634338,-0.4344201982021332,-0.10868652909994125,28.0625,28.875,28.375,32.3125,34.9375,36.0625
1.0,-2.328995460770152,-2.592236952145514,0.19811184675429783,-0.09146157720793226,0.09456355069050097,-0.0965678891034103,-0.45267065013145164,-0.33800733615448053,0.08507646828135113,-3.0587500548655138,0.6232827248783429,0.00024147064575156987,-0.2867404116782168,-0.034224578753898185,0.005832480817727928,0.05758375686960424,0.005828484852348219,0.003451553455372236,0.4101013243198395,-1.3098883789828797,1.8092559019671839,-2.057286878625387,-1.587278191243307,2.3867642879486084,-0.12087308615446091,0.5564354658126831,-0.7537739276885986,0.2131357043981552,-0.05769888684153557,-0.12331785261631012,-0.4596867263317108,0.019153613597154617,-8.619126319885254,1.1290656328201294,47.62150192260742,-0.8178286552429199,-1.7675905227661133,-3.63118839263916,0.08133804053068161,-0.40661758184432983,-0.05625411868095398,28.0625,28.875,28.375,32.3125,34.9375,36.0625
1.0,-1.4277638571339997,0.9842472002847152,0.84507533717391,0.03266234916253219,0.09530729192690807,-0.1115453298337185,-0.4544414941762976,-0.3382292090093701,0.08512424792552842,-3.058458792572537,0.6233974304531898,0.0005042219348850179,-0.2859214146978976,-0.03067246393018429,0.005739412388444838,0.07069018356608063,-0.006960514333541074,-0.01380036807017665,0.4093584716320038,-1.3065061134151001,1.8046577612506312,-2.056068559686178,-1.587604824696676,2.3861348628997803,-0.1218031495809555,0.5606958866119385,-0.7659290432929993,0.23819947242736816,-0.06442782282829285,-0.10690557211637497,-0.325611412525177,-0.38307225704193115,-8.044517517089844,1.1022090911865234,47.651954650878906,-0.7041852474212646,-1.682819128036499,-3.525703191757202,-0.040299344807863235,-0.3903582692146301,-0.19787725806236267,28.0625,28.875,28.375,32.3125,34.9375,36.0625
1.0,0.9109079554724362,3.5972355799243374,0.15604009529228763,0.1858683979522062,-0.04985084580269774,-0.11249236042881608,-0.45615448079998766,-0.33843991656598477,0.08511081483274807,-3.0580028658227763,0.6233341413671774,0.0005600630351502826,-0.287596950239495,-0.03059581645005646,0.0029108194451033906,0.07984118081583337,-0.00511607030174989,-0.019328707782678964,0.4086892306804657,-1.303038404589035,1.8000505606280726,-2.054704805413717,-1.5880163351642054,2.385490894317627,-0.11755523830652237,0.5693679451942444,-0.7718157768249512,0.23747755587100983,-0.0735069066286087,-0.09699619561433792,-0.24899697303771973,-0.6895301342010498,-7.967903137207031,1.0820653438568115,47.66360092163086,-1.0824909210205078,-1.8851442337036133,-3.709308624267578,-0.02969670668244362,-0.29215484857559204,-0.3620927929878235,28.0625,28.875,28.375,32.3125,34.9375,36.0625
