Tylouw/Master_Thesis_Code/test_recorded_data/real_test/real_testinsertion_8_2026-02-20_16-42-40.csv
num_insertion,tcp_force_x[N],tcp_force_y[N],tcp_force_z[N],tcp_force_rx[Nm?],tcp_force_ry[Nm?],tcp_force_rz[Nm?],tcp_pose_x[m],tcp_pose_y[m],tcp_pose_z[m],tcp_pose_rx[rot_vec_x],tcp_pose_ry[rot_vec_y],tcp_pose_rz[rot_vec_z],tcp_velo_x[m/s],tcp_velo_y[m/s],tcp_velo_z[m/s],tcp_velo_rx[rot_vec_x/s],tcp_velo_ry[rot_vec_y/s],tcp_velo_rz[rot_vec_z/s],q1[rad],q2[rad],q3[rad],q4[rad],q5[rad],q6[rad],qd1[rad/s],qd2[rad/s],qd3[rad/s],qd4[rad/s],qd5[rad/s],qd6[rad/s],tool_acc_x,tool_acc_y,tool_acc_z,current_of_whole_robot[A],voltage_of_whole_robot[V],current_J1[A],current_J2[A],current_J3[A],current_J4[A],current_J5[A],current_J6[A],temp_J1[C],temp_J2[C],temp_J3[C],temp_J4[C],temp_J5[C],temp_J6[C]
1.0,0.6574752521154782,1.020216818105835,0.5087543575683119,0.022235389243489674,0.013919730339888794,-0.04432378779158102,-0.3736321672830522,-0.3288044755561457,0.08491006936573853,-3.0784605324414813,0.6248969535505726,-0.0003259494527437714,-0.00145255790471574,-0.0007392775472260601,-0.0006401906073247506,-0.002432638429193182,0.004769541147687569,9.342572006755094e-05,0.4485582113265991,-1.4686339882067223,2.0071538130389612,-2.1074663601317347,-1.5706613699542444,2.42349910736084,-1.0568421397495474e-18,0.0016215001232922077,0.0016555307665839791,-0.008630111813545227,0.00010747403575805947,-9.184260852634907e-05,0.05746084079146385,-0.038307227194309235,-8.71489429473877,0.7374180555343628,47.699424743652344,-0.04682670161128044,-3.0080373287200928,-2.680873155593872,-0.3886044919490814,0.14715184271335602,-0.18098336458206177,28.0,28.9375,28.375,32.375,35.0,36.0625
1.0,0.9339173827591931,1.2021150842433626,-0.32236246956562226,0.046633541644846475,-0.017184831289830123,-0.03997946939340381,-0.37362130169703095,-0.32879112910505115,0.08487270830383839,-3.0784420160603934,0.6247777534479327,-0.00034946686504167435,-0.0004538455246486268,-0.00025382356495466413,0.00037643626303952523,-0.0012581788841126535,0.00236559155922566,8.930775546428543e-05,0.4485582113265991,-1.4685990673354645,2.007214371358053,-2.1075245342650355,-1.5706856886493128,2.423427104949951,-1.9022784981649077e-22,-0.0007762248860672116,0.0005492272321134806,-0.0024505979381501675,0.00010339704022044316,-8.924078429117799e-05,0.05746084079146385,0.05746084079146385,-9.232041358947754,0.6747510433197021,47.67524337768555,0.01325792446732521,-2.875988006591797,-2.5490503311157227,-0.4450669586658478,0.15344256162643433,-0.17053580284118652,28.0,28.9375,28.375,32.375,35.0,36.0625
1.0,-0.5136972588173291,-0.9302071128407825,-0.7887833790897528,-0.021597564574363362,0.0337458078928254,-0.034596809610572786,-0.3736292520898198,-0.3287946777003125,0.0848580278710298,-3.0783911041757364,0.6248065680112391,-0.0004408964919508557,-0.005627087917827076,-0.0015181017924452114,-0.001876754558626307,0.0010589308266042263,-0.002490986570637009,-0.002195486346501159,0.448557585477829,-1.4685212311199685,2.007148567830221,-2.1074634991087855,-1.5706856886493128,2.4234509468078613,-0.002337850397452712,0.01601371169090271,-0.01328995916992426,-2.037588092207443e-05,9.778032836038619e-05,-0.00013207303709350526,-0.038307227194309235,0.19153612852096558,-9.461885452270508,0.6546126008033752,47.649269104003906,-0.36876749992370605,-2.7372567653656006,-3.1645655632019043,-0.4371189475059509,0.11112116277217865,-0.23325204849243164,28.0,28.9375,28.375,32.375,35.0,36.0625
1.0,-0.7698079320000376,-1.6232938580086316,-1.0444940457012302,-0.07365521368736125,0.0686085340742382,-0.05280029532880818,-0.37360449614174895,-0.32878403588974475,0.08481872279039354,-3.078320463199723,0.6247709917801916,-0.0006615776043251726,-0.0064939485567935724,-0.0011609782474468152,-0.002397697789925352,0.002660562478719104,-0.005762248178464465,0.002675250232133426,0.4485448896884918,-1.4684481483748932,2.0071361700641077,-2.107366224328512,-1.5706613699542444,2.4234249591827393,-0.003781331703066826,0.019618812948465347,-0.01688692346215248,0.0036128528881818056,6.967953231651336e-05,-0.006444587372243404,-0.363918662071228,0.727837324142456,-9.787496566772461,0.7239871025085449,47.6680793762207,-0.3334972858428955,-2.259960651397705,-3.5347771644592285,-0.46548783779144287,0.08725060522556305,-0.2024303823709488,28.0,28.9375,28.375,32.375,35.0,36.0625
1.0,-1.874419666759961,-2.597858119301339,-1.394752665911753,-0.09621658139690398,0.09282526210277467,-0.05441029385734066,-0.373663770446094,-0.3287933002954187,0.08485032441317716,-3.078342653501624,0.624814446108642,-0.0005992311265944988,-0.00939515541709974,-0.0016189255091347556,-0.0007747247291325016,0.0008251999192951877,-0.0019207753575321666,0.0011325690552397311,0.4485083520412445,-1.4683999133161088,2.007002655659811,-2.107330938378805,-1.5706613699542444,2.423412799835205,-0.00554426945745945,0.02092127501964569,-0.021920494735240936,0.003086621407419443,4.585687565850094e-05,-0.006661430466920137,-0.4596867263317108,0.7086837291717529,-9.864110946655273,0.6926589012145996,47.6734504699707,-0.5033112168312073,-2.2734832763671875,-3.5586962699890137,-0.4454112946987152,0.05960879474878311,-0.2189963459968567,28.0,28.9375,28.375,32.375,35.0,36.0625
1.0,-0.6121671677823484,-0.7000069223216995,-1.0713556682990881,-0.05157466763175533,0.08813129121828536,-0.09011290664044076,-0.37372499709752477,-0.3287978096300959,0.08480584207265798,-3.0782801602390033,0.624762344220464,-0.0006541872793142613,-0.012791147144402642,-0.0023038829898839783,0.0003576632979236467,0.00013285075367683885,-0.0001428936964327682,0.002137317154902965,0.4484836459159851,-1.4681827288917084,2.0068686644183558,-2.10734285930776,-1.5706976095782679,2.42336368560791,-0.007246081251651049,0.025365661829710007,-0.029743263497948647,0.0045625679194927216,-0.00011672350956359878,-0.009362715296447277,-0.363918662071228,0.40222588181495667,-9.979032516479492,0.7642692923545837,47.6895751953125,-0.5679430961608887,-2.1127002239227295,-3.4662928581237793,-0.42920204997062683,0.026892971247434616,-0.22817307710647583,28.0,28.9375,28.375,32.375,35.0,36.0625
1.0,-0.856377997552729,0.13070552121264795,-0.864357666519692,-0.01611751830058765,0.06161985866534015,-0.10017890201664596,-0.3738092633133228,-0.3288254398248348,0.08481388087268155,-3.078312070015538,0.6247888143332676,-0.0005784802361612744,-0.016794790182101345,-0.002739507517073809,0.0010749113207284787,-0.00015938571367237739,0.003493808408996542,-1.420651512891967e-05,0.44845911860466003,-1.4680372190526505,2.0066984335528772,-2.1073786220946253,-1.570698086415426,2.423351764678955,-0.009237431921064854,0.030452784150838852,-0.036615196615457535,0.002948390319943428,-0.0014477733056992292,-0.009194423444569111,-0.2106897532939911,0.17238251864910126,-9.653421401977539,0.7418897151947021,47.645687103271484,-0.5674066543579102,-2.232206344604492,-3.374349594116211,-0.3842460811138153,0.0389406718313694,-0.2298559844493866,28.0,28.9375,28.375,32.375,35.0,36.0625
1.0,-0.6949057865751855,0.16227521720572188,-0.6608617346003933,0.016921627625522462,0.03908258518618846,-0.11436525353218108,-0.37391046949733897,-0.32885399166160384,0.08483628702205265,-3.0783725095421945,0.6247830795664369,-0.0005535875257167021,-0.02028875133542622,-0.003037828004831178,0.0022237325670399466,-0.0011632919340994628,0.0047974761651589795,-0.002222373678993538,0.44839802384376526,-1.4678800490549584,2.0064685980426233,-2.107353826562399,-1.5706618467914026,2.4232795238494873,-0.012055128812789917,0.034522198140621185,-0.04415111616253853,0.004803854506462812,-0.001119757303968072,-0.009800102561712265,-0.15322890877723694,-0.07661445438861847,-9.557653427124023,0.7262282371520996,47.68419647216797,-0.6611735820770264,-2.187366008758545,-3.2807745933532715,-0.3419158160686493,-0.0014488059096038342,-0.2756181061267853,28.0,28.9375,28.375,32.375,35.0,36.0625
1.0,-0.18472409497311498,0.561880348739764,-0.5513762047484855,0.026664541655826164,0.03829712285681064,-0.1278184155809039,-0.3739808884412535,-0.3288541309344459,0.08483297578276539,-3.0783180412634388,0.6248107426561718,-0.000590166250129866,-0.02262449510454153,-0.003070470106902132,0.0028120220019908935,-0.001078752898114162,0.004491243046104916,-0.003186271339286263,0.44834938645362854,-1.4677232888391991,2.006287399922506,-2.10728182415151,-1.570686165486471,2.423255205154419,-0.014145009219646454,0.03800061345100403,-0.04992504045367241,0.007411307189613581,-0.0010704374872148037,-0.010922913439571857,-0.2106897532939911,0.05746084079146385,-9.442731857299805,0.6881819367408752,47.694053649902344,-0.6536633968353271,-2.1110305786132812,-3.1144282817840576,-0.34402626752853394,-0.013931656256318092,-0.2751457989215851,28.0,28.9375,28.375,32.375,35.0,36.0625
1.0,-0.1948830937634197,-0.06276038175199165,-0.45144499106168784,-0.014858682651787676,0.0665463199790873,-0.13866359027285,-0.3741819871562818,-0.3288829681524989,0.08490042790497904,-3.0783764677941914,0.6249760014171805,-0.0003709667231408955,-0.024960098232694777,-0.002450951235183587,0.0027721663758219577,0.003372959400746739,0.0042968924548896816,-0.002109059930754274,0.4482290744781494,-1.4675060150078316,2.005890671406881,-2.107267995873922,-1.5706995169269007,2.4232308864593506,-0.014968112111091614,0.04302293807268143,-0.05611175671219826,0.010693659074604511,-0.005002353340387344,-0.012812384404242039,-0.13407528400421143,0.17238251864910126,-9.442731857299805,0.7284641265869141,47.6707649230957,-0.5887883901596069,-2.0741329193115234,-3.151261806488037,-0.3310163915157318,-0.05424392595887184,-0.28247812390327454,28.0,28.9375,28.375,32.375,35.0,36.0625
1.0,-0.19451457914049122,-0.5616377898640053,-0.4315758707854241,-0.027839164464704615,0.05436850865756693,-0.13804192274924806,-0.37425380469943,-0.3288916531341952,0.08489577680555208,-3.078313577025426,0.6249043964308629,-0.00037520020959373236,-0.026910667599137548,-0.0031117146581862484,0.0028859731576557834,0.002257527728443049,0.003591857125190355,-0.003039027375143997,0.4481925666332245,-1.4672410127571602,2.0056007544146937,-2.107220312158102,-1.570747200642721,2.4231224060058594,-0.01630832813680172,0.04710184410214424,-0.061115529388189316,0.011764981783926487,-0.003700146684423089,-0.013221750035881996,-0.1149216815829277,0.363918662071228,-9.366117477416992,0.6904177665710449,47.68061828613281,-0.619483232498169,-1.9003808498382568,-3.235854148864746,-0.35340774059295654,-0.07329919934272766,-0.27297043800354004,28.0,28.9375,28.375,32.375,35.0,36.0625
1.0,0.15374402532935366,-1.067979569135251,-0.38321715382621113,-0.03646409438490516,0.053463959409758476,-0.1285969290002916,-0.37443184689161024,-0.3289325131068174,0.08493275784316554,-3.0783784350605745,0.6248420629994371,-0.000268815410293621,-0.02964198187459691,-0.0031768892735391787,0.0034057244682238865,0.0038017239957381754,0.007099451413024811,-0.0033837968716532683,0.44813239574432373,-1.4670482513359566,2.0052884260760706,-2.1071602306761683,-1.5707595984088343,2.423050880432129,-0.016836481168866158,0.050464291125535965,-0.0657334253191948,0.010538375005126,-0.006623412482440472,-0.013396268710494041,-0.17238251864910126,0.4596867263317108,-9.308655738830566,0.7687462568283081,47.692256927490234,-0.6275749206542969,-1.8459751605987549,-3.239574432373047,-0.31760725378990173,-0.07592713087797165,-0.2828163206577301,28.0,28.9375,28.375,32.375,35.0,36.0625
1.0,0.029937369248535017,-0.80893844645857,-0.1628966432904587,-0.027456028563358655,0.048539387090608996,-0.13052879358542296,-0.3746145871900781,-0.32895618924059444,0.08495344358835813,-3.078354437654747,0.6250293317381174,-0.00023851282413078217,-0.03331527442279221,-0.0027051236550680465,0.0036872736080227103,0.006870833673050795,0.009579428284912105,-0.0038147656471949325,0.44801175594329834,-1.4667348128608246,2.0048797766314905,-2.107088705102438,-1.5707610289203089,2.4230504035949707,-0.018640419468283653,0.055980049073696136,-0.07255715876817703,0.010953341610729694,-0.010477104224264622,-0.014757500030100346,-0.05746084079146385,0.47884035110473633,-9.289502143859863,0.6881819367408752,47.68419647216797,-0.6884022951126099,-1.9307408332824707,-3.2101356983184814,-0.29794880747795105,-0.050307564437389374,-0.2768874168395996,28.0,28.9375,28.375,32.375,35.0,36.0625
1.0,-0.19046322026573884,-0.6165212163218252,-0.27466871950224264,-0.035755614896244306,0.03484708090712833,-0.12212758291566408,-0.3747521874199344,-0.3289684329520653,0.08497555869660445,-3.0783502707118817,0.6249682959615416,-0.00014836849418926502,-0.034892240899716,-0.003280606449640695,0.0026359968003722496,0.008130693871544994,0.007834882169255987,-0.0029170412107449827,0.44793984293937683,-1.4665169355324288,2.004578415547506,-2.1070410213866175,-1.5708091894732874,2.422941207885742,-0.018744196742773056,0.06219570338726044,-0.07710274308919907,0.011401011608541012,-0.010865136981010437,-0.015755148604512215,-0.038307227194309235,0.3447650372982025,-9.327810287475586,0.7665104269981384,47.67703628540039,-0.6459155082702637,-2.010019302368164,-3.087991237640381,-0.2821447253227234,-0.020603546872735023,-0.2808491289615631,28.0,28.9375,28.375,32.375,35.0,36.0625
1.0,-0.48982802852664825,-0.621534973735028,-0.14913832376261046,-0.01881656200172777,0.026517717901875654,-0.1187207810992589,-0.3750066841990748,-0.32898043562090334,0.0849974874143753,-3.078294761672023,0.625052048428041,-1.2215474118740716e-05,-0.03646317117910169,-0.004251753641438474,0.001156882822806101,0.007847844563743494,0.0036738905898440945,-0.0013175689057600415,0.447783499956131,-1.4660952252200623,2.004050079976217,-2.1069804630675257,-1.570892635975973,2.422844648361206,-0.019609004259109497,0.06992312520742416,-0.08255334198474884,0.01274117361754179,-0.008816570043563843,-0.018219539895653725,-0.15322890877723694,0.24899697303771973,-9.21288776397705,0.7060845494270325,47.6707649230957,-0.7075719237327576,-2.0237574577331543,-3.232813835144043,-0.2542837858200073,-0.05912695825099945,-0.258291631937027,28.0,28.9375,28.375,32.375,35.0,36.0625
1.0,-0.16556270815341545,-0.14104260357422932,-0.09866499383508456,0.0031810469892865657,0.04011252756314211,-0.125308427632286,-0.37512724645068135,-0.32902561535520397,0.08500389848327666,-3.078287169786625,0.625050719140709,-2.8402498015809388e-05,-0.037834192660304695,-0.003757218292392603,0.0010120436543240195,0.009345588448740295,0.0032014095459061455,-0.0022697997390862673,0.44775906205177307,-1.4658186745694657,2.003714386616842,-2.106908460656637,-1.5708931128131312,2.422820568084717,-0.021055566146969795,0.07252397388219833,-0.08540798723697662,0.014073066413402557,-0.009965552017092705,-0.018710032105445862,-0.07661445438861847,0.2106897532939911,-9.21288776397705,0.6948947906494141,47.64747619628906,-0.724134087562561,-1.8968546390533447,-3.3097481727600098,-0.24733448028564453,-0.06867968291044235,-0.24940074980258942,28.0,28.9375,28.375,32.375,35.0,36.0625
1.0,-0.07235030318138491,0.28398203684076073,-0.11224399229485861,0.0014992032078727773,0.03784849328687357,-0.12781903938684896,-0.3753716855057013,-0.329049197740158,0.08499847106210753,-3.078227733355648,0.6250565357634503,3.7773113756998056e-05,-0.040903114510412654,-0.00415674298278013,0.001027186245025423,0.01050755507562186,0.0036717141421194885,-0.0003920721877765168,0.447626531124115,-1.4653374266675492,2.003185574208395,-2.1068598232665003,-1.5709651152240198,2.4226996898651123,-0.02228156104683876,0.07870950549840927,-0.0925208106637001,0.015079856850206852,-0.011230578646063805,-0.02180667035281658,-0.24899697303771973,0.1149216815829277,-9.21288776397705,0.7217512726783752,47.6707649230957,-0.7586959600448608,-2.0290982723236084,-3.2552168369293213,-0.21197733283042908,-0.06027033179998398,-0.2151358723640442,28.0,28.9375,28.375,32.375,35.0,36.0625
1.0,-0.7378390697132095,-0.3239797238326674,-0.2519347067153446,-0.009785744438751319,0.0542234329242073,-0.1207240718596736,-0.37562000874318063,-0.32908785638308263,0.08502600311795333,-3.078217652478103,0.625053073275564,4.677319017725773e-05,-0.042552180783685216,-0.0037852601890273428,0.0003457182995951088,0.012256286899423952,0.0012800385428370679,0.0003398535214456655,0.44748204946517944,-1.4648807358792801,2.0025861899005335,-2.106715341607565,-1.5709779898272913,2.4225547313690186,-0.02410842850804329,0.08356316387653351,-0.0968993753194809,0.01751656085252762,-0.01177706103771925,-0.024361884221434593,-0.325611412525177,0.2106897532939911,-9.346963882446289,0.7195101380348206,47.668975830078125,-0.8153979778289795,-1.9185842275619507,-3.5156044960021973,-0.2066618800163269,-0.05606690049171448,-0.19901739060878754,28.0,28.9375,28.375,32.375,35.0,36.0625
1.0,-1.1746035016390755,-0.13252455150920756,-0.28366333999238275,-0.012662184996556178,0.052176139221998506,-0.12075369847993926,-0.3757826203795771,-0.32910687790547966,0.08500754481008974,-3.0781713911654656,0.625005199362198,-5.5964989718929534e-06,-0.04428099120764249,-0.003346434465668648,0.0005068682281389193,0.013639447393458915,0.0022630938101410774,0.0006792117017967864,0.4473855793476105,-1.4645086762360116,2.002201859151022,-2.106643339196676,-1.5710023085223597,2.4224345684051514,-0.02543274685740471,0.085833840072155,-0.09990391880273819,0.017966056242585182,-0.013457237742841244,-0.02601982280611992,-0.26815059781074524,0.19153612852096558,-9.366117477416992,0.7597975730895996,47.661808013916016,-0.742175281047821,-1.8303046226501465,-3.552422523498535,-0.189640611410141,-0.05282188951969147,-0.16256587207317352,28.0,28.9375,28.375,32.375,35.0,36.0625
1.0,-0.33833896569463673,-0.3404631319524584,-0.4459769530372068,-0.014130396350243369,0.06648334118529191,-0.12925200213266433,-0.37605691883699477,-0.32914064135862375,0.0850220153234919,-3.0781216688616078,0.6249555240867463,8.815932214703369e-05,-0.0487003137936282,-0.0041425407132121665,0.001684106905566741,0.013126962341061043,0.004558560730338798,-0.0003296765490276195,0.4472528398036957,-1.4639914122274895,2.0015762487994593,-2.106547018090719,-1.5710862318622034,2.4222776889801025,-0.027572182938456535,0.09202541410923004,-0.10979348421096802,0.01937013491988182,-0.014006376266479492,-0.027143223211169243,-0.2106897532939911,0.3064578175544739,-9.519346237182617,0.8202234506607056,47.67613983154297,-0.6784778833389282,-1.8219599723815918,-3.4274652004241943,-0.16342070698738098,-0.05971686542034149,-0.11693494021892548,28.0,28.9375,28.375,32.375,35.0,36.0625
1.0,-0.4865898830925856,-0.7980696694501427,-0.6971069290457744,-0.03293898686077802,0.05392392559219593,-0.11635463896777877,-0.3762673656146861,-0.3291386659393608,0.08502341583580461,-3.0780319811444508,0.6250140099517659,8.421193354966406e-05,-0.05054363493440593,-0.004106642975252344,0.0009455808872676973,0.01438475998332023,0.002741405471708174,-0.0002729951263139088,0.4470963180065155,-1.463594229226448,2.0011075178729456,-2.10642733196401,-1.571146313344137,2.4221694469451904,-0.02905903197824955,0.09737755358219147,-0.11435967683792114,0.020763086155056953,-0.01436363160610199,-0.028682349249720573,-0.2298433631658554,0.3064578175544739,-9.53849983215332,0.7821771502494812,47.64657974243164,-0.6901861429214478,-1.8614662885665894,-3.4883785247802734,-0.14736807346343994,-0.041035305708646774,-0.08479449898004532,28.0,28.9375,28.375,32.375,35.0,36.0625
1.0,-0.7375150037533997,-1.4601913431946907,-0.7882461108738201,-0.0419270150863159,0.05273010174891317,-0.1124805276130351,-0.3765640225730393,-0.32917169900954363,0.08503811226058411,-3.0779637669633773,0.625001866442132,9.49178800933027e-05,-0.05391987517631941,-0.004487871995715779,0.0021404479633817053,0.014530316615368554,0.00516837360977516,-0.004724515248991621,0.4469277858734131,-1.4630180087736626,2.000399414693014,-2.1062590084471644,-1.5712068716632288,2.4220025539398193,-0.030619455501437187,0.10131407529115677,-0.12181362509727478,0.022157032042741776,-0.015556927770376205,-0.02578396163880825,-0.13407529890537262,0.4405331015586853,-9.53849983215332,0.7620334029197693,47.679718017578125,-0.6434426307678223,-1.7545393705368042,-3.464782238006592,-0.13583707809448242,-0.006289323791861534,-0.10216876119375229,28.0,28.9375,28.375,32.375,35.0,36.0625
1.0,-0.4908888915319225,-1.0619550806954525,-0.8981895148933141,-0.04645832167328671,0.047834438763505356,-0.12369424108912985,-0.37677902612353215,-0.3291859760579798,0.08501549165941172,-3.077868361828159,0.6249433148288965,0.00012237759083239403,-0.055518170392040864,-0.0054737325753897535,0.0017707200140921256,0.013309078134563567,0.0031732513041053258,-0.003906820681344771,0.44681963324546814,-1.46254916608844,1.9999197165118616,-2.1061984501280726,-1.5713022390948694,2.421870470046997,-0.031410105526447296,0.10638086497783661,-0.1269015222787857,0.023437287658452988,-0.013603652827441692,-0.027392053976655006,-0.17238251864910126,0.47884035110473633,-9.615114212036133,0.7083203792572021,47.65284729003906,-0.673970639705658,-1.7770304679870605,-3.427060127258301,-0.13044185936450958,-0.018364831805229187,-0.08259067684412003,28.0,28.9375,28.375,32.375,35.0,36.0625
1.0,0.021702577368301945,-0.9945698953935703,-0.7826254948311184,-0.03552373580162108,0.034586696458307226,-0.12839671408341846,-0.3771554817474754,-0.3292317866997692,0.08506375804494798,-3.077835040184105,0.6251285845365099,0.0002823599453562783,-0.05895013790529686,-0.006444245189134394,0.0018461017796826754,0.012062622312771588,0.002167744149563776,-0.005873895687441531,0.44660285115242004,-1.4619238537601014,1.9990909735309046,-2.1060787640013636,-1.5713618437396448,2.42177414894104,-0.033604368567466736,0.11361663788557053,-0.13553494215011597,0.025193199515342712,-0.012057976797223091,-0.02761773392558098,-0.19153614342212677,0.325611412525177,-9.59596061706543,0.7597975730895996,47.671661376953125,-0.6335329413414001,-1.7469737529754639,-3.3420028686523438,-0.0951157957315445,-0.029392194002866745,-0.0780155211687088,28.0,28.9375,28.375,32.375,35.0,36.0625
1.0,-0.2394299868638451,-0.36262116957450513,-0.5959766020209557,-0.011592865404506082,0.038997787736528504,-0.1282369495897798,-0.37751860474525656,-0.32928682406275245,0.08508757589647975,-3.077778937568009,0.6251175205627926,0.0003458658464201,-0.06036428206799029,-0.007276294843945673,0.001248328351275928,0.012685723551571297,0.00015349457746956154,-0.008182882610061622,0.44642290472984314,-1.4612272915295144,1.998227898274557,-2.1059099636473597,-1.5714333693133753,2.4215950965881348,-0.03346973657608032,0.11916864663362503,-0.14078649878501892,0.026975687593221664,-0.011757178232073784,-0.025171374902129173,-0.09576806426048279,0.3064578175544739,-9.423578262329102,0.7374180555343628,47.65553665161133,-0.7194790840148926,-1.6400511264801025,-3.3899378776550293,-0.07588834315538406,-0.05913762003183365,-0.13500699400901794,28.0,28.9375,28.375,32.375,35.0,36.0625
1.0,-0.5542243677218764,-0.3676771242171873,-0.2562807450311534,-0.0031858619421418644,0.023520864255396418,-0.12193445921249746,-0.37778156136009544,-0.3293152483892403,0.08510946482744422,-3.077765683592361,0.6251907716383417,0.0004097321357763185,-0.06271953651762877,-0.007420329342653418,0.0008008031613856774,0.013674341901782693,-0.0012386965551998991,-0.007939739269152795,0.4462544620037079,-1.4607700941017647,1.997652832661764,-2.1058255634703578,-1.5714576880084437,2.4214744567871094,-0.035098038613796234,0.12501387298107147,-0.14667126536369324,0.028694573789834976,-0.012057526037096977,-0.027038898319005966,-0.15322890877723694,0.2298433631658554,-9.366117477416992,0.7329410910606384,47.645687103271484,-0.645337700843811,-1.7422294616699219,-3.1900928020477295,-0.05524187535047531,-0.06052270531654358,-0.11985327303409576,28.0,28.9375,28.375,32.375,35.0,36.0625
1.0,-0.6739810217484639,-0.28817063739561904,-0.20234695010927609,-0.023041906721451,0.04075427076475909,-0.12625373567233023,-0.3781462540956584,-0.32936229925901794,0.0850997404747317,-3.0776248339614107,0.6252392085830899,0.0003897333443611335,-0.06405587347193245,-0.0072147019836069325,-0.0014970450245584495,0.01702847206901739,-0.0065462991987733105,-0.009599929909815258,0.446073979139328,-1.4599885952523728,1.9967663923846644,-2.1056329212584437,-1.5715540091144007,2.4213428497314453,-0.03617887571454048,0.13350093364715576,-0.15147729218006134,0.031247440725564957,-0.01280144788324833,-0.026453811675310135,-0.24899697303771973,0.325611412525177,-9.174580574035645,0.7374180555343628,47.7164421081543,-0.63013756275177,-1.8943264484405518,-3.3814473152160645,-0.04231017827987671,-0.07162483781576157,-0.15494677424430847,28.0,28.9375,28.375,32.375,35.0,36.0625
1.0,-0.8410523335490084,-0.5546720379945153,-0.03949302435014422,-0.01854585823618499,0.05191033256684019,-0.12051870216722636,-0.37841074252076795,-0.329414826474513,0.0851352451024733,-3.0776415176011933,0.6252597668499651,0.0004604040564611383,-0.06642050376990821,-0.0077991968263797775,-0.0004370177838611856,0.01597825411358333,-0.00554576654519121,-0.00941129660630383,0.4459417462348938,-1.459520512526371,1.9961422125445765,-2.10552515606069,-1.5715659300433558,2.4212217330932617,-0.03749004378914833,0.1362629532814026,-0.1574445217847824,0.03309166431427002,-0.012295099906623363,-0.027951925992965698,-0.2298433631658554,0.3447650372982025,-9.097966194152832,0.8247004151344299,47.6895751953125,-0.7742195725440979,-1.7488667964935303,-3.3974177837371826,-0.06362808495759964,-0.07659958302974701,-0.17781797051429749,28.0,28.9375,28.375,32.375,35.0,36.0625
1.0,-0.4783638930882652,-0.07581242812649597,0.16974598189204612,-0.0019727985445535615,0.0405625262164007,-0.12572451480723942,-0.378830000018009,-0.3294636642265479,0.08512725900179485,-3.0775166649957915,0.6253687581188505,0.0004353036606567504,-0.06830084338852264,-0.007550516627333427,-0.0012747406469611924,0.01887823376818336,-0.0072797174138821575,-0.009636589988746763,0.44570139050483704,-1.45865602165971,1.9951589743243616,-2.105332990685934,-1.5716384092914026,2.4210660457611084,-0.038417600095272064,0.14208127558231354,-0.1625678986310959,0.03521259129047394,-0.014175697229802608,-0.028646524995565414,-0.26815059781074524,0.24899697303771973,-8.983044624328613,0.7351769208908081,47.68419647216797,-0.8041732311248779,-1.6792539358139038,-3.496598243713379,-0.02568206563591957,-0.08659432828426361,-0.20369434356689453,28.0,28.9375,28.375,32.375,35.0,36.0625
1.0,-0.17610560246296106,0.159754798761756,0.14584624459625115,-0.0036747047795095186,0.03736310778697133,-0.1296273796826466,-0.379273869779003,-0.32951379648945245,0.08513654064831608,-3.077411436585239,0.6254033537780946,0.00044896208110692317,-0.07091437908018657,-0.007913245961112227,-0.001022300626024286,0.020069442214444344,-0.009478392232454884,-0.009523603670935233,0.4454488754272461,-1.4577796024135132,1.9941166082965296,-2.1051160297789515,-1.5717223326312464,2.420849323272705,-0.039932284504175186,0.14816726744174957,-0.1711505502462387,0.04019933566451073,-0.014316367916762829,-0.030268877744674683,-0.09576806426048279,0.19153612852096558,-9.059659004211426,0.7486078143119812,47.660911560058594,-0.7819347381591797,-1.5438032150268555,-3.389033317565918,-0.057917844504117966,-0.10437961667776108,-0.24202463030815125,28.0,28.9375,28.375,32.375,35.0,36.0625
1.0,0.02554113657156784,0.29061911628996995,-0.20945399708820453,0.0030188235183773414,0.033821397522783146,-0.12678868112178066,-0.37955351002333365,-0.3295573768229063,0.08512049132573818,-3.0773073859179503,0.625380485314487,0.0003818793577059688,-0.0715581057824393,-0.008179578081938184,-0.00042361177217613966,0.02163629604139212,-0.010812812587298269,-0.0066439084976825935,0.44531700015068054,-1.4571439188769837,1.9934094587909144,-2.104946275750631,-1.5717828909503382,2.4207170009613037,-0.03945292532444,0.15003061294555664,-0.17572183907032013,0.04478289186954498,-0.015161738730967045,-0.03266451507806778,-0.07661445438861847,0.19153612852096558,-9.366117477416992,0.7105615139007568,47.67882537841797,-0.845374345779419,-1.631727695465088,-3.3697266578674316,-0.12359635531902313,-0.11562274396419525,-0.23015651106834412,28.0,28.9375,28.375,32.375,35.0,36.0625
1.0,-0.411918775833329,-0.5195000372070941,-0.8283581751080792,-0.018032449013180088,0.02733692280598322,-0.12043939887488139,-0.3799609755708509,-0.329571487800419,0.08508212781462454,-3.0770393850453117,0.6254597714659401,0.00017561892387783548,-0.0733291259798488,-0.008102605406644314,-0.0011385192572122523,0.023871185860851303,-0.014071357585815777,-0.008844951712190921,0.44505271315574646,-1.456207962041237,1.9923790136920374,-2.104598184625143,-1.5719025770770472,2.420537233352661,-0.040726251900196075,0.15610139071941376,-0.18185991048812866,0.04874921590089798,-0.015792712569236755,-0.031728316098451614,-0.09576806426048279,0.325611412525177,-9.481039047241211,0.8694595694541931,47.6976318359375,-0.8576028347015381,-1.5068109035491943,-3.457396984100342,-0.19803327322006226,-0.12111352384090424,-0.2911955416202545,28.0,28.9375,28.375,32.375,35.0,36.0625
1.0,-0.17927052969082174,-1.115535246855443,-0.9939414757905918,-0.028862325609840207,0.02927412094545946,-0.12166050104520465,-0.3802533102635307,-0.32961027787967534,0.08507709689965973,-3.076914861320228,0.625490852295738,0.00012005585344335704,-0.07501885691510131,-0.008066228203186285,-0.003118352256172628,0.02674908669218207,-0.017503029698987878,-0.007934326358241726,0.44490835070610046,-1.455570140188076,1.9916356245623987,-2.10439457515859,-1.571975056325094,2.42042875289917,-0.04156140983104706,0.16408275067806244,-0.18651564419269562,0.04975687339901924,-0.016929378733038902,-0.03346628695726395,0.0,0.2106897532939911,-9.749189376831055,0.7284641265869141,47.660911560058594,-0.9522655010223389,-1.7839024066925049,-3.512127161026001,-0.277850866317749,-0.10685276985168457,-0.3127737045288086,28.0,28.9375,28.375,32.375,35.0,36.0625
1.0,-0.6292574197948128,-1.1612540605396988,-0.9065554615055708,-0.04144965483211849,0.012712903534038176,-0.1197855289846065,-0.3807149909483727,-0.32966194022905876,0.0850896967590424,-3.076749688367716,0.6255719449523555,3.024553184103442e-05,-0.07865605793284623,-0.009322263959102307,-0.0029814392378694427,0.026130850213603566,-0.01686035406300622,-0.009159706309478419,0.44464409351348877,-1.4546214428595086,1.9904730955706995,-2.1040474377074183,-1.5720589796649378,2.4202370643615723,-0.04255490377545357,0.17157986760139465,-0.19544479250907898,0.05033509433269501,-0.016676902770996094,-0.03322698175907135,-0.038307227194309235,0.40222588181495667,-9.615114212036133,0.8179876208305359,47.6680793762207,-0.9443837404251099,-1.9615910053253174,-3.488856315612793,-0.3319324254989624,-0.12175589799880981,-0.3682612180709839,28.0,28.9375,28.375,32.375,35.0,36.0625
1.0,-0.7340541018281966,-1.5660230652815206,-1.1054573020070384,-0.045871543478433405,0.031919609427062,-0.11874273680909798,-0.38104003420700877,-0.329696893085399,0.08506980687210525,-3.076608142504783,0.6256178545036829,-5.4526422472304704e-05,-0.08252717505040753,-0.010738701013942186,-0.003000116040613647,0.023628241483151104,-0.013552091148145814,-0.0079338985720111,0.44435569643974304,-1.4535652932575722,1.989310089741842,-2.1037732563414515,-1.5721667448626917,2.4200196266174316,-0.043782200664281845,0.17810213565826416,-0.20188866555690765,0.04617878049612045,-0.015879139304161072,-0.035674091428518295,-0.09576806426048279,0.5554547905921936,-9.59596061706543,0.8023208975791931,47.6707649230957,-1.0254907608032227,-1.709059476852417,-3.5244789123535156,-0.3585774302482605,-0.17194589972496033,-0.40675732493400574,28.0,28.9375,28.375,32.375,35.0,36.0625
1.0,-1.2673156157658874,-1.8535704417807828,-0.7358657827844448,-0.06549807459591477,0.06208080922106893,-0.1261610016711013,-0.3815263969770529,-0.32975990957910845,0.08506741048618832,-3.076481770451802,0.6256279164297188,-9.544062299694217e-05,-0.08471809360301283,-0.011016889920676343,-0.002333276958563557,0.022873167746009677,-0.009634898271534909,-0.0068430848159137525,0.4441995322704315,-1.4528938841870804,1.9884956518756312,-2.1035825214781703,-1.5722153822528284,2.419863224029541,-0.04453238472342491,0.17954915761947632,-0.20453284680843353,0.04351091384887695,-0.016900159418582916,-0.037509284913539886,-0.13407529890537262,0.40222588181495667,-9.576807022094727,0.7441308498382568,47.6627082824707,-1.0893666744232178,-1.753258466720581,-3.6197142601013184,-0.3349687457084656,-0.16300952434539795,-0.4398972988128662,28.0,28.9375,28.375,32.375,35.0,36.0625
1.0,-0.9692347328542271,-0.2556380556033688,-0.3445099202983402,-0.009949194919730365,0.04729106172736131,-0.12356701434155032,-0.38203845731568803,-0.32984935787387415,0.08504327904245865,-3.076367805266792,0.6256787122875225,-0.0001581992975029941,-0.09102392891801765,-0.013460177980445921,0.0012980842074303168,0.015906658602771528,0.0015396627316719485,-0.003920297388874151,0.44394680857658386,-1.4517792102745553,1.9872601667987269,-2.1033688984312953,-1.5722749868976038,2.4196577072143555,-0.046401213854551315,0.18210884928703308,-0.21463283896446228,0.03794784098863602,-0.015457878820598125,-0.042296431958675385,-0.2298433631658554,0.26815059781074524,-9.346963882446289,0.8291773796081543,47.67524337768555,-1.0541752576828003,-1.5873990058898926,-3.413607597351074,-0.25384432077407837,-0.23105449974536896,-0.44645947217941284,28.0,28.9375,28.375,32.375,35.0,36.0625
1.0,-1.2738268894404605,0.26514833705843815,-0.5729406555544418,0.016795510930720542,0.0376085113548891,-0.12478469126578715,-0.3824445421312707,-0.32990551976912724,0.0850782714750698,-3.076349478496572,0.625653121199339,9.007138992607793e-06,-0.0950602985391691,-0.014022775732053594,0.0024397249081514385,0.014814565003406967,0.006704177755058024,-0.0012612412134098486,0.4437423050403595,-1.451059029703476,1.986349884663717,-2.1032501659789027,-1.5723593870746058,2.419440269470215,-0.04809492453932762,0.18593186140060425,-0.22105641663074493,0.035405274480581284,-0.016712389886379242,-0.046642184257507324,-0.24899697303771973,0.2106897532939911,-9.461885452270508,0.8515569567680359,47.66360092163086,-1.0045084953308105,-1.5066242218017578,-3.439262866973877,-0.18948665261268616,-0.22692719101905823,-0.4183531403541565,28.0,28.9375,28.375,32.375,35.0,36.0625
1.0,-0.9898803749524698,-0.09976697081038527,-0.8325343104254181,0.00010404861155742864,0.07466670857114138,-0.13445665799711848,-0.382998012651578,-0.3299880060437941,0.08507390430205963,-3.076238954616159,0.6256649940701313,-6.093127717213715e-05,-0.09823526457174546,-0.013974868014197148,0.0009654848154909961,0.018024899395228448,0.003222611321695523,0.003996427449149742,0.4434415400028229,-1.4499058064869423,1.985007111226217,-2.10296167949819,-1.5724199453936976,2.4191620349884033,-0.050012849271297455,0.19592167437076569,-0.22977283596992493,0.03863826021552086,-0.018144970759749413,-0.05380678176879883,-0.4405331015586853,0.2106897532939911,-9.442731857299805,0.7978386282920837,47.6680793762207,-1.0570974349975586,-1.6775238513946533,-3.215623378753662,-0.17576146125793457,-0.27242496609687805,-0.3294392228126526,28.0,28.9375,28.375,32.375,35.0,36.0625
1.0,-1.5787318011345213,-0.9370560000525534,-0.7198305439529251,-0.02002380627757085,0.07170407511284452,-0.13222722320005462,-0.3833996647148047,-0.33005231852169714,0.08508171196831874,-3.076219362960535,0.6255043622577898,1.4914934462131055e-05,-0.09845260793164758,-0.012870883934097287,-0.0004944164468860317,0.020903094582119315,-0.00034796772069354843,0.0066750560913850995,0.4432491362094879,-1.4491142493537446,1.98407489458193,-2.1028291187682093,-1.5724919478045862,2.418872594833374,-0.05151490494608879,0.19909439980983734,-0.2305978238582611,0.0407390370965004,-0.019217288121581078,-0.057984381914138794,-0.3256114423274994,0.19153612852096558,-9.519346237182617,0.8135106563568115,47.66449737548828,-1.0599019527435303,-1.7060081958770752,-3.4987878799438477,-0.11420324444770813,-0.29857581853866577,-0.2751915454864502,28.0,28.9375,28.375,32.375,35.0,36.0625
1.0,-1.5826360737103817,-1.2369480572904945,-0.8653077097902443,-0.022532008341528992,0.04058193388252059,-0.11616627056922744,-0.3839868690853972,-0.33010536789382916,0.0850737201272507,-3.0760737363324897,0.6253773493607168,6.628741479686996e-05,-0.10095117780220694,-0.011916532118895847,-0.0014142167133660635,0.024189511204186904,-0.0027369790900063193,0.005630048338830268,0.4429243206977844,-1.4479377803257485,1.982720677052633,-2.10257687191152,-1.572648827229635,2.4184882640838623,-0.05416673794388771,0.2054186761379242,-0.2364954650402069,0.04386809840798378,-0.02117803692817688,-0.059580910950899124,-0.325611412525177,0.3064578175544739,-9.557653427124023,0.8157517910003662,47.660911560058594,-0.9989782571792603,-1.7592134475708008,-3.7273402214050293,-0.09147027134895325,-0.3053831160068512,-0.16506549715995789,28.0,28.9375,28.375,32.375,35.0,36.0625
1.0,-0.8928529164299106,-0.9847826467893119,-0.5876304105216472,-0.01677390897232481,0.02595084272681896,-0.12357666775559842,-0.38461444623032115,-0.33016619915982676,0.0850788536502643,-3.075918266758098,0.6254052203797629,9.553749374042222e-05,-0.10507726733548081,-0.012520482055634455,-0.0002746792405618482,0.023218714116443797,-0.0010544790708167868,-0.00034796549406614086,0.442563533782959,-1.4467023697546502,1.9812582174884241,-2.10227694133901,-1.5727804342852991,2.418165922164917,-0.05664006620645523,0.21089842915534973,-0.24594061076641083,0.04588950425386429,-0.02104039303958416,-0.056070052087306976,-0.3447650671005249,0.325611412525177,-9.327810287475586,0.8717007040977478,47.68061828613281,-0.9477815628051758,-1.5898430347442627,-3.564925193786621,-0.03896132484078407,-0.3111909031867981,-0.16529497504234314,28.0,28.9375,28.375,32.375,35.0,36.0625
1.0,-0.9735760703980358,-0.2582325985332039,-0.43032623016966565,-0.025790653419151734,0.026163386964173602,-0.12459638430105485,-0.38506056437311537,-0.3302438781214264,0.08509046131075246,-3.0758936759747324,0.6253826433226581,0.000219442656261686,-0.10848571482060936,-0.012026749275968198,0.0010218392320033146,0.022633078228209858,0.0002885734305093056,-0.006417188621147679,0.44235819578170776,-1.4458392944983025,1.9802401701556605,-2.10216822246694,-1.572852913533346,2.417950391769409,-0.06042759492993355,0.2135850489139557,-0.25268030166625977,0.048475369811058044,-0.021090753376483917,-0.05378605052828789,-0.1149216815829277,0.3447650372982025,-9.366117477416992,0.8515569567680359,47.67613983154297,-0.8331682085990906,-1.6189770698547363,-3.367403030395508,-0.009163420647382736,-0.3567291498184204,-0.16552001237869263,28.0,28.9375,28.375,32.375,35.0,36.0625
1.0,-0.49012277236541574,-0.11446510066660621,-0.43835171567457165,-0.00781510371998855,0.037841185155974566,-0.12356142673776029,-0.38571790240451403,-0.3303142094369299,0.08511172808296363,-3.0757117756037626,0.6254830766122306,0.0002581592579473563,-0.11056828230604802,-0.01236523048295047,0.0016154689453989472,0.02407123120066984,-0.001525259919753188,-0.015570716136684301,0.4419980049133301,-1.4445561182549973,1.978670899068014,-2.10180725673818,-1.5729973951922815,2.417677402496338,-0.06116899102926254,0.218193918466568,-0.26077091693878174,0.05421920865774155,-0.021612923592329025,-0.04536750540137291,-0.28730422258377075,0.26815059781074524,-9.27034854888916,0.8493211269378662,47.65374755859375,-0.8762171268463135,-1.454177737236023,-3.441685676574707,0.0003158557810820639,-0.38539889454841614,-0.24221433699131012,28.0,28.9375,28.375,32.375,35.0,36.0625
1.0,-0.8847524788086343,-0.888169414943605,-0.06065915805354638,-0.019038842603230858,0.036073292987421436,-0.12391314381399311,-0.38614331820917447,-0.3303669238198688,0.08509737360078587,-3.075592257800268,0.625533240006028,0.00018555618872234217,-0.10932813925242285,-0.011304057420470021,-0.00041032411190764596,0.02955160552228815,-0.009682157242006518,-0.01394568024724429,0.4417581856250763,-1.4436565053514023,1.9776418844806116,-2.101576944390768,-1.5730574766742151,2.417484998703003,-0.061047185212373734,0.22249941527843475,-0.2628483772277832,0.061701927334070206,-0.023077279329299927,-0.046864256262779236,-0.24899697303771973,0.24899697303771973,-9.21288776397705,0.8627467155456543,47.6707649230957,-0.8531737327575684,-1.4041919708251953,-3.53080415725708,-0.0632990375161171,-0.37871336936950684,-0.25556689500808716,28.0,28.9375,28.375,32.375,35.0,36.0625
1.0,-0.1086599481855966,1.0283420901166433,-0.046954192451203754,0.023499464474089522,0.009965933716907698,-0.14087802615382158,-0.3868047939216071,-0.3303971402789745,0.08504741779488292,-3.0752876032824186,0.6257015857881482,6.369957832399904e-05,-0.11137170788260434,-0.00966935987451755,-0.0034810319440427783,0.03531637098693606,-0.019086560726275938,-0.017905391410145036,0.44133684039115906,-1.4422514301589509,1.976095978413717,-2.10121550182485,-1.573226277028219,2.4172091484069824,-0.06494899839162827,0.23361800611019135,-0.2702489495277405,0.06893691420555115,-0.02429126761853695,-0.04679369181394577,0.019153613597154617,0.019153613597154617,-9.136273384094238,0.8582697510719299,47.66360092163086,-0.6804664134979248,-1.696466088294983,-3.4828901290893555,-0.1530601531267166,-0.42041194438934326,-0.3190067708492279,28.0,28.9375,28.375,32.375,35.0,36.0625
1.0,-0.45464085187929326,0.6313147967463498,0.16872353132674955,0.029325418305548172,-0.00904558854512784,-0.12188709297723226,-0.38725518690797245,-0.3304462960080028,0.0850359777193212,-3.075136861123914,0.6257461960252604,-1.2229651798646092e-05,-0.11494963659743732,-0.010185259278959297,-0.002155946549570008,0.036084764242160366,-0.01672918872104973,-0.017067279803928803,0.44108444452285767,-1.441302554016449,1.974992577229635,-2.1009394131102503,-1.573310677205221,2.4170048236846924,-0.06596777588129044,0.23818157613277435,-0.27920717000961304,0.07151921093463898,-0.026023590937256813,-0.04863698408007622,-0.17238251864910126,0.13407529890537262,-8.9064302444458,0.7888899445533752,47.668975830078125,-0.7094083428382874,-1.8696601390838623,-3.5309019088745117,-0.20702135562896729,-0.4073766767978668,-0.3122417628765106,28.0,28.9375,28.375,32.375,35.0,36.0625
1.0,-1.6472313822594702,-1.404781855637432,-0.10623179090235091,-0.04689024018764659,0.042099229139465774,-0.13026647258551385,-0.3879319675614864,-0.33049801471764056,0.08501191359283206,-3.0748152602858765,0.625891245297113,-0.00024285819654076187,-0.11877543444410336,-0.010508613469382245,0.0001742209728453273,0.035963719496774925,-0.011986244039985118,-0.01935269717535442,0.4406760334968567,-1.439841390853264,1.9732807318316858,-2.1004001102843226,-1.5734551588641565,2.416729688644409,-0.06735514849424362,0.24026575684547424,-0.28766968846321106,0.07354851812124252,-0.027975276112556458,-0.047720249742269516,-0.4405331015586853,0.4213795065879822,-9.136273384094238,0.8896032571792603,47.65374755859375,-0.6104016900062561,-1.5429306030273438,-3.4271397590637207,-0.277767151594162,-0.40012699365615845,-0.351465106010437,28.0,28.9375,28.375,32.375,35.0,36.0625
1.0,-2.643971589509529,-1.8691318083267772,-0.41581020810381264,-0.07538006206611371,0.1116918491057373,-0.13033905053609357,-0.38862633893718207,-0.3305374882262972,0.08496181697505056,-3.0744558141732594,0.6259475211751235,-0.00042948747186430185,-0.12296199378874353,-0.010847564594824003,-9.831911040659392e-05,0.03705822451227371,-0.005345766771209771,-0.01743789653950093,0.4402679204940796,-1.438317896132805,1.9715679327594202,-2.0999118290343226,-1.573660675679342,2.4164044857025146,-0.06784851104021072,0.24607954919338226,-0.2924402356147766,0.06695034354925156,-0.0318523533642292,-0.05009985342621803,-0.5171475410461426,0.38307225704193115,-9.442731857299805,0.8739365339279175,47.66449737548828,-0.7118212580680847,-1.597409963607788,-3.580850124359131,-0.3095538020133972,-0.37360167503356934,-0.37523353099823,28.0,28.9375,28.375,32.375,35.0,36.0625
1.0,-1.388269455776471,-0.48889451690525676,-0.5460228454087016,-0.022165850081227245,0.0917015437940333,-0.13639069910162213,-0.38913950294734434,-0.33060787461212465,0.08496573104831434,-3.0743520723698587,0.626036259877848,-0.0003291741402729316,-0.12685279897021157,-0.01212694784412513,0.0001088857870076208,0.03540946844721264,0.0019392912238145922,-0.011374095668162311,0.44001609086990356,-1.4373102349093934,1.970382038746969,-2.0997349224486292,-1.5737689177142542,2.416222333908081,-0.06775520741939545,0.2508259415626526,-0.2967449128627777,0.05918898433446884,-0.03351185843348503,-0.05605931207537651,-0.28730422258377075,0.3447650372982025,-9.404424667358398,0.8873621225357056,47.66539001464844,-0.6887466311454773,-1.6409424543380737,-3.712362766265869,-0.2096620798110962,-0.33636474609375,-0.3495972454547882,28.0,28.9375,28.375,32.375,35.0,36.0625
1.0,-0.16078318209901898,-0.4249906984721879,-1.0794663987064148,0.01488461421662006,0.03341425168248261,-0.13038176060505824,-0.3899250459189434,-0.3306689220352185,0.08491820669950434,-3.074079444247689,0.6260320561927756,-0.00030349683479776005,-0.13201520265637376,-0.014015285573335189,0.00038221959198656306,0.03541028578344795,0.008119038971636523,-0.004656448370828854,0.43958431482315063,-1.435677395468094,1.9685738722430628,-2.099413057366842,-1.5739977995501917,2.4158246517181396,-0.06694666296243668,0.2596454918384552,-0.3067035973072052,0.054699014872312546,-0.036204833537340164,-0.06194530054926872,-0.15322890877723694,0.28730422258377075,-9.519346237182617,0.831413209438324,47.66449737548828,-0.8001086115837097,-1.9098117351531982,-3.6100778579711914,-0.061857134103775024,-0.27197888493537903,-0.30621665716171265,28.0,28.9375,28.375,32.375,35.0,36.0625
1.0,-1.0289556737496253,-1.4664232354557798,-1.0756172241435742,-0.037305143948910005,0.019101567877149145,-0.13563531444028026,-0.3904290655053838,-0.3307050075144542,0.08489663749388474,-3.0738650463379926,0.6260595619637017,-0.00032929357945869504,-0.1326415208808922,-0.013604874591827142,-0.0007102506368388808,0.03887531792222454,0.004500554235475535,0.0005997608451146219,0.4393083453178406,-1.4346224528602143,1.9673650900470179,-2.099124094048971,-1.5741546789752405,2.4155945777893066,-0.06713058054447174,0.2642972767353058,-0.31061768531799316,0.05867704004049301,-0.03782770037651062,-0.0673721432685852,-0.038307227194309235,0.26815059781074524,-9.672574996948242,0.8403671979904175,47.65911865234375,-0.8854683637619019,-1.9611873626708984,-3.595696210861206,-0.04322976619005203,-0.2280450165271759,-0.21099621057510376,28.0,28.9375,28.375,32.375,35.0,36.0625
1.0,0.052592810338053075,-1.5351246753902035,-1.2448295812796293,-0.04313024582646041,-0.004376864534899822,-0.11720551660865881,-0.3912706817084311,-0.3308005582086677,0.0849069366972838,-3.0736904888756875,0.6259619286077185,-0.00011309429977995464,-0.13490187895857472,-0.013855959390700353,-0.0011928963050289235,0.0392652284695873,0.0019262109965462481,0.003464015741079879,0.43889984488487244,-1.4329915207675477,1.9654248396502894,-2.098812242547506,-1.5743945280658167,2.415149211883545,-0.06885326653718948,0.27032995223999023,-0.31749823689460754,0.061969805508852005,-0.03711280971765518,-0.07195930927991867,0.038307227194309235,0.3447650372982025,-9.749189376831055,0.8672236800193787,47.66718673706055,-0.8557419776916504,-2.049067974090576,-3.6457886695861816,-0.02063276618719101,-0.1396363377571106,-0.0969650000333786,28.0,28.9375,28.375,32.375,35.0,36.0625
1.0,0.19514217582296556,-0.7360486642670049,-1.084219894362747,-0.013645017410924599,-0.012435758605604478,-0.1313512787441346,-0.39181208042752075,-0.33086203668252323,0.08488531104203945,-3.0735469850210335,0.6258943388587983,-0.0001014249748718143,-0.13556304956978135,-0.014427120162297934,0.00014344323617983905,0.03697158079493256,0.001907378703847366,-0.00011318008604783991,0.43862372636795044,-1.4318656784347077,1.9641440550433558,-2.098571916619772,-1.5745256582843226,2.4148504734039307,-0.06950043886899948,0.2696618437767029,-0.32076191902160645,0.06492922455072403,-0.03503008186817169,-0.06903517246246338,0.1149216815829277,0.325611412525177,-9.730035781860352,0.9365981817245483,47.6707649230957,-0.8667957782745361,-1.8973782062530518,-3.612093448638916,0.036433346569538116,-0.13890424370765686,-0.06364466995000839,28.0,28.9375,28.375,32.375,35.0,36.0625
1.0,-0.1907741951148085,-0.5600018887652162,-0.8871270200235544,-0.013143187143410192,0.006898399365804095,-0.12770041167756394,-0.39263855909893164,-0.33094859770270996,0.08489921778763182,-3.073337703016976,0.6258919030925417,-1.2995409194794256e-05,-0.13672838653924968,-0.016048629473664786,0.0001959854493161549,0.03619920517281277,-0.0033038289353193896,-0.006558280140720019,0.43819183111190796,-1.4302466672709961,1.962179962788717,-2.0981503925719203,-1.574728790913717,2.414445638656616,-0.06909675151109695,0.2757507264614105,-0.32989177107810974,0.07235050946474075,-0.032112445682287216,-0.062193822115659714,0.019153613597154617,0.325611412525177,-9.576807022094727,0.8873621225357056,47.6707649230957,-0.9632904529571533,-1.9042689800262451,-3.6071412563323975,0.05235041677951813,-0.11764863133430481,-0.10260137915611267,28.0,28.9375,28.375,32.375,35.0,36.0625
1.0,-0.10597166632188618,0.16732645398432006,-0.5923521542508873,-0.015246771081608657,0.01861355906006336,-0.13739567185193483,-0.3934771018133002,-0.331086169427786,0.08492291688071446,-3.073173869909692,0.6259742907603238,4.7151607136708085e-05,-0.13633621145324562,-0.016234119632078516,-0.0011708858860640845,0.03920281364701256,-0.016144025726303385,-0.013261742465620563,0.43780753016471863,-1.4285674107125779,1.9601190725909632,-2.0977145634093226,-1.574871842061178,2.414135456085205,-0.06987371295690536,0.283389151096344,-0.3391798436641693,0.08689738810062408,-0.029367612674832344,-0.05627622827887535,-0.13407529890537262,0.24899697303771973,-9.442731857299805,0.8426030278205872,47.6627082824707,-1.0834767818450928,-1.9971716403961182,-3.608889102935791,-0.08447389304637909,-0.13225311040878296,-0.18282870948314667,28.0,28.9375,28.375,32.375,35.0,36.0625
1.0,-0.7122784715576193,-0.34105654056304374,-0.3188332520241158,-0.00708645796759411,0.0017693960985736513,-0.12126361045349893,-0.39401430092221246,-0.33115119599268084,0.08491046981996297,-3.072964585879796,0.6260072860488362,-3.461694564274358e-05,-0.13582522055461044,-0.016373436571458982,-0.0010382409152137864,0.04000083301551609,-0.02141908320931961,-0.01475996088648087,0.437543660402298,-1.4274169218591233,1.9587543646441858,-2.0973407230772914,-1.5750029722796839,2.4139204025268555,-0.06995529681444168,0.28492656350135803,-0.34327107667922974,0.09455342590808868,-0.027859210968017578,-0.05486203357577324,-0.09576806426048279,0.2106897532939911,-9.251195907592773,0.7844129800796509,47.651954650878906,-1.0854909420013428,-1.802077293395996,-3.590714454650879,-0.20790457725524902,-0.14808021485805511,-0.22559808194637299,28.0,28.9375,28.375,32.375,35.0,36.0625
1.0,-0.09422382003696816,0.00048212049592931405,-0.3818971860300421,-0.005576062769305088,0.035665957971724276,-0.13383651365382832,-0.3948733486475671,-0.3312371808906384,0.08493662829965559,-3.072677646922268,0.6261387139938993,-4.8338649568888536e-05,-0.139414270680582,-0.016474637136137046,0.0009796380982796291,0.03773072860139251,-0.017352843190316786,-0.018052932055606638,0.437086820602417,-1.425715522175171,1.9566243330584925,-2.0967542133727015,-1.5752070585833948,2.4135844707489014,-0.07279213517904282,0.28613409399986267,-0.3498820662498474,0.09528961032629013,-0.02756020985543728,-0.05440058559179306,-0.07661445438861847,0.15322890877723694,-9.385271072387695,0.8806493282318115,47.685096740722656,-1.0654727220535278,-1.579993724822998,-3.726043701171875,-0.3170764446258545,-0.15477129817008972,-0.2619357109069824,28.0,28.9375,28.375,32.375,35.0,36.0625
1.0,-1.2383121747891455,-0.17516852575697,-0.34601423224577577,-0.018310271826181636,0.04498215124981348,-0.1306886496493355,-0.3954283290033898,-0.33131727240551156,0.08490454392696345,-3.0725275955508655,0.6261646468446858,-0.00023118151546281044,-0.14511956557375694,-0.018926795789710994,0.004052574787640311,0.0309646261656378,-0.0050017669481215304,-0.019585058983750264,0.436786413192749,-1.4244927924922486,1.9552229086505335,-2.096398492852682,-1.5752547422992151,2.413320779800415,-0.07356757670640945,0.2880059480667114,-0.3575073480606079,0.08697915822267532,-0.026706350967288017,-0.05363832786679268,-0.26815059781074524,0.13407529890537262,-9.251194953918457,0.7866488099098206,47.65284729003906,-0.9588583707809448,-1.5953402519226074,-3.534655809402466,-0.27147892117500305,-0.17375168204307556,-0.32639259099960327,28.0,28.9375,28.375,32.375,35.0,36.0625
1.0,-1.966298421173269,-0.717253558439478,-0.6752681149490359,-0.015931796813457154,0.07521814422696045,-0.12112618581568947,-0.39629361390673074,-0.3314315855894682,0.0849466945899596,-3.072300778162536,0.6262890680861776,-0.00012381562611306232,-0.1508938596358851,-0.02046649851661271,0.002033951892197221,0.02894857302907742,-0.0003072874225804687,-0.022125050881213866,0.43637800216674805,-1.4228114199689408,1.9530914465533655,-2.09588684658193,-1.575458828602926,2.4130210876464844,-0.075344517827034,0.30012568831443787,-0.3649807870388031,0.07720932364463806,-0.02690991945564747,-0.05286605656147003,-0.5746084451675415,0.3064578175544739,-9.442731857299805,0.7642692923545837,47.6707649230957,-0.9550988078117371,-1.8059172630310059,-3.492314338684082,-0.11887221783399582,-0.20439161360263824,-0.4449000954627991,28.0,28.9375,28.375,32.375,35.0,36.0625
1.0,-2.0245487797023953,-1.3478781177600938,-1.3605809927788357,-0.03594635516431248,0.08772574007976425,-0.12108193086303108,-0.39691424694883937,-0.33150800114570605,0.08494921831308211,-3.072156534556351,0.6263719857001405,-0.00011219252331655189,-0.15241488970548386,-0.018470926741163612,0.0007700485482727186,0.03140664701701524,-0.0028739593585947313,-0.01953501096184193,0.43586066365242004,-1.4210200917771836,1.950902287160055,-2.0953713856139125,-1.5756271521197718,2.41265869140625,-0.07927007228136063,0.3034014105796814,-0.36674022674560547,0.07900694757699966,-0.028092049062252045,-0.05937247723340988,-0.6320692300796509,0.40222588181495667,-9.730035781860352,0.9298853874206543,47.649269104003906,-0.9100614786148071,-1.7341269254684448,-3.9548728466033936,-0.07186345756053925,-0.21538345515727997,-0.443122923374176,28.0,28.9375,28.375,32.375,35.0,36.0625
1.0,-1.2729950559222762,-1.758976354652566,-1.2350459461143917,-0.06551814663058234,0.0882454640942282,-0.13002633274079076,-0.39783441507831574,-0.3316060925927367,0.0849520223322131,-3.0719381770417935,0.6265701343824299,-0.00011352370050903998,-0.15665109191896573,-0.017975268833596972,0.0028249503862170355,0.03161977552662719,0.0017519434283844565,-0.014120556369632595,0.43553563952445984,-1.4197580230287095,1.9494050184832972,-2.095083852807516,-1.575712029133932,2.4124040603637695,-0.08225730806589127,0.305545449256897,-0.37460413575172424,0.08057413250207901,-0.030291222035884857,-0.0677579939365387,-0.6895301342010498,0.38307225704193115,-9.749189376831055,0.8739365339279175,47.654640197753906,-0.769809365272522,-1.567610263824463,-3.891045093536377,-0.05232250317931175,-0.19580233097076416,-0.4029040038585663,28.0,28.9375,28.375,32.375,35.0,36.0625
1.0,-1.070734015690766,-0.3941354554297155,-1.358192853530929,0.014231186129518616,0.03152794288988533,-0.12170625820946311,-0.3988117302949574,-0.33172701529753973,0.08499873014426637,-3.071773619792959,0.6265663725994508,9.493310587127703e-05,-0.15898619950439813,-0.018063138049690893,0.0003066392630436326,0.03300601013754148,-0.007324156506102839,-0.005871552602851757,0.43505480885505676,-1.417916403417923,1.9470813910113733,-2.094614168206686,-1.5759270826922815,2.4119439125061035,-0.08529060333967209,0.3170737326145172,-0.38411208987236023,0.08727104216814041,-0.027776718139648438,-0.07905034720897675,-0.49799394607543945,0.17238251864910126,-9.90241813659668,0.9455521702766418,47.699424743652344,-0.6414557695388794,-1.8651882410049438,-3.6912128925323486,-0.052315160632133484,-0.2572919726371765,-0.26717475056648254,28.0,28.9375,28.375,32.375,35.0,36.0625
1.0,-0.7377921867385029,0.5023480109256677,-0.7343581050591875,0.014182096969993414,0.03811899795236855,-0.12733644313865775,-0.399463477714244,-0.3318113236778595,0.08501593386105943,-3.071695925321723,0.6265873393257753,0.00015458802907581683,-0.15720633270053425,-0.01675207248095837,-0.001962617775587233,0.039376464331303984,-0.019186205081243413,-0.004363899259864912,0.43470656871795654,-1.4166655254415055,1.9455378691302698,-2.0943108997740687,-1.5760114828692835,2.4116199016571045,-0.08549153804779053,0.32218244671821594,-0.3878788352012634,0.09934861958026886,-0.028554080054163933,-0.08075490593910217,-0.05746083706617355,0.05746084079146385,-9.423578262329102,0.8605108857154846,47.68240737915039,-0.6207126379013062,-1.8435595035552979,-3.776623249053955,-0.1671399474143982,-0.26314571499824524,-0.21236452460289001,28.0,28.9375,28.375,32.375,35.0,36.0625
1.0,0.14401589891833447,0.5662406017552448,-0.5318311455201966,0.04219840066804706,-0.012338005213446586,-0.12294206601769253,-0.40044733436896357,-0.3318977875049816,0.08505300142248817,-3.071431052030894,0.6266258703720361,0.00014454507048760498,-0.1604394746389174,-0.017773338850814096,-0.0004880109243205044,0.04100100474999192,-0.01904181872523891,-0.00492377222914564,0.43415483832359314,-1.4147648972323914,1.9431174437152308,-2.0936385593810023,-1.5762160460101526,2.411128520965576,-0.08512912690639496,0.32789793610572815,-0.39993467926979065,0.10622088611125946,-0.030126405879855156,-0.07981541752815247,0.05746084079146385,-0.038307227194309235,-9.097966194152832,0.9052700400352478,47.6394157409668,-0.6174471378326416,-1.7974212169647217,-3.5166406631469727,-0.271512508392334,-0.2890811562538147,-0.1495395302772522,28.0,28.9375,28.375,32.375,35.0,36.0625
1.0,-0.20183440393307056,-0.7161310261059749,-0.574004966267233,0.010403119047443609,-0.011217076078740165,-0.12584160091124794,-0.40110279759444845,-0.33198456859137804,0.08509590276236015,-3.071312825063546,0.6266208516309889,0.0002034065076418151,-0.1636145996551094,-0.019666028941729325,0.0015667726379765053,0.03772302453457621,-0.01199465265344725,-0.009331850418895976,0.43383127450942993,-1.4135164630464097,1.9414885679828089,-2.093220373193258,-1.5763362089740198,2.410818338394165,-0.08419004827737808,0.32938453555107117,-0.4060092270374298,0.10304838418960571,-0.03012750670313835,-0.07446414977312088,-0.07661445438861847,0.2298433631658554,-9.251194953918457,0.8873621225357056,47.68598937988281,-0.6677559614181519,-1.5446157455444336,-3.3932299613952637,-0.26054006814956665,-0.32252204418182373,-0.19877655804157257,28.0,28.9375,28.375,32.375,35.0,36.0625
1.0,-1.2642368710785057,-2.5037342684332407,-0.47776841944349446,-0.092231079711589,0.08043422354119187,-0.13321418688473255,-0.40208347293786634,-0.3320917740969584,0.08510785261468698,-3.0710355056268708,0.6267380317989835,0.0001678821096061812,-0.16746694453528857,-0.020486581306803274,0.0007816336318800724,0.036967901385489034,-0.005804916663842072,-0.017759279206408046,0.4333152770996094,-1.411556215291359,1.9390605131732386,-2.092589040795797,-1.5765283743487757,2.4104135036468506,-0.08448993414640427,0.33539924025535583,-0.4099426567554474,0.09505847096443176,-0.03206012398004532,-0.06631767004728317,0.0,0.5937620401382446,-9.346963882446289,0.9589777588844299,47.68061828613281,-0.8520451784133911,-1.5326733589172363,-3.722644805908203,-0.1860402524471283,-0.31924688816070557,-0.2921556532382965,28.0,28.9375,28.375,32.375,35.0,36.0625
1.0,-1.574683748924954,-2.22583514044696,-0.44371531664384567,-0.05197439522854101,0.04386928397749325,-0.11945549846409555,-0.40279186159617775,-0.3321737634599412,0.08514291819819786,-3.0708946504645342,0.6268801351189822,0.00030440195042507907,-0.1725228988002032,-0.022989087243338722,0.0007310722530790517,0.034334034212277535,0.0007060819612025167,-0.015863110113596188,0.43278756737709045,-1.4095592361739655,1.9365833441363733,-2.092076440850729,-1.5767448584186,2.410041570663452,-0.08366834372282028,0.34410834312438965,-0.41900211572647095,0.08835790306329727,-0.03245292231440544,-0.06738368421792984,-0.2298433631658554,0.8236054182052612,-9.27034854888916,1.0261164903640747,47.692256927490234,-0.8426374197006226,-1.678307294845581,-3.6604056358337402,-0.011214610189199448,-0.3572007417678833,-0.31712427735328674,28.0,28.9375,28.375,32.375,35.0,36.0625
1.0,-0.6851722860322983,-2.1422676398349942,-0.2457960283425247,-0.06319457744980829,0.02474834329201818,-0.12981510239612978,-0.4038209681178444,-0.33231805547866106,0.08514182304812293,-3.0706696856435225,0.6269637586117625,0.0003965856178733508,-0.17419136915070477,-0.02294314017338073,0.0014376748511751663,0.036689389555973013,0.0019953320812662986,-0.01564296366038212,0.43247583508491516,-1.408165456061699,1.9348738829242151,-2.0917283497252406,-1.5768774191485804,2.4097657203674316,-0.08334285765886307,0.34634602069854736,-0.42428135871887207,0.09120816737413406,-0.03514285013079643,-0.06726046651601791,-0.3447650372982025,0.7469909191131592,-9.117119789123535,0.9231725931167603,47.651058197021484,-1.066595435142517,-1.6139051914215088,-3.6173620223999023,0.016833432018756866,-0.34568876028060913,-0.32462358474731445,28.0,28.9375,28.375,32.375,35.0,36.0625
1.0,-1.0779015529630835,-1.463643295513792,-0.03246518349865794,-0.033549046862243595,0.029033593713661134,-0.11906628757614937,-0.4048805349346524,-0.3324546096205484,0.08511387797881839,-3.0703784828756993,0.6271125017069002,0.00037758267565956064,-0.17528877993492928,-0.021456986039833446,0.0008691072447655872,0.04336349570998929,-0.005568209411218043,-0.016597972092858737,0.4319593012332916,-1.4059770715287705,1.9322775045977991,-2.091161390344137,-1.5770824591266077,2.4093821048736572,-0.08487417548894882,0.35234272480010986,-0.43351948261260986,0.10408849269151688,-0.03804821893572807,-0.06781250238418579,-0.07661445438861847,0.363918662071228,-9.040505409240723,0.9880701303482056,47.67792892456055,-1.0607342720031738,-1.541021704673767,-3.6085968017578125,0.0016981014050543308,-0.32836204767227173,-0.3640216588973999,28.0,28.9375,28.375,32.375,35.0,36.0625
1.0,0.5860204430892237,1.5242276722962043,0.189057581460708,0.0516014055480287,0.014200590474486487,-0.13492570366721612,-0.4056128023095879,-0.33255089145579286,0.08510977511011852,-3.070214533369036,0.6271093836293162,0.00046723679731131105,-0.17568722521283445,-0.0201117969071556,-0.0003358338030553242,0.04795022453823377,-0.013826731175450805,-0.010608030415777472,0.43162262439727783,-1.4045097541860123,1.9305074850665491,-2.0908109150328578,-1.5772507826434534,2.4090662002563477,-0.08694785833358765,0.3576424717903137,-0.43968549370765686,0.11430051177740097,-0.03879651427268982,-0.07586914300918579,0.019153613597154617,0.05746084079146385,-8.676587104797363,0.9075058698654175,47.68419647216797,-0.9877705574035645,-1.8300197124481201,-3.527637243270874,-0.09420876950025558,-0.3263903260231018,-0.35491645336151123,28.0,28.9375,28.375,32.375,35.0,36.0625
1.0,0.44839790247962275,1.907995449085573,0.23430406686203356,0.09766364266523751,-0.011666157450303881,-0.1265930200220441,-0.4066715486282181,-0.33267442179711587,0.08508297168521373,-3.0698972826058744,0.6270747996243162,0.00034837526392827664,-0.176726685358122,-0.018159520965206812,-0.003327920957436939,0.057647529050450654,-0.02322601841707766,-0.003541030286552352,0.4310944378376007,-1.4022954267314454,1.9278414885150355,-2.0901128254332484,-1.5774686972247522,2.408560037612915,-0.08804656565189362,0.36780354380607605,-0.44769203662872314,0.12466400116682053,-0.04374717175960541,-0.08399281650781631,-0.1149216815829277,-0.325611412525177,-8.65743350982666,0.8694595694541931,47.6895751953125,-1.0209437608718872,-1.9433460235595703,-3.47393798828125,-0.21538785099983215,-0.2777920365333557,-0.24549007415771484,28.0,28.9375,28.375,32.375,35.0,36.0625
1.0,-0.3552010019898347,1.0454649742586004,-0.15368429264850775,0.034235362371403955,0.04177489968001706,-0.13282476257399747,-0.40734625484131454,-0.33272671054061564,0.0850569907405748,-3.0695905677996436,0.6270628142485746,0.0001042759461957234,-0.18045852746068275,-0.01852916381000203,-0.0011705171004467664,0.05572299887005105,-0.014947420086024883,0.0016829288845498919,0.43072205781936646,-1.4008310002139588,1.9260590712176722,-2.089491983453268,-1.5776250998126429,2.408221960067749,-0.08918052166700363,0.3679237365722656,-0.45238879323005676,0.12084811925888062,-0.045548487454652786,-0.09032449871301651,-0.038307227194309235,-0.4213795065879822,-9.059659004211426,0.9522649645805359,47.657325744628906,-0.9299919009208679,-1.8199539184570312,-3.5149283409118652,-0.222150981426239,-0.24691036343574524,-0.13940295577049255,28.0,28.9375,28.375,32.375,35.0,36.0625
1.0,-1.4993580058877904,-0.27620591710471976,-0.6789078638656619,-0.018589787647027553,0.09433412118470104,-0.1301055672947449,-0.40837079502707296,-0.33281021083374307,0.08496227266925693,-3.06911439797258,0.6269082046488081,-0.00011550009819211499,-0.18759415233247595,-0.01890973225724838,-0.0003392144174017898,0.053236334268759115,-0.0026635173957385537,-0.0055592253484439275,0.43021702766418457,-1.398546741609909,1.9234536329852503,-2.0887662372984828,-1.5779503027545374,2.4076852798461914,-0.09231958538293839,0.3737654387950897,-0.45937809348106384,0.10978367924690247,-0.048485662788152695,-0.08617886155843735,-0.5937620401382446,0.019153613597154617,-9.481039047241211,0.932121217250824,47.671661376953125,-0.8574026823043823,-1.8930904865264893,-3.606760263442993,-0.0952104777097702,-0.16547773778438568,-0.09781351685523987,28.0,28.9375,28.375,32.375,35.0,36.0625
1.0,-1.679974365864736,-1.1915677937211469,-1.7583761740709076,-0.010590074045798405,0.07175597763847422,-0.12250151786006046,-0.4091215276199209,-0.3328764037069076,0.08495078652300997,-3.0688609615376126,0.6269140628888302,-8.458085923787727e-05,-0.18973742639404997,-0.018532620913105452,-0.0018074985752241444,0.05349019290722922,-0.004113224485476844,-0.01556113779804931,0.42984408140182495,-1.3970314723304291,1.9216111342059534,-2.088310857812399,-1.5781663099872034,2.407350778579712,-0.09472639113664627,0.3794504404067993,-0.4630543887615204,0.10921835899353027,-0.04809979349374771,-0.07857867330312729,-0.727837324142456,0.325611412525177,-9.921571731567383,0.8896032571792603,47.66539001464844,-0.8297519683837891,-1.9716389179229736,-3.743297576904297,-0.05820225179195404,-0.1280541867017746,-0.1347559094429016,28.0,28.9375,28.375,32.375,35.0,36.0625
1.0,-2.458660231456041,-3.4003670060054243,-2.2932100789113266,-0.10978148846486305,0.08754977518145052,-0.12038064465880026,-0.4102311747978726,-0.3329703345717101,0.08490614370674537,-3.0684094418687557,0.6270482013003714,-0.00023199217960859705,-0.18692472535622007,-0.018803460839050067,-0.0026497901255455526,0.055980572594810436,-0.01572201594635616,-0.0211609014430134,0.42926883697509766,-1.3947003495744248,1.9188154379474085,-2.0875278911986292,-1.5784533659564417,2.406921148300171,-0.09308114647865295,0.38160866498947144,-0.46761345863342285,0.12320911884307861,-0.04550776258111,-0.07133878767490387,-0.7469909191131592,0.49799394607543945,-10.228029251098633,1.012690782546997,47.668975830078125,-0.827482283115387,-1.87605881690979,-4.234006404876709,-0.14340317249298096,-0.09615479409694672,-0.23057079315185547,28.0,28.9375,28.375,32.375,35.0,36.0625
1.0,-0.8169963536346614,-1.5628419853772044,-2.1548322557725474,-0.0523590588366006,0.045260330221811876,-0.12959007077888668,-0.4113787188353747,-0.3330753450060828,0.08488085305858203,-3.0680247331386874,0.6273132386491066,-0.0003144977243276187,-0.18993342129940877,-0.020424959994140346,-0.0023689025022324683,0.05301684143352306,-0.023266789895876352,-0.026576138977347744,0.4286559522151947,-1.3923670959523697,1.915978733693258,-2.0867940388121546,-1.578691307698385,2.406526803970337,-0.09565692394971848,0.3906724750995636,-0.4822181463241577,0.13433782756328583,-0.03970459848642349,-0.06852852553129196,-0.3064578175544739,0.363918662071228,-10.15141487121582,1.0015010833740234,47.66628646850586,-0.772337794303894,-1.9069514274597168,-3.750796318054199,-0.32601460814476013,-0.133148193359375,-0.33293211460113525,28.0,28.9375,28.375,32.375,35.0,36.0625
1.0,-0.2554085254740114,-0.8147807948645929,-1.9371269298826561,-0.005984450557080939,0.03355016255608309,-0.12977106707070568,-0.4121979025502509,-0.3331655937800302,0.08491342828702281,-3.0678239228923907,0.6274810958427852,-0.00017061180910509673,-0.19214492469914088,-0.021149886462688467,-0.0034582542716271297,0.04958954219811446,-0.022250115570860606,-0.02946245203322448,0.4282595217227936,-1.3908160638860245,1.9139826933490198,-2.0863291225829066,-1.5788825193988245,2.4062631130218506,-0.09745226055383682,0.3951590657234192,-0.48455047607421875,0.1298062950372696,-0.037036724388599396,-0.06745606660842896,-0.019153613597154617,0.2298433631658554,-10.132261276245117,0.9142186641693115,47.65374755859375,-0.6479604244232178,-2.1636838912963867,-3.9698715209960938,-0.28640761971473694,-0.17448121309280396,-0.40944528579711914,28.0,28.9375,28.375,32.375,35.0,36.0625
1.0,-1.0402127323126062,-1.249545757853534,-1.810464210400003,-0.0022033011458427705,-0.001036348557820636,-0.1121121905824574,-0.41339666026443606,-0.3333088665453025,0.08489569834987587,-3.067524986726986,0.6276447331752082,-0.00014610385312693294,-0.20306467615801047,-0.024982250098093656,0.00286163167898651,0.03803465897139367,0.001985076645026098,-0.02907596899907812,0.42767077684402466,-1.3884011519006272,1.9110396544085901,-2.0856639347472132,-1.5791099707232874,2.405818223953247,-0.09932200610637665,0.3973066806793213,-0.49917688965797424,0.1153838261961937,-0.03668736666440964,-0.06970381736755371,-0.07661445438861847,0.05746084079146385,-9.768342971801758,1.0373061895370483,47.649269104003906,-0.6567022800445557,-1.9172861576080322,-3.6371049880981445,-0.09731395542621613,-0.19730624556541443,-0.4740467071533203,28.0,28.9375,28.375,32.375,35.0,36.0625
1.0,-0.3507060458096197,-0.4587646545085857,-1.9126435037472154,0.001394372842219,0.008365570917120762,-0.1242441272722387,-0.4142274880465611,-0.3334034934939814,0.08494384017047354,-3.0673810787787597,0.6278964684219681,-6.738025039051784e-05,-0.20292567836007766,-0.025731517147019337,0.0007224833141125783,0.038529424308450196,-0.002476541568340952,-0.02221697694913087,0.4272273778915405,-1.3868623983911057,1.9090078512774866,-2.085160871545309,-1.5792182127581995,2.405552387237549,-0.09836545586585999,0.4027426242828369,-0.5014936327934265,0.11645173281431198,-0.03533579036593437,-0.07561638206243515,0.07661445438861847,0.19153612852096558,-9.864110946655273,0.9813573360443115,47.65284729003906,-0.714789867401123,-1.8742425441741943,-3.7994003295898438,-0.006555069237947464,-0.230000302195549,-0.4853086769580841,28.0,28.9375,28.375,32.375,35.0,36.0625
1.0,-1.0582660756184328,-1.3022683397699075,-1.51730483007761,-0.008269459186658315,0.02281783392030278,-0.12464120147714361,-0.4154634649410761,-0.3335753929943292,0.0849859107109659,-3.0671812224789736,0.6279386202510374,0.00011235493353675367,-0.20526311388254956,-0.026965043787556597,0.0024068617737837473,0.03822250110053988,-0.0030791767119372057,-0.005624808959000749,0.42666342854499817,-1.3844827872565766,1.9059565703021448,-2.084475656548971,-1.5794456640826624,2.405043125152588,-0.09788906574249268,0.40643489360809326,-0.5121968984603882,0.12370547652244568,-0.03492644801735878,-0.09173374623060226,0.05746084079146385,0.3064578175544739,-9.519346237182617,0.9858343005180359,47.66449737548828,-0.7611755132675171,-1.819156527519226,-3.8136446475982666,0.019414454698562622,-0.29584556818008423,-0.32390129566192627,28.0,28.9375,28.375,32.375,35.0,36.0625
1.0,-0.4035416673514835,-1.05884154297171,-0.8709448782823628,-0.029404349611950834,0.015272824844865168,-0.12560699120481805,-0.41629163236106503,-0.33370001032774055,0.08502628569301529,-3.067062661061501,0.627848658793806,0.00016088003534782202,-0.20247718237840537,-0.026029092010056182,0.0008912028490146384,0.04475808749890355,-0.016216582606909564,0.0019163338984332229,0.4262920618057251,-1.3828717333129426,1.9038398901568812,-2.083919187585348,-1.5795782248126429,2.404632568359375,-0.09669800847768784,0.409903883934021,-0.5169742107391357,0.13959920406341553,-0.03547029569745064,-0.0980788916349411,-0.17238251864910126,0.363918662071228,-9.404424667358398,0.9970240592956543,47.64836883544922,-0.9006019234657288,-1.7158441543579102,-3.743443012237549,-0.07727077603340149,-0.31664830446243286,-0.19243763387203217,28.0,28.9375,28.375,32.375,35.0,36.0625
1.0,-0.015116372891333774,-1.0458453528102538,0.017524249899578057,-0.023472818144635418,0.023554044627025823,-0.1203492801331638,-0.41754741158864317,-0.33382511805296383,0.08503407451306341,-3.0667283862085273,0.6278954659956071,0.0001555709291229937,-0.20337278575788284,-0.02520807417720547,0.0017117443008849266,0.04857584360983075,-0.021903798752574512,-0.0026612767228191975,0.4256554841995239,-1.380384386782982,1.900696102772848,-2.0830775700011195,-1.5798423925982874,2.404071807861328,-0.09775535017251968,0.41299358010292053,-0.5263288021087646,0.15260978043079376,-0.03660581633448601,-0.09454217553138733,-0.2106897532939911,0.26815059781074524,-9.097966194152832,1.0305933952331543,47.671661376953125,-0.8939794898033142,-1.5139520168304443,-3.689929962158203,-0.27386462688446045,-0.3455408215522766,-0.14575667679309845,28.0,28.9375,28.375,32.375,35.0,36.0625
1.0,-0.9208584910075455,-0.7754398393873838,0.32160883554558983,-0.00620174250519512,0.053022790127115235,-0.11607438437670445,-0.4187699430174232,-0.3340311161990833,0.08505168239690505,-3.0665101738432092,0.6278686422200763,7.711519221853637e-05,-0.21184241646490165,-0.027922701154368224,0.0025412580435182604,0.04332991568296645,-0.005601739075195935,-0.014720794229435313,0.42512786388397217,-1.3778833609870453,1.8975041548358362,-2.082221647302145,-1.579998795186178,2.4035584926605225,-0.0982222631573677,0.4217855632305145,-0.5359923243522644,0.13654926419258118,-0.038568589836359024,-0.08292211592197418,-0.09576806426048279,0.17238251864910126,-8.695740699768066,0.9410752058029175,47.6680793762207,-0.8958584070205688,-1.6790276765823364,-3.487269401550293,-0.13602891564369202,-0.40939685702323914,-0.24613693356513977,28.0,28.9375,28.375,32.375,35.0,36.0625
1.0,-1.1945321777353763,-1.1206217487363745,0.41844232369940604,-0.019701799704869162,0.06355743389342781,-0.11206541040016714,-0.4196388818608806,-0.3341600477879299,0.08506439281791459,-3.066359612599955,0.6279155997199483,0.0001482558385315083,-0.21664308530968135,-0.028657347832757307,0.005099984455614105,0.03925738077699847,0.0038293691536142992,-0.020335363628586553,0.4247429072856903,-1.376164973979332,1.8953259626971644,-2.0817204914488734,-1.5801432768451136,2.403224229812622,-0.10034914314746857,0.422577440738678,-0.5423964858055115,0.1318979412317276,-0.03875831142067909,-0.07942955940961838,-0.3064578175544739,0.2298433631658554,-8.65743350982666,1.0015010833740234,47.656429290771484,-0.8866640329360962,-1.5555667877197266,-3.526134729385376,0.006881571374833584,-0.4373396337032318,-0.30507153272628784,28.0,28.9375,28.375,32.375,35.0,36.0625
1.0,-0.5172238857017872,0.05141145062889943,0.4778126284772796,0.006893389125460564,0.04422629438857807,-0.1250126562510035,-0.42090736449159777,-0.334296234066699,0.08502686028327039,-3.0659473627990774,0.6280736239139797,6.49040498592713e-05,-0.21834166446981684,-0.026511345833328377,0.0038727061500486997,0.050383369645605434,0.0006224814961439767,-0.02031525824384002,0.42413127422332764,-1.373544992213585,1.8921101729022425,-2.080867429772848,-1.5804222265826624,2.402768611907959,-0.09990869462490082,0.429402619600296,-0.5506551265716553,0.14082570374011993,-0.047601521015167236,-0.0789233073592186,-0.4596867263317108,0.2106897532939911,-8.638279914855957,1.0596858263015747,47.66539001464844,-0.9108641147613525,-1.428808569908142,-3.5601184368133545,0.043653689324855804,-0.3936763107776642,-0.33292800188064575,28.0,28.9375,28.375,32.375,35.0,36.0625
1.0,-0.5877534613062168,0.5449960231815331,0.29131412095560955,0.060178441923005074,0.023290040964631394,-0.1200766137569685,-0.4217997124408186,-0.3344018230144511,0.08502165148963059,-3.0657046459883444,0.6282118322734069,7.665358071663758e-05,-0.21596207523112057,-0.02401695567143131,0.0009883680158124283,0.05964202132263239,-0.015468659119865186,-0.020313575929272146,0.4237108528614044,-1.3717524123242875,1.8898628393756312,-2.0802985630431117,-1.5806029478656214,2.40246844291687,-0.1010124683380127,0.43533074855804443,-0.5557392239570618,0.1584191620349884,-0.04942118749022484,-0.08000815659761429,-0.4405331015586853,0.15322890877723694,-8.561665534973145,1.0238806009292603,47.66360092163086,-0.9795676469802856,-1.5734992027282715,-3.5618982315063477,-0.10982268303632736,-0.4014531373977661,-0.38000237941741943,28.0,28.9375,28.375,32.375,35.0,36.0625
1.0,-0.5399204424837449,0.4153388385303082,-0.220974050675353,0.02382534043298374,0.03807973660792777,-0.12107092541896987,-0.4230653267331138,-0.3345170626985038,0.08495283610012083,-3.065157238588618,0.6282204754646454,-0.00016856425893426079,-0.2200444485746289,-0.02253852551414429,0.0016213144338014622,0.0658827819296319,-0.01201539774581682,-0.012364838436569422,0.4231105148792267,-1.3690231156400223,1.886538330708639,-2.0792676411070765,-1.5809534231769007,2.401949405670166,-0.10220962017774582,0.4403587579727173,-0.5649903416633606,0.16193337738513947,-0.05666876211762428,-0.08906658738851547,-0.24899697303771973,0.13407529890537262,-9.078812599182129,1.0328292846679688,47.6421012878418,-1.0046107769012451,-1.766362190246582,-3.5535120964050293,-0.24020355939865112,-0.3063037693500519,-0.30817461013793945,28.0,28.9375,28.375,32.375,35.0,36.0625
1.0,-1.1846279212812054,-1.0350863051668342,-0.5734583557209572,-0.06968502445119473,0.09549023860489964,-0.1403795337932202,-0.423922541554483,-0.33460666347476037,0.0849473433656095,-3.0648382430199077,0.6281668162303521,-0.00030725624666768574,-0.22586490774407378,-0.022481152626994995,0.0008149487535864955,0.06475503721462778,-0.0025406194041296365,-0.0058748656143216005,0.42271357774734497,-1.3672322642854233,1.8842437903033655,-2.078506132165426,-1.581169907246725,2.4015634059906006,-0.10486789792776108,0.4469905197620392,-0.569169282913208,0.15025204420089722,-0.05967322736978531,-0.09817150980234146,-0.17238251864910126,0.038307227194309235,-9.404424667358398,0.9947882294654846,47.64031219482422,-0.8670990467071533,-1.9135217666625977,-3.6393961906433105,-0.09819699823856354,-0.2317400872707367,-0.1935354471206665,28.0,28.9375,28.375,32.375,35.0,36.0625
1.0,-1.4596152892793484,-1.4799492725165,-1.392051521704828,-0.029062205484263637,0.07771966726303393,-0.12136084239811372,-0.42528588417491964,-0.3347420792256376,0.08493411644595172,-3.0644429844887755,0.6280765122011668,-0.00021578570792078178,-0.22928906926958856,-0.022270307586488,-0.0020076262548745696,0.0668768202321856,-0.0029266095989414383,-0.004334714892483868,0.4220890998840332,-1.364502565269806,1.8808134237872522,-2.077621122399801,-1.581543270741598,2.400937795639038,-0.10636508464813232,0.4569518268108368,-0.5751098990440369,0.14735467731952667,-0.061531197279691696,-0.10117954760789871,-0.2298433631658554,0.13407529890537262,-9.768342971801758,0.9858343005180359,47.65374755859375,-0.7589054703712463,-2.1747210025787354,-3.9447550773620605,-0.029896389693021774,-0.14642584323883057,-0.08132163435220718,28.0,28.9375,28.375,32.375,35.0,36.0625
1.0,0.2689554379964316,0.44528719058106264,-2.720745475693687,0.010516966503267573,-0.008250081444322984,-0.1214834990186504,-0.4266305727513494,-0.3348670271097249,0.08488691954620955,-3.0639968384449947,0.6281388877335152,-0.00027298366032922183,-0.22454648814902833,-0.02193111773866343,-0.004616718928518514,0.06923155863393517,-0.022421872422386364,-0.014994780341605646,0.42144128680229187,-1.36173868299041,1.8774054686175745,-2.0767046413817347,-1.581876579915182,2.4003913402557373,-0.10609583556652069,0.4602925777435303,-0.5785468816757202,0.16623155772686005,-0.05562568083405495,-0.09029264003038406,-0.1149216815829277,0.26815059781074524,-10.266336441040039,0.9768803715705872,47.64031219482422,-0.8033187389373779,-1.9252680540084839,-4.1146016120910645,-0.12778666615486145,-0.14839351177215576,-0.10394725203514099,28.0,28.9375,28.375,32.375,35.0,36.0625
1.0,-0.15839661647587933,-1.3244046207271662,-2.1855306674711032,-0.03831660234482052,0.03010691877612032,-0.11531333829590909,-0.42754440389313086,-0.3349555593767104,0.08488966409116286,-3.0636809742409445,0.6281875118272617,-0.0003347990405515546,-0.2245306942796267,-0.022423639837410154,-0.005373646753247072,0.07029669711862073,-0.03299804136065801,-0.023643727313706814,0.4210093021392822,-1.3598882269910355,1.875012222920553,-2.075958391229147,-1.5821035544024866,2.400033950805664,-0.10681901127099991,0.4666149914264679,-0.5881929397583008,0.17967720329761505,-0.05223797261714935,-0.08238686621189117,-0.17238253355026245,0.09576806426048279,-10.189722061157227,1.0350704193115234,47.62777328491211,-0.8703874945640564,-2.31998872756958,-4.066341400146484,-0.350868284702301,-0.14389914274215698,-0.18972007930278778,28.0,28.9375,28.375,32.375,35.0,36.0625
1.0,-1.459250305115872,-2.1744640020735173,-1.9618581455983564,-0.08506394910490843,0.0964038168329676,-0.12526036817140704,-0.42892027433806595,-0.33507763788932615,0.08488631229984306,-3.063198067855976,0.6284475500585879,-0.00044460931517620306,-0.23407264113946377,-0.02698992941511546,-0.0010758569231002295,0.05517098089324649,-0.009477104863228348,-0.03227060977556433,0.4203247129917145,-1.3571181756309052,1.8714459578143519,-2.074865003625387,-1.582414452229635,2.3995795249938965,-0.1081676259636879,0.46898552775382996,-0.5974522829055786,0.15892991423606873,-0.04809746891260147,-0.07513297349214554,0.3064578175544739,0.19153612852096558,-10.41956615447998,0.9477880001068115,47.6421012878418,-0.8217337131500244,-2.0742807388305664,-4.0364532470703125,-0.2137889266014099,-0.18622718751430511,-0.3400394916534424,28.0,28.9375,28.375,32.375,35.0,36.0625
1.0,-1.5957977724844374,-1.7995928672693218,-2.087803753062136,-0.0648397470304796,0.041693847568088804,-0.10317943570858304,-0.42982810586114967,-0.33520071499291376,0.08489453507320285,-3.0629828478395336,0.6284971288890109,-0.00038767843296324064,-0.23848441402084483,-0.028103328088226374,-0.00043105289074715954,0.050913095959874685,-0.0031288519834402053,-0.034882398816384136,0.41994020342826843,-1.3553064924529572,1.8691094557391565,-2.0742560825743617,-1.5826056639300745,2.399256467819214,-0.11004670709371567,0.473184198141098,-0.6035040020942688,0.15322233736515045,-0.04683663696050644,-0.07440806925296783,-0.038307227194309235,0.3064578175544739,-10.20887565612793,1.0350704193115234,47.63225173950195,-0.6680798530578613,-2.0227742195129395,-4.078550338745117,-0.06265575438737869,-0.20468422770500183,-0.4011322259902954,28.0,28.9375,28.375,32.375,35.0,36.0625
1.0,0.4703637550122849,-0.708160591132707,-1.3877550301342652,-0.024000082013538728,0.0009579032098807547,-0.11289279860341804,-0.4312973239971157,-0.33538416397174486,0.0849419128089201,-3.0626681805566864,0.6288259958479818,-0.00017282083283948652,-0.23701044313916422,-0.028896442353154615,-0.0008023682997155294,0.05497273675056192,-0.014456493239648467,-0.027878149938235564,0.4192812144756317,-1.3524995905211945,1.865410629902975,-2.0733400783934535,-1.582893196736471,2.3988475799560547,-0.10747572779655457,0.47824639081954956,-0.6137616038322449,0.17030908167362213,-0.0459725484251976,-0.07884912937879562,-0.26815056800842285,0.363918662071228,-9.730035781860352,0.9612188935279846,47.63493728637695,-0.9723442792892456,-1.9301784038543701,-4.02191686630249,-0.1208057701587677,-0.23019607365131378,-0.48482656478881836,28.0,28.9375,28.375,32.375,35.0,36.0625
1.0,0.5883244294204821,-0.20031195494671633,-0.9262783092369937,-0.04622449092038378,0.027944778611665513,-0.12424562540184934,-0.43223485399329475,-0.33549880007626537,0.08495009414387386,-3.0624354858344707,0.6288638596503832,-0.00022260563711253386,-0.2366665693079315,-0.028877519602456315,0.0006967069611943964,0.05622774434523851,-0.020329729640704737,-0.018483277332454584,0.41884946823120117,-1.3506168735078354,1.862955395375387,-2.0726176700987757,-1.5830610434161585,2.398472547531128,-0.10753076523542404,0.47862938046455383,-0.6213083863258362,0.18319609761238098,-0.04482920467853546,-0.08830525726079941,-0.07661445438861847,0.2106897532939911,-9.710882186889648,1.0484960079193115,47.62419128417969,-0.9822747707366943,-1.779966950416565,-4.006458282470703,-0.2774256765842438,-0.26272785663604736,-0.42611241340637207,28.0,28.9375,28.375,32.375,35.0,36.0625
1.0,-0.9075006229914315,-1.1312495455997178,-0.08983777772523825,-0.03180865311480544,0.058074491976629006,-0.11472086444533387,-0.4337297639077011,-0.3357308822156561,0.08504295664243822,-3.0622616708174877,0.6289297920828174,1.600579627634494e-05,-0.24813853206168615,-0.033485523988860975,0.004794512390296117,0.044755190653496556,0.002403699770393333,-0.0040375439072156405,0.4182262122631073,-1.347797007565834,1.8591092268573206,-2.0716306171812953,-1.5832889715777796,2.397915840148926,-0.10845548659563065,0.4862286448478699,-0.6372494101524353,0.16586121916770935,-0.0438147708773613,-0.10368572920560837,-0.05746084079146385,0.26815059781074524,-9.02135181427002,0.9477880001068115,47.62419128417969,-0.9840196967124939,-1.6199265718460083,-3.533787488937378,-0.09556770324707031,-0.3400879502296448,-0.2359888255596161,28.0,28.9375,28.375,32.375,35.0,36.0625
1.0,-0.2535026911487982,-0.3985002042316337,0.5914477882283067,-0.020432932058115274,0.0480745554418048,-0.12817451016857936,-0.4352400358428449,-0.3359367287466668,0.08508527103754651,-3.0620054083105055,0.6288673646998648,0.00021638420328499655,-0.2519949792981642,-0.03239425233951765,0.005152341432387085,0.045987948101484794,0.006433343802560009,-0.005363493043743506,0.41759052872657776,-1.3448706281236191,1.8552435080157679,-2.0706492863097132,-1.5835898558246058,2.39727783203125,-0.11112716048955917,0.48978251218795776,-0.6435154676437378,0.1653263419866562,-0.04661793261766434,-0.10500113666057587,-0.4405331015586853,0.5746083855628967,-8.504204750061035,1.1313014030456543,47.617923736572266,-0.9912786483764648,-1.5485408306121826,-3.8299012184143066,0.07735581696033478,-0.3687247037887573,-0.15886640548706055,28.0,28.9375,28.375,32.375,35.0,36.0625
1.0,-0.801603944764615,-0.9888813659018123,0.9321061315509734,-0.03156485845361896,0.033936386117756755,-0.1123933398080313,-0.4362246886658142,-0.33607882971609676,0.08508560185261779,-3.0617889396820988,0.6288268861509081,0.00020108574736026213,-0.25026698658740415,-0.029583538227089944,0.003781585512911621,0.055509108052090736,-0.0063825896401949545,-0.017753017577488484,0.41718295216560364,-1.342867226605751,1.8526456991778772,-2.069923540154928,-1.583771053944723,2.3968758583068848,-0.112335205078125,0.49341824650764465,-0.6496977806091309,0.18356946110725403,-0.05001741275191307,-0.09377624839544296,-0.6703764796257019,0.5554547905921936,-8.465897560119629,1.0865422487258911,47.61702346801758,-0.9679595232009888,-1.3927876949310303,-3.555830478668213,-0.014681102707982063,-0.3683067560195923,-0.22331678867340088,28.0,28.9375,28.375,32.375,35.0,36.0625
1.0,-0.786481642138281,0.8720922375573688,1.2645034473571257,0.007325699286757099,0.06145851068765365,-0.1237958658286578,-0.43773334315139895,-0.3362491186797874,0.08506253663455626,-3.061329782413953,0.6289910070396979,0.00010127886801654913,-0.25096841503228723,-0.02845538356075428,0.0013208930976979505,0.06620189335104339,-0.017751305889835874,-0.02301439258002573,0.41650062799453735,-1.3397823733142395,1.8486817518817347,-2.0687571964659632,-1.5840848127948206,2.3963611125946045,-0.11132631450891495,0.504642128944397,-0.6627757549285889,0.20018820464611053,-0.0551738440990448,-0.08743254095315933,-0.2298433631658554,-0.019153613597154617,-8.216899871826172,1.0238806009292603,47.5937385559082,-0.9340649843215942,-1.7043708562850952,-3.529536485671997,-0.22730344533920288,-0.35376933217048645,-0.3189377784729004,28.0,28.9375,28.375,32.375,35.0,36.0625
1.0,-0.16953967197168496,1.388685260898389,0.7399419620059048,0.04714770539675146,0.0690266487185564,-0.13624971688011905,-0.43878216392065733,-0.336388697873959,0.08508934571111593,-3.061106186668826,0.6290735095974587,0.0001878319677555525,-0.25825629141073353,-0.02973353840399559,0.003548602872923991,0.06077142839808562,0.0024494329707002356,-0.023935948687711955,0.41605716943740845,-1.3377319884351273,1.8459528128253382,-2.0680109463133753,-1.584289852772848,2.396001100540161,-0.11244118213653564,0.5060362219810486,-0.6663577556610107,0.18167275190353394,-0.05844957381486893,-0.08758692443370819,-0.17238251864910126,-0.07661445438861847,-8.465897560119629,1.0484960079193115,47.623294830322266,-0.9490569829940796,-1.5571520328521729,-3.5870132446289062,-0.002139515243470669,-0.3036552667617798,-0.32998234033584595,28.0,28.9375,28.375,32.375,35.0,36.0625
1.0,-1.031402142939751,-0.018614783597863893,-0.01826698873953126,0.00941803000381248,0.04256546759952498,-0.11857135697647476,-0.4403351477573696,-0.3365494510803646,0.08504673636336918,-3.0605932927297186,0.6292094649814349,0.0002202814195437024,-0.2608415066085116,-0.02619186097926842,-0.00038618709271126317,0.07215737479180477,-0.004313763671545345,-0.027419099316044748,0.41538524627685547,-1.334562824373581,1.8419302145587366,-2.0669056377806605,-1.584700886403219,2.39548659324646,-0.11550909280776978,0.5173549652099609,-0.6742454767227173,0.1889868974685669,-0.06617138534784317,-0.08706991374492645,-0.363918662071228,-0.17238251864910126,-9.002198219299316,1.0171678066253662,47.623294830322266,-0.7190179824829102,-2.012371301651001,-3.6349260807037354,0.06105807051062584,-0.1873801052570343,-0.38531196117401123,28.0,28.9375,28.375,32.375,35.0,36.0625
1.0,0.41023993460053926,1.299738466729369,-0.6890715485873089,0.037428573074485064,0.012816026171895388,-0.1328980813687617,-0.44135399281100635,-0.33663213400343045,0.08499213658745502,-3.0601892211176467,0.6292660878022931,0.0001313567336688037,-0.2558335431159539,-0.0230026058755773,-0.0037830089089222396,0.08296673774309242,-0.02424577291883608,-0.019342606880974694,0.4149182140827179,-1.3324274581721802,1.8392623106585901,-2.066108842889303,-1.584989372883932,2.3951120376586914,-0.11567024886608124,0.5205107927322388,-0.6759785413742065,0.2099982500076294,-0.06810393184423447,-0.09527092427015305,-0.2106897532939911,-0.15322890877723694,-9.327810287475586,1.0104496479034424,47.63404083251953,-0.8384135961532593,-2.158078670501709,-3.940001964569092,-0.12827910482883453,-0.14783135056495667,-0.319550096988678,28.0,28.9375,28.375,32.375,35.0,36.0625
1.0,-0.12435064754835927,-0.06063492314708843,-1.4643287856382996,-0.001241977945613185,0.03886132183543542,-0.12838631066302783,-0.44288888093592504,-0.33678747421983124,0.08497477728306743,-3.0596589434557417,0.6292331608613182,3.0382413398902877e-06,-0.2604379376699422,-0.02599983197523037,-0.005273421461676713,0.07656390955745959,-0.022060745784222922,-0.007299701419131582,0.41424718499183655,-1.3292708855918427,1.8351314703570765,-2.064770837823385,-1.5853832403766077,2.394495725631714,-0.11607971042394638,0.5310069918632507,-0.6857813000679016,0.20444631576538086,-0.06335854530334473,-0.10775654017925262,-0.019153613597154617,-0.26815056800842285,-9.959878921508789,1.046260118484497,47.607173919677734,-0.8654359579086304,-2.321382761001587,-3.888833999633789,-0.15334150195121765,-0.11901845782995224,-0.16691146790981293,28.0,28.9375,28.375,32.375,35.0,36.0625
1.0,-1.8660153244765703,-2.2477501679777676,-2.069527670254496,-0.08619253956981644,0.07544859499569172,-0.12314057668570982,-0.44440847712295417,-0.33693334765692035,0.08487693737747129,-3.0591323107515374,0.6292460177909422,-0.00032594530844918564,-0.2631929987294112,-0.029465943773012912,-0.0041997924025015555,0.0673119191688379,-0.01733080819987536,-0.008386273413841114,0.41352880001068115,-1.3260210168412705,1.8310745398150843,-2.0635038814940394,-1.5856931845294397,2.3938605785369873,-0.11524172127246857,0.5338431000709534,-0.6923677325248718,0.20007479190826416,-0.05687826871871948,-0.10588470101356506,-0.1149216815829277,0.05746084079146385,-10.304643630981445,1.079829454421997,47.62240219116211,-0.9885622262954712,-2.2892649173736572,-4.06121826171875,-0.037566687911748886,-0.15537342429161072,-0.07257874310016632,28.0,28.9375,28.375,32.375,35.0,36.0625
1.0,0.03560478207639739,-1.0732210952546024,-2.2021088306640584,-0.036121637521516675,0.0011542492400094095,-0.12069334658996983,-0.4454748355263862,-0.3370341834833728,0.08487796353800342,-3.0588627859622175,0.6292855844034971,-0.00020402100416618514,-0.26331750416278,-0.02984964516251809,-0.0037106870513530636,0.06829435327482411,-0.026010064624569347,-0.018501964176809757,0.4130496084690094,-1.3239459705403824,1.8283541838275355,-2.062780042687887,-1.5859563986407679,2.393444538116455,-0.11573512107133865,0.5380409955978394,-0.7029172778129578,0.2148522138595581,-0.0542069710791111,-0.09628831595182419,-0.019153613597154617,0.2106897532939911,-10.323798179626465,1.1111576557159424,47.61702346801758,-1.0594485998153687,-2.242360830307007,-4.011147499084473,-0.1416015923023224,-0.20169398188591003,-0.13170921802520752,28.0,28.9375,28.375,32.375,35.0,36.0625
1.0,0.3281432360355418,-1.4494796196000013,-2.4049159864437892,-0.042916605017086724,-0.02070893874469098,-0.12950182052742182,-0.44700466580791043,-0.3372190038357783,0.08485003249297027,-3.058339740117147,0.6294208132611734,-0.00043366214468692436,-0.26506581501888377,-0.031058862660554087,-0.0032631837951643218,0.06569224377735712,-0.02738231334290901,-0.031105523440893956,0.4124026596546173,-1.3207422655871888,1.824153248463766,-2.061390062371725,-1.5862796942340296,2.3929569721221924,-0.11604543030261993,0.5418899059295654,-0.7113232612609863,0.21973830461502075,-0.051212914288043976,-0.08401121199131012,-0.019153613597154617,0.49799394607543945,-10.285490036010742,1.164876103401184,47.61702346801758,-0.9627485275268555,-2.23161244392395,-4.364834785461426,-0.2907118499279022,-0.25969019532203674,-0.2835600972175598,28.0,28.9375,28.375,32.375,35.0,36.0625
1.0,-3.0412620683567493,-5.344399608156673,-2.0741423004937745,-0.19163515141502463,0.11425037299787691,-0.12570371638456876,-0.4481079232699948,-0.33733430690308314,0.08489278068042602,-3.0580353570905277,0.6295794374324295,-0.0003985402504772473,-0.27198814459818504,-0.033860774334533474,0.0005547575651784678,0.05679567673193586,-0.009615801626927246,-0.03336505949081406,0.41191157698631287,-1.3186089855483552,1.8212083021747034,-2.060448785821432,-1.5865190664874476,2.392608642578125,-0.11654433608055115,0.5426442623138428,-0.7191635966300964,0.2069620043039322,-0.050237562507390976,-0.08225713670253754,-0.19153612852096558,0.7469909191131592,-10.438719749450684,1.1178758144378662,47.58478546142578,-0.9707627296447754,-2.075929641723633,-4.096114635467529,-0.0890316516160965,-0.2908828556537628,-0.34777557849884033,28.0,28.9375,28.375,32.375,35.0,36.0625
1.0,-1.2689538406748224,-2.0690283809593293,-1.3512614213882743,-0.08135047162713827,0.0545255975502565,-0.12872539182454648,-0.4497541584807149,-0.33756158850436635,0.08492293390325173,-3.0577566865582484,0.62993876998663,-0.00026236286839996466,-0.2733785673508052,-0.03275124874550267,-0.0002183848139669139,0.060324873748380685,-0.021787255492633058,-0.03761250816839842,0.4112037122249603,-1.3154162031463166,1.8169320265399378,-2.059329172173971,-1.5867465178119105,2.3921658992767334,-0.11965321004390717,0.5509318113327026,-0.7332714796066284,0.22530950605869293,-0.04860803857445717,-0.08113595098257065,-0.2298433631658554,0.8619126081466675,-9.998186111450195,1.1559220552444458,47.62150192260742,-0.8296139240264893,-2.06128191947937,-4.0203423500061035,-0.20784956216812134,-0.38235992193222046,-0.47415027022361755,28.0,28.9375,28.375,32.375,35.0,36.0625
1.0,0.9850395412654969,1.3278745646593935,-0.55140755676854,0.031186194515515908,-0.05420736264668412,-0.13540651682413732,-0.4509415700953818,-0.3377580713729526,0.0850189492555794,-3.0576513048897143,0.6300224139963899,0.0001396755883514253,-0.27439559654314155,-0.033312537726079214,0.0011155573660622579,0.060227291664765835,-0.017726104716211694,-0.030325746153757202,0.41078513860702515,-1.3132481139949341,1.8138564268695276,-2.058587690392965,-1.5869749228106897,2.391814947128296,-0.11813672631978989,0.5501601696014404,-0.736358106136322,0.22528082132339478,-0.05021754279732704,-0.08689672499895096,-0.3256114423274994,0.6129156351089478,-9.27034854888916,1.1783016920089722,47.62777328491211,-0.9720858335494995,-1.7896842956542969,-4.221312522888184,-0.20243576169013977,-0.4026859998703003,-0.47503888607025146,28.0,28.9375,28.375,32.375,35.0,36.0625
1.0,-2.2901663143957762,-1.959564127454893,1.1301856825386558,-0.07524096694178449,0.10281721173254638,-0.13674991326159933,-0.4526540243011582,-0.33800111199809113,0.08506371326599216,-3.05734376252219,0.6300391591666553,0.00019510770899965432,-0.2863217540973961,-0.03501237854045594,0.005711044945757723,0.05609250536660082,0.005012183653636205,-0.015311824579375674,0.4100895822048187,-1.3098763090423127,1.809256378804342,-2.0572267971434535,-1.5872533957110804,2.391174554824829,-0.12029077857732773,0.556824266910553,-0.7541012763977051,0.21354123950004578,-0.05579405650496483,-0.10398866981267929,-0.3256114423274994,0.09576807171106339,-8.676587104797363,1.0999679565429688,47.62777328491211,-0.822495698928833,-1.8187952041625977,-3.6624491214752197,0.0566120371222496,-0.42995283007621765,-0.30295470356941223,28.0,28.9375,28.375,32.375,35.0,36.0625
1.0,-2.236917462487964,0.5870037126999814,1.6732597078873628,-0.0228234485124762,0.12989731503537524,-0.14334090694670978,-0.4538463683669681,-0.3381648030563963,0.08511447524734123,-3.057193135232438,0.6301525035720319,0.000416584733101237,-0.28641428869868013,-0.03278523421274218,0.005858797290656026,0.06397917962818196,-0.000879915666788765,-0.008270592078999855,0.4095984101295471,-1.3076336842826386,1.8061679045306605,-2.056431909600729,-1.5874469915973108,2.3907761573791504,-0.12088071554899216,0.5591863393783569,-0.7613112926483154,0.22678150236606598,-0.06075659021735191,-0.11156035214662552,-0.5363011360168457,-0.24899697303771973,-8.427589416503906,1.0820653438568115,47.607173919677734,-0.7843304872512817,-1.8133574724197388,-3.6614482402801514,0.04567785561084747,-0.40816640853881836,-0.1925644725561142,28.0,28.9375,28.375,32.375,35.0,36.0625
1.0,1.467028270716242,5.693851928674312,1.1212044491684647,0.22635073726457555,-0.06274533480549134,-0.13723011526394083,-0.4555632440682394,-0.3383668299019401,0.08510382058806859,-3.056755089448135,0.6301114656892977,0.0005537586410462943,-0.28473577648228315,-0.03041045031944739,0.003095942679345738,0.07918075070965683,-0.013346518675906211,-0.013116914761261741,0.40891680121421814,-1.3042007547668,1.8016184012042444,-2.055145402947897,-1.587869946156637,2.390131711959839,-0.11809773743152618,0.5670719146728516,-0.770643949508667,0.2457909733057022,-0.06967223435640335,-0.10380308330059052,-0.5937620401382446,-0.6703764200210571,-7.987056732177734,1.1201115846633911,47.64120864868164,-0.8824694156646729,-1.8579314947128296,-3.6091227531433105,-0.11000175774097443,-0.33332327008247375,-0.1692102551460266,28.0,28.9375,28.375,32.375,35.0,36.0625
