Tylouw/Master_Thesis_Code/test_recorded_data/real_test10/sample_20_session_5.csv
timestamp[s],tcp_force_x[N],tcp_force_y[N],tcp_force_z[N],tcp_force_rx[Nm?],tcp_force_ry[Nm?],tcp_force_rz[Nm?],tcp_pose_x[m],tcp_pose_y[m],tcp_pose_z[m],tcp_pose_rx[rot_vec_x],tcp_pose_ry[rot_vec_y],tcp_pose_rz[rot_vec_z],tcp_velo_x[m/s],tcp_velo_y[m/s],tcp_velo_z[m/s],tcp_velo_rx[rot_vec_x/s],tcp_velo_ry[rot_vec_y/s],tcp_velo_rz[rot_vec_z/s],q1[rad],q2[rad],q3[rad],q4[rad],q5[rad],q6[rad],qd1[rad/s],qd2[rad/s],qd3[rad/s],qd4[rad/s],qd5[rad/s],qd6[rad/s],tool_acc_x,tool_acc_y,tool_acc_z,current_of_whole_robot[A],voltage_of_whole_robot[V],current_J1[A],current_J2[A],current_J3[A],current_J4[A],current_J5[A],current_J6[A],temp_J1[C],temp_J2[C],temp_J3[C],temp_J4[C],temp_J5[C],temp_J6[C]
9.5299947e-07,-1.0731511,-0.82018685,0.08282494,-0.06813928,0.025125949,0.0031594306,-0.38150856,-0.34955877,0.059942327,-3.0785081,0.62485516,-0.00025016308,-0.0013621072,-0.0007838694,0.00014894002,-0.0021616914,0.0037097507,0.00017334097,0.4792019,-1.4235501,1.9549626,-2.100416,-1.5707458,2.454145,-5.0034734e-16,0.00074886007,-6.3698964e-05,-0.0049745026,0.00019608998,-0.00017256713,0.1340753,0.095768064,-8.791509,0.69937176,47.749577,-0.17731267,-3.1110296,-2.2141426,-0.4760547,0.08624226,-0.25068626,27.75,29.0,28.1875,32.3125,34.5,35.4375
0.002554448,-0.9430397,-0.8962808,0.2260987,-0.05240453,0.029953195,-0.0006975578,-0.38152438,-0.34954724,0.059929177,-3.0784926,0.62483203,-0.00019947435,-0.002260902,-0.0012514365,-0.0017231602,-0.0032631657,0.005818672,0.00017020165,0.47919,-1.423525,1.9549755,-2.1004665,-1.5707816,2.4541206,-6.7127986e-18,0.0039890143,0.0023389198,-0.012996501,0.00018790031,-0.00016852822,0.095768064,0.076614454,-8.599973,0.7597976,47.74241,-0.20508114,-3.1406727,-2.078206,-0.39714777,0.07292523,-0.24713564,27.75,29.0,28.1875,32.3125,34.5,35.4375
0.005054927,-0.28908965,0.13044636,0.3092097,-0.031611584,0.0076711904,3.4306908e-05,-0.38153392,-0.34956113,0.059926383,-3.0785139,0.6248945,-0.00019556767,-0.0013138598,-0.00075009686,-0.00067095604,-0.0027241665,0.0048335097,0.000161345,0.47919,-1.4235022,1.9549636,-2.1005003,-1.5707573,2.4541569,-1.20828e-21,0.0009446909,0.002499776,-0.008990251,0.00017341532,-0.00016099092,0.076614454,0.019153614,-8.6574335,0.7418897,47.71465,-0.18765451,-3.3190036,-2.539177,-0.33821428,0.08809225,-0.24289888,27.75,29.0,28.1875,32.3125,34.5,35.4375
0.00755448,-0.40593803,0.4326021,-0.29169512,0.010211826,-0.025593337,0.007908094,-0.38155,-0.34957147,0.059952114,-3.0785758,0.6249073,-0.00013257015,-0.0014735908,-0.0008311759,0.0005510594,-0.002519183,0.004460766,0.00015823741,0.47917795,-1.4235384,1.9549512,-2.1005228,-1.5707334,2.454145,-1.6210617e-23,1.2674234e-05,-0.00013631597,-0.004996838,0.00016697988,-0.00015747017,0.076614454,0.038307227,-8.714894,0.73069996,47.707485,-0.24282166,-3.187682,-2.3549597,-0.38617548,0.09202424,-0.23444727,27.75,29.0,28.1875,32.3125,34.5,35.4375
0.010054082,-0.19962038,0.42586374,-0.59497476,0.010811334,-0.019054323,0.0014694378,-0.38150656,-0.34955356,0.059898797,-3.0784986,0.6248532,-0.00024058984,-0.0014483372,-0.00081597274,0.0008648353,-0.00215094,0.003769072,0.00015505018,0.4792019,-1.4235026,1.9550346,-2.1005342,-1.5707573,2.454145,-2.1748612e-25,1.7004102e-07,-0.0012809649,-0.0030560982,0.0001610049,-0.00015409962,0.0,0.11492168,-8.983045,0.72622824,47.677036,-0.4401217,-2.5648046,-3.0002909,-0.3845733,0.05608567,-0.28813323,27.75,29.0,28.1875,32.3125,34.5,35.4375
0.012554377,-0.9171004,-0.29885238,-0.68883777,-0.04354158,-0.0011278928,-0.007093784,-0.3815386,-0.34956777,0.059929162,-3.0785246,0.6248775,-0.00021068807,-0.0023461,-0.0012780579,-0.0010147868,0.00027366178,-0.0008458739,0.00017752522,0.47919,-1.4234883,1.9549378,-2.1004856,-1.5707458,2.454145,-2.9178538e-27,0.007659217,-0.0063232817,-0.00045968176,0.00013243691,-0.00017328572,0.05746084,0.019153614,-9.155427,0.7486078,47.73525,-0.5020045,-2.3524122,-3.1722965,-0.38310018,0.06952151,-0.29082853,27.75,29.0,28.1875,32.3125,34.5,35.4375
0.015053751,-2.445353,-3.1415346,-1.3464738,-0.10848653,0.06399604,0.002123277,-0.38150406,-0.34955105,0.059882686,-3.078438,0.62479967,-0.00037646867,-0.005606323,0.00046779972,-0.002366386,0.0030519483,-0.006115732,0.0034235741,0.47919974,-1.4234251,1.9549578,-2.1004236,-1.5707573,2.454117,-0.006093194,0.015640734,-0.013528262,0.0047197733,8.9234425e-05,-0.009508606,-0.19153613,0.38307226,-9.442732,0.78888994,47.711063,-0.26066697,-2.7605243,-3.1852784,-0.4220453,0.0462759,-0.26330444,27.75,29.0,28.1875,32.3125,34.5,35.4375
0.01755458,-2.5368543,-2.572371,-1.2596369,-0.1450798,0.08537394,-0.024908315,-0.38151172,-0.3495371,0.059880596,-3.0783997,0.62479013,-0.0004220634,-0.0064584063,-0.00019104147,-0.0014902315,0.0025315473,-0.0051171477,0.0070514227,0.47917598,-1.423401,1.9549216,-2.100364,-1.5707697,2.4540923,-0.0057126675,0.016289175,-0.01655597,0.0059723523,8.483115e-05,-0.012754552,-0.21068975,0.5363012,-9.557653,0.74413085,47.731667,-0.32789278,-2.605937,-3.1841314,-0.4324497,0.046025887,-0.23611146,27.75,29.0,28.1875,32.3125,34.5,35.4375
0.020055545,-2.801664,-3.036439,-1.6115954,-0.13234895,0.09111113,-0.01899736,-0.38150942,-0.3495183,0.0598481,-3.078335,0.6247952,-0.0005133718,-0.006916456,-0.0010250969,-0.0017225898,0.0024286616,-0.0046053366,0.009179532,0.47915244,-1.4233404,1.9549211,-2.1003397,-1.5707816,2.45408,-0.0045614196,0.018364696,-0.018179124,0.0050186026,-6.728373e-05,-0.013729785,-0.38307226,0.7469909,-9.710882,0.7351769,47.719128,-0.46443433,-2.5297797,-3.1970367,-0.41775644,0.031748746,-0.2184972,27.75,29.0,28.1875,32.3125,34.5,35.4375
0.022554832,-2.9897683,-3.065864,-1.6424092,-0.1357206,0.09412915,-0.031487685,-0.38148952,-0.34952363,0.05981567,-3.0783207,0.6246962,-0.0006394987,-0.0076341024,-0.0014475542,-0.0018455071,0.0022334312,-0.004156086,0.008574679,0.4791645,-1.4232798,1.9549206,-2.1003163,-1.5707573,2.4540322,-0.0044535077,0.020089367,-0.019714922,0.0043416442,-0.00010665362,-0.013015759,-0.7278373,0.8810662,-9.844957,0.8090337,47.72719,-0.6052043,-2.654255,-3.2534285,-0.4194505,0.031008251,-0.23438987,27.75,29.0,28.1875,32.3125,34.5,35.4375
0.025055276,-3.0861254,-3.0284014,-1.7425178,-0.13367175,0.0752054,-0.055490475,-0.38153332,-0.3495324,0.05981275,-3.0783057,0.6247349,-0.00065394095,-0.0104355365,-0.001204927,-0.0011282911,0.0021552956,-0.0029026123,0.003190629,0.47913936,-1.4231827,1.954811,-2.100292,-1.5707573,2.4540331,-0.0071461494,0.022900688,-0.024830483,0.0054998198,-0.0006220347,-0.010320477,-0.51714754,0.6512228,-9.998186,0.74413085,47.70659,-0.55629164,-2.6009917,-3.3045123,-0.4047802,0.008718486,-0.28160518,27.75,29.0,28.1875,32.3125,34.5,35.4375
0.027554972,-2.3394296,-2.3636534,-1.6656375,-0.13390899,0.07647814,-0.07692349,-0.38157615,-0.34954774,0.059826855,-3.078339,0.62472254,-0.0005941615,-0.01192196,-0.0014217616,-0.00050517335,0.0020323659,-0.00125511,0.0030504446,0.47912717,-1.4231342,1.9547261,-2.1003044,-1.5707577,2.454009,-0.0077134487,0.024152553,-0.027711168,0.0056122867,-0.0012782029,-0.0107446425,-0.53630114,0.51714754,-9.940725,0.7239871,47.681515,-0.6415579,-2.564433,-3.2933502,-0.38518995,0.01716249,-0.2929889,27.75,29.0,28.1875,32.3125,34.5,35.4375
0.030054774,-1.8100995,-1.6589003,-1.4642876,-0.107316405,0.084007226,-0.087640956,-0.3816446,-0.34954286,0.059841286,-3.0783446,0.6247431,-0.00048479644,-0.013726137,-0.0012665732,0.00033575846,0.0016461994,0.00097638817,0.0024612215,0.4790789,-1.423074,1.9546298,-2.1003282,-1.5707945,2.453973,-0.009209422,0.024721483,-0.030239202,0.005414997,-0.0019700022,-0.011648683,-0.49799395,0.34476507,-9.902418,0.7866488,47.684196,-0.63525057,-2.4541907,-3.269068,-0.3861422,0.011015511,-0.3043276,27.75,29.0,28.1875,32.3125,34.5,35.4375
0.032554764,-1.7716564,-1.2046272,-1.5090839,-0.07189582,0.07674821,-0.08666345,-0.38164127,-0.3495679,0.05983786,-3.0783727,0.6247103,-0.00053560076,-0.015372265,-0.0018692483,0.0005581503,0.0009345291,0.0022863967,0.0033381872,0.4791025,-1.423037,1.9545926,-2.1003163,-1.5707577,2.4539726,-0.00967993,0.02723252,-0.03343348,0.0046078474,-0.0019519874,-0.01299402,-0.34476504,0.19153614,-9.883265,0.7642693,47.711063,-0.55350715,-2.6049044,-3.2525578,-0.3526796,0.003987618,-0.29201856,27.75,29.0,28.1875,32.3125,34.5,35.4375
0.035054155,-1.4758365,-0.28793082,-1.1378714,-0.038878582,0.05883605,-0.12023341,-0.38173175,-0.34957916,0.059829738,-3.0783696,0.6247076,-0.00048306969,-0.017558202,-0.0025804292,0.0006803292,0.00016487401,0.0025073986,0.0044046463,0.4790543,-1.4228675,1.9544228,-2.1003397,-1.5707821,2.4539232,-0.010813805,0.031380676,-0.038551405,0.005023853,-0.001381698,-0.015192424,-0.21068975,-0.019153614,-9.710882,0.80456203,47.71823,-0.6332935,-2.5384274,-3.170438,-0.3060425,0.010889088,-0.28428692,27.75,29.0,28.1875,32.3125,34.5,35.4375
0.037555374,-1.6043375,-0.4274371,-1.0683019,-0.031722825,0.041524936,-0.12012472,-0.38175982,-0.34957328,0.059823353,-3.0783544,0.6247051,-0.00051341165,-0.018596267,-0.0027479134,0.0011047701,-0.00021934307,0.0025314174,0.004184295,0.47901788,-1.422807,1.9543628,-2.1003153,-1.5707821,2.4538872,-0.011689164,0.032645848,-0.04124936,0.00625688,-0.0010554277,-0.015846757,-0.17238252,-0.095768064,-9.615114,0.8023209,47.73525,-0.7023472,-2.4743876,-3.1088033,-0.31161273,-0.0184158,-0.30307347,27.75,29.0,28.1875,32.3125,34.5,35.4375
0.040053885,-1.6757815,-0.5885845,-1.1816821,-0.026934998,0.027506229,-0.12953718,-0.38178632,-0.3496022,0.059834573,-3.078422,0.6246805,-0.00054449274,-0.019202333,-0.0024582278,0.00047584518,0.0008797168,0.00046518454,0.0030507885,0.4790056,-1.422758,1.9542783,-2.1003034,-1.570722,2.453851,-0.01274924,0.035388693,-0.04332935,0.007935299,-0.0010786465,-0.01577216,-0.1340753,-0.1340753,-9.5385,0.73069996,47.711964,-0.68583214,-2.5178888,-3.0748858,-0.31694755,-0.039032415,-0.27386868,27.75,29.0,28.1875,32.3125,34.5,35.4375
0.0425541,-0.73892003,-0.5725644,-1.132166,-0.03481558,0.055150338,-0.1493878,-0.38185143,-0.34959373,0.059837673,-3.0783758,0.62471014,-0.00047142204,-0.020367006,-0.002368403,0.00092484395,0.0007805672,0.0012879053,0.0018212907,0.4789692,-1.4226614,1.9541582,-2.100291,-1.5707821,2.453839,-0.013793774,0.036222782,-0.04542127,0.008417414,-0.0013729355,-0.015585545,-0.038307227,-0.11492168,-9.615114,0.784413,47.70211,-0.67069304,-2.5965087,-3.1362662,-0.3142566,-0.044236034,-0.28414613,27.75,29.0,28.1875,32.3125,34.5,35.4375
0.045054097,-1.5973575,-0.80686903,-1.2260584,-0.045496717,0.05183759,-0.12749949,-0.3819283,-0.34961048,0.059864193,-3.0784183,0.6246617,-0.00043767487,-0.022204684,-0.001227852,0.0015143112,0.0037517922,0.0021433628,0.0007530465,0.47892052,-1.4225652,1.9539765,-2.1002424,-1.5707711,2.453755,-0.015547134,0.037721593,-0.049126137,0.011244505,-0.004405301,-0.016263232,-0.15322891,0.095768064,-9.519346,0.73069996,47.739727,-0.5900049,-2.3532534,-3.116177,-0.2870111,-0.036462802,-0.2782668,27.75,29.0,28.1875,32.3125,34.5,35.4375
0.04755453,-1.6276615,-1.0688069,-1.2835675,-0.05265365,0.047683097,-0.112382084,-0.3819605,-0.3496071,0.059838418,-3.0783799,0.6247691,-0.00047080516,-0.022654027,-0.0014330683,0.0009225405,0.003565341,0.0007434585,0.0015674781,0.47888437,-1.4224681,1.9539298,-2.1002662,-1.5707706,2.4537907,-0.016121782,0.04006387,-0.050496113,0.011425403,-0.003598438,-0.017652787,-0.17238252,0.114921674,-9.557653,0.69041777,47.73077,-0.64103353,-2.4238975,-3.2256148,-0.29536593,-0.04707336,-0.26614997,27.75,29.0,28.1875,32.3125,34.5,35.4375
0.050053865,-1.6130651,-1.7869407,-1.2752208,-0.066199794,0.04805278,-0.120053016,-0.38200065,-0.34962136,0.059859883,-3.0783963,0.6246948,-0.0004685118,-0.024032108,-0.0024594113,0.002396533,0.0014596845,0.0028301976,0.002433516,0.47887242,-1.422408,1.9537958,-2.1001942,-1.5707706,2.4537303,-0.016161086,0.040225573,-0.054218482,0.01216034,-0.0026979207,-0.018558193,-0.11492168,0.19153613,-9.461885,0.76874626,47.703903,-0.64469206,-2.3664365,-3.2010598,-0.30206108,-0.06601251,-0.25485334,27.75,29.0,28.1875,32.3125,34.5,35.4375
0.05255419,-1.2792009,-1.8697796,-1.0178189,-0.0917602,0.052806847,-0.12318694,-0.3820688,-0.3495964,0.059858363,-3.0783613,0.6247257,-0.00043443128,-0.02464312,-0.0027760402,0.0020556266,0.001275629,0.0021061695,0.0027942455,0.4787883,-1.4223232,1.9536995,-2.1001818,-1.5708064,2.45367,-0.01648164,0.042399406,-0.055954244,0.0122772725,-0.0022046778,-0.019239275,-0.21068975,0.30645782,-9.481039,0.72622824,47.72719,-0.6555196,-2.3009043,-3.1260686,-0.30142835,-0.074304044,-0.24748236,27.75,29.0,28.1875,32.3125,34.5,35.4375
0.055053834,-1.5403209,-2.605096,-1.1120503,-0.09493287,0.06530061,-0.11594067,-0.38217488,-0.34959564,0.05988627,-3.0783186,0.6247357,-0.00036154763,-0.02603501,-0.0022010526,0.0016477222,0.0032020318,0.0026103228,0.0024967678,0.47872797,-1.4221781,1.9534482,-2.1000865,-1.570867,2.4536216,-0.017521948,0.044995893,-0.057962526,0.012134597,-0.0041515143,-0.019976854,-0.11492168,0.4405331,-9.5385,0.8224646,47.72002,-0.6307889,-2.1963892,-3.3816485,-0.2982005,-0.093624614,-0.23894802,27.75,29.0,28.1875,32.3125,34.5,35.4375
0.05755372,-1.7611185,-2.5253458,-1.0270377,-0.092140056,0.057783857,-0.108569436,-0.38222936,-0.3496351,0.05989737,-3.0783577,0.62466586,-0.00034357022,-0.028447727,-0.0030517473,0.0030367458,0.002295353,0.0061405054,0.0026275078,0.47873995,-1.4220574,1.9532794,-2.1000626,-1.5708555,2.4535851,-0.01770696,0.046629593,-0.062968925,0.011959543,-0.00498386,-0.020288311,-0.11492168,0.5363012,-9.442732,0.7150385,47.72719,-0.6906678,-2.1787562,-3.2570875,-0.30168855,-0.08362952,-0.22935326,27.75,29.0,28.1875,32.3125,34.5,35.4375
0.060054652,-1.2456874,-1.88824,-0.8503933,-0.094904914,0.06634573,-0.123261504,-0.3822766,-0.3496502,0.05990292,-3.0784197,0.6246216,-0.00036334398,-0.02848787,-0.0029172902,0.002703329,0.0024575952,0.005350954,0.0031800272,0.47869176,-1.421985,1.953184,-2.1000626,-1.5708073,2.4535015,-0.018121075,0.04732967,-0.063045315,0.012111144,-0.0047637667,-0.021255372,-0.17238252,0.61291564,-9.481039,0.78217715,47.717335,-0.6805308,-2.0986152,-3.2455611,-0.29092616,-0.0921596,-0.24369092,27.75,29.0,28.1875,32.3125,34.5,35.4375
0.06255457,-1.6571875,-2.3221269,-0.79619753,-0.089372925,0.048520003,-0.11313496,-0.38232931,-0.349651,0.059915673,-3.0783849,0.6246906,-0.000313954,-0.02924874,-0.0031242669,0.0022461573,0.002399274,0.0046704044,0.0038752593,0.47866756,-1.4219122,1.9530634,-2.1000264,-1.5708431,2.4535248,-0.01869053,0.049770456,-0.06476032,0.011960079,-0.0044028116,-0.022519546,-0.19153613,0.5554548,-9.481039,0.82694155,47.713753,-0.6784471,-2.1541667,-3.4403062,-0.28300387,-0.09731728,-0.21188138,27.75,29.0,28.1875,32.3125,34.5,35.4375
0.06505388,-1.5970751,-1.9984405,-0.7602641,-0.08485487,0.039035764,-0.108845204,-0.38247842,-0.34966308,0.05993377,-3.0784233,0.62467784,-0.00021531279,-0.031772237,-0.0030749748,0.002904503,0.0038976057,0.0075311456,0.005264874,0.47855932,-1.4217069,1.9527873,-2.1000264,-1.570856,2.453404,-0.019381093,0.05249341,-0.069404915,0.012040752,-0.0070588957,-0.024592428,-0.095768064,0.40222588,-9.289502,0.82694155,47.709274,-0.60334426,-2.069498,-3.3907056,-0.24198131,-0.09778398,-0.19168803,27.75,29.0,28.1875,32.3125,34.5,35.4375
0.06755413,-1.4091502,-1.8778238,-0.6831973,-0.07293683,0.045871146,-0.11302169,-0.38254368,-0.34969896,0.059961956,-3.0784678,0.6246285,-0.00020847494,-0.033064853,-0.0030937025,0.003086009,0.0048622377,0.008601875,0.0058588376,0.4785473,-1.4215982,1.9525822,-2.0999548,-1.5708326,2.4533556,-0.019663284,0.05440987,-0.07207271,0.012291068,-0.008413051,-0.025464721,-0.038307227,0.36391866,-9.270349,0.7665104,47.68062,-0.6382656,-2.0423243,-3.3708172,-0.214346,-0.0955386,-0.18149,27.75,29.0,28.1875,32.3125,34.5,35.4375
0.07005428,-2.016078,-1.7216723,-0.6064479,-0.050142657,0.03638581,-0.10705914,-0.38260415,-0.3497036,0.059948985,-3.078443,0.62460357,-0.0001754289,-0.03361731,-0.0028390358,0.0027247276,0.0063256077,0.007867227,0.0068965424,0.47852308,-1.4214655,1.9524626,-2.0999658,-1.5708688,2.453319,-0.01999923,0.056358896,-0.07371574,0.01331307,-0.009375366,-0.026835687,0.019153614,0.22984336,-9.174581,0.85155696,47.693153,-0.7095785,-1.9985564,-3.3878338,-0.21349272,-0.078161456,-0.15821756,27.75,29.0,28.1875,32.3125,34.5,35.4375
0.07255419,-1.1832094,-0.9930722,-0.61838603,-0.04621965,0.051254496,-0.11430557,-0.38268143,-0.3497173,0.05996882,-3.0784712,0.6245132,-6.7980814e-05,-0.03424979,-0.0028226457,0.0024532734,0.006945306,0.007431678,0.0072092665,0.47849897,-1.4213687,1.9523066,-2.0999658,-1.5709046,2.4532351,-0.020382412,0.05819593,-0.0752957,0.013727865,-0.009725884,-0.027530545,-0.019153614,0.22984336,-9.193734,0.75084364,47.71465,-0.64712524,-1.9501245,-3.5421405,-0.19699772,-0.06779662,-0.14691469,27.75,29.0,28.1875,32.3125,34.5,35.4375
0.07505589,-1.6525323,-0.7922554,-0.6673843,-0.052388553,0.03322431,-0.112974,-0.38283065,-0.34974068,0.05999209,-3.0784743,0.62457186,-3.9852097e-05,-0.03581213,-0.0026843564,0.0021144187,0.008638058,0.0068736244,0.005360677,0.4784027,-1.4211272,1.9519581,-2.099882,-1.5709051,2.4531753,-0.021251911,0.062007774,-0.07920921,0.015108127,-0.010975724,-0.026547253,-0.11492168,0.13407528,-9.136273,0.7396539,47.734352,-0.6250043,-1.9568341,-3.5192952,-0.19717985,-0.050119124,-0.1605815,27.75,29.0,28.1875,32.3125,34.5,35.4375
0.07755438,-1.6513704,-1.1722187,-0.7945046,-0.050328057,0.033127267,-0.10445047,-0.38290286,-0.34973586,0.059986334,-3.078445,0.62458366,-3.2215616e-05,-0.036787786,-0.0034355337,0.0027976593,0.007640261,0.0075490023,0.006660836,0.4783429,-1.4209948,1.951814,-2.0998576,-1.5709289,2.4531267,-0.021186918,0.06318218,-0.08232038,0.015982272,-0.010406053,-0.027781736,-0.095768064,0.11492168,-9.136273,0.7665104,47.72092,-0.67089665,-1.8523916,-3.5621567,-0.17768653,-0.06862976,-0.154295,27.75,29.0,28.1875,32.3125,34.5,35.4375
0.08005441,-1.2405488,-1.1608766,-0.7113229,-0.05903208,0.042758606,-0.11632864,-0.38294175,-0.34973982,0.05998055,-3.078454,0.62446904,-8.817622e-05,-0.038010586,-0.0037822986,0.002543965,0.008190459,0.006935588,0.008289579,0.47830653,-1.4208974,1.9517049,-2.0998094,-1.5709175,2.4530177,-0.021562709,0.06658117,-0.08584711,0.016907942,-0.010619171,-0.029783415,-0.095768064,0.19153613,-9.193734,0.7978386,47.707485,-0.70120233,-1.8872466,-3.4021602,-0.17046814,-0.053166777,-0.14208984,27.75,29.0,28.1875,32.3125,34.5,35.4375
0.08255412,-1.9415965,-1.6490668,-1.0925809,-0.052956734,0.036062,-0.105508834,-0.38311085,-0.3497584,0.059987865,-3.0784252,0.6244831,-8.100953e-05,-0.03990503,-0.004650369,0.00354638,0.006321062,0.007342234,0.007045702,0.47819823,-1.4205844,1.9513081,-2.099713,-1.5709409,2.452922,-0.022710485,0.06879432,-0.09110229,0.018721556,-0.009153824,-0.029687267,-0.1340753,0.17238252,-9.270349,0.7553206,47.744205,-0.69929636,-1.8169111,-3.3964863,-0.16136263,-0.09178275,-0.11626519,27.75,29.0,28.1875,32.3125,34.5,35.4375
0.085054494,-1.5154579,-1.0570043,-1.064843,-0.0695248,0.05305829,-0.1136811,-0.38320422,-0.3497668,0.060008764,-3.078438,0.6244274,1.17912095e-05,-0.040445477,-0.004844335,0.0027199553,0.007385914,0.005574269,0.007079755,0.47815034,-1.420463,1.951116,-2.0996892,-1.5709771,2.452838,-0.022774933,0.07227584,-0.09340813,0.019604491,-0.009287141,-0.029784456,-0.15322891,0.28730422,-9.423578,0.8179876,47.70838,-0.6924441,-1.7971425,-3.4727943,-0.1485275,-0.08882344,-0.12220445,27.75,29.0,28.1875,32.3125,34.5,35.4375
0.08755516,-2.0915067,-1.6250437,-1.1319698,-0.07350112,0.05394217,-0.11023788,-0.38327718,-0.34977317,0.059998315,-3.078399,0.6244586,-2.1974909e-05,-0.04147258,-0.004511513,0.0027656176,0.008450207,0.005669591,0.0064326106,0.4781019,-1.4202944,1.9509357,-2.0996406,-1.570989,2.452814,-0.023663333,0.07384684,-0.0955433,0.020576442,-0.010279431,-0.030022494,-0.3256114,0.30645782,-9.385271,0.81351066,47.7254,-0.6263534,-1.9723091,-3.5276399,-0.16208717,-0.07331653,-0.14342989,27.75,29.0,28.1875,32.3125,34.5,35.4375
0.09005384,-2.2533123,-2.450171,-1.1923493,-0.07211788,0.060725305,-0.09977994,-0.38335374,-0.34978822,0.05999621,-3.0783892,0.6244561,-1.1188491e-05,-0.04205717,-0.0045118704,0.0031229758,0.009134382,0.0061700437,0.006662648,0.47806588,-1.420138,1.950756,-2.0996163,-1.5710014,2.4527779,-0.023653451,0.07444759,-0.09728929,0.021594342,-0.011118624,-0.030240396,-0.21068975,0.40222588,-9.500193,0.784413,47.66539,-0.7209358,-1.7166146,-3.4807806,-0.14329359,-0.09028963,-0.1353246,27.75,29.0,28.1875,32.3125,34.5,35.4375
0.09255543,-2.0366907,-2.4204025,-1.498554,-0.08493279,0.07543611,-0.10290806,-0.38344726,-0.3497921,0.06002093,-3.0783668,0.62441236,4.996604e-05,-0.043137595,-0.004640174,0.0028855577,0.010390398,0.006504586,0.0070411293,0.4780179,-1.420005,1.950528,-2.0995324,-1.57105,2.4527056,-0.023593176,0.0771574,-0.099899724,0.021778228,-0.012392667,-0.03055479,-0.21068975,0.40222588,-9.595961,0.8090337,47.682407,-0.70598346,-1.7710509,-3.469709,-0.14831161,-0.0485259,-0.123790495,27.75,29.0,28.1875,32.3125,34.5,35.4375
0.09505532,-2.21667,-2.1906505,-1.3381498,-0.10392227,0.06848064,-0.10594964,-0.38361508,-0.34982067,0.060017765,-3.0783641,0.624335,4.426696e-05,-0.04529955,-0.0049399207,0.0022585844,0.0115958415,0.0054866155,0.00591757,0.47792158,-1.4196666,1.9501313,-2.09946,-1.5710624,2.4525616,-0.024648726,0.08298809,-0.105436124,0.022942992,-0.013004421,-0.03048213,-0.28730422,0.34476504,-9.730036,0.80456203,47.73614,-0.73145026,-1.6024666,-3.497157,-0.16384059,-0.056620054,-0.15481661,27.75,29.0,28.1875,32.3125,34.5,35.4375
0.09755391,-2.23541,-2.2716222,-1.324528,-0.09755317,0.05886217,-0.10316866,-0.38371992,-0.3498441,0.060039997,-3.0783882,0.624321,0.000111003246,-0.046347737,-0.0053959633,0.001474166,0.01098502,0.003941093,0.0046404167,0.47787336,-1.419509,1.9498919,-2.0994241,-1.5710734,2.4525018,-0.025608525,0.086836085,-0.10802675,0.02277175,-0.011755759,-0.030165672,-0.24899697,0.40222588,-9.787497,0.7418897,47.71465,-0.64232624,-1.753432,-3.4884539,-0.14372432,-0.05961598,-0.15038893,27.75,29.0,28.1875,32.3125,34.5,35.4375
0.10005462,-1.771047,-2.1116922,-1.3791188,-0.09812974,0.058089003,-0.10740146,-0.383813,-0.34985474,0.06004131,-3.0783408,0.6242918,0.00012872311,-0.047281645,-0.0063088685,0.0013942703,0.010130871,0.00412439,0.0045614247,0.47783744,-1.4193162,1.9496516,-2.0993526,-1.5711216,2.4524539,-0.0252806,0.08943641,-0.11073732,0.022322347,-0.0110891145,-0.029757863,-0.30645782,0.38307226,-9.595961,0.75084364,47.699425,-0.76113564,-1.8170526,-3.449881,-0.11298999,-0.069219,-0.16460328,27.75,29.0,28.1875,32.3125,34.5,35.4375
0.10255472,-1.5521019,-2.2034404,-1.334841,-0.08563724,0.061910953,-0.10677509,-0.38390207,-0.3498853,0.06005723,-3.078395,0.624226,0.00017460075,-0.049955994,-0.007457615,0.0032805947,0.00850874,0.007903486,0.0043011867,0.47780135,-1.4191713,1.9494466,-2.0993402,-1.5711092,2.45237,-0.025507554,0.09090947,-0.11687232,0.022883635,-0.011396925,-0.029721463,-0.3256114,0.4405331,-9.595961,0.82694155,47.74331,-0.76929134,-1.7653157,-3.358262,-0.08667748,-0.06170982,-0.206649,27.75,29.0,28.1875,32.3125,34.5,35.4375
0.10505418,-1.7672673,-1.4583528,-1.3040822,-0.08839048,0.0580677,-0.112805314,-0.38411736,-0.3499021,0.060075372,-3.0783594,0.6242962,0.00022362082,-0.05252253,-0.007061394,0.002872417,0.009781717,0.0068628304,0.002604155,0.4776564,-1.4188092,1.9489654,-2.0992324,-1.5711459,2.4522736,-0.028122786,0.09611753,-0.12234282,0.02465467,-0.012056209,-0.03063555,-0.21068975,0.4213795,-9.5385,0.8023209,47.70032,-0.62877655,-1.8729882,-3.194458,-0.08954182,-0.0679936,-0.20471412,27.75,29.0,28.1875,32.3125,34.5,35.4375
0.1075541,-1.8418666,-2.0005534,-1.0567472,-0.08364282,0.06147236,-0.105017215,-0.38421914,-0.3499219,0.06007717,-3.0783305,0.6242895,0.0002545452,-0.051825535,-0.0070839273,1.6889315e-05,0.012489801,0.0010088322,0.0036878577,0.47762072,-1.4186027,1.9487137,-2.0991838,-1.5711817,2.4522376,-0.02762248,0.102328375,-0.12321214,0.025753966,-0.011769873,-0.031218234,-0.11492168,0.40222588,-9.5385,0.8023209,47.70659,-0.7072046,-2.0115986,-3.2163248,-0.08740105,-0.06169223,-0.22099599,27.75,29.0,28.1875,32.3125,34.5,35.4375
0.11005442,-1.3843471,-2.0191796,-0.899105,-0.085582875,0.06307131,-0.10964583,-0.38430747,-0.3499389,0.060080774,-3.0783172,0.62422764,0.00026368708,-0.053201698,-0.008092019,0.0019146029,0.010439382,0.004149319,0.004539981,0.47758472,-1.4184229,1.9484857,-2.0991242,-1.5712055,2.452165,-0.027338875,0.101490825,-0.12674698,0.026391985,-0.011399194,-0.03178582,-0.19153613,0.47884035,-9.346964,0.78888994,47.70211,-0.8101647,-1.9427822,-3.2012424,-0.0772459,-0.0934124,-0.24259111,27.75,29.0,28.1875,32.3125,34.5,35.4375
0.1125557,-1.7127689,-2.3884103,-0.9813881,-0.08193786,0.051666886,-0.102805145,-0.38442957,-0.3499547,0.060098253,-3.0783308,0.6242303,0.00028943186,-0.053742327,-0.0076684454,0.0010324004,0.011409865,0.0023219113,0.0044972287,0.47750023,-1.4182298,1.9482106,-2.0990636,-1.5712055,2.4520805,-0.028555982,0.10408507,-0.12785907,0.02697729,-0.01142207,-0.032959573,-0.15322891,0.36391866,-9.385271,0.7642693,47.70211,-0.7931675,-1.890417,-3.213345,-0.05086272,-0.07916932,-0.24650298,27.75,29.0,28.1875,32.3125,34.5,35.4375
0.11505382,-1.6889213,-2.2530375,-0.6917774,-0.08786429,0.047983423,-0.10901371,-0.38467747,-0.3499914,0.060116734,-3.0783377,0.62419224,0.00040616485,-0.055779878,-0.007919915,0.0013443998,0.012391619,0.0022544968,0.0054929717,0.4773681,-1.417808,1.9476708,-2.099003,-1.5712537,2.451924,-0.029414257,0.107924625,-0.13355444,0.02934292,-0.012268808,-0.034809984,-0.11492168,0.3256114,-9.289502,0.8784135,47.70659,-0.6899409,-1.8787158,-3.3358865,-0.059569687,-0.09492113,-0.28094983,27.75,29.0,28.1875,32.3125,34.5,35.4375
0.1175538,-1.9010541,-2.5795023,-0.58354247,-0.07027563,0.045918345,-0.097289205,-0.38481075,-0.35002273,0.060142767,-3.0783453,0.6241922,0.0005398046,-0.05612777,-0.007846247,0.0008096583,0.012822202,0.0011670715,0.0066896304,0.4773319,-1.4176033,1.9473709,-2.0989788,-1.5713018,2.4518871,-0.0299295,0.109728485,-0.13448992,0.029634539,-0.012150892,-0.0365223,-0.19153613,0.36391866,-9.212888,0.7597976,47.699425,-0.67317474,-1.8625519,-3.250343,-0.050665323,-0.068213314,-0.27263772,27.75,29.0,28.1875,32.3125,34.5,35.4375
0.12005349,-1.7411866,-1.8512456,-0.6124774,-0.060715243,0.047604736,-0.10879924,-0.38490647,-0.35001603,0.06012289,-3.078275,0.6241773,0.0004595359,-0.057295807,-0.008248699,0.0005900398,0.012328348,0.001784903,0.0075710574,0.47724771,-1.4173743,1.947132,-2.0988839,-1.5713261,2.4518027,-0.030372879,0.11209057,-0.13645583,0.02845937,-0.012006746,-0.037844818,-0.11492168,0.22984336,-9.11712,0.78217715,47.683304,-0.70299673,-1.858254,-3.330604,-0.008425661,-0.09471698,-0.2502956,27.75,29.0,28.1875,32.3125,34.5,35.4375
0.122553356,-1.4960577,-1.37389,-0.5109934,-0.052488163,0.044007823,-0.108314656,-0.38501766,-0.3500649,0.060133513,-3.0783212,0.62414724,0.0005038971,-0.05733194,-0.008065385,-0.00042096394,0.013815641,-9.023441e-05,0.008683279,0.47722375,-1.4171573,1.9468559,-2.0988715,-1.5713137,2.4517543,-0.03042566,0.11460972,-0.13719101,0.029025247,-0.012465389,-0.039009035,-0.1340753,0.19153613,-9.040505,0.77545905,47.71823,-0.74385345,-1.9250913,-3.4096606,-0.002111081,-0.08568795,-0.27419612,27.75,29.0,28.1875,32.3125,34.5,35.4375
0.12505446,-1.1162128,-0.8571675,-0.18484223,-0.04157891,0.036377836,-0.10963625,-0.3852755,-0.3500934,0.060135137,-3.0782828,0.6240424,0.000597645,-0.05906425,-0.008318898,-0.00043335694,0.01393197,-0.0009142786,0.0085549075,0.47709125,-1.4166756,1.9462799,-2.098787,-1.5713977,2.4515617,-0.03171467,0.11830211,-0.14185166,0.030772218,-0.012196996,-0.04016781,-0.1340753,0.22984336,-8.868123,0.8179876,47.70659,-0.73033047,-2.0433512,-3.413437,0.02281962,-0.10194828,-0.29194695,27.75,29.0,28.1875,32.3125,34.5,35.4375
0.12755354,-1.3410605,-0.24123205,-0.26287848,-0.03833986,0.02411231,-0.108639084,-0.3853946,-0.35012597,0.060147703,-3.0783184,0.6239922,0.00061368395,-0.05996815,-0.008828343,0.00023439896,0.013029744,-0.00063810835,0.007993114,0.47703132,-1.4164592,1.9459919,-2.098739,-1.5713853,2.451466,-0.032065168,0.119220376,-0.14475614,0.032096345,-0.011524974,-0.039956603,-0.11492168,0.11492168,-8.925584,0.842603,47.709274,-0.72391653,-1.6969919,-3.434172,0.049438924,-0.07859915,-0.32217097,27.75,29.0,28.1875,32.3125,34.5,35.4375
0.13005418,-1.1003578,-0.5035484,-0.1584008,-0.029506158,0.024752317,-0.10589733,-0.38551185,-0.3501501,0.06014733,-3.0783045,0.6239883,0.00055572105,-0.060467105,-0.008528051,0.00040524785,0.013751407,-0.0015190728,0.009310365,0.4769589,-1.4162065,1.9456805,-2.0986426,-1.5713738,2.4513931,-0.032883875,0.12006745,-0.14663483,0.034240834,-0.011763088,-0.042091142,-0.076614454,0.05746084,-8.887277,0.8314132,47.692257,-0.7416995,-1.8562188,-3.4166179,0.041918434,-0.10121548,-0.34149814,27.75,29.0,28.1875,32.3125,34.5,35.4375
0.13255414,-1.3682766,-0.8430515,-0.25375253,-0.027422106,0.014166708,-0.10696828,-0.38563865,-0.35016438,0.060145013,-3.078267,0.6239411,0.0005851754,-0.06037262,-0.008104731,-0.001099747,0.015742661,-0.0054321038,0.009680834,0.4768987,-1.4159528,1.9453806,-2.098582,-1.571422,2.4513085,-0.03354944,0.123727724,-0.14788266,0.03621522,-0.011735359,-0.043126285,-0.095768064,0.11492168,-8.963891,0.82022345,47.692257,-0.7432937,-1.7984188,-3.3801684,0.053516693,-0.10090988,-0.32321244,27.75,29.0,28.1875,32.3125,34.5,35.4375
0.13505341,-1.88591,-1.44859,-0.71241266,-0.046932608,0.032116074,-0.10513321,-0.38588053,-0.35018215,0.060149673,-3.078189,0.6238101,0.00056282186,-0.06325342,-0.009278969,-0.00013918268,0.01567804,-0.0042871158,0.009165334,0.47675455,-1.4154706,1.9447693,-2.0983775,-1.571494,2.451093,-0.033779547,0.12857279,-0.15626384,0.038701665,-0.0122206705,-0.04283492,-0.095768064,0.21068975,-9.078813,0.82694155,47.694054,-0.720793,-1.8406832,-3.4676967,0.051188953,-0.1073388,-0.37513065,27.75,29.0,28.1875,32.3125,34.5,35.4375
0.13755351,-1.3302314,-1.307717,-0.75894773,-0.059530172,0.05121721,-0.10471495,-0.38599172,-0.3501993,0.06013998,-3.078144,0.62387717,0.00050081743,-0.062041376,-0.00875999,-0.0017303877,0.017971056,-0.010047692,0.010633819,0.47668254,-1.4152176,1.9444813,-2.0982926,-1.5714935,2.4510686,-0.03396427,0.13125364,-0.15661767,0.042540673,-0.011610231,-0.044488747,-0.05746084,0.24899697,-9.136273,0.83589023,47.737934,-0.78836405,-1.907758,-3.3529384,0.025889676,-0.11333686,-0.38347873,27.75,29.0,28.1875,32.3125,34.5,35.4375
0.14005424,-1.5698643,-1.9533837,-0.79436547,-0.0599805,0.0536405,-0.11487441,-0.38609558,-0.35021076,0.06011088,-3.0780816,0.6237845,0.00040357336,-0.06252971,-0.009137434,-0.0025056382,0.019305473,-0.012788652,0.014012032,0.4766228,-1.4149282,1.9441928,-2.0981953,-1.5715173,2.4509592,-0.033777177,0.13537815,-0.16019307,0.045034446,-0.0115470365,-0.047676984,-0.21068975,0.2681506,-9.212888,0.85826975,47.695843,-0.8342769,-1.9040959,-3.3682556,0.0029930938,-0.10234697,-0.3401315,27.75,29.0,28.1875,32.3125,34.5,35.4375
0.14255382,-2.246286,-2.1457403,-1.1326506,-0.063246034,0.04048873,-0.10172943,-0.38620842,-0.35024434,0.060110074,-3.0780652,0.6237038,0.0003707895,-0.06366974,-0.009315203,-0.00042388667,0.018225536,-0.010100603,0.015275074,0.47658646,-1.4146644,1.9438695,-2.0980995,-1.5715297,2.4508748,-0.034314893,0.1332669,-0.1630143,0.0470814,-0.011825189,-0.049476203,-0.24899697,0.38307226,-9.385271,0.86945957,47.695843,-0.82710457,-1.8574531,-3.197035,-0.03750893,-0.11684115,-0.33938825,27.75,29.0,28.1875,32.3125,34.5,35.4375
0.14505395,-2.0087974,-2.634321,-1.3546237,-0.09404994,0.049894024,-0.108578764,-0.38647372,-0.350276,0.060117126,-3.077998,0.6235718,0.00030885678,-0.06420143,-0.008948462,-0.001733552,0.021458866,-0.014525317,0.017485026,0.47643024,-1.414122,1.9431747,-2.0978587,-1.5715779,2.4506452,-0.034868017,0.1385642,-0.1671515,0.051332444,-0.012676873,-0.0522346,-0.28730422,0.57460845,-9.519346,0.78888994,47.69763,-0.88073885,-1.8770952,-3.458274,-0.11700496,-0.10976209,-0.35815114,27.75,29.0,28.1875,32.3125,34.5,35.4375
0.14755403,-2.2632587,-2.9329808,-1.5640223,-0.10689605,0.05748162,-0.10655804,-0.386585,-0.35026425,0.060086,-3.0778863,0.6235088,0.00021981953,-0.06471483,-0.009403411,-0.0017418822,0.021807559,-0.0155331055,0.020560356,0.47634637,-1.413833,1.9428858,-2.097738,-1.571638,2.4505365,-0.034612507,0.14069976,-0.17003432,0.053127665,-0.012536726,-0.05505186,-0.22984336,0.53630114,-9.634268,0.7978386,47.76928,-0.92920035,-1.9005318,-3.3836846,-0.1406285,-0.13034469,-0.3126427,27.75,29.0,28.1875,32.3125,34.5,35.4375
0.15005413,-1.8577497,-2.644126,-1.4159173,-0.12841739,0.0762795,-0.1120941,-0.38673708,-0.350296,0.06010132,-3.0778835,0.62344813,0.00028033438,-0.065327495,-0.009327882,-0.002061222,0.02329049,-0.016582197,0.023078777,0.47628638,-1.4135559,1.9425153,-2.0976655,-1.5716742,2.4504392,-0.034749504,0.14310224,-0.17248286,0.05478354,-0.013377008,-0.057704594,-0.24899697,0.59376204,-9.749189,0.7709874,47.692257,-1.0046397,-1.8830686,-3.427722,-0.19407725,-0.1076792,-0.28647882,27.75,29.0,28.1875,32.3125,34.5,35.4375
0.15255405,-2.1133666,-3.1548946,-1.5556628,-0.11174141,0.07075539,-0.10855055,-0.38686922,-0.3503263,0.06010251,-3.0778754,0.6233297,0.00024577178,-0.06607215,-0.009425895,-0.0019497022,0.023055142,-0.016968086,0.02489036,0.4762262,-1.4132671,1.9421557,-2.0975578,-1.5716857,2.4503064,-0.03548505,0.14440979,-0.17449313,0.05571583,-0.012998456,-0.060251106,-0.1340753,0.49799395,-9.634268,0.83365434,47.707485,-0.98626906,-1.8792866,-3.3491206,-0.21265565,-0.11483851,-0.2677791,27.75,29.0,28.1875,32.3125,34.5,35.4375
0.15505391,-1.4940853,-2.0209808,-1.2849666,-0.09188876,0.06152821,-0.11578714,-0.38713732,-0.3503705,0.060083922,-3.0778408,0.62305003,0.000158646,-0.06691955,-0.00991048,-0.0034401552,0.024469404,-0.019436738,0.02997732,0.47608215,-1.4126645,1.9414605,-2.097366,-1.5717219,2.4499927,-0.035282053,0.15011577,-0.1778564,0.056206632,-0.0131435525,-0.065131195,-0.1340753,0.4405331,-9.672575,0.85155696,47.698532,-1.0165949,-1.9324329,-3.4542062,-0.29389074,-0.111956164,-0.17570046,27.75,29.0,28.1875,32.3125,34.5,35.4375
0.15755361,-1.4855362,-1.7815001,-1.3295785,-0.07193891,0.04304077,-0.111278445,-0.38732,-0.35040814,0.060109008,-3.0778682,0.62311226,0.00020493333,-0.068414256,-0.01054835,-0.0026258975,0.023332208,-0.017172934,0.031799782,0.47597414,-1.4123642,1.9410409,-2.0972946,-1.5717105,2.4499202,-0.035476156,0.15107249,-0.18071692,0.05557454,-0.01317909,-0.06714676,-0.076614454,0.36391866,-9.634268,0.7709874,47.72719,-1.043476,-1.7710437,-3.5947344,-0.29606006,-0.121275336,-0.14736013,27.75,29.0,28.1875,32.3125,34.5,35.4375
0.16005422,-1.6810899,-1.5262641,-1.4681468,-0.07238252,0.02772184,-0.108583264,-0.387447,-0.35042506,0.060093317,-3.0777977,0.62292284,0.00014396248,-0.06881844,-0.010819427,-0.0033253145,0.023363408,-0.018107984,0.032840736,0.4759262,-1.412039,1.9406694,-2.097151,-1.5717701,2.4497633,-0.03560486,0.15345378,-0.18180712,0.055121534,-0.012790535,-0.06831515,-0.076614454,0.30645782,-9.615114,0.84484416,47.728977,-1.131476,-1.9769018,-3.5725317,-0.33116418,-0.13936791,-0.11779308,27.75,29.0,28.1875,32.3125,34.5,35.4375
0.16255422,-1.2693496,-1.0734308,-1.2142663,-0.07314462,0.027494732,-0.11370858,-0.38756326,-0.35043997,0.060076777,-3.0777473,0.6228562,5.019732e-05,-0.07029453,-0.011120209,-0.0037922177,0.023051003,-0.01795528,0.030875383,0.4758539,-1.4117494,1.9403461,-2.0970318,-1.571782,2.449656,-0.036530476,0.15676355,-0.18436387,0.054088473,-0.012597592,-0.06727294,-0.019153614,0.24899697,-9.519346,0.8403672,47.713753,-1.1434867,-1.9926984,-3.5350225,-0.32569724,-0.124511436,-0.077200696,27.75,29.0,28.1875,32.3125,34.5,35.4375
0.16505435,-1.287072,-1.4716338,-0.8328958,-0.06438531,0.033299334,-0.11517178,-0.38788992,-0.35049444,0.06009924,-3.077726,0.6226798,0.00011639539,-0.07291327,-0.01160087,-0.004065726,0.022417212,-0.015669102,0.02744552,0.47569752,-1.4111354,1.9395436,-2.096841,-1.5718535,2.4493928,-0.037709318,0.16094556,-0.18800199,0.05121991,-0.013097971,-0.06501801,0.019153614,0.15322891,-9.461885,0.87393653,47.72092,-1.1509664,-2.047203,-3.5132165,-0.30789873,-0.16497739,-0.082898766,27.75,29.0,28.1875,32.3125,34.5,35.4375
0.16755337,-0.7178538,-1.0001799,-0.7716507,-0.07255675,0.04960162,-0.11927969,-0.38805002,-0.3505234,0.06008541,-3.0776916,0.6226342,0.00012278499,-0.07479213,-0.012924529,-0.003627806,0.021819895,-0.0126544675,0.026319997,0.475626,-1.4107862,1.9391588,-2.096782,-1.5718902,2.4492974,-0.03652252,0.16396345,-0.19211495,0.04936425,-0.013961711,-0.06270069,0.0,0.15322891,-9.346964,0.779936,47.699425,-1.3108962,-1.9992383,-3.4646664,-0.30793443,-0.13343084,-0.10537252,27.75,29.0,28.1875,32.3125,34.5,35.4375
0.17005356,-1.0436889,-0.8247061,-0.714764,-0.07209947,0.041789964,-0.124220245,-0.38820517,-0.35054666,0.060094956,-3.0776963,0.6224447,0.00011626935,-0.07823943,-0.013370604,-0.00166978,0.018498357,-0.0074834116,0.023134366,0.47554076,-1.4104859,1.9387635,-2.0966632,-1.5719141,2.4490936,-0.039216716,0.16424568,-0.19649744,0.04734247,-0.013393128,-0.062207934,-0.095768064,0.21068975,-9.3661175,0.86945957,47.688675,-1.2249807,-2.096961,-3.4757953,-0.2807616,-0.14895941,-0.08334817,27.75,29.0,28.1875,32.3125,34.5,35.4375
0.17255324,-1.2026232,-1.4441569,-0.8038844,-0.05963356,0.040474676,-0.11429981,-0.38835314,-0.35058466,0.06011326,-3.0776973,0.6224262,0.00014060386,-0.0802791,-0.013787842,-0.0011360379,0.018331956,-0.005590351,0.021455208,0.47548065,-1.4102083,1.9383796,-2.0965674,-1.5719265,2.449022,-0.03985454,0.16671492,-0.20057386,0.047192894,-0.014120243,-0.061162747,-0.1340753,0.2681506,-9.270349,0.8403672,47.71465,-1.1415551,-2.0912187,-3.3797934,-0.26910767,-0.165337,-0.10419637,27.75,29.0,28.1875,32.3125,34.5,35.4375
0.17505424,-1.6588038,-1.8763294,-0.8129023,-0.098409206,0.054784905,-0.11117043,-0.38865528,-0.35063908,0.06009091,-3.0776253,0.6222992,3.8872055e-05,-0.08364441,-0.014350296,-0.0010911641,0.016653098,-0.0017887785,0.014435795,0.475324,-1.4095224,1.93759,-2.0963533,-1.5719622,2.4487958,-0.041709106,0.1707564,-0.2044808,0.04291349,-0.014389121,-0.055992708,-0.34476504,0.38307226,-9.308657,0.8157518,47.70032,-1.1287324,-1.9822631,-3.38442,-0.21416742,-0.1685928,-0.19240996,27.75,29.0,28.1875,32.3125,34.5,35.4375
0.17755401,-2.748349,-2.6593022,-0.8681264,-0.11041904,0.061786097,-0.106994286,-0.3888076,-0.35065535,0.060073122,-3.0775578,0.6222067,2.2354536e-05,-0.08397507,-0.015275615,-6.844705e-05,0.015407019,-0.0006903666,0.014751675,0.47525245,-1.4091743,1.9372066,-2.096257,-1.5720223,2.4486754,-0.040748313,0.1703847,-0.2066706,0.043922517,-0.01378952,-0.05534778,-0.36391866,0.49799395,-9.32781,0.779936,47.696735,-1.2749927,-1.9442022,-3.454655,-0.2127924,-0.18030262,-0.17991136,27.75,29.0,28.1875,32.3125,34.5,35.4375
0.18005383,-2.549782,-3.0241792,-1.0800328,-0.1145388,0.09655678,-0.11793631,-0.38896215,-0.3507012,0.060075063,-3.0775805,0.62209684,2.1063259e-05,-0.084525414,-0.015219371,-0.00029062477,0.0160802,-0.0012231439,0.013612798,0.4751923,-1.4088494,1.9368104,-2.0961854,-1.5720223,2.448544,-0.04109768,0.17201248,-0.20826681,0.044674326,-0.0141457245,-0.054556582,-0.51714754,0.5363012,-9.423578,0.8023209,47.698532,-1.3024008,-1.8333353,-3.3502512,-0.20170839,-0.18062516,-0.22704068,27.75,29.0,28.1875,32.3125,34.5,35.4375
0.1825534,-2.9820793,-3.333349,-1.1220479,-0.11210493,0.10454984,-0.11306589,-0.38914633,-0.3507372,0.060092334,-3.0775843,0.62205946,4.1999534e-05,-0.08546836,-0.014694498,-0.0009935269,0.016642625,-0.0032471884,0.011819692,0.47509572,-1.408512,1.9363564,-2.0960772,-1.5720342,2.4484239,-0.043116465,0.17479827,-0.21021248,0.04588756,-0.013722044,-0.05478243,-0.63206923,0.53630114,-9.461885,0.82022345,47.694946,-1.2475998,-2.0148091,-3.4423947,-0.20451045,-0.20608784,-0.25868097,27.75,29.0,28.1875,32.3125,34.5,35.4375
0.18505451,-3.0251985,-2.4292831,-0.7741458,-0.096989304,0.097773254,-0.11155385,-0.38952863,-0.35079277,0.06008662,-3.0774984,0.6220219,0.00012969732,-0.090090714,-0.016056122,0.0008256456,0.013289835,0.004176635,0.010907402,0.47491518,-1.4077544,1.9354585,-2.0959232,-1.5721425,2.4482315,-0.04458127,0.177608,-0.21673296,0.041455477,-0.0141626205,-0.0553297,-0.61291564,0.4405331,-9.423578,0.8627467,47.72808,-1.239171,-1.8285744,-3.4509692,-0.13221565,-0.19946463,-0.27876958,27.75,29.0,28.1875,32.3125,34.5,35.4375
0.1875541,-2.820667,-1.9294401,-0.94042534,-0.07382349,0.08442794,-0.109619364,-0.38971344,-0.35082215,0.060079385,-3.0774958,0.6219443,0.00012353297,-0.09098119,-0.015746597,0.0009623766,0.014088752,0.004127517,0.010527888,0.47480685,-1.4073818,1.9350275,-2.0958507,-1.5721549,2.4480753,-0.045455635,0.1788147,-0.21878752,0.04271191,-0.014853867,-0.055821758,-0.63206923,0.4405331,-9.346964,0.86945957,47.739727,-1.2266697,-1.7993493,-3.3760011,-0.10440482,-0.20580122,-0.3146935,27.75,29.0,28.1875,32.3125,34.5,35.4375
0.19005392,-1.8346779,-0.85972077,-0.8515805,-0.062951796,0.081373766,-0.12527451,-0.3898947,-0.35085267,0.06006289,-3.0774581,0.62191653,9.6359814e-05,-0.0910133,-0.015848493,2.3235498e-05,0.014171185,0.0019833425,0.010432584,0.47471082,-1.4069846,1.9345864,-2.0957668,-1.5721782,2.447967,-0.0458537,0.18115978,-0.21949512,0.04301277,-0.01395084,-0.0561258,-0.49799395,0.22984336,-9.308657,0.8985519,47.72719,-1.2324172,-1.7854682,-3.5291958,-0.08182593,-0.22421351,-0.34412366,27.75,29.0,28.1875,32.3125,34.5,35.4375
0.19255415,-1.7199053,-0.9214374,-0.71081513,-0.03959218,0.057642546,-0.11334175,-0.39029405,-0.3509298,0.06007676,-3.0774462,0.6218759,0.00023382575,-0.09413114,-0.016123926,0.0002922355,0.014417245,0.0023419207,0.00839327,0.47452998,-1.4062382,1.9336632,-2.0956461,-1.5722502,2.447763,-0.047879834,0.18637973,-0.22667742,0.04476366,-0.01434279,-0.056108806,-0.36391866,-0.05746084,-9.289502,0.85826975,47.707485,-1.1574279,-1.7985301,-3.4546432,-0.029543335,-0.26870987,-0.3872144,27.75,29.0,28.1875,32.3125,34.5,35.4375
0.19505432,-1.7109244,-0.39636308,-0.70074475,-0.04272904,0.048170634,-0.109319344,-0.39047432,-0.35096967,0.060058575,-3.0774295,0.62189144,0.0001480393,-0.09468786,-0.015490634,-0.00041355356,0.016832944,0.0006366346,0.008244657,0.47442186,-1.4058288,1.9332088,-2.0955503,-1.5722274,2.447667,-0.048580658,0.18901536,-0.22863139,0.046706483,-0.015716428,-0.056655835,-0.34476504,-0.038307227,-9.251195,0.8873621,47.751366,-1.1766355,-1.8621969,-3.444364,-0.03043113,-0.22334015,-0.42675608,27.75,29.0,28.1875,32.3125,34.5,35.4375
0.19755365,-1.4751562,-0.386049,-0.6374503,-0.038548633,0.049372476,-0.11636836,-0.39065844,-0.35099742,0.060069904,-3.0773852,0.62182444,0.00021443142,-0.09617456,-0.015667928,-0.00026426106,0.0169017,-3.2706765e-05,0.008491258,0.47434944,-1.4054793,1.9327534,-2.095442,-1.5722989,2.4475586,-0.04973841,0.19188684,-0.23279373,0.048615873,-0.015478734,-0.058058847,-0.21068975,-0.1340753,-9.270349,0.8806493,47.7648,-1.1950594,-1.9752979,-3.431724,-0.015892405,-0.2421487,-0.44774228,27.75,29.0,28.1875,32.3125,34.5,35.4375
0.20005368,-0.99146116,-0.45977786,-0.6267256,-0.02790041,0.045866538,-0.123720884,-0.39089078,-0.3509969,0.060067236,-3.077317,0.6219246,0.0002405996,-0.09700935,-0.015230661,-0.00076308066,0.018330527,-0.0012727294,0.008591956,0.4741692,-1.4050702,1.9322633,-2.0953448,-1.572347,2.44745,-0.050754268,0.19440424,-0.23496436,0.050019953,-0.016188854,-0.059172265,-0.11492168,-0.21068975,-9.270349,0.7777002,47.705692,-1.1233472,-1.9784703,-3.4606526,0.010967952,-0.25491357,-0.46156,27.75,29.0,28.1875,32.3125,34.5,35.4375
0.20255348,-0.94641775,-0.26656964,-0.61812097,-0.027711025,0.035780016,-0.11951019,-0.39105204,-0.3510481,0.060046762,-3.0773144,0.6217682,0.00020382537,-0.096883744,-0.014623192,-0.0018183616,0.019753464,-0.0043106377,0.011839185,0.4741208,-1.404673,1.9318331,-2.0952728,-1.5723594,2.4473045,-0.051752977,0.19651762,-0.23547474,0.051760267,-0.01607285,-0.063417755,-0.095768064,-0.095768064,-9.289502,0.86945957,47.69763,-1.0869673,-2.1466582,-3.469458,0.02161616,-0.25708622,-0.4828248,27.75,29.0,28.1875,32.3125,34.5,35.4375
0.20505331,-1.1232327,-1.0899011,-1.1116898,-0.038449198,0.025601551,-0.11474194,-0.39147073,-0.35110107,0.060062796,-3.0772486,0.62165505,0.00029902998,-0.09853867,-0.013305151,-0.0027690278,0.02338354,-0.009085843,0.015344053,0.4739039,-1.4038904,1.9308394,-2.0950549,-1.5724672,2.447026,-0.05479762,0.20210752,-0.24132644,0.05790949,-0.017133262,-0.069962025,-0.05746084,0.1340753,-9.346964,0.80679786,47.711964,-0.9985761,-2.1464808,-3.5797944,0.009646015,-0.26368496,-0.43002045,27.75,29.0,28.1875,32.3125,34.5,35.4375
0.20755427,-1.2064841,-1.4100605,-0.83551955,-0.06375068,0.03356748,-0.11911615,-0.3916485,-0.351107,0.060021624,-3.0771425,0.6215706,0.00018043656,-0.09815425,-0.014012903,-0.0022053653,0.02400436,-0.010361032,0.022403475,0.47378445,-1.4034457,1.9303845,-2.0949104,-1.5725154,2.4468677,-0.053187076,0.20261322,-0.24411853,0.061598316,-0.017120376,-0.07540806,-0.095768064,0.1340753,-9.308657,0.7329411,47.701214,-1.0508637,-2.08545,-3.4934454,-0.034643114,-0.2599509,-0.3880117,27.75,29.0,28.1875,32.3125,34.5,35.4375
0.21005389,-1.7751,-2.0219424,-0.98402077,-0.06497357,0.033410396,-0.1072144,-0.39182314,-0.35114253,0.060032234,-3.077118,0.6214288,0.00016705907,-0.09917761,-0.013616661,-0.0020039878,0.024971088,-0.011226505,0.027197812,0.47371197,-1.4030848,1.9299058,-2.0947535,-1.5725516,2.44671,-0.054466136,0.20425063,-0.24712719,0.064167045,-0.017599223,-0.08147834,-0.15322891,0.2681506,-9.3661175,0.8179876,47.728977,-1.0807236,-2.165112,-3.428403,-0.034552343,-0.28420618,-0.32004058,27.75,29.0,28.1875,32.3125,34.5,35.4375
0.21255405,-1.5313959,-1.8533275,-1.2515986,-0.08012185,0.05111972,-0.12042892,-0.3919951,-0.35114872,0.05998837,-3.0770364,0.6213334,-2.9646795e-05,-0.09859633,-0.012609923,-0.0020595293,0.026934585,-0.01474958,0.028643567,0.4735677,-1.4026403,1.9294513,-2.0945842,-1.5725516,2.446517,-0.055562742,0.20419243,-0.2481787,0.069300905,-0.01775029,-0.084017955,-0.05746084,0.34476504,-9.404425,0.8605109,47.71286,-1.0300407,-2.0831816,-3.5108304,-0.08600498,-0.27849504,-0.27206248,27.75,29.0,28.1875,32.3125,34.5,35.4375
0.21505423,-1.9658518,-2.1356246,-1.0640963,-0.09443779,0.04358519,-0.11399168,-0.3924254,-0.35120508,0.059992816,-3.0769584,0.6211405,-1.9158038e-05,-0.098439015,-0.01248043,-0.0023812228,0.028323032,-0.019687748,0.03422353,0.47333944,-1.4017867,1.9283866,-2.0943072,-1.5726475,2.446179,-0.05620259,0.20684615,-0.2521126,0.07558131,-0.016750306,-0.090238795,-0.11492168,0.40222588,-9.404425,0.8940802,47.721813,-0.96541524,-2.0406842,-3.4775183,-0.20525688,-0.31864327,-0.16920523,27.75,29.0,28.1875,32.3125,34.5,35.4375
0.21755396,-1.6598454,-1.9801291,-1.0939332,-0.07696226,0.049250063,-0.11529735,-0.39259663,-0.35121986,0.059970826,-3.0769048,0.62097543,-0.00015975145,-0.10015693,-0.012244453,-0.002559187,0.028627416,-0.0210153,0.032665465,0.47321862,-1.4013772,1.9279197,-2.094127,-1.5726594,2.4459622,-0.05832156,0.21028751,-0.25623846,0.07758094,-0.01643629,-0.09079671,-0.1340753,0.2681506,-9.3661175,0.87393653,47.69763,-0.94821686,-1.9825804,-3.5629213,-0.25141323,-0.29440334,-0.14367045,27.75,29.0,28.1875,32.3125,34.5,35.4375
0.22005397,-1.3806367,-1.5787615,-1.2217016,-0.058431864,0.03872073,-0.116556026,-0.39280233,-0.3512411,0.059965737,-3.0768783,0.6208935,-0.00018393445,-0.10134772,-0.01165923,-0.0021787856,0.028928982,-0.02002666,0.03051182,0.47308612,-1.4009687,1.9274291,-2.0940068,-1.5726837,2.4457822,-0.05990347,0.21062243,-0.25764963,0.07791413,-0.017164163,-0.09022151,-0.17238252,0.30645782,-9.404425,0.91421866,47.729877,-0.9007167,-1.9926239,-3.5203304,-0.28917298,-0.32155836,-0.10814296,27.75,29.0,28.1875,32.3125,34.5,35.4375
0.22255406,-1.3415455,-1.5757946,-1.2147713,-0.07255649,0.051935334,-0.116855286,-0.39319602,-0.35128012,0.059929833,-3.0767188,0.6207105,-0.000387206,-0.10340915,-0.011994226,-0.0033135163,0.029801141,-0.020790558,0.023089588,0.472846,-1.4000659,1.9263767,-2.0936363,-1.5727557,2.4454489,-0.060799543,0.21669598,-0.26220408,0.077477366,-0.017618084,-0.08368728,-0.21068975,0.2681506,-9.519346,0.90527004,47.688675,-0.7973519,-1.930928,-3.7093048,-0.32420826,-0.33930737,-0.12777089,27.75,29.0,28.1875,32.3125,34.5,35.4375
0.22505386,-1.8448076,-2.1609862,-1.1138182,-0.08424229,0.061681025,-0.1073592,-0.39342362,-0.35132396,0.05993337,-3.0767236,0.6206361,-0.00037886394,-0.10504329,-0.012553439,-0.0026473291,0.028600277,-0.018035514,0.019742517,0.47272584,-1.399621,1.9258264,-2.093529,-1.5727681,2.445282,-0.06112097,0.21771546,-0.26464567,0.0759039,-0.017810304,-0.08065962,-0.2681506,0.2681506,-9.5385,0.83365434,47.685097,-0.822951,-1.9690503,-3.6716084,-0.3210441,-0.33569634,-0.17650257,27.75,29.0,28.1875,32.3125,34.5,35.4375
0.2275537,-1.7755036,-1.9644065,-1.1591045,-0.097382866,0.08048285,-0.115591526,-0.3936238,-0.3513157,0.05991889,-3.0765975,0.62065065,-0.00046932357,-0.10736725,-0.01339643,-0.0016810133,0.026543166,-0.014392303,0.014673358,0.47256967,-1.3992,1.9253234,-2.0933268,-1.5728277,2.4451513,-0.061785556,0.21919319,-0.2681751,0.073776886,-0.017654508,-0.07625153,-0.2681506,0.22984336,-9.442732,0.9097417,47.690468,-0.7514494,-2.00875,-3.577354,-0.3177151,-0.3548434,-0.18296212,27.75,29.0,28.1875,32.3125,34.5,35.4375
0.23005344,-2.2219427,-2.0425966,-1.278115,-0.086543575,0.07490966,-0.11139564,-0.39383262,-0.3513501,0.059905935,-3.0765712,0.62055117,-0.00043914167,-0.11006695,-0.013710759,-0.0011414017,0.025599971,-0.010573715,0.010650071,0.4724731,-1.3987668,1.9248322,-2.0932558,-1.5728763,2.4449964,-0.063037194,0.22143576,-0.271484,0.07101793,-0.018563578,-0.073474325,-0.1340753,0.19153613,-9.557653,0.8851263,47.709274,-0.72776437,-2.1107762,-3.5264578,-0.30179763,-0.35745758,-0.26571247,27.75,29.0,28.1875,32.3125,34.5,35.4375
0.23255381,-1.9704036,-2.0305781,-1.3260822,-0.08123148,0.06866904,-0.11389858,-0.3940831,-0.3513905,0.059919376,-3.0765555,0.6204877,-0.0004085891,-0.11245878,-0.014976605,-0.0011058828,0.023997514,-0.007919497,0.012833814,0.47234136,-1.3982971,1.9242219,-2.0931132,-1.5729116,2.4448273,-0.063046366,0.2254406,-0.27567047,0.068096325,-0.01836766,-0.07566521,-0.24899697,0.2681506,-9.500193,0.8560339,47.703903,-0.81201875,-2.037921,-3.6957283,-0.2907489,-0.35196286,-0.2680762,27.75,29.0,28.1875,32.3125,34.5,35.4375
0.23505366,-2.1175084,-1.9511883,-1.4827596,-0.073699765,0.054877814,-0.11876565,-0.39450833,-0.35146025,0.059888516,-3.076464,0.62041175,-0.000498795,-0.11755787,-0.016541092,0.00058398896,0.020673739,0.00050922355,0.010206942,0.47211272,-1.3973708,1.9231557,-2.0928633,-1.5729603,2.4445636,-0.06421164,0.22909217,-0.28270832,0.062463455,-0.019278202,-0.074194156,-0.40222588,0.36391866,-9.615114,0.90527004,47.709274,-0.6587622,-2.1491666,-3.4227176,-0.21535945,-0.385568,-0.31393963,27.75,29.0,28.1875,32.3125,34.5,35.4375
0.2375537,-2.0637474,-1.7709389,-1.5771827,-0.09053957,0.07012069,-0.113431,-0.39474,-0.35148162,0.059889976,-3.0764031,0.62032217,-0.00050295884,-0.11937839,-0.017171498,0.0010078113,0.01994779,0.002503319,0.010468833,0.47198072,-1.3969136,1.9225811,-2.092696,-1.5730203,2.4443839,-0.06451399,0.23136573,-0.28622946,0.06159773,-0.019554112,-0.074754596,-0.4405331,0.4213795,-9.653421,0.8784135,47.728977,-0.73976743,-2.2001383,-3.4711065,-0.16579005,-0.3891164,-0.32004875,27.75,29.0,28.1875,32.3125,34.5,35.4375
0.24005349,-2.4746635,-2.3053389,-1.582596,-0.10584944,0.08825339,-0.11388979,-0.39497986,-0.35151598,0.059889276,-3.076382,0.6202401,-0.00048910396,-0.11902357,-0.016626447,5.3082713e-05,0.021048835,0.00080634555,0.009939921,0.47184867,-1.3964448,1.9220084,-2.0925763,-1.5730561,2.4442036,-0.06495649,0.23235722,-0.28533638,0.06172104,-0.01976323,-0.07466758,-0.57460845,0.45968673,-9.710882,0.87393653,47.711063,-0.6965514,-2.140614,-3.572122,-0.14192218,-0.3919732,-0.34087265,27.75,29.0,28.1875,32.3125,34.5,35.4375
0.24255343,-2.822889,-2.787333,-1.5448452,-0.11859056,0.10810405,-0.113747,-0.39520445,-0.3515469,0.05989596,-3.076335,0.62019217,-0.00044867524,-0.12001872,-0.015898189,0.00041484684,0.021393249,0.0019110927,0.008336422,0.47174013,-1.3960124,1.9214586,-2.0924447,-1.5731167,2.4440715,-0.066545084,0.23214594,-0.28602022,0.06178509,-0.020575428,-0.074649274,-0.5746084,0.45968673,-9.787497,0.90527004,47.71465,-0.69397753,-2.0359251,-3.6593554,-0.1121355,-0.39566588,-0.36272,27.75,29.0,28.1875,32.3125,34.5,35.4375
0.24505354,-2.7473428,-1.952717,-1.4153727,-0.12098018,0.11243115,-0.12482794,-0.39568844,-0.3516177,0.059873875,-3.0762658,0.62009645,-0.00044518965,-0.12089409,-0.01707638,0.0011305395,0.021538828,0.002983101,0.014954155,0.47147658,-1.3950272,1.920309,-2.0922287,-1.5731887,2.4437578,-0.064761534,0.23403707,-0.29044202,0.06340649,-0.021215387,-0.07947844,-0.45968673,0.4213795,-9.749189,0.9186956,47.74241,-0.7888899,-1.9511983,-3.80441,-0.12526637,-0.41025722,-0.36468846,27.75,29.0,28.1875,32.3125,34.5,35.4375
0.24755375,-1.9768188,-1.6186718,-1.4218075,-0.08053123,0.10610336,-0.11782137,-0.3959509,-0.35164672,0.059892826,-3.0762546,0.62009144,-0.00041123797,-0.12352725,-0.017498776,0.002316958,0.020244095,0.006780886,0.017496845,0.47130838,-1.3945701,1.9196991,-2.0920856,-1.573213,2.4435883,-0.06593191,0.23538446,-0.2945441,0.062176958,-0.021807194,-0.08318752,-0.3256114,0.3256114,-9.653421,0.85155696,47.751366,-0.68280363,-1.8714617,-3.75071,-0.0668716,-0.41427565,-0.33831203,27.75,29.0,28.1875,32.3125,34.5,35.4375
0.25005397,-1.5855887,-0.80175734,-1.362656,-0.058118675,0.07518224,-0.118860796,-0.39622003,-0.3516837,0.059903573,-3.0762525,0.62001187,-0.0003271325,-0.1250389,-0.016586374,0.0018185809,0.02235347,0.005699476,0.019909373,0.4711636,-1.3940878,1.9190887,-2.0919888,-1.5732616,2.4433944,-0.067912705,0.23854136,-0.2976122,0.063995935,-0.023206409,-0.08757488,-0.28730422,0.28730422,-9.557653,0.8493211,47.72719,-0.60257524,-1.9780147,-3.696649,-0.029457612,-0.4132955,-0.31161237,27.75,29.0,28.1875,32.3125,34.5,35.4375
0.25255388,-1.1833594,-0.6983343,-1.3813057,-0.045203906,0.04405234,-0.115570866,-0.39674684,-0.35175413,0.059918568,-3.0761817,0.6198726,-0.00019157272,-0.12748808,-0.018808356,0.002346165,0.022534057,0.008642174,0.033352714,0.47090065,-1.3931013,1.9178437,-2.091738,-1.5733942,2.4430544,-0.06514502,0.24405347,-0.3054164,0.06370674,-0.02474551,-0.098241165,-0.095768064,0.095768064,-9.557653,0.9410752,47.711063,-0.8432301,-2.0138988,-3.4903617,0.03854663,-0.39915043,-0.17961006,27.75,29.0,28.1875,32.3125,34.5,35.4375
0.2550536,-1.1311562,-1.3575417,-1.4977288,-0.04073681,0.04076886,-0.10634234,-0.39699945,-0.3517987,0.059938006,-3.0761948,0.6197788,-0.00014616939,-0.12846786,-0.01886876,0.002037935,0.023708507,0.006433735,0.03331312,0.4707684,-1.392644,1.9172338,-2.091605,-1.573418,2.4428623,-0.0658225,0.2476192,-0.30972105,0.06693957,-0.024792284,-0.09887759,0.038307227,0.05746084,-9.576807,0.9097417,47.737934,-0.767012,-2.101973,-3.365919,0.040837973,-0.39544395,-0.14187837,27.75,29.0,28.1875,32.3125,34.5,35.4375
0.2575537,-1.361023,-1.6894169,-1.7673287,-0.044489015,0.020196337,-0.11049453,-0.39726388,-0.35182753,0.05992739,-3.0761557,0.6195565,-9.947626e-05,-0.12802987,-0.018513564,0.0012059115,0.027218154,0.0026489396,0.037765667,0.4706367,-1.3921145,1.9166106,-2.0914838,-1.5735024,2.4425972,-0.06509534,0.25051454,-0.3124015,0.071672715,-0.026211021,-0.10259622,0.0,0.17238252,-9.653421,0.8672237,47.703903,-0.83880246,-2.2109845,-3.374669,0.02409951,-0.39451012,-0.10429163,27.75,29.0,28.1875,32.3125,34.5,35.4375
0.26005346,-1.2160423,-2.1073768,-1.4291152,-0.066914454,0.02987938,-0.11113093,-0.39753902,-0.35185874,0.059939742,-3.0761266,0.61947495,-7.153263e-06,-0.12776406,-0.017335849,-5.3426636e-05,0.03137466,-0.0016042669,0.03458922,0.4704925,-1.3916211,1.9159769,-2.0913622,-1.5735754,2.4424062,-0.06572389,0.25350586,-0.31414366,0.076101735,-0.027974987,-0.10004173,-0.038307227,0.2681506,-9.519346,0.88289046,47.704796,-0.84792686,-2.1608996,-3.5010533,0.001743623,-0.34678227,-0.07918406,27.75,29.0,28.1875,32.3125,34.5,35.4375
0.26255342,-0.8360069,-1.8756319,-1.377854,-0.06779027,0.031074243,-0.11022086,-0.39778247,-0.35187858,0.05993872,-3.0760462,0.6194005,-4.4027074e-05,-0.12608472,-0.016577108,-0.0011297533,0.034596395,-0.006659467,0.033515774,0.47034878,-1.3911281,1.9153551,-2.0911572,-1.5736355,2.4422266,-0.06512807,0.25447148,-0.31403676,0.0809928,-0.028550213,-0.098368905,0.095768064,0.2681506,-9.519346,0.91421866,47.71823,-0.8729657,-2.1646838,-3.5720835,-0.025521625,-0.34756774,-0.07438949,27.75,29.0,28.1875,32.3125,34.5,35.4375
0.26505336,-0.47900683,-1.6875191,-0.97726303,-0.09032887,0.005584221,-0.114671275,-0.39832333,-0.351964,0.059956465,-3.0759869,0.61914176,9.7261385e-05,-0.12651388,-0.015192582,-0.00026341222,0.03884359,-0.01057242,0.0259065,0.4701083,-1.3900949,1.91404,-2.0908787,-1.57378,2.441833,-0.06653013,0.2555403,-0.3197787,0.09108428,-0.030543353,-0.09215324,0.17238252,0.22984336,-9.270349,1.0104496,47.70659,-0.85475314,-2.017387,-3.55408,-0.14954604,-0.29692766,-0.12580663,27.75,29.0,28.1875,32.3125,34.5,35.4375
0.26755422,-0.13050808,-1.0821851,-0.95205027,-0.06697284,-0.012904478,-0.11488148,-0.39856422,-0.35200018,0.05997646,-3.075939,0.61903733,8.20038e-05,-0.12815732,-0.015436711,0.0009644437,0.03801865,-0.007995278,0.021691132,0.46998796,-1.389626,1.9133929,-2.0906513,-1.5738281,2.441654,-0.0672294,0.25565317,-0.3228928,0.09141898,-0.030980272,-0.08863286,0.19153613,0.19153613,-9.251195,0.9791215,47.69763,-0.8690958,-1.9522507,-3.6175628,-0.1720578,-0.2707392,-0.15853377,27.75,29.0,28.1875,32.3125,34.5,35.4375
0.27005434,0.23909715,-0.75978154,-0.97314876,-0.048552774,-0.019113746,-0.10772352,-0.398834,-0.35201257,0.05997084,-3.0758727,0.61904395,0.00010263594,-0.1279603,-0.01609004,0.0019274823,0.037512686,-0.010456312,0.01904392,0.46980828,-1.3891218,1.9127835,-2.0905173,-1.5738877,2.4414873,-0.06684397,0.25593874,-0.32680598,0.09700528,-0.029409999,-0.085604735,0.24899697,0.22984336,-9.270349,0.8672237,47.72808,-0.83183634,-1.8618071,-3.5136356,-0.20244269,-0.268226,-0.20227332,27.75,29.0,28.1875,32.3125,34.5,35.4375
0.27255398,-0.30065423,-0.7789472,-0.9584907,-0.04161978,-0.031654645,-0.115028135,-0.39907902,-0.35204396,0.059964694,-3.0757816,0.6190066,2.69651e-05,-0.12936105,-0.015982706,0.00216869,0.03606729,-0.010118211,0.014922309,0.46967554,-1.3885928,1.912125,-2.0902903,-1.5739349,2.4413433,-0.06891412,0.25705975,-0.32877228,0.09688968,-0.028285334,-0.0835542,0.21068975,0.24899697,-9.270349,0.91421866,47.72002,-0.84452415,-1.7621064,-3.2981489,-0.24581867,-0.2827762,-0.23935574,27.75,29.0,28.1875,32.3125,34.5,35.4375
0.2750538,-0.7451504,-1.7829133,-1.3900774,-0.06784803,0.036842402,-0.12003958,-0.39960036,-0.35212794,0.05998244,-3.0756843,0.618811,6.040066e-05,-0.13144676,-0.017481748,0.002681528,0.036808968,-0.007559852,0.0167752,0.46943632,-1.3875587,1.9107856,-2.0899193,-1.574056,2.4409952,-0.06688861,0.26131567,-0.3352395,0.09714574,-0.030128809,-0.08336935,0.05746084,0.2681506,-9.442732,0.9679317,47.681515,-1.0023329,-1.6607759,-3.3714433,-0.28938884,-0.24185854,-0.29796922,27.75,29.0,28.1875,32.3125,34.5,35.4375
0.27755383,-2.3253236,-2.903611,-1.1123353,-0.09157727,0.05828135,-0.110314995,-0.39984205,-0.35217807,0.060014296,-3.0756352,0.61874586,5.779645e-05,-0.132011,-0.01706802,0.00039305384,0.037959434,-0.010179806,0.012374139,0.46933988,-1.3870887,1.9101037,-2.0896685,-1.5741042,2.4408648,-0.06814829,0.26612744,-0.3353841,0.09533901,-0.0299716,-0.08022665,0.038307227,0.3256114,-9.442732,0.8672237,47.685097,-0.93481815,-1.8137326,-3.3974996,-0.30803752,-0.22217512,-0.37168607,27.75,29.0,28.1875,32.3125,34.5,35.4375
0.28005376,-3.323221,-3.3409824,-1.0139139,-0.124546595,0.08085804,-0.11067856,-0.40012708,-0.35219294,0.060023732,-3.0755575,0.6186905,6.3006126e-05,-0.1343404,-0.017800655,0.00060222944,0.036022175,-0.0065450747,0.012175858,0.4691595,-1.3865589,1.9094108,-2.0894544,-1.5741762,2.4406602,-0.06889733,0.268451,-0.3378167,0.09131701,-0.029912084,-0.08077458,-0.114921674,0.30645782,-9.461885,0.90527004,47.693153,-0.85948396,-1.9467974,-3.545408,-0.28210485,-0.21102196,-0.4177207,27.75,29.0,28.1875,32.3125,34.5,35.4375
0.282554,-2.9070873,-3.4970858,-1.159728,-0.13723283,0.1100652,-0.10689917,-0.40037912,-0.35224473,0.060028605,-3.0755117,0.6186017,8.794321e-05,-0.1352551,-0.01957275,0.00020032896,0.034764137,-0.0034006108,0.014929791,0.46906447,-1.386041,1.9087528,-2.0892885,-1.5742363,2.440516,-0.066392794,0.27118358,-0.33917162,0.08655858,-0.030230347,-0.081020616,-0.24899697,0.49799395,-9.423578,0.9097417,47.683304,-1.1069539,-1.8865652,-3.6232347,-0.22232357,-0.20661682,-0.4174947,27.75,29.0,28.1875,32.3125,34.5,35.4375
0.28505394,-2.5060737,-2.7942038,-1.2376316,-0.11998607,0.08034762,-0.11484434,-0.4009061,-0.35233912,0.060003128,-3.0753994,0.61840224,2.6865935e-05,-0.14029902,-0.020364497,0.0018474094,0.031117186,0.0060237832,0.017216623,0.4688238,-1.3849001,1.9073895,-2.0889437,-1.5743326,2.440166,-0.06867126,0.27307376,-0.34377688,0.07919085,-0.031289995,-0.08557529,-0.28730422,0.53630114,-9.557653,0.9164598,47.719128,-1.0715097,-1.7164493,-3.6352692,-0.12693453,-0.1577132,-0.47189617,27.75,29.0,28.1875,32.3125,34.5,35.4375
0.28755373,-1.913883,-2.0667078,-1.0944155,-0.10628032,0.06091343,-0.11993911,-0.40120602,-0.35237288,0.06001974,-3.0753794,0.61833626,0.00010987432,-0.14220122,-0.02192269,0.0030826344,0.02875507,0.010005179,0.023607533,0.46865603,-1.3843707,1.9066957,-2.0888011,-1.5743927,2.43996,-0.067755155,0.27427793,-0.34771264,0.07727189,-0.031009108,-0.091050334,-0.40222588,0.45968673,-9.442732,0.9701675,47.74868,-1.1073158,-1.7841465,-3.65064,-0.058437586,-0.1463297,-0.44340074,27.75,29.0,28.1875,32.3125,34.5,35.4375
0.29005358,-1.6867421,-2.1001403,-1.1877055,-0.0857035,0.04509929,-0.112636924,-0.40149736,-0.35245523,0.060039125,-3.0754194,0.61816806,0.00023865508,-0.14330937,-0.022137986,0.0024378959,0.028653914,0.009414711,0.029243171,0.46857178,-1.3838171,1.9059771,-2.0887048,-1.5744404,2.439766,-0.06851065,0.27743644,-0.3500166,0.07686646,-0.030669969,-0.09744393,-0.4405331,0.47884035,-9.289502,0.92093146,47.72629,-1.1333234,-1.7900404,-3.5443892,-0.020689946,-0.1401295,-0.414487,27.75,29.0,28.1875,32.3125,34.5,35.4375
0.29255357,-1.6353953,-1.7998621,-1.4773419,-0.07827835,0.04557791,-0.110493995,-0.40178588,-0.35248467,0.0600277,-3.0753658,0.6181337,0.00020685788,-0.14448974,-0.022292852,0.0024810082,0.028442983,0.009285797,0.034526974,0.4683916,-1.38324,1.9052848,-2.0885375,-1.5744761,2.4395716,-0.06933578,0.27953553,-0.35291812,0.07765599,-0.030451203,-0.1035512,-0.38307226,0.38307226,-9.404425,0.90527004,47.71286,-1.1839391,-1.7530745,-3.5447679,0.017064087,-0.13380373,-0.3359332,27.75,29.0,28.1875,32.3125,34.5,35.4375
0.2950537,-2.2245696,-2.0943882,-0.8954798,-0.092186905,0.07993639,-0.12167471,-0.40237373,-0.3525825,0.060052082,-3.075326,0.61783135,0.00033647916,-0.1455262,-0.022400247,0.002574962,0.029669086,0.005302847,0.043152172,0.46812722,-1.3821214,1.9038357,-2.0882118,-1.5746082,2.4391243,-0.07034129,0.28352022,-0.3596549,0.0844543,-0.029774921,-0.113183126,-0.4213795,0.2681506,-9.423578,0.93436235,47.72092,-1.170442,-1.741128,-3.4479713,0.009533453,-0.098759145,-0.20606981,27.75,29.0,28.1875,32.3125,34.5,35.4375
0.297554,-2.6539483,-1.3034699,-0.7034071,-0.10089121,0.07917257,-0.113847256,-0.40266138,-0.3526192,0.06002586,-3.0752554,0.61766094,0.00030861294,-0.14481853,-0.022059668,0.0011532067,0.03047323,0.00069852045,0.044915415,0.4679831,-1.3814961,1.903119,-2.0880435,-1.5746797,2.4388833,-0.07107824,0.28591272,-0.3599345,0.08678637,-0.028428063,-0.11568713,-0.59376204,0.28730422,-9.3661175,0.9030289,47.72002,-1.1737956,-1.7364393,-3.6975942,-0.015748555,-0.11582536,-0.17048842,27.75,29.0,28.1875,32.3125,34.5,35.4375
0.30005383,-2.0934582,-1.1278656,-0.773494,-0.06628526,0.08885969,-0.11688878,-0.4029737,-0.35266113,0.06005138,-3.0752423,0.61758244,0.00042938962,-0.14507484,-0.021816054,0.0018695662,0.030202296,-0.0010873579,0.042607058,0.46782666,-1.3809556,1.9023894,-2.087898,-1.5747513,2.43868,-0.072301276,0.2857549,-0.36245474,0.09092433,-0.027370702,-0.11460739,-0.6703765,0.19153613,-9.251195,0.9545008,47.677036,-1.1107991,-1.5842102,-3.5925355,-0.008917392,-0.1388785,-0.14026725,27.75,29.0,28.1875,32.3125,34.5,35.4375
0.3025541,-1.5412711,0.15098159,-0.7326323,-0.040315002,0.078868404,-0.12020788,-0.4032522,-0.3527403,0.06004553,-3.075255,0.6173934,0.00037411987,-0.14447306,-0.021871936,0.000701505,0.032894492,-0.007708221,0.0406645,0.46771878,-1.3803414,1.9016355,-2.0877159,-1.5747508,2.4384527,-0.07198484,0.2902704,-0.36688134,0.097963355,-0.02678195,-0.11234837,-0.4213795,-0.038307227,-9.270349,0.91198283,47.709274,-1.1628996,-1.8267653,-3.63161,-0.065504044,-0.13271165,-0.17342198,27.75,29.0,28.1875,32.3125,34.5,35.4375
0.30505395,-1.5934794,0.48535052,-0.36634272,0.01115148,0.027251676,-0.110874295,-0.4038708,-0.35282204,0.060059298,-3.0751653,0.6172661,0.00044519998,-0.14477453,-0.020809185,-0.0011696087,0.036478203,-0.015926473,0.027492763,0.46739396,-1.3791621,1.9001278,-2.0873544,-1.574871,2.4380608,-0.07424387,0.29661942,-0.37224478,0.10595129,-0.026250524,-0.10143537,-0.40222588,-0.30645782,-8.925584,0.96569055,47.67166,-1.0444264,-1.9922408,-3.5511472,-0.12614375,-0.14665751,-0.2552026,27.75,29.0,28.1875,32.3125,34.5,35.4375
0.30755395,-0.7312847,0.9502937,-0.5914119,0.028641175,0.021400323,-0.1182196,-0.4041649,-0.3528568,0.06006686,-3.0751069,0.6171401,0.0004898546,-0.14522338,-0.020067196,-0.0022155978,0.03784989,-0.019418519,0.024511283,0.46724942,-1.3785968,1.8993982,-2.0871623,-1.5749549,2.4378455,-0.07604907,0.2996684,-0.37422335,0.10860815,-0.0259042,-0.10025923,-0.28730422,-0.24899697,-8.963891,0.86498255,47.71465,-1.0357742,-1.963133,-3.5193481,-0.18154617,-0.14319974,-0.2856564,27.75,29.0,28.1875,32.3125,34.5,35.4375
0.31005383,-1.1640258,0.5971484,-0.41716003,-0.002500877,0.024809927,-0.118860364,-0.40444332,-0.35288838,0.06001586,-3.074997,0.61706096,0.00026939213,-0.14747992,-0.019358655,-0.00015313338,0.0369742,-0.018016879,0.020547407,0.46706828,-1.3779117,1.8986458,-2.086909,-1.5749668,2.4376295,-0.07922138,0.29887018,-0.37906212,0.112596646,-0.025777144,-0.099462464,-0.2681506,-0.21068975,-8.944737,0.9410752,47.72092,-0.7849257,-2.0341427,-3.4422858,-0.2128877,-0.15567073,-0.32254574,27.75,29.0,28.1875,32.3125,34.5,35.4375
0.31255382,-1.7948335,-1.2305641,-0.28050783,-0.026118653,0.03514327,-0.113567874,-0.4047271,-0.3529227,0.06001869,-3.0749211,0.61692923,0.000247855,-0.14877485,-0.020828169,0.0003447846,0.035831876,-0.01578856,0.02169733,0.46692488,-1.3773351,1.8979024,-2.0866702,-1.5750388,2.437414,-0.077751,0.30111748,-0.38278207,0.11155609,-0.025781596,-0.099138565,-0.22984336,-0.11492168,-8.925584,0.8940802,47.692257,-0.9977708,-1.8873432,-3.4167619,-0.22826907,-0.15432145,-0.31746835,27.75,29.0,28.1875,32.3125,34.5,35.4375
0.31505385,-2.0990608,-2.1157796,-0.33980945,-0.08988682,0.07817636,-0.1235361,-0.40530944,-0.35300756,0.060015183,-3.0747774,0.61676645,0.00013694631,-0.15289228,-0.020053666,0.0013795792,0.033616196,-0.010371244,0.017164396,0.46662337,-1.3761209,1.8963608,-2.0861814,-1.5751346,2.43703,-0.08217872,0.30230582,-0.38602668,0.10776297,-0.02628072,-0.09902575,-0.34476504,0.19153613,-9.002198,0.9835985,47.690468,-0.6564182,-1.7510581,-3.5055747,-0.22393999,-0.1338301,-0.3664846,27.75,29.0,28.1875,32.3125,34.5,35.4375
0.31755382,-1.9440055,-2.5506923,-0.66403234,-0.090671636,0.08094533,-0.12066113,-0.40562248,-0.35302794,0.059998624,-3.0746796,0.6167056,9.914522e-05,-0.15616208,-0.02115824,0.0030860917,0.030026346,-0.003310144,0.019626938,0.4664311,-1.3754843,1.895595,-2.0859673,-1.5752066,2.4368129,-0.08301987,0.30270037,-0.38945514,0.10284896,-0.026293254,-0.10232577,-0.1340753,0.21068975,-9.021352,0.9164598,47.668976,-0.6845332,-1.6831511,-3.5420375,-0.18673408,-0.138853,-0.35970545,27.75,29.0,28.1875,32.3125,34.5,35.4375
0.32005352,-2.51884,-2.7231467,-0.5930588,-0.09673367,0.07216233,-0.11254885,-0.4059147,-0.3530623,0.05998282,-3.0746067,0.6167067,1.2737903e-05,-0.15630728,-0.021065144,0.0006369041,0.030302802,-0.004827965,0.02232048,0.4662511,-1.3748709,1.8948544,-2.0857537,-1.5752305,2.4366434,-0.083467826,0.30659443,-0.38774014,0.09869738,-0.025886862,-0.105467185,-0.36391866,0.2873042,-9.059659,0.9164598,47.694946,-0.7247677,-1.5926093,-3.5966253,-0.14421798,-0.123692736,-0.34966335,27.75,29.0,28.1875,32.3125,34.5,35.4375
0.32255435,-2.1083577,-2.6066737,-0.6602,-0.094392955,0.07974289,-0.115404904,-0.40624318,-0.3530983,0.05999131,-3.0745487,0.6165571,0.00010920592,-0.15897517,-0.022381408,0.0016778101,0.027398862,-0.00047335288,0.028778456,0.46609488,-1.3742568,1.8940657,-2.0855749,-1.5753382,2.4364016,-0.08380522,0.30856654,-0.3919544,0.09569557,-0.025293203,-0.11226375,-0.4405331,0.38307226,-9.155427,0.9701675,47.711063,-0.63318735,-1.7185315,-3.7633324,-0.08091414,-0.13951701,-0.2780237,27.75,29.0,28.1875,32.3125,34.5,35.4375
0.32505417,-2.0355296,-2.425694,-1.1483661,-0.09051942,0.069482654,-0.10682027,-0.40685883,-0.35319564,0.05996903,-3.0744474,0.6162791,6.617419e-05,-0.16056271,-0.023690382,0.001183782,0.02776835,-0.0015620982,0.040001824,0.4657952,-1.3729701,1.8924979,-2.0851786,-1.5754465,2.4359422,-0.082827255,0.31432354,-0.39844784,0.09750268,-0.025198618,-0.122504555,-0.34476504,0.38307226,-9.212888,0.92093146,47.70211,-0.69805956,-1.8700241,-3.5502958,-0.03626795,-0.1679676,-0.1660868,27.75,29.0,28.1875,32.3125,34.5,35.4375
0.32755408,-1.5725288,-1.9069275,-1.0653454,-0.0937367,0.067199044,-0.12031296,-0.4071872,-0.35320383,0.059955224,-3.0743597,0.61625975,2.2043096e-06,-0.16220975,-0.02342565,0.0012566928,0.027702067,-0.001156702,0.041525614,0.46555477,-1.3723325,1.8917197,-2.0849516,-1.5754942,2.4357014,-0.084493436,0.31640258,-0.40136603,0.09792364,-0.025352709,-0.12569065,-0.28730422,0.4405331,-9.3661175,0.87393653,47.713753,-0.68994236,-1.9085361,-3.5961676,-0.022421956,-0.17569071,-0.078988515,27.75,29.0,28.1875,32.3125,34.5,35.4375
0.33005387,-1.5670278,-2.1217155,-1.2817801,-0.082423285,0.061370224,-0.10865262,-0.40748492,-0.35328734,0.05995251,-3.074368,0.61604786,-3.8568352e-05,-0.1626104,-0.0250072,0.0011377635,0.027884489,-0.0009283305,0.043695074,0.4654477,-1.3716831,1.8909072,-2.084748,-1.5755066,2.4354613,-0.08189149,0.31947756,-0.40505457,0.09841413,-0.025630109,-0.12525426,-0.38307226,0.5746084,-9.423578,0.9231726,47.705692,-0.70885134,-2.0546057,-3.5296326,0.00355805,-0.16509867,-0.05947889,27.75,29.0,28.1875,32.3125,34.5,35.4375
0.33255357,-2.0950794,-2.924639,-1.5989621,-0.07647053,0.049678575,-0.09878115,-0.4078412,-0.35333198,0.059953213,-3.0743167,0.61592376,1.8341867e-05,-0.16099717,-0.02465187,-0.0008798912,0.030300204,-0.005881762,0.04140873,0.46526802,-1.3709975,1.890046,-2.0845559,-1.57559,2.4352112,-0.08105437,0.3219027,-0.4040046,0.10045006,-0.025552254,-0.12213142,-0.36391866,0.5746084,-9.461885,0.8717007,47.689575,-0.8292786,-2.015927,-3.6626453,-0.009786344,-0.17743075,-0.046375103,27.75,29.0,28.1875,32.3125,34.5,35.4375
0.33505347,-1.321675,-2.42328,-1.4991611,-0.10725471,0.042741876,-0.107209,-0.40848505,-0.35340768,0.05992797,-3.074171,0.61566734,-1.0767337e-05,-0.16045384,-0.023302557,-0.0016813645,0.034996744,-0.013298138,0.031247152,0.4649317,-1.3696753,1.8884329,-2.084133,-1.575735,2.4347343,-0.08217815,0.32520914,-0.40880716,0.11070404,-0.02639864,-0.11308498,-0.05746084,0.3256114,-9.557653,0.9030289,47.70032,-0.8714474,-1.9417822,-3.8616714,-0.06807691,-0.16729586,-0.12803736,27.75,29.0,28.1875,32.3125,34.5,35.4375
0.33755425,-1.1565797,-1.8178256,-1.4352998,-0.094432786,0.022754282,-0.10621832,-0.40881172,-0.353458,0.059913266,-3.074128,0.6156231,-5.66552e-05,-0.16083156,-0.021961223,-0.0012997105,0.03831271,-0.016861819,0.025099628,0.46475115,-1.3690014,1.8876189,-2.0839393,-1.5757593,2.4345322,-0.08385391,0.32636732,-0.4129826,0.118413664,-0.02775005,-0.10860362,-0.076614454,0.30645782,-9.423578,1.0104496,47.70659,-0.7956537,-1.9991848,-3.7420967,-0.15893085,-0.15778731,-0.175293,27.75,29.0,28.1875,32.3125,34.5,35.4375
0.34005404,-0.5506582,-1.2083724,-1.89702,-0.053511415,0.010197869,-0.10975845,-0.4091485,-0.3535024,0.05990808,-3.0740745,0.6155174,-0.00011901371,-0.16231589,-0.022654073,-0.0012519499,0.037611865,-0.018123452,0.021196103,0.46455884,-1.3683162,1.8867563,-2.0836866,-1.5757946,2.434281,-0.084579684,0.33006173,-0.41824484,0.12079836,-0.026565718,-0.105428375,-0.038307227,0.28730422,-9.519346,1.0082139,47.657326,-0.76766884,-2.1174006,-3.6185694,-0.1828743,-0.16478994,-0.2506673,27.75,29.0,28.1875,32.3125,34.5,35.4375
0.34255397,-0.92158735,-1.055548,-1.8658757,-0.03523375,0.0033527997,-0.10663139,-0.40983096,-0.35360056,0.059921272,-3.0739598,0.61545664,-0.00013552287,-0.16223304,-0.022662232,-0.0032055646,0.040077083,-0.025353322,0.017118484,0.46419886,-1.3669808,1.8850235,-2.083206,-1.5758904,2.433899,-0.08493127,0.33651212,-0.4232879,0.12695603,-0.025535215,-0.101704344,0.15322891,0.15322891,-9.500193,0.9545008,47.71554,-0.7549702,-2.2090807,-3.5848355,-0.28508213,-0.20763178,-0.32815444,27.75,29.0,28.1875,32.3125,34.5,35.4375
0.34505385,-0.6366106,-0.98944265,-1.7916756,-0.04842057,0.023291137,-0.10549045,-0.41011542,-0.3536386,0.059897855,-3.073828,0.61527574,-0.00022589696,-0.16339412,-0.023454184,-0.0034022743,0.039308764,-0.02350329,0.016010148,0.4640789,-1.3663187,1.8842214,-2.0829198,-1.5759867,2.4336834,-0.084402554,0.3387032,-0.42513433,0.12460977,-0.025698556,-0.10006191,-0.038307227,0.17238252,-9.500193,0.9947882,47.757637,-0.78884363,-2.3517668,-3.7113702,-0.29416704,-0.21632728,-0.37653255,27.75,29.0,28.1875,32.3125,34.5,35.4375
0.3475542,-1.051618,-1.1974224,-1.6705619,-0.079613134,0.04780145,-0.11815762,-0.41045833,-0.35369694,0.05992362,-3.0737865,0.615305,-0.00024056848,-0.16389385,-0.023461789,-0.004255102,0.039758824,-0.023805592,0.015689285,0.46389887,-1.3656702,1.8833255,-2.0826442,-1.5760106,2.4335275,-0.084542036,0.34091586,-0.4257928,0.123522624,-0.025978839,-0.09987795,0.0,0.076614454,-9.595961,0.9410752,47.757637,-0.80882347,-2.343435,-3.7423744,-0.2933688,-0.22671287,-0.42956197,27.75,29.0,28.1875,32.3125,34.5,35.4375
0.35005406,-1.6774164,-1.5026127,-1.528854,-0.11362892,0.061013095,-0.11484454,-0.41075498,-0.35370308,0.059890017,-3.0736258,0.61517376,-0.0004005509,-0.16704763,-0.024773302,-0.003727764,0.036575582,-0.016305411,0.018025106,0.46370694,-1.3649969,1.8825248,-2.0823247,-1.5760945,2.4332747,-0.08456361,0.3428408,-0.4276661,0.115315445,-0.02654706,-0.102226,0.22984336,0.095768064,-9.768343,0.9791215,47.713753,-0.89125335,-2.296414,-3.7758904,-0.23507848,-0.22311828,-0.46264702,27.75,29.0,28.1875,32.3125,34.5,35.4375
0.35255396,-1.5411333,-2.1665478,-1.5109098,-0.119646676,0.06413883,-0.113812245,-0.41109484,-0.35379228,0.059893005,-3.0736463,0.61509615,-0.00036482196,-0.17001447,-0.026825285,-0.0011653877,0.03251748,-0.009112483,0.024543932,0.46357524,-1.3643119,1.8816632,-2.0821698,-1.5761069,2.4330924,-0.08374703,0.3427809,-0.43300137,0.11242572,-0.026179528,-0.107929446,0.15322891,0.095768064,-9.710882,0.87617236,47.70032,-0.92328715,-2.341031,-3.753242,-0.18954323,-0.24534796,-0.4351969,27.75,29.0,28.1875,32.3125,34.5,35.4375
0.35505375,-0.9439902,-2.0301692,-2.3212166,-0.076927386,0.05164403,-0.10533938,-0.41180035,-0.35390803,0.059910677,-3.0735857,0.61490065,-0.00032892567,-0.17386732,-0.029468896,0.0019037647,0.027327484,0.0014521601,0.04025808,0.4632278,-1.3629429,1.8798813,-2.0817168,-1.5762028,2.4326315,-0.08222608,0.3424823,-0.43875748,0.10661423,-0.026359979,-0.12211945,-0.05746084,0.40222588,-9.691729,0.947788,47.696735,-0.96527565,-2.0039964,-3.637629,-0.049388748,-0.25733066,-0.32872015,27.75,29.0,28.1875,32.3125,34.5,35.4375
0.35755366,-0.9871403,-1.8513379,-2.3881397,-0.07949757,0.05276095,-0.108944766,-0.4121363,-0.35395476,0.05989887,-3.0735178,0.6147078,-0.00033156853,-0.17345247,-0.029414924,0.0013213255,0.027807876,-0.00047048705,0.049316756,0.463072,-1.3622454,1.879021,-2.0814893,-1.5762867,2.4323645,-0.082102045,0.3434214,-0.43905047,0.107837796,-0.025979387,-0.13105536,-0.076614454,0.45968673,-9.959879,0.91421866,47.69763,-1.174828,-1.984894,-3.717867,-0.029089611,-0.27564514,-0.19254214,27.75,29.0,28.1875,32.3125,34.5,35.4375
0.36005372,-0.8049523,-2.0542004,-2.130631,-0.10923933,0.07938144,-0.112426475,-0.4124743,-0.35401714,0.059911735,-3.073507,0.61447567,-0.0002971061,-0.17571336,-0.028036203,0.0005993869,0.028567445,-0.0018675071,0.048077844,0.4629265,-1.3615843,1.8781475,-2.081261,-1.5763468,2.4320757,-0.08622119,0.34701943,-0.44217333,0.10892464,-0.026056731,-0.13393366,-0.17238252,0.47884035,-9.921572,0.98135734,47.7245,-0.96870875,-2.036529,-3.8385806,-0.030429237,-0.2900886,-0.15217422,27.75,29.0,28.1875,32.3125,34.5,35.4375
0.36255357,-1.971569,-2.568305,-2.2898667,-0.109908275,0.07150339,-0.09883995,-0.41284633,-0.35407284,0.05992955,-3.0735316,0.61436343,-0.00026774668,-0.17384957,-0.028309517,-0.0022327555,0.032780718,-0.008146776,0.052040637,0.46271163,-1.3609095,1.877251,-2.0810568,-1.5763592,2.431788,-0.08345985,0.35223404,-0.44285855,0.11188501,-0.027024964,-0.13512932,-0.28730422,0.4405331,-9.940725,1.0373062,47.689575,-1.1271725,-2.09495,-4.039206,-0.013182851,-0.2931713,-0.104107305,27.75,29.0,28.1875,32.3125,34.5,35.4375
0.3650539,-2.3373606,-2.777739,-1.6919572,-0.123624064,0.09599678,-0.0979477,-0.41353628,-0.35420507,0.05994013,-3.0734406,0.6140234,-0.0002863683,-0.17508267,-0.026615936,-0.001647777,0.037592642,-0.014662038,0.040560655,0.4624226,-1.3594935,1.8754071,-2.0805256,-1.5764798,2.4312992,-0.08634095,0.35599646,-0.45219362,0.12546657,-0.028393641,-0.12651697,-0.30645782,0.2681506,-9.9790325,1.0015011,47.729877,-0.98113537,-2.2373085,-3.844197,-0.15115932,-0.31428882,-0.12667966,27.75,29.0,28.1875,32.3125,34.5,35.4375
0.36755326,-1.6781664,-2.0185509,-2.0460715,-0.08367637,0.06691782,-0.099471375,-0.41388443,-0.35424015,0.059939377,-3.0733564,0.61397135,-0.00029551724,-0.17542893,-0.026526624,-0.00016858483,0.038166303,-0.015422268,0.03446734,0.4622304,-1.3588102,1.8745307,-2.080272,-1.5765518,2.4310858,-0.086579226,0.355232,-0.45612147,0.13111569,-0.028549096,-0.12065869,-0.36391866,0.36391866,-9.80665,0.9612189,47.703903,-1.0161123,-2.070114,-3.6881132,-0.21169704,-0.32714134,-0.20838115,27.75,29.0,28.1875,32.3125,34.5,35.4375
0.37005404,-1.4626814,-1.2587663,-1.806488,-0.06539429,0.042894527,-0.092991844,-0.41424054,-0.35429615,0.059950758,-3.0733044,0.61380714,-0.0002545914,-0.17532796,-0.025870888,-0.0004262181,0.039828803,-0.017910682,0.031060643,0.46207434,-1.3581142,1.8736113,-2.0800192,-1.5766357,2.4308343,-0.087273344,0.35621196,-0.4577411,0.13472717,-0.028918419,-0.11794292,-0.40222588,0.40222588,-9.749189,0.99031126,47.71554,-1.0345513,-2.033608,-3.7403638,-0.26605433,-0.3446369,-0.26476705,27.75,29.0,28.1875,32.3125,34.5,35.4375
0.3725542,-0.63933015,-0.7986511,-1.3435495,-0.07449357,0.060709655,-0.11507179,-0.4146105,-0.35434607,0.05996016,-3.0732493,0.6137007,-0.00025762484,-0.17713207,-0.026431266,0.0015744324,0.03880549,-0.01445897,0.028897008,0.46188217,-1.3573955,1.8726634,-2.0797436,-1.5766963,2.4305832,-0.08735125,0.35568327,-0.46220884,0.13618004,-0.029548885,-0.115850955,-0.3256114,0.13407528,-9.5385,0.9947882,47.719128,-0.9539075,-1.9112501,-3.7130373,-0.2906094,-0.34349573,-0.30897164,27.75,29.0,28.1875,32.3125,34.5,35.4375
0.37505332,-1.7873544,-0.63658184,-1.3621489,-0.042541124,0.042803705,-0.09643354,-0.41532862,-0.35449752,0.060012333,-3.073233,0.6134879,-0.00017167242,-0.18178731,-0.02638511,0.0012954976,0.037522256,-0.008914627,0.02470434,0.46158132,-1.356027,1.8707842,-2.079243,-1.5767802,2.4301524,-0.090330996,0.36080885,-0.46683282,0.13013726,-0.0308958,-0.11462808,-0.34476504,-0.038307227,-9.423578,1.0350704,47.66987,-1.0185231,-1.8407778,-3.715969,-0.25122344,-0.35598734,-0.37553668,27.75,29.0,28.1875,32.3125,34.5,35.4375
0.3775542,-1.8607411,-0.6322463,-1.1050934,-0.05974894,0.08348543,-0.11083362,-0.41571167,-0.3545253,0.060003437,-3.0731502,0.6134487,-0.00020337396,-0.18565525,-0.028424397,0.0021189388,0.034248207,-0.0014308372,0.027962944,0.46134144,-1.3552827,1.8698491,-2.078983,-1.5768408,2.4298992,-0.08974495,0.36459002,-0.4719868,0.12332274,-0.031349737,-0.11729356,-0.34476504,-0.22984336,-9.423578,0.93436235,47.6636,-0.84043455,-1.9783719,-3.6802835,-0.18179713,-0.36332688,-0.36922327,27.75,29.0,28.1875,32.3125,34.5,35.4375
0.3800542,-2.245039,-0.6493205,-1.1319295,-0.06517752,0.10583673,-0.112480395,-0.41605955,-0.3546013,0.06002035,-3.073164,0.613275,-0.0001596554,-0.18739009,-0.029014222,0.0013815847,0.033812918,0.0010641929,0.031788066,0.46119764,-1.35461,1.8689512,-2.0787685,-1.5768765,2.4296455,-0.08965048,0.36795053,-0.47365624,0.11917518,-0.03210308,-0.12101908,-0.15322891,-0.28730422,-9.404425,0.9791215,47.66091,-0.9521956,-1.9803644,-3.6329622,-0.11544207,-0.36185843,-0.3483122,27.75,29.0,28.1875,32.3125,34.5,35.4375
0.3825542,-2.0198054,-0.8050513,-0.90678567,-0.06193033,0.1183141,-0.11497661,-0.41645592,-0.35463405,0.0600119,-3.073053,0.6131543,-0.00012594464,-0.19014424,-0.027336176,0.001131917,0.03496731,0.002052668,0.034793697,0.46099213,-1.3538297,1.8679703,-2.0785048,-1.5769972,2.4293795,-0.09373735,0.370497,-0.47635153,0.118892856,-0.033628847,-0.12809935,-0.4213795,-0.19153614,-9.404425,0.9679317,47.64658,-0.71572447,-2.0832222,-3.5998983,-0.052741468,-0.3689493,-0.2841628,27.75,29.0,28.1875,32.3125,34.5,35.4375
0.38505396,-2.1868217,-1.0313613,-0.7835312,-0.052480448,0.08897391,-0.10282824,-0.41720176,-0.35475424,0.060047466,-3.0730054,0.6128846,-6.066957e-05,-0.19175382,-0.028159246,0.0027617489,0.036285114,0.005964565,0.05014408,0.46063292,-1.3524145,1.8660649,-2.0779893,-1.5771064,2.4288588,-0.09163238,0.37119883,-0.4817331,0.120556,-0.036630135,-0.1413243,-0.4213795,0.095768064,-9.251195,0.9701675,47.682407,-0.93138695,-1.8518674,-3.6936045,0.0050067278,-0.3390091,-0.14870828,27.75,29.0,28.1875,32.3125,34.5,35.4375
0.38755393,-1.4585984,-0.7632842,-0.6969368,-0.0627372,0.088618256,-0.10917147,-0.41759315,-0.35480794,0.060049236,-3.072975,0.61268574,4.0802403e-05,-0.19260336,-0.028343098,0.0034704646,0.03674035,0.008485591,0.051272746,0.46045312,-1.3516715,1.8651203,-2.0777981,-1.5772032,2.428559,-0.090977505,0.37110445,-0.48340228,0.120246276,-0.038165458,-0.14178869,-0.6895301,0.095768064,-9.232041,1.0708755,47.681515,-0.97245014,-1.6487355,-3.7667367,0.04282131,-0.31474265,-0.048907872,27.75,29.0,28.1875,32.3125,34.5,35.4375
0.3900537,-1.2281497,-1.1428758,-0.6355008,-0.065580204,0.08251279,-0.116643496,-0.41799602,-0.35485592,0.060065117,-3.072924,0.612579,0.00016630364,-0.19339868,-0.028086156,0.0028087478,0.039183397,0.006440013,0.050550077,0.460261,-1.3509388,1.8641499,-2.0775816,-1.5773109,2.4283073,-0.091172546,0.37478152,-0.48727456,0.123345494,-0.039443,-0.14125253,-0.36391866,0.17238252,-9.212888,1.0149267,47.652847,-0.919474,-1.6203003,-3.6725717,0.04753432,-0.31009534,-0.060664203,27.75,29.0,28.1875,32.3125,34.5,35.4375
0.3925536,-1.3834065,-1.0984071,-0.61282647,-0.071251564,0.078605376,-0.10981047,-0.41837037,-0.35491645,0.06007551,-3.0728803,0.61241925,0.0001963585,-0.19239908,-0.02645068,0.0018863361,0.043784704,0.0017554619,0.043760266,0.46009293,-1.3502065,1.863181,-2.077316,-1.5773839,2.4280455,-0.09174564,0.37585083,-0.4880372,0.12931165,-0.04144868,-0.135022,-0.59376204,0.24899697,-9.212888,1.0037369,47.66987,-0.9572205,-1.7122965,-3.8039298,0.02353091,-0.27499717,-0.09692107,27.75,29.0,28.1875,32.3125,34.5,35.4375
0.39505523,-0.71042824,-0.65801406,-0.5476881,-0.062294398,0.07499001,-0.111062534,-0.41913056,-0.35501006,0.060061812,-3.0727172,0.61218184,0.00016483074,-0.19237678,-0.024019584,0.001903722,0.050444715,-0.00874242,0.029906549,0.45970806,-1.3486713,1.8612288,-2.0767596,-1.5775403,2.4275343,-0.09479477,0.37971312,-0.4972207,0.14703786,-0.042708766,-0.12420131,-0.2873042,0.2681506,-8.983045,1.0350704,47.707485,-0.83184516,-1.6144948,-3.6310081,-0.1142571,-0.232079,-0.2042946,27.75,29.0,28.1875,32.3125,34.5,35.4375
0.39755473,-0.80791414,-0.6936657,-0.08686648,-0.045101013,0.04750405,-0.10764269,-0.41954494,-0.35506,0.06008533,-3.0726538,0.61211187,0.0002507206,-0.19349356,-0.02406125,0.0018595835,0.05205384,-0.012397745,0.026137574,0.4595037,-1.3479143,1.860196,-2.076482,-1.5776366,2.427295,-0.09563911,0.38399228,-0.5040155,0.15354258,-0.042520985,-0.12127566,-0.38307226,0.24899697,-8.944737,1.0350704,47.713753,-0.78571177,-1.766145,-3.4459362,-0.2122224,-0.22830202,-0.28966552,27.75,29.0,28.1875,32.3125,34.5,35.4375
0.40005478,-0.54696,-0.32980493,0.06769833,-0.046069022,0.03754418,-0.11302024,-0.41992006,-0.35510492,0.060075115,-3.072543,0.6119744,0.00021543042,-0.19312815,-0.023561027,-0.00026994265,0.055579696,-0.016343102,0.023804659,0.4593239,-1.3471335,1.8592027,-2.0761702,-1.5777329,2.4270442,-0.0951958,0.38841987,-0.50522804,0.15543292,-0.04393433,-0.11848535,-0.40222588,0.24899697,-8.6574335,1.005978,47.69763,-0.71718395,-1.797102,-3.436796,-0.2650547,-0.19772942,-0.3472231,27.75,29.0,28.1875,32.3125,34.5,35.4375
0.40255415,-0.4394846,-0.19569442,-0.1784751,-0.038139526,0.037003685,-0.1116784,-0.42030555,-0.3551423,0.06007596,-3.0724125,0.6119309,0.00021083155,-0.1949635,-0.02193839,-0.0012788536,0.056653757,-0.015016873,0.017912185,0.45913061,-1.3463657,1.8581976,-2.0758483,-1.5778416,2.426841,-0.09837115,0.3902827,-0.50477886,0.1524122,-0.045494355,-0.11575433,-0.19153613,0.24899697,-8.6574335,0.94331104,47.694946,-0.65918344,-1.760645,-3.6136405,-0.26887625,-0.1605635,-0.40513033,27.75,29.0,28.1875,32.3125,34.5,35.4375
0.40505442,-1.6297845,-2.199483,-0.06428448,-0.10781808,0.07316989,-0.10640017,-0.42110604,-0.35523522,0.060065832,-3.0721908,0.61176634,0.00017995431,-0.20129627,-0.02528347,0.0025832045,0.047676362,0.0009700677,0.020557066,0.4587347,-1.344747,1.8561143,-2.0752184,-1.5780329,2.426372,-0.09830468,0.3903116,-0.5115769,0.14081067,-0.04461525,-0.1183304,-0.21068975,0.21068975,-8.714894,1.1424912,47.689575,-0.7053055,-1.6577399,-3.7177331,-0.13722719,-0.11039086,-0.49764407,27.75,29.0,28.1875,32.3125,34.5,35.4375
0.40755382,-2.289851,-3.1432507,-0.20907286,-0.1247188,0.07485407,-0.107816525,-0.42152393,-0.35529423,0.0600777,-3.072109,0.6116472,0.0002093445,-0.20401648,-0.028524036,0.0042555872,0.043587293,0.008274638,0.029716251,0.4585439,-1.343931,1.8550237,-2.074897,-1.5781292,2.426118,-0.09523036,0.39256573,-0.5173021,0.13585614,-0.04424908,-0.124414414,-0.2873042,0.38307226,-8.963891,0.9679317,47.71823,-0.8573679,-1.6279837,-3.501177,-0.071525216,-0.104202375,-0.42754507,27.75,29.0,28.1875,32.3125,34.5,35.4375
0.4100548,-1.9671763,-2.685229,-0.32648757,-0.15815182,0.10098738,-0.11263782,-0.42191648,-0.35534716,0.060056996,-3.072048,0.6115513,0.00013319113,-0.20539011,-0.028448597,0.0037535725,0.04377289,0.007964004,0.040014263,0.45832765,-1.3431156,1.8540171,-2.074621,-1.5781649,2.4258502,-0.09628964,0.39554483,-0.5200936,0.13593216,-0.044360623,-0.13576704,-0.30645782,0.4213795,-8.963891,1.0395473,47.72719,-0.78189695,-1.6792413,-3.4026475,-0.0420707,-0.08791095,-0.36646712,27.75,29.0,28.1875,32.3125,34.5,35.4375
0.41255423,-1.5850827,-2.5375934,-0.6565409,-0.14103785,0.091874965,-0.12461024,-0.42234308,-0.35538095,0.06006394,-3.0719488,0.61137277,0.0002559034,-0.20443983,-0.028482327,0.001157981,0.04511644,0.0029924104,0.04721211,0.45812383,-1.342322,1.8529772,-2.0743577,-1.5783204,2.425548,-0.09588266,0.39982453,-0.51977277,0.13630031,-0.04340811,-0.14256449,-0.11492168,0.53630114,-9.078813,0.9768804,47.71286,-0.8810874,-1.7975097,-3.5567408,-0.022301931,-0.077432185,-0.26810342,27.75,29.0,28.1875,32.3125,34.5,35.4375
0.41505417,-0.16072956,-1.5947225,-0.65768677,-0.10434688,0.06017003,-0.12628075,-0.42314368,-0.35549283,0.060009878,-3.0717998,0.6109907,0.0001882539,-0.20190008,-0.02882206,-0.0018266529,0.046955165,-0.009236743,0.055524446,0.4577403,-1.3406297,1.8509201,-2.0738275,-1.5784754,2.424946,-0.09518187,0.40569377,-0.5227288,0.14505982,-0.03971334,-0.15019603,-0.17238253,0.45968673,-9.174581,1.1223475,47.694946,-0.90586084,-1.9673628,-3.8382182,-0.05469349,-0.07882071,-0.13142875,27.75,29.0,28.1875,32.3125,34.5,35.4375
0.4175547,-0.034249794,-1.3545098,-0.68406314,-0.07142222,0.015755096,-0.11028481,-0.42354855,-0.35555696,0.060011037,-3.0717363,0.610882,0.00016385321,-0.20263109,-0.029216906,-0.0010643982,0.046935786,-0.011608835,0.05335594,0.45754802,-1.3398132,1.849852,-2.0735142,-1.578535,2.4246945,-0.09563499,0.4076126,-0.5284108,0.15093589,-0.03865169,-0.14848468,0.0,0.30645782,-9.174581,1.0126908,47.684196,-0.8643385,-2.0380163,-3.6722898,-0.098720126,-0.08470541,-0.09952536,27.75,29.0,28.1875,32.3125,34.5,35.4375
0.4200538,0.35437268,-0.7937347,-0.8797326,-0.046302956,-0.016556192,-0.107742086,-0.42399144,-0.3556176,0.06004048,-3.071703,0.61070806,0.00032724728,-0.20288156,-0.028255787,-0.0010920874,0.04805123,-0.01614596,0.043540724,0.4573551,-1.3390219,1.8487633,-2.0732605,-1.5786546,2.4243977,-0.09793916,0.40919843,-0.5320543,0.15758756,-0.03759755,-0.14098209,-0.21068975,0.3256114,-9.155427,1.0126908,47.71017,-0.8301234,-2.0393777,-3.623784,-0.18011639,-0.09660578,-0.18846323,27.75,29.0,28.1875,32.3125,34.5,35.4375
0.42255414,0.4193374,-0.30427185,-0.99213827,-0.04470601,-0.023037713,-0.11857191,-0.42436382,-0.3556706,0.059991043,-3.0715702,0.6105472,0.00011233726,-0.20148468,-0.02998897,-0.0005517748,0.0478468,-0.01858841,0.041051645,0.45716438,-1.3381345,1.8477091,-2.0728881,-1.5787023,2.4241242,-0.09453416,0.4096485,-0.535248,0.16246124,-0.03633222,-0.1350894,-0.019153614,0.30645782,-9.232041,1.0238806,47.72808,-0.93677354,-1.9228187,-3.639348,-0.24045436,-0.09623927,-0.2387467,27.75,29.0,28.1875,32.3125,34.5,35.4375
0.4250545,-0.38090533,-1.2172177,-0.94779897,-0.08468722,0.01940321,-0.12424639,-0.42516202,-0.3557848,0.059976853,-3.07139,0.61029875,-5.6185738e-05,-0.20317283,-0.030096995,-0.0025703155,0.046898622,-0.020824213,0.036506653,0.45676783,-1.336466,1.8455423,-2.072171,-1.5788215,2.4235969,-0.09655987,0.415658,-0.5383324,0.1611087,-0.034534324,-0.13257563,0.11492168,0.05746084,-9.442732,0.9410752,47.678825,-0.8491214,-2.063723,-3.7927392,-0.27014175,-0.11226331,-0.30852324,27.75,29.0,28.1875,32.3125,34.5,35.4375
0.42755467,-1.0288807,-2.1185846,-1.038936,-0.10384705,0.056026198,-0.12773094,-0.42557502,-0.35582608,0.05995564,-3.0712829,0.61021966,-0.00012662458,-0.20635574,-0.031121338,-0.0029997271,0.04390664,-0.016526612,0.03398001,0.4565394,-1.335613,1.8444756,-2.07185,-1.5788931,2.4233334,-0.097780444,0.4198557,-0.5414224,0.15481555,-0.033780098,-0.13127089,0.17238252,0.038307227,-9.461885,0.9679317,47.70032,-0.8437242,-2.2288594,-3.7859292,-0.2243607,-0.13185954,-0.33722478,27.75,29.0,28.1875,32.3125,34.5,35.4375
0.43005395,-1.9437853,-2.6244018,-1.3888829,-0.11178361,0.071111955,-0.11491048,-0.4259898,-0.3559111,0.059950713,-3.071229,0.6100546,-0.00012307952,-0.210478,-0.032311138,-0.0020638632,0.03944079,-0.009645732,0.032563895,0.4563828,-1.3347486,1.8433627,-2.071553,-1.5789651,2.4230812,-0.09962291,0.42247817,-0.545634,0.14823863,-0.032843098,-0.1317021,0.17238252,0.1340753,-9.634268,0.9164598,47.67793,-0.7999625,-2.3867188,-3.5942597,-0.12216778,-0.16229112,-0.36217612,27.75,29.0,28.1875,32.3125,34.5,35.4375
0.43255457,-1.8045623,-1.8669472,-1.8065505,-0.09678414,0.045580994,-0.12050185,-0.42684743,-0.3560259,0.05992712,-3.071075,0.6097857,-0.00015611565,-0.21149078,-0.032277957,-0.0037657602,0.0395643,-0.011600603,0.041858062,0.45596245,-1.3330092,1.8411492,-2.0709422,-1.5791205,2.4225137,-0.100598894,0.42703044,-0.5478782,0.14761901,-0.032195456,-0.14197391,0.076614454,0.24899697,-9.864111,0.9634547,47.694946,-0.71987665,-2.4461021,-3.7368193,-0.051274218,-0.18058456,-0.26798594,27.75,29.0,28.1875,32.3125,34.5,35.4375
0.43505397,-1.3935108,-2.0051146,-1.7745552,-0.08822878,0.033411525,-0.108466156,-0.42728868,-0.3561081,0.059949473,-3.0710783,0.6096277,-0.00012799927,-0.21170853,-0.032775816,-0.002875931,0.038483884,-0.008911282,0.05001599,0.45575884,-1.3321705,1.8400005,-2.0706317,-1.5791568,2.4222114,-0.09963596,0.42538717,-0.54791576,0.14633918,-0.03246467,-0.14916818,-0.15322891,0.2681506,-9.844957,0.96569055,47.71465,-0.7763275,-2.2274404,-3.9324853,-0.027462535,-0.19701886,-0.19705689,27.75,29.0,28.1875,32.3125,34.5,35.4375
0.4375546,-0.67601466,-1.4246032,-1.9291024,-0.086997636,0.036007892,-0.13246414,-0.42771336,-0.3561616,0.059950277,-3.0709953,0.6094337,-3.997466e-05,-0.21223933,-0.032963954,-0.0016711375,0.038915258,-0.008630032,0.056335703,0.45557895,-1.3313434,1.8389224,-2.0703547,-1.5792888,2.4219215,-0.099285156,0.42513916,-0.5514692,0.1500043,-0.03302228,-0.15513201,-0.2681506,0.24899697,-9.844957,0.9768804,47.72092,-0.7914566,-2.191879,-3.914729,-0.007990934,-0.21354987,-0.09829292,27.75,29.0,28.1875,32.3125,34.5,35.4375
0.44005388,-0.3571117,-0.80023545,-2.000479,-0.081073806,0.037970874,-0.13186225,-0.42813808,-0.35622078,0.059937228,-3.070953,0.6092692,-0.00010628524,-0.2112196,-0.0327328,-0.0027301598,0.04223583,-0.014807722,0.059039995,0.45535132,-1.3304791,1.8378209,-2.0700414,-1.5793251,2.421597,-0.0985108,0.4284353,-0.5550535,0.15727317,-0.03330871,-0.15705651,-0.2873042,0.2681506,-9.998186,0.9545008,47.70032,-0.8669797,-2.111175,-4.0077844,-0.04208927,-0.20849875,-0.036988027,27.75,29.0,28.1875,32.3125,34.5,35.4375
0.44255465,-1.7008308,-1.3803996,-1.8515123,-0.071811974,0.02714589,-0.113443576,-0.42853564,-0.35628796,0.05990999,-3.07087,0.6090822,-0.00026302563,-0.21013117,-0.032260302,-0.004259029,0.045504157,-0.022804575,0.05420938,0.45515934,-1.3295904,1.8367075,-2.0696676,-1.5793613,2.4212995,-0.09862516,0.43263343,-0.5589333,0.16560115,-0.03271558,-0.15233903,-0.24899697,0.28730422,-10.055647,1.0507371,47.69763,-0.9203813,-2.3685277,-4.121115,-0.1350882,-0.24021643,-0.07737022,27.75,29.0,28.1875,32.3125,34.5,35.4375
0.44505435,-1.6809015,-1.302712,-1.9238682,-0.07534356,0.05842836,-0.122105524,-0.4293665,-0.35642257,0.059900805,-3.070753,0.60861915,-0.00039242615,-0.20905912,-0.03267271,-0.004075715,0.048234835,-0.0304243,0.044839595,0.4547758,-1.3278631,1.834443,-2.0689447,-1.579481,2.4206426,-0.097351715,0.43571407,-0.56662655,0.17831795,-0.0317789,-0.14169596,-0.21068975,0.17238252,-9.940725,1.0305934,47.747787,-0.98969233,-2.3987372,-3.8700192,-0.32209742,-0.29150233,-0.1645226,27.75,29.0,28.1875,32.3125,34.5,35.4375
0.44755465,-2.0139627,-1.6233546,-1.4786643,-0.0895252,0.07030215,-0.11585239,-0.4298152,-0.35649273,0.05992313,-3.0706756,0.6085881,-0.000321608,-0.21208051,-0.033803534,-0.0025528816,0.04528346,-0.024340756,0.037687734,0.45458364,-1.3270115,1.83327,-2.068611,-1.5795768,2.4204416,-0.09779241,0.43672475,-0.5708892,0.17484811,-0.03178067,-0.13498348,-0.21068975,0.076614454,-9.864111,0.9679317,47.74241,-1.0267718,-2.3045285,-3.893271,-0.3269007,-0.2910766,-0.23558313,27.75,29.0,28.1875,32.3125,34.5,35.4375
0.4500538,-2.1145527,-1.5590112,-1.5424029,-0.09414496,0.068632424,-0.12786233,-0.4302001,-0.3565641,0.05988001,-3.0705926,0.60840005,-0.0005105511,-0.21583693,-0.03374755,-0.0016846999,0.041656017,-0.01607928,0.033042032,0.4544026,-1.3261123,1.8321809,-2.0682557,-1.5796007,2.4201543,-0.10055988,0.4368097,-0.571422,0.16629033,-0.032185618,-0.1330973,-0.1340753,0.038307227,-9.921572,1.0328293,47.70838,-0.8461181,-2.1799924,-3.9436314,-0.2418026,-0.32828814,-0.2866234,27.75,29.0,28.1875,32.3125,34.5,35.4375
0.45255393,-2.1543071,-1.8373634,-1.6062479,-0.11062009,0.06527972,-0.114574276,-0.4306455,-0.35661912,0.059881985,-3.0705152,0.6083669,-0.00050209597,-0.22140177,-0.036294673,0.00255652,0.034888886,-0.00082955614,0.027295979,0.45417476,-1.3252492,1.8310412,-2.0679352,-1.5796732,2.4199164,-0.100339,0.4352661,-0.5774807,0.1572589,-0.03280039,-0.1271228,-0.076614454,0.019153614,-9.883265,1.048496,47.711964,-0.9288263,-1.9333643,-3.752969,-0.1223557,-0.3172823,-0.3719194,27.75,29.0,28.1875,32.3125,34.5,35.4375
0.45505446,-2.1726143,-1.5611619,-1.4882123,-0.09613487,0.049095068,-0.13092418,-0.431517,-0.35676226,0.05988711,-3.0704117,0.60815245,-0.00044051983,-0.22727425,-0.03668824,0.0023539795,0.034811866,0.0040316083,0.026500028,0.45378995,-1.3235313,1.8287772,-2.0673373,-1.5798177,2.419412,-0.102886826,0.44377452,-0.58754456,0.15437384,-0.03491677,-0.12885235,-0.095768064,0.076614454,-9.883265,1.0350704,47.716442,-0.7861068,-2.2122495,-3.743516,0.025358088,-0.3714022,-0.46773654,27.75,29.0,28.1875,32.3125,34.5,35.4375
0.45755467,-1.732751,-1.2547116,-1.4950621,-0.06590588,0.049641952,-0.12798783,-0.4319857,-0.35684296,0.059905723,-3.0703926,0.60806614,-0.00033688484,-0.2257372,-0.036345147,0.0010861256,0.03658507,0.00040062232,0.03463826,0.4535863,-1.3226569,1.8275937,-2.0670612,-1.5798897,2.4191573,-0.1020193,0.4445087,-0.58636975,0.15642405,-0.03496248,-0.13612537,-0.1340753,0.15322891,-9.902418,1.0261165,47.72092,-0.81911325,-2.1013277,-3.8344035,0.040467367,-0.37072986,-0.4368682,27.75,29.0,28.1875,32.3125,34.5,35.4375
0.46005422,-2.3582711,-1.4294769,-1.286024,-0.06108759,0.036259834,-0.11406504,-0.43244654,-0.35690352,0.05991115,-3.0703454,0.60789657,-0.00026048283,-0.22290415,-0.03475533,-0.0008740199,0.041881923,-0.008054822,0.044932198,0.4533706,-1.3217813,1.826435,-2.0667713,-1.579986,2.418842,-0.101525456,0.44569197,-0.5854189,0.16410545,-0.036075134,-0.1459171,-0.53630114,0.36391866,-9.500193,1.0552088,47.713753,-0.89218223,-2.0577872,-4.055726,0.0020636613,-0.3675986,-0.3627777,27.75,29.0,28.1875,32.3125,34.5,35.4375
0.4625545,-2.1733375,-1.5486841,-1.6114612,-0.03938647,0.025428036,-0.12270418,-0.43287763,-0.3569732,0.05991036,-3.0703232,0.60765785,-0.00028611266,-0.2225023,-0.032553088,-0.0011000758,0.04607383,-0.014950292,0.051550362,0.45316556,-1.3209178,1.8252963,-2.0664442,-1.5800341,2.4184911,-0.10418861,0.44694698,-0.5890797,0.17444973,-0.03688853,-0.15518956,-0.2681506,0.4213795,-9.5385,1.0663986,47.707485,-0.72112894,-1.9803678,-4.2989154,-0.06929202,-0.38914162,-0.24043784,27.75,29.0,28.1875,32.3125,34.5,35.4375
0.46505392,-1.8411565,-1.944656,-1.1865925,-0.09105227,0.043742243,-0.12076536,-0.43376034,-0.3571015,0.059930332,-3.0701773,0.60733557,-0.00032402357,-0.22351849,-0.0325123,0.0019395916,0.04880118,-0.019834254,0.05728812,0.45275748,-1.3191662,1.8229116,-2.0656717,-1.5801905,2.4179015,-0.1045337,0.44832256,-0.6021597,0.19164564,-0.037273064,-0.16126202,-0.68953013,0.40222588,-9.5385,1.1402553,47.67166,-0.77113885,-1.877718,-3.758284,-0.28086242,-0.42027098,-0.13552535,27.75,29.0,28.1875,32.3125,34.5,35.4375
0.4675541,-1.9698045,-2.1524553,-1.2386967,-0.12131627,0.06965468,-0.12674893,-0.43423077,-0.35720125,0.059957244,-3.070175,0.6071077,-0.0002718965,-0.22405368,-0.03327998,0.0018142953,0.0509443,-0.017114304,0.05183133,0.45257875,-1.318255,1.8216423,-2.065314,-1.5802516,2.417581,-0.10172859,0.45014384,-0.60420084,0.19043037,-0.04034335,-0.15297244,-0.4213795,0.4213795,-9.519346,1.1290656,47.681515,-0.96612227,-1.7696708,-3.8917804,-0.29154262,-0.4137786,-0.17508915,27.75,29.0,28.1875,32.3125,34.5,35.4375
0.47005436,-2.983712,-3.3292325,-0.94639236,-0.14048098,0.08951439,-0.11959059,-0.43470743,-0.357268,0.059984554,-3.0701194,0.60696566,-0.00020131734,-0.22768965,-0.033578042,0.0014099563,0.049433347,-0.01058082,0.044601016,0.45236212,-1.3173667,1.8203977,-2.0649464,-1.5803479,2.4172833,-0.10311214,0.45370105,-0.6062736,0.18244779,-0.041830473,-0.1471117,-0.6703765,0.51714754,-9.500193,1.0954963,47.699425,-0.9362278,-1.794842,-3.917117,-0.23505166,-0.40731418,-0.20671107,27.75,29.0,28.1875,32.3125,34.5,35.4375
0.47255388,-3.248071,-3.583104,-0.65254015,-0.16057749,0.12660772,-0.13190842,-0.43513516,-0.35733217,0.05997141,-3.0700505,0.6067983,-0.00032007595,-0.23196691,-0.034707278,0.0020381385,0.04819062,-0.0014898923,0.041502662,0.4521461,-1.3164653,1.8192219,-2.0645535,-1.5803856,2.4169722,-0.102825515,0.45723325,-0.6107067,0.1746578,-0.04471158,-0.14369515,-0.2873042,0.28730422,-9.346964,1.0641627,47.651955,-0.9593613,-1.9533141,-3.84754,-0.12612163,-0.37854195,-0.2923703,27.75,29.0,28.1875,32.3125,34.5,35.4375
