Tylouw/Master_Thesis_Code/test_recorded_data/real_test10/sample_13_session_4.csv
timestamp[s],tcp_force_x[N],tcp_force_y[N],tcp_force_z[N],tcp_force_rx[Nm?],tcp_force_ry[Nm?],tcp_force_rz[Nm?],tcp_pose_x[m],tcp_pose_y[m],tcp_pose_z[m],tcp_pose_rx[rot_vec_x],tcp_pose_ry[rot_vec_y],tcp_pose_rz[rot_vec_z],tcp_velo_x[m/s],tcp_velo_y[m/s],tcp_velo_z[m/s],tcp_velo_rx[rot_vec_x/s],tcp_velo_ry[rot_vec_y/s],tcp_velo_rz[rot_vec_z/s],q1[rad],q2[rad],q3[rad],q4[rad],q5[rad],q6[rad],qd1[rad/s],qd2[rad/s],qd3[rad/s],qd4[rad/s],qd5[rad/s],qd6[rad/s],tool_acc_x,tool_acc_y,tool_acc_z,current_of_whole_robot[A],voltage_of_whole_robot[V],current_J1[A],current_J2[A],current_J3[A],current_J4[A],current_J5[A],current_J6[A],temp_J1[C],temp_J2[C],temp_J3[C],temp_J4[C],temp_J5[C],temp_J6[C]
9.730002e-07,0.23192063,0.87348515,1.1922151,-0.018557668,0.0111971805,-0.035978533,-0.38153133,-0.34956393,0.059960835,-3.0785408,0.6248809,-0.00017822713,-0.0013194781,-0.000718341,0.00035590053,-0.002372891,0.0042266427,0.000111427005,0.47918996,-1.4235624,1.9549397,-2.1004398,-1.5707458,2.454145,-4.3319676e-05,-2.215077e-06,0.00037719976,-0.0052201864,0.00014563222,-0.00015416583,0.1340753,0.095768064,-8.829816,0.779936,47.73256,-0.16817309,-2.997717,-2.1404223,-0.45712408,0.14705689,-0.22098628,27.6875,28.9375,28.125,32.3125,34.375,35.3125
0.002552429,-0.07428184,0.89229935,1.16175,-0.013765395,0.0036318153,-0.02784311,-0.38152698,-0.3495215,0.05993193,-3.078462,0.62490284,-0.0002300547,-0.0016220206,-0.00087665796,-0.0022930957,-0.002487183,0.0044310903,0.00010816914,0.47914195,-1.423549,1.9549884,-2.1004303,-1.5707816,2.4541206,-4.2804608e-05,0.004015231,0.0035254825,-0.01262003,0.00014274489,-0.0001498865,0.095768064,-0.15322891,-8.791509,0.71279734,47.71554,-0.18308866,-3.115191,-2.1474159,-0.40063334,0.14532194,-0.22050689,27.6875,28.9375,28.125,32.3125,34.375,35.3125
0.00505232,-0.032193303,0.6733527,1.1761352,0.0070089553,-0.0031539537,-0.025128111,-0.38152352,-0.3495644,0.059940107,-3.0785398,0.6248608,-0.00021876852,-0.0014972505,-0.0008109552,-0.0027887174,-0.0023881393,0.004244042,0.000104489074,0.47919,-1.4235369,1.954964,-2.1004665,-1.5707334,2.4541326,-4.2301668e-05,0.004467376,0.004393971,-0.013729009,0.00014017506,-0.00014583798,0.17238252,-0.076614454,-8.714894,0.7418897,47.699425,-0.16360486,-3.4344711,-2.5263052,-0.34253275,0.17115182,-0.20515808,27.6875,28.9375,28.125,32.3125,34.375,35.3125
0.007552387,0.35357243,0.8942532,1.2006638,0.032149285,-0.015712745,-0.025531795,-0.38152823,-0.34954882,0.059917368,-3.0785108,0.6249132,-0.00022274787,-0.0011326697,-0.00061125925,-0.0016064334,-0.00189509,0.0033630885,0.000100826575,0.47916603,-1.4235135,1.9549998,-2.1005123,-1.5707458,2.454145,-4.181038e-05,0.0026251308,0.0027805855,-0.009264223,0.000115740535,-0.00014200273,0.15322891,0.0,-8.619126,0.7217513,47.716442,-0.16485588,-3.3999176,-2.483032,-0.35779345,0.1585562,-0.22174343,27.6875,28.9375,28.125,32.3125,34.375,35.3125
0.010052566,0.61274594,2.0455968,0.2105479,0.047029644,-0.036938954,-0.02852527,-0.3815377,-0.34954697,0.059932113,-3.0785143,0.62493324,-0.000208125,-0.0009720051,-0.00052463776,0.00033648466,-0.0016651043,0.0029521228,9.45103e-05,0.479154,-1.4235265,1.954975,-2.1004865,-1.5707458,2.454145,-4.08689e-05,1.1562114e-06,1.2487523e-06,-0.00339016,0.0001087273,-0.00013490702,0.15322891,0.0,-8.925584,0.779936,47.701214,-0.4647727,-2.5792785,-2.9694238,-0.41232383,0.15465242,-0.25541595,27.6875,28.9375,28.125,32.3125,34.375,35.3125
0.012551749,0.28371114,0.95762855,0.055730682,0.006647118,-0.0080462145,-0.026317922,-0.38151988,-0.34954026,0.059905976,-3.0784757,0.624848,-0.00028599123,-0.0020219556,-0.0010719894,-0.0015652718,0.00029269833,-0.00082547485,0.00011775914,0.479166,-1.4234883,1.9549855,-2.1004622,-1.5707573,2.4541087,-4.736522e-05,0.0075107785,-0.004516505,-0.002127246,0.00010615664,-0.00016144772,0.2873042,0.019153614,-9.174581,0.75084364,47.74331,-0.51266205,-2.484834,-3.0094423,-0.40459102,0.1534544,-0.26908252,27.6875,28.9375,28.125,32.3125,34.375,35.3125
0.01505188,-0.7921005,-0.74007434,-0.23243968,-0.027680282,0.012482716,-0.024647612,-0.38152754,-0.34953225,0.05988275,-3.0783973,0.6248542,-0.00031304962,-0.0059311423,0.0003364256,-0.002959332,0.0018433223,-0.0038262855,-0.0059674447,0.47917593,-1.4234132,1.9549474,-2.1004379,-1.5708054,2.4541326,-0.006169705,0.015638998,-0.011010796,-0.00038343543,0.00010370961,-0.00019438608,0.05746084,0.19153613,-9.385271,0.73069996,47.731667,-0.38461348,-3.1108656,-2.7971892,-0.4388858,0.17399767,-0.2760204,27.6875,28.9375,28.125,32.3125,34.375,35.3125
0.017553963,-1.2669868,-1.3971475,-0.5725864,-0.06613237,0.047645245,-0.031588674,-0.3815158,-0.34953666,0.059884366,-3.0784304,0.6248785,-0.00036040432,-0.0064056474,0.00096208457,-0.0028119918,0.0018243823,-0.0038278168,-0.003478901,0.47916338,-1.4234374,1.9549712,-2.1004379,-1.5707573,2.454131,-0.007728724,0.01527701,-0.011015248,-2.5035592e-05,0.000120293385,-0.004242105,-0.17238252,0.30645782,-9.5385,0.84484416,47.699425,-0.2839716,-2.9165547,-3.0757537,-0.44367874,0.17853376,-0.26859742,27.6875,28.9375,28.125,32.3125,34.375,35.3125
0.020052936,-1.786047,-1.9276739,-0.6700916,-0.07547631,0.088963374,-0.041742675,-0.38152823,-0.3495323,0.05987202,-3.0783885,0.6248866,-0.00040772246,-0.0068232412,-0.00036722986,-0.001845528,0.001329362,-0.0040282933,0.0024355622,0.47915182,-1.423377,1.9549221,-2.1004007,-1.5707692,2.4541297,-0.006102572,0.016633546,-0.01546549,0.0030156781,0.00064716896,-0.008529598,-0.47884035,0.51714754,-9.825804,0.7150385,47.696735,-0.6071714,-2.6415856,-3.1897435,-0.48348984,0.1798394,-0.23361629,27.6875,28.9375,28.125,32.3125,34.375,35.3125
0.022553366,-1.828924,-1.0486007,-0.9022594,-0.079769626,0.08149992,-0.050502248,-0.38152957,-0.34953967,0.05985251,-3.078388,0.6248096,-0.00053142005,-0.0077574984,-0.0011188978,-0.0022121465,-0.000618632,-0.0049257283,0.0030328517,0.47913948,-1.4233041,1.9548725,-2.100353,-1.570732,2.4540694,-0.007021935,0.019348053,-0.017564768,0.0022911227,0.0027818864,-0.010048964,-0.5554548,0.63206923,-9.959879,0.75084364,47.689575,-0.64644766,-2.679562,-3.2050226,-0.4943477,0.18095931,-0.21846065,27.6875,28.9375,28.125,32.3125,34.375,35.3125
0.025052525,-2.039594,-2.229139,-1.103311,-0.058089256,0.0708397,-0.049170487,-0.38155186,-0.3495462,0.059856668,-3.078416,0.6248352,-0.0005276431,-0.008615992,-0.00133234,-0.0022163587,-0.002498686,-0.00475486,0.0017636096,0.47911492,-1.4232799,1.9548382,-2.1003654,-1.5707082,2.4540572,-0.008466854,0.020218875,-0.018283159,0.0011148826,0.004367272,-0.010227,-0.5746084,0.63206923,-9.959879,0.7732232,47.703903,-0.6552633,-2.6492996,-3.269403,-0.47980273,0.14637965,-0.22553667,27.6875,28.9375,28.125,32.3125,34.375,35.3125
0.027556103,-1.8250613,-1.369103,-0.9200488,-0.08281281,0.06602743,-0.05820398,-0.3815722,-0.3495387,0.059829894,-3.0783815,0.6248868,-0.000543904,-0.0104976315,-0.001258868,-0.0016206151,-0.003083514,-0.0026331355,0.00022366183,0.47909048,-1.4232074,1.9548248,-2.1004016,-1.5707201,2.4540694,-0.010037653,0.021317255,-0.020714514,0.00029709414,0.0039007517,-0.010255468,-0.61291564,0.51714754,-10.055647,0.72622824,47.71465,-0.6842203,-2.6697273,-3.2380214,-0.48069805,0.15481995,-0.22021899,27.6875,28.9375,28.125,32.3125,34.375,35.3125
0.030053003,-1.7115657,-1.0865397,-0.9458341,-0.04168123,0.052956257,-0.07700537,-0.38163933,-0.3495683,0.059855197,-3.078437,0.62489897,-0.00049278256,-0.013756085,-0.00095102936,-0.0005706828,-0.0032396738,0.00039066543,-0.0028773053,0.47906554,-1.4231225,1.9546674,-2.1003902,-1.5706967,2.454045,-0.012780335,0.023572577,-0.025683047,0.0002598925,0.0026354897,-0.009891635,-0.53630114,0.3256114,-9.864111,0.7418897,47.66808,-0.71082425,-2.5580933,-3.2322109,-0.46400586,0.17613664,-0.25119004,27.6875,28.9375,28.125,32.3125,34.375,35.3125
0.03255214,-1.2127914,0.028009241,-0.6298108,-0.029737325,0.06279186,-0.09856143,-0.3816687,-0.34953657,0.059833955,-3.0783768,0.6249836,-0.0004858622,-0.015149569,-0.0013175415,0.00033021127,-0.0045771957,0.0020865777,-0.004499476,0.47900525,-1.4230745,1.9546665,-2.100414,-1.5707325,2.4540453,-0.013679435,0.023990832,-0.02821998,0.00025550456,0.003035612,-0.009168082,-0.47884035,0.21068975,-9.825804,0.75084364,47.672558,-0.644291,-2.5184352,-3.1560173,-0.46755835,0.1712783,-0.2696059,27.6875,28.9375,28.125,32.3125,34.375,35.3125
0.035052303,-1.2039282,0.150248,-0.7447906,0.0070728096,0.049249347,-0.09382331,-0.3817095,-0.34957752,0.05986223,-3.0785024,0.6249525,-0.00044140607,-0.016487114,-0.0019057576,0.0004510246,-0.0066524777,0.0017832072,-0.0055527496,0.47899273,-1.4230496,1.9545816,-2.1004498,-1.5706595,2.4539974,-0.015156437,0.026192248,-0.030980771,0.00012112732,0.005011674,-0.009593472,-0.34476504,0.11492168,-9.825804,0.82022345,47.7254,-0.752185,-2.513998,-3.1577637,-0.44576395,0.1587637,-0.2718166,27.6875,28.9375,28.125,32.3125,34.375,35.3125
0.037552886,-1.2103368,0.40359628,-0.6091622,0.029247338,0.035286967,-0.1024657,-0.3817104,-0.34958237,0.059824724,-3.078475,0.6249089,-0.0005416438,-0.017752564,-0.002623126,0.00071719266,-0.008718847,0.0018040292,-0.005654087,0.47899234,-1.4229529,1.9545568,-2.1004498,-1.5706471,2.4539733,-0.01623611,0.0281467,-0.033799384,7.908748e-06,0.006828425,-0.010573973,-0.34476504,-0.019153614,-9.710882,0.72622824,47.73256,-0.7001924,-2.6502347,-3.0776916,-0.4468378,0.13137642,-0.2747896,27.6875,28.9375,28.125,32.3125,34.375,35.3125
0.04005236,-0.3233158,1.0969125,-0.4617578,0.023800842,0.038412463,-0.12768543,-0.38180476,-0.34956652,0.05982334,-3.0784268,0.6249549,-0.00049584673,-0.019493757,-0.0029870756,0.0013396514,-0.009211426,0.0034443196,-0.0042988053,0.47890806,-1.422808,1.954389,-2.1004255,-1.5706953,2.453924,-0.01698759,0.029893318,-0.0372198,3.371623e-08,0.00650179,-0.012678132,-0.095768064,-0.17238252,-9.615114,0.74413085,47.71465,-0.73220825,-2.5690198,-3.014861,-0.45728862,0.13231325,-0.26784533,27.6875,28.9375,28.125,32.3125,34.375,35.3125
0.04255231,-0.5280948,0.36205915,-0.45617887,0.02973897,0.037352357,-0.13489956,-0.38185906,-0.3496141,0.059875388,-3.0785484,0.62501806,-0.00041945957,-0.020601729,-0.002728001,0.0009551787,-0.008262973,0.0033372743,-0.004876629,0.47889575,-1.4227953,1.9542555,-2.1004255,-1.5706238,2.4539356,-0.017955592,0.032303434,-0.03909396,2.201429e-09,0.005706796,-0.013064754,-0.1340753,-0.21068975,-9.5385,0.7486078,47.683304,-0.67916787,-2.5425148,-3.02941,-0.43714273,0.11993298,-0.25549698,27.6875,28.9375,28.125,32.3125,34.375,35.3125
0.045052506,-1.157155,-0.3416311,-0.69030124,0.028758995,0.026803868,-0.14208648,-0.3818901,-0.34959635,0.059854712,-3.0785182,0.6250508,-0.00046462382,-0.021469928,-0.0026617267,0.00091511436,-0.007964361,0.0036205617,-0.004810469,0.4788355,-1.4227226,1.9542197,-2.1004255,-1.5706238,2.4538996,-0.018615915,0.03371294,-0.040615518,1.4373758e-10,0.005307603,-0.0137897255,-0.11492168,-0.13407528,-9.442732,0.80456203,47.721813,-0.6922492,-2.5413084,-3.0483305,-0.4242565,0.12596394,-0.2798286,27.6875,28.9375,28.125,32.3125,34.375,35.3125
0.04755268,-0.65411264,-0.20051765,-0.49493176,0.010608446,0.031072676,-0.1511008,-0.38192582,-0.34960818,0.05984972,-3.0785112,0.6250878,-0.00046411148,-0.022409074,-0.0029337949,0.001937748,-0.009241322,0.00548212,-0.0050137225,0.47882336,-1.4226388,1.9541353,-2.1004255,-1.5706238,2.4539115,-0.019177143,0.03302662,-0.042170677,9.385037e-12,0.0055798697,-0.014147546,-0.076614454,0.0,-9.519346,0.7105615,47.721813,-0.68824303,-2.4014232,-3.09247,-0.41370225,0.13871938,-0.252805,27.6875,28.9375,28.125,32.3125,34.375,35.3125
0.050051846,-0.50649077,-0.6392583,-0.5624383,-0.008529524,0.01588948,-0.17251924,-0.38202772,-0.34959757,0.05986654,-3.0785308,0.62515,-0.00043225542,-0.024181223,-0.0026873962,0.0015881616,-0.008394941,0.005570799,-0.005964282,0.47870278,-1.4225295,1.9539665,-2.1004016,-1.5706123,2.4538274,-0.020730658,0.03639385,-0.04522301,4.0009886e-14,0.0047825845,-0.014746798,-0.076614454,0.21068975,-9.557653,0.6948948,47.6636,-0.65420675,-2.4696848,-3.1738353,-0.39668173,0.13630345,-0.2406852,27.6875,28.9375,28.125,32.3125,34.375,35.3125
0.05255205,-0.56811696,-0.89473337,-0.63513386,-0.016077569,0.016996212,-0.16454591,-0.38207713,-0.3496214,0.05988879,-3.078557,0.62511665,-0.0003362349,-0.024745014,-0.0024701736,0.00153919,-0.007900176,0.005830163,-0.0061136405,0.47871467,-1.4224693,1.9538468,-2.1004016,-1.5706362,2.4538152,-0.021272935,0.037171334,-0.046001174,2.6123597e-15,0.004222937,-0.015137937,-0.076614454,0.2873042,-9.710882,0.7150385,47.72719,-0.69583553,-2.4030635,-3.2300367,-0.41701823,0.14650407,-0.25249416,27.6875,28.9375,28.125,32.3125,34.375,35.3125
0.055052083,-0.664201,-1.3302733,-0.6250924,-0.02756823,0.020700658,-0.15365666,-0.38211712,-0.34961694,0.059886105,-3.0785494,0.6251736,-0.0003885682,-0.02663873,-0.0027730726,0.002545289,-0.008807771,0.00810834,-0.007070784,0.4786543,-1.4223967,1.9537619,-2.1003659,-1.5706123,2.4537914,-0.02232195,0.03813233,-0.04940081,1.7056841e-16,0.0039720596,-0.01522762,-0.05746084,0.40222588,-9.595961,0.7329411,47.67345,-0.6639669,-2.328021,-3.1437397,-0.40516096,0.16095284,-0.24495426,27.6875,28.9375,28.125,32.3125,34.375,35.3125
0.05755245,-0.73776555,-1.389877,-0.5109042,-0.0406922,0.016480118,-0.14621213,-0.38219282,-0.3496222,0.05988886,-3.0785916,0.6252587,-0.0003665069,-0.027334254,-0.003016631,0.002755778,-0.009787559,0.008267164,-0.0067960178,0.4785701,-1.4223005,1.9536537,-2.1004016,-1.5705761,2.453755,-0.02304238,0.03890239,-0.050765023,1.1136899e-17,0.004767095,-0.016223222,-0.05746084,0.4405331,-9.481039,0.66132545,47.695843,-0.6102083,-2.3191304,-3.2012677,-0.38830575,0.17373794,-0.23078662,27.6875,28.9375,28.125,32.3125,34.375,35.3125
0.060052503,-0.69825524,-1.4330174,-0.40304798,-0.037453454,0.018817583,-0.14252137,-0.3822924,-0.34962472,0.05990964,-3.0785944,0.62529844,-0.00028789262,-0.027662547,-0.0030200344,0.0018897603,-0.009768196,0.0048124813,-0.0077354806,0.4784976,-1.4221792,1.953462,-2.1003768,-1.5705994,2.453707,-0.024354964,0.042060263,-0.052856673,0.002003619,0.006342241,-0.016597658,-0.11492168,0.40222588,-9.423578,0.7396539,47.691364,-0.7093259,-2.2924318,-3.2783267,-0.3994652,0.14755765,-0.23313512,27.6875,28.9375,28.125,32.3125,34.375,35.3125
0.06255229,-1.0162094,-1.460594,-0.31347808,-0.027127465,0.0035637715,-0.13728061,-0.38234946,-0.34963202,0.0599093,-3.0786088,0.62532,-0.00028398866,-0.02936231,-0.0038210603,0.0026429486,-0.010804452,0.006828291,-0.007697439,0.47844964,-1.4220824,1.9533523,-2.1003773,-1.570587,2.4536707,-0.024493163,0.04383991,-0.056531146,0.0016324695,0.006325881,-0.016771615,-0.038307227,0.45968673,-9.404425,0.81351066,47.682407,-0.6946753,-2.217723,-3.3056943,-0.41212872,0.16217491,-0.22304682,27.6875,28.9375,28.125,32.3125,34.375,35.3125
0.065052375,-0.2981486,-0.8966002,-0.18301935,-0.02796515,0.019027984,-0.14852892,-0.38242733,-0.34964743,0.059935097,-3.0786822,0.6253541,-0.0001911118,-0.030729733,-0.0045136353,0.003515357,-0.01239865,0.008628648,-0.0074274316,0.4783895,-1.4220221,1.9532326,-2.1004136,-1.5705632,2.4536226,-0.024900923,0.044597276,-0.05932323,0.0013337489,0.0069077983,-0.017448142,-0.076614454,0.38307226,-9.346964,0.7463667,47.681515,-0.7053938,-2.1328485,-3.0672972,-0.39015907,0.15805885,-0.21062654,27.6875,28.9375,28.125,32.3125,34.375,35.3125
0.06755235,-0.67199916,-1.1413507,-0.33200434,-0.013928535,0.015060969,-0.14174236,-0.38248825,-0.34965444,0.0599389,-3.0786836,0.6253736,-0.00015199393,-0.03011536,-0.003859336,0.001804422,-0.010752738,0.0056187683,-0.0077497107,0.47835332,-1.4219254,1.9531134,-2.1004136,-1.5705751,2.4535985,-0.025441684,0.046778463,-0.057865396,0.001124728,0.0068356455,-0.017666705,-0.095768064,0.30645782,-9.3661175,0.8493211,47.68599,-0.6416914,-2.130117,-3.4123373,-0.38103664,0.15515584,-0.20186412,27.6875,28.9375,28.125,32.3125,34.375,35.3125
0.070052646,-0.8336791,-0.48385683,0.068860345,-0.009881566,0.010798198,-0.1420682,-0.3826115,-0.34968662,0.05993921,3.0786872,-0.62539357,0.0001831494,-0.03278149,-0.005390503,0.0031693866,-0.013775492,0.0082728,-0.008012477,0.47825706,-1.4216963,1.9528478,-2.1004012,-1.5705146,2.4535143,-0.026122324,0.049362373,-0.063873515,0.0007980141,0.008285422,-0.018083224,-0.15322891,0.2681506,-9.232041,0.7620334,47.691364,-0.69825584,-2.152289,-3.2279103,-0.35802492,0.122112334,-0.19503027,27.6875,28.9375,28.125,32.3125,34.375,35.3125
0.07255287,-0.40794116,-0.1646871,0.07210052,-0.0012690173,0.016152868,-0.14233752,-0.38269943,-0.34969592,0.059972737,3.0786047,-0.6254527,7.929308e-05,-0.033412054,-0.005044485,0.0026764618,-0.013432625,0.0073579676,-0.007581941,0.47818464,-1.4216357,1.9527048,-2.1004136,-1.5705026,2.4534893,-0.027385684,0.051066738,-0.06472509,0.0009158025,0.008403166,-0.019775841,-0.15322891,0.22984336,-9.174581,0.7642693,47.653748,-0.6981691,-2.0963538,-3.3308585,-0.354029,0.14175737,-0.18520659,27.6875,28.9375,28.125,32.3125,34.375,35.3125
0.07505228,-0.23393731,0.17383069,0.12092257,0.004348116,0.022580527,-0.14755382,-0.38277477,-0.34971002,0.05997052,3.078557,-0.6255202,7.624441e-05,-0.034149203,-0.004976014,0.002601959,-0.013828449,0.0063671907,-0.007947472,0.47812423,-1.4215032,1.9525608,-2.1004245,-1.5704783,2.4534771,-0.028703008,0.052542485,-0.06646832,0.0018790152,0.009210192,-0.0207277,-0.076614454,0.21068975,-9.097966,0.68146914,47.67793,-0.6598927,-2.0679107,-3.3460612,-0.34762993,0.13672963,-0.17686151,27.6875,28.9375,28.125,32.3125,34.375,35.3125
0.07755233,-0.23169294,-0.062968254,0.13723059,0.014118618,0.023887975,-0.14338055,-0.3828395,-0.3497343,0.05998454,3.0785012,-0.62549025,7.929259e-05,-0.034275386,-0.0052964566,0.0024482878,-0.013562183,0.005039881,-0.008019417,0.47807625,-1.4214064,1.9524153,-2.1004126,-1.5704302,2.4534175,-0.028489817,0.05412602,-0.06828113,0.0034093172,0.00958537,-0.020441903,-0.114921674,0.17238252,-9.174581,0.78217715,47.693153,-0.67123044,-2.0654702,-3.3330073,-0.34546924,0.10983729,-0.18012303,27.6875,28.9375,28.125,32.3125,34.375,35.3125
0.080052674,-0.65837294,-0.014540679,0.12220318,0.014038286,0.031667225,-0.14972904,-0.382966,-0.34974796,0.059987664,3.078469,-0.62552077,9.055785e-05,-0.036520135,-0.006137299,0.002928882,-0.014066532,0.006587163,-0.006304463,0.4779681,-1.421189,1.9521512,-2.1003764,-1.5704063,2.4533327,-0.028884947,0.05766183,-0.07343894,0.003428412,0.009311967,-0.022548426,-0.095768064,0.05746084,-9.193734,0.6456587,47.629562,-0.8264266,-1.9946911,-3.3335986,-0.34015185,0.11374231,-0.15743543,27.6875,28.9375,28.125,32.3125,34.375,35.3125
0.082552545,-1.325247,-0.4150532,-0.1419416,0.013267504,0.02092001,-0.13470341,-0.3830518,-0.34975854,0.059987362,3.0784214,-0.62560743,3.4133973e-05,-0.035855234,-0.0051635057,0.0011610915,-0.012387606,0.0031763779,-0.0066389674,0.47790766,-1.421056,1.9520081,-2.1004126,-1.5704063,2.4533324,-0.030041538,0.059529185,-0.07155761,0.0034809874,0.009395918,-0.023370856,-0.11492168,0.11492168,-9.174581,0.7732232,47.667187,-0.76748943,-2.013396,-3.5045347,-0.33551848,0.1058489,-0.14679495,27.6875,28.9375,28.125,32.3125,34.375,35.3125
0.08505245,-1.2186469,-0.7672814,-0.017580844,0.010388743,0.023910562,-0.13653581,-0.38311988,-0.349769,0.059991557,3.078407,-0.62558526,5.9726644e-05,-0.037166722,-0.0053612967,0.0017664885,-0.012548625,0.0044944575,-0.0074921837,0.4778476,-1.4209359,1.9518527,-2.1003764,-1.570382,2.4532604,-0.030591337,0.06061119,-0.07427414,0.0038738004,0.008928243,-0.023065401,-0.21068975,0.038307227,-9.289502,0.84708,47.719128,-0.7259098,-1.9171507,-3.5692122,-0.33120096,0.13003372,-0.14582977,27.6875,28.9375,28.125,32.3125,34.375,35.3125
0.08755237,-0.70874524,-0.5899371,-0.054496665,0.008415516,0.032529335,-0.13940476,-0.38317642,-0.34977138,0.05997075,3.0784328,-0.6255714,0.000104020655,-0.038580623,-0.006207484,0.0015894583,-0.0125441905,0.004164005,-0.008070502,0.4777996,-1.4207901,1.9517306,-2.100364,-1.570382,2.4532006,-0.0304848,0.06463354,-0.07862397,0.004496532,0.009067883,-0.022378407,-0.095768064,0.17238252,-9.174581,0.70608455,47.723602,-0.7936707,-1.9947797,-3.3295515,-0.31871155,0.120755725,-0.12142973,27.6875,28.9375,28.125,32.3125,34.375,35.3125
0.09005242,-1.0239989,-0.4180001,-0.4470028,0.0008508602,0.028781634,-0.13662043,-0.38334146,-0.3497886,0.05998321,3.0783541,-0.6256709,8.356306e-05,-0.0403783,-0.005876309,0.0025825577,-0.0138278715,0.005218169,-0.009409986,0.4776547,-1.4205377,1.9514078,-2.1003397,-1.5703462,2.4531279,-0.03313055,0.0648516,-0.08138813,0.00551646,0.009722272,-0.023683954,-0.17238252,0.2681506,-9.461885,0.779936,47.705692,-0.7430856,-1.8587024,-3.5297894,-0.3370186,0.11245798,-0.123507015,27.6875,28.9375,28.125,32.3125,34.375,35.3125
0.09255249,-1.2480444,-0.72615254,-0.25018334,-0.013564287,0.030151626,-0.13702169,-0.3834046,-0.3498278,0.06000014,3.0782888,-0.62559867,0.00011145267,-0.04058274,-0.006758108,0.0017558833,-0.013255091,0.003353753,-0.007153658,0.4776192,-1.4204285,1.9512385,-2.1003153,-1.5702742,2.4530556,-0.03197872,0.06864755,-0.084024996,0.006277605,0.010068098,-0.024786808,-0.34476504,0.34476504,-9.442732,0.7978386,47.711964,-0.80808127,-1.8831941,-3.491612,-0.32632828,0.11539158,-0.116666526,27.6875,28.9375,28.125,32.3125,34.375,35.3125
0.09505254,-0.6924973,-0.99594903,-0.34237406,-0.023400472,0.056189,-0.14932671,-0.38349268,-0.34982407,0.060005136,3.0782917,-0.6256378,7.3252464e-05,-0.04152342,-0.0067847064,0.0023450106,-0.013775334,0.0045093456,-0.0077357986,0.47754684,-1.4202962,1.9510702,-2.1002915,-1.5702981,2.4530075,-0.032741956,0.06878457,-0.085567586,0.0064182244,0.009997014,-0.024966957,-0.34476507,0.22984336,-9.5385,0.7642693,47.72719,-0.85840356,-1.9987266,-3.4795294,-0.33389392,0.08887767,-0.102781296,27.6875,28.9375,28.125,32.3125,34.375,35.3125
0.09755251,-1.3046018,-0.98946434,-0.58929414,-0.029443668,0.047026545,-0.13916293,-0.38356835,-0.34982437,0.05998736,3.0783029,-0.6256795,0.00017143875,-0.043152343,-0.0060459725,0.0024858369,-0.0131983105,0.0047881803,-0.010551148,0.47746217,-1.4201157,1.9508904,-2.1002314,-1.5702742,2.4529474,-0.035121232,0.070331804,-0.08784396,0.007168532,0.009352499,-0.024529433,-0.2681506,0.26815057,-9.634268,0.784413,47.741516,-0.7855291,-1.8197377,-3.4980664,-0.35386372,0.11462867,-0.1071177,27.6875,28.9375,28.125,32.3125,34.375,35.3125
0.100052536,-1.5439676,-1.5878732,-0.71098095,-0.028888479,0.03808964,-0.13484429,-0.3837586,-0.34984368,0.06000201,3.0782225,-0.6257986,0.00012524343,-0.04463771,-0.0064090495,0.0010730242,-0.012551586,0.0026534693,-0.01069225,0.47730568,-1.4198252,1.950519,-2.100208,-1.5702504,2.4528756,-0.036085203,0.07638074,-0.09152529,0.0069950665,0.009753547,-0.02534952,-0.3256114,0.30645782,-9.672575,0.83813137,47.699425,-0.8030167,-1.7235886,-3.5112739,-0.34766638,0.09803682,-0.11039763,27.6875,28.9375,28.125,32.3125,34.375,35.3125
0.10255197,-0.9246005,-1.3678074,-0.5112682,-0.033288542,0.043900967,-0.13456617,-0.38386267,-0.34986156,0.06002082,3.0781536,-0.6258612,5.044686e-05,-0.046141926,-0.0064869933,0.0008767182,-0.012717897,0.0029086503,-0.011828726,0.47723344,-1.419692,1.9503263,-2.10022,-1.570238,2.4528513,-0.03733675,0.07908614,-0.09408231,0.006544609,0.009779933,-0.025462179,-0.38307226,0.34476504,-9.595961,0.80679786,47.707485,-0.7727599,-1.8035967,-3.466792,-0.33054948,0.10896918,-0.093219146,27.6875,28.9375,28.125,32.3125,34.375,35.3125
0.10505209,-0.7126713,-0.6687851,-0.6499579,-0.03280532,0.045185167,-0.1442245,-0.38394308,-0.34989598,0.06002096,3.0781422,-0.6257817,8.783507e-05,-0.047684893,-0.006814329,0.0014323358,-0.013402138,0.0045367787,-0.0124579035,0.4771971,-1.4195114,1.9501108,-2.1001837,-1.5702022,2.452767,-0.038073797,0.080453806,-0.09684892,0.006184894,0.00963344,-0.025568271,-0.11492168,0.36391866,-9.749189,0.7866488,47.711964,-0.7754214,-1.8525382,-3.4414704,-0.3252915,0.108903304,-0.102589756,27.6875,28.9375,28.125,32.3125,34.375,35.3125
0.10755229,-1.1404685,-1.0582415,-0.5960766,-0.02777806,0.028512694,-0.14163053,-0.38406646,-0.34990594,0.06004641,3.0780709,-0.62582564,-2.8965076e-05,-0.048610594,-0.0074510085,0.0015228433,-0.014642226,0.0045482134,-0.012878209,0.47710088,-1.4193788,1.9499062,-2.100208,-1.5702018,2.4527073,-0.038491324,0.08231579,-0.09916948,0.0060608294,0.010727944,-0.02556435,-0.19153613,0.3256114,-9.653421,0.72622824,47.666286,-0.73682106,-1.7942729,-3.4608092,-0.34133363,0.1074283,-0.12554839,27.6875,28.9375,28.125,32.3125,34.375,35.3125
0.11005225,-0.9901845,-1.2445394,-0.4453351,-0.014002453,0.027235579,-0.13849413,-0.38424006,-0.34993407,0.060041044,3.0779824,-0.62598145,4.4503566e-05,-0.05166989,-0.0080452915,0.0005046494,-0.014409364,0.0038696849,-0.014798951,0.47694442,-1.4190518,1.9495329,-2.1001604,-1.5701298,2.4526594,-0.040289532,0.0900327,-0.10557878,0.0054660817,0.010818946,-0.025437515,-0.19153613,0.34476504,-9.481039,0.81351066,47.7254,-0.73884153,-1.9657642,-3.3835244,-0.29998103,0.12024346,-0.11483079,27.6875,28.9375,28.125,32.3125,34.375,35.3125
0.11255255,-0.8302631,-0.68038416,-0.5155523,-0.017210567,0.03146542,-0.13646758,-0.38434854,-0.3499454,0.060050197,3.0779727,-0.6259602,-1.1252606e-05,-0.0529689,-0.008825842,0.0021698403,-0.016430886,0.00671524,-0.01532079,0.47687235,-1.4188838,1.9493169,-2.1001484,-1.5701417,2.4525754,-0.04040227,0.08916173,-0.1084631,0.005763923,0.011304768,-0.025027363,-0.17238252,0.34476504,-9.461885,0.71279734,47.7254,-0.71083486,-1.8914919,-3.1678038,-0.28577432,0.08600957,-0.13734573,27.6875,28.9375,28.125,32.3125,34.375,35.3125
0.11505246,-0.5282261,-0.99060404,-0.3075447,-0.011659779,0.037348002,-0.14144868,-0.38445508,-0.3499687,0.0600518,3.0779326,-0.62599105,-1.51564755e-05,-0.054094724,-0.008857932,0.0011009002,-0.014994485,0.0052850707,-0.015882825,0.4768002,-1.4186902,1.9490885,-2.1001365,-1.5701178,2.4525278,-0.040964372,0.09369935,-0.1112925,0.0059892815,0.010680874,-0.02502449,-0.1340753,0.3256114,-9.404425,0.7777002,47.72808,-0.7800813,-1.940186,-3.2336414,-0.3000244,0.09852274,-0.13700332,27.6875,28.9375,28.125,32.3125,34.375,35.3125
0.117552206,-0.6400655,-1.1079081,-0.2742581,-0.013215486,0.038809713,-0.13793415,-0.38458556,-0.34999096,0.060062543,3.077859,-0.62603307,-7.72084e-05,-0.054600734,-0.008820605,0.0010824071,-0.014882813,0.0050629685,-0.016417673,0.47670394,-1.4184977,1.9488486,-2.10016,-1.5700935,2.4524672,-0.04147861,0.09465885,-0.11247419,0.006461697,0.010684964,-0.025002532,-0.21068975,0.30645782,-9.385271,0.82694155,47.71823,-0.7713349,-1.9839709,-3.1757932,-0.31395122,0.09213661,-0.15594456,27.6875,28.9375,28.125,32.3125,34.375,35.3125
0.120052315,-1.0775814,-0.7437688,-0.16257778,-0.024208436,0.037100974,-0.14495169,-0.38482112,-0.35004908,0.060103547,3.0777194,-0.6260813,-0.00020477294,-0.057046454,-0.00964466,0.0016067374,-0.015292691,0.0069924863,-0.0166045,0.47655982,-1.4181601,1.948368,-2.10016,-1.5700463,2.4523711,-0.041895818,0.09832859,-0.1178678,0.006287831,0.010157341,-0.025227765,-0.15322891,0.36391866,-9.32781,0.78888994,47.682407,-0.8587185,-1.9334115,-3.2000654,-0.28781086,0.1091737,-0.1837733,27.6875,28.9375,28.125,32.3125,34.375,35.3125
0.12255247,-0.9950241,-0.9361887,-0.14362682,-0.02240484,0.03474015,-0.13769113,-0.38492778,-0.35005683,0.06008476,3.077699,-0.6261536,-0.00012303438,-0.05724854,-0.009895668,0.0014705317,-0.015422852,0.0061911214,-0.016658532,0.4764519,-1.4179316,1.9481405,-2.1001241,-1.5700096,2.452311,-0.041931354,0.099510014,-0.11909226,0.006983577,0.010639969,-0.025209464,-0.19153613,0.34476504,-9.308656,0.784413,47.71286,-0.9565067,-1.9011183,-3.2764883,-0.27374923,0.09301852,-0.17725077,27.6875,28.9375,28.125,32.3125,34.375,35.3125
0.12505233,-0.5818767,-0.89443207,0.07537385,-0.02196124,0.040990796,-0.13751122,-0.3850591,-0.35006863,0.060114373,3.0776594,-0.62618434,-0.0002454399,-0.057598878,-0.009871114,0.0010165747,-0.014885127,0.0052536507,-0.016515644,0.47636765,-1.4177747,1.9478902,-2.1001117,-1.5700334,2.4522512,-0.042248685,0.10127975,-0.12019444,0.007396455,0.01059397,-0.025668079,-0.22984336,0.3256114,-9.289503,0.7620334,47.70838,-0.983641,-1.8816745,-3.1507232,-0.28688318,0.0900898,-0.19691,27.6875,28.9375,28.125,32.3125,34.375,35.3125
0.1275523,-0.77444494,-0.52058446,0.109166734,-0.027224042,0.035243355,-0.14914,-0.38517672,-0.35010636,0.06012015,3.0775898,-0.6262269,-0.00024227733,-0.05960045,-0.010942183,0.0020013065,-0.015829217,0.007964815,-0.015585333,0.47629592,-1.4175578,1.9476255,-2.1000998,-1.5699862,2.452215,-0.041910447,0.10342099,-0.12484271,0.0070650848,0.010181287,-0.026256844,-0.15322891,0.34476504,-9.155427,0.842603,47.67614,-0.97135854,-1.8814771,-3.2329507,-0.2661003,0.10541256,-0.22063562,27.6875,28.9375,28.125,32.3125,34.375,35.3125
0.13005254,-0.823755,-0.6276124,0.23978409,-0.0011132961,0.015184898,-0.140764,-0.38543534,-0.35014307,0.06013281,3.0775106,-0.6263054,-0.00032991671,-0.059640422,-0.010643786,0.00018599561,-0.014626416,0.00445337,-0.014646806,0.47611564,-1.4171362,1.94711,-2.1000884,-1.5699738,2.452094,-0.04278824,0.107388295,-0.12534155,0.007270217,0.010727207,-0.028071972,-0.11492168,0.22984336,-9.193734,0.7732232,47.661808,-1.045925,-1.843028,-3.306892,-0.2632801,0.08391642,-0.22436525,27.6875,28.9375,28.125,32.3125,34.375,35.3125
0.13255201,-0.2479113,0.27886584,0.3012394,-0.011253095,0.019047664,-0.14282341,-0.38556695,-0.35017243,0.06013235,3.0774596,-0.6263521,-0.0003481601,-0.060682382,-0.010561069,0.0004908155,-0.014328414,0.005482344,-0.0144380685,0.4760315,-1.4168956,1.9468349,-2.1000884,-1.56995,2.4520457,-0.043392926,0.108302444,-0.12713483,0.0073761726,0.009989688,-0.028883614,-0.15322891,0.15322891,-9.155427,0.7978386,47.675243,-1.0946791,-1.861768,-3.2577288,-0.24646506,0.11213219,-0.21887587,27.6875,28.9375,28.125,32.3125,34.375,35.3125
0.13505208,-0.3372799,-0.06956988,0.50948745,0.008947353,0.0071397247,-0.14414553,-0.385704,-0.35022032,0.060162064,3.0773466,-0.62638664,-0.00042891753,-0.060980123,-0.010947373,-0.0005758264,-0.013762384,0.0035385618,-0.013738931,0.47595942,-1.4167019,1.9465474,-2.1000998,-1.5699018,2.4520097,-0.043216866,0.11183156,-0.12880027,0.0075006867,0.010378221,-0.029404555,-0.13407528,0.15322891,-9.021352,0.82694155,47.71465,-1.1077284,-2.0358548,-3.2959251,-0.23566806,0.11515957,-0.25116935,27.6875,28.9375,28.125,32.3125,34.375,35.3125
0.13755192,-0.6764202,-0.11297958,0.39142635,0.017146084,-0.005261236,-0.1307097,-0.385812,-0.3502174,0.06014767,3.0773513,-0.62644506,-0.00042592693,-0.062142827,-0.010836221,0.00039386228,-0.014804935,0.0052615576,-0.014321376,0.4758631,-1.4164983,1.9463438,-2.100088,-1.5699137,2.4519494,-0.044544023,0.11117751,-0.13032092,0.0076669306,0.010513962,-0.030148914,-0.038307227,0.21068975,-9.021352,0.7978386,47.713753,-1.1794649,-1.805633,-3.336862,-0.23458153,0.09999739,-0.24122685,27.6875,28.9375,28.125,32.3125,34.375,35.3125
0.140052,-0.40471825,0.07831467,0.17948882,0.021328008,-0.007845783,-0.13484266,-0.38605255,-0.35027546,0.060157735,3.077277,-0.62646735,-0.00040709853,-0.06377694,-0.011414796,-0.00029748774,-0.014887131,0.00385427,-0.013156066,0.47570667,-1.4160519,1.9457916,-2.1000159,-1.5698537,2.4518166,-0.045442034,0.11623962,-0.13473453,0.008234311,0.011228039,-0.03220953,0.05746084,0.11492168,-8.963891,0.8291774,47.69763,-1.1228416,-1.8343828,-3.321843,-0.21753535,0.12214875,-0.24570474,27.6875,28.9375,28.125,32.3125,34.375,35.3125
0.14255254,0.05833175,0.2587167,0.27548295,0.0077498043,0.007625643,-0.144934,-0.38620967,-0.35029343,0.060158595,3.0772133,-0.62654877,-0.00046587366,-0.064103596,-0.011400896,-0.0008338666,-0.01360287,0.003053737,-0.012172374,0.475587,-1.415799,1.9455045,-2.1000397,-1.5698417,2.451756,-0.04524233,0.11835165,-0.13609096,0.008783628,0.01045503,-0.03299169,-0.019153614,0.22984336,-9.021352,0.8851263,47.692257,-1.4563153,-1.8485637,-3.3703218,-0.21386504,0.13392006,-0.27816924,27.6875,28.9375,28.125,32.3125,34.375,35.3125
0.14505251,-0.2149507,-0.19422603,0.09539092,0.009708085,0.014143094,-0.14609401,-0.38631523,-0.35028204,0.06011598,3.077255,-0.6266553,-0.0003721673,-0.06507421,-0.010908915,-0.0016054544,-0.014044825,0.0006008477,-0.014250404,0.4754778,-1.4155337,1.9452885,-2.1000035,-1.5698532,2.451708,-0.047949497,0.12107373,-0.13768254,0.009627387,0.011968043,-0.033621565,-0.038307227,0.21068975,-9.097966,0.7620334,47.73883,-1.2803009,-1.9210396,-3.4790504,-0.22177297,0.12380688,-0.2774056,27.6875,28.9375,28.125,32.3125,34.375,35.3125
0.14755258,0.30376855,-0.099068895,-0.067946024,-0.008095698,0.026963076,-0.15144786,-0.38645276,-0.35032204,0.06015271,3.077129,-0.6266892,-0.00039022398,-0.06619251,-0.009775375,-0.0018864138,-0.013114916,-0.0001093404,-0.016746474,0.47536898,-1.4153533,1.9449891,-2.0999668,-1.5697697,2.4516366,-0.050620362,0.12229655,-0.1386509,0.01043607,0.011469718,-0.033794682,-0.038307227,0.15322891,-9.212888,0.7530795,47.687782,-1.220679,-1.9275836,-3.3670979,-0.21008952,0.12643771,-0.26257437,27.6875,28.9375,28.125,32.3125,34.375,35.3125
0.15005259,-0.5484146,-0.47061595,-0.12775484,-0.032774486,0.03638583,-0.14960383,-0.3866945,-0.3503476,0.060112912,3.0771332,-0.6267259,-0.00030344722,-0.06749387,-0.0111915115,-0.0015869273,-0.013845128,-0.00049892085,-0.015129202,0.4751773,-1.4148351,1.9444731,-2.0999186,-1.569745,2.4514675,-0.04979907,0.12608542,-0.14414284,0.01215231,0.012289521,-0.03458886,-0.24899697,0.3256114,-9.232041,0.7911258,47.64927,-1.2448412,-2.068065,-3.3775892,-0.24588582,0.13274464,-0.31239718,27.6875,28.9375,28.125,32.3125,34.375,35.3125
0.15255232,-1.3124267,-0.8212239,-0.39048055,-0.017618787,0.036623247,-0.13553031,-0.38681316,-0.35037854,0.06010773,3.0771117,-0.62675935,-0.00021081798,-0.06893305,-0.010943747,-0.0014607068,-0.013970465,-6.805727e-05,-0.015135779,0.47509277,-1.4145707,1.9441618,-2.0998347,-1.5696973,2.4514067,-0.051468357,0.12771517,-0.1463745,0.012318324,0.012200174,-0.036250748,-0.38307226,0.28730422,-9.3661175,0.7911258,47.657326,-1.2799032,-1.7562444,-3.2617116,-0.23872882,0.14189355,-0.29475892,27.6875,28.9375,28.125,32.3125,34.375,35.3125
0.1550524,-1.4190469,-0.582185,-0.5635414,-0.034304436,0.0541685,-0.14529045,-0.38692835,-0.3504103,0.060089022,3.077098,-0.6267194,-0.00015982079,-0.07063841,-0.010807094,-0.0007193571,-0.0154257985,0.00097198994,-0.016985612,0.47501996,-1.4143063,1.9438976,-2.0998232,-1.5696605,2.4513109,-0.05376501,0.12833475,-0.14887628,0.0126097435,0.013014395,-0.036696997,-0.38307226,0.34476504,-9.519346,0.8403672,47.705692,-1.1416516,-1.8389156,-3.2307737,-0.24704598,0.1446497,-0.29731163,27.6875,28.9375,28.125,32.3125,34.375,35.3125
0.15755242,-1.3702163,-0.9681695,-0.67482376,-0.045749467,0.07279055,-0.14695361,-0.38709918,-0.35042122,0.06009668,3.0770524,-0.6268261,-0.00017515614,-0.07158492,-0.011236189,-0.0011057078,-0.015172471,0.0009679465,-0.018475834,0.4748761,-1.4140289,1.94355,-2.099775,-1.5696491,2.4512396,-0.053692468,0.13117608,-0.15120998,0.012223178,0.012785484,-0.035132263,-0.51714754,0.40222588,-9.595961,0.679228,47.72092,-1.2185152,-1.8864659,-3.543077,-0.25391334,0.14263643,-0.33884645,27.6875,28.9375,28.125,32.3125,34.375,35.3125
0.16005254,-2.408671,-1.9376543,-0.8679488,-0.046935428,0.07086259,-0.13495658,-0.3874176,-0.3504561,0.060116265,3.0769682,-0.62694216,-0.00028876358,-0.07401401,-0.011289694,-0.001315882,-0.015505374,0.0013972895,-0.018203106,0.47464734,-1.413523,1.9429148,-2.0997393,-1.5696491,2.4510944,-0.055812657,0.13526733,-0.15540554,0.011798461,0.012882785,-0.03752145,-0.59376204,0.45968673,-9.595961,0.8560339,47.72808,-1.2480338,-1.938583,-3.410112,-0.26043302,0.15786034,-0.32806444,27.6875,28.9375,28.125,32.3125,34.375,35.3125
0.1625523,-2.0020735,-1.6915041,-0.9572718,-0.045645934,0.079670906,-0.13496627,-0.38752583,-0.3504881,0.060071677,3.076933,-0.6270119,-0.00011596654,-0.075403556,-0.011415398,-0.000999699,-0.016418792,0.0024527165,-0.018134218,0.4745509,-1.4132103,1.9426512,-2.0997155,-1.5695647,2.451046,-0.057038907,0.13652563,-0.15749797,0.011281066,0.013206548,-0.038816504,-0.4405331,0.40222588,-9.768343,0.8224646,47.71017,-1.223779,-1.8785968,-3.3944492,-0.25160623,0.17287287,-0.35711184,27.6875,28.9375,28.125,32.3125,34.375,35.3125
0.16505197,-1.3522465,-1.1634278,-0.74057084,-0.04277158,0.08604299,-0.14480512,-0.38771337,-0.35051432,0.060088124,3.0768604,-0.62709165,-0.00019233572,-0.07707084,-0.012118521,0.00019752217,-0.018712793,0.0054087043,-0.016233971,0.47441873,-1.4129221,1.9422792,-2.099704,-1.5695528,2.450973,-0.057722237,0.13659781,-0.1600817,0.0101176705,0.013895266,-0.041398082,-0.6512228,0.34476504,-9.730036,0.7933669,47.689575,-1.2403938,-1.7527838,-3.3170161,-0.2388429,0.15015557,-0.34186617,27.6875,28.9375,28.125,32.3125,34.375,35.3125
0.16755177,-1.6669873,-0.56635684,-0.72050256,-0.025143541,0.059768487,-0.13838527,-0.3878509,-0.35054615,0.06009198,3.0768213,-0.62704486,-0.00022471143,-0.07849869,-0.0119949635,-0.00096227176,-0.017915836,0.0046900054,-0.016784886,0.47433427,-1.41268,1.9419917,-2.0997045,-1.5695289,2.4508646,-0.05896549,0.14093135,-0.16218014,0.008890293,0.013510921,-0.04208781,-0.57460845,0.28730422,-9.691729,0.85155696,47.72719,-1.2303106,-1.9193518,-3.3621378,-0.22824955,0.17098376,-0.32952875,27.6875,28.9375,28.125,32.3125,34.375,35.3125
0.17005178,-1.2804662,0.044248987,-0.5816029,0.013505164,0.040842187,-0.14480108,-0.38819563,-0.35058886,0.06010776,3.0766644,-0.62720424,-0.00030961478,-0.08046952,-0.011998819,-0.0010912417,-0.018581105,0.0055595026,-0.016520113,0.47405756,-1.4121389,1.9413322,-2.0997045,-1.5694689,2.4507077,-0.060799688,0.14375001,-0.16494948,0.007771772,0.013708151,-0.04418347,-0.24899697,0.038307227,-9.672575,0.8560339,47.70659,-1.2477826,-1.9989212,-3.4254875,-0.18620864,0.18037714,-0.34860742,27.6875,28.9375,28.125,32.3125,34.375,35.3125
0.17255197,-0.75286096,-0.08127932,-0.6530218,0.01610514,0.04572362,-0.146143,-0.3883576,-0.35060766,0.060090035,3.0766056,-0.6273073,-0.00026006653,-0.0832783,-0.01172836,-0.0010821008,-0.019233415,0.005953991,-0.01706039,0.47391263,-1.4118252,1.9410084,-2.099693,-1.5694207,2.4506347,-0.06403929,0.14758171,-0.1694316,0.0077794828,0.014103908,-0.0468803,-0.26815057,0.019153614,-9.615114,0.82022345,47.721813,-1.0676275,-2.0162253,-3.382675,-0.17946759,0.18304607,-0.302296,27.6875,28.9375,28.125,32.3125,34.375,35.3125
0.17505176,-0.71345013,0.48910806,-0.3397684,0.0059538987,0.041483227,-0.15331085,-0.38853186,-0.35065433,0.060104404,3.076565,-0.62724036,-0.00033269255,-0.08257769,-0.011531238,-0.0027086874,-0.01709208,0.003437699,-0.014661962,0.47382882,-1.4115239,1.9406255,-2.0996807,-1.5694088,2.4505146,-0.06323798,0.15018757,-0.16875628,0.0077209487,0.013354375,-0.04847629,-0.24899697,-0.095768064,-9.519346,0.7463667,47.689575,-1.0994827,-2.1425323,-3.5038586,-0.17162116,0.18589051,-0.2818838,27.6875,28.9375,28.125,32.3125,34.375,35.3125
0.17755172,-0.7415369,0.17656457,-0.313373,0.014878823,0.03636729,-0.14028709,-0.38869855,-0.35066956,0.060102727,3.0765386,-0.6272523,-0.00034763088,-0.08342272,-0.011885174,-0.0027847667,-0.017725203,0.0028578963,-0.01368766,0.4736967,-1.4112351,1.9402908,-2.0996568,-1.5693969,2.4503934,-0.063876405,0.15221308,-0.17107922,0.008246894,0.014183002,-0.050087653,-0.2681506,-0.095768064,-9.461885,0.85155696,47.68599,-1.1668688,-2.0793452,-3.4408522,-0.15432525,0.19732377,-0.27616856,27.6875,28.9375,28.125,32.3125,34.375,35.3125
0.18005238,-0.27174693,0.22902003,-0.15117876,0.0038286655,0.028989853,-0.15354459,-0.38907695,-0.350707,0.060108695,3.0764465,-0.6273297,-0.0004898799,-0.08532286,-0.010614673,-0.0034590343,-0.017392714,0.0006953705,-0.014009656,0.4734192,-1.4106213,1.9395717,-2.0996687,-1.5693964,2.4501765,-0.06819299,0.1554165,-0.17365889,0.009705914,0.014885156,-0.05407938,-0.095768064,0.19153613,-9.404425,0.8224646,47.711063,-0.94958985,-2.2305777,-3.4509578,-0.1323917,0.22046499,-0.19736925,27.6875,28.9375,28.125,32.3125,34.375,35.3125
0.18255173,-0.4251559,0.1752073,0.025658233,-0.009850084,0.019622812,-0.15491974,-0.389241,-0.35072926,0.06011238,3.0763662,-0.6273691,-0.000446503,-0.08618193,-0.011573553,-0.0033419412,-0.017505798,0.0009001266,-0.011476356,0.4732636,-1.4103445,1.9392356,-2.099632,-1.5693244,2.4500558,-0.067250036,0.15802209,-0.1771156,0.010331586,0.0148912165,-0.055667557,-0.15322891,0.17238252,-9.308657,0.8224646,47.685097,-1.0982105,-1.995261,-3.408575,-0.11969881,0.232519,-0.15774433,27.6875,28.9375,28.125,32.3125,34.375,35.3125
0.18505244,-0.6866632,-0.8762365,0.022151763,0.0051260227,0.015106525,-0.14168136,-0.38940465,-0.35076916,0.060117036,3.0763102,-0.6274158,-0.00041379695,-0.0883696,-0.011071557,-0.0016844522,-0.019173058,0.0034317747,-0.013254867,0.47315466,-1.4100325,1.9388512,-2.099572,-1.5692762,2.4499834,-0.070280276,0.15701377,-0.17996973,0.011185616,0.015220832,-0.056918193,-0.11492168,0.2681506,-9.232041,0.84708,47.703903,-0.98035896,-2.013793,-3.4169197,-0.12921157,0.2368515,-0.14728831,27.6875,28.9375,28.125,32.3125,34.375,35.3125
0.18755242,-0.25960562,-0.5226863,-0.08702187,-0.004407879,0.026385874,-0.14687093,-0.38956615,-0.35077447,0.06009397,3.0763018,-0.6274511,-0.00038500398,-0.09013298,-0.011311448,-0.001126474,-0.01947872,0.0047855373,-0.013024943,0.4730102,-1.4097193,1.9385394,-2.0995595,-1.5692643,2.4498622,-0.07118876,0.15890731,-0.18355626,0.011540021,0.0148717575,-0.05805498,-0.1340753,0.2681506,-9.212888,0.7486078,47.691364,-0.91376364,-1.984827,-3.34535,-0.13104653,0.26434597,-0.111677766,27.6875,28.9375,28.125,32.3125,34.375,35.3125
0.19005224,-1.1386592,-0.96039146,0.15325978,-0.04356069,0.032520097,-0.14140584,-0.38994643,-0.35080916,0.06008693,3.0761788,-0.627544,-0.000371231,-0.09223747,-0.011619431,-0.00012465073,-0.020926615,0.0058126543,-0.01667293,0.47267368,-1.4090703,1.9377974,-2.0995233,-1.5691804,2.4495997,-0.072972335,0.16057047,-0.18817212,0.012923368,0.015691385,-0.056187768,-0.45968673,0.47884035,-9.289502,0.7866488,47.67166,-0.967326,-1.8029542,-3.3695426,-0.13143775,0.2575342,-0.07659423,27.6875,28.9375,28.125,32.3125,34.375,35.3125
0.19255175,-1.0380551,-1.5743889,0.0762711,-0.052773423,0.057431255,-0.14617203,-0.39013135,-0.35085353,0.060103193,3.0760908,-0.6276015,-0.00039414593,-0.09276015,-0.011617921,-0.00043768404,-0.020955257,0.004472432,-0.01665969,0.4725534,-1.4087573,1.9373907,-2.0994875,-1.5691317,2.4495268,-0.07381188,0.16240987,-0.18986683,0.013962627,0.016331937,-0.057038818,-0.28730422,0.57460845,-9.289502,0.83813137,47.707485,-0.9141636,-1.8558083,-3.3049448,-0.12720132,0.26654828,-0.07861599,27.6875,28.9375,28.125,32.3125,34.375,35.3125
0.19505185,-1.4402378,-1.3968581,-0.063779585,-0.053127065,0.058600325,-0.1450212,-0.39032584,-0.35085517,0.060103625,3.0760489,-0.62769103,-0.00040884688,-0.09336824,-0.011649,-0.00022828094,-0.021290647,0.004322116,-0.020339394,0.4723732,-1.4084448,1.9370202,-2.0994513,-1.5691198,2.449408,-0.07448576,0.16313836,-0.1914157,0.014762069,0.016696481,-0.05403201,-0.2873042,0.53630114,-9.32781,0.8157518,47.721813,-0.8432407,-1.9315588,-3.3358707,-0.13835151,0.25685298,-0.06392302,27.6875,28.9375,28.125,32.3125,34.375,35.3125
0.19755192,-1.22307,-1.1600626,0.046224494,-0.061143015,0.061908484,-0.14469667,-0.39051563,-0.350906,0.0600963,3.0759826,-0.6276784,-0.00038859627,-0.09415325,-0.011216826,-0.0015390192,-0.020648202,0.0022817736,-0.024311448,0.4722527,-1.408071,1.936602,-2.099439,-1.5690597,2.4492884,-0.076130256,0.16661891,-0.19242811,0.014403554,0.017049104,-0.05170294,-0.4405331,0.5554548,-9.423578,0.8314132,47.72002,-0.81030655,-1.9534726,-3.4243126,-0.14631014,0.27381516,-0.055623963,27.6875,28.9375,28.125,32.3125,34.375,35.3125
0.20005174,-0.8010342,-0.33169526,0.38347518,-0.036235414,0.05446286,-0.14363533,-0.39091158,-0.35095328,0.06009892,3.0758684,-0.62781185,-0.00040049342,-0.09763196,-0.012354092,0.0002235448,-0.024341052,0.0066514197,-0.027055083,0.47194007,-1.407386,1.9357876,-2.0993683,-1.5689992,2.449074,-0.0779882,0.1684653,-0.19834243,0.012903095,0.018340576,-0.050813004,-0.34476504,0.30645782,-9.193734,0.8314132,47.698532,-0.6784849,-1.7848153,-3.3488364,-0.10230684,0.28157055,-0.10298999,27.6875,28.9375,28.125,32.3125,34.375,35.3125
0.20255187,-0.28318176,0.35328203,0.20342344,-0.012244329,0.05014526,-0.16017714,-0.3911193,-0.3509617,0.060090207,3.0758035,-0.62797177,-0.00043131263,-0.0986727,-0.0129984645,0.00037114017,-0.024980195,0.007355526,-0.029839879,0.47176015,-1.407037,1.9354037,-2.0993683,-1.5689873,2.4490025,-0.07789387,0.17041974,-0.20093,0.0126169035,0.018583631,-0.04793176,-0.30645782,0.30645782,-9.251195,0.8224646,47.685097,-0.73314023,-1.772176,-3.2056246,-0.099779375,0.27400166,-0.093816355,27.6875,28.9375,28.125,32.3125,34.375,35.3125
0.20505178,-0.6568905,0.48067153,0.06327581,0.01517617,0.031977963,-0.14056902,-0.3913018,-0.3509921,0.060071368,3.0757227,-0.62801623,-0.0003854061,-0.10021084,-0.012245156,-0.00083874114,-0.024814025,0.0054454044,-0.036215406,0.47160298,-1.4066874,1.9350446,-2.0993798,-1.5689148,2.4488835,-0.08099832,0.17429408,-0.20261991,0.012207782,0.019297015,-0.044658806,-0.22984336,0.1340753,-9.289502,0.87393653,47.69763,-0.5766121,-1.8688564,-3.2489042,-0.09037266,0.2907777,-0.14528178,27.6875,28.9375,28.125,32.3125,34.375,35.3125
0.20755176,-0.6120887,0.47937155,0.115894906,0.021895725,0.033701047,-0.1497175,-0.39150834,-0.35103208,0.060082622,3.0756614,-0.62807816,-0.00041761727,-0.09946999,-0.013749883,-0.00067015114,-0.025506025,0.005768798,-0.03300509,0.47147205,-1.4063268,1.9345907,-2.099332,-1.5688909,2.4487994,-0.07794815,0.17466833,-0.20346527,0.0120787015,0.01976889,-0.04481763,-0.24899697,0.038307227,-9.174581,0.72622824,47.721813,-0.80503225,-1.9538949,-3.3795643,-0.07694936,0.2661507,-0.18012893,27.6875,28.9375,28.125,32.3125,34.375,35.3125
0.21005252,-0.5516978,0.82902277,0.27428895,0.016440675,0.035517365,-0.14235891,-0.39192104,-0.35105717,0.06006237,3.0755293,-0.62833935,-0.00038401035,-0.10198791,-0.013535076,-0.0014930244,-0.025283722,0.0036091432,-0.036245476,0.47109908,-1.405604,1.9337887,-2.099284,-1.5688184,2.4486067,-0.08096249,0.18064784,-0.20899831,0.01366506,0.020549824,-0.044587776,-0.1340753,-0.019153614,-9.251195,0.83813137,47.685097,-0.6806675,-2.073034,-3.3892007,-0.067191035,0.29222262,-0.19042826,27.6875,28.9375,28.125,32.3125,34.375,35.3125
0.21255237,-0.51243705,0.49428785,0.114946015,0.005845408,0.028784573,-0.14951491,-0.3921411,-0.35109463,0.060058482,3.0754478,-0.628456,-0.00040226054,-0.10097609,-0.014358625,-0.0023570193,-0.023662848,0.00079883495,-0.033732798,0.47094405,-1.4052067,1.9333342,-2.099271,-1.5687822,2.4485352,-0.07845433,0.18318963,-0.21056074,0.015931007,0.020386584,-0.04459085,-0.095768064,0.038307227,-9.232041,0.8560339,47.694946,-0.9217212,-2.007035,-3.4464476,-0.051577903,0.27577424,-0.23618504,27.6875,28.9375,28.125,32.3125,34.375,35.3125
0.21505314,-0.5904821,0.4925336,-0.006002133,-0.006025445,0.019653128,-0.14858551,-0.3923118,-0.35112625,0.06003977,3.0754368,-0.62849265,-0.0003191925,-0.10110272,-0.0136010675,-0.0031921216,-0.021984728,-0.0010330295,-0.034425635,0.4708237,-1.4048337,1.932928,-2.0991986,-1.5687469,2.4484394,-0.079424955,0.18482794,-0.21086755,0.01700034,0.019723905,-0.044869564,-0.13407528,0.11492168,-9.251195,0.779936,47.67166,-0.8236187,-2.1981316,-3.3906372,-0.054353435,0.29773325,-0.2511707,27.6875,28.9375,28.125,32.3125,34.375,35.3125
0.21755213,-0.12538046,0.2670516,-0.1278341,-0.0058103194,0.022976007,-0.14383258,-0.39251682,-0.35116005,0.060025338,3.0753655,-0.62861097,-0.00028563375,-0.10189293,-0.014488988,-0.002282859,-0.023198599,0.00028396156,-0.03378383,0.47066805,-1.4044374,1.932496,-2.0991747,-1.5686983,2.4483669,-0.07883064,0.18524559,-0.21363473,0.017629271,0.020205993,-0.044915594,-0.11492168,0.15322891,-9.289502,0.82022345,47.699425,-0.94695354,-2.0900497,-3.4137757,-0.0670402,0.29367965,-0.24670088,27.6875,28.9375,28.125,32.3125,34.375,35.3125
0.22005221,-0.4544693,-0.98387057,-0.4087864,-0.008763627,0.004152838,-0.13353561,-0.39294416,-0.3512039,0.060030486,3.0752568,-0.62877977,-0.0003060976,-0.103817545,-0.01479449,-0.0023686823,-0.023121376,0.00044666854,-0.033693403,0.47033176,-1.4037035,1.931611,-2.099079,-1.5686506,2.4481504,-0.07980902,0.18901323,-0.21806766,0.018196283,0.0200631,-0.045981124,-0.038307227,0.24899697,-9.442732,0.8537928,47.711063,-1.0064857,-2.177983,-3.4617133,-0.06919673,0.31560874,-0.31495678,27.6875,28.9375,28.125,32.3125,34.375,35.3125
0.22255243,-0.33395377,-0.8434607,-0.38435102,-0.03452015,0.0087970095,-0.15410349,-0.39312452,-0.3512306,0.060005195,3.075177,-0.62891835,-0.00019145056,-0.10432524,-0.014633736,-0.0030434497,-0.022624364,-0.0009202396,-0.033965994,0.47016338,-1.4033301,1.9312271,-2.0990427,-1.5685662,2.4480789,-0.08060018,0.19128095,-0.21933123,0.018643675,0.0202391,-0.04649945,0.05746084,0.3256114,-9.404425,0.8112748,47.72271,-0.9509742,-2.2819328,-3.382485,-0.06635298,0.32353085,-0.31144598,27.6875,28.9375,28.125,32.3125,34.375,35.3125
0.22505225,0.02591556,-1.415017,-0.5343366,-0.034485135,0.024305847,-0.14555924,-0.39334288,-0.3512617,0.06000056,3.075138,-0.62898546,-0.00017816921,-0.1057786,-0.015130219,-0.0023158914,-0.023770453,1.5937287e-05,-0.03435246,0.4700073,-1.4029213,1.9307493,-2.098982,-1.5685424,2.44797,-0.0813491,0.19264798,-0.22282535,0.019419977,0.02083363,-0.046860006,0.076614454,0.34476504,-9.404425,0.8873621,47.72808,-0.9417848,-2.2315738,-3.4218726,-0.07472753,0.32612124,-0.31386715,27.6875,28.9375,28.125,32.3125,34.375,35.3125
0.22755215,-0.19146098,-1.8850648,-0.7657291,-0.031731352,0.0146908425,-0.1384906,-0.3935504,-0.3512691,0.059974704,3.0751061,-0.62913334,-0.00014989317,-0.10675583,-0.01553517,-0.0021577077,-0.023945095,0.00060776615,-0.03457456,0.46982726,-1.4025246,1.9303421,-2.0989583,-1.5685304,2.4478865,-0.08137916,0.19436547,-0.22528543,0.01956021,0.02071732,-0.046667088,-0.019153614,0.47884035,-9.481039,0.9231726,47.713753,-0.96998,-2.1452696,-3.4429722,-0.07976168,0.3429098,-0.34848106,27.6875,28.9375,28.125,32.3125,34.375,35.3125
0.23005223,-0.6645795,-1.6302866,-0.88715696,-0.0489547,0.013899884,-0.14052539,-0.3939796,-0.3513429,0.059968192,3.074992,-0.629301,-0.00011821443,-0.10836144,-0.016389634,-0.0011209281,-0.026554165,0.0028164329,-0.034938615,0.46952698,-1.4017195,1.929397,-2.098851,-1.568458,2.447706,-0.082040004,0.19496253,-0.2283239,0.018857049,0.022041863,-0.04696149,-0.038307227,0.63206923,-9.691729,0.8717007,47.690468,-1.051709,-2.070996,-3.503767,-0.05596688,0.35056144,-0.40525794,27.6875,28.9375,28.125,32.3125,34.375,35.3125
0.23255269,-0.7412935,-1.7158691,-0.7944678,-0.058429603,0.020750964,-0.14213315,-0.39419594,-0.35136536,0.059966292,3.0748875,-0.6294327,-0.000113994465,-0.10902143,-0.016446743,-0.0020020823,-0.02656292,0.0012491719,-0.035372198,0.46933484,-1.4013582,1.9289788,-2.098839,-1.5683974,2.4476097,-0.08291842,0.19795015,-0.22983764,0.018782545,0.02276077,-0.04740403,-0.05746084,0.47884035,-9.576807,0.7933669,47.670765,-1.0818449,-2.117256,-3.5701537,-0.06599377,0.34784657,-0.42873567,27.6875,28.9375,28.125,32.3125,34.375,35.3125
0.23505193,-0.4823035,-1.5593154,-0.7187021,-0.05744688,0.039357238,-0.14701891,-0.39439845,-0.35140732,0.05995282,3.0748188,-0.62953466,-5.3015203e-05,-0.11074842,-0.015831184,-0.0015561255,-0.027821433,0.0015390266,-0.036753185,0.46918947,-1.4009497,1.9285234,-2.098791,-1.5683373,2.447537,-0.08609905,0.19870177,-0.231917,0.01928948,0.023754068,-0.0492025,-0.1340753,0.4213795,-9.768343,0.84484416,47.691364,-0.86902857,-2.0391939,-3.474472,-0.052222356,0.34955597,-0.4427979,27.6875,28.9375,28.125,32.3125,34.375,35.3125
0.23755175,-0.4153422,-0.9060386,-0.5465394,-0.038771518,0.033859123,-0.15126507,-0.3946418,-0.35145593,0.059967,3.0747268,-0.6295895,-0.00011613592,-0.111081086,-0.017665602,-0.000906088,-0.029097348,0.0029490597,-0.03294689,0.4690346,-1.4005406,1.9280099,-2.098767,-1.5683011,2.4474285,-0.08344863,0.200032,-0.23500144,0.019215638,0.0242563,-0.050354805,-0.05746084,0.4213795,-9.672575,0.7978386,47.687782,-1.1379449,-1.9395723,-3.4230347,-0.058768988,0.35651612,-0.46437347,27.6875,28.9375,28.125,32.3125,34.375,35.3125
0.24005173,-0.949874,-0.64120376,-0.82115304,0.0043630945,0.010807505,-0.134439,-0.39508837,-0.35153684,0.059950247,3.0745816,-0.62965214,-9.6019874e-05,-0.114443846,-0.018306503,-5.4058484e-05,-0.031274762,0.005635751,-0.027629057,0.4687098,-1.399711,1.9270748,-2.0987318,-1.5681928,2.447162,-0.085654534,0.20347735,-0.24089943,0.018317088,0.024994189,-0.05787353,-0.05746084,0.2681506,-9.653421,0.90750587,47.672558,-1.0361245,-2.0456247,-3.385058,-0.02375403,0.31960112,-0.3986202,27.6875,28.9375,28.125,32.3125,34.375,35.3125
0.24255198,-0.29477704,-0.35878384,-0.7273438,-0.007099773,0.024728984,-0.15096658,-0.3953077,-0.35156742,0.059932437,3.074525,-0.62973726,-1.718803e-05,-0.11419871,-0.018449103,-0.0010534591,-0.03117589,0.0035221153,-0.027265046,0.4685298,-1.3992776,1.926597,-2.0986717,-1.5681323,2.4470425,-0.08567115,0.20549858,-0.24108116,0.018414,0.025863506,-0.05825389,-0.019153614,0.28730422,-9.691729,0.842603,47.679718,-1.1338855,-2.0873873,-3.5191255,-0.023423383,0.3299327,-0.43284974,27.6875,28.9375,28.125,32.3125,34.375,35.3125
0.24505192,-0.4481802,-0.5415178,-0.47089827,-0.023348799,0.032009836,-0.14865012,-0.39555585,-0.35158277,0.059939627,3.074429,-0.6299246,-3.725821e-05,-0.11479471,-0.018435571,-0.001547083,-0.031263802,0.0020925025,-0.024559408,0.46831363,-1.3988805,1.9261073,-2.098624,-1.5680965,2.446956,-0.086610295,0.20769803,-0.24276027,0.019144112,0.026599115,-0.061896294,-0.05746084,0.22984336,-9.557653,0.86945957,47.71823,-1.1142039,-2.1030726,-3.6416678,-0.0430519,0.32577598,-0.38103795,27.6875,28.9375,28.125,32.3125,34.375,35.3125
0.24755266,-0.35383555,0.011553978,-0.3435662,-0.02710078,0.031034814,-0.15390997,-0.39576244,-0.35164252,0.05994107,3.074334,-0.6298826,-2.471056e-05,-0.11639987,-0.01847223,-0.0011205666,-0.031183468,0.002679681,-0.019144347,0.46818125,-1.3984953,1.9256524,-2.098611,-1.5680126,2.4468098,-0.08770373,0.20969395,-0.24640092,0.02032834,0.026276669,-0.06840196,-0.11492168,0.22984336,-9.5385,0.86945957,47.711063,-1.0714375,-2.169203,-3.6000957,-0.020306427,0.32630923,-0.33272433,27.6875,28.9375,28.125,32.3125,34.375,35.3125
0.2500525,-0.43186694,0.11617556,-0.21497074,-0.0072015384,0.038512323,-0.15038392,-0.39622828,-0.35171428,0.05992915,3.0742278,-0.6299176,2.8613877e-05,-0.120066665,-0.019453993,0.00019604387,-0.032936994,0.0057215514,-0.016596556,0.46783268,-1.3976295,1.9246458,-2.0985034,-1.5679168,2.4464972,-0.08921882,0.21360044,-0.25422,0.020761546,0.026470676,-0.07246028,-0.15322891,0.1340753,-9.385271,0.86498255,47.689575,-1.1452656,-2.206593,-3.5511627,-0.00934267,0.34800684,-0.26075876,27.6875,28.9375,28.125,32.3125,34.375,35.3125
0.25255245,-1.0562298,-0.32149914,-0.31654736,0.007887786,0.03877729,-0.14245278,-0.39647585,-0.35177287,0.059937444,3.0741274,-0.6299124,-1.18033895e-05,-0.12072408,-0.020026151,9.469446e-05,-0.034428924,0.004884653,-0.01402322,0.46767682,-1.397196,1.9241189,-2.0984914,-1.5678557,2.4463513,-0.08982003,0.21541844,-0.25626156,0.021070825,0.028192025,-0.07563044,-0.2681506,0.15322891,-9.500193,0.9097417,47.695843,-1.2687268,-2.1300328,-3.4676373,0.013691987,0.31679654,-0.2001762,27.6875,28.9375,28.125,32.3125,34.375,35.3125
0.2550524,-1.346619,-0.2552015,-0.41925895,-0.0043153493,0.046028975,-0.14349355,-0.39672393,-0.35178348,0.05992437,3.0740864,-0.63001907,1.4877064e-05,-0.12186889,-0.020703238,0.000771447,-0.036644235,0.005324976,-0.013849862,0.4674602,-1.3967515,1.9236163,-2.0984313,-1.5678309,2.4462068,-0.09069631,0.21637514,-0.25912264,0.02158843,0.029972676,-0.07667766,-0.36391866,0.21068975,-9.461885,0.8873621,47.69763,-1.0309186,-2.224653,-3.3420415,0.009100372,0.2843861,-0.1542621,27.6875,28.9375,28.125,32.3125,34.375,35.3125
0.2575524,-1.3515393,-0.44791877,-0.22883987,-0.014407035,0.06209674,-0.14786671,-0.39692494,-0.35185796,0.05991289,3.073975,-0.63001716,0.00013388018,-0.12268356,-0.021123357,0.0011720709,-0.036502544,0.005585896,-0.0137766665,0.46732843,-1.3963184,1.9231261,-2.0983827,-1.5676988,2.4460883,-0.09046699,0.21780542,-0.26211,0.02299101,0.029728407,-0.07652037,-0.53630114,0.19153613,-9.461885,0.87393653,47.74241,-1.2043488,-2.06277,-3.2866359,0.003969158,0.29568458,-0.12959486,27.6875,28.9375,28.125,32.3125,34.375,35.3125
0.2600522,-1.4554757,-0.2107766,-0.30360344,-0.026207808,0.08305986,-0.14524744,-0.39744422,-0.35192138,0.059939407,3.0737932,-0.6301323,7.2765455e-05,-0.12378644,-0.02056014,0.0013127883,-0.037739433,0.0029328119,-0.019490564,0.46691942,-1.3954775,1.9220618,-2.0982854,-1.5676025,2.4457753,-0.09370546,0.21928838,-0.26507792,0.026292032,0.032040793,-0.07403846,-0.6512229,0.2681506,-9.404425,0.8784135,47.721813,-1.1297686,-1.8416913,-3.408197,-0.046214387,0.24051173,-0.109260075,27.6875,28.9375,28.125,32.3125,34.375,35.3125
0.2625523,-1.1399925,-0.5085005,-0.39380756,-0.021531308,0.096659824,-0.14728291,-0.3976973,-0.35196218,0.059922084,3.073725,-0.6301415,0.00015784368,-0.12548517,-0.019300383,0.0018939102,-0.03771118,0.0041663963,-0.02549149,0.46671417,-1.3949847,1.921512,-2.0982258,-1.5675186,2.4455848,-0.09693025,0.21901898,-0.26627374,0.02667462,0.031455968,-0.07126276,-0.5554548,0.24899697,-9.442732,0.82694155,47.757637,-0.9882916,-1.9462309,-3.510417,-0.038551666,0.20893732,-0.1055069,27.6875,28.9375,28.125,32.3125,34.375,35.3125
0.26505664,-1.8460264,-0.68854004,-0.3747946,-0.008298452,0.07350249,-0.1345428,-0.39794627,-0.35199326,0.059922315,3.0736663,-0.6301892,0.00012471064,-0.12613131,-0.018314892,0.0015910546,-0.036712896,0.003764949,-0.030732537,0.46653372,-1.3945524,1.920998,-2.09819,-1.5674948,2.445442,-0.098677255,0.21962291,-0.26647076,0.027074285,0.030743944,-0.06776804,-0.63206923,0.24899697,-9.500193,0.86945957,47.713753,-0.82096493,-1.7838364,-3.6126332,-0.053557202,0.21477824,-0.13368028,27.6875,28.9375,28.125,32.3125,34.375,35.3125
0.26755166,-1.3008913,-0.12440373,-0.359239,-0.0024960905,0.069287755,-0.13505177,-0.39819828,-0.3520363,0.05990978,3.073564,-0.63030463,0.00015559046,-0.12740739,-0.018209312,0.00076063,-0.036424913,0.0022078636,-0.035647426,0.46634114,-1.394082,1.9204711,-2.0981658,-1.5674227,2.445335,-0.100171514,0.22344838,-0.2692592,0.027555773,0.031179437,-0.064344466,-0.6703765,0.11492168,-9.519346,0.9410752,47.699425,-0.7821809,-1.9422147,-3.594184,-0.0600005,0.20670524,-0.17674392,27.6875,28.9375,28.125,32.3125,34.375,35.3125
0.27005264,-1.2059764,0.30971792,-0.3611571,0.0064040124,0.04821862,-0.13633901,-0.3987138,-0.352094,0.059921402,3.073346,-0.63062805,0.00022904477,-0.12906602,-0.018964196,0.00077699596,-0.038066257,0.0018264415,-0.04278861,0.465897,-1.3932045,1.9193829,-2.0980098,-1.5672783,2.4451213,-0.101155885,0.22682692,-0.27353898,0.028056951,0.032805204,-0.058182366,-0.49799395,0.13407528,-9.404425,0.8784135,47.71017,-0.8030659,-1.877345,-3.6018121,-0.06852906,0.16155295,-0.23966438,27.6875,28.9375,28.125,32.3125,34.375,35.3125
0.2725517,-0.92379147,0.3388997,-0.63782465,0.019528976,0.045196533,-0.13985671,-0.39897254,-0.35215116,0.059916563,3.0732994,-0.6306162,0.00019731671,-0.12971203,-0.020028729,-7.21359e-05,-0.037410785,0.00035215094,-0.04077892,0.46575356,-1.3927104,1.9188074,-2.0979736,-1.567254,2.4449768,-0.09984789,0.23146865,-0.27731827,0.028814474,0.032882217,-0.0588805,-0.30645782,0.17238252,-9.461885,0.8918391,47.670765,-0.85317767,-2.039715,-3.5677347,-0.08783763,0.1335692,-0.2521913,27.6875,28.9375,28.125,32.3125,34.375,35.3125
0.27505276,-0.74982756,0.15604453,-0.54526633,0.008048963,0.047549605,-0.14727895,-0.39924216,-0.35216492,0.05991672,3.0731838,-0.63078463,0.00025335615,-0.1317209,-0.018808879,-0.0002515573,-0.03669788,-0.00070144166,-0.041882683,0.46548805,-1.3922652,1.9182695,-2.0979016,-1.56717,2.4448316,-0.103519514,0.23404123,-0.28043526,0.030643765,0.03272781,-0.061446615,-0.17238252,0.15322891,-9.576807,0.8851263,47.674347,-0.6999608,-2.108586,-3.4917884,-0.10470035,0.13813029,-0.25151116,27.6875,28.9375,28.125,32.3125,34.375,35.3125
0.27755255,-0.63681185,-0.51912093,-0.076584026,-0.028247286,0.061826337,-0.15451467,-0.39950004,-0.35221845,0.05992505,3.0730734,-0.6309333,0.0002820079,-0.13211341,-0.020948112,0.0012402587,-0.037834395,0.0015656578,-0.039398372,0.4653094,-1.3917966,1.9176825,-2.0978172,-1.567098,2.4447603,-0.10006525,0.2345403,-0.28482315,0.032003485,0.032722186,-0.060474027,-0.15322891,0.24899697,-9.461885,0.88289046,47.71465,-0.94564134,-2.1189363,-3.3946629,-0.1329833,0.12940635,-0.25144848,27.6875,28.9375,28.125,32.3125,34.375,35.3125
0.28005233,-0.41145223,-1.3705397,-0.8013496,-0.008528646,0.023093617,-0.13807963,-0.400055,-0.35228834,0.05993995,3.0728786,-0.6311432,0.00026145153,-0.13369946,-0.020482704,0.0011086044,-0.03583569,0.0011756857,-0.040920764,0.46487713,-1.3908589,1.9165224,-2.097696,-1.5669907,2.444485,-0.10105263,0.23771931,-0.2889655,0.03423625,0.031119065,-0.05993622,-0.076614454,0.4405331,-9.557653,0.8717007,47.703903,-0.91993165,-2.0790968,-3.3580103,-0.18024427,0.11108138,-0.2966575,27.6875,28.9375,28.125,32.3125,34.375,35.3125
0.28255248,-0.14215368,-1.2131233,-0.6348551,-0.039297894,0.019303579,-0.14565387,-0.4003386,-0.3523264,0.059957176,3.07279,-0.63118106,0.00019607304,-0.13462877,-0.019701649,0.001075177,-0.035274412,0.0013148998,-0.04215281,0.46467263,-1.3904018,1.9159364,-2.0976484,-1.566955,2.444316,-0.10276749,0.23836064,-0.2898229,0.034591876,0.030563505,-0.0604171,-0.13407528,0.40222588,-9.519346,0.85826975,47.670765,-0.90631723,-1.9862556,-3.437361,-0.19946082,0.109250605,-0.31820148,27.6875,28.9375,28.125,32.3125,34.375,35.3125
0.2850521,-0.7367748,-1.5332482,-0.6067585,-0.038428843,0.0027927945,-0.13496195,-0.40060672,-0.35236996,0.05994485,3.07269,-0.6313143,0.00023891343,-0.13447194,-0.01932481,0.0010025136,-0.03549617,0.0012410545,-0.0430458,0.4644685,-1.3898981,1.9153627,-2.0976007,-1.566883,2.4442081,-0.10333327,0.23757929,-0.28878716,0.034312785,0.030800253,-0.060089726,0.019153614,0.4213795,-9.404425,0.83589023,47.67166,-0.81233037,-2.023409,-3.556541,-0.20724976,0.08937961,-0.3237251,27.6875,28.9375,28.125,32.3125,34.375,35.3125
0.2875521,-0.060206786,-1.1044685,-0.469844,-0.040484365,0.022949485,-0.14859194,-0.40087286,-0.35241473,0.05994651,3.0725899,-0.63146675,0.00025857528,-0.13491069,-0.018873965,-8.430975e-05,-0.034399558,-0.0007129676,-0.043827876,0.4642759,-1.3894166,1.9147776,-2.0975287,-1.5668229,2.444124,-0.10433886,0.24032912,-0.2897559,0.034780826,0.030699385,-0.060311902,0.076614454,0.4213795,-9.423578,0.83589023,47.655537,-0.8329476,-1.916565,-3.5966012,-0.22367682,0.08383686,-0.3442745,27.6875,28.9375,28.125,32.3125,34.375,35.3125
0.29005212,0.082297206,-0.1234819,-0.21465719,-0.0076394584,0.007368408,-0.14443761,-0.40143672,-0.35248584,0.059958365,3.0723765,-0.6317456,0.00026076895,-0.1380003,-0.020516811,0.0024643943,-0.03742545,0.0042792866,-0.040730353,0.46383226,-1.3884553,1.9135922,-2.097397,-1.5667032,2.4438827,-0.10428168,0.24135612,-0.29708156,0.0352924,0.031178243,-0.0633461,0.19153613,0.36391866,-9.270349,0.900793,47.67345,-0.8545728,-1.7676878,-3.5176296,-0.2653419,0.066946566,-0.34873646,27.6875,28.9375,28.125,32.3125,34.375,35.3125
0.29255188,0.15248126,0.006391628,-0.22836685,0.02358067,-0.002360796,-0.1457097,-0.40170917,-0.35252422,0.05996248,3.072266,-0.6318552,0.00027487683,-0.14021634,-0.02116895,0.0028941075,-0.03831545,0.006534387,-0.038355116,0.46361595,-1.3879858,1.9130181,-2.097338,-1.5666307,2.4437494,-0.104850106,0.24417314,-0.30122882,0.03423175,0.030970337,-0.06628666,0.21068975,0.2681506,-9.136273,0.9097417,47.679718,-0.95587575,-1.689393,-3.454812,-0.26694617,0.05459997,-0.3289988,27.6875,28.9375,28.125,32.3125,34.375,35.3125
0.2950521,0.53563905,0.06301077,-0.5549614,0.034983743,-0.0034873213,-0.13939565,-0.4020139,-0.3525901,0.059988268,3.0721078,-0.6319345,0.00021235693,-0.14163819,-0.02183374,0.0025108608,-0.038264487,0.006999716,-0.03523965,0.4634122,-1.387492,1.912371,-2.0973017,-1.5665468,2.4436162,-0.10467928,0.24786222,-0.304658,0.033603452,0.03072923,-0.06922633,0.24899697,0.2681506,-9.193734,0.8940802,47.71286,-1.0509086,-1.7176242,-3.4207654,-0.28599882,0.0659361,-0.33111942,27.6875,28.9375,28.125,32.3125,34.375,35.3125
0.29755178,0.23433286,-0.21807766,-0.65130496,0.021019004,-0.005002101,-0.14121448,-0.4022673,-0.35263762,0.05999271,3.0720637,-0.63190305,0.00023447444,-0.14171304,-0.021936804,0.00053530926,-0.0358497,0.004427318,-0.030771825,0.46324438,-1.3870218,1.9117864,-2.0972064,-1.5664996,2.4434347,-0.10385495,0.25274992,-0.30599266,0.033458233,0.029731642,-0.072869875,0.114921674,0.2681506,-9.385271,0.9030289,47.729877,-0.8675027,-1.9816691,-3.365272,-0.2843865,0.0803024,-0.2850562,27.6875,28.9375,28.125,32.3125,34.375,35.3125
0.30005267,-0.8481562,-1.3911531,-0.64992464,-0.041428767,0.028491091,-0.14320473,-0.40283576,-0.35271338,0.05998925,3.071891,-0.63209355,0.00030916723,-0.14302044,-0.02023102,-0.0006196004,-0.031641934,0.0031024774,-0.025193114,0.46279967,-1.3859997,1.9105538,-2.097038,-1.5663685,2.443132,-0.10575269,0.25625667,-0.3081493,0.035239127,0.026592713,-0.08034989,0.11492168,0.4213795,-9.385271,0.842603,47.711063,-0.93110114,-2.0231094,-3.3576422,-0.31745568,0.091897994,-0.20861025,27.6875,28.9375,28.125,32.3125,34.375,35.3125
0.30255222,-1.3740289,-2.1877835,-0.67056686,-0.056043778,0.036482785,-0.13637768,-0.40314507,-0.35274786,0.060009576,3.0718384,-0.63215876,0.0002644638,-0.14436574,-0.020723933,0.000626492,-0.03263391,0.005655555,-0.02381586,0.46258363,-1.3854833,1.9098724,-2.0969183,-1.5663565,2.4429638,-0.105802335,0.25618458,-0.31108394,0.035532355,0.026347145,-0.08177517,-0.05746084,0.45968673,-9.5385,0.91198283,47.69763,-1.086977,-1.993366,-3.5383198,-0.3553655,0.10857876,-0.1313741,27.6875,28.9375,28.125,32.3125,34.375,35.3125
0.3050521,-0.6812893,-1.7472674,-0.47946528,-0.071541,0.055950463,-0.15002406,-0.40341356,-0.35278586,0.059998367,3.0717747,-0.6322031,0.00031152912,-0.14564846,-0.020127948,0.00037916808,-0.03262484,0.0064925,-0.025050534,0.46237907,-1.3849785,1.9092873,-2.0968468,-1.5662965,2.4427955,-0.10759979,0.25742534,-0.31182185,0.034298804,0.025967635,-0.08233807,-0.17238252,0.53630114,-9.576807,0.91198283,47.696735,-1.0172055,-1.8483694,-3.565611,-0.36868358,0.104005694,-0.11592508,27.6875,28.9375,28.125,32.3125,34.375,35.3125
0.307552,-0.89429164,-1.8713844,-0.5606182,-0.06386098,0.057318147,-0.13999553,-0.40373316,-0.35284248,0.060001064,3.0716667,-0.6322757,0.00028259505,-0.14721034,-0.020097096,0.00036447632,-0.0325439,0.008473707,-0.023337182,0.4621629,-1.3844131,1.9086045,-2.0967996,-1.5662369,2.442639,-0.10829497,0.25921544,-0.31365082,0.03262529,0.025021855,-0.08474569,-0.1340753,0.5363012,-9.557653,0.8627467,47.7254,-0.9516181,-1.9193009,-3.6229103,-0.35359415,0.10465426,-0.050941397,27.6875,28.9375,28.125,32.3125,34.375,35.3125
0.3100518,-0.72008485,-0.5757749,-0.21489006,-0.041697204,0.05510182,-0.14582975,-0.4043157,-0.35294148,0.06001093,3.0714765,-0.6322947,0.00022741228,-0.15114926,-0.022049598,0.002200194,-0.037082225,0.0152556375,-0.028431589,0.46175483,-1.3834033,1.9073733,-2.0967171,-1.5661162,2.4422684,-0.10875192,0.26159513,-0.31989095,0.028387845,0.026044706,-0.08009996,-0.24899697,0.40222588,-9.615114,0.8806493,47.670765,-1.0725592,-1.8528588,-3.5304205,-0.31694883,0.13435148,-0.07335966,27.6875,28.9375,28.125,32.3125,34.375,35.3125
0.31255177,-0.97662884,-0.7152279,-0.06324534,-0.013950949,0.046077125,-0.1425342,-0.40463534,-0.35300276,0.060037825,3.0713463,-0.6323461,8.586682e-05,-0.1537277,-0.021936521,0.002101732,-0.03797332,0.01693658,-0.03294117,0.46156225,-1.3828984,1.9067143,-2.0967057,-1.5660805,2.4421253,-0.11108395,0.26479807,-0.323137,0.02652683,0.026091948,-0.077916875,-0.36391866,0.3256114,-9.2703495,0.8918391,47.682407,-1.1177558,-1.6751286,-3.4928596,-0.28749296,0.12136555,-0.06269301,27.6875,28.9375,28.125,32.3125,34.375,35.3125
0.3150516,-0.5454831,0.20446464,-0.4615306,0.00588289,0.050520547,-0.14699283,-0.4049336,-0.35303876,0.060031094,3.0712428,-0.6324599,0.00011340327,-0.1543991,-0.022641093,0.0024860802,-0.038600788,0.01789444,-0.035353057,0.46132225,-1.3823687,1.9060911,-2.096646,-1.5660084,2.44197,-0.11040999,0.26581484,-0.32535046,0.026583577,0.026221922,-0.07482913,-0.36391866,0.21068975,-9.308657,0.8717007,47.682407,-0.92351013,-1.8084495,-3.4253163,-0.27772424,0.13742527,-0.08939096,27.6875,28.9375,28.125,32.3125,34.375,35.3125
0.31755254,-0.912918,0.09072095,-0.30649576,0.0020504443,0.06709297,-0.14814584,-0.40522867,-0.3530879,0.060019072,3.0711865,-0.6325271,0.00012523482,-0.15549318,-0.022232985,0.002525409,-0.039099038,0.0174958,-0.039965663,0.46112975,-1.3818036,1.905435,-2.096574,-1.5659717,2.4418273,-0.11232847,0.26697248,-0.32711062,0.027314313,0.026841378,-0.072132684,-0.51714754,0.22984336,-9.404425,0.8873621,47.66808,-1.0451485,-1.8454568,-3.4619164,-0.27002198,0.14856982,-0.10919677,27.6875,28.9375,28.125,32.3125,34.375,35.3125
0.32005236,-2.4441016,-0.7211708,-0.035864808,-0.017747862,0.09663595,-0.1339821,-0.40583333,-0.3531798,0.060022578,3.070979,-0.6327344,0.00013989188,-0.15758362,-0.023258723,0.0022379337,-0.04006225,0.018261682,-0.0447955,0.4606858,-1.3807333,1.9041303,-2.0964305,-1.5658401,2.4415405,-0.1124424,0.27163458,-0.3320276,0.026451845,0.027354544,-0.067411035,-0.7278373,0.19153613,-9.270349,0.95897776,47.73256,-1.0963682,-1.7142415,-3.417117,-0.25665668,0.14557886,-0.18302327,27.6875,28.9375,28.125,32.3125,34.375,35.3125
0.32255217,-2.049552,-0.034626137,-0.07963432,-0.010659031,0.10855269,-0.14553261,-0.4061773,-0.35322484,0.06002875,3.0708613,-0.6328834,6.181755e-05,-0.15878828,-0.023115497,0.0015620411,-0.038758557,0.01797373,-0.04689259,0.46044555,-1.3801558,1.9034256,-2.0963943,-1.5658044,2.441409,-0.112943694,0.27497426,-0.33460617,0.02653312,0.026317332,-0.06581399,-0.51714754,0.095768064,-9.3661175,0.86945957,47.703903,-1.0892199,-1.7705921,-3.4641528,-0.22699267,0.15630092,-0.20904094,27.6875,28.9375,28.125,32.3125,34.375,35.3125
0.32505217,-2.2868214,0.15386501,0.10862953,0.008415312,0.09076638,-0.14238279,-0.406527,-0.35327435,0.060034256,3.070709,-0.6331029,5.3939248e-06,-0.15919533,-0.022573551,0.00030421905,-0.03647794,0.01630386,-0.04837842,0.46019354,-1.3795662,1.9027079,-2.0963585,-1.5657448,2.4413145,-0.11328103,0.2781201,-0.33573982,0.02703974,0.02502421,-0.064665705,-0.6703764,0.076614454,-9.232042,0.9186956,47.69763,-1.0933588,-1.9640914,-3.4583874,-0.23497912,0.2008517,-0.24761906,27.6875,28.9375,28.125,32.3125,34.375,35.3125
0.32755208,-1.5707678,0.6133273,0.08776548,0.02991265,0.07801778,-0.14257047,-0.40683877,-0.35331425,0.060046554,3.0706005,-0.6331568,-6.353442e-05,-0.16041265,-0.022661686,-0.00045422348,-0.03651447,0.015668802,-0.050085504,0.4599653,-1.3790609,1.9020742,-2.0963228,-1.5656971,2.4411345,-0.114246204,0.28151765,-0.338041,0.026500262,0.02534255,-0.06391952,-0.51714754,0.1340753,-9.251195,1.0037369,47.666286,-1.1200716,-1.9396074,-3.5551114,-0.19375741,0.19539371,-0.27950716,27.6875,28.9375,28.125,32.3125,34.375,35.3125
0.33005187,-0.92238146,0.42635676,0.332952,0.012393507,0.040885903,-0.1438487,-0.4075011,-0.35339436,0.06003733,3.070385,-0.63347733,-0.00013986425,-0.16455103,-0.022441294,0.0013306711,-0.039186306,0.020803114,-0.05465325,0.45948395,-1.3779069,1.9007105,-2.0962398,-1.5656132,2.4408822,-0.117966324,0.28263605,-0.34334898,0.024916248,0.025463961,-0.06306672,-0.4405331,0.05746084,-9.136273,0.94331104,47.678825,-0.9612518,-1.9298551,-3.490756,-0.12422923,0.23231246,-0.3181878,27.6875,28.9375,28.125,32.3125,34.375,35.3125
0.33255187,-0.6684798,0.05339176,0.32169595,0.004727806,0.02459504,-0.1446623,-0.407835,-0.35344955,0.06003998,3.070248,-0.6336973,-0.0001651515,-0.16429393,-0.022104073,0.00051835476,-0.037775192,0.018147506,-0.055517126,0.45925602,-1.3773178,1.8999928,-2.0961788,-1.5655531,2.44081,-0.11814457,0.2844714,-0.34432605,0.02707044,0.025388632,-0.062379535,-0.2681506,0.076614454,-9.040505,0.86945957,47.707485,-0.98322564,-1.8759723,-3.5054955,-0.11823555,0.25428993,-0.385902,27.6875,28.9375,28.125,32.3125,34.375,35.3125
0.33505252,-0.59091234,-0.46572858,0.18323086,2.9332948e-06,0.017297598,-0.13988093,-0.40817648,-0.35347456,0.06003788,3.0701568,-0.6338688,-0.0002102056,-0.16520262,-0.02289651,0.0012670524,-0.038840946,0.018471045,-0.052987535,0.4589921,-1.3767407,1.8993,-2.0961182,-1.5655283,2.4406655,-0.11793413,0.28567266,-0.34798893,0.028787212,0.026218584,-0.06469397,-0.51714754,0.13407528,-8.983045,0.89631605,47.691364,-0.8456688,-1.8484249,-3.5235405,-0.11777967,0.2600447,-0.39813215,27.6875,28.9375,28.125,32.3125,34.375,35.3125
0.3375524,-0.82994056,-0.7497096,0.1807665,-0.0074647195,0.027248912,-0.13570997,-0.4084835,-0.3535185,0.060017996,3.0700712,-0.63398504,-0.00020586987,-0.1673544,-0.022830874,0.0025764704,-0.040657584,0.020537581,-0.055166826,0.4587754,-1.3761641,1.8986534,-2.0960824,-1.5654796,2.440533,-0.12019656,0.28593424,-0.3515721,0.029458225,0.026935717,-0.06477323,-0.3256114,0.17238252,-9.002198,0.9164598,47.699425,-0.97990406,-1.8146698,-3.381041,-0.09601289,0.28396267,-0.40938473,27.6875,28.9375,28.125,32.3125,34.375,35.3125
0.3400522,-0.843389,-0.5159208,0.0793143,-0.014011973,0.04438214,-0.14460045,-0.4091669,-0.35360116,0.06000411,3.0698829,-0.63425136,-0.00025148867,-0.16779377,-0.023418408,0.0023347768,-0.040875666,0.018380433,-0.051480662,0.45828325,-1.3749504,1.8972176,-2.0959618,-1.5653957,2.4402325,-0.12001782,0.2887191,-0.35528395,0.032256644,0.028123591,-0.06827382,-0.30645782,0.34476507,-9.193734,0.90527004,47.664497,-0.9550512,-1.7642009,-3.4275475,-0.07706177,0.31218362,-0.45628613,27.6875,28.9375,28.125,32.3125,34.375,35.3125
0.34255219,-0.60155874,-0.975895,0.19544236,-0.00955517,0.056982286,-0.14531466,-0.4094802,-0.35365152,0.059995685,3.069755,-0.63446987,-0.00016754789,-0.16751662,-0.023310238,0.0010517378,-0.039895065,0.014861248,-0.048019826,0.45804343,-1.374361,1.8965124,-2.095853,-1.5652994,2.4401462,-0.12026917,0.29164162,-0.35641795,0.034089185,0.028826866,-0.07198356,-0.15322891,0.3256114,-9.136273,0.9321212,47.685097,-0.949561,-1.8148451,-3.4735498,-0.07626979,0.3152262,-0.45030108,27.6875,28.9375,28.125,32.3125,34.375,35.3125
0.3450521,-0.46868336,-0.4674239,-0.15786105,-0.006718692,0.04271245,-0.14482997,-0.40983444,-0.35368174,0.060001183,3.069661,-0.63462025,-0.00022859217,-0.16811135,-0.023995873,0.0007511102,-0.040661823,0.0140996035,-0.043642998,0.45777938,-1.3737711,1.8957828,-2.095781,-1.5652751,2.4399889,-0.12010471,0.2940607,-0.3588518,0.034476887,0.029878458,-0.07619009,-0.038307227,0.34476504,-9.193734,0.90527004,47.695843,-0.97087264,-1.9029344,-3.4495668,-0.07620376,0.3136264,-0.4037672,27.6875,28.9375,28.125,32.3125,34.375,35.3125
0.34755203,-0.122538805,-0.9083235,-0.17569286,-0.010354046,0.037641518,-0.1394936,-0.41016966,-0.353707,0.059982084,3.0696049,-0.6347201,-0.0002034565,-0.16808932,-0.0246008,-1.9042005e-05,-0.04136073,0.012452625,-0.03871215,0.45751554,-1.3731576,1.8950781,-2.0956972,-1.5652384,2.439795,-0.11976344,0.29631093,-0.35995385,0.034528535,0.03125957,-0.08077511,-0.05746084,0.40222588,-9.212888,0.8940802,47.71286,-1.0294124,-1.9423633,-3.5893483,-0.07772665,0.3282299,-0.36607817,27.6875,28.9375,28.125,32.3125,34.375,35.3125
0.3500524,-0.039117604,-1.1077033,-0.43573806,-0.01307496,-0.0021654093,-0.13984764,-0.4108546,-0.3538009,0.0599766,3.0693629,-0.63493174,-0.00019428888,-0.16997978,-0.025331272,-0.00094586663,-0.0407807,0.010725536,-0.030289184,0.45699963,-1.3719543,1.8936299,-2.095565,-1.5650824,2.4394438,-0.12000724,0.3027495,-0.3662304,0.03624919,0.031554893,-0.08943532,0.15322891,0.38307226,-9.136273,0.9410752,47.681515,-1.054853,-2.1227946,-3.5312867,-0.0405034,0.34752584,-0.269715,27.6875,28.9375,28.125,32.3125,34.375,35.3125
0.35255256,-0.2766886,-1.2137347,-0.3570609,-0.013417349,-0.011944981,-0.13006401,-0.41120028,-0.3538324,0.059941504,3.0693073,-0.63507366,-0.00018361931,-0.1719552,-0.024554834,-0.00063319184,-0.04117572,0.011429262,-0.030078392,0.45674646,-1.3712932,1.8929118,-2.0955174,-1.5650586,2.439287,-0.12289195,0.3041132,-0.36886084,0.036737766,0.03161624,-0.092529714,0.019153614,0.51714754,-9.270349,0.9410752,47.71017,-0.8769492,-2.1248903,-3.4699016,-0.01824772,0.36612344,-0.19943653,27.6875,28.9375,28.125,32.3125,34.375,35.3125
0.3550524,0.24687845,-0.929074,-0.40624914,-0.024902567,0.005467304,-0.13971975,-0.41154158,-0.35390106,0.059957307,3.0691879,-0.6350845,-0.00022863626,-0.17321558,-0.02533541,-8.951143e-06,-0.04250355,0.012346422,-0.029130362,0.45653066,-1.3707045,1.8921589,-2.0954454,-1.5649861,2.439094,-0.12297817,0.30566943,-0.3724283,0.03735709,0.032416753,-0.093557455,0.24899697,0.4405331,-9.270349,0.92764956,47.705692,-0.9449775,-2.055909,-3.3808174,-0.017851332,0.37291533,-0.17067263,27.6875,28.9375,28.125,32.3125,34.375,35.3125
0.35755205,-0.058248203,-0.9927887,-0.5807483,-0.019164942,0.0024664295,-0.13359484,-0.41187823,-0.35394317,0.059938923,3.0691047,-0.6351629,-0.00014360939,-0.175044,-0.025624795,0.0012701612,-0.044681348,0.013475634,-0.029490048,0.45626613,-1.3700672,1.8914169,-2.0953372,-1.5649012,2.4388897,-0.124778084,0.3062225,-0.3765229,0.03894506,0.033883095,-0.09499213,0.21068975,0.4213795,-9.289502,0.8672237,47.723602,-0.8692311,-2.1041832,-3.315793,-0.01566508,0.37874323,-0.14015543,27.6875,28.9375,28.125,32.3125,34.375,35.3125
0.3600519,-0.2960806,-0.894893,-0.81739414,-0.033793382,0.009268496,-0.1405244,-0.41256556,-0.35403436,0.05992263,3.0689163,-0.6353578,-9.666912e-05,-0.17432632,-0.02452195,-0.00093146955,-0.043628745,0.0072794906,-0.037441466,0.45576128,-1.3688177,1.8899235,-2.0951564,-1.5647691,2.438532,-0.12685208,0.3092871,-0.3761133,0.041486233,0.035666093,-0.08910748,0.11492168,0.45968673,-9.519346,0.9410752,47.73256,-0.74211544,-1.949177,-3.6997094,-0.025823679,0.3858434,-0.14951621,27.6875,28.9375,28.125,32.3125,34.375,35.3125
0.36255187,-0.5600481,-1.3316439,-1.1294563,-0.032613628,0.0025555373,-0.13102606,-0.41293922,-0.35408574,0.059942976,3.068765,-0.6354999,-0.0001827787,-0.17363967,-0.024289897,-0.0018594424,-0.042712826,0.0046442165,-0.03984842,0.45549762,-1.368216,1.8891462,-2.0950963,-1.5647091,2.4383776,-0.12672268,0.31048527,-0.3759219,0.042864565,0.036011208,-0.08656628,0.095768064,0.40222588,-9.634268,0.9410752,47.7245,-0.8535437,-2.1008694,-3.7851167,-0.03128914,0.38817504,-0.13981666,27.6875,28.9375,28.125,32.3125,34.375,35.3125
0.3650518,-0.70517695,-1.3499014,-0.860926,-0.044482302,0.005065749,-0.13138318,-0.41327766,-0.35415208,0.05992755,3.068689,-0.63552445,-0.00013593049,-0.17430648,-0.025151566,-0.0021278593,-0.042887688,0.002892762,-0.046032034,0.4552817,-1.3675544,1.8883694,-2.094999,-1.5646366,2.4381874,-0.12622848,0.3138628,-0.38003528,0.04506673,0.03690859,-0.07988318,-0.05746084,0.40222588,-9.576807,1.0305934,47.711964,-0.87361765,-2.0883987,-3.7523289,-0.039606687,0.38204795,-0.23724467,27.6875,28.9375,28.125,32.3125,34.375,35.3125
0.3675518,-0.6962117,-1.1418866,-0.9629638,-0.032281745,0.014154685,-0.13577202,-0.41360894,-0.3541861,0.05991366,3.0685678,-0.6357294,-1.3826562e-05,-0.17385897,-0.026541092,-0.0024030807,-0.04307087,0.00066635653,-0.04572556,0.4549947,-1.3669409,1.8876384,-2.0948665,-1.5645279,2.4380445,-0.12403502,0.31636548,-0.38315347,0.047605168,0.038046375,-0.07799196,-0.11492168,0.38307226,-9.557653,0.8537928,47.67345,-1.0107763,-2.252888,-3.705504,-0.08367152,0.38401246,-0.25412622,27.6875,28.9375,28.125,32.3125,34.375,35.3125
0.37005168,-0.9318375,-1.1935955,-1.1965374,-0.03694504,0.032142106,-0.1363576,-0.41431528,-0.35430956,0.059901714,3.0683017,-0.6359609,1.9625562e-05,-0.17685871,-0.02738419,-0.0018693784,-0.045991603,-5.868257e-05,-0.04874371,0.45450196,-1.3656543,1.8860959,-2.0947225,-1.5643471,2.4377322,-0.12661847,0.32112664,-0.39097124,0.050050452,0.040993415,-0.07754028,0.019153614,0.38307226,-9.825804,0.9634547,47.678825,-1.166104,-2.3070748,-3.5468678,-0.09946881,0.33822447,-0.2720871,27.6875,28.9375,28.125,32.3125,34.375,35.3125
0.3725518,-0.80445874,-1.1102685,-1.0605631,-0.04602003,0.03062345,-0.13490957,-0.41468388,-0.35437426,0.059916355,3.0682075,-0.6360181,-1.770052e-05,-0.17667836,-0.027637532,-0.0023655,-0.04626764,-0.0029561485,-0.04965754,0.4542738,-1.3650051,1.885259,-2.0946019,-1.5642985,2.4375527,-0.12682357,0.3229615,-0.3927903,0.052520175,0.042520806,-0.076823086,-0.095768064,0.38307226,-9.768343,0.95897776,47.703903,-1.0080559,-2.2128913,-3.5425854,-0.119237706,0.34173176,-0.31350905,27.6875,28.9375,28.125,32.3125,34.375,35.3125
0.37505162,-1.0466287,-1.037231,-1.1837109,-0.019311158,0.013773052,-0.1354069,-0.41501865,-0.35442647,0.05990709,3.0680628,-0.6362198,8.717339e-05,-0.17612413,-0.026581347,-0.0028306248,-0.04583794,-0.007222438,-0.05235523,0.45400903,-1.3643802,1.8845052,-2.0944808,-1.5641783,2.4374332,-0.12891762,0.32313013,-0.39306355,0.056658544,0.044016913,-0.07621444,-0.3256114,0.4213795,-9.710882,0.9388393,47.686886,-0.97108454,-2.2863483,-3.6654706,-0.17899835,0.30593634,-0.32471323,27.6875,28.9375,28.125,32.3125,34.375,35.3125
0.37755248,-1.1760613,-0.95016664,-1.09865,-0.02267253,0.022463093,-0.1271431,-0.4154016,-0.3544654,0.059923016,3.0679498,-0.6364068,3.5973917e-05,-0.17692746,-0.02739065,-0.0013652788,-0.04971488,-0.0049874973,-0.05296578,0.45373282,-1.3637447,1.8836812,-2.0943615,-1.5641412,2.4372892,-0.1295827,0.32132208,-0.3942217,0.055922806,0.04652686,-0.07625714,-0.30645782,0.2873042,-9.768343,0.9410752,47.698532,-0.8871211,-2.0206246,-3.7678237,-0.21598452,0.25575468,-0.34139025,27.6875,28.9375,28.125,32.3125,34.375,35.3125
0.38005334,-0.9504553,-0.5370611,-0.78572524,-0.014689225,0.03036527,-0.13326003,-0.41611445,-0.3546116,0.059928708,3.0676453,-0.6365909,0.00012715317,-0.17972694,-0.02740714,-0.0009367938,-0.052620124,-0.0056919176,-0.053027242,0.45323947,-1.3624461,1.8820671,-2.0941575,-1.5639004,2.4369519,-0.13337193,0.324711,-0.400034,0.05776359,0.049474858,-0.0799674,-0.076614454,0.15322891,-9.615114,0.89631605,47.692257,-0.9627788,-1.9260378,-3.7314105,-0.25723708,0.20967041,-0.35881877,27.6875,28.9375,28.125,32.3125,34.375,35.3125
0.38255215,-0.9814833,0.32566312,-0.4071525,-0.0023303886,0.03520555,-0.14283338,-0.4164713,-0.35467073,0.059927568,3.0675108,-0.63671345,0.00018750677,-0.18088926,-0.030101117,0.0002560257,-0.054202754,-0.0021431977,-0.04849884,0.45297697,-1.3617965,1.8812641,-2.0940378,-1.5637926,2.436784,-0.12952785,0.3269114,-0.40540412,0.057076856,0.04934225,-0.08064878,-0.30645782,0.05746084,-9.404425,0.9298854,47.675243,-0.9411839,-2.039156,-3.585597,-0.27295312,0.16505656,-0.33601558,27.6875,28.9375,28.125,32.3125,34.375,35.3125
0.3850521,-0.37251893,1.5156168,-0.7969135,0.036340132,0.046722237,-0.14453171,-0.416835,-0.3547274,0.059933677,3.067363,-0.6368726,0.00020730309,-0.18303654,-0.02938528,-0.0004081197,-0.053869832,-0.0023631998,-0.047834273,0.4527119,-1.3611594,1.880462,-2.0939305,-1.5636963,2.4366384,-0.13224593,0.33058864,-0.40844148,0.056825977,0.049159985,-0.08402827,-0.05746084,-0.019153614,-9.557653,0.9254084,47.67345,-0.851727,-2.2055614,-3.479359,-0.2707119,0.15942836,-0.333823,27.6875,28.9375,28.125,32.3125,34.375,35.3125
0.387552,-0.4889356,1.7817078,-1.1118897,0.055735774,0.03675205,-0.14540769,-0.41719002,-0.3547848,0.059915494,3.067249,-0.6369392,0.00028547607,-0.18268234,-0.030608185,-0.0011226803,-0.05404541,-0.003345267,-0.03923123,0.45244867,-1.3604861,1.8796738,-2.0938346,-1.5635885,2.4364321,-0.1301009,0.33301705,-0.40991926,0.05674796,0.0497851,-0.09048286,-0.076614454,-0.038307227,-9.672575,0.88960326,47.670765,-1.0600332,-2.3008215,-3.5298696,-0.2846668,0.13945411,-0.2632922,27.6875,28.9375,28.125,32.3125,34.375,35.3125
0.39005187,-1.2115896,-0.75816846,-0.76237667,-0.016247967,0.066514,-0.14183006,-0.4179324,-0.35489818,0.059933417,3.0669808,-0.6372049,0.0003554912,-0.18348883,-0.029977717,-0.0020634776,-0.052692503,-0.004091036,-0.03383068,0.4519086,-1.3591784,1.8780006,-2.0935585,-1.5633968,2.4360943,-0.13098286,0.3355794,-0.4113029,0.056924894,0.048943818,-0.09676478,-0.34476504,0.30645782,-9.481039,0.97464454,47.652847,-1.0334926,-2.1606476,-3.6795573,-0.319542,0.07550712,-0.18524075,27.6875,28.9375,28.125,32.3125,34.375,35.3125
0.39255264,-1.2822834,-1.0868416,-1.1248771,-0.040757813,0.08398784,-0.1380297,-0.41829377,-0.3549528,0.05995117,3.066861,-0.63727295,0.00038761186,-0.18463966,-0.028709758,-0.0018239627,-0.04909446,-0.0017312901,-0.030432237,0.45164454,-1.358555,1.8771762,-2.093403,-1.5633024,2.435889,-0.13132454,0.3358909,-0.41252446,0.057348035,0.04470468,-0.10051986,-0.3256114,0.3256114,-9.749189,0.98135734,47.7254,-1.0792856,-1.9374783,-3.8423905,-0.34056213,0.1086496,-0.1023601,27.6875,28.9375,28.125,32.3125,34.375,35.3125
0.39505252,-1.8625616,-1.6181111,-0.9480967,-0.076992825,0.08722296,-0.14062211,-0.41867766,-0.3550118,0.059957534,3.0667052,-0.6373933,0.00037530262,-0.18666321,-0.029220242,-0.0004642473,-0.049922086,0.0021216832,-0.030287324,0.45136845,-1.3578951,1.8763498,-2.0933197,-1.5632061,2.4357092,-0.1313876,0.33638668,-0.41627374,0.05680063,0.04377408,-0.1007271,-0.22984336,0.30645782,-9.768343,1.0126908,47.70211,-1.130153,-1.9558792,-3.7937884,-0.36478382,0.11846171,-0.06912391,27.6875,28.9375,28.125,32.3125,34.375,35.3125
0.3975524,-1.6636224,-2.2395108,-0.739349,-0.061851118,0.085792616,-0.13402615,-0.4190573,-0.3550878,0.059980214,3.0665793,-0.63738626,0.0003066347,-0.19069289,-0.030018961,0.0027318632,-0.053716436,0.01080976,-0.03319339,0.45114008,-1.3572487,1.8754996,-2.0932252,-1.5631346,2.4354937,-0.13295959,0.3351128,-0.4214785,0.053814705,0.043391217,-0.09938859,-0.21068975,0.30645782,-9.710882,0.90527004,47.7451,-1.1062227,-1.7578058,-3.6890936,-0.34277338,0.09140307,-0.04041163,27.6875,28.9375,28.125,32.3125,34.375,35.3125
0.40005225,-0.32022148,0.035129044,-1.0477387,0.003937547,0.06920635,-0.1422381,-0.4198423,-0.35521784,0.059997287,3.0662725,-0.63759434,0.00021194934,-0.19492924,-0.030127538,0.0019137381,-0.05306068,0.017012957,-0.041066986,0.4506116,-1.3559039,1.8738106,-2.0930836,-1.5629677,2.435137,-0.13388275,0.34101415,-0.42550707,0.04664152,0.040070493,-0.0924422,-0.36391866,0.47884035,-9.615114,0.91421866,47.71465,-1.0014734,-1.7544925,-3.5541036,-0.2477224,0.12375276,-0.075176485,27.6875,28.9375,28.125,32.3125,34.375,35.3125
0.40255213,-0.58527875,0.13169628,-1.0849239,-0.005409657,0.061465584,-0.14418131,-0.42023858,-0.3552805,0.060007542,3.0661297,-0.63767964,0.00014703866,-0.19592872,-0.030279834,0.0007695518,-0.051963177,0.017263502,-0.044967096,0.45034802,-1.3552313,1.8729614,-2.093013,-1.5628961,2.4349463,-0.1335924,0.3446665,-0.4271178,0.044840533,0.038960516,-0.0882517,-0.15322891,0.51714754,-9.672575,1.0977321,47.71465,-1.2197312,-1.9379301,-3.6981378,-0.23083356,0.13511142,-0.11986094,27.6875,28.9375,28.125,32.3125,34.375,35.3125
0.405052,-1.163671,-0.92815304,-0.8371881,-0.024581265,0.062196456,-0.13789172,-0.42064857,-0.3553268,0.060031235,3.0659978,-0.6378052,5.9266935e-05,-0.19637454,-0.03044272,-0.00034142562,-0.049957104,0.016639354,-0.04755436,0.45006052,-1.3545707,1.8720874,-2.0929053,-1.5628484,2.4347553,-0.13255906,0.3481191,-0.42893052,0.04462799,0.03741956,-0.084633335,-0.26815057,0.4405331,-9.557653,0.99702406,47.737934,-1.1735315,-1.8953929,-3.789173,-0.20104742,0.15539077,-0.15954727,27.6875,28.9375,28.125,32.3125,34.375,35.3125
0.40755188,-2.2604744,-1.7994711,-0.5199576,-0.050256297,0.05922485,-0.12344823,-0.42104992,-0.35537678,0.060041126,3.0658648,-0.6379506,3.8555536e-05,-0.19792594,-0.03027255,-3.30375e-05,-0.049036987,0.017904097,-0.049504224,0.4497722,-1.3538866,1.8712128,-2.0927851,-1.5627769,2.434576,-0.13309258,0.3499699,-0.43225056,0.04536915,0.03604328,-0.08321996,-0.4405331,0.4405331,-9.442732,0.9545008,47.71823,-1.1694283,-2.0330722,-3.7816286,-0.17341319,0.1703876,-0.1763946,27.6875,28.9375,28.125,32.3125,34.375,35.3125
0.41005188,-1.0218347,-1.216525,-0.60354,-0.03531197,0.053475846,-0.1304332,-0.42184094,-0.35551634,0.06004103,3.06558,-0.63823545,-7.168803e-05,-0.20091294,-0.03054957,0.0007623752,-0.04900165,0.02099327,-0.053432435,0.4492801,-1.3524821,1.8694886,-2.092653,-1.5626458,2.434301,-0.13388248,0.35313725,-0.43836325,0.045555834,0.034670763,-0.080080144,-0.038307227,0.36391866,-9.442732,0.9768804,47.734352,-1.2892082,-1.8843272,-3.5852516,-0.122262016,0.19970518,-0.2592802,27.6875,28.9375,28.125,32.3125,34.375,35.3125
0.41255182,-0.47089338,-0.42518675,-0.20294331,-0.042781092,0.026413267,-0.13021597,-0.4222558,-0.35556227,0.060047515,3.0654159,-0.6384341,-9.916175e-05,-0.20313948,-0.0302886,0.0018863906,-0.05004298,0.024141112,-0.057158682,0.44896722,-1.3517874,1.8686136,-2.0925581,-1.5625614,2.4341345,-0.13567519,0.3533978,-0.44129762,0.04494534,0.034241654,-0.07814529,-0.24899697,0.40222588,-9.212888,0.9835985,47.70032,-1.0696278,-1.8824859,-3.8061106,-0.10280074,0.23200825,-0.25443998,27.6875,28.9375,28.125,32.3125,34.375,35.3125
0.41505164,0.37178564,0.079648376,-0.1629261,-0.01944339,0.017960072,-0.14107965,-0.42268032,-0.35564077,0.060080655,3.0652168,-0.6385275,-0.00024146496,-0.20645842,-0.028947724,0.0022579203,-0.050625663,0.02579302,-0.063575335,0.44870204,-1.3511149,1.8677157,-2.0925105,-1.5624775,2.433955,-0.14032598,0.35572362,-0.44509295,0.04467552,0.034054767,-0.07637324,-0.24899697,0.34476504,-9.174581,0.947788,47.682407,-1.1612706,-1.8347247,-3.652366,-0.058682036,0.24373168,-0.32592648,27.6875,28.9375,28.125,32.3125,34.375,35.3125
0.4175526,0.025867714,0.40742815,-0.23659955,0.008278919,-0.0038421906,-0.13553482,-0.42307353,-0.35570344,0.06005581,3.065121,-0.6387176,-0.00019807804,-0.20671594,-0.030190116,0.0032683033,-0.05106909,0.026103124,-0.062351856,0.44845045,-1.3503479,1.8668169,-2.0923889,-1.5624174,2.4338353,-0.13842846,0.35639563,-0.4490922,0.047537785,0.03432539,-0.075696796,-0.019153614,0.40222588,-9.232041,0.9679317,47.707485,-1.1468073,-1.7455392,-3.465466,-0.0518014,0.2535356,-0.365973,27.6875,28.9375,28.125,32.3125,34.375,35.3125
0.42005256,-0.38141793,-0.19983293,0.17379525,-0.00663094,0.03911706,-0.14751016,-0.4239526,-0.35582483,0.060110133,3.0647738,-0.63906425,-0.00046703845,-0.20902064,-0.03035474,0.003483741,-0.0527295,0.026150566,-0.063758306,0.4478738,-1.3489441,1.8649606,-2.092233,-1.5623091,2.433523,-0.14053062,0.35966834,-0.45422855,0.048668187,0.03584607,-0.07637335,-0.26815057,0.30645782,-8.963891,0.9947882,47.72271,-1.0950432,-1.7262921,-3.5948052,0.017789332,0.2836417,-0.44082087,27.6875,28.9375,28.125,32.3125,34.375,35.3125
0.42255244,-0.8182406,-0.32640475,0.04250003,0.006112874,0.03630695,-0.13426307,-0.42435503,-0.35587543,0.06011466,3.0646157,-0.6392783,-0.00044573305,-0.20829688,-0.030042037,0.0011718695,-0.0506467,0.020490656,-0.061482172,0.44757378,-1.3482457,1.8640751,-2.0921009,-1.5622128,2.4333782,-0.14063725,0.36416712,-0.4552738,0.051254924,0.036456145,-0.078750685,-0.15322891,0.3256114,-9.11712,1.0731167,47.690468,-1.063147,-1.7896781,-3.5047858,0.0091420775,0.2829464,-0.44820854,27.6875,28.9375,28.125,32.3125,34.375,35.3125
0.42505214,-0.85752,-0.5505891,0.43664652,-0.0087133255,0.05168942,-0.123894714,-0.42473048,-0.35596406,0.06010028,3.0644755,-0.6393411,-0.0003903519,-0.20814908,-0.02948079,0.0005535076,-0.049858738,0.016385676,-0.058766,0.44734535,-1.3475153,1.863201,-2.0920036,-1.5620927,2.4332082,-0.14195463,0.36601174,-0.45733666,0.055563945,0.0375678,-0.08277657,-0.19153613,0.28730422,-8.944737,0.9455522,47.711964,-1.0191826,-1.8657973,-3.6315055,-0.0028738878,0.30038363,-0.42840698,27.6875,28.9375,28.125,32.3125,34.375,35.3125
0.427552,-0.33527038,0.20419201,0.40775445,-0.009579672,0.0493941,-0.14365119,-0.42516991,-0.35601184,0.060101412,3.0643215,-0.6395552,-0.00045397054,-0.21017936,-0.030116279,0.0012733642,-0.05121558,0.0183595,-0.05478384,0.44703326,-1.3467711,1.8622774,-2.0919197,-1.5620326,2.433051,-0.14256538,0.36812308,-0.4617626,0.05556767,0.037979804,-0.08736282,-0.076614454,0.19153613,-8.887277,1.0216395,47.6636,-1.0034974,-1.9271595,-3.454059,-0.0032505353,0.3015617,-0.4000954,27.6875,28.9375,28.125,32.3125,34.375,35.3125
0.4300519,-0.33936813,-0.056865223,0.7701942,-0.0037662499,0.042268194,-0.14150792,-0.42600644,-0.35614318,0.060091022,3.0641007,-0.63971305,-0.0005186856,-0.2143583,-0.030386204,0.0037237925,-0.05372175,0.023003308,-0.04675821,0.4465042,-1.3452598,1.8604211,-2.0917156,-1.561912,2.4326513,-0.1452999,0.36966765,-0.4700229,0.057137858,0.038330425,-0.0981149,-0.4405331,0.34476504,-8.599973,0.9455522,47.679718,-0.9353876,-1.7356765,-3.3443637,0.07312659,0.32194215,-0.270162,27.6875,28.9375,28.125,32.3125,34.375,35.3125
0.43255192,-0.91901326,0.40862644,0.5371497,0.015550918,0.027097117,-0.1346832,-0.42646554,-0.3562036,0.060108706,3.0638971,-0.6399114,-0.0005634898,-0.21289296,-0.03198871,0.0039435294,-0.05509553,0.020555306,-0.036980793,0.44616947,-1.3445048,1.8594402,-2.0916069,-1.5618032,2.4324684,-0.14263645,0.3697921,-0.47162977,0.06031459,0.04070803,-0.10521128,-0.30645782,0.34476504,-8.676587,1.0462601,47.67614,-1.135274,-1.648965,-3.3773232,0.0482063,0.31756765,-0.21236125,27.6875,28.9375,28.125,32.3125,34.375,35.3125
0.4350518,-0.44587025,0.6511002,0.15713935,0.024777155,0.04619943,-0.13432834,-0.42686146,-0.35627794,0.0601054,3.0637908,-0.63994855,-0.00051285373,-0.21103393,-0.030481108,0.00095882785,-0.052218225,0.012520152,-0.03836892,0.44591677,-1.3437605,1.858508,-2.09145,-1.5617069,2.4322536,-0.14401177,0.37282303,-0.46961886,0.063780285,0.041603778,-0.10519296,-0.47884032,0.36391866,-8.848969,1.0305934,47.668976,-0.97959316,-1.7085273,-3.5402749,0.024845822,0.3130902,-0.16971897,27.6875,28.9375,28.125,32.3125,34.375,35.3125
0.43755174,-1.2012618,-0.3007793,0.3527236,0.0025280288,0.057219625,-0.1299691,-0.42728612,-0.35628977,0.06007682,3.0637493,-0.6401297,-0.00046125092,-0.21083276,-0.029573651,-5.942232e-05,-0.049337838,0.008525445,-0.038028177,0.44558075,-1.3429803,1.8575853,-2.0912812,-1.5616835,2.4320366,-0.14463517,0.37537962,-0.47171924,0.06819877,0.040747568,-0.106163025,-0.3256114,0.21068975,-8.868123,0.9925471,47.682407,-1.0610324,-1.7240257,-3.7139313,0.009351878,0.3100536,-0.124697074,27.6875,28.9375,28.125,32.3125,34.375,35.3125
0.4400527,-1.318923,-0.05967016,0.3189051,-0.009821902,0.050892536,-0.12661211,-0.4281272,-0.3564312,0.060068134,3.0635364,-0.64026034,-0.0003998034,-0.21070299,-0.02898685,-0.0023219776,-0.046262942,-0.0002454735,-0.043405194,0.4450402,-1.3414193,1.8556346,-2.0909665,-1.5615152,2.4316072,-0.14571112,0.38217714,-0.47724298,0.07616188,0.041746054,-0.10185156,-0.6512228,0.34476504,-9.002198,1.005978,47.666286,-1.0404158,-2.0193913,-3.6741962,-0.07280053,0.33801913,-0.116599634,27.6875,28.9375,28.125,32.3125,34.375,35.3125
0.44255164,-1.1135098,-0.47537252,0.051002953,-0.017229613,0.057886317,-0.13554825,-0.42853165,-0.3564831,0.060034182,3.0634298,-0.64037126,-0.00025540675,-0.20999052,-0.031612527,-0.0015406038,-0.047330532,-0.0021906903,-0.044504717,0.44472983,-1.3406271,1.8547109,-2.090809,-1.5613941,2.4313807,-0.14161192,0.38416138,-0.4827961,0.08099743,0.04351075,-0.09664187,-0.4022259,0.2681506,-9.136273,1.0104496,47.678825,-1.3380635,-1.9628317,-3.4717984,-0.1549024,0.33692938,-0.14377351,27.6875,28.9375,28.125,32.3125,34.375,35.3125
0.44505256,-0.58414286,-0.8529086,-0.2170804,-0.00043788622,0.047431357,-0.13511233,-0.42898965,-0.3565404,0.060045145,3.063289,-0.6405739,-0.00032852226,-0.2110091,-0.031688556,-0.0019381008,-0.04736877,-0.0027038287,-0.050770286,0.44442987,-1.3398461,1.8537048,-2.0906775,-1.5613459,2.431227,-0.14221711,0.3866991,-0.4853591,0.08143306,0.043733425,-0.09097526,-0.11492168,0.24899697,-9.212888,0.9858343,47.71017,-1.2492759,-2.207672,-3.426922,-0.19624582,0.34173357,-0.20247708,27.6875,28.9375,28.125,32.3125,34.375,35.3125
0.44755232,-0.42079723,-0.3003602,-0.08879923,-0.02217317,0.035258535,-0.12765542,-0.42939547,-0.35659495,0.06001084,3.063216,-0.64075315,-0.00021491747,-0.21017869,-0.030175386,-0.003235737,-0.044431645,-0.0069132145,-0.054942694,0.44415334,-1.3390318,1.8527483,-2.0904968,-1.5612744,2.4310725,-0.14336722,0.3877531,-0.48480445,0.08488068,0.042878237,-0.08796036,-0.40222588,0.38307226,-9.270349,1.0149267,47.685097,-1.3391953,-2.008951,-3.603422,-0.25704512,0.34839225,-0.2563185,27.6875,28.9375,28.125,32.3125,34.375,35.3125
0.45005223,0.29755336,-0.19431041,-0.60089517,-0.011951447,0.016010303,-0.13795221,-0.4302673,-0.35674,0.060006656,3.0629258,-0.6410577,-0.0001404311,-0.21351688,-0.030335125,-0.0026851916,-0.048118796,-0.004660414,-0.05978331,0.44357637,-1.337435,1.8507365,-2.0901744,-1.5610694,2.4307258,-0.14674707,0.39057064,-0.48966292,0.08332446,0.045231506,-0.08648087,0.26815057,0.22984336,-9.346964,1.048496,47.682407,-1.2009097,-2.0127695,-3.7474694,-0.29143423,0.33573353,-0.30809456,27.6875,28.9375,28.125,32.3125,34.375,35.3125
0.45255223,0.8308718,0.030098375,-0.5195843,-0.011107319,0.008396493,-0.12629744,-0.43068093,-0.35677487,0.059979018,3.0628543,-0.6412331,-8.6283704e-05,-0.21663412,-0.03191183,-0.0014710561,-0.051751543,-0.00061467313,-0.060432255,0.4432761,-1.3366557,1.8498119,-2.09002,-1.5610212,2.430545,-0.147311,0.39341456,-0.49566877,0.08128491,0.046763193,-0.08638536,0.05746084,0.21068975,-9.32781,1.0126908,47.71823,-1.1451566,-2.09518,-3.5442214,-0.30182177,0.3386604,-0.3209505,27.6875,28.9375,28.125,32.3125,34.375,35.3125
0.45505214,0.7432166,-0.09522168,-0.5269126,-0.013475229,0.008515683,-0.130754,-0.4311179,-0.35685948,0.059962645,3.0626733,-0.6414251,3.482401e-05,-0.21829563,-0.032571934,-0.0022848498,-0.054252494,0.00044946987,-0.062902026,0.44297573,-1.3358155,1.8487848,-2.089853,-1.5608648,2.4303894,-0.14838064,0.39669475,-0.49727458,0.077584215,0.0485518,-0.08497316,0.05746084,0.30645782,-9.3661175,0.91421866,47.695843,-1.1204996,-2.2286854,-3.5504875,-0.2826475,0.32063472,-0.35018948,27.6875,28.9375,28.125,32.3125,34.375,35.3125
0.45755208,0.8194331,-0.039049692,-0.96567154,-0.015034706,0.019163502,-0.139379,-0.43155205,-0.35689217,0.059951864,3.06259,-0.64163816,5.1237163e-05,-0.21984798,-0.03292308,-0.003426984,-0.056142557,0.0006682897,-0.065211855,0.44266328,-1.335035,1.847814,-2.0896752,-1.5608281,2.4302218,-0.14976664,0.4003792,-0.49873152,0.07435259,0.050156403,-0.08403857,0.19153614,0.3256114,-9.442732,0.94331104,47.72719,-1.090623,-2.3675063,-3.5756497,-0.278073,0.28759074,-0.3863632,27.6875,28.9375,28.125,32.3125,34.375,35.3125
0.46005195,-0.46638796,-1.6379279,-1.052568,-0.08725238,0.044759788,-0.13265929,-0.4324212,-0.35701063,0.059923127,3.0622995,-0.6420142,0.0002482066,-0.22058393,-0.03390107,-0.005007291,-0.059915856,0.00020820936,-0.06082627,0.442027,-1.3334154,1.845816,-2.0893176,-1.5605868,2.4298604,-0.15044835,0.40369588,-0.49877775,0.06997462,0.05380866,-0.08908406,0.076614454,0.5746084,-9.825804,1.0104496,47.719128,-0.93338245,-2.234479,-3.8858705,-0.21708563,0.25610563,-0.35988054,27.6875,28.9375,28.125,32.3125,34.375,35.3125
0.4625521,-0.86406326,-2.2274415,-1.4428793,-0.1002722,0.0498707,-0.12715195,-0.43286085,-0.35707927,0.059902303,3.062199,-0.6420675,0.00025547555,-0.22376339,-0.033583883,-0.0026857883,-0.063493505,0.005745695,-0.059992485,0.4417498,-1.3325886,1.8448232,-2.0891984,-1.5605143,2.4296305,-0.15380244,0.40205324,-0.50189185,0.068257265,0.054707512,-0.093264416,-0.05746084,0.63206923,-9.940725,1.0126908,47.705692,-0.85718906,-2.4018111,-3.9306962,-0.19309154,0.22737348,-0.34843326,27.6875,28.9375,28.125,32.3125,34.375,35.3125
0.4650523,-1.4077787,-2.7527976,-1.5513277,-0.09452881,0.053583972,-0.11880122,-0.43331468,-0.35713637,0.059885655,3.0620322,-0.6422773,0.00031955217,-0.22647992,-0.035378117,-3.146279e-05,-0.0684994,0.011641185,-0.054662593,0.4414141,-1.3317617,1.8438152,-2.0890548,-1.5603937,2.4294488,-0.15394449,0.40148303,-0.50707394,0.06661971,0.056755558,-0.09872151,-0.05746084,0.6512228,-10.0748005,0.9567419,47.71465,-0.9110708,-2.0431287,-3.7926643,-0.15248692,0.21003917,-0.28724104,27.6875,28.9375,28.125,32.3125,34.375,35.3125
