Tylouw/Master_Thesis_Code/test_recorded_data/real_test10/sample_9_session_2.csv
timestamp[s],tcp_force_x[N],tcp_force_y[N],tcp_force_z[N],tcp_force_rx[Nm?],tcp_force_ry[Nm?],tcp_force_rz[Nm?],tcp_pose_x[m],tcp_pose_y[m],tcp_pose_z[m],tcp_pose_rx[rot_vec_x],tcp_pose_ry[rot_vec_y],tcp_pose_rz[rot_vec_z],tcp_velo_x[m/s],tcp_velo_y[m/s],tcp_velo_z[m/s],tcp_velo_rx[rot_vec_x/s],tcp_velo_ry[rot_vec_y/s],tcp_velo_rz[rot_vec_z/s],q1[rad],q2[rad],q3[rad],q4[rad],q5[rad],q6[rad],qd1[rad/s],qd2[rad/s],qd3[rad/s],qd4[rad/s],qd5[rad/s],qd6[rad/s],tool_acc_x,tool_acc_y,tool_acc_z,current_of_whole_robot[A],voltage_of_whole_robot[V],current_J1[A],current_J2[A],current_J3[A],current_J4[A],current_J5[A],current_J6[A],temp_J1[C],temp_J2[C],temp_J3[C],temp_J4[C],temp_J5[C],temp_J6[C]
7.7800087e-07,-0.4820677,-0.0009815363,1.0995388,0.004607992,-0.01124107,-0.020578291,-0.3815467,-0.3495497,0.05994498,-3.078511,0.62489337,-0.0001705638,-0.00070108153,-0.00039171538,-0.0005183506,-0.0008935508,0.0013919271,7.244666e-05,0.479166,-1.4235259,1.9549397,-2.1004632,-1.5707697,2.4541326,-4.9282797e-05,0.0014502173,0.0003017839,-0.0033996836,0.00014396753,-0.000121235535,0.19153613,-0.019153614,-8.676587,0.7463667,47.71465,-0.13209686,-3.213935,-2.1743534,-0.46995968,0.16254063,-0.21072337,27.4375,28.625,27.9375,31.8125,33.875,34.75
0.002552715,0.24418968,0.8037659,1.3067578,-0.004823523,0.0042389696,-0.03595688,-0.38151485,-0.34953544,0.059914377,-3.0784621,0.6249033,-0.00022958331,-0.0013848502,-0.0007482713,-0.0017649732,-0.0027580438,0.0049612056,7.064655e-05,0.47917792,-1.4235256,1.9550127,-2.1004784,-1.5707816,2.4541569,-4.8399364e-05,0.002398401,0.004052673,-0.012125672,0.00014079273,-0.00011857339,0.1340753,0.038307227,-8.695741,0.75084364,47.694946,-0.097856045,-2.9966295,-2.2822704,-0.42086166,0.17583925,-0.21127275,27.4375,28.625,27.9375,31.8125,33.875,34.75
0.005052476,0.060030367,0.82797956,1.4182436,0.007565748,-0.009219914,-0.033936445,-0.38151407,-0.34956643,0.05992718,-3.0785232,0.6247999,-0.00018371438,-0.0011948114,-0.0006483308,-0.0018747747,-0.002549941,0.004569291,6.8766756e-05,0.47922584,-1.4235257,1.9549888,-2.1005018,-1.5707697,2.4541326,-4.754707e-05,0.0023282245,0.0043299734,-0.011889068,0.00013771758,-0.00011602545,0.1340753,-0.038307227,-8.714894,0.7083204,47.71465,-0.06844407,-3.3941858,-2.6230578,-0.35126787,0.162061,-0.21374375,27.4375,28.625,27.9375,31.8125,33.875,34.75
0.007552642,0.31763032,1.3559891,1.1825069,0.023318619,-0.0255356,-0.029929962,-0.38153097,-0.3495528,0.0599225,-3.078513,0.62489444,-0.00019760386,-0.00079709204,-0.0005031801,-0.0012154632,-0.0017625865,0.003073532,0.00017950418,0.47917798,-1.4235139,1.9549884,-2.1005118,-1.5707573,2.454145,6.574738e-05,0.0015783472,0.002769614,-0.007888497,0.00013477157,-0.00011358486,0.17238252,0.038307227,-8.599973,0.7239871,47.71017,-0.07322659,-3.2654579,-2.460275,-0.3655094,0.16665395,-0.2117552,27.4375,28.625,27.9375,31.8125,33.875,34.75
0.010052592,0.010876029,1.200201,0.24437384,0.053634822,-0.044142183,-0.03185484,-0.38153663,-0.34954414,0.0599218,-3.0785162,0.62493306,-0.00023584349,-0.00063359056,-0.00038983175,7.734181e-05,-0.0010905984,0.0017671688,0.00011752436,0.47914195,-1.4235144,1.9549874,-2.1004984,-1.5707334,2.4541326,8.266566e-06,0.0003216127,6.5263526e-07,-0.0023937777,0.00014754331,-0.00010899941,0.076614454,-0.019153614,-8.944737,0.784413,47.71823,-0.43149877,-2.5896568,-2.990049,-0.42755878,0.17120829,-0.2549787,27.4375,28.625,27.9375,31.8125,33.875,34.75
0.01255186,-0.55245954,-0.11311382,0.091152914,0.009351532,-0.018295025,-0.022312403,-0.3814926,-0.34952822,0.059881613,-3.078414,0.6248744,-0.00036201475,-0.0013806423,-0.0007775805,-0.0019224072,0.0009133773,-0.0020957482,0.00016243629,0.47917795,-1.4234763,1.9550222,-2.1004384,-1.5707697,2.454145,1.1090652e-07,0.007264468,-0.0035846417,-0.0013995663,0.00014472498,-0.0001593777,0.1340753,0.05746084,-9.251195,0.7486078,47.723602,-0.48078045,-2.5703027,-3.0420108,-0.44651878,0.16345769,-0.29707932,27.4375,28.625,27.9375,31.8125,33.875,34.75
0.015051917,-1.1449025,-1.0133995,-0.017190143,-0.044678334,0.0150707215,-0.028351838,-0.3815021,-0.3495389,0.05987267,-3.07841,0.6248539,-0.00037816857,-0.0052326955,0.00018500972,-0.0033933762,0.0020386602,-0.004278929,-0.00077827385,0.47918805,-1.4234251,1.9549841,-2.1004384,-1.5707697,2.4541428,-0.0052768406,0.015542054,-0.009756298,-0.0010500936,0.00013837678,-0.0044912742,-0.038307227,0.19153613,-9.461885,0.7620334,47.691364,-0.3883145,-3.1842327,-2.9439354,-0.45693773,0.17493196,-0.28250888,27.4375,28.625,27.9375,31.8125,33.875,34.75
0.01755202,-1.8567581,-2.0736206,-0.26403326,-0.068813466,0.039624635,-0.0404052,-0.38150558,-0.3495333,0.059857544,-3.078424,0.62485516,-0.00044155878,-0.0065274,0.00060404645,-0.0017933534,0.00062483514,-0.0016398056,0.0026056059,0.47915143,-1.4234022,1.954995,-2.1004498,-1.5707334,2.4541051,-0.0072391564,0.013256527,-0.010902037,-0.00061320426,0.00017205831,-0.009837415,-0.2873042,0.34476507,-9.519346,0.7486078,47.70032,-0.30244225,-2.88339,-3.0399985,-0.46112496,0.19110247,-0.25595254,27.4375,28.625,27.9375,31.8125,33.875,34.75
0.020051718,-2.200806,-1.8805184,-0.57952267,-0.06876088,0.064859845,-0.056363497,-0.38151184,-0.3495235,0.05984669,-3.0783958,0.6248475,-0.0005001672,-0.0074635986,-0.00088056375,-0.0012395852,-0.0012271646,-0.001779218,0.0068974597,0.47912765,-1.4233655,1.9549698,-2.100414,-1.5707325,2.45408,-0.0065786373,0.015628662,-0.01513276,0.00050867256,0.0018709108,-0.013469855,-0.47884035,0.5554548,-9.80665,0.6859408,47.683304,-0.57842505,-2.5805368,-3.241354,-0.46910006,0.18416047,-0.23071334,27.4375,28.625,27.9375,31.8125,33.875,34.75
0.02255227,-1.6933788,-1.4965068,-0.7543537,-0.063948914,0.069831476,-0.076416366,-0.3815213,-0.34954208,0.059843272,-3.078407,0.62479216,-0.0005017763,-0.007842804,-0.0013661297,-0.0021008546,-0.0025071388,-0.0041671656,0.0069862944,0.47915137,-1.4233164,1.9549216,-2.100414,-1.570732,2.454068,-0.007519711,0.018575588,-0.016523581,0.00047319508,0.004104073,-0.014503027,-0.51714754,0.5554548,-9.825804,0.71279734,47.71823,-0.6493598,-2.6584253,-3.2016447,-0.4868289,0.18657215,-0.23873994,27.4375,28.625,27.9375,31.8125,33.875,34.75
0.02505242,-1.963482,-1.6748266,-0.72862244,-0.059213035,0.055377636,-0.08250219,-0.381529,-0.3495588,0.059835386,-3.0784385,0.62474126,-0.00055094017,-0.009303686,-0.0012657522,-0.0015761465,-0.0031681615,-0.0029813673,0.0059351693,0.47915068,-1.4232681,1.9548844,-2.100414,-1.5706962,2.4540315,-0.00907398,0.019389134,-0.01864056,0.00041996187,0.0041388627,-0.01500509,-0.49799395,0.59376204,-9.921572,0.7150385,47.74241,-0.6181691,-2.6328092,-3.2268424,-0.49074802,0.1611757,-0.24169034,27.4375,28.625,27.9375,31.8125,33.875,34.75
0.027552407,-1.780483,-1.3714122,-0.58113235,-0.07359558,0.057638973,-0.09725032,-0.38156053,-0.3495368,0.059842452,-3.0784104,0.62483275,-0.00053978205,-0.010754868,-0.000992173,-0.0011881847,-0.0030339179,-0.0017274008,0.0044243555,0.4790902,-1.4232557,1.9548486,-2.1003902,-1.5707082,2.4540317,-0.010447612,0.020416712,-0.020696422,0.00039997927,0.0034372052,-0.0148653155,-0.53630114,0.5554548,-9.940725,0.8023209,47.692257,-0.6142919,-2.6947985,-3.251701,-0.49538648,0.17734279,-0.2640878,27.4375,28.625,27.9375,31.8125,33.875,34.75
0.030052537,-1.4692417,-0.5792297,-0.47072402,-0.053675275,0.06389055,-0.13343811,-0.38162327,-0.34955367,0.0598499,-3.078449,0.6247055,-0.00045639626,-0.0136216525,-0.0010241152,-0.00028502088,-0.004170913,0.0004708391,0.0035293195,0.47907737,-1.4231589,1.9547266,-2.100414,-1.570732,2.4539347,-0.01303686,0.022651415,-0.02528801,0.00028151274,0.0034226598,-0.016556662,-0.5363012,0.38307226,-9.844957,0.7553206,47.74331,-0.693147,-2.5939016,-3.2296367,-0.47852814,0.19093414,-0.27167994,27.4375,28.625,27.9375,31.8125,33.875,34.75
0.032552097,-1.4879881,-0.1334697,-0.44484478,-0.027032575,0.050773796,-0.1456696,-0.38163322,-0.3495559,0.059825454,-3.0784264,0.6247783,-0.0005919598,-0.014800619,-0.0017004912,0.0005141437,-0.0068397056,0.0012477469,0.0030313176,0.47904083,-1.4230747,1.9546779,-2.1003778,-1.5706838,2.4539464,-0.014228597,0.02312762,-0.027652066,0.00024335488,0.005426297,-0.017253429,-0.38307226,0.13407528,-9.883265,0.7172743,47.675243,-0.74424446,-2.435399,-3.1815367,-0.4774338,0.1743787,-0.272172,27.4375,28.625,27.9375,31.8125,33.875,34.75
0.03505225,-1.3524646,0.084432125,-0.39684886,0.0044117477,0.030959912,-0.15691362,-0.381691,-0.3495613,0.059825324,-3.0784595,0.6248626,-0.0005599779,-0.015954787,-0.002412958,0.00062094454,-0.009308663,0.0007157105,0.00173858,0.47898045,-1.4230019,1.9546059,-2.1004255,-1.5706586,2.4539344,-0.015609658,0.025157273,-0.030175954,6.378006e-05,0.007857802,-0.017344678,-0.4405331,0.0,-9.80665,0.7351769,47.667187,-0.6862728,-2.6133933,-3.1620274,-0.49168563,0.15954053,-0.25323403,27.4375,28.625,27.9375,31.8125,33.875,34.75
0.037552252,-1.1154999,0.30619133,-0.42023695,0.033292808,0.023418846,-0.16003107,-0.38172063,-0.34958106,0.059844702,-3.0785167,0.62477934,-0.00051355205,-0.0171421,-0.0027742127,0.00090176443,-0.00993796,0.0014199265,0.00069374713,0.47898027,-1.4229772,1.9545335,-2.1004255,-1.5706466,2.453875,-0.016217705,0.026754575,-0.032629248,4.1643825e-06,0.008087334,-0.016906468,-0.34476504,-0.05746084,-9.672575,0.82694155,47.674347,-0.66376996,-2.5857017,-3.0283778,-0.4815242,0.12138855,-0.25783688,27.4375,28.625,27.9375,31.8125,33.875,34.75
0.04005226,-0.80361766,0.5619834,-0.29245707,0.044427317,0.028296193,-0.1787277,-0.38177842,-0.34957886,0.05981653,-3.0785098,0.6247976,-0.0005787165,-0.019535743,-0.0029663478,0.0017950769,-0.010296806,0.0038578357,-0.00022808701,0.47890767,-1.4228325,1.9544352,-2.1004379,-1.5706233,2.4538147,-0.017562749,0.028695064,-0.036890652,1.7753415e-08,0.0072728414,-0.017325934,-0.13407528,-0.05746084,-9.576807,0.7732232,47.693153,-0.69421005,-2.5515752,-3.0313928,-0.4669844,0.13675566,-0.26285574,27.4375,28.625,27.9375,31.8125,33.875,34.75
0.042551596,-0.94641966,0.03762005,-0.22729877,0.037900183,0.028346814,-0.1602501,-0.3818341,-0.3495809,0.05983708,-3.078536,0.62478346,-0.00053599704,-0.020128332,-0.0029087164,0.0010831696,-0.009887604,0.0026426623,-0.00017215019,0.47885942,-1.4227835,1.954327,-2.100414,-1.5706228,2.4537544,-0.01833787,0.03121301,-0.038141903,1.1591711e-09,0.007467517,-0.018156087,-0.05746084,-0.05746084,-9.615114,0.74413085,47.67166,-0.6313979,-2.5610595,-3.0431147,-0.4775536,0.13478313,-0.25997952,27.4375,28.625,27.9375,31.8125,33.875,34.75
0.045052316,-0.9608993,-0.37184656,-0.12833592,0.024453485,0.025917025,-0.15763567,-0.38188735,-0.3495922,0.059840113,-3.0785758,0.62488693,-0.0005398681,-0.021439584,-0.0029165659,0.0014333491,-0.009897177,0.003749588,0.0007438559,0.4787992,-1.422711,1.9542426,-2.1004379,-1.5705751,2.4537537,-0.019206299,0.03248732,-0.040399857,7.568559e-11,0.006961487,-0.019937977,-0.095768064,-0.095768064,-9.500193,0.8112748,47.73525,-0.70324075,-2.5556722,-3.0869455,-0.47646332,0.1336124,-0.2412686,27.4375,28.625,27.9375,31.8125,33.875,34.75
0.047552314,-0.8807611,0.040747162,-0.10297356,0.0015037392,0.02288381,-0.16238283,-0.381904,-0.34959167,0.059828814,-3.078563,0.624884,-0.00059533765,-0.022104189,-0.0026627036,0.0017930492,-0.009591579,0.0048289523,0.0014755158,0.47877505,-1.422651,1.9541944,-2.100414,-1.5705632,2.4537294,-0.01976968,0.032417506,-0.041143984,4.9417276e-12,0.0061902786,-0.02123143,-0.13407528,0.095768064,-9.557653,0.7172743,47.658226,-0.664974,-2.4862475,-3.1045947,-0.48285198,0.11835726,-0.2407955,27.4375,28.625,27.9375,31.8125,33.875,34.75
0.050052535,-1.3706608,-1.2309774,-0.31289357,0.0014991106,-0.0054942495,-0.14845368,-0.3820159,-0.349607,0.05984967,-3.0786104,0.6248551,-0.00045650674,-0.024143746,-0.002445073,0.0018942141,-0.009257893,0.0057060597,0.00029042302,0.47871432,-1.4225179,1.9540027,-2.1004498,-1.5705875,2.4536448,-0.021580288,0.035132322,-0.044481155,2.1067363e-14,0.0054851854,-0.021852989,-0.21068975,0.19153613,-9.500193,0.784413,47.691364,-0.6650214,-2.3941216,-3.1180012,-0.47617573,0.15126091,-0.23052882,27.4375,28.625,27.9375,31.8125,33.875,34.75
0.052552667,-0.4406363,-1.0372525,-0.31729043,-0.01743641,0.013291309,-0.14931725,-0.38205153,-0.3495851,0.059852764,-3.0785995,0.6248331,-0.0004874944,-0.024624402,-0.002677189,0.0019314908,-0.010138347,0.0054766163,0.00076606334,0.47864223,-1.4224815,1.9539431,-2.1004016,-1.570587,2.4535604,-0.022183726,0.035958137,-0.045511615,1.3755483e-15,0.0063698716,-0.022933202,-0.1340753,0.3256114,-9.595961,0.7933669,47.685097,-0.6937208,-2.4223728,-3.197175,-0.46669415,0.16735798,-0.2158841,27.4375,28.625,27.9375,31.8125,33.875,34.75
0.05505186,-0.5730625,-1.5883814,-0.44009253,-0.018241184,0.013690186,-0.15246399,-0.3821222,-0.34961703,0.05987879,-3.0786817,0.6248309,-0.00039200432,-0.025777858,-0.003157637,0.0027578326,-0.011429826,0.006996169,0.0011102717,0.47861797,-1.4224095,1.9538096,-2.1004379,-1.5705632,2.4535244,-0.022682749,0.03634316,-0.04784111,8.981347e-17,0.00681361,-0.023775375,-0.019153614,0.36391866,-9.595961,0.76874626,47.67166,-0.61725473,-2.3261433,-3.2005773,-0.46381387,0.15785307,-0.22225203,27.4375,28.625,27.9375,31.8125,33.875,34.75
0.05755192,-0.7286587,-1.6763747,-0.340289,-0.02963107,0.012186201,-0.14379376,-0.3822026,-0.34960508,0.059892774,-3.078653,0.6249396,-0.0003142085,-0.027296765,-0.0036260227,0.003275081,-0.01196871,0.008337838,0.0021983045,0.4785459,-1.4223248,1.953678,-2.1004255,-1.5705994,2.4535239,-0.023158584,0.038123302,-0.051060177,5.864178e-18,0.006668457,-0.02533688,-0.038307227,0.4405331,-9.519346,0.8157518,47.6636,-0.6344454,-2.282422,-3.162768,-0.45904088,0.15665756,-0.18959185,27.4375,28.625,27.9375,31.8125,33.875,34.75
0.060052074,-1.1680552,-1.7833157,-0.2688359,-0.032280512,0.0052237646,-0.14381069,-0.38227877,-0.34962633,0.059906855,-3.0787203,0.6248581,-0.0002807013,-0.028259952,-0.0034059314,0.0025833037,-0.012481849,0.0067161666,0.001904363,0.47849697,-1.4222157,1.9535211,-2.1004255,-1.5705746,2.4534156,-0.025212064,0.040757723,-0.052494682,2.4999909e-20,0.007869053,-0.027096989,-0.019153614,0.4213795,-9.423578,0.86945957,47.737934,-0.64167875,-2.2457724,-3.2983947,-0.45549762,0.15784386,-0.18857831,27.4375,28.625,27.9375,31.8125,33.875,34.75
0.06255217,-1.0135734,-1.4654796,-0.15947378,-0.026386052,-0.0031078034,-0.14566083,-0.38233036,-0.3496302,0.059905432,-3.07875,0.6249005,-0.00032852395,-0.029025305,-0.003857997,0.0023272017,-0.012799442,0.006275346,0.0032851195,0.47842494,-1.4221308,1.9534248,-2.100414,-1.5705265,2.4533663,-0.025426138,0.04310821,-0.0545998,1.6323152e-21,0.008349916,-0.028691212,-0.019153614,0.40222588,-9.519346,0.6926589,47.664497,-0.6440078,-2.1832895,-3.2812638,-0.44884026,0.16124023,-0.17355767,27.4375,28.625,27.9375,31.8125,33.875,34.75
0.06505216,-0.15283653,-0.80960584,0.108367436,-0.026381051,0.015276806,-0.15785417,-0.38241634,-0.34964752,0.059921008,3.078815,-0.62489414,0.00029101566,-0.03123062,-0.0046085278,0.0038490114,-0.014190262,0.009612839,0.0039258446,0.4783529,-1.4220225,1.9532679,-2.1004255,-1.5704907,2.453282,-0.025927447,0.043948703,-0.05904049,1.0657853e-22,0.008041122,-0.029829917,-0.05746084,0.4213795,-9.3661175,0.75084364,47.64927,-0.6516534,-2.2246804,-3.1251915,-0.44321588,0.15355,-0.1611399,27.4375,28.625,27.9375,31.8125,33.875,34.75
0.067552134,-0.30836853,-0.862879,0.16271253,-0.014627516,0.010065827,-0.15657502,-0.38248053,-0.3496385,0.05993028,-3.0787995,0.6249679,-0.00024025205,-0.030168345,-0.004062297,0.0021671865,-0.013061734,0.0061204424,0.004388737,0.4782927,-1.4219499,1.9531611,-2.100414,-1.5705141,2.45327,-0.026304428,0.04549221,-0.05696643,6.958816e-24,0.008652616,-0.030671375,-0.076614454,0.28730422,-9.232041,0.72622824,47.682407,-0.5922221,-2.1481562,-3.2847798,-0.45564646,0.14397573,-0.13193019,27.4375,28.625,27.9375,31.8125,33.875,34.75
0.07005259,-0.8977159,-0.89270854,0.15529206,-0.0035417567,0.0030553788,-0.14811921,-0.38264632,-0.34968564,0.059968337,3.0786653,-0.6249604,0.00012394837,-0.032818355,-0.0052287546,0.003425575,-0.015731884,0.008377542,0.003061219,0.47818437,-1.4217448,1.9528478,-2.1004498,-1.5704545,2.453174,-0.027531449,0.047956914,-0.062665835,2.9666523e-26,0.009977986,-0.030568352,-0.076614454,0.30645782,-9.251195,0.71951014,47.67345,-0.689168,-2.0346296,-3.2887254,-0.42798716,0.12789646,-0.15773696,27.4375,28.625,27.9375,31.8125,33.875,34.75
0.072552435,-1.3070903,-0.8020581,0.10859654,0.0049440255,-0.0028922097,-0.13691561,-0.38266653,-0.34970295,0.0599512,3.0787141,-0.6247958,0.00015543387,-0.033128414,-0.005178791,0.0027483255,-0.015805034,0.0069087036,0.0042290143,0.478196,-1.421648,1.9527763,-2.1004498,-1.570454,2.4530768,-0.028384613,0.049863655,-0.06330464,1.9370117e-27,0.010716537,-0.032590043,-0.19153613,0.22984336,-9.155427,0.7553206,47.67614,-0.64250904,-2.045663,-3.2758,-0.41249794,0.13483077,-0.13602309,27.4375,28.625,27.9375,31.8125,33.875,34.75
0.075052485,-0.9935561,-0.669711,0.19011645,0.019181365,0.008919774,-0.14196965,-0.3827401,-0.34970713,0.059958924,3.0786526,-0.6248027,0.0001331359,-0.034048982,-0.00536825,0.002803688,-0.016510328,0.0069232597,0.004180626,0.47811162,-1.4215636,1.9526676,-2.1004736,-1.5704173,2.4530046,-0.029291525,0.05130957,-0.06508796,1.2647304e-28,0.011334941,-0.03344783,-0.11492168,0.095768064,-9.193734,0.7732232,47.678825,-0.6280515,-2.0339277,-3.2923946,-0.41649932,0.12168735,-0.11621013,27.4375,28.625,27.9375,31.8125,33.875,34.75
0.07755278,-0.7236533,0.04337073,0.21564735,0.016919652,0.012672506,-0.14949006,-0.3828342,-0.3497466,0.059993673,3.078554,-0.62480193,6.46004e-05,-0.03472082,-0.0057624164,0.0029050526,-0.016655348,0.0073352065,0.0044878074,0.47806376,-1.421455,1.952464,-2.1004736,-1.5703696,2.4529688,-0.029166836,0.052666865,-0.066875316,8.257785e-30,0.0112741785,-0.033628076,-0.11492168,0.11492168,-9.193734,0.75084364,47.66539,-0.7272434,-2.001048,-3.2912903,-0.424882,0.12140363,-0.11983103,27.4375,28.625,27.9375,31.8125,33.875,34.75
0.080052026,-0.6096067,-0.18369317,0.12610371,0.014679049,0.029095698,-0.15117536,-0.38297397,-0.3497381,0.059979033,3.07858,-0.6247499,9.506698e-05,-0.036583737,-0.0064817453,0.0030786274,-0.01715354,0.008085765,0.004537883,0.47791958,-1.4212016,1.9521993,-2.1004379,-1.5703696,2.452789,-0.02965657,0.056118187,-0.07123689,1.6114194e-05,0.011363254,-0.034165613,-0.15322891,0.19153613,-9.212888,0.7418897,47.686886,-0.7529936,-1.9900795,-3.3360972,-0.3976416,0.11099427,-0.11001539,27.4375,28.625,27.9375,31.8125,33.875,34.75
0.082552314,-0.91534555,-0.4207186,-0.06593433,0.016490802,0.020966629,-0.14571975,-0.38304457,-0.3497805,0.06000365,3.0784779,-0.6247483,8.085981e-05,-0.037208404,-0.0057349033,0.0024125644,-0.016373416,0.0069425893,0.0029584575,0.4778829,-1.4211048,1.9520324,-2.1004379,-1.5702976,2.4527643,-0.031441037,0.057709504,-0.071566366,0.0001317105,0.011198802,-0.034369268,-0.21068975,0.076614454,-9.500193,0.82694155,47.68062,-0.75360537,-2.012282,-3.3994122,-0.37707382,0.11161283,-0.12298794,27.4375,28.625,27.9375,31.8125,33.875,34.75
0.085052416,-1.103799,-0.3112567,0.10439408,0.001370896,0.019228017,-0.1445676,-0.38308156,-0.34977987,0.05997897,3.0785148,-0.6247165,0.00014084033,-0.03703329,-0.0061799083,0.0019759785,-0.016446838,0.005959979,0.00426398,0.47784725,-1.4209843,1.951948,-2.1004255,-1.5702971,2.4527042,-0.030822191,0.05904431,-0.0721161,0.00018418477,0.01171372,-0.035056718,-0.24899697,0.095768064,-9.308657,0.8605109,47.681515,-0.74777997,-1.9214873,-3.5591662,-0.37747416,0.101433605,-0.13319091,27.4375,28.625,27.9375,31.8125,33.875,34.75
0.08755254,-1.6718069,-1.0283061,-0.051380035,0.010178442,0.010129053,-0.12970337,-0.3831752,-0.34978092,0.05999136,3.0785034,-0.6246569,9.644095e-05,-0.038939606,-0.0062538483,0.0024655575,-0.01644443,0.0062794383,0.0025429751,0.47776273,-1.4208634,1.9517788,-2.1004136,-1.5702971,2.452584,-0.03234091,0.06158086,-0.076499626,0.0017500785,0.011561186,-0.03485155,-0.28730422,0.17238252,-9.32781,0.78217715,47.677036,-0.8008973,-1.9381905,-3.444296,-0.39589036,0.10618121,-0.13686039,27.4375,28.625,27.9375,31.8125,33.875,34.75
0.09005246,-1.4898537,-0.8572113,-0.27364638,0.00086257607,0.032042947,-0.14697051,-0.38331926,-0.34980497,0.06000057,3.0784056,-0.624696,0.0001362972,-0.04094141,-0.006312932,0.0031318462,-0.017129403,0.007965078,-0.00026576212,0.47761813,-1.4206345,1.9514903,-2.1003897,-1.5702132,2.4524763,-0.033952165,0.06314505,-0.079809375,0.0016885486,0.01139027,-0.033651583,-0.24899697,0.22984336,-9.404425,0.73741806,47.689575,-0.7115781,-1.876514,-3.489057,-0.38746864,0.10604772,-0.17006347,27.4375,28.625,27.9375,31.8125,33.875,34.75
0.09255255,-1.5137064,-1.2077018,-0.3510663,-0.005244361,0.034294326,-0.14075842,-0.38341653,-0.34981743,0.06001382,3.0783865,-0.624653,5.3034822e-05,-0.04146222,-0.0070903264,0.0028270446,-0.016859034,0.007916734,0.0011974758,0.4775585,-1.4205016,1.9513105,-2.1004012,-1.5702256,2.4523923,-0.03290627,0.065732345,-0.08203931,0.0014996298,0.0111700855,-0.034066472,-0.17238252,0.30645782,-9.385271,0.7978386,47.653748,-0.8177506,-1.7880418,-3.3919477,-0.37490356,0.1104307,-0.1977067,27.4375,28.625,27.9375,31.8125,33.875,34.75
0.095051676,-2.0701265,-1.4270389,-0.44388762,-0.013962013,0.023007156,-0.1384663,-0.38347954,-0.3498291,0.0599839,3.0783703,-0.6246703,0.00012020027,-0.042683754,-0.0066697095,0.0017982421,-0.016548535,0.00610436,-0.0006525837,0.47749764,-1.4203322,1.9511904,-2.100425,-1.5701894,2.4523444,-0.035126045,0.06936317,-0.08384051,0.0014224246,0.011723262,-0.034435697,-0.30645782,0.30645782,-9.404425,0.7530795,47.68599,-0.79080415,-1.9980673,-3.4171872,-0.3613633,0.082861885,-0.19399753,27.4375,28.625,27.9375,31.8125,33.875,34.75
0.09755206,-1.7177862,-1.1516482,-0.39711347,-0.025737457,0.02682604,-0.14674215,-0.38356227,-0.34983376,0.06000387,3.0783753,-0.6246142,7.879519e-05,-0.044063423,-0.00653529,0.0030709046,-0.017599715,0.008615141,-0.0016824733,0.47743735,-1.4202245,1.9510106,-2.1003773,-1.5702013,2.4522486,-0.036479603,0.06830056,-0.08554979,0.0014825254,0.011501338,-0.03475817,-0.34476504,0.30645782,-9.519346,0.7530795,47.678825,-0.7505709,-1.611408,-3.4760094,-0.3642057,0.09619139,-0.2085692,27.4375,28.625,27.9375,31.8125,33.875,34.75
0.100052305,-1.5036094,-1.3423543,-0.4867134,-0.032038026,0.02308546,-0.1402895,-0.3837744,-0.3498707,0.06002998,3.0782313,-0.62468064,-1.9415053e-05,-0.04524715,-0.006132464,0.0008606327,-0.014297701,0.0039769057,-0.0016486039,0.47726876,-1.4199334,1.9506258,-2.1004126,-1.5701417,2.4521399,-0.037742198,0.07593137,-0.08976817,0.003714406,0.010702589,-0.036049474,-0.3256114,0.4213795,-9.615114,0.842603,47.678825,-0.718835,-1.8711061,-3.4102602,-0.38075018,0.08324976,-0.24368516,27.4375,28.625,27.9375,31.8125,33.875,34.75
0.10255202,-1.306251,-1.7228651,-0.5054849,-0.017026877,0.035967704,-0.1370877,-0.38384858,-0.34987536,0.06003043,3.078265,-0.6245899,1.0558197e-05,-0.04672214,-0.006208665,0.0015183588,-0.014601819,0.0055541648,-0.0006310011,0.47720864,-1.419789,1.9504455,-2.1003525,-1.5701417,2.452019,-0.038658146,0.0768621,-0.09237864,0.0038566582,0.01024343,-0.037981402,-0.36391866,0.34476504,-9.557653,0.7463667,47.703007,-0.72618693,-1.8149118,-3.514156,-0.3880955,0.11671722,-0.24573849,27.4375,28.625,27.9375,31.8125,33.875,34.75
0.10505217,-1.8211651,-1.3188232,-0.49553728,-0.017811414,0.024876822,-0.13910028,-0.38396585,-0.34990796,0.060046036,3.0781476,-0.62458575,-3.5236284e-05,-0.048506357,-0.0063337456,0.001679855,-0.0146043245,0.0070832814,-0.00080348784,0.47711214,-1.4196323,1.9502414,-2.1004007,-1.5700701,2.4519348,-0.039607845,0.079175286,-0.095218875,0.0030309174,0.0095405225,-0.038755044,-0.19153613,0.28730422,-9.710882,0.7732232,47.667187,-0.74554294,-1.7388425,-3.3970551,-0.38634205,0.1061476,-0.25444227,27.4375,28.625,27.9375,31.8125,33.875,34.75
0.107552454,-1.4505243,-1.1461943,-0.3282542,-0.022939634,0.033069074,-0.14341055,-0.38404194,-0.3499249,0.060037486,3.0781462,-0.62458456,-6.4398405e-06,-0.049253285,-0.006812536,0.0013833174,-0.015407639,0.0067924135,-1.2604084e-05,0.477064,-1.419463,1.9500617,-2.1003768,-1.5700577,2.4518862,-0.039984155,0.08130811,-0.096860744,0.002428026,0.010383406,-0.039921995,-0.17238252,0.2681506,-9.634268,0.7418897,47.728977,-0.7404624,-1.8110347,-3.3848777,-0.3546444,0.09957303,-0.2678622,27.4375,28.625,27.9375,31.8125,33.875,34.75
0.110052384,-0.91972035,-0.9795054,-0.3340552,-0.010108356,0.018242797,-0.14064534,-0.38426515,-0.34993643,0.06004083,3.078093,-0.6246111,-6.620154e-05,-0.05191835,-0.00728263,0.0013120137,-0.016212922,0.0076202005,0.0015528597,0.4768714,-1.4191134,1.9496535,-2.1003773,-1.5700458,2.4517171,-0.04178476,0.08587179,-0.101785176,0.0016869601,0.010713146,-0.043284558,-0.15322891,0.24899697,-9.500193,0.80456203,47.71286,-0.69434625,-1.8026052,-3.3077068,-0.33538437,0.11789268,-0.26618108,27.4375,28.625,27.9375,31.8125,33.875,34.75
0.11255254,-1.2680142,-0.89807147,-0.43799743,-0.0006123999,0.000100557576,-0.13960263,-0.38437518,-0.34996164,0.060069922,3.0780418,-0.6245809,-0.000115388495,-0.05467782,-0.008695162,0.0021465153,-0.017719027,0.009685372,0.0022053982,0.47679946,-1.4189676,1.9494117,-2.100341,-1.570022,2.451633,-0.042056087,0.09002884,-0.10846381,0.0016834803,0.011093201,-0.04420422,-0.05746084,0.22984336,-9.5385,0.7418897,47.696735,-0.721416,-2.0667415,-3.103434,-0.3306083,0.09750402,-0.26627412,27.4375,28.625,27.9375,31.8125,33.875,34.75
0.11505261,-0.81962365,-0.59617084,-0.34818673,-0.009771213,0.00798034,-0.14266469,-0.3844843,-0.34997955,0.060072556,3.0779834,-0.6245879,-0.00016216542,-0.054351132,-0.008153836,0.0018796299,-0.017224051,0.008772717,0.0016654994,0.47671515,-1.4187998,1.9492215,-2.1003768,-1.5699977,2.4515605,-0.042686317,0.08961024,-0.10750146,0.002179914,0.011079439,-0.044294566,-0.05746084,0.17238252,-9.423578,0.784413,47.721813,-0.76648116,-1.8665893,-3.1864932,-0.3263594,0.096422315,-0.2883496,27.4375,28.625,27.9375,31.8125,33.875,34.75
0.11755184,-0.6963593,-0.80457145,-0.07538639,-0.012577554,0.021884894,-0.14588863,-0.38459772,-0.35000622,0.060084656,3.0779192,-0.6245549,-0.00014642767,-0.055660713,-0.008871789,0.0005568954,-0.016085155,0.006386348,0.0024866783,0.47661927,-1.4186172,1.9489793,-2.100353,-1.5699376,2.4514523,-0.042656645,0.09610722,-0.11212106,0.0029494457,0.011157697,-0.04508263,-0.15322891,0.24899697,-9.385271,0.7620334,47.694946,-0.8347541,-2.0228868,-3.0404363,-0.31918103,0.123673126,-0.3248273,27.4375,28.625,27.9375,31.8125,33.875,34.75
0.12005217,-1.198397,-1.080086,-0.01883733,-0.0139393015,0.025073241,-0.14473893,-0.38483015,-0.35004237,0.060105465,3.0778396,-0.6244999,-0.00019850791,-0.057157278,-0.009085047,0.0013565853,-0.016635016,0.007669539,0.0029478734,0.47643894,-1.4182568,1.9485129,-2.1003287,-1.5698899,2.451248,-0.04355353,0.09712695,-0.11532921,0.0037509818,0.0110597685,-0.046438236,-0.1340753,0.36391866,-9.385271,0.80679786,47.72808,-0.9181634,-1.9730994,-3.093399,-0.32009315,0.10385527,-0.33592457,27.4375,28.625,27.9375,31.8125,33.875,34.75
0.1225524,-1.3923866,-1.3440497,0.024973046,-0.011409648,0.018364776,-0.14177191,-0.38493827,-0.35006705,0.060105603,3.0778267,-0.62445855,-0.00026699275,-0.057494707,-0.009563153,0.0010944791,-0.017088352,0.0066918456,0.003303891,0.4763907,-1.418064,1.9482969,-2.1003525,-1.5699013,2.4511757,-0.04355561,0.098975204,-0.1169711,0.004202744,0.011911633,-0.04679542,-0.11492168,0.40222588,-9.270349,0.84484416,47.681515,-0.8808131,-1.9604139,-3.0269775,-0.3179697,0.12074092,-0.38154626,27.4375,28.625,27.9375,31.8125,33.875,34.75
0.12505244,-0.81249326,-1.236667,0.021093698,-0.019669345,0.023314727,-0.14324646,-0.38509774,-0.3500888,0.060157575,3.077738,-0.6244773,-0.000428173,-0.058931682,-0.010114468,0.002034168,-0.017893022,0.008788472,0.0053541455,0.47628286,-1.4179075,1.947996,-2.1003401,-1.5699013,2.451091,-0.043719225,0.09977345,-0.12005619,0.00426118,0.011668667,-0.049006008,-0.19153613,0.4213795,-9.2703495,0.8023209,47.71286,-0.97507226,-1.9357352,-3.078264,-0.31540766,0.12655745,-0.35920864,27.4375,28.625,27.9375,31.8125,33.875,34.75
0.12755257,-1.4507198,-1.1635821,0.11790964,-0.028230457,0.0038309,-0.14915027,-0.38520458,-0.35008737,0.060128115,3.07776,-0.62447935,-0.00035477855,-0.058120783,-0.009584547,0.00037066735,-0.01644571,0.0054561277,0.008823431,0.47617462,-1.4176666,1.9477814,-2.1003163,-1.5698894,2.4509814,-0.04405315,0.10179912,-0.11865486,0.0044630105,0.01191593,-0.05281041,-0.17238252,0.36391866,-9.174581,0.7642693,47.66539,-1.0060428,-1.8861196,-3.214468,-0.31617928,0.124618664,-0.35106897,27.4375,28.625,27.9375,31.8125,33.875,34.75
0.13005254,-0.41712934,-0.7102153,0.3990717,-0.025255317,0.013642837,-0.15409361,-0.38546318,-0.350124,0.06014892,3.077704,-0.6243704,-0.00047222507,-0.059797443,-0.010472759,0.00060073036,-0.017522085,0.0062603625,0.009974646,0.47599465,-1.4172691,1.9472779,-2.1003163,-1.5698775,2.4507408,-0.044362143,0.10485123,-0.122661814,0.0042115925,0.012504144,-0.05426726,-0.1340753,0.28730422,-9.212888,0.87393653,47.703007,-1.1597865,-1.917891,-3.2395296,-0.28249004,0.13359901,-0.3750989,27.4375,28.625,27.9375,31.8125,33.875,34.75
0.13255239,-0.7829181,-0.9044209,0.15974584,-0.0042114076,0.0039924234,-0.14167789,-0.3855856,-0.3501639,0.060149077,3.0776305,-0.6242953,-0.00043096527,-0.060220677,-0.010753318,-0.00035857788,-0.016795443,0.0046175737,0.013706496,0.4758988,-1.4170396,1.9470142,-2.1003163,-1.5697936,2.4506075,-0.0443067,0.10823412,-0.12441838,0.0043868492,0.012614343,-0.057941996,-0.038307227,0.30645782,-9.155427,0.83365434,47.74331,-1.1296668,-1.8956506,-3.2235594,-0.29620394,0.12680773,-0.3421152,27.4375,28.625,27.9375,31.8125,33.875,34.75
0.13505249,-0.9479645,-0.8728073,0.25290644,0.007806774,-0.00020859437,-0.14305708,-0.38570178,-0.35018513,0.06014653,3.0775864,-0.6243053,-0.00044793755,-0.06090381,-0.009973538,-0.00179521,-0.015781589,0.002219977,0.015111466,0.47581393,-1.4168344,1.9467872,-2.1003287,-1.5697688,2.4505346,-0.04641929,0.11149918,-0.12485961,0.0041635144,0.012816538,-0.061458495,0.0,0.21068975,-9.136273,0.85155696,47.69763,-1.1619966,-1.9529293,-3.3397517,-0.2786063,0.13157506,-0.2986434,27.4375,28.625,27.9375,31.8125,33.875,34.75
0.13755247,-0.5913211,0.10111176,0.5627499,-0.0019592298,-0.0019505658,-0.15130435,-0.38580903,-0.35020876,0.06014783,3.0776088,-0.624135,-0.00040972535,-0.062313832,-0.0106828315,0.00027289742,-0.018657306,0.0055860053,0.017281022,0.4757417,-1.4166188,1.9465231,-2.1002686,-1.5697445,2.4503534,-0.047090832,0.10960088,-0.12746334,0.0043574916,0.013829007,-0.06429931,0.038307227,0.11492168,-9.059659,0.7866488,47.664497,-1.0972538,-1.8595717,-3.3157086,-0.28198117,0.13878559,-0.29173383,27.4375,28.625,27.9375,31.8125,33.875,34.75
0.14005242,-0.3542386,0.27646247,0.4029099,0.016138775,-0.010874831,-0.15331316,-0.38607663,-0.35024685,0.06014349,3.0775175,-0.6240545,-0.0004633526,-0.06313427,-0.011027533,-0.00038599203,-0.018197125,0.003827175,0.023179159,0.47552547,-1.4161732,1.9460319,-2.1003158,-1.5696844,2.4500988,-0.047450732,0.11329927,-0.13051307,0.005494545,0.014237038,-0.07055447,0.05746084,0.1340753,-9.11712,0.7933669,47.696735,-1.3210161,-1.7871592,-3.321567,-0.24782196,0.1511047,-0.19599375,27.4375,28.625,27.9375,31.8125,33.875,34.75
0.14255166,-0.08982105,0.2615797,0.3024457,0.0222625,0.0016849359,-0.1546534,-0.386207,-0.35027274,0.060145102,3.0774972,-0.62397313,-0.00044293702,-0.06474515,-0.010494613,-0.0009540546,-0.017337086,0.0032921392,0.023847464,0.47542885,-1.4159318,1.945743,-2.1002805,-1.5696486,2.449954,-0.049504917,0.11651494,-0.13296337,0.005607029,0.01371733,-0.073275015,0.095768064,0.17238252,-9.078813,0.7530795,47.704796,-1.2567811,-1.9807693,-3.2874022,-0.25558496,0.16864103,-0.15578711,27.4375,28.625,27.9375,31.8125,33.875,34.75
0.14505191,-0.6934529,-0.4806073,0.14270408,0.021170674,-0.01437198,-0.14325185,-0.3863208,-0.350283,0.060145233,3.077478,-0.623893,-0.00041964374,-0.06636636,-0.009700512,-0.0009904564,-0.017980266,0.002663016,0.022648698,0.47531965,-1.4157389,1.9455155,-2.1002562,-1.5696124,2.4497974,-0.052915413,0.1180652,-0.13481124,0.00617298,0.0145789,-0.07548589,-0.019153614,0.11492168,-9.021352,0.784413,47.755844,-1.0879775,-1.9011494,-3.3963962,-0.25638184,0.16878141,-0.12797983,27.4375,28.625,27.9375,31.8125,33.875,34.75
0.14755186,-0.6638734,-0.37111408,0.118346944,-0.0018802476,0.00018666424,-0.1516595,-0.3864425,-0.35030803,0.060142394,3.0775137,-0.6237266,-0.00044428342,-0.066724636,-0.01064499,-0.001089883,-0.01753135,0.0023292012,0.023399562,0.47526026,-1.4154979,1.9452394,-2.100232,-1.5696243,2.4496298,-0.051400665,0.120558105,-0.13767645,0.0070476723,0.014328846,-0.07472022,-0.19153614,0.11492168,-9.174581,0.76874626,47.711063,-1.1582643,-2.0157275,-3.3845384,-0.26976642,0.15440094,-0.10363391,27.4375,28.625,27.9375,31.8125,33.875,34.75
0.1500521,-1.6258879,-1.0975637,-0.13696086,-0.009344495,0.027002009,-0.14940235,-0.386699,-0.35034144,0.060112808,3.0774767,-0.62366444,-0.00032681713,-0.06791677,-0.009782781,-0.0022599306,-0.016859572,-0.0013839311,0.018208383,0.47503096,-1.4149802,1.9447006,-2.1001828,-1.5695404,2.4493666,-0.054662883,0.12462667,-0.14022112,0.009136613,0.015427016,-0.07279067,-0.30645782,0.2681506,-9.308657,0.80456203,47.72271,-1.207075,-1.8642508,-3.269144,-0.28117794,0.19363463,-0.06836437,27.4375,28.625,27.9375,31.8125,33.875,34.75
0.15255208,-1.3212785,-0.8207949,-0.35292742,-0.018539954,0.04603239,-0.1495221,-0.3868435,-0.35036403,0.06012078,3.0774505,-0.62358195,-0.00034599734,-0.06938221,-0.010448146,-0.00083909475,-0.018555595,0.0015487772,0.016042667,0.474923,-1.41474,1.9444007,-2.100159,-1.5695156,2.4492106,-0.054902665,0.12428209,-0.14304335,0.008920536,0.015588725,-0.07086296,-0.36391866,0.30645782,-9.423578,0.6971306,47.717335,-1.1519022,-1.9343469,-3.3723807,-0.2974914,0.16712895,-0.10692458,27.4375,28.625,27.9375,31.8125,33.875,34.75
0.15505213,-1.2096167,-0.7123427,-0.23492174,-0.03127607,0.053689364,-0.1606661,-0.38696915,-0.35039172,0.060117364,3.0774229,-0.62349963,-0.0003116048,-0.069931984,-0.010240705,-0.0024113273,-0.01699085,-0.000985426,0.01588579,0.47482678,-1.4144982,1.944125,-2.100135,-1.5694684,2.4490666,-0.05559617,0.12866034,-0.14454484,0.009019374,0.01535493,-0.071398035,-0.5363012,0.36391866,-9.3661175,0.7665104,47.70838,-1.2244487,-1.8568588,-3.3615508,-0.28787386,0.19090235,-0.087500244,27.4375,28.625,27.9375,31.8125,33.875,34.75
0.1575523,-1.5357449,-0.86772686,-0.31283998,-0.033775993,0.06449191,-0.15973905,-0.38708284,-0.35040236,0.060084715,3.0774317,-0.6235039,-0.00020110002,-0.0713111,-0.01050565,-0.0014890957,-0.018069496,0.00095476734,0.010385861,0.47471854,-1.4142219,1.9438733,-2.1000988,-1.5694321,2.44896,-0.056398176,0.12888971,-0.14693166,0.008956604,0.015413268,-0.066699944,-0.53630114,0.34476504,-9.500193,0.75755644,47.685097,-1.2211978,-1.8533275,-3.2761025,-0.28291225,0.20150618,-0.10407267,27.4375,28.625,27.9375,31.8125,33.875,34.75
0.16005245,-2.4465234,-1.8166825,-0.43881932,-0.043208364,0.054364935,-0.1423787,-0.38740414,-0.35044944,0.060101897,3.0773544,-0.6234324,-0.00025430878,-0.0734427,-0.010790816,-0.0016955223,-0.018861042,0.0008773263,0.004876596,0.47447786,-1.4136921,1.9432138,-2.1000516,-1.569384,2.448685,-0.05824479,0.1328476,-0.15104882,0.008822923,0.01614679,-0.06303375,-0.6512229,0.38307226,-9.710882,0.81351066,47.73077,-1.177369,-1.9054401,-3.454597,-0.31396985,0.19385663,-0.19756651,27.4375,28.625,27.9375,31.8125,33.875,34.75
0.16255182,-2.737549,-2.4353423,-0.6680061,-0.035829242,0.046124645,-0.1330241,-0.38752562,-0.35047117,0.060088977,3.0773726,-0.6233414,-0.00025348476,-0.07524051,-0.011015049,-0.0010003713,-0.019808494,0.0024014954,0.0029602253,0.4744055,-1.4134394,1.9429497,-2.1000397,-1.569384,2.4485536,-0.059552245,0.13424158,-0.15428233,0.008873744,0.016286382,-0.062423196,-0.68953013,0.36391866,-9.710882,0.7911258,47.65464,-1.2031165,-1.8924589,-3.409795,-0.31486154,0.21557736,-0.22736597,27.4375,28.625,27.9375,31.8125,33.875,34.75
0.16505194,-1.9270808,-1.7269576,-0.7349804,-0.036503773,0.063970104,-0.14451674,-0.38769895,-0.3504888,0.06008802,3.077283,-0.62338066,-0.00019895805,-0.07674224,-0.011008041,-0.0005614299,-0.020393152,0.0040331366,0.0018354177,0.47422498,-1.4131507,1.942614,-2.1000159,-1.5693,2.448409,-0.06074112,0.13523959,-0.15631385,0.008197857,0.016058972,-0.062485684,-0.59376204,0.3256114,-9.653421,0.7709874,47.678825,-1.1755342,-1.9024005,-3.3489137,-0.31060278,0.23391964,-0.22264165,27.4375,28.625,27.9375,31.8125,33.875,34.75
0.16755205,-1.4211427,-0.5914692,-0.37292838,-0.03762082,0.05923579,-0.156515,-0.38785526,-0.35050344,0.060088612,3.0772302,-0.62346697,-0.00020296506,-0.07802272,-0.011629321,5.726274e-05,-0.022514736,0.005369087,0.00080737966,0.47409272,-1.4128861,1.9423026,-2.0999925,-1.5692753,2.4483376,-0.061594572,0.13604866,-0.15851341,0.0074300147,0.01733306,-0.062309776,-0.49799395,0.30645782,-9.730036,0.85155696,47.713753,-1.2066817,-1.7574472,-3.3121934,-0.29590508,0.23677385,-0.28875774,27.4375,28.625,27.9375,31.8125,33.875,34.75
0.17005235,-1.4001123,-0.23621552,-0.37563762,0.0035530766,0.030312158,-0.14643651,-0.38819408,-0.35055882,0.060094092,3.0771356,-0.6233712,-0.00029886633,-0.0811996,-0.011414493,-0.0009472731,-0.023098817,0.0054485793,-0.0019444382,0.47385135,-1.4123197,1.9416431,-2.1000168,-1.5692271,2.4480488,-0.06509372,0.14204222,-0.16271603,0.0053084157,0.017814422,-0.063052,-0.36391866,0.114921674,-9.5385,0.82694155,47.729877,-1.0371232,-1.7869768,-3.3209383,-0.26754263,0.22431609,-0.30850646,27.4375,28.625,27.9375,31.8125,33.875,34.75
0.17255242,-1.1762707,0.18818562,-0.15267362,0.008861495,0.027756099,-0.15225531,-0.3883725,-0.35058695,0.060107153,3.07707,-0.6233574,-0.00030782318,-0.081098214,-0.012172056,-0.0012005402,-0.023348391,0.0051200804,-0.0004165072,0.47370794,-1.412031,1.9412726,-2.099981,-1.5691789,2.4479053,-0.06387061,0.14338051,-0.1636729,0.0051102024,0.018189352,-0.06335542,-0.19153613,0.0,-9.519346,0.8717007,47.69763,-1.2340721,-1.9016367,-3.3835554,-0.24973142,0.23722784,-0.34806573,27.4375,28.625,27.9375,31.8125,33.875,34.75
0.17505251,-1.5120504,-0.23471117,-0.38490152,0.018549463,0.014551799,-0.14473662,-0.3885107,-0.35062462,0.060081646,3.076986,-0.6233212,-0.00024123893,-0.08361806,-0.011858157,-0.0010745563,-0.023220936,0.006200478,-0.0029857797,0.47358727,-1.4117415,1.941008,-2.1000288,-1.5690831,2.4477727,-0.066280246,0.1465538,-0.16763325,0.0050042197,0.017577363,-0.06319306,-0.095768064,-0.038307227,-9.481039,0.8717007,47.689575,-1.1145928,-2.0197542,-3.3111324,-0.24613336,0.24211761,-0.391232,27.4375,28.625,27.9375,31.8125,33.875,34.75
0.17755255,-0.9665715,-0.31683064,-0.302494,0.01593525,0.026010908,-0.1564567,-0.38872218,-0.35065517,0.06013197,3.0769036,-0.62330735,-0.00037451778,-0.08456126,-0.010252309,-0.002235927,-0.022256842,0.0034146328,-0.0069685495,0.47344163,-1.4114766,1.9405769,-2.099981,-1.5690712,2.4476292,-0.0701798,0.14881049,-0.16781518,0.005850173,0.018000761,-0.06310753,-0.17238252,0.038307227,-9.461885,0.8605109,47.67793,-0.9472244,-2.0237088,-3.471518,-0.23568049,0.24585804,-0.43253514,27.4375,28.625,27.9375,31.8125,33.875,34.75
0.18005174,-0.8445473,-0.6060547,-0.20966758,0.013863195,0.011274996,-0.14869756,-0.38904732,-0.35068336,0.06011342,3.0768318,-0.6234047,-0.00035098186,-0.08486785,-0.010130266,-0.0028166042,-0.021684382,0.0013364904,-0.004767828,0.47316566,-1.410887,1.9399308,-2.0999444,-1.569023,2.4474235,-0.070878744,0.15102965,-0.16949552,0.007433249,0.018447626,-0.06600613,-0.095768064,0.15322891,-9.212888,0.8672237,47.703007,-0.99931085,-2.0187166,-3.4830127,-0.2436558,0.27364433,-0.47113025,27.4375,28.625,27.9375,31.8125,33.875,34.75
0.18255222,-0.49383655,-0.62327176,-0.15036434,0.01182159,0.013406997,-0.15771542,-0.38922402,-0.35069352,0.06010454,3.0767422,-0.6234229,-0.0003647459,-0.08589433,-0.01014842,-0.0031698407,-0.022013953,0.00093549996,-0.00042383044,0.47298512,-1.4106102,1.9396428,-2.0999925,-1.5689629,2.4472659,-0.07203961,0.1532696,-0.17125389,0.007173306,0.018934138,-0.07150871,-0.076614454,0.076614454,-9.270349,0.9030289,47.698532,-0.92113316,-2.0848503,-3.4459116,-0.23456652,0.27986386,-0.4673214,27.4375,28.625,27.9375,31.8125,33.875,34.75
0.1850523,-0.2846055,-0.752388,0.0742471,0.0013997917,0.012392705,-0.1535956,-0.38938648,-0.3507225,0.060114816,3.0767505,-0.62330836,-0.000390725,-0.08784873,-0.01047496,-0.003263655,-0.02260569,0.001203139,0.00073286355,0.47288868,-1.4103205,1.9392713,-2.0999324,-1.5689625,2.447097,-0.07345628,0.15678647,-0.17510091,0.007000427,0.01933714,-0.0740793,-0.076614454,0.21068975,-9.251195,0.8627467,47.703903,-0.90041447,-2.062828,-3.3807185,-0.2153824,0.28884774,-0.43847093,27.4375,28.625,27.9375,31.8125,33.875,34.75
0.18755235,-1.027941,-1.0324059,0.2973084,-0.0045055468,0.0034020697,-0.14708658,-0.38959795,-0.35071754,0.06010817,3.0767264,-0.6233577,-0.0004469289,-0.089228146,-0.010977822,-0.0016846674,-0.024368003,0.0039433227,0.0042599253,0.47269645,-1.4099845,1.9388984,-2.099932,-1.5689744,2.446939,-0.07397401,0.15592255,-0.17783439,0.0073642274,0.019665241,-0.07812236,-0.15322891,0.22984336,-9.136273,0.82022345,47.716442,-0.8495227,-1.9914812,-3.3970757,-0.20827267,0.28809416,-0.4164284,27.4375,28.625,27.9375,31.8125,33.875,34.75
0.19005239,-1.381021,-1.3639022,-0.13943553,-0.0071455087,0.018269317,-0.15391797,-0.38993227,-0.35078713,0.06009535,3.076628,-0.6232168,-0.00035591816,-0.0914282,-0.0113886455,-0.00093619747,-0.026352284,0.00368327,0.013517696,0.47243163,-1.4093472,1.9381808,-2.0998838,-1.5688418,2.446599,-0.076370336,0.15854885,-0.18312533,0.009387196,0.021570088,-0.08977306,-0.22984336,0.4405331,-9.308657,0.8940802,47.7254,-0.8026099,-1.9523565,-3.3021955,-0.20981711,0.29596704,-0.32314393,27.4375,28.625,27.9375,31.8125,33.875,34.75
0.19255255,-1.2638279,-1.3581873,-0.0751165,-0.035594497,0.028103894,-0.14452234,-0.3901239,-0.35080054,0.060100254,3.0765886,-0.6231485,-0.00033633912,-0.09252996,-0.011506717,-0.00065061793,-0.026970197,0.004191125,0.018147957,0.47225142,-1.4090344,1.9377974,-2.0998356,-1.5687937,2.4463813,-0.077313915,0.15974113,-0.18524769,0.009601308,0.02189969,-0.09534532,-0.24899697,0.4213795,-9.308657,0.7866488,47.690468,-0.8103745,-1.7511061,-3.3514867,-0.21254759,0.30498832,-0.24647953,27.4375,28.625,27.9375,31.8125,33.875,34.75
0.19505261,-1.6514934,-1.9030304,0.17817396,-0.043975256,0.036283668,-0.14734751,-0.3903325,-0.35082304,0.060121585,3.0765476,-0.6230809,-0.00040967957,-0.093728505,-0.011278338,-0.0011052549,-0.026727267,0.003081189,0.019964851,0.4720948,-1.4087212,1.9373788,-2.0997999,-1.5687813,2.446188,-0.0789335,0.16257691,-0.18770011,0.010326952,0.022199797,-0.09877883,-0.34476504,0.38307226,-9.270349,0.8672237,47.682407,-0.726537,-1.787558,-3.2986684,-0.21360612,0.29899827,-0.18318419,27.4375,28.625,27.9375,31.8125,33.875,34.75
0.19755265,-1.4571463,-1.7188884,0.050393537,-0.053471558,0.04567186,-0.15369734,-0.39050898,-0.35085526,0.06010481,3.076491,-0.62295324,-0.0003559338,-0.09434836,-0.011133161,-0.0006797771,-0.027548373,0.00397686,0.02027297,0.47193855,-1.4083849,1.9370311,-2.0998118,-1.5686973,2.4459593,-0.07990511,0.16212696,-0.18813758,0.01005647,0.0225293,-0.10005789,-0.34476504,0.51714754,-9.289503,0.8493211,47.678825,-0.7120645,-1.8580102,-3.316107,-0.21385977,0.29270655,-0.14101505,27.4375,28.625,27.9375,31.8125,33.875,34.75
0.20005195,-1.7965373,-1.3241923,0.041226838,-0.023553943,0.030594561,-0.14113516,-0.39089376,-0.35090506,0.060096715,3.0763981,-0.62286055,-0.0003570442,-0.097122066,-0.011240093,-0.0006466661,-0.02908798,0.0041210973,0.014542562,0.47162536,-1.4077109,1.9362649,-2.099788,-1.5686129,2.4456005,-0.08293905,0.16618355,-0.19300066,0.010040439,0.023831377,-0.09735668,-0.4213795,0.40222588,-9.251195,0.9164598,47.711063,-0.5729327,-1.7545934,-3.3508587,-0.21803907,0.31834352,-0.11920698,27.4375,28.625,27.9375,31.8125,33.875,34.75
0.2025526,-1.7503495,-0.79604805,0.31497085,-0.0140901385,0.033602975,-0.14893837,-0.39108217,-0.35092416,0.060081426,3.0763617,-0.62281495,-0.000322801,-0.09741864,-0.013292354,3.832481e-05,-0.03069804,0.006267493,0.013112419,0.47145855,-1.4073625,1.9358939,-2.099776,-1.5685648,2.44541,-0.079842255,0.1672866,-0.19563639,0.008927317,0.024277767,-0.092827834,-0.36391866,0.3256114,-9.193734,0.78888994,47.71465,-0.72099984,-1.8404474,-3.2984595,-0.18786287,0.30204388,-0.13720046,27.4375,28.625,27.9375,31.8125,33.875,34.75
0.20505197,-1.4536127,-0.5650162,0.19893381,0.01313148,0.03785164,-0.1319597,-0.3912917,-0.35096228,0.060086295,3.0762975,-0.62280333,-0.00035993548,-0.099511296,-0.01356725,0.0004284551,-0.03180428,0.0077547203,0.009907129,0.47131407,-1.4070013,1.9354624,-2.0997646,-1.568529,2.4452667,-0.08138107,0.16960073,-0.19910473,0.0082564335,0.024583995,-0.09115784,-0.4213795,0.21068975,-9.136273,0.82694155,47.704796,-0.7617253,-1.7535517,-3.2685895,-0.17108068,0.30994526,-0.17392954,27.4375,28.625,27.9375,31.8125,33.875,34.75
0.20755225,-0.8721366,0.10211099,-0.022099696,0.025144977,0.038596462,-0.15006079,-0.39151642,-0.35098448,0.06008598,3.0761864,-0.62284243,-0.0003467166,-0.10035018,-0.013067416,-0.0014169707,-0.030382127,0.0046242177,0.001864879,0.47109747,-1.4066392,1.9350442,-2.0997646,-1.5684451,2.4450889,-0.08303595,0.17456374,-0.20072198,0.008344135,0.024730993,-0.08476763,-0.2873042,0.21068975,-9.251195,0.84484416,47.684196,-0.65294605,-1.9011967,-3.2819695,-0.16056986,0.31808135,-0.24477345,27.4375,28.625,27.9375,31.8125,33.875,34.75
0.21005233,-0.9814334,-0.26977,0.033950005,0.018408356,0.01494948,-0.14056866,-0.39191097,-0.35103735,0.060067136,3.0761006,-0.62274617,-0.00030422508,-0.10028959,-0.014066117,-0.0016984522,-0.03057288,0.0038657265,0.0040075714,0.47077408,-1.4059179,1.9342436,-2.0997279,-1.5683483,2.4447167,-0.08145368,0.17657788,-0.20264831,0.008861567,0.025252502,-0.08532588,-0.15322891,0.114921674,-9.212888,0.8291774,47.713753,-0.8904762,-1.9901516,-3.397811,-0.14618215,0.31759518,-0.26090834,27.4375,28.625,27.9375,31.8125,33.875,34.75
0.2125524,-0.5642526,-0.25156215,0.0601046,0.014960243,0.010820671,-0.14649795,-0.39209002,-0.3510733,0.0600463,3.076058,-0.62264,-0.00024567018,-0.10067725,-0.01479241,-0.0022830793,-0.030298444,0.0025392664,0.0036650307,0.47063047,-1.4055567,1.9338726,-2.0997279,-1.5682763,2.4445124,-0.080706246,0.17974819,-0.20520967,0.00956529,0.025606446,-0.08423403,-0.1340753,0.13407528,-9.270349,0.84484416,47.679718,-0.89548767,-1.986925,-3.3602238,-0.143511,0.33894116,-0.29613376,27.4375,28.625,27.9375,31.8125,33.875,34.75
0.21505253,-0.7429852,-0.52739996,-0.0803302,0.01009463,-0.002693219,-0.14972985,-0.39234096,-0.35108745,0.06005603,3.076005,-0.62276393,-0.00032907765,-0.10143659,-0.014845532,-0.002711365,-0.02993262,0.0016779259,0.0032866283,0.47043827,-1.4051589,1.9333814,-2.0996926,-1.5682887,2.4444046,-0.08126986,0.18218075,-0.20724353,0.010104361,0.025675952,-0.08441664,0.019153614,0.11492168,-9.3661175,0.8224646,47.65912,-0.93266106,-2.1214929,-3.3407426,-0.15156116,0.3281174,-0.30707008,27.4375,28.625,27.9375,31.8125,33.875,34.75
0.21755187,-0.6855398,-0.8498106,-0.29611513,0.0023822142,-0.007991915,-0.1467013,-0.39251792,-0.35112208,0.06003116,3.0759656,-0.6226409,-0.00026995988,-0.102451466,-0.014920735,-0.0027178046,-0.029351689,0.0023933114,0.0024898455,0.47029415,-1.4047979,1.9330224,-2.099704,-1.5682162,2.4441888,-0.081456915,0.18394363,-0.20932524,0.0100602275,0.024830898,-0.08380617,0.076614454,0.17238252,-9.289502,0.85826975,47.677036,-0.95767665,-2.2149243,-3.367053,-0.14247614,0.33781677,-0.36231822,27.4375,28.625,27.9375,31.8125,33.875,34.75
0.22005193,-0.596938,-1.046454,-0.5289928,-0.004180343,-0.015871996,-0.14670344,-0.39291644,-0.35115942,0.060005806,3.0759122,-0.62262857,-0.00019514209,-0.104180515,-0.014647218,-0.0017126077,-0.03048321,0.0034453687,0.0032633254,0.4699573,-1.4040533,1.9321975,-2.0996196,-1.5681447,2.4438515,-0.08370556,0.18423687,-0.21238834,0.011399838,0.025371023,-0.08682714,0.076614454,0.2681506,-9.32781,0.8403672,47.69763,-0.97347635,-2.1519156,-3.3183646,-0.115997806,0.3512435,-0.37586278,27.4375,28.625,27.9375,31.8125,33.875,34.75
0.22255205,-0.22744514,-0.78928465,-0.44313058,-0.02238256,-0.013883128,-0.15761934,-0.39314473,-0.3512048,0.06002594,3.075836,-0.6225137,-0.00026418339,-0.10464024,-0.015453731,-0.0023312902,-0.031012662,0.0022006044,0.007275835,0.4698016,-1.4036922,1.9317302,-2.0996082,-1.568096,2.443634,-0.08331313,0.18732128,-0.2146253,0.011436303,0.026420768,-0.090442695,0.17238252,0.34476504,-9.423578,0.8605109,47.707485,-0.9492626,-2.2162867,-3.5146008,-0.1330361,0.34793037,-0.3601124,27.4375,28.625,27.9375,31.8125,33.875,34.75
0.22505216,-0.46772793,-1.4241152,-0.5092723,-0.02779226,-0.01503237,-0.14563929,-0.3933309,-0.351225,0.059987064,3.0758245,-0.622491,-0.00014265331,-0.106990926,-0.014833535,-0.0023799029,-0.03170428,0.0022268868,0.008648774,0.46963227,-1.4032825,1.9313349,-2.0995715,-1.568036,2.4434521,-0.08682178,0.19009545,-0.21783362,0.011554576,0.027027627,-0.09532352,0.19153613,0.40222588,-9.442732,0.80456203,47.709274,-0.81994545,-2.1845198,-3.4350865,-0.14217627,0.35476667,-0.3397906,27.4375,28.625,27.9375,31.8125,33.875,34.75
0.2275524,-0.46541688,-1.7042848,-0.66562134,-0.033320867,-0.009492198,-0.15350282,-0.39356795,-0.35127488,0.060021754,3.0757046,-0.6224432,-0.00027094348,-0.106794775,-0.01625304,-0.001955963,-0.031876117,0.0031153234,0.01596704,0.46947724,-1.402946,1.930868,-2.0995839,-1.5679878,2.4432828,-0.08395898,0.1909142,-0.21989723,0.011950982,0.026801813,-0.09977454,0.11492168,0.5363012,-9.519346,0.8806493,47.70032,-0.9876628,-2.228015,-3.5555744,-0.13811041,0.34745437,-0.27129015,27.4375,28.625,27.9375,31.8125,33.875,34.75
0.23005247,-0.8445363,-2.051448,-0.7431406,-0.036798075,0.005017447,-0.14966114,-0.39395124,-0.35131332,0.059969783,3.0757277,-0.6222508,-5.3967586e-05,-0.10840171,-0.017013093,-0.0009569486,-0.035425413,0.0034988455,0.023490697,0.46914062,-1.4021411,1.9300188,-2.0994399,-1.5678905,2.4428234,-0.085851766,0.1918219,-0.22355834,0.012791589,0.029804971,-0.109190084,0.019153614,0.5363012,-9.481039,0.9254084,47.72808,-0.85796595,-2.0453758,-3.5006077,-0.14221558,0.33619153,-0.1579729,27.4375,28.625,27.9375,31.8125,33.875,34.75
0.23255172,-0.8332436,-1.4407308,-0.8881169,-0.04631663,0.01584142,-0.14795314,-0.39416805,-0.35135168,0.05996073,3.075646,-0.6222121,-1.3885426e-05,-0.10863935,-0.01780247,-0.0010892734,-0.03679857,0.003029103,0.02780877,0.4689608,-1.4017444,1.9295758,-2.099428,-1.5678061,2.44263,-0.08553956,0.19319914,-0.22486767,0.0125429155,0.031254947,-0.113193154,-0.019153614,0.59376204,-9.595961,0.79560274,47.684196,-1.1268394,-2.07273,-3.4469512,-0.12501925,0.3206588,-0.10085576,27.4375,28.625,27.9375,31.8125,33.875,34.75
0.23505181,-0.9854369,-1.7361734,-0.83027,-0.047833897,0.025293453,-0.14991625,-0.3944064,-0.35140026,0.059965055,3.0755427,-0.6220971,-4.6145276e-05,-0.1099031,-0.017742133,-0.0015897304,-0.037533008,0.0017225834,0.023589589,0.46878007,-1.4013468,1.9291095,-2.0994518,-1.5677222,2.442391,-0.08749044,0.19611841,-0.22725987,0.0128536485,0.03250452,-0.11091956,-0.15322891,0.53630114,-9.710882,0.85826975,47.689575,-1.0579046,-2.0646868,-3.439351,-0.13798739,0.30520165,-0.07888538,27.4375,28.625,27.9375,31.8125,33.875,34.75
0.23755191,-1.3565639,-2.0519235,-0.71812737,-0.04722202,0.027213044,-0.13297509,-0.3945839,-0.35144612,0.059945103,3.0755365,-0.6219041,8.1407234e-05,-0.11146926,-0.0191831,-0.00041646214,-0.041004382,0.0036192734,0.02156727,0.4686482,-1.4009502,1.9286774,-2.0993798,-1.5676373,2.4421394,-0.08772677,0.19711621,-0.23105246,0.012388548,0.034729775,-0.1091311,-0.1340753,0.36391866,-9.634268,0.8560339,47.70211,-1.1040293,-2.0377142,-3.515118,-0.11403633,0.27217317,-0.08855666,27.4375,28.625,27.9375,31.8125,33.875,34.75
0.24005221,-1.180533,-0.91834426,-0.7213891,-0.0065730726,0.016507074,-0.13411134,-0.39506742,-0.3515071,0.059952818,3.0753875,-0.6218203,4.710731e-06,-0.113154076,-0.01924297,-0.0009520487,-0.041014835,0.0029862244,0.013298402,0.46826375,-1.4001563,1.9277338,-2.0993683,-1.567541,2.4417222,-0.089154534,0.2009909,-0.23451917,0.012542454,0.035024147,-0.102283135,-0.15322891,0.2681506,-9.634268,0.93436235,47.733456,-1.1308627,-1.8913271,-3.4504733,-0.1094377,0.24592128,-0.15073082,27.4375,28.625,27.9375,31.8125,33.875,34.75
0.2425522,-1.2903022,-0.5262537,-0.61031324,0.00869201,0.006087338,-0.13770181,-0.39528832,-0.35156953,0.0599359,3.075286,-0.6217818,6.866439e-05,-0.114205405,-0.019618705,-0.00079095026,-0.042407192,0.0035593074,0.008885637,0.4681075,-1.3997111,1.9272546,-2.0993683,-1.5674323,2.441555,-0.089982145,0.20226972,-0.23631072,0.0119170835,0.036000587,-0.098694906,-0.24899697,0.21068975,-9.576807,0.80456203,47.713753,-1.0798535,-2.06151,-3.5062032,-0.11245215,0.23431367,-0.18875942,27.4375,28.625,27.9375,31.8125,33.875,34.75
0.24505232,-1.081266,-0.28098157,-0.40128925,0.0011516641,0.015105449,-0.14466935,-0.3955195,-0.35159627,0.059916764,3.0752094,-0.6218438,0.0001275354,-0.11483276,-0.020332744,-0.0011287762,-0.044168368,0.002595129,0.005386417,0.46790338,-1.3992782,1.9267887,-2.0993445,-1.5673603,2.4413996,-0.09048484,0.20448633,-0.23812115,0.011574494,0.03800048,-0.095694974,-0.24899697,0.22984336,-9.519346,0.8023209,47.71823,-1.1684022,-2.027975,-3.6185517,-0.08041972,0.20630717,-0.2311295,27.4375,28.625,27.9375,31.8125,33.875,34.75
0.24755247,-0.59649247,-0.35484934,-0.33268,-0.013090165,0.03880275,-0.14615056,-0.39573708,-0.35163188,0.059927028,3.0751178,-0.6217687,0.00016544845,-0.11521803,-0.020541068,-0.0012974133,-0.044546377,0.0020759122,0.0029093702,0.4677112,-1.3989173,1.9263343,-2.0992963,-1.5672635,2.4411724,-0.09075186,0.20573108,-0.23930646,0.01181515,0.038572878,-0.0934821,-0.24899697,0.21068975,-9.423578,0.86945957,47.70032,-1.1078082,-2.0664585,-3.5868063,-0.08942337,0.16145898,-0.29439533,27.4375,28.625,27.9375,31.8125,33.875,34.75
0.2500519,-1.6474104,-0.69177353,-0.19931789,0.00069306965,0.040504184,-0.14404367,-0.39619333,-0.3517203,0.05992461,3.074952,-0.6216786,0.00020377402,-0.11870293,-0.020857738,-6.2501225e-05,-0.045502286,0.004581591,-0.0021240497,0.4673625,-1.3980993,1.9253758,-2.0992477,-1.5671076,2.440789,-0.09295802,0.20901418,-0.24635091,0.0129280705,0.03829328,-0.09064858,-0.34476504,0.21068975,-9.442732,0.93436235,47.71465,-1.0668317,-2.2494445,-3.557671,-0.08032922,0.13365692,-0.38460213,27.4375,28.625,27.9375,31.8125,33.875,34.75
0.25255182,-1.681209,-0.6090135,-0.43498364,0.01806659,0.048238274,-0.13925666,-0.39643952,-0.35176498,0.05991416,3.0748699,-0.62164354,0.00024388649,-0.12050175,-0.019839026,-0.0008432642,-0.04510784,0.0029085407,-0.0037515347,0.46716937,-1.3976417,1.9248608,-2.0992239,-1.5670236,2.4405847,-0.09649737,0.21240008,-0.24877584,0.013659102,0.038703807,-0.09255744,-0.45968673,0.17238252,-9.500193,0.9231726,47.685097,-1.0882043,-2.2553954,-3.479673,-0.07752043,0.12471849,-0.42408657,27.4375,28.625,27.9375,31.8125,33.875,34.75
0.25505212,-1.2232293,0.09603933,-0.3175354,0.008205648,0.0606035,-0.14796408,-0.396683,-0.35180724,0.059915062,3.0747952,-0.6216281,0.00024563336,-0.12080971,-0.020502267,-0.00032612088,-0.045277726,0.0036782178,-0.004579715,0.4669897,-1.3972093,1.9243463,-2.0991876,-1.5669636,2.4404051,-0.095412716,0.21285346,-0.25073716,0.014409551,0.038509563,-0.09064247,-0.4213795,0.1340753,-9.5385,0.8873621,47.71286,-0.9585742,-2.1817615,-3.5114107,-0.05743577,0.07124036,-0.47256017,27.4375,28.625,27.9375,31.8125,33.875,34.75
0.25755224,-1.8781496,-0.20367923,-0.14806363,2.7419175e-05,0.0488427,-0.1466714,-0.3969506,-0.35184243,0.059937287,3.0746768,-0.6216596,0.00014796967,-0.122827604,-0.019934233,-0.00020881112,-0.044864994,0.0038487671,-0.0037450755,0.4667848,-1.396812,1.9238323,-2.0991871,-1.5669163,2.4402354,-0.09782201,0.21537003,-0.2542607,0.015475966,0.03808355,-0.09388098,-0.53630114,0.17238252,-9.32781,0.86945957,47.690468,-1.0363393,-2.1600466,-3.4708042,-0.066031575,0.07375586,-0.48881525,27.4375,28.625,27.9375,31.8125,33.875,34.75
0.2600524,-1.5665245,-0.6855607,-0.35985053,-0.0016071965,0.062123843,-0.1468829,-0.3974275,-0.35193682,0.059922665,3.0745142,-0.6215435,0.0003029141,-0.12701604,-0.019323725,0.0015066923,-0.04501109,0.008021133,0.0054582665,0.46639958,-1.3959106,1.9227895,-2.0990798,-1.5667127,2.4397988,-0.10132169,0.21750808,-0.2610596,0.01643499,0.036373783,-0.106582604,-0.47884035,0.095768064,-9.385271,0.92764956,47.723602,-0.7925428,-1.9800534,-3.188929,-0.060581684,0.049263366,-0.42828256,27.4375,28.625,27.9375,31.8125,33.875,34.75
0.2625571,-1.7039075,-0.62028503,-0.39110726,-0.007674198,0.06295821,-0.14868692,-0.39767513,-0.35195532,0.05991877,3.0744612,-0.6215095,0.00030765086,-0.12762451,-0.018851332,0.0025174695,-0.04477126,0.0100817,0.012339771,0.4661835,-1.3954908,1.9222997,-2.0990431,-1.566665,2.4395685,-0.101884805,0.215798,-0.26157045,0.016969996,0.035264436,-0.11402808,-0.57460845,0.21068975,-9.481039,0.87393653,47.704796,-0.8403242,-1.8671896,-3.260116,-0.07087836,0.044008773,-0.36360374,27.4375,28.625,27.9375,31.8125,33.875,34.75
0.26505232,-2.210227,-0.37770197,-0.23697113,-0.016985321,0.062438056,-0.14675803,-0.39793488,-0.3520024,0.05992455,3.0743675,-0.6214672,0.00029155466,-0.12815781,-0.018527526,0.0020119953,-0.04381428,0.009605279,0.018571446,0.46599123,-1.3950458,1.9217614,-2.0990193,-1.566593,2.439362,-0.1024414,0.21748634,-0.26251796,0.017129837,0.034655415,-0.12081454,-0.6512228,0.15322891,-9.404425,0.86945957,47.713753,-0.8609975,-1.8702612,-3.5145645,-0.07225122,0.04105091,-0.2826951,27.4375,28.625,27.9375,31.8125,33.875,34.75
0.26755238,-1.7682532,-0.673637,-0.35239655,-0.00013178149,0.08451471,-0.15138713,-0.39818746,-0.35205022,0.059931614,3.0742984,-0.62133515,0.00031701167,-0.12805161,-0.01848224,0.001789948,-0.04292725,0.009266016,0.02381737,0.46579948,-1.394601,1.9212121,-2.0989592,-1.5665096,2.439097,-0.10194961,0.21806625,-0.26290473,0.017677145,0.034040697,-0.12556826,-0.6703765,0.19153613,-9.404425,0.9231726,47.72629,-0.8717013,-1.7816536,-3.586947,-0.07147447,0.03581088,-0.2268572,27.4375,28.625,27.9375,31.8125,33.875,34.75
0.27005252,-1.8592426,-0.23264618,-0.3666864,0.015105125,0.062887624,-0.1486685,-0.3987222,-0.35209787,0.059924662,3.0741777,-0.6212506,0.00022954155,-0.13020402,-0.018723551,0.0010892474,-0.04040259,0.010393405,0.024800582,0.46536773,-1.3937099,1.9201835,-2.0989473,-1.5664386,2.4386284,-0.10150135,0.22353129,-0.26779497,0.017264016,0.03129618,-0.12610106,-0.2873042,0.17238252,-9.519346,0.9097417,47.70211,-0.918419,-1.9669559,-3.6145215,-0.061854612,0.049987834,-0.170397,27.4375,28.625,27.9375,31.8125,33.875,34.75
0.27255222,-1.2278299,0.106599055,-0.34406877,0.01202642,0.051164657,-0.15061118,-0.39899218,-0.35215122,0.059928734,3.0740826,-0.6211172,0.00023466413,-0.13228224,-0.017935192,0.0010850866,-0.03986031,0.012064108,0.02064571,0.46516305,-1.3932413,1.9196209,-2.098924,-1.5663427,2.4383528,-0.103816055,0.22537641,-0.26979506,0.016184235,0.030063724,-0.124259844,-0.21068975,0.19153613,-9.481039,0.87393653,47.66987,-0.95685214,-1.8527915,-3.608512,-0.029962812,0.06530899,-0.17269364,27.4375,28.625,27.9375,31.8125,33.875,34.75
0.27505246,-0.96786326,-0.3421554,-0.62696016,0.017651286,0.022523558,-0.14403668,-0.39925689,-0.3521805,0.059952024,3.0740159,-0.62101114,0.00015356645,-0.1333247,-0.018500006,4.2444764e-05,-0.038389686,0.011264012,0.014190221,0.46495935,-1.3928431,1.919094,-2.0988882,-1.566307,2.4380918,-0.103047125,0.23024565,-0.2731772,0.016054377,0.029093808,-0.11703233,-0.15322891,0.22984336,-9.461885,0.8918391,47.694946,-0.909153,-2.1023116,-3.548493,-0.019059269,0.05354799,-0.23218548,27.4375,28.625,27.9375,31.8125,33.875,34.75
0.27755246,-0.8573009,-0.609047,-0.934214,0.010139731,-0.006562015,-0.13877672,-0.39953718,-0.35222322,0.059930503,3.0739517,-0.62094325,0.00018352477,-0.13348764,-0.01734407,-0.0013170766,-0.035494447,0.008987326,0.009851441,0.4647429,-1.3923137,1.9185203,-2.0988753,-1.5662354,2.4378414,-0.10410601,0.23272304,-0.2733399,0.017078526,0.0275266,-0.11375442,-0.1340753,0.26815057,-9.557653,0.8784135,47.684196,-1.0074794,-2.1446633,-3.47221,-0.005726833,0.09240223,-0.2898016,27.4375,28.625,27.9375,31.8125,33.875,34.75
0.28005224,-0.6144384,-1.5825787,-0.49446067,-0.042120777,0.012559294,-0.143583,-0.40008557,-0.35225528,0.059943408,3.0738125,-0.62101173,0.000120720346,-0.13861255,-0.01804502,0.0024950427,-0.037549455,0.016215662,0.0057861344,0.46427396,-1.3914361,1.9174412,-2.0987794,-1.5661639,2.4374337,-0.10627972,0.23362853,-0.2837462,0.019213885,0.026126333,-0.111858875,-0.076614454,0.36391866,-9.423578,0.93436235,47.711063,-0.9153689,-2.1934361,-3.284596,-0.019781664,0.15383194,-0.33783132,27.4375,28.625,27.9375,31.8125,33.875,34.75
0.28255194,-0.72625923,-1.0851557,-0.82368976,-0.031387467,0.00031452315,-0.143576,-0.4003496,-0.35230008,0.059943922,3.0738072,-0.62087536,0.00011699677,-0.13898534,-0.018164169,0.0020716665,-0.03694972,0.015442495,0.005226022,0.4641062,-1.3909436,1.9168438,-2.098695,-1.5661405,2.4371817,-0.10619128,0.23555487,-0.28527975,0.019785792,0.025939358,-0.11120955,0.0,0.4213795,-9.576807,0.8157518,47.692257,-0.9289348,-2.1206179,-3.3223329,-0.021724809,0.16625968,-0.36333627,27.4375,28.625,27.9375,31.8125,33.875,34.75
0.285052,-0.6776018,-1.3916986,-0.7024941,-0.037724234,0.016148806,-0.14547215,-0.40064698,-0.3523514,0.05995466,3.073673,-0.62088495,4.2519496e-05,-0.13890399,-0.017812997,0.0008263052,-0.036206827,0.01358402,0.0067516,0.46389,-1.3904624,1.9162582,-2.0987074,-1.566068,2.436989,-0.106742054,0.23760101,-0.2848433,0.019320367,0.02613323,-0.113282666,-0.019153614,0.5746084,-9.5385,0.900793,47.707485,-0.9324169,-2.0069141,-3.310043,-0.0029503768,0.18384495,-0.38604552,27.4375,28.625,27.9375,31.8125,33.875,34.75
0.2875523,-0.5367868,-1.7055142,-0.80638176,-0.033271346,0.015401927,-0.14720528,-0.40090618,-0.35234952,0.05993688,3.0736473,-0.62091815,9.7679396e-05,-0.13846697,-0.018046647,-0.00017000207,-0.03619035,0.011006661,0.008106933,0.463638,-1.3900046,1.9157451,-2.098635,-1.5660318,2.4367614,-0.10657456,0.23960657,-0.2851805,0.019976804,0.027281221,-0.114468455,0.11492168,0.5554548,-9.5385,0.90527004,47.694946,-0.94417256,-2.0969105,-3.5458908,-0.015721057,0.20196742,-0.39225572,27.4375,28.625,27.9375,31.8125,33.875,34.75
0.2900523,-0.25575936,-1.6852695,-0.44735968,-0.0489146,0.014382882,-0.14367005,-0.40147105,-0.3524625,0.059953522,3.0735028,-0.62066877,2.3694112e-05,-0.14042185,-0.018862754,0.0016382714,-0.038859636,0.013959815,0.02023259,0.46326584,-1.3890204,1.9145364,-2.0985634,-1.5659112,2.4362526,-0.10737523,0.2394813,-0.28951374,0.02068242,0.028416615,-0.12738724,0.076614454,0.4213795,-9.481039,1.0126908,47.71286,-0.9393666,-1.8080662,-3.686502,-0.008989602,0.20062421,-0.29044032,27.4375,28.625,27.9375,31.8125,33.875,34.75
0.29255268,-0.3483569,-1.2014463,-0.46040794,-0.029846378,-0.005833416,-0.14659844,-0.4017501,-0.35250407,0.059944745,3.0734096,-0.62058675,-9.374593e-06,-0.14122026,-0.019696837,0.0022482823,-0.03961526,0.01559857,0.028076762,0.46305022,-1.3885397,1.9139975,-2.0985873,-1.5658396,2.435998,-0.106510736,0.24029316,-0.29192144,0.02052386,0.028398268,-0.13436396,0.038307227,0.2681506,-9.3661175,0.8672237,47.685097,-1.1266471,-1.7639164,-3.489265,0.00505088,0.21934107,-0.20993833,27.4375,28.625,27.9375,31.8125,33.875,34.75
0.2950525,0.13523903,-0.13536745,-0.3418978,-0.004044188,-0.0062356247,-0.15013488,-0.40205923,-0.35254702,0.059976384,3.0733259,-0.6204911,-0.00012040993,-0.14382973,-0.019303234,0.0032118119,-0.039977908,0.018613072,0.031112894,0.46283346,-1.3880706,1.9133638,-2.0985396,-1.5658039,2.4357326,-0.10872379,0.24147005,-0.29550016,0.020106807,0.02741105,-0.13961096,0.13407528,0.2681506,-9.3661175,0.83813137,47.686886,-0.9447733,-1.7449077,-3.4769905,0.003293434,0.24961264,-0.12390866,27.4375,28.625,27.9375,31.8125,33.875,34.75
0.29755244,0.31612408,0.25886536,-0.549294,0.01705396,-0.008783008,-0.14909934,-0.40235206,-0.35257033,0.05997699,3.0732582,-0.6204002,-0.00013441435,-0.14569755,-0.020522622,0.003821325,-0.042305272,0.020038532,0.031244777,0.4625813,-1.3875896,1.9127892,-2.0985038,-1.5657429,2.4354327,-0.109032415,0.24407639,-0.29994068,0.019639136,0.02886534,-0.14004426,0.19153613,0.21068975,-9.385271,0.8784135,47.66539,-1.10529,-1.6919856,-3.4294891,0.028269304,0.26213115,-0.07389935,27.4375,28.625,27.9375,31.8125,33.875,34.75
0.3000528,-0.15675658,-0.09223783,-0.46384406,0.0060124467,-0.007941858,-0.1409594,-0.40292317,-0.35265425,0.05998269,3.073116,-0.6202225,-0.00014698584,-0.14643177,-0.020177014,0.0010060915,-0.04122806,0.012779884,0.02119915,0.46214852,-1.3866019,1.9115933,-2.098407,-1.5656108,2.4349077,-0.11147016,0.25193498,-0.3036446,0.022446234,0.031136334,-0.13242532,-0.076614454,0.2873042,-9.3661175,0.9634547,47.713753,-0.9528079,-2.0056696,-3.400649,0.033638287,0.25835925,-0.11905957,27.4375,28.625,27.9375,31.8125,33.875,34.75
0.30255207,-0.3557097,-0.79438376,-0.6939658,-0.016224416,0.025279302,-0.14635527,-0.4032201,-0.35271376,0.06000609,3.0730383,-0.62007433,-0.00020441318,-0.14652506,-0.020143913,0.0008702163,-0.041321866,0.010408173,0.016898282,0.46195632,-1.3861091,1.9109467,-2.098346,-1.5655502,2.4346333,-0.112216555,0.2532089,-0.30556574,0.025166407,0.03228263,-0.12886447,-0.13407528,0.28730422,-9.442732,0.93436235,47.690468,-0.97672236,-1.9230641,-3.3324683,0.022655463,0.26905322,-0.13786565,27.4375,28.625,27.9375,31.8125,33.875,34.75
0.30505213,-1.6476544,-1.609581,-0.5640953,-0.041223384,0.02923646,-0.13946421,-0.4034935,-0.35274735,0.05999256,3.0730045,-0.6200142,-0.00014171052,-0.1465839,-0.020096881,0.0006584468,-0.04070887,0.008407298,0.009426842,0.46174017,-1.3855917,1.9103492,-2.098261,-1.5654901,2.434384,-0.11244095,0.25462317,-0.3074441,0.027670888,0.032602075,-0.121616185,-0.21068975,0.34476504,-9.481039,0.8672237,47.67793,-1.0557816,-1.9611436,-3.4553974,-0.018684939,0.2846583,-0.23728518,27.4375,28.625,27.9375,31.8125,33.875,34.75
0.307552,-1.7072573,-1.6145725,-0.5303656,-0.05669879,0.045777924,-0.14475341,-0.40381575,-0.35279703,0.06001422,3.0728652,-0.62002504,-0.00016584007,-0.14781117,-0.018685676,0.00095162325,-0.04040178,0.008291293,0.0052871075,0.4614872,-1.3850756,1.9096788,-2.0982006,-1.5653938,2.4341562,-0.11567233,0.2544519,-0.3083262,0.028980963,0.03239379,-0.12070557,-0.38307226,0.36391866,-9.5385,0.86945957,47.677036,-1.0035764,-1.8698227,-3.4551044,-0.03218694,0.29723376,-0.25316527,27.4375,28.625,27.9375,31.8125,33.875,34.75
0.31005207,-1.4394605,-1.1245648,-0.23775211,-0.027240092,0.06743349,-0.14254673,-0.40439102,-0.35288185,0.060027074,3.072697,-0.6199748,-0.00017989527,-0.14902195,-0.018243885,-0.0005275403,-0.03982499,0.005603172,-0.0027655216,0.46105456,-1.3840889,1.9084605,-2.0980814,-1.5652617,2.4337144,-0.117670916,0.25911662,-0.3107978,0.02944672,0.033066757,-0.1146448,-0.36391866,0.28730422,-9.423578,0.9097417,47.703007,-0.974715,-1.9160404,-3.5524068,-0.056306243,0.30276138,-0.39206052,27.4375,28.625,27.9375,31.8125,33.875,34.75
0.31255215,-1.292612,-0.53951186,-0.086677976,-0.013891858,0.05576825,-0.1498089,-0.4046892,-0.3529437,0.0600403,3.0725715,-0.61989033,-0.00024530487,-0.1496967,-0.020695008,0.0009115688,-0.043275654,0.008054247,-0.0012364404,0.4608515,-1.3835963,1.9078501,-2.0980814,-1.5651773,2.433475,-0.11516797,0.25956666,-0.3146193,0.029092,0.035071872,-0.11365966,-0.38307226,0.22984336,-9.385271,0.9030289,47.692257,-0.9949371,-1.8847502,-3.705758,-0.055320337,0.31584358,-0.44631922,27.4375,28.625,27.9375,31.8125,33.875,34.75
0.3150523,-1.5367081,0.084251955,-0.0019892675,0.0056710867,0.03584776,-0.14679186,-0.40502352,-0.3529959,0.060058527,3.0724766,-0.6198694,-0.00031632796,-0.1515291,-0.02143075,0.0025913836,-0.045716517,0.011503051,0.00062790886,0.46062326,-1.3830435,1.9071435,-2.0980217,-1.5651287,2.4332464,-0.11576829,0.25914916,-0.31797963,0.028720425,0.03574506,-0.11611804,-0.38307226,0.15322891,-9.270349,0.95002913,47.698532,-1.0543427,-1.834347,-3.5405161,-0.06814425,0.3087251,-0.47904915,27.4375,28.625,27.9375,31.8125,33.875,34.75
0.3175524,-1.3084673,0.7570194,0.09548403,0.016035471,0.04061,-0.14213796,-0.40532297,-0.35301363,0.060052797,3.0723813,-0.6199225,-0.00033006934,-0.1527366,-0.021670567,0.0019477097,-0.045642715,0.010510291,0.00595184,0.4603589,-1.3825504,1.9065694,-2.0979974,-1.5650686,2.4330277,-0.11652392,0.2628364,-0.32107025,0.029095305,0.036156867,-0.122192994,-0.4405331,0.1340753,-9.289503,0.92764956,47.67166,-1.0682112,-1.7760925,-3.3820655,-0.06436988,0.3133917,-0.47442773,27.4375,28.625,27.9375,31.8125,33.875,34.75
0.3200518,-1.2033124,0.014858154,0.30892566,0.010214988,0.057790652,-0.14852998,-0.40593216,-0.35310495,0.060041115,3.0722866,-0.6197191,-0.00022896258,-0.15351573,-0.02168566,0.0021388277,-0.04575604,0.008687464,0.024468945,0.45990276,-1.3814201,1.905218,-2.0978043,-1.5649241,2.4324572,-0.1175553,0.2647565,-0.32486516,0.032696966,0.037175488,-0.14173709,-0.4405331,0.19153613,-9.193734,0.9947882,47.713753,-1.0944176,-1.7445834,-3.4206634,-0.1070241,0.32908902,-0.3025522,27.4375,28.625,27.9375,31.8125,33.875,34.75
0.32255194,-2.1707602,-0.39522454,0.2290485,-0.0066735446,0.046458002,-0.13431874,-0.40626773,-0.35315302,0.060066868,3.0721352,-0.6196484,-0.00031231315,-0.1545567,-0.02156495,0.0017013933,-0.04576354,0.0072034406,0.028174376,0.45963806,-1.3809153,1.9045609,-2.0977924,-1.5648283,2.4321682,-0.11896009,0.26756305,-0.32760325,0.03400616,0.03788936,-0.14683892,-0.6512228,0.21068975,-9.174581,0.9365982,47.694054,-1.0198307,-1.5801749,-3.4602928,-0.14439747,0.33308792,-0.20712517,27.4375,28.625,27.9375,31.8125,33.875,34.75
0.32505268,-1.7373575,-0.7924207,0.079849005,-0.009507512,0.05836543,-0.141941,-0.40655038,-0.35319826,0.060045984,3.0720897,-0.619542,-0.00023003711,-0.15613739,-0.020996274,0.001101855,-0.044732768,0.0062691555,0.029250903,0.45942146,-1.3803614,1.9039377,-2.0977204,-1.5647444,2.4318912,-0.1208653,0.27099195,-0.33065382,0.03496258,0.037394926,-0.14982124,-0.40222588,0.17238252,-9.193734,1.0104496,47.688675,-0.9021237,-1.844575,-3.4022918,-0.16317916,0.33526188,-0.16066232,27.4375,28.625,27.9375,31.8125,33.875,34.75
0.3275519,-1.5043199,-0.50078905,0.27189738,-0.01978346,0.060721733,-0.13224936,-0.40688464,-0.3532254,0.060050543,3.0720198,-0.6194727,-0.00024315008,-0.1568874,-0.019711608,-0.00052986183,-0.043711826,0.002979885,0.024632914,0.45914474,-1.379808,1.9032568,-2.0976484,-1.5646843,2.4315805,-0.12391234,0.27428433,-0.33111164,0.03553709,0.037945397,-0.1482461,-0.3256114,0.19153613,-9.155427,0.91198283,47.683304,-0.9348347,-1.7788243,-3.422818,-0.2012829,0.35335606,-0.1486032,27.4375,28.625,27.9375,31.8125,33.875,34.75
0.33005214,-0.9528364,0.52399635,0.3197023,0.00866891,0.042091567,-0.14353399,-0.40750474,-0.3533138,0.060032915,3.0718958,-0.61929953,-0.00018740904,-0.15774438,-0.021159882,-0.001390424,-0.04520937,0.0012250104,0.013400104,0.45867658,-1.378677,1.9019293,-2.0975163,-1.5645393,2.4310207,-0.12318845,0.27905843,-0.33510458,0.03562445,0.040017422,-0.13627793,-0.38307226,0.1340753,-9.136273,0.95002913,47.713753,-0.8568934,-1.8835057,-3.4481115,-0.22322376,0.34847075,-0.23598163,27.4375,28.625,27.9375,31.8125,33.875,34.75
0.33255216,-0.088727914,0.91759574,0.58324,-0.007360901,0.048491303,-0.15163133,-0.4078341,-0.35335907,0.060027663,3.0717819,-0.61929536,-0.00016710364,-0.1585861,-0.022571987,-0.0004900156,-0.047476713,0.0029593138,0.010740812,0.45841315,-1.3781005,1.9012483,-2.097469,-1.5644425,2.4307697,-0.122120455,0.27973986,-0.3380171,0.0352928,0.04127073,-0.132543,-0.38307226,0.21068975,-9.002198,0.9030289,47.678825,-0.9998684,-1.9471359,-3.480892,-0.23141342,0.3444869,-0.32362074,27.4375,28.625,27.9375,31.8125,33.875,34.75
0.33505225,-0.3266908,0.17559421,0.7820616,-0.01464804,0.025218379,-0.1406337,-0.40816137,-0.3534011,0.060018573,3.0717015,-0.6192211,-0.00017078049,-0.15953313,-0.02336279,0.0006646249,-0.05004532,0.0049580834,0.009876808,0.45816132,-1.3775233,1.9005774,-2.0974329,-1.56437,2.4304821,-0.12231568,0.27914268,-0.33998784,0.03494263,0.04269532,-0.13186647,-0.21068975,0.2681506,-8.983045,0.92764956,47.689575,-1.0097306,-1.9646006,-3.4516273,-0.2290261,0.33871013,-0.35744518,27.4375,28.625,27.9375,31.8125,33.875,34.75
0.3375525,-0.040168405,-0.4245502,0.38576663,-0.013547736,0.017340345,-0.13914618,-0.4084846,-0.35343865,0.06001436,3.071633,-0.6192664,-0.00016638754,-0.16026674,-0.023364276,-0.0002094758,-0.050034475,0.0030291448,0.006048235,0.45792094,-1.3769466,1.8998846,-2.097349,-1.5643224,2.4302793,-0.123322316,0.28231928,-0.34205693,0.035565674,0.043531492,-0.12903921,-0.2681506,0.28730422,-9.002198,0.9634547,47.685097,-1.0190363,-1.8102664,-3.489884,-0.25086045,0.31827936,-0.3791492,27.4375,28.625,27.875,31.8125,33.875,34.75
0.34005257,0.22051342,-0.8561973,0.3318916,-0.048075948,0.0055714236,-0.14917511,-0.40911296,-0.3535176,0.059999965,3.0715003,-0.6191395,-4.64404e-05,-0.16295023,-0.025371933,0.0017308797,-0.05548669,0.0059706187,0.010600243,0.45741686,-1.3758048,1.8985204,-2.0971577,-1.5641526,2.4297135,-0.124132164,0.28388444,-0.3485831,0.03554567,0.04715342,-0.13438477,0.038307227,0.38307226,-9.059659,0.9388393,47.699425,-1.088676,-1.702255,-3.3597264,-0.29750568,0.30767947,-0.41199154,27.4375,28.625,27.875,31.8125,33.875,34.75
0.34255266,0.21666054,-1.0712062,0.27790874,-0.044832874,0.004041899,-0.1433521,-0.409461,-0.35355154,0.059992995,3.071358,-0.6191822,-3.559207e-06,-0.16298373,-0.026259195,0.0009395991,-0.05606819,0.0052916803,0.01937202,0.45710492,-1.3752149,1.8978261,-2.09711,-1.564032,2.429447,-0.1230231,0.28632608,-0.3496058,0.034558404,0.048026584,-0.1420415,-0.038307227,0.4213795,-9.174581,0.9298854,47.691364,-1.0780813,-1.7809052,-3.407964,-0.30021822,0.2748076,-0.3387676,27.4375,28.625,27.875,31.8125,33.875,34.75
0.3450536,-0.45334062,-1.0899067,0.52581096,-0.050187863,0.008019128,-0.14059103,-0.4097931,-0.35361296,0.059992485,3.071299,-0.61895543,6.5001386e-06,-0.16520749,-0.026098795,0.0013065571,-0.059635438,0.0055316184,0.024486193,0.45687565,-1.3746133,1.897097,-2.0970385,-1.5639466,2.4290838,-0.12699054,0.2878527,-0.352253,0.03396312,0.05117675,-0.15110812,-0.095768064,0.5554548,-9.136273,0.9388393,47.707485,-1.0194831,-1.9155314,-3.4233577,-0.29833442,0.24039084,-0.26282388,27.4375,28.625,27.875,31.8125,33.875,34.75
0.3475536,-0.16714023,-0.8110293,0.27572215,-0.038743857,0.017568335,-0.14549352,-0.41008198,-0.35365695,0.059948288,3.0712385,-0.61895674,0.00022527784,-0.16483909,-0.027318161,-8.38761e-05,-0.06027261,0.0031519325,0.03327655,0.45662445,-1.3739885,1.8964285,-2.0969188,-1.5638145,2.4288414,-0.12548184,0.2915353,-0.35352254,0.033482194,0.05282756,-0.15838723,0.24899697,0.47884035,-9.193734,0.9097417,47.698532,-1.0390247,-1.9036396,-3.5313885,-0.30580768,0.19331197,-0.1734415,27.4375,28.625,27.875,31.8125,33.875,34.75
0.35005257,0.04005234,-0.739061,0.21533789,-0.027667938,0.027961656,-0.14019607,-0.410747,-0.35375828,0.059933327,3.071099,-0.61868227,0.00026836534,-0.16784114,-0.026875878,-0.0008467159,-0.06113071,0.0040274817,0.028285101,0.4561313,-1.3727856,1.8950037,-2.0967882,-1.5636462,2.4281952,-0.1287259,0.2962008,-0.35716096,0.03133026,0.053218774,-0.15663223,-0.038307227,0.4405331,-9.212888,0.99031126,47.711063,-0.9408964,-2.095341,-3.509407,-0.29963714,0.15788074,-0.091255635,27.4375,28.625,27.875,31.8125,33.875,34.75
0.35255268,0.18590665,-0.4529825,0.022491539,-0.0325051,0.022084862,-0.14520092,-0.41110566,-0.35381326,0.059938032,3.070898,-0.6186832,0.00029954236,-0.16860284,-0.026622003,-0.0020349417,-0.061745007,0.0021606698,0.020340059,0.45581856,-1.3721962,1.8942875,-2.0967638,-1.5634779,2.4279094,-0.13047253,0.29916707,-0.35796756,0.030569568,0.05458097,-0.15042266,0.15322891,0.49799395,-9.251195,0.92093146,47.699425,-0.83554375,-2.0167918,-3.7007306,-0.2955808,0.12976193,-0.16780578,27.4375,28.625,27.875,31.8125,33.875,34.75
0.35505337,-0.29855445,-1.007433,-0.22558841,-0.027311904,0.0008945273,-0.1251444,-0.41145825,-0.3538554,0.059939872,3.0708518,-0.618561,0.00021782049,-0.17115763,-0.027867919,-0.0008534714,-0.06302166,0.006236642,0.014589294,0.4555788,-1.3715947,1.893557,-2.0967166,-1.5634545,2.4275997,-0.12993045,0.3015213,-0.36332732,0.029326592,0.05390458,-0.14412574,-0.038307227,0.49799395,-9.270349,0.91421866,47.67793,-0.87251943,-2.1739388,-3.5726614,-0.2801894,0.10921984,-0.22015053,27.4375,28.625,27.875,31.8125,33.875,34.75
0.35755372,0.10740232,-0.86162096,0.09094703,-0.05430842,0.018744571,-0.13687116,-0.4117796,-0.3539409,0.059937183,3.0706978,-0.6185118,0.00031971931,-0.17264056,-0.027363153,-0.00042043268,-0.06035351,0.008895908,0.0103647495,0.45535105,-1.3709817,1.892815,-2.0966327,-1.5632876,2.4273612,-0.12968531,0.3027006,-0.3659508,0.029572321,0.050323192,-0.13966727,-0.076614454,0.51714754,-9.346964,0.8940802,47.681515,-0.899194,-2.1356313,-3.4860134,-0.27948007,0.13705093,-0.29482245,27.4375,28.625,27.875,31.8125,33.875,34.75
0.3600534,-0.6809549,-0.8016544,-0.08629947,-0.030817693,0.029707229,-0.14117554,-0.41245595,-0.3540224,0.059893485,3.0705483,-0.61842716,0.0004482602,-0.17610893,-0.028179672,0.0017268056,-0.06253756,0.014150095,0.0022232758,0.45481044,-1.3697201,1.8913792,-2.0964892,-1.5631078,2.4267876,-0.13065858,0.3039171,-0.3725445,0.02926937,0.049945306,-0.13249713,-0.1340753,0.4213795,-9.500193,0.95002913,47.713753,-0.9314041,-2.046977,-3.4163363,-0.25932485,0.1131697,-0.44566637,27.4375,28.625,27.875,31.8125,33.875,34.75
0.36255285,-0.72329503,-0.25243205,-0.48054937,-0.0214915,0.042309735,-0.14202796,-0.41278636,-0.35410252,0.059891302,3.070411,-0.61833984,0.0004464983,-0.17575665,-0.028718323,0.0004708742,-0.060132757,0.0139264595,0.0036890225,0.45459586,-1.3691187,1.8906626,-2.0964658,-1.5629882,2.4265366,-0.12803942,0.30675122,-0.37300012,0.028173143,0.04789358,-0.13134748,-0.095768064,0.36391866,-9.5385,0.9097417,47.692257,-1.2025927,-2.0152879,-3.2991748,-0.25591204,0.11940436,-0.49530613,27.4375,28.625,27.875,31.8125,33.875,34.75
0.36505243,-0.3167242,0.35831994,-0.41027123,-0.024001502,0.068879455,-0.15250409,-0.41315094,-0.354144,0.059875745,3.07029,-0.61837006,0.000492363,-0.17656888,-0.026792264,-0.00043287064,-0.058043424,0.013507543,0.0063861776,0.4542947,-1.3684691,1.8899101,-2.0964062,-1.5628809,2.4262702,-0.1308163,0.3075419,-0.3719859,0.027739339,0.04624918,-0.13682741,-0.05746084,0.2873042,-9.595961,0.9231726,47.694054,-1.006088,-2.1053512,-3.705923,-0.22891206,0.11607752,-0.5006792,27.4375,28.625,27.875,31.8125,33.875,34.75
0.36755273,-1.143839,-0.12564081,-0.69788736,-0.019637277,0.05412062,-0.15057069,-0.41349226,-0.3542096,0.05987143,3.0701997,-0.61821413,0.0005242033,-0.17660011,-0.025884556,-0.0016305007,-0.055257585,0.011701657,0.01196744,0.4540545,-1.3678441,1.8891581,-2.0963337,-1.5627736,2.4259446,-0.13121559,0.30973083,-0.37231222,0.028801281,0.044589702,-0.14281298,-0.114921674,0.30645782,-9.691729,0.9321212,47.66987,-1.0731816,-2.1368957,-3.8130484,-0.22588453,0.13610205,-0.46652168,27.4375,28.625,27.875,31.8125,33.875,34.75
0.3700521,-1.0322,-0.49642038,-0.96746755,-0.017878834,0.058438387,-0.14249207,-0.41421354,-0.35430777,0.059864823,3.070046,-0.61801755,0.00047196297,-0.1802256,-0.025197538,-0.002722105,-0.052077465,0.013131001,0.030057466,0.453538,-1.3665807,1.887638,-2.0962145,-1.5626429,2.4253259,-0.13303602,0.31699836,-0.37878808,0.028333789,0.04124244,-0.16273049,-0.34476504,0.30645782,-9.825804,0.9298854,47.704796,-1.0005014,-2.2492247,-3.748744,-0.20768455,0.1670906,-0.27172452,27.4375,28.625,27.875,31.8125,33.875,34.75
0.37255314,-1.4955189,-0.72927994,-1.0084647,-0.021363022,0.04728645,-0.14265922,-0.41457543,-0.3543531,0.05986153,3.0699546,-0.61791956,0.00046492374,-0.18274996,-0.024621852,-0.0024021743,-0.05171862,0.014410618,0.03276758,0.4532614,-1.3659549,1.8868841,-2.096154,-1.562559,2.4250002,-0.13543579,0.3196696,-0.38304013,0.028991468,0.0404021,-0.16784026,-0.4213795,0.30645782,-9.940725,0.9388393,47.655537,-0.9700048,-2.3632317,-3.6380296,-0.20347133,0.19104962,-0.17152114,27.4375,28.625,27.875,31.8125,33.875,34.75
0.37505257,-1.347779,-0.64233214,-0.595565,-0.04789561,0.07188078,-0.14790514,-0.41495743,-0.35441583,0.059893563,3.0698333,-0.61781603,0.0003938397,-0.18389189,-0.026339991,-0.0005790317,-0.05277028,0.019010613,0.03574816,0.4529983,-1.3653425,1.8860582,-2.096059,-1.5624756,2.4246886,-0.13265139,0.31943214,-0.38696977,0.028592559,0.039355185,-0.16803567,-0.38307226,0.15322891,-9.902418,0.93436235,47.66987,-1.0682825,-2.3494391,-3.604694,-0.1786454,0.2316805,-0.15324731,27.4375,28.625,27.875,31.8125,33.875,34.75
0.37755272,-1.658885,-0.44889748,-0.82341266,-0.033379998,0.061599888,-0.13875814,-0.41533262,-0.35445717,0.05989301,3.0697274,-0.6177431,0.0003974638,-0.18537405,-0.025524067,-0.00043944793,-0.052645147,0.019665007,0.025997337,0.45269722,-1.3647053,1.8852814,-2.095987,-1.5623797,2.424356,-0.1348297,0.32036206,-0.38861808,0.028743526,0.03893058,-0.160462,-0.51714754,0.2681506,-9.921572,0.95226496,47.664497,-0.9378983,-2.4156542,-3.613183,-0.17448376,0.2480135,-0.1911462,27.4375,28.625,27.875,31.8125,33.875,34.75
0.38005185,-1.926664,-0.30084965,-0.7270174,-0.025723424,0.07293603,-0.15014568,-0.41604146,-0.35457408,0.0598685,3.069575,-0.61752206,0.00037397907,-0.18527453,-0.025970798,-5.2916235e-05,-0.053632583,0.019830447,0.017480604,0.4522177,-1.3634086,1.8837637,-2.0958908,-1.5622352,2.4237587,-0.13415752,0.3198941,-0.3894638,0.02943793,0.03972863,-0.1512651,-0.47884035,0.2681506,-9.844957,1.0350704,47.687782,-1.1309235,-2.0408401,-3.8893447,-0.12248381,0.2620744,-0.32571763,27.4375,28.625,27.875,31.8125,33.875,34.75
0.3825524,-2.006048,-0.25500858,-0.7529697,-0.015818713,0.054104406,-0.14064579,-0.4164358,-0.3546023,0.059867274,3.069467,-0.6175192,0.0003409863,-0.1854168,-0.026321035,-0.00019773208,-0.05385972,0.018250963,0.015915914,0.4518939,-1.3627594,1.8829755,-2.0958307,-1.5621628,2.4234476,-0.1340479,0.32144699,-0.39162278,0.03137199,0.04063712,-0.14958294,-0.26815057,0.15322891,-9.883265,1.0171678,47.68599,-1.1625371,-2.0342307,-3.931387,-0.12288205,0.2767983,-0.34524977,27.4375,28.625,27.875,31.8125,33.875,34.75
0.3850524,-1.1825733,-0.092858195,-0.3505077,-0.017361192,0.05080636,-0.15083341,-0.41681802,-0.35467353,0.059884846,3.0693297,-0.6174327,0.00021535267,-0.18715195,-0.026714489,0.0007670522,-0.05508733,0.020167407,0.013974258,0.45165372,-1.3621343,1.8821844,-2.0958183,-1.5620908,2.4231718,-0.1348249,0.32244462,-0.3952676,0.03176862,0.04092308,-0.14840981,-0.2873042,0.05746084,-9.691729,1.0126908,47.674347,-1.1519812,-2.0471041,-3.844743,-0.10692814,0.28685984,-0.37815744,27.4375,28.625,27.875,31.8125,33.875,34.75
0.3875523,-0.7762773,0.04834184,-0.356272,-0.00096451986,0.032951884,-0.1556239,-0.41719806,-0.3547353,0.0598957,3.06919,-0.6173636,0.00018442677,-0.1900006,-0.027634885,0.0014875439,-0.05662781,0.022947975,0.016093075,0.4513775,-1.3614967,1.8813823,-2.0957587,-1.5619825,2.4228709,-0.13556898,0.32589713,-0.40103054,0.030956822,0.041127518,-0.15126559,-0.2681506,0.05746084,-9.519346,0.95002913,47.67345,-1.1444216,-2.0489676,-3.6309793,-0.067477144,0.28754902,-0.39050984,27.4375,28.625,27.875,31.8125,33.875,34.75
0.39005253,-0.22498505,0.8653492,-0.71833307,0.036581196,-0.005453749,-0.15970106,-0.41802597,-0.3548771,0.059966367,3.0688856,-0.61715573,-0.00010973873,-0.19104171,-0.028700098,0.00012885909,-0.0574461,0.019304272,0.031255983,0.45083752,-1.3602105,1.879661,-2.0956738,-1.5618256,2.4222417,-0.13578135,0.3322433,-0.40641597,0.033093385,0.043627556,-0.16661264,-0.11492168,0.076614454,-9.710882,1.0238806,47.68599,-1.1522806,-2.183033,-3.5679631,-0.03590025,0.31128192,-0.2596042,27.4375,28.625,27.875,31.8125,33.875,34.75
0.39255258,-0.8993293,-0.28207505,-0.3699128,-1.4387433e-05,0.011257612,-0.16008592,-0.41841668,-0.35490894,0.059974622,3.0687957,-0.6170576,-0.0001456506,-0.19090872,-0.028104907,-0.0008430416,-0.05694653,0.015835837,0.036873464,0.45052484,-1.3595743,1.8788594,-2.095589,-1.5617532,2.4218798,-0.13718401,0.3341435,-0.40721828,0.035420183,0.044767078,-0.17362371,-0.19153613,0.30645782,-9.461885,0.95897776,47.672558,-0.9989069,-2.2856138,-3.5990891,-0.028575897,0.30496258,-0.12822723,27.4375,28.625,27.875,31.8125,33.875,34.75
0.39505184,-1.1836494,-1.1408598,-0.65773886,-0.014313019,0.017287832,-0.15090396,-0.41875544,-0.35495165,0.059947513,3.06878,-0.6168631,-1.327213e-05,-0.19273864,-0.026467752,0.0005111207,-0.055986572,0.017820109,0.035790104,0.45025998,-1.3589036,1.8780826,-2.0954454,-1.5616583,2.4214954,-0.14024799,0.3327889,-0.40937284,0.037613463,0.043057036,-0.17561571,-0.076614454,0.34476504,-9.5385,0.9410752,47.661808,-1.1814072,-2.0393333,-3.753817,-0.0324987,0.31387055,-0.0907757,27.4375,28.625,27.875,31.8125,33.875,34.75
0.39755204,-1.5753746,-1.8197641,-0.46139443,-0.049793143,0.026534205,-0.14146017,-0.41916144,-0.35499,0.059961755,3.0686724,-0.6168414,-0.000115146904,-0.19136181,-0.027728759,0.00025368494,-0.056002125,0.015467889,0.03417448,0.44996098,-1.3582554,1.8772577,-2.0953844,-1.5616096,2.4211974,-0.13742688,0.3336288,-0.41054294,0.040032033,0.044098247,-0.17116822,-0.11492168,0.4405331,-9.710882,0.9612189,47.647476,-1.2547845,-2.0785155,-3.8258905,-0.047025204,0.36332232,-0.101000175,27.4375,28.625,27.875,31.8125,33.875,34.75
0.4000523,-1.2454453,-1.8480968,-0.5106019,-0.054846413,0.0025688882,-0.14668842,-0.41996178,-0.35512593,0.060006093,3.068391,-0.61659724,-0.00025555657,-0.19519609,-0.029297758,0.0038645084,-0.061991345,0.021293947,0.019564748,0.44940826,-1.3569493,1.8755578,-2.0952528,-1.5614046,2.4205296,-0.13926248,0.33299777,-0.4184451,0.040645316,0.046918333,-0.15836416,-0.019153614,0.34476504,-9.5385,1.0596858,47.688675,-1.202254,-1.7109227,-3.5896168,-0.042404935,0.34604067,-0.21384129,27.4375,28.625,27.875,31.8125,33.875,34.75
0.40255192,0.104147375,-0.33139718,-0.2473366,-0.027688911,-0.016146146,-0.1556862,-0.42034686,-0.35517228,0.060015485,3.0682673,-0.61657524,-0.00029754185,-0.1976991,-0.028838431,0.0035860625,-0.063063905,0.021045648,0.013140735,0.44911936,-1.356313,1.8747548,-2.0951807,-1.5613202,2.4202435,-0.14255162,0.3366164,-0.4223631,0.04069606,0.047988825,-0.15521705,-0.038307227,0.4405331,-9.461885,0.96569055,47.679718,-1.1460221,-1.7139533,-3.559454,-0.0327612,0.35667545,-0.28666997,27.4375,28.625,27.875,31.8125,33.875,34.75
0.40505204,-0.10784881,-0.27501103,-0.4085637,-0.0015137801,-0.03326937,-0.14939892,-0.42075205,-0.35524017,0.060044017,3.0681229,-0.61646986,-0.0003874159,-0.19704378,-0.029283267,0.0017603327,-0.061350837,0.01863146,0.00783704,0.44884405,-1.3556637,1.8738927,-2.0951092,-1.5612248,2.4199216,-0.14076029,0.34013638,-0.42257267,0.040266376,0.04747267,-0.14811806,-0.095768064,0.49799395,-9.3661175,0.98807013,47.688675,-1.1245046,-1.8322829,-3.5802517,0.004052834,0.37450972,-0.37237108,27.4375,28.625,27.875,31.8125,33.875,34.75
0.40755203,-0.31816882,-0.49024537,-0.50536335,-0.002404801,-0.03315782,-0.15796444,-0.4211325,-0.3552868,0.060021482,3.0680122,-0.61645097,-0.00027677507,-0.19760598,-0.02833134,0.0002596603,-0.06104999,0.013604996,0.0022097365,0.44853055,-1.3549553,1.8730658,-2.0949996,-1.5610918,2.419611,-0.143788,0.34390178,-0.42459878,0.043189224,0.049378764,-0.14550586,0.05746084,0.5554548,-9.461885,0.9992599,47.677036,-0.9086287,-1.9898069,-3.6492817,0.0075109443,0.35942286,-0.444542,27.4375,28.625,27.875,31.8125,33.875,34.75
0.41005206,-1.3376534,-1.9581163,0.1247566,-0.04733546,0.019045616,-0.15595183,-0.42192873,-0.35539168,0.060048535,3.06779,-0.6163203,-0.00034555726,-0.19843152,-0.02930322,0.00038214412,-0.06411375,0.010126716,0.0125744175,0.4479544,-1.3536236,1.8713535,-2.0947955,-1.5609225,2.418983,-0.14510751,0.34695056,-0.42989755,0.0473992,0.053782623,-0.15715404,0.019153614,0.51714754,-9.251195,1.0194036,47.709274,-0.99149734,-1.9933836,-3.6471796,-0.03300419,0.3404916,-0.4177922,27.4375,28.625,27.875,31.8125,33.875,34.75
0.41255206,-1.5230873,-1.2536803,0.006666079,-0.048171695,0.0058853026,-0.15778212,-0.42233822,-0.35548833,0.060063727,3.067618,-0.6161997,-0.00039981407,-0.19815359,-0.029841585,0.0009776958,-0.0651715,0.0077086287,0.023937346,0.44770268,-1.3529161,1.8704551,-2.0947459,-1.5607895,2.4186788,-0.14507109,0.34723297,-0.43282023,0.051901042,0.055907182,-0.16846035,0.05746084,0.4405331,-9.270349,0.95226496,47.684196,-0.9971497,-1.8201225,-3.7129297,-0.08011131,0.31031448,-0.31933987,27.4375,28.625,27.875,31.8125,33.875,34.75
0.4150522,-1.6030807,-1.34979,0.43980646,-0.044838626,-0.0026952825,-0.15522805,-0.42272604,-0.3555437,0.060063243,3.0675256,-0.6160417,-0.00037216806,-0.19844091,-0.029896712,0.0007859047,-0.06583459,0.004811519,0.031537205,0.4474143,-1.3522322,1.8696064,-2.0946372,-1.5606807,2.418304,-0.14619522,0.3491081,-0.4356256,0.055271674,0.05784845,-0.17716907,-0.038307227,0.34476504,-9.308657,1.0126908,47.689575,-0.9816507,-1.8206828,-3.552002,-0.10660131,0.25410935,-0.217879,27.4375,28.625,27.875,31.8125,33.875,34.75
0.41755232,-0.49936092,-0.6924924,0.5176236,-0.02300251,-0.010178378,-0.16145243,-0.423153,-0.3556064,0.060079277,3.067395,-0.61593723,-0.00043153443,-0.19805951,-0.030289605,0.0003491576,-0.06666759,0.001205879,0.033651974,0.447114,-1.3515242,1.8686961,-2.0945518,-1.560584,2.4179559,-0.14644758,0.350851,-0.43770087,0.058544915,0.06021094,-0.17951415,-0.1340753,0.3256114,-9.078813,0.9992599,47.683304,-0.93626463,-1.7535663,-3.6479816,-0.15942499,0.23489222,-0.1603939,27.4375,28.625,27.875,31.8125,33.875,34.75
0.42005253,-0.3870756,0.56011724,0.74914694,0.0017350453,-0.024651244,-0.16440699,-0.42392573,-0.35574073,0.060087375,3.0671182,-0.615695,-0.00034638794,-0.20190598,-0.032066617,0.0022879476,-0.0728546,0.004697775,0.019857882,0.44653755,-1.3501683,1.8669943,-2.0943487,-1.5602945,2.4172647,-0.14860529,0.3535484,-0.44555822,0.05783316,0.06421173,-0.16783996,-0.2681506,0.30645782,-9.059659,1.0261165,47.698532,-1.0046979,-1.7793293,-3.4867768,-0.15829812,0.15273619,-0.23044202,27.4375,28.625,27.875,31.8125,33.875,34.75
0.4225528,-0.34408346,-0.042015523,1.0932997,0.0020305153,0.0046459106,-0.15910853,-0.42436257,-0.35583523,0.06011023,3.066971,-0.61552984,-0.0003713182,-0.20066822,-0.032967266,0.0008222304,-0.07192019,0.0008199508,0.017673101,0.44626233,-1.3494123,1.8660015,-2.094228,-1.560162,2.4169059,-0.14638287,0.35660675,-0.44661388,0.05972189,0.0650372,-0.16341951,-0.34476504,0.34476504,-8.772355,1.0015011,47.670765,-1.0419251,-1.6927233,-3.4649508,-0.1978895,0.1310139,-0.3044964,27.4375,28.625,27.875,31.8125,33.875,34.75
0.42505217,-1.1810582,-0.049159374,0.72051656,0.012367745,0.020139067,-0.16286296,-0.4247517,-0.35588783,0.0601179,3.0668294,-0.6155032,-0.0002989065,-0.20161618,-0.031575035,0.00032827488,-0.0718117,-0.0013185869,0.012909704,0.44594884,-1.3487405,1.8651389,-2.094084,-1.560018,2.4165945,-0.14978328,0.35786197,-0.44762835,0.061483487,0.06586962,-0.16204804,-0.2873042,0.21068975,-8.887277,0.97240865,47.66091,-0.92093426,-1.6902597,-3.634307,-0.22037514,0.10532704,-0.36737147,27.4375,28.625,27.875,31.8125,33.875,34.75
0.42755216,-1.4003515,0.58829856,0.8802941,0.00090874307,0.036284886,-0.16713142,-0.4251333,-0.35595205,0.060086794,3.0667233,-0.6154823,-0.00015101772,-0.20317873,-0.032617394,2.2970471e-05,-0.07165797,-0.0018183164,0.011194912,0.4456613,-1.3479838,1.8642634,-2.093952,-1.5598739,2.416308,-0.14913319,0.3626539,-0.45331502,0.06291173,0.0659237,-0.1596817,-0.095768064,0.22984336,-8.963891,0.9768804,47.642998,-1.0207112,-1.7724066,-3.4946508,-0.27910078,0.05944752,-0.36483312,27.4375,28.625,27.875,31.8125,33.875,34.75
0.43005234,-2.0394082,0.04836054,0.9626874,0.0031512822,0.035006117,-0.16511321,-0.42594564,-0.356081,0.060073778,3.0664625,-0.6152869,-2.1462227e-05,-0.20612805,-0.0321818,0.00051225384,-0.070099376,0.0023747478,0.020567682,0.4450493,-1.34652,1.8624686,-2.093725,-1.5595869,2.4156084,-0.14994523,0.36536595,-0.457979,0.06196213,0.062819116,-0.16988222,-0.38307226,0.13407528,-8.848969,1.0373062,47.696735,-1.1535294,-1.8857162,-3.5618076,-0.29032493,0.027882857,-0.32938725,27.4375,28.625,27.875,31.8125,33.875,34.75
0.4325525,-2.1820726,-0.072295636,1.1128807,0.009044676,0.033161808,-0.15316656,-0.42636183,-0.35614976,0.06009208,3.0663922,-0.61509013,-6.480254e-05,-0.20586042,-0.033723697,0.00037983462,-0.068043,0.0053269155,0.035294496,0.44478697,-1.3458004,1.8615221,-2.0935814,-1.5595163,2.4152327,-0.1451259,0.366875,-0.45936155,0.06020717,0.05979216,-0.17980698,-0.38307226,0.21068975,-8.695741,1.0462601,47.65643,-1.3061461,-1.7870855,-3.3992517,-0.2776897,0.034102216,-0.22391172,27.4375,28.625,27.875,31.8125,33.875,34.75
0.43505263,-2.0778315,-0.18439202,0.78920335,0.017972546,0.036139406,-0.15737931,-0.4267829,-0.3562387,0.06009947,3.0662622,-0.61488587,-4.2804062e-05,-0.2092254,-0.03451099,0.0027775592,-0.06971216,0.012496038,0.042320617,0.44451094,-1.3450447,1.8605622,-2.0934632,-1.5593728,2.4148462,-0.14539671,0.36705303,-0.46482724,0.058435988,0.058287345,-0.1871095,-0.30645782,0.2681506,-8.7532015,0.9701675,47.65643,-1.3603919,-1.7155612,-3.4099941,-0.27676946,0.01971547,-0.117611215,27.4375,28.625,27.875,31.8125,33.875,34.75
0.4375517,-1.9890996,-0.26790902,0.5712612,0.024212,0.03271615,-0.1514437,-0.4271845,-0.35629013,0.060085665,3.0661805,-0.61475456,9.9202025e-06,-0.21105932,-0.033545077,0.0023497848,-0.06694185,0.015185433,0.041956596,0.44421062,-1.3443129,1.8596781,-2.093344,-1.5592664,2.4144747,-0.14608529,0.36928546,-0.46642295,0.056616336,0.0546436,-0.18745837,-0.2681506,0.2873042,-8.772355,0.97464454,47.64479,-1.379244,-1.6364629,-3.3650632,-0.2697127,0.041477416,-0.049766384,27.4375,28.625,27.875,31.8125,33.875,34.75
0.4400527,-1.9643627,-0.8836741,0.3281271,-0.0099613005,0.054600302,-0.15154406,-0.42803767,-0.35639384,0.060064133,3.0659957,-0.614571,4.746161e-05,-0.21331999,-0.030578509,-0.000412226,-0.06106066,0.015533219,0.02540722,0.44358575,-1.3427883,1.8578233,-2.0931175,-1.5590757,2.41376,-0.14908887,0.37448356,-0.46634254,0.053479936,0.04910276,-0.17394695,-0.51714754,0.49799395,-9.021352,1.0552088,47.694946,-1.3262024,-1.7385056,-3.7240124,-0.2295995,0.11481221,-0.14428724,27.4375,28.625,27.875,31.8125,33.875,34.75
0.44255224,-1.6372992,-0.93032396,-0.06533827,-0.021952758,0.049069602,-0.15489374,-0.42844307,-0.3564351,0.060028803,3.0659413,-0.61456424,0.00017843979,-0.21498394,-0.030282214,-0.0010348359,-0.059869114,0.016206587,0.017210301,0.44327345,-1.3419962,1.8569015,-2.09295,-1.5589808,2.4134507,-0.14984098,0.3778141,-0.46910843,0.05276736,0.047671,-0.166513,-0.3256114,0.49799395,-9.251196,0.98135734,47.675243,-1.309613,-1.8839035,-3.7685015,-0.22011209,0.13627736,-0.24542968,27.4375,28.625,27.875,31.8125,33.875,34.75
0.44505265,-1.9667137,-1.5624752,-0.050439056,-0.04451219,0.03832792,-0.14229164,-0.4288677,-0.35649395,0.05999627,3.065884,-0.61445886,0.00017134381,-0.2173089,-0.029717097,-0.00047280584,-0.05890135,0.019488156,0.011302253,0.44299677,-1.3411916,1.8559798,-2.092879,-1.5589212,2.413116,-0.15104218,0.37922707,-0.4721778,0.051849827,0.045358732,-0.16182001,-0.51714754,0.6703765,-9.32781,1.0350704,47.67793,-1.2358443,-2.022671,-3.7183435,-0.18980333,0.2012802,-0.3073361,27.4375,28.625,27.875,31.8125,33.875,34.75
0.44755265,-2.0074184,-1.7959759,-0.31871223,-0.051021043,0.032867763,-0.15001746,-0.429317,-0.3565472,0.060006913,3.0657883,-0.6143472,0.00011212465,-0.22009246,-0.029649856,-0.00085421524,-0.058568895,0.020910414,0.0034019703,0.44268444,-1.3404354,1.855008,-2.0927594,-1.5588497,2.412747,-0.15257458,0.38383514,-0.4769578,0.050832257,0.044408713,-0.1554528,-0.5554548,0.61291564,-9.270349,1.0641627,47.65643,-1.1630758,-2.0731285,-3.5845263,-0.17644325,0.24413285,-0.43974215,27.4375,28.625,27.875,31.8125,33.875,34.75
0.45005208,-1.5497642,-1.4978096,-0.75697106,-0.052511882,0.025520833,-0.1549823,-0.43018156,-0.35666046,0.059962694,3.0656044,-0.6142848,0.00014423582,-0.22203702,-0.02948111,-0.00082873326,-0.059016217,0.023280555,0.008820944,0.4420842,-1.3388397,1.8531173,-2.0925562,-1.5586814,2.4121325,-0.15364328,0.38575557,-0.47956172,0.04931579,0.043887794,-0.16194183,-0.22984336,0.51714754,-9.519346,1.005978,47.682407,-1.094091,-2.1290145,-3.6659749,-0.13565019,0.2922799,-0.4818744,27.4375,28.625,27.875,31.8125,33.875,34.75
0.45255294,-1.5096383,-1.5171728,-0.9003639,-0.043681245,0.012864028,-0.155604,-0.43066272,-0.35672608,0.059968505,3.0654578,-0.61421007,9.184093e-05,-0.22258945,-0.027746348,-0.0021082298,-0.059295066,0.020865474,0.017538879,0.4417466,-1.3380246,1.8520888,-2.0924604,-1.5585731,2.411768,-0.15757841,0.3868711,-0.47826853,0.04915297,0.045323476,-0.17458166,-0.26815057,0.47884035,-9.595961,1.0216395,47.66808,-0.99008214,-1.9327171,-3.8894339,-0.104542896,0.32101429,-0.3617236,27.4375,28.625,27.875,31.8125,33.875,34.75
0.4550521,-1.1397613,-1.120873,-1.0141925,-0.031265832,0.021194559,-0.16066836,-0.43110996,-0.3567993,0.059952166,3.0653217,-0.61406046,9.247386e-05,-0.22372633,-0.028270962,-0.0021185135,-0.05946295,0.019996032,0.02685181,0.44143474,-1.3372197,1.8511304,-2.0923998,-1.558441,2.4113808,-0.15774982,0.38995788,-0.48282483,0.051489055,0.045958452,-0.18405733,-0.05746084,0.3256114,-9.595961,1.0350704,47.692257,-0.95637447,-2.1566534,-3.8415046,-0.08966879,0.3230714,-0.25640976,27.4375,28.625,27.875,31.8125,33.875,34.75
0.45755243,-1.0990227,-0.60641366,-0.93987435,-0.017465059,0.0126308175,-0.15966958,-0.43156552,-0.35682875,0.059952017,3.065235,-0.6139831,3.741977e-05,-0.22671752,-0.02979248,-0.00032768917,-0.06320556,0.024028054,0.0308396,0.44108647,-1.3364643,1.8501838,-2.0922925,-1.55838,2.410996,-0.15836415,0.391843,-0.48926413,0.05087725,0.04767852,-0.18864146,0.0,0.24899697,-9.710882,1.0305934,47.667187,-0.92151785,-2.2081838,-3.7523293,-0.066502124,0.33610618,-0.2013579,27.4375,28.625,27.875,31.8125,33.875,34.75
0.4600517,-1.1087779,-0.40131372,-1.0278007,0.030711308,0.00062307686,-0.14228122,-0.4324564,-0.35696945,0.05991541,3.0650115,-0.6137523,0.000104832056,-0.23008704,-0.028659357,-0.0017519726,-0.06454723,0.021527622,0.016007321,0.44047272,-1.3348197,1.8482083,-2.092077,-1.5581397,2.4102678,-0.16376446,0.39828685,-0.49461955,0.05142519,0.04991087,-0.1791849,-0.2681506,0.24899697,-9.653421,1.0015011,47.698532,-0.7635914,-2.3999667,-3.5398111,-0.016645895,0.35569233,-0.23068604,27.4375,28.625,27.875,31.8125,33.875,34.75
0.4625523,-1.4446902,-0.36012685,-1.3661597,0.02911965,0.010045937,-0.14213586,-0.4329252,-0.35703814,0.05991838,3.064892,-0.61372805,3.703891e-05,-0.22708388,-0.02926843,-0.0037284226,-0.063342616,0.014399475,0.012958084,0.44017357,-1.3340038,1.8471788,-2.0919673,-1.5580667,2.4099698,-0.16130081,0.4000449,-0.49353376,0.05549373,0.05185081,-0.17365181,-0.36391866,0.114921674,-9.768343,1.0037369,47.677036,-0.84514046,-2.391102,-3.6786342,-0.019378455,0.34925056,-0.31429324,27.4375,28.625,27.875,31.8125,33.875,34.75
0.46505237,-1.0861728,-0.13841827,-1.166881,0.0062383423,0.034530975,-0.15871258,-0.43339851,-0.3570895,0.059944455,3.064739,-0.6136389,-3.974543e-06,-0.22661574,-0.029897388,-0.0046113674,-0.06347293,0.011802273,0.010761216,0.43981415,-1.3332472,1.8461617,-2.0918233,-1.5579461,2.4095752,-0.16035904,0.402337,-0.4949271,0.05688399,0.053079117,-0.17049718,-0.22984336,0.13407528,-9.825804,1.0126908,47.666286,-0.86907756,-2.5204897,-3.835503,-0.019825859,0.35274094,-0.38072735,27.4375,28.625,27.875,31.8125,33.875,34.75
0.4675526,-1.787854,-0.9426846,-1.0815045,-0.011877471,0.0457587,-0.1411221,-0.43384826,-0.3571581,0.0599198,3.0646188,-0.6135163,8.529841e-06,-0.22831424,-0.031845145,-0.0014833517,-0.06742711,0.017653054,0.011138797,0.43950272,-1.3324214,1.8451904,-2.0917518,-1.5578259,2.4092033,-0.15886907,0.40009412,-0.49945906,0.056700077,0.054171026,-0.16937195,-0.38307226,0.22984336,-9.80665,1.0015011,47.67345,-1.0355499,-2.2794557,-3.8500698,-0.00060541386,0.36735862,-0.40183884,27.4375,28.625,27.875,31.8125,33.875,34.75
