Tylouw/Master_Thesis_Code/test_recorded_data/real_test10/sample_19_session_5.csv
timestamp[s],tcp_force_x[N],tcp_force_y[N],tcp_force_z[N],tcp_force_rx[Nm?],tcp_force_ry[Nm?],tcp_force_rz[Nm?],tcp_pose_x[m],tcp_pose_y[m],tcp_pose_z[m],tcp_pose_rx[rot_vec_x],tcp_pose_ry[rot_vec_y],tcp_pose_rz[rot_vec_z],tcp_velo_x[m/s],tcp_velo_y[m/s],tcp_velo_z[m/s],tcp_velo_rx[rot_vec_x/s],tcp_velo_ry[rot_vec_y/s],tcp_velo_rz[rot_vec_z/s],q1[rad],q2[rad],q3[rad],q4[rad],q5[rad],q6[rad],qd1[rad/s],qd2[rad/s],qd3[rad/s],qd4[rad/s],qd5[rad/s],qd6[rad/s],tool_acc_x,tool_acc_y,tool_acc_z,current_of_whole_robot[A],voltage_of_whole_robot[V],current_J1[A],current_J2[A],current_J3[A],current_J4[A],current_J5[A],current_J6[A],temp_J1[C],temp_J2[C],temp_J3[C],temp_J4[C],temp_J5[C],temp_J6[C]
1.082999e-06,-0.87169194,-0.9436314,0.046580825,-0.055998385,0.023316393,-0.009828191,-0.38152626,-0.3495414,0.059958037,-3.0785027,0.6248152,-0.0001867203,-0.0013271983,-0.0007206083,-5.5154967e-05,-0.0019824372,0.0032765104,1.50496e-05,0.47917792,-1.423574,1.9549512,-2.1004035,-1.5707816,2.4540968,-0.000106553096,0.0011201957,-3.7044552e-05,-0.0049055424,0.00023710875,-0.00012086433,0.076614454,0.095768064,-8.714894,0.75755644,47.7254,-0.18721148,-3.0428948,-2.2281485,-0.475061,0.19226328,-0.21931683,27.75,29.0,28.25,32.375,34.4375,35.4375
0.002555615,-0.19057733,-0.47638962,0.3896379,-0.0564443,0.03835744,-0.022334851,-0.38151795,-0.34956366,0.05993902,-3.0785308,0.6248208,-0.00022030593,-0.0016557213,-0.0008873312,-0.0023946452,-0.0027087398,0.0046720225,9.112351e-06,0.47920188,-1.423537,1.954964,-2.100455,-1.5707458,2.4541206,-0.00010999346,0.004018512,0.003915144,-0.013329228,0.00022717481,-0.00011821822,0.11492168,-0.019153614,-8.6574335,0.71951014,47.699425,-0.17844933,-3.262403,-2.2154372,-0.41287538,0.17607018,-0.22800782,27.75,29.0,28.25,32.375,34.4375,35.4375
0.005054351,0.32439125,0.17023213,0.17276846,-0.02531328,0.014099227,-0.017188706,-0.38154405,-0.34956858,0.059958596,-3.0785675,0.62484735,-8.0795486e-05,-0.001663708,-0.00088628894,-0.00061194535,-0.0031122975,0.005496977,7.539966e-06,0.47920188,-1.4235618,1.9549636,-2.1005247,-1.5707697,2.4541326,-0.000106350904,0.0012077553,0.00224047,-0.009761833,0.00020954372,-0.00011325897,0.21068975,-0.038307227,-8.63828,0.7329411,47.70211,-0.17670748,-3.384145,-2.4885883,-0.3432234,0.16210361,-0.22147751,27.75,29.0,28.25,32.375,34.4375,35.4375
0.007554186,0.51225734,0.86385304,-0.33024988,0.0061932676,-0.011354323,-0.010864015,-0.38155058,-0.349563,0.05994996,-3.078573,0.62486774,-9.364849e-05,-0.0010799911,-0.0005790661,0.00010317163,-0.0021621205,0.0037019881,6.575838e-06,0.47917792,-1.4235505,1.9549755,-2.1005476,-1.5707573,2.4541206,-0.00010458541,2.6880058e-05,0.0009247786,-0.005234316,0.00020171492,-0.00011093218,0.11492168,-0.076614454,-8.695741,0.73069996,47.705692,-0.25168684,-3.146206,-2.3454237,-0.37876427,0.17697084,-0.22371031,27.75,29.0,28.25,32.375,34.4375,35.4375
0.010054996,0.45589292,0.51943004,-0.83923095,0.0062774913,-0.00650919,-0.010853053,-0.38154766,-0.34956828,0.059939444,-3.0785577,0.62490344,-0.00010895878,-0.001436429,-0.00077418616,0.0008162131,-0.002179448,0.0036908428,1.5548232e-05,0.47918996,-1.4235265,1.9549745,-2.100558,-1.5707573,2.4541569,-0.00010287758,3.6063028e-07,-0.001153406,-0.0031277898,0.00022255648,-0.00011761101,0.076614454,0.076614454,-8.963891,0.7732232,47.7254,-0.5783972,-2.5863578,-2.9218767,-0.43478507,0.18745884,-0.2723558,27.75,29.0,28.25,32.375,34.4375,35.4375
0.012553496,-1.0062689,-0.6852382,-0.9927652,-0.038125128,-0.006567582,-0.0075880326,-0.38152105,-0.34955433,0.059911754,-3.0785131,0.6248173,-0.00022702666,-0.0027643086,-0.0013752643,-0.00090872485,-0.00046427723,0.00034760853,-0.00013962333,0.4791899,-1.4235003,1.954997,-2.10051,-1.5707573,2.4541087,-0.0002808227,0.0075364416,-0.0060792677,-0.0019805836,0.00023402128,-0.0001369876,0.095768064,0.0,-9.212889,0.67475104,47.71465,-0.67457,-2.5206065,-2.973544,-0.43276438,0.19536011,-0.28443426,27.75,29.0,28.25,32.375,34.4375,35.4375
0.015054528,-2.050968,-2.5812674,-1.375218,-0.13276719,0.06780566,-0.014919835,-0.3815114,-0.3495451,0.05988897,-3.078443,0.6247838,-0.00040183894,-0.006146445,0.0015212232,-0.0030195615,0.00186365,-0.00444606,-0.00010282914,0.47917494,-1.4234256,1.9549364,-2.1003902,-1.5707458,2.4540818,-0.008641857,0.014537685,-0.009692738,-4.2971325e-05,0.00037133964,-0.00853257,-0.22984336,0.24899697,-9.5385,0.74413085,47.679718,-0.29927278,-2.8705273,-3.107809,-0.44727284,0.22595009,-0.27218646,27.75,29.0,28.25,32.375,34.4375,35.4375
0.017554585,-2.6250942,-2.7538455,-1.3442385,-0.13910219,0.08292256,-0.022970458,-0.38151315,-0.34953108,0.059877645,-3.078423,0.62479645,-0.00037753876,-0.006774048,-0.00020570336,-0.0013554872,-0.001842632,-0.0022900742,0.0045338925,0.47916335,-1.4234259,1.9549707,-2.1004255,-1.5707687,2.4540806,-0.0076456526,0.013543795,-0.012370051,-2.8057204e-06,0.0026589301,-0.012176289,-0.3256114,0.49799395,-9.595961,0.72622824,47.68599,-0.40461892,-2.6527314,-3.1883516,-0.4699613,0.21559995,-0.23499256,27.75,29.0,28.25,32.375,34.4375,35.4375
0.020053692,-2.38208,-2.3174152,-1.7096846,-0.124755256,0.09446866,-0.036200535,-0.3815233,-0.3495164,0.05986452,-3.0784228,0.62483394,-0.00045801987,-0.0069771325,-0.001797247,-0.001663564,-0.0046548173,-0.0041219606,0.0059667025,0.47910348,-1.4234011,1.9549698,-2.100414,-1.570731,2.454044,-0.0071763634,0.01627036,-0.014781626,-1.831935e-07,0.005992835,-0.013144759,-0.5363012,0.53630114,-9.730036,0.75755644,47.699425,-0.5896259,-2.5598593,-3.2189302,-0.48686185,0.16625655,-0.21661575,27.75,29.0,28.25,32.375,34.4375,35.4375
0.022554085,-2.4661548,-2.7701998,-1.9533741,-0.09666661,0.08641428,-0.03779236,-0.38152167,-0.34955367,0.05986345,-3.0784469,0.6247244,-0.00048539642,-0.0080094645,-0.0019450422,-0.0018163754,-0.0061010746,-0.004971956,0.0041218484,0.47916296,-1.4233407,1.9548978,-2.1003902,-1.5707186,2.4540322,-0.008956554,0.018147757,-0.01657798,-1.1961227e-08,0.0076642,-0.013082251,-0.53630114,0.49799395,-9.883265,0.77545905,47.64479,-0.5941371,-2.662003,-3.1589766,-0.48972744,0.1457654,-0.22026962,27.75,29.0,28.25,32.375,34.4375,35.4375
0.025054207,-2.2908916,-2.7086709,-1.8740714,-0.123007976,0.07670964,-0.06295209,-0.38157043,-0.34954703,0.05983255,-3.0784268,0.6248386,-0.0005420691,-0.009818271,-0.0022773708,-0.0020216028,-0.008479126,-0.0063234596,-0.000355276,0.47908986,-1.4232192,1.9548377,-2.1004255,-1.5706939,2.454033,-0.011811927,0.021480374,-0.019948136,0.00013175537,0.010390967,-0.011463931,-0.5746084,0.45968673,-9.921572,0.75084364,47.678825,-0.67230445,-2.7486386,-3.2159204,-0.49192736,0.11789941,-0.28185898,27.75,29.0,28.25,32.375,34.4375,35.4375
0.027554289,-1.6057035,-2.6587555,-1.6428345,-0.12219237,0.095492214,-0.0828982,-0.38158035,-0.3495603,0.05985554,-3.0784733,0.62488604,-0.0005840671,-0.011458893,-0.0022680778,-0.001006408,-0.00888756,-0.0037859804,-0.0003724541,0.47906554,-1.4232312,1.9547881,-2.1003778,-1.5706342,2.4540322,-0.012820124,0.021634685,-0.022415524,8.602684e-06,0.0095777875,-0.012451918,-0.6512228,0.36391866,-9.9790325,0.7597976,47.68599,-0.76444197,-2.5894861,-3.2174911,-0.512998,0.11115123,-0.27276888,27.75,29.0,28.25,32.375,34.4375,35.4375
0.030054381,-2.086807,-2.0987449,-1.6373541,-0.10373931,0.08897146,-0.085338525,-0.38161466,-0.3495575,0.059827708,-3.078465,0.6248854,-0.0005997294,-0.012905009,-0.0016732817,-0.00079417,-0.007771572,-0.0024593559,-0.0009756917,0.47902906,-1.4231348,1.9547523,-2.1004255,-1.5706347,2.4539964,-0.014171357,0.022785643,-0.024215197,5.616938e-07,0.007971521,-0.013195771,-0.68953013,0.30645782,-9.9790325,0.6658024,47.67793,-0.66591537,-2.6699405,-3.2261577,-0.5006288,0.12601893,-0.29791287,27.75,29.0,28.25,32.375,34.4375,35.4375
0.03255411,-2.7199826,-1.6864072,-1.7882252,-0.060852513,0.07646352,-0.09319403,-0.38163355,-0.34957102,0.059819296,-3.078491,0.6249097,-0.0006601146,-0.014595673,-0.0014426601,8.0912236e-05,-0.007988108,-0.00026291475,-0.00087457884,0.4790046,-1.4230746,1.9547027,-2.1004255,-1.570587,2.4539838,-0.015609135,0.023094678,-0.026568891,3.6674592e-08,0.0071453624,-0.014731876,-0.49799395,0.19153613,-9.940725,0.77545905,47.70032,-0.74162894,-2.5242805,-3.1384277,-0.51293325,0.13466889,-0.31002522,27.75,29.0,28.25,32.375,34.4375,35.4375
0.03505396,-1.5690035,0.32857177,-1.5314337,-0.016136263,0.078064986,-0.12945288,-0.3817007,-0.34958744,0.05981909,-3.0785544,0.62488353,-0.0006100706,-0.017746158,-0.0019665703,0.00012630454,-0.009289086,0.0018432178,-0.0010135813,0.47895595,-1.4229769,1.9546055,-2.1004865,-1.5705632,2.4539108,-0.017706811,0.027628079,-0.031348243,-0.002222557,0.0073140655,-0.016686909,-0.22984336,-0.038307227,-9.634268,0.77545905,47.703007,-0.68868995,-2.6409402,-3.0985131,-0.4779786,0.12581769,-0.28196958,27.75,29.0,28.25,32.375,34.4375,35.4375
0.037553824,-1.8764647,-0.2630025,-1.5772502,-0.0028932497,0.057603907,-0.13166806,-0.38178602,-0.34961167,0.05985353,-3.0786023,0.62498957,-0.00047871727,-0.019034926,-0.0025823507,0.0007359681,-0.01039554,0.0040137125,-0.0016254223,0.47891983,-1.4229045,1.9544495,-2.1005108,-1.5705632,2.453935,-0.017790057,0.028525814,-0.033499245,-0.0034051407,0.0072906674,-0.01615604,-0.21068975,-0.1340753,-9.576807,0.78217715,47.693153,-0.7176164,-2.679736,-3.0427818,-0.48209625,0.13682206,-0.2679307,27.75,29.0,28.25,32.375,34.4375,35.4375
0.04005386,-1.477928,-0.20581147,-1.3694044,-0.0195751,0.05244952,-0.14281496,-0.3818054,-0.34959933,0.059855666,-3.078584,0.6248712,-0.00049952813,-0.020404661,-0.0025310887,0.0012303978,-0.010406787,0.005261048,-0.0026265483,0.4788955,-1.4228681,1.9543895,-2.1004508,-1.570587,2.453839,-0.01877899,0.029559674,-0.03586094,-0.0031876387,0.0067209112,-0.016141752,-0.21068975,-0.1340753,-9.634268,0.78888994,47.679718,-0.5937307,-2.5887568,-3.0940313,-0.4834751,0.12482219,-0.29459062,27.75,29.0,28.25,32.375,34.4375,35.4375
0.042554084,-0.9399001,-0.5332433,-1.4114723,-0.028293218,0.060645416,-0.15320697,-0.38187203,-0.34961307,0.059869613,-3.0786335,0.6249583,-0.0004607188,-0.020980416,-0.0023711498,0.0011189852,-0.00974691,0.0048877266,-0.002909257,0.47883525,-1.4227957,1.9542803,-2.1004746,-1.5705518,2.453827,-0.019323628,0.030869626,-0.03727273,-0.0024479297,0.0063073747,-0.016401766,-0.22984336,-0.15322891,-9.519346,0.7620334,47.731667,-0.6735461,-2.561903,-2.9781728,-0.4639885,0.1382811,-0.27503663,27.75,29.0,28.25,32.375,34.4375,35.4375
0.045053706,-1.3679032,-1.225676,-1.6448476,-0.034143914,0.04521617,-0.13396035,-0.3819497,-0.34959736,0.059861813,-3.0786076,0.6249906,-0.00043856635,-0.022464907,-0.0022680103,0.0015676293,-0.009911956,0.0053894296,-0.0026226384,0.4787509,-1.422675,1.9541601,-2.100474,-1.5705756,2.453766,-0.020818148,0.032328617,-0.040179677,-0.0015207756,0.0062187533,-0.018181259,-0.17238252,0.019153614,-9.5385,0.7486078,47.745995,-0.63283443,-2.5805387,-3.1060958,-0.4919923,0.14704183,-0.2531618,27.75,29.0,28.25,32.375,34.4375,35.4375
0.04755371,-1.4496776,-1.5816699,-1.5398633,-0.03594999,0.041145068,-0.13279349,-0.38199195,-0.34960982,0.059862766,-3.0786486,0.6250191,-0.00047173124,-0.023511363,-0.0021037043,0.0022791268,-0.010664503,0.0065618893,-0.0028777702,0.4787023,-1.422603,1.9540757,-2.100474,-1.570527,2.45373,-0.022154974,0.032080565,-0.041584317,-0.0012545764,0.0063445596,-0.019262498,-0.076614454,0.038307227,-9.5385,0.83589023,47.73525,-0.7138704,-2.418846,-3.0338507,-0.49119723,0.15361713,-0.26727942,27.75,29.0,28.25,32.375,34.4375,35.4375
0.050053645,-1.5083356,-2.004425,-1.5400411,-0.04250151,0.030527439,-0.121728405,-0.3820167,-0.34960014,0.059858784,-3.0786388,0.6250743,-0.0005000092,-0.024020195,-0.0024343613,0.0015305971,-0.010984809,0.004777597,-0.0020673366,0.4786542,-1.4225662,1.9540399,-2.1004622,-1.5705146,2.4537177,-0.022753885,0.03502399,-0.043281697,-0.0010677247,0.007447262,-0.020672642,0.0,0.19153613,-9.481039,0.7553206,47.682407,-0.6564213,-2.4282556,-3.086173,-0.4985575,0.15196425,-0.24557237,27.75,29.0,28.25,32.375,34.4375,35.4375
0.052553885,-1.2015666,-2.2325292,-1.6317979,-0.067745045,0.036003567,-0.12341094,-0.38207316,-0.34959802,0.059864208,-3.0786479,0.625056,-0.00046050848,-0.02413964,-0.0025457668,0.00077582116,-0.011435419,0.002798986,-0.002523951,0.47860593,-1.4224931,1.9539441,-2.1004622,-1.5705265,2.453657,-0.023513785,0.03701664,-0.043868482,-0.0009294539,0.008758364,-0.020977518,-0.038307227,0.30645782,-9.442732,0.74413085,47.7254,-0.6616755,-2.4721909,-3.1454802,-0.51590264,0.14051634,-0.23769394,27.75,29.0,28.25,32.3125,34.4375,35.4375
0.0550538,-0.878491,-2.7258575,-1.5371931,-0.09582384,0.03529608,-0.12189535,-0.3822021,-0.3496107,0.059885584,-3.0787203,0.625148,-0.0003787477,-0.026582573,-0.0033854689,0.0028601754,-0.013802816,0.006595922,-0.0029274991,0.4784856,-1.4223491,1.9537386,-2.1004975,-1.5704902,2.453585,-0.024499035,0.037044566,-0.048757784,-0.00052799337,0.009104868,-0.021556608,-0.095768064,0.45968673,-9.5385,0.7239871,47.66091,-0.6721108,-2.3404338,-3.1143646,-0.53091353,0.16245651,-0.24859196,27.75,29.0,28.25,32.3125,34.4375,35.4375
0.05755367,-1.2772529,-3.3149903,-1.6185142,-0.0801495,0.024122398,-0.11415029,-0.3822544,-0.3496263,0.05992231,3.0787582,-0.62511784,0.00032990944,-0.02660494,-0.0027809376,0.0017047672,-0.013010792,0.0043980903,-0.0031641647,0.47844914,-1.4223244,1.9536184,-2.1004617,-1.5704659,2.4535248,-0.025788875,0.03893366,-0.0482615,-0.0005978031,0.009416146,-0.02260968,-0.15322891,0.38307226,-9.404425,0.7620334,47.70659,-0.61210084,-2.2345257,-3.1691868,-0.5197599,0.14299345,-0.22602649,27.75,29.0,28.25,32.3125,34.4375,35.4375
0.060053658,-1.0673151,-2.6875367,-1.5074962,-0.08854656,0.035451762,-0.12190986,-0.38227347,-0.34961122,0.059880756,-3.0787148,0.625108,-0.00043518195,-0.027577642,-0.0028364433,0.0018723678,-0.01353403,0.0047856024,-0.0025702391,0.47841278,-1.422204,1.9535702,-2.1004379,-1.5704783,2.4534879,-0.026769659,0.040032234,-0.049894143,-0.00064937666,0.009696395,-0.024184793,-0.095768064,0.4213795,-9.423578,0.7777002,47.707485,-0.5956656,-2.2596297,-3.3294315,-0.53612745,0.16030993,-0.21824065,27.75,29.0,28.25,32.3125,34.4375,35.4375
0.06255366,-0.8058493,-2.5211356,-1.2401059,-0.085629344,0.046362072,-0.1224345,-0.38233998,-0.3496301,0.059907064,3.0787625,-0.6250984,0.0003315786,-0.028537298,-0.002983313,0.0018034568,-0.013836217,0.00528632,-0.0015445884,0.4783766,-1.4221555,1.953463,-2.100474,-1.5704659,2.4534397,-0.027414968,0.04160425,-0.051383056,-0.0013153332,0.009731829,-0.025853775,-0.038307227,0.45968673,-9.423578,0.7642693,47.71465,-0.6164936,-2.246138,-3.2637396,-0.5344235,0.14081877,-0.20226204,27.75,29.0,28.25,32.3125,34.4375,35.4375
0.06505366,-0.9292547,-2.0179625,-1.0796025,-0.079866774,0.047641344,-0.12467501,-0.38244578,-0.3496467,0.05992832,3.0786805,-0.62513924,0.00025258795,-0.030737426,-0.0043809023,0.0030556011,-0.016688306,0.008212014,-0.0017061341,0.47829247,-1.4220346,1.9532818,-2.1004984,-1.5704416,2.4533916,-0.027726058,0.043310992,-0.05596116,-0.002356867,0.010908119,-0.026001574,-0.076614454,0.4405331,-9.346964,0.7777002,47.723602,-0.6731278,-2.1999454,-3.1805332,-0.52101105,0.16054618,-0.2011382,27.75,29.0,28.25,32.3125,34.4375,35.4375
0.06755376,-1.0654165,-1.8774539,-1.2503563,-0.05324633,0.042943045,-0.117753536,-0.38254714,-0.34967408,0.05995363,3.078606,-0.62508434,0.00024142535,-0.031055572,-0.004311031,0.0018878127,-0.017083015,0.0058793644,-0.00015412869,0.47820804,-1.4219015,1.9530662,-2.1004746,-1.570381,2.4532824,-0.029057633,0.046067867,-0.056337953,-0.002849635,0.012332805,-0.028885927,0.076614454,0.3256114,-9.308657,0.72622824,47.728977,-0.6545843,-2.1840343,-3.3561354,-0.4899369,0.14820394,-0.15979527,27.75,29.0,28.25,32.3125,34.4375,35.4375
0.0700535,-1.07907,-1.329707,-1.0534414,-0.059309185,0.037838914,-0.12365307,-0.3826228,-0.34967467,0.059935473,3.0785654,-0.62511486,0.00023654345,-0.032813728,-0.0047069457,0.002662621,-0.018272454,0.007128307,-0.0014017625,0.47812372,-1.4217691,1.9529699,-2.1005342,-1.5703572,2.4532223,-0.030280981,0.04756209,-0.059920218,-0.0024177558,0.012809262,-0.02886013,-0.019153614,0.19153613,-9.289502,0.7709874,47.696735,-0.62396103,-2.1095004,-3.2624295,-0.5127399,0.13684708,-0.15977871,27.75,29.0,28.25,32.3125,34.4375,35.4375
0.07255385,-1.2684925,-1.4783776,-0.9451568,-0.04914483,0.035293557,-0.117656946,-0.38266325,-0.34969977,0.05994854,3.0785317,-0.6250516,0.0002688993,-0.03350371,-0.004989861,0.0027345011,-0.018547462,0.007207144,-0.0024060945,0.47809958,-1.4216964,1.9528488,-2.1004984,-1.570309,2.453163,-0.030546712,0.048901577,-0.061666783,-0.0022064722,0.013014585,-0.028120633,-0.114921674,0.17238252,-9.251195,0.82022345,47.72719,-0.6134987,-2.121446,-3.2132816,-0.50114864,0.1324465,-0.17138043,27.75,29.0,28.25,32.3125,34.4375,35.4375
0.075053915,-1.4887451,-1.0377263,-0.9111124,-0.03668535,0.039270148,-0.118131965,-0.3827967,-0.34972805,0.05995518,3.0784376,-0.625088,0.00028443747,-0.034141075,-0.0055717244,0.0022655616,-0.018206203,0.006523262,0.0002190068,0.47797975,-1.4214792,1.9525851,-2.100498,-1.570237,2.4530778,-0.030098869,0.05190293,-0.0640782,-0.0020278173,0.013024578,-0.030295698,-0.038307227,0.15322891,-9.212888,0.7217513,47.664497,-0.7237288,-2.0608132,-3.3277688,-0.5028727,0.10584432,-0.14414829,27.75,29.0,28.25,32.3125,34.4375,35.4375
0.07755399,-1.0589638,-0.7750522,-0.97661334,-0.04043128,0.05705047,-0.11600623,-0.3828647,-0.34973797,0.059968542,3.078386,-0.62505853,0.00023525924,-0.035405688,-0.005305158,0.002375438,-0.01843789,0.007062426,-0.00015931012,0.4779191,-1.4214069,1.9524773,-2.1005223,-1.5702132,2.4530053,-0.031702213,0.05313896,-0.065700755,-0.0022244342,0.012981194,-0.03151886,-0.038307227,0.095768064,-9.212888,0.7463667,47.70211,-0.7054004,-2.0155554,-3.3648667,-0.49436182,0.10402542,-0.13967188,27.75,29.0,28.25,32.3125,34.4375,35.4375
0.08005348,-1.2816513,-0.9390932,-1.0736889,-0.03588239,0.052742086,-0.119668566,-0.3829498,-0.34973052,0.059958123,3.0783658,-0.6251316,0.00019567521,-0.035755243,-0.005070478,0.0016386245,-0.0172089,0.0060406867,-0.00045725057,0.47783506,-1.4212738,1.9523572,-2.100558,-1.5702251,2.4529696,-0.03202995,0.055286482,-0.06651379,-0.0020834531,0.012360245,-0.031546842,-0.1340753,0.11492168,-9.270349,0.7396539,47.64837,-0.6901797,-2.0716548,-3.4298472,-0.50149167,0.097318485,-0.13187027,27.75,29.0,28.25,32.3125,34.4375,35.4375
0.08255378,-1.4771069,-1.1038085,-1.1733433,-0.03806522,0.048312943,-0.118613064,-0.38305765,-0.3497524,0.05999638,3.0782976,-0.62505955,0.00012795693,-0.037382144,-0.0061442694,0.0028340202,-0.018793294,0.00850846,-0.00019787719,0.47775114,-1.4211653,1.9521402,-2.1005342,-1.5701894,2.4528494,-0.03179191,0.056365583,-0.070473164,-0.0021219065,0.012627755,-0.03156534,-0.1340753,0.15322891,-9.232041,0.75755644,47.678825,-0.7624299,-2.0149512,-3.2548041,-0.50055355,0.10015173,-0.13076514,27.75,29.0,28.25,32.3125,34.4375,35.4375
0.085054114,-1.471378,-1.5963373,-1.2412827,-0.045705244,0.054264795,-0.11927779,-0.38318217,-0.3497532,0.05997277,3.0782974,-0.6250983,0.00017270709,-0.03814567,-0.0045386935,0.0014015744,-0.016589532,0.00592357,-0.0027318867,0.47763026,-1.4209123,1.9519018,-2.1005218,-1.5701779,2.4527528,-0.034826897,0.05910063,-0.07047934,-0.0015372257,0.01186136,-0.032065403,-0.24899697,0.21068975,-9.423578,0.68818194,47.7245,-0.7389978,-1.8888502,-3.5800962,-0.5061245,0.120508246,-0.14116465,27.75,29.0,28.25,32.3125,34.4375,35.4375
0.08755418,-1.4377681,-1.5686454,-1.3227752,-0.05467028,0.06027081,-0.11406195,-0.38325185,-0.34978718,0.059993144,3.0782268,-0.62506455,0.00014698313,-0.03960315,-0.006209904,0.0015371464,-0.017505178,0.0062076724,-0.0010684432,0.4775946,-1.4208146,1.9517435,-2.1005218,-1.5701293,2.4527051,-0.033645235,0.0633918,-0.07578054,-0.0012006162,0.012535841,-0.03254405,-0.2873042,0.21068975,-9.346964,0.8224646,47.693153,-0.7600291,-2.069215,-3.390748,-0.5038071,0.10073589,-0.11390714,27.75,29.0,28.25,32.3125,34.4375,35.4375
0.09005399,-1.9307005,-1.8014367,-1.5195937,-0.05047291,0.050602607,-0.114596985,-0.38333893,-0.3498001,0.060000177,3.0781908,-0.62503874,0.00012752885,-0.040037207,-0.005342798,0.0022971684,-0.017160282,0.007797832,-0.0024967776,0.47752213,-1.4206833,1.9515771,-2.1005218,-1.5701059,2.4526212,-0.03489848,0.061290793,-0.07517479,-0.0009537627,0.011502647,-0.03236802,-0.40222588,0.19153613,-9.346964,0.8493211,47.709274,-0.78049874,-1.8984842,-3.4083457,-0.5216334,0.102735825,-0.1305942,27.75,29.0,28.25,32.3125,34.4375,35.4375
0.09255408,-1.6037685,-1.7346928,-1.6062453,-0.05942178,0.06851838,-0.12159801,-0.38341007,-0.3498116,0.059997905,3.0781178,-0.62512106,0.00017266528,-0.041617777,-0.0055198423,0.0026065384,-0.017917775,0.008410889,-0.0037982499,0.4774377,-1.4205624,1.951444,-2.1005218,-1.5700454,2.4525974,-0.03628141,0.06321536,-0.07811987,-0.000824248,0.011889346,-0.03244807,-0.24899697,0.24899697,-9.557653,0.80456203,47.70211,-0.7573384,-1.9198413,-3.4635503,-0.5207968,0.116767704,-0.16366908,27.75,29.0,28.25,32.3125,34.4375,35.4375
0.09505338,-1.6965624,-1.9545265,-1.4738892,-0.078510694,0.07160893,-0.12042511,-0.38360426,-0.34981734,0.06001315,3.0780554,-0.625166,7.2362534e-05,-0.043858208,-0.0057942243,0.002512669,-0.01865272,0.008385191,-0.006025118,0.47726893,-1.4202968,1.9511079,-2.1005337,-1.5700454,2.4524648,-0.038262885,0.06719675,-0.082496576,-0.00074420474,0.012549936,-0.03219967,-0.3256114,0.30645782,-9.481039,0.8023209,47.734352,-0.7457187,-2.0017068,-3.4254117,-0.54043347,0.119315505,-0.16544221,27.75,29.0,28.25,32.3125,34.4375,35.4375
0.0975534,-1.8246809,-2.4719274,-1.8306979,-0.07614147,0.07222826,-0.11673623,-0.38367516,-0.3498447,0.06001306,3.0780265,-0.6250835,0.00010654972,-0.04452514,-0.0060356744,0.0024543765,-0.018829161,0.008340848,-0.0064486857,0.4772209,-1.4201521,1.9509395,-2.1005213,-1.5699972,2.452369,-0.038554277,0.06869698,-0.08410543,-0.0006757867,0.012724785,-0.032066546,-0.36391866,0.38307226,-9.691729,0.7933669,47.69763,-0.7879828,-1.7740991,-3.4591522,-0.54648954,0.11148476,-0.20031576,27.75,29.0,28.25,32.3125,34.4375,35.4375
0.1000535,-1.6918086,-2.1834726,-1.7868156,-0.08114292,0.071949296,-0.1182109,-0.38376847,-0.34983447,0.060002536,3.0780213,-0.6251594,9.657655e-05,-0.046033043,-0.0060069845,0.002504898,-0.018958999,0.008724874,-0.0075893025,0.47712457,-1.4199953,1.9507841,-2.1005213,-1.5700091,2.4523208,-0.03993789,0.07089051,-0.08675643,-0.0006178309,0.0126597835,-0.032307874,-0.28730422,0.28730422,-9.844957,0.8112748,47.692257,-0.74816215,-1.6683757,-3.473359,-0.5386705,0.118626624,-0.21121186,27.75,29.0,28.25,32.3125,34.4375,35.4375
0.102554336,-1.5150243,-1.9855113,-1.6745721,-0.08560587,0.06844593,-0.11343207,-0.3838608,-0.3498571,0.060016874,3.0779734,-0.62518895,7.713519e-05,-0.046577927,-0.006022656,0.0015395564,-0.018268429,0.007089393,-0.008080077,0.4770642,-1.41985,1.9505795,-2.1004975,-1.5699853,2.452285,-0.04048955,0.07406697,-0.088210694,-0.0005689673,0.012796417,-0.032367267,-0.22984336,0.38307226,-9.730036,0.7284641,47.666286,-0.7269411,-1.7685614,-3.498189,-0.5393547,0.12683773,-0.2090548,27.75,29.0,28.25,32.3125,34.4375,35.4375
0.105054095,-1.6129616,-2.4556653,-1.8483679,-0.062276203,0.058500607,-0.11218834,-0.38407856,-0.34989908,0.060057268,3.07781,-0.6252131,-1.22414e-05,-0.04887161,-0.006140582,0.0011257265,-0.01831173,0.0066649397,-0.008280079,0.47688353,-1.4195722,1.9501718,-2.1005094,-1.5699009,2.4521403,-0.04251023,0.078784205,-0.0927223,-0.00041183925,0.013028631,-0.034183454,-0.22984336,0.34476504,-9.634268,0.7597976,47.73256,-0.7503624,-1.8343484,-3.4576845,-0.5493638,0.13091715,-0.25162527,27.75,29.0,28.25,32.3125,34.4375,35.4375
0.10755352,-1.06573,-1.7193987,-1.7432858,-0.07655732,0.0674396,-0.1243401,-0.3841481,-0.3499056,0.06002947,3.077843,-0.6251222,4.4617445e-05,-0.04961767,-0.006543411,0.00083498843,-0.018246632,0.0064296876,-0.006693306,0.47682372,-1.4193912,1.9500278,-2.1005094,-1.5698894,2.4520197,-0.04250472,0.08114588,-0.09475976,-0.00049499737,0.013074624,-0.035763886,-0.1340753,0.30645782,-9.634268,0.8493211,47.709274,-0.7243619,-1.7812757,-3.4234586,-0.5463755,0.13313116,-0.24881351,27.75,29.0,28.25,32.3125,34.4375,35.4375
0.11005362,-1.4766929,-2.1619768,-1.398436,-0.066717036,0.05235067,-0.11462872,-0.38426405,-0.34987992,0.06001011,3.077813,-0.6253086,3.1953838e-05,-0.05191206,-0.007208206,0.0015534798,-0.020130774,0.008910438,-0.006799895,0.47667915,-1.4192103,1.9498705,-2.1005342,-1.5699009,2.4519954,-0.043758553,0.083195806,-0.09843368,-0.0019393044,0.0136019355,-0.036909234,-0.1340753,0.28730422,-9.519346,0.8112748,47.72808,-0.7364008,-1.9115034,-3.331936,-0.5349889,0.13452871,-0.24979004,27.75,29.0,28.25,32.3125,34.4375,35.4375
0.1125538,-1.475782,-2.2513955,-1.372878,-0.06318685,0.04354438,-0.114684425,-0.3843688,-0.34992743,0.06004176,3.0777464,-0.6251974,-4.6663074e-05,-0.052531607,-0.0076300185,0.00031162382,-0.019392649,0.007905804,-0.005511948,0.47664338,-1.4190648,1.9496316,-2.1005347,-1.5698646,2.4518988,-0.043444786,0.0872186,-0.09992305,-0.0032381292,0.013405482,-0.0378804,-0.19153613,0.28730422,-9.461885,0.8403672,47.71465,-0.7591758,-1.9380081,-3.2974157,-0.53259695,0.13184164,-0.27928954,27.75,29.0,28.25,32.3125,34.4375,35.4375
0.115054056,-0.46393284,-1.4322683,-1.2459608,-0.0670849,0.05989605,-0.12773143,-0.38458887,-0.34995958,0.060059767,3.077642,-0.62523246,-0.00014114533,-0.054780293,-0.008676813,0.0015001652,-0.021495447,0.009762001,-0.0036738878,0.476475,-1.4187398,1.9492234,-2.100558,-1.5698289,2.4517658,-0.044282574,0.089346215,-0.10522782,-0.0026728038,0.014421286,-0.04055279,-0.076614454,0.28730422,-9.500193,0.6926589,47.70032,-0.90531254,-1.862818,-3.2326293,-0.5387337,0.15675357,-0.27114004,27.75,29.0,28.25,32.3125,34.4375,35.4375
0.11755397,-1.2853912,-1.5198272,-1.2159046,-0.06462877,0.038356476,-0.11719516,-0.3847056,-0.34999037,0.06007636,3.0775642,-0.62519735,-0.00018075964,-0.05667547,-0.009595888,0.0015248122,-0.021868207,0.009615822,-0.0034116958,0.47639084,-1.41857,1.9489936,-2.10057,-1.5697802,2.4516697,-0.04463634,0.09378567,-0.11058718,-0.0017916489,0.014815014,-0.04116484,-0.13407528,0.30645782,-9.404425,0.7978386,47.678825,-0.90208036,-2.0684667,-3.079787,-0.54046744,0.14721823,-0.27517673,27.75,29.0,28.25,32.3125,34.4375,35.4375
0.1200535,-1.1208112,-1.6287261,-1.1047856,-0.0713205,0.042533606,-0.11808916,-0.38480866,-0.3499804,0.060064215,3.077574,-0.6252174,-0.00012383256,-0.05661335,-0.009772265,0.001971185,-0.022509651,0.009970774,-0.0022997814,0.476271,-1.4183782,1.9487904,-2.1005218,-1.5697683,2.4515612,-0.0445122,0.09295186,-0.1107573,-0.0013955929,0.015224361,-0.04215361,-0.11492168,0.38307226,-9.2703495,0.75084364,47.661808,-0.94355774,-1.8496468,-3.121951,-0.53633213,0.1565575,-0.3169516,27.75,29.0,28.25,32.3125,34.4375,35.4375
0.12255393,-0.68787336,-1.9001514,-1.1269501,-0.080313444,0.06650887,-0.12478425,-0.38491276,-0.35002917,0.060075432,3.0774841,-0.6252002,-0.00015088753,-0.057470128,-0.009852387,0.0013542216,-0.022142496,0.008974426,-0.003464893,0.47622275,-1.4181969,1.9485625,-2.1005461,-1.5697082,2.4515138,-0.045226626,0.09588319,-0.11275277,-0.0012752454,0.015354289,-0.041700553,-0.22984336,0.45968673,-9.289502,0.78217715,47.686886,-0.9681965,-1.9997306,-3.0292284,-0.53693646,0.16556819,-0.3311463,27.75,29.0,28.25,32.3125,34.4375,35.4375
0.12505396,-1.1066015,-1.9850674,-1.0009973,-0.08799936,0.059946753,-0.11398331,-0.38517788,-0.35005957,0.0601116,3.0773315,-0.62526333,-0.00026551806,-0.059488706,-0.010681867,0.0022194164,-0.023142269,0.010876629,-0.0007844489,0.47599468,-1.417848,1.9480823,-2.1005576,-1.5696481,2.4513447,-0.0455807,0.09817568,-0.11744382,-0.0010165999,0.015374837,-0.04473038,-0.11492168,0.36391866,-9.212888,0.7396539,47.68599,-1.071917,-1.8790731,-3.1525478,-0.5484583,0.1866188,-0.32757452,27.75,29.0,28.25,32.3125,34.4375,35.4375
0.12755395,-1.0216826,-1.6740677,-0.72563744,-0.09200099,0.058931477,-0.12495851,-0.38532054,-0.35008377,0.06011588,3.0773056,-0.62519985,-0.00030883384,-0.058646448,-0.010598939,0.00044340955,-0.021689842,0.007614998,-0.0018507075,0.47589898,-1.4176066,1.9477957,-2.1005576,-1.5696362,2.451213,-0.045069482,0.100944415,-0.116573445,-0.0010913537,0.015582085,-0.04315233,-0.24899697,0.40222588,-9.232041,0.7217513,47.689575,-1.1940603,-1.9251068,-3.208554,-0.5487326,0.19210082,-0.36042416,27.75,29.0,28.25,32.3125,34.4375,35.4375
0.13005377,-0.6083691,-1.9250536,-0.9667916,-0.07498782,0.06251571,-0.12481812,-0.38543278,-0.3500986,0.060128264,3.0772545,-0.6252083,-0.00037038923,-0.061385743,-0.0113093285,0.0017839569,-0.024923751,0.010270261,-0.0022552647,0.4758141,-1.4174501,1.9475907,-2.10057,-1.5696234,2.45114,-0.047369625,0.10235307,-0.12109358,-0.0018237645,0.017235184,-0.04504505,-0.17238252,0.38307226,-9.270349,0.784413,47.701214,-1.1694827,-1.921277,-3.0735362,-0.5216539,0.19783397,-0.36176324,27.75,29.0,28.25,32.3125,34.4375,35.4375
0.1325538,-1.3030815,-1.7906232,-0.6888031,-0.06663636,0.033778284,-0.11411818,-0.38554394,-0.35013714,0.060117275,3.077202,-0.6251979,-0.00032444962,-0.061287496,-0.010831154,0.0004560666,-0.023901893,0.008043911,-0.0013631567,0.47574183,-1.4172091,1.9473394,-2.1005704,-1.5695637,2.451068,-0.048180316,0.10455902,-0.12055157,-0.0021192406,0.017350791,-0.046747632,-0.076614454,0.36391866,-9.136273,0.7732232,47.655537,-1.1202979,-1.9035723,-3.1828368,-0.52402955,0.18907991,-0.35291535,27.75,29.0,28.25,32.3125,34.4375,35.4375
0.13505359,-1.2534231,-1.2000358,-0.5004218,-0.051288307,0.023048691,-0.11581563,-0.38578328,-0.35017875,0.060107607,3.0771086,-0.6251566,-0.0003356605,-0.062103044,-0.010982488,-0.0016981354,-0.02261843,0.0048835366,0.002468863,0.47554952,-1.4167866,1.9468845,-2.1006062,-1.5694913,2.450862,-0.04882087,0.110825814,-0.12271437,-0.0028152044,0.017662266,-0.051217068,-0.038307227,0.28730422,-9.002198,0.7866488,47.691364,-1.2433679,-1.9665297,-3.2617536,-0.50979614,0.22973797,-0.34901977,27.75,29.0,28.25,32.3125,34.4375,35.4375
0.13755438,-0.869142,-1.3416891,-0.52935827,-0.03675325,0.030801391,-0.118832715,-0.3859458,-0.35021672,0.060142957,3.0769851,-0.62515056,-0.00042285904,-0.063546404,-0.011057672,0.0003926358,-0.024503695,0.008541724,0.002015228,0.47542918,-1.4165832,1.9465731,-2.1006181,-1.5694312,2.4507537,-0.049980696,0.10830211,-0.1246932,-0.0024220047,0.01766946,-0.05192072,0.019153614,0.22984336,-8.944737,0.8224646,47.64479,-1.2251136,-1.884032,-3.2585707,-0.5132509,0.2198331,-0.3527237,27.75,29.0,28.25,32.3125,34.4375,35.4375
0.14005359,-0.45973414,-0.84304655,-0.61074996,-0.03824906,0.03400671,-0.12279181,-0.38604566,-0.35022423,0.06011824,3.0769827,-0.62513036,-0.0003137614,-0.06477275,-0.010164731,-0.0015215665,-0.023518914,0.004493851,0.002183838,0.47532007,-1.4163531,1.9463571,-2.100582,-1.569383,2.4506323,-0.05328572,0.11361137,-0.12659694,-0.0017725063,0.018647404,-0.05539387,0.0,0.17238252,-8.90643,0.8023209,47.690468,-1.0459092,-1.9946601,-3.2931404,-0.50669205,0.2365934,-0.32916147,27.75,29.0,28.25,32.3125,34.4375,35.4375
0.14255373,-0.85819185,-1.103491,-0.49656895,-0.025632355,0.022735534,-0.120118365,-0.3861958,-0.35024565,0.060118016,3.0769367,-0.62507915,-0.00038970352,-0.06460758,-0.011122242,-0.000504436,-0.02479239,0.005982143,0.0068680057,0.4752127,-1.4161135,1.9460934,-2.10063,-1.5693706,2.450499,-0.051716086,0.11230239,-0.12751096,-0.0014505681,0.019107295,-0.05850702,-0.095768064,0.038307227,-8.983045,0.79560274,47.675243,-1.1314349,-1.8671803,-3.3363724,-0.5102596,0.24437916,-0.32455873,27.75,29.0,28.25,32.3125,34.4375,35.4375
0.14505434,-0.7696134,-0.59132564,-0.6966586,-0.04047358,0.048853185,-0.12993704,-0.38643807,-0.35029647,0.060129493,3.076858,-0.6248708,-0.00037821342,-0.06732581,-0.010122125,-0.0010413971,-0.025305994,0.0047880867,0.0072399033,0.47501904,-1.4157037,1.9455909,-2.1006057,-1.5692743,2.4501855,-0.056562394,0.1163186,-0.13101739,-0.0011206147,0.02011777,-0.06372186,-0.076614454,0.11492168,-8.944737,0.779936,47.701214,-1.1844637,-1.8882779,-3.385771,-0.51194304,0.24748136,-0.24360368,27.75,29.0,28.25,32.3125,34.4375,35.4375
0.14755347,-1.2654922,-1.4807225,-0.8769021,-0.032401644,0.051497124,-0.12516397,-0.38657087,-0.35030392,0.060118526,3.0768442,-0.6249041,-0.00039097047,-0.0677172,-0.010272385,-0.0017361485,-0.0246729,0.0034422057,0.009722172,0.47491094,-1.4154625,1.9453386,-2.1006052,-1.5692743,2.4501002,-0.056666415,0.11894385,-0.13257371,-0.00069760194,0.020173762,-0.06630692,-0.17238253,0.17238252,-9.078813,0.8224646,47.68599,-1.2068242,-1.9706271,-3.4085882,-0.51365364,0.26116344,-0.20959434,27.75,29.0,28.25,32.3125,34.4375,35.4375
0.15005419,-1.646015,-1.1906027,-0.77771705,-0.06144472,0.06364889,-0.12549278,-0.38669044,-0.35032806,0.060101114,3.0768032,-0.62489533,-0.0002628293,-0.06832119,-0.010016995,-0.0021240253,-0.024143789,0.002646486,0.011262851,0.47479072,-1.4151977,1.945063,-2.100557,-1.5691909,2.4499798,-0.057572592,0.120637216,-0.13377167,-0.00023151115,0.020067975,-0.06875384,-0.40222588,0.11492168,-9.174581,0.79560274,47.675243,-1.2040372,-1.9506278,-3.3761706,-0.512731,0.27239138,-0.17347875,27.75,29.0,28.25,32.3125,34.4375,35.4375
0.15255402,-1.7892406,-1.3721882,-1.0154053,-0.06624729,0.08115522,-0.12633826,-0.3868157,-0.35036084,0.060099084,3.0767698,-0.62480956,-0.00029789642,-0.070292525,-0.011047297,-0.0015997973,-0.025763458,0.0036294155,0.012536215,0.47471854,-1.4149686,1.9448098,-2.1005814,-1.5691665,2.4498584,-0.058168057,0.12370557,-0.13853961,-0.0001442177,0.021056077,-0.070619054,-0.4213795,0.22984336,-9.212888,0.85155696,47.704796,-1.2216488,-1.9805446,-3.4633086,-0.52418333,0.25431818,-0.111822106,27.75,29.0,28.25,32.3125,34.4375,35.4375
0.155054,-2.2142715,-1.3985546,-1.3250266,-0.082612775,0.09100147,-0.12274355,-0.38711646,-0.3503945,0.060100835,3.076657,-0.62476826,-0.00028704703,-0.07202329,-0.011186152,-0.0019695798,-0.026431836,0.0028962733,0.010337462,0.4744419,-1.4144747,1.9442352,-2.1005695,-1.5690702,2.4495707,-0.060033016,0.12732214,-0.14194413,-6.148226e-07,0.021986991,-0.070281774,-0.4405331,0.3256114,-9.500193,0.8314132,47.71017,-1.2118592,-1.9316113,-3.4099526,-0.51665825,0.2797101,-0.111120336,27.75,29.0,28.25,32.3125,34.4375,35.4375
0.15755408,-2.5815382,-2.288901,-1.6184745,-0.070036545,0.08393117,-0.11310144,-0.38724056,-0.35041228,0.060074218,3.076629,-0.6247062,-0.00021329023,-0.07415539,-0.011644176,-0.0002616111,-0.028162528,0.0063994452,0.00914294,0.47432154,-1.4142107,1.9439949,-2.1005814,-1.5690101,2.4494152,-0.06109314,0.12715323,-0.14567575,-4.014352e-08,0.021919236,-0.07014596,-0.59376204,0.2681506,-9.557653,0.85155696,47.713753,-1.1913747,-1.9047076,-3.3189464,-0.5371865,0.27992338,-0.06277639,27.75,29.0,28.25,32.3125,34.4375,35.4375
0.16005385,-2.8461838,-2.5641375,-1.9751004,-0.0724974,0.07736831,-0.1082689,-0.38738805,-0.35042468,0.060077984,3.0766091,-0.6247236,-0.00021255639,-0.07342419,-0.010593992,-0.0019808651,-0.026711615,0.0030158954,0.004270161,0.47420117,-1.4139578,1.9436845,-2.1005332,-1.5689977,2.4493084,-0.062410492,0.12861668,-0.14346966,-2.621085e-09,0.022175826,-0.06659122,-0.68953013,0.36391866,-9.787497,0.81351066,47.71286,-1.2065873,-1.9372196,-3.511746,-0.5313269,0.28473768,-0.079074,27.75,29.0,28.25,32.3125,34.4375,35.4375
0.16255426,-2.650492,-2.4734933,-1.901185,-0.09421541,0.08555959,-0.119500145,-0.3875329,-0.35043508,0.060069982,3.076569,-0.62469715,-0.00017819415,-0.07477563,-0.011109034,-0.0016769937,-0.027770681,0.003616423,0.002375198,0.47405678,-1.4137049,1.9434088,-2.1005213,-1.5689496,2.4491527,-0.0631246,0.13056035,-0.14642905,-1.7113812e-10,0.02283864,-0.06540846,-0.61291564,0.30645782,-9.883265,0.74413085,47.728977,-1.1644424,-1.9091034,-3.3356528,-0.53242964,0.30614007,-0.10712988,27.75,29.0,28.25,32.3125,34.4375,35.4375
0.16505416,-2.2395086,-1.8282498,-1.7856349,-0.109475724,0.08062232,-0.122099206,-0.38786656,-0.3504897,0.060077935,3.076401,-0.6247235,-0.00021672985,-0.07783256,-0.01145539,-0.0009359948,-0.029238418,0.0053988136,-0.0051457225,0.47378016,-1.4131632,1.9427727,-2.1005456,-1.5688413,2.4489143,-0.06552747,0.13386506,-0.15198688,-7.295887e-13,0.023323335,-0.06028463,-0.61291564,0.38307226,-9.864111,0.7620334,47.723602,-1.0856596,-1.9075955,-3.386396,-0.54620486,0.31312275,-0.13318326,27.75,29.0,28.25,32.3125,34.4375,35.4375
0.16755407,-1.9727296,-2.142809,-1.734877,-0.08867137,0.079596855,-0.11817845,-0.38801414,-0.35052663,0.060079228,3.0763717,-0.62466115,-0.00023618962,-0.07927392,-0.011807016,0.0001062763,-0.030877786,0.0072820266,-0.0072166654,0.47369573,-1.412887,1.942449,-2.1005332,-1.5688175,2.4487948,-0.06656878,0.13396378,-0.15450989,-4.7636926e-14,0.023919592,-0.05925294,-0.51714754,0.2681506,-9.825804,0.8873621,47.713753,-1.1635599,-1.7998679,-3.3374455,-0.5510314,0.32923132,-0.17022449,27.75,29.0,28.25,32.3125,34.4375,35.4375
0.1700534,-2.0889533,-1.5333742,-1.8085576,-0.064181596,0.05878957,-0.116490565,-0.38819098,-0.3505345,0.060065866,3.0762725,-0.6246809,-0.00023597608,-0.08105024,-0.010791971,-0.0007533742,-0.030919218,0.0056521893,-0.011868296,0.47350255,-1.4126093,1.9421734,-2.1005933,-1.568745,2.4486268,-0.07041978,0.13719204,-0.1563019,-3.110351e-15,0.024701817,-0.058449477,-0.38307226,0.19153613,-9.710882,0.84484416,47.692257,-1.0795135,-2.0463514,-3.283062,-0.54701114,0.2984946,-0.20263618,27.75,29.0,28.25,32.3125,34.4375,35.4375
0.17255363,-1.4290951,-0.4118015,-1.5970228,-0.059714686,0.05365853,-0.12629671,-0.38836297,-0.35056776,0.06008614,3.0761771,-0.6246807,-0.0002362464,-0.0818121,-0.011457241,-0.0010382606,-0.03163946,0.005037801,-0.012515638,0.4733585,-1.4123445,1.9418138,-2.100557,-1.5686725,2.448495,-0.07049035,0.13979839,-0.1586864,-2.0308369e-16,0.025622915,-0.057869542,-0.2681506,0.15322891,-9.691729,0.83589023,47.699425,-0.97622705,-1.9194986,-3.2689018,-0.5466465,0.32420108,-0.22637767,27.75,29.0,28.25,32.3125,34.4375,35.4375
0.17505448,-0.8709186,-1.3594434,-1.4938629,-0.039376516,0.054598108,-0.1255473,-0.3887025,-0.35059595,0.06008133,3.0760453,-0.624847,-0.0003016595,-0.08314923,-0.010684529,-0.002762836,-0.031177355,0.0017820991,-0.015968671,0.47306943,-1.4117901,1.9411916,-2.1005814,-1.5686244,2.4483268,-0.0736687,0.14468044,-0.16045393,-8.6577764e-19,0.026701337,-0.057590667,-0.11492168,0.05746084,-9.595961,0.85155696,47.704796,-0.8855292,-2.1632679,-3.4035943,-0.519176,0.32641876,-0.28102463,27.75,29.0,28.25,32.3125,34.4375,35.4375
0.1775534,-1.1411893,-0.9225802,-1.3952872,-0.05430217,0.04536459,-0.12255518,-0.38888583,-0.35064584,0.06012579,3.075911,-0.6248011,-0.0003648073,-0.08446627,-0.010713157,-0.002776959,-0.031977937,0.0017127718,-0.017083993,0.472937,-1.4115494,1.9408072,-2.100557,-1.56854,2.448183,-0.075245425,0.14664298,-0.16271274,-5.652909e-20,0.027450562,-0.058047228,-0.038307227,0.05746084,-9.557653,0.8314132,47.703903,-0.8629473,-2.1604228,-3.3086824,-0.5069311,0.32607812,-0.31679323,27.75,29.0,28.25,32.3125,34.4375,35.4375
0.18005356,-1.2459388,-1.2703285,-1.2234141,-0.054968074,0.043177858,-0.1225923,-0.38904604,-0.3506458,0.060073815,3.0758944,-0.6248543,-0.00028368854,-0.08606031,-0.011116111,-0.0019247913,-0.03296963,0.0036149714,-0.017152352,0.4727687,-1.4112005,1.9405316,-2.1005933,-1.5685037,2.4480503,-0.07594221,0.14759491,-0.1658017,-3.6909457e-21,0.027462356,-0.058675177,-0.019153614,0.05746084,-9.423578,0.82694155,47.68599,-0.8615557,-2.1069412,-3.352028,-0.53580993,0.3469668,-0.30892178,27.75,29.0,28.25,32.3125,34.4375,35.4375
0.1825541,-1.1478953,-1.2060524,-1.1706134,-0.055802546,0.04996179,-0.118192084,-0.38920805,-0.35066637,0.06008122,3.0757847,-0.62496704,-0.00027013494,-0.08625114,-0.010761131,-0.002527732,-0.032543954,0.0025450846,-0.017426642,0.47261244,-1.4109478,1.9402207,-2.1005814,-1.5684322,2.4479785,-0.07676679,0.14880125,-0.16585231,-2.409924e-22,0.02757687,-0.059224024,-0.17238252,0.1340753,-9.346964,0.7933669,47.698532,-0.85311365,-2.1234097,-3.4681907,-0.5242216,0.34083068,-0.34147346,27.75,29.0,28.25,32.3125,34.4375,35.4375
0.1850546,-1.5734252,-1.4436371,-1.046456,-0.046753164,0.049908236,-0.117888436,-0.38958293,-0.35072267,0.060103606,3.0755782,-0.6250212,-0.00031128252,-0.08737127,-0.010602117,-0.0042508063,-0.03234961,-0.00074162177,-0.019623717,0.47228768,-1.4103695,1.9395026,-2.1005814,-1.5682997,2.4477143,-0.07881094,0.15414847,-0.16817248,-1.0273884e-24,0.028907398,-0.059064668,-0.17238252,0.21068975,-9.251195,0.784413,47.692257,-0.795613,-1.9735212,-3.553627,-0.5130064,0.3569097,-0.4197191,27.75,29.0,28.25,32.3125,34.4375,35.4375
0.18755394,-1.2569116,-1.1177776,-0.71946764,-0.06709818,0.052802928,-0.12498879,-0.38977134,-0.3507417,0.06008597,3.0755198,-0.6251054,-0.00035919133,-0.08965047,-0.011147018,-0.0020256822,-0.034989,0.0034661004,-0.020281432,0.4721433,-1.4100335,1.939166,-2.1006296,-1.5682877,2.4476302,-0.08013934,0.15301809,-0.17198493,-6.708112e-26,0.02934245,-0.059732154,-0.095768064,0.17238252,-9.251195,0.80456203,47.692257,-0.7127216,-2.0150023,-3.418274,-0.5233888,0.35344714,-0.43803364,27.75,29.0,28.25,32.3125,34.4375,35.4375
0.19005409,-1.3713329,-1.6551163,-0.72342247,-0.063760765,0.049039543,-0.12498818,-0.38996947,-0.3507627,0.060099617,3.0754154,-0.62519807,-0.00037223235,-0.09190507,-0.011546022,-0.0011861202,-0.036005925,0.005504417,-0.019893942,0.47196293,-1.4097327,1.9387821,-2.1006052,-1.5682276,2.4475212,-0.08140381,0.15502924,-0.17626089,-4.379918e-27,0.029322825,-0.061380208,-0.19153614,0.34476504,-9.174581,0.7866488,47.685097,-0.7010421,-1.9669747,-3.373392,-0.52175474,0.3604064,-0.45245403,27.75,29.0,28.25,32.3125,34.4375,35.4375
0.19255428,-1.330437,-1.6083097,-0.69061136,-0.08460185,0.057021905,-0.12884735,-0.3901302,-0.35078382,0.06008116,3.0754414,-0.62506795,-0.00037068216,-0.09331326,-0.012194069,-0.00037204594,-0.037645485,0.0069759185,-0.018547168,0.47185466,-1.409408,1.9384464,-2.1005933,-1.5682272,2.4473286,-0.08200134,0.15599489,-0.17927743,-2.8597734e-28,0.030114379,-0.06332251,-0.34476504,0.34476504,-9.059659,0.8493211,47.69763,-0.70779777,-1.9912864,-3.3223581,-0.51341534,0.37362462,-0.47581118,27.75,29.0,28.25,32.3125,34.4375,35.4375
0.19505385,-1.8009223,-2.5343716,-0.65674925,-0.089626215,0.06603952,-0.11301938,-0.39048612,-0.35085228,0.06008353,3.0752254,-0.62511456,-0.0002821517,-0.0947136,-0.013530834,0.00038051698,-0.04030682,0.007996873,-0.010799114,0.47153085,-1.408795,1.9377278,-2.1005695,-1.5680345,2.4470618,-0.082045615,0.15784478,-0.18321042,-1.2191662e-30,0.0320436,-0.07110893,-0.38307226,0.45968673,-9.193734,0.88289046,47.699425,-0.70080596,-1.8658645,-3.2732863,-0.49468362,0.34148622,-0.4258179,27.75,29.0,28.25,32.3125,34.4375,35.4375
0.19755363,-1.6433996,-1.9571024,-0.5965636,-0.10471475,0.08656982,-0.13367932,-0.39070615,-0.35086364,0.06010029,3.0751152,-0.62520504,-0.0003074769,-0.09563615,-0.0134197315,-3.5749068e-05,-0.0396909,0.007728042,-0.007154987,0.47131437,-1.4084816,1.937322,-2.1005456,-1.5679744,2.446916,-0.08274279,0.16015655,-0.18497862,-7.9602844e-32,0.03163369,-0.07544739,-0.49799395,0.63206923,-9.136273,0.8605109,47.693153,-0.83377445,-1.9798815,-3.2688794,-0.49801826,0.3553666,-0.4199648,27.75,29.0,28.25,32.3125,34.4375,35.4375
0.20005365,-1.683116,-1.7135472,-0.90630984,-0.090709016,0.08877575,-0.13052106,-0.3908843,-0.35089427,0.060077734,3.0750601,-0.6251705,-0.00027493108,-0.09720548,-0.012799233,-0.000849813,-0.039703544,0.006244036,-0.0015692177,0.4711694,-1.4081321,1.9369749,-2.1005695,-1.5679144,2.4467568,-0.085641444,0.16353424,-0.187101,9.1035676e-05,0.03233969,-0.08392917,-0.30645782,0.51714754,-9.251195,0.89631605,47.701214,-0.5870353,-1.9230196,-3.3230245,-0.506572,0.36327517,-0.3372435,27.75,29.0,28.25,32.3125,34.4375,35.4375
0.20255397,-1.4911538,-1.6349428,-0.7967294,-0.07710288,0.07713387,-0.12670651,-0.39110222,-0.35092828,0.060098935,3.0749266,-0.6251589,-0.0003221632,-0.09584252,-0.015059097,-0.0005251219,-0.042369112,0.0056949705,0.0036750075,0.47097892,-1.40782,1.9365686,-2.1005814,-1.5678295,2.4465764,-0.08207954,0.16335048,-0.18767796,0.0001399782,0.0349806,-0.08560526,-0.30645782,0.49799395,-9.251195,0.86945957,47.70211,-0.85682505,-1.8659041,-3.3443098,-0.5034895,0.33044994,-0.29547518,27.75,29.0,28.25,32.3125,34.4375,35.4375
0.20505369,-1.386941,-1.6470315,-0.9443979,-0.05152302,0.042205587,-0.11358897,-0.39148366,-0.35098228,0.0600678,3.0747795,-0.62508583,-0.00023841886,-0.09764313,-0.016585352,-1.6071348e-05,-0.045350518,0.0062104906,0.010988365,0.4706308,-1.4071221,1.9358381,-2.1006052,-1.5676726,2.4462018,-0.08246892,0.1665451,-0.19262856,0.00012431132,0.037426222,-0.09330092,-0.19153613,0.22984336,-9.059659,0.8023209,47.728977,-0.9504194,-1.8502392,-3.300256,-0.4787795,0.30299792,-0.17733952,27.75,29.0,28.25,32.3125,34.4375,35.4375
0.20755388,-0.9354568,-1.0558163,-1.0359405,-0.04624458,0.028028674,-0.12468767,-0.39170408,-0.3510192,0.060075074,3.0747123,-0.6250133,-0.0003043521,-0.09866228,-0.017226301,0.00012741526,-0.046961214,0.006195431,0.011674824,0.47047454,-1.4067612,1.9354066,-2.1006172,-1.5676364,2.4460092,-0.08312692,0.16836157,-0.19509543,6.603834e-05,0.038878534,-0.09463933,0.0,0.24899697,-9.155427,0.7665104,47.709274,-1.003598,-1.895394,-3.1323853,-0.47202036,0.27785468,-0.15864307,27.75,29.0,28.25,32.3125,34.4375,35.4375
0.2100539,-0.6883697,-0.8957718,-0.9958015,-0.046170678,0.015338682,-0.12489515,-0.39187768,-0.3510564,0.06006191,3.0746753,-0.62487125,-0.00021928827,-0.09956038,-0.017093113,-0.00046138786,-0.045804463,0.005803325,0.010643824,0.47033045,-1.4064119,1.9350241,-2.1005814,-1.5675524,2.4457812,-0.08356855,0.17108245,-0.19696978,0.00010817937,0.0380231,-0.094049945,0.038307227,0.24899697,-9.212888,0.8560339,47.72808,-1.062202,-2.0385914,-3.2897305,-0.47119787,0.26742673,-0.113202095,27.75,29.0,28.25,32.3125,34.4375,35.4375
0.21255384,-0.3585612,-1.2737217,-0.9667573,-0.039672066,0.023175549,-0.12950887,-0.3920829,-0.3510777,0.060047433,3.0745766,-0.62496847,-0.00018971489,-0.10001427,-0.01678556,-0.0017619785,-0.04512813,0.0034459007,0.007286641,0.47013792,-1.4060502,1.9346412,-2.1005933,-1.5674804,2.4456623,-0.08474746,0.17434482,-0.19784887,0.0001385316,0.038488477,-0.09186909,0.019153614,0.15322891,-9.251195,0.82694155,47.696735,-1.0119593,-2.162088,-3.3534343,-0.45498145,0.26736066,-0.11926587,27.75,29.0,28.25,32.3125,34.4375,35.4375
0.21505353,-0.3957132,-1.5469749,-1.3389379,-0.065971926,0.023156442,-0.12355323,-0.39247283,-0.35113046,0.060024347,3.0744166,-0.6249394,-5.1978022e-05,-0.10126279,-0.018092483,-0.0023297716,-0.047746275,0.0014402365,-0.0005726261,0.46976575,-1.4053403,1.9338635,-2.100557,-1.5672992,2.4452927,-0.08551068,0.1788757,-0.20194934,0.0003069148,0.0417148,-0.08476554,0.1340753,0.19153613,-9.308656,0.80456203,47.682407,-1.0184996,-2.2682428,-3.3895137,-0.45716107,0.21245146,-0.17878458,27.75,29.0,28.25,32.3125,34.4375,35.4375
0.21755451,-0.707797,-1.8230071,-1.5391483,-0.067617275,0.012313112,-0.12409867,-0.39270842,-0.35118568,0.06003685,3.0743253,-0.6248287,-0.0001484662,-0.10269274,-0.016937269,-0.002669065,-0.047649976,0.00060418475,-0.008774454,0.46962065,-1.4049554,1.9333972,-2.1005929,-1.5672506,2.4450905,-0.08892846,0.18037188,-0.20306359,0.00070703635,0.0420055,-0.07997569,0.21068975,0.24899697,-9.385271,0.8403672,47.709274,-0.9370802,-2.1830027,-3.3810654,-0.44976532,0.19348398,-0.22040904,27.75,29.0,28.25,32.3125,34.4375,35.4375
0.2200535,-0.1362278,-1.9701477,-1.4771067,-0.072641425,0.027787304,-0.1147507,-0.39288035,-0.35120863,0.0600115,3.0742722,-0.62487465,-2.0915575e-05,-0.102150366,-0.01831601,-0.0027035745,-0.04810881,0.00010986134,-0.008835537,0.46945366,-1.4045948,1.9330262,-2.1005452,-1.5671667,2.4449592,-0.086375736,0.18159238,-0.20458043,0.0012390597,0.04262966,-0.077361956,0.19153613,0.2681506,-9.3661175,0.82022345,47.69763,-1.0835078,-2.2476315,-3.449256,-0.44369993,0.17452523,-0.26452354,27.75,29.0,28.25,32.3125,34.4375,35.4375
0.22255346,-0.5243894,-2.1039534,-1.6440724,-0.07133641,0.02549781,-0.124970995,-0.3930878,-0.351259,0.06002319,3.0741143,-0.6248802,9.808331e-06,-0.103464395,-0.017143084,-0.0038756651,-0.047089785,-0.0022798285,-0.009097979,0.46927243,-1.4042569,1.932608,-2.1005447,-1.5670346,2.4448018,-0.08965277,0.18500504,-0.20608543,0.0019518423,0.04281856,-0.08037199,0.15322891,0.3256114,-9.442732,0.8157518,47.72808,-1.1191745,-2.2221487,-3.305574,-0.4560526,0.14603642,-0.26327333,27.75,29.0,28.25,32.3125,34.4375,35.4375
0.22505435,-1.0574421,-1.976043,-1.4736427,-0.08594141,0.045405142,-0.1275733,-0.39349982,-0.35134348,0.06000696,3.0739386,-0.6248823,3.5719502e-05,-0.10446924,-0.018426325,-0.0030815988,-0.04826364,-0.00027155454,-0.010138853,0.46896085,-1.4034998,1.9317697,-2.1005566,-1.5668906,2.4445145,-0.08826993,0.1862481,-0.2094104,0.0017272169,0.04295649,-0.0779427,-0.019153614,0.40222588,-9.672575,0.8314132,47.689575,-1.134267,-2.2613237,-3.5585985,-0.439757,0.11586834,-0.3100139,27.75,29.0,28.25,32.3125,34.4375,35.4375
0.22755343,-1.548081,-2.2384722,-1.5920696,-0.090975374,0.04736116,-0.11721952,-0.39368638,-0.3513702,0.05996563,3.0738947,-0.62483513,0.00017481459,-0.10667136,-0.018477842,-0.0025398883,-0.048987456,0.0014324799,-0.011367729,0.46878022,-1.403091,1.9313868,-2.1005452,-1.5667948,2.4443102,-0.08999538,0.18829359,-0.21303034,0.0014721412,0.04282625,-0.078439265,-0.05746084,0.38307226,-9.557653,0.8493211,47.691364,-1.0517699,-2.2877712,-3.4886737,-0.43927914,0.10373502,-0.3213031,27.75,29.0,28.25,32.3125,34.4375,35.4375
0.23005338,-1.2234753,-1.9850446,-1.4197885,-0.098049514,0.06929473,-0.12007428,-0.39391387,-0.35138696,0.05997201,3.073803,-0.62487394,0.00013457981,-0.10700388,-0.01872335,-0.0025048212,-0.04894571,0.0017291087,-0.011383989,0.46857634,-1.4027424,1.9309677,-2.1005452,-1.5667466,2.4441426,-0.08968513,0.18907987,-0.21409225,0.001513906,0.042662103,-0.07810957,-0.17238252,0.45968673,-9.5385,0.8985519,47.68599,-1.1331408,-2.193519,-3.6281867,-0.43710607,0.07962131,-0.34723145,27.75,29.0,28.25,32.3125,34.4375,35.4375
0.23255359,-1.4430193,-2.3958588,-1.6404939,-0.091946915,0.06853585,-0.123501115,-0.39414123,-0.3514458,0.059993196,3.0736403,-0.6249158,0.00010911381,-0.108483,-0.018904528,-0.001756378,-0.049447842,0.0032704894,-0.010913103,0.4684082,-1.4023813,1.9305004,-2.1005452,-1.5666388,2.4440217,-0.09046262,0.1900197,-0.21704559,0.0019469128,0.04242491,-0.07935262,-0.22984336,0.4405331,-9.423578,0.8717007,47.65643,-1.118473,-2.3401604,-3.473173,-0.4408547,0.0713828,-0.3586679,27.75,29.0,28.25,32.3125,34.4375,35.4375
0.23505358,-1.6457343,-1.5460107,-1.8651,-0.06763637,0.06820922,-0.11879237,-0.3945724,-0.35151023,0.059960164,3.073487,-0.62490094,0.00025899688,-0.111163594,-0.01794091,-0.0007706758,-0.04715679,0.0063105053,-0.0073359436,0.4680238,-1.4015645,1.9296159,-2.1004965,-1.56646,2.443648,-0.09222494,0.19152027,-0.22148795,0.0032746992,0.039029893,-0.08469536,-0.24899697,0.3256114,-9.672575,0.7978386,47.689575,-1.1749756,-2.0339837,-3.4707217,-0.43850762,0.07438258,-0.35371935,27.75,29.0,28.25,32.3125,34.4375,35.4375
0.23755372,-1.5809581,-1.6416098,-1.5934235,-0.06316405,0.087742254,-0.12006871,-0.39480463,-0.3515467,0.059960585,3.0733876,-0.6248975,0.00021615572,-0.11227985,-0.017401077,-0.0012568258,-0.04586439,0.0064439373,-0.003915195,0.46784338,-1.4011794,1.9291729,-2.1005204,-1.5664004,2.4434786,-0.09332771,0.19371316,-0.22294751,0.0030409175,0.03783861,-0.089217,-0.28730422,0.22984336,-9.710882,0.8023209,47.689575,-1.1777507,-2.1331432,-3.5186505,-0.42227286,0.08728759,-0.3218616,27.75,29.0,28.25,32.3125,34.4375,35.4375
0.24005342,-2.0228164,-1.2971969,-1.3124992,-0.06842676,0.09547661,-0.12582439,-0.39501843,-0.35158285,0.05994941,3.073299,-0.62485665,0.0002406555,-0.11384971,-0.01807483,-0.00031422323,-0.04655828,0.00933092,0.0011407236,0.46766344,-1.4007949,1.9287542,-2.1005323,-1.5663165,2.4432847,-0.09305079,0.19464026,-0.2260948,0.0024088928,0.03717249,-0.09399408,-0.38307226,0.1340753,-9.595961,0.8940802,47.682407,-1.2344134,-2.027842,-3.5375574,-0.42189753,0.09083435,-0.26913458,27.75,29.0,28.25,32.3125,34.4375,35.4375
0.2425534,-2.132561,-0.93734604,-1.2097979,-0.04947184,0.106171206,-0.11990541,-0.39523512,-0.35163975,0.059947252,3.0731976,-0.6247753,0.00031455426,-0.116532624,-0.017305136,0.00021930829,-0.04637639,0.011605113,0.0044787424,0.46749455,-1.4003857,1.9282755,-2.100497,-1.5661968,2.4430783,-0.09595667,0.19643514,-0.22937705,0.0019978406,0.036005653,-0.10023735,-0.4405331,-0.038307227,-9.461885,0.8403672,47.688675,-1.0344138,-2.111041,-3.4996758,-0.4051227,0.09243119,-0.22186445,27.75,29.0,28.25,32.3125,34.4375,35.4375
0.24505426,-1.852528,0.13218954,-1.2161119,-0.010008186,0.09466038,-0.12839848,-0.39569083,-0.35171604,0.05991682,3.073042,-0.62464625,0.00032577157,-0.119127676,-0.015408372,-0.0009732478,-0.044259604,0.01116283,0.005510648,0.46713287,-1.3995556,1.92739,-2.1005452,-1.5660533,2.4426565,-0.10035445,0.20058702,-0.23151134,0.0013871382,0.034348577,-0.10566538,-0.4213795,-0.1340753,-9.385271,0.85826975,47.699425,-0.97704947,-2.1261568,-3.4679768,-0.37554255,0.118726104,-0.12672457,27.75,29.0,28.25,32.3125,34.4375,35.4375
0.24755426,-1.761229,0.25091588,-1.0529248,-0.021590205,0.093197875,-0.13234538,-0.39593056,-0.35174266,0.059927013,3.0729644,-0.6246104,0.0003107775,-0.11892266,-0.015803995,-0.0006552434,-0.04319935,0.012458793,0.0066241585,0.4669297,-1.3991712,1.9269112,-2.100509,-1.5659941,2.4424412,-0.09843725,0.20033935,-0.23204796,0.0015066289,0.03282694,-0.10486274,-0.51714754,-0.076614454,-9.423578,0.83589023,47.684196,-1.0838631,-2.0634704,-3.4521856,-0.36677605,0.13862565,-0.07369851,27.75,29.0,28.25,32.3125,34.4375,35.4375
0.25005406,-2.3345382,-0.7945081,-1.238432,-0.02443607,0.079704575,-0.11708888,-0.39617693,-0.35175195,0.059908956,3.0729284,-0.6246233,0.00030806795,-0.12073791,-0.014992711,-0.0009929303,-0.042731415,0.011666009,0.0017232453,0.46671265,-1.3987379,1.9264449,-2.1004965,-1.5659698,2.4422371,-0.101327784,0.203153,-0.23484613,0.002410268,0.03276359,-0.102850445,-0.5363012,-0.11492168,-9.461885,0.83813137,47.698532,-0.9973241,-2.069603,-3.577259,-0.37034327,0.14810443,-0.07774288,27.75,29.0,28.25,32.3125,34.4375,35.4375
0.25255415,-1.3919932,-0.92468834,-1.1911998,-0.04929825,0.09764184,-0.12143407,-0.39644325,-0.35177368,0.059928276,3.0728474,-0.62460953,0.00017557823,-0.122214116,-0.014028688,-0.0015816733,-0.041574255,0.009559659,-0.0035855349,0.46650776,-1.3983526,1.9259547,-2.100508,-1.5659579,2.4420345,-0.1041704,0.20635088,-0.23779765,0.004562359,0.03268522,-0.10037931,-0.49799395,-0.05746084,-9.423578,0.900793,47.691364,-0.8878776,-2.0985463,-3.7043877,-0.38465732,0.17013349,-0.0784523,27.75,29.0,28.25,32.3125,34.4375,35.4375
0.25505412,-1.9542654,-1.0988986,-1.2030286,-0.053350557,0.07229567,-0.12137121,-0.39692715,-0.35184938,0.059947234,3.0726194,-0.62462324,0.00019067497,-0.12564488,-0.014114161,-0.00041638213,-0.040581107,0.012977253,-0.012118185,0.4660995,-1.3975587,1.9249729,-2.100448,-1.5657791,2.4416647,-0.105327204,0.20973247,-0.2447724,0.005553183,0.0302458,-0.093001656,-0.6703765,0.038307227,-9.32781,0.8023209,47.70659,-0.8274466,-2.1372595,-3.3987064,-0.39397192,0.20790373,-0.1583388,27.75,29.0,28.25,32.3125,34.4375,35.4375
0.2575544,-1.8019686,-1.094993,-1.078595,-0.054086056,0.08434641,-0.11114513,-0.39718983,-0.3518688,0.059923463,3.0725307,-0.62468344,0.00016463165,-0.12704664,-0.014315815,0.00018284879,-0.041275647,0.014643409,-0.015851019,0.46587136,-1.3971016,1.9245051,-2.1004956,-1.5657309,2.441486,-0.106029816,0.21062696,-0.247207,0.005289726,0.030112773,-0.089968935,-0.5554548,0.15322891,-9.442732,0.8537928,47.705692,-0.85555476,-2.1170974,-3.397784,-0.39157683,0.251592,-0.20602798,27.75,29.0,28.25,32.3125,34.4375,35.4375
0.2600537,-1.878758,-1.3440152,-1.4755458,-0.058807444,0.09346001,-0.12406405,-0.39742965,-0.35188568,0.05990418,3.0724425,-0.62479913,0.00022240455,-0.12707746,-0.015465553,-7.4449315e-05,-0.042849,0.013730351,-0.017350916,0.46564373,-1.3966688,1.9240388,-2.1004717,-1.5656585,2.441342,-0.105110876,0.21245378,-0.24880241,0.005162438,0.0319237,-0.08754483,-0.47884035,0.24899697,-9.442732,0.8403672,47.713753,-1.002284,-2.1927712,-3.4008975,-0.370902,0.24633613,-0.24622425,27.75,29.0,28.25,32.3125,34.4375,35.4375
0.26255363,-2.0859566,-1.7502302,-1.2199074,-0.07253709,0.08779672,-0.12178839,-0.39768535,-0.35191315,0.05991717,3.0723846,-0.6247684,0.00015821001,-0.12879018,-0.016335774,0.0013312933,-0.04461711,0.01612169,-0.018982671,0.4654515,-1.3962603,1.9235243,-2.100436,-1.5656346,2.4411385,-0.105333686,0.21308476,-0.25294495,0.005742842,0.0324295,-0.08613081,-0.47884035,0.3256114,-9.442732,0.80679786,47.699425,-0.89474356,-2.0501058,-3.403531,-0.37165412,0.27011538,-0.29884726,27.75,29.0,28.25,32.3125,34.4375,35.4375
0.26505432,-1.6490661,-1.8999473,-1.5557195,-0.07459119,0.059500076,-0.120875455,-0.39819315,-0.35197625,0.059891205,3.072199,-0.6248657,0.00017343761,-0.13145663,-0.01716877,0.0024314097,-0.047513686,0.017798126,-0.023229774,0.465031,-1.3953587,1.922531,-2.1004355,-1.5655016,2.4408033,-0.10719913,0.21549053,-0.2585091,0.0061100693,0.034268267,-0.0837394,-0.2681506,0.40222588,-9.5385,0.8918391,47.692257,-0.84322655,-1.875102,-3.2767696,-0.36647958,0.29858586,-0.38569024,27.75,29.0,28.25,32.3125,34.4375,35.4375
0.26755333,-1.1529459,-1.7423166,-1.5878402,-0.08657871,0.050633416,-0.11631367,-0.3984497,-0.3520008,0.059887525,3.0721006,-0.62492037,0.00018601792,-0.13084319,-0.016983047,0.0025243484,-0.047254372,0.017922796,-0.02091895,0.46480313,-1.3949267,1.9220294,-2.1004117,-1.5654296,2.4406226,-0.106716886,0.21414998,-0.25726888,0.006239727,0.03400305,-0.085568175,-0.15322891,0.4405331,-9.500193,0.88960326,47.68062,-1.0623605,-1.8819593,-3.397224,-0.35351878,0.31087175,-0.41604632,27.75,29.0,28.25,32.3125,34.4375,35.4375
0.2700534,-1.0677056,-2.3339572,-1.4159697,-0.08973901,0.045783114,-0.11988097,-0.3987491,-0.35203764,0.059928462,3.071948,-0.6250055,4.330831e-05,-0.1320282,-0.016226783,0.0020377291,-0.046839945,0.017921604,-0.024076471,0.46457458,-1.3945175,1.9214557,-2.1003997,-1.5653819,2.4404674,-0.10873467,0.21583548,-0.25804478,0.0055241114,0.033646517,-0.084423766,-0.15322891,0.4213795,-9.442732,0.8806493,47.685097,-0.975829,-1.8698512,-3.5687928,-0.3489585,0.34474635,-0.4466831,27.75,29.0,28.25,32.3125,34.4375,35.4375
0.27255347,-1.3586184,-2.1533186,-1.4647509,-0.0899456,0.040249415,-0.11206802,-0.39902014,-0.35207087,0.05993788,3.0717914,-0.6251059,2.2053931e-05,-0.13249317,-0.016187124,0.0013628105,-0.047354635,0.0165412,-0.022470865,0.46433416,-1.3940959,1.9209417,-2.1003997,-1.5652856,2.4403102,-0.109800786,0.21781954,-0.25887915,0.0054048644,0.034750644,-0.08708901,-0.15322891,0.40222588,-9.423578,0.900793,47.68599,-0.9748192,-1.9981039,-3.640431,-0.34904486,0.363391,-0.4822758,27.75,29.0,28.25,32.3125,34.4375,35.4375
0.27505437,-0.44820738,-1.2468643,-1.3109586,-0.08464234,0.04432739,-0.12400801,-0.399547,-0.35211328,0.05990429,3.071659,-0.6251479,5.7922523e-05,-0.13344766,-0.017790047,0.00044417594,-0.050302885,0.013664805,-0.012602723,0.46387807,-1.3931578,1.9199132,-2.100364,-1.5651764,2.439898,-0.11016077,0.22301406,-0.26312897,0.0057807253,0.03873056,-0.097302236,0.11492168,0.3256114,-9.519346,0.8940802,47.670765,-0.94990516,-2.0075717,-3.577746,-0.32268554,0.3733516,-0.44412333,27.75,29.0,28.25,32.3125,34.4375,35.4375
0.27755338,-0.48226246,-1.7624282,-1.4866891,-0.051298443,0.02365157,-0.12075361,-0.3998314,-0.35215572,0.059914052,3.071509,-0.6251895,-4.9026025e-06,-0.13500588,-0.018235303,-0.00033544283,-0.050294653,0.0129262265,-0.0067505906,0.46365008,-1.3927122,1.9193753,-2.1003883,-1.565092,2.4397159,-0.11087071,0.22763236,-0.26679528,0.005545504,0.039092883,-0.10385689,0.17238253,0.30645782,-9.423578,0.88960326,47.684196,-0.9218534,-2.0960262,-3.5914326,-0.3090814,0.3724938,-0.38635767,27.75,29.0,28.25,32.3125,34.4375,35.4375
0.2800541,-0.14624304,-0.8474435,-1.8618622,-0.06255724,0.011175133,-0.12839282,-0.40008014,-0.35219845,0.059903048,3.071437,-0.62505436,4.4991877e-05,-0.13537394,-0.019704888,-0.00050607056,-0.051498555,0.012422849,0.0015612076,0.46344647,-1.3922546,1.9188594,-2.100364,-1.5649956,2.4394374,-0.10939064,0.23038146,-0.26975587,0.0057210894,0.04042931,-0.11068214,0.19153613,0.34476504,-9.5385,0.87617236,47.689575,-1.056876,-2.300037,-3.577402,-0.30746287,0.39817798,-0.31572244,27.75,29.0,28.25,32.3125,34.4375,35.4375
0.2825543,-0.77971345,-2.3838778,-1.7329823,-0.076276444,0.0030051654,-0.112072654,-0.4003383,-0.35224777,0.059916474,3.0713158,-0.625027,1.146971e-05,-0.13725144,-0.019935993,0.0006122466,-0.053631492,0.014030227,0.0049278117,0.4632537,-1.3918337,1.9183334,-2.1003516,-1.5649112,2.4392436,-0.11129806,0.2309131,-0.27310798,0.006193627,0.041653473,-0.115947686,0.28730422,0.4405331,-9.595961,0.84484416,47.66808,-0.9366939,-2.177397,-3.5151315,-0.30478734,0.40202487,-0.22854099,27.75,29.0,28.25,32.3125,34.4375,35.4375
0.28505412,-0.9091215,-2.6432698,-1.9309047,-0.0902801,-0.0019458387,-0.12351016,-0.4009166,-0.35233214,0.059948083,3.0710812,-0.624936,-8.5479995e-05,-0.13937186,-0.020980613,0.0020162715,-0.055517145,0.015136095,0.009222083,0.46279758,-1.3909204,1.9171838,-2.1003144,-1.5647544,2.4387617,-0.11189538,0.23304832,-0.2795667,0.008747567,0.0429015,-0.120825,0.22984336,0.4405331,-9.576807,0.80456203,47.698532,-1.0133128,-2.0745091,-3.2801042,-0.310465,0.40202165,-0.12018318,27.75,29.0,28.25,32.3125,34.4375,35.4375
0.2875539,-0.6693005,-2.1279118,-1.7236159,-0.10057676,0.011625213,-0.12287821,-0.40119958,-0.3523525,0.059936233,3.0709908,-0.62497795,-3.0464329e-05,-0.13908644,-0.021069253,0.0014119002,-0.056121707,0.012257584,0.0042717606,0.46253338,-1.3904275,1.916622,-2.1002662,-1.5646695,2.4385357,-0.11251985,0.23446311,-0.28032696,0.010388296,0.044721186,-0.11649219,0.05746084,0.5554548,-9.615114,0.8918391,47.685097,-1.142895,-2.1242566,-3.3227262,-0.31853452,0.41786677,-0.15779573,27.75,29.0,28.25,32.3125,34.4375,35.4375
0.29005352,-0.3668237,-1.7852303,-1.8914729,-0.10024471,0.03160267,-0.13092361,-0.40145573,-0.3523985,0.059925925,3.0709393,-0.6248922,-1.4054112e-05,-0.13997096,-0.021094238,0.0014382321,-0.057542607,0.012378033,-0.0002856586,0.46235302,-1.3899459,1.9160727,-2.100231,-1.5646099,2.4383087,-0.11390739,0.23530899,-0.2813436,0.009808854,0.045930684,-0.11331646,0.11492168,0.53630114,-9.749189,0.8672237,47.65643,-1.0418075,-2.088436,-3.4475245,-0.329525,0.41305298,-0.16563785,27.75,29.0,28.25,32.3125,34.4375,35.4375
0.29255342,-1.0999864,-2.3252177,-1.7955973,-0.10122777,0.041069966,-0.11786594,-0.40173241,-0.3524485,0.05993178,3.0707598,-0.62489676,3.4460558e-05,-0.13987577,-0.021129025,0.0012306538,-0.059045505,0.011533636,-0.007297726,0.46210083,-1.3894904,1.9155229,-2.100219,-1.564453,2.438083,-0.1147196,0.23520984,-0.28074113,0.009375824,0.047641147,-0.10710747,-0.038307227,0.4405331,-9.710882,0.90527004,47.678825,-1.0104337,-2.0036457,-3.576642,-0.2988228,0.39723575,-0.23935458,27.75,29.0,28.25,32.3125,34.4375,35.4375
0.2950533,-1.7617439,-1.9181523,-1.3627795,-0.08428805,0.052671615,-0.11846289,-0.40230966,-0.35257888,0.059961267,3.0704887,-0.6247643,-5.7584584e-05,-0.14149582,-0.022428444,0.002133492,-0.06396668,0.011723533,-0.011136132,0.46170437,-1.388529,1.9143256,-2.100207,-1.5642594,2.4376397,-0.116377555,0.23660871,-0.28464568,0.009529004,0.051981524,-0.104899526,-0.076614454,0.2873042,-9.519346,0.95897776,47.698532,-1.0564893,-1.7677983,-3.5675662,-0.31775236,0.35809618,-0.2928676,27.75,29.0,28.25,32.3125,34.4375,35.4375
0.29755408,-1.0684319,-0.753157,-1.3907284,-0.06580918,0.057586513,-0.11774908,-0.40259066,-0.35262668,0.059971232,3.0703397,-0.62477434,-6.7590656e-05,-0.14393625,-0.023001067,0.0031306257,-0.069312185,0.012362959,-0.016050402,0.461475,-1.3880719,1.9137639,-2.1001952,-1.5641497,2.4374363,-0.12020485,0.23781784,-0.2882806,0.009001844,0.056486927,-0.10378958,-0.15322891,0.17238252,-9.461885,0.92764956,47.689575,-0.9599058,-1.7533777,-3.588652,-0.30978584,0.30132312,-0.3404166,27.75,29.0,28.25,32.3125,34.4375,35.4375
0.30005395,-0.87845606,0.14631285,-1.4264088,-0.038213883,0.049708597,-0.122921795,-0.40288624,-0.3526791,0.059970282,3.0701325,-0.62488353,-3.273686e-05,-0.14382401,-0.02518677,0.002666347,-0.071159974,0.011513813,-0.013610097,0.46121195,-1.3875784,1.9131898,-2.1002076,-1.5639933,2.4372687,-0.11748714,0.24105318,-0.2909889,0.0084346505,0.058531392,-0.10349787,-0.19153613,0.095768064,-9.404425,0.95002913,47.70211,-1.0855838,-1.7546761,-3.468718,-0.27851892,0.26719576,-0.3502731,27.75,29.0,28.25,32.3125,34.4375,35.4375
0.3025541,-1.8390911,-0.2849302,-1.5784388,-0.012710802,0.03142188,-0.10648051,-0.40317607,-0.35271254,0.05996805,3.0700068,-0.62489796,-2.6891723e-05,-0.14584273,-0.024944413,0.0014898026,-0.07331092,0.009153243,-0.017466325,0.46095833,-1.3870969,1.9126266,-2.1001956,-1.5638961,2.4370408,-0.12139509,0.24571519,-0.29371023,0.0076657315,0.061518107,-0.10353237,-0.2873042,0.038307227,-9.404425,0.9164598,47.699425,-0.87932277,-1.9249718,-3.4212503,-0.27162376,0.21263982,-0.3786928,27.75,29.0,28.25,32.3125,34.4375,35.4375
0.3050538,-1.7465512,-0.38789678,-1.4485738,-0.04166909,0.097868055,-0.12663424,-0.40374765,-0.35283032,0.059984166,3.0696957,-0.62488395,2.6830869e-05,-0.14670308,-0.0260206,0.0013969615,-0.07228157,0.008596813,-0.009385535,0.46050346,-1.3861222,1.9114312,-2.1001346,-1.5636324,2.4366183,-0.11965872,0.24959904,-0.29879826,0.009928354,0.060907032,-0.10986807,-0.47884035,0.15322891,-9.385271,0.89631605,47.709274,-1.0967411,-1.9355245,-3.405929,-0.2697953,0.15950987,-0.3643074,27.75,29.0,28.25,32.3125,34.4375,35.4375
0.3075539,-3.0925002,-1.548529,-1.5671666,-0.065009795,0.10136515,-0.1141817,-0.40402076,-0.3528824,0.060002077,3.0695596,-0.6248532,8.379705e-05,-0.14698377,-0.02604358,0.0007947982,-0.07191435,0.0060683275,-0.00356028,0.4602751,-1.3856649,1.9108337,-2.1000502,-1.5634998,2.4363887,-0.12027274,0.2521522,-0.30103236,0.012109543,0.061752092,-0.11630009,-0.47884035,0.22984336,-9.346964,0.83589023,47.68062,-1.0841585,-1.9645852,-3.4120147,-0.2854139,0.1415269,-0.2647903,27.75,29.0,28.25,32.3125,34.4375,35.4375
0.3100537,-2.6352403,-1.7334822,-1.3516126,-0.09829027,0.118084565,-0.11891092,-0.40434182,-0.3529399,0.06001215,3.0693953,-0.6248538,6.532439e-05,-0.14765735,-0.026382817,0.0015936065,-0.07277289,0.0068569835,0.0016610549,0.4600231,-1.3851361,1.9101862,-2.1000383,-1.5633801,2.436159,-0.12042572,0.25213155,-0.30320227,0.013279443,0.06222123,-0.12166581,-0.6895301,0.30645782,-9.461885,0.9388393,47.68599,-1.1280406,-1.9482577,-3.4772792,-0.30138165,0.09380403,-0.24731562,27.75,29.0,28.25,32.3125,34.4375,35.4375
0.3125536,-2.6723597,-2.000503,-1.4195282,-0.10668848,0.1118829,-0.12024398,-0.40464118,-0.35299423,0.060039867,3.0692089,-0.6248494,5.757396e-05,-0.14888883,-0.024347099,0.00096693716,-0.068380274,0.0080316635,0.0067156125,0.4597706,-1.3846792,1.9095777,-2.100002,-1.563238,2.4359283,-0.12211694,0.25337753,-0.3033425,0.013169867,0.05782539,-0.12842388,-0.63206923,0.38307226,-9.461885,0.96569055,47.6636,-1.0800009,-1.9250841,-3.4733143,-0.30326736,0.117068134,-0.13040894,27.75,29.0,28.25,32.3125,34.4375,35.4375
0.31505376,-2.138018,-1.5579917,-1.4067899,-0.06878315,0.07351185,-0.10969753,-0.4052858,-0.35308608,0.06004953,3.068979,-0.6247046,-5.7316407e-05,-0.15151167,-0.023508813,0.0006596315,-0.067099005,0.010819848,0.0063066185,0.45927805,-1.3836212,1.9083103,-2.100003,-1.5630821,2.4353762,-0.12408264,0.25633273,-0.30584535,0.010855457,0.05548458,-0.1299783,-0.45968673,0.24899697,-9.442732,0.9388393,47.670765,-1.0290208,-1.7919238,-3.5977783,-0.30264503,0.10142562,-0.049987327,27.75,29.0,28.25,32.3125,34.4375,35.4375
0.31755346,-1.4359789,-1.1133249,-1.1725501,-0.05438694,0.08829542,-0.11655998,-0.405573,-0.35311586,0.060014844,3.0688527,-0.62477756,5.528918e-05,-0.1542374,-0.023606613,0.0017976129,-0.06673158,0.015599814,0.0020598988,0.45900163,-1.3830798,1.9077486,-2.0999916,-1.5629514,2.435162,-0.12457525,0.2577402,-0.30988327,0.009375897,0.053014643,-0.12623315,-0.5554548,0.28730422,-9.289503,0.8985519,47.701214,-0.8619143,-1.9187334,-3.6341224,-0.26092285,0.12580176,-0.07920365,27.75,29.0,28.25,32.3125,34.4375,35.4375
0.3200543,-2.1339655,-0.88679695,-1.0630136,-0.036631424,0.075818494,-0.12033703,-0.40591118,-0.35317215,0.06005575,3.068685,-0.62466824,-7.643348e-05,-0.15675992,-0.022952555,0.0023817224,-0.06616656,0.018456537,-0.0051085283,0.45874923,-1.3825991,1.9070896,-2.099992,-1.5628556,2.4348638,-0.12660736,0.25931963,-0.3130051,0.008598921,0.05123624,-0.12109439,-0.5746084,0.21068975,-9.155427,0.9388393,47.696735,-1.0398555,-1.8878744,-3.43566,-0.23546094,0.14176095,-0.10809967,27.75,29.0,28.25,32.3125,34.4375,35.4375
0.32255426,-2.250949,-0.51846266,-1.0769287,-0.021478875,0.07900068,-0.11502355,-0.40619367,-0.35323232,0.060033694,3.0685527,-0.6246802,3.354659e-05,-0.15752289,-0.023231445,0.0020566126,-0.06449445,0.019203989,-0.0071662082,0.45852157,-1.3820462,1.9064797,-2.0999563,-1.5627121,2.4346611,-0.12550794,0.26179525,-0.31530702,0.008505821,0.049394146,-0.11794393,-0.49799395,0.21068975,-9.212888,0.9186956,47.683304,-1.0433822,-1.7730926,-3.4145212,-0.22889313,0.15812679,-0.15714568,27.75,29.0,28.25,32.3125,34.4375,35.4375
0.32505387,-1.7629986,-0.7109831,-0.87816834,-0.049720537,0.10418792,-0.11549124,-0.40686262,-0.35332206,0.06005476,3.0682385,-0.6247511,-0.00010395494,-0.16007379,-0.022748608,0.0031868732,-0.06325419,0.022261184,-0.01470155,0.45799315,-1.3809887,1.905187,-2.0999672,-1.5625333,2.4342191,-0.12669244,0.2632111,-0.32006153,0.009655277,0.046934497,-0.111591846,-0.34476504,0.2681506,-9.193734,0.90750587,47.667187,-1.0313401,-1.5821598,-3.4192076,-0.21987754,0.19334814,-0.24069077,27.75,29.0,28.25,32.3125,34.4375,35.4375
0.32755384,-2.343198,-1.4583346,-1.208125,-0.053837094,0.07401101,-0.10297994,-0.4071764,-0.35334674,0.06004485,3.0681996,-0.62474537,-0.00012285913,-0.16103044,-0.022224445,0.001836351,-0.060494643,0.020209515,-0.019274957,0.4577531,-1.3804348,1.9045414,-2.0999072,-1.5625094,2.433981,-0.12729272,0.2677783,-0.32282865,0.010902466,0.045351952,-0.10762364,-0.28730422,0.21068975,-9.212888,0.8851263,47.67793,-1.0487874,-1.8724993,-3.3779986,-0.22981475,0.22457787,-0.3085671,27.75,29.0,28.25,32.3125,34.4375,35.4375
0.3300538,-1.1725602,-1.5177622,-1.268563,-0.066363096,0.08078844,-0.114042185,-0.40751603,-0.35339364,0.06005077,3.0680385,-0.62478775,-0.00015112548,-0.16208735,-0.022970695,0.0018550041,-0.05930971,0.02102802,-0.020183193,0.4574776,-1.3798808,1.9038709,-2.0998948,-1.5624021,2.4337535,-0.12587687,0.2707854,-0.32672286,0.011588707,0.043928646,-0.10530054,-0.11492168,0.2681506,-9.155427,0.91421866,47.670765,-1.2371206,-1.9042892,-3.3508651,-0.21818963,0.26117474,-0.37340677,27.75,29.0,28.25,32.3125,34.4375,35.4375
0.33255357,-1.1653124,-1.9539602,-1.3553972,-0.06064293,0.05181371,-0.10312715,-0.40787905,-0.3534339,0.060088683,3.0678568,-0.624866,-0.00032766568,-0.16194123,-0.021316174,-4.152957e-05,-0.056441024,0.018106278,-0.022975951,0.45720083,-1.3793757,1.903191,-2.0999067,-1.5623425,2.4335501,-0.12765731,0.27297747,-0.32518306,0.01175954,0.04267334,-0.10428742,-0.095768064,0.24899697,-9.155427,0.9097417,47.66091,-0.9924475,-2.0147967,-3.375097,-0.20104574,0.30069822,-0.4163841,27.75,29.0,28.25,32.3125,34.4375,35.4375
0.33505327,-0.8555375,-1.4151201,-1.1909839,-0.057625283,0.025637181,-0.10934593,-0.40853196,-0.35350078,0.06006488,3.067617,-0.625042,-0.00027133053,-0.16400643,-0.021824835,-0.00040843335,-0.058271836,0.018141076,-0.018463163,0.4566486,-1.3782334,1.9018754,-2.0998237,-1.5621618,2.43314,-0.1292916,0.27696285,-0.3291682,0.011009699,0.044364575,-0.11042059,0.0,0.36391866,-9.11712,0.8605109,47.685097,-1.0644825,-2.0102866,-3.4935527,-0.1939376,0.32185417,-0.44430757,27.75,29.0,28.25,32.3125,34.4375,35.4375
0.33755413,-0.5388714,-1.5200201,-0.93837345,-0.07766533,0.029563837,-0.12098245,-0.4088524,-0.35355547,0.060044862,3.0674622,-0.6250815,-0.000255268,-0.16544975,-0.022004738,-0.0003332856,-0.059070233,0.018328018,-0.0113837365,0.45639604,-1.3776555,1.9012426,-2.099847,-1.5620416,2.4329329,-0.13049941,0.2792052,-0.33222198,0.011395307,0.045069393,-0.11870005,0.038307227,0.40222588,-9.002198,0.89631605,47.661808,-1.0602938,-1.985054,-3.45056,-0.18031715,0.3327294,-0.39425892,27.75,29.0,28.25,32.3125,34.4375,35.4375
0.34005406,-0.14344805,-1.7325368,-0.9219881,-0.08345484,0.03367051,-0.12662224,-0.409189,-0.35357797,0.060043633,3.0673785,-0.6250803,-0.00030017082,-0.16687578,-0.02168908,0.00070691,-0.060914397,0.019620366,-0.0071592457,0.4561195,-1.3771036,1.9005836,-2.0998108,-1.5619935,2.432667,-0.1328058,0.27859336,-0.33412668,0.012010309,0.046218637,-0.12522167,0.17238252,0.4405331,-9.059659,0.93436235,47.6421,-1.0178332,-1.9466469,-3.4958868,-0.18358287,0.37348875,-0.32121724,27.75,29.0,28.25,32.3125,34.4375,35.4375
0.3425542,-0.38530686,-2.043097,-0.99398917,-0.09051947,0.021589078,-0.12075768,-0.4095147,-0.35363084,0.060026087,3.0672576,-0.6250303,-0.00028338033,-0.16739194,-0.021856846,0.0004879729,-0.062182993,0.018286698,0.0016322664,0.45586702,-1.3765146,1.8999261,-2.0998104,-1.5618848,2.4323995,-0.13393061,0.28009665,-0.3357479,0.012873488,0.04803271,-0.1351251,-0.019153614,0.45968673,-9.155427,0.93436235,47.66987,-0.8856004,-1.8843788,-3.4687924,-0.16964377,0.36158407,-0.23399094,27.75,29.0,28.25,32.3125,34.4375,35.4375
0.34505516,-0.4436815,-1.9450202,-0.885798,-0.095444664,0.016489984,-0.11838691,-0.4101739,-0.3537018,0.060008306,3.067076,-0.6249697,-0.00024065629,-0.16983262,-0.023413021,0.0019636282,-0.06503433,0.020831836,0.0063337684,0.45532718,-1.3753606,1.8985742,-2.0997026,-1.5617164,2.4318464,-0.13394877,0.2824441,-0.34233698,0.013661154,0.04953091,-0.13983041,0.21068975,0.4405331,-9.097966,0.9298854,47.70032,-0.9479505,-1.807369,-3.42454,-0.1548392,0.37566352,-0.10345447,27.75,29.0,28.25,32.3125,34.4375,35.4375
0.34755364,-0.43801206,-1.6757797,-0.88025737,-0.09300628,0.03961668,-0.120786935,-0.41052267,-0.3537789,0.060008608,3.0669115,-0.6248787,-0.0002356453,-0.1696691,-0.024600051,0.0009923333,-0.06540102,0.01859718,0.0053238813,0.4550754,-1.374747,1.8978437,-2.0996907,-1.561572,2.4315598,-0.1324388,0.28593498,-0.3445588,0.014242911,0.05084712,-0.13729689,-0.19153613,0.51714754,-9.059659,0.89631605,47.664497,-1.0493163,-1.8409033,-3.3950372,-0.1611841,0.38663283,-0.1263223,27.75,29.0,28.25,32.3125,34.4375,35.4375
0.35005367,-1.0360278,-1.3118461,-1.0781384,-0.073992044,0.04610475,-0.10938035,-0.41085035,-0.35381973,0.060005177,3.066763,-0.62487024,-0.00019550828,-0.17064032,-0.024810834,0.0008624679,-0.068028994,0.017442176,-0.0023211965,0.45478687,-1.3741937,1.8971871,-2.099655,-1.5614389,2.4312859,-0.13449594,0.28747606,-0.34620592,0.0142026255,0.053692956,-0.13168818,-0.11492168,0.40222588,-9.193734,0.9455522,47.670765,-0.9084175,-1.9902228,-3.466343,-0.15142302,0.3711614,-0.13691896,27.75,29.0,28.25,32.3125,34.4375,35.4375
0.35255474,-1.069631,-1.4974123,-1.1518748,-0.060030717,0.06732595,-0.113751665,-0.41117483,-0.35387033,0.06000553,3.0666466,-0.6248868,-0.0002023777,-0.17034273,-0.026004063,0.00044763682,-0.07047923,0.015231993,-0.008044992,0.4545474,-1.3736286,1.8965048,-2.0996068,-1.5613536,2.4310725,-0.1340024,0.2891748,-0.34751895,0.014681035,0.056836996,-0.12544785,0.0,0.3256114,-9.289502,0.97464454,47.689575,-1.2025607,-1.9082792,-3.500482,-0.15238342,0.3531304,-0.21013415,27.75,29.0,28.25,32.3125,34.4375,35.4375
0.35505396,-1.1870357,-1.4144598,-1.2163818,-0.04953862,0.06370298,-0.1120408,-0.41187453,-0.35397735,0.059971027,3.0663557,-0.6249059,-0.0001608642,-0.17200074,-0.024683982,-0.0014846753,-0.06888462,0.011910429,-0.016443558,0.45399404,-1.3723776,1.8950948,-2.0995939,-1.5611137,2.4305701,-0.13733879,0.2945828,-0.3500999,0.015551284,0.05686161,-0.120376386,-0.19153613,0.30645782,-9.212888,0.9410752,47.72002,-1.0077858,-2.12632,-3.6441746,-0.11433873,0.35023695,-0.28837526,27.75,29.0,28.25,32.3125,34.4375,35.4375
0.3575542,-0.804526,-1.0440127,-1.1870729,-0.059912227,0.064246856,-0.1238744,-0.41221127,-0.3540315,0.059968196,3.0662172,-0.6248965,-0.00013287675,-0.1729547,-0.024972744,-0.0019254759,-0.07043054,0.01017023,-0.018922752,0.45372948,-1.3717881,1.89439,-2.0995462,-1.5609931,2.4303184,-0.13881893,0.29730332,-0.3526444,0.016273636,0.05902118,-0.119359404,-0.019153614,0.3256114,-9.232041,0.9768804,47.696735,-0.91814125,-2.165112,-3.6202009,-0.11685052,0.3514405,-0.32609022,27.75,29.0,28.25,32.3125,34.4375,35.4375
0.36005405,-0.928369,-1.6257821,-1.2006235,-0.06632993,0.05275121,-0.1094411,-0.4125494,-0.3540824,0.05996006,3.0660899,-0.62490666,-0.00010464996,-0.17316526,-0.026059613,-0.001807353,-0.072544,0.009547798,-0.017640222,0.4534659,-1.371187,1.8936828,-2.0994985,-1.5608844,2.4300783,-0.13833266,0.29852262,-0.3545984,0.016670225,0.061213747,-0.12013838,-0.17238252,0.21068975,-9.289502,0.9321212,47.685097,-0.9760983,-2.1817317,-3.4583905,-0.12459831,0.32679182,-0.39786196,27.75,29.0,28.25,32.3125,34.4375,35.4375
0.362554,-0.7748196,-1.4235069,-1.300663,-0.06862268,0.0511977,-0.11353379,-0.41289294,-0.3541092,0.05992668,3.0659828,-0.62501967,-2.6689588e-05,-0.17601453,-0.026066162,-0.00090621243,-0.074997574,0.011315094,-0.018961351,0.45316458,-1.3705498,1.8929895,-2.0994508,-1.560788,2.429862,-0.14142679,0.30048922,-0.3591282,0.016612615,0.06266243,-0.121900514,-0.19153613,0.17238252,-9.346964,0.8784135,47.67793,-0.87185574,-2.2013915,-3.5272188,-0.10825451,0.30899087,-0.36231494,27.75,29.0,28.25,32.3125,34.4375,35.4375
0.36505377,-0.8615716,-1.1994394,-1.5408084,-0.06723727,0.05415397,-0.11009672,-0.41360438,-0.35424823,0.059916858,3.0656173,-0.62491286,2.494761e-06,-0.1771815,-0.02972829,0.0019648871,-0.08196138,0.014878727,-0.0038411412,0.45261383,-1.3693132,1.8915409,-2.0994503,-1.5604743,2.4292936,-0.13879149,0.29992968,-0.36542535,0.017402003,0.067501806,-0.13434134,-0.11492168,0.21068975,-9.32781,0.86945957,47.668976,-0.98759305,-2.009924,-3.4101834,-0.1094539,0.2532775,-0.29162312,27.75,29.0,28.25,32.3125,34.4375,35.4375
0.3675539,-1.7204571,-1.2476852,-1.6944404,-0.046121247,0.03669734,-0.10012951,-0.4139214,-0.354291,0.059919916,3.0654721,-0.6249356,0.00012410953,-0.17818792,-0.030430667,0.0016358314,-0.08399928,0.013605734,0.0024942402,0.45232537,-1.3687598,1.8908476,-2.0993302,-1.5603169,2.4290388,-0.13978252,0.30284467,-0.36837354,0.017797306,0.069959946,-0.1416503,-0.17238252,0.24899697,-9.519346,0.9388393,47.682407,-1.0995288,-1.9750106,-3.3709033,-0.093360476,0.18754658,-0.1909635,27.75,29.0,28.25,32.3125,34.4375,35.4375
0.3700539,-0.8208115,-1.0999589,-1.7984517,-0.06013102,0.071691945,-0.11452021,-0.41428304,-0.35435918,0.059932996,3.0653317,-0.62480646,6.688383e-05,-0.1755993,-0.029644754,-0.0014419698,-0.08281371,0.0063661905,0.008176859,0.4520735,-1.3681585,1.8900961,-2.0993059,-1.5602087,2.4287252,-0.140143,0.30483612,-0.36413607,0.01868704,0.0721456,-0.14767289,-0.2681506,0.22984336,-9.615114,0.90750587,47.690468,-1.0498301,-1.9815109,-3.7000413,-0.093195245,0.14182839,-0.09644012,27.75,29.0,28.25,32.3125,34.4375,35.4375
0.37255445,-1.235039,-1.3313684,-1.8228588,-0.07785802,0.08178201,-0.11009027,-0.4146299,-0.35440606,0.0599026,3.0651705,-0.6248692,0.00019967809,-0.17587094,-0.029603267,-0.0023746698,-0.08208362,0.0038385617,0.0064847446,0.45176142,-1.3675084,1.8893794,-2.0992577,-1.5600408,2.428474,-0.14054036,0.3078124,-0.366131,0.020330273,0.07259687,-0.14637338,-0.22984336,0.2681506,-9.730036,0.9701675,47.670765,-1.0510958,-2.2031999,-3.8313904,-0.09320006,0.12693937,-0.10259326,27.75,29.0,28.25,32.3125,34.4375,35.4375
0.37505352,-2.0048459,-2.2391882,-2.195971,-0.08421724,0.08083416,-0.09677698,-0.4153319,-0.35453287,0.059895378,3.0648427,-0.62482387,0.00029514855,-0.1781405,-0.030013375,-0.002427448,-0.0823843,0.0034266768,-0.0027322746,0.45120898,-1.3662696,1.8878964,-2.099161,-1.55974,2.4279373,-0.14164205,0.31238583,-0.37220487,0.02206351,0.07301434,-0.13824248,-0.36391866,0.38307226,-9.730036,0.9388393,47.664497,-1.1509217,-2.4369113,-3.8419385,-0.12458833,0.031906355,-0.09746648,27.75,29.0,28.25,32.3125,34.4375,35.4375
0.37755355,-1.3198749,-1.4639919,-1.854987,-0.10212414,0.10112724,-0.109121114,-0.41570315,-0.35458043,0.0599012,3.064685,-0.6248317,0.00028566588,-0.18023954,-0.029460115,-0.0022226835,-0.0794469,0.0062270868,-0.008780456,0.45090902,-1.3656569,1.8871411,-2.0991132,-1.5596212,2.4276636,-0.14175086,0.3148716,-0.3758043,0.021923557,0.06911758,-0.13232125,-0.3256114,0.4405331,-9.749189,0.9254084,47.682407,-1.1171967,-2.2729273,-3.7343392,-0.12453572,0.069584504,-0.17294146,27.75,29.0,28.25,32.3125,34.4375,35.4375
0.38005355,-1.534364,-1.953619,-2.1258483,-0.08550149,0.103374526,-0.11147325,-0.41605115,-0.35465002,0.0598979,3.0645115,-0.624856,0.00034528563,-0.1834645,-0.028539522,-0.0015369208,-0.07866879,0.00930685,-0.015984178,0.45064393,-1.3650312,1.8863882,-2.0990536,-1.5594662,2.427437,-0.1445454,0.31713286,-0.38016957,0.02159103,0.06704817,-0.12792003,-0.36391866,0.45968673,-9.825804,0.95226496,47.67614,-1.0414848,-2.271778,-3.4408321,-0.121465504,0.0750172,-0.27122697,27.75,29.0,28.25,32.3125,34.4375,35.4375
0.382554,-2.0921152,-1.7683387,-1.9185523,-0.0833226,0.095939256,-0.105827875,-0.4164386,-0.3547033,0.059914727,3.06432,-0.6248726,0.0003046826,-0.18308379,-0.029377071,-0.0014436232,-0.07782228,0.010226257,-0.016576039,0.45033318,-1.3644184,1.88561,-2.0990179,-1.5593346,2.4271626,-0.14190367,0.3175576,-0.3810708,0.021613335,0.06588625,-0.124686,-0.36391866,0.47884035,-9.787497,0.91421866,47.66987,-1.3064734,-2.2667773,-3.5290198,-0.10197756,0.065580815,-0.28788358,27.75,29.0,28.25,32.3125,34.4375,35.4375
0.3850541,-1.7571911,-1.4275458,-2.040638,-0.057872422,0.112152465,-0.108114816,-0.41717225,-0.35482666,0.05988939,3.0639982,-0.6249398,0.00038703,-0.18532278,-0.027433876,-0.00032620132,-0.072449856,0.015605237,-0.022087138,0.4497691,-1.3630972,1.8840688,-2.098934,-1.5590614,2.4266841,-0.14229204,0.31705126,-0.38353577,0.022114797,0.058702387,-0.11960606,-0.38307226,0.4213795,-9.768343,0.9388393,47.677036,-1.3143446,-1.9492164,-3.7616315,-0.10699892,0.14671387,-0.45511878,27.75,29.0,28.25,32.3125,34.4375,35.4375
0.38755414,-2.22748,-1.7495579,-2.0446112,-0.06535836,0.09707631,-0.10275977,-0.41756666,-0.35486707,0.05990846,3.0638287,-0.6250189,0.0002613613,-0.18630564,-0.026427539,-0.0013390926,-0.0701393,0.0150776915,-0.02266348,0.44946873,-1.362496,1.8833035,-2.098922,-1.5589899,2.4264565,-0.14350815,0.3197307,-0.38462222,0.022041418,0.056885347,-0.12025018,-0.19153613,0.30645782,-9.768343,1.0037369,47.63852,-1.2877321,-1.9934067,-3.8452861,-0.09520486,0.16016465,-0.4647348,27.75,29.0,28.25,32.3125,34.4375,35.4375
0.39005393,-1.6747962,-1.670483,-1.6077843,-0.069653526,0.09671181,-0.114321575,-0.4179379,-0.35492724,0.05990075,3.0636773,-0.62500167,0.00025521292,-0.18911612,-0.025610248,-0.0006518688,-0.069144756,0.018960437,-0.017894618,0.4491921,-1.3618468,1.8825387,-2.0988986,-1.5588707,2.4261897,-0.14549142,0.32124284,-0.3879239,0.020885076,0.05437636,-0.12701567,0.019153614,0.11492168,-9.5385,0.9701675,47.65643,-1.2710112,-2.1162865,-3.865812,-0.08081098,0.19426355,-0.44236702,27.75,29.0,28.25,32.3125,34.4375,35.4375
0.3925538,-0.9439768,-1.0712433,-1.49464,-0.05810134,0.069328755,-0.11454767,-0.4183443,-0.35496894,0.05992492,3.0635397,-0.62500465,0.00013080772,-0.19215927,-0.026282186,0.0005729613,-0.068996735,0.023621429,-0.008281169,0.44889203,-1.3612214,1.8817238,-2.0988505,-1.5588111,2.4259105,-0.14540389,0.3239731,-0.3940102,0.020251568,0.05232301,-0.13654853,-0.038307227,0.095768064,-9.442732,0.95897776,47.639416,-1.1874133,-2.1261785,-3.6905212,-0.039695036,0.2474906,-0.4089439,27.75,29.0,28.25,32.3125,34.4375,35.4375
0.39505383,0.3919458,0.085048705,-1.8045669,-0.010688704,0.01710259,-0.12775062,-0.41914743,-0.35509965,0.05996612,3.0631742,-0.62491804,-5.837202e-05,-0.19534825,-0.025321227,0.00028741028,-0.067975074,0.024324538,0.0036391167,0.44831517,-1.3599485,1.8800973,-2.0988142,-1.5585836,2.4253294,-0.14862955,0.32861683,-0.3995175,0.021173937,0.05130099,-0.15168683,0.019153614,0.21068975,-9.442732,1.0261165,47.70211,-1.1339388,-2.245829,-3.5351994,0.0064163418,0.31343323,-0.20929283,27.75,29.0,28.25,32.3125,34.4375,35.4375
0.3975539,-0.45360202,-0.5609951,-1.6948711,-0.034978166,0.01681218,-0.111042745,-0.41953003,-0.35513225,0.059965257,3.0630405,-0.6249268,-4.6946952e-05,-0.19606271,-0.02511839,0.00042203712,-0.06848475,0.023917396,0.0057817465,0.44799054,-1.3593127,1.87932,-2.0987418,-1.5584749,2.4250286,-0.14977737,0.32941023,-0.40121225,0.022292426,0.05199338,-0.1549688,-0.038307227,0.2681506,-9.461885,0.8940802,47.698532,-1.0519661,-2.1727006,-3.53691,-0.0047237775,0.33151385,-0.13972968,27.75,29.0,28.25,32.3125,34.4375,35.4375
0.40005338,-0.41264582,-1.7595388,-2.1244118,-0.06236643,0.041889478,-0.113228776,-0.4199217,-0.35518622,0.059981566,3.0629141,-0.6248036,-0.000108470165,-0.19576707,-0.025031423,0.0006048859,-0.068608046,0.023212288,0.0050641894,0.44770283,-1.3586773,1.878507,-2.0986817,-1.558379,2.4246812,-0.14975718,0.32886395,-0.40147424,0.023701925,0.052438244,-0.15422222,-0.095768064,0.3256114,-9.634268,0.98135734,47.67793,-1.0706707,-2.1377692,-3.6887617,-0.0016656294,0.38261873,-0.1192496,27.75,29.0,28.25,32.3125,34.4375,35.4375
0.40255344,-1.6695474,-3.132469,-1.8177559,-0.093663834,0.05398946,-0.10491399,-0.42031345,-0.35524222,0.059980698,3.0628073,-0.6247483,-0.00013273,-0.1959207,-0.024294194,0.00023886339,-0.068107344,0.020395983,-0.0048876656,0.44742608,-1.357994,1.8776716,-2.0986087,-1.5582951,2.4243846,-0.1513726,0.3299407,-0.4028188,0.026646193,0.053155527,-0.14587513,-0.24899697,0.36391866,-9.576807,0.8985519,47.670765,-1.0425087,-1.9813194,-3.6799097,-0.039299183,0.37428698,-0.16451824,27.75,29.0,28.25,32.3125,34.4375,35.4375
0.4050543,-1.3142672,-2.190094,-1.713823,-0.11116697,0.065437905,-0.12290123,-0.42110598,-0.35534245,0.060018864,3.0624459,-0.6248282,-0.00021035993,-0.19834866,-0.025499362,0.0024274795,-0.073305234,0.021879021,-0.015514782,0.4468017,-1.356735,1.8760432,-2.0984766,-1.5580534,2.4238596,-0.15334587,0.33041352,-0.4091658,0.028880065,0.057172824,-0.1371735,-0.076614454,0.28730422,-9.595961,0.9410752,47.704796,-1.0428869,-1.682276,-3.7182274,-0.04819351,0.41066837,-0.29481873,27.75,29.0,28.25,32.3125,34.4375,35.4375
0.40755346,-0.9999682,-1.5278004,-1.4449987,-0.080987304,0.0615973,-0.1187045,-0.4215041,-0.35538393,0.060005736,3.0623064,-0.624876,-0.00022657056,-0.20058566,-0.025864126,0.0021609135,-0.075505115,0.022432126,-0.018068945,0.44648892,-1.35605,1.8752412,-2.0984414,-1.557957,2.423596,-0.15541022,0.33396178,-0.4126807,0.027416008,0.058929246,-0.13666306,-0.22984336,0.2681506,-9.576807,0.9768804,47.67793,-0.97552156,-1.9385875,-3.6200995,-0.031058658,0.395235,-0.31631586,27.75,29.0,28.25,32.3125,34.4375,35.4375
0.41005352,-1.2385163,-0.6574865,-1.692564,-0.049262322,0.043681283,-0.12050976,-0.42189518,-0.35546765,0.060025997,3.0620804,-0.6247873,-0.00025459434,-0.20032129,-0.028392833,0.0018774043,-0.07852823,0.022075228,-0.015961224,0.446202,-1.3554139,1.8744258,-2.0984175,-1.5577759,2.4232843,-0.15248859,0.3364535,-0.41490963,0.026190601,0.061830502,-0.13581473,-0.38307226,0.40222588,-9.519346,0.9612189,47.675243,-1.1075954,-1.8648782,-3.62601,-0.017533567,0.3998118,-0.34124148,27.75,29.0,28.25,32.3125,34.4375,35.4375
0.41255358,-1.5510541,-0.7396466,-1.7837086,-0.02817621,0.047241203,-0.12404265,-0.42231998,-0.3555188,0.0600379,3.0618846,-0.62491786,-0.0003175578,-0.20074837,-0.027709227,0.00015948375,-0.07794857,0.018311312,-0.01745046,0.44587722,-1.3547293,1.8735641,-2.0983694,-1.5576671,2.423068,-0.15446036,0.34023452,-0.41601488,0.027197527,0.06297026,-0.1362794,-0.2681506,0.4213795,-9.5385,0.9947882,47.68599,-0.9026109,-2.0450654,-3.6618428,0.0123208575,0.38617253,-0.3493752,27.75,29.0,28.25,32.3125,34.4375,35.4375
0.41505423,-2.1128993,-2.2934022,-1.3686426,-0.0792447,0.08367512,-0.118411094,-0.4231141,-0.35563314,0.060060386,3.0615492,-0.624896,-0.00032654215,-0.20065004,-0.028950553,1.6641221e-05,-0.08067456,0.013864058,-0.0064312895,0.44526532,-1.3534095,1.8718885,-2.098212,-1.557402,2.4224885,-0.15463078,0.34302312,-0.4205039,0.031944487,0.067520216,-0.14741752,-0.34476504,0.36391866,-9.3661175,0.9186956,47.695843,-1.0283724,-1.9709568,-3.688179,-0.040336758,0.35593742,-0.2874091,27.75,29.0,28.25,32.3125,34.4375,35.4375
0.4175542,-2.2638578,-2.444132,-1.2497804,-0.08698983,0.076835066,-0.11782401,-0.4234866,-0.355709,0.06005244,3.0613952,-0.62472326,-0.00027575,-0.20132063,-0.029859833,0.0003419345,-0.08266082,0.013492204,0.0022864193,0.44498903,-1.3527378,1.8710865,-2.0981638,-1.5572327,2.422125,-0.15469787,0.34451115,-0.42347133,0.033059265,0.06958578,-0.15617923,-0.4405331,0.3256114,-9.346964,1.0126908,47.707485,-1.0133778,-1.8477077,-3.711104,-0.049797975,0.3338909,-0.19829711,27.75,29.0,28.25,32.3125,34.4375,35.4375
0.42005417,-1.7504301,-2.4304097,-1.0382321,-0.09130516,0.077401765,-0.12285984,-0.4239249,-0.35576278,0.06007206,3.0612276,-0.62472254,-0.0003662732,-0.20096335,-0.032672383,5.8347345e-05,-0.08765057,0.010353767,0.007765832,0.44466612,-1.3520408,1.8701881,-2.0981038,-1.557135,2.421825,-0.15304047,0.34769917,-0.42711112,0.034265075,0.0755126,-0.159937,-0.38307226,0.36391866,-9.2703495,0.98135734,47.711063,-1.3471346,-1.8805612,-3.6550727,-0.055465087,0.29873192,-0.090072036,27.75,29.0,28.25,32.3125,34.4375,35.4375
0.42255414,-1.5313144,-2.0684798,-1.2350599,-0.07402692,0.05253962,-0.1275661,-0.4243224,-0.35582444,0.060070127,3.0609946,-0.6247094,-0.00028921408,-0.20098697,-0.03323757,0.00059472525,-0.08867337,0.010443824,0.008849605,0.4443184,-1.3513699,1.8693732,-2.0980556,-1.556919,2.4215007,-0.15244265,0.34750465,-0.4285456,0.035437,0.07643355,-0.16040806,-0.1340753,0.34476504,-9.289502,0.9992599,47.71017,-1.3502984,-1.7452193,-3.6460862,-0.06331767,0.24576853,-0.03308859,27.75,29.0,28.25,32.3125,34.4375,35.4375
0.42505404,-0.94523156,-1.8129959,-0.7639788,-0.05986099,0.019247128,-0.115514025,-0.42515108,-0.35597092,0.060076088,3.0606537,-0.6245851,-0.00032186523,-0.2043433,-0.034822226,0.0021355601,-0.09362964,0.012071877,-0.004207558,0.4437296,-1.3499423,1.8676122,-2.0979474,-1.5566419,2.420881,-0.15429321,0.3508928,-0.43677238,0.036593914,0.08013678,-0.14914629,-0.2681506,0.4405331,-9.021352,0.94331104,47.65106,-1.3642015,-1.726859,-3.5387557,-0.06968885,0.18671066,-0.12426321,27.75,29.0,28.1875,32.3125,34.4375,35.4375
0.4275542,-0.6768925,-1.2746851,-0.77895665,-0.05174615,0.009983495,-0.12487837,-0.42558268,-0.356032,0.06009103,3.0604472,-0.6246378,-0.0003794309,-0.20491652,-0.034150373,0.0015538732,-0.09333832,0.010253649,-0.010146725,0.4434052,-1.3492461,1.8667268,-2.0978992,-1.5565094,2.420618,-0.15596081,0.35256338,-0.43798745,0.037888456,0.08064424,-0.14485833,-0.076614454,0.45968673,-8.963891,0.9768804,47.65106,-1.2156811,-1.7829895,-3.437356,-0.08604449,0.1658293,-0.18518195,27.75,29.0,28.1875,32.3125,34.4375,35.4375
0.43005398,-0.35205474,-1.0166645,-0.9632778,-0.040085737,-0.0006880845,-0.12396623,-0.425995,-0.35611776,0.060100127,3.06026,-0.6245638,-0.00035878693,-0.20571937,-0.03366345,0.0012593955,-0.092487946,0.008683808,-0.017809438,0.4431168,-1.348526,1.865817,-2.0978143,-1.5563415,2.420309,-0.1571242,0.3546239,-0.44055897,0.040136337,0.08050543,-0.13835086,0.0,0.40222588,-9.078813,0.96569055,47.642998,-1.1889973,-1.7253776,-3.5338845,-0.117235355,0.13921379,-0.27373672,27.75,29.0,28.1875,32.3125,34.4375,35.4375
0.43255413,-0.9126176,-1.7962911,-0.5360958,-0.058933906,0.017352913,-0.119326614,-0.42640764,-0.3561573,0.060091313,3.0600548,-0.6247137,-0.0002528826,-0.20721585,-0.03258044,-0.0004977812,-0.08923303,0.005915455,-0.022904886,0.44274423,-1.3478168,1.8649548,-2.097706,-1.5561622,2.4200583,-0.15883565,0.360312,-0.44414762,0.04194473,0.07873259,-0.13497902,-0.11492168,0.36391866,-8.963891,1.0641627,47.679718,-1.1615003,-1.8986044,-3.6246967,-0.11261653,0.1448167,-0.30670735,27.75,29.0,28.1875,32.3125,34.4375,35.4375
0.435054,-0.92507637,-1.2912602,-0.40057203,-0.041328643,0.035698656,-0.13357788,-0.42725065,-0.35629407,0.060084444,3.059651,-0.6248196,-0.0002641416,-0.20894906,-0.030060738,-0.0016058187,-0.08325282,0.0050431294,-0.028877836,0.44211948,-1.3463652,1.8631948,-2.0976212,-1.5558642,2.4195554,-0.16097254,0.3638705,-0.4471309,0.044767816,0.073714115,-0.13117562,0.019153614,0.38307226,-8.868123,0.9925471,47.685097,-0.9784665,-1.9122472,-3.5810428,-0.17818548,0.15139276,-0.4639707,27.75,29.0,28.1875,32.3125,34.4375,35.4375
0.43755403,-1.9256867,-1.4822568,0.029007325,-0.042786032,0.031091934,-0.12581848,-0.42764834,-0.35636744,0.060087454,3.059489,-0.6248399,-0.00018239945,-0.21156712,-0.029076912,-0.00012749569,-0.0833765,0.0083021885,-0.0261816,0.44183066,-1.3456452,1.8622831,-2.0974767,-1.5557078,2.4193015,-0.16376747,0.36373374,-0.45073465,0.045638632,0.072507076,-0.1366763,0.019153614,0.36391866,-8.7532015,0.9701675,47.67166,-1.0216124,-1.8806503,-3.530629,-0.20389952,0.18632668,-0.4704163,27.75,29.0,28.1875,32.3125,34.4375,35.4375
0.44005376,-1.694195,-0.67115515,-0.07562869,-0.04668492,0.036868718,-0.12895721,-0.42807803,-0.35644263,0.06008341,3.0592868,-0.6248286,-0.0001413336,-0.21313022,-0.02853761,0.0011144073,-0.08062096,0.012687862,-0.016478252,0.44150692,-1.3448906,1.8613619,-2.0974052,-1.55553,2.4189985,-0.1631308,0.3634102,-0.45354804,0.046190348,0.06826861,-0.14578107,-0.038307227,0.3256114,-8.63828,0.98807013,47.650166,-1.0149249,-1.7692485,-3.459324,-0.2309757,0.1969355,-0.3784728,27.75,29.0,28.1875,32.3125,34.4375,35.4375
0.4425539,-1.5684627,-0.6636727,-0.23827893,-0.017087309,0.04788954,-0.13544175,-0.42847076,-0.35647717,0.060054947,3.0592055,-0.6248434,-5.8916805e-05,-0.21585229,-0.028465968,0.0022276137,-0.07910399,0.016644377,-0.0067366636,0.44119483,-1.344158,1.8605098,-2.097285,-1.5554351,2.418707,-0.16343229,0.36556098,-0.45908892,0.04685133,0.06532702,-0.1558546,-0.11492168,0.2681506,-8.7532015,1.0395473,47.65912,-0.9208122,-1.7174082,-3.3877149,-0.2567096,0.2692407,-0.2984485,27.75,29.0,28.1875,32.3125,34.4375,35.4375
0.44505402,-2.281483,-0.93257487,-0.3921331,-0.023470767,0.0756928,-0.12518682,-0.4293486,-0.35657352,0.060042236,3.0588982,-0.6247745,2.2449367e-05,-0.21698521,-0.025871644,-0.0008776175,-0.07687426,0.012127958,-0.0027703298,0.4404853,-1.3426461,1.8586572,-2.0970814,-1.555147,2.4179966,-0.1682129,0.37064028,-0.45871726,0.04666411,0.06539398,-0.16459522,-0.45968673,0.2681506,-8.7532015,1.0104496,47.698532,-0.9677698,-1.8767828,-3.589743,-0.29134867,0.28020468,-0.13192385,27.75,29.0,28.1875,32.3125,34.4375,35.4375
0.4475539,-2.9878852,-0.9633371,-0.54436564,-0.03724024,0.08147284,-0.12681448,-0.42975476,-0.35665065,0.060040265,3.0587413,-0.62470305,7.452472e-05,-0.21638662,-0.026948519,-0.0022267387,-0.07608674,0.010494274,-0.0042233947,0.44019818,-1.341913,1.857747,-2.0969741,-1.5549906,2.4176865,-0.16569492,0.37382305,-0.45969635,0.046255715,0.06535166,-0.16061965,-0.61291564,0.22984336,-8.944737,0.9992599,47.64927,-0.9417237,-1.9650123,-3.7302256,-0.3044184,0.31759438,-0.11512142,27.75,29.0,28.1875,32.3125,34.4375,35.4375
0.4500537,-3.2629158,-1.5714341,-0.68913746,-0.06289218,0.09837173,-0.12356132,-0.4301882,-0.35669547,0.060006097,3.0586154,-0.624717,0.00016159254,-0.21678771,-0.027981272,-0.002510933,-0.0771636,0.010316859,-0.009435219,0.4398505,-1.3411093,1.8568252,-2.0968788,-1.5548586,2.4173648,-0.16463695,0.37596098,-0.46183234,0.045895755,0.066340044,-0.15433697,-0.63206923,0.24899697,-9.002198,1.0261165,47.64927,-1.0313191,-2.0408623,-3.7196083,-0.31960168,0.30184752,-0.18994512,27.75,29.0,28.1875,32.3125,34.4375,35.4375
0.45255345,-3.081945,-2.1305635,-0.9407872,-0.06664952,0.10194619,-0.11792388,-0.43062958,-0.35674417,0.06000869,3.0584426,-0.6247768,0.0001732015,-0.21824422,-0.029833442,-0.0017293943,-0.07919434,0.012919133,-0.01388654,0.43950325,-1.3403655,1.8558906,-2.0967715,-1.554726,2.417079,-0.16285339,0.3781701,-0.46627203,0.044847704,0.067011595,-0.14808765,-0.7469909,0.36391866,-9.059659,1.0417832,47.691364,-1.132439,-2.0739722,-3.7235885,-0.34130555,0.32614928,-0.28186247,27.75,29.0,28.1875,32.3125,34.4375,35.4375
0.45505354,-2.183732,-2.240092,-1.4760814,-0.09604519,0.09917086,-0.13331446,-0.43149376,-0.35686108,0.05995566,3.0582092,-0.6247444,0.00026678515,-0.22222541,-0.031831313,7.543836e-05,-0.08327178,0.020056939,-0.015735507,0.43887958,-1.338758,1.8540095,-2.0965812,-1.5544981,2.4164674,-0.1625812,0.3808883,-0.47327575,0.040977534,0.06765981,-0.14595315,-0.45968673,0.45968673,-9.461885,0.95226496,47.721813,-1.3072237,-2.0221903,-3.4837446,-0.33391947,0.3622679,-0.33917361,27.75,29.0,28.1875,32.3125,34.4375,35.4375
0.45755365,-2.0687027,-2.208612,-1.783332,-0.09542657,0.05968711,-0.1263034,-0.43194714,-0.3569223,0.059947085,3.0580058,-0.6247973,0.00027406955,-0.22205031,-0.031509645,-0.0011306083,-0.08321987,0.018684372,-0.01654165,0.43853128,-1.3379782,1.8530658,-2.0965216,-1.5543422,2.4161804,-0.16306327,0.38227743,-0.47225234,0.039868414,0.06822494,-0.14561732,-0.38307226,0.45968673,-9.519346,1.044019,47.685097,-1.2763672,-1.9694291,-3.6002836,-0.3196864,0.36357796,-0.38978204,27.75,29.0,28.1875,32.3125,34.4375,35.4375
0.46005353,-1.2792678,-2.262005,-2.0404344,-0.10167007,0.04922726,-0.13598406,-0.43240938,-0.35696656,0.059948742,3.0578768,-0.62478495,0.00025077822,-0.22257143,-0.032137644,-0.0023429268,-0.08431504,0.018684633,-0.012795422,0.43818355,-1.3371979,1.8520836,-2.0964034,-1.5542454,2.415843,-0.16280466,0.38516292,-0.47262678,0.036983863,0.06928129,-0.14908916,-0.5363012,0.4213795,-9.730036,1.0350704,47.679718,-1.2773874,-2.1305509,-3.8826685,-0.3031655,0.3614046,-0.3400445,27.75,29.0,28.1875,32.3125,34.4375,35.4375
0.46255356,-1.5508071,-2.7773473,-1.97948,-0.10680193,0.044554256,-0.13544533,-0.4328645,-0.35702798,0.059944946,3.0577173,-0.624823,0.00018663106,-0.2248873,-0.032560054,-0.0023255774,-0.086100936,0.02126505,-0.006744052,0.43787083,-1.3364178,1.851127,-2.0963442,-1.554149,2.4155765,-0.1640543,0.38793725,-0.4756929,0.034336608,0.0699147,-0.15637653,-0.114921674,0.3256114,-9.749189,0.9612189,47.684196,-1.2440087,-2.1937358,-3.825856,-0.2589671,0.3944901,-0.3036934,27.75,29.0,28.1875,32.3125,34.4375,35.4375
0.4650535,-0.58912367,-1.8593652,-2.0862858,-0.075103424,0.01755419,-0.12420694,-0.43377915,-0.357156,0.059919536,3.0573726,-0.62468135,0.00019742823,-0.22860748,-0.035243712,-0.0022985497,-0.09490771,0.021455705,0.00552744,0.4371863,-1.3348212,1.8492092,-2.096225,-1.5538462,2.4148512,-0.16683635,0.39465815,-0.48392993,0.032270204,0.07804553,-0.17132859,-0.05746084,0.47884035,-9.730036,0.947788,47.70032,-1.1478494,-2.4595633,-3.5952258,-0.19557932,0.35787326,-0.103326365,27.75,29.0,28.1875,32.3125,34.4375,35.4375
0.46755356,-1.3891662,-1.8554052,-2.485851,-0.062133737,-0.011078427,-0.12612239,-0.4342323,-0.3572216,0.05989027,3.0572379,-0.62455875,0.0002117494,-0.22994842,-0.035075195,-0.0022787605,-0.098654136,0.019765487,0.0018563763,0.43686137,-1.3339932,1.8482527,-2.0961769,-1.5537127,2.4144683,-0.17037249,0.39599496,-0.48601532,0.032994833,0.082183234,-0.17114186,0.038307227,0.57460845,-9.787497,1.0216395,47.711063,-1.1188805,-2.4468718,-3.7204556,-0.1694446,0.29073334,-0.046571482,27.75,29.0,28.1875,32.3125,34.4375,35.4375
0.4700543,-0.41310608,-1.6526941,-2.7313063,-0.07679733,0.00026247694,-0.13128932,-0.43468928,-0.35729778,0.0598722,3.0569887,-0.62469816,0.00032076827,-0.22746465,-0.03617248,-0.0043079318,-0.09927082,0.013407139,-0.0009996975,0.43650186,-1.3331646,1.8472594,-2.0960805,-1.5534958,2.4142303,-0.16826254,0.39832374,-0.48506024,0.035180278,0.0854075,-0.16613454,0.11492168,0.49799395,-9.940725,0.9992599,47.7245,-1.1295455,-2.5125606,-3.7879903,-0.17679018,0.25522006,-0.073834,27.75,29.0,28.1875,32.3125,34.4375,35.4375
0.4725543,-1.0838736,-2.8336082,-2.5222075,-0.10460353,0.0025545706,-0.12145488,-0.43518138,-0.35738567,0.059915245,3.0567586,-0.62455636,0.0001625612,-0.22880165,-0.036813125,-0.0020981939,-0.10506077,0.014791507,-0.011161774,0.43617728,-1.3324108,1.8462304,-2.0960324,-1.5533499,2.4138494,-0.17071378,0.39597335,-0.48758608,0.036254417,0.09002323,-0.15835103,0.019153614,0.59376204,-10.01734,0.9321212,47.703007,-0.9927577,-2.305128,-3.8846655,-0.16537148,0.19311947,-0.13602015,27.75,29.0,28.1875,32.3125,34.4375,35.4375
