Tylouw/Master_Thesis_Code/test_recorded_data/real_test10/sample_6_session_2.csv
timestamp[s],tcp_force_x[N],tcp_force_y[N],tcp_force_z[N],tcp_force_rx[Nm?],tcp_force_ry[Nm?],tcp_force_rz[Nm?],tcp_pose_x[m],tcp_pose_y[m],tcp_pose_z[m],tcp_pose_rx[rot_vec_x],tcp_pose_ry[rot_vec_y],tcp_pose_rz[rot_vec_z],tcp_velo_x[m/s],tcp_velo_y[m/s],tcp_velo_z[m/s],tcp_velo_rx[rot_vec_x/s],tcp_velo_ry[rot_vec_y/s],tcp_velo_rz[rot_vec_z/s],q1[rad],q2[rad],q3[rad],q4[rad],q5[rad],q6[rad],qd1[rad/s],qd2[rad/s],qd3[rad/s],qd4[rad/s],qd5[rad/s],qd6[rad/s],tool_acc_x,tool_acc_y,tool_acc_z,current_of_whole_robot[A],voltage_of_whole_robot[V],current_J1[A],current_J2[A],current_J3[A],current_J4[A],current_J5[A],current_J6[A],temp_J1[C],temp_J2[C],temp_J3[C],temp_J4[C],temp_J5[C],temp_J6[C]
6.3599964e-07,-0.55282503,0.15788253,1.2795434,-0.01028572,-0.010877472,0.0060755704,-0.38150364,-0.3495385,0.059922617,-3.0784543,0.62488264,-0.00031307442,-0.00034884317,-0.00022803317,0.00016235723,-0.00067552744,0.0010230081,0.00010459766,0.47917795,-1.4235265,1.954975,-2.1003911,-1.5707573,2.454145,0.0,-1.0800994e-05,-0.00010830651,-0.0011006095,0.00012497925,-0.00010456108,0.095768064,-0.019153614,-8.848969,0.7530795,47.707485,-0.36123735,-3.040382,-2.1687467,-0.46766296,0.11268431,-0.29085994,27.375,28.625,27.875,31.8125,33.875,34.75
0.00255232,-0.06681374,0.6931727,1.488352,-0.013519547,-0.005503286,0.0023021623,-0.38150007,-0.34955913,0.05992456,-3.078509,0.6247588,-0.00022612857,-0.0017303998,-0.0009507492,-0.0023672408,-0.0021476888,0.0038198172,0.000105183266,0.47922587,-1.4235367,1.9549993,-2.1004665,-1.5707697,2.4541087,0.0,0.004815134,0.0025921804,-0.01178761,0.00012284674,-0.00010362745,0.1340753,-0.095768064,-8.714894,0.7083204,47.723602,-0.34559852,-3.2024956,-2.0763545,-0.4108657,0.09300569,-0.2965282,27.375,28.625,27.875,31.8125,33.875,34.75
0.005052915,-0.3041922,0.49189717,1.5032092,0.005890245,-0.016755274,0.009914302,-0.38154086,-0.34955585,0.05993448,-3.0785208,0.62487674,-0.00012854193,-0.001213031,-0.0006790479,-0.0028675408,-0.0021348502,0.0038024264,0.000102413884,0.47919,-1.423525,1.9549769,-2.100526,-1.5707816,2.454145,0.0,0.0041924836,0.004802861,-0.013354275,0.000120785786,-0.000101744896,0.1340753,0.038307227,-8.523358,0.7553206,47.691364,-0.33016407,-3.4088821,-2.5921712,-0.32171735,0.116469204,-0.29428524,27.375,28.625,27.875,31.8125,33.875,34.75
0.007552677,0.26211587,1.1981126,1.5060295,0.026501987,-0.031991895,0.0025991963,-0.38154045,-0.34956452,0.059953097,-3.0785615,0.6248851,-0.00010884455,-0.0012173471,-0.0006798132,-0.00086699525,-0.0023797695,0.004290583,0.00010034465,0.47919,-1.4235618,1.954976,-2.1005242,-1.5707573,2.454145,0.0,0.001311222,0.0024573384,-0.008673572,0.00011879293,-9.986788e-05,0.21068975,0.019153614,-8.485051,0.7732232,47.678825,-0.38187253,-3.4084835,-2.5156622,-0.34193647,0.103881836,-0.30363333,27.375,28.625,27.875,31.8125,33.875,34.75
0.010052663,0.3469087,1.7220681,0.4367465,0.060693618,-0.051620025,0.003340576,-0.38152137,-0.3495748,0.059926912,-3.0785284,0.6248208,-0.00019637897,-0.0011826096,-0.0006603152,0.0007916288,-0.0016494772,0.0029086254,9.717166e-05,0.47922587,-1.4235026,1.9549621,-2.100498,-1.5707573,2.454145,0.0,2.360153e-07,-0.0013573557,-0.0019848587,0.00011499831,-9.630585e-05,0.095768064,0.038307227,-8.90643,0.80679786,47.661808,-0.5986112,-2.5265245,-3.0719938,-0.3890081,0.096573465,-0.3217534,27.375,28.625,27.875,31.8125,33.875,34.75
0.01255184,0.021420335,0.48802102,0.2275083,0.021781793,-0.024459945,0.0044034407,-0.3815239,-0.34954235,0.05989977,-3.0784693,0.6248467,-0.00029916444,-0.0029475298,-0.0015058032,-0.00072047196,-0.00022078506,0.0001406449,-2.798572e-05,0.47916597,-1.4234641,1.9549721,-2.1004622,-1.5707573,2.4541087,-0.00014119562,0.007994739,-0.007266207,-0.00095557707,0.000113190385,-0.000108324064,0.17238252,-0.019153614,-9.193734,0.6702794,47.70032,-0.65433013,-2.2620707,-3.02158,-0.39464435,0.07805376,-0.33578905,27.375,28.625,27.875,31.8125,33.875,34.75
0.015052181,-1.2702241,-0.6083925,0.13831167,-0.038828846,0.0014958986,0.005216728,-0.38148296,-0.34953162,0.059865803,-3.0783815,0.6248314,-0.00041069687,-0.0050079487,-0.0008256668,-0.0039388253,0.0032142268,-0.0064536682,-0.0031233344,0.47920066,-1.4234359,1.9550065,-2.1004136,-1.5707816,2.454145,-0.0032543405,0.01885966,-0.012797871,0.0011465375,9.843244e-05,-0.00012202008,-0.038307223,0.17238252,-9.308657,0.7217513,47.660015,-0.5632847,-3.0914817,-3.0104856,-0.38447422,0.06722189,-0.3345284,27.375,28.625,27.875,31.8125,33.875,34.75
0.017552534,-1.6534718,-1.701694,-0.0063221925,-0.079061136,0.04075888,0.0014086829,-0.38150746,-0.34954187,0.05987932,-3.0783865,0.6249281,-0.00039387462,-0.005615577,-0.0002991336,-0.002392253,0.0031208335,-0.0061702253,-0.0043439087,0.47918835,-1.4234127,1.9549459,-2.1003997,-1.5707697,2.4541924,-0.004720947,0.016916266,-0.014985897,0.0049835066,5.4557724e-05,-0.00036793022,-0.34476504,0.38307226,-9.500193,0.70608455,47.71465,-0.45531875,-2.8155646,-3.221652,-0.39672697,0.052645914,-0.36259472,27.375,28.625,27.875,31.8125,33.875,34.75
0.020052454,-2.2969084,-2.1163867,-0.51155937,-0.08544264,0.064871445,0.00094693777,-0.38152504,-0.34953785,0.059862304,-3.0783653,0.6248827,-0.00045180376,-0.0067852787,-0.0017008783,-0.0016470111,0.0025942551,-0.0050636535,0.0015698837,0.47916487,-1.4233401,1.9548963,-2.1003754,-1.5707697,2.4541433,-0.0032876253,0.019350315,-0.01971254,0.006050825,1.5105286e-06,-0.004845759,-0.47884035,0.8236054,-9.844957,0.7553206,47.707485,-0.68824285,-2.5268412,-3.236462,-0.38023782,0.020135779,-0.3128991,27.375,28.625,27.875,31.8125,33.875,34.75
0.02255167,-2.2802436,-1.7806143,-0.66155416,-0.08963059,0.063825846,-0.0069651627,-0.38151422,-0.34953892,0.059844095,-3.078325,0.62485504,-0.00053914334,-0.0070629804,-0.0017224166,-0.0020605857,0.0030875362,-0.0060139345,0.001967365,0.47917676,-1.4232914,1.9548715,-2.1003277,-1.5707697,2.454143,-0.0035072584,0.021001277,-0.020759815,0.006517722,9.862672e-08,-0.005462177,-0.49799395,0.9002198,-9.940725,0.73069996,47.695843,-0.74260306,-2.666622,-3.3136582,-0.38441408,0.011823051,-0.34022802,27.375,28.625,27.875,31.8125,33.875,34.75
0.025051843,-2.0801404,-2.3235807,-0.8381083,-0.081992224,0.061757103,-0.0031649608,-0.3815299,-0.34953806,0.05984421,-3.07831,0.6247939,-0.0005308961,-0.008199952,-0.0015600469,-0.002048047,0.0038730777,-0.0058403537,0.0021086866,0.47917646,-1.4232546,1.9548239,-2.100304,-1.570794,2.4541066,-0.0043431134,0.022903519,-0.023111815,0.007178145,-0.0007811942,-0.0064363973,-0.51714754,0.842759,-9.9790325,0.779936,47.707485,-0.7267206,-2.5944493,-3.2632527,-0.36733133,0.009667366,-0.33376974,27.375,28.625,27.875,31.8125,33.875,34.75
0.027552025,-1.928817,-1.9623379,-0.6312682,-0.093907066,0.052579246,-0.02085628,-0.38155356,-0.3495471,0.05983335,-3.0783274,0.624816,-0.0006076594,-0.010216851,-0.0008756022,-0.0016634502,0.005020043,-0.004251334,0.002592557,0.47913986,-1.423182,1.9547628,-2.100291,-1.5707468,2.4540815,-0.0062852474,0.024549492,-0.025942326,0.0074876966,-0.0025388577,-0.008857109,-0.51714754,0.7469909,-10.01734,0.7777002,47.71465,-0.70111734,-2.6340055,-3.3138187,-0.37391406,0.016403679,-0.30467302,27.375,28.625,27.875,31.8125,33.875,34.75
0.03005198,-0.97680914,-0.82790035,-0.5496479,-0.0667377,0.05621418,-0.046219904,-0.38160515,-0.34955597,0.059810165,-3.0782976,0.6248471,-0.00062443904,-0.013294281,-0.0014525015,-0.00019747659,0.0033667954,-0.0009960853,0.0054393895,0.47911516,-1.4230372,1.9546531,-2.1003034,-1.5707582,2.45408,-0.008082186,0.026565967,-0.031596694,0.007474028,-0.002587919,-0.013497578,-0.45968673,0.4213795,-9.864111,0.7777002,47.678825,-0.76523966,-2.445256,-3.1826181,-0.34441084,-0.0059997174,-0.234532,27.375,28.625,27.875,31.8125,33.875,34.75
0.0325519,-1.3749964,-0.15485463,-0.6271107,-0.028587524,0.037921343,-0.057902794,-0.38165918,-0.34957534,0.059832487,-3.0783348,0.62475866,-0.00052768167,-0.014511177,-0.002140089,-0.00021700395,0.003240377,-0.0008002588,0.0052479566,0.47911513,-1.4229763,1.9545325,-2.1003034,-1.5707825,2.4540203,-0.00800255,0.029534506,-0.0349884,0.0076647974,-0.0025719104,-0.013224571,-0.38307226,0.24899697,-9.768343,0.68818194,47.703903,-0.74772125,-2.5289295,-3.2233539,-0.3302103,-0.0155461,-0.22668271,27.375,28.625,27.875,31.8125,33.875,34.75
0.03505197,-1.2832626,0.06598808,-0.5018654,0.011061693,0.029851232,-0.062114473,-0.38170058,-0.34958324,0.05985814,-3.078368,0.62478673,-0.00045397182,-0.015826039,-0.0023105864,-0.00023052105,0.0033680114,-0.0007932175,0.0019209741,0.47909078,-1.4229633,1.9544591,-2.1003034,-1.5707825,2.4540093,-0.00884109,0.03206098,-0.03795688,0.008160201,-0.002691645,-0.010734258,-0.30645782,0.038307227,-9.710882,0.7418897,47.67166,-0.7495382,-2.6004868,-3.165646,-0.3187227,-0.04286215,-0.23545372,27.375,28.625,27.875,31.8125,33.875,34.75
0.037552,-1.2242206,0.49453178,-0.2601472,0.031406425,0.0190373,-0.06851953,-0.38173056,-0.3495766,0.059830155,-3.0783012,0.62487024,-0.00048970286,-0.01737429,-0.0023876764,0.0003180689,0.0031128763,0.00087752636,-0.0013187261,0.4790666,-1.4228547,1.954399,-2.1003034,-1.5708064,2.4540458,-0.0097820265,0.03323005,-0.040498137,0.00793426,-0.003240642,-0.008432756,-0.21068975,-0.019153614,-9.710882,0.7530795,47.687782,-0.7182609,-2.6180754,-3.1105223,-0.28203356,-0.035758212,-0.271419,27.375,28.625,27.875,31.8125,33.875,34.75
0.040052358,-0.84752285,0.3426804,-0.24934986,0.025895357,0.0051675574,-0.08387893,-0.38180313,-0.3495893,0.059837945,-3.0782833,0.6249065,-0.00047816316,-0.019633826,-0.0018952274,0.0005891758,0.00562166,0.0014822538,-0.0041347626,0.47903016,-1.4227214,1.9542178,-2.1002548,-1.5708193,2.4540343,-0.011119545,0.036737025,-0.04564403,0.010202094,-0.005750844,-0.006946453,-0.22984336,-0.15322891,-9.615114,0.8224646,47.67166,-0.7554189,-2.6221192,-3.114171,-0.28853595,-0.03687884,-0.28432146,27.375,28.625,27.875,31.8125,33.875,34.75
0.042552505,-1.0442361,0.174239,-0.17351641,0.017312458,-0.0020532068,-0.085432686,-0.38183975,-0.34957674,0.059827164,-3.0782554,0.62492055,-0.000495249,-0.021099862,-0.0023157685,0.0016774765,0.0045368783,0.004025815,-0.004544094,0.47898203,-1.4226493,1.9541572,-2.1002424,-1.5708317,2.4539986,-0.011589504,0.03686485,-0.04820638,0.009879758,-0.005966932,-0.0070051425,-0.095768064,-0.1340753,-9.5385,0.75755644,47.68599,-0.7180333,-2.5649092,-3.125249,-0.27880606,-0.04010783,-0.31171036,27.375,28.625,27.875,31.8125,33.875,34.75
0.045052703,-0.4907869,0.35235015,-0.13934089,0.0027106982,0.010959885,-0.101887226,-0.381892,-0.3495931,0.059852693,-3.0782602,0.62486345,-0.00038848317,-0.022278244,-0.0025361208,0.0024418284,0.0041668457,0.0055293287,-0.0041403114,0.4789938,-1.4225891,1.9540247,-2.1002185,-1.5708798,2.4539742,-0.012050418,0.037380837,-0.050637603,0.010290979,-0.0063359253,-0.007868178,-0.019153614,-0.038307227,-9.5385,0.8224646,47.703903,-0.7222962,-2.4007988,-3.0707078,-0.24919811,-0.05093866,-0.2967842,27.375,28.625,27.875,31.8125,33.875,34.75
0.047552697,-1.437334,-0.24346739,-0.18088761,0.0046103974,-0.007913965,-0.100190006,-0.3819254,-0.34963232,0.059857413,-3.0783277,0.6248381,-0.00042065405,-0.02234538,-0.0019004465,0.0012796465,0.005970906,0.0023877667,-0.0046437457,0.4789934,-1.422504,1.9539164,-2.100218,-1.5708197,2.4539495,-0.013141371,0.040147744,-0.05154854,0.012055385,-0.0064870766,-0.008454994,-0.15322891,0.095768064,-9.481039,0.7463667,47.645687,-0.80185354,-2.4465432,-3.197459,-0.26805007,-0.07156448,-0.2982177,27.375,28.625,27.875,31.8125,33.875,34.75
0.05005164,-0.8058419,-0.7000965,-0.07163176,-0.014191041,0.018954508,-0.116863005,-0.38202292,-0.34962678,0.059869666,-3.0782757,0.62492406,-0.0004261585,-0.025164234,-0.0023068308,0.0026521548,0.005737888,0.005012215,-0.005648672,0.47890896,-1.4223468,1.9536871,-2.1001217,-1.570844,2.4539254,-0.01436992,0.042486046,-0.057669573,0.013404428,-0.007500108,-0.008673278,-0.22984336,0.2681506,-9.595961,0.7150385,47.64658,-0.82411003,-2.3588245,-3.1439877,-0.25975382,-0.08260101,-0.30899876,27.375,28.625,27.875,31.8125,33.875,34.75
0.052552532,-1.3522627,-1.0738394,-0.13587391,-0.024719594,0.010078406,-0.11220132,-0.3820637,-0.3496144,0.059855185,-3.0782137,0.6249689,-0.0004368815,-0.024553157,-0.0013473568,0.0008261226,0.007966977,0.0014885933,-0.0055928887,0.47887275,-1.4222502,1.9536041,-2.1000974,-1.5708803,2.4539251,-0.01527506,0.044829294,-0.056273814,0.013820247,-0.007851707,-0.009633607,-0.24899697,0.36391866,-9.634268,0.7642693,47.74241,-0.80144864,-2.3040795,-3.35,-0.24892792,-0.11042057,-0.30484086,27.375,28.625,27.875,31.8125,33.875,34.75
0.055052668,-0.87646765,-1.3610663,0.034250334,-0.038272288,0.02471078,-0.12909968,-0.38209733,-0.34961382,0.059867375,-3.0781898,0.6250024,-0.0004384411,-0.025740197,-0.0012497286,0.0013488892,0.008527809,0.0024509188,-0.005787505,0.47884855,-1.4222018,1.9535073,-2.1000378,-1.5708927,2.453925,-0.01593281,0.045823418,-0.058825653,0.01478528,-0.0087965755,-0.010093467,-0.21068975,0.38307226,-9.500193,0.8560339,47.692257,-0.7618443,-2.263363,-3.3449793,-0.25422513,-0.091316804,-0.2886198,27.375,28.625,27.875,31.8125,33.875,34.75
0.05755165,-1.6599946,-1.8437235,-0.11237861,-0.04052921,0.013391244,-0.118637435,-0.38217598,-0.34962112,0.05990363,-3.0781956,0.6250611,-0.00031393048,-0.02766504,-0.0015270051,0.002222885,0.009503202,0.0048090643,-0.0055502723,0.47881246,-1.4221411,1.9533495,-2.100013,-1.5709294,2.453925,-0.015950605,0.047755245,-0.06321999,0.015610586,-0.010755776,-0.010342907,-0.1340753,0.45968673,-9.442732,0.7709874,47.72719,-0.7501329,-2.2586246,-3.3213205,-0.2553562,-0.07905121,-0.31463745,27.375,28.625,27.875,31.8125,33.875,34.75
0.060052738,-1.5935545,-1.5057173,0.10456538,-0.034919284,0.026451433,-0.13637134,-0.3822812,-0.34963742,0.059893366,-3.0781963,0.6250027,-0.00030312163,-0.029139098,-0.00075373804,0.002022914,0.012808319,0.0065282453,-0.0046307794,0.47875252,-1.421924,1.953122,-2.100001,-1.5709428,2.4538286,-0.016261585,0.049996953,-0.06529981,0.015457786,-0.0144868065,-0.011564541,-0.30645782,0.51714754,-9.461885,0.779936,47.70211,-0.7455459,-2.0739012,-3.450638,-0.2519784,-0.04920841,-0.29366666,27.375,28.625,27.875,31.8125,33.875,34.75
0.06255219,-1.7973479,-1.4665496,0.02089416,-0.03003555,0.028806683,-0.14186263,-0.38233203,-0.34965473,0.059896547,-3.078165,0.62505454,-0.00037392243,-0.03088014,-0.0012879503,0.0027539663,0.01164938,0.007848469,-0.0054083103,0.47872806,-1.4217913,1.9529413,-2.0999053,-1.5709304,2.4538405,-0.017190926,0.05170866,-0.0689973,0.015736135,-0.014074281,-0.011714458,-0.15322891,0.49799395,-9.442732,0.68146914,47.65912,-0.7115427,-2.1150475,-3.3905916,-0.22948432,-0.045184474,-0.30891466,27.375,28.625,27.875,31.8125,33.875,34.75
0.06505258,-1.4441688,-1.088559,0.06326682,-0.031415086,0.03037728,-0.13191617,-0.38240469,-0.3496683,0.059929058,-3.0781875,0.62501997,-0.00022508258,-0.031683154,-0.0017083,0.0024827588,0.011797156,0.0075780195,-0.0042583817,0.47871605,-1.4217304,1.9527973,-2.0999053,-1.5709785,2.4538043,-0.01718083,0.054221626,-0.07126809,0.01580096,-0.014085163,-0.012853931,-0.15322891,0.4405331,-9.3661175,0.8090337,47.70659,-0.7825736,-2.0608597,-3.3708215,-0.21498749,-0.052762106,-0.30257338,27.375,28.625,27.875,31.8125,33.875,34.75
0.06755187,-1.1202477,-0.9915629,0.29182184,-0.024752097,0.019088266,-0.12302628,-0.38247374,-0.34968904,0.059927873,-3.0781877,0.62503886,-0.00015981183,-0.032420527,-0.0023425512,0.0029126366,0.010504593,0.007947321,-0.003612054,0.47870395,-1.4215977,1.9526538,-2.099929,-1.5710019,2.453804,-0.017367573,0.055145558,-0.07337117,0.016052589,-0.013111861,-0.013688234,-0.21068975,0.4213795,-9.251195,0.73069996,47.711063,-0.7446132,-2.0528998,-3.4636936,-0.20160946,-0.069768846,-0.2873139,27.375,28.625,27.875,31.8125,33.875,34.75
0.070052534,-0.8202184,-0.32903573,0.2250898,-0.004900547,0.008307953,-0.11447232,-0.38263902,-0.3497166,0.05997063,-3.078222,0.6250833,-4.7376576e-05,-0.033957727,-0.002640687,0.0027926913,0.011609433,0.00768326,-0.0026432648,0.4786079,-1.4213803,1.9522938,-2.099869,-1.5710143,2.4537315,-0.017692452,0.058919124,-0.07772482,0.017377105,-0.013976414,-0.014978916,-0.17238252,0.2681506,-9.232041,0.7933669,47.694946,-0.74177915,-1.9326434,-3.493001,-0.17050408,-0.042780153,-0.2618068,27.375,28.625,27.875,31.8125,33.875,34.75
0.072552495,-0.7706176,-0.8320057,0.46661097,0.013096398,0.00894528,-0.112781316,-0.38271055,-0.34970662,0.05996436,-3.0781763,0.6250928,-4.010862e-05,-0.036102645,-0.0031839688,0.0038907672,0.011497669,0.009896195,-0.003091284,0.47854784,-1.4212476,1.9521478,-2.0998323,-1.571051,2.4536834,-0.01810724,0.06092387,-0.08276592,0.018399661,-0.014905004,-0.014941022,-0.11492168,0.24899697,-9.193734,0.7239871,47.675243,-0.69714224,-1.9579678,-3.3462315,-0.16942102,-0.09180666,-0.24791253,27.375,28.625,27.875,31.8125,33.875,34.75
0.075052485,-0.90415096,-0.024310138,0.51814723,0.008358635,0.0132053215,-0.112667836,-0.38277578,-0.34970945,0.05997132,-3.0781243,0.6251219,-9.131993e-06,-0.0356143,-0.0024107674,0.0023746814,0.0134052755,0.006623552,-0.004645731,0.4785234,-1.4211267,1.95198,-2.0997722,-1.5710987,2.4536839,-0.018903803,0.06310889,-0.08199751,0.019229636,-0.015087631,-0.01418281,-0.038307227,0.19153613,-9.097966,0.7486078,47.66808,-0.7899511,-1.9053249,-3.4820712,-0.14996025,-0.030597433,-0.2626008,27.375,28.625,27.875,31.8125,33.875,34.75
0.077553555,-0.38386574,0.118764736,0.33666342,0.004427158,0.023098322,-0.11875248,-0.38285428,-0.34972546,0.059971094,-3.0781422,0.6251631,-1.9483681e-05,-0.036689054,-0.0031590129,0.0028317582,0.012872425,0.007439616,-0.004723855,0.47846368,-1.4209819,1.9518121,-2.0997603,-1.5710748,2.4536476,-0.018626617,0.06487642,-0.08517249,0.019666608,-0.014995905,-0.013826089,-0.05746084,0.21068975,-9.174581,0.83365434,47.68599,-0.7155303,-1.9338267,-3.5268517,-0.14494517,-0.05353558,-0.2661289,27.375,28.625,27.875,31.8125,33.875,34.75
0.080052935,-0.9069141,-0.4292344,0.20787373,0.0015668429,-0.00611556,-0.108435765,-0.3829927,-0.34977117,0.0599849,-3.0781193,0.62513924,1.4071827e-05,-0.038839526,-0.0039430857,0.0029698713,0.0124509595,0.006836456,-0.0050005955,0.47843936,-1.4206918,1.9514269,-2.0996644,-1.5711101,2.4536116,-0.019636773,0.069558285,-0.09126055,0.02141065,-0.014353451,-0.014557309,-0.019153614,0.24899697,-9.212888,0.80679786,47.692257,-0.73294544,-1.9940448,-3.4016747,-0.10299312,-0.064060576,-0.24054873,27.375,28.625,27.875,31.8125,33.875,34.75
0.08255219,-0.8952225,-0.27227256,0.13653482,-0.004011588,-0.0050766417,-0.1132443,-0.38306805,-0.3497569,0.059996475,-3.0780718,0.6251289,0.00010012014,-0.039844517,-0.004674165,0.00427533,0.0115357265,0.008279285,-0.004920507,0.47839144,-1.420596,1.9512824,-2.0996277,-1.5711826,2.4535635,-0.019359825,0.0696616,-0.09474785,0.023090297,-0.01420855,-0.0143594835,-0.05746084,0.24899697,-9.174581,0.76874626,47.684196,-0.7383338,-1.8356273,-3.3831182,-0.100399286,-0.050252043,-0.24412625,27.375,28.625,27.875,31.8125,33.875,34.75
0.08505253,-1.1228471,-0.6162113,-0.0785979,0.0032450326,-0.00722779,-0.10642908,-0.38313875,-0.3497664,0.060003523,-3.0780146,0.62529063,5.43735e-05,-0.039997984,-0.0042376835,0.0030367651,0.013542499,0.0051886174,-0.0055202,0.47834322,-1.4204506,1.9510778,-2.099531,-1.5711831,2.4536235,-0.020037834,0.07304034,-0.09618928,0.024821084,-0.014567015,-0.014435688,-0.11492168,0.2681506,-9.3661175,0.7642693,47.66808,-0.7050536,-1.7310386,-3.438149,-0.090248615,-0.046756145,-0.23267457,27.375,28.625,27.875,31.8125,33.875,34.75
0.08755284,-1.5570163,-0.68459487,-0.2153137,-0.005558178,-0.003016895,-0.11148222,-0.38323426,-0.3497806,0.060015604,-3.078022,0.6252348,0.00010435029,-0.04018598,-0.0047593773,0.002713192,0.013549918,0.0031149152,-0.0056085596,0.47829518,-1.4202936,1.9508623,-2.0994947,-1.5712065,2.4535398,-0.019896358,0.07545679,-0.09865804,0.026713457,-0.013619764,-0.014206726,-0.11492168,0.30645782,-9.461885,0.78217715,47.661808,-0.77928525,-2.0091395,-3.4746542,-0.09105642,-0.07755827,-0.24522671,27.375,28.625,27.875,31.8125,33.875,34.75
0.09005191,-1.547031,-1.5482968,-0.46675566,-0.015443009,0.027210552,-0.102790035,-0.38339004,-0.34978762,0.060027517,-3.0779605,0.62531745,0.00010720675,-0.041965514,-0.004965317,0.0030924743,0.01401284,0.0029013343,-0.0053733513,0.4781869,-1.4200162,1.9504899,-2.0993736,-1.5712422,2.4534912,-0.02095542,0.078550294,-0.1035961,0.028959047,-0.013939241,-0.0154975755,-0.11492168,0.34476504,-9.5385,0.83589023,47.693153,-0.776624,-1.8405566,-3.4560385,-0.107225314,-0.06495692,-0.22054623,27.375,28.625,27.875,31.8125,33.875,34.75
0.09255239,-1.790286,-1.6197093,-0.41820422,-0.027236536,0.030079978,-0.109129496,-0.3834511,-0.34978357,0.059996963,-3.077851,0.62523806,1.8318915e-05,-0.043286223,-0.004628556,0.0031566245,0.014950878,0.0028681208,-0.006456675,0.47816247,-1.4197992,1.9502867,-2.0992658,-1.5713028,2.4534314,-0.02223351,0.080579504,-0.106352404,0.03014886,-0.014762083,-0.01568757,-0.15322891,0.38307226,-9.615114,0.7553206,47.666286,-0.67952746,-1.7905895,-3.4887524,-0.109301,-0.057227254,-0.23617035,27.375,28.625,27.875,31.8125,33.875,34.75
0.09505193,-1.7945899,-1.7118435,-0.35900125,-0.031180054,0.022653127,-0.10403935,-0.38356996,-0.34978265,0.06002428,-3.07783,0.62536806,8.717797e-05,-0.044255286,-0.0055117174,0.0033492516,0.014453132,0.0031731562,-0.005717312,0.4780666,-1.4196545,1.950045,-2.0992062,-1.5713266,2.4534194,-0.021746606,0.08295296,-0.109607615,0.030527754,-0.014466576,-0.01593928,-0.21068975,0.4213795,-9.768343,0.7530795,47.689575,-0.68085927,-1.7398714,-3.4396765,-0.10455085,-0.06813601,-0.20604318,27.375,28.625,27.875,31.8125,33.875,34.75
0.09755188,-1.3154225,-1.3279774,-0.42543393,-0.038153023,0.033655345,-0.11664783,-0.3836717,-0.34980482,0.060046706,-3.077815,0.62540257,0.00019025353,-0.04520871,-0.0062454743,0.0033157011,0.014077568,0.0031411187,-0.0049297432,0.47804272,-1.4194974,1.9498056,-2.09917,-1.5713743,2.4534192,-0.0215455,0.08555582,-0.112573646,0.030743802,-0.014123898,-0.016525267,-0.28730422,0.34476504,-9.615114,0.7978386,47.70032,-0.7644125,-1.5580288,-3.4219022,-0.0918027,-0.07604772,-0.1978763,27.375,28.625,27.875,31.8125,33.875,34.75
0.100051835,-1.4993142,-1.1770225,-0.42867842,-0.02773071,0.016181737,-0.11046339,-0.3838452,-0.34984788,0.06005602,-3.077787,0.6253958,0.00022383823,-0.047851242,-0.0070646056,0.0026185531,0.015225942,0.0021921783,-0.005403908,0.4779825,-1.4191463,1.9493603,-2.0990741,-1.571411,2.4533587,-0.022139493,0.09301274,-0.119817734,0.031902432,-0.014720331,-0.016639456,-0.22984336,0.38307226,-9.672575,0.80456203,47.693153,-0.8276877,-1.7357931,-3.2185996,-0.060582705,-0.0841331,-0.19489968,27.375,28.625,27.875,31.8125,33.875,34.75
0.102552176,-1.239295,-0.90535986,-0.3888945,-0.029888636,0.0155284405,-0.11622046,-0.3839397,-0.34985688,0.06005612,-3.077739,0.62540525,0.0002248567,-0.04798086,-0.0067453696,0.00041895965,0.017888261,-0.0023086045,-0.0051773065,0.4779343,-1.4189521,1.9491209,-2.0990012,-1.5714468,2.4533226,-0.022627633,0.098646775,-0.12157333,0.03324417,-0.015015965,-0.01735174,-0.21068975,0.4213795,-9.557653,0.7217513,47.703903,-0.81370175,-2.055686,-3.4396105,-0.07268615,-0.09018064,-0.19087535,27.375,28.625,27.875,31.8125,33.875,34.75
0.10505234,-1.6101396,-1.3387902,-0.27887726,-0.0317541,0.01492226,-0.10255289,-0.38403493,-0.3498927,0.060071502,-3.0777652,0.6253528,0.00025446387,-0.049597558,-0.0069963727,0.0021494473,0.017213672,0.0010550524,-0.005785085,0.47791013,-1.4187722,1.9488686,-2.098953,-1.5714473,2.4532626,-0.023049865,0.09777477,-0.12470183,0.0339509,-0.01596886,-0.017163482,-0.19153613,0.4405331,-9.576807,0.92093146,47.679718,-0.71839106,-1.7812815,-3.1776981,-0.05979218,-0.08277881,-0.18008232,27.375,28.625,27.875,31.8125,33.875,34.75
0.107553065,-1.1558201,-1.2802485,-0.08831254,-0.04470135,0.03040021,-0.11441627,-0.38413614,-0.34991914,0.060092673,-3.0777528,0.62531096,0.00030187314,-0.0500121,-0.007701445,-0.00016070365,0.018417437,-0.0022468367,-0.0048897224,0.47788632,-1.4185897,1.9485921,-2.0988696,-1.5714825,2.4532144,-0.022469891,0.104435176,-0.12684369,0.032915078,-0.015526356,-0.017477628,-0.24899697,0.5554548,-9.615114,0.842603,47.670765,-0.7649148,-2.090644,-3.3266506,-0.055927742,-0.08509746,-0.18115562,27.375,28.625,27.875,31.8125,33.875,34.75
0.11005188,-1.0763974,-1.3918184,0.26981083,-0.058267742,0.037344515,-0.12004992,-0.38436145,-0.3499508,0.06012557,-3.077697,0.6254349,0.00036171768,-0.052831,-0.007990717,0.001207988,0.017902307,-0.00066714257,-0.006851333,0.47776577,-1.4182047,1.9480399,-2.0987132,-1.5715307,2.4531786,-0.024353093,0.10692928,-0.13342054,0.035356574,-0.01580485,-0.017395768,-0.2681506,0.59376204,-9.461885,0.83813137,47.685097,-0.774064,-1.9073367,-3.3065581,-0.034238063,-0.098448895,-0.16837138,27.375,28.625,27.875,31.8125,33.875,34.75
0.11255185,-1.348411,-1.608711,0.24961893,-0.04260487,0.025712293,-0.1062521,-0.38446322,-0.3499656,0.06012379,-3.0776632,0.6254081,0.00040735022,-0.053022407,-0.007440594,0.00047144992,0.01933665,-0.0018541676,-0.007156197,0.47772956,-1.4179999,1.947801,-2.0986774,-1.5715793,2.4531302,-0.025022868,0.108483605,-0.13362376,0.03571996,-0.016532978,-0.017759023,-0.15322891,0.49799395,-9.442732,0.7396539,47.66808,-0.7656003,-1.9215102,-3.3278522,-0.0066040843,-0.07609977,-0.16875374,27.375,28.625,27.875,31.8125,33.875,34.75
0.115051866,-1.4668252,-1.6585774,0.46657848,-0.032337863,0.02021812,-0.11025994,-0.38456854,-0.34998903,0.060123034,-3.077636,0.6254214,0.00038920637,-0.054307,-0.008490871,0.0014970149,0.018297372,-0.00041920875,-0.0059075383,0.47768164,-1.4177712,1.947524,-2.098605,-1.5715913,2.4530942,-0.024506692,0.109843194,-0.13778684,0.036768697,-0.01627756,-0.018489597,-0.19153613,0.4213795,-9.3661175,0.8493211,47.707485,-0.768595,-1.7873483,-3.172483,-0.018591572,-0.11280417,-0.18196647,27.375,28.625,27.875,31.8125,33.875,34.75
0.11755197,-0.8649607,-0.6798605,0.7821304,-0.033405375,0.025342187,-0.1183639,-0.38469788,-0.35001892,0.06013035,-3.0776212,0.6254168,0.00047711152,-0.05411099,-0.008969892,0.0005573841,0.019079987,-0.0025989225,-0.004719481,0.4776461,-1.41753,1.947225,-2.098581,-1.571639,2.453058,-0.023671439,0.11271565,-0.13913767,0.037539683,-0.015971571,-0.018842615,-0.24899697,0.38307226,-9.193734,0.78217715,47.692257,-0.86925924,-1.8582636,-3.2622504,-0.0015002161,-0.12802722,-0.17139381,27.375,28.625,27.875,31.8125,33.875,34.75
0.120052546,-0.60853064,0.10277362,0.9750886,0.0072977315,0.007304295,-0.10648183,-0.38494593,-0.35006216,0.060166948,-3.0775878,0.62550676,0.0005663733,-0.056460306,-0.008829338,0.00016060619,0.019616025,-0.002459662,-0.0071416097,0.4775253,-1.417108,1.9466246,-2.0984375,-1.5716871,2.452998,-0.025701376,0.11710392,-0.14328513,0.037421167,-0.016521417,-0.018447308,-0.076614454,0.15322891,-9.002198,0.8717007,47.70211,-0.81070405,-1.8295524,-3.394948,0.05931153,-0.13491492,-0.16253129,27.375,28.625,27.875,31.8125,33.875,34.75
0.12255264,-0.47639623,0.34377107,1.2932159,0.017884353,-0.0035686265,-0.105033964,-0.38505924,-0.35008484,0.060150377,-3.0775487,0.62551844,0.00055692316,-0.056556813,-0.008223267,-0.00088366255,0.02248385,-0.005915403,-0.0074485,0.47747704,-1.4168428,1.9463495,-2.0984004,-1.5717119,2.4529622,-0.0262334,0.120400384,-0.14545597,0.04068469,-0.017478755,-0.018669246,-0.05746084,0.11492168,-8.848969,0.78888994,47.695843,-0.76780427,-1.7380371,-3.363054,0.056490883,-0.1466061,-0.18211874,27.375,28.625,27.875,31.8125,33.875,34.75
0.12505259,-0.54153246,0.28072825,1.3097193,0.03694904,-0.014115958,-0.10401743,-0.3851447,-0.3500938,0.060136225,-3.0774622,0.6254805,0.0005263184,-0.0570006,-0.00822977,0.00013692986,0.022557585,-0.005674182,-0.007046488,0.477453,-1.4166145,1.9460977,-2.0983036,-1.571772,2.4529257,-0.026508365,0.1197702,-0.14769785,0.043374732,-0.017655807,-0.019344145,-0.076614454,0.15322891,-8.734048,0.80456203,47.693153,-0.7849099,-1.86215,-3.4201217,0.049831152,-0.14476065,-0.16355652,27.375,28.625,27.875,31.8125,33.875,34.75
0.1275527,-0.33557132,1.0543126,1.292265,0.03356546,-0.011604899,-0.10888763,-0.3853069,-0.35012868,0.06017989,-3.0774987,0.62550694,0.0006641614,-0.057685383,-0.008283267,-0.0010170215,0.024229974,-0.008948472,-0.0075177443,0.47738084,-1.4163967,1.9457368,-2.0982544,-1.5717958,2.4528656,-0.02704126,0.12460016,-0.15115961,0.045681313,-0.017638303,-0.019405497,-0.038307227,0.11492168,-8.676587,0.7396539,47.679718,-0.7528591,-1.8035707,-3.3175063,0.047246825,-0.14562012,-0.15299498,27.375,28.625,27.875,31.8125,33.875,34.75
0.13005237,-0.9805738,0.4743718,1.0681338,0.0403958,-0.018775351,-0.106988385,-0.38551593,-0.35017,0.060164142,-3.077377,0.62554014,0.0005320508,-0.058702048,-0.008353434,-0.0005378688,0.02589932,-0.012124613,-0.008350437,0.4772846,-1.415879,1.9451259,-2.098025,-1.5718316,2.452806,-0.027814696,0.1278705,-0.15760587,0.052443095,-0.017664842,-0.01934148,0.0,0.095768064,-8.829816,0.85155696,47.685097,-0.81396365,-1.7978829,-3.2820668,-0.017100928,-0.1729748,-0.15882966,27.375,28.625,27.875,31.8125,33.875,34.75
0.13255237,-0.521881,0.6943605,1.2193202,0.013801561,-0.0009571308,-0.11251768,-0.3856363,-0.35017648,0.060172047,-3.0772789,0.625635,0.00053204666,-0.05862212,-0.0075915176,-0.000631193,0.028413204,-0.013946938,-0.008714067,0.47722453,-1.4156388,1.9448017,-2.0978925,-1.5718921,2.452818,-0.028174877,0.12857136,-0.15901497,0.05592761,-0.019058146,-0.019334186,-0.11492168,0.095768064,-8.848969,0.779936,47.694946,-0.8264694,-1.7688849,-3.4528491,-0.055056065,-0.17210561,-0.17201942,27.375,28.625,27.875,31.8125,33.875,34.75
0.13505241,-0.65969545,-0.024433024,0.88882095,0.02301064,-0.0010340225,-0.10915767,-0.38573602,-0.3501922,0.060157016,-3.0772176,0.6255642,0.00044717957,-0.058629382,-0.0069672554,-0.0016873219,0.03145044,-0.017925074,-0.009233257,0.4771763,-1.4153732,1.9445032,-2.097771,-1.5719165,2.4527335,-0.028713208,0.13200459,-0.16147965,0.059889533,-0.0199282,-0.019348796,-0.05746084,0.17238252,-8.944737,0.8672237,47.70838,-0.795377,-1.7900794,-3.39809,-0.10679005,-0.17832033,-0.17341737,27.375,28.625,27.875,31.8125,33.875,34.75
0.13755184,-0.7776782,-0.3132396,0.48030055,0.016458942,0.0035483218,-0.11548567,-0.38584095,-0.35019726,0.060136363,-3.0771258,0.6255834,0.00033789573,-0.059192758,-0.0071862047,-0.0009696123,0.03147697,-0.01856591,-0.009480989,0.47710422,-1.4150966,1.9442023,-2.0976384,-1.5719403,2.4526854,-0.029003302,0.13264465,-0.16457531,0.062923685,-0.019661494,-0.019388612,-0.15322891,0.21068975,-9.078813,0.78217715,47.66808,-0.7797986,-1.801059,-3.2918763,-0.1624879,-0.16725035,-0.17801405,27.375,28.625,27.875,31.8125,33.875,34.75
0.14005174,-1.2862468,-1.4352129,0.110235475,-0.009156796,0.010592702,-0.1008292,-0.38605523,-0.35020992,0.060117804,-3.076916,0.6256751,0.00018045524,-0.060336567,-0.007311466,-0.0016292925,0.033171568,-0.022313122,-0.010171253,0.47698396,-1.4145665,1.9435667,-2.097337,-1.5720242,2.4526496,-0.029942159,0.13792458,-0.17021616,0.06738652,-0.019456245,-0.019631216,-0.30645782,0.4405331,-9.32781,0.8717007,47.683304,-0.823171,-1.6680441,-3.4493706,-0.27315658,-0.21305765,-0.1766135,27.375,28.625,27.875,31.8125,33.875,34.75
0.1425519,-1.4523529,-1.640352,-0.22762214,-0.03135758,0.028351102,-0.10740942,-0.38618538,-0.35021913,0.060118295,-3.0768275,0.6256564,0.00012369486,-0.060459316,-0.0070843245,-0.0022449438,0.034284085,-0.024045149,-0.010289873,0.4769118,-1.4142777,1.9431952,-2.0971696,-1.5720724,2.4525774,-0.030314011,0.13979413,-0.17127636,0.06862467,-0.019653467,-0.019881777,-0.3256114,0.47884035,-9.404425,0.80456203,47.666286,-0.7663963,-1.7478602,-3.4607875,-0.31432152,-0.20985913,-0.19902825,27.375,28.625,27.875,31.8125,33.875,34.75
0.14505252,-2.0375617,-2.0147016,-0.2704416,-0.053106096,0.035494287,-0.09979062,-0.38630408,-0.35022283,0.06010357,-3.0766854,0.62568504,7.354297e-05,-0.061711363,-0.0074726418,-0.0024822163,0.034896668,-0.023444088,-0.010390752,0.4768638,-1.4139762,1.9428467,-2.0970137,-1.5721568,2.4525657,-0.030232184,0.14277892,-0.17411393,0.068225324,-0.020484393,-0.019692896,-0.3256114,0.5554548,-9.595961,0.8560339,47.6636,-0.79143816,-1.7264311,-3.387085,-0.36261746,-0.20946738,-0.20716196,27.375,28.625,27.875,31.8125,33.875,34.75
0.1475517,-1.8923048,-2.0907302,-0.2267338,-0.08038255,0.06401906,-0.10884138,-0.38643005,-0.3502479,0.060114518,-3.07662,0.6256718,3.2706874e-05,-0.06344907,-0.007635003,-0.002412438,0.035451733,-0.021068282,-0.010973492,0.47681576,-1.4136989,1.9424647,-2.0968468,-1.572193,2.452518,-0.030498628,0.14505488,-0.17653988,0.0665239,-0.02207973,-0.019369243,-0.28730422,0.63206923,-9.672575,0.82694155,47.677036,-0.77579886,-1.7707901,-3.36868,-0.38593978,-0.21699959,-0.2075252,27.375,28.625,27.875,31.8125,33.875,34.75
0.15005265,-2.1203182,-2.2827559,-0.50335455,-0.07272472,0.05996145,-0.106881045,-0.38668758,-0.3502739,0.06009136,-3.076457,0.6257137,-8.617341e-05,-0.06721026,-0.010024735,-0.0014233468,0.030226545,-0.014529687,-0.010675073,0.47667167,-1.4130973,1.9417685,-2.0965984,-1.5722646,2.4524214,-0.030737089,0.14861006,-0.18140844,0.059618838,-0.020472353,-0.019903392,-0.38307226,0.63206923,-9.902418,0.8560339,47.677036,-0.79691064,-1.814024,-3.4106874,-0.3675287,-0.23077264,-0.24538922,27.375,28.625,27.875,31.8125,33.875,34.75
0.15255195,-1.1780015,-1.712441,-0.3940247,-0.07154465,0.0643794,-0.11522755,-0.3868416,-0.35030234,0.06011581,-3.0764236,0.6257636,-1.1633943e-05,-0.068087906,-0.010223883,-0.002073195,0.030419609,-0.013488776,-0.010379448,0.4766117,-1.4128324,1.9413861,-2.0965035,-1.5723127,2.452397,-0.030750973,0.15083726,-0.18195468,0.05710127,-0.021130038,-0.020210516,-0.28730422,0.57460845,-9.864111,0.8112748,47.682407,-0.84941006,-1.6499279,-3.5244727,-0.3499249,-0.23644096,-0.2416476,27.375,28.625,27.875,31.8125,33.875,34.75
0.15505195,-1.8774564,-1.7749422,-0.308559,-0.051086918,0.03202522,-0.10238657,-0.38697907,-0.350317,0.06007135,-3.0763512,0.6257669,-8.87721e-05,-0.07094943,-0.011465119,-0.00072528096,0.027790539,-0.00768025,-0.009778924,0.47652763,-1.4124715,1.9410614,-2.0964572,-1.5723375,2.4523246,-0.030939227,0.15213174,-0.18568341,0.05316584,-0.02148039,-0.020993968,-0.2681506,0.47884035,-9.730036,0.8314132,47.677036,-0.8779285,-1.8575602,-3.6171808,-0.3180254,-0.26047784,-0.23762931,27.375,28.625,27.875,31.8125,33.875,34.75
0.15755215,-1.3841541,-1.5088441,-0.43336016,-0.03568661,0.028545897,-0.1092033,-0.38714364,-0.35035363,0.06010944,-3.0763347,0.6257637,2.4665145e-05,-0.072423965,-0.01223768,-0.00251379,0.02689763,-0.006857072,-0.009645776,0.4764795,-1.4122053,1.9406437,-2.0963514,-1.5723966,2.452277,-0.031171478,0.15729518,-0.18629776,0.04747135,-0.021079497,-0.02135949,-0.17238252,0.36391866,-9.749189,0.8224646,47.685097,-0.90185267,-1.9312136,-3.6432323,-0.24943696,-0.28388405,-0.2635303,27.375,28.625,27.875,31.8125,33.875,34.75
0.160052,-1.5417246,-0.97051656,-0.24920566,-0.01111944,0.0032997024,-0.100308806,-0.38742954,-0.3503896,0.06007036,-3.0761633,0.62586194,-5.6933095e-05,-0.07440357,-0.012768705,-0.0036856267,0.027905235,-0.00690237,-0.009904731,0.4763356,-1.4115305,1.9399117,-2.0961607,-1.572481,2.4522169,-0.031439714,0.16333172,-0.19034275,0.04598056,-0.021971935,-0.021360341,-0.095768064,0.22984336,-9.691729,0.8918391,47.70211,-0.9211684,-2.0036979,-3.6848185,-0.17292501,-0.28911197,-0.25262308,27.375,28.625,27.875,31.8125,33.875,34.75
0.16255267,-0.66181177,-0.5022687,-0.15643321,-0.0090543665,0.009985831,-0.10531771,-0.38760346,-0.3504574,0.060111526,-3.076229,0.62581664,0.0001100053,-0.07550208,-0.012957458,-0.0035754077,0.028214645,-0.0064957486,-0.009202555,0.4763115,-1.4112537,1.9394931,-2.0961363,-1.5725054,2.4521563,-0.0317976,0.16526051,-0.19296975,0.04645796,-0.02243738,-0.022420255,-0.05746084,0.24899697,-9.653421,0.89631605,47.737934,-0.98885876,-2.104644,-3.6482997,-0.14567488,-0.31205472,-0.27389717,27.375,28.625,27.875,31.8125,33.875,34.75
0.16505249,-0.733657,-0.5681765,-0.18494222,-0.0015206602,0.0016506304,-0.10769136,-0.3877608,-0.35048488,0.060103353,-3.0761578,0.62587786,8.6672466e-05,-0.078269385,-0.013871852,-0.001988079,0.026501108,-0.0017208784,-0.00873446,0.47623932,-1.4109046,1.9390849,-2.0960295,-1.5725416,2.4521317,-0.032256745,0.16644126,-0.19766562,0.044942297,-0.023120975,-0.023341864,0.019153614,0.1340753,-9.500193,0.85155696,47.681515,-0.98154604,-2.0457103,-3.5875034,-0.107669026,-0.3086546,-0.289238,27.375,28.625,27.875,31.8125,33.875,34.75
0.16755252,-0.42017496,-0.6731992,-0.044687144,0.002989009,0.00090199406,-0.10113296,-0.38793242,-0.35049817,0.06010853,-3.0760665,0.6259167,0.00016401289,-0.080321796,-0.015178604,-0.0010134107,0.024891848,0.0005623769,-0.008178963,0.47616723,-1.4105793,1.9386758,-2.0959327,-1.572637,2.452096,-0.032051615,0.16891903,-0.20276679,0.044792887,-0.02275052,-0.02369031,-0.019153614,0.15322891,-9.423578,0.86945957,47.696735,-0.97474146,-2.2195482,-3.4760895,-0.05852481,-0.3195369,-0.27434546,27.375,28.625,27.875,31.8125,33.875,34.75
0.17005253,-0.773622,-0.53420293,0.22439612,-0.014995078,-0.009833018,-0.10236993,-0.38824373,-0.3505807,0.060110953,-3.0760062,0.6259033,0.00016156037,-0.08113491,-0.015416237,-0.0008831928,0.026859475,-0.0021769803,-0.0074202865,0.47605932,-1.4099058,1.9378489,-2.0957396,-1.5726856,2.451988,-0.032023977,0.17247629,-0.20853193,0.050334044,-0.0232469,-0.024416834,0.0,0.36391866,-9.3661175,0.91198283,47.685097,-1.0622838,-1.9836594,-3.4595232,-0.050421827,-0.35326076,-0.31156668,27.375,28.625,27.875,31.8125,33.875,34.75
0.17255172,-0.8931325,-1.3759927,0.14590038,-0.021922296,0.0035655897,-0.11080239,-0.38841704,-0.3505851,0.060091153,-3.0758893,0.6259548,0.00016851688,-0.08147476,-0.015607086,-0.0009655604,0.028200513,-0.0029457982,-0.0061300234,0.47596344,-1.4095328,1.9374417,-2.0956433,-1.5727705,2.4519396,-0.03143475,0.17433585,-0.21097499,0.052212715,-0.02409157,-0.025112847,-0.19153613,0.4213795,-9.404425,0.7396539,47.682407,-1.107543,-1.9732552,-3.4794497,-0.045286126,-0.36572093,-0.30360913,27.375,28.625,27.875,31.8125,33.875,34.75
0.17505166,-1.1947211,-1.4248056,0.067356676,-0.046164457,0.012491702,-0.10497644,-0.38855603,-0.35061628,0.060088262,-3.075851,0.62598383,0.00010489279,-0.0814784,-0.015652668,-0.0008739313,0.029208895,-0.0040869256,-0.004752971,0.47589153,-1.4092202,1.9370598,-2.0955226,-1.5727705,2.451891,-0.031098904,0.17521079,-0.212792,0.05462855,-0.024467595,-0.02615117,-0.1340753,0.4405331,-9.385271,0.8179876,47.66808,-1.1728806,-2.0081766,-3.4251256,-0.0456975,-0.36037856,-0.27905297,27.375,28.625,27.875,31.8125,33.875,34.75
0.17755254,-1.3534877,-1.3624855,0.4168105,-0.05596426,0.028537894,-0.11519698,-0.38874805,-0.35064164,0.060108125,-3.0757914,0.62599117,0.0001707491,-0.08239941,-0.014923238,-0.0008326178,0.030106159,-0.005232139,-0.006406561,0.47580695,-1.4088714,1.9365815,-2.09539,-1.572842,2.451819,-0.033016015,0.17647095,-0.21491562,0.05691756,-0.02474189,-0.026413068,-0.24899697,0.47884035,-9.404425,0.83589023,47.689575,-1.1343967,-1.8297496,-3.469495,-0.016982235,-0.36091828,-0.30846646,27.375,28.625,27.875,31.8125,33.875,34.75
0.18005247,-1.3318443,-1.3277602,0.26202506,-0.03248051,0.036192305,-0.107518494,-0.38906682,-0.35070172,0.060075298,-3.0756176,0.6259924,0.00013572635,-0.08364823,-0.015344765,-0.0018402016,0.031571653,-0.007972569,-0.0060025295,0.47569904,-1.4081126,1.9357303,-2.0951736,-1.5729622,2.4517348,-0.033341058,0.18225351,-0.21996044,0.059279896,-0.02480172,-0.027136263,-0.21068975,0.36391866,-9.270349,0.86945957,47.70211,-1.2017647,-1.9034834,-3.443635,-0.013117613,-0.39902675,-0.3066345,27.375,28.625,27.875,31.8125,33.875,34.75
0.18255262,-1.4371647,-0.58899045,0.5668635,-0.02121932,0.01969022,-0.10229924,-0.3892479,-0.35077292,0.060106598,-3.0756595,0.62594247,0.0001642638,-0.08476964,-0.01650838,-9.19749e-05,0.03012393,-0.004555343,-0.00492701,0.4756514,-1.4077646,1.9352292,-2.0950544,-1.5729502,2.4516509,-0.032119088,0.18155605,-0.22327347,0.059590124,-0.025085846,-0.026988477,-0.21068975,0.34476504,-9.193734,0.8023209,47.696735,-1.287746,-1.841746,-3.4108622,0.014798826,-0.40979365,-0.31869656,27.375,28.625,27.875,31.8125,33.875,34.75
0.18505214,-1.0930294,0.13642925,0.5339345,-0.007574847,0.009934379,-0.10337425,-0.38942844,-0.35078806,0.06010751,-3.0755599,0.62588334,0.00024954823,-0.0856321,-0.015406598,1.9071404e-05,0.03209505,-0.0066761747,-0.006927742,0.4755907,-1.407404,1.9347852,-2.0949447,-1.5730704,2.4515665,-0.03431315,0.18295047,-0.2261674,0.06387527,-0.02586566,-0.027177887,-0.17238252,0.28730422,-9.270349,0.8560339,47.678825,-1.3686377,-1.7567847,-3.4724054,-0.018432528,-0.43694395,-0.34915584,27.375,28.625,27.875,31.8125,33.875,34.75
0.18755214,-0.5527417,0.37755695,0.5347326,0.0072991946,0.004490374,-0.108522534,-0.3896111,-0.35084796,0.060115293,-3.0755465,0.6260162,0.00027502037,-0.08691786,-0.014700418,-6.798466e-05,0.03333727,-0.0065890164,-0.009084361,0.4755299,-1.4070307,1.9343194,-2.0948732,-1.5730709,2.4515905,-0.035961017,0.18463218,-0.22815928,0.064680554,-0.02701224,-0.02666507,-0.11492168,0.22984336,-9.136273,0.8560339,47.666286,-1.2123309,-1.755538,-3.503508,-0.023155328,-0.4515201,-0.33326378,27.375,28.625,27.875,31.8125,33.8125,34.75
0.19005212,-0.94266236,-0.0018774507,0.5949754,0.022159267,-0.004816496,-0.10673609,-0.38996273,-0.35090366,0.060103916,-3.075377,0.6259809,0.00023440234,-0.086680375,-0.012193786,-0.001971617,0.041014504,-0.016724585,-0.010353469,0.47538516,-1.4062482,1.9333733,-2.094581,-1.5731915,2.4514463,-0.038696237,0.19052602,-0.23346668,0.076616794,-0.029192463,-0.028119229,-0.28730422,0.095768064,-9.078813,0.88960326,47.68062,-1.1773771,-1.7832801,-3.4127722,-0.09035424,-0.44050145,-0.35177603,27.375,28.625,27.875,31.8125,33.8125,34.75
0.19255249,-0.5642137,0.20415273,0.57244927,0.022741934,0.012690487,-0.10760057,-0.39013988,-0.350916,0.06009045,-3.0752652,0.6260334,0.00016216742,-0.08666214,-0.012014258,-0.0023383456,0.043538176,-0.01807692,-0.0088754045,0.47527736,-1.405851,1.932906,-2.094413,-1.5732406,2.451386,-0.03792445,0.19235109,-0.2353559,0.079037875,-0.030823892,-0.028816417,-0.21068975,0.11492168,-9.155427,0.83813137,47.68599,-1.2242589,-1.7767277,-3.51472,-0.14690395,-0.44639498,-0.36257285,27.375,28.625,27.875,31.8125,33.8125,34.75
0.19505255,-0.7641422,0.70189446,0.65716946,0.0200266,0.016628493,-0.115402386,-0.39030442,-0.35092974,0.060077302,-3.0751295,0.6260623,0.00012176819,-0.08721378,-0.012457609,-0.0024634027,0.045312535,-0.01980802,-0.008111152,0.47520572,-1.4054655,1.9324511,-2.0942438,-1.5733246,2.4513502,-0.037122916,0.1955972,-0.23966873,0.08245413,-0.031616468,-0.028771428,-0.17238252,-0.05746084,-9.174581,0.86945957,47.685097,-1.3106897,-1.9014641,-3.3998055,-0.17996332,-0.43531668,-0.3454839,27.375,28.625,27.875,31.8125,33.8125,34.75
0.19755249,-0.983425,0.8092171,0.5942044,0.02020512,0.014780469,-0.107707046,-0.39047372,-0.35098356,0.060073398,-3.0750868,0.62601537,0.00010914108,-0.08795515,-0.012064202,-0.0032570772,0.046373527,-0.022420097,-0.010789639,0.47516912,-1.4050682,1.9319724,-2.094124,-1.5733603,2.4512901,-0.03862527,0.19881609,-0.24212217,0.08449692,-0.031365573,-0.027593791,-0.15322891,0.0,-9.11712,0.842603,47.66987,-1.2631881,-1.8930533,-3.4369936,-0.22169816,-0.42693388,-0.40180355,27.375,28.625,27.875,31.8125,33.8125,34.75
0.20005229,-1.0347637,0.21519306,0.63150495,0.0075903307,0.026204096,-0.110160194,-0.3908247,-0.35099953,0.060036585,-3.0747902,0.6261452,-7.628104e-05,-0.0906155,-0.01083242,-0.0038668849,0.050595503,-0.022348205,-0.010619296,0.47496447,-1.4042372,1.9310035,-2.0937283,-1.5734943,2.4512055,-0.040696062,0.20394987,-0.24723993,0.08634533,-0.035180777,-0.029809672,-0.24899697,0.095768064,-9.136273,0.90527004,47.677036,-1.1468177,-2.0102882,-3.4457598,-0.27867725,-0.43970412,-0.37325615,27.375,28.625,27.875,31.8125,33.8125,34.75
0.2025522,-1.2730892,-0.29961345,0.4678711,0.012953864,0.025044564,-0.10415208,-0.39100248,-0.35101733,0.060029447,-3.0746734,0.62610096,-0.00013919936,-0.0928018,-0.01107135,-0.0028449253,0.05111627,-0.018777559,-0.010479302,0.47488052,-1.4038283,1.9304994,-2.0935247,-1.5735663,2.4511094,-0.040881205,0.20534523,-0.25117055,0.08594491,-0.03729366,-0.030120745,-0.24899697,0.095768064,-9.289503,0.8605109,47.65464,-1.2304124,-2.096035,-3.4624486,-0.29593778,-0.41306007,-0.39746606,27.375,28.625,27.875,31.8125,33.8125,34.75
0.20505226,-1.4647042,-0.48370308,0.4089033,-0.0066263606,0.035092864,-0.10479948,-0.3911884,-0.3510344,0.060023952,-3.0745459,0.6261315,-0.00016123563,-0.0947897,-0.010958195,-0.0021831053,0.051297966,-0.015139571,-0.009429221,0.4747962,-1.40342,1.9299978,-2.0933459,-1.5736512,2.451061,-0.041671123,0.20615901,-0.2532744,0.08407808,-0.039137952,-0.03194893,-0.30645782,0.21068975,-9.404425,0.8493211,47.664497,-1.2280552,-1.9643507,-3.4150414,-0.30132806,-0.37493032,-0.38642055,27.375,28.625,27.875,31.8125,33.8125,34.75
0.20755218,-2.5615628,-1.1074108,0.26429737,-0.012734822,0.028785432,-0.09606947,-0.39137918,-0.3510792,0.060046438,-3.0744915,0.6260417,-0.000120919576,-0.09651787,-0.011002257,-0.0020585107,0.051373996,-0.011884472,-0.008108268,0.47474808,-1.403035,1.9294595,-2.093168,-1.5737237,2.4509642,-0.042129252,0.207572,-0.2546,0.08112645,-0.0407104,-0.033719577,-0.53630114,0.2681506,-9.423578,0.85826975,47.66808,-1.179637,-1.9656227,-3.4720986,-0.29815757,-0.3659481,-0.3692464,27.375,28.625,27.875,31.8125,33.8125,34.75
0.21005249,-2.546893,-1.7206889,0.04816309,-0.054581672,0.0660961,-0.1023061,-0.39172995,-0.35111868,0.059989937,-3.0742128,0.6260608,-0.00029092908,-0.09976894,-0.011821285,-0.0018809668,0.048471764,-0.0069390135,-0.010864222,0.47459158,-1.4021454,1.9284772,-2.0928223,-1.5738677,2.4508564,-0.043765314,0.21059814,-0.25732714,0.0750938,-0.040419567,-0.03258837,-0.36391866,0.2681506,-9.481039,0.94331104,47.66808,-1.2428184,-1.930994,-3.4586592,-0.239286,-0.34832236,-0.40444905,27.375,28.625,27.875,31.8125,33.8125,34.75
0.21255259,-2.7511442,-1.8905251,0.02479885,-0.049520545,0.06468962,-0.09877722,-0.39197052,-0.35113716,0.05999994,-3.074136,0.6260047,-0.0001608916,-0.10281817,-0.012378589,-0.00041193343,0.048266787,-0.0007898194,-0.008883903,0.47448343,-1.4017124,1.9279274,-2.092716,-1.5739883,2.4507236,-0.043816976,0.21192297,-0.26173645,0.07260946,-0.043070454,-0.034607023,-0.4213795,0.34476504,-9.481039,0.81351066,47.670765,-1.1549001,-1.9104235,-3.503893,-0.19275013,-0.30698147,-0.37902713,27.375,28.625,27.875,31.8125,33.8125,34.75
0.2150525,-2.1656382,-1.4718976,-0.30433714,-0.030393604,0.060763635,-0.10487314,-0.39213127,-0.35114053,0.059952408,-3.073988,0.6260492,-0.00030751765,-0.10462065,-0.012263616,-0.0012675399,0.048573937,0.00016942402,-0.007878645,0.4743751,-1.4012784,1.9274963,-2.092561,-1.574037,2.4506626,-0.045143005,0.21554282,-0.26349097,0.07001966,-0.043806568,-0.036926698,-0.4405331,0.40222588,-9.5385,0.9254084,47.694054,-1.1665528,-2.0047956,-3.566232,-0.15808037,-0.27138084,-0.3675142,27.375,28.625,27.875,31.8125,33.8125,34.75
0.21755187,-1.9071879,-0.8399715,-0.29926312,-0.027313638,0.04595692,-0.10799981,-0.39237085,-0.35118806,0.05998111,-3.0739257,0.6260937,-0.00017190588,-0.10571153,-0.012248443,-0.0011318108,0.048470963,0.00207284,-0.00745997,0.47430286,-1.4008459,1.9268984,-2.0924304,-1.5741328,2.4506266,-0.045617707,0.21629427,-0.26439732,0.06842738,-0.044592906,-0.037817564,-0.47884035,0.38307226,-9.557653,0.90527004,47.670765,-1.1427202,-1.9608475,-3.5996194,-0.11920006,-0.2691996,-0.33084875,27.375,28.625,27.875,31.8125,33.8125,34.75
0.2200518,-1.5847772,-0.84955376,-0.36534792,-0.01843067,0.020127019,-0.10185268,-0.3928073,-0.35120815,0.059929203,-3.0736496,0.6261112,-0.00018733717,-0.10845528,-0.01255529,-0.0015401879,0.048972804,0.0025805812,-0.007158425,0.4740745,-1.3998826,1.9258341,-2.0921547,-1.5743374,2.450446,-0.047027133,0.22181907,-0.27006048,0.06832169,-0.045300353,-0.03951454,-0.30645782,0.28730422,-9.787497,0.9254084,47.675243,-1.1030724,-2.0730922,-3.7232363,-0.029320385,-0.20586616,-0.32553774,27.375,28.625,27.875,31.8125,33.8125,34.75
0.22255203,-1.5898055,-1.1392908,-0.27347198,-0.02974961,0.012931975,-0.10216271,-0.39303073,-0.35124007,0.05993424,-3.0735617,0.6261687,-9.595895e-05,-0.110619076,-0.012681387,-0.0007596007,0.04854173,0.0040459624,-0.0069875624,0.47398984,-1.3994497,1.9252943,-2.0920465,-1.5744332,2.450409,-0.048527688,0.22380814,-0.2744444,0.069203205,-0.045600094,-0.041182593,-0.36391866,0.28730422,-9.691729,0.91198283,47.661808,-1.1176802,-2.0533,-3.6774755,-0.0035268152,-0.17138861,-0.29134148,27.375,28.625,27.875,31.8125,33.8125,34.75
0.22505246,-1.0426817,-0.9733935,-0.22797525,-0.03535075,0.019531557,-0.11233153,-0.39322937,-0.3512524,0.05991958,-3.0734425,0.6260671,-0.00012697186,-0.11121997,-0.012521983,-0.00052659184,0.048922837,0.0012365825,-0.007121995,0.4738934,-1.3990049,1.9247688,-2.0918648,-1.574529,2.450265,-0.049905006,0.22564372,-0.2782497,0.07383015,-0.044664618,-0.042424172,-0.22984336,0.2681506,-9.634268,0.8806493,47.67614,-0.9667561,-2.0020924,-3.7235456,-0.0401446,-0.1524157,-0.25097862,27.375,28.625,27.875,31.8125,33.8125,34.75
0.22755197,-0.81993586,-0.8135608,-0.27685678,-0.024519365,0.008306989,-0.1150994,-0.39347124,-0.35128978,0.05993028,-3.0733893,0.62613076,-2.8782186e-05,-0.11299912,-0.014589612,0.00066103373,0.046437677,0.0043267817,-0.004615233,0.47378606,-1.3985597,1.9242042,-2.09177,-1.5746001,2.4502046,-0.048360225,0.22779664,-0.28335172,0.07288118,-0.04388074,-0.043388367,-0.11492168,0.21068975,-9.710882,0.8605109,47.678825,-1.0525216,-2.0739932,-3.6581836,-0.0013895927,-0.14148122,-0.23876938,27.375,28.625,27.875,31.8125,33.8125,34.75
0.23005223,-0.30490896,-0.6349412,-0.357278,-0.03304493,0.012365939,-0.109663196,-0.39391932,-0.35135356,0.059920926,-3.0732014,0.6260906,-2.0331165e-05,-0.114934765,-0.015152649,0.00054554024,0.04570672,0.00011564148,-0.005488555,0.47359326,-1.3976085,1.9230436,-2.0914447,-1.574756,2.450012,-0.050662804,0.23349263,-0.29117918,0.07839668,-0.041326914,-0.044821654,-0.17238252,0.30645782,-9.5385,0.87393653,47.68062,-0.9743204,-2.2299948,-3.5696065,0.0059934,-0.1528599,-0.16891286,27.375,28.625,27.875,31.8125,33.8125,34.75
0.2325522,-0.4451903,-0.37332335,-0.29841813,-0.026675986,-0.00050468324,-0.11722988,-0.39417368,-0.3513717,0.059935827,-3.073094,0.6261455,9.2221475e-05,-0.11582419,-0.014751055,0.00060746353,0.04560373,-0.0030816854,-0.007548879,0.47347236,-1.3971517,1.9224442,-2.0912993,-1.5748757,2.4499397,-0.05309368,0.23563327,-0.29490098,0.082758985,-0.039779164,-0.045198355,-0.17238252,0.3256114,-9.615114,0.8314132,47.670765,-0.8603456,-2.2112122,-3.3546634,-0.019132195,-0.13450724,-0.17317516,27.375,28.625,27.875,31.8125,33.8125,34.75
0.23505272,-0.046442714,-0.6166794,-0.18658444,-0.024846636,0.010436386,-0.11929311,-0.39438385,-0.35141954,0.05994225,-3.0730462,0.62611455,7.2876726e-05,-0.11311159,-0.014792748,-0.0013787503,0.04792621,-0.011273165,-0.006202452,0.473389,-1.3967063,1.9218715,-2.0911295,-1.5749105,2.4498436,-0.051618837,0.23817798,-0.29469568,0.088348046,-0.038101766,-0.04507703,-0.15322891,0.34476504,-9.672575,0.8784135,47.65643,-0.91205686,-2.2038307,-3.4747453,-0.043547172,-0.14523506,-0.1427899,27.375,28.625,27.875,31.8125,33.8125,34.75
0.2375522,-0.78085214,-1.011117,-0.058362193,-0.024313573,0.00024095795,-0.10232958,-0.39458773,-0.35143262,0.05990817,-3.0728543,0.62609357,-4.9362584e-06,-0.111330666,-0.01401093,-0.002673267,0.050344497,-0.017720547,-0.0073340456,0.4733049,-1.3961893,1.9212974,-2.0909135,-1.5750307,2.449772,-0.051850818,0.2394675,-0.29457888,0.09377519,-0.03730917,-0.044176176,-0.11492168,0.30645782,-9.500193,0.8940802,47.664497,-1.0215745,-2.1591446,-3.6410105,-0.088720694,-0.16144918,-0.108028114,27.375,28.625,27.875,31.8125,33.8125,34.75
0.24005245,-0.43655378,-0.20591989,-0.04124109,-0.020138782,0.004057753,-0.10613028,-0.3950344,-0.3514923,0.059888728,-3.072652,0.6261682,-0.00010127168,-0.113014065,-0.014123692,-0.0004502619,0.049203884,-0.01906852,-0.010841477,0.4730762,-1.3952162,1.9201235,-2.0905507,-1.575138,2.449617,-0.05409973,0.23973106,-0.3019221,0.10152177,-0.035689086,-0.04291819,-0.1340753,0.21068975,-9.404425,0.95002913,47.66271,-0.8471916,-2.071916,-3.7154317,-0.1929459,-0.160119,-0.122229934,27.375,28.625,27.875,31.8125,33.8125,34.75
0.2425527,-0.37532333,0.12808843,0.06340938,-0.0061611813,-7.056502e-05,-0.106677875,-0.39527723,-0.35152233,0.059899747,-3.0725586,0.62618715,-9.834138e-05,-0.11246284,-0.013829832,-0.0003973577,0.049466476,-0.022939151,-0.012944963,0.4729559,-1.3947359,1.9194907,-2.0903451,-1.575209,2.449521,-0.0550412,0.2400878,-0.3036841,0.10648477,-0.03415473,-0.041762315,-0.17238252,0.15322891,-9.404425,0.89631605,47.653748,-0.8782377,-1.8999889,-3.6332386,-0.28600663,-0.16319284,-0.087167576,27.375,28.625,27.875,31.8125,33.8125,34.75
0.24505219,-0.53712046,0.002227767,0.025400747,0.017810354,-0.00022693907,-0.09941915,-0.39550284,-0.35155004,0.05989974,-3.0724478,0.626185,-0.00013433174,-0.114434995,-0.014815047,0.0006805096,0.047378168,-0.020627256,-0.016377887,0.47284773,-1.3942549,1.9188799,-2.0901296,-1.575281,2.4494264,-0.055555873,0.24160227,-0.3079698,0.1062507,-0.03335548,-0.038843397,-0.17238252,0.17238252,-9.385271,0.89631605,47.664497,-0.81046885,-1.7330598,-3.6415946,-0.3028565,-0.20617206,-0.11316876,27.375,28.625,27.875,31.8125,33.8125,34.75
0.2475523,-0.82872903,0.015173119,-0.13531011,0.021556059,0.008529564,-0.1061346,-0.39576095,-0.3515694,0.05991227,-3.0723429,0.62625915,-9.993627e-05,-0.11615695,-0.015805509,0.0005790194,0.04646419,-0.019528491,-0.017431052,0.47270364,-1.3937733,1.9182452,-2.0899389,-1.575365,2.4493427,-0.05551204,0.24521376,-0.31180543,0.10507655,-0.03305609,-0.037744552,-0.076614454,0.15322891,-9.385271,0.89631605,47.64927,-0.7973019,-1.8292575,-3.5737677,-0.3279556,-0.21365598,-0.14111382,27.375,28.625,27.875,31.8125,33.8125,34.75
0.25005227,-1.6423247,-0.81397957,0.10871737,-0.023615986,0.04501339,-0.10304972,-0.39623752,-0.35163766,0.05991006,-3.0721266,0.626309,-0.0001408064,-0.121883504,-0.01777682,0.0014736963,0.042805467,-0.011231509,-0.01977506,0.47248727,-1.392762,1.9169759,-2.089535,-1.575509,2.4491866,-0.056754805,0.25142184,-0.31967878,0.097683825,-0.03361804,-0.036630526,-0.24899697,0.11492168,-9.461885,0.8940802,47.670765,-0.7437682,-2.0302827,-3.3361976,-0.2564561,-0.2263276,-0.142077,27.375,28.625,27.875,31.8125,33.8125,34.75
0.25255257,-1.6007794,-1.0097625,-0.37317848,-0.02600879,0.042992126,-0.10411196,-0.3964605,-0.35167894,0.059913173,-3.0720553,0.6263511,-0.00023446915,-0.123852745,-0.018606981,0.0013722028,0.041234016,-0.008129806,-0.02001781,0.47236735,-1.3922807,1.9163545,-2.0893104,-1.5755209,2.4491026,-0.057001773,0.25405076,-0.32172346,0.09361828,-0.03365054,-0.036630142,-0.34476504,0.17238252,-9.576807,0.8403672,47.66987,-0.7354533,-2.0264072,-3.409295,-0.2086425,-0.23379456,-0.1375153,27.375,28.625,27.875,31.8125,33.8125,34.75
0.25505164,-2.147869,-1.7179285,-0.16287829,-0.045009404,0.05195139,-0.10963181,-0.39671966,-0.35170513,0.059919443,-3.0719185,0.62649685,-0.0002319862,-0.12421968,-0.017871514,0.00049710914,0.04177477,-0.0073362705,-0.022891706,0.47223487,-1.3917639,1.9156865,-2.0890949,-1.5756053,2.4490795,-0.058013808,0.25455216,-0.31977472,0.09071233,-0.034493763,-0.034762014,-0.21068975,0.3256114,-9.710882,0.91421866,47.66808,-0.7694441,-2.032937,-3.5934446,-0.15728854,-0.23538071,-0.13999802,27.375,28.625,27.875,31.8125,33.8125,34.75
0.25755256,-2.1394663,-2.0405555,-0.14746898,-0.0632085,0.047091052,-0.10288385,-0.3969839,-0.35175037,0.05994549,-3.0718591,0.62648433,-0.00011169411,-0.1253765,-0.017582413,-0.00013716027,0.043084197,-0.0061858026,-0.025580518,0.47213888,-1.3912832,1.9150289,-2.0889404,-1.5757021,2.448984,-0.058429476,0.25690818,-0.3207999,0.0889635,-0.036181837,-0.032479353,-0.28730422,0.36391866,-9.634268,0.8784135,47.677036,-0.7003364,-1.9488173,-3.7670596,-0.123836994,-0.22160256,-0.1728198,27.375,28.625,27.875,31.8125,33.8125,34.75
0.2600517,-1.744602,-1.953213,0.011337144,-0.05679668,0.02610341,-0.10128919,-0.39749023,-0.35182896,0.059964754,-3.071683,0.62658083,-2.7755561e-05,-0.12859817,-0.018966723,0.0016181633,0.039804336,-0.0016577479,-0.026029777,0.47192246,-1.3902851,1.9137367,-2.0885928,-1.575858,2.4488516,-0.059323434,0.25877142,-0.32694638,0.08770454,-0.03534434,-0.032924317,-0.40222588,0.4213795,-9.5385,0.95226496,47.66091,-0.7000695,-1.8543386,-3.804944,-0.031343564,-0.2659165,-0.19636369,27.375,28.625,27.875,31.8125,33.8125,34.75
0.26255172,-1.2716066,-1.3915249,-0.055637527,-0.027639482,0.011934744,-0.104462706,-0.39776015,-0.35185146,0.059948947,-3.071554,0.6267452,-3.4066237e-05,-0.13032986,-0.020072076,0.0025943557,0.03852522,0.0007022524,-0.025496736,0.4717667,-1.3897324,1.9130892,-2.0884368,-1.57593,2.4488158,-0.058919143,0.2605054,-0.3313336,0.08766568,-0.03529277,-0.033049356,-0.30645782,0.40222588,-9.423578,0.85155696,47.635834,-0.65387833,-1.8162771,-3.6781383,-0.0005662427,-0.2612942,-0.21446732,27.375,28.625,27.875,31.8125,33.8125,34.75
0.26505175,-0.60690284,-0.5062192,-0.08079232,-0.01701711,0.016739404,-0.11231729,-0.39802667,-0.35189438,0.05994796,-3.0714881,0.62677073,-3.61154e-05,-0.13325715,-0.020161157,0.0047511947,0.036380455,0.004290838,-0.028504279,0.47163376,-1.3891916,1.9124192,-2.08827,-1.5759772,2.4487078,-0.061471786,0.26036218,-0.33646613,0.08876547,-0.03502281,-0.032592945,-0.22984336,0.36391866,-9.481039,0.93436235,47.653748,-0.53771055,-1.6903379,-3.5967722,0.042689137,-0.26823056,-0.23536554,27.375,28.625,27.875,31.8125,33.8125,34.75
0.26755175,-1.4501606,-0.74350244,0.003866666,-0.0050496873,0.0066566654,-0.09462398,-0.39827436,-0.3519496,0.059959833,-3.0714042,0.62680876,2.6199312e-05,-0.13224068,-0.020731937,0.0043414,0.037473485,0.0010401908,-0.026866954,0.47156233,-1.3886865,1.9117612,-2.0881016,-1.5760616,2.4486716,-0.059858616,0.2618775,-0.3382518,0.09242107,-0.03451679,-0.03261921,-0.4405331,0.28730422,-9.423578,0.900793,47.642998,-0.5983134,-1.6287141,-3.5686042,0.022639757,-0.29208332,-0.24705918,27.375,28.625,27.875,31.8125,33.8125,34.75
0.27005166,-1.4390084,-0.41495106,-0.2461843,-0.0038165431,0.021372197,-0.11491754,-0.39882454,-0.3520295,0.059974484,-3.0712209,0.62692195,0.00010174452,-0.1304679,-0.019674899,0.002935609,0.043149717,-0.010093944,-0.026027469,0.47131032,-1.3876041,1.910374,-2.0877373,-1.5762175,2.4485152,-0.06000311,0.26632443,-0.3435099,0.105710834,-0.034509536,-0.033600472,-0.28730422,0.30645782,-9.500193,0.98135734,47.65912,-0.704357,-1.6156292,-3.569094,-0.049197555,-0.3258289,-0.28031945,27.375,28.625,27.875,31.8125,33.8125,34.75
0.27255172,-0.5571072,-0.029470962,-0.13275845,-0.0064894366,0.032110557,-0.11376686,-0.3990858,-0.3520668,0.059994582,-3.071128,0.62699896,3.8979313e-05,-0.1295204,-0.018430674,-6.4724685e-05,0.04698323,-0.01977895,-0.027774671,0.4711657,-1.3870854,1.9096559,-2.0874598,-1.5762533,2.4484313,-0.061872642,0.27246812,-0.34538224,0.11179899,-0.033526327,-0.03372516,-0.17238252,0.19153614,-9.519346,0.92093146,47.66808,-0.4951193,-1.7990221,-3.5698833,-0.110964775,-0.36108094,-0.2772485,27.375,28.625,27.875,31.8125,33.8125,34.75
0.27505246,-1.0085118,-0.28490624,0.098964304,-0.004045511,0.020567141,-0.10299782,-0.39935595,-0.35210598,0.06000934,-3.0710137,0.6271062,6.981029e-05,-0.12761568,-0.019085268,-0.0014020925,0.051106457,-0.02474584,-0.023592459,0.47104704,-1.3865553,1.9089502,-2.0872433,-1.5763377,2.448395,-0.058112193,0.27580994,-0.3475294,0.11689768,-0.034947153,-0.034136575,-0.17238252,0.095768064,-9.500193,0.90527004,47.655537,-0.76611096,-1.9937706,-3.631377,-0.19542447,-0.37754157,-0.29143512,27.375,28.625,27.875,31.8125,33.8125,34.75
0.27755252,-0.8494144,-0.039233327,0.12054982,0.0028176086,0.008452867,-0.10644501,-0.3996392,-0.3521491,0.060029563,-3.070914,0.6271231,0.00015299124,-0.12848115,-0.018492771,-0.0017878448,0.05354608,-0.02580463,-0.02380701,0.47093877,-1.3860139,1.9082211,-2.0870388,-1.5764459,2.4483109,-0.05877611,0.27834833,-0.35026762,0.119144306,-0.036649063,-0.03457422,-0.076614454,0.11492168,-9.442732,0.8918391,47.64479,-0.78176904,-2.0137563,-3.682407,-0.23542011,-0.37502348,-0.32169533,27.375,28.625,27.875,31.8125,33.8125,34.75
0.2800525,0.023136009,0.41823953,0.38887727,0.0052919956,0.0040161004,-0.1067502,-0.4001642,-0.3522266,0.060021702,-3.0706596,0.6272022,4.9860508e-05,-0.1330045,-0.020342771,0.00077795,0.0507437,-0.017957328,-0.023146953,0.47069883,-1.3848721,1.9067844,-2.0865476,-1.5765904,2.4481547,-0.058775175,0.28082752,-0.358833,0.116952345,-0.037755333,-0.035215788,0.17238252,0.076614454,-9.232041,0.9388393,47.64121,-0.8645382,-1.8660345,-3.4515944,-0.24281436,-0.38560954,-0.31287324,27.375,28.625,27.875,31.8125,33.8125,34.75
0.2825525,-0.542599,-0.3112447,0.37536648,0.0100888815,-0.024545668,-0.10394953,-0.400433,-0.35226834,0.060025744,-3.070544,0.6273113,4.8340436e-05,-0.13591671,-0.021094363,0.0024929696,0.049616195,-0.012432093,-0.02340104,0.4705788,-1.3843195,1.9060763,-2.0863345,-1.5766629,2.4481184,-0.05903672,0.2817872,-0.363659,0.11538145,-0.039276507,-0.0352096,0.05746084,0.15322891,-9.136273,0.8090337,47.653748,-0.8644531,-1.8171923,-3.3142323,-0.23536392,-0.38872704,-0.34806842,27.375,28.625,27.875,31.8125,33.8125,34.75
0.28505248,-0.42445803,-0.9998097,0.218364,0.0039232676,-0.018122239,-0.09215649,-0.40067592,-0.35230884,0.060007427,-3.0703998,0.62726074,-9.473981e-06,-0.13755614,-0.02148239,0.0020231989,0.049177032,-0.008524978,-0.022896076,0.4704948,-1.3837422,1.9053844,-2.086097,-1.5767597,2.4480224,-0.058887806,0.28377974,-0.36384705,0.10989173,-0.04067841,-0.0355513,0.019153614,0.26815057,-9.174581,0.947788,47.653748,-0.8382323,-1.8254827,-3.4930575,-0.16295469,-0.38335,-0.37173608,27.375,28.625,27.875,31.8125,33.8125,34.75
0.2875526,-0.74857557,-1.3346854,-0.2396432,-0.025089191,-0.021018347,-0.10257859,-0.40099534,-0.35234493,0.06005693,-3.0703015,0.62737346,0.00014463867,-0.13904847,-0.021786587,0.0019854964,0.0495481,-0.0058145626,-0.022520982,0.47035092,-1.3832127,1.9045962,-2.0858696,-1.5768803,2.4479623,-0.058624532,0.28575343,-0.36567786,0.107496075,-0.042250887,-0.03565346,0.05746084,0.2681506,-9.32781,0.9254084,47.6421,-0.9190627,-1.7529929,-3.4571261,-0.12041403,-0.38684776,-0.37752303,27.375,28.625,27.875,31.8125,33.8125,34.75
0.2900517,-1.0688912,-2.2697046,0.08365828,-0.08111102,0.017125523,-0.10629966,-0.4015357,-0.35242498,0.060058698,-3.0700548,0.6274738,9.501437e-05,-0.1419627,-0.021366587,0.002093959,0.05167931,-0.0017636965,-0.02295278,0.47011077,-1.3820711,1.9031376,-2.0853903,-1.5770372,2.4478183,-0.05943678,0.28899443,-0.36958322,0.10551053,-0.046013456,-0.036001105,0.019153614,0.47884035,-9.385271,1.0015011,47.667187,-0.86297786,-1.6247878,-3.6072772,-0.046453364,-0.3435105,-0.42696697,27.375,28.625,27.875,31.8125,33.8125,34.75
0.29255235,-1.3819935,-2.5885036,-0.027894057,-0.066963956,0.024274252,-0.10021464,-0.40182114,-0.35249585,0.060045946,-3.0699847,0.6274581,0.00013166782,-0.14268602,-0.021359056,0.0024738114,0.05218901,-0.0011781629,-0.02245022,0.4700267,-1.3814456,1.9023961,-2.0852482,-1.5771097,2.447734,-0.059576213,0.28965494,-0.3716373,0.106605165,-0.046741325,-0.036636744,-0.11492168,0.63206923,-9.346964,0.8672237,47.66091,-0.8901031,-1.6567284,-3.655418,-0.046274528,-0.33100498,-0.43521357,27.375,28.625,27.875,31.8125,33.8125,34.75
0.29505232,-1.0746262,-1.5097227,-0.0072964304,-0.06023721,0.035990525,-0.112685926,-0.40212068,-0.35250598,0.060052156,-3.0698247,0.62751967,0.0002057023,-0.14381704,-0.021797687,0.0030665712,0.05245581,2.2977738e-05,-0.021936875,0.4698708,-1.3808811,1.9016665,-2.0850308,-1.5772537,2.4476383,-0.05925006,0.2910437,-0.37499842,0.107616685,-0.047534782,-0.03681518,-0.038307227,0.61291564,-9.423578,0.95897776,47.66987,-0.9610745,-1.478725,-3.720015,-0.039862555,-0.33441308,-0.4635284,27.375,28.625,27.875,31.8125,33.8125,34.75
0.29755238,-1.1431414,-1.2459791,-0.10308616,-0.033275235,0.01927433,-0.10448677,-0.402409,-0.35254827,0.060034413,-3.0696845,0.62760377,0.00020772149,-0.14512582,-0.0218143,0.0015079019,0.053677507,-0.0012826291,-0.021695567,0.4697506,-1.3802546,1.9009241,-2.084841,-1.5773505,2.4475896,-0.05998763,0.29624873,-0.37754938,0.10666611,-0.04805159,-0.037785605,-0.038307227,0.38307226,-9.461885,0.92764956,47.664497,-0.9735781,-1.7187244,-3.6385555,0.0037781121,-0.33371663,-0.45605803,27.375,28.625,27.875,31.8125,33.8125,34.75
0.3000522,-0.95050687,-0.7262384,0.38412815,-0.017896818,0.0081707435,-0.10501331,-0.40298954,-0.3526539,0.06005568,-3.0694656,0.6277268,0.0002806107,-0.14513251,-0.02152082,-0.00048096813,0.06039579,-0.0066224053,-0.018076379,0.4695352,-1.3790753,1.899381,-2.0843961,-1.5775312,2.447481,-0.058139708,0.30341655,-0.3831927,0.11292771,-0.051642276,-0.039526943,-0.22984336,0.49799395,-9.251195,1.0037369,47.666286,-1.0328186,-1.822078,-3.6652818,0.03640917,-0.26650783,-0.48071367,27.375,28.625,27.875,31.8125,33.8125,34.75
0.30255216,-0.6880041,-0.35137615,0.44268778,-0.0009016014,-0.0012942934,-0.10315449,-0.4032837,-0.35269478,0.060051914,-3.0693524,0.627662,0.00030415002,-0.14558157,-0.021293059,-3.0241352e-05,0.061576612,-0.009437717,-0.01640154,0.46941498,-1.3784616,1.8986148,-2.0841787,-1.5776395,2.4473357,-0.058990337,0.3049756,-0.387531,0.11872333,-0.05143769,-0.042049535,-0.17238252,0.4213795,-9.212888,0.9231726,47.652847,-1.1056969,-1.9151282,-3.6337864,-0.018656647,-0.2750486,-0.48953807,27.375,28.625,27.875,31.8125,33.8125,34.75
0.30505216,-0.90509206,-0.2562485,0.5768473,0.0016348318,-0.0034783753,-0.1022221,-0.40356576,-0.35275602,0.060035314,-3.069221,0.6276717,0.0002338609,-0.145672,-0.019321818,-0.00033730967,0.06606098,-0.014495542,-0.015018919,0.4693183,-1.3778006,1.8978127,-2.083924,-1.5777124,2.447263,-0.061314497,0.30667883,-0.39083356,0.12683435,-0.053166226,-0.04573836,-0.19153613,0.36391866,-9.174581,0.98135734,47.653748,-1.070519,-1.844524,-3.5492685,-0.106400855,-0.23311718,-0.4425614,27.375,28.625,27.875,31.8125,33.8125,34.75
0.30755237,-0.8312609,-0.28650272,0.68397665,0.001729129,0.009348674,-0.105147615,-0.40383056,-0.35277322,0.060021773,-3.0690215,0.6277038,0.00019226251,-0.14485055,-0.018943293,-6.922634e-05,0.07060531,-0.016786473,-0.012561058,0.46919882,-1.3772118,1.8970841,-2.083646,-1.5778455,2.4471905,-0.05930236,0.30732137,-0.3937761,0.13322836,-0.05618898,-0.0461553,-0.2873042,0.22984336,-8.944737,0.9321212,47.653748,-1.0219979,-1.7675216,-3.512412,-0.14072677,-0.19613722,-0.42922956,27.375,28.625,27.875,31.8125,33.8125,34.75
0.31005237,-1.051224,0.14876647,1.0173926,0.01754435,0.010547674,-0.1050641,-0.40444666,-0.35287642,0.060023252,-3.0687726,0.62766635,0.00022842584,-0.14627552,-0.019845905,0.001173959,0.06958444,-0.017656997,-0.0088719865,0.4689707,-1.3759139,1.8954319,-2.0831544,-1.5780605,2.446973,-0.05966284,0.30939046,-0.40053287,0.13817433,-0.054928165,-0.050204635,-0.22984336,0.095768064,-8.829816,1.0216395,47.66808,-1.212061,-1.6857356,-3.4285116,-0.25405186,-0.178274,-0.39836675,27.375,28.625,27.875,31.8125,33.8125,34.75
0.3125525,-1.404322,0.16637054,0.86752665,0.023823023,-0.00019775261,-0.0936965,-0.40474758,-0.35290474,0.06001979,-3.0685978,0.627664,0.00021808267,-0.14760487,-0.019838018,0.00028492056,0.06921709,-0.016755102,-0.0053533525,0.46883848,-1.3752764,1.8946198,-2.0828683,-1.5781926,2.4468632,-0.060692135,0.3121245,-0.40124422,0.13513379,-0.055054776,-0.05474518,-0.15322891,-0.038307227,-8.829816,0.9992599,47.65464,-1.1748108,-1.627825,-3.5805597,-0.2436448,-0.14883593,-0.3549772,27.375,28.625,27.875,31.8125,33.8125,34.75
0.31505254,-1.0700215,0.09200686,1.0742191,0.019167244,0.013313483,-0.10496918,-0.4050172,-0.35296276,0.060009494,-3.06848,0.6275806,0.00016413395,-0.15123266,-0.022021873,0.0015668162,0.0645916,-0.009199605,-0.004136911,0.46875453,-1.3746499,1.8938411,-2.0826075,-1.5782765,2.4467432,-0.06048515,0.31453714,-0.4056936,0.12832114,-0.0543831,-0.055751324,-0.1340753,-0.095768064,-8.829816,0.99031126,47.65643,-1.1509253,-1.7390119,-3.51881,-0.20693842,-0.13158011,-0.30536562,27.375,28.625,27.875,31.8125,33.8125,34.75
0.3175525,-0.68288887,0.60572124,1.0446289,0.0041188044,0.016512172,-0.10495971,-0.40534756,-0.35301483,0.06001307,-3.068357,0.62761164,0.00020380945,-0.1539091,-0.023207828,0.0018052725,0.06153251,-0.005814402,-0.005562372,0.46862215,-1.373977,1.8929805,-2.082369,-1.5783838,2.4466472,-0.061450765,0.31767341,-0.40927684,0.124352396,-0.053204983,-0.055295657,-0.38307226,-0.05746084,-8.848969,0.92764956,47.63225,-1.194292,-1.8183192,-3.4375792,-0.12423068,-0.15483579,-0.29981655,27.375,28.625,27.875,31.8125,33.8125,34.75
0.32005244,-1.4530996,-0.43676472,0.33252,-0.0004933344,0.013201947,-0.0961747,-0.4059156,-0.35308757,0.05997067,-3.0680468,0.627561,5.488067e-05,-0.15830265,-0.025988942,0.0029622898,0.05477211,0.00013328213,-0.0021477877,0.46836996,-1.3726785,1.891414,-2.0818326,-1.5785745,2.4464056,-0.062422216,0.3221611,-0.41634184,0.11850047,-0.049937267,-0.059689783,-0.21068975,0.076614454,-8.90643,1.0082139,47.6636,-1.2613323,-1.9123579,-3.4503882,-0.015737358,-0.14739594,-0.22645153,27.375,28.625,27.875,31.8125,33.8125,34.75
0.3225518,-1.4310154,-0.8948174,0.19969605,-0.0084223915,0.022671929,-0.09522886,-0.40620616,-0.3531147,0.059950948,-3.0678809,0.6274865,1.1840349e-06,-0.15764831,-0.025517257,0.0008923044,0.056083094,-0.005057038,-0.0035608306,0.46823767,-1.3720282,1.8906239,-2.0815566,-1.5786942,2.4462495,-0.063317515,0.32572016,-0.41644052,0.12024972,-0.048769016,-0.059174433,-0.4213795,0.24899697,-9.174581,0.87393653,47.64837,-1.2008706,-1.9392972,-3.368544,0.0061612814,-0.16922687,-0.18596949,27.375,28.625,27.875,31.8125,33.8125,34.75
0.32505175,-1.7521673,-1.3561436,-0.040381122,-0.028193649,0.030206291,-0.0913415,-0.40653497,-0.35315245,0.05996652,-3.067725,0.6274918,5.934034e-05,-0.1564159,-0.02500215,-0.001257315,0.05781154,-0.010324875,-0.004299189,0.46810555,-1.3713789,1.8897518,-2.081269,-1.5788382,2.446142,-0.06357301,0.32856116,-0.41548336,0.12191867,-0.04793346,-0.058695566,-0.5554548,0.34476504,-9.404425,0.90750587,47.66987,-1.2302787,-2.0039926,-3.713472,-0.004690613,-0.17784208,-0.16658516,27.375,28.625,27.875,31.8125,33.8125,34.75
0.32755253,-1.5198412,-1.1909896,-0.17155398,-0.061145574,0.050783362,-0.10816993,-0.40683067,-0.35321957,0.05995503,-3.0676322,0.62749135,-3.524616e-05,-0.1558999,-0.024347175,-0.0018537913,0.05889967,-0.013920356,-0.00643646,0.46798518,-1.3707061,1.8889173,-2.0810044,-1.578874,2.4460342,-0.06458027,0.32948187,-0.41620284,0.12541635,-0.04727916,-0.057566144,-0.5554548,0.40222588,-9.385271,1.0149267,47.652847,-1.1287549,-1.8603963,-3.9577398,-0.009164457,-0.20229611,-0.15337971,27.375,28.625,27.875,31.8125,33.8125,34.75
0.33005255,-2.2126706,-1.8841592,-0.45538437,-0.05446681,0.028036097,-0.093448706,-0.4074532,-0.35328645,0.059934076,-3.0673118,0.62749964,-0.00014967514,-0.15532969,-0.023910359,-0.0008731329,0.061360516,-0.02201792,-0.010888807,0.46768507,-1.3693602,1.8872293,-2.0804126,-1.5790776,2.4457831,-0.0655886,0.33124015,-0.42418018,0.13997084,-0.04581156,-0.05412112,-0.61291564,0.4213795,-9.634268,1.099968,47.66091,-1.1369205,-1.7771668,-3.9197702,-0.1330373,-0.22086297,-0.13840216,27.375,28.625,27.875,31.8125,33.8125,34.75
0.33255172,-1.7379873,-1.5089011,-0.60708433,-0.04377573,0.028670501,-0.09712602,-0.40775356,-0.35333604,0.059904188,-3.0671237,0.62757725,-0.00021595927,-0.15608595,-0.022675797,-0.0017839218,0.063603185,-0.027852856,-0.01589487,0.46757585,-1.3686497,1.886391,-2.080147,-1.5791854,2.445748,-0.06867509,0.3353007,-0.4286366,0.14658949,-0.045177303,-0.052199166,-0.6703765,0.45968673,-9.730036,0.9097417,47.650166,-0.99636704,-1.9471886,-3.7051182,-0.22794405,-0.24569261,-0.13961333,27.375,28.625,27.875,31.8125,33.8125,34.75
0.33505166,-1.5373048,-1.3231547,-0.4504383,-0.03300307,0.023972105,-0.10532122,-0.40807232,-0.35339063,0.059912935,-3.0670147,0.6275533,-0.00023127176,-0.15673757,-0.023913454,-0.0009927403,0.06280273,-0.027198322,-0.017033163,0.4674444,-1.3679887,1.885518,-2.079859,-1.5792688,2.4456167,-0.06731767,0.33659264,-0.43256193,0.14828761,-0.044755973,-0.049702343,-0.40222588,0.34476504,-9.825804,1.0126908,47.67166,-1.0816655,-1.8799748,-3.6362214,-0.2972376,-0.25145274,-0.15736833,27.375,28.625,27.875,31.8125,33.8125,34.75
0.3375517,-1.0713515,-1.1925877,-0.45568338,-0.024809042,0.03163272,-0.1028622,-0.40839422,-0.35343462,0.059908744,-3.0668616,0.62754095,-0.00029662618,-0.1572143,-0.02368345,-0.0028249428,0.063163124,-0.030142754,-0.020793682,0.4672999,-1.3672905,1.8846215,-2.0795343,-1.5793647,2.4454856,-0.0686661,0.34073275,-0.43344086,0.14782368,-0.043751225,-0.047292568,-0.40222588,0.28730422,-9.825804,0.9858343,47.645687,-0.9989639,-2.0866253,-3.714066,-0.34837857,-0.26997596,-0.16958664,27.375,28.625,27.875,31.8125,33.8125,34.75
0.3400527,-1.3418084,-0.9993531,-0.61118865,-0.035292327,0.035175998,-0.104051314,-0.40907305,-0.35351005,0.05989432,-3.0665462,0.6276859,-0.00031591795,-0.16194355,-0.024822667,-0.0038128654,0.059487883,-0.02289951,-0.025583362,0.46697527,-1.3658831,1.8828515,-2.0789897,-1.5795811,2.4452949,-0.07062714,0.34678638,-0.43635815,0.13656628,-0.043769233,-0.04445378,-0.076614454,0.21068975,-9.902418,0.9388393,47.63404,-0.8470868,-2.2717297,-3.9641047,-0.22551817,-0.33352685,-0.21768302,27.375,28.625,27.875,31.8125,33.8125,34.75
0.34255177,-1.554115,-1.4480515,-0.3237357,-0.047269132,0.046524912,-0.10312685,-0.40938827,-0.35358194,0.05989889,-3.0664358,0.6277785,-0.00037870544,-0.16657893,-0.026095517,-0.0014493807,0.054082457,-0.0136467,-0.028937077,0.46685442,-1.3651983,1.8819555,-2.0786922,-1.5796283,2.4452472,-0.07277483,0.34717858,-0.44100904,0.13013063,-0.043132786,-0.04324777,-0.05746084,0.038307227,-9.710882,0.9567419,47.639416,-0.82050276,-2.1745372,-3.92542,-0.14355263,-0.34072834,-0.23350511,27.375,28.625,27.875,31.8125,33.8125,34.75
0.34505177,-1.4995346,-1.3317398,-0.48327777,-0.040383283,0.031678546,-0.0994002,-0.4097444,-0.35362455,0.05990095,-3.0663397,0.62795085,-0.0003798507,-0.17064783,-0.02676759,3.6909245e-05,0.05199773,-0.00862678,-0.033321027,0.4666497,-1.3645129,1.88108,-2.0784657,-1.579677,2.4451635,-0.074780524,0.35008702,-0.44774693,0.12855119,-0.043539394,-0.04086159,-0.038307227,0.076614454,-9.595961,0.8940802,47.64658,-0.65550774,-2.206728,-3.6204047,-0.07396955,-0.37428582,-0.26598206,27.375,28.625,27.875,31.8125,33.8125,34.75
0.34755263,-1.1978363,-1.1355622,-0.6137261,-0.0052743894,0.009694874,-0.09658823,-0.4100509,-0.3536773,0.05989103,-3.066177,0.62799215,-0.00041238766,-0.17337444,-0.027448589,0.0021502434,0.048731,-0.0018465375,-0.03399906,0.46654162,-1.3638285,1.8802198,-2.07818,-1.5797848,2.4451036,-0.07579747,0.34870368,-0.4503318,0.124983,-0.043696046,-0.041193906,-0.05746084,0.1340753,-9.576807,0.9298854,47.651955,-0.6211946,-2.0758958,-3.5801392,-0.0044091153,-0.39640486,-0.28689307,27.375,28.625,27.875,31.8125,33.8125,34.75
0.35005254,-1.1023165,-0.19820969,-1.1815751,0.019296186,-0.014474938,-0.09315911,-0.4107627,-0.35379848,0.0598993,-3.065974,0.6280984,-0.00028835548,-0.17333937,-0.026543923,0.0012077938,0.052904505,-0.004673316,-0.030698068,0.46625364,-1.3624103,1.8784026,-2.0777347,-1.5799779,2.4449103,-0.075585775,0.35143024,-0.45278856,0.1290751,-0.046181243,-0.04425894,-0.21068975,0.21068975,-9.883265,1.0843065,47.670765,-0.60443527,-1.8883348,-3.7755628,0.039369345,-0.40417933,-0.28496397,27.375,28.625,27.875,31.8125,33.8125,34.75
0.35255253,-1.3897891,-0.7206742,-0.9020996,0.0018263967,0.0009521791,-0.089368455,-0.41108507,-0.35382602,0.059909392,-3.065784,0.6281718,-0.00032827977,-0.17237888,-0.02524493,-8.3296413e-07,0.05670316,-0.009252905,-0.030003438,0.46609753,-1.3617489,1.8775066,-2.0773747,-1.5800985,2.4448261,-0.076046646,0.35300612,-0.45312387,0.13361469,-0.047525536,-0.04539688,-0.49799395,0.2681506,-9.883265,0.9455522,47.63315,-0.6120248,-1.9760083,-4.0552454,0.027449135,-0.42896304,-0.27139977,27.375,28.625,27.875,31.8125,33.8125,34.75
0.35505256,-1.6266614,-0.89928687,-0.60245454,-0.030291261,0.037419427,-0.09899417,-0.41141674,-0.35387906,0.059911225,-3.0656505,0.62822014,-0.00036328458,-0.17080534,-0.025272725,-0.0013727006,0.060138028,-0.017145332,-0.031161914,0.46595395,-1.361051,1.8765978,-2.077072,-1.580182,2.4447312,-0.07487179,0.35696977,-0.45682827,0.14195956,-0.04702789,-0.043062724,-0.40222588,0.21068975,-9.883265,0.98135734,47.640312,-0.6485143,-2.0131524,-4.058849,-0.018527798,-0.44247016,-0.30148402,27.375,28.625,27.875,31.8125,33.8125,34.75
0.35755202,-1.7490485,-1.0671041,-0.8363929,-0.034351036,0.046019856,-0.11225351,-0.41178983,-0.35394925,0.059928592,-3.0655746,0.6282982,-0.00030167436,-0.17113706,-0.023945699,-0.0014934374,0.06545541,-0.022673352,-0.031398103,0.46579763,-1.3603303,1.8756388,-2.0768292,-1.5802549,2.4446344,-0.075910315,0.36039123,-0.46314272,0.15217057,-0.049298882,-0.043842163,-0.05746084,0.15322891,-9.998186,1.0126908,47.619713,-0.6471612,-2.120965,-3.8452005,-0.11557121,-0.46088052,-0.31715488,27.375,28.625,27.875,31.8125,33.8125,34.75
0.36005262,-0.6961512,0.46291214,-0.3827358,0.012451974,0.023681875,-0.10862433,-0.41248325,-0.35406286,0.0599566,-3.0653293,0.6284739,-0.00034985621,-0.17076866,-0.021406548,-0.0019710907,0.07573814,-0.028315961,-0.030128522,0.46548572,-1.3589264,1.8737463,-2.0761912,-1.5804013,2.4444664,-0.075606756,0.3634508,-0.46885917,0.16447978,-0.055968177,-0.044737305,-0.34476504,0.21068975,-9.653421,0.9992599,47.66091,-0.67379844,-2.067402,-3.669868,-0.28814417,-0.43258566,-0.31830013,27.375,28.625,27.875,31.8125,33.8125,34.75
0.36255166,-0.61042225,0.6815332,-0.6831424,0.043304954,0.0035140384,-0.10725624,-0.41281024,-0.35407805,0.059925485,-3.0650716,0.62847346,-0.0003999448,-0.17205244,-0.022777596,-0.0011211615,0.0752167,-0.024294764,-0.028631812,0.46534258,-1.3581822,1.8728489,-2.075857,-1.580582,2.4443583,-0.073466465,0.36455113,-0.47193575,0.16262414,-0.057329144,-0.044069733,-0.114921674,0.17238253,-9.691729,0.9992599,47.657326,-0.8950093,-2.018961,-3.7232087,-0.29914084,-0.42477894,-0.3310631,27.375,28.625,27.875,31.8125,33.8125,34.75
0.36505187,-0.5260932,4.4570108e-05,-0.27682596,0.011696469,0.022549724,-0.10877806,-0.41317865,-0.3541367,0.059953813,-3.0649402,0.62855977,-0.00038090948,-0.17523938,-0.022717828,0.00070417573,0.07520239,-0.015543364,-0.028962905,0.46518645,-1.3574638,1.8718432,-2.0755112,-1.5806793,2.4442744,-0.07377225,0.36374807,-0.47429892,0.15796466,-0.06126928,-0.04400259,-0.076614454,0.19153613,-9.576807,1.0328293,47.6421,-0.8621402,-1.8688741,-3.8409941,-0.26394182,-0.4018563,-0.36632508,27.375,28.625,27.875,31.8125,33.8125,34.75
0.36755183,-1.282875,-1.1427996,-0.20061064,-0.036117498,0.03924152,-0.10927429,-0.4135442,-0.35417733,0.059965286,-3.064776,0.6285623,-0.00024885085,-0.18083708,-0.023044316,0.002540319,0.07295439,-0.002908273,-0.030016692,0.4650537,-1.3567561,1.8709081,-2.0752513,-1.58086,2.444166,-0.075633794,0.36488584,-0.4778669,0.14808345,-0.06497186,-0.04477114,-0.05746084,0.17238252,-9.442732,0.97464454,47.629562,-0.6791032,-1.6859212,-3.8236322,-0.16571319,-0.3294629,-0.38374555,27.375,28.625,27.875,31.8125,33.8125,34.75
0.37005192,-1.9293437,-1.8627871,-0.33412516,-0.059730552,0.056640025,-0.09531516,-0.4142368,-0.35426664,0.05997051,-3.0644383,0.62869656,-0.00028372332,-0.18512064,-0.023941549,0.0017287954,0.07488733,0.0034986204,-0.026450953,0.4647542,-1.3553147,1.8690146,-2.0745952,-1.5810894,2.4439971,-0.07472299,0.3723069,-0.48403388,0.14192948,-0.06964139,-0.04736441,-0.038307227,0.11492168,-9.595961,1.0731167,47.66987,-0.8586999,-1.9205594,-3.7186732,-0.03530181,-0.25733876,-0.3619353,27.375,28.625,27.875,31.8125,33.8125,34.75
0.372552,-1.3907362,-1.3061693,-0.26901788,-0.041430775,0.054312445,-0.099303834,-0.41462025,-0.35431334,0.059992056,-3.0642998,0.6287416,-0.000113639784,-0.18680096,-0.02396629,0.0016669623,0.07609258,0.004323443,-0.025628036,0.46461004,-1.3546058,1.8680581,-2.0743554,-1.5812587,2.4439003,-0.075115934,0.37536576,-0.4879424,0.14255677,-0.0711098,-0.048565187,-0.05746084,0.21068975,-9.576807,0.94331104,47.653748,-0.8248849,-1.8817216,-3.7641096,-0.017556112,-0.23338804,-0.3652596,27.375,28.625,27.875,31.8125,33.8125,34.75
0.37505227,-1.1805465,-1.1952153,-0.03848022,-0.0038386057,0.030914418,-0.10253529,-0.4150067,-0.35437727,0.06000583,-3.0641942,0.62883204,-1.8315412e-05,-0.18680005,-0.024791222,0.0012692774,0.07713557,0.001776009,-0.02222935,0.4644546,-1.3538617,1.8670753,-2.0741127,-1.581366,2.4438162,-0.07373917,0.37856105,-0.49191406,0.14603975,-0.070923686,-0.050587747,-0.13407528,0.34476504,-9.423578,0.98135734,47.65464,-0.8650898,-2.0142214,-3.6775942,-0.017138373,-0.19302383,-0.354321,27.375,28.625,27.875,31.8125,33.8125,34.75
0.37755236,-1.1730021,-0.37754896,-0.17273867,0.013645886,-0.005462119,-0.09745897,-0.4153722,-0.3544378,0.060032975,-3.0640805,0.6287482,8.674018e-05,-0.18572588,-0.02307977,0.0011634548,0.08130928,-0.0018989027,-0.021300254,0.46433443,-1.3531548,1.866094,-2.0738127,-1.5815109,2.4436595,-0.07434358,0.37777317,-0.49233654,0.15238085,-0.07301396,-0.05209974,-0.19153613,0.38307226,-9.289503,1.0149267,47.63315,-0.8674299,-1.8511453,-3.8021092,-0.0060320636,-0.16599417,-0.33914286,27.375,28.625,27.875,31.8125,33.8125,34.75
0.38007247,-0.20225409,-0.56590414,0.23605178,-0.003914727,-0.019916575,-0.09622445,-0.41611448,-0.3545374,0.060032204,-3.0637283,0.62878144,0.00012628472,-0.1828089,-0.023260972,0.0008273581,0.08334518,-0.014640786,-0.01676878,0.46404684,-1.3516077,1.8640832,-2.0731614,-1.5817975,2.4434416,-0.073732845,0.3799492,-0.49827248,0.16835317,-0.06916187,-0.056045797,-0.17238252,0.36391866,-9.078813,1.0395473,47.652847,-1.0167228,-1.6440382,-3.7618005,-0.16741377,-0.14198017,-0.3031035,27.375,28.625,27.875,31.8125,33.8125,34.75
0.38260177,-0.038948007,-0.6198396,0.33437607,-0.024387348,-0.023023091,-0.09948561,-0.41651183,-0.3545724,0.06007194,-3.0635679,0.628822,0.0002780467,-0.18261975,-0.022991652,6.852015e-05,0.08589335,-0.018971581,-0.014514724,0.46387854,-1.350899,1.8630646,-2.0728366,-1.5819772,2.443321,-0.07370144,0.38312304,-0.50178295,0.17365809,-0.06952679,-0.0582631,-0.11492168,0.28730422,-9.136273,0.99702406,47.650166,-0.99573076,-1.6256658,-3.8873062,-0.2485385,-0.12490433,-0.2437815,27.375,28.625,27.875,31.8125,33.8125,34.75
0.38505676,-0.6679343,-1.2491796,0.6385047,-0.04224126,-0.015664218,-0.095516674,-0.41687086,-0.35461846,0.06006605,-3.0633643,0.6287368,0.00023374037,-0.18572828,-0.025451256,0.002711684,0.07993,-0.014163617,-0.013465552,0.4637466,-1.3501068,1.8620328,-2.0724418,-1.5821327,2.443164,-0.074022405,0.38405973,-0.50908715,0.17301263,-0.06638998,-0.059652925,-0.038307227,0.21068975,-9.021352,1.0305934,47.670765,-1.0108588,-1.6943725,-3.6289072,-0.262473,-0.10590109,-0.23159942,27.375,28.625,27.875,31.8125,33.8125,34.75
0.38759837,-1.2633001,-1.6603491,0.8586921,-0.046180863,-0.008876631,-0.098305,-0.41724312,-0.35465586,0.06004739,-3.063159,0.6288428,0.00017007462,-0.18738489,-0.027957084,0.0030370902,0.0743111,-0.010837491,-0.009209868,0.46356675,-1.3493034,1.8610266,-2.072097,-1.5822514,2.443079,-0.07322587,0.38619962,-0.511573,0.16779943,-0.062917255,-0.063138574,-0.13407528,0.17238252,-8.868123,1.0238806,47.651955,-1.0439082,-1.5204681,-3.6005793,-0.21439105,-0.14396946,-0.16675368,27.375,28.625,27.875,31.8125,33.8125,34.75
0.39005762,-1.2378397,-0.93715996,0.64197904,-0.020444436,0.0046349894,-0.088287815,-0.41798106,-0.35478514,0.0600443,-3.0628955,0.62878513,0.00016154164,-0.19283716,-0.031532295,0.0026097246,0.06559424,-0.0034117275,-0.012043288,0.46329042,-1.3477421,1.8590025,-2.0714657,-1.5824655,2.4428036,-0.07433859,0.39405382,-0.51807284,0.15587963,-0.05848736,-0.0614516,-0.019153614,0.24899697,-8.925584,1.0596858,47.64658,-0.9280759,-1.7419527,-3.4320793,-0.016798902,-0.18731298,-0.1452304,27.375,28.625,27.875,31.8125,33.8125,34.75
0.39259765,-0.91167474,-0.708296,0.54386985,-0.026614798,0.015008037,-0.10146083,-0.4183923,-0.35486752,0.06009578,-3.0628169,0.62886155,0.00030465878,-0.19373535,-0.033202734,0.0018961877,0.063541524,-0.0014122395,-0.009338007,0.46314707,-1.3469977,1.8579143,-2.0711567,-1.5825733,2.4427192,-0.07275046,0.3970593,-0.5193824,0.15144637,-0.05757023,-0.06258018,-0.076614454,0.3256114,-8.887277,1.0082139,47.623295,-1.1923182,-1.7956281,-3.7214077,0.051000983,-0.20024386,-0.10066934,27.375,28.625,27.875,31.8125,33.8125,34.75
0.3950537,-0.7857188,-0.9852137,0.7364894,-0.020736482,0.0049360567,-0.10616758,-0.418768,-0.35492802,0.060090452,-3.0626729,0.6288517,0.00025546874,-0.19412515,-0.03154726,0.00072005345,0.06475448,-0.0054364298,-0.014682814,0.46298996,-1.3461933,1.8568734,-2.0708086,-1.5826691,2.4425762,-0.07618946,0.39903814,-0.52001303,0.15424573,-0.056847323,-0.0606758,-0.038307227,0.4213795,-8.963891,1.0663986,47.6636,-1.0805856,-1.7799394,-3.8120704,0.062772475,-0.23613879,-0.07472901,27.375,28.625,27.875,31.8125,33.8125,34.75
0.3975519,-0.9805376,-1.666877,0.6661257,-0.019221544,-0.0148594435,-0.09066769,-0.41915408,-0.35496554,0.06006606,-3.0624726,0.62892306,0.00028227188,-0.19439064,-0.0328089,0.0026209573,0.06406766,-0.0042455513,-0.015721817,0.46282262,-1.3453789,1.8558792,-2.0705311,-1.5828255,2.4424813,-0.07425223,0.3981883,-0.5244715,0.1581988,-0.05674912,-0.057694327,-0.2873042,0.51714754,-8.944737,1.0462601,47.661808,-1.0265368,-1.6260061,-3.7829518,0.07030515,-0.21921003,-0.105943084,27.375,28.625,27.875,31.8125,33.8125,34.75
0.40005192,-0.5835245,-1.4978108,0.36678973,-0.051976286,0.002504921,-0.09937249,-0.41992268,-0.35508537,0.060080085,-3.0621686,0.6288956,0.00026993526,-0.1925715,-0.030963125,0.0019709938,0.069783054,-0.017426241,-0.020085352,0.462522,-1.3437829,1.8537477,-2.069805,-1.5830649,2.4422061,-0.07609453,0.40146494,-0.5315338,0.17632838,-0.055952676,-0.055169884,-0.26815057,0.51714754,-8.983045,1.0798295,47.667187,-1.1158236,-1.5550537,-3.6366591,-0.07559398,-0.24152842,-0.11428596,27.375,28.625,27.875,31.8125,33.8125,34.75
0.40255216,-1.437295,-1.7761637,0.47193256,-0.038283475,-0.0011280619,-0.08634416,-0.4202803,-0.35518306,0.060059432,-3.0620334,0.62888515,0.000116285475,-0.1892431,-0.029500281,-0.0010605507,0.07473245,-0.030768018,-0.0219548,0.46241376,-1.3429183,1.8526577,-2.06942,-1.5831126,2.4421105,-0.076601654,0.40533674,-0.5320372,0.18711118,-0.054407038,-0.053815927,-0.34476504,0.5554548,-9.002198,1.044019,47.65643,-1.0657804,-1.5934625,-3.6839933,-0.1983836,-0.2883023,-0.10909006,27.375,28.625,27.875,31.8125,33.8125,34.75
0.4050522,-1.1326878,-0.9483301,0.49464968,-0.037617236,0.023851562,-0.10321412,-0.42070138,-0.35521436,0.060059242,-3.0617955,0.62904483,0.00016378917,-0.18899778,-0.029117763,-0.0027374923,0.07646066,-0.036264315,-0.0253178,0.46222165,-1.3420781,1.8515567,-2.06906,-1.5832924,2.4420514,-0.077474095,0.40953925,-0.534518,0.19108771,-0.053491987,-0.05132935,-0.40222588,0.4405331,-9.11712,1.0843065,47.6421,-1.1103898,-1.7677072,-3.8791008,-0.26852697,-0.3255239,-0.15463334,27.375,28.625,27.875,31.8125,33.8125,34.75
0.4075522,-1.4089599,-1.0970742,0.7713106,-0.027987849,0.039599758,-0.09962088,-0.4210887,-0.3553166,0.060067985,-3.061715,0.6290472,8.951871e-05,-0.19235499,-0.03014625,-0.0012694655,0.073185034,-0.030887548,-0.028355848,0.4620891,-1.3412379,1.8504313,-2.0686905,-1.5833277,2.441932,-0.0787819,0.4111491,-0.53949934,0.18819715,-0.052971102,-0.04959905,-0.11492168,0.28730422,-9.078813,1.0552088,47.66091,-1.016647,-1.8522542,-3.792115,-0.27106386,-0.35832888,-0.15653902,27.375,28.625,27.875,31.8125,33.8125,34.75
0.41005245,-1.5725352,-0.3859933,0.34745002,0.0053138444,0.029507497,-0.09973451,-0.42187318,-0.35541707,0.060017135,-3.0612965,0.6292429,-2.27862e-05,-0.20148449,-0.03370908,0.0007219529,0.06481675,-0.011027927,-0.031213393,0.46175292,-1.3395098,1.8482865,-2.067991,-1.5835804,2.4417768,-0.079380214,0.41690782,-0.5474369,0.16887288,-0.054401804,-0.047305863,-0.095768064,0.076614454,-8.983045,1.1022091,47.691364,-0.9788884,-2.0122566,-3.480694,-0.055994257,-0.40942806,-0.19123033,27.375,28.625,27.875,31.8125,33.8125,34.75
0.4125526,-0.9536758,-0.09899351,0.21280134,-0.01842039,0.038297005,-0.106954195,-0.42227212,-0.35551283,0.060038105,-3.061192,0.62918,1.7462857e-05,-0.2027271,-0.033751458,0.00045588068,0.06529621,-0.008563559,-0.03226549,0.46164507,-1.3386817,1.8471493,-2.0676324,-1.5836896,2.4416444,-0.07932536,0.41847262,-0.54848075,0.16636853,-0.055932347,-0.04617845,-0.17238252,0.038307227,-9.232041,0.98807013,47.65643,-1.0432585,-1.905108,-3.564926,0.009884349,-0.40535116,-0.22341704,27.375,28.625,27.875,31.8125,33.8125,34.75
0.41505167,-1.2516184,-0.76543087,-0.06157856,-0.008527276,0.024387503,-0.090918176,-0.42267302,-0.35556558,0.060021613,-3.06102,0.6292587,-1.9778676e-05,-0.2038407,-0.031184278,8.857484e-05,0.06885033,-0.009532993,-0.035758693,0.46146387,-1.3378305,1.8460735,-2.0672963,-1.5837983,2.4415367,-0.08274388,0.4190349,-0.54918975,0.16896263,-0.05868956,-0.046065707,-0.24899697,0.095768064,-9.289502,1.0462601,47.670765,-0.7989378,-1.8493203,-3.7256165,0.04699692,-0.40616995,-0.24861935,27.375,28.625,27.875,31.8125,33.8125,34.75
0.41755182,-1.9667931,-0.89455175,-0.2655504,0.0012211936,0.009652346,-0.08689973,-0.42309648,-0.35563502,0.060012024,-3.0608606,0.62939537,-3.8198992e-05,-0.20271908,-0.031041162,-0.001717762,0.07395933,-0.013289063,-0.03331894,0.46128467,-1.3369423,1.8449358,-2.0669596,-1.5838951,2.4414654,-0.08017127,0.42285335,-0.550802,0.17239231,-0.061597873,-0.04589309,-0.45968673,0.095768064,-9.3661175,1.005978,47.65106,-1.032539,-1.9669824,-3.8548355,0.071065724,-0.39424878,-0.24835095,27.375,28.625,27.875,31.8125,33.8125,34.75
0.4200519,-1.6217883,0.37953952,-0.32746965,0.024924943,0.023366898,-0.0927598,-0.42389223,-0.35574165,0.05998532,-3.0604632,0.629498,-0.00011329418,-0.20207316,-0.027007252,-0.0041901506,0.08842032,-0.02694844,-0.035390276,0.46096,-1.335225,1.8427318,-2.0662105,-1.5841616,2.4412608,-0.08197929,0.4309975,-0.56005186,0.19216281,-0.0684711,-0.045528185,-0.34476504,-0.076614454,-9.519346,1.0328293,47.689575,-0.78170925,-2.2288072,-3.7994134,-0.10445213,-0.35287392,-0.26978076,27.375,28.625,27.875,31.8125,33.8125,34.75
0.42255184,-1.3198369,0.6626228,-0.6827211,0.05596558,0.019684382,-0.09629819,-0.42432478,-0.35581088,0.059994373,-3.060303,0.62963367,-0.000105421204,-0.19988379,-0.02605144,-0.005100154,0.093085416,-0.03431431,-0.034584712,0.46078056,-1.3343493,1.8415569,-2.0658367,-1.5842699,2.4411888,-0.08108546,0.4322291,-0.561827,0.2013662,-0.06937053,-0.04542398,-0.4405331,-0.05746084,-9.557653,0.9768804,47.652847,-0.9563687,-2.2309926,-3.834484,-0.20920599,-0.30593994,-0.31396824,27.375,28.625,27.875,31.8125,33.8125,34.75
0.42505187,-1.3418331,0.70679605,-0.48955774,0.040391773,0.035246056,-0.099179305,-0.42472422,-0.35587835,0.059969038,-3.0601044,0.6296265,-0.00013692857,-0.20077555,-0.024862334,-0.006296842,0.095910475,-0.035315927,-0.034171514,0.46064803,-1.3334494,1.8404335,-2.0654776,-1.5844148,2.4410799,-0.08242099,0.43504614,-0.56297463,0.2018188,-0.07149192,-0.047137555,-0.4405331,-0.076614454,-9.615114,1.0194036,47.67345,-0.93271166,-2.2195623,-3.9648652,-0.2632707,-0.31207246,-0.31076843,27.375,28.625,27.875,31.8125,33.8125,34.75
0.42755193,-1.573846,0.2031558,-0.60776246,0.027237719,0.046503913,-0.09640784,-0.42513984,-0.35591626,0.059955478,-3.0598586,0.62968814,-0.00017042462,-0.20440458,-0.02493988,-0.004240696,0.096145,-0.024462568,-0.035496566,0.4604681,-1.3325617,1.8392853,-2.0650609,-1.5845846,2.440973,-0.08213662,0.43411377,-0.565434,0.1956132,-0.076547965,-0.045454036,-0.34476504,-0.038307227,-9.691729,1.0126908,47.65643,-0.9547812,-2.2553015,-3.9633732,-0.22790492,-0.2475247,-0.34785122,27.375,28.625,27.875,31.8125,33.8125,34.75
0.43005213,-2.7500432,-1.4009504,-0.5610952,-0.065986075,0.08176825,-0.105275586,-0.42598113,-0.35599896,0.05994026,-3.0594234,0.62987757,-0.00016840106,-0.21181133,-0.026969818,-0.00075675617,0.091155246,-0.0071148598,-0.036482897,0.46009618,-1.3308231,1.8370203,-2.0642993,-1.5848974,2.4407809,-0.08266088,0.43556014,-0.57327294,0.18422404,-0.07985389,-0.044931144,-0.3256114,-0.076614454,-9.998186,1.1133988,47.670765,-0.94469225,-1.9560971,-3.9133196,-0.04962045,-0.18184747,-0.4075094,27.375,28.625,27.875,31.8125,33.8125,34.75
0.43255255,-2.989468,-2.2221663,-0.86254334,-0.06307392,0.07090621,-0.08565072,-0.42639807,-0.3560618,0.059922345,-3.0591972,0.6299033,-0.00014995006,-0.21348985,-0.026708402,-0.0015305497,0.093100965,-0.0068656085,-0.035837036,0.45996377,-1.3299104,1.8358592,-2.063928,-1.5850781,2.4406965,-0.08324097,0.43959695,-0.57683074,0.18435696,-0.08174116,-0.04612255,-0.40222588,-0.038307227,-10.055647,1.0261165,47.65106,-0.91292775,-2.1729655,-3.8611379,-0.034411497,-0.12877554,-0.42349315,27.375,28.625,27.875,31.8125,33.8125,34.75
0.43505278,-2.1795301,-1.3378234,-0.91500247,-0.03426791,0.052155733,-0.087307505,-0.42680556,-0.35610878,0.059913833,-3.0590088,0.6300136,-0.00014966996,-0.21443279,-0.026880521,-0.0025916062,0.09298704,-0.009174793,-0.03511033,0.45978352,-1.3290696,1.8347691,-2.0635803,-1.5852093,2.4406118,-0.08426532,0.44364426,-0.5799603,0.1854082,-0.08065198,-0.04787923,-0.3256114,-0.019153614,-9.9790325,1.0126908,47.65106,-0.79302835,-2.2944772,-3.8191118,-0.0015301793,-0.10665092,-0.42075887,27.375,28.625,27.875,31.8125,33.8125,34.75
0.43755186,-0.9473079,-0.15694153,-1.2712277,0.018394126,0.012979842,-0.09041459,-0.4272696,-0.35617238,0.059919868,-3.058838,0.63016766,-6.7655965e-05,-0.2130409,-0.02679313,-0.0032384947,0.092648484,-0.015603222,-0.037781816,0.45959145,-1.3281589,1.8335613,-2.0632422,-1.5853523,2.4405403,-0.085028954,0.44467124,-0.5814698,0.19149546,-0.07747593,-0.04600915,-0.30645782,0.076614454,-10.036493,1.0529729,47.678825,-0.85367763,-2.2609775,-3.980494,-0.025582839,-0.116476096,-0.45673212,27.375,28.625,27.875,31.8125,33.8125,34.75
0.44005188,0.09028571,0.1514538,-1.0500052,0.026991988,-0.047157966,-0.0964572,-0.42809498,-0.35626802,0.05988821,-3.058398,0.6303153,-9.709213e-05,-0.20914415,-0.026109653,-0.0038684737,0.096050315,-0.031372476,-0.03385926,0.4592554,-1.3263958,1.8312973,-2.062482,-1.5856632,2.4403589,-0.085046485,0.4462664,-0.5869686,0.21092923,-0.07357816,-0.049981177,-0.22984336,0.1340753,-9.768343,1.1514504,47.661808,-0.86985344,-2.1060185,-4.2177315,-0.18096603,-0.13009652,-0.4823839,27.375,28.625,27.875,31.8125,33.8125,34.75
0.4425523,0.72047836,0.25644007,-1.0868752,0.007314866,-0.05642326,-0.09757474,-0.42853048,-0.35632235,0.05990442,-3.0581975,0.6303469,-6.3316016e-05,-0.21076725,-0.026807558,-0.0013135839,0.09130395,-0.03097495,-0.034024406,0.4590863,-1.3255208,1.830088,-2.0620496,-1.5858296,2.440238,-0.08751309,0.44484046,-0.59233385,0.21519016,-0.069545485,-0.05232906,-0.17238252,0.095768064,-9.921572,1.0462601,47.63852,-0.6263157,-1.994435,-3.9633312,-0.26345164,-0.17412695,-0.4708636,27.375,28.625,27.875,31.8125,33.8125,34.75
0.44505268,-0.22950108,-1.0188422,-0.72596073,-0.0320382,-0.03812657,-0.09233904,-0.42896044,-0.3563745,0.059891857,-3.0580087,0.63041645,-0.00014090548,-0.21257196,-0.029606212,-0.00055159885,0.08767486,-0.02715931,-0.028985718,0.45888335,-1.3246086,1.8289002,-2.061632,-1.5859374,2.4401054,-0.08513178,0.44770178,-0.5973251,0.21222638,-0.06805318,-0.054996237,-0.019153614,0.038307227,-9.749189,1.0820653,47.625084,-0.8581276,-1.8846594,-3.8461027,-0.25441885,-0.19368124,-0.45666713,27.375,28.625,27.875,31.8125,33.8125,34.75
0.44755262,-0.93909425,-1.7318429,-1.0279976,-0.053342246,-0.002334189,-0.105369054,-0.42934245,-0.35642767,0.05987986,-3.057757,0.6304162,-0.00024606497,-0.21853945,-0.030513018,0.00045733765,0.08285993,-0.017167408,-0.029340465,0.45875043,-1.3237326,1.8277406,-2.0611446,-1.5860933,2.4400082,-0.08830624,0.45139223,-0.6023825,0.20244281,-0.06824901,-0.05779913,0.1340753,-0.038307227,-9.730036,1.0126908,47.62598,-0.75201607,-2.0348287,-3.7476473,-0.15014313,-0.20202376,-0.44384676,27.375,28.625,27.875,31.8125,33.8125,34.75
0.45005435,-2.645262,-2.7185378,-0.47051933,-0.111944266,0.07378367,-0.093450576,-0.4302315,-0.3565628,0.05992479,-3.0574985,0.63050663,-0.00016258404,-0.2197763,-0.03424117,-0.00037512736,0.07446668,-0.015346265,-0.022480916,0.45837882,-1.3220048,1.8253344,-2.0603683,-1.5863189,2.4397302,-0.08684343,0.4554022,-0.6046162,0.1951723,-0.061641857,-0.063281834,-0.095768064,0.3256114,-9.864111,1.17383,47.67614,-0.7799171,-2.0351377,-4.0296063,-0.00910158,-0.29837343,-0.37271452,27.375,28.625,27.875,31.8125,33.8125,34.75
0.45255277,-1.7736089,-2.6540487,-0.8296773,-0.06623121,0.055889916,-0.10289364,-0.43070352,-0.35663623,0.059939943,-3.0573707,0.63053274,-4.6757832e-05,-0.22058715,-0.035534028,0.0016301244,0.07353062,-0.015072728,-0.018713752,0.45819926,-1.3210933,1.8240999,-2.0600321,-1.5864629,2.4395852,-0.08564186,0.45570382,-0.61111724,0.20064975,-0.060965482,-0.06585545,0.019153614,0.47884035,-9.787497,1.0843065,47.625084,-0.76214087,-2.0026274,-3.9362807,-0.013372398,-0.31798172,-0.3425848,27.375,28.625,27.875,31.8125,33.8125,34.75
0.45505208,-1.5353283,-2.0127692,-0.97923076,-0.0419652,0.008503466,-0.08241188,-0.43114224,-0.35670152,0.05994713,-3.0571938,0.630626,-6.1056635e-05,-0.21872687,-0.034842685,0.000954326,0.07707491,-0.023476798,-0.016703095,0.4580193,-1.3201933,1.8228778,-2.0596097,-1.5865825,2.439489,-0.085437074,0.45758808,-0.61459345,0.21129793,-0.060448185,-0.06766224,-0.49799395,0.6703765,-9.9790325,1.0843065,47.625084,-0.89102376,-1.9337488,-3.9065297,-0.09697043,-0.36231995,-0.28895158,27.375,28.625,27.875,31.8125,33.8125,34.75
0.45755234,-0.53037196,-1.5692198,-0.82066566,-0.031556007,-0.02217344,-0.09460325,-0.4315899,-0.35675514,0.05994814,-3.0570047,0.63067627,-5.56492e-05,-0.21636938,-0.033557095,-7.053626e-05,0.0817018,-0.03201659,-0.014889643,0.45782757,-1.3192818,1.8216575,-2.0591981,-1.5867265,2.4393556,-0.08525858,0.45872036,-0.61623317,0.22146554,-0.06084145,-0.06928598,-0.30645782,0.7086837,-9.768343,1.0552088,47.625084,-0.9096004,-1.7828288,-3.970735,-0.20456654,-0.36746675,-0.2722334,27.375,28.625,27.875,31.8125,33.8125,34.75
0.46005234,-0.5042705,-1.7741401,-0.2629873,-0.03898667,-0.02030331,-0.091846675,-0.43246537,-0.35692146,0.059969585,-3.0567122,0.6306467,-0.000109120054,-0.219777,-0.035190284,0.0009078262,0.08086596,-0.026008464,-0.012829959,0.45751593,-1.317446,1.8191408,-2.0583146,-1.5869435,2.4390676,-0.083933204,0.46257597,-0.62340987,0.21899013,-0.06281082,-0.06997977,-0.3256114,0.57460845,-9.442732,1.17383,47.65912,-0.9783535,-1.7555375,-4.1840625,-0.21126154,-0.40098363,-0.2154612,27.375,28.625,27.875,31.8125,33.8125,34.75
0.46255237,-1.298586,-2.1754878,-0.15159637,-0.06552276,0.02337023,-0.094241485,-0.43294662,-0.35698304,0.060008496,-3.0565622,0.63074857,-5.176076e-06,-0.22652419,-0.036649305,0.0026684294,0.0754459,-0.014383782,-0.015485876,0.45731106,-1.3165572,1.8178595,-2.0578992,-1.587088,2.438948,-0.08668298,0.4665492,-0.6306082,0.20936921,-0.06313411,-0.070066385,0.019153614,0.45968673,-9.308656,1.1133988,47.639416,-0.8746239,-1.9009726,-3.7832198,-0.1017069,-0.43234357,-0.186851,27.375,28.625,27.875,31.8125,33.8125,34.75
0.46505195,-2.479017,-2.7593126,-0.032903265,-0.07243254,0.051158287,-0.08797638,-0.4334192,-0.35707504,0.06003884,-3.0564585,0.6307421,0.00011414126,-0.22873513,-0.038659528,0.0035162205,0.07488748,-0.008737172,-0.013949412,0.45715612,-1.3156456,1.8165783,-2.0575287,-1.5872201,2.438804,-0.08386395,0.4693519,-0.6357111,0.20636648,-0.06513478,-0.0687544,-0.076614454,0.38307226,-9.346964,1.0731167,47.650166,-0.933056,-1.8609982,-3.6652832,0.0065298807,-0.43573633,-0.15826043,27.375,28.625,27.875,31.8125,33.8125,34.75
0.46755183,-2.340205,-2.8381584,0.49384734,-0.084252805,0.10948669,-0.09695929,-0.4338711,-0.35714522,0.06003114,-3.056278,0.6307806,7.325931e-05,-0.23031148,-0.03800076,0.003870974,0.07631206,-0.0062109698,-0.01925892,0.45697594,-1.314686,1.8153099,-2.0570977,-1.5873412,2.4386737,-0.08468726,0.4701705,-0.63784075,0.20610315,-0.06749154,-0.06422599,-0.15322891,0.45968673,-9.270349,1.1089219,47.612545,-1.1011524,-1.8609734,-3.6665273,0.044309977,-0.43501127,-0.18943252,27.375,28.625,27.875,31.8125,33.8125,34.75
