Tylouw/Master_Thesis_Code/trial6/insertion_8_2026-01-23_15-25-37.csv
num_insertion,tcp_force_x[N],tcp_force_y[N],tcp_force_z[N],tcp_force_rx[Nm?],tcp_force_ry[Nm?],tcp_force_rz[Nm?],tcp_pose_x[m],tcp_pose_y[m],tcp_pose_z[m],tcp_pose_rx[rot_vec_x],tcp_pose_ry[rot_vec_y],tcp_pose_rz[rot_vec_z],tcp_velo_x[m/s],tcp_velo_y[m/s],tcp_velo_z[m/s],tcp_velo_rx[rot_vec_x/s],tcp_velo_ry[rot_vec_y/s],tcp_velo_rz[rot_vec_z/s],q1[rad],q2[rad],q3[rad],q4[rad],q5[rad],q6[rad],qd1[rad/s],qd2[rad/s],qd3[rad/s],qd4[rad/s],qd5[rad/s],qd6[rad/s],tool_acc_x,tool_acc_y,tool_acc_z,current_of_whole_robot[A],voltage_of_whole_robot[V],current_J1[A],current_J2[A],current_J3[A],current_J4[A],current_J5[A],current_J6[A],temp_J1[C],temp_J2[C],temp_J3[C],temp_J4[C],temp_J5[C],temp_J6[C]
1.0,0.3492898898875241,0.1297094098447154,-0.8859522553895545,-0.013361118088640274,-0.01876811659963226,-0.11652795123121187,-0.538870150899148,-0.3244659666136445,0.26000911280460226,-3.0786149595419428,0.6248875381893211,0.00013026645437634027,0.002128780893967158,-0.0007591649411997466,0.0006921262883820675,-0.001009551793087597,0.003472032299513086,0.0020114732573880637,0.3265138566493988,-1.1518789690783997,1.6623428503619593,-2.0797559223570765,-1.5714176336871546,2.3015689849853516,0.0023110953625291586,-0.004136955365538597,0.005253988318145275,-0.004728780593723059,-0.00015697516209911555,0.0002978270349558443,0.5746084451675415,-0.26815059781074524,-9.117119789123535,0.7306999564170837,47.68419647216797,-0.22001659870147705,-4.205578804016113,-2.727604866027832,-0.38854116201400757,-0.022622540593147278,-0.15253408253192902,28.0625,29.9375,28.5625,32.3125,34.875,36.0
1.0,0.6260138160052879,0.6921178261372556,-1.127548227640866,0.01588165830095117,-0.039251533545160776,-0.11193713619855336,-0.5388333187836114,-0.3244935305402691,0.2600183341301492,-3.0786484222507804,0.6247793453929159,0.00012379491955910043,0.0007245764483662226,-0.0010145563247035171,0.002355626641964335,-0.002048538719094841,0.006496230337778831,0.0016956001278130698,0.3265736997127533,-1.1519268912127991,1.6623886267291468,-2.0797559223570765,-1.5714057127581995,2.3015570640563965,0.0019664608407765627,-0.0035290331579744816,0.00040927407098934054,-0.0036896844394505024,-0.0001516831835033372,0.00026908167637884617,0.3064578175544739,-0.1149216741323471,-9.136273384094238,0.7956027388572693,47.70121383666992,-0.17316608130931854,-4.246116638183594,-2.4151697158813477,-0.38650456070899963,-0.02178673818707466,-0.16750243306159973,28.0625,29.9375,28.5625,32.3125,34.875,36.0
1.0,-0.16620016855661818,0.5434256668905919,-1.3576920803327353,0.012035860729218162,-0.04434088095736413,-0.1087319009431916,-0.5388292639491822,-0.3244880311457706,0.26000036754826217,-3.0786541164572827,0.6247221246055116,-4.6459588201325405e-06,0.0005122696650021365,-0.0008146810017403113,0.0017331037128468184,-0.0013793341540111078,0.004513112436916355,0.0013008276671210607,0.32656151056289673,-1.1519144636443635,1.66240102449526,-2.07970728496694,-1.571369473134176,2.3015084266662598,0.001546624582260847,-0.002456796122714877,5.490934199769981e-06,-0.002265184186398983,-0.00014673684199806303,0.0002447246515657753,0.0,0.1149216815829277,-9.21288776397705,0.7486078143119812,47.687782287597656,-0.1614176481962204,-4.255187511444092,-2.3577146530151367,-0.3965092897415161,-0.01624160073697567,-0.1733279675245285,28.0625,29.9375,28.5625,32.3125,34.875,36.0
1.0,-2.2852703579796607,-2.2623014723835784,-1.4027006391676404,-0.11325401281060207,0.0908799233400177,-0.10395859650868812,-0.5388321229981923,-0.3244836501084374,0.2600115579111002,-3.078634974056502,0.6248538189882169,-5.8756142062001897e-05,0.0006803862372578621,-0.000379568737862419,-0.00047962702870672287,0.00033508909346401556,-0.0005543964287795215,0.0007567993996457718,0.3265494108200073,-1.1519256991199036,1.662377659474508,-2.079646726647848,-1.571345631276266,2.3015809059143066,0.0009638742194510996,-0.0001998518710024655,0.001517939381301403,-0.0006849521887488663,-0.00013775219849776477,0.00020714091078843921,-0.2298433631658554,0.325611412525177,-9.327810287475586,0.6568484306335449,47.70927429199219,-0.17544054985046387,-3.9864864349365234,-2.1347973346710205,-0.48630887269973755,-0.02721249684691429,-0.1793193817138672,28.0625,29.9375,28.5625,32.3125,34.875,36.0
1.0,-2.7614682120351812,-3.151055742385985,-0.9322258786147607,-0.1515501512932455,0.15539368879594168,-0.11246741943620357,-0.5388291219751274,-0.32448383825042004,0.26000664567186704,-3.0786632098874662,0.6247626214103366,-7.026142204212512e-05,0.0023859582624400763,0.0002793482503531418,-0.0034250524744396547,0.0024745028575084557,-0.006838955436754138,0.0006526338939085188,0.32654935121536255,-1.1519256395152588,1.662391487752096,-2.0796591244139613,-1.5713337103473108,2.301520347595215,0.0008442418184131384,-2.681267687876243e-06,0.007895207963883877,-0.0006206700927577913,-0.00013366011262405664,0.00019237118249293417,-0.325611412525177,0.24899697303771973,-9.385271072387695,0.7217512726783752,47.6707649230957,-0.1822407841682434,-3.9593348503112793,-2.5015714168548584,-0.5200319290161133,-0.007453179452568293,-0.1745530068874359,28.0625,29.9375,28.5625,32.3125,34.875,36.0
1.0,-3.253635156835054,-2.7613756655847697,-0.7669599633201508,-0.1402491620976487,0.14530584154072118,-0.10733449672157121,-0.5388200436797973,-0.32446917423582206,0.2600016551716574,-3.078615606852973,0.6248119142232685,-5.779854188421565e-05,0.0019417856981060893,0.00010418286341962741,-0.0026906749499226077,0.0019573343059407005,-0.005335278379825677,0.000701145581070902,0.3265373110771179,-1.1519496005824585,1.662438694630758,-2.079670568505758,-1.571369473134176,2.3015451431274414,0.0008800885989330709,-3.597262576704452e-08,0.006208374164998531,-0.0005266076186671853,-0.00012980423343833536,0.0001795687130652368,-0.2298433631658554,0.2298433631658554,-9.21288776397705,0.7463666796684265,47.68330383300781,-0.18960510194301605,-3.8311333656311035,-2.404168128967285,-0.5592249631881714,-0.013777726329863071,-0.18280577659606934,28.0625,29.9375,28.5625,32.3125,34.875,36.0
1.0,-1.5245459314594645,-0.7857102472467586,-0.7814502480284357,-0.07449249737352198,0.10423561024856359,-0.11559678749467325,-0.5388083625619915,-0.3245053832404821,0.260003582979336,-3.0786599887738717,0.6247439826001233,-1.443059671366638e-05,0.0008855791260460792,-0.0002659015483840757,-0.0012861608426972344,-0.0005260807765606103,0.0019292864192053901,0.0007246406544539519,0.32659727334976196,-1.151937560444214,1.6624262968646448,-2.0797091923155726,-1.571357552205221,2.3015570640563965,0.0008949190378189087,-4.82618611741259e-10,0.004339959472417831,-0.006335549987852573,-0.00012616461026482284,0.00016836420400068164,-0.2298433631658554,0.2106897532939911,-9.155426979064941,0.7642692923545837,47.685096740722656,-0.18947896361351013,-3.8111143112182617,-2.191568374633789,-0.5521724820137024,-0.01631801389157772,-0.17600035667419434,28.0625,29.9375,28.5625,32.3125,34.875,36.0
1.0,-0.24819484697009614,0.6809901380080994,-0.8100280063953197,-0.013022393011509148,0.04105748242980523,-0.12000405779310457,-0.5388254671853027,-0.32449450142972175,0.2600234067043826,-3.0786943481444546,0.6247700499310018,0.00012711640371966868,0.00024950919053885626,-0.0007000414084269018,-0.0003990687861375133,-0.002678621841755011,0.00822430380955486,0.0010659557442008884,0.3265734612941742,-1.1519496005824585,1.662414852772848,-2.079783102075094,-1.571369473134176,2.3015451431274414,0.0012288474244996905,-6.474944712342445e-12,0.0036855670623481274,-0.012334034778177738,-0.00012272366438992321,0.00015847780741751194,-0.24899697303771973,0.09576806426048279,-9.136273384094238,0.7933669090270996,47.73524856567383,-0.19909228384494781,-3.715343475341797,-2.1124956607818604,-0.5001201033592224,-0.03885424882173538,-0.2096019685268402,28.0625,29.9375,28.5625,32.3125,34.875,36.0
1.0,0.1834497448605139,0.7028031464938495,-0.8128322388899657,0.006996611773163755,0.003691373046400206,-0.11238431357577842,-0.5388245887743748,-0.32450974266313254,0.26001735707984197,-3.078687240264945,0.6247493383334848,9.717592558606407e-05,-2.4310186198559175e-05,-0.0007686661703710528,-0.00015811359538342196,-0.0037290493785486233,0.011290153673163807,0.001071529152948155,0.3265973925590515,-1.1519256395152588,1.6623900572406214,-2.0797602138915003,-1.571369473134176,2.3015570640563965,0.0011902281548827887,-8.68696458625369e-14,0.003925390541553497,-0.01581467315554619,-0.00011946536687901244,0.00011290464317426085,-0.2298433631658554,0.05746084079146385,-9.136273384094238,0.7463666796684265,47.7164421081543,-0.2264917939901352,-3.6522130966186523,-2.072999954223633,-0.47890180349349976,-0.022466810420155525,-0.17785194516181946,28.0625,29.9375,28.5625,32.3125,34.875,36.0
1.0,-0.37432808446911875,-0.07911656139316352,-0.8718149734495616,-0.010717241635247845,-0.0026619995961471342,-0.11056945055682464,-0.5388282592321709,-0.3244941602190834,0.25999837873627657,-3.0786805482324233,0.6247275778768262,0.00010491733364863666,0.0004831569584752063,-0.0005658837192282564,-0.0015016629805619571,-0.0026447500452357344,0.008099074496454212,0.0010435260180790612,0.3265734016895294,-1.1519134205630799,1.662426773701803,-2.0798078976073207,-1.5713813940631312,2.301520347595215,0.0011441092938184738,0.0007159673259593546,0.0057929144240915775,-0.015027908608317375,-0.00011637565330602229,9.540413884678856e-05,-0.13407528400421143,-0.1149216741323471,-9.040505409240723,0.7553206086158752,47.72897720336914,-0.1902107149362564,-3.578366279602051,-2.1002273559570312,-0.47672533988952637,-0.028164155781269073,-0.20279310643672943,28.0625,29.9375,28.5625,32.3125,34.875,36.0
1.0,-0.46445001313796624,-0.6398964955907775,-0.629401305760669,-0.04026578684132555,0.03524271428239814,-0.11596185246721993,-0.5388144004393083,-0.3245127027346308,0.2600129092002331,-3.078699316552721,0.6246938520208792,0.0001364872095154261,0.0004379369383191902,-0.00048066785780543063,-0.0017534281135693538,-0.0021062092126402387,0.006508714352444556,0.0008943794300190665,0.32660922408103943,-1.1519371432117005,1.662426773701803,-2.0798074207701625,-1.5713813940631312,2.301532745361328,0.0009887567721307278,0.0011461966205388308,0.005392236169427633,-0.013378395698964596,-0.00011344168160576373,8.988402260001749e-05,-0.05746084079146385,-0.17238251864910126,-9.002198219299316,0.7396538853645325,47.72092056274414,-0.2699752151966095,-3.6319189071655273,-2.079684019088745,-0.5138041377067566,-0.019686955958604813,-0.18939758837223053,28.0625,29.9375,28.5625,32.3125,34.875,36.0
1.0,-0.7912478356661516,-0.5879772619937476,-0.7768128043271326,-0.044594196158395404,0.04529440252885423,-0.11369360736403339,-0.5388333071586486,-0.3244970543889902,0.2600051297626454,-3.0786956234201592,0.6247897240863607,0.00014070497392006996,3.8919266213761204e-05,-0.0004717310658360065,-0.002790301748752069,-0.0013670971662418368,0.004320449727218848,0.0006759579184283927,0.32657328248023987,-1.1519124668887635,1.6624153296100062,-2.0798307857909144,-1.571369473134176,2.3015570640563965,0.0007653540233150125,0.0032615885138511658,0.004566819407045841,-0.012358670122921467,-0.00011065229045925662,8.5560699517373e-05,0.09576806426048279,-0.3447650372982025,-9.059659004211426,0.7329410910606384,47.69853210449219,-0.1987346112728119,-3.651590585708618,-1.941997766494751,-0.5518231987953186,-0.03088192641735077,-0.18245700001716614,28.0625,29.9375,28.5625,32.3125,34.875,36.0
1.0,-0.33981999806181573,0.4461632959404181,-0.6065137417785813,-0.03929007614576048,0.044168366991712386,-0.11499902663634877,-0.538820041157309,-0.32449375798080965,0.25996350187675726,-3.078675000352433,0.6248238347222973,6.733324932364963e-05,-6.49553472568197e-06,-0.00043117514612960267,-0.0030100107946422552,-0.0014498458148573155,0.004552467678127603,0.0005929435065487332,0.3265732526779175,-1.1518882674029847,1.6624868551837366,-2.079879423181051,-1.571357552205221,2.3015809059143066,0.0006787105812691152,0.0035315395798534155,0.00487477658316493,-0.013182892464101315,-0.00010799652227433398,8.167430496541783e-05,0.24899697303771973,-0.26815056800842285,-9.02135181427002,0.7933669090270996,47.71196365356445,-0.22418849170207977,-3.6397705078125,-1.8393747806549072,-0.561907172203064,-0.01808922551572323,-0.20641756057739258,28.0625,29.9375,28.5625,32.3125,34.875,36.0
1.0,-0.1756491753759619,0.8017146686427172,-0.606048245584647,-0.009406350729510005,0.013772669197295402,-0.11067114423103415,-0.5388315057381552,-0.3244910784242499,0.25997387090682833,-3.0787187715832025,0.624813919122062,0.00014016911546004088,9.890337583214184e-05,-0.0003526007778175054,-0.0030420192079336997,-0.0017818656566560168,0.0055194242289858895,0.0005297944191012636,0.32656118273735046,-1.1518884164145966,1.6624744574176233,-2.0799275837340296,-1.571345631276266,2.3015570640563965,0.0006126248626969755,0.003200643230229616,0.005764071363955736,-0.01476366724818945,-0.00010546532575972378,7.812806870788336e-05,0.24899697303771973,-0.2106897532939911,-9.155426979064941,0.6546126008033752,47.69584274291992,-0.1903197169303894,-3.5217337608337402,-1.9131414890289307,-0.5511537790298462,-0.00512414425611496,-0.18580694496631622,28.0625,29.9375,28.5625,32.3125,34.875,36.0
1.0,0.3306180049778723,0.51780632519636,-1.019825323942056,0.00796515954520733,-0.005807554302331177,-0.10851355355616556,-0.5388466353188285,-0.32448722017053944,0.2599546731810726,-3.07869657938055,0.6248094236853141,0.00011609345862411042,0.00033685338056891717,-0.00023640337305244678,-0.0036780977656107818,-0.0015098926842420427,0.004712939814358594,0.0004786360010557041,0.326549232006073,-1.1518403750709076,1.6624510923968714,-2.0799275837340296,-1.571357552205221,2.3015451431274414,0.0005583071033470333,0.003455063793808222,0.0069921985268592834,-0.015395115129649639,-0.00010305008618161082,7.487738184863701e-05,0.19153612852096558,-0.19153612852096558,-9.232041358947754,0.7217512726783752,47.70927429199219,-0.17725244164466858,-3.479983329772949,-1.8776555061340332,-0.5379565954208374,-0.042068835347890854,-0.19896236062049866,28.0625,29.9375,28.5625,32.3125,34.875,36.0
1.0,0.6826523720024309,0.44354853039153863,-1.0968777750691887,-0.013411125756989235,-0.011885050965964032,-0.12339909313167065,-0.5388229991229289,-0.32448690473220476,0.2599397411076832,-3.0786881155016372,0.6247886064715275,8.283390506867829e-05,0.0005493950192038517,-0.00013254815910026721,-0.004723372198418715,-0.0007280658782678812,0.0024662192208956078,0.0004632028023643971,0.3265611529350281,-1.1518639785102387,1.66252309480776,-2.07995142559194,-1.571357552205221,2.3015451431274414,0.0005128432530909777,0.0043796454556286335,0.007963307201862335,-0.014911958947777748,-0.00011954561341553926,4.5314642193261534e-05,0.24899697303771973,-0.19153612852096558,-9.251194953918457,0.7933669090270996,47.692256927490234,-0.21206408739089966,-3.432061195373535,-1.9207220077514648,-0.5314997434616089,-0.027296843007206917,-0.19963102042675018,28.0625,29.9375,28.5625,32.3125,34.875,36.0
1.0,-0.11160552468886031,-0.5014803423108704,-1.311305108891118,-0.03734077831787609,-0.01595102064195966,-0.10482875793162653,-0.5388341922279595,-0.32448564814827885,0.2599360000971448,-3.078660116344642,0.6247431236031474,0.00013451746992226116,0.0005046697624751828,-0.0001211666330133005,-0.005845749316883034,8.165276659644341e-05,0.00012330112823811327,0.0004353058978560192,0.3265611231327057,-1.1518395704082032,1.6625002066241663,-2.0799628696837367,-1.5714057127581995,2.301520347595215,0.00047422738862223923,0.005967050325125456,0.008132784627377987,-0.014189943671226501,-0.0001327719073742628,3.517452205414884e-05,0.2298433631658554,-0.05746084079146385,-9.232041358947754,0.7553206086158752,47.67255783081055,-0.18230736255645752,-3.4246129989624023,-1.9084246158599854,-0.5701301097869873,-0.028628777712583542,-0.21186542510986328,28.0625,29.9375,28.5625,32.3125,34.875,36.0
1.0,-0.0892139964787409,-1.210750126631692,-1.3990252267795615,-0.06445944318085646,0.014958534292135003,-0.10890050654087738,-0.5388103290153775,-0.3244837522737438,0.2598896569896132,-3.078667138169342,0.6247845706160766,-1.1940179276278792e-05,0.0008736548763392783,0.00019971585347400623,-0.006680000096142415,0.0010427805784308955,-0.0026442496252599376,0.00014026370830254282,0.3265610337257385,-1.1518273514560242,1.6625960508929651,-2.0799981556334437,-1.571345631276266,2.3015451431274414,0.00017655287228990346,0.006179823074489832,0.009398277848958969,-0.012738537043333054,-0.00014896091306582093,3.332418418722227e-05,0.17238251864910126,0.07661445438861847,-9.232041358947754,0.6971306204795837,47.70658874511719,-0.24418905377388,-3.5087244510650635,-1.9280030727386475,-0.5873528122901917,-0.02415604330599308,-0.20648783445358276,28.0625,29.9375,28.5625,32.3125,34.875,36.0
1.0,-0.9151812365975199,-1.9413930125095291,-1.5622686596253064,-0.07478715513924215,0.040568775223427625,-0.10950373676427765,-0.5388201590545167,-0.3244846022955922,0.25989401328427275,-3.078659238683002,0.6247829219149472,4.048569633263884e-05,0.001186879608434597,0.0003340255899588324,-0.008361499974587959,0.002044297646794394,-0.005494755915849466,0.00013657616494024854,0.3265610337257385,-1.1518148642829438,1.6625717321978968,-2.080011030236715,-1.571369473134176,2.3015451431274414,0.00013945947284810245,0.007681901566684246,0.011172343976795673,-0.012993432581424713,-0.00017976573144551367,2.7831239890474535e-07,0.17238251864910126,0.17238251864910126,-9.423578262329102,0.7530794739723206,47.71733474731445,-0.17773398756980896,-3.4334659576416016,-1.8423676490783691,-0.6272350549697876,-0.014976497739553452,-0.22183462977409363,28.0625,29.9375,28.5625,32.3125,34.875,36.0
1.0,-0.9191621069569934,-2.153888605525161,-1.6787951411327398,-0.06365217620836312,0.03919569600073433,-0.1038063621690213,-0.538816792802625,-0.32449250184576506,0.2598740011767749,-3.0786861324617,0.6247294483043101,4.5426815233067334e-05,0.0011190701279048026,0.0003617185946973233,-0.008734068796497487,0.0018465576811337906,-0.0048365421787739315,6.249568786655432e-05,0.32657304406166077,-1.1517907244018097,1.6625970045672815,-2.080071111718649,-1.571357552205221,2.301520347595215,6.564892828464508e-05,0.008144919760525227,0.011764957569539547,-0.014735826291143894,-0.00020642469462472945,1.817181249919031e-08,0.13407529890537262,0.3064578175544739,-9.423578262329102,0.6859408020973206,47.73524856567383,-0.16128236055374146,-3.3688549995422363,-1.9266526699066162,-0.6330479383468628,-0.011270604096353054,-0.20090679824352264,28.0625,29.9375,28.5625,32.3125,34.875,36.0
1.0,-0.0818199452206878,-1.4675836973432355,-1.436119203416146,-0.07778344868634987,0.04550644689003966,-0.12311150804936122,-0.5388147803767718,-0.3244827416670635,0.2598382139949773,-3.078614293184006,0.6247929359307324,-7.293550891317392e-05,0.0010070353074911472,0.00032641871241771383,-0.009068112282817313,0.0016075034231998408,-0.004157822055250598,5.672817218588257e-05,0.32656100392341614,-1.1517546635917206,1.6626198927508753,-2.0800358257689417,-1.571369473134176,2.3015570640563965,6.0384267271729186e-05,0.008707915432751179,0.01210422720760107,-0.016357654705643654,-0.00020093486818950623,1.1864894622348743e-09,0.17238251864910126,0.325611412525177,-9.404424667358398,0.7127973437309265,47.70748519897461,-0.15647070109844208,-3.402432918548584,-1.907818078994751,-0.6297153234481812,-0.03564776852726936,-0.2185829132795334,28.0625,29.9375,28.5625,32.3125,34.875,36.0
1.0,-0.572517166282093,-1.7691067360846608,-1.479503132356853,-0.0703225958125616,0.01865240602011083,-0.10773231078694977,-0.5387899741910319,-0.3244910936373565,0.2598092833901082,-3.078609715221579,0.6247727464566427,-0.00013288158477856417,0.001083021963440136,0.00035589958063898217,-0.01015844256373746,0.0018355197530816117,-0.004807484664367847,5.256140112242767e-05,0.32658496499061584,-1.15175415695224,1.6626928488360804,-2.080072065392965,-1.571357552205221,2.3015689849853516,5.6576041970402e-05,0.009861729107797146,0.013355359435081482,-0.018074091523885727,-0.0002096925163641572,7.746928099017225e-11,0.19153612852096558,0.3064578175544739,-9.442731857299805,0.7642692923545837,47.69853210449219,-0.17167559266090393,-3.327859401702881,-1.8867157697677612,-0.6452224850654602,-0.027254901826381683,-0.2130284607410431,28.0625,29.9375,28.5625,32.3125,34.875,36.0
1.0,-0.35663557780270294,-1.427680484191131,-1.422823411020701,-0.08546702886406314,0.016330459165614097,-0.11098462141347706,-0.5387967073752061,-0.3244805929796108,0.25978985508954205,-3.07857129595887,0.6247839650682367,-7.837147823397346e-05,0.0009315414044125642,0.00030728581111790095,-0.010532546015342306,0.001654995330355756,-0.00426080646991226,4.875997590320661e-05,0.32657304406166077,-1.1517299276641388,1.6627166906939905,-2.080132146874899,-1.5714057127581995,2.3015689849853516,5.322924698702991e-05,0.010570098645985126,0.013550952076911926,-0.01955372840166092,-0.0002172687090933323,5.05819041166089e-12,0.07661445438861847,0.26815059781074524,-9.385271072387695,0.6859408020973206,47.6976318359375,-0.22334077954292297,-3.395707130432129,-1.9091824293136597,-0.6317117214202881,-0.02038373053073883,-0.22543483972549438,28.0625,29.9375,28.5625,32.3125,34.875,36.0
1.0,-0.1978168910675523,-1.752519463095129,-1.3613335174510182,-0.08330260503125732,0.026946308176867675,-0.11370920724404975,-0.5387994744065615,-0.324464723344168,0.2597721489259355,-3.0785479133231926,0.6247594991787194,-0.00011600868563390178,0.0006740363418060364,0.0002207312064575541,-0.01018802906706825,0.0009379901867680646,-0.0021798230969057256,4.499888767413602e-05,0.32654908299446106,-1.151718096142151,1.6627405325519007,-2.080133100549215,-1.5714176336871546,2.301532745361328,5.025662903790362e-05,0.0105344383046031,0.01323913037776947,-0.021407293155789375,-0.00021096058480907232,3.302637026705857e-13,0.1149216815829277,0.2298433631658554,-9.327810287475586,0.6859408020973206,47.69673538208008,-0.22780779004096985,-3.3204572200775146,-1.8759307861328125,-0.6361367106437683,-0.012567160651087761,-0.21978716552257538,28.0625,29.9375,28.5625,32.3125,34.875,36.0
1.0,-0.8788637092431809,-1.5410405500285913,-1.234490814277583,-0.07857164461021468,0.02032023910282912,-0.10220080519667818,-0.5387872009109196,-0.32447989867746796,0.25975586200906486,-3.078583705330305,0.6247082075465966,-0.00016204829999039193,0.0003197897880602628,0.00010120467673225707,-0.01130694387014387,0.0010366849089135507,-0.002505641588105148,0.0004809659310129072,0.32657304406166077,-1.1517054003528138,1.6627653280841272,-2.0801578960814417,-1.5713813940631312,2.3015201091766357,4.759839430334978e-05,0.012628194876015186,0.013260281644761562,-0.02318204566836357,-0.00020418570784386247,-0.0004390152753330767,0.17238251864910126,0.26815059781074524,-9.27034854888916,0.7217512726783752,47.66360092163086,-0.18016323447227478,-3.3694043159484863,-1.8414170742034912,-0.6416995525360107,-0.011270289309322834,-0.22856661677360535,28.0625,29.9375,28.5625,32.3125,34.875,36.0
1.0,-0.2667243678631917,-1.0456084586767644,-1.2809249461863692,-0.07766353660885224,0.04351521199877423,-0.11202603196141905,-0.5387941650286358,-0.3244704598932233,0.25973415008985423,-3.078615005945128,0.6247729672899959,-0.00015654146396406503,0.00018432149805379,5.5755697817008466e-05,-0.010219094274991595,-3.3038951610779716e-05,0.0006173742106597042,0.000848434883331248,0.32654908299446106,-1.151681826715805,1.6628006140338343,-2.0802418194212855,-1.571345631276266,2.301532506942749,4.52072563348338e-05,0.011370278894901276,0.012935533188283443,-0.02490057423710823,-0.00019777879060711712,-0.0008098185062408447,0.15322890877723694,0.17238251864910126,-9.346963882446289,0.7284641265869141,47.69136428833008,-0.22546017169952393,-3.304870367050171,-1.7489032745361328,-0.6064350605010986,-0.020521173253655434,-0.20782765746116638,28.0625,29.9375,28.5625,32.3125,34.875,36.0
1.0,-0.7718309493289259,-0.9553173508101119,-1.1055363718001459,-0.06931897115083782,0.029564842231243064,-0.11592692537955246,-0.5387952352933724,-0.32446830156844725,0.25971353576313316,-3.078591472935133,0.624788070873,-0.00013642760601941306,0.00011079196927004494,3.156589228191076e-05,-0.01084006432765164,-0.00013638724170408757,0.000894825615930952,0.0008780676785622644,0.32654905319213867,-1.151657448416092,1.6628244558917444,-2.0802909336485804,-1.571369473134176,2.3015449047088623,4.304486355977133e-05,0.012221269309520721,0.013556728139519691,-0.02666875161230564,-0.00019175840134266764,-0.0008421396487392485,0.1149216815829277,0.17238251864910126,-9.251194953918457,0.7732232213020325,47.731666564941406,-0.20520418882369995,-3.3102569580078125,-1.850862741470337,-0.6062730550765991,-0.0292743518948555,-0.21330566704273224,28.0625,29.9375,28.5625,32.3125,34.875,36.0
1.0,-0.42295401846348946,-0.8876952900292556,-1.176009203943946,-0.06261727057655317,0.03238763058118849,-0.10685668319075607,-0.538796329715499,-0.3244817294625966,0.25968607615916617,-3.0785852497644597,0.6247483804783704,-0.00010019270776491245,-0.0002128201381784141,-7.800357364948508e-05,-0.011058433501682292,-0.00044663284922429687,0.0017797435516170084,0.0008428023974155675,0.3265730142593384,-1.1516092282584687,1.6628358999835413,-2.0803634128966273,-1.5713933149920862,2.3015449047088623,4.108005668967962e-05,0.013094388879835606,0.013154413551092148,-0.028077267110347748,-0.00018609385006129742,-0.0008093234500847757,0.1149216815829277,0.19153612852096558,-9.251194953918457,0.6904177665710449,47.68867492675781,-0.19730249047279358,-3.3522725105285645,-1.7297356128692627,-0.602306604385376,-0.027798056602478027,-0.21259254217147827,28.0625,29.9375,28.5625,32.3125,34.875,36.0
1.0,-0.5430552307027001,-0.6111826323528796,-1.1169689699732586,-0.06790145693965254,0.018201844196856123,-0.10997762044077353,-0.5388014244490039,-0.3244781463220237,0.2596775961304391,-3.0786281259112473,0.6246985156988084,-8.826604571960539e-05,-0.00024359507098042506,-8.78830065863892e-05,-0.011036178037594588,-0.0009607196662044288,0.003269774994195631,0.0008009294926498853,0.32656097412109375,-1.1515972179225464,1.662849251423971,-2.080411573449606,-1.571369473134176,2.3014962673187256,3.928655496565625e-05,0.012994094751775265,0.013699788600206375,-0.03009854629635811,-0.000180754330358468,-0.0007700338028371334,0.09576806426048279,0.1149216815829277,-9.155426979064941,0.7620334029197693,47.7164421081543,-0.21802139282226562,-3.2776646614074707,-1.7499668598175049,-0.5905876159667969,-0.01661861501634121,-0.21697260439395905,28.0625,29.9375,28.5625,32.3125,34.875,36.0
1.0,-0.5596069130700768,-1.0257369212222884,-1.0726205087892244,-0.05010231927870529,0.014391109664697883,-0.11079279384769303,-0.5388072835955383,-0.32448014101883743,0.25966475558910673,-3.0786271661732307,0.6247954212725031,-3.9208957316452864e-05,-0.0005616445300856151,-0.00019567979326731374,-0.011375808691915979,-0.0012740563471106891,0.004164808931545075,0.0007270424501221967,0.32656097412109375,-1.1515728694251557,1.6628606955157679,-2.0804835758604945,-1.571369473134176,2.3015568256378174,3.764335633604787e-05,0.013994049280881882,0.013464179821312428,-0.031811151653528214,-0.00017571201897226274,-0.0006983621278777719,0.019153613597154617,0.07661445438861847,-9.193734169006348,0.7284641265869141,47.705692291259766,-0.24703676998615265,-3.3692164421081543,-1.72642183303833,-0.5767020583152771,-0.021798226982355118,-0.20401081442832947,28.0625,29.9375,28.5625,32.3125,34.875,36.0625
1.0,-0.22045413696299143,-0.4409542521841066,-0.9039206541724993,-0.055510886947092525,0.027509434000505442,-0.11822418344268835,-0.5388051075765584,-0.32447559465590886,0.2596386653365115,-3.0785906436388126,0.6247879375274911,-2.6781636157532597e-05,-0.00042145046288813263,-0.00014735852458373208,-0.011790252368446247,-0.00133496810317102,0.004326778980847372,0.0007048606637845339,0.32656097412109375,-1.151548908357956,1.6628974119769495,-2.080532213250631,-1.5714057127581995,2.3015568256378174,3.613212174968794e-05,0.014153183437883854,0.014487341977655888,-0.03316643834114075,-0.00017094409849960357,-0.0006781158735975623,0.07661445438861847,0.1149216815829277,-9.232041358947754,0.7597975730895996,47.7164421081543,-0.2646420896053314,-3.2667975425720215,-1.7146741151809692,-0.5637738108634949,-0.011807316914200783,-0.21384645998477936,28.0625,29.9375,28.5625,32.3125,34.875,36.0625
1.0,-0.662850080610522,-0.6416226165347181,-1.0252667467104208,-0.048286809679762524,0.028769022240796777,-0.11283494818056343,-0.5388020948957501,-0.3244849318559051,0.25960265375428815,-3.0786094303758036,0.6247136707523153,-9.304017865512637e-05,-0.0007653813738727232,-0.0002640912377796254,-0.012147667080365993,-0.0015118663144266795,0.00482267691589347,0.0006533579717717369,0.3265730142593384,-1.1515005391887208,1.662919823323385,-2.0805684528746546,-1.5713813940631312,2.3015201091766357,3.473734614090063e-05,0.015268908813595772,0.0140065997838974,-0.034327853471040726,-0.00016642796981614083,-0.0006283527472987771,0.05746084079146385,0.019153613597154617,-9.21288776397705,0.7284641265869141,47.730770111083984,-0.3229547441005707,-3.369152069091797,-1.7137763500213623,-0.5537927150726318,-0.01458965428173542,-0.2128513753414154,28.0625,29.9375,28.5625,32.3125,34.875,36.0625
1.0,-0.5985668418933641,-0.6934038751165296,-1.0924618009480394,-0.040168004491889224,0.03126409128123984,-0.11794294657820058,-0.5388159437922778,-0.3244507108430843,0.2595894099520145,-3.078611908864317,0.6247912210301577,-4.513611060375296e-05,-0.0005645862783106344,-0.00019517387815002113,-0.01253329604643325,-0.0014765310641323423,0.004706215379814266,0.0006798128395973654,0.32651305198669434,-1.1515005987933655,1.66296893755068,-2.0806528530516566,-1.5713813940631312,2.3015081882476807,3.344636570545845e-05,0.015289328061044216,0.015068852342665195,-0.03528891131281853,-0.00016214429342653602,-0.0006563879433088005,0.019153613597154617,0.019153613597154617,-9.193734169006348,0.6881819367408752,47.6976318359375,-0.26662224531173706,-3.340548515319824,-1.7044775485992432,-0.536004364490509,-0.021965457126498222,-0.21386656165122986,28.0625,29.9375,28.5625,32.3125,34.875,36.0625
1.0,-0.7268950444463519,-0.424960683062378,-1.0555351363017818,-0.04621311010089829,0.031580165638900405,-0.11324530453603099,-0.5388046444051955,-0.3244792251915303,0.25955640612207265,-3.078637000524321,0.6247195677521697,-5.481801129697237e-05,-0.0008072472279124178,-0.0002775124449620138,-0.012772483683232768,-0.0017173397191170502,0.005392864925519478,0.0007045197827422193,0.32656097412109375,-1.1514523488334198,1.6629927794085901,-2.0807248554625453,-1.571369473134176,2.3015081882476807,3.2247917260974646e-05,0.016030311584472656,0.01486523449420929,-0.036553896963596344,-0.00015807579620741308,-0.0006827166071161628,0.05746084079146385,0.05746084079146385,-9.174580574035645,0.7217512726783752,47.7191276550293,-0.24885478615760803,-3.3943066596984863,-1.6829237937927246,-0.531897783279419,-0.015583666041493416,-0.22041009366512299,28.0625,29.9375,28.5625,32.3125,34.875,36.0625
1.0,-0.5589437274943625,-0.44615851320094335,-1.2239356585148573,-0.04717811628417785,0.04060482681255948,-0.1185824553285633,-0.5387980272217795,-0.32449252544048013,0.25952624196872937,-3.0786538674602224,0.6246655229606641,-3.957557570332071e-05,-0.0007477552362888197,-0.00025681369943368875,-0.013620496557423409,-0.0015173530399836814,0.004787467782664353,0.0007265918620706996,0.32658493518829346,-1.1514159601977845,1.6630294958697718,-2.080809255639547,-1.571369473134176,2.3014962673187256,3.113238562946208e-05,0.016940105706453323,0.015790168195962906,-0.03775108605623245,-0.00015420625277329236,-0.0007061587530188262,0.07661445438861847,0.1149216815829277,-9.232041358947754,0.6725152134895325,47.702110290527344,-0.27786609530448914,-3.3153481483459473,-1.699601650238037,-0.5141918063163757,-0.03773380070924759,-0.22697731852531433,28.0625,29.9375,28.5625,32.3125,34.875,36.0625
1.0,-1.0886290002745136,-0.824780649249595,-1.1316711554639525,-0.0472788110008053,0.030391972625123685,-0.1157746185556495,-0.5388026760017821,-0.3244785458989848,0.25950048754358324,-3.0786332359284336,0.6247379680460283,-5.5384771703829e-05,-0.0009061100399879095,-0.00031010689688905336,-0.014368930083048362,-0.0016173924451998894,0.005049217771605111,0.0009035199910231796,0.3265730142593384,-1.151331679230072,1.6631010214435022,-2.0809537372984828,-1.5713933149920862,2.3015568256378174,2.911792034865357e-05,0.01812906004488468,0.016271725296974182,-0.039701689034700394,-0.00014700910833198577,-0.0008856665226630867,0.0,0.0,-9.366117477416992,0.7844129800796509,47.71554183959961,-0.25679150223731995,-3.3647332191467285,-1.717124342918396,-0.508688747882843,-0.021199360489845276,-0.21204648911952972,28.0625,29.9375,28.5625,32.3125,34.875,36.0625
1.0,-1.271431784584542,-0.9572531968188854,-1.2159343624322476,-0.04451486441352835,0.0324104304476777,-0.10285832344787746,-0.5387926991544341,-0.32447638293529935,0.25941253682661936,-3.0786331617928364,0.6246998345214805,-0.00011372908220570944,-0.0007821163067437229,-0.0002675809745879705,-0.014479965276549388,-0.0016807722028404964,0.005225525161997526,0.0007824973638082727,0.32656097412109375,-1.1513078671744843,1.6631854216205042,-2.0810257397093714,-1.571357552205221,2.3014962673187256,2.8205287890159525e-05,0.017973875626921654,0.016886252909898758,-0.040348317474126816,-0.0001436568418284878,-0.0007657817332074046,0.09576806426048279,-0.09576806426048279,-9.289502143859863,0.6322330832481384,47.72629165649414,-0.2811436057090759,-3.3695435523986816,-1.689302682876587,-0.4952408969402313,-0.020138654857873917,-0.20945081114768982,28.0625,29.9375,28.5625,32.3125,34.875,36.0625
1.0,-0.3015619131323003,-0.2710008668700135,-1.1333418739872927,-0.060952990881741186,0.05784820562591121,-0.12319115752700405,-0.5388266103211248,-0.3244736277880762,0.2594030353285227,-3.078679001030759,0.6247667534302305,5.1417822390642425e-06,-0.0009123703666931147,-0.0003116984549835778,-0.014657984966840266,-0.0018550956814266354,0.0057236529316577085,0.0006863045400622052,0.32653701305389404,-1.1512476366809388,1.6631501356707972,-2.0811454258360804,-1.571345631276266,2.3015081882476807,2.7348272851668298e-05,0.01841658726334572,0.016893548890948296,-0.041326042264699936,-0.00014045392163097858,-0.0006707922439090908,-0.038307227194309235,0.019153613597154617,-9.251194953918457,0.6881819367408752,47.73972702026367,-0.287799596786499,-3.342566967010498,-1.6846848726272583,-0.47336894273757935,-0.03289095684885979,-0.2126673460006714,28.0625,29.9375,28.5625,32.3125,34.875,36.0625
1.0,-0.8598821568714378,-0.7653753611076934,-1.0924265322627513,-0.04487921981036276,0.0377768550586364,-0.1172072365010751,-0.5388130301925557,-0.324501368319262,0.2593864199181889,-3.078700351608701,0.6247134298472032,-4.4133371029065055e-06,-0.0006511637412563565,-0.0002223273401349344,-0.015977900542719935,-0.001268817230676171,0.003986850886327895,0.0006112253136282246,0.32658493518829346,-1.151223288183548,1.6631620565997522,-2.081181665460104,-1.5713337103473108,2.3015201091766357,2.6542218620306812e-05,0.01954014040529728,0.01852799579501152,-0.042250946164131165,-0.0001373907143715769,-0.0005965527379885316,-0.05746084079146385,0.0,-9.232041358947754,0.7396538853645325,47.700321197509766,-0.25604039430618286,-3.368135452270508,-1.7257884740829468,-0.4527931213378906,-0.03680264577269554,-0.21071328222751617,28.0625,29.9375,28.5625,32.3125,34.875,36.0625
1.0,-1.1004264334117602,-0.9733233947011117,-1.2037749632324866,-0.041774151827481606,0.03337065383966556,-0.10832249152740077,-0.5388126377224949,-0.32449622534181605,0.25933279226010836,-3.0786596086873974,0.6246477636337833,1.1512149619050855e-06,-0.0007887808860182119,-0.0002690835362120631,-0.01572188993758996,-0.0013635762555301517,0.004255763703288114,0.0005511073797883446,0.32658493518829346,-1.1511632961085816,1.6632216612445276,-2.0812775097289027,-1.5713813940631312,2.3014843463897705,2.578181738499552e-05,0.0195215605199337,0.017891477793455124,-0.041880976408720016,-0.00013445854710880667,-0.0005371193401515484,0.07661445438861847,0.038307227194309235,-9.21288776397705,0.6590895652770996,47.6949462890625,-0.31936895847320557,-3.3456950187683105,-1.6892248392105103,-0.46028921008110046,-0.027789399027824402,-0.20383286476135254,28.0625,29.9375,28.5625,32.3125,34.875,36.0625
1.0,-0.9066831031201645,-0.9961740064522476,-1.259886091202025,-0.04443409396823375,0.029791914746209673,-0.11079004793090204,-0.5388172885925636,-0.32448881486452164,0.2593090153232058,-3.0786545067967865,0.6247430629638966,7.551440436024677e-05,-0.0005395146048088814,-0.00018385907123718719,-0.016354442184457245,-0.0009085310667559364,0.002911548727312982,0.0005019331584884491,0.3265730142593384,-1.15113918602977,1.6632688681231897,-2.0813967190184535,-1.5713933149920862,2.301532506942749,2.5063478460651822e-05,0.019840318709611893,0.018848977982997894,-0.04173809289932251,-0.00013164844131097198,-0.0004884686786681414,-0.038307227194309235,0.09576806426048279,-9.27034854888916,0.7418897151947021,47.72897720336914,-0.3258052468299866,-3.3428211212158203,-1.7006232738494873,-0.477193146944046,-0.020737212151288986,-0.2036769837141037,28.0625,29.9375,28.5625,32.3125,34.875,36.0625
1.0,-0.36270552918546156,-0.37669744590416865,-1.3633888208553553,-0.054337326077808196,0.028728146693936883,-0.11806594277430138,-0.5388127147445247,-0.32448724642215127,0.2592436625281228,-3.078622322827741,0.6247166615833117,-2.38739936117632e-05,-0.0005915607191713884,-0.0002013565243652171,-0.016942249090263695,-0.0004910220319585901,0.001673339778150711,0.0004610081809891567,0.3265730142593384,-1.1510669452003022,1.6633299032794397,-2.081456800500387,-1.5713933149920862,2.3015201091766357,2.4384773496421985e-05,0.020755087956786156,0.018811030313372612,-0.0413082130253315,-0.0001289538195123896,-0.00044790597166866064,0.09576806426048279,0.07661445438861847,-9.136273384094238,0.6747510433197021,47.72270965576172,-0.30332112312316895,-3.404330253601074,-1.6809931993484497,-0.4745018482208252,-0.023285236209630966,-0.20237571001052856,28.0625,29.9375,28.5625,32.3125,34.875,36.0625
1.0,-0.1813240324878463,-0.7816271028940036,-1.4470149777757049,-0.04583865419910908,0.028966463422502475,-0.11112826442879215,-0.5388114395400445,-0.3244983031136418,0.25923729665277195,-3.0786745328256804,0.6247082766496611,-2.294878236367791e-06,-0.0008831671763040737,-0.000300609321626789,-0.016898946185456266,-0.000567331622693581,0.0018850838641003651,0.0004260655158960725,0.32658493518829346,-1.1510547262481232,1.6633408705340784,-2.0815168819823207,-1.571357552205221,2.3015201091766357,2.374149698880501e-05,0.021319881081581116,0.01789959892630577,-0.04118659719824791,-0.0001263671147171408,-0.00041357119334861636,0.05746084079146385,0.07661445438861847,-9.174580574035645,0.7016075849533081,47.71464920043945,-0.2874327301979065,-3.3204174041748047,-1.5861294269561768,-0.4930054545402527,-0.01917026937007904,-0.21345017850399017,28.0625,29.9375,28.5625,32.3125,34.875,36.0625
1.0,-0.14337743751681117,-0.4455150236345087,-1.1850318342632618,-0.055658317499344995,0.024630851284492283,-0.11069802025243596,-0.5388097348469483,-0.32447066301832567,0.25919219505377633,-3.0786146773749272,0.6247535727060723,-2.4605843010790873e-05,-0.00044893937160694956,-0.00014245871360298504,-0.017804421266999396,0.00022528781615742936,-0.000447452390135195,0.0004283428604143478,0.32654905319213867,-1.1510307055762787,1.6634257475482386,-2.081588407556051,-1.5713933149920862,2.3015201091766357,7.92354785517091e-06,0.02163657546043396,0.019355082884430885,-0.04049527272582054,-0.00012388222967274487,-0.00043118681060150266,0.13407529890537262,0.07661445438861847,-9.174580574035645,0.7105615139007568,47.71017074584961,-0.31571534276008606,-3.381718873977661,-1.6389601230621338,-0.490356981754303,-0.02777920290827751,-0.20241808891296387,28.0625,29.9375,28.5625,32.3125,34.875,36.0625
1.0,-0.21019599691140534,-0.4511831699300212,-0.9174982501326746,-0.05539101994338122,0.022686624751789605,-0.11717979989376011,-0.5388107025663638,-0.32448779911777587,0.25916568101551685,-3.0786476968812133,0.6247028375713135,-2.249578560118407e-06,-0.00029856320224418565,-8.622180180315733e-05,-0.01902043928815751,0.0010854027221307051,-0.0029844470756074286,0.000407114077190213,0.3265730142593384,-1.1509822470000763,1.6634371916400355,-2.0816718540587367,-1.5713813940631312,2.3015081882476807,1.0630450475446196e-07,0.0229536984115839,0.020147880539298058,-0.03992635756731033,-0.00012149326357757673,-0.0004172625485807657,0.15322890877723694,0.13407529890537262,-9.21288776397705,0.7217512726783752,47.69584274291992,-0.2710554599761963,-3.430851459503174,-1.6305515766143799,-0.509453535079956,-0.021132871508598328,-0.20237430930137634,28.0625,29.9375,28.5625,32.3125,34.875,36.0625
1.0,-0.2430396211542567,-1.0689967749039435,-1.147409805818521,-0.04093380304253607,0.018976230350392708,-0.10680047616436403,-0.5388361495682479,-0.324475588156859,0.25913818304814273,-3.0786666997414693,0.624803479075525,2.689274261805736e-05,-0.00031296667705010524,-9.119624788667074e-05,-0.019677429041928186,0.0013315330404134727,-0.0037195529981430523,0.000381949458111883,0.32653701305389404,-1.150921956901886,1.6634371916400355,-2.0817676983275355,-1.571357552205221,2.301532506942749,1.42621070509108e-09,0.023817509412765503,0.0205426923930645,-0.040409766137599945,-0.00011919442476937547,-0.00039223142084665596,0.2298433631658554,0.038307227194309235,-9.28950309753418,0.7553206086158752,47.702110290527344,-0.34159624576568604,-3.46722412109375,-1.643411636352539,-0.5204193592071533,-0.017984000965952873,-0.21133075654506683,28.0625,29.9375,28.5625,32.3125,34.875,36.0625
1.0,-0.10853442990556389,-0.7139518942575319,-1.1005686772789272,-0.04272235983611282,0.014262251151076452,-0.11426818264607277,-0.538819498713695,-0.3244972798937349,0.25911176338492015,-3.078659305538871,0.6247450081404772,8.727530796455751e-05,-0.0003461186859894235,-0.00010283689375699882,-0.019028390634532516,0.0008391184394042467,-0.0022772765414037963,0.0003586517219538906,0.32658493518829346,-1.150898353462555,1.6634858290301722,-2.0818635425963343,-1.5713933149920862,2.3015449047088623,1.913443709034013e-11,0.02300487831234932,0.020313404500484467,-0.04089187830686569,-0.0001169811439467594,-0.0003692912869155407,0.2298433631658554,0.05746084079146385,-9.251194953918457,0.7060845494270325,47.674346923828125,-0.31979626417160034,-3.4093542098999023,-1.6407147645950317,-0.5429161787033081,-0.04064098745584488,-0.2114904820919037,28.0625,29.9375,28.5625,32.3125,34.875,36.0625
1.0,-0.6214482872856519,-0.9445711556041433,-1.00776913596054,-0.03576547475576657,-0.0056227479890281,-0.1096040673723522,-0.5388303789818707,-0.3244763751305888,0.25904187944513474,-3.078615627950899,0.624753896792465,1.4963809560694512e-05,-9.693105892706825e-05,-1.8091428296027743e-05,-0.019310270997351213,0.0010045481508610264,-0.0027680540806350193,0.00033817004632846157,0.32654905319213867,-1.1508145195296784,1.663546387349264,-2.081947465936178,-1.5714057127581995,2.3015201091766357,2.567128638570476e-13,0.022841468453407288,0.021234704181551933,-0.041131868958473206,-0.0001148485389421694,-0.0003488384245429188,0.2106897532939911,0.1149216815829277,-9.251194953918457,0.6926589012145996,47.71375274658203,-0.35009902715682983,-3.2476847171783447,-1.611513614654541,-0.554445207118988,-0.039224736392498016,-0.1930054873228073,28.0625,29.9375,28.5625,32.3125,34.875,36.0625
1.0,0.17355245362116573,-0.4728478983899368,-0.9349632173810504,-0.048883941623786155,0.01190513057675176,-0.11486748872906215,-0.5388240682118084,-0.32447801819965816,0.2589932840839155,-3.078628755936972,0.6247570515362426,-6.194050195714021e-05,5.688873985081355e-05,3.4237803137015596e-05,-0.020207609732278666,0.0016715980068089348,-0.004735538401133222,0.00032027894733389006,0.32654905319213867,-1.1507662397674103,1.6636055151568812,-2.0820194683470667,-1.571369473134176,2.301520347595215,3.444130619467841e-15,0.02373654581606388,0.02190759778022766,-0.04062234237790108,-0.00011279234604444355,-0.00033053033985197544,0.19153612852096558,0.07661445438861847,-9.251194953918457,0.6523714661598206,47.67255783081055,-0.2967248857021332,-3.3325695991516113,-1.6156408786773682,-0.5815457701683044,-0.035971760749816895,-0.20606651902198792,28.0625,29.9375,28.5625,32.3125,34.875,36.0625
1.0,0.18651061368325916,-0.6460851538963487,-1.0322482581910577,-0.0461585986942073,0.011290094288227508,-0.11344736104173495,-0.5388317334090366,-0.32447683179930764,0.25901007123399866,-3.078644278140889,0.624702842065114,6.280590211352711e-05,1.9019377877802164e-05,2.1220980395697544e-05,-0.020833901689135854,0.0015401176863074273,-0.00436257796327932,0.00030319817100480604,0.32654905319213867,-1.1507778626731415,1.6635945479022425,-2.0820676289000453,-1.5714057127581995,2.3014845848083496,4.6207407513065596e-17,0.024508610367774963,0.022692089900374413,-0.04257434606552124,-0.00011080846161348745,-0.00031404776382260025,0.19153612852096558,0.09576806426048279,-9.174580574035645,0.7060845494270325,47.6949462890625,-0.35538244247436523,-3.362656593322754,-1.6634619235992432,-0.5923773646354675,-0.007393289357423782,-0.2224217802286148,28.0625,29.9375,28.5625,32.3125,34.875,36.0625
1.0,-0.05860172765159788,-0.8075924992966148,-0.9271554156800523,-0.04648755135446333,0.01796031609002484,-0.1155860904536616,-0.5388215688754648,-0.3244902163119417,0.25892722102351307,-3.0786314145140965,0.6246997289115949,-1.2046593541846585e-05,-4.744956444836816e-05,-1.6431262477899535e-06,-0.020774534369283993,0.0012766078048954469,-0.003596440878081238,0.0003277369169445634,0.3265730142593384,-1.1506818991950531,1.6636784712420862,-2.0821997127928675,-1.5713933149920862,2.3015081882476807,6.199313372584791e-19,0.024520033970475197,0.022739630192518234,-0.04344349727034569,-0.00010889313125517219,-0.00033893590443767607,0.28730422258377075,0.13407529890537262,-9.174580574035645,0.7284641265869141,47.72270965576172,-0.30975550413131714,-3.3921561241149902,-1.6726007461547852,-0.5699547529220581,-0.017902275547385216,-0.20711103081703186,28.0625,29.9375,28.5625,32.3125,34.875,36.0625
1.0,-0.030854339577593648,-0.46052444617773036,-1.03782425703075,-0.05775246906017953,0.016563467165326952,-0.11910323714136457,-0.5388171565264176,-0.32448870696108395,0.258889441704769,-3.0786073265032186,0.6247540856268972,-4.67040236942089e-05,0.0002466729358718013,9.85805938149155e-05,-0.02206331212100893,0.002587730074976155,-0.0074522237636048035,0.0003160993343054728,0.3265730142593384,-1.1506454211524506,1.6637266317950647,-2.0822588406004847,-1.5713933149920862,2.3015451431274414,8.317170196662848e-21,0.025741195306181908,0.023484760895371437,-0.041337184607982635,-0.0001070429352694191,-0.00032617346732877195,0.26815059781074524,0.15322890877723694,-9.174580574035645,0.6613254547119141,47.657325744628906,-0.33080846071243286,-3.364649534225464,-1.6613578796386719,-0.6266620755195618,-0.021830875426530838,-0.2049846053123474,28.0625,29.9375,28.5625,32.3125,34.875,36.0625
1.0,-0.4482646121724009,-1.1290554428997204,-1.2203983643486576,-0.05338550135637993,0.014590545511231345,-0.11167867441449161,-0.5388388912630238,-0.3244739762264151,0.2588335434190809,-3.07863204788794,0.6247771763078034,-7.058156355527767e-06,-1.6911378799627148e-05,8.48762220415385e-06,-0.0227971507274968,0.0025576226796829343,-0.007386369065654516,0.0002887535918710997,0.32653701305389404,-1.1505611401847382,1.6637738386737269,-2.082426687280172,-1.5713813940631312,2.301520347595215,1.497061275921241e-24,0.02716502733528614,0.02350916527211666,-0.04285746440291405,-0.00010352489334763959,-0.00029923015972599387,0.13407528400421143,0.07661445438861847,-9.174580574035645,0.6859408020973206,47.687782287597656,-0.3686431646347046,-3.3377299308776855,-1.576680064201355,-0.6892764568328857,-0.00850444845855236,-0.2031717747449875,28.0625,29.9375,28.5625,32.3125,34.875,36.0625
1.0,-0.6170433478221014,-1.0644030946900598,-1.1718976023355132,-0.056808242866046264,0.016757187991894525,-0.10544961424683483,-0.538829653238822,-0.3244720661959727,0.2587499778805638,-3.0786140352688154,0.6247353624106573,-0.00011457588542430528,2.12301071698985e-05,2.1413881825125734e-05,-0.023532416460177296,0.002645588678358062,-0.0076557187647770236,0.00027646830153259987,0.32653701305389404,-1.1504770380309601,1.663870636616842,-2.0825354061522425,-1.571369473134176,2.3014965057373047,2.008498875186192e-26,0.027968911454081535,0.02437000162899494,-0.0442388541996479,-0.0001018512703012675,-0.00028728877077810466,0.17238251864910126,0.15322890877723694,-9.21288776397705,0.6747510433197021,47.68867492675781,-0.3131882846355438,-3.3553481101989746,-1.624358057975769,-0.7189878821372986,-0.023716984316706657,-0.21854007244110107,28.0625,29.9375,28.5625,32.3125,34.875,36.0625
1.0,-0.8483638729672955,-1.272797511521051,-1.1452875215269853,-0.0557389656413574,0.02078436594181833,-0.11360238551276458,-0.5388385226646233,-0.32447127963361355,0.2586948173447158,-3.0785730793348005,0.6246887657343548,-0.0001351594650337261,0.00021753973196392902,8.816426427520006e-05,-0.023711607842200406,0.002499855558289597,-0.007232435937008733,0.00026500698355977684,0.32653701305389404,-1.1503930550864716,1.6638949553119105,-2.082607408563131,-1.5714057127581995,2.3014726638793945,2.6946574187108665e-28,0.02771543711423874,0.02540779672563076,-0.04547085240483284,-0.00010023079812526703,-0.0002762637159321457,0.09576806426048279,0.15322890877723694,-9.174580574035645,0.7732232213020325,47.7244987487793,-0.3966570794582367,-3.358905076980591,-1.7131092548370361,-0.7160989046096802,-0.024425745010375977,-0.20887070894241333,28.0625,29.9375,28.5625,32.3125,34.875,36.0625
1.0,-0.26606982866162415,-0.7266059066092903,-1.1609999620816975,-0.06290278705043337,0.0362803195720211,-0.12049517415124916,-0.5388079128058086,-0.32447894830763535,0.2586197274033865,-3.078538616665982,0.6247198540107766,-0.0002852895393723521,0.0005984418650475286,0.0002178366463659974,-0.023923735388984086,0.0031063659797961997,-0.009010774326875136,0.0002554574940512852,0.32656097412109375,-1.1503452819636841,1.6640146414386194,-2.0826784572997035,-1.5713813940631312,2.301520347595215,3.615227045501965e-30,0.027309080585837364,0.026096882298588753,-0.04387465491890907,-9.866121399682015e-05,-0.0002660535683389753,0.13407529890537262,0.13407529890537262,-9.289502143859863,0.7060845494270325,47.71017074584961,-0.36237213015556335,-3.2844491004943848,-1.699260950088501,-0.7347761988639832,-0.01946982368826866,-0.2114695906639099,28.0625,29.9375,28.5625,32.3125,34.875,36.0625
1.0,-0.872448324209141,-0.9588616777551193,-1.2759271480657468,-0.04732246292207541,0.019083479554796067,-0.10619740927666191,-0.5388148094266,-0.324481293959865,0.25858891890886937,-3.0785427602001434,0.6247604833997692,-0.00025305533487573947,0.00022597833019491728,9.088769248891929e-05,-0.02490365307024284,0.003120329400443135,-0.00907084870217681,0.0001957268041944423,0.32656097412109375,-1.1502966445735474,1.6640384832965296,-2.0827747784056605,-1.5713813940631312,2.3015451431274414,4.8502880561644595e-32,0.02926536835730076,0.025999734178185463,-0.04567241668701172,-9.713987674331293e-05,-0.0002067611349048093,0.1149216815829277,0.13407529890537262,-9.308656692504883,0.7418897151947021,47.70838165283203,-0.3790532350540161,-3.3541693687438965,-1.7020771503448486,-0.7864989042282104,-0.020285770297050476,-0.21027682721614838,28.0625,29.9375,28.5625,32.3125,34.875,36.0625
1.0,-0.7054015718408,-0.8193139778811364,-1.3264288302866838,-0.04898812674687266,0.022314428126987036,-0.11026166154460804,-0.5388208870153339,-0.32448210736287836,0.2585382873484166,-3.078542530100323,0.6246824940401734,-0.0002588055679099584,-4.384858416584481e-05,-1.174772467235134e-06,-0.0252043937543803,0.002480705600315968,-0.007207577124546808,0.00017049121861715174,0.32656097412109375,-1.1502244931510468,1.664074722920553,-2.082872053185934,-1.5713933149920862,2.3014965057373047,6.507279586762941e-34,0.030031582340598106,0.02630104497075081,-0.048709936439991,-9.566482913214713e-05,-0.00018261439981870353,0.09576806426048279,0.13407529890537262,-9.136273384094238,0.7530794739723206,47.72987747192383,-0.4041442275047302,-3.445486307144165,-1.6352171897888184,-0.7973411679267883,-0.003689572913572192,-0.20274630188941956,28.0625,29.9375,28.5625,32.3125,34.875,36.0625
1.0,-0.580405644011451,-1.0917195088728517,-1.2249123444160506,-0.052623122571851436,0.03961208091815814,-0.1101157399407801,-0.5388187145324264,-0.3244904306170866,0.25850087384608206,-3.0785446763189985,0.6247217800827207,-0.0002696174083062564,0.00016030523420272708,6.834701793741662e-05,-0.025853975119804973,0.0024069176443897193,-0.006998511918686374,0.00016174863475290288,0.3265730142593384,-1.1501763624003907,1.6641114393817347,-2.0829559765257777,-1.5713813940631312,2.301532745361328,8.730345747048317e-36,0.030326858162879944,0.027823656797409058,-0.0507495142519474,-9.423389565199614e-05,-0.00017450086306780577,0.05746084079146385,0.019153613597154617,-9.251194953918457,0.6881819367408752,47.718231201171875,-0.42289841175079346,-3.4686388969421387,-1.6573030948638916,-0.7981898784637451,-0.010268913581967354,-0.21579238772392273,28.0625,29.9375,28.5625,32.3125,34.875,36.0625
1.0,-0.9422000586430694,-0.9926787318127508,-1.2241676586915402,-0.055834286233110327,0.03173978626139469,-0.1069191944685867,-0.5388306286238633,-0.32449041423271757,0.2584438113827863,-3.078598577500807,0.6246749968392132,-0.00026468379377842975,7.768586676366014e-05,4.004606909964893e-05,-0.025883904532378713,0.0021500230652826014,-0.006251725389544807,0.00018389101158051242,0.32656097412109375,-1.1500923794559021,1.664159123097555,-2.0831123791136683,-1.571345631276266,2.3014845848083496,1.171287316520753e-37,0.030477991327643394,0.027915269136428833,-0.051781993359327316,-9.284517000196502e-05,-0.00019704045553226024,0.07661445438861847,0.038307227194309235,-9.232041358947754,0.7597975730895996,47.72987747192383,-0.3811527192592621,-3.4458627700805664,-1.6859962940216064,-0.8211961984634399,-0.015342315658926964,-0.1921793669462204,28.0625,29.9375,28.5625,32.3125,34.875,36.0625
1.0,-0.562776014510334,-0.8937304068109557,-1.1252134097147237,-0.056746592957976294,0.044096523920741676,-0.11594611139979348,-0.5388330983418803,-0.3244654464410786,0.25839681137566717,-3.0785531183468846,0.6247041338299874,-0.0002949173084184633,3.3829506608601994e-06,1.463803446702868e-05,-0.02625455374446332,0.0018264420555158642,-0.005312755203397242,0.00018009149603962778,0.32652509212493896,-1.150056169634201,1.6642316023456019,-2.083184858361715,-1.571369473134176,2.3014726638793945,1.5714315121769574e-39,0.03098791465163231,0.028524091467261314,-0.05389390140771866,-9.14967167773284e-05,-0.0001939583453349769,0.07661445438861847,0.09576806426048279,-9.232041358947754,0.6769921779632568,47.71196365356445,-0.42345887422561646,-3.355175733566284,-1.6493422985076904,-0.8165415525436401,-0.01738104037940502,-0.20672795176506042,28.0625,29.9375,28.5625,32.3125,34.875,36.0625
1.0,-0.9432072010645847,-0.8237765791666061,-1.2616273544256795,-0.05468233506274674,0.037349574295288325,-0.1049512922663574,-0.5388329632284063,-0.32446664184070156,0.25833692974189126,-3.0785442211088436,0.6247406092005293,-0.0003364920150446826,-0.00013573450844912174,-3.284075653078529e-05,-0.02669253898629376,0.0015866125699508101,-0.004619979545183642,0.00017301655000341435,0.32652509212493896,-1.1499839586070557,1.6642912069903772,-2.0832931003966273,-1.571357552205221,2.3014965057373047,2.1082535395766873e-41,0.031741395592689514,0.02888653613626957,-0.05574293062090874,-9.018693526741117e-05,-0.0001874847657745704,0.07661445438861847,0.09576806426048279,-9.289502143859863,0.7306999564170837,47.71554183959961,-0.3678564429283142,-3.5623996257781982,-1.618138074874878,-0.834071159362793,-0.034873444586992264,-0.2192150056362152,28.0625,29.9375,28.5625,32.3125,34.875,36.0625
1.0,-0.2536892630852693,-0.6736914371388096,-1.1288363358427644,-0.060953169120162354,0.05723570083113487,-0.12303943532735069,-0.5388257452467817,-0.3244874791132119,0.25830401877571296,-3.078563647221312,0.6246488662770258,-0.0003347246380967719,-0.0003886871540209916,-0.00011926836454953257,-0.026012188977295608,-0.00032051787969300153,0.0009684896375300176,0.00019045026300679093,0.32656097412109375,-1.1499362152865906,1.6643160025226038,-2.083367010156149,-1.571357552205221,2.3014726638793945,2.8306228979361305e-43,0.030980639159679413,0.029765205457806587,-0.061765775084495544,-8.891408651834354e-05,-0.0002074094081763178,0.019153613597154617,0.038307227194309235,-9.308655738830566,0.7306999564170837,47.72270965576172,-0.42645788192749023,-3.4497451782226562,-1.637306809425354,-0.7936979532241821,-0.0015700818039476871,-0.19862520694732666,28.0625,29.9375,28.5625,32.3125,34.875,36.0625
1.0,-0.9264975347650675,-1.0940294345177035,-1.3436109994388021,-0.05178895765049417,0.04513060062614361,-0.11635158156300945,-0.5388222898479916,-0.324478550157046,0.2582376716587135,-3.078554991722608,0.6247236161249984,-0.000318078836743684,-0.00043284309563893983,-0.0001344213948294439,-0.026151744091018485,-0.0005165350609733315,0.0015372156979378165,0.0001869385704313381,0.32654905319213867,-1.1498761040023346,1.6644232908831995,-2.0835467777647914,-1.571357552205221,2.3015084266662598,4.203895392974451e-45,0.03119485266506672,0.03003014251589775,-0.06284648180007935,-8.767667895881459e-05,-0.00020428588322829455,0.0,0.1149216815829277,-9.193734169006348,0.6747510433197021,47.69853210449219,-0.3917306959629059,-3.512585163116455,-1.6991904973983765,-0.7838729619979858,-0.02599308080971241,-0.21408411860466003,28.0625,29.9375,28.5625,32.3125,34.875,36.0625
1.0,-1.3624210781487627,-1.3719540411820061,-1.2917316016306628,-0.04755838791228954,0.03945144786787617,-0.11224378438098317,-0.5388213287289003,-0.3244900255507488,0.2581938325671946,-3.0785505762163266,0.624684302161144,-0.00023990995716516,-0.0006057103251011344,-0.00019341427262067426,-0.02652768337467323,-0.0011292793960503325,0.00332308993116402,0.00017960314036498707,0.3265730142593384,-1.1498160821250458,1.6644719282733362,-2.0836922130980433,-1.5713933149920862,2.3015084266662598,0.0,0.031846463680267334,0.030701428651809692,-0.06605745106935501,-8.647323556942865e-05,-0.00019809733203146607,0.038307227194309235,0.05746084079146385,-9.27034854888916,0.7844129800796509,47.711063385009766,-0.39893031120300293,-3.502621650695801,-1.6711586713790894,-0.7622964978218079,-0.026493018493056297,-0.2104867547750473,28.0625,29.9375,28.5625,32.3125,34.875,36.0625
1.0,-1.0732850393496678,-1.1963139304018295,-1.4198268892700185,-0.05470197125095487,0.04233357335692768,-0.11347001073134512,-0.5388353421023208,-0.3244661691361473,0.25811409789784434,-3.0785272235250307,0.6247564551590775,-0.0003377721467624203,-0.0011306537609987717,-0.00037235079283396365,-0.026663857883135605,-0.0027254305932122246,0.007989437717341525,0.00017118060533565744,0.32652509212493896,-1.1497198802283783,1.6645434538470667,-2.08380188564443,-1.571369473134176,2.3015084266662598,0.0,0.03271808847784996,0.031227748841047287,-0.07238717377185822,-8.530241757398471e-05,-0.0001920723880175501,0.038307227194309235,-0.019153613597154617,-9.327810287475586,0.6993717551231384,47.72897720336914,-0.3870118260383606,-3.426353931427002,-1.7366588115692139,-0.72702956199646,-0.03137971833348274,-0.21298174560070038,28.0625,29.9375,28.5625,32.3125,34.875,36.0625
1.0,-1.3533770865840138,-1.1524638358101287,-1.3691918819566657,-0.06164439657437697,0.03846791408559111,-0.10846049546367074,-0.538835588693711,-0.32448704907241965,0.2580776877032092,-3.0785611803887325,0.6246676653431967,-0.00022212823327349797,-0.0013736378607909431,-0.00045527455523230645,-0.02696354054003586,-0.0033441985751700392,0.009792115817574469,0.00016441844927066288,0.32656097412109375,-1.1496596795371552,1.6645801703082483,-2.0839702091612757,-1.5713933149920862,2.3014845848083496,0.0,0.033431828022003174,0.03158700466156006,-0.07536608725786209,-8.416283526457846e-05,-0.0001863905490608886,0.07661445438861847,-0.019153613597154617,-9.366117477416992,0.7284641265869141,47.744205474853516,-0.4831797480583191,-3.5589191913604736,-1.7268648147583008,-0.6643087863922119,-0.0217675119638443,-0.21447965502738953,28.0625,29.9375,28.5625,32.3125,34.875,36.0625
1.0,-0.9209755898424022,-0.9829870869959958,-1.3727361508675309,-0.06837260138054782,0.0464248714271544,-0.11153978813573372,-0.5388455449433314,-0.3244786290336184,0.2580585784953876,-3.0785943297616303,0.6248100150946801,-0.00017030714506108098,-0.0013002482826340739,-0.00043021953947006733,-0.027821567060425108,-0.003307682338726149,0.009675571782321112,0.00015852822878979626,0.32653701305389404,-1.149635450249054,1.66461688676943,-2.084090372125143,-1.571357552205221,2.3015451431274414,0.0,0.03428535908460617,0.03277917951345444,-0.07728969305753708,-8.305331721203402e-05,-0.00018103377078659832,0.05746084079146385,0.038307227194309235,-9.385271072387695,0.7486078143119812,47.6949462890625,-0.43228739500045776,-3.4433481693267822,-1.7665259838104248,-0.6485326886177063,-0.015093227848410606,-0.21817970275878906,28.0625,29.9375,28.5625,32.3125,34.875,36.0625
1.0,-1.22897429375599,-1.1768661238878355,-1.3687060917053198,-0.06136882475709245,0.03947025704075236,-0.10828161509600048,-0.5388334504753756,-0.3244850023301153,0.25795804379970105,-3.0785581077572575,0.6246671496851985,-0.00019299038916349354,-0.0015171212029607916,-0.0005042522343884153,-0.02890706667789738,-0.00402400876946685,0.011753686512862498,0.000168165874282483,0.3265730142593384,-1.1494428378394623,1.6648438612567347,-2.0844036541380824,-1.571357552205221,2.301532745361328,0.0,0.03585143759846687,0.03424733504652977,-0.08252202719449997,-8.091975905699655e-05,-0.00019242585403844714,-0.038307227194309235,0.09576806426048279,-9.385271072387695,0.7508436441421509,47.72270965576172,-0.40715473890304565,-3.571596384048462,-1.7479217052459717,-0.5473405718803406,-0.018428262323141098,-0.216348797082901,28.0625,29.9375,28.5625,32.3125,34.875,36.0625
1.0,-0.5549313955928562,-0.8290485384072928,-1.296306424420637,-0.06697091518328382,0.04541325040439885,-0.1135945784245206,-0.5388439581943985,-0.324484626581079,0.25785271032571133,-3.0786185022538155,0.6247369957313672,-0.00011053558872417249,-0.0014566054118238991,-0.0004836609440854884,-0.029140677166965636,-0.004192401382761151,0.012243744558265768,0.00016553982795307936,0.32654905319213867,-1.149394915705063,1.664868179951803,-2.0846196613707484,-1.571369473134176,2.3015084266662598,0.0,0.035951435565948486,0.03493385389447212,-0.08382672816514969,-7.989360165083781e-05,-0.0001902639342006296,-0.019153613597154617,0.19153612852096558,-9.404424667358398,0.6837049722671509,47.6895751953125,-0.43407750129699707,-3.588275909423828,-1.7926394939422607,-0.5042924880981445,-0.028971411287784576,-0.2180713713169098,28.0625,29.9375,28.5625,32.3125,34.875,36.0625
1.0,-0.4731008137597364,-0.6263024642111217,-1.210805734162644,-0.06580731955931313,0.03825049261528632,-0.11759151894673033,-0.5388491446978394,-0.324514971572209,0.2578142919322487,-3.078629492124568,0.6247015046133554,-2.700221600208808e-05,-0.0013722505781660964,-0.0003603150682549182,-0.02947596818513062,-0.003838812519271773,0.011218590217100212,1.613459027027323e-05,0.3265969157218933,-1.149311051969864,1.664868179951803,-2.0847512684264125,-1.5713933149920862,2.301532745361328,-0.00014497092342935503,0.036157429218292236,0.03528902307152748,-0.08330347388982773,-8.444827108178288e-05,-0.0001855513546615839,0.0,0.13407529890537262,-9.423578262329102,0.6993717551231384,47.702110290527344,-0.48907431960105896,-3.565476894378662,-1.8528099060058594,-0.5051149725914001,-0.027812018990516663,-0.1990738809108734,28.0625,29.9375,28.5625,32.3125,34.875,36.0625
1.0,-0.5078834122243315,-1.1280426183883845,-1.3474569123845452,-0.050333790581332555,0.025049916856802655,-0.11032474667657811,-0.5388572338694168,-0.3244800232167837,0.25772280017706584,-3.07861926645643,0.6247375563123808,-7.247248747643733e-05,-0.0013368555557286197,-0.0003306331024664649,-0.031628037262909886,-0.002290869945765556,0.006677527731283504,-1.3312929510386436e-05,0.32653695344924927,-1.1492259961417695,1.6650002638446253,-2.0849420032896937,-1.5713813940631312,2.3014965057373047,-0.00017083245620597154,0.03900672867894173,0.035900622606277466,-0.08196671307086945,-8.867525320965797e-05,-0.0001809016685001552,0.038307227194309235,0.19153612852096558,-9.308655738830566,0.6725152134895325,47.702110290527344,-0.4459092915058136,-3.622241973876953,-1.8168751001358032,-0.49533164501190186,-0.023206837475299835,-0.21544170379638672,28.0625,29.9375,28.5625,32.3125,34.875,36.0625
1.0,-0.6227506844660984,-0.9486865940374782,-1.314170375721061,-0.044828599806430655,0.010246087126637481,-0.11153617664291493,-0.5388492727971722,-0.3244683092295709,0.2576602286702834,-3.0785915761675535,0.6247892849548208,-8.104145388950528e-05,-0.0006247382709111799,-7.069714683846466e-05,-0.03175751829784875,-0.0011307745684344987,0.0032843979684536433,-4.2114338174865495e-06,0.3265250325202942,-1.1491784316352387,1.6651080290423792,-2.0850841007628382,-1.5713933149920862,2.301520347595215,-0.00019753020023927093,0.03791920468211174,0.0368783213198185,-0.07827093452215195,-8.793619781499729e-05,-0.0002152608649339527,0.09576806426048279,0.2298433631658554,-9.27034854888916,0.7172743082046509,47.71017074584961,-0.472403347492218,-3.7248668670654297,-1.825366735458374,-0.5181175470352173,-0.02525738999247551,-0.19051645696163177,28.0625,29.9375,28.5625,32.3125,34.875,36.0625
1.0,-0.6806031750588786,-0.9143365742255771,-1.2440225345306832,-0.033521329610732155,-0.0011154561173698282,-0.11128171804356421,-0.538855523156763,-0.3244872246665256,0.25761926472060886,-3.0786541863242847,0.624744672526081,2.2285486703809715e-05,-0.0004122439646859914,1.5561070092982585e-05,-0.031684416256720985,-0.0005453581063537297,0.0015690391272176502,7.320783197510268e-07,0.3265489637851715,-1.1491067570498963,1.6651442686664026,-2.0852753124632777,-1.5713813940631312,2.3015084266662598,-0.00021906491019763052,0.03752446547150612,0.0367317870259285,-0.07591716200113297,-8.689735841471702e-05,-0.0002408693835604936,0.13407529890537262,0.038307227194309235,-9.232041358947754,0.7418897151947021,47.73793411254883,-0.47196513414382935,-3.5291874408721924,-1.8278875350952148,-0.545875072479248,-0.03741871938109398,-0.20927222073078156,28.0625,29.9375,28.5625,32.3125,34.875,36.0625
1.0,0.07876145594008535,-0.5578586990459411,-1.1745250859894216,-0.029654670407428384,0.01121066334312425,-0.11200095031281919,-0.5388545564998999,-0.32449464303745607,0.2575260652672946,-3.0786270866816,0.6247200537956377,-6.313101763272218e-05,-0.0003733942385137145,2.6270403558357322e-05,-0.032602246548424925,0.0003665202527407058,-0.001114778417421006,-4.452764796898369e-06,0.326560914516449,-1.1489862364581604,1.6652172247516077,-2.0854059658446253,-1.5713813940631312,2.3015084266662598,-0.00021516246488317847,0.038775719702243805,0.03670862317085266,-0.07431074976921082,-8.586255717091262e-05,-0.00023093550407793373,0.17238251864910126,0.0,-9.21288776397705,0.6859408020973206,47.72629165649414,-0.45500826835632324,-3.4952356815338135,-1.8005622625350952,-0.5575593113899231,-0.036633867770433426,-0.21619926393032074,28.0625,29.9375,28.5625,32.3125,34.875,36.0625
1.0,0.45464210561099305,-0.20011647302297558,-1.032798669307835,-0.03595965908470312,0.015305072024062323,-0.11775797886363168,-0.5388679485407081,-0.32448106980792774,0.2574884931001103,-3.078642569437228,0.6247234813568069,5.472469999901921e-05,-0.0001810925914277826,0.00010565121982291797,-0.03267342688621249,0.0006873365828539104,-0.002056041561698048,-3.667853356605441e-05,0.3265369236469269,-1.1489383441260834,1.665276352559225,-2.085585733453268,-1.5714057127581995,2.3014845848083496,-0.00023663022147957236,0.03852098435163498,0.0370137095451355,-0.0733666718006134,-8.48507770569995e-05,-0.00021981060854159296,0.2106897532939911,-0.038307227194309235,-9.136273384094238,0.6725152134895325,47.6976318359375,-0.45971131324768066,-3.6544017791748047,-1.724102258682251,-0.5730700492858887,-0.02993234060704708,-0.1980106085538864,28.0625,29.9375,28.5625,32.3125,34.875,36.0625
1.0,-0.3391392358504594,-0.503703494169057,-0.9879803888591484,-0.035936889960180046,-0.0037396872536948483,-0.10865476572575036,-0.5388691930968683,-0.32448399310933584,0.2574015006339556,-3.0786394799577645,0.6247803902505351,4.769972257578189e-07,0.00021694211105028317,0.00043848979215793926,-0.034373165919651616,0.0019122056939846086,-0.005657755048922965,-0.00034972452614866374,0.3265368640422821,-1.1488302511027833,1.6653607527362269,-2.085752626458639,-1.5713813940631312,2.301520347595215,-0.0005400832160376012,0.039774131029844284,0.038997583091259,-0.07279939204454422,-8.386252011405304e-05,-0.0002095808449666947,0.26815059781074524,0.019153613597154617,-9.059659004211426,0.7083203792572021,47.71464920043945,-0.46797528862953186,-3.5543131828308105,-1.8280396461486816,-0.590875506401062,-0.036835309118032455,-0.1976235806941986,28.0625,29.9375,28.5625,32.3125,34.875,36.0625
1.0,-0.13004362976152578,-0.7218534248218715,-0.8973580810645703,-0.03186864681432622,-0.002188396540212365,-0.11051126380099688,-0.5388770143504362,-0.3244554519716245,0.25735679246898246,-3.078621534442945,0.6248346778451807,-1.80775288741815e-05,0.00029048578617849215,0.0005814945615443594,-0.035464718149306976,0.002915882380456989,-0.008612082831166629,-0.000539793721576207,0.32648882269859314,-1.1487937432578583,1.6654327551471155,-2.0858475170531214,-1.5713813940631312,2.3015084266662598,-0.0007216682424768806,0.04104270413517952,0.0393744520843029,-0.0713246688246727,-8.289696415886283e-05,-0.00020025254343636334,0.28730422258377075,-0.05746084079146385,-9.097966194152832,0.6658024191856384,47.68867492675781,-0.4094323515892029,-3.759289264678955,-1.867877721786499,-0.5893518328666687,-0.03852285444736481,-0.20342430472373962,28.0625,29.9375,28.5625,32.3125,34.875,36.0625
1.0,-0.0925965569235121,-0.6211507486871894,-0.8237217834696242,-0.027412412532910393,-0.004839152661146021,-0.11202445444905156,-0.5388558757672179,-0.3244859638957697,0.2572541914275801,-3.0786034972197545,0.6247539586149569,-7.25150638623994e-05,-2.4379873591544015e-05,0.0004273194352191845,-0.033710432142006835,0.002170539860170471,-0.00641761785461238,-0.0004765749320480633,0.32654884457588196,-1.1486742955497284,1.665539566670553,-2.086026807824606,-1.5713933149920862,2.301520347595215,-0.0006499969749711454,0.03954137861728668,0.03717874735593796,-0.06994523108005524,-8.195341069949791e-05,-0.00019171900930814445,0.2298433631658554,0.0,-9.059659004211426,0.7239871025085449,47.733455657958984,-0.3967127799987793,-3.6289830207824707,-1.8219720125198364,-0.6349550485610962,-0.028679855167865753,-0.21150493621826172,28.0625,29.9375,28.5625,32.3125,34.875,36.0625
1.0,0.08028549276360175,-0.3011479681118049,-0.979484631238858,-0.027507900254973072,-0.009063971448818396,-0.10910558150632806,-0.5388646462542159,-0.3244889264330556,0.25720723843433346,-3.078633922769424,0.6246647179448646,-4.066426428581777e-05,0.00048824128700248633,0.0006118629953730835,-0.03431495671270931,0.0030622152133011485,-0.009031651896898314,-0.0004987905651613752,0.32654881477355957,-1.1486025315574189,1.6655758062945765,-2.08615841488027,-1.5713933149920862,2.3014607429504395,-0.0006651760777458549,0.03937399387359619,0.038398683071136475,-0.0682358518242836,-8.111930947052315e-05,-0.00018388294847682118,0.2106897532939911,0.09576806426048279,-9.078812599182129,0.6725152134895325,47.73524856567383,-0.37498214840888977,-3.581876754760742,-1.7011427879333496,-0.679128110408783,-0.020112525671720505,-0.19362324476242065,28.0625,29.9375,28.5625,32.3125,34.875,36.0625
1.0,0.0718306560105427,-0.6098815198414322,-0.9871541714689679,-0.01861274528203825,-0.010660315127781025,-0.11422152795080025,-0.5388634007262616,-0.32448194376397577,0.2571483823960246,-3.0786126749462412,0.6247561466507472,-8.533028707635319e-05,0.0006538148626869521,0.000632098792025484,-0.03575513735711131,0.0036871654339764547,-0.010912789018068147,-0.00045197050579721124,0.32653680443763733,-1.1485418540290375,1.6656492392169397,-2.086266656915182,-1.5713813940631312,2.3015084266662598,-0.0006111407419666648,0.04091924428939819,0.039713192731142044,-0.06911345571279526,-6.891313387313858e-05,-0.00017666314670350403,0.24899697303771973,-0.038307227194309235,-9.174580574035645,0.6859408020973206,47.72718811035156,-0.4640680253505707,-3.658845901489258,-1.8700675964355469,-0.6996713280677795,-0.022766608744859695,-0.19683799147605896,28.0625,29.9375,28.5625,32.3125,34.875,36.0625
1.0,-0.020109062434488012,-0.7193807764440504,-0.7897433330960733,-0.0332132881753825,-0.005000057399132976,-0.11027124994229953,-0.5388626921472024,-0.3244686479691696,0.2570562816636994,-3.0785951386814028,0.6247910447543091,-0.0001877990195412231,0.0008719723493318616,0.0006713263086140537,-0.03677478656982832,0.00493093485337801,-0.014571436301831237,-0.0004034668411703118,0.32651287317276,-1.1484455925277253,1.6657560507403772,-2.0864082775511683,-1.571357552205221,2.3015084266662598,-0.0005572080262936652,0.04202945530414581,0.03990280628204346,-0.06654899567365646,-6.716835923725739e-05,-0.00016998816863633692,0.19153612852096558,0.0,-9.02135181427002,0.7530794739723206,47.712860107421875,-0.4777565598487854,-3.5710549354553223,-1.8050670623779297,-0.754938542842865,-0.03233012184500694,-0.19932147860527039,28.0625,29.9375,28.5625,32.3125,34.875,36.0625
1.0,0.04151889398843578,-0.6104192575885501,-0.8804594423840445,-0.046682797984522295,0.0034664925638997098,-0.11867135234741599,-0.5388595018470399,-0.324488432067355,0.2569979480343285,-3.0785963084242347,0.6247144845796772,-0.00015208151469773553,0.001316553414835164,0.0007934287022200541,-0.037350393599398464,0.005177019097438669,-0.015293275353161523,-0.0003645392241520618,0.32654887437820435,-1.1483617585948487,1.6658042112933558,-2.086552759210104,-1.5713813940631312,2.3014965057373047,-0.0005119152483530343,0.04184592142701149,0.04164791479706764,-0.0673479437828064,-6.613444566028193e-05,-0.00016379947192035615,0.2106897532939911,0.09576806426048279,-8.925583839416504,0.6926589012145996,47.700321197509766,-0.4737946093082428,-3.693481922149658,-1.909629225730896,-0.7821774482727051,-0.030983030796051025,-0.20485815405845642,28.0625,29.9375,28.5625,32.3125,34.875,36.0625
1.0,0.07838586797713909,-0.8324161069671105,-1.0037783104507803,-0.05287564352046838,0.01968680592112149,-0.11296472660881024,-0.5388659606840785,-0.32448155510045174,0.25694044091079205,-3.078579456190793,0.6247494960191787,-0.000141216414090537,0.0004632160469827125,0.0005206549559508839,-0.03614370247573356,0.0032204692796897294,-0.009563441242615748,-0.00040045164951340304,0.3265368342399597,-1.1482899349978943,1.6658647696124476,-2.0866862736144007,-1.5713933149920862,2.3015084266662598,-0.0005400858935900033,0.04174627736210823,0.04003123566508293,-0.07168629765510559,-6.517352449009195e-05,-0.00015804587746970356,0.3064578175544739,-0.019153613597154617,-9.078812599182129,0.7262282371520996,47.730770111083984,-0.47787410020828247,-3.5688014030456543,-1.8841201066970825,-0.7915440797805786,-0.029589110985398293,-0.18731564283370972,28.0625,29.9375,28.5625,32.3125,34.875,36.0625
1.0,-0.7630153062962289,-1.9340056182954468,-1.1526426121141842,-0.04341734747176469,0.016922987204164276,-0.10342499389347945,-0.538844787969544,-0.3244808423998785,0.2568239218222312,-3.078517392972423,0.6246984845232965,-0.000294100212633954,0.0004760752675822707,0.0005011013353889674,-0.03694020149824438,0.003605743432416563,-0.0107026786179637,-0.0003688536864720812,0.32654887437820435,-1.148181514149048,1.6660078207599085,-2.086817880670065,-1.5714057127581995,2.3014965057373047,-0.0005032283952459693,0.042800288647413254,0.04043129086494446,-0.07193774729967117,-6.42428858554922e-05,-0.000152682900079526,0.2298433631658554,0.1149216815829277,-9.097966194152832,0.6769921779632568,47.723602294921875,-0.4474244713783264,-3.6365551948547363,-1.7015211582183838,-0.7968370914459229,-0.02283589355647564,-0.2124733030796051,28.0625,29.9375,28.5625,32.3125,34.875,36.0625
1.0,-1.171183298631441,-1.4577407422095066,-1.100873855626527,-0.062189281019143165,0.02114219066983509,-0.10036298842157246,-0.538838413416595,-0.32448642413944145,0.2567766685122537,-3.0785366953564823,0.6246642178980601,-0.00026199732776517056,0.0002967295202404533,0.00039799911627865577,-0.03735221380820157,0.0017951797380587452,-0.005408422733191599,-0.0003171905488856228,0.3265608251094818,-1.1480134588531037,1.6662004629718226,-2.0871201954283656,-1.5713933149920862,2.3014726638793945,-0.0004387643712107092,0.04325462132692337,0.04259953275322914,-0.08015561103820801,-6.245953409234062e-05,-0.0001429793337592855,0.1149216815829277,0.1149216815829277,-9.251194953918457,0.7060845494270325,47.70121383666992,-0.5177484750747681,-3.655327796936035,-1.8850898742675781,-0.7798904180526733,-0.0319429412484169,-0.19886603951454163,28.0625,29.9375,28.5625,32.3125,34.875,36.0625
1.0,-0.9206101933843321,-1.7452054316111818,-1.4543493269397085,-0.06888560331026425,0.04926223734187758,-0.10940643306414138,-0.5388225119786814,-0.32447704121229104,0.25661477346308637,-3.0785201908825446,0.6246992775598564,-0.0004007021439639732,-0.00015262289847879325,0.00022078768225712144,-0.0370683400920258,0.0003709001209288142,-0.0012079038276074463,-0.0002848827788587455,0.32654890418052673,-1.147977576856949,1.6662967840777796,-2.0872537098326625,-1.571369473134176,2.3014965057373047,-0.00040015214472077787,0.04354579374194145,0.042628213763237,-0.08491085469722748,-7.231735798995942e-05,-0.0001385756186209619,0.15322890877723694,0.17238251864910126,-9.27034854888916,0.7351769208908081,47.734352111816406,-0.5401957631111145,-3.610271453857422,-1.8424322605133057,-0.7530643343925476,-0.034380439668893814,-0.19763050973415375,28.0625,29.9375,28.5625,32.3125,34.875,36.0625
1.0,-1.4882297969612073,-1.7176003746232338,-1.358074330897654,-0.07202044101271662,0.04288997081391413,-0.10769623641856003,-0.538848903006072,-0.32447173338921137,0.25654466284019367,-3.078537759163269,0.6247604280331466,-0.00035982567908493404,-0.0003693387791253787,0.00012576849125973445,-0.03696289004671244,-0.0006741854095970257,0.0018544119762638092,-0.000257865628917633,0.3265249729156494,-1.1478575331023713,1.6663320700274866,-2.0874463520445765,-1.571357552205221,2.3015084266662598,-0.00036746897967532277,0.04364432021975517,0.04311792925000191,-0.08873482793569565,-7.28219747543335e-05,-0.0001344353804597631,0.09576806426048279,0.24899697303771973,-9.308655738830566,0.7329410910606384,47.72808074951172,-0.45548027753829956,-3.5791869163513184,-1.856484293937683,-0.7315860986709595,-0.031634196639060974,-0.19425010681152344,28.0625,29.9375,28.5625,32.3125,34.875,36.0625
1.0,-1.4114916289059645,-1.6546091827988145,-1.5958636693568224,-0.07710154360914695,0.04679117986673056,-0.10991328861635846,-0.5388270145592524,-0.3244837910087201,0.25643662062643696,-3.07848740284976,0.6246736028190217,-0.0004283061652038702,-0.0008518546258453192,-1.800041638666473e-05,-0.03679285377047683,-0.0026301909624672276,0.007578586107151225,-0.00029661429980517456,0.3265608251094818,-1.1477494996837159,1.6664651075946253,-2.087616106072897,-1.5713933149920862,2.3014965057373047,-0.00039948252378962934,0.04395940527319908,0.04391855373978615,-0.09589968621730804,-7.194840145530179e-05,-0.00013053533621132374,0.019153613597154617,0.17238251864910126,-9.404424667358398,0.7060845494270325,47.7218132019043,-0.5220213532447815,-3.549318790435791,-1.8605400323867798,-0.6519619226455688,-0.03704071789979935,-0.2132168412208557,28.0625,29.9375,28.5625,32.3125,34.875,36.0625
1.0,-1.2431213662803215,-1.6438499617845235,-1.6597850480702705,-0.0820427065553472,0.06330447361286032,-0.1070184519532014,-0.5388281913247892,-0.32447516078037086,0.256376737362573,-3.0784762029873582,0.624768401969633,-0.00036907388515654825,-0.0009205557837937842,-5.477839107740082e-05,-0.03730381490767655,-0.0026910142203498025,0.00774833188417638,-0.00028014943786322294,0.3265489339828491,-1.1476892095855256,1.666560475026266,-2.0878082714476527,-1.5714057127581995,2.3015451431274414,-0.0003789316979236901,0.04471837729215622,0.044329095631837845,-0.09724949300289154,-7.10086096660234e-05,-0.00012685530236922204,0.019153613597154617,0.17238251864910126,-9.423578262329102,0.7083203792572021,47.703006744384766,-0.48672783374786377,-3.631441593170166,-1.883549451828003,-0.6390687227249146,-0.03382768854498863,-0.19995054602622986,28.0625,29.9375,28.5625,32.3125,34.875,36.0625
1.0,-1.6040245852017339,-1.604625529096,-1.6888892307345236,-0.08067116518073726,0.05568906595479191,-0.10535719305820085,-0.538836740132234,-0.3244765434683074,0.2562862818343535,-3.078531903630658,0.6247595148137953,-0.00041509610206393293,-0.0014777685088361635,-0.00026077296992187414,-0.037563253344415494,-0.0041901032631165794,0.012128818689709527,-0.00026121812725177327,0.3265368938446045,-1.1475690764239808,1.6666448752032679,-2.0880142650999964,-1.571345631276266,2.301520347595215,-0.00035417560138739645,0.045860469341278076,0.04472319781780243,-0.10341557115316391,-7.008736429270357e-05,-0.00012337705993559211,0.038307227194309235,0.19153612852096558,-9.366117477416992,0.6993717551231384,47.679718017578125,-0.5662057399749756,-3.61714506149292,-1.8630425930023193,-0.5811282396316528,-0.027108099311590195,-0.20715919137001038,28.0625,29.9375,28.5625,32.3125,34.875,36.0625
1.0,-1.3379442541690199,-1.7840676925689634,-1.878187716352153,-0.06931131847392749,0.05777489209542725,-0.10481998420489616,-0.5388321862445332,-0.32448029546943696,0.2561839303085765,-3.0785119967708074,0.6246597671948141,-0.0004475504136614632,-0.0011558883633239888,-0.00016525897883789095,-0.03835267749747822,-0.003467808720047037,0.01000575327436004,-0.00024220903569678424,0.3265489339828491,-1.1474488538554688,1.6667526404010218,-2.0882045231261195,-1.571369473134176,2.3014726638793945,-0.0003323719138279557,0.04631778597831726,0.04569929838180542,-0.10260642319917679,-6.918940198374912e-05,-0.00012008434714516625,-0.038307227194309235,0.2106897532939911,-9.519346237182617,0.7150384783744812,47.679718017578125,-0.53996741771698,-3.6924562454223633,-1.8856089115142822,-0.5404500961303711,-0.03774362802505493,-0.20002518594264984,28.0625,29.9375,28.5625,32.3125,34.875,36.0625
1.0,-1.5522259074708225,-1.4447548818778222,-1.7726018471060032,-0.06256246832742246,0.04144296322943562,-0.10888391268053202,-0.5388533345614651,-0.32447842592438375,0.25613694474639526,-3.078536423023249,0.6247032114752653,-0.0003236524090750373,-0.001182883786403148,-0.0001869291352282428,-0.039247634807487386,-0.0028930577260681224,0.008310028546499537,-0.00022571212019868004,0.3265368938446045,-1.1473645728877564,1.6667879263507288,-2.0884086094298304,-1.5713813940631312,2.3014845848083496,-0.00031309848418459296,0.047605667263269424,0.04585833474993706,-0.10226286202669144,-6.831408973084763e-05,-0.00011696296132868156,-0.038307227194309235,0.2106897532939911,-9.519346237182617,0.6613254547119141,47.7218132019043,-0.5124215483665466,-3.6725621223449707,-1.9111852645874023,-0.5253309607505798,-0.027137044817209244,-0.18569479882717133,28.0625,29.9375,28.5625,32.3125,34.875,36.0625
1.0,-0.41183668588597133,-0.7272165585828442,-1.7903460469339807,-0.05376108107778039,0.04654158953717555,-0.11081248614240577,-0.5388455440657205,-0.32447827637247895,0.2560338615249846,-3.078536747470767,0.6247415908985556,-0.00037732349873637164,-0.0008642722015909073,-8.954802194292093e-05,-0.03969559481475887,-0.001985792005582264,0.005648493273968126,-0.00021049437080746842,0.3265369236469269,-1.1472566288760682,1.666920010243551,-2.088623186151022,-1.571357552205221,2.3015084266662598,-0.00029593793442472816,0.047717876732349396,0.0461883544921875,-0.09989316761493683,-6.746070721419528e-05,-0.00011399980576243252,0.019153613597154617,0.07661445438861847,-9.404424667358398,0.7038487195968628,47.73255920410156,-0.5286065340042114,-3.6717236042022705,-1.9546308517456055,-0.5395283699035645,-0.04504720866680145,-0.19962573051452637,28.0625,29.9375,28.5625,32.3125,34.875,36.0625
1.0,-0.2960975867922748,-0.5024532213415152,-1.805348900690847,-0.03504063022447012,0.024486421280657547,-0.11685878179449607,-0.5388552359804345,-0.32446875708705525,0.2559666716046567,-3.0785230084954716,0.6247197312534145,-0.0002760326135763849,-0.0005700683787548761,2.9827291700723388e-05,-0.04027712992913418,-0.0009294685689298246,0.002548921637171849,-0.00024159603402478988,0.3265249729156494,-1.1471725863269349,1.6670039335833948,-2.0888377628722132,-1.5714057127581995,2.3014845848083496,-0.00032540110987611115,0.048041343688964844,0.04645340144634247,-0.09720706194639206,-6.662834493909031e-05,-0.00011118280235677958,-0.019153613597154617,0.019153613597154617,-9.423578262329102,0.6971306204795837,47.72629165649414,-0.547124981880188,-3.704202175140381,-1.919596552848816,-0.5606534481048584,-0.03512629121541977,-0.19585227966308594,28.0625,29.9375,28.5625,32.3125,34.875,36.0625
1.0,-0.15222668019954833,-0.01667211971482159,-1.835580610248873,-0.029745135561452137,0.011081245002720123,-0.11640323920599924,-0.5388541444498562,-0.32449547682849944,0.2558834001057531,-3.07857780793523,0.6246926551318659,-0.0002599276211685259,-0.0004074534439727715,7.595801707815221e-05,-0.041019544290486945,0.000220455751853455,-0.0008287054933897636,-0.0002287138339866197,0.3265608549118042,-1.1470523339561005,1.6670764128314417,-2.0890637836852015,-1.571369473134176,2.3014965057373047,-0.00031112716533243656,0.04889717698097229,0.04629917070269585,-0.09434065222740173,-6.581626075785607e-05,-0.0001085020849131979,0.07661445438861847,-0.038307227194309235,-9.404424667358398,0.7284641265869141,47.7244987487793,-0.5331794619560242,-3.7777352333068848,-1.8582196235656738,-0.594344973564148,-0.01377317775040865,-0.19512134790420532,28.0625,29.9375,28.5625,32.3125,34.875,36.0625
1.0,-0.24320847883953675,-0.15004108796940005,-1.754958097006422,-0.01794794416798809,0.004240912947407529,-0.11134767065896456,-0.5388526123422885,-0.32447939733858655,0.25577139014845723,-3.078515428704217,0.6247565919669269,-0.0003908815368041611,-0.00024992018483456773,0.00012003337372140401,-0.04090150010762884,0.0008097675874799048,-0.002555298690233484,-0.0002156956643009527,0.3265369236469269,-1.1469325584224244,1.6671960989581507,-2.0892068348326625,-1.571369473134176,2.301520347595215,-0.0002965073217637837,0.04860658943653107,0.04586416110396385,-0.09179066121578217,-6.50237052468583e-05,-0.00010594735795166343,0.05746084079146385,-0.15322890877723694,-9.385271072387695,0.6478998064994812,47.69584274291992,-0.5567086935043335,-3.717897415161133,-1.8430607318878174,-0.6385123133659363,-0.02779163047671318,-0.1929965615272522,28.0625,29.9375,28.5625,32.3125,34.875,36.0625
1.0,0.047507455615234284,0.06317790716255574,-1.6344176157536972,-0.012269300152325855,0.003817089120347657,-0.11041069451398933,-0.5388398156519983,-0.3244828277951092,0.2557126401622332,-3.078541995856359,0.6246855096419798,-0.00035935449533196234,0.0003314220235245889,0.00033257845572280773,-0.04112771831961742,0.00167509537159214,-0.005087337434253453,-0.0002394803292590936,0.3265489339828491,-1.1468848449042817,1.6673033873187464,-2.0893851719298304,-1.571369473134176,2.3014845848083496,-0.0003188372647855431,0.047842878848314285,0.0469067245721817,-0.08939369767904282,-6.425008905353025e-05,-0.00010351015225751325,0.15322890877723694,-0.2106897532939911,-9.308656692504883,0.7038487195968628,47.72629165649414,-0.559845507144928,-3.6533730030059814,-1.822115182876587,-0.6764301061630249,-0.03362478315830231,-0.19380950927734375,28.0625,29.9375,28.5625,32.375,34.875,36.0625
1.0,-0.24835904837176812,-0.05365903285848655,-1.5527384269237445,-0.0081065744383503,-0.008264254970856037,-0.10211843391818404,-0.5388518635241786,-0.32447910086614795,0.2556172143596199,-3.0785255378008043,0.6247015351310137,-0.0003951340931465319,0.0008020706968159687,0.0004870066093141713,-0.041965570853041076,0.0027658694895122894,-0.008287994861794457,-0.00023161506080257013,0.3265368938446045,-1.1467527908137818,1.6673763434039515,-2.0895639858641566,-1.571369473134176,2.3014845848083496,-0.00030964580946601927,0.04812544956803322,0.04795536771416664,-0.0873434916138649,-6.349461909849197e-05,-0.00010118268255610019,0.2106897532939911,-0.24899697303771973,-9.308655738830566,0.6434228420257568,47.7244987487793,-0.5858625173568726,-3.619870185852051,-1.9160282611846924,-0.725339412689209,-0.04665977507829666,-0.20341145992279053,28.0625,29.9375,28.5625,32.375,34.875,36.0625
1.0,-0.12048808712491679,-0.011627000101061324,-1.599759224235474,-0.0149036333623035,0.004995132574994323,-0.10986038696942599,-0.5388464726942157,-0.32448632072807015,0.25552734840820024,-3.0785025384117786,0.6247158516903812,-0.000485907864366307,-8.692981081669674e-05,0.00018408870981532848,-0.04196293409181049,0.002946673205898059,-0.0088329019076929,-0.00023334481676695953,0.3265489339828491,-1.146644340162613,1.6674588362323206,-2.0896951160826625,-1.571357552205221,2.3015084266662598,-0.0003098322486039251,0.05011427775025368,0.04477401450276375,-0.0855768620967865,-6.275669147726148e-05,-9.895752009470016e-05,0.28730422258377075,-0.2106897532939911,-9.346963882446289,0.7553206086158752,47.72987747192383,-0.5370283722877502,-3.7281923294067383,-1.6737182140350342,-0.7886780500411987,-0.04466433823108673,-0.19441136717796326,28.0625,29.9375,28.5625,32.375,34.875,36.0625
1.0,-0.37210924003055984,0.03975086302436323,-1.7392506523373377,-0.0212850771021529,-0.0024335167871019628,-0.11258669448393663,-0.5388716427948913,-0.3244637688074464,0.25548015197076707,-3.0785136719339476,0.6248141183580956,-0.0004047243357973258,0.0005438981928465005,0.0004224378670569841,-0.04061450693316291,0.0022788735922422243,-0.006857098988886062,-0.00027241095680413554,0.3265010118484497,-1.1465732020190735,1.6675074736224573,-2.089874883691305,-1.571357552205221,2.301520347595215,-0.0003462688182480633,0.046965938061475754,0.04618873819708824,-0.08592884987592697,-6.203576776897535e-05,-9.682813106337562e-05,0.19153612852096558,-0.17238251864910126,-9.346963882446289,0.7262282371520996,47.699424743652344,-0.594373881816864,-3.607776403427124,-1.750417947769165,-0.7980732321739197,-0.04768693447113037,-0.20248351991176605,28.0625,29.9375,28.5625,32.375,34.875,36.0625
1.0,-0.054753573520291116,-0.5325332149746618,-1.6606433693427094,-0.02191866001732629,0.02386174271794601,-0.114098404377459,-0.5388526794086462,-0.32448464492055606,0.2553819666614562,-3.0784985873969832,0.6246769763647584,-0.00040726528444922847,0.000675539332148669,0.0005132197570811362,-0.04071464222319585,0.0020201712351846403,-0.006098793618708898,-0.0003457745832411926,0.32654890418052673,-1.1464656454375763,1.667626682912008,-2.090078969995016,-1.5713933149920862,2.3014845848083496,-0.0004170301544945687,0.04669873043894768,0.04712880030274391,-0.08740293234586716,-6.133117130957544e-05,-9.478849824517965e-05,0.15322890877723694,-0.15322890877723694,-9.327810287475586,0.7597975730895996,47.7244987487793,-0.5619478225708008,-3.40077543258667,-1.7489137649536133,-0.8331624269485474,-0.04043041542172432,-0.18716293573379517,28.0625,29.9375,28.5625,32.375,34.875,36.0625
1.0,-0.9520919277955266,-0.935398493375632,-1.92609430266619,-0.04486879174248077,0.027079566760213322,-0.10390634469404311,-0.5388553366118283,-0.3244518667105423,0.2552990779076495,-3.0784245567177972,0.6248159205595678,-0.0004528166263255636,0.0005282649614676882,0.0004618538195377811,-0.040860933017854935,0.001088555670446818,-0.0033746614965485945,-0.0003475942092435423,0.3265126645565033,-1.1463208359530945,1.6678312460528772,-2.0903927288451136,-1.5713813940631312,2.3015451431274414,-0.0011113932123407722,0.048813026398420334,0.04780956357717514,-0.09454551339149475,-6.739557284163311e-05,-9.095654240809381e-05,0.07661445438861847,-0.05746084079146385,-9.500192642211914,0.6993717551231384,47.731666564941406,-0.5513178110122681,-3.481942653656006,-1.7530908584594727,-0.8219780921936035,-0.036826085299253464,-0.18448057770729065,28.0625,29.9375,28.5625,32.375,34.875,36.0625
1.0,-1.1208122114235939,-1.6530416634077072,-1.9724668352591095,-0.07151240651844588,0.057132036777685455,-0.10946016610949857,-0.5388382619865177,-0.32445991130775836,0.2551181081691722,-3.07846811914373,0.6247482782774617,-0.0005627477488578217,-0.001014445464451146,0.0003733843534654383,-0.04048705488672982,-0.0015343711816694272,0.004164489432348336,-0.0010349839326206142,0.3265126645565033,-1.1462011498263855,1.6679747740374964,-2.090598245660299,-1.571357552205221,2.3014965057373047,-0.0010955979814752936,0.04872945323586464,0.04658607393503189,-0.09975225478410721,-1.761108433129266e-05,-8.91544041223824e-05,0.019153613597154617,0.09576806426048279,-9.53849983215332,0.7060845494270325,47.73793411254883,-0.5411926507949829,-3.4112133979797363,-1.644613265991211,-0.8116552829742432,-0.04757669195532799,-0.20667678117752075,28.0625,29.9375,28.5625,32.375,34.875,36.0625
1.0,-1.3478962799047316,-2.3199545961446235,-2.0414981622059862,-0.07242201903127352,0.0686283554930328,-0.11314362138515646,-0.5388352880447085,-0.3244629738573574,0.25503689911514454,-3.078443240630029,0.6247238755399273,-0.000530755191087058,-0.0009705487611041405,0.00036058385047543393,-0.03900057964008297,-0.004159845037547095,0.01182302771522798,-0.0010002502989332653,0.3265247344970703,-1.146106169824936,1.6680706183062952,-2.0907918415465296,-1.5713933149920862,2.3014965057373047,-0.0010558068752288818,0.04622938111424446,0.0483778677880764,-0.10714007169008255,-1.149877903117158e-06,-8.742245699977502e-05,0.019153613597154617,0.19153612852096558,-9.557653427124023,0.7396538853645325,47.71196365356445,-0.5397374033927917,-3.2836971282958984,-1.7013986110687256,-0.7296693325042725,-0.044097900390625,-0.1929684579372406,28.0625,29.9375,28.5625,32.375,34.875,36.0625
1.0,-1.6786537074584644,-2.4667566883506646,-2.1542446266715407,-0.09054724482456311,0.06837440783893667,-0.11207468929514491,-0.5388387602133948,-0.32443823446370884,0.2549483470097079,-3.0784044235162296,0.6248118877249497,-0.0005109624917052968,-0.001290426687401423,0.00017207492260695154,-0.04012906177677438,-0.0047789394238867446,0.01362003878473246,-0.0008809545591440453,0.32648876309394836,-1.1460212928107758,1.6682027021991175,-2.0910092792906703,-1.5714176336871546,2.301520347595215,-0.0009332491317763925,0.04819270968437195,0.04928833246231079,-0.11191451549530029,-7.50788089476373e-08,-8.575632818974555e-05,0.019153613597154617,0.26815059781074524,-9.59596061706543,0.6344689130783081,47.71733474731445,-0.5951891541481018,-3.388944149017334,-1.7206456661224365,-0.6931363344192505,-0.03701865300536156,-0.17279601097106934,28.0625,29.9375,28.5625,32.375,34.875,36.0625
1.0,-1.7836579511718353,-2.818397824862924,-2.1748527451700914,-0.09634042583263414,0.06842880112531106,-0.10602330974405003,-0.5388548047897618,-0.3244487610978396,0.2548752322662683,-3.0784734338100237,0.624806986078668,-0.0004827298682116302,-0.0017919889902059086,-3.6117295684177284e-05,-0.04024030276619994,-0.006040817807967392,0.017310229587009632,-0.0008269765861022688,0.32648879289627075,-1.1459012490561982,1.6682503859149378,-2.0912262401976527,-1.571369473134176,2.3015084266662598,-0.0008757567266002297,0.049128297716379166,0.04934462904930115,-0.11680637300014496,-4.902109829174606e-09,-8.415268530370668e-05,-0.019153613597154617,0.3064578175544739,-9.59596061706543,0.7866488099098206,47.72092056274414,-0.5636770129203796,-3.3914108276367188,-1.702121615409851,-0.6147541403770447,-0.04178135469555855,-0.19194725155830383,28.0625,29.9375,28.5625,32.375,34.875,36.0625
1.0,-1.5658633554906145,-2.542800124552196,-2.1658892342124947,-0.10262519846433626,0.06339341209710907,-0.11017433931925125,-0.5388514897098929,-0.3244463687872243,0.2547863357731479,-3.078469733915119,0.6248063109412711,-0.0004565230850468128,-0.002013752651311822,-0.00011878703094393704,-0.03963973658780029,-0.007194746937389559,0.02069508819886881,-0.0008190969223336793,0.32648879289627075,-1.1458054941943665,1.668370548878805,-2.091454645196432,-1.5713813940631312,2.3015084266662598,-0.0008649310329928994,0.04861868545413017,0.04940496012568474,-0.11993324011564255,-3.2007274608503167e-10,-8.260786125902086e-05,-0.2106897532939911,0.363918662071228,-9.710882186889648,0.6747510433197021,47.711063385009766,-0.5641802549362183,-3.286344051361084,-1.699052095413208,-0.5810112953186035,-0.033051107078790665,-0.1828722059726715,28.0625,29.9375,28.5625,32.375,34.875,36.0625
1.0,-1.311397633201946,-2.137408498732459,-1.8898329830567056,-0.10500419605061492,0.06179461126675391,-0.11442710859537944,-0.5388584977091986,-0.3244643114809538,0.2547508042979747,-3.0785624829455145,0.6247487020009325,-0.0002437077508075927,-0.0023017245763996847,-0.00020151892033827275,-0.039893882379449935,-0.007382291409192002,0.021599643604008203,-0.0008256905538942349,0.32651275396347046,-1.145745114689209,1.6684296766864222,-2.09173121074819,-1.5713813940631312,2.3014845848083496,-0.0008697035373188555,0.049462951719760895,0.049146868288517,-0.12143590301275253,-0.00011719817121047527,-8.111860370263457e-05,-0.038307227194309235,0.40222588181495667,-9.710882186889648,0.6971306204795837,47.70121383666992,-0.5922937393188477,-3.334412097930908,-1.6683478355407715,-0.5713030099868774,-0.03818466141819954,-0.1869756132364273,28.0625,29.9375,28.5625,32.375,34.875,36.0625
1.0,-1.270968943162099,-2.4027232606397666,-2.0675396983109686,-0.08195390762607754,0.044151474289228554,-0.10984176538815965,-0.5388579984718882,-0.3244510680378662,0.25465615069570774,-3.0785586905798366,0.6248636836525876,-0.0002672131394834182,-0.0016657832445709018,2.5782714170173935e-05,-0.04065351656767972,-0.005502078131817748,0.016159492976887638,-0.0008374990062861412,0.32648879289627075,-1.1456493896296998,1.6685622374164026,-2.0919562778868617,-1.571357552205221,2.301532745361328,-0.0008823422831483185,0.04948848485946655,0.04966326057910919,-0.11622193455696106,-0.00013906523236073554,-7.968222780618817e-05,-0.05746084079146385,0.3447650372982025,-9.53849983215332,0.7060845494270325,47.67255783081055,-0.5556495785713196,-3.2679994106292725,-1.6556119918823242,-0.5868405103683472,-0.04333833232522011,-0.1909521371126175,28.0625,29.9375,28.5625,32.375,34.875,36.0625
1.0,-0.6327909504521536,-1.5042305121534847,-1.7408731189496836,-0.06741735460290406,0.028588011300760986,-0.1102815744652808,-0.5388346576401716,-0.32447570138478626,0.2545628435430053,-3.078532382409574,0.6247622980561772,-0.00020445694098076683,-0.0019102443851937406,5.959171158562016e-05,-0.04136183404989493,-0.005065778528860576,0.014860254292908354,-0.0010193631219231926,0.32654869556427,-1.1455528301051636,1.6686938444720667,-2.0921956501402796,-1.5714176336871546,2.301532745361328,-0.0010631319601088762,0.05086526274681091,0.04926732927560806,-0.11583226174116135,-0.0001365116040688008,-7.829583046259359e-05,0.019153613597154617,0.24899697303771973,-9.461885452270508,0.6881819367408752,47.6949462890625,-0.6078636646270752,-3.29353666305542,-1.651261568069458,-0.5776162147521973,-0.03315829485654831,-0.1936645209789276,28.0625,29.9375,28.5625,32.375,34.875,36.0625
