Tylouw/Master_Thesis_Code/test_recorded_data/trial4/insertion_3_2026-01-23_13-50-22.csv
num_insertion,tcp_force_x[N],tcp_force_y[N],tcp_force_z[N],tcp_force_rx[Nm?],tcp_force_ry[Nm?],tcp_force_rz[Nm?],tcp_pose_x[m],tcp_pose_y[m],tcp_pose_z[m],tcp_pose_rx[rot_vec_x],tcp_pose_ry[rot_vec_y],tcp_pose_rz[rot_vec_z],tcp_velo_x[m/s],tcp_velo_y[m/s],tcp_velo_z[m/s],tcp_velo_rx[rot_vec_x/s],tcp_velo_ry[rot_vec_y/s],tcp_velo_rz[rot_vec_z/s],q1[rad],q2[rad],q3[rad],q4[rad],q5[rad],q6[rad],qd1[rad/s],qd2[rad/s],qd3[rad/s],qd4[rad/s],qd5[rad/s],qd6[rad/s],tool_acc_x,tool_acc_y,tool_acc_z,current_of_whole_robot[A],voltage_of_whole_robot[V],current_J1[A],current_J2[A],current_J3[A],current_J4[A],current_J5[A],current_J6[A],temp_J1[C],temp_J2[C],temp_J3[C],temp_J4[C],temp_J5[C],temp_J6[C]
1.0,0.9347960705208639,0.9589523854946782,-0.8487032984634513,-0.011562428182407915,-0.023184035836540735,-0.08881201015043405,-0.5385734854562999,-0.324726840497772,0.2600109333652066,-3.0785987731069993,0.6250014013018209,3.758649225566802e-05,0.0029145607648691633,-0.0015057228241958911,-0.0006678580750114662,-0.00016302781109005398,0.0008949105681856973,0.00418164051421466,0.32706549763679504,-1.1521303814700623,1.6627019087420862,-2.07981600383901,-1.5713813940631312,2.3021936416625977,0.0038715912960469723,-0.0029287172947078943,0.006619680672883987,-0.00459037721157074,-0.00012930102820973843,-0.00031149439746513963,0.5363011956214905,-0.28730422258377075,-9.174580574035645,0.7687462568283081,47.687782287597656,-0.24360391497612,-4.34338903427124,-2.729078769683838,-0.44083839654922485,0.00800892524421215,-0.31793084740638733,25.5,26.3125,25.5,28.5,29.8125,30.375
1.0,0.903552251463525,1.1030437538275928,-0.7986878843477455,0.0036925327459303714,-0.035300798422865494,-0.09068455612331344,-0.5385837151923099,-0.3247157514623677,0.26001387838320866,-3.0786138810380086,0.6250435889430154,6.275801990582436e-05,0.0012513618427400905,-0.0012521691464502766,0.0009061602139943291,-0.0015152237284954864,0.004839870559284254,0.002738221904487522,0.3270411193370819,-1.152130202656128,1.6627004782306116,-2.0798403225340785,-1.571369473134176,2.3021936416625977,0.0026061173994094133,-0.0023924829438328743,0.002427720231935382,-0.005104891024529934,-0.00012670073192566633,-0.00013410155952442437,0.5171475410461426,-0.2106897532939911,-9.097966194152832,0.7754590511322021,47.71733474731445,-0.27066659927368164,-4.305675029754639,-2.4920780658721924,-0.4155047535896301,0.023908309638500214,-0.3335895538330078,25.5,26.3125,25.5,28.5,29.8125,30.375
1.0,0.42825424952867625,0.9839997296816938,-1.127868869938734,0.01090919197808107,-0.04665644642195773,-0.07805369110986249,-0.5385841443766116,-0.324709020535335,0.26001895179278345,-3.0786215335244687,0.6250270060679983,3.705404763781173e-05,6.0365195354977585e-05,-0.0005861277932351767,0.0017448786519323122,-0.0015454952781757752,0.004911020146215677,0.0011200937235507624,0.32706448435783386,-1.152130053644516,1.6627352873431605,-2.079815527001852,-1.5713813940631312,2.3022055625915527,0.0009535702993161976,-0.0019420497119426727,-0.0006787307793274522,-0.002525999676436186,-0.00012180137855466455,-0.00016772464732639492,-0.019153613597154617,0.07661445438861847,-9.251194953918457,0.7597975730895996,47.668975830078125,-0.14942273497581482,-3.984010696411133,-1.9796311855316162,-0.46494346857070923,0.01905824989080429,-0.33460214734077454,25.5,26.3125,25.5,28.5,29.8125,30.375
1.0,-1.7865089556951488,-1.445056805583382,-0.963942046749278,-0.06334943634664793,0.05178899295196901,-0.08252988362012179,-0.5385473652560816,-0.3247339195977014,0.2599926245969351,-3.078567107437775,0.6249967695353056,-8.509634452750602e-05,4.2479899609329526e-05,-0.00016183596668264256,0.0009685851152678759,-0.0008630096456722588,0.0029024519704779522,0.0005076839790937432,0.32708820700645447,-1.152141736154892,1.662748161946432,-2.0797673664488734,-1.571369473134176,2.302217483520508,0.00029062412795610726,-0.0012852073414251208,-1.608122511242982e-05,-0.0017241484019905329,-0.00011949112376896665,-0.00021776479843538254,-0.2106897532939911,0.19153612852096558,-9.327810287475586,0.7665104269981384,47.703006744384766,-0.10852798819541931,-3.9803929328918457,-2.0366997718811035,-0.5121811628341675,0.02462714910507202,-0.34143710136413574,25.5,26.3125,25.5,28.5,29.8125,30.375
1.0,-2.921115033520693,-2.4313810211367204,-0.8362227779001834,-0.11258836884667002,0.10936921644397511,-0.08215219789124367,-0.5385557566737652,-0.32473561316003463,0.26000600971826354,-3.0785975339541167,0.624847967783068,-4.747178059066982e-05,0.002372648535789883,0.00043993157630108803,-0.003089661111874995,0.002083110788980814,-0.005728678251521791,0.0011987649905787704,0.327088326215744,-1.1521415275386353,1.6627147833453577,-2.07975496868276,-1.5713813940631312,2.3021209239959717,0.0005894566420465708,-0.0006452297093346715,0.00822504423558712,-0.0014852364547550678,-0.00011726692173397169,-0.0006089903181418777,-0.24899697303771973,0.2298433631658554,-9.385271072387695,0.7709873914718628,47.68867492675781,-0.1163109838962555,-3.883171796798706,-2.42498779296875,-0.5572028756141663,0.009014485403895378,-0.34501445293426514,25.5,26.3125,25.5,28.5,29.8125,30.375
1.0,-3.1590692167835495,-2.561501407779158,-0.5516374504509491,-0.11904683000286963,0.12356976779299712,-0.07884230360930675,-0.5385405074823393,-0.3247395142333129,0.2599974400326289,-3.078584359254384,0.6249034943380135,-8.944333849220591e-05,0.002212354364597466,-6.590315635209605e-05,-0.0032171157586259277,0.0020617178487425457,-0.0056795975791919945,0.002390704550625827,0.3271004259586334,-1.1521532994559784,1.662750546132223,-2.07975496868276,-1.571369473134176,2.3021693229675293,0.001283852499909699,0.0003376963431946933,0.007134589832276106,-0.0014311445411294699,-0.00011512412311276421,-0.0011064667487517,-0.17238251864910126,0.19153612852096558,-9.327810287475586,0.7754590511322021,47.72897720336914,-0.19137117266654968,-3.9480042457580566,-2.4392313957214355,-0.5965224504470825,0.01585758849978447,-0.3401011824607849,25.5,26.3125,25.5,28.5,29.8125,30.375
1.0,-1.9864547750019141,-1.2532607730521825,-0.5219352270780915,-0.07578247966066398,0.08934342703688315,-0.08077302200020424,-0.5385519480241394,-0.3247317470544834,0.2600027216566198,-3.078628705771832,0.6249697982545412,-4.866193235666487e-05,0.0012025634825490875,-0.0006564818028593081,-0.0016040919995299818,-0.00044281731580322805,0.0016398023164330444,0.0028133541282861227,0.32707667350769043,-1.1521533590606232,1.6627500692950647,-2.0798055134215296,-1.5713337103473108,2.3021812438964844,0.0016616875072941184,0.00024747420684434474,0.004809501580893993,-0.006751846522092819,-0.00011305813677608967,-0.0011536800302565098,-0.24899697303771973,0.19153612852096558,-9.155426979064941,0.7530794739723206,47.71554183959961,-0.2429448515176773,-3.848644256591797,-2.2090744972229004,-0.6081302165985107,0.02912105619907379,-0.35829591751098633,25.5,26.3125,25.5,28.5,29.8125,30.375
1.0,-0.7452204384491616,0.43760187276596796,-0.66947908989567,-0.019868785375576,0.03565463441927886,-0.08720179069642067,-0.5385301768687527,-0.32474640570661706,0.2600101076444959,-3.0786549729484247,0.6249171608803865,2.9599347675524657e-05,0.0001839770338958988,-0.0009138865207547018,-0.00031963822941134194,-0.003080449837090583,0.00934738785219449,0.003416603087652569,0.32711261510849,-1.1521892708591004,1.6627972761737269,-2.079867502252096,-1.571345631276266,2.3021810054779053,0.0015220562927424908,0.0001531524903839454,0.0035706935450434685,-0.01356524508446455,-0.00011106495367130265,-0.001899449503980577,-0.2298433631658554,0.17238251864910126,-9.193734169006348,0.7463666796684265,47.70927429199219,-0.270922988653183,-3.812471866607666,-2.0051887035369873,-0.531353235244751,0.022247251123189926,-0.3477148115634918,25.5,26.3125,25.5,28.5,29.8125,30.375
1.0,0.39926724564075083,1.1382311919188692,-0.5720967878545568,-0.004955402416738665,0.015207960977540604,-0.09832669912925729,-0.5385425957712022,-0.32474026798657263,0.2600133675751812,-3.0786409319620316,0.6249145905433596,6.534790171349425e-05,-7.356810387977101e-05,-0.0008333829878452136,-0.00016607777381204056,-0.0038856267035195682,0.011696374119107171,0.003185794927211225,0.3271004855632782,-1.1521773499301453,1.6627734343158167,-2.0798679790892542,-1.571369473134176,2.30216908454895,0.0012623457005247474,0.00013023760402575135,0.003879767144098878,-0.01633461005985737,-0.00010914089943980798,-0.001929443096742034,-0.1149216815829277,0.09576806426048279,-9.117119789123535,0.7575564384460449,47.71017074584961,-0.15549913048744202,-3.675212860107422,-1.9981987476348877,-0.5110601186752319,0.003260094905272126,-0.3637988567352295,25.5,26.3125,25.5,28.5,29.8125,30.375
1.0,-0.23039769523056602,0.482642464029583,-0.4769296590289504,-0.007893858715076533,-0.0017410014794145736,-0.08898256938155774,-0.5385332107715302,-0.32475381190247304,0.25998065626846345,-3.0786481970971473,0.6248969616707449,3.76984645081773e-05,0.0004406650683224585,-0.0005354601273760556,-0.0013668717144646207,-0.0030141976388611937,0.00913776505385475,0.0030657093424401654,0.32712435722351074,-1.1521411103061219,1.6628106276141565,-2.079928060571188,-1.571357552205221,2.3021810054779053,0.0010739002609625459,0.0005063196294941008,0.006036228034645319,-0.016164204105734825,-0.00010728222696343437,-0.0019974596798419952,-0.1149216815829277,0.038307227194309235,-9.059659004211426,0.7239871025085449,47.66360092163086,-0.19880327582359314,-3.6695051193237305,-2.044050931930542,-0.5248793959617615,0.01884806528687477,-0.3689187169075012,25.5,26.3125,25.5,28.5,29.8125,30.375
1.0,0.028535675074728345,0.5950818927185574,-0.26389869682700334,-0.0441013575173298,0.03776306293440913,-0.09418669445354737,-0.5385538061574464,-0.32471945981971906,0.25997876246309315,-3.0786246605132286,0.6249690054374555,8.836239531265523e-05,0.00020128791155465554,-0.000526553872144782,-0.002861545507917457,-0.0020570111755144377,0.006316881069230933,0.0031357903125441354,0.32706448435783386,-1.1521401864341279,1.6628215948687952,-2.079963346520895,-1.5713813940631312,2.30216908454895,0.0009343820856884122,0.0029221721924841404,0.005902682431042194,-0.015467748045921326,-0.00010548589489189908,-0.0022064130753278732,-0.15322890877723694,-0.17238253355026245,-9.02135181427002,0.7956027388572693,47.72092056274414,-0.23680874705314636,-3.6657824516296387,-1.99461030960083,-0.5179703831672668,0.012453584000468254,-0.3637096583843231,25.5,26.3125,25.5,28.5,29.8125,30.375
1.0,-0.8871074252318052,0.15651564108814386,-0.23659489676426915,-0.037305658290167236,0.043132847046203224,-0.09086383105769147,-0.5385579049861088,-0.3247557161497762,0.26000300068404536,-3.078695604849006,0.6249258538384039,0.00014061452793790035,6.494897548495791e-05,-0.0005035282957746276,-0.0029982369698983886,-0.001883192328172287,0.005799694730621208,0.0030783148653957095,0.3271123766899109,-1.152128205900528,1.6627500692950647,-2.079963346520895,-1.571345631276266,2.3021810054779053,0.0008269710233435035,0.003349756821990013,0.005499735474586487,-0.014946703799068928,-0.00010374884004704654,-0.002256120555102825,0.1149216741323471,-0.24899697303771973,-9.02135181427002,0.6881819367408752,47.692256927490234,-0.22302070260047913,-3.7279551029205322,-1.9839813709259033,-0.5701842308044434,0.005456751212477684,-0.3642647862434387,25.5,26.3125,25.5,28.5,29.8125,30.375
1.0,-0.37779861081390875,0.8693688970485174,-0.44723866658450057,-0.02977463338207356,0.04181248298420621,-0.09813476711654019,-0.5385531977295767,-0.32474626683727154,0.2599782385825623,-3.078688127474985,0.6249035677403583,0.00010895287556076457,-0.00016118183623740814,-0.0005256181899429765,-0.0024171281382982888,-0.002501809731634449,0.007606815171399465,0.0032376381282285434,0.32710030674934387,-1.1521163147738953,1.662797753010885,-2.0799995861449183,-1.571345631276266,2.3021559715270996,0.0007417249726131558,0.0029401592910289764,0.004974223207682371,-0.015921704471111298,-0.0001020679555949755,-0.002501200884580612,0.19153612852096558,-0.2298433631658554,-9.059659004211426,0.7396538853645325,47.6895751953125,-0.23107531666755676,-3.603893995285034,-1.8762032985687256,-0.5770487785339355,0.018633617088198662,-0.3572881817817688,25.5,26.3125,25.5,28.5,29.8125,30.375
1.0,-0.34992773375398145,1.0614271701876243,-0.4104905428475752,-0.006365852100688567,0.00886166064182727,-0.09075957027779524,-0.5385527000283553,-0.32474107457615903,0.25997256478273406,-3.078663651994187,0.6248794597156133,0.00017996524058880336,9.730475971643768e-05,-0.0003924952882321897,-0.002653126827143788,-0.002504215880396577,0.007610980990040863,0.0035833727110702383,0.3271002769470215,-1.1521164041808625,1.6628215948687952,-2.080047746697897,-1.5713933149920862,2.3021440505981445,0.0006724167615175247,0.002600550651550293,0.006176491267979145,-0.016789285466074944,-0.00010044062946690246,-0.0029165304731577635,0.15322890877723694,-0.24899697303771973,-8.983044624328613,0.7597975730895996,47.6895751953125,-0.23772203922271729,-3.6234354972839355,-1.7675936222076416,-0.5465342402458191,-0.00016299868002533913,-0.34359991550445557,25.5,26.3125,25.5,28.5,29.8125,30.375
1.0,0.23692655909271515,1.140779812327435,-0.6611528175151004,0.011062587114372417,-0.01804614515094736,-0.0861302083947229,-0.5385386947410362,-0.3247671369646477,0.2599704805475456,-3.0787653456432387,0.6247471509869076,0.0001543698899770343,0.0003993482626246667,-0.00020286443061279605,-0.003809586473482683,-0.0018053942260342652,0.0055556376340507845,0.0035308793409046476,0.32713621854782104,-1.152116135959961,1.6628339926349085,-2.080083509484762,-1.5713217894183558,2.302084445953369,0.0005392239545471966,0.0033788534346967936,0.007753204554319382,-0.016973206773400307,-9.886452608043328e-05,-0.002997025614604354,0.09576806426048279,-0.13407528400421143,-9.002198219299316,0.7777001857757568,47.68419647216797,-0.20828714966773987,-3.4913530349731445,-1.8147995471954346,-0.5539572238922119,0.020592782646417618,-0.343819797039032,25.5,26.3125,25.5,28.5,29.8125,30.375
1.0,0.7148616149330926,0.9062020352482971,-0.7683992166288304,0.008026166938129346,-0.026056638782355066,-0.0898878229974477,-0.5385473456793812,-0.32474170474324837,0.2599445333144041,-3.0786708969669285,0.6248810888430582,0.00012556099604303932,0.0003925721934380004,-0.0001762548557062324,-0.004812247036649443,-0.0011112334171606475,0.0035323539622001683,0.0034121261695721416,0.3271002173423767,-1.1520917278579255,1.662858788167135,-2.080083509484762,-1.571369473134176,2.3021440505981445,0.0004957586643286049,0.004712555091828108,0.008054284378886223,-0.016469061374664307,-0.0001041858849930577,-0.0029212802182883024,0.1149216815829277,-0.13407529890537262,-9.136273384094238,0.831413209438324,47.72092056274414,-0.22615444660186768,-3.542843818664551,-1.8907325267791748,-0.5405176281929016,-0.005715623497962952,-0.34467577934265137,25.5,26.3125,25.5,28.5,29.8125,30.375
1.0,0.5139245560919399,0.3051068073823999,-0.95605105370638,-0.01799544684316475,-0.017158979764895957,-0.08938828319780445,-0.5385551675031031,-0.3247287906096396,0.25991492341574396,-3.0786547900579677,0.6248971711482204,9.151148313242656e-05,0.000514448267929299,-0.00011042172787641317,-0.00631887647375292,-4.600694954727215e-06,0.0002978579861129999,0.0034657238525263798,0.3270762264728546,-1.1520552200130005,1.6628831068622034,-2.0801192722716273,-1.571369473134176,2.3021321296691895,0.00045956840040162206,0.006468439940363169,0.00882052630186081,-0.015572626143693924,-0.00010908910189755261,-0.0030103414319455624,0.2298433631658554,-0.07661445438861847,-9.136273384094238,0.6658024191856384,47.687782287597656,-0.23103518784046173,-3.5817036628723145,-1.8514666557312012,-0.563246488571167,0.023248620331287384,-0.3367067277431488,25.5,26.3125,25.5,28.5,29.8125,30.375
1.0,-0.9868225816801219,-1.2248302983324597,-1.1513860858333826,-0.053692969759684184,0.005915295229513864,-0.07336308584208519,-0.5385429806293134,-0.3247299450988949,0.25989314305564215,-3.078590808220059,0.6249236349191266,1.1451918633687286e-05,0.0010945454704318386,0.0001309824947742909,-0.007249793676046429,0.0011505814486796589,-0.00292826595470823,0.003049741808318399,0.32708826661109924,-1.1520432096770783,1.6629074255572718,-2.0800825558104457,-1.5713933149920862,2.302168846130371,0.0004010459524579346,0.006543351802974939,0.01043087150901556,-0.01383146457374096,-0.00015888098278082907,-0.0026519200764596462,0.24899697303771973,0.1149216815829277,-9.327810287475586,0.7777001857757568,47.66986846923828,-0.14042574167251587,-3.4520320892333984,-1.8522237539291382,-0.5982286334037781,0.022570902481675148,-0.35977840423583984,25.5,26.3125,25.5,28.5,29.8125,30.375
1.0,-0.686892126660035,-1.1302841927648482,-1.1057721746600477,-0.06257686970247316,0.028739591058730505,-0.0814613815556643,-0.5385297549480389,-0.3247329090311142,0.2598618459770989,-3.0786696670394393,0.624842843830635,-4.682286528530887e-05,0.0010323556788971592,0.0001241244056188183,-0.008127933506508606,0.001640778572344554,-0.004364194155503452,0.0031711741615543846,0.32708823680877686,-1.1520307821086426,1.6629799048053187,-2.0801664791502894,-1.5713217894183558,2.3021082878112793,0.00037949575926177204,0.007815131917595863,0.010642904788255692,-0.013797803781926632,-0.00016120333748403937,-0.0027946617919951677,0.26815059781074524,0.19153612852096558,-9.289502143859863,0.7306999564170837,47.67882537841797,-0.22972482442855835,-3.415496349334717,-1.7579249143600464,-0.6260480880737305,0.02220485731959343,-0.36084818840026855,25.5,26.3125,25.5,28.5,29.8125,30.375
1.0,-1.035113217084336,-1.3178271861441555,-1.4291802757886594,-0.05377499778565642,0.014142260398257264,-0.07165360242236012,-0.5385401276915162,-0.3247223228133061,0.2598766095440975,-3.0786391498538928,0.6248559723994869,6.532709260985513e-05,0.0011447223461796112,0.0003320593306366234,-0.009340025415067016,0.002065622740249161,-0.005552878744595776,0.0032581284135436706,0.32707610726356506,-1.1520422858050843,1.6629679838763636,-2.0801907978453578,-1.5713813940631312,2.3021082878112793,0.00012188084656372666,0.00889955647289753,0.012186497449874878,-0.015163815580308437,-0.00018138770246878266,-0.00313942926004529,0.2298433631658554,0.26815059781074524,-9.404424667358398,0.7418897151947021,47.702110290527344,-0.1876068115234375,-3.500197410583496,-1.8766021728515625,-0.626197099685669,0.005538933910429478,-0.36888593435287476,25.5,26.3125,25.5,28.5,29.8125,30.375
1.0,-0.41527409879520055,-1.3846167488802303,-1.333871176493617,-0.053631289989036386,0.01637405220677253,-0.08030058815504956,-0.5385224278008691,-0.32473308269044976,0.25982154214002107,-3.078631594314557,0.624796584301548,-2.3671142329337363e-05,0.0009901450002745408,0.00028596241849557246,-0.009899874668253681,0.001876646264648768,-0.0050183605396033944,0.003335810881227333,0.32710006833076477,-1.1519941848567505,1.663039509450094,-2.0802518330016078,-1.571369473134176,2.302096128463745,0.00011121732677565888,0.009827164001762867,0.012593583203852177,-0.017065394669771194,-0.0001778874866431579,-0.0032283479813486338,0.15322890877723694,0.2298433631658554,-9.346963882446289,0.6635612845420837,47.690467834472656,-0.22308695316314697,-3.465207099914551,-1.8017246723175049,-0.6271976828575134,0.03255845233798027,-0.34608572721481323,25.5,26.3125,25.5,28.5,29.8125,30.375
1.0,-0.15629612358640294,-1.3990988151575394,-1.3140887949369127,-0.062024013322600116,0.01425865332189774,-0.08762551240184599,-0.5385271000009443,-0.3247269393644352,0.2598411996698459,-3.078645187647835,0.6248184615703439,2.3919080119468954e-05,0.0012055924450020833,0.00036322126662452606,-0.009846574439068211,0.001573364689973723,-0.0041420059288902085,0.003327120103456902,0.3270881474018097,-1.1520182949355622,1.6630285421954554,-2.0802518330016078,-1.571369473134176,2.302096128463745,0.00010470527922734618,0.00920824147760868,0.013638980686664581,-0.01841922290623188,-0.00017310542170889676,-0.0032267204951494932,0.13407529890537262,0.24899697303771973,-9.423578262329102,0.6814691424369812,47.668975830078125,-0.1929302215576172,-3.3501133918762207,-1.8261005878448486,-0.6299389004707336,0.01471792533993721,-0.3648942708969116,25.5,26.3125,25.5,28.5,29.8125,30.375
1.0,-0.1127902380322971,-1.2901333977030596,-1.0969112711308473,-0.07811507290350554,0.021754257208940076,-0.0828951562375675,-0.5385265130774982,-0.3247254811213729,0.2597917557799463,-3.0786017855439956,0.6248291059142292,-4.790882103524588e-05,0.0009789189070717457,0.00029108435079021225,-0.010643471953350903,0.001580706307111092,-0.004133659818708114,0.0028940637657239123,0.3270881474018097,-1.1519579154304047,1.6630647818194788,-2.0802885494627894,-1.5713813940631312,2.3021082878112793,9.89478430710733e-05,0.010619113221764565,0.01384796854108572,-0.020044544711709023,-0.0001863180659711361,-0.002799800131469965,0.17238251864910126,0.26815059781074524,-9.366117477416992,0.7262282371520996,47.649269104003906,-0.26506102085113525,-3.4014339447021484,-1.870652198791504,-0.6094663739204407,0.02307805046439171,-0.3537837266921997,25.5,26.3125,25.5,28.5,29.8125,30.375
1.0,-0.5807210427258223,-1.2925002907028178,-0.9783526677100062,-0.07527507633856585,0.016385422951380086,-0.08823071655833375,-0.5385256991967479,-0.32471339186385056,0.25976994911494855,-3.078610916160297,0.6248503394515822,-0.00012385493562794706,0.0007284103542029941,0.0002390224296179746,-0.010751008737517808,0.0010959922610877827,-0.0027178804724891856,0.002713304170307521,0.32706418633461,-1.151945785885193,1.6631000677691858,-2.0803009472289027,-1.571345631276266,2.302096366882324,4.755955524160527e-05,0.011119373142719269,0.013846123591065407,-0.022039297968149185,-0.00018712959717959166,-0.002671145601198077,0.17238251864910126,0.28730422258377075,-9.270349502563477,0.6993717551231384,47.686885833740234,-0.2777095437049866,-3.4234888553619385,-1.8239487409591675,-0.6315575838088989,0.025415176525712013,-0.3588922619819641,25.5,26.3125,25.5,28.5,29.8125,30.375
1.0,-0.4560761781114472,-0.9417269870458176,-0.9076366352987942,-0.07056200451169631,0.024112742816735346,-0.09035631194455734,-0.5385261949972637,-0.32471230467947554,0.2597305911525458,-3.0785855772002373,0.6248642906281395,-0.0001463364287204191,0.000539272694800126,0.0001758503188621023,-0.01016732573128679,0.0003385003979158418,-0.0005125160095949071,0.0024991848252728676,0.32706418633461,-1.1518979531577607,1.6631363073932093,-2.0803615055479945,-1.571357552205221,2.3021082878112793,4.4581862312043086e-05,0.01064770296216011,0.013529456220567226,-0.02358279377222061,-0.00018274906324222684,-0.002460737247020006,0.15322890877723694,0.3447650372982025,-9.251194953918457,0.7575564384460449,47.72718811035156,-0.22054150700569153,-3.3866255283355713,-1.7658472061157227,-0.61606365442276,0.02593839541077614,-0.3639761805534363,25.5,26.3125,25.5,28.5,29.8125,30.375
1.0,-0.7182474825666825,-0.8403978354251849,-1.0157718403325458,-0.05707862814762761,0.018791240910979865,-0.08240523706105018,-0.5385146921548776,-0.3247226660828852,0.25972053824011665,-3.078595028186459,0.6248278604809651,-0.00010389297818058461,0.000430032732747648,0.00013960820464768418,-0.01106474414929705,0.00035511438827048,-0.0005847023766485558,0.0025977008620408403,0.3270881175994873,-1.1518974763206025,1.6631720701800745,-2.0804220638670863,-1.571369473134176,2.3021082878112793,4.2469840991543606e-05,0.011928937397897243,0.014204215258359909,-0.02546515315771103,-0.00017824865062721074,-0.0025618637446314096,0.19153612852096558,0.325611412525177,-9.21288776397705,0.7083203792572021,47.712860107421875,-0.20977482199668884,-3.3451151847839355,-1.8019077777862549,-0.6004531383514404,0.012525295838713646,-0.34933871030807495,25.5,26.3125,25.5,28.5,29.8125,30.375
1.0,-0.21439995755686733,-0.7357423732379306,-1.0099703277861614,-0.05155903716134881,0.02014031371817383,-0.08483028398257977,-0.5385398841038324,-0.3247013947505294,0.25970724138003476,-3.078607345599688,0.624849895729775,-9.709818451515482e-05,0.00015634584925721567,4.694337374269992e-05,-0.010929625269987135,-0.00021895254730707131,0.0010789392344057475,0.002806414412727561,0.3270401954650879,-1.151861385708191,1.6631601492511194,-2.0804583034911097,-1.571357552205221,2.302072525024414,4.0555602026870474e-05,0.012210412882268429,0.013898270204663277,-0.027200592681765556,-0.00017394400492776185,-0.0027731875889003277,0.24899697303771973,0.28730422258377075,-9.21288776397705,0.7105615139007568,47.702110290527344,-0.2175283282995224,-3.3458590507507324,-1.8291155099868774,-0.5965611338615417,0.018811963498592377,-0.3471858501434326,25.5,26.3125,25.5,28.5,29.8125,30.375
1.0,0.1971231940475633,-0.4771820757449299,-0.9043489178284717,-0.04990056162938486,0.023483342522662803,-0.09219008320095029,-0.5385401654434092,-0.324722289780991,0.25970171060781005,-3.078633890110936,0.6247977812773725,1.8815007145074302e-05,0.00016365999267059573,5.0265262112836495e-05,-0.011678957538540013,-0.0002536234191905175,0.0011613875155232628,0.00288765289597107,0.3270760774612427,-1.151837096815445,1.6631606260882776,-2.0805546245970667,-1.5713813940631312,2.302072525024414,3.88068838219624e-05,0.013052229769527912,0.014848357066512108,-0.029081806540489197,-0.00016984085959848017,-0.002856722567230463,0.24899697303771973,0.2106897532939911,-9.174580574035645,0.7374180555343628,47.692256927490234,-0.216861754655838,-3.354567050933838,-1.718094825744629,-0.5756025314331055,0.008669096045196056,-0.3439319133758545,25.5,26.3125,25.5,28.5,29.8125,30.375
1.0,0.006714409677663236,-0.4971431243703631,-1.0061476196475885,-0.04854406778060286,0.013947107172920756,-0.085884648173705,-0.5385339243861633,-0.3247189031863727,0.2596635791854006,-3.0785921968454484,0.6247693953212781,-6.916989742392497e-05,-0.00016960890508826317,-6.290589720045878e-05,-0.01141676757860757,-0.0009015918061367741,0.0030420807103858014,0.00277595089803877,0.3270760774612427,-1.1518010062030335,1.663196865712301,-2.080555101434225,-1.5713933149920862,2.302060127258301,3.72027134289965e-05,0.013297423720359802,0.014292982406914234,-0.03076082654297352,-0.0001659264526097104,-0.0027473149821162224,0.15322890877723694,0.17238251864910126,-9.21288776397705,0.7351769208908081,47.681514739990234,-0.23118987679481506,-3.4110944271087646,-1.7730412483215332,-0.562962532043457,0.008362691849470139,-0.33794403076171875,25.5,26.3125,25.5,28.5,29.8125,30.375
1.0,-0.28714939612572093,-0.1540093885110701,-0.8392506176460555,-0.0499524985582515,0.008513317690886802,-0.09162158255571842,-0.5385196021220564,-0.3247218266906046,0.25962476588347333,-3.07859241986365,0.6247119588163269,-9.944219957838362e-05,-0.00024231953816417507,-8.708637566507291e-05,-0.01192713195579382,-0.0008715840604783366,0.0029367742651940512,0.0025750364974994793,0.3270881175994873,-1.1517768067172547,1.6632674376117151,-2.080627580682272,-1.5713933149920862,2.3020362854003906,3.572575587895699e-05,0.014057178050279617,0.014611062593758106,-0.03172927349805832,-0.000162188705871813,-0.002548118820413947,0.19153612852096558,0.13407529890537262,-9.193734169006348,0.7553206086158752,47.703006744384766,-0.24279913306236267,-3.4116082191467285,-1.7026922702789307,-0.5558810234069824,0.010078011080622673,-0.34602612257003784,25.5,26.3125,25.5,28.5,29.8125,30.375
1.0,-0.2466001392155798,-0.08399789319119202,-0.9071254975111184,-0.043891005989106786,0.013763472848374526,-0.08924647779561962,-0.5385205479450169,-0.32472714601490854,0.2595879363484012,-3.0786217439209422,0.6247765286962564,-0.00013649335027064542,-0.00042782984352229787,-0.00014993664109793565,-0.011699191612040347,-0.0013555994361250264,0.004341247518242042,0.002483313245833398,0.3270881175994873,-1.1517288845828553,1.6633032003985804,-2.080711980859274,-1.571345631276266,2.302072763442993,3.4361677535343915e-05,0.014065874740481377,0.014364910311996937,-0.03297721967101097,-0.00015861548308748752,-0.0024582950863987207,0.15322890877723694,0.07661445438861847,-9.21288776397705,0.7486078143119812,47.70121383666992,-0.25962555408477783,-3.389737844467163,-1.740012288093567,-0.539659321308136,0.012853371910750866,-0.345612496137619,25.5,26.3125,25.5,28.5,29.8125,30.375
1.0,-0.5179844116531905,-0.007805990323599604,-0.9457391192449267,-0.04600828706266154,0.015958152544191112,-0.08515389205327997,-0.5385301684335216,-0.32472792792635624,0.259580128111087,-3.0786327570943133,0.6247397748489942,-5.3229089381058485e-05,-0.0003440772683138884,-0.00012082054683234018,-0.012113942432253534,-0.0013601104989502764,0.0043417084148048195,0.0023384058260296197,0.3270881175994873,-1.1517048341086884,1.6633036772357386,-2.0807839832701625,-1.571369473134176,2.302048444747925,3.309793464723043e-05,0.014363033697009087,0.015131097286939621,-0.03404249995946884,-0.00015519661246798933,-0.0023149701301008463,0.09576806426048279,0.17238251864910126,-9.136273384094238,0.6747510433197021,47.69584274291992,-0.2510470747947693,-3.3016676902770996,-1.682368516921997,-0.5173256397247314,0.032808609306812286,-0.35386642813682556,25.5,26.3125,25.5,28.5,29.8125,30.375
1.0,-1.0633672986097122,-0.33127368760767945,-0.8945401183553194,-0.03361206746732577,0.00886254662844099,-0.08037140618816666,-0.5385342802031141,-0.3247370703429523,0.2595629286227683,-3.0786539042248617,0.624667666760237,-3.6376344134054964e-05,-0.0006991863784779211,-0.0002416344397206329,-0.012126930656038138,-0.0017184155433253446,0.005374473155615173,0.002277595152999171,0.3271000385284424,-1.1516686838916321,1.6633032003985804,-2.080832143823141,-1.571369473134176,2.3020126819610596,3.1923958886181936e-05,0.01505358051508665,0.014448302797973156,-0.03514338657259941,-0.00015192173304967582,-0.0022557463962584734,0.13407529890537262,0.019153613597154617,-9.251194953918457,0.7620334029197693,47.6734504699707,-0.2544915974140167,-3.351653575897217,-1.620117425918579,-0.5225214958190918,0.019240733236074448,-0.346321165561676,25.5,26.3125,25.5,28.5,29.8125,30.375
1.0,-0.6220105579277744,-0.24582582239410647,-0.9274699797570395,-0.038404408336022544,0.028348080111932752,-0.09079258068801747,-0.5385333485340265,-0.3247302557398639,0.25952507940559344,-3.078633077939217,0.6247590172222084,-7.973937650852317e-05,-0.0005779550898202944,-0.00019972973820286505,-0.01299682857787131,-0.0014245556611029025,0.0044987985303937186,0.0023172061594262214,0.3270881175994873,-1.1516322952559968,1.663351837788717,-2.0808922253050746,-1.571357552205221,2.30206036567688,3.0830386094748974e-05,0.015880195423960686,0.015479503199458122,-0.036077532917261124,-0.00014878236106596887,-0.0022965949028730392,0.07661445438861847,0.05746084079146385,-9.289502143859863,0.6680382490158081,47.699424743652344,-0.286696195602417,-3.3066954612731934,-1.6550359725952148,-0.5025281310081482,0.00258249556645751,-0.3470584452152252,25.5,26.3125,25.5,28.5,29.8125,30.375
1.0,-0.201636360350948,-0.20718523496168134,-0.8184892233889671,-0.03834529130853413,0.03535450164306227,-0.09041214821965117,-0.5385253643191289,-0.3247315090082774,0.2594537044177707,-3.078604211685384,0.6247149244368504,-6.85682022214204e-05,-0.000388195871195293,-0.00013413091066541536,-0.014074949265558438,-0.0011808685180241844,0.0037603114365715143,0.002065686407220988,0.3271000385284424,-1.151560054426529,1.6634481588946741,-2.081048151055807,-1.5713933149920862,2.302048444747925,2.8853486583102494e-05,0.016787918284535408,0.017041191458702087,-0.0377693735063076,-0.00014287751400843263,-0.0020474435295909643,0.1149216741323471,0.019153613597154617,-9.28950309753418,0.6008995771408081,47.71733474731445,-0.2938045859336853,-3.3662400245666504,-1.7486648559570312,-0.4859769344329834,0.023660466074943542,-0.34337496757507324,25.5,26.3125,25.5,28.5,29.8125,30.375
1.0,-0.24623387993245255,0.2256462852515151,-0.7620086180776792,-0.04620715282011423,0.03366605416826779,-0.09606499151566916,-0.5385337008323475,-0.3247212942875595,0.25944314704042326,-3.078642570830257,0.6247230035153657,-3.7639126485582984e-05,-0.00045952678198298713,-0.00015825080620681975,-0.013575452361874817,-0.0017617778247360906,0.005455497345928453,0.0018770233798907885,0.3270760774612427,-1.1515482527068635,1.6634720007525843,-2.081120630303854,-1.571369473134176,2.3020246028900146,2.7957159545621835e-05,0.0162056814879179,0.016979629173874855,-0.038917459547519684,-0.00014009718142915517,-0.0018602499039843678,0.019153613597154617,0.09576806426048279,-9.251194953918457,0.7351769208908081,47.70390319824219,-0.2706111669540405,-3.360288381576538,-1.6776362657546997,-0.4582919478416443,0.01008634828031063,-0.33944207429885864,25.5,26.3125,25.5,28.5,29.8125,30.375
1.0,-0.5299779374341668,-0.15822024320775993,-0.7586760083630634,-0.03949484545183486,0.02792700565796405,-0.08965117319871964,-0.5385398880388949,-0.324727422289187,0.25943514981096333,-3.0786392427613176,0.6247033727735165,5.561352145079809e-05,-0.0005846877914702656,-0.00020058611887982354,-0.014467683382000404,-0.0014878010031231864,0.0046357098407363885,0.0017383351316923065,0.3270881175994873,-1.1515238148025055,1.6634724775897425,-2.0811931095519007,-1.5714057127581995,2.3020248413085938,2.7114938347949646e-05,0.017588213086128235,0.017256030812859535,-0.039712093770504,-0.0001374229759676382,-0.00172248890157789,0.019153613597154617,0.05746084079146385,-9.289502143859863,0.6881819367408752,47.7244987487793,-0.30640748143196106,-3.3342771530151367,-1.7002180814743042,-0.46714699268341064,0.016877571120858192,-0.3313768804073334,25.5,26.3125,25.5,28.5,29.8125,30.375
1.0,-1.0141646280155583,-0.21604522651336905,-1.0372346867630586,-0.03072931052808473,0.016384783798943446,-0.0809368561922737,-0.5385183959022191,-0.3247369378497293,0.2593829348522737,-3.078632914843848,0.6246637320833237,-2.1015552469453054e-05,-0.00031150024803177837,-0.00010702358192185827,-0.014929299942499868,-0.0010456292317992297,0.003333306256541791,0.0017020714052339843,0.327112078666687,-1.1514879626086731,1.6635568777667444,-2.081264158288473,-1.5713933149920862,2.3020248413085938,2.6321909899706952e-05,0.017654230818152428,0.018107444047927856,-0.0392540842294693,-0.00013484928058460355,-0.0016867354279384017,0.019153613597154617,0.019153613597154617,-9.308655738830566,0.6993717551231384,47.68867492675781,-0.2700580060482025,-3.3490593433380127,-1.714585542678833,-0.46191656589508057,0.01707266829907894,-0.32929500937461853,25.5,26.3125,25.5,28.5,29.8125,30.375
1.0,-0.650514549473264,-0.03871076870630799,-0.914486441937494,-0.037715153950497377,0.02228883625805774,-0.08237088233361856,-0.5385347521407358,-0.3247319626240902,0.2593764273776923,-3.0787064864356593,0.6246599171530995,2.1953223860674316e-05,-0.0003019991520585532,-0.00010349792468889333,-0.015269951302596617,-0.0007332045900388757,0.002409174392612656,0.0015863151336673862,0.3270881175994873,-1.1514637631228943,1.6635568777667444,-2.0813480816283167,-1.571345631276266,2.3019890785217285,2.5573934181011282e-05,0.01811547391116619,0.018125057220458984,-0.038757339119911194,-0.00013237018720246851,-0.0015714643523097038,0.019153613597154617,-0.07661445438861847,-9.327810287475586,0.6859408020973206,47.70927429199219,-0.3382778763771057,-3.338324785232544,-1.7078280448913574,-0.47223395109176636,0.024281900376081467,-0.3292115330696106,25.5,26.3125,25.5,28.5,29.8125,30.375
1.0,-0.5411956094398482,-0.285292789740075,-0.9608489235573726,-0.03500975180700601,0.021901464282236223,-0.08258044437643325,-0.5385367272633211,-0.3247145680272871,0.25932408731002965,-3.0786588000367825,0.6247268324687081,5.993887070593398e-06,-7.82450666580235e-05,-2.672027435801948e-05,-0.016532254522151228,8.313944966690308e-05,4.953031287235379e-06,0.0014373615846966657,0.3270641565322876,-1.1514151853374024,1.6636293570147913,-2.0814434490599574,-1.571369473134176,2.3020129203796387,2.4867342290235683e-05,0.019320322200655937,0.019264673814177513,-0.03856278955936432,-0.0001299804716836661,-0.001422833651304245,0.05746084079146385,0.019153613597154617,-9.289502143859863,0.6076123714447021,47.7191276550293,-0.31414365768432617,-3.3593058586120605,-1.6914501190185547,-0.49347659945487976,0.0265515074133873,-0.3266100287437439,25.5,26.3125,25.5,28.5,29.8125,30.375
1.0,-0.2241434578574819,-0.14687572079571376,-0.9647106384078976,-0.03595655338556587,0.029690949020858566,-0.0877875268741636,-0.5385341798985004,-0.3247305044363772,0.25929427208915073,-3.0786707375466444,0.6246908966675974,-1.921072071889075e-05,8.316555475664926e-05,2.8589491675746666e-05,-0.01665904229045765,0.00017467849423704687,-0.00026885384063703356,0.0014251527822459692,0.3270881175994873,-1.151367412214615,1.6636412779437464,-2.081491609612936,-1.571357552205221,2.3020129203796387,2.4198674509534612e-05,0.019143391400575638,0.019818037748336792,-0.0386505089700222,-0.00012767546286340803,-0.0014113049255684018,0.13407529890537262,0.09576806426048279,-9.21288776397705,0.6546126008033752,47.6895751953125,-0.29334890842437744,-3.3208653926849365,-1.7604306936264038,-0.48266446590423584,0.013894889503717422,-0.31591513752937317,25.5,26.3125,25.5,28.5,29.8125,30.375
1.0,-0.5684391632455749,-0.460333860811734,-1.081306214056744,-0.038583555503380086,0.013470103805093328,-0.08222119685822134,-0.5385349003678795,-0.3247101319488766,0.2592505877791437,-3.0785991201878393,0.6247146538402351,-4.541384878626247e-05,-5.983055452457128e-05,-2.005016907202929e-05,-0.016652283153751272,0.0002311906000230018,-0.0004432757232172151,0.0012482922253660691,0.3270641565322876,-1.1513313216022034,1.6637008825885218,-2.0815397701659144,-1.5714057127581995,2.3020129203796387,2.3565105948364362e-05,0.01946619525551796,0.019260071218013763,-0.03823205828666687,-0.00012545114441309124,-0.0012349142925813794,0.019153613597154617,0.019153613597154617,-9.232041358947754,0.6971306204795837,47.6949462890625,-0.3303508162498474,-3.3096866607666016,-1.6819074153900146,-0.4900326132774353,0.02431037463247776,-0.32119476795196533,25.5,26.3125,25.5,28.5,29.8125,30.375
1.0,-0.3573813363433913,-0.4904025179413579,-1.0345154529788547,-0.04173647892557159,0.017043827995906417,-0.0788820936463348,-0.5385330170728778,-0.32471852638168913,0.25922189891180064,-3.0786282927797965,0.6246828249647083,-2.4527389051420112e-05,8.678453183306644e-05,3.0317840251956153e-05,-0.017720488212111613,0.0008970149613096852,-0.0024055212944672872,0.0010504598674547223,0.3270760774612427,-1.151294932966568,1.663736645375387,-2.081634660760397,-1.5713933149920862,2.3020012378692627,2.2963837182032876e-05,0.020571552217006683,0.020117254927754402,-0.03812241926789284,-0.00012330253957770765,-0.0010373832192271948,0.09576806426048279,0.15322890877723694,-9.21288776397705,0.7217512726783752,47.681514739990234,-0.3264164328575134,-3.3437438011169434,-1.7020223140716553,-0.5217595100402832,0.026468560099601746,-0.32528263330459595,25.5,26.3125,25.5,28.5,29.8125,30.375
1.0,-0.34009523341091086,-0.3777109023130451,-0.8458924150342543,-0.04251501784170421,0.011419906180046931,-0.08146599803145071,-0.53853994643824,-0.32472995893427914,0.2592082646387736,-3.07865503901463,0.6247263542593409,3.169386054826638e-05,-2.5978177245016774e-05,-8.033297434994332e-06,-0.017520512857561732,0.0007095861815853303,-0.0018625410018978201,0.0009029930145282134,0.3270881175994873,-1.1512590509704133,1.663736645375387,-2.081719060937399,-1.5713813940631312,2.302037000656128,2.239248715341091e-05,0.02053501084446907,0.019754664972424507,-0.03829766809940338,-0.00012140846229158342,-0.0008906123111955822,0.1149216815829277,0.17238251864910126,-9.21288776397705,0.7754590511322021,47.6976318359375,-0.3643791675567627,-3.261371612548828,-1.622251033782959,-0.5336814522743225,0.019037622958421707,-0.3280695080757141,25.5,26.3125,25.5,28.5,29.8125,30.375
1.0,-0.6817961810807053,-0.470497701542788,-1.0625035202761008,-0.04442958523940697,0.003483042751866474,-0.08335399560535091,-0.5385444096770662,-0.32471591018401574,0.25912556387686897,-3.078620713139305,0.6246813747543793,-8.33148178863196e-05,-7.890695962678044e-06,1.5558251101449203e-05,-0.01784696739772214,0.0008524387544466432,-0.002194309311787227,0.0007703505326005426,0.3270641565322876,-1.1511629086783906,1.6638091246234339,-2.0818029842772425,-1.5713813940631312,2.3019893169403076,3.004237782988639e-07,0.02089456282556057,0.0200649444013834,-0.03860729932785034,-0.0001502539380453527,-0.0007800456951372325,0.13407529890537262,0.13407529890537262,-9.193734169006348,0.7060845494270325,47.68867492675781,-0.29303574562072754,-3.3536629676818848,-1.6395471096038818,-0.5348369479179382,0.00967428833246231,-0.3285026550292969,25.5,26.3125,25.5,28.5,29.8125,30.375
1.0,-0.2985284919539317,-0.4409796480742231,-0.8918237526029313,-0.04580914050686045,0.014063885960028274,-0.08613247476543598,-0.5385436320759679,-0.32472083377584265,0.2591175674970855,-3.07860814409711,0.6246978989613323,-3.203676280240878e-05,7.348870509866285e-05,4.333635755334237e-05,-0.018500843973189525,0.0010575790745888673,-0.002807747719639968,0.0006838135461531221,0.3270760774612427,-1.151150719528534,1.663821045552389,-2.081850667993063,-1.5714057127581995,2.3020131587982178,4.030568323543093e-09,0.021533681079745293,0.020827237516641617,-0.039361897855997086,-0.0001474790187785402,-0.0006939391023479402,0.09576806426048279,0.05746084079146385,-9.155426979064941,0.7306999564170837,47.71017074584961,-0.35585474967956543,-3.296687602996826,-1.699453592300415,-0.5467141270637512,0.01864936202764511,-0.3149126172065735,25.5,26.3125,25.5,28.5,29.8125,30.375
1.0,0.010935302338083881,-0.1138206664026126,-0.7415022767292239,-0.059473412984692636,0.023462127708628974,-0.10005888534453414,-0.5385416547413331,-0.3247137103907072,0.2590669176587309,-3.078594073028873,0.6247906461484155,-5.8473217025946626e-05,0.000384348438562968,0.00014906158469740613,-0.019117364298036944,0.001495245885510781,-0.004103653330922751,0.0006150110440011065,0.3270641565322876,-1.1511027973941346,1.6638935248004358,-2.081958910027975,-1.5713933149920862,2.302060842514038,5.407522346567717e-11,0.02169879898428917,0.021985379979014397,-0.039317335933446884,-0.00014293481945060194,-0.0006249850848689675,0.15322890877723694,0.1149216815829277,-9.174580574035645,0.7284641265869141,47.6949462890625,-0.3308829069137573,-3.276534080505371,-1.725006103515625,-0.5770604610443115,0.021835776045918465,-0.3278646469116211,25.5,26.3125,25.5,28.5,29.8125,30.375
1.0,-0.1358519363017736,-0.3747464057298509,-0.784045911272161,-0.05202846066409488,0.011478173111146284,-0.08809963952000886,-0.5385503007838509,-0.32468947615653626,0.2590296515689889,-3.078551707817455,0.624782358164385,-6.193172412093654e-05,0.0003126914893060839,0.00012417304423432428,-0.019438497264784017,0.001622548404097393,-0.00449428483540297,0.0005585713568518678,0.32702815532684326,-1.1510666471770783,1.6639412085162562,-2.0820189915099085,-1.5714295546161097,2.302025079727173,7.254881374471611e-13,0.02226719819009304,0.0219503752887249,-0.039439938962459564,-0.00013854306598659605,-0.0005685141077265143,0.2298433631658554,0.07661445438861847,-9.174580574035645,0.7195101380348206,47.694053649902344,-0.36120176315307617,-3.2274255752563477,-1.662909984588623,-0.5870180130004883,0.012075621634721756,-0.3316102623939514,25.5,26.3125,25.5,28.5,29.8125,30.375
1.0,-0.14205139650974738,-0.6643447404992129,-0.8048514351106585,-0.039608199133317014,0.010768110609184122,-0.08378994345354174,-0.538539894780573,-0.3247311601137005,0.25899659469860903,-3.07864026789732,0.6246662158946138,-7.828212478866755e-05,9.695486862756634e-05,5.013667713404546e-05,-0.01957668945008353,0.0009760434760145307,-0.0026190888267825807,0.0005104470310924903,0.3270881175994873,-1.1510064762881775,1.6639540831195276,-2.0821153126158656,-1.571369473134176,2.3020012378692627,9.73334961755631e-15,0.022723082453012466,0.02224685251712799,-0.042175766080617905,-0.00013440498150885105,-0.0005214082193560898,0.17238251864910126,0.15322890877723694,-9.21288776397705,0.7329410910606384,47.6976318359375,-0.39806511998176575,-3.3359313011169434,-1.6644635200500488,-0.5943384766578674,0.013593001291155815,-0.3222741484642029,25.5,26.3125,25.5,28.5,29.8125,30.375
1.0,0.5068992480018051,0.5544550382196638,-0.6958885482469945,-0.060672206731842274,0.019513048180275085,-0.09843598221611666,-0.5385391533306948,-0.3247255821789917,0.2589493158187748,-3.078652873582041,0.6246491837862058,-0.0001287397617429208,-5.1157728198331866e-05,-7.267882593321984e-07,-0.020326927179575915,0.0012545375211458394,-0.0034552195639941503,0.000534514918077055,0.3270760774612427,-1.1509580475142975,1.6640127340899866,-2.0821992359557093,-1.571345631276266,2.3019769191741943,1.3058530923785197e-16,0.023998307064175606,0.022265946492552757,-0.042588815093040466,-0.00013050726556684822,-0.0005454449565149844,0.17238251864910126,0.1149216815829277,-9.136273384094238,0.7284641265869141,47.687782287597656,-0.39245525002479553,-3.3955180644989014,-1.6688482761383057,-0.6026911735534668,0.01618204452097416,-0.31621408462524414,25.5,26.3125,25.5,28.5,29.8125,30.375
1.0,-0.19229832059693996,-0.07760040765076781,-0.7240646421871543,-0.04849743908599623,-0.0014550299514370854,-0.086310747646396,-0.5385388526750245,-0.3247074106201325,0.25889494791600015,-3.0785894508456217,0.6247327530786465,-0.00017717210884332735,0.00023379917843436342,9.626364293086219e-05,-0.02111924836385286,0.0022062637359421744,-0.006254895265332504,0.0005008311721790315,0.32705211639404297,-1.1509098273566742,1.6640847365008753,-2.0822698078551234,-1.571369473134176,2.3020131587982178,1.7519683305921595e-18,0.024566078558564186,0.022868942469358444,-0.04080257937312126,-0.0001268284540856257,-0.0005108867771923542,0.1149216815829277,0.05746084079146385,-9.097966194152832,0.7127973437309265,47.668975830078125,-0.36979055404663086,-3.35951566696167,-1.633243203163147,-0.6329942941665649,0.029856108129024506,-0.3117695152759552,25.5,26.3125,25.5,28.5,29.8125,30.375
1.0,-0.0949992260068002,-0.09467384111389449,-0.7435720241288116,-0.050491765060194295,0.012065262499088746,-0.08858575146985648,-0.5385481199624234,-0.32471963746273363,0.258859471734612,-3.078662959281443,0.6247285432768682,-2.3696731960088496e-05,0.0001898316789938753,8.0574957172093e-05,-0.021274172056131035,0.0016933684616105527,-0.004776765514493963,0.000436640796379288,0.3270641565322876,-1.1508498948863526,1.664133373891012,-2.082498689691061,-1.571357552205221,2.3020131587982178,3.153481187387347e-22,0.024707049131393433,0.023567447438836098,-0.04320661723613739,-0.0001200605183839798,-0.00044760588207282126,0.24899697303771973,0.15322890877723694,-9.27034854888916,0.6881819367408752,47.67703628540039,-0.40418076515197754,-3.216700553894043,-1.7029190063476562,-0.6893101930618286,0.01635376363992691,-0.31555435061454773,25.5,26.3125,25.5,28.5,29.8125,30.375
1.0,-0.23480450414580994,-0.06501965353802605,-0.7961208380313276,-0.05417650121353049,0.010582440324865695,-0.08150054651505124,-0.5385402660006233,-0.3247196348897835,0.25878497594495886,-3.0785653487885467,0.6247276986157911,-0.00013169842503979684,-9.518695915764622e-05,-1.5215806525920501e-05,-0.021364225710583377,0.0013782080787293643,-0.003815685696198151,0.00041001789260360717,0.3270760774612427,-1.150765911941864,1.6641934553729456,-2.0825349293150843,-1.5714057127581995,2.302037000656128,4.2307975076368895e-24,0.025346852838993073,0.023163815960288048,-0.04445413872599602,-0.0001342733157798648,-0.0004213973879814148,0.24899697303771973,0.15322890877723694,-9.193734169006348,0.7262282371520996,47.72629165649414,-0.35277998447418213,-3.277244806289673,-1.6324717998504639,-0.7104877233505249,0.020066918805241585,-0.2973385453224182,25.5,26.3125,25.5,28.5,29.8125,30.375
1.0,-0.37592247099804044,-0.8101575246642216,-0.802597980807151,-0.03700297211861995,0.014623527406624781,-0.0786166748132166,-0.538532154649317,-0.324709117201737,0.2587339503950631,-3.0785624546492207,0.624649951814556,-0.00018111586429495974,-3.611744459597337e-05,5.298691120250485e-06,-0.02226222740389116,0.0017393828929274662,-0.0048735741334664726,0.0003866850403128545,0.3270641565322876,-1.1507295233062287,1.6642773787127894,-2.082618852654928,-1.5714057127581995,2.3019769191741943,5.676154349987713e-26,0.02636520005762577,0.023934369906783104,-0.04512518644332886,-0.0001363784831482917,-0.00039808894507586956,0.2298433631658554,0.17238251864910126,-9.136273384094238,0.7821771502494812,47.702110290527344,-0.3973720669746399,-3.333163022994995,-1.628248929977417,-0.7050553560256958,0.017129581421613693,-0.33149152994155884,25.5,26.3125,25.5,28.5,29.8125,30.375
1.0,-0.14588829488741162,-0.6107413550407648,-0.8453647303599905,-0.04186545809592569,0.01345446255705096,-0.08355628360700815,-0.5385339958479343,-0.3247237864567314,0.25871467929006714,-3.0786228276349994,0.6247013772200993,-0.00018198825013547958,0.0005195147392902794,0.0001947382396355693,-0.02286717487208801,0.0027421953066443564,-0.007814155717595545,0.0003667607887423396,0.3270760774612427,-1.1506936115077515,1.6642897764789026,-2.0827018223204554,-1.571345631276266,2.3020131587982178,7.615285407845056e-28,0.026137590408325195,0.025142112746834755,-0.04299842566251755,-0.00013336945266928524,-0.0003772233030758798,0.15322890877723694,0.17238251864910126,-9.078812599182129,0.7284641265869141,47.70927429199219,-0.3975923955440521,-3.2908897399902344,-1.6658430099487305,-0.7735297679901123,0.022918879985809326,-0.32157057523727417,25.5,26.3125,25.5,28.5,29.8125,30.375
1.0,-0.1142566980784755,-0.1609310989554436,-0.7359642952281453,-0.04336576545931202,0.016242914208724035,-0.08748747027400916,-0.5385143041688073,-0.3247223697151622,0.2586315056961396,-3.078541553615395,0.6246655016234101,-0.0003412249238366187,0.0004266760302461011,0.0001627609932087477,-0.023167445112749423,0.002353581979790084,-0.006691056750435695,0.00034722178499482087,0.3270881175994873,-1.1506213706782837,1.6643860975848597,-2.0827390156187953,-1.571369473134176,2.3020131587982178,1.0216877046725615e-29,0.026590818539261818,0.025687994435429573,-0.04518596827983856,-0.00013017743185628206,-0.0003584364312700927,0.24899697303771973,0.15322890877723694,-9.155426979064941,0.6881819367408752,47.703006744384766,-0.38011282682418823,-3.3397645950317383,-1.7100591659545898,-0.8030180931091309,0.03043811395764351,-0.3075353801250458,25.5,26.3125,25.5,28.5,29.8125,30.375
1.0,-0.29223136503627484,-0.23097477820217394,-0.8064112753734212,-0.04340781812193113,0.016545146777080487,-0.09242022283701799,-0.5385404791849319,-0.3247144922036291,0.2586160780558093,-3.0785789730952993,0.6246737312057167,-0.00020181939460256907,0.00020213963763104247,8.594556229333505e-05,-0.024268327785590734,0.0022661626832567463,-0.006458591381006709,0.00032946716078993335,0.3270641565322876,-1.1505728226951142,1.6643860975848597,-2.082883497277731,-1.5713813940631312,2.3019895553588867,1.3707244492876458e-31,0.028337445110082626,0.026351170614361763,-0.047844018787145615,-0.0001271145447390154,-0.00034143528318963945,0.1149216815829277,0.07661445438861847,-9.193734169006348,0.7127973437309265,47.712860107421875,-0.3655475378036499,-3.362603187561035,-1.6540197134017944,-0.7900316119194031,0.014643103815615177,-0.3216932415962219,25.5,26.3125,25.5,28.5,29.8125,30.375
1.0,-0.9326317666736118,-0.6121012573265046,-0.8229642756741224,-0.044797053837363356,0.012712321083631102,-0.08360714610359565,-0.5385360962680922,-0.3247167379295192,0.2585508653038307,-3.0785802473751533,0.6247314330542668,-0.00027940362404555786,0.0002835266285055764,0.00011347324320350249,-0.02463337576375803,0.0020955718827122814,-0.005970741343320964,0.0003134636912659434,0.3270641565322876,-1.1505009096911927,1.6644580999957483,-2.0829912624754847,-1.571345631276266,2.302025318145752,1.8390019534729354e-33,0.028545938432216644,0.027258820831775665,-0.04947695508599281,-0.00012419094855431467,-0.0003259728255216032,0.038307227194309235,0.05746084079146385,-9.136273384094238,0.7821771502494812,47.71733474731445,-0.4202694296836853,-3.401844024658203,-1.6780200004577637,-0.8097182512283325,0.015356000512838364,-0.3073667883872986,25.5,26.3125,25.5,28.5,29.8125,30.375
1.0,-0.5181078540924278,-0.16327953154828406,-0.8273558257310691,-0.05843419528611926,0.03331395075677421,-0.08832345371418161,-0.5385486124105584,-0.32471975503574596,0.2585190893370305,-3.0785954395394133,0.6246963318573073,-0.00022160965977593096,0.00021181418033046085,8.871913301467786e-05,-0.024754434907107496,0.0018483286200558211,-0.005258095776854467,0.0002988972466259032,0.3270641565322876,-1.1504407984069367,1.6644709745990198,-2.083099981347555,-1.571357552205221,2.302001476287842,2.4672555966257723e-35,0.028779227286577225,0.027482083067297935,-0.050687819719314575,-0.00012139894533902407,-0.00031185123953036964,0.038307227194309235,0.05746084079146385,-9.251194953918457,0.6411817073822021,47.703006744384766,-0.4172908067703247,-3.369013786315918,-1.6550743579864502,-0.8224034309387207,0.017451776191592216,-0.3066176772117615,25.5,26.3125,25.5,28.5,29.8125,30.375
1.0,-0.5200582510613443,-0.3129828736337058,-1.01030358887342,-0.04881736544514635,0.03438958981733421,-0.09101192226223412,-0.5385241082700961,-0.32472444024489977,0.2584591781185932,-3.078552039841043,0.6246873023293155,-0.0002666990785391628,0.00021631602112355202,8.996329595326666e-05,-0.02460891371557922,0.0012407329887495126,-0.003486963526279661,0.0002850769298464987,0.3270881175994873,-1.1504050356200715,1.6645787397967737,-2.083196302453512,-1.5713813940631312,2.302025318145752,3.310138264117911e-37,0.028441820293664932,0.02811441384255886,-0.05285520479083061,-0.00011872966570081189,-0.0002989021595567465,0.019153613597154617,0.038307227194309235,-9.289502143859863,0.7306999564170837,47.687782287597656,-0.47144633531570435,-3.3352394104003906,-1.695850133895874,-0.8399477601051331,0.017189830541610718,-0.32184022665023804,25.5,26.3125,25.5,28.5,29.8125,30.375
1.0,-0.5232367371523928,-0.467219637084332,-1.0710044307126523,-0.03914534803625287,0.0345147139163908,-0.08718938652651481,-0.538551036116208,-0.32472056644512687,0.2584117801711364,-3.078576464069919,0.6247307785226363,-0.00025414503505871646,8.08865174320044e-05,4.359279378251075e-05,-0.025523075961199147,0.0011810517995054781,-0.0033309210224255017,0.0002725342310802046,0.3270641565322876,-1.1503087443164368,1.664579216633932,-2.0833164654173792,-1.571357552205221,2.302025318145752,4.440972672362781e-39,0.029788685962557793,0.028809944167733192,-0.055064551532268524,-0.00011617511336226016,-0.00028698501409962773,0.09576806426048279,0.13407529890537262,-9.27034854888916,0.7486078143119812,47.68867492675781,-0.411956250667572,-3.3120357990264893,-1.6477196216583252,-0.8378159999847412,0.004317137412726879,-0.3012625575065613,25.5,26.3125,25.5,28.5,29.8125,30.375
1.0,-0.317542595289671,-0.5638287171338496,-0.9934758377093578,-0.043911681519984536,0.03945699449293097,-0.08618846192010164,-0.538528632104277,-0.324718149421239,0.25834774635396884,-3.0785375664760304,0.624703754678807,-0.00029702259050852503,-0.0003258328122593282,-9.537933624701512e-05,-0.026313316050663345,0.00012147376184892429,-0.0002515325432935558,0.00025953164816856983,0.3270760774612427,-1.1502722364715119,1.6646984259234827,-2.083426614800924,-1.5713813940631312,2.302025318145752,5.95818094046269e-41,0.031311094760894775,0.02978375554084778,-0.060817353427410126,-0.0001137284270953387,-0.00027598306769505143,0.09576806426048279,0.07661445438861847,-9.308655738830566,0.6635612845420837,47.70658874511719,-0.46053585410118103,-3.4568939208984375,-1.7001397609710693,-0.8075205087661743,0.015175123699009418,-0.31098344922065735,25.5,26.3125,25.5,28.5,29.8125,30.375
1.0,-0.8332181137257663,-0.36722551230381406,-0.8382842909673277,-0.057212016524187094,0.032133677370481895,-0.08749840434050987,-0.5385303483273867,-0.3247199775068036,0.25829153382070613,-3.0785428893886855,0.6246666885177568,-0.0003404233816905748,-0.0003481530882954716,-0.00010320216049979743,-0.026620259205861887,3.053688789660892e-05,4.070067436622317e-06,0.00024900796809685326,0.3270760774612427,-1.1502001148513337,1.6647470633136194,-2.083522459069723,-1.571369473134176,2.302001476287842,7.987401246651457e-43,0.03169921413064003,0.030178433284163475,-0.061871424317359924,-0.00011138254922116175,-0.00026579314726404846,0.05746084079146385,0.1149216815829277,-9.327810287475586,0.7441308498382568,47.725399017333984,-0.47415024042129517,-3.3807573318481445,-1.7007646560668945,-0.7933483123779297,0.008591977879405022,-0.3048707842826843,25.5,26.3125,25.5,28.5,29.8125,30.375
1.0,-0.9440121299355395,-0.8489977999765232,-0.8642587937820768,-0.04696500390835963,0.03322520263361485,-0.08840022275260011,-0.5385203477484528,-0.32474368596299824,0.2582412652057665,-3.078601735416935,0.624659331616199,-0.000301284217081363,-0.0005430064881924748,-0.00016992380903479957,-0.026944569466129185,-0.000736376116689141,0.00223486392126732,0.00023819585019406185,0.327112078666687,-1.1501399141601105,1.6648181120501917,-2.08370365718984,-1.5713337103473108,2.302025318145752,1.1210387714598537e-44,0.03229837492108345,0.030916035175323486,-0.06556711345911026,-0.00010913175356108695,-0.0002563292218837887,-0.019153613597154617,0.038307227194309235,-9.232041358947754,0.7038487195968628,47.712860107421875,-0.49410635232925415,-3.3875670433044434,-1.7679173946380615,-0.7931790351867676,0.01196206919848919,-0.3184951841831207,25.5,26.3125,25.5,28.5,29.8125,30.375
1.0,-1.0181918584424945,-0.7260128392197578,-0.9607391417705482,-0.04990730857016781,0.03353593671689255,-0.08515510776513975,-0.538543034367665,-0.3247189962480436,0.25820194525357565,-3.078577444796834,0.6247313555983285,-0.00029015160969231453,-0.0010072138827899363,-0.00018129408196794096,-0.027098408221363928,-0.0022121445788644985,0.0065393856618107616,3.540388386112452e-07,0.32706406712532043,-1.1500797134688874,1.6648429075824183,-2.083789964715475,-1.571345631276266,2.302025318145752,-0.0002267562667839229,0.03292803093791008,0.03174646571278572,-0.07157767564058304,-0.00010696974641177803,-0.00024751582532189786,0.05746084079146385,0.15322890877723694,-9.308655738830566,0.7508436441421509,47.7244987487793,-0.4059736728668213,-3.3620307445526123,-1.7910436391830444,-0.7245944142341614,0.003932800143957138,-0.3173096179962158,25.5,26.3125,25.5,28.5,29.8125,30.375
1.0,-1.3437158567116765,-0.8722025800906739,-0.9086038349696167,-0.04943358413557751,0.031714488194015344,-0.08044972383791953,-0.5385343300787725,-0.324731572603689,0.25811859696582473,-3.078582852230037,0.6246750212000529,-0.0003067439247010549,-0.0010701469667680418,-0.00019991690101524545,-0.027413033109383207,-0.002611820120870639,0.007697913878325223,-1.3402184047525407e-05,0.32708802819252014,-1.1499836903861542,1.664938751851217,-2.0839697323241175,-1.571345631276266,2.302013397216797,-0.00023146801686380059,0.03333038464188576,0.032422661781311035,-0.07388175278902054,-0.00010489211126696318,-0.00023928892915137112,0.07661445438861847,0.13407529890537262,-9.346963882446289,0.7284641265869141,47.7164421081543,-0.4688984751701355,-3.42277455329895,-1.782463550567627,-0.6820046305656433,0.01595905050635338,-0.3106175661087036,25.5,26.3125,25.5,28.5,29.8125,30.375
1.0,-1.0010280679477261,-0.7277804892008428,-1.0193734862671033,-0.05281332658416768,0.03323191210896286,-0.07902156806992462,-0.5385413651984574,-0.3247236497916219,0.25808836899313586,-3.0785752801617776,0.6247310048330011,-0.00022297842910387445,-0.0011083715212603282,-0.00022037047733492214,-0.02744603594140036,-0.003121697051263045,0.009182937658667342,-1.080729051662247e-05,0.3270759880542755,-1.1499476295760651,1.6649869124041956,-2.08410181621694,-1.571369473134176,2.302037239074707,-0.0002203526528319344,0.03332605957984924,0.03298620134592056,-0.07601109147071838,-0.00010289319470757619,-0.00023159115517046303,0.15322890877723694,0.07661445438861847,-9.27034854888916,0.6792280077934265,47.65553665161133,-0.4828375577926636,-3.3852698802948,-1.8426263332366943,-0.6497583985328674,0.010875079780817032,-0.31837981939315796,25.5,26.3125,25.5,28.5,29.8125,30.375
1.0,-0.9143335661994292,-0.5749926232763696,-0.9921279305518425,-0.0508828751755028,0.026540035646444398,-0.0782645234171681,-0.5385512966080142,-0.32471273579929577,0.25799355486812947,-3.078559039002678,0.6247470408491995,-0.0002951162740563341,-0.0015131697369746226,-0.0003715808824281848,-0.027914210908376706,-0.004537285848783175,0.013304163365623838,-7.538940657590579e-06,0.3270401358604431,-1.1498034757426758,1.665154282246725,-2.0844394169249476,-1.5713933149920862,2.302013397216797,-0.0002006990252994001,0.03439847379922867,0.034019432961940765,-0.08247430622577667,-9.911607048707083e-05,-0.00021759197989013046,0.038307227194309235,0.13407529890537262,-9.174580574035645,0.7284641265869141,47.703006744384766,-0.4523949921131134,-3.4742379188537598,-1.7956684827804565,-0.5564839839935303,0.012642890214920044,-0.31196174025535583,25.5,26.3125,25.5,28.5,29.8125,30.375
1.0,-0.4698116524291066,-0.45949702892720473,-0.9319230208351255,-0.05092291555008384,0.02827864891359924,-0.08762753639007836,-0.5385453956063238,-0.32471850551048986,0.2578914321428013,-3.078590972304186,0.624772658000984,-0.00019838975983978415,-0.0014442392250793678,-0.00033177318746680667,-0.028421078226826973,-0.004448619501417178,0.013034557413985166,-3.945844656029986e-05,0.32706406712532043,-1.1497194331935425,1.66522723833193,-2.0845958195128382,-1.571357552205221,2.302049160003662,-0.00022600639204028994,0.03485608845949173,0.03473448008298874,-0.08336316794157028,-9.732948092278093e-05,-0.00021120841847732663,0.0,0.15322890877723694,-9.136273384094238,0.7284641265869141,47.69584274291992,-0.4769943654537201,-3.438342571258545,-1.8234963417053223,-0.5270398259162903,0.01589631289243698,-0.3182273507118225,25.5,26.3125,25.5,28.5,29.8125,30.375
1.0,-0.46283042647383554,-0.7754518437121058,-1.0045989683647332,-0.03693760924021776,0.018123867110825427,-0.08275120269054621,-0.5385492814295713,-0.32472381502746034,0.2578467409366268,-3.078610414076198,0.6247001996841903,-7.526315740269155e-05,-0.0013962531360498932,-0.0003187347796322587,-0.028961910848057784,-0.0038786941044809987,0.011356907288271788,-3.9999068187036103e-05,0.3270759880542755,-1.149659202699997,1.6652877966510218,-2.0847865543761195,-1.5713933149920862,2.302013397216797,-0.0002210537641076371,0.035549771040678024,0.03475819528102875,-0.08230876177549362,-9.560638864059001e-05,-0.00020518910605460405,0.09576806426048279,0.15322890877723694,-9.193734169006348,0.7620334029197693,47.70121383666992,-0.4777930974960327,-3.4268574714660645,-1.8216956853866577,-0.4977494478225708,0.018269825726747513,-0.31497061252593994,25.5,26.3125,25.5,28.5,29.8125,30.375
1.0,-0.6284051086923864,-0.5783403445601489,-0.8999342578712684,-0.02832247717643208,0.002201454230600893,-0.07786943118299912,-0.538547676734349,-0.32472577688233945,0.25777395333476244,-3.078621027934315,0.6247215349327633,-0.00011075635711939212,-0.0010495034327232028,-0.0002060774636654403,-0.029535780659486307,-0.003074508174404387,0.008998511618193577,-3.62992392124802e-05,0.3270760178565979,-1.1495751303485413,1.6653707663165491,-2.0849415264525355,-1.571369473134176,2.302025318145752,-0.00021241589274723083,0.03570184484124184,0.03548615053296089,-0.08069705218076706,-9.394300286658108e-05,-0.0001995028433157131,0.13407529890537262,0.07661445438861847,-9.251194953918457,0.7486078143119812,47.702110290527344,-0.4820193946361542,-3.478975772857666,-1.9084430932998657,-0.5082861185073853,0.008544273674488068,-0.2995471954345703,25.5,26.3125,25.5,28.5,29.8125,30.375
1.0,0.06327523204184433,0.09830060432785032,-0.9767451673318931,-0.03335398585877438,0.006052667118110448,-0.08944139970458698,-0.5385566103342306,-0.3247119872852265,0.25771292478197355,-3.078608110502457,0.62475740529172,-8.910415921461754e-05,-0.000489221104343506,1.9507748624926374e-06,-0.030521117355563822,-0.0014204569780294557,0.004176991344464109,-6.458178843795265e-05,0.3270520269870758,-1.149503157739975,1.6654437224017542,-2.085095544854635,-1.5713813940631312,2.302025318145752,-0.00023705769854132086,0.036074329167604446,0.036326248198747635,-0.07681228220462799,-9.99134499579668e-05,-0.0001941238879226148,0.15322890877723694,-0.038307227194309235,-9.251194953918457,0.7351769208908081,47.72808074951172,-0.47952213883399963,-3.4921517372131348,-1.9055877923965454,-0.5174965858459473,0.02278432622551918,-0.31310537457466125,25.5,26.3125,25.5,28.5,29.8125,30.375
1.0,0.10033264747559056,-0.0015136868901785491,-0.9898869995936054,-0.017164025473780764,-0.006835423733324927,-0.08894698666670874,-0.5385588283805158,-0.3247373679615232,0.2576712363140006,-3.078669946401328,0.6247123944154997,1.1839199765730402e-05,-0.0003011999974039344,7.613055989355405e-05,-0.0319920488889798,-6.378935484739403e-05,0.00021350106284023928,-8.277562806005768e-05,0.32708802819252014,-1.1494307082942505,1.6654804388629358,-2.0852862797179164,-1.571369473134176,2.302025318145752,-0.0002512721694074571,0.03774664178490639,0.036892399191856384,-0.07486148178577423,-0.0001054050590028055,-0.0001890269631985575,0.19153612852096558,-0.09576806426048279,-9.136273384094238,0.7105615139007568,47.7164421081543,-0.494018018245697,-3.4937148094177246,-1.935896396636963,-0.527587354183197,0.00924600102007389,-0.3080098330974579,25.5,26.3125,25.5,28.5,29.8125,30.375
1.0,0.0874730306237506,0.11871956094296157,-0.8155773928309106,-0.011631496843369397,-0.012817974425800089,-0.08675996883397993,-0.5385747667908661,-0.32472192070285405,0.25760851551837755,-3.078683450667532,0.6247538493289754,-5.319349422373116e-06,-0.0006536135538845302,-4.2768095692099516e-05,-0.031011650779252962,-0.00030331404740807226,0.0009143304032861061,-8.977693111017148e-05,0.3270520269870758,-1.1493468147567292,1.6655381361590784,-2.0854293308653773,-1.571345631276266,2.302013397216797,-0.00025383642059750855,0.037311289459466934,0.03489389643073082,-0.07316825538873672,-0.00010413044219603762,-0.00018419077969156206,0.28730422258377075,-0.019153613597154617,-9.117119789123535,0.6993717551231384,47.71375274658203,-0.5313938856124878,-3.520003318786621,-1.6925878524780273,-0.5512679815292358,-0.0019930098205804825,-0.29970937967300415,25.5,26.3125,25.5,28.5,29.8125,30.375
1.0,0.5274879265172225,0.2710908965555167,-0.7484620329169837,-0.02427501128240899,0.001456462073001593,-0.09014496973411605,-0.5385666056857199,-0.32472709437212777,0.25754341721368845,-3.078617089190209,0.6247019444640762,1.5775313205822298e-05,-0.0002356560518574542,0.0002225829638150498,-0.03275005464776535,0.0011057925245812404,-0.0032228257175977463,-0.00028228811603584695,0.32707592844963074,-1.1492744547179718,1.6656120459186,-2.0855490169920863,-1.5714176336871546,2.302013397216797,-0.00044266408076509833,0.038692545145750046,0.0366319864988327,-0.07191707193851471,-0.00010246749297948554,-0.00017959617252927274,0.2298433631658554,0.0,-9.174580574035645,0.6501356363296509,47.67524337768555,-0.46874162554740906,-3.527388095855713,-1.8413410186767578,-0.5789888501167297,0.009666691534221172,-0.29769864678382874,25.5,26.3125,25.5,28.5,29.8125,30.375
1.0,-0.07985889464112308,-0.008440699872261918,-0.8006460982080537,-0.03767557032711419,-0.0016412610403707534,-0.08550252982298967,-0.5385744922748805,-0.3247217711494013,0.2574925390950147,-3.078701147206473,0.6247194630658416,2.1795449893020608e-05,-0.00022582741646801557,0.0002509823789446606,-0.033755393285858186,0.0019375413727171318,-0.005670876460965888,-0.00032461122423854715,0.32705196738243103,-1.1492139560035248,1.6656835714923304,-2.0857278309264125,-1.571345631276266,2.3019895553588867,-0.0004812782281078398,0.04005337879061699,0.036773182451725006,-0.07083360105752945,-0.00010082946391776204,-0.00017522508278489113,0.19153612852096558,0.0,-9.21288776397705,0.6747510433197021,47.702110290527344,-0.495218425989151,-3.6081204414367676,-1.870386004447937,-0.5943341851234436,0.010232840664684772,-0.3014985918998718,25.5,26.3125,25.5,28.5,29.8125,30.375
1.0,0.0833105591806518,-0.19909673023217145,-0.6130926292817932,-0.034326863533765344,0.009440134083516988,-0.08923040284033164,-0.5385813648657237,-0.324710041986088,0.2574135377823125,-3.078629698528221,0.6247813602272883,5.2993266237046934e-05,0.00019966010799248482,0.00042614488500469674,-0.033514193792390734,0.002209091285652912,-0.006462030004368696,-0.0003748014033468758,0.32704001665115356,-1.1491184097579499,1.6657674948321741,-2.0858952007689417,-1.5714057127581995,2.302025318145752,-0.0005276881856843829,0.038901448249816895,0.037563711404800415,-0.06963575631380081,-9.924135520122945e-05,-0.00017106224549934268,0.19153612852096558,0.038307227194309235,-9.136273384094238,0.7441308498382568,47.731666564941406,-0.5089925527572632,-3.595386505126953,-1.7993559837341309,-0.612837553024292,0.003653044579550624,-0.2960571050643921,25.5,26.3125,25.5,28.5,29.8125,30.375
1.0,-0.3383636810375844,-0.6326796120588253,-0.8269631431014173,-0.023090548617516242,-0.0007841689172388465,-0.07928356855880925,-0.5385769827288719,-0.3247019609325766,0.257352157874551,-3.0786176080735626,0.6247410696707627,-3.932631702465364e-05,0.0005749039843948861,0.0007926397085611249,-0.03392823319913404,0.002957000817798118,-0.008652340291032108,-0.0007453872434413079,0.3270278871059418,-1.1490586262992402,1.6658394972430628,-2.085966249505514,-1.5713933149920862,2.3019895553588867,-0.0008950098999775946,0.03852396085858345,0.038674525916576385,-0.06805460155010223,-9.770226461114362e-05,-0.00016709188639651984,0.17238251864910126,0.038307227194309235,-9.174580574035645,0.6456586718559265,47.6976318359375,-0.4839211106300354,-3.4483468532562256,-1.8837406635284424,-0.6509830951690674,0.012219751253724098,-0.3141730725765228,25.5,26.3125,25.5,28.5,29.8125,30.375
1.0,-0.5569329065735993,-0.043274207545630855,-0.6490164070336883,-0.033037351467702175,-0.015918170683275785,-0.07707157864349554,-0.5385748613441336,-0.32471674677733786,0.25727063494988067,-3.078622877086345,0.624684030499196,-5.6748820142190224e-05,8.784239125016397e-05,0.0007072132977530994,-0.034576367591992674,0.0035318672384011957,-0.01031400868763109,-0.0008710900933386638,0.3270517885684967,-1.1489500862411042,1.6659110228167933,-2.0861336193480433,-1.5713933149920862,2.3019771575927734,-0.001017622067593038,0.040417879819869995,0.037205297499895096,-0.06672098487615585,-0.00010815863060997799,-0.00016330208745785058,0.24899697303771973,0.038307227194309235,-9.097966194152832,0.7597975730895996,47.736141204833984,-0.47829940915107727,-3.5593645572662354,-1.819098711013794,-0.6835267543792725,0.014171588234603405,-0.30303865671157837,25.5,26.3125,25.5,28.5,29.8125,30.375
1.0,0.18949640833317408,-0.032562780007478476,-0.6385304192883516,-0.025228211233362614,-7.127974759705245e-05,-0.0871027082863361,-0.5385737784703355,-0.32470082794068966,0.2572149555983135,-3.078595982653642,0.6247559433657461,-8.949030985470086e-05,6.709629294462922e-05,0.0006254389014702039,-0.03415064347102016,0.003075066682339236,-0.008974988523667805,-0.0007602420172911931,0.3270278573036194,-1.1489021641067048,1.665994946156637,-2.086241384545797,-1.5713933149920862,2.302001476287842,-0.000902721076272428,0.03993185982108116,0.03710765764117241,-0.0675521194934845,-0.00010818339069373906,-0.0001596802903804928,0.19153612852096558,0.07661445438861847,-9.097966194152832,0.6881819367408752,47.6895751953125,-0.47623521089553833,-3.5423529148101807,-1.709425687789917,-0.7178457975387573,-0.004174134228378534,-0.3066234588623047,25.5,26.3125,25.5,28.5,29.8125,30.375
1.0,-0.2537042522887815,-0.4772007617541767,-0.7661368146432472,-0.015512470003106274,-0.012407532956481618,-0.08044429688138081,-0.5385597715080435,-0.32470387390871275,0.25713697585399803,-3.0785737871922723,0.6247703571601174,-0.00014073470972675542,0.0005586507446107997,0.0007097247798686166,-0.03637836045229125,0.004690139213623641,-0.013719382233433334,-0.000633972543017399,0.3270399272441864,-1.1488296550563355,1.6661031881915491,-2.086384435693258,-1.5713933149920862,2.302025318145752,-0.0007739318534731865,0.04201120510697365,0.03904249146580696,-0.06655453890562057,-0.00010668817412806675,-0.00015621568309143186,0.19153612852096558,0.07661445438861847,-9.097966194152832,0.6501356363296509,47.69584274291992,-0.48790210485458374,-3.56074857711792,-1.800832748413086,-0.7314639091491699,-0.004034699406474829,-0.30310770869255066,25.5,26.3125,25.5,28.5,29.8125,30.375
1.0,0.1344604700227391,-0.39105192584590565,-0.8165079163269662,-0.029978893956509635,0.0009605278720589746,-0.0891802139285642,-0.538561169835896,-0.32471334989078615,0.2570493239785792,-3.078570122974978,0.6246932051489602,-0.0002295098693635241,0.0005212194463732614,0.0006336789519414676,-0.03592440259811155,0.004403324222645921,-0.012881315063581561,-0.0005403401070819046,0.32705187797546387,-1.1487098199180146,1.6661623159991663,-2.0865050754942835,-1.5713813940631312,2.3019895553588867,-0.0006768442108295858,0.0415659137070179,0.03864486515522003,-0.06659740954637527,-0.00010513724555494264,-0.00015289786097127944,0.17238251864910126,0.19153612852096558,-9.040505409240723,0.7016075849533081,47.72270965576172,-0.48340481519699097,-3.5952377319335938,-1.811311960220337,-0.7967035174369812,0.004368159454315901,-0.3084428310394287,25.5,26.3125,25.5,28.5,29.8125,30.375
1.0,-0.08005888919678594,-0.028420299626647636,-0.5192702606034709,-0.05211371400307081,0.00036362827905787876,-0.08598597476782177,-0.5385524037710963,-0.32471943652251073,0.2569818224171415,-3.0785692079046956,0.6246928630408027,-0.0002697114313531731,0.0004905915623519632,0.0005738976527791039,-0.034566932146532815,0.002796316975808247,-0.00817180614447624,-0.0004697597138530797,0.3270639479160309,-1.1486386221698304,1.66624623933901,-2.086637636224264,-1.571369473134176,2.302001476287842,-0.0006014076061546803,0.03967369720339775,0.03897852823138237,-0.07001499831676483,-0.00010362455941503868,-0.00014971860218793154,0.2106897532939911,0.17238251864910126,-9.02135181427002,0.6568484306335449,47.7164421081543,-0.48288875818252563,-3.4698381423950195,-1.749068021774292,-0.8046233654022217,0.007760637439787388,-0.30921414494514465,25.5,26.3125,25.5,28.5,29.8125,30.375
1.0,0.1057567240080117,-0.2092304555992547,-0.7819608825994371,-0.06289516726114508,0.024465672726081193,-0.0909158467188839,-0.5385653814864081,-0.32470829718661154,0.2569200417358574,-3.0785511449945093,0.6247467513834992,-0.00028910928664711513,0.0002857246691223666,0.0005165241133572977,-0.03598266494740457,0.003153350796682022,-0.009230031247381466,-0.0004919457130965085,0.3270399868488312,-1.1485538643649598,1.666295353566305,-2.086757322350973,-1.571369473134176,2.302013397216797,-0.0006202892400324345,0.04186777025461197,0.039494361728429794,-0.07160807400941849,-0.00010466848470969126,-0.0001466688117943704,0.19153612852096558,0.13407529890537262,-9.155426979064941,0.7217512726783752,47.70658874511719,-0.5581505298614502,-3.4614038467407227,-1.7426657676696777,-0.8005448579788208,0.003884302917867899,-0.29333773255348206,25.5,26.3125,25.5,28.5,29.8125,30.375
1.0,-0.9090587148028596,-1.032290647419201,-0.70213304517629,-0.06054329409203347,0.02034138543775772,-0.081750292757765,-0.5385750810466478,-0.32470378516877335,0.2568951434035625,-3.0785736412824116,0.6247897981623756,-0.0002073041857412318,-3.549540394854152e-05,0.00039354681636567546,-0.03702978004815312,0.0021216803247541866,-0.0062315236392742656,-0.0004925381207549564,0.32709982991218567,-1.148373470907547,1.6664641539203089,-2.0870472393431605,-1.5713813940631312,2.302037239074707,-0.0005998790147714317,0.04355259984731674,0.04095733165740967,-0.0779268890619278,-0.00010244155419059098,-0.00012785667786374688,0.07661445438861847,0.2298433631658554,-9.232041358947754,0.6344689130783081,47.7218132019043,-0.5252878069877625,-3.590158462524414,-1.8401000499725342,-0.8032609224319458,-0.0011650252854451537,-0.29238301515579224,25.5,26.3125,25.5,28.5,29.8125,30.375
1.0,-0.9975870114024434,-0.8824660298159179,-0.7162239756504277,-0.07422624239266842,0.04065710472712136,-0.08982598871564157,-0.5385419964256476,-0.3247236023081745,0.25668876832582727,-3.078530956019181,0.6246470630951771,-0.0003973496981703683,-0.0004740385405248809,0.00017662281392737662,-0.03611875541739106,0.00029139585923576144,-0.0008824795906931523,-0.00039834545439429566,0.32707589864730835,-1.1483017665198822,1.66657001176943,-2.0872045956053675,-1.571369473134176,2.3019895553588867,-0.0004969300352968276,0.04302933067083359,0.04073242098093033,-0.0828322246670723,-0.0001001713244477287,-0.00012124060594942421,0.09576806426048279,0.24899697303771973,-9.308656692504883,0.7038487195968628,47.7244987487793,-0.543604850769043,-3.579864501953125,-1.7870652675628662,-0.7871845960617065,9.426148608326912e-05,-0.27800706028938293,25.5,26.3125,25.5,28.5,29.8125,30.375
1.0,-1.28519430026207,-1.0496259498472673,-0.9566184357849841,-0.07214865331195994,0.03575525333053717,-0.08231085822351929,-0.5385515326958205,-0.324712539578921,0.2566308647468159,-3.078522540207544,0.6247411620204207,-0.00040689442755033177,-0.0006862974541989237,0.00010555756613224334,-0.03698124841295085,-0.0004557342162346927,0.0012856979820350296,-0.0004048443589474791,0.32705193758010864,-1.1482293468764802,1.6666305700885218,-2.087337633172506,-1.571357552205221,2.302025318145752,-0.000499205372761935,0.04430757835507393,0.042006365954875946,-0.08767770230770111,-9.799045801628381e-05,-0.00011868499859701842,0.05746084079146385,0.26815059781074524,-9.308655738830566,0.7284641265869141,47.71464920043945,-0.542471706867218,-3.5386962890625,-1.8034887313842773,-0.7448465824127197,-0.016635924577713013,-0.29129478335380554,25.5,26.3125,25.5,28.5,29.8125,30.375
1.0,-0.8648788141947785,-1.049306382318274,-0.9722220918179706,-0.07710206897692644,0.04543069736044844,-0.08588392196649597,-0.5385467586244426,-0.3247136633831327,0.25653781530586955,-3.0784741165413707,0.6246546498660792,-0.0004314964242469749,-0.001069406988033485,-3.6602581411626126e-05,-0.036396301906769145,-0.0022745538888870108,0.006600571288834088,-0.00039236569177831425,0.32706397771835327,-1.1481215816787262,1.666727368031637,-2.0874959431090296,-1.5714057127581995,2.3019895553588867,-0.0004821396723855287,0.04399053007364273,0.0424160435795784,-0.09338781237602234,-9.590236004441977e-05,-0.00011647317296592519,0.0,0.2298433631658554,-9.327810287475586,0.7351769208908081,47.70658874511719,-0.5716593265533447,-3.574167013168335,-1.8316543102264404,-0.7108756899833679,-0.010091406293213367,-0.29077664017677307,25.5,26.3125,25.5,28.5,29.8125,30.375
1.0,-1.0582611527162076,-1.0352997409354265,-0.9333003557669308,-0.07719995871171083,0.04495806445299886,-0.08570104395614847,-0.5385563192612633,-0.3247182159411797,0.25645925687689286,-3.078502786870925,0.624717947657639,-0.0003617507918277571,-0.0012290760334271499,-6.940669832961494e-05,-0.03721069740178324,-0.002525242512472965,0.007318087986544013,-0.0004289183728197149,0.32706397771835327,-1.148013101225235,1.6668112913714808,-2.0877472362914027,-1.5713933149920862,2.302025318145752,-0.0005156954866833985,0.04521618410944939,0.04318131506443024,-0.09613876789808273,-9.390110790263861e-05,-0.00011435768828960136,0.0,0.2298433631658554,-9.366117477416992,0.7195101380348206,47.72718811035156,-0.5543237328529358,-3.6045632362365723,-1.8542771339416504,-0.660258412361145,0.004521678667515516,-0.28191596269607544,25.5,26.3125,25.5,28.5,29.8125,30.375
1.0,-1.3702467009281427,-1.1277049522845757,-1.1400999924079367,-0.07062975895786787,0.032752695925529894,-0.0819872156204731,-0.5385644461980051,-0.32470542316893997,0.25641520551427266,-3.0785314548116105,0.6247049458619336,-0.00029376402115511636,-0.001604843190099339,-0.0001818036351430186,-0.03724952079523602,-0.0037273086674884295,0.010877484812890205,-0.00045464942499930057,0.32704001665115356,-1.1479651194861908,1.6668828169452112,-2.087916990319723,-1.5713933149920862,2.3019895553588867,-0.0005375893670134246,0.04574194550514221,0.04360358417034149,-0.100843645632267,-0.00010915163875324652,-0.00011231875396333635,0.09576806426048279,0.19153612852096558,-9.366117477416992,0.7486078143119812,47.685096740722656,-0.5315613746643066,-3.550590753555298,-1.8622654676437378,-0.6203988194465637,-0.010160116478800774,-0.2987261712551117,25.5,26.3125,25.5,28.5,29.8125,30.375
1.0,-0.98640611397301,-1.1507592485670446,-1.0456807815350124,-0.05527232796280046,0.04144906989279065,-0.08020430117082852,-0.5385732571745517,-0.32468628437333696,0.25629122646656316,-3.0785066630200943,0.624757727544454,-0.00036898414958434674,-0.0016625920367862577,-0.0002212500062742107,-0.0374575672310412,-0.004266220733634104,0.012449535679103467,-0.0004272528507436577,0.32700401544570923,-1.147820995455124,1.6670149008380335,-2.088144918481344,-1.5713813940631312,2.3019895553588867,-0.0005072388448752463,0.046009667217731476,0.044302601367235184,-0.10347224026918411,-0.00010808696242747828,-0.00011035133502446115,0.05746084079146385,0.26815059781074524,-9.366117477416992,0.7060845494270325,47.70121383666992,-0.606468915939331,-3.6291401386260986,-1.83480966091156,-0.53317791223526,0.00507317204028368,-0.29926013946533203,25.5,26.3125,25.5,28.5,29.8125,30.375
1.0,-0.5695885032825162,-0.339053973588902,-1.0518768066553665,-0.0637957675621623,0.04342238468277949,-0.09638512777252406,-0.5385701064424836,-0.3247098294866699,0.2562306525757275,-3.078552260544841,0.6247667557992963,-0.00028199690822978507,-0.0016613624036368728,-0.00024002113432272434,-0.03803665571597848,-0.003780500437419386,0.011014895385755504,-0.00039951878201734185,0.32704001665115356,-1.147736833696701,1.667086426411764,-2.088371892968649,-1.571369473134176,2.302025318145752,-0.000477995810797438,0.04685179889202118,0.04429082199931145,-0.10278796404600143,-0.00010603743430692703,-0.00010845171345863491,0.05746084079146385,0.17238251864910126,-9.404424667358398,0.7463666796684265,47.712860107421875,-0.5641508102416992,-3.5729947090148926,-1.8621840476989746,-0.5595738887786865,0.007172317244112492,-0.3041146993637085,25.5,26.3125,25.5,28.5,29.8125,30.375
1.0,-0.30964873905014534,-0.5318485395522468,-1.2017493724307735,-0.04179774560301018,0.03160535675026509,-0.09135693250334548,-0.5385753997047975,-0.3247116074771837,0.256166098571635,-3.0785845822459033,0.6246962736984057,-0.00023531943588606861,-0.0015589537043092408,-0.00012713216842800731,-0.0384570622291094,-0.002964405941040217,0.008618676039127299,-0.0005206551429391497,0.3270399868488312,-1.1476526719382782,1.6671589056598108,-2.0885631046690882,-1.571369473134176,2.3019771575927734,-0.000598258338868618,0.047271810472011566,0.04415343701839447,-0.10053921490907669,-0.00010400003520771861,-0.00010661638953024521,0.05746084079146385,0.1149216815829277,-9.442731857299805,0.7105615139007568,47.71733474731445,-0.5325251817703247,-3.673834800720215,-1.8180038928985596,-0.5527319312095642,0.0044884271919727325,-0.3004738390445709,25.5,26.3125,25.5,28.5,29.8125,30.375
1.0,-0.2951741642421023,-0.1491634147516684,-1.2194334592014846,-0.026412572773026933,0.01409225549368574,-0.08390764569729,-0.5385571482766598,-0.3247209406673362,0.25604899725777125,-3.078557513339628,0.6246722709693268,-0.0003202243178993189,-0.0010448116574297707,4.079887430357052e-06,-0.039690608039912464,-0.001336820213473656,0.0038452994277532264,-0.00045279145341722794,0.32706397771835327,-1.147532508974411,1.6673029104815882,-2.088764806787008,-1.571369473134176,2.3019895553588867,-0.0005302108475007117,0.048113543540239334,0.045035220682621,-0.09721950441598892,-0.00010203522106166929,-0.00010484204540261999,0.019153613597154617,0.0,-9.423578262329102,0.7083203792572021,47.704795837402344,-0.570129930973053,-3.609738349914551,-1.8661999702453613,-0.5749120712280273,0.006505749188363552,-0.2985245883464813,25.5,26.3125,25.5,28.5,29.8125,30.375
1.0,-0.4204923663324986,0.20715896063146422,-1.0995969204894738,-0.02229854602231624,-0.00446350618495449,-0.08067442029033593,-0.5385915521012101,-0.3247158450560944,0.255990054638305,-3.078575012213311,0.6247143509409936,-0.0002156474985124246,-0.000419204317363112,0.00024029198142016498,-0.0409261449390349,0.00015170524557474516,-0.0005181427438824136,-0.000488134962158563,0.3270399868488312,-1.147412584429123,1.6673153082477015,-2.0889674625792445,-1.5713813940631312,2.3019895553588867,-0.0005651292158290744,0.04859529063105583,0.04658733680844307,-0.0946430191397667,-0.00010014310828410089,-0.0001031258434522897,0.05746084079146385,-0.038307227194309235,-9.461885452270508,0.6702793836593628,47.7218132019043,-0.605366587638855,-3.6503920555114746,-1.9243794679641724,-0.5889724493026733,-0.010034246370196342,-0.30379563570022583,25.5,26.3125,25.5,28.5,29.8125,30.375
1.0,0.29170778564504973,0.329464572868887,-1.1388000971458312,-0.01582989999394477,0.0021573900559410204,-0.08746345305782592,-0.5385786950425815,-0.3247270259777602,0.25591655579402867,-3.078597294757815,0.6246996445775445,-0.0001655007116797496,-0.0011442075179004035,-4.0225488745705584e-05,-0.039791231840737316,-7.614506842632501e-05,0.00014260692011555637,-0.0004388192722288459,0.32706397771835327,-1.1473404926112671,1.6674330870257776,-2.089194437066549,-1.5713813940631312,2.302001476287842,-0.0005148384370841086,0.048825010657310486,0.04311615973711014,-0.09210049360990524,-9.831954230321571e-05,-0.00010146486602025107,0.13407528400421143,-0.05746084079146385,-9.346963882446289,0.6478998064994812,47.72897720336914,-0.5555604696273804,-3.6844069957733154,-1.7008812427520752,-0.6353883147239685,-0.001105064176954329,-0.3059501647949219,25.5,26.3125,25.5,28.5,29.8125,30.375
1.0,-0.10499595025331245,0.35371857542763585,-1.0386633308975208,-0.005843220553281292,-0.01094171148292777,-0.08270009390473901,-0.5385757350165068,-0.3247104411649694,0.25581949102326956,-3.0785623756015723,0.6247119028931922,-0.0002515449637263492,-0.0006618278714833574,0.00014402657834029602,-0.04078255867474514,0.0012852095399861455,-0.0038485179373632028,-0.0004693545695852992,0.32704001665115356,-1.1472442609122773,1.6675542036639612,-2.089348455468649,-1.5713813940631312,2.3019895553588867,-0.0005450919852592051,0.04930727556347847,0.04407099634408951,-0.08932068198919296,-9.656155452830717e-05,-9.985674842027947e-05,0.09576806426048279,-0.1149216815829277,-9.308655738830566,0.6389458775520325,47.718231201171875,-0.5918031930923462,-3.7069616317749023,-1.671018123626709,-0.6791493892669678,-0.010216149501502514,-0.30271801352500916,25.5,26.3125,25.5,28.5,29.8125,30.375
1.0,0.054832408666569715,0.6050119615334325,-0.9848436478174125,-0.0138885507919846,0.00027541044735590343,-0.0888375309963853,-0.5385735042582591,-0.3247186402419997,0.25573322801669085,-3.0785533769914184,0.6247484318093391,-0.0002935880012065439,-0.0002058903428874271,0.0003142829267664608,-0.04139724894815299,0.0023833482170669503,-0.007065877350208564,-0.0004924574018399967,0.32705190777778625,-1.147136465912201,1.6676376501666468,-2.089515825311178,-1.571369473134176,2.302025318145752,-0.0005677927401848137,0.049336887896060944,0.04484132304787636,-0.0867210179567337,-9.486517956247553e-05,-9.829855844145641e-05,0.17238251864910126,-0.17238251864910126,-9.385271072387695,0.6568484306335449,47.7244987487793,-0.5907791256904602,-3.639969825744629,-1.7012383937835693,-0.719697892665863,0.0028669501189142466,-0.28353002667427063,25.5,26.3125,25.5,28.5,29.8125,30.375
1.0,-0.18868429468633857,0.5921681484373281,-0.7068603813741496,-0.022614273429757817,0.0006118618878371371,-0.08918372089229444,-0.5385875279710526,-0.32470787569839366,0.25566326950720464,-3.0785453555144136,0.624785225185185,-0.0002958033061936697,0.00010681281338579477,0.0004013818187488629,-0.041648203903264916,0.003120238948371649,-0.009225830362876353,-0.0004630792718625734,0.32702797651290894,-1.1470405620387574,1.6676977316485804,-2.089670320550436,-1.571369473134176,2.302025318145752,-0.0005377863999456167,0.04918667674064636,0.04514080286026001,-0.08458809554576874,-9.322727419203147e-05,-9.67884116107598e-05,0.2298433631658554,-0.13407528400421143,-9.327810287475586,0.6948947906494141,47.704795837402344,-0.6336039304733276,-3.6617937088012695,-1.7720704078674316,-0.7661429047584534,-0.014292054809629917,-0.2838522493839264,25.5,26.3125,25.5,28.5,29.8125,30.375
1.0,-0.08905567345226506,1.1364415816067432,-0.5723004972279954,-0.03812262655232323,0.004075596071580359,-0.09043723161676726,-0.5385760536633393,-0.32470390663003373,0.25556411407868634,-3.078521417831431,0.6247805277319057,-0.0003620053106701055,0.0002965990959989141,0.0005418759103034648,-0.04192671250937112,0.0034517919635209267,-0.01020034488473105,-0.0005811155014829509,0.32702791690826416,-1.1469446581653138,1.6678298155414026,-2.0898496113219203,-1.571369473134176,2.302025318145752,-0.0006546057993546128,0.04912983253598213,0.04575110971927643,-0.08411218971014023,-9.164513176074252e-05,-9.532396506983787e-05,0.2106897532939911,-0.2106897532939911,-9.289502143859863,0.7396538853645325,47.690467834472656,-0.5911996364593506,-3.5978176593780518,-1.717827558517456,-0.8103195428848267,0.004653471987694502,-0.27204328775405884,25.5,26.3125,25.5,28.5,29.8125,30.375
1.0,0.10874095923545918,0.6349822256968581,-0.7949707163856543,-0.027440517188324416,0.009862355652203557,-0.09502255892141283,-0.5385810208390768,-0.3247186524778834,0.2555005666683622,-3.0785351706011364,0.6247640767731856,-0.00026126282043173514,-0.00023015834181517174,0.00038511680194584796,-0.04046096307581212,0.002176677872270131,-0.006467163691115623,-0.0006194425675761307,0.32705187797546387,-1.146849201326706,1.6678898970233362,-2.0900656185545863,-1.5713933149920862,2.302037239074707,-0.0007185323629528284,0.04969742149114609,0.04473702609539032,-0.08745893836021423,-8.863662515068427e-05,-9.252406016457826e-05,0.28730419278144836,-0.13407529890537262,-9.346963882446289,0.5695713758468628,47.72718811035156,-0.6328602433204651,-3.5065979957580566,-1.5153160095214844,-0.8603799343109131,-0.005410330835729837,-0.28573647141456604,25.5,26.3125,25.5,28.5,29.8125,30.375
1.0,-0.31431047505325893,-0.1306994620805887,-0.9380878063021674,-0.03986246534270899,0.023847334025784546,-0.08676860010487146,-0.5385819861622134,-0.3247032621414535,0.25533129167357116,-3.0784967784987423,0.624718691858169,-0.00038793884117465516,-0.0007948335663372471,0.0005917669793765311,-0.040922979266914995,0.0004020873443416094,-0.0012602224785943418,-0.0012387946505773904,0.32702770829200745,-1.1466568571380158,1.6680691877948206,-2.090344091454977,-1.5713933149920862,2.3019895553588867,-0.0013042378704994917,0.04908286780118942,0.045651085674762726,-0.0934111699461937,-9.799504914553836e-05,-9.118489106185734e-05,0.07661445438861847,-0.05746084079146385,-9.366117477416992,0.7060845494270325,47.72987747192383,-0.5759038329124451,-3.5474791526794434,-1.621638298034668,-0.8295454382896423,-0.0008640222949907184,-0.28967785835266113,25.5,26.3125,25.5,28.5,29.8125,30.375
1.0,-1.0182946151793257,-1.0744813651094192,-1.1603701992378026,-0.04232815789198788,0.02888287455916356,-0.07742975752105472,-0.5385841090845334,-0.3246780622435385,0.25523414044304105,-3.078444697440732,0.6247848864105042,-0.00041472578375918143,-0.0006860786438279263,0.0005911063541132719,-0.039214021417481065,-0.0013592907369536624,0.00391741513885165,-0.0011837438463377706,0.3269917368888855,-1.146561936741211,1.6682012716876429,-2.090537210504049,-1.5714176336871546,2.302001476287842,-0.0012461006408557296,0.04642248526215553,0.046262335032224655,-0.0968310758471489,-9.987814701162279e-05,-8.988386252894998e-05,0.05746084079146385,0.05746084079146385,-9.404424667358398,0.8291773796081543,47.702110290527344,-0.5989717245101929,-3.315845489501953,-1.6154439449310303,-0.8190232515335083,-0.005077056586742401,-0.2926768660545349,25.5,26.3125,25.5,28.5,29.8125,30.375
1.0,-0.6570259473541146,-0.5941515967906512,-1.189659830898456,-0.07430356870711602,0.05764891927437016,-0.09542186966698844,-0.5385889505082426,-0.3246925758591066,0.255168392100896,-3.0785089137912895,0.6247788527575848,-0.00039957969254784265,-0.0015302554027473501,0.00026562449520794854,-0.039128538024399924,-0.0037866555789452475,0.011004955745453553,-0.001131153292979026,0.3270037770271301,-1.146465615635254,1.66826039949526,-2.0907322369017542,-1.571369473134176,2.302001476287842,-0.0011887402506545186,0.04755595326423645,0.046493612229824066,-0.10568749904632568,-9.854023664956912e-05,-8.861952665029094e-05,0.09576806426048279,0.07661445438861847,-9.442731857299805,0.6725152134895325,47.687782287597656,-0.6043079495429993,-3.3097424507141113,-1.586061954498291,-0.7732367515563965,-0.0043837036937475204,-0.29422447085380554,25.5,26.3125,25.5,28.5,29.8125,30.375
1.0,-1.0045201826087524,-1.3665680457516352,-1.3001390765883498,-0.07255121323579697,0.06240435381318285,-0.08821947056532096,-0.5385791161837078,-0.3246867237613626,0.2550683819998319,-3.0784901188933005,0.624736052500721,-0.00039851479556022315,-0.0017962605649326278,0.0001131800250557534,-0.03898121415813782,-0.004796242428121276,0.013951783162591437,-0.0010391452636135674,0.3270038068294525,-1.1463695925525208,1.6684053579913538,-2.0909601650633753,-1.5713933149920862,2.3019771575927734,-0.0010940817883238196,0.04777659848332405,0.04664694145321846,-0.10917644947767258,-9.703711839392781e-05,-8.739026816328987e-05,-0.038307227194309235,0.1149216815829277,-9.481039047241211,0.6747510433197021,47.70121383666992,-0.6123034954071045,-3.317970037460327,-1.5677309036254883,-0.7268053293228149,-0.004576775711029768,-0.3020966649055481,25.5,26.3125,25.5,28.5,29.8125,30.375
1.0,-1.2520318339140544,-1.3039109838896792,-1.2997814492026298,-0.08875756477752711,0.062063112730927794,-0.08402454415661378,-0.5385829967862232,-0.32468397296412926,0.2550146638261014,-3.078535104194225,0.6248227663587521,-0.0003456473475139496,-0.0022111666522219887,-4.7299065726761574e-05,-0.039898874570995835,-0.005571174017810685,0.01620091277252894,-0.0010129437955860626,0.3269917666912079,-1.146309034233429,1.6684892813311976,-2.0911647282042445,-1.571357552205221,2.302013397216797,-0.001065004151314497,0.0495845265686512,0.04731092229485512,-0.1140272319316864,-9.556614531902596e-05,-8.61946537042968e-05,-0.038307227194309235,0.2106897532939911,-9.557653427124023,0.6702793836593628,47.712860107421875,-0.602601945400238,-3.3878333568573,-1.6024866104125977,-0.6613120436668396,0.004599343985319138,-0.30929699540138245,25.5,26.3125,25.5,28.5,29.8125,30.375
1.0,-1.1088554636396442,-1.3505780651213628,-1.322871213587785,-0.08916710432655549,0.05817687633519293,-0.08565789450951487,-0.5385768153876404,-0.3247040005985027,0.2549402468933308,-3.0785621968492456,0.6247323867668678,-0.0002863470930685152,-0.0024541067539052795,-0.00014840262829302436,-0.03909203972907225,-0.007131745609383244,0.020764997527219477,-0.0009885153220384267,0.3270277976989746,-1.1462133687785645,1.6685741583453577,-2.091382165948385,-1.571369473134176,2.3019895553588867,-0.0010375023121014237,0.04877881705760956,0.047576386481523514,-0.11831050366163254,-9.413812949787825e-05,-8.503127901349217e-05,-0.019153613597154617,0.24899697303771973,-9.53849983215332,0.7150384783744812,47.702110290527344,-0.6215457320213318,-3.3217458724975586,-1.573405146598816,-0.603415846824646,-0.0034659174270927906,-0.2905333340167999,25.5,26.3125,25.5,28.5,29.8125,30.375
1.0,-1.2506786134206656,-1.3052027704827451,-1.326401665603524,-0.08299998146279575,0.04395424962130712,-0.08748128901623832,-0.5385823094530907,-0.3246981168558315,0.2548147554899895,-3.0785353363685006,0.624746126324019,-0.00035084726627354894,-0.002211826179301944,-6.96406051125964e-05,-0.038947548428956695,-0.007401089037421989,0.021592674739543967,-0.0009822832688004069,0.32701587677001953,-1.1460577708533783,1.6686938444720667,-2.091610094110006,-1.571369473134176,2.3019895553588867,-0.001029669540002942,0.04803730174899101,0.04853592440485954,-0.1193988174200058,-0.0001051244034897536,-8.389884897042066e-05,0.038307227194309235,0.325611412525177,-9.634267807006836,0.7486078143119812,47.668975830078125,-0.6263006329536438,-3.1898903846740723,-1.548472285270691,-0.574062705039978,0.004548598080873489,-0.29488104581832886,25.5,26.3125,25.5,28.5,29.8125,30.375
1.0,-0.635231590485291,-1.3016617117159037,-1.26207876200947,-0.07402576418739058,0.04269082153861916,-0.0874495952563696,-0.5386045891623914,-0.3246772425721918,0.25476097055101665,-3.078546304458377,0.6247863183847967,-0.00015148558491075926,-0.002210707930787773,5.0614250252895494e-05,-0.04059676561578822,-0.006199475320605274,0.018061669369669082,-0.001166805329435738,0.3269798159599304,-1.14598502338443,1.668776814137594,-2.091884752313131,-1.5714176336871546,2.3019771575927734,-0.00121390912681818,0.05018685758113861,0.04904461279511452,-0.11832720041275024,-0.00010440721962368116,-8.279623580165207e-05,0.019153613597154617,0.26815059781074524,-9.59596061706543,0.6702793836593628,47.72270965576172,-0.5715782642364502,-3.3259217739105225,-1.5876737833023071,-0.5388956665992737,0.005869429558515549,-0.27763113379478455,25.5,26.3125,25.5,28.5,29.8125,30.375
1.0,-0.3093669964418173,-0.577589361051849,-1.1868145559328172,-0.07221275600398495,0.03012821873612154,-0.08854785285586823,-0.5386122335726659,-0.3246913430371951,0.25467076850473924,-3.0785879199365547,0.6247958234119197,-0.00015067157200701644,-0.0017695564436693686,0.00027255224437639376,-0.04155162341389857,-0.004618118764412059,0.013426443100413339,-0.0012761719111287328,0.3269916772842407,-1.1458530587008973,1.6688488165484827,-2.0921107731261195,-1.5713813940631312,2.3019895553588867,-0.001323911128565669,0.05072132125496864,0.049612876027822495,-0.11453237384557724,-0.00010296689288225025,-8.172228262992576e-05,0.0,0.28730422258377075,-9.53849983215332,0.7105615139007568,47.74688720703125,-0.5847206115722656,-3.323840618133545,-1.6841588020324707,-0.5924111008644104,-0.011881494894623756,-0.28040286898612976,25.5,26.3125,25.5,28.5,29.8125,30.375
1.0,-0.3816675926528047,-0.6536569543918216,-1.2303837194881377,-0.03643913320937866,0.0031111562430137345,-0.07598453387145104,-0.5385977127302657,-0.3247109299745424,0.25460000031166585,-3.0786480893768475,0.6247308298464572,-6.480452341885287e-05,-0.001835123148599169,0.0004891106477123962,-0.041782081277063135,-0.003923292410975577,0.011385699865764163,-0.0016445100912716975,0.3270275592803955,-1.145780937080719,1.6689685026751917,-2.092373033563131,-1.571369473134176,2.3019771575927734,-0.001692137448117137,0.05107957869768143,0.04912315681576729,-0.11224512755870819,-0.00010151853348361328,-8.067575981840491e-05,0.0,0.26815059781074524,-9.461885452270508,0.7306999564170837,47.69584274291992,-0.6116715669631958,-3.249520778656006,-1.5408086776733398,-0.5950548052787781,0.004822279792279005,-0.2604341506958008,25.5,26.3125,25.5,28.5,29.8125,30.375
1.0,0.07923642908817419,0.5674442153513405,-1.0258006431077316,-0.04303195379595553,-0.003949911582160225,-0.08975490403466767,-0.5386060256482385,-0.3246981963422295,0.25452924690235734,-3.0786309772754787,0.6248430319797919,-5.0589687659045266e-05,-0.0015211101937357453,0.0006444343846231698,-0.042079886846634995,-0.0031206674289837094,0.009146263139151331,-0.0017130656034092806,0.3270035982131958,-1.1456971329501648,1.6690529028521937,-2.0925518474974574,-1.571369473134176,2.302025318145752,-0.0017606208566576242,0.05092082545161247,0.04954737052321434,-0.1101318746805191,-0.0001359556190436706,-7.96557214925997e-05,0.2298433631658554,0.17238251864910126,-9.404424667358398,0.6658024191856384,47.69853210449219,-0.5621961355209351,-3.2723560333251953,-1.3621363639831543,-0.6476863622665405,0.0047893584705889225,-0.2685014307498932,25.5,26.3125,25.5,28.5,29.8125,30.375
