Tylouw/Master_Thesis_Code/test_recorded_data/trial4/insertion_9_2026-01-23_13-51-28.csv
num_insertion,tcp_force_x[N],tcp_force_y[N],tcp_force_z[N],tcp_force_rx[Nm?],tcp_force_ry[Nm?],tcp_force_rz[Nm?],tcp_pose_x[m],tcp_pose_y[m],tcp_pose_z[m],tcp_pose_rx[rot_vec_x],tcp_pose_ry[rot_vec_y],tcp_pose_rz[rot_vec_z],tcp_velo_x[m/s],tcp_velo_y[m/s],tcp_velo_z[m/s],tcp_velo_rx[rot_vec_x/s],tcp_velo_ry[rot_vec_y/s],tcp_velo_rz[rot_vec_z/s],q1[rad],q2[rad],q3[rad],q4[rad],q5[rad],q6[rad],qd1[rad/s],qd2[rad/s],qd3[rad/s],qd4[rad/s],qd5[rad/s],qd6[rad/s],tool_acc_x,tool_acc_y,tool_acc_z,current_of_whole_robot[A],voltage_of_whole_robot[V],current_J1[A],current_J2[A],current_J3[A],current_J4[A],current_J5[A],current_J6[A],temp_J1[C],temp_J2[C],temp_J3[C],temp_J4[C],temp_J5[C],temp_J6[C]
1.0,0.36111528899499046,0.2218233559944393,-1.171765787505725,-0.003644172898178819,-0.03288721924653763,-0.08414608876135243,-0.5384577367321678,-0.3245639484889629,0.2599719066624785,-3.078588730687807,0.6249212084850942,-6.653300962616103e-05,0.002115020361025321,-0.0012380382630284297,-0.00038291911490174915,-0.001153810088830941,0.0036641509801321973,0.0028738144471238004,0.3268735408782959,-1.1524659854224701,1.6633003393756312,-2.080008646050924,-1.571369473134176,2.301952838897705,0.003032877342775464,-0.0023709076922386885,0.005803973879665136,-0.007273323368281126,-8.821756637189537e-05,0.00015648797852918506,0.651222825050354,-0.3064578175544739,-9.21288776397705,0.8067978620529175,47.690467834472656,-0.128492072224617,-4.502019882202148,-2.804248332977295,-0.43130946159362793,0.01001632958650589,-0.2926856279373169,25.5625,26.4375,25.5625,28.625,29.9375,30.5625
1.0,1.493340186057936,0.9612922361929095,-1.0375831141656218,0.007393953215766325,-0.030037471279846694,-0.09643693892356753,-0.5384352415001097,-0.3245793384122824,0.25999064379051295,-3.078607648581333,0.6248879945137679,-3.415888668635505e-05,0.0010118088355149347,-0.0009864683388169939,0.0002948025255196369,-0.0015517596681618995,0.004820052286745145,0.0019358064678745282,0.32690906524658203,-1.152513639335968,1.6633241812335413,-2.080008646050924,-1.571369473134176,2.3019652366638184,0.0020653726533055305,-0.0015445705503225327,0.0029362484347075224,-0.006454418413341045,-8.714977593626827e-05,0.0001271611254196614,0.49799394607543945,-0.26815059781074524,-9.155426979064941,0.7978386282920837,47.72092056274414,-0.1672724485397339,-4.4486985206604,-2.615952491760254,-0.4094885587692261,0.023388219997286797,-0.30258047580718994,25.5625,26.4375,25.5625,28.625,29.9375,30.5625
1.0,0.8812408557373062,0.9991649199618053,-1.3108523758686577,0.010469723182910453,-0.051856248196084496,-0.08745318280128693,-0.5384381003679231,-0.32456995878514794,0.2599956148075309,-3.0786107899447925,0.6248307980699349,1.777815379433268e-05,0.00021943945565993162,-0.0008854648647922387,0.0013813014238217211,-0.0018918823624414292,0.005813808012805796,0.0014674461167965074,0.3268969655036926,-1.1525255602649231,1.6633346716510218,-2.080031534234518,-1.5713933149920862,2.30191707611084,0.0014929325552657247,-0.0015725125558674335,0.00010855650180019438,-0.004649152979254723,-8.610756049165502e-05,2.3515445718658157e-05,0.15322890877723694,-0.09576806426048279,-9.078812599182129,0.7687462568283081,47.7244987487793,-0.16351917386054993,-4.476842880249023,-2.3790392875671387,-0.42057764530181885,0.020933296531438828,-0.29846978187561035,25.5625,26.4375,25.5625,28.625,29.9375,30.5625
1.0,-0.02917904812125971,-0.35109721266978094,-1.412261348892101,-0.012046218199189631,-0.013683826214635868,-0.08034397543871787,-0.5384229442041817,-0.3245864747933234,0.2599690682493695,-3.078631323598557,0.6248351820100402,-0.00011139064591348795,0.00033140439499580997,-0.0007610629803624614,0.001079858681499689,-0.0011556847677149087,0.0036546219047764268,0.0013574486831562558,0.326920747756958,-1.1525015097907563,1.663358513508932,-2.0800191364684046,-1.5713337103473108,2.30194091796875,0.0013600555248558521,-0.0013573979958891869,1.4564237744707498e-06,-0.0024759273510426283,-8.508993778377771e-05,1.5353904245785088e-06,0.0,0.13407528400421143,-9.251194953918457,0.6881819367408752,47.6627082824707,-0.17097032070159912,-4.037258625030518,-2.115609645843506,-0.4821847081184387,0.013502264395356178,-0.3154327869415283,25.5625,26.4375,25.5625,28.625,29.9375,30.5625
1.0,-1.10329608263117,-1.4208120314329729,-1.1259669881722583,-0.08694974861552751,0.06673147244092666,-0.09794897618214583,-0.5384295310781937,-0.3245784525707367,0.26002752065595885,-3.0786578862773677,0.6248406371860823,3.605503531129923e-05,0.000575428140971132,-0.0005890247154058272,0.00037696600174934097,-0.0005312896703150746,0.0018216833075330764,0.0012225122455876685,0.32690876722335815,-1.1525733035853882,1.663323227559225,-2.0800067387022914,-1.571357552205221,2.301928997039795,0.0012232896406203508,-0.0009997895685955882,0.0009540233877487481,-0.001849733991548419,-8.41305882204324e-05,1.0025001984104165e-07,-0.17238251864910126,0.2106897532939911,-9.327810287475586,0.7844129800796509,47.681514739990234,-0.18756553530693054,-4.028635025024414,-2.022402048110962,-0.5147984623908997,0.014589612372219563,-0.31384342908859253,25.5625,26.4375,25.5625,28.625,29.9375,30.5625
1.0,-3.027401126920036,-3.0844595244298065,-0.9562471015002252,-0.13225088232404916,0.11802045218898256,-0.08067027171085338,-0.5384055555266791,-0.32458576276150347,0.2599855631333863,-3.07860086824324,0.6248098508705977,-0.00013051411268132245,0.0025414179926275594,0.0002758337101487102,-0.003268531892891471,0.0021826029170844176,-0.006146127883512039,0.0009245039734958743,0.326908677816391,-1.1525488060763855,1.663360897694723,-2.079970499078268,-1.571345631276266,2.30191707611084,0.000932557915803045,0.0004090496222488582,0.007300223223865032,-0.0013958190102130175,-7.594295311719179e-05,4.273815745747811e-10,-0.24899697303771973,0.19153612852096558,-9.289502143859863,0.7105615139007568,47.660911560058594,-0.21330149471759796,-4.001163005828857,-2.48504376411438,-0.6067540645599365,0.00960793998092413,-0.3068121373653412,25.5625,26.4375,25.5625,28.625,29.9375,30.5625
1.0,-2.090076197218976,-1.654926574064394,-0.8895453034961783,-0.0776710526800907,0.0977914521260753,-0.08294985955207305,-0.5384173369800657,-0.32459628935682727,0.2599799003282265,-3.0786218916046755,0.624756755168913,-6.676647610882168e-05,0.0008995358126671199,-0.00030805283633458417,-0.001542198209680393,-0.00024198740511551683,0.0009336012787122237,0.0012357150702671977,0.32694458961486816,-1.1525129538825531,1.6633475462542933,-2.080008646050924,-1.571369473134176,2.30191707611084,0.0009597766329534352,0.00040893646655604243,0.004172892775386572,-0.005543462932109833,-7.466126407962292e-05,-0.000277561426628381,-0.2298433631658554,0.17238251864910126,-9.251194953918457,0.7821771502494812,47.703006744384766,-0.1868041753768921,-3.8540971279144287,-2.1648175716400146,-0.6129769086837769,0.019134288653731346,-0.32557082176208496,25.5625,26.4375,25.5625,28.625,29.9375,30.5625
1.0,-0.1194885495549246,0.24362767780278785,-1.0308798012528368,-0.01776340819899388,0.05685370261984643,-0.09225067305706708,-0.5383988644495257,-0.32459014013745224,0.2599751855900341,-3.0786104309001847,0.6248496081451773,-4.710402565859324e-05,9.631963284763027e-05,-0.001018256463596608,-0.0002935522294581218,-0.003329999040463975,0.009964937303762321,0.002647052804155643,0.32694482803344727,-1.1525488656810303,1.663419548665182,-2.0800591907896937,-1.571369473134176,2.3019766807556152,0.0016311974031850696,0.00033414558856748044,0.003416381310671568,-0.01425696350634098,-7.34412606107071e-05,-0.0010210673790425062,-0.3447650372982025,0.19153612852096558,-9.097966194152832,0.7127973437309265,47.70121383666992,-0.1848234236240387,-3.807161331176758,-2.0421671867370605,-0.5444375872612,0.019667023792862892,-0.3030422031879425,25.5625,26.4375,25.5625,28.625,29.9375,30.5625
1.0,-0.10161824472896741,0.5327167947284228,-0.8424278103939683,0.0043138020682567035,0.006488168150978016,-0.09205346502902378,-0.5384027050700373,-0.3245992667822728,0.25997664495555,-3.078647448239824,0.6247606638006705,2.679638165952836e-06,-0.0003325914186699834,-0.0012052107649924437,0.00026178431743883454,-0.004733979251058775,0.014068923393575374,0.0028009202123677273,0.3269568681716919,-1.1525369745543976,1.663408104573385,-2.0800963840880335,-1.571369473134176,2.3019285202026367,0.0016934021841734648,0.0002817693748511374,0.0031357058323919773,-0.018261423334479332,-7.226185698527843e-05,-0.0011143791489303112,-0.17238251864910126,0.09576806426048279,-9.002198219299316,0.7687462568283081,47.69673538208008,-0.2632918953895569,-3.753032684326172,-1.9749977588653564,-0.49335700273513794,0.013351600617170334,-0.3258679509162903,25.5625,26.4375,25.5625,28.625,29.9375,30.5625
1.0,-0.041801424840796915,-0.031222883873204463,-0.8192838058711867,-0.010478108333109484,0.007787867582826133,-0.09041878464490986,-0.5384018653709907,-0.32459239282684,0.259959801637901,-3.0786379823370877,0.6247968376810814,-4.007489890129332e-05,0.0003049553151682778,-0.0008910297294634216,-0.0009609208198143274,-0.0037640168670515887,0.011225202655102046,0.003445575793163861,0.3269447982311249,-1.1525248450091858,1.6634319464312952,-2.0801078281798304,-1.571357552205221,2.3019402027130127,0.0015446561155840755,0.00047015753807500005,0.005551051814109087,-0.01786067709326744,-7.111990271368995e-05,-0.0019073489820584655,-0.09576806426048279,0.019153613597154617,-8.96389102935791,0.7956027388572693,47.70658874511719,-0.28268349170684814,-3.6948366165161133,-2.0294108390808105,-0.4885636568069458,0.016978610306978226,-0.3122404217720032,25.5625,26.4375,25.5625,28.625,29.9375,30.5625
1.0,-0.5501108728580087,-0.761567060231809,-0.710526755744066,-0.03871273259815839,0.025197074257549936,-0.08030639999533408,-0.5384257006832885,-0.3245823754176188,0.2599744338071398,-3.0786373481772253,0.6248162051894985,4.265263335908426e-05,0.0005338148572603235,-0.0005714434379368038,-0.001785624940184843,-0.0028397027998535614,0.00851474723972509,0.002949358986917457,0.32692068815231323,-1.1525127750686188,1.663384739552633,-2.0801197491087855,-1.5713813940631312,2.3019282817840576,0.0011726052034646273,0.0009182645590044558,0.006453419104218483,-0.016347451135516167,-7.001334597589448e-05,-0.0017824191600084305,-0.1149216815829277,0.0,-8.96389102935791,0.6725152134895325,47.70927429199219,-0.1943468153476715,-3.653458595275879,-2.030123233795166,-0.5313016176223755,0.011305151507258415,-0.3210911452770233,25.5625,26.4375,25.5625,28.625,29.9375,30.5625
1.0,-0.7151489224415591,-0.6528114804634073,-0.49724741275085427,-0.0519822119220074,0.047747227479775584,-0.09021485220941293,-0.5384273553242126,-0.3245853440282859,0.25997475837908834,-3.078684483257939,0.624807003724029,8.755994435865954e-05,-1.1649645096260262e-05,-0.00048128929045954474,-0.0027167206867217105,-0.002369276851047349,0.007120079941883133,0.0026833612067997097,0.3269205391407013,-1.1525122088244935,1.6633966604815882,-2.080179353753561,-1.571357552205221,2.3019163608551025,0.0007470785640180111,0.0030130427330732346,0.005595800932496786,-0.016112731769680977,-6.89406952005811e-05,-0.0019416112918406725,-0.019153613597154617,-0.19153612852096558,-8.96389102935791,0.7866488099098206,47.71375274658203,-0.22893434762954712,-3.6333565711975098,-1.9707062244415283,-0.5600488781929016,0.009335823357105255,-0.32201406359672546,25.5625,26.4375,25.5625,28.625,29.9375,30.5625
1.0,-0.30685701657763526,0.09047118894175296,-0.662505657991843,-0.038523302588407395,0.049095629007302403,-0.09024689186548467,-0.5384187236407274,-0.3245914245430341,0.259959334691393,-3.0786743537500163,0.6247857486582241,1.2406258865072068e-05,-0.00047489624625393254,-0.0005545503294043615,-0.0030146992245519157,-0.0024479172263440073,0.0073376113617328875,0.0024858530900181515,0.32693251967430115,-1.1524995428374787,1.6634085814105433,-2.0801555118956507,-1.571345631276266,2.3019163608551025,0.0006163522484712303,0.004253001417964697,0.004669222515076399,-0.016657350584864616,-6.790056067984551e-05,-0.0018749423325061798,0.1149216815829277,-0.2298433631658554,-8.983044624328613,0.7486078143119812,47.70838165283203,-0.23178598284721375,-3.7685766220092773,-1.8943352699279785,-0.562849760055542,0.03150828182697296,-0.3358451724052429,25.5625,26.4375,25.5625,28.625,29.9375,30.5625
1.0,-0.15009325204836116,0.7008374781825002,-0.5445192557333426,-0.012973099152675773,0.018861511968992037,-0.09259865612888477,-0.5384205459823856,-0.324594509820172,0.25996912701690333,-3.0787198263169047,0.6248525046217211,9.35815311040816e-05,-0.0005775117524901003,-0.0004471153057157252,-0.0025112261166813357,-0.0031579658255978965,0.009417539357508399,0.002474689821180422,0.32693246006965637,-1.1525118809989472,1.6634200255023401,-2.080228467980856,-1.5713217894183558,2.3019521236419678,0.00039664804353378713,0.003542765276506543,0.004906336776912212,-0.01838199980556965,-6.68911961838603e-05,-0.0020842712838202715,0.1149216815829277,-0.24899697303771973,-8.983044624328613,0.7597975730895996,47.72270965576172,-0.17214804887771606,-3.6070172786712646,-1.7630102634429932,-0.5270254015922546,-0.00624412065371871,-0.3351714015007019,25.5625,26.4375,25.5625,28.625,29.9375,30.5625
1.0,-0.016425137748481144,0.5803661062387052,-0.779423900102922,0.011871549667475813,-0.00917779307342943,-0.09087922374677512,-0.5384216321173325,-0.32459110814839354,0.25995872607703746,-3.0786894115431327,0.6248463054095237,0.00012139244561148928,-0.00019479770081371137,-0.00028255829276664456,-0.002908035203709741,-0.0029627935059891833,0.008845396845685648,0.002655004423032665,0.326932430267334,-1.1524999898723145,1.6634324232684534,-2.080252309838766,-1.571357552205221,2.3019521236419678,0.00034424979821778834,0.0031851206440478563,0.006428118329495192,-0.018941733986139297,-6.59113866277039e-05,-0.002317115431651473,0.17238251864910126,-0.2106897532939911,-9.02135181427002,0.7687462568283081,47.72270965576172,-0.14791923761367798,-3.567626714706421,-1.8334977626800537,-0.5240025520324707,0.002438101451843977,-0.33200663328170776,25.5625,26.4375,25.5625,28.625,29.9375,30.5625
1.0,0.9241679114359691,0.9707358883037436,-0.9381182405851316,-0.01256884074259613,-0.006504365432838673,-0.09164508466253982,-0.5384329905100907,-0.3245716866960201,0.2599373849827542,-3.0786920829469464,0.6248275701003656,0.00011822337203093564,0.000517005544115489,-1.4238588604598802e-05,-0.004701699149687717,-0.0015725302008128663,0.004767525685801211,0.0026874431813925298,0.3268965482711792,-1.1524757605842133,1.6634576956378382,-2.080299516717428,-1.571357552205221,2.3019042015075684,0.00030527316266670823,0.004066393710672855,0.009090619161725044,-0.018177172169089317,-6.495995330624282e-05,-0.0023878191132098436,0.2298433631658554,-0.15322890877723694,-9.097966194152832,0.5941867828369141,47.6949462890625,-0.233342707157135,-3.4718315601348877,-1.8884718418121338,-0.5263417959213257,0.01121428795158863,-0.31714802980422974,25.5625,26.4375,25.5625,28.625,29.9375,30.5625
1.0,0.7602254255800954,-0.23615644665247898,-1.148988642738295,-0.030135733505410583,-0.004837663475126561,-0.08377414976127688,-0.5384329605618184,-0.3245679056105075,0.25993558677914386,-3.0786442349704606,0.624875130871144,0.00012897016186753265,0.0004027031805156978,-3.178593530218705e-05,-0.00572199208314287,-0.0007907687802897346,0.002502005577832046,0.0031298539800869154,0.3268965184688568,-1.1524751049331208,1.6634581724749964,-2.080287595788473,-1.5713933149920862,2.3019399642944336,0.00027424583095125854,0.005686095915734768,0.008938683196902275,-0.017248496413230896,-7.599443779326975e-05,-0.0028606245759874582,0.2298433631658554,-0.15322890877723694,-9.136273384094238,0.7732232213020325,47.734352111816406,-0.19871211051940918,-3.5469751358032227,-1.9023702144622803,-0.5369008779525757,0.014301163144409657,-0.32154911756515503,25.5625,26.4375,25.5625,28.625,29.9375,30.5625
1.0,0.3423157883417136,-0.7676461588545875,-1.1837382792764297,-0.05457908927906532,0.00035490399863127853,-0.08420714023608797,-0.5384161054468877,-0.32457364043200637,0.2599053836206901,-3.078675171553157,0.6247859694455232,5.1409278136893124e-05,0.0005869473152133584,4.87917817861407e-05,-0.006858785253832498,0.00015359087011031276,-0.0002374934777341428,0.0029970125236150587,0.3269084393978119,-1.1524627369693299,1.6635173002826136,-2.08032288173818,-1.571357552205221,2.3018922805786133,0.0002489487815182656,0.006840416695922613,0.009681754745543003,-0.016248060390353203,-8.668818918522447e-05,-0.0027524016331881285,0.19153612852096558,-0.05746084079146385,-9.174580574035645,0.7418897151947021,47.71375274658203,-0.2288692146539688,-3.5679080486297607,-1.8638770580291748,-0.5516626238822937,0.007265535183250904,-0.31710100173950195,25.5625,26.4375,25.5625,28.625,29.9375,30.5625
1.0,-0.16696665368660807,-1.0966237752786487,-1.2956281205508917,-0.06930732109098742,0.014144008705412651,-0.0874635767338549,-0.5384228650546947,-0.3245720956701994,0.2598856697889634,-3.0786389849606732,0.6247787830915744,6.33369830230814e-05,0.000588872584637522,0.000303469103056209,-0.0072446162333597314,0.00041002245018697777,-0.0009601873104046405,0.0025651592268069678,0.32690829038619995,-1.152426765566208,1.6635173002826136,-2.08034672359609,-1.5713933149920862,2.3018922805786133,-0.00014071869372855872,0.007075218949466944,0.01023314893245697,-0.016267545521259308,-9.630614658817649e-05,-0.0027101158630102873,0.15322890877723694,0.019153613597154617,-9.251194953918457,0.7060845494270325,47.70658874511719,-0.16908347606658936,-3.541307210922241,-1.8336906433105469,-0.552382230758667,0.015392202883958817,-0.3042445182800293,25.5625,26.4375,25.5625,28.625,29.9375,30.5625
1.0,3.6012818405595226e-05,-0.9072971663599589,-1.1207176199779718,-0.07520464254305105,0.041593394760318564,-0.09159616399196129,-0.5384171706019621,-0.3245738830705453,0.259874913946571,-3.078676538338255,0.6248056795677687,6.523407555615841e-05,0.0009439627222653052,0.0004825499845814488,-0.00869190665936195,0.0014143018400105672,-0.003902270257968524,0.0024831543064918332,0.32690826058387756,-1.1524262589267273,1.6635544935809534,-2.080406805078024,-1.571357552205221,2.3019042015075684,-0.00022935177548788488,0.008190876804292202,0.011880491860210896,-0.01592167839407921,-9.804566070670262e-05,-0.002716262126341462,0.2298433631658554,0.019153613597154617,-9.423578262329102,0.7665104269981384,47.699424743652344,-0.19709092378616333,-3.5113565921783447,-1.8754836320877075,-0.5654115676879883,0.023071199655532837,-0.3222937285900116,25.5625,26.4375,25.5625,28.625,29.9375,30.5625
1.0,-0.41384124179357573,-1.2363574220834717,-1.235669827080475,-0.06711808911961847,0.0373253514252029,-0.08835994528550623,-0.5384147914825623,-0.32457955712278447,0.2598588818116666,-3.07865238017734,0.6247816236335214,2.5745458416269173e-05,0.0007827695943687759,0.0004411548074542707,-0.009197661796462229,0.0015767470158007735,-0.004132602249763878,0.002222303773034927,0.32692018151283264,-1.152402089243271,1.6635544935809534,-2.0803948841490687,-1.571369473134176,2.3019042015075684,-0.00023699378652963787,0.009139874018728733,0.01185282226651907,-0.016572393476963043,-0.0001795802963897586,-0.0024630373809486628,0.13407528400421143,0.19153612852096558,-9.289502143859863,0.6814691424369812,47.68240737915039,-0.19898144900798798,-3.535613536834717,-1.841675043106079,-0.5861924886703491,0.010985774919390678,-0.3152870535850525,25.5625,26.4375,25.5625,28.625,29.9375,30.5625
1.0,-0.4038629739428275,-1.4230799088710582,-1.347035036289655,-0.06757008715664739,0.032752626682808435,-0.08683410281862802,-0.5384146556573393,-0.3245550404210843,0.2598283974819833,-3.0786170567506947,0.624813025624955,-1.3453454001931213e-05,0.0008169185489509923,0.0004364290178212694,-0.010632709908016505,0.0016589770896067006,-0.004203808793691797,0.0023659172741722196,0.3268963694572449,-1.1523654025844117,1.663663689290182,-2.0804559193053187,-1.5713933149920862,2.3018798828125,-0.00020189282076898962,0.010756222531199455,0.013591107912361622,-0.019833054393529892,-0.00023886484268587083,-0.0025723178405314684,0.1149216815829277,0.325611412525177,-9.289502143859863,0.7127973437309265,47.70658874511719,-0.20794588327407837,-3.5076143741607666,-1.8621960878372192,-0.576927661895752,0.010352827608585358,-0.315879762172699,25.5625,26.4375,25.5625,28.625,29.9375,30.5625
1.0,-0.20625327560615653,-1.465785510146563,-1.3649709433432085,-0.0706053354701212,0.02622533516989941,-0.0895904259360208,-0.5384023123919268,-0.3245573314960536,0.2597942014980955,-3.0785904862037996,0.624768192655459,-7.040253939054233e-05,0.0009549436582992313,0.0004733110083882498,-0.011581566626352246,0.001819027317175816,-0.004715342220256033,0.0024039058056937027,0.3268963694572449,-1.1523651045611878,1.6636870543109339,-2.0804926357665003,-1.571357552205221,2.3018798828125,-0.0001878430921351537,0.01161177083849907,0.01492246799170971,-0.02148408256471157,-0.00022713400539942086,-0.0025966728571802378,0.2106897532939911,0.3447650372982025,-9.346963882446289,0.7239871025085449,47.6976318359375,-0.15709342062473297,-3.5337085723876953,-1.9279985427856445,-0.5564419031143188,0.010648583993315697,-0.308388352394104,25.5625,26.4375,25.5625,28.625,29.9375,30.5625
1.0,-0.20636466481743432,-1.9122216472074436,-1.3858053935313448,-0.080044233826989,0.02345446115878074,-0.08591179362458605,-0.5384006386107028,-0.32455673986570366,0.25978703134000236,-3.0786151831046755,0.6247733092876036,-2.7390368624428746e-06,0.00056407516992932,0.00036940223508325496,-0.010719506117524718,0.0007989251465054688,-0.0016945777435853587,0.0023035032047775137,0.3268963396549225,-1.1523652535727997,1.663698975239889,-2.080541273156637,-1.5713933149920862,2.3018798828125,-0.0002317367761861533,0.011149099096655846,0.014027269557118416,-0.023314619436860085,-0.000237358792219311,-0.0025410554371774197,0.07661445438861847,0.325611412525177,-9.27034854888916,0.7620334029197693,47.70121383666992,-0.22526542842388153,-3.4239025115966797,-1.8777462244033813,-0.5544507503509521,0.012856598012149334,-0.31743934750556946,25.5625,26.4375,25.5625,28.625,29.9375,30.5625
1.0,-0.3055157346994507,-1.4180933287855586,-1.2072290640849748,-0.08350384741597727,0.02922841991849102,-0.09209907614031036,-0.5383987890549242,-0.3245561038644546,0.25975391536621734,-3.0786036338604728,0.6247709779852588,-3.464732007918184e-05,0.00045213913815622474,0.0003245435887679529,-0.0116529949896302,0.000962713420829733,-0.0021574067107579175,0.0024060512688823367,0.3268963396549225,-1.1523288947394867,1.663734261189596,-2.0805894337096156,-1.5713933149920862,2.3018798828125,-0.00021982716862112284,0.012525387108325958,0.014543750323355198,-0.024716462939977646,-0.00024614285212010145,-0.002631968120113015,0.17238251864910126,0.28730422258377075,-9.308655738830566,0.7239871025085449,47.692256927490234,-0.21543926000595093,-3.5313100814819336,-1.8727867603302002,-0.5591127872467041,0.023733068257570267,-0.3096814751625061,25.5625,26.4375,25.5625,28.625,29.9375,30.5625
1.0,-0.1299045327194982,-0.9419824529855375,-1.0775703894772326,-0.07652202640290298,0.04347272942798447,-0.09109538808376604,-0.5383937368442282,-0.3245841272845984,0.2597390732931807,-3.0786297874229582,0.6246805308706459,2.4153543719785152e-05,0.00024040130631256242,0.00024305005016634991,-0.011083417983523887,0.00027958364843863874,-0.00018447617250821094,0.0022854360515366374,0.32694417238235474,-1.1522930425456543,1.663734261189596,-2.0806614361205042,-1.5714057127581995,2.301867961883545,-0.0002072031784337014,0.012151232920587063,0.014049696736037731,-0.025936098769307137,-0.00023663618776481599,-0.0024993533734232187,0.19153612852096558,0.28730419278144836,-9.327810287475586,0.7777001857757568,47.72092056274414,-0.20752064883708954,-3.418524980545044,-1.8433420658111572,-0.5557440519332886,0.022364724427461624,-0.3108678460121155,25.5625,26.4375,25.5625,28.625,29.9375,30.5625
1.0,-0.2160436753436642,-0.997069964339787,-1.182378915045175,-0.0697627884113094,0.038181048866753844,-0.09348720390613352,-0.538393553834795,-0.3245723060230297,0.25969869534607243,-3.0786285758642764,0.6247191574019981,-7.140278729922628e-05,0.0001547696385292252,0.00020558423477403664,-0.011847523441041884,0.0003292096791942864,-0.0003689120940695186,0.0021358778137281795,0.32692021131515503,-1.1522567433169861,1.663783375416891,-2.0806976757445277,-1.571369473134176,2.301868200302124,-0.00019592582248151302,0.013248976320028305,0.014577657915651798,-0.027371127158403397,-0.00022677978267893195,-0.00233887298963964,0.13407529890537262,0.17238251864910126,-9.289502143859863,0.7329410910606384,47.7244987487793,-0.2658059000968933,-3.5336153507232666,-1.8308022022247314,-0.5460084676742554,0.013298029080033302,-0.32488691806793213,25.5625,26.4375,25.5625,28.625,29.9375,30.5625
1.0,-0.3773316135106854,-1.3944083939837904,-1.1184167171368038,-0.05431931222898903,0.0338610734972032,-0.08650382461772245,-0.5383999989150065,-0.3245785170315707,0.25968288133510875,-3.078610699211932,0.6247152834044637,-8.0670494466604e-06,-0.00011594422225461279,0.0001254067152041485,-0.011519846707949795,-0.000326229190468119,0.0015207627474481378,0.0021442210957292184,0.32693225145339966,-1.1522207421115418,1.6637828985797327,-2.0807587109007777,-1.5714057127581995,2.301880121231079,-0.00021624556393362582,0.013267436996102333,0.014174669049680233,-0.028986796736717224,-0.00021764400298707187,-0.0023682452738285065,0.19153612852096558,0.09576806426048279,-9.308655738830566,0.7217512726783752,47.72270965576172,-0.22932405769824982,-3.457953453063965,-1.7600529193878174,-0.5258117318153381,0.014429743401706219,-0.3123786151409149,25.5625,26.4375,25.5625,28.625,29.9375,30.5625
1.0,0.4866403252314443,-0.6989339873287953,-1.214573083658388,-0.0618722630916851,0.037895202766711905,-0.0936484667781369,-0.538411290860464,-0.32457583482854924,0.2596822864255788,-3.0786505284098182,0.6247233049811558,6.231959458507006e-05,-0.0001220496890656097,0.00012541377725202546,-0.012264789087256653,-0.00031306838880098897,0.0014496982744820553,0.002223510411467637,0.32692018151283264,-1.1522084337523957,1.663783375416891,-2.0808307133116664,-1.5713933149920862,2.301867961883545,-0.00022064908989705145,0.014146408066153526,0.015009742230176926,-0.030629336833953857,-0.00020921057148370892,-0.0024524014443159103,0.15322890877723694,0.17238251864910126,-9.27034854888916,0.6814691424369812,47.7164421081543,-0.200437992811203,-3.4518332481384277,-1.7806596755981445,-0.515437126159668,0.010487791150808334,-0.31296783685684204,25.5625,26.4375,25.5625,28.625,29.9375,30.5625
1.0,-0.11947170197145662,-0.9154465338949066,-1.1541197563517973,-0.05754814274698034,0.018689610347803594,-0.08798373304014816,-0.5384114475751655,-0.324551384707517,0.25963345357165435,-3.078603489329864,0.624752276438335,-7.696734855874338e-06,-0.00024375545642519,7.65123894251233e-05,-0.012302666762105098,-0.000767846147026401,0.0027545491589139985,0.00212315429345844,0.3268844485282898,-1.1521724623492737,1.6638549009906214,-2.080879350701803,-1.5714057127581995,2.301856279373169,-0.00021052682131994516,0.01434201281517744,0.015230109915137291,-0.032427139580249786,-0.00020140601554885507,-0.0023425952531397343,0.19153612852096558,0.17238251864910126,-9.289502143859863,0.7620334029197693,47.71464920043945,-0.23213467001914978,-3.454589366912842,-1.804288387298584,-0.49837225675582886,0.01797730103135109,-0.3040821850299835,25.5625,26.4375,25.5625,28.625,29.9375,30.5625
1.0,0.016234753994183948,-0.7645761871639658,-1.2185220906585723,-0.04944923515430908,0.01843649834421137,-0.08637321448670747,-0.5384006326244665,-0.3245774726287496,0.259617031312525,-3.0786278611344287,0.6246997448475208,6.525193029758592e-05,-0.0002673831122727014,6.166177478822806e-05,-0.012872056146454551,-0.0008324184318336831,0.002915472693438745,0.00199059194430369,0.32693225145339966,-1.152148262863495,1.6638801733600062,-2.08097567180776,-1.5714176336871546,2.301868200302124,-0.00020111992489546537,0.015045102685689926,0.015888269990682602,-0.033961545675992966,-0.00019416290160734206,-0.0022010873071849346,0.15322890877723694,0.1149216815829277,-9.346963882446289,0.7038487195968628,47.730770111083984,-0.22834976017475128,-3.4865520000457764,-1.8485726118087769,-0.4709963798522949,0.020751027390360832,-0.2957109808921814,25.5625,26.4375,25.5625,28.625,29.9375,30.5625
1.0,-0.16071628909315447,-0.5368963688092134,-1.0840720289244805,-0.04576640525782219,0.019080450512387,-0.0913929709238326,-0.5384059649423024,-0.32458183695730713,0.25957738856122475,-3.0786433153902495,0.6247029654760763,3.153511202941293e-05,-0.000492133537277312,-2.1362453225415016e-05,-0.012561920290295243,-0.0011576694081680296,0.003846167320892428,0.0018957615760545022,0.32693225145339966,-1.152088151579239,1.6639025847064417,-2.081047674218649,-1.5713933149920862,2.301868200302124,-0.00019251456251367927,0.015096147544682026,0.015192204155027866,-0.034302327781915665,-0.00018742369138635695,-0.002097862306982279,0.15322890877723694,0.019153613597154617,-9.251194953918457,0.7127973437309265,47.725399017333984,-0.2378462702035904,-3.4731180667877197,-1.74009370803833,-0.43463051319122314,0.02193550020456314,-0.2942946255207062,25.5625,26.4375,25.5625,28.625,29.9375,30.5625
1.0,0.10392395911794486,0.16261508467056135,-0.9335110196925323,-0.051269076454938695,0.033091131649415545,-0.09613587745926942,-0.5384194883136704,-0.3245579211583328,0.25958254315935436,-3.0786658865907603,0.624784247156995,6.02213622308883e-05,-0.00037795839705703755,1.1944688115612679e-05,-0.013360505120529465,-0.0007675019225215293,0.0026795638489552835,0.0017582412847178175,0.3268844485282898,-1.152099923496582,1.6639154593097132,-2.081083913842672,-1.571369473134176,2.301868200302124,-0.00018461694708094,0.015887657180428505,0.015978354960680008,-0.03464983403682709,-0.00018113586702384055,-0.0019523947266861796,0.09576806426048279,0.038307227194309235,-9.27034854888916,0.7441308498382568,47.70658874511719,-0.2687247395515442,-3.4140639305114746,-1.7866127490997314,-0.4364667534828186,0.011095063760876656,-0.2949373722076416,25.5625,26.4375,25.5625,28.625,29.9375,30.5625
1.0,-0.28521346502549483,-0.05166802901477896,-1.0859159111456167,-0.03772639491329956,0.025780732181112813,-0.08945532671520466,-0.5383991019006666,-0.3245754206172474,0.2595101549928069,-3.078659647133888,0.6246874938413348,-4.5475093620242676e-05,-0.0003071982713213036,3.069964722731851e-05,-0.013145507344659567,-0.0010265174258203634,0.0034218718558034636,0.001604068003672673,0.32692021131515503,-1.1520280998996277,1.6639984289752405,-2.081167837182516,-1.571357552205221,2.301844358444214,-0.00017734030552674085,0.015424513258039951,0.01627708040177822,-0.03527155518531799,-0.00017525642761029303,-0.0017912391340360045,0.13407529890537262,0.09576806426048279,-9.27034854888916,0.7306999564170837,47.687782287597656,-0.26166635751724243,-3.423229694366455,-1.7395398616790771,-0.4415009021759033,0.01947745680809021,-0.2781822979450226,25.5625,26.4375,25.5625,28.625,29.9375,30.5625
1.0,-0.21163856420988914,-0.21732595336363242,-1.025345347261011,-0.03952380506502284,0.024654012408596257,-0.08784915837034141,-0.5384032630307006,-0.32456784955154605,0.25949751515876057,-3.078664328691782,0.6246697251097446,-5.687562478169735e-06,-0.0004863363448431656,-3.525007340831263e-05,-0.013873514885715607,-0.0008012594460727615,0.002736322233934948,0.0015308535724463668,0.32690829038619995,-1.152015672331192,1.664023224507467,-2.0812274418272914,-1.571369473134176,2.301820755004883,-0.00017061620019376278,0.016727669164538383,0.01623542420566082,-0.03581150993704796,-0.0001697466941550374,-0.0017113283975049853,0.038307227194309235,0.05746084079146385,-9.27034854888916,0.6948947906494141,47.71733474731445,-0.3220689594745636,-3.4620859622955322,-1.775130271911621,-0.440434992313385,0.010754818096756935,-0.3019419312477112,25.5625,26.4375,25.5625,28.625,29.9375,30.5625
1.0,0.13940029965598016,-0.3092733899998316,-1.0117235194364986,-0.04421178475068588,0.03197276187844984,-0.09356988568467244,-0.5384071840069895,-0.3245769243366503,0.25948884932500116,-3.0786858257887655,0.6246550182529063,4.2829998408411284e-05,-0.0002528988349654958,3.981500848527631e-05,-0.01395658157087177,-0.0005885421387810524,0.0021003243978011754,0.0015320465554159862,0.32692021131515503,-1.1519918900779267,1.664023224507467,-2.0812870464720667,-1.571369473134176,2.301820755004883,-0.0001643836876610294,0.016381176188588142,0.016804339364171028,-0.035363323986530304,-0.00016457274614367634,-0.0017061210237443447,0.038307227194309235,-0.019153613597154617,-9.232041358947754,0.7284641265869141,47.685096740722656,-0.31345999240875244,-3.431915283203125,-1.7377676963806152,-0.4445117712020874,0.013662191107869148,-0.28306686878204346,25.5625,26.4375,25.5625,28.625,29.9375,30.5625
1.0,0.2218035405346413,0.23058311374738177,-0.9660987090940336,-0.0639406064878907,0.041228960530569986,-0.10738732444229188,-0.5384133304794555,-0.32457127484149334,0.25943450275464885,-3.078654675190633,0.6246865352604276,-2.2841338835999274e-05,-0.00019568844674295503,5.51575269977318e-05,-0.014602814554812637,-0.00012194153113622462,0.0007139645182633996,0.0016143272959954563,0.32690829038619995,-1.1519197088531037,1.6640594641314905,-2.0813471279540003,-1.571369473134176,2.301832437515259,-0.00015859001723583788,0.017143072560429573,0.017122142016887665,-0.03498028218746185,-0.00015970497042872012,-0.0017823036760091782,0.038307227194309235,0.0,-9.289502143859863,0.6948947906494141,47.712860107421875,-0.26377636194229126,-3.4576919078826904,-1.7527544498443604,-0.4496828317642212,0.02116105705499649,-0.29409462213516235,25.5625,26.4375,25.5625,28.625,29.9375,30.5625
1.0,-0.23870749765033714,-0.4760789521120411,-1.1054225896475722,-0.049506785045055256,0.03591935330269049,-0.09839829876521293,-0.5384231123466606,-0.3245603799897047,0.25939760560221203,-3.078650033912383,0.6247620820479312,-3.21743736049238e-05,0.0001994807496506766,0.00018607029585466635,-0.015168446058455883,0.000377127859438909,-0.0007607969737478122,0.0017490006775892335,0.3268844485282898,-1.1518717271140595,1.6640952269183558,-2.081431051293844,-1.571357552205221,2.301856279373169,-0.00015319112571887672,0.01708379201591015,0.018412716686725616,-0.03465467318892479,-0.00015511723177041858,-0.0019113350426778197,0.038307227194309235,-0.07661445438861847,-9.289502143859863,0.7105615139007568,47.70838165283203,-0.31445252895355225,-3.3983407020568848,-1.796687126159668,-0.4586029052734375,0.016188645735383034,-0.3001735210418701,25.5625,26.4375,25.5625,28.625,29.9375,30.5625
1.0,-0.9077095557038688,-0.4916363153459623,-1.2392479690650837,-0.04252085579303103,0.02581097308856727,-0.08599100975793635,-0.5383986644005313,-0.32456875580874445,0.2593278145939094,-3.078667950879764,0.6246316731503648,-9.214577754241457e-05,-6.411104079744994e-05,8.90196509426953e-05,-0.015867582308423667,0.0005912537360835787,-0.0014241621402888204,0.0015962104006221377,0.32690829038619995,-1.1518231195262452,1.664215389882223,-2.081562658349508,-1.571345631276266,2.3017964363098145,-0.00014342585927806795,0.018542252480983734,0.01806194707751274,-0.03506535664200783,-0.00014668921357952058,-0.0017487594159319997,0.05746084079146385,0.038307227194309235,-9.21288776397705,0.6859408020973206,47.66986846923828,-0.3109064996242523,-3.4539661407470703,-1.7018702030181885,-0.4947083592414856,0.013030393049120903,-0.2937931418418884,25.5625,26.4375,25.5625,28.625,29.9375,30.5625
1.0,-0.22692471736482359,-0.510530091499374,-1.2487831427694105,-0.048369770417394514,0.03935531276118183,-0.08995463032439857,-0.5383960261447549,-0.32457183559345815,0.2592801555518688,-3.078610375095969,0.6246397755541431,-0.00012849851513074834,0.00039274244511296647,0.00024167933399358218,-0.016345516840790466,0.0010269349360203096,-0.0027092658871485102,0.0012110590558075326,0.32692021131515503,-1.1517634850791474,1.6642511526690882,-2.0816103420653285,-1.5713813940631312,2.301820755004883,-0.00013899573241360486,0.018229493871331215,0.0195360966026783,-0.03486980125308037,-0.00014280967297963798,-0.0013590011512860656,0.019153613597154617,0.09576806426048279,-9.289502143859863,0.7486078143119812,47.702110290527344,-0.299786239862442,-3.3244740962982178,-1.75826096534729,-0.49027854204177856,0.013286915607750416,-0.281616747379303,25.5625,26.4375,25.5625,28.625,29.9375,30.5625
1.0,-0.019279890311509174,-0.5252904006872989,-1.1627236044441753,-0.05562862723837289,0.03726836733070154,-0.09177377290218648,-0.5384225272932359,-0.3245654026181441,0.25929653800709856,-3.078648408624423,0.6247239872211675,1.63949777246009e-05,0.00022292565121758353,0.00018066221718527714,-0.016460433676906822,0.0011004896898535413,-0.0029392275037178127,0.0009430311164466841,0.3268963694572449,-1.1517511767200013,1.6642158667193812,-2.081694265405172,-1.5713813940631312,2.301844596862793,-0.00013483091606758535,0.01875593140721321,0.019008606672286987,-0.034627314656972885,-0.00013912991562392563,-0.001086701755411923,0.05746084079146385,0.038307227194309235,-9.27034854888916,0.7642692923545837,47.70121383666992,-0.3290350139141083,-3.4337313175201416,-1.7228243350982666,-0.5061847567558289,0.00662178685888648,-0.27993375062942505,25.5625,26.4375,25.5625,28.625,29.9375,30.5625
1.0,-0.18537906151932992,-1.0420630848064998,-1.348608197061631,-0.04417088834691634,0.024716512789423873,-0.08119379210108292,-0.5383900134698769,-0.3245722757468268,0.2592190460785874,-3.0786167551414403,0.6246797774442849,-0.0001649911373198961,0.0001510234412924977,0.0001533022123966663,-0.017036435414404746,0.001300484414980802,-0.0035419492135802875,0.0007641757616611692,0.32692021131515503,-1.151702956562378,1.664335076008932,-2.0817419491209925,-1.571357552205221,2.301844835281372,-0.00013090827269479632,0.019645320251584053,0.019172480329871178,-0.03504551202058792,-0.00013563506945502013,-0.0009039262658916414,0.13407529890537262,0.15322890877723694,-9.27034854888916,0.7597975730895996,47.70121383666992,-0.3365037441253662,-3.3953216075897217,-1.758800983428955,-0.5298222303390503,0.015612239018082619,-0.2934688627719879,25.5625,26.4375,25.5625,28.625,29.9375,30.5625
1.0,-0.288347014563534,-0.8971353538065281,-1.506675527359869,-0.054177569744694024,0.02161170002850124,-0.08388256798542625,-0.5384147209713661,-0.32454842266597606,0.259209526821749,-3.078627217381586,0.6247585551779313,-5.8568757648094205e-05,0.00037195790548081377,0.00022597005865683254,-0.017327266972345375,0.0012509027820163145,-0.0034068456887082176,0.0006374166193090707,0.32687240839004517,-1.1516791445067902,1.6643479506122034,-2.0818501911559046,-1.571369473134176,2.301844835281372,-0.00012722722021862864,0.019492845982313156,0.02029513381421566,-0.03615956753492355,-0.0001323113974649459,-0.0007738618296571076,0.17238251864910126,0.019153613597154617,-9.385271072387695,0.6747510433197021,47.657325744628906,-0.33347031474113464,-3.3839430809020996,-1.7668912410736084,-0.5453751087188721,-0.003458781400695443,-0.27655965089797974,25.5625,26.4375,25.5625,28.625,29.9375,30.5625
1.0,0.0014891643925662446,-0.9542530364980917,-1.2229495790125027,-0.054784880232724875,0.033078934207770645,-0.08926592631271746,-0.5384030825369428,-0.32457797622463475,0.2591595936721013,-3.078646158572297,0.6246476356579613,-0.0001426267792087909,0.00022312656376020598,0.00019798505785446042,-0.017443621503536785,0.0011968387684290682,-0.0032610491442956724,0.0006011815101421522,0.32692021131515503,-1.1516069036773224,1.6643713156329554,-2.081897874871725,-1.571345631276266,2.301820993423462,-0.00016279672854579985,0.019916152581572533,0.020044200122356415,-0.03648736700415611,-0.00012914724356960505,-0.0007732889498583972,0.07661445438861847,0.019153613597154617,-9.308656692504883,0.7217512726783752,47.69584274291992,-0.3051503300666809,-3.337585926055908,-1.7460204362869263,-0.5583627223968506,0.026719141751527786,-0.2753756046295166,25.5625,26.4375,25.5625,28.625,29.9375,30.5625
1.0,-0.35942943015196016,-0.8668799576704336,-1.2880815830712626,-0.05467711429419459,0.027607270439216493,-0.08670753127356794,-0.5383900862111282,-0.3245722852259776,0.25911718227383335,-3.078626816431526,0.624566502596451,-0.00019995091016419733,0.00019206363666196262,0.00020349453730403042,-0.01841716083531171,0.001659203117716334,-0.004633257952385689,0.0005031917485727689,0.32692021131515503,-1.1515824657729645,1.6644442717181605,-2.0819460354247035,-1.571357552205221,2.3017728328704834,-0.00018788523448165506,0.021227410063147545,0.02049819938838482,-0.036804623901844025,-0.00012613041326403618,-0.0007002612110227346,0.1149216815829277,0.13407529890537262,-9.346963882446289,0.7172743082046509,47.71375274658203,-0.30738529562950134,-3.425438642501831,-1.7244789600372314,-0.5775737762451172,-0.0027255541644990444,-0.27184587717056274,25.5625,26.4375,25.5625,28.625,29.9375,30.5625
1.0,-0.10037793095302833,-0.8196826615110597,-1.1187732997679776,-0.0573339776894005,0.03462886161875462,-0.0891600592777202,-0.5384057673719523,-0.3245556474753515,0.25909089430467186,-3.0786305386389996,0.6247210119465156,-0.00014506241806342988,0.00042553834757700536,0.0002970009570387493,-0.01879981039235302,0.0017235187301672505,-0.004830887753575122,0.00041181490737122247,0.3268844187259674,-1.1515465539744874,1.664480988179342,-2.0820661983885707,-1.571345631276266,2.301832914352417,-0.0002096209063893184,0.021169176325201988,0.02164582535624504,-0.037686195224523544,-0.000123251520562917,-0.0006308807642199099,0.09576806426048279,0.1149216815829277,-9.346963882446289,0.6948947906494141,47.71464920043945,-0.3011791706085205,-3.3244547843933105,-1.7320570945739746,-0.5920965671539307,0.0118795707821846,-0.2742915749549866,25.5625,26.4375,25.5625,28.625,29.9375,30.5625
1.0,-0.2800931363412328,-0.7691172484283267,-1.19773282676881,-0.06117708801231364,0.030912825981870284,-0.08490722787543681,-0.5384034339499347,-0.324558832923692,0.2590538887097532,-3.0785739718418705,0.6247285425612417,-0.00017896502849195676,0.00024416575732706073,0.00024945080829912687,-0.018488448734785373,0.0008868071248844775,-0.002389439865977528,0.0003307609067078521,0.3268963396549225,-1.151498721247055,1.6645038763629358,-2.082090993920797,-1.5713813940631312,2.301856756210327,-0.00023219191643875092,0.020959755405783653,0.021803289651870728,-0.04021509736776352,-0.00012050095392623916,-0.0005734383594244719,0.17238251864910126,0.17238251864910126,-9.308655738830566,0.7553206086158752,47.72270965576172,-0.38547787070274353,-3.3825740814208984,-1.7203221321105957,-0.5864623188972473,0.014682512730360031,-0.28380751609802246,25.5625,26.4375,25.5625,28.625,29.9375,30.5625
1.0,-0.2974413727641565,-1.0474502504114032,-1.0900403357200739,-0.05158472529556729,0.02139867194888271,-0.08858898853543767,-0.5383965855448204,-0.3245730640973886,0.2590239989902868,-3.0786083203892893,0.624640438641445,-0.00017300802246532191,-2.7186382681162648e-05,0.0005460270881412257,-0.01904968631112269,0.0010991786408750294,-0.0030253253029251157,-0.00031690560660747565,0.32691994309425354,-1.1514624816230317,1.6645401159869593,-2.082174917260641,-1.571369473134176,2.301820993423462,-0.0008319813059642911,0.021840035915374756,0.02192561887204647,-0.04054729640483856,-0.00011787065886892378,-0.0005255508003756404,0.19153612852096558,0.19153612852096558,-9.21288776397705,0.7396538853645325,47.70748519897461,-0.29973167181015015,-3.3492271900177,-1.7567428350448608,-0.5969606041908264,0.006181038916110992,-0.28637033700942993,25.5625,26.4375,25.5625,28.625,29.9375,30.5625
1.0,0.4115388488707097,-0.27916902355455153,-1.0572038844512033,-0.066672999073763,0.030600470255217706,-0.09923697572273701,-0.5383810082949597,-0.3245677754872332,0.25893976450784717,-3.078556332802728,0.6246489048741776,-0.0003057831746427251,6.337681093751477e-05,0.0005345846723419548,-0.01999837149676359,0.001974380439258596,-0.0055737535231632305,-0.0002901161959581226,0.3269200026988983,-1.1513899129680176,1.6646488348590296,-2.0822583637633265,-1.571369473134176,2.301832914352417,-0.0007654513465240598,0.02303728647530079,0.022116204723715782,-0.03924059122800827,-0.00012480751320254058,-0.0004850519762840122,0.15322890877723694,0.13407529890537262,-9.251194953918457,0.6635612845420837,47.67703628540039,-0.3199360966682434,-3.4211020469665527,-1.7040746212005615,-0.6469385623931885,0.019914506003260612,-0.28877049684524536,25.5625,26.4375,25.5625,28.625,29.9375,30.5625
1.0,0.06825484198759373,-0.42363961106003334,-0.9622679748442334,-0.06068474509515267,0.022468510092267434,-0.08606564596180348,-0.5383955902230487,-0.3245675163815071,0.2589623534855132,-3.078632465999299,0.6246836013039422,-0.0001611092813341966,0.00025489468766907005,0.0006126432632750613,-0.02065131743752162,0.0021618858854270946,-0.0061062555640684045,-0.0003434466580109062,0.32690808176994324,-1.1514018935016175,1.664635960255758,-2.0823542080321253,-1.571345631276266,2.301832914352417,-0.0007838578894734383,0.023413682356476784,0.02329527586698532,-0.040231507271528244,-0.00013112532906234264,-0.00045035197399556637,0.15322890877723694,0.19153612852096558,-9.308656692504883,0.7665104269981384,47.7191276550293,-0.3349025547504425,-3.3160171508789062,-1.7517783641815186,-0.6632504463195801,0.011678623035550117,-0.2827986478805542,25.5625,26.4375,25.5625,28.625,29.9375,30.5625
1.0,-0.34152275426502643,-0.551722198975642,-0.9668337522158413,-0.05866607139391407,0.010693388273605376,-0.09037129603144906,-0.5384173817860398,-0.32455573641839475,0.2589229838858992,-3.078617508993121,0.6246606116684686,-0.00010207664375737556,0.00045465551264017975,0.0006170414381137947,-0.02075161492285891,0.0019044602963319442,-0.005358045431326541,-0.00024700391344046984,0.32688426971435547,-1.1513301593116303,1.664649788533346,-2.0824624500670375,-1.5713813940631312,2.3017966747283936,-0.000685964769218117,0.0230979323387146,0.024295512586832047,-0.041707269847393036,-0.00012902224261779338,-0.00044945598347112536,0.13407529890537262,0.15322890877723694,-9.21288776397705,0.7105615139007568,47.70658874511719,-0.2914832830429077,-3.31129789352417,-1.7670907974243164,-0.6710466146469116,0.015793435275554657,-0.29102623462677,25.5625,26.4375,25.5625,28.625,29.9375,30.5625
1.0,-0.47879610089174357,-1.0385112371518552,-1.0950603381033939,-0.05128695408283796,0.014489523064261382,-0.08639857878567381,-0.5384064983232555,-0.3245532850358695,0.2588671734497065,-3.0785819229882603,0.6247114521332079,-0.00020598110505021448,0.00038849212785237804,0.0005440235202343402,-0.021008038718207788,0.0016167995079007433,-0.004527595082323757,-0.0001714246124657417,0.32688429951667786,-1.1512820285609742,1.66472036043276,-2.0825115642943324,-1.571369473134176,2.301832914352417,-0.000608616741374135,0.02352117747068405,0.024667060002684593,-0.04338091239333153,-0.00012647024414036423,-0.0004482572549022734,0.19153612852096558,0.1149216815829277,-9.155426979064941,0.6993717551231384,47.69853210449219,-0.3645446300506592,-3.3525142669677734,-1.7478275299072266,-0.6809306740760803,0.018263742327690125,-0.28399184346199036,25.5625,26.4375,25.5625,28.625,29.9375,30.5625
1.0,0.1730739060495722,-0.7535628207520795,-1.032509797838191,-0.05584891430760539,0.02680968408946071,-0.09216181336642676,-0.5383924007961137,-0.32455372108250685,0.2587916237036824,-3.0785365661423563,0.6245867374710334,-0.000318273506095225,0.00023486124736868096,0.00045138275706956596,-0.02151862519087643,0.0016284288415286772,-0.004576551575365451,-0.0001345946892965403,0.3268962502479553,-1.1512096387198945,1.6648042837726038,-2.0825711689391078,-1.5713933149920862,2.3017728328704834,-0.0005469366442412138,0.02450302056968212,0.02467072568833828,-0.04431634023785591,-0.00012398370017763227,-0.00042362575186416507,0.2298433631658554,0.038307227194309235,-9.174580574035645,0.7441308498382568,47.686885833740234,-0.346893310546875,-3.358703374862671,-1.7621455192565918,-0.6970915794372559,0.007655097171664238,-0.2815645933151245,25.5625,26.4375,25.5625,28.625,29.9375,30.5625
1.0,-0.056672356467581425,-0.7059885576940441,-1.006789284596114,-0.049432901684717444,0.01647164095932869,-0.08822889140031319,-0.5384006919489237,-0.32455904624078585,0.2587634493134433,-3.0785653545515714,0.6246698931828479,-0.0002726793475192983,0.00036039010715379304,0.00046134845663447366,-0.02191658233344927,0.0022813144776542547,-0.006497313396225465,-0.00010698770516454206,0.3268962502479553,-1.151161478166916,1.664828125630514,-2.0826908550658167,-1.571369473134176,2.301820993423462,-0.0004966121050529182,0.024911191314458847,0.024629678577184677,-0.04265476390719414,-0.00012159099424025044,-0.00040018721483647823,0.15322890877723694,0.07661445438861847,-9.097966194152832,0.6769921779632568,47.70748519897461,-0.36293554306030273,-3.3683583736419678,-1.7772177457809448,-0.7422468662261963,0.008058560080826283,-0.2807636559009552,25.5625,26.4375,25.5625,28.625,29.9375,30.5625
1.0,0.352803878492643,-0.5114222584514244,-0.997528850096696,-0.050886054469571146,0.01489897264376815,-0.08604792861841538,-0.5384097372999305,-0.3245465777737514,0.25876119053593843,-3.0785873304050826,0.6247128120636106,-0.00019201226011571004,0.0001957047604547308,0.0004297310872086755,-0.0228683970814354,0.0017620730089802502,-0.005001999510101468,-0.00018674764799925491,0.3269081711769104,-1.151053176527359,1.664936367665426,-2.082931180993551,-1.5713813940631312,2.301856756210327,-0.0005349608254618943,0.026216842234134674,0.025914369150996208,-0.04682798683643341,-0.00011707196244969964,-0.00036014383658766747,0.24899697303771973,0.13407529890537262,-9.097966194152832,0.6993717551231384,47.6680793762207,-0.43056029081344604,-3.3086135387420654,-1.7927340269088745,-0.7654837369918823,0.0017686167266219854,-0.26361721754074097,25.5625,26.4375,25.5625,28.625,29.9375,30.5625
1.0,-0.2187688702529105,-0.6323225823105347,-1.0192560189189688,-0.05086961657534705,0.018917360725975604,-0.08635768379444807,-0.5383852133086477,-0.3245602330318509,0.2586295597300706,-3.0785520390274455,0.6245904687957138,-0.0003140994055091004,0.00024003826354288511,0.00043417788847882426,-0.02404382295980343,0.0020848455919246912,-0.0059638553648326395,-0.00018780291258516243,0.3269081711769104,-1.1510287684253235,1.6650093237506312,-2.0829674206175746,-1.5713813940631312,2.3017849922180176,-0.0005186043563298881,0.027592286467552185,0.02699015848338604,-0.04826466366648674,-0.0001149360032286495,-0.00034298317041248083,0.17238251864910126,0.15322890877723694,-9.117119789123535,0.7284641265869141,47.71017074584961,-0.37016746401786804,-3.3338851928710938,-1.8252453804016113,-0.7920204401016235,0.013884300366044044,-0.265006959438324,25.5625,26.4375,25.5625,28.625,29.9375,30.5625
1.0,-0.11864099287762109,-0.758310101352046,-0.9976860352622823,-0.05280450054592474,0.028132970487584168,-0.09204815237068564,-0.538397787586983,-0.3245477886801636,0.2585778721521106,-3.078515359141558,0.6246602059596567,-0.0003368366220843586,0.0002727921437318751,0.00042269671591312367,-0.024103737966291443,0.0018111708656068318,-0.005169746540308542,-0.0001693134102545069,0.32688432931900024,-1.1509569448283692,1.6650455633746546,-2.0830518207945765,-1.5713933149920862,2.301809310913086,-0.00048403273103758693,0.027545973658561707,0.027481596916913986,-0.049549736082553864,-0.00011287670349702239,-0.00032738407026045024,0.09576806426048279,0.07661445438861847,-9.136273384094238,0.7888899445533752,47.70838165283203,-0.4016878604888916,-3.37996244430542,-1.807770013809204,-0.7853379845619202,0.0021274960599839687,-0.2659655213356018,25.5625,26.4375,25.5625,28.625,29.9375,30.5625
1.0,-0.043643253944860835,-0.27436004511642126,-0.9551650199596871,-0.059832493270030346,0.03320721152206452,-0.09829369737463171,-0.5383950809545982,-0.32455461554730336,0.25852954437763725,-3.078506036472115,0.624677409003054,-0.00035262080767879184,0.00039184996902643325,0.00041829744343249877,-0.023799357903182522,0.0012061222843957177,-0.0034001945471346033,-0.00011539326671970598,0.3268962800502777,-1.1508972209743042,1.665093723927633,-2.0831481419005335,-1.5713933149920862,2.301833152770996,-0.00041505772969685495,0.026821603998541832,0.028228912502527237,-0.051442816853523254,-0.00011088981409557164,-0.0003131412377115339,0.1149216815829277,0.09576806426048279,-9.155426979064941,0.6680382490158081,47.72808074951172,-0.37687504291534424,-3.2889132499694824,-1.8208768367767334,-0.810303807258606,0.008457645773887634,-0.26417654752731323,25.5625,26.4375,25.5625,28.625,29.9375,30.5625
1.0,-0.11734185085383181,-0.8222811198810662,-1.1103981996641659,-0.047820345819125594,0.03589921191778864,-0.0919956413838721,-0.5383878865430651,-0.32455467204389166,0.25846771723758943,-3.078518519778915,0.6246608987910107,-0.00040321811148498504,0.0003087900224610489,0.00035632419485965964,-0.023712792927394463,0.0006415268034129127,-0.0017539618903472524,-7.77570964965387e-05,0.3268963098526001,-1.1508372587016602,1.6651776472674769,-2.083268781701559,-1.571369473134176,2.301821231842041,-0.0003635707253124565,0.02679077908396721,0.02853238396346569,-0.053455814719200134,-0.00010897165338974446,-0.0003000861906912178,0.13407529890537262,0.1149216815829277,-9.155426979064941,0.7284641265869141,47.70121383666992,-0.3962135910987854,-3.26938533782959,-1.836502194404602,-0.8265930414199829,0.01578610949218273,-0.2783382534980774,25.5625,26.4375,25.5625,28.625,29.9375,30.5625
1.0,-0.4097807237436276,-0.8728836824583102,-1.1685263991865567,-0.05341542643987125,0.035758092496078565,-0.0841998030852491,-0.5383917206996466,-0.324561212425534,0.25843529543361415,-3.078526381667313,0.6246434011835146,-0.00031814174289139876,-7.931577499966843e-05,0.00020604726201410052,-0.024447924414033234,-0.0002942737981115455,0.0009673087284344732,-6.413426030006691e-05,0.3269082307815552,-1.1507888299277802,1.6652138868915003,-2.083402296105856,-1.5713933149920862,2.301821231842041,-0.0003361602721270174,0.0282573439180851,0.029316410422325134,-0.05858408287167549,-0.00010711881623137742,-0.0002880781830754131,0.05746084079146385,0.15322890877723694,-9.193734169006348,0.7374180555343628,47.702110290527344,-0.39769405126571655,-3.3040199279785156,-1.8267028331756592,-0.7890996932983398,0.019117139279842377,-0.2673727571964264,25.5625,26.4375,25.5625,28.625,29.9375,30.5625
1.0,-0.17473968451720717,-0.8104366785117878,-1.1749748336768133,-0.06360072082399136,0.049476083983312186,-0.08914842289259808,-0.5383763158710826,-0.3245571960626964,0.2583607540279015,-3.078501534157659,0.6246384105152107,-0.00042369160726955205,-0.00032420878287709386,0.00010719268735114911,-0.024900130125831386,-0.0005590839686441998,0.0017290172308121632,-5.243404111768984e-05,0.3269082307815552,-1.15072853982959,1.6653206984149378,-2.083498617211813,-1.5713813940631312,2.301821231842041,-0.00031278422102332115,0.02926928922533989,0.029354728758335114,-0.060440756380558014,-0.00010532813757890835,-0.0002769928833004087,0.019153613597154617,0.19153612852096558,-9.117119789123535,0.7463666796684265,47.68419647216797,-0.39141982793807983,-3.392467737197876,-1.8125889301300049,-0.7790864109992981,0.010559345595538616,-0.2699506878852844,25.5625,26.4375,25.5625,28.625,29.9375,30.5625
1.0,-0.4306824909231041,-0.8233986875830521,-1.1625775604748059,-0.06661842436270045,0.04543283743802231,-0.09577672326036264,-0.5383999126114216,-0.32455226616012844,0.2583271713429475,-3.0785436447810297,0.6246272065153182,-0.0003936419711496089,-0.00016151789283841861,0.00018280373057436765,-0.025256313014752,-0.000822953298513693,0.0024955639067371508,-9.458678572992125e-05,0.326884388923645,-1.1506565672210236,1.665321175252096,-2.083607336083883,-1.571357552205221,2.3017849922180176,-0.0003439389984123409,0.029239965602755547,0.030678924173116684,-0.06254631280899048,-0.00010359591396991163,-0.00026672997046262026,0.1149216815829277,0.09576806426048279,-9.289502143859863,0.7016075849533081,47.69673538208008,-0.4581449031829834,-3.223206043243408,-1.8931593894958496,-0.7816777229309082,0.00236217537894845,-0.27326667308807373,25.5625,26.4375,25.5625,28.625,29.9375,30.5625
1.0,-0.7778638945396541,-1.1343690569712472,-1.2614945355244054,-0.05759872677427186,0.0429460572116626,-0.08726726768690085,-0.5383876631349306,-0.32454557799012695,0.25827151462537423,-3.0785086843455423,0.624697300288184,-0.0003743488347302858,-0.0004090475144253861,8.886718909225019e-05,-0.025950700734886763,-0.0016222191519632276,0.004820217403309122,-9.12059105745477e-05,0.326884388923645,-1.1506201487830658,1.665429417287008,-2.083752294579977,-1.5713813940631312,2.301833152770996,-0.0003294289344921708,0.030386174097657204,0.03170673921704292,-0.06717855483293533,-0.00010192015179200098,-0.00025720131816342473,-0.019153613597154617,0.13407529890537262,-9.251194953918457,0.7016075849533081,47.723602294921875,-0.45486924052238464,-3.4016590118408203,-1.925641417503357,-0.7471544742584229,0.016877101734280586,-0.27911800146102905,25.5625,26.4375,25.5625,28.625,29.9375,30.5625
1.0,-0.6112766663199061,-1.3216633094077113,-1.3733730592969267,-0.05784145873449856,0.05631447751817541,-0.08897229434808268,-0.5383675679604115,-0.3245774824105501,0.25822587479624975,-3.0785534944842374,0.6245725506582863,-0.00032345981281058756,-0.0007863719393211856,-5.225443056396656e-05,-0.026322936133954235,-0.0028950549179011793,0.008530911760917158,-8.330957477366746e-05,0.32694411277770996,-1.1505719286254426,1.6655014196978968,-2.083910127679342,-1.5713813940631312,2.301809310913086,-0.00031056831358000636,0.03131217136979103,0.03254931792616844,-0.07287005335092545,-0.00010029744589701295,-0.00024832782219164073,-0.038307227194309235,0.1149216815829277,-9.193734169006348,0.7060845494270325,47.668975830078125,-0.501666784286499,-3.3430418968200684,-1.9451605081558228,-0.6737852096557617,-0.002198312897235155,-0.2638323903083801,25.5625,26.4375,25.5625,28.625,29.9375,30.5625
1.0,-0.8716183755768618,-1.178257965435743,-1.3334509281971423,-0.06364204611254555,0.050860251393904585,-0.0850108366233956,-0.5383858116115778,-0.32455518523620686,0.25814213812508924,-3.078529802507769,0.6247017338134239,-0.0003918012887265909,-0.0012449993927151634,-0.00021980766492581355,-0.026401803568774956,-0.002971909830596361,0.008744794977829777,-7.466596173089503e-05,0.3268963396549225,-1.150463656788208,1.6655729452716272,-2.0840536556639613,-1.571357552205221,2.301845073699951,-0.00029367749812081456,0.0324026420712471,0.03120536170899868,-0.07284380495548248,-9.872564260149375e-05,-0.00024004826263990253,-0.019153613597154617,0.1149216815829277,-9.308655738830566,0.7105615139007568,47.674346923828125,-0.4603332281112671,-3.396888017654419,-1.8619968891143799,-0.6660121083259583,0.01285482943058014,-0.2632383108139038,25.5625,26.4375,25.5625,28.625,29.9375,30.5625
1.0,-0.8410324827231357,-1.0463583736975728,-1.3879528757932393,-0.05585435526999854,0.047301536594257426,-0.09353539843214208,-0.5384054066950311,-0.3245475386962794,0.2580815565360092,-3.0785539760892404,0.6246680007665408,-0.00038407510910920274,-0.001323083714924139,-0.00022754756956739835,-0.026075463909325268,-0.004143287498097794,0.012172276125360534,-0.00011341190951751575,0.3268723487854004,-1.1503677827170868,1.6656096617328089,-2.0841990909972132,-1.571345631276266,2.3017969131469727,-0.00032304375781677663,0.031858962029218674,0.032127682119607925,-0.07684456557035446,-9.720239177113399e-05,-0.0002323016378795728,-0.019153613597154617,0.15322890877723694,-9.251194953918457,0.6926589012145996,47.687782287597656,-0.4242306351661682,-3.336242198944092,-1.8255536556243896,-0.6280535459518433,0.015902400016784668,-0.2631036341190338,25.5625,26.4375,25.5625,28.625,29.9375,30.5625
1.0,-1.2222653992010033,-1.671320934895951,-1.4016592915117063,-0.04774095411153212,0.03667051175584345,-0.07918986734703813,-0.5384053818040736,-0.3245282183955151,0.25803405482231045,-3.0785160546100565,0.6246986671810554,-0.0003565699827897144,-0.0009266611912058492,-0.00010146618237657129,-0.026804324437997153,-0.004148900653499271,0.012184044091642728,-0.00010727155486568092,0.3268483877182007,-1.1503318709186097,1.665694538746969,-2.0843192539610804,-1.5713813940631312,2.3017969131469727,-0.0003089825331699103,0.03186231479048729,0.03426534682512283,-0.07899854332208633,-9.5725707069505e-05,-0.0002250407706014812,-0.038307227194309235,0.13407529890537262,-9.423578262329102,0.7441308498382568,47.69136428833008,-0.4565480351448059,-3.4029898643493652,-1.9616925716400146,-0.5884888768196106,0.007602213881909847,-0.2718980312347412,25.5625,26.4375,25.5625,28.625,29.9375,30.5625
1.0,-0.9317441038474564,-1.189346564807452,-1.3166735577951982,-0.06378483217656472,0.039020944785682035,-0.08281909467896445,-0.5383948978991925,-0.324564750642907,0.2579938330628746,-3.0785766008629865,0.6246350014083452,-0.0002688354277747456,-0.0013657343139679456,-0.00026069788643409936,-0.027776952160723727,-0.004026666388695558,0.011803944586021665,-9.990729488769628e-05,0.32690826058387756,-1.1502711039832612,1.6657417456256312,-2.084499021569723,-1.571369473134176,2.301809310913086,-0.00029455922776833177,0.03400125727057457,0.033776018768548965,-0.08024894446134567,-9.429278725292534e-05,-0.00021821913833264261,0.019153613597154617,0.15322890877723694,-9.385271072387695,0.7329410910606384,47.7164421081543,-0.4717644453048706,-3.4768552780151367,-1.9157354831695557,-0.5421415567398071,0.01845433935523033,-0.2671808898448944,25.5625,26.4375,25.5625,28.625,29.9375,30.5625
1.0,-0.21204196090554905,-0.8445597534202727,-1.342350203580861,-0.0654591296783481,0.04976300043965451,-0.09406926660831792,-0.5384137345755022,-0.3245503562020398,0.25792534066851525,-3.0785993897936854,0.6246583433277014,-0.00027135371990708154,-0.0012195334453269037,-0.0001936648898081762,-0.028239640818612806,-0.0037442048747014555,0.010971987917821596,-0.0001327349134639875,0.3268723487854004,-1.1501751405051728,1.6658013502704065,-2.0846668682494105,-1.571345631276266,2.3017849922180176,-0.0003210366703569889,0.03429118171334267,0.034440573304891586,-0.08032482117414474,-9.290240268455818e-05,-0.00021179940085858107,0.0,0.15322890877723694,-9.327810287475586,0.7329410910606384,47.70748519897461,-0.4672892093658447,-3.4809770584106445,-1.9797261953353882,-0.5043781399726868,0.007981482893228531,-0.262478232383728,25.5625,26.4375,25.5625,28.625,29.9375,30.5625
1.0,-0.032976395051064755,-0.7265920019187175,-1.3284844335593078,-0.0540131661701736,0.044757454795320124,-0.09565941366051914,-0.5383997099938126,-0.3245663577473478,0.2578926557154186,-3.0786127589878176,0.6246998935505983,-0.00014008287878274037,-0.001152088866900852,-0.0001542322441893864,-0.028356566487134978,-0.0034243751225351586,0.010030288619824912,-0.00016396796161292844,0.3269082307815552,-1.1501512092402955,1.6658852736102503,-2.0848576031126917,-1.571369473134176,2.301845073699951,-0.00034660540404729545,0.034357860684394836,0.034395765513181686,-0.07935217022895813,-9.155224688583985e-05,-0.00020574645895976573,-0.019153613597154617,0.09576806426048279,-9.346963882446289,0.6926589012145996,47.71017074584961,-0.5043606162071228,-3.4619812965393066,-1.942213535308838,-0.5127898454666138,0.006224338430911303,-0.27206695079803467,25.5625,26.4375,25.5625,28.625,29.9375,30.5625
1.0,0.08180486492133562,-0.2931360255092985,-1.1403046821834022,-0.0505259015387171,0.033152832160310564,-0.09833881468682314,-0.5384207767867163,-0.32454625907030393,0.2578499949515432,-3.0786702731154274,0.624692057837406,-0.0001047066158718423,-0.0012994463328127534,-0.00020748156601033943,-0.02841325451950253,-0.0030028880693900068,0.008820651247280691,-0.00016297050022581625,0.3268604278564453,-1.1500910979560395,1.6659334341632288,-2.085013052026266,-1.5713337103473108,2.3017849922180176,-0.0003405837924219668,0.03486747294664383,0.03342114016413689,-0.0776061937212944,-9.981449693441391e-05,-0.0002000303502427414,0.1149216815829277,0.05746084079146385,-9.346963882446289,0.6590895652770996,47.654640197753906,-0.47981011867523193,-3.463226318359375,-1.8888897895812988,-0.5048420429229736,0.01823204755783081,-0.27767932415008545,25.5625,26.4375,25.5625,28.625,29.9375,30.5625
1.0,0.5140823764827266,0.15672729514798786,-1.1656249641575933,-0.03918286990743972,0.01783406704302047,-0.0893710473149645,-0.5384141088484118,-0.32455574790431024,0.25771605759671556,-3.078631200137838,0.6247230085024423,-8.097890416087983e-05,-0.00043250796695574903,0.0001348318232594465,-0.03001838360994787,-0.000618735947651473,0.0018393710425757216,-0.00024253444002518472,0.32688435912132263,-1.149934784775116,1.6660893599139612,-2.0853220425047816,-1.571369473134176,2.301833152770996,-0.000411963410442695,0.035475220531225204,0.035060517489910126,-0.07247616350650787,-0.0001002461212920025,-0.00018950001685880125,0.1149216815829277,0.07661445438861847,-9.27034854888916,0.7083203792572021,47.699424743652344,-0.5270681977272034,-3.498483896255493,-1.8788390159606934,-0.5434615612030029,0.0024016108363866806,-0.2807298004627228,25.5625,26.4375,25.5625,28.625,29.9375,30.5625
1.0,-0.24503370157879953,-0.28940638990440715,-1.0854023767654644,-0.028361495193717067,-0.0025975061894237157,-0.08408850259198487,-0.5384279042765805,-0.32455638175300067,0.2576626766576803,-3.078665519479672,0.6247685328903855,-7.827219806759184e-05,-0.0005384998047474844,0.00011815508757438783,-0.03059620306753171,3.743269435580137e-05,-9.266149247051025e-05,-0.00027678850885541335,0.326872318983078,-1.1498505932143708,1.6661255995379847,-2.0854655704894007,-1.5713337103473108,2.301845073699951,-0.00044206692837178707,0.03654545545578003,0.03454529866576195,-0.07099075615406036,-9.888237400446087e-05,-0.0001846401282818988,0.15322890877723694,0.05746084079146385,-9.27034854888916,0.7866488099098206,47.712860107421875,-0.483920156955719,-3.4429070949554443,-1.8513126373291016,-0.5726747512817383,-0.000460553914308548,-0.2711096405982971,25.5625,26.4375,25.5625,28.625,29.9375,30.5625
1.0,0.5178671035046837,-0.27245656847122873,-1.0572577707207906,-0.03807403866173691,0.026243243356456718,-0.09311792281917872,-0.5384213801821597,-0.3245515463783558,0.25757964190569743,-3.078646750564512,0.6246686688955422,-0.00010749182027433431,-0.0008502083620585386,0.0002540414726141093,-0.030888069827832734,0.0003669705797275042,-0.0010671843056229398,-0.0006543014560454943,0.32687216997146606,-1.1497665506652375,1.666231934224264,-2.0856205425658167,-1.571357552205221,2.3017849922180176,-0.0008153837989084423,0.03740261495113373,0.03381146118044853,-0.07008535414934158,-9.754363418323919e-05,-0.00018002335855271667,0.09576806426048279,-0.038307227194309235,-9.251194953918457,0.7038487195968628,47.70658874511719,-0.48170042037963867,-3.5448520183563232,-1.801440954208374,-0.6005845069885254,0.003718205261975527,-0.2627190053462982,25.5625,26.4375,25.5625,28.625,29.9375,30.5625
1.0,0.24988414439052603,-0.4807322637399408,-1.2518063430338646,-0.04363330167052284,0.02356400053555885,-0.08756987501205107,-0.5384139021181893,-0.32455304578113925,0.2574835687472654,-3.0785728127194085,0.6246923924671816,-0.00017892893842902415,-0.0007144371178894462,0.0003383256374742577,-0.03152969194934387,0.0008707398263667547,-0.002549833477570552,-0.0007169651412005365,0.3268842101097107,-1.1496582192233582,1.6663287321673792,-2.085752149621481,-1.5713933149920862,2.301821231842041,-0.0008739748154766858,0.03796644136309624,0.03438838571310043,-0.06966021656990051,-9.623981168260798e-05,-0.00017563191067893058,0.19153612852096558,-0.038307227194309235,-9.289502143859863,0.7418897151947021,47.6949462890625,-0.4436187744140625,-3.547389030456543,-1.7860827445983887,-0.6031033992767334,-0.0003197677433490753,-0.27157333493232727,25.5625,26.4375,25.5625,28.625,29.9375,30.5625
1.0,0.007137847740798314,-0.20797921929673516,-1.0321759121044125,-0.04633800412832191,0.015004501433948379,-0.08793301678960087,-0.53841495456191,-0.32454808683676545,0.2574640374357603,-3.0786359054427264,0.6246665612566659,-0.000101049348345315,-0.0005336806560083444,0.00040495842692768274,-0.03172486975559156,0.0013647438932380932,-0.00399930831605368,-0.0007283935202619969,0.32687216997146606,-1.1496462386897583,1.6663888136493128,-2.0858956776061,-1.571369473134176,2.3017849922180176,-0.0008817913476377726,0.037935782223939896,0.03456184267997742,-0.06827166676521301,-9.497043356532231e-05,-0.00017144929734058678,0.13407529890537262,0.038307227194309235,-9.289502143859863,0.7396538853645325,47.68867492675781,-0.49355506896972656,-3.573270559310913,-1.7271397113800049,-0.637283980846405,-0.0034009311348199844,-0.25543081760406494,25.5625,26.4375,25.5625,28.625,29.9375,30.5625
1.0,-0.19696835330019033,-0.3295557098617031,-1.0712480235871287,-0.03992009782662858,0.009893155703153182,-0.08596129187951666,-0.5384378538078501,-0.32455712630447003,0.25744111924220997,-3.0786864916317653,0.6246196481502706,-3.063407226942973e-05,-0.00026800680249747065,0.0004979778459711964,-0.032709303737077616,0.0022698493878177614,-0.006702028328118942,-0.0007376247465865713,0.3268721401691437,-1.1495741468719025,1.6663644949542444,-2.0860024891295375,-1.571357552205221,2.3017492294311523,-0.0008877137443050742,0.03875847905874252,0.03537313640117645,-0.06705547869205475,-7.959045615280047e-05,-0.00016746140317991376,0.15322890877723694,-0.038307227194309235,-9.251194953918457,0.7329410910606384,47.69584274291992,-0.4895781874656677,-3.54988956451416,-1.7513773441314697,-0.6661897897720337,0.001634230837225914,-0.2530635595321655,25.5625,26.4375,25.5625,28.625,29.9375,30.5625
1.0,0.04412695680000393,-0.40144120852687615,-1.0454421788002997,-0.038879252991878444,0.008283983040657947,-0.08909210162550575,-0.5384236271387158,-0.3245575374295149,0.25736048594709715,-3.078646682531883,0.6246496961246545,-4.575869569404185e-05,-0.00020967876981168438,0.0006848123418241607,-0.033424731725441345,0.003066945813001533,-0.009057836814936956,-0.0009986577962891473,0.32688412070274353,-1.1495019060424347,1.6664846579181116,-2.0861698589720667,-1.5713813940631312,2.3017849922180176,-0.0011456841602921486,0.039517439901828766,0.035604093223810196,-0.06555841118097305,-7.383448246400803e-05,-0.00016365501505788416,0.2106897532939911,0.038307227194309235,-9.327810287475586,0.7463666796684265,47.687782287597656,-0.503650963306427,-3.532736301422119,-1.7701740264892578,-0.7131087779998779,0.006707597523927689,-0.2565303146839142,25.5625,26.4375,25.5625,28.625,29.9375,30.5625
1.0,-0.3444492070989206,-0.601636078145829,-0.9973214661671004,-0.04397652015767037,-9.293190013595284e-05,-0.08452126094890926,-0.53842447113077,-0.32455247789670066,0.2572692223597155,-3.0786164893803334,0.6247210822932613,-0.00016205011599966718,-0.00024175297497542467,0.0006714176331129454,-0.033243640787333995,0.002634049831726708,-0.007794270382614154,-0.0009993684103860535,0.3268720507621765,-1.1493940216353913,1.6665685812579554,-2.086290021935934,-1.571357552205221,2.301821231842041,-0.0011421950766816735,0.03927399218082428,0.03583434224128723,-0.06688087433576584,-7.235664816107601e-05,-0.00016001750191207975,0.15322890877723694,0.09576806426048279,-9.174580574035645,0.7239871025085449,47.66986846923828,-0.4675729274749756,-3.5841145515441895,-1.7460750341415405,-0.735578179359436,-0.00789180863648653,-0.26839959621429443,25.5625,26.4375,25.5625,28.625,29.9375,30.5625
1.0,0.062019699001659934,-0.7032820047694199,-0.9950452426525974,-0.05052593064896413,0.011700788203657993,-0.08848407451825627,-0.5384194347016726,-0.32455733517569957,0.25720588053334553,-3.0786108510195205,0.6246616416415145,-0.00017211108498333042,0.00022021020215018115,0.0008049252126034168,-0.03441625287371803,0.0038908318689952004,-0.011481345945984156,-0.0009646397741848413,0.32688412070274353,-1.1493220192245026,1.6666415373431605,-2.0864206753172816,-1.571369473134176,2.3017969131469727,-0.0011050329776480794,0.040019501000642776,0.03701319545507431,-0.06490985304117203,-7.119291694834828e-05,-0.00015653888112865388,0.17238251864910126,0.13407529890537262,-9.097966194152832,0.7105615139007568,47.668975830078125,-0.458678275346756,-3.457228660583496,-1.805632472038269,-0.7771584987640381,-0.008159087970852852,-0.2720189094543457,25.5625,26.4375,25.5625,28.625,29.9375,30.5625
1.0,0.060762474550483614,-0.9847767099366163,-1.0627313004621717,-0.05293317315122255,0.01642636189552859,-0.08814098998266214,-0.5384363261335993,-0.3245565237856858,0.25714784370437505,-3.078609473096688,0.6247197139958536,-0.00018254330987195193,5.9355799827157505e-05,0.0007347464329671694,-0.03573519938444777,0.004280663880876072,-0.01260081356236395,-0.0009423147759498386,0.3268720805644989,-1.1492251318744202,1.6666653792010706,-2.086540838281149,-1.571357552205221,2.301821231842041,-0.001079224981367588,0.04203974828124046,0.037487294524908066,-0.0662187933921814,-8.316981984535232e-05,-0.00015320733655244112,0.13407529890537262,0.05746084079146385,-9.174580574035645,0.7217512726783752,47.6976318359375,-0.4850483536720276,-3.6753969192504883,-1.7907339334487915,-0.8054198622703552,0.0011152462102472782,-0.2603611946105957,25.5625,26.4375,25.5625,28.625,29.9375,30.5625
1.0,0.07372877300583358,-1.2063567249194793,-1.023136600817075,-0.058515800229122006,0.034026152327194976,-0.0923351135270945,-0.5384186162833535,-0.32455046708427915,0.25704201612330085,-3.078554961724085,0.6246895580377357,-0.0003427628853148428,-0.0003139416967741957,0.0006141554708491895,-0.03505633135723737,0.0027314452565994785,-0.008065629516731381,-0.0009580276484977413,0.3268720805644989,-1.149129496221878,1.6667969862567347,-2.0866500339903773,-1.571357552205221,2.301809310913086,-0.0010898757027462125,0.04164526239037514,0.03749836981296539,-0.07062787562608719,-8.274898573290557e-05,-0.0001500151411164552,0.2298433631658554,0.2106897532939911,-9.155426979064941,0.7530794739723206,47.702110290527344,-0.5205397009849548,-3.512643337249756,-1.7648653984069824,-0.8097414970397949,0.003967670723795891,-0.2659966051578522,25.5625,26.4375,25.5625,28.625,29.9375,30.5625
1.0,-0.6190110752289224,-1.3217278151256402,-0.9617781091108629,-0.06682394054394358,0.02809130595528074,-0.08743701963452495,-0.5384225415550635,-0.32453497347361876,0.25698133750444996,-3.0785423606664426,0.6247637189583667,-0.00029975724154086337,-0.0001567386956291067,0.0007146268876553713,-0.03442213697536187,0.00217701617306042,-0.006406903261792843,-0.0010325281514152612,0.3268480896949768,-1.149069921379425,1.6668923536883753,-2.08682980159902,-1.571369473134176,2.301833152770996,-0.0011607491178438067,0.04036974161863327,0.038078755140304565,-0.07168162614107132,-9.164822404272854e-05,-0.00014695319987367839,0.1149216815829277,0.19153612852096558,-9.117119789123535,0.7530794739723206,47.745994567871094,-0.5341926217079163,-3.4720897674560547,-1.7999379634857178,-0.7974472045898438,0.002134645590558648,-0.26925763487815857,25.5625,26.4375,25.5625,28.625,29.9375,30.5625
1.0,-0.42419953759738716,-1.3149372113402755,-1.172376777888011,-0.070485393163426,0.037090827286373355,-0.08612646133587672,-0.5384207489360188,-0.32453310491699255,0.256935871054906,-3.078536468439212,0.6247434362918546,-0.00028941080438276025,-0.0005034711497842384,0.0006497801774695257,-0.03544362214622601,0.0018452436641757883,-0.005443911564884297,-0.001118299506829496,0.3268480896949768,-1.1490215224078675,1.666952912007467,-2.0869394741454066,-1.5713813940631312,2.301821231842041,-0.001242534606717527,0.04217783734202385,0.03864679113030434,-0.07507628947496414,-9.35075368033722e-05,-0.00014401380030903965,0.15322890877723694,0.19153612852096558,-9.078812599182129,0.7575564384460449,47.699424743652344,-0.5146729946136475,-3.4823250770568848,-1.7786822319030762,-0.8284251689910889,0.006781981326639652,-0.26654574275016785,25.5625,26.4375,25.5625,28.625,29.9375,30.5625
1.0,-0.8358282314108598,-1.5459014302763765,-1.2238803966768823,-0.06638853697734892,0.02837900862165452,-0.0829375140613022,-0.5384202062026933,-0.3245458905816651,0.25684688913619763,-3.078511574130082,0.6247000314177255,-0.00030335019128307686,-0.0009660030004947487,0.0004995435173869808,-0.03513378895299941,0.0005368426627389083,-0.0016202962867985953,-0.001134699741828936,0.3268720209598541,-1.1489012998393555,1.667025391255514,-2.0871077976622523,-1.5714057127581995,2.301821231842041,-0.0012544150231406093,0.04247066751122475,0.03848028555512428,-0.07924389839172363,-9.234723256668076e-05,-0.00014118963736109436,0.1149216815829277,0.19153612852096558,-9.078812599182129,0.7262282371520996,47.730770111083984,-0.4860553741455078,-3.565145492553711,-1.7099089622497559,-0.7996674180030823,0.0030980794690549374,-0.2689048647880554,25.5625,26.4375,25.5625,28.625,29.9375,30.5625
1.0,-0.7945360561847368,-1.4289211404674096,-1.1817611148759009,-0.07053658128454597,0.03023247863720388,-0.08001312546462884,-0.5384147179414633,-0.3245490777003456,0.25676724978464216,-3.078561162321391,0.6246712857902263,-0.0003387171890645302,-0.001352570743033264,0.00032792261824943057,-0.036260892613866065,-0.00014502847575759023,0.000355506525322952,-0.001077797725289631,0.3268720507621765,-1.1488168102553864,1.6671322027789515,-2.0873013935484828,-1.571357552205221,2.3017969131469727,-0.0011931546032428741,0.04450308904051781,0.03933517262339592,-0.08422134071588516,-9.102665353566408e-05,-0.00013847417721990496,0.09576806426048279,0.2298433631658554,-9.059659004211426,0.7597975730895996,47.702110290527344,-0.5453957915306091,-3.576535701751709,-1.768418788909912,-0.7698758840560913,0.004545446950942278,-0.25711560249328613,25.5625,26.4375,25.5625,28.625,29.9375,30.5625
1.0,-0.6252672402077548,-1.5711154935583047,-1.1789473216574426,-0.0671655345580124,0.036740181280435234,-0.08216395363085283,-0.5384144775754769,-0.3245452341534692,0.25669561785586004,-3.0785020704676618,0.6247173208101475,-0.0003589959408012052,-0.0016258392506207414,0.00020640543870996508,-0.035763327191316946,-0.0014078012110423509,0.004048939153328773,-0.0010387146473196977,0.3268720507621765,-1.1487328273108979,1.6672051588641565,-2.0874225101866664,-1.5713933149920862,2.301833152770996,-0.0011498797684907913,0.04421433061361313,0.03945571929216385,-0.08795647323131561,-8.97311037988402e-05,-0.00013586116256192327,0.1149216815829277,0.15322890877723694,-9.174580574035645,0.6948947906494141,47.712860107421875,-0.5002778768539429,-3.632080554962158,-1.7807693481445312,-0.7271989583969116,-0.004681146703660488,-0.24595296382904053,25.5625,26.4375,25.5625,28.625,29.9375,30.5625
1.0,-0.568850876803894,-1.0130374165006713,-1.1074092626167942,-0.07989679531596688,0.04619550854558645,-0.09082298774271702,-0.5384271354952274,-0.324536488252621,0.25662195362433915,-3.078545473792336,0.6247066231917562,-0.00032548359209593457,-0.001770791978405859,0.0001882898858056739,-0.03446263251750067,-0.0038468803661869558,0.011233593221405581,-0.0010910026214428709,0.3268480896949768,-1.1486376982978364,1.6672890822040003,-2.087640424767965,-1.571369473134176,2.3017969131469727,-0.001196627039462328,0.04232221096754074,0.04071887210011482,-0.09491486102342606,-0.00010027276584878564,-0.00013334497634787112,0.13407529890537262,0.2106897532939911,-9.155426979064941,0.7418897151947021,47.69673538208008,-0.5419614911079407,-3.4318766593933105,-1.8090050220489502,-0.6664043664932251,-0.0005115270614624023,-0.2546258866786957,25.5625,26.4375,25.5625,28.625,29.9375,30.5625
1.0,-0.6358320529372161,-1.2996516070411759,-1.2904105872654463,-0.06682593166683107,0.0426209021896882,-0.08511411228125679,-0.538425419965201,-0.3245411956555599,0.256469118335473,-3.078524846550614,0.6247413293197985,-0.00028849909949619357,-0.002999750478736227,-0.00027036815193320896,-0.03536244980022386,-0.0053690142213907435,0.015657092859771644,-0.0010376567085989812,0.32686012983322144,-1.1484567087939759,1.6674683729754847,-2.0880142650999964,-1.5713933149920862,2.301833152770996,-0.0011360333301126957,0.045703575015068054,0.03962940722703934,-0.10188480466604233,-9.834401134867221e-05,-0.00012858207628596574,0.038307227194309235,0.1149216815829277,-9.27034854888916,0.6501356363296509,47.68061828613281,-0.5014716982841492,-3.5942611694335938,-1.7923195362091064,-0.5763311386108398,0.0012110229581594467,-0.25472965836524963,25.5625,26.4375,25.5625,28.625,29.9375,30.5625
1.0,-0.33304718756594687,-0.832473872363136,-1.336895740632699,-0.06643647616172056,0.03814844198924788,-0.08823725454793829,-0.5384330429794344,-0.32454755537255964,0.25639139909642644,-3.078577971179694,0.6246941718367705,-0.0002860137769373834,-0.0028274137795035693,-0.00023871826270004847,-0.03594755197975205,-0.004995679922579485,0.014556736807543089,-0.0009980559877274947,0.3268601596355438,-1.148348556166031,1.6675398985492151,-2.0882169208922328,-1.571357552205221,2.3017969131469727,-0.001094308216124773,0.04616052284836769,0.04032041132450104,-0.10187079012393951,-9.702215902507305e-05,-0.0001263262383872643,-0.038307227194309235,0.19153612852096558,-9.289502143859863,0.7127973437309265,47.72092056274414,-0.5150197744369507,-3.6367454528808594,-1.654578685760498,-0.5179011821746826,-0.0028918739408254623,-0.2525236904621124,25.5625,26.4375,25.5625,28.625,29.9375,30.5625
1.0,-0.7162214845542143,-1.2819471648674288,-1.4140987794791056,-0.048145762704762764,0.02294061537797632,-0.07559422247484698,-0.5384453127436052,-0.32455047846952045,0.2563085069888748,-3.078574164153639,0.6247515600469521,-0.00022925539899898168,-0.0022263872980808038,-3.339811247240423e-05,-0.03700158574802087,-0.003915450287790299,0.011388867712246798,-0.000999900865640746,0.3268601596355438,-1.1482286316207428,1.667612377797262,-2.0884443722166957,-1.571369473134176,2.301833152770996,-0.0010947372065857053,0.046400122344493866,0.04207782819867134,-0.10052082687616348,-9.573234274284914e-05,-0.0001241478748852387,0.07661445438861847,0.19153614342212677,-9.27034854888916,0.7418897151947021,47.69584274291992,-0.5167033076286316,-3.650627613067627,-1.75874924659729,-0.5278455018997192,0.008450817316770554,-0.24530698359012604,25.5625,26.4375,25.5625,28.625,29.9375,30.5625
1.0,-0.10026624027621456,-0.9394795018849958,-1.4011779175364127,-0.04865267193158559,0.02765943412839556,-0.0949325616569123,-0.538437063977266,-0.3245451512939166,0.2562219617167881,-3.078553128610769,0.6246892222519844,-0.00024441480761554273,-0.002105950163698129,-2.1655866856281667e-05,-0.03753380351756539,-0.003078534026527462,0.008931093382043828,-0.0009559897948518184,0.3268601596355438,-1.14814446986232,1.667732063923971,-2.088623186151022,-1.5713933149920862,2.3017969131469727,-0.0010496644536033273,0.04703756421804428,0.04192347452044487,-0.0984075590968132,-9.44761632126756e-05,-0.00012204350059619173,0.05746084079146385,0.038307227194309235,-9.27034854888916,0.7642692923545837,47.71733474731445,-0.5728558301925659,-3.6505627632141113,-1.7283148765563965,-0.5331275463104248,-0.01667489856481552,-0.2616555690765381,25.5625,26.4375,25.5625,28.625,29.9375,30.5625
1.0,0.13927883209364042,-0.2891337743023224,-1.2922677148117485,-0.0499449614311243,0.02497000391901867,-0.09451922121565565,-0.5384630058480323,-0.3245331454848795,0.25619160507073685,-3.0786002904285383,0.6247955895826574,-0.00013821483245836757,-0.0015531902684658432,0.0001334105885185121,-0.03845041016046933,-0.0015226549320810278,0.004371697152115024,-0.000904688473047399,0.3268241882324219,-1.1480842989734192,1.6677573362933558,-2.0888010464110316,-1.571369473134176,2.301821231842041,-0.0009979789610952139,0.047377556562423706,0.042693134397268295,-0.09469965100288391,-9.325250721303746e-05,-0.00012000919377896935,0.019153613597154617,0.05746084079146385,-9.289502143859863,0.6613254547119141,47.7244987487793,-0.5116512775421143,-3.673922538757324,-1.7644797563552856,-0.5823451280593872,0.002871747827157378,-0.2553013265132904,25.5625,26.4375,25.5625,28.625,29.9375,30.5625
1.0,-0.30318303970396054,-0.4448426185372045,-1.362834391243085,-0.03439137730694568,0.004964058950684743,-0.08134598764679712,-0.5384598184302277,-0.3245373604972273,0.25610115756834584,-3.0785906424243983,0.6246780536355973,-0.000153057231826518,-0.0016707970324814827,8.407471270907539e-05,-0.03920148525915938,-0.0004005290724151762,0.001073277211669354,-0.0008911819170088636,0.3268362283706665,-1.1479760867408295,1.6678522268878382,-2.0889793835081996,-1.5713933149920862,2.3017611503601074,-0.0009838674450293183,0.048843495547771454,0.04166809469461441,-0.09165648370981216,-9.206062532030046e-05,-0.00011804194946307689,0.07661445438861847,0.0,-9.308656692504883,0.7418897151947021,47.72092056274414,-0.5448205471038818,-3.7021219730377197,-1.7233352661132812,-0.6019502878189087,-0.0009299269295297563,-0.2670704126358032,25.5625,26.4375,25.5625,28.625,29.9375,30.5625
1.0,0.272508228757923,0.1300994858377502,-1.3732050727550107,-0.03384915579451902,0.011028321380141816,-0.09228110974663926,-0.5384674141026501,-0.3245333725378563,0.2560083892477147,-3.078573627555438,0.6247513133269187,-0.00019670567940473232,-0.0016185151100644014,0.00010567064972766289,-0.03906487156297328,8.369594415749148e-05,-0.000346233062124808,-0.0008982569376591751,0.3268241882324219,-1.1478561621955414,1.667936150227682,-2.0891581974425257,-1.5713813940631312,2.3017969131469727,-0.0009898691205307841,0.048712436109781265,0.04102953523397446,-0.08938703685998917,-9.089802188100293e-05,-0.00011613764945650473,0.15322890877723694,-0.05746084079146385,-9.251194953918457,0.7530794739723206,47.699424743652344,-0.5618062019348145,-3.6634693145751953,-1.5468168258666992,-0.6493468284606934,-0.01134404819458723,-0.24258208274841309,25.5625,26.4375,25.5625,28.625,29.9375,30.5625
1.0,0.13633433889756547,-0.03701782679977243,-1.196883608435458,-0.026108746953218683,0.009499251148600686,-0.08155518774167633,-0.5384761887328772,-0.32451548699583727,0.255949804764406,-3.0786023953375996,0.6248348891616473,-0.0001510726684291735,-0.0011226080530504711,0.00027327720902017513,-0.03952806253177979,0.0009632840424073176,-0.0029228546383807496,-0.0008968903898594447,0.32678818702697754,-1.1477961403182526,1.6680315176593226,-2.0893613300719203,-1.571357552205221,2.301809310913086,-0.000987541163340211,0.048432618379592896,0.042021047323942184,-0.08737611025571823,-8.976518438430503e-05,-0.00011429410369601101,0.2106897532939911,-0.07661445438861847,-9.270349502563477,0.7396538853645325,47.72629165649414,-0.5990159511566162,-3.6158576011657715,-1.63474702835083,-0.6851820945739746,-0.014620569534599781,-0.25883540511131287,25.5625,26.4375,25.5625,28.625,29.9375,30.5625
1.0,0.3322446522361686,-0.12406375622944342,-1.1658312447633958,-0.02274458769616894,0.012176844799762086,-0.09775443743598652,-0.5384603220974412,-0.32454648725182345,0.2558640373083466,-3.0785980539120716,0.6247180507828533,-0.00015155335072154967,-0.0007984101275643233,0.00039360422421575494,-0.04069992206321288,0.0022950963987070417,-0.006502425291784361,-0.0008952935579684453,0.3268481492996216,-1.14768801749263,1.6681159178363245,-2.0895396671690882,-1.5713813940631312,2.3017969131469727,-0.0009854036616161466,0.049448203295469284,0.04281497374176979,-0.08536756783723831,-0.00019500644702930003,-0.00011250803072471172,0.17238251864910126,-0.13407529890537262,-9.308655738830566,0.6613254547119141,47.711063385009766,-0.5664180517196655,-3.6686809062957764,-1.586817741394043,-0.7284536957740784,0.0010468829423189163,-0.2542682886123657,25.5625,26.4375,25.5625,28.625,29.9375,30.5625
1.0,0.289324160729494,-0.2154993420346784,-1.2790987669871843,-0.027587152306933566,0.022434546431060305,-0.09110142106147093,-0.538472653134697,-0.3245531058982773,0.2557860223610826,-3.078603182055893,0.6247966012089355,-0.00017118158420950563,-0.0008584375842103243,0.0005605239584427646,-0.040784447247098884,0.0028739490725049038,-0.008178559737795224,-0.0011838229221179262,0.32684803009033203,-1.1475680035403748,1.6681636015521448,-2.0897070370116175,-1.571357552205221,2.301845073699951,-0.0012730542803183198,0.0496424101293087,0.04225236549973488,-0.08322589099407196,-0.0002011844189837575,-0.00011077702947659418,0.26815059781074524,-0.19153612852096558,-9.308655738830566,0.6702793836593628,47.72092056274414,-0.5356020331382751,-3.6649892330169678,-1.5442531108856201,-0.7709846496582031,-0.003453734563663602,-0.24994024634361267,25.5625,26.4375,25.5625,28.625,29.9375,30.5625
1.0,-0.24226735429200322,-0.10649850859341646,-1.4250141932597762,-0.03393695741205216,0.010125258544681694,-0.08422119002146881,-0.5384727406391029,-0.324551893276238,0.25570560032421685,-3.078596221866186,0.6247179850289041,-0.0001951535653420622,-0.0006897187032937958,0.0005729243952382349,-0.04119129719210125,0.0031503794988147807,-0.009013447716249288,-0.0011170067048413225,0.3268480598926544,-1.1474719506553193,1.6682475248919886,-2.0898624859251917,-1.571369473134176,2.3017969131469727,-0.0012046704068779945,0.0498950369656086,0.042812660336494446,-0.08315940201282501,-0.00019350791990291327,-0.00010909857519436628,0.2298433631658554,-0.17238251864910126,-9.27034854888916,0.7597975730895996,47.711063385009766,-0.5636017322540283,-3.703064441680908,-1.5695886611938477,-0.8302360773086548,-0.013052924536168575,-0.24072474241256714,25.5625,26.4375,25.5625,28.625,29.9375,30.5625
1.0,-0.29017548315328584,-0.4000582555291686,-1.4173493401512907,-0.02890111414523661,0.013769359396136464,-0.0810937853042776,-0.5384591398895086,-0.32455632513827976,0.25560191064231663,-3.078563168256489,0.6247500903617463,-0.0003028511827819773,-0.0008790075519375763,0.00048302462037397585,-0.04123287917236601,0.0027761418647964226,-0.0079453293975242,-0.0010880864137110793,0.32686012983322144,-1.1473638874343415,1.6683676878558558,-2.090018411675924,-1.571357552205221,2.301833152770996,-0.0011669648811221123,0.05030233412981033,0.04265650361776352,-0.08454229682683945,-0.0001855898735811934,-0.00010085240501211956,0.2298433631658554,-0.17238251864910126,-9.346963882446289,0.7530794739723206,47.68867492675781,-0.5174667835235596,-3.6883552074432373,-1.3814830780029297,-0.847758412361145,-0.006955925840884447,-0.23984599113464355,25.5625,26.4375,25.5625,28.625,29.9375,30.5625
1.0,-0.513813067137847,-0.5934274522794614,-1.3518477539987972,-0.03983339484321508,0.02405547206839481,-0.08758510677836485,-0.5384648587443847,-0.32452200600028414,0.2555147496282991,-3.078472216950964,0.6248085767129674,-0.0003617748478233018,-0.000594322267484773,0.0006532353328875117,-0.042141383116272885,0.002853313822992282,-0.008199206078387578,-0.0012100412968559576,0.3268120586872101,-1.147279904489853,1.6684759298907679,-2.0901390514769496,-1.5714057127581995,2.301833152770996,-0.0012805607402697206,0.05071481689810753,0.044631533324718475,-0.08666463196277618,-0.00017824101087171584,-9.309845336247236e-05,0.1149216815829277,-0.05746084079146385,-9.327810287475586,0.7195101380348206,47.69584274291992,-0.5936015844345093,-3.668339252471924,-1.371652364730835,-0.8637951612472534,-0.013945172540843487,-0.25594666600227356,25.5625,26.4375,25.5625,28.625,29.9375,30.5625
1.0,-0.5216708118521935,-1.1541259188245254,-1.4618163185188604,-0.04739804125166132,0.04186203790740639,-0.0834797291184792,-0.5384746602505908,-0.3245253395380768,0.2554486248743225,-3.078509855468023,0.624720025653276,-0.0003108371942917091,-0.0007480151967321197,0.0005819941867218212,-0.041751510840128375,0.001109662678848812,-0.003113057982759008,-0.0011864532304059516,0.3268120586872101,-1.147184119825699,1.6685364882098597,-2.0903331242003382,-1.5714057127581995,2.3017730712890625,-0.0012527069775387645,0.05015695095062256,0.04590758681297302,-0.09275955706834793,-0.00017144819139502943,-9.133950516115874e-05,0.13407529890537262,-0.038307227194309235,-9.346963882446289,0.7486078143119812,47.7164421081543,-0.5533266067504883,-3.6412386894226074,-1.5054253339767456,-0.8275336623191833,-0.001655175699852407,-0.23885342478752136,25.5625,26.4375,25.5625,28.625,29.9375,30.5625
1.0,-1.0002040365488143,-1.3764596727755014,-1.4607089150172101,-0.06260669320670131,0.048715366718857456,-0.08385225940079986,-0.5384699465400234,-0.32453285328956843,0.25534771521654526,-3.0784975732136868,0.6247754888335352,-0.0003529975029177648,-0.000932719356175418,0.0004881553984379833,-0.04163183772829995,0.00014339254444977628,-0.0003048832136751873,-0.0011427378788846556,0.3268241286277771,-1.147064135675766,1.6686447302447718,-2.0905376873412074,-1.5713933149920862,2.301821231842041,-0.0012062547029927373,0.050212133675813675,0.04634815454483032,-0.0962250754237175,-0.00016515597235411406,-9.000778663903475e-05,0.09576806426048279,0.019153613597154617,-9.346963882446289,0.7821771502494812,47.68867492675781,-0.5589215755462646,-3.6788177490234375,-1.4968403577804565,-0.8301048278808594,-0.015516029670834541,-0.23925411701202393,25.5625,26.4375,25.5625,28.625,29.9375,30.5625
1.0,-0.6885837131842152,-1.147846932236693,-1.4580756396507764,-0.07753827114532354,0.06611757312113026,-0.09449206391259005,-0.5384825082374495,-0.3245111481323454,0.2552763106012306,-3.0784712934085086,0.6248089042154142,-0.00032935945356632777,-0.0017354558061619305,0.0003304116706075507,-0.04099557062125509,-0.0026557188385732196,0.007869336629842455,-0.0013275369427595376,0.3267880380153656,-1.1469801825336,1.6687286535846155,-2.0907088718810023,-1.5714176336871546,2.301809310913086,-0.0013859937898814678,0.05034323036670685,0.046815093606710434,-0.10546331107616425,-0.000159308678121306,-8.873837214196101e-05,0.05746084079146385,0.0,-9.461885452270508,0.7172743082046509,47.70121383666992,-0.5806902647018433,-3.633214235305786,-1.5086534023284912,-0.759415328502655,-0.00774930976331234,-0.24575555324554443,25.5625,26.4375,25.5625,28.625,29.9375,30.5625
1.0,-0.6255544686962052,-1.8828395333334038,-1.6513085056369876,-0.07391776820061277,0.07239885804618437,-0.08902166438287726,-0.5384754752418538,-0.32452674892504063,0.2550753249947066,-3.078485517672963,0.6248502765065018,-0.00034734481429717935,-0.0024078193825447006,0.0003474253538723453,-0.04118709730197871,-0.005046075558733959,0.014911692366952433,-0.001710436590013626,0.32681187987327576,-1.1467402440360566,1.6689570585833948,-2.0911785564818324,-1.5713933149920862,2.3018569946289062,-0.001762686064466834,0.05115833878517151,0.048337120562791824,-0.11523737758398056,-0.00017651899543125182,-8.63068999024108e-05,0.038307227194309235,0.13407529890537262,-9.442731857299805,0.6478998064994812,47.70748519897461,-0.5578607320785522,-3.4413557052612305,-1.5284552574157715,-0.6373820304870605,0.005553295835852623,-0.2503848373889923,25.5625,26.4375,25.5625,28.625,29.9375,30.5625
1.0,-0.8076623073402556,-2.09167472221681,-1.7001955172656271,-0.06671281170176446,0.05835805486445662,-0.08120179114791916,-0.5384685755175543,-0.3245191474383368,0.2550033687179676,-3.0785314322555584,0.6248215659284144,-0.00031659439216179453,-0.002549614933021849,0.000329159909184426,-0.04097604252052973,-0.006190787946504107,0.01825265077137024,-0.0017602817820575717,0.3267999589443207,-1.1466802221587677,1.6690886656390589,-2.0914069614806117,-1.571369473134176,2.301821231842041,-0.0018096871208399534,0.05089689791202545,0.04915504530072212,-0.11932548880577087,-0.00017268206283915788,-8.514041837770492e-05,0.019153613597154617,0.24899697303771973,-9.461885452270508,0.6680382490158081,47.69584274291992,-0.5498389005661011,-3.581266164779663,-1.5463608503341675,-0.5982804298400879,-0.02022337168455124,-0.2398083359003067,25.5625,26.4375,25.5625,28.625,29.9375,30.5625
1.0,-0.5719077142271681,-1.5794377312344097,-1.6043480478054801,-0.07786118091662399,0.0552555288411214,-0.08631314988746458,-0.5384816336198491,-0.32453536612724876,0.25495012523300764,-3.0785831968270787,0.6247165023292662,-0.00012459573259665922,-0.0021622488128065823,0.00037412847720501063,-0.03966184854585387,-0.006981864482850564,0.020568673192464467,-0.001628919695308958,0.3268239498138428,-1.1465852123549958,1.6691368261920374,-2.091670652429098,-1.5714057127581995,2.3017730712890625,-0.0016765744658187032,0.048405006527900696,0.049782223999500275,-0.11990819126367569,-0.00016744456661399454,-8.400516526307911e-05,0.038307227194309235,0.2106897532939911,-9.423578262329102,0.6702793836593628,47.674346923828125,-0.5363045930862427,-3.3309683799743652,-1.5231120586395264,-0.5429138541221619,-0.0037087975069880486,-0.23839128017425537,25.5625,26.4375,25.5625,28.625,29.9375,30.5625
1.0,-0.5210147094615563,-1.0119260534601178,-1.5934082287969553,-0.07488929320610566,0.04235278896200911,-0.09022969602467104,-0.5384791193298213,-0.3245189386135186,0.2548420453310307,-3.0785389000680716,0.6248422898176208,-0.00017482707040385265,-0.0019661421066051008,0.00045903531218433264,-0.041039810346167535,-0.00560418337738375,0.016588375355542938,-0.00165298480606618,0.32679998874664307,-1.1464767915061493,1.6692798773394983,-2.0918852291502894,-1.5714057127581995,2.301833152770996,-0.0017007675487548113,0.0499727837741375,0.050236012786626816,-0.11771778017282486,-0.00018766234279610217,-8.28997726785019e-05,0.038307227194309235,0.24899697303771973,-9.442731857299805,0.7038487195968628,47.68867492675781,-0.5903196930885315,-3.399284839630127,-1.542414665222168,-0.5324945449829102,0.01402632798999548,-0.24022389948368073,25.5625,26.4375,25.5625,28.625,29.9375,30.5625
1.0,-0.11706372674203158,-0.881698064718718,-1.5825080472420976,-0.05406295677995635,0.021459216416989012,-0.08535988859952293,-0.5384778980987349,-0.32451451257194736,0.25474247024369234,-3.0785707376784575,0.624868209644555,-0.0001908182333903659,-0.001417006223940694,0.0005735016130960569,-0.04234663647592017,-0.003738698343802306,0.01110914967848919,-0.0015403287744003606,0.3267879784107208,-1.1463686388782044,1.6694119612323206,-2.092135091821188,-1.571369473134176,2.301833152770996,-0.0015889586647972465,0.05092541500926018,0.0509495884180069,-0.11359590291976929,-0.000183834636118263,-8.182312740245834e-05,-0.07661445438861847,0.24899697303771973,-9.385271072387695,0.7239871025085449,47.68867492675781,-0.5595273971557617,-3.3491082191467285,-1.5941181182861328,-0.5858081579208374,-0.005289234686642885,-0.23267993330955505,25.5625,26.4375,25.5625,28.625,29.9375,30.5625
1.0,0.2469590323830243,-0.24994498944795807,-1.4638144898189291,-0.047195957870280095,0.008930527863425058,-0.08449993157977906,-0.5385193203522509,-0.3245105557346203,0.25468369509938105,-3.0785899072719776,0.6249106214314801,-4.4613593633944486e-05,-0.0011370187595161135,0.0006806104177433633,-0.043794861787694706,-0.0021240682668484966,0.006355903866086086,-0.0015581962011314637,0.32676398754119873,-1.1462361973575135,1.6694119612323206,-2.0923615894713343,-1.5713933149920862,2.301833152770996,-0.0016072889557108283,0.052460506558418274,0.05141493305563927,-0.11057635396718979,-0.00017872678290586919,-8.077412348939106e-05,0.038307227194309235,0.15322890877723694,-9.289502143859863,0.6411817073822021,47.70121383666992,-0.5920684337615967,-3.517841339111328,-1.5315742492675781,-0.5866432189941406,-0.007674167398363352,-0.23206472396850586,25.5625,26.4375,25.5625,28.625,29.9375,30.5625
1.0,0.8668310442915521,-0.21654399073244324,-1.4910010694760256,-0.03425174214946877,0.010378530777507784,-0.09342799838584895,-0.538512657304321,-0.32453289817886266,0.25463551442273535,-3.0786758692157368,0.6248124669481081,9.155535432265359e-05,-0.001050227763436863,0.0007401090440437573,-0.04236391556510432,-0.002357955713606548,0.007039644657068804,-0.0016059314984970072,0.32679998874664307,-1.1461768311313172,1.6694954077350062,-2.092611928979391,-1.5713813940631312,2.3017969131469727,-0.001654481515288353,0.050501350313425064,0.050387583673000336,-0.10831249505281448,-0.00017380267672706395,-7.975150947459042e-05,0.15322890877723694,0.0,-9.404424667358398,0.7866488099098206,47.6949462890625,-0.5329345464706421,-3.3664283752441406,-1.4392744302749634,-0.640531063079834,-0.008182414807379246,-0.24318207800388336,25.5625,26.4375,25.5625,28.625,29.9375,30.5625
