Tylouw/Master_Thesis_Code/trial3/insertion_7_2026-01-23_13-40-26.csv
num_insertion,tcp_force_x[N],tcp_force_y[N],tcp_force_z[N],tcp_force_rx[Nm?],tcp_force_ry[Nm?],tcp_force_rz[Nm?],tcp_pose_x[m],tcp_pose_y[m],tcp_pose_z[m],tcp_pose_rx[rot_vec_x],tcp_pose_ry[rot_vec_y],tcp_pose_rz[rot_vec_z],tcp_velo_x[m/s],tcp_velo_y[m/s],tcp_velo_z[m/s],tcp_velo_rx[rot_vec_x/s],tcp_velo_ry[rot_vec_y/s],tcp_velo_rz[rot_vec_z/s],q1[rad],q2[rad],q3[rad],q4[rad],q5[rad],q6[rad],qd1[rad/s],qd2[rad/s],qd3[rad/s],qd4[rad/s],qd5[rad/s],qd6[rad/s],tool_acc_x,tool_acc_y,tool_acc_z,current_of_whole_robot[A],voltage_of_whole_robot[V],current_J1[A],current_J2[A],current_J3[A],current_J4[A],current_J5[A],current_J6[A],temp_J1[C],temp_J2[C],temp_J3[C],temp_J4[C],temp_J5[C],temp_J6[C]
1.0,0.27585274788188285,-0.08422462244427513,-0.5620184352289754,0.01239816954000801,-0.04415766280380376,-0.06081851448114701,-0.5388475044104942,-0.32446973406530194,0.2600071531806339,-3.078656386305389,0.6248400190958304,0.00010140509802575586,0.0020846878286416366,-0.00044129083854385333,0.0008254166449821098,-0.0011317688038735433,0.0036845320917054105,-0.00031521881780539017,0.3265256881713867,-1.151915119295456,1.6624029318438929,-2.0797797642149867,-1.5713813940631312,2.3015458583831787,0.0017907939618453383,-0.00458060298115015,0.00560180377215147,-0.004873289726674557,-0.00010893186117755249,0.002104052109643817,0.5363011956214905,-0.3447650372982025,-9.21288776397705,0.8023208975791931,47.68867492675781,-0.13141852617263794,-4.205510139465332,-2.690718173980713,-0.4104016423225403,0.024499423801898956,-0.16973364353179932,24.9375,25.6875,24.8125,27.4375,28.3125,28.8125
1.0,-0.09377809105085982,-0.23011250840523925,-1.082863105028738,0.03231903914677235,-0.040401488350257045,-0.05925718003105516,-0.5388489160672522,-0.3244713679131551,0.2600021063600665,-3.078657514552836,0.6247995997672493,4.5597137950648386e-05,0.00039114291108987474,-0.0007052244293522786,0.0017972179244567681,-0.0016212347297025417,0.005094241522016167,0.0009376212369310074,0.3265255391597748,-1.1519024235061188,1.6623886267291468,-2.0797440014281214,-1.571369473134176,2.301520347595215,0.0013077814364805818,-0.002489308826625347,5.009078449802473e-05,-0.0029054272454231977,-0.00010529059363761917,0.00036876025842502713,0.1149216815829277,0.038307227194309235,-9.174580574035645,0.8067978620529175,47.687782287597656,-0.16533619165420532,-4.305154800415039,-2.318983793258667,-0.39061617851257324,0.008325002156198025,-0.16513009369373322,24.9375,25.6875,24.8125,27.4375,28.3125,28.8125
1.0,-2.7395918601181743,-3.217725222476634,-1.1528516003372717,-0.07948620849565585,0.07442871383188339,-0.048801858440779965,-0.538815813517543,-0.32446898349460557,0.26000482215155474,-3.078630883599905,0.6247951761437373,-6.353507023740802e-05,0.0002934767102687543,-0.000461144294055023,0.0006514829376460814,-0.00045932144222941693,0.0016679430360306453,0.0008776055887569916,0.3265373110771179,-1.1519618791392823,1.6624487082110804,-2.0796710453429164,-1.571357552205221,2.301532745361328,0.0008804380777291954,-0.00093113660113886,9.016164703723462e-09,-0.0007956338813528419,-0.00010188506712438539,2.52771269515506e-06,-0.3256114423274994,0.3447650372982025,-9.366117477416992,0.7642692923545837,47.65553665161133,-0.19514696300029755,-3.942753314971924,-2.052367687225342,-0.499652624130249,0.018824275583028793,-0.1779167354106903,24.9375,25.6875,24.8125,27.4375,28.3125,28.8125
1.0,-3.304754165680095,-3.4771805744163524,-0.6429902769758281,-0.10361322100200465,0.12207677009235382,-0.05622222100707821,-0.5388003460989514,-0.3244858397752348,0.2599978613900151,-3.0786204620973843,0.6247551977272942,-7.522868825108177e-05,0.0023911821162145293,0.0002777390814724119,-0.0034570552190288295,0.0023596388853036484,-0.006569621156879777,0.0008466216219781192,0.32657331228256226,-1.1519615215114136,1.6624639670001429,-2.0796710453429164,-1.571369473134176,2.3015451431274414,0.0008460728568024933,-2.6021314170066034e-07,0.008070363663136959,-0.001090298406779766,-0.00011185657058376819,1.0776034287118819e-08,-0.24899697303771973,0.2106897532939911,-9.174580574035645,0.6859408020973206,47.6627082824707,-0.22552946209907532,-3.892796516418457,-2.470355987548828,-0.609078049659729,0.02807989902794361,-0.17348268628120422,24.9375,25.6875,24.8125,27.4375,28.3125,28.8125
1.0,-0.8683203243697151,-0.3403450402936627,-0.7277034069212365,0.024399781974505402,0.01710244262499869,-0.0523796510667489,-0.5388199151465103,-0.32447812598980585,0.26002986352920876,-3.0786933517921105,0.6248278189716308,0.00011851317823540373,-0.00028322226733119426,-0.00040131557259277204,-7.15982289959371e-05,-0.003634638998902521,0.01093805788139255,0.000479127019845201,0.3265731930732727,-1.1519615215114136,1.6624625364886683,-2.0798198185362757,-1.571345631276266,2.3015570640563965,0.00048470511683262885,-6.283841177436023e-13,0.0035667726770043373,-0.015092394314706326,-9.471560042584315e-05,2.9995489599088376e-12,-0.15322890877723694,0.09576806426048279,-9.097966194152832,0.6881819367408752,47.700321197509766,-0.20492416620254517,-3.7075493335723877,-1.9875702857971191,-0.5014111399650574,0.011215262115001678,-0.16703765094280243,24.9375,25.6875,24.8125,27.4375,28.3125,28.8125
1.0,-0.9260006698412424,-1.224442234081177,-0.6707256608877946,-0.02220823843254262,0.02297667639044838,-0.054839286241693166,-0.538823414149188,-0.32448455727645154,0.26001756203303306,-3.0786963378496237,0.6248284212647418,0.00020069596453511354,0.0002822176183029851,-0.00020359599041568077,-0.0018359377682940446,-0.002162531898699171,0.0066363813130778295,0.0004737803721682161,0.3265611529350281,-1.1519611042789002,1.6624630133258265,-2.079867025414938,-1.5713813940631312,2.3015689849853516,0.0004784239863511175,0.0012084029149264097,0.00558044807985425,-0.013767868280410767,-0.000101235527836252,1.2787546290415029e-14,-0.05746084079146385,-0.19153612852096558,-9.040505409240723,0.7530794739723206,47.702110290527344,-0.22264903783798218,-3.681577682495117,-1.985042691230774,-0.5344730019569397,0.01887698471546173,-0.18430981040000916,24.9375,25.6875,24.8125,27.4375,28.3125,28.8125
1.0,-0.5798555838773439,-0.6547841338200634,-0.43691580417968834,-0.016634024248947762,0.037534738644773365,-0.05947514638504531,-0.53884632379844,-0.32447279060152096,0.2599977735379802,-3.0787284309357372,0.6248543846510352,0.0001874121517001704,-8.690155828961593e-05,-0.00028234715416384295,-0.00337953469169882,-0.00145674455803975,0.004550393634430148,0.0004020533599105761,0.3265252411365509,-1.1519122582725068,1.6624506155597132,-2.079914709130758,-1.571345631276266,2.3015451431274414,0.0004064047534484416,0.0039407736621797085,0.005338994786143303,-0.014056635089218616,-0.00010163125261897221,5.451531180052769e-17,0.19153612852096558,-0.24899697303771973,-9.040505409240723,0.7665104269981384,47.681514739990234,-0.20754003524780273,-3.721688747406006,-1.8852933645248413,-0.5786471962928772,0.0016407078364863992,-0.17309316992759705,24.9375,25.6875,24.8125,27.4375,28.3125,28.8125
1.0,0.5118799132990918,0.2907883923434322,-0.751734303162829,0.028437925769655314,-0.02193555899121012,-0.06883134384101822,-0.5388135833545101,-0.32449795141286075,0.25996351326688594,-3.078709764352489,0.6247547351097098,0.00015909467258290517,8.263458598467948e-05,-0.00015207858870828082,-0.003618725462532679,-0.0018806230756050657,0.005783909841022735,0.0002891261280930248,0.3265850245952606,-1.1519003075412293,1.6625226179706019,-2.079963823358053,-1.571369473134176,2.3015451431274414,0.0002943899598903954,0.0036523411981761456,0.006852362304925919,-0.016585880890488625,-9.885447070701048e-05,2.324073273904953e-19,0.24899697303771973,-0.15322890877723694,-9.059659004211426,0.7933669090270996,47.699424743652344,-0.257363498210907,-3.5143094062805176,-1.836108684539795,-0.5439212322235107,0.008294886909425259,-0.18970230221748352,24.9375,25.6875,24.8125,27.4375,28.3125,28.8125
1.0,-0.44301267183211335,-1.2374077268524473,-0.836095560503461,-0.009926439508094442,-0.03521267602457835,-0.047262562627364564,-0.5388186054491862,-0.3244697858124963,0.25991739733090574,-3.078666317651431,0.6248609604894166,6.4075844114154e-05,0.0007232471167276088,8.958955950489089e-05,-0.00646489714409348,0.0004292788021678,-0.0009781042146863247,0.00039169796759528524,0.3265371024608612,-1.1518635016730805,1.6625836531268519,-2.079998632470602,-1.571357552205221,2.3015689849853516,0.00026029537548311055,0.006161049474030733,0.00931475032120943,-0.0144113227725029,-0.00010661307896953076,-0.0001351242244709283,0.26815059781074524,-0.038307227194309235,-9.174580574035645,0.8067978620529175,47.71196365356445,-0.25259852409362793,-3.493333339691162,-1.8326001167297363,-0.5609827041625977,0.012723840773105621,-0.19103379547595978,24.9375,25.6875,24.8125,27.4375,28.3125,28.8125
1.0,-1.1991579135229598,-2.630639668935235,-1.096553226938417,-0.040919833996337904,0.010211392536063742,-0.048469757741232654,-0.5388265498819169,-0.3244622284486555,0.2598950645486849,-3.0786243384539524,0.6248715221484158,3.3130020907146385e-05,0.0010206008753268607,0.00023236910815998033,-0.007376482750510111,0.0015607840556859265,-0.004181693366974907,0.00040690569650244073,0.32652515172958374,-1.1518272322467347,1.6625836531268519,-2.0799981556334437,-1.5713813940631312,2.3015689849853516,0.00020273055997677147,0.00682830112054944,0.00998543668538332,-0.012351874262094498,-0.00014432170428335667,-0.00020683047478087246,0.19153612852096558,0.1149216815829277,-9.21288776397705,0.7441308498382568,47.681514739990234,-0.2579123377799988,-3.430354595184326,-1.8412522077560425,-0.6103739738464355,0.024839412420988083,-0.2040250301361084,24.9375,25.6875,24.8125,27.4375,28.3125,28.8125
1.0,-0.3655120617329418,-1.6424025348394498,-0.9859613816728205,-0.05128414340016807,0.030305351243795124,-0.07132118671845059,-0.5388061233912277,-0.3244630017094383,0.2598454953124524,-3.0786211887855512,0.6247937225820693,-1.6957573654163275e-05,0.0012137299118831163,0.0003218631260454466,-0.008976018456260303,0.001999720186397062,-0.005432770862186284,0.0004016835801897031,0.3265370726585388,-1.151802734737732,1.6626809279071253,-2.080083032647604,-1.5713813940631312,2.301532745361328,0.0001691086363280192,0.008351141586899757,0.011984075419604778,-0.014547537080943584,-0.0001595104404259473,-0.00023564118600916117,0.15322890877723694,0.24899697303771973,-9.366117477416992,0.7777001857757568,47.71017074584961,-0.24344050884246826,-3.408937454223633,-1.8072173595428467,-0.6437665820121765,0.0030310330912470818,-0.203019380569458,24.9375,25.6875,24.8125,27.4375,28.3125,28.8125
1.0,-0.9494858792113567,-2.6991161121504756,-1.3417338407452686,-0.03809737948138944,0.001061751177319938,-0.04028207716556352,-0.5388026278767171,-0.3244474985924604,0.25982634138646266,-3.0786006184672576,0.6248860662036395,-5.888390945855698e-05,0.0011076622679024495,0.00029565444956046856,-0.010288949067193777,0.0018530522997167612,-0.005007154955324251,0.00038603872875572873,0.3265131115913391,-1.1518021684936066,1.6627290884601038,-2.0801078281798304,-1.571369473134176,2.3015689849853516,0.00015458292909897864,0.010048557072877884,0.013399330899119377,-0.018110375851392746,-0.00016264652367681265,-0.00023553601931780577,0.15322890877723694,0.28730419278144836,-9.289502143859863,0.7687462568283081,47.702110290527344,-0.21189820766448975,-3.3441731929779053,-1.7829548120498657,-0.6368843913078308,0.024689115583896637,-0.21251051127910614,24.9375,25.6875,24.8125,27.4375,28.3125,28.8125
1.0,-1.1607746977993667,-2.66756943402242,-1.0117350811890773,-0.05085015559143589,0.0032250948616629298,-0.05834438529815302,-0.5387793447909862,-0.3244629304911886,0.2597483482799273,-3.0785788627864212,0.6247853681316161,-0.00017051344616808082,0.0008452190421805017,0.00023345391862851004,-0.010719063780521745,0.0013739959127578487,-0.0030441078079942903,0.0006502041090951278,0.32654911279678345,-1.1517299574664612,1.6628244558917444,-2.080193182031149,-1.571369473134176,2.3015449047088623,0.00014235623530112207,0.010918551124632359,0.013935252092778683,-0.021528635174036026,-0.0003455231781117618,-0.0005127923213876784,0.1149216815829277,0.28730422258377075,-9.27034854888916,0.7508436441421509,47.687782287597656,-0.25592613220214844,-3.362924575805664,-1.891580581665039,-0.6473919749259949,0.00834731012582779,-0.21722817420959473,24.9375,25.6875,24.8125,27.4375,28.3125,28.8125
1.0,-1.1893713035853448,-2.11401600085746,-0.9818499215585644,-0.036727138671233436,0.0150882177174947,-0.05221566723091906,-0.538776444011886,-0.32447624703705963,0.25972356931080987,-3.078588127231574,0.6247488608966142,-0.00012882195900927663,0.0003338722877743892,7.648006032539976e-05,-0.011003768147996737,0.0007216003125575377,-0.0008333536620572954,0.0006224182512896745,0.32657307386398315,-1.1516936880401154,1.662849251423971,-2.080278059045309,-1.5713813940631312,2.3015449047088623,0.00013192275946494192,0.012141162529587746,0.01359888818114996,-0.02471771277487278,-0.0004451618005987257,-0.0004964091931469738,0.07661445438861847,0.24899697303771973,-9.289502143859863,0.8694595694541931,47.702110290527344,-0.2774658501148224,-3.37288761138916,-1.7360520362854004,-0.636655330657959,0.017380867153406143,-0.21955247223377228,24.9375,25.6875,24.8125,27.4375,28.3125,28.8125
1.0,-0.4645500956805036,-1.542265021282931,-1.0619349407675,-0.026401818072416636,0.01830404518286999,-0.0672918255858228,-0.5387738967735782,-0.32447534980940557,0.25965869644715167,-3.0785864747288447,0.6246706587252222,-0.0001755268181400245,9.055474421340088e-05,-8.177550008052403e-06,-0.011442083223033864,4.662492574528747e-05,0.0009111237648566037,0.000604874580374544,0.32657304406166077,-1.1516212087920685,1.662919823323385,-2.0803867779173792,-1.5713813940631312,2.3014962673187256,0.00012291395978536457,0.013011926785111427,0.014115430414676666,-0.02797410823404789,-0.0003721833636518568,-0.0004891090211458504,0.07661445438861847,0.19153612852096558,-9.21288776397705,0.7105615139007568,47.692256927490234,-0.24117198586463928,-3.3779711723327637,-1.786993145942688,-0.6145279407501221,0.019800681620836258,-0.22251105308532715,24.9375,25.6875,24.8125,27.4375,28.3125,28.8125
1.0,-0.9968257006770539,-1.4003942152904532,-0.9316895970046997,-0.03035133837272504,0.003746229955414567,-0.05871158394713007,-0.5387968441351152,-0.32445853925348,0.2596422716655929,-3.0785848853064324,0.6248060317710418,-7.060015474192482e-05,-0.00018031737349615606,-0.0001008024769298255,-0.012247062515107428,-0.0004362517277089898,0.0021515431415147107,0.0006348256077087972,0.32653704285621643,-1.1515848499587555,1.662933651600973,-2.0805074177184046,-1.5713933149920862,2.3015449047088623,0.0001150571188190952,0.014412185177206993,0.014749156311154366,-0.03133808821439743,-0.00031932356068864465,-0.0005281015764921904,0.038307227194309235,0.09576806426048279,-9.174580574035645,0.7060845494270325,47.7244987487793,-0.34799161553382874,-3.432216167449951,-1.7292635440826416,-0.5896956920623779,0.03004402481019497,-0.23848512768745422,24.9375,25.6875,24.8125,27.4375,28.3125,28.8125
1.0,-1.37810279384188,-1.3777987973114023,-0.986132062830663,-0.019055968379841224,0.005486851714009328,-0.05635511558068807,-0.5387881487874562,-0.32448144633160086,0.259587792987655,-3.078615055793495,0.6247346881216876,-0.00010403213293982451,-0.0004300044500354309,-0.00018555208276227543,-0.012415838866039927,-0.0010628390509199808,0.003859324757041555,0.0008011973487369099,0.32657304406166077,-1.1515127581408997,1.6629813353167933,-2.080616613427633,-1.571369473134176,2.301532506942749,0.0001081445298041217,0.014988909475505352,0.014905266463756561,-0.033889614045619965,-0.0002796158369164914,-0.0007023740326985717,0.019153613597154617,0.07661445438861847,-9.251194953918457,0.7844129800796509,47.69584274291992,-0.34376630187034607,-3.420736789703369,-1.7470213174819946,-0.5706593990325928,0.0237104594707489,-0.22630637884140015,24.9375,25.6875,24.8125,27.4375,28.3125,28.8125
1.0,-0.9538755897059972,-1.0541000362483421,-0.8609095157932756,-0.018614395728134208,0.02192750277260522,-0.06210253130379135,-0.5387954576991859,-0.3244580493698594,0.2595269503663438,-3.0785857431793575,0.624747076493123,-0.00010089846711055948,-0.000532707642462695,-0.0002197114066213214,-0.01295264454072482,-0.0014410872883491715,0.0048657660554481475,0.0015100072477432956,0.32653704285621643,-1.1514525574496766,1.663065258656637,-2.0807491741576136,-1.5713933149920862,2.3015079498291016,0.00010201513941865414,0.015738682821393013,0.01566091552376747,-0.03646990656852722,-0.000248694937909022,-0.0014182106824591756,0.1149216815829277,0.09576806426048279,-9.27034854888916,0.7239871025085449,47.6680793762207,-0.3126814067363739,-3.4099278450012207,-1.695683479309082,-0.5518731474876404,0.016968637704849243,-0.21413636207580566,24.9375,25.6875,24.8125,27.4375,28.3125,28.8125
1.0,-0.7586901171008272,-1.0174889244003666,-0.8973830947687297,-0.027338748053892466,0.03096336875813253,-0.06609472429337834,-0.5387957955632352,-0.3244619061071964,0.2594663468144326,-3.0786106435962544,0.6248111372975486,-0.00011297462519203128,-0.0007697960017309187,-0.00030355559110028754,-0.013317875925072385,-0.002071122311431971,0.006508874707973088,0.00138656589312621,0.32653704285621643,-1.1513803166202088,1.6631372610675257,-2.0809055767455042,-1.571357552205221,2.301544666290283,9.654380846768618e-05,0.016524450853466988,0.016059821471571922,-0.03941313549876213,-0.00018515637202654034,-0.0013013762654736638,0.019153613597154617,0.0,-9.346963882446289,0.831413209438324,47.72897720336914,-0.29157018661499023,-3.3990139961242676,-1.6473850011825562,-0.5187898278236389,0.008484706282615662,-0.21779048442840576,24.9375,25.6875,24.8125,27.4375,28.3125,28.8125
1.0,-1.003940793452608,-1.436389427680364,-1.1309290272290908,-0.026768704117623242,0.028414569129104346,-0.05270828549930241,-0.5388064426677159,-0.32446047561127517,0.259417337984689,-3.0785971754134778,0.6247885034605558,-1.1244514750394366e-05,-0.0006370782709904086,-0.00025652255103638034,-0.014806974991242736,-0.001695627492402369,0.005305844941202097,0.0011911923861587447,0.32654908299446106,-1.1512838763049622,1.6632455031024378,-2.0811454258360804,-1.5713813940631312,2.3014960289001465,8.93547767191194e-05,0.018074488267302513,0.01771599054336548,-0.041359543800354004,-0.00015587345114909112,-0.0011136223329231143,0.07661445438861847,0.038307227194309235,-9.28950309753418,0.7060845494270325,47.69673538208008,-0.3656722903251648,-3.3855929374694824,-1.6672637462615967,-0.4839057922363281,0.02191019058227539,-0.22052001953125,24.9375,25.6875,24.8125,27.4375,28.3125,28.8125
1.0,-1.019891468938738,-1.3609904904612729,-1.0146791789478327,-0.02440928548488338,0.02019303823849723,-0.06101270820770612,-0.5388022205122434,-0.32448338595732806,0.25933439275938724,-3.078689638774595,0.624730187120661,-6.0985604883077816e-05,-0.0005208195170027077,-0.00021529801645448531,-0.01600531619050664,-0.0011002697347755623,0.003513060476093831,0.0011661871077670472,0.32656100392341614,-1.1511995655349274,1.6632683912860315,-2.0812770328917445,-1.5713217894183558,2.3015079498291016,8.512902422808111e-05,0.01937861181795597,0.01870705559849739,-0.04176568612456322,-0.00014344741066452116,-0.0010927263647317886,0.05746084079146385,0.019153613597154617,-9.27034854888916,0.6859408020973206,47.69673538208008,-0.3747795820236206,-3.390820264816284,-1.6674257516860962,-0.4792514443397522,0.013001658953726292,-0.22617074847221375,24.9375,25.6875,24.8125,27.4375,28.3125,28.8125
1.0,-0.9584045711818119,-1.5820278119387416,-1.0728645772975587,-0.029612325505961594,0.008454405603607332,-0.057048741665242014,-0.5388101883370575,-0.3244785909235023,0.2592779426954618,-3.0786656484419046,0.6246866604460027,7.458427484448917e-05,-0.00042368761153700643,-0.00017631016718825857,-0.01705067862453518,-0.00043145196014357577,0.0012509983020881513,0.0017168771108883119,0.32656100392341614,-1.1511270862868805,1.6633413473712366,-2.081480642358297,-1.5713933149920862,2.3014838695526123,6.0967464378336444e-05,0.02058256044983864,0.019266324117779732,-0.04117237776517868,-4.85540040244814e-05,-0.0016672463389113545,0.07661445438861847,0.15322890877723694,-9.327810287475586,0.7396538853645325,47.72270965576172,-0.3643563985824585,-3.435091257095337,-1.6610422134399414,-0.4999755322933197,0.01431108359247446,-0.20463116466999054,24.9375,25.6875,24.8125,27.4375,28.3125,28.8125
1.0,-0.15627840636453283,-1.7014219185108295,-0.8831546770673137,-0.029063487528500673,0.01990501833857836,-0.06878189151876318,-0.5387975594552095,-0.32448584316119905,0.25918732974521264,-3.078635283829997,0.6247778522264923,-6.865675857643825e-05,-4.0056125944799915e-05,-4.437772100137802e-05,-0.017822536712320453,0.0003824686306713025,-0.0011546469163171572,0.0014640175267504217,0.32657304406166077,-1.1510310930064698,1.6634371916400355,-2.081587930718893,-1.571357552205221,2.3015565872192383,5.832960596308112e-05,0.020873961970210075,0.020347028970718384,-0.04000479727983475,-4.2602827306836843e-05,-0.001416404964402318,0.05746084079146385,0.038307227194309235,-9.193734169006348,0.7150384783744812,47.679718017578125,-0.3525193929672241,-3.326512336730957,-1.6715080738067627,-0.5163952708244324,0.032386597245931625,-0.20415817201137543,24.9375,25.6875,24.8125,27.4375,28.3125,28.8125
1.0,-0.3442489071284637,-1.5216425157204974,-0.8814003257627547,-0.01757849685586654,0.00646254085326752,-0.05599111352180881,-0.5388048057144622,-0.32447794287833853,0.2591086890007671,-3.0786297805108314,0.6246990894740982,-5.1814404324286226e-05,-7.570977526321943e-05,9.84495137172093e-06,-0.01938752249295793,0.0011824078301620727,-0.0035249367638405093,0.0010899171503035686,0.32656094431877136,-1.150934324865677,1.6635211149798792,-2.0817672214903773,-1.5713813940631312,2.3014960289001465,-4.412926500663161e-05,0.022922327741980553,0.02111288346350193,-0.04031738266348839,-3.891212327289395e-05,-0.0011444963747635484,0.19153612852096558,0.1149216815829277,-9.232041358947754,0.7105615139007568,47.71017074584961,-0.3940371870994568,-3.4338765144348145,-1.586385726928711,-0.5412226319313049,0.0075085898861289024,-0.21417191624641418,24.9375,25.6875,24.8125,27.4375,28.3125,28.8125
1.0,-0.37402845352326153,-1.4388354218606876,-0.9002908951862022,-0.020857911091128178,-0.007549978403757819,-0.05672553255999231,-0.5388043999224802,-0.3244738066100047,0.259058995104791,-3.078666842729386,0.6247644854232505,-3.099773846988727e-05,0.00023134326639053407,0.00012191983529189012,-0.019338161702332643,0.0010277784736505494,-0.003076318525432129,0.0009199707347278491,0.3265490233898163,-1.1508867901614686,1.6636055151568812,-2.081935545007223,-1.571345631276266,2.3015201091766357,-5.609356230706908e-05,0.022151945158839226,0.022269299253821373,-0.04117787629365921,-3.58145080099348e-05,-0.0009868750348687172,0.2106897532939911,0.1149216815829277,-9.232041358947754,0.7262282371520996,47.68867492675781,-0.40706002712249756,-3.317086935043335,-1.6797159910202026,-0.5669786930084229,0.034108951687812805,-0.20434966683387756,24.9375,25.6875,24.8125,27.4375,28.3125,28.8125
1.0,0.06480589377298457,-1.329101739701351,-0.7052580578317474,-0.027830002549656226,0.00590685370972403,-0.06771039135507631,-0.5388022837985044,-0.3244693201607481,0.25896195744999473,-3.078621939140129,0.6247362460353625,-5.387394644826042e-05,3.8497122828614705e-05,5.89579716764717e-05,-0.02060481967544149,0.0012051028149079406,-0.00361887075057762,0.0009395158879855722,0.3265490233898163,-1.1507780712893982,1.6637147108661097,-2.082115789453024,-1.5713813940631312,2.3015081882476807,-6.048160867067054e-05,0.024096420034766197,0.022882875055074692,-0.04316521808505058,-3.317385562695563e-05,-0.00101125065702945,0.24899697303771973,0.09576806426048279,-9.232041358947754,0.7665104269981384,47.687782287597656,-0.3898794651031494,-3.367417335510254,-1.6616578102111816,-0.5998418927192688,0.021190349012613297,-0.2072809338569641,24.9375,25.6875,24.8125,27.4375,28.3125,28.8125
1.0,-0.6781825639246732,-1.6207461934242764,-0.8668168471675037,-0.024547064394937385,1.3356109625555987e-05,-0.06078135816006093,-0.5388267524361334,-0.32444777618723125,0.258877610677952,-3.0786015864402514,0.6248277305142769,-9.660357995573368e-05,6.19556199700274e-05,6.513346310526167e-05,-0.02141057861808835,0.0021438108819898634,-0.006385590167313753,0.001356808934375389,0.32650110125541687,-1.1506578785232087,1.6637733618365687,-2.0822702846922816,-1.571369473134176,2.3015198707580566,-5.788941780338064e-05,0.025249456986784935,0.02265303209424019,-0.041166841983795166,-3.0895982490619645e-05,-0.0014249901287257671,0.2298433631658554,0.26815059781074524,-9.251194953918457,0.7239871025085449,47.685096740722656,-0.4301839768886566,-3.4006197452545166,-1.5987663269042969,-0.6494511365890503,0.014923552051186562,-0.22170624136924744,24.9375,25.6875,24.8125,27.4375,28.3125,28.8125
1.0,-0.8754099959891546,-1.5200730830713578,-0.847875296724486,-0.031035094379333737,0.002419669024115818,-0.06097906824252658,-0.5388032892578102,-0.32447088675170294,0.2587846878523363,-3.0785941833024832,0.6247112560539617,-0.00017906469180125289,0.0004886132453099158,0.0002089527949621079,-0.022613941981961087,0.00238269010551733,-0.007095984283283606,0.0012491393664987075,0.3265490233898163,-1.1505619150451203,1.6638830343829554,-2.0824152431883753,-1.571369473134176,2.3014960289001465,-5.5509080993942916e-05,0.025795169174671173,0.025137264281511307,-0.04344729706645012,-2.8910730179632083e-05,-0.0013155275955796242,0.15322890877723694,0.13407528400421143,-9.155426979064941,0.6993717551231384,47.700321197509766,-0.43630844354629517,-3.4277026653289795,-1.652090072631836,-0.703137993812561,0.01843550242483616,-0.20200800895690918,24.9375,25.6875,24.8125,27.4375,28.3125,28.8125
1.0,-0.9849927120061883,-1.2271281058239332,-0.7299040360775588,-0.04250252528588437,0.014145592352856983,-0.0669347389844727,-0.5388075523029648,-0.3244555175637509,0.2587047245503183,-3.0785808326997763,0.6247278988968985,-0.00016892348964628478,0.00044937509850126754,0.00020424951161325482,-0.023275946781962317,0.0021740975870708722,-0.0064971305281508705,0.0011180924134759416,0.3265250623226166,-1.1504776638797303,1.663990322743551,-2.082607408563131,-1.5713813940631312,2.3014841079711914,-6.900999142089859e-05,0.02659173496067524,0.0260627344250679,-0.045803457498550415,-2.7165309802512638e-05,-0.0011987237958237529,0.09576806426048279,0.17238251864910126,-9.155426979064941,0.6904177665710449,47.703006744384766,-0.45500555634498596,-3.419707775115967,-1.6702234745025635,-0.7109969258308411,0.02338837832212448,-0.20652157068252563,24.9375,25.6875,24.8125,27.4375,28.3125,28.8125
1.0,-1.3677993535574224,-1.5534950384234374,-0.858157164098332,-0.014992389210256356,-0.00245229488272302,-0.055083699104607066,-0.5388050301633249,-0.3244623806888515,0.2585790562287846,-3.078550550685448,0.6246648679675253,-0.00028350705624714345,0.0005274225045436695,0.00023040162933302065,-0.024122335627990186,0.0024451504215640216,-0.007302988790952075,0.0009148856853679286,0.32653698325157166,-1.1503213805011292,1.664098087941305,-2.082787176171774,-1.5713813940631312,2.3014605045318604,-6.838795525254682e-05,0.02749350294470787,0.02693675272166729,-0.04672899469733238,-2.561870132922195e-05,-0.0009950458770617843,0.15322890877723694,0.07661445438861847,-9.21288776397705,0.8090336918830872,47.71733474731445,-0.4594823718070984,-3.353426456451416,-1.603943109512329,-0.8080364465713501,0.016116147860884666,-0.19710657000541687,24.9375,25.6875,24.8125,27.4375,28.3125,28.8125
1.0,-0.9760756196014095,-1.4138692689870869,-0.7891478189230117,-0.025421484945471348,0.025903448824573905,-0.06233439174418318,-0.5387961061456656,-0.3244658917280973,0.2584697846415953,-3.0785034083552083,0.6246933477637673,-0.0003562073768982056,0.00011580547492759738,8.849389649273117e-05,-0.02498281186990582,0.0019323474033968498,-0.005818009414630836,0.0007036777562414061,0.3265490233898163,-1.1502008599093934,1.6642187277423304,-2.0829678974547328,-1.5713933149920862,2.3014962673187256,-6.58850694890134e-05,0.029261985793709755,0.02725251391530037,-0.05038422718644142,-2.4238663172582164e-05,-0.000782517425250262,0.019153613597154617,0.09576806426048279,-9.155426979064941,0.7486078143119812,47.71733474731445,-0.44725024700164795,-3.402024269104004,-1.600365400314331,-0.8024865388870239,0.020176731050014496,-0.21373693645000458,24.9375,25.6875,24.8125,27.4375,28.3125,28.8125
1.0,-0.9729286476168688,-1.583463814898992,-0.814268813657818,-0.027866296921234705,0.03411633399565313,-0.061034526698077005,-0.5387887677362819,-0.3244826826516747,0.25834305565375004,-3.078523845232388,0.6246019490207595,-0.00046369440091907676,6.052622353534161e-05,6.805782283585033e-05,-0.02525631879266264,0.0011478045224762444,-0.0035254296839320573,0.0004611825996743813,0.326572984457016,-1.150045023565628,1.6643379370318812,-2.083184858361715,-1.571357552205221,2.3014605045318604,-6.355882942443714e-05,0.029500706121325493,0.02840433642268181,-0.05419781059026718,-2.29997585847741e-05,-0.0005391024169512093,0.019153613597154617,0.1149216815829277,-9.27034854888916,0.7575564384460449,47.67524337768555,-0.507907509803772,-3.418865203857422,-1.6523451805114746,-0.8365046977996826,0.018408218398690224,-0.18244406580924988,24.9375,25.6875,24.8125,27.4375,28.3125,28.8125
1.0,-1.1535657539958235,-1.0991949591673618,-0.8542732433270573,-0.036876974469728964,0.03442067448190577,-0.06814080955569861,-0.5387963071622776,-0.32445810914654066,0.25824940212756,-3.0784778452433867,0.6247076424574132,-0.00041785444522569035,-0.0005554033400405699,-0.0001412041231342374,-0.02523435166472607,-0.0010576730142848312,0.0029893213363670775,0.00043038088544207704,0.32653698325157166,-1.1499488216689606,1.6644709745990198,-2.0834270916380824,-1.5713933149920862,2.3014962673187256,-6.139110337244347e-05,0.030215905979275703,0.02927307039499283,-0.06265965104103088,-4.229830301483162e-05,-0.0005093506188131869,0.0,0.13407529890537262,-9.308655738830566,0.7329410910606384,47.70927429199219,-0.47319382429122925,-3.4072070121765137,-1.6325736045837402,-0.7897834181785583,-0.001580104697495699,-0.1947142779827118,24.9375,25.6875,24.8125,27.4375,28.3125,28.8125
1.0,-1.2581237436783137,-1.4638471164935505,-0.9641092559493484,-0.040816651914893406,0.03423338035405192,-0.05763875622083427,-0.5387969565813938,-0.32447637553536424,0.2581489883591309,-3.078533074990007,0.6246615506118196,-0.0003723382147342677,-0.0006797450537079743,-0.00018475717447072033,-0.02667673995770878,-0.0012849022235694582,0.0036381127769185054,0.00042637925603507254,0.32656094431877136,-1.149816320543625,1.664579216633932,-2.0837155781187953,-1.571369473134176,2.3014843463897705,-5.93669647059869e-05,0.032117195427417755,0.030835194513201714,-0.06681045889854431,-4.1727005736902356e-05,-0.0005045667639933527,0.0,0.07661445438861847,-9.27034854888916,0.7396538853645325,47.70121383666992,-0.48631760478019714,-3.4279327392578125,-1.6681853532791138,-0.7758458256721497,0.009500032290816307,-0.19873912632465363,24.9375,25.6875,24.8125,27.4375,28.3125,28.8125
1.0,-1.2902563542810255,-1.645670811249515,-1.1071931265982768,-0.0435556890030757,0.036048450470526926,-0.062518196862293,-0.5387946703556181,-0.32447959968609735,0.2580527384425804,-3.0785382439148483,0.6246051449622771,-0.0002770135589564113,-0.0009284338551641435,-0.0002614449402210511,-0.027794602251866075,-0.0024916926331262357,0.0071550118398806236,0.0004037871466496665,0.326572984457016,-1.1497077208808442,1.6647117773639124,-2.084005971948141,-1.5714057127581995,2.3014605045318604,-7.18360606697388e-05,0.03363429754972458,0.032912205904722214,-0.07412277162075043,-3.988376192864962e-05,-0.0004969857400283217,0.09576806426048279,0.13407529890537262,-9.385271072387695,0.7105615139007568,47.67792892456055,-0.5298126935958862,-3.540940284729004,-1.7330551147460938,-0.6972059011459351,0.010631736367940903,-0.20030081272125244,24.9375,25.6875,24.8125,27.4375,28.3125,28.8125
1.0,-0.9642439386038716,-1.8646307041618289,-1.1716866459738942,-0.03072645950232714,0.03393085430454908,-0.061015355171051125,-0.5388150482581539,-0.32446568054847846,0.257942992957051,-3.0785689402397987,0.6246884419623863,-0.00022855141918424866,-0.0014380819619821336,-0.00036715856698072986,-0.02753354658511452,-0.004444344185242072,0.012869291278127092,0.00023920569908437444,0.32653695344924927,-1.1495638650706788,1.6648309866534632,-2.0843192539610804,-1.5713813940631312,2.3014724254608154,-0.00017674108676146716,0.03384571522474289,0.03359619155526161,-0.08105684816837311,-3.819123958237469e-05,-0.0004400595498736948,0.038307227194309235,0.13407529890537262,-9.385271072387695,0.7418897151947021,47.6734504699707,-0.4992679953575134,-3.5458226203918457,-1.7732415199279785,-0.6095074415206909,0.00952337309718132,-0.2032594084739685,24.9375,25.6875,24.8125,27.4375,28.3125,28.8125
1.0,-1.0467344329337998,-1.6117094980114213,-1.0486808459061792,-0.04026892567894038,0.019508207231543853,-0.05486477910383586,-0.5388073888270564,-0.32448518325802117,0.257839740029777,-3.0786113055469686,0.6246394942287512,-0.00010706823504409428,-0.001093171221716121,-0.00022106834036262273,-0.029689970877931945,-0.0034213051573408902,0.009848234838217337,0.00014103646226289938,0.3265608847141266,-1.1493472915938874,1.6650236288653772,-2.0848218403258265,-1.571357552205221,2.3014724254608154,-0.00022066452947910875,0.035884808748960495,0.0359155610203743,-0.0822257250547409,-3.590577398426831e-05,-0.0003857552073895931,0.13407529890537262,0.13407528400421143,-9.289502143859863,0.7597975730895996,47.70121383666992,-0.5495438575744629,-3.5164504051208496,-1.780832052230835,-0.5170737504959106,0.01497260108590126,-0.20029079914093018,24.9375,25.6875,24.8125,27.4375,28.3125,28.8125
1.0,-0.4892822908686611,-1.1859955696629128,-0.9077444665050551,-0.013922164189515869,-0.003959550546795008,-0.05719337337182105,-0.5388302325819212,-0.3244630482884817,0.25763479181015747,-3.078622234656681,0.6247188301987135,-7.503702407410425e-05,-0.0008002526489905516,-0.00011036930836970236,-0.032294276697070155,-0.0006372976889930314,0.0016650854551666556,0.00013584982501923463,0.3265250027179718,-1.1491903227618714,1.665203873311178,-2.085179468194479,-1.5713813940631312,2.3014724254608154,-0.00023705737839918584,0.03905688226222992,0.03624456375837326,-0.0770830437541008,-3.452818054938689e-05,-0.00039433734491467476,0.17238251864910126,0.0,-9.27034854888916,0.7665104269981384,47.66986846923828,-0.6307535767555237,-3.691129684448242,-1.7814582586288452,-0.528611421585083,0.00404759356752038,-0.20965132117271423,24.9375,25.6875,24.8125,27.4375,28.3125,28.8125
1.0,-0.09179006851879545,-0.8009737298606308,-0.6388798272833369,-0.008695772067147358,-0.009291587124759318,-0.0698426756992238,-0.538845063871933,-0.32446016951889134,0.25752021908348466,-3.0786336615613616,0.6247217116759883,-4.463998771600136e-05,-0.00011302488567032342,0.00043497944951014915,-0.031781946644086,6.079264646466211e-05,-0.000368058798163582,-0.0003620289247269328,0.32651281356811523,-1.1490351122668763,1.6653121153460901,-2.0854655704894007,-1.5713813940631312,2.3014605045318604,-0.0007165652932599187,0.03683668002486229,0.03747004270553589,-0.07393867522478104,-3.325250872876495e-05,-0.0003749177267309278,0.2298433631658554,0.038307227194309235,-9.117119789123535,0.7709873914718628,47.692256927490234,-0.5273577570915222,-3.5921285152435303,-1.747789978981018,-0.5738439559936523,0.01595417782664299,-0.19197914004325867,24.9375,25.6875,24.8125,27.4375,28.3125,28.8125
1.0,-0.23244649255093813,-0.9443088852250889,-0.5558597932296432,-0.010954271106000195,-0.009392214922376447,-0.06235745077577707,-0.5388533290347074,-0.3244409204147507,0.257427406138129,-3.0786543795061427,0.6248218205309739,2.549130900497518e-05,0.00032660128305788614,0.0005746077654208256,-0.03400708667206067,0.001855126823560253,-0.005646254788791521,-0.0003372487300159652,0.32647693157196045,-1.1489385229400177,1.6654556433307093,-2.085764547387594,-1.571369473134176,2.3014843463897705,-0.0007006649975664914,0.03899632766842842,0.0391111895442009,-0.0721646100282669,-3.206769542885013e-05,-0.00038256298284977674,0.26815059781074524,0.0,-9.002198219299316,0.7374180555343628,47.71733474731445,-0.5650300979614258,-3.636059284210205,-1.8294880390167236,-0.6011477112770081,0.016262194141745567,-0.2022954821586609,24.9375,25.6875,24.8125,27.4375,28.3125,28.8125
1.0,-0.30767466398786025,-1.267073848051686,-0.7047393972992876,-9.794328322811768e-05,-0.014835293858803018,-0.05854766712395299,-0.5388282348395836,-0.3244711518698106,0.2572773227263351,-3.078646242085382,0.6247053952579125,-5.9459399589855034e-05,0.0003243667117329885,0.0007126485634736695,-0.0353020617234053,0.003262932484148387,-0.009762472642363148,-0.0005004808504687,0.3265366852283478,-1.1487702590278168,1.6656234900103968,-2.0860382519164027,-1.571369473134176,2.3014724254608154,-0.0009130631806328893,0.04076895862817764,0.03896849602460861,-0.06944423913955688,-3.858664786093868e-05,-0.00043034847476519644,0.24899697303771973,-0.019153613597154617,-8.944737434387207,0.7642692923545837,47.70658874511719,-0.5612692832946777,-3.6708950996398926,-1.6840572357177734,-0.6487399935722351,0.016900520771741867,-0.1958949863910675,24.9375,25.6875,24.8125,27.4375,28.3125,28.8125
1.0,-0.23121019159895084,-1.1191375384480389,-0.47631624044516774,-0.011341298563681516,-0.0177302104597999,-0.05682554653814326,-0.5388413472183591,-0.32446007796511006,0.25713634703766164,-3.0786251106585993,0.6247204168244849,-0.00010847515390788911,0.0010301770189284323,0.0008779607725771595,-0.035114097197842864,0.0034726389550389244,-0.010347159530422492,-0.0003822766466648989,0.32651278376579285,-1.148590849047043,1.665755573903219,-2.086313863793844,-1.571369473134176,2.3014605045318604,-0.0007963454117998481,0.039176423102617264,0.040646594017744064,-0.06890871375799179,-4.486828765948303e-05,-0.00043168923002667725,0.3064578175544739,0.019153613597154617,-8.925583839416504,0.7127973437309265,47.71554183959961,-0.5784103274345398,-3.495744228363037,-1.7999370098114014,-0.7269809246063232,0.007271960377693176,-0.20527955889701843,24.9375,25.6875,24.8125,27.4375,28.3125,28.8125
1.0,0.009981850484091448,-0.9888831407339764,-0.4903683270272197,-0.024542131257112316,-0.0066666557477101495,-0.06066120246359079,-0.5388252303650364,-0.3244468215573971,0.25697255357700144,-3.0785735007650383,0.6247291406895884,-0.00024093564577181006,0.0009023063674401042,0.0008041792336108189,-0.03603838846386932,0.004217260219355093,-0.012545569498693732,-0.0003909180460532844,0.32650086283683777,-1.148434267645218,1.6659711042987269,-2.086588521996969,-1.571369473134176,2.3014605045318604,-0.0007499271887354553,0.04079791158437729,0.04024072363972664,-0.06780323386192322,-4.345625711721368e-05,-0.0003759728278964758,0.24899697303771973,0.15322890877723694,-9.002198219299316,0.7821771502494812,47.70838165283203,-0.633948802947998,-3.6102705001831055,-1.7778515815734863,-0.7994658946990967,0.010092345997691154,-0.1983826756477356,24.9375,25.6875,24.8125,27.4375,28.3125,28.8125
1.0,-0.9784273940052155,-1.5856795464930515,-0.7130536070706878,-0.04314121195438624,0.012353299164354887,-0.06069693240312327,-0.5388190722886531,-0.3244511768884623,0.25684810356203946,-3.078547126081691,0.6246856797031293,-0.0002976158300943188,0.0010850077458664556,0.0009384425147318795,-0.036770439679964545,0.003670873711726292,-0.010951503759775702,-0.0004962340799149565,0.32651275396347046,-1.1482903224280854,1.6661046187030237,-2.0868174038329066,-1.5713813940631312,2.3014485836029053,-0.000860860978718847,0.04105254262685776,0.04250330105423927,-0.07200555503368378,-4.210113183944486e-05,-0.0003830466012004763,0.13407529890537262,0.17238251864910126,-9.155426979064941,0.6859408020973206,47.645687103271484,-0.5735766291618347,-3.5972671508789062,-1.8744964599609375,-0.817502498626709,0.005119281820952892,-0.19039690494537354,24.9375,25.6875,24.8125,27.4375,28.3125,28.8125
1.0,-1.4178513144227893,-2.018029888182858,-0.8281990790092918,-0.0546437550334239,0.032494516886823505,-0.06521068266036878,-0.5388274660529567,-0.3244436674849699,0.2567118543749155,-3.078518729789441,0.624699232662757,-0.00029079323894121953,0.00015634141198836196,0.0008043673475082268,-0.03671659508763544,0.001456251621079264,-0.004434015047573599,-0.0007943305545591972,0.3265007436275482,-1.1481220883182068,1.6662476698504847,-2.0871197185912074,-1.5714057127581995,2.3014485836029053,-0.0011396977351978421,0.042227864265441895,0.042589470744132996,-0.08015049993991852,-5.4377342166844755e-05,-0.0003669433936011046,0.09576806426048279,0.28730422258377075,-9.155426979064941,0.7060845494270325,47.71017074584961,-0.5831490159034729,-3.5593655109405518,-1.8083953857421875,-0.8131191730499268,0.0063698627054691315,-0.187824547290802,24.9375,25.6875,24.8125,27.4375,28.3125,28.8125
1.0,-1.8464185607168282,-2.752534982377954,-1.1971967377814983,-0.043334105873759264,0.026947515668151095,-0.05773212921163258,-0.53881950168456,-0.32442920629866423,0.2565182732165893,-3.0784860791453657,0.6247502224516719,-0.0004638585532660017,-0.0003293790103459534,0.0005155952737368713,-0.03742092360881802,-0.0005005636997435827,0.0012825325609932589,-0.0006214683565187318,0.3264768421649933,-1.1479177635959168,1.666476074849264,-2.0874463520445765,-1.571369473134176,2.3014605045318604,-0.0009499661391600966,0.04374481365084648,0.04414309188723564,-0.08926323801279068,-5.283891732688062e-05,-0.0003534459392540157,-0.019153613597154617,0.24899697303771973,-9.251194953918457,0.7329410910606384,47.71375274658203,-0.6146475672721863,-3.5553739070892334,-1.8561662435531616,-0.7485246658325195,-0.005676495376974344,-0.19871647655963898,24.9375,25.6875,24.8125,27.4375,28.3125,28.8125
1.0,-1.9033383631884093,-2.723025526088567,-1.1889733013503256,-0.05086179356359541,0.040272157034551906,-0.05658404456456307,-0.5388298031697873,-0.3244379540621904,0.2563669492230414,-3.0784829904535003,0.6247309344400601,-0.00040971684671106543,-0.000865451370754952,0.00025754533846843343,-0.037434388356594614,-0.0028189292393213626,0.008065331754929744,-0.0005247711881944087,0.32648879289627075,-1.1477137070945282,1.666619602833883,-2.0878201923766078,-1.5713933149920862,2.3014607429504395,-0.0008340526837855577,0.044406235218048096,0.04528721794486046,-0.09823685884475708,-5.13323066115845e-05,-0.00033773938775993884,0.05746084079146385,0.2298433631658554,-9.442731857299805,0.7284641265869141,47.6949462890625,-0.614990234375,-3.604515790939331,-1.8304585218429565,-0.6667559146881104,0.0056101372465491295,-0.20222437381744385,24.9375,25.6875,24.8125,27.4375,28.3125,28.8125
1.0,-1.6030799626776975,-2.2798475165412304,-1.5257215851186539,-0.03993130971353159,0.03739369080007972,-0.055840555935647684,-0.5388164100790627,-0.3244527380037807,0.25622172465754733,-3.0785486480019046,0.6246865228093343,-0.00037316283195840496,-0.0011341653352642843,3.279853072055729e-05,-0.038198415043259694,-0.0037065168086054014,0.010649853029648014,-0.0003117608841856825,0.3265128433704376,-1.1475573045066376,1.666823689137594,-2.088228841821188,-1.571357552205221,2.3014485836029053,-0.0006290534511208534,0.045820124447345734,0.04620364308357239,-0.10329984128475189,-4.9909012886928394e-05,-0.00034754929947666824,-0.019153613597154617,0.19153612852096558,-9.442731857299805,0.8045620322227478,47.71017074584961,-0.6595326662063599,-3.6610546112060547,-1.9021024703979492,-0.5666134357452393,0.0030006675515323877,-0.20687296986579895,24.9375,25.6875,24.8125,27.4375,28.3125,28.8125
1.0,-0.8104374467150478,-1.6485394234857484,-1.3953820004427517,-0.02140596528720544,0.023473367207189257,-0.05925980346891608,-0.5388168934886782,-0.3244438866991587,0.25605009198432926,-3.0785324196819137,0.6247407043538571,-0.0003513915758023822,-0.0009061941722067456,0.00012538409956037804,-0.03948811838653001,-0.0021618468175304832,0.006109553338210277,-0.00031779405740270026,0.32650092244148254,-1.1473649603179474,1.66703969637026,-2.088646551171774,-1.571369473134176,2.3014724254608154,-0.0006519741145893931,0.047274816781282425,0.04639985412359238,-0.10015488415956497,-4.860573972109705e-05,-0.00036291388096287847,0.0,0.07661445438861847,-9.461885452270508,0.7418897151947021,47.703006744384766,-0.6516967415809631,-3.729551315307617,-1.8792870044708252,-0.5737104415893555,0.004126310348510742,-0.20932698249816895,24.9375,25.6875,24.8125,27.4375,28.3125,28.8125
1.0,-0.3502904609125864,-1.0443858491256073,-1.3231755981431712,0.0016565819186907826,0.0032686968415956757,-0.06789316657526935,-0.5388324962336769,-0.32445684360428634,0.25588829521910095,-3.0785739241195436,0.6246532259799175,-0.00029067680288957066,-0.0007080166499273698,0.0003525286799145728,-0.0404208657289015,-3.787787235933662e-05,-3.359380552277359e-05,-0.0005455208191731426,0.32651272416114807,-1.147136853342392,1.6671832243548792,-2.0890633068480433,-1.571369473134176,2.301424264907837,-0.0008930533076636493,0.04836532846093178,0.04559536650776863,-0.09394095838069916,-7.69028119975701e-05,-0.00037358884583227336,0.1149216741323471,-0.038307227194309235,-9.346963882446289,0.7217512726783752,47.699424743652344,-0.6647775173187256,-3.703550338745117,-1.778972864151001,-0.6358500719070435,0.00021534340339712799,-0.19118013978004456,24.9375,25.6875,24.8125,27.4375,28.3125,28.8125
1.0,-0.6186588857329041,-0.7732052908620346,-1.1209992997496405,0.008867279492283636,-0.014305644613049404,-0.05329053577887638,-0.53882708657654,-0.32445897590843775,0.2557284593163158,-3.078543076018608,0.6247049990872924,-0.00023289579789727668,9.86405035420008e-05,0.0007324076893434427,-0.041604398338033886,0.001998134115173444,-0.006007580023412828,-0.0005717474001447791,0.3265247344970703,-1.1469567877105256,1.667386833821432,-2.089468618432516,-1.5714057127581995,2.3014724254608154,-0.0010549570433795452,0.04847501218318939,0.04706999659538269,-0.08921390771865845,-7.448488031513989e-05,-0.0005071492050774395,0.2106897532939911,-0.26815059781074524,-9.385271072387695,0.7486078143119812,47.70838165283203,-0.675853967666626,-3.701089382171631,-1.9260553121566772,-0.7135711908340454,-0.00046223681420087814,-0.19348882138729095,24.9375,25.6875,24.8125,27.4375,28.3125,28.8125
1.0,-0.15922803752136094,-0.4465801989650335,-1.158047664272527,0.0006638936705612481,0.007550860889306227,-0.06537106090598507,-0.5388419819762771,-0.32443663076176943,0.2555588191680752,-3.0785517387925565,0.6247259057522432,-0.0003133205361030893,0.00028367626141377107,0.0010308842248587396,-0.04192785832307682,0.003203546506040195,-0.009548474571584807,-0.0009434539244129428,0.32647669315338135,-1.1467530888370057,1.6675661245929163,-2.089813848535055,-1.571369473134176,2.301436185836792,-0.0014178997371345758,0.04855694994330406,0.04681094363331795,-0.08529632538557053,-7.209861360024661e-05,-0.0004967975546605885,0.19153612852096558,-0.17238251864910126,-9.327810287475586,0.7956027388572693,47.702110290527344,-0.6104987859725952,-3.56591796875,-1.6929638385772705,-0.800325870513916,-0.00508768018335104,-0.18112164735794067,24.9375,25.6875,24.8125,27.4375,28.3125,28.8125
1.0,-1.139617054830972,-0.990202298847241,-1.3187683044942047,-0.02365688853617504,0.006079830401178848,-0.0584708167016503,-0.5388417846879232,-0.3244353010698673,0.2553356311357412,-3.078531867836916,0.6247220084588644,-0.00033270445654601325,-0.00011836805085722756,0.0007910256042719668,-0.04003324688571312,0.00026339806612310084,-0.0009286872655887142,-0.0008896103699521469,0.32647672295570374,-1.1464899641326447,1.6678178946124476,-2.0903078518309535,-1.5713813940631312,2.301436185836792,-0.0012603953946381807,0.04656512290239334,0.04693759232759476,-0.09253857284784317,-6.87920255586505e-05,-0.000396491726860404,0.17238251864910126,-0.15322890877723694,-9.385271072387695,0.7956027388572693,47.70748519897461,-0.6954832077026367,-3.400582790374756,-1.6897656917572021,-0.8575801253318787,0.006677855271846056,-0.18467161059379578,24.9375,25.6875,24.8125,27.4375,28.3125,28.8125
1.0,-1.3343755454644655,-2.106216376208907,-1.284511873691151,-0.03724762629514161,0.03380493932628385,-0.0575209495382754,-0.5388186634149301,-0.3244312785176223,0.2551413543223498,-3.078451296903912,0.6247256994115549,-0.0004315707965878989,-0.001046466688661811,0.0007093129871724088,-0.04073392285486398,-0.002197681086874309,0.006260789302209438,-0.0012485108075339815,0.32648855447769165,-1.1462973815253754,1.668070141469137,-2.090658803979391,-1.5714176336871546,2.3014605045318604,-0.0016217310912907124,0.04852720722556114,0.04826796427369118,-0.10343008488416672,-6.675125769106671e-05,-0.00040303170680999756,0.13407528400421143,0.1149216815829277,-9.461885452270508,0.8224645853042603,47.68867492675781,-0.6970764398574829,-3.44482421875,-1.67709219455719,-0.7904233932495117,-0.0009887809865176678,-0.20289723575115204,24.9375,25.6875,24.8125,27.4375,28.3125,28.8125
1.0,-1.1278933890504188,-2.4867746639284265,-1.387114786991193,-0.07076250525907715,0.06485522415888155,-0.06253971770167649,-0.5388185472068839,-0.32442460920385047,0.2549799274172374,-3.0784925447794476,0.6246765212158746,-0.0003878514820167857,-0.0017161251582065845,0.0007504945423493592,-0.03859399265602011,-0.005891728290243819,0.01712619902574339,-0.0016874770634305002,0.32647645473480225,-1.1461185079864045,1.6682856718646448,-2.091092725793356,-1.5714057127581995,2.301412343978882,-0.0020356704480946064,0.046207867562770844,0.048861559480428696,-0.11318051815032959,-7.445640949299559e-05,-0.00038239581044763327,0.019153613597154617,0.24899697303771973,-9.519346237182617,0.7463666796684265,47.737037658691406,-0.6466974020004272,-3.246060609817505,-1.643862009048462,-0.7000880241394043,-0.0008480034302920103,-0.1929219365119934,24.9375,25.6875,24.8125,27.4375,28.3125,28.8125
1.0,-1.3971887957005653,-2.977584315005756,-1.5519320669657652,-0.061805227155261794,0.05562659660192559,-0.05861081002248143,-0.5388246710378684,-0.32442671081183805,0.25481408845184217,-3.0785056616131476,0.6247373842849567,-0.00032243301867138004,-0.002184899676280911,0.0005105417002006579,-0.03968294981812972,-0.007182166380366654,0.020894996055032918,-0.0015816635215935388,0.326476514339447,-1.1459138554385682,1.6684778372394007,-2.0915380916991175,-1.5714057127581995,2.3014485836029053,-0.001911659026518464,0.04828499257564545,0.05009840056300163,-0.1204780712723732,-7.560072845080867e-05,-0.0003668159479275346,-0.07661445438861847,0.325611412525177,-9.59596061706543,0.6926589012145996,47.69584274291992,-0.6745846271514893,-3.3279876708984375,-1.6670321226119995,-0.5907425880432129,-0.008699426427483559,-0.19102923572063446,24.9375,25.6875,24.8125,27.4375,28.3125,28.8125
1.0,-0.7038874962822635,-2.1912422655565598,-1.4386003792947535,-0.05408298082371966,0.03798550291653203,-0.06725235721328064,-0.5388423181235029,-0.3244184215669627,0.25465307154192324,-3.0785587806301664,0.6247674119643144,-0.00020679717249516287,-0.0018646909485091105,0.0006612240961072816,-0.040786630777813554,-0.0053613844952427585,0.015574976694174793,-0.0016759503662590056,0.3264525234699249,-1.1457096499255677,1.6686695257769983,-2.0920268497862757,-1.5713933149920862,2.301436424255371,-0.0019742860458791256,0.04936967045068741,0.05006571486592293,-0.11590706557035446,-8.266002259915695e-05,-0.0003331076295580715,0.0,0.3064578175544739,-9.461885452270508,0.6881819367408752,47.74061965942383,-0.6833497881889343,-3.296358346939087,-1.6024413108825684,-0.5764963626861572,-0.0110124871134758,-0.17881587147712708,24.9375,25.6875,24.8125,27.4375,28.3125,28.8125
1.0,0.006938985203988113,-1.0910304103648982,-1.1549111156622953,-0.01972933770523918,0.0006217402190937284,-0.06682959426093264,-0.5388605532212414,-0.3244232748739658,0.254513587850969,-3.078615798932632,0.6247602029227705,-2.3493911094247102e-05,-0.0013650611476974197,0.0009880016910708514,-0.04218677001702245,-0.0033370438738999546,0.009638057345583003,-0.0019618111664383535,0.32645246386528015,-1.145517424946167,1.6688264052020472,-2.092504163781637,-1.5714057127581995,2.301424503326416,-0.002214942593127489,0.05034380778670311,0.05088045075535774,-0.11142337322235107,-8.352487930096686e-05,-0.0002858181542251259,0.13407529890537262,0.2298433631658554,-9.385271072387695,0.7195101380348206,47.712860107421875,-0.6516319513320923,-3.326284408569336,-1.6392488479614258,-0.6414729356765747,0.0030904109589755535,-0.1859404742717743,24.9375,25.6875,24.8125,27.4375,28.3125,28.8125
1.0,-0.38396457543253093,-0.7327911891436658,-0.952803452504598,-0.009615355970201486,-0.01247606368582764,-0.06436320003260022,-0.5388657431290514,-0.3244029219952017,0.25434727189466927,-3.0786325469772957,0.6248215931979123,1.3356097861127542e-05,-0.001301993397636997,0.000985914371397031,-0.04325324576285315,-0.001643699639326521,0.004658062879056883,-0.0019061090768726927,0.3264164328575134,-1.145337091093399,1.6690529028521937,-2.092945714990133,-1.5713933149920862,2.301424503326416,-0.0021787905134260654,0.051981549710035324,0.05000779777765274,-0.10692844539880753,-8.138016710290685e-05,-0.00030336013878695667,0.19153612852096558,-0.05746084079146385,-9.21288776397705,0.7665104269981384,47.68061828613281,-0.6405383348464966,-3.277684211730957,-1.4559266567230225,-0.6791579127311707,-0.002089997287839651,-0.17985175549983978,24.9375,25.6875,24.8125,27.4375,28.3125,28.8125
1.0,0.14975937874763742,-0.1597277485138906,-0.6781968444922483,-0.008357731740026431,-0.00940225645065285,-0.06506299108149621,-0.5388627502712181,-0.3244096947425922,0.2541573938752811,-3.0786193778916155,0.6248189019930843,-2.4561165523866238e-05,-0.0003872822457507979,0.001367378762027075,-0.046580291695686865,0.0016394277863152533,-0.0049921644124707,-0.001995857147215573,0.32642847299575806,-1.145108239059784,1.6692569891559046,-2.093351026574606,-1.5713933149920862,2.301436424255371,-0.0022861151956021786,0.054775748401880264,0.052589427679777145,-0.102110855281353,-7.933075539767742e-05,-0.0003182035870850086,0.28730422258377075,-0.1149216815829277,-9.117119789123535,0.7777001857757568,47.71554183959961,-0.6681692600250244,-3.3333215713500977,-1.3973917961120605,-0.7857985496520996,-0.0009428597986698151,-0.1978105902671814,24.9375,25.6875,24.8125,27.4375,28.3125,28.8125
1.0,-0.3366051172007647,-0.6061073531431344,-0.40078609813135124,0.018250864624378412,-0.031037269556887848,-0.05319106529933757,-0.5388628551125053,-0.32440970718381545,0.25399173356869564,-3.0786502932013895,0.6248254118822889,5.8779532285814784e-05,-0.0005582266808595052,0.0013235432439108157,-0.044860533963683794,-0.00045946285896130074,0.0011692746624676622,-0.0020095355858244326,0.32642847299575806,-1.1449172657779236,1.6694734732257288,-2.0938202343382777,-1.5713933149920862,2.301436424255371,-0.0023089463356882334,0.05257728695869446,0.05278203636407852,-0.1066141352057457,-7.73819483583793e-05,-0.0003296140639577061,0.38307225704193115,-0.28730422258377075,-8.944737434387207,0.7195101380348206,47.700321197509766,-0.6429464817047119,-3.1587557792663574,-1.368032455444336,-0.8204894065856934,0.002386630978435278,-0.19809891283512115,24.9375,25.6875,24.8125,27.4375,28.3125,28.8125
1.0,-0.383033904508035,-1.0696523182013982,-0.46135088181535705,-0.01180194546684172,0.009574165252229509,-0.06321028300448854,-0.5388630926241081,-0.32441232048820584,0.25380185683408096,-3.078658822536862,0.6248268511060068,5.9945556203663635e-06,-0.0006639035643578494,0.0010974647883884464,-0.0477446174234007,-0.001078605183400238,0.0029650658250414165,-0.0016104595229289064,0.3264285624027252,-1.1446880859187623,1.669678036366598,-2.094229360620016,-1.571369473134176,2.301436185836792,-0.0020150775089859962,0.056307245045900345,0.05619249865412712,-0.11565406620502472,-8.084566798061132e-05,-0.0004376639553811401,0.24899697303771973,-0.09576806426048279,-9.040505409240723,0.7038487195968628,47.71017074584961,-0.6801406741142273,-3.282980442047119,-1.4781432151794434,-0.7501934766769409,-0.008971181698143482,-0.1969568282365799,24.9375,25.6875,24.8125,27.4375,28.3125,28.8125
1.0,-1.0454465873900118,-2.107072683224825,-0.5575814350193579,-0.04384342501519878,0.04932841802806364,-0.06438049457328203,-0.5388668803836515,-0.3243929741251103,0.2536116856046783,-3.0786008766857744,0.6248535610558398,1.585676579433696e-05,-0.001221536253334183,0.0007088823174955409,-0.045785418878658085,-0.004732863688059994,0.01369950697886467,-0.0012898035636313434,0.3264046013355255,-1.144472913151123,1.669905964528219,-2.094651838342184,-1.5714176336871546,2.301436185836792,-0.0017090009059756994,0.05448341742157936,0.05653167515993118,-0.12550882995128632,-8.427167631452903e-05,-0.0004566812713164836,0.09576806426048279,0.1149216815829277,-9.002198219299316,0.7597975730895996,47.73883056640625,-0.6521037817001343,-3.236524820327759,-1.5397214889526367,-0.6433918476104736,-0.018488384783267975,-0.1980248987674713,24.9375,25.6875,24.8125,27.4375,28.3125,28.8125
1.0,-1.6529024746763032,-2.3169540769678956,-0.588827734083662,-0.05558214838631188,0.04538930886924061,-0.0615286714700118,-0.5388622075224576,-0.3244172885974645,0.2534538732792209,-3.0787079504698593,0.6247988483879127,0.00019133299440661782,-0.0008289631791925389,0.0007655204980339402,-0.04623324372904254,-0.00533527243190987,0.01564842541526567,-0.0011638550369105676,0.32644060254096985,-1.1442811650088807,1.6701224485980433,-2.095204015771383,-1.5713933149920862,2.301424264907837,-0.001580650801770389,0.05412088707089424,0.05901631712913513,-0.1296698898077011,-0.00014349799312185496,-0.00045576581032946706,-0.07661445438861847,0.24899697303771973,-9.117119789123535,0.8135106563568115,47.74151611328125,-0.686618447303772,-3.2197251319885254,-1.7430719137191772,-0.5556333065032959,-0.010528980754315853,-0.18658027052879333,24.9375,25.6875,24.8125,27.4375,28.3125,28.8125
1.0,-0.699295116054467,-1.7729455114122927,-0.8744930402621423,-0.03720054160004042,0.028856427767434738,-0.06239751122397189,-0.5388664049632287,-0.3243875699045186,0.2532401934591362,-3.0786828955518164,0.6249480040739691,0.0002032298321654266,-9.1081992427051e-05,0.0010696854276857246,-0.04825124862357738,-0.002240224811254462,0.0066093449748850334,-0.0012457551694191804,0.32639268040657043,-1.1440528196147461,1.6704085508929651,-2.09572758297109,-1.5713933149920862,2.3014724254608154,-0.0016594750341027975,0.05573054030537605,0.05973467603325844,-0.12244360148906708,-0.00015714764595031738,-0.0004493198066484183,-0.07661445438861847,0.28730419278144836,-9.155426979064941,0.7105615139007568,47.70748519897461,-0.6583079099655151,-3.240541696548462,-1.762938141822815,-0.5704302787780762,-0.0013725999742746353,-0.1997709423303604,24.9375,25.6875,24.8125,27.4375,28.3125,28.8125
1.0,-0.9542527752054994,-1.8119659563635748,-0.8585737651783633,-0.00720013127839017,-0.005840910193722463,-0.05299232854256769,-0.5388843781128938,-0.3243715160488838,0.2530300520574001,-3.078698231813221,0.6249128103947121,0.0001856223287048133,0.0003828714075207721,0.0012364238445552857,-0.05011196254097049,0.0010752291706072686,-0.003131111882990304,-0.0012938688223625117,0.3263566493988037,-1.143788294201233,1.6706250349627894,-2.0962029896178187,-1.5713813940631312,2.301412343978882,-0.0016677721869200468,0.05783402919769287,0.05901888757944107,-0.11354203522205353,-0.00015480976435355842,-0.00040553149301558733,0.019153613597154617,0.28730419278144836,-9.059659004211426,0.7217512726783752,47.687782287597656,-0.7177700400352478,-3.361722469329834,-1.7828538417816162,-0.6555423736572266,-0.01470140926539898,-0.1896694302558899,24.9375,25.6875,24.8125,27.4375,28.3125,28.8125
1.0,-0.4432772909016126,-0.7419444763814522,-0.7828031749916443,-0.006928867532946227,-0.01044624595024243,-0.062066539832579676,-0.5388606179955493,-0.32439065805466044,0.2528439304684885,-3.078671228407417,0.6247925342665305,0.00016138327729297983,0.000604600000947807,0.0015599700037073022,-0.05117121943688793,0.003536553972975836,-0.010303649290687786,-0.0016138476005024334,0.32640448212623596,-1.1435840290835877,1.6708524862872522,-2.096595903436178,-1.5714176336871546,2.3013885021209717,-0.00204698508605361,0.05903507396578789,0.05810552462935448,-0.10624662786722183,-0.0001707383489701897,-0.00046159254270605743,0.17238251864910126,0.0,-9.059659004211426,0.7597975730895996,47.712860107421875,-0.7237191200256348,-3.4236667156219482,-1.7061431407928467,-0.7585203647613525,-0.006850907579064369,-0.20166155695915222,24.9375,25.6875,24.8125,27.4375,28.3125,28.8125
1.0,-0.09289458982013996,-0.46816706106746636,-0.7423764896373615,0.006466288373129362,-0.019757130568020708,-0.054701867916321485,-0.5388769844519031,-0.3243843703037014,0.25264961639008654,-3.07869164591015,0.6248546651711979,0.00013358172603320813,0.00028425028236462685,0.0016329919390648485,-0.051594667045762946,0.0033492967510905824,-0.00978982573935973,-0.001896835253686312,0.3263804018497467,-1.1433319312385102,1.6710432211505335,-2.097039838830465,-1.5713813940631312,2.3014004230499268,-0.0023288230877369642,0.060034286230802536,0.05801111459732056,-0.10769818723201752,-0.00016205785505007952,-0.000460959505289793,0.24899697303771973,-0.2298433631658554,-9.059659004211426,0.7418897151947021,47.693153381347656,-0.6719102263450623,-3.4659504890441895,-1.706459879875183,-0.8061670660972595,-0.0023077502846717834,-0.1812506467103958,24.9375,25.6875,24.8125,27.4375,28.3125,28.8125
1.0,-0.6719633497862696,-0.5467545188392694,-0.8955510228420884,-0.00879118691276394,-0.01904111548847147,-0.06521963898359961,-0.5388770770800448,-0.3243610908999126,0.25242275451381135,-3.078629766026184,0.6249570562915325,2.3350638342471582e-05,-0.0007125199567721697,0.001294412648348838,-0.05132993085259722,-0.0007042405451064175,0.002114910871163432,-0.001904987901647641,0.32634463906288147,-1.1429478985122223,1.6714032332049769,-2.0977031193175257,-1.5714057127581995,2.3014605045318604,-0.0023286931682378054,0.060889504849910736,0.059655651450157166,-0.12277386337518692,-0.00017184391617774963,-0.00045878809760324657,0.325611412525177,0.019153613597154617,-9.27034854888916,0.7172743082046509,47.71375274658203,-0.35808104276657104,-3.604898691177368,-1.7535018920898438,-0.677935004234314,-0.0133905578404665,-0.17558085918426514,24.9375,25.6875,24.8125,27.4375,28.3125,28.8125
1.0,-1.9373136296357318,-2.338892390843864,-1.4481675730931836,-0.05030696413264195,0.027626459920057245,-0.055275084515933534,-0.5388758558573904,-0.32435195118683385,0.25210438585524886,-3.078593957290664,0.6249683975281274,-3.073047553142133e-05,-0.0013113902949531144,0.0001488793579782572,-0.05021855448644206,-0.003227844609027704,0.009951945389832611,-0.0003686145940456464,0.32633310556411743,-1.1427078408053895,1.6716669241534632,-2.0981604061522425,-1.5713933149920862,2.301436185836792,-0.0008558692061342299,0.061238765716552734,0.058284223079681396,-0.12998361885547638,-0.00031416461570188403,-0.0005253333365544677,0.15322890877723694,0.09576806426048279,-9.461885452270508,0.7172743082046509,47.72987747192383,-0.46290457248687744,-3.589564800262451,-1.607450246810913,-0.547315239906311,-0.009881502948701382,-0.19046151638031006,24.9375,25.6875,24.8125,27.4375,28.3125,28.8125
1.0,-1.3806876280060765,-2.9037833215372504,-1.837097744584,-0.06073943292025764,0.03437993993021422,-0.0552821355618331,-0.5388709357300684,-0.32436323690733976,0.25189675226171127,-3.0785947403912277,0.6248539351040302,-1.6164001107158527e-05,4.60189677449305e-05,0.0004588984468951223,-0.05376140052108069,-0.00025851280719540776,0.00112293538107189,-0.00010579314128534049,0.32635703682899475,-1.1424553257277985,1.6718953291522425,-2.098638196984762,-1.5714176336871546,2.3013885021209717,-0.0006262527895160019,0.06353810429573059,0.06252681463956833,-0.12721073627471924,-0.00028025248320773244,-0.0005565712926909328,0.13407529890537262,0.38307225704193115,-9.481039047241211,0.6881819367408752,47.67524337768555,-0.5179765224456787,-3.730963945388794,-2.00512957572937,-0.54489666223526,-0.016340060159564018,-0.1877223402261734,24.9375,25.6875,24.8125,27.4375,28.3125,28.8125
1.0,-1.155678376292654,-2.498633586358494,-1.8900869617014,-0.050017188166221575,-0.002155634580416569,-0.05035073318926327,-0.5388582165564499,-0.32435255770580274,0.25166120612509246,-3.0785654751636935,0.6249242295371777,-9.476221940746466e-05,0.0010606850965153602,0.0005015769240254424,-0.05289479976585593,0.001294231278598408,-0.0033530608706103383,0.0003493048920670421,0.32634538412094116,-1.142204449777939,1.672194782887594,-2.099137922326559,-1.5714057127581995,2.301424264907837,-0.00015707520651631057,0.06110138073563576,0.06229999288916588,-0.11980955302715302,-0.0002988235792145133,-0.0005397438071668148,-0.038307227194309235,0.325611412525177,-9.53849983215332,0.7374180555343628,47.718231201171875,-0.5451743602752686,-3.5403189659118652,-1.9898124933242798,-0.5882921814918518,-0.011679639108479023,-0.18276914954185486,24.9375,25.6875,24.8125,27.4375,28.3125,28.8125
1.0,-0.4741627155738629,-2.1881380531704893,-1.6584950928703168,-0.03721511466980197,0.016185867960650212,-0.05687102578420348,-0.5388704527257436,-0.32434765217204387,0.25148256483531034,-3.078576306886083,0.6249076558780097,-3.9806771083060824e-05,0.001254100649130752,0.0005407726360481212,-0.05305639946371657,0.002841093360105462,-0.00784242283888262,0.00043962325493649915,0.3263333737850189,-1.1419765514186402,1.6723859945880335,-2.099590917626852,-1.5714176336871546,2.3014004230499268,-0.00011362908117007464,0.06135048344731331,0.061014045029878616,-0.1140243411064148,-0.00031389037030749023,-0.0005842805257998407,0.05746084079146385,0.3447650372982025,-9.59596061706543,0.6948947906494141,47.68867492675781,-0.5270882844924927,-3.671020269393921,-1.957737922668457,-0.6521888971328735,-0.019855797290802002,-0.19303980469703674,24.9375,25.6875,24.8125,27.4375,28.3125,28.8125
1.0,-0.5294992391751467,-1.3166932551981825,-1.3968998523527256,-0.036122506480945,0.0042462599305718145,-0.06172232978776854,-0.5388767203420423,-0.32436012863059405,0.2512815378401124,-3.078603595149388,0.6248750575310873,-6.312928922927596e-05,0.0012273935257556387,0.0005138725578239763,-0.053701862712700034,0.004567451462406305,-0.012999632215443807,0.0004592344120263745,0.32634541392326355,-1.1417122048190613,1.672577206288473,-2.100043912927145,-1.5713933149920862,2.3013885021209717,-9.070760279428214e-05,0.06270228326320648,0.059276334941387177,-0.10820005089044571,-0.0002856140199583024,-0.0005785568500868976,0.2106897532939911,0.15322890877723694,-9.461885452270508,0.6837049722671509,47.72092056274414,-0.572365939617157,-3.698282480239868,-1.8455371856689453,-0.7664734125137329,-0.013939356431365013,-0.18478655815124512,24.9375,25.6875,24.8125,27.4375,28.3125,28.8125
1.0,-0.05182506696343281,-0.9460071834954018,-1.3892018401011195,-0.000962309745132066,-0.015510920655486963,-0.06117142965807426,-0.5388678573135482,-0.32436344712642134,0.25108284841102757,-3.078588537989449,0.6248723683260844,-6.743494082891841e-05,0.0008505581856659199,0.0003767086730671978,-0.0517901647467828,0.002988428363698384,-0.008317850451317653,0.0003759486733991976,0.3263572156429291,-1.1414851409247895,1.6728161017047327,-2.100499769250387,-1.5714057127581995,2.3014004230499268,-7.548596477136016e-05,0.060873426496982574,0.057880572974681854,-0.10991626977920532,-0.000297972175758332,-0.00048126160982064903,0.3064578175544739,0.019153613597154617,-9.442731857299805,0.7597975730895996,47.7218132019043,-0.5759086012840271,-3.5987515449523926,-1.7473660707473755,-0.8027939200401306,-0.016404516994953156,-0.1875288486480713,24.9375,25.6875,24.8125,27.4375,28.3125,28.8125
1.0,-0.6932262119471289,-1.014307607392079,-1.2904637777182861,-0.014722908065657925,-0.002852375816992392,-0.06551131655547016,-0.5388587588545413,-0.3243539557600043,0.2508545007947408,-3.0785594761496617,0.6249238219162734,-0.00015703986579781906,0.00015911810104829194,0.00013171569247042678,-0.05026090685606898,0.0003504480499588017,-0.000644805511190019,0.000378589705144792,0.32634541392326355,-1.141233579521515,1.673091236745016,-2.1009680233397425,-1.5713933149920862,2.301424264907837,-6.46399857942015e-05,0.0599198192358017,0.05722042918205261,-0.11641637235879898,-0.0002762968360912055,-0.0004761449818033725,0.17238251864910126,-0.019153613597154617,-9.404424667358398,0.6747510433197021,47.71554183959961,-0.5649102926254272,-3.6272003650665283,-1.7392792701721191,-0.7490432262420654,-0.0032147460151463747,-0.1884382665157318,24.9375,25.6875,24.8125,27.4375,28.3125,28.8125
1.0,-1.537771646346851,-2.1852612975707935,-1.515524391577143,-0.02189131233923013,0.04131171042174992,-0.05405601372289075,-0.538853820623573,-0.32438329194486887,0.250689131746181,-3.078602561538979,0.6248752925379147,-7.12256450653755e-05,-0.0007275141701767538,-0.0001776915709134724,-0.04946545000155622,-0.0025098969130734443,0.007676182432740719,0.00034923610194907017,0.3263932168483734,-1.1410177511027833,1.6732705275165003,-2.101426740685934,-1.5713933149920862,2.301436185836792,-5.6519449572078884e-05,0.06019260734319687,0.05705845728516579,-0.12532606720924377,-0.0002566044859122485,-0.0004425711231306195,0.1149216815829277,0.0,-9.672574996948242,0.7418897151947021,47.744205474853516,-0.6037922501564026,-3.598865509033203,-1.7291998863220215,-0.648956298828125,-0.011679144576191902,-0.18813705444335938,24.9375,25.6875,24.8125,27.4375,28.3125,28.8125
1.0,-1.8195961891233652,-2.219279366096367,-1.4669904337930328,-0.052189875519217305,0.05124571686951317,-0.05595601459671889,-0.5388535450784119,-0.32433782037575226,0.25045990219372843,-3.078593350182817,0.6249122839681295,-0.00011468944068768701,-0.0008049886197247468,-0.00021008592012477178,-0.04802061342860312,-0.004291835072463124,0.012863634867864559,0.00032885348262731495,0.32632145285606384,-1.1407903891852875,1.6735952536212366,-2.1019541225829066,-1.5713813940631312,2.3013885021209717,-5.02119873999618e-05,0.058233920484781265,0.057406917214393616,-0.12920083105564117,-0.0002395293122390285,-0.0004178871458861977,-0.2298433631658554,0.1149216815829277,-9.730035781860352,0.7060845494270325,47.6949462890625,-0.5645306706428528,-3.5196309089660645,-1.7998768091201782,-0.5682384371757507,-0.029792021960020065,-0.18689066171646118,24.9375,25.6875,24.8125,27.4375,28.3125,28.8125
1.0,-1.0012653600763255,-1.818387942168962,-1.4802197100880372,-0.04781975139408265,0.046820006927477203,-0.061296140697876034,-0.5388609737783803,-0.32435713598124827,0.2502897404499141,-3.0786547839360168,0.6249630929918886,3.5342597553061463e-05,-0.00034736919866433497,-5.897247768936772e-05,-0.04941502456608395,-0.0022138154670077533,0.006715286580775752,0.00028463436759218176,0.32634541392326355,-1.1405621630004426,1.6737859884845179,-2.1024910412230433,-1.571369473134176,2.301436185836792,-4.5171098463470116e-05,0.0595102421939373,0.05768860876560211,-0.12426885217428207,-0.0002245845244033262,-0.00036635412834584713,-0.19153612852096558,0.2106897532939911,-9.615114212036133,0.6926589012145996,47.751365661621094,-0.6175494194030762,-3.6094653606414795,-1.6802971363067627,-0.5673221349716187,-0.024026088416576385,-0.18220539391040802,24.9375,25.6875,24.8125,27.4375,28.3125,28.8125
1.0,-0.4571832649407016,-1.264956466900854,-1.4773735301479631,-0.014233271590527001,0.02722691095506736,-0.06606933627884785,-0.5388425616884396,-0.32437157766960434,0.2500708163455875,-3.0786291177297893,0.6248624387963424,-1.3828895677688164e-05,-2.353448623573271e-05,4.705138944503242e-05,-0.048253779986788946,-0.0006933071695167875,0.002230194206086002,0.00030255165307516336,0.32638120651245117,-1.1403110784343262,1.6740368048297327,-2.10294308284902,-1.5713933149920862,2.301412343978882,-4.1050283471122384e-05,0.05786403268575668,0.05537882074713707,-0.11557707190513611,-0.0002113949303748086,-0.000377003540052101,-0.13407528400421143,0.2106897532939911,-9.53849983215332,0.6993717551231384,47.73255920410156,-0.583319365978241,-3.3861777782440186,-1.6669960021972656,-0.6388549208641052,-0.005564092192798853,-0.18182846903800964,24.9375,25.6875,24.8125,27.4375,28.3125,28.8125
1.0,-1.0387166946373476,-1.0418467661779287,-1.2712413033905985,-0.01538777049954048,0.0016529750081846527,-0.05336346526828385,-0.5388709765921574,-0.3243618741208394,0.24990169785694105,-3.0786252266377376,0.6249002030012343,0.00010702911143054946,0.000964250222492486,0.0003800863375288967,-0.04941951423684691,0.002503348986284363,-0.007177535568649739,0.00031807021407115874,0.32635724544525146,-1.1400712889483948,1.674192253743307,-2.1034065685667933,-1.5714295546161097,2.301412343978882,-3.761836342164315e-05,0.05800454318523407,0.055694580078125,-0.10609738528728485,-0.00019967016123700887,-0.0003849923668894917,0.13407529890537262,-0.019153613597154617,-9.481039047241211,0.6523714661598206,47.71017074584961,-0.5712562799453735,-3.409343719482422,-1.6390721797943115,-0.763708233833313,-0.02076055482029915,-0.1818198412656784,24.9375,25.6875,24.8125,27.4375,28.3125,28.8125
1.0,-0.5851935321765092,-0.8872589092304974,-1.0826376152657702,-0.004822317967465904,0.007705058711781845,-0.06164774245338688,-0.5388755822034972,-0.3243659199050087,0.24972137866283023,-3.078659531972747,0.6248692146489271,0.00010480344816269874,-9.806080896203986e-05,1.507297893840391e-05,-0.04767792038252603,0.0012052222059896777,-0.0034022110940084677,0.0003283384122807746,0.32635724544525146,-1.1398436290076752,1.6743829886065882,-2.103837629357809,-1.5714057127581995,2.3013885021209717,-3.471608579275198e-05,0.0579078234732151,0.05187370628118515,-0.10617205500602722,-0.000189176294952631,-0.0003929479280486703,0.26815059781074524,-0.19153612852096558,-9.366117477416992,0.7597975730895996,47.71733474731445,-0.5760968327522278,-3.3574225902557373,-1.4059408903121948,-0.8208612203598022,-0.016400299966335297,-0.1757025271654129,24.9375,25.6875,24.8125,27.4375,28.3125,28.8125
1.0,-0.628992599302985,-0.7962373926512128,-1.1364075414220547,-0.007659749557431949,0.00481379250513196,-0.05641529476195684,-0.5388758094749126,-0.32436472376930603,0.24954038491371977,-3.0786558602192353,0.6249068768372684,0.00015065800486286306,-0.0005002485244418503,-0.0001246011211854035,-0.046717038210117405,-0.0015259060885459154,0.004581003019587935,0.0004145010037000449,0.32635724544525146,-1.139628068809845,1.674598519002096,-2.104295869866842,-1.5714176336871546,2.301412343978882,-3.222962550353259e-05,0.056966494768857956,0.05296861007809639,-0.11476312577724457,-0.00017973131616599858,-0.0004804160271305591,0.19153612852096558,-0.07661445438861847,-9.308655738830566,0.7418897151947021,47.73255920410156,-0.5998644232749939,-3.3234729766845703,-1.4334112405776978,-0.7671171426773071,-0.01507679745554924,-0.1804029941558838,24.9375,25.6875,24.8125,27.4375,28.3125,28.8125
1.0,-1.0232490750377068,-1.653448288185776,-1.237477468717073,-0.03763195706931373,0.01882279938565022,-0.05803977026437594,-0.5388688967710821,-0.3243546800600246,0.24933461313645428,-3.0786470890337134,0.6248668886696754,0.00010436042934104431,-0.0012700185339583792,-0.0003890991088786022,-0.0460584912314554,-0.004573432413347016,0.013487103863544066,0.0004086178956243771,0.32634544372558594,-1.1394002002528687,1.6748507658587855,-2.1047421894469203,-1.5714176336871546,2.3013765811920166,-3.007554551004432e-05,0.05710469186306,0.0536034032702446,-0.12494920194149017,-0.00017118437972385436,-0.00047675136011093855,0.2106897532939911,0.05746084079146385,-9.461885452270508,0.8045620322227478,47.76659393310547,-0.5941817164421082,-3.3387279510498047,-1.4177184104919434,-0.6715716123580933,-0.014198612421751022,-0.1884463131427765,24.9375,25.6875,24.8125,27.4375,28.3125,28.875
1.0,-1.0543151187821893,-2.299433538519178,-1.4422766839504213,-0.060702940046967406,0.026689988973063603,-0.06510239309502414,-0.5388729222123234,-0.3243585490861447,0.24908337349635296,-3.0787504446682044,0.6248884066068936,0.0003099812902239244,-0.0010442776320665997,-0.000297920440979061,-0.04694989658808826,-0.004632746307996609,0.0136037873271839,0.00034660071048111315,0.32634541392326355,-1.1391001802733918,1.6751869360553187,-2.105544706384176,-1.5713933149920862,2.3013765811920166,-5.466835500556044e-05,0.05773424729704857,0.055347178131341934,-0.12745212018489838,-0.00015439536946360022,-0.00044020128552801907,0.07661445438861847,0.26815059781074524,-9.53849983215332,0.7172743082046509,47.699424743652344,-0.6161045432090759,-3.2792840003967285,-1.5352141857147217,-0.5413075089454651,-0.0290276687592268,-0.19161376357078552,24.9375,25.6875,24.8125,27.4375,28.3125,28.875
1.0,-0.5327736878922712,-1.7414867164904848,-1.3008227723685557,-0.04914882655872186,-0.0009618980499078514,-0.05850971436178702,-0.5388686198532648,-0.3243609176681823,0.24885375017364786,-3.078706838151386,0.6248798879406116,0.0003011983483846628,-0.00018063707520424372,-5.224787390629325e-06,-0.04875331754122586,-0.001867107422404056,0.005500969183539969,0.00035344438711558434,0.3263572156429291,-1.1388239723495026,1.6754382292376917,-2.106044908563131,-1.5714295546161097,2.3013885021209717,-5.153943857294507e-05,0.05881308391690254,0.056534647941589355,-0.12115663290023804,-0.00015870090282987803,-0.0004408867680467665,0.07661445438861847,0.24899697303771973,-9.366117477416992,0.7083203792572021,47.72808074951172,-0.5839433670043945,-3.3329153060913086,-1.5915602445602417,-0.5600134134292603,-0.011128714308142662,-0.1925238072872162,24.9375,25.6875,24.8125,27.4375,28.3125,28.875
1.0,-0.4685924377729178,-1.1842537536733373,-1.0548190708908491,-0.034685457708887625,-0.019253583761409912,-0.06457054602687101,-0.5388880507134263,-0.32435860308450415,0.24871255147305169,-3.0787593447160133,0.6249288297371371,0.0005012865147317315,0.00028339962378422256,0.00016844657861273058,-0.04953205862279602,0.0005289239924677506,-0.001477435963934738,0.00032718058454250847,0.32634541392326355,-1.138631985788681,1.675605599080221,-2.1065451107420863,-1.5714414755450647,2.3014004230499268,-7.300658762687817e-05,0.059380464255809784,0.05580771714448929,-0.11361879110336304,-0.0001745000627124682,-0.0004328398499637842,0.15322890877723694,0.26815059781074524,-9.442731857299805,0.7732232213020325,47.7164421081543,-0.6268157362937927,-3.3296327590942383,-1.600480079650879,-0.624631941318512,-0.010097488760948181,-0.175333172082901,24.9375,25.6875,24.8125,27.4375,28.3125,28.875
1.0,-0.45589562717268,-0.966409835178218,-0.7055557923709038,-0.01799876419525626,-0.016278796858396748,-0.060065377094427524,-0.5388958252651285,-0.32436372688886694,0.24851842875221308,-3.0787872639829272,0.6249156541435428,0.0004915833974075879,0.0010266721590471142,0.00041853295830463665,-0.05218605448016082,0.004197851724864457,-0.012279408474553,0.00039265876961396695,0.32634541392326355,-1.1383792918971558,1.6757977644549769,-2.106997152368063,-1.5714176336871546,2.3013885021209717,-6.93647307343781e-05,0.061973556876182556,0.056360065937042236,-0.10535619407892227,-0.00016572856111451983,-0.0004906284157186747,0.3064578175544739,0.13407529890537262,-9.117119789123535,0.6971306204795837,47.730770111083984,-0.6082772016525269,-3.4413461685180664,-1.5273280143737793,-0.7362048029899597,-0.013739019632339478,-0.1772286295890808,24.9375,25.6875,24.8125,27.4375,28.3125,28.875
1.0,0.13572769473158602,-0.5271916886718461,-0.5336992856181478,0.01141127724048293,-0.018875962574375335,-0.06007401283137842,-0.5389106350406215,-0.32435573772066023,0.24833179838823607,3.078786472584397,-0.6249350900754799,-0.0005370531156936094,0.0008440553307004227,0.0003529371708492793,-0.049733664500943874,0.0031673545643211417,-0.009263089517547082,0.00040497779650887795,0.32632145285606384,-1.1381403666785737,1.6760008970843714,-2.1074873409666957,-1.5713933149920862,2.3013765811920166,-6.597492028959095e-05,0.05918542295694351,0.05429815500974655,-0.1036936491727829,-0.00015744655684102327,-0.0004995966446585953,0.4213795065879822,-0.13407529890537262,-9.059659004211426,0.7888899445533752,47.7218132019043,-0.5279984474182129,-3.2545721530914307,-1.4662953615188599,-0.7834820747375488,-0.013123288750648499,-0.1795690953731537,24.9375,25.6875,24.8125,27.4375,28.3125,28.875
1.0,-0.26217833598503165,-0.23837487721138947,-0.37876568381474013,0.0034757529314321453,-0.009817636769103674,-0.06327077869885149,-0.5388733989167545,-0.32436625305978023,0.24811583672644233,-3.0787815434825676,0.6248769031131025,0.0003764450528380661,0.0006224615118277724,0.00027489233990364993,-0.05120198151085206,0.002193497272956914,-0.006446913526600305,0.000531899015606816,0.3263572156429291,-1.1379240316203614,1.6762765089618128,-2.107861181298727,-1.5713933149920862,2.3013765811920166,-6.290087912930176e-05,0.06125382333993912,0.05639784410595894,-0.1108415424823761,-0.00014995109813753515,-0.0006259941146709025,0.3064578175544739,-0.19153612852096558,-9.078812599182129,0.7150384783744812,47.67255783081055,-0.6387190818786621,-3.478513240814209,-1.588550090789795,-0.7490322589874268,-0.003046170575544238,-0.18407273292541504,24.9375,25.6875,24.8125,27.4375,28.3125,28.875
1.0,-1.3334644798418076,-0.9383032498748702,-0.5198256178067604,-0.024051643655173306,0.014968531253766158,-0.06816691551919536,-0.5388853054424192,-0.32436773402128344,0.24792575254792154,-3.0787957362794627,0.6248020133354306,0.00044756099996534886,-9.285234773435714e-05,4.1542112867567394e-05,-0.04936820688926217,-0.0012181509606384421,0.0035440757166644663,0.00047367273986460335,0.3263572156429291,-1.1376726788333436,1.6764681974994105,-2.108342786828512,-1.5714176336871546,2.30132794380188,-8.010197780095041e-05,0.0597451850771904,0.056397855281829834,-0.11989036202430725,-0.00014313709107227623,-0.0005892364424653351,0.2106897532939911,0.0,-9.155426979064941,0.6546126008033752,47.723602294921875,-0.5995544195175171,-3.2919764518737793,-1.556185007095337,-0.6566463112831116,-0.0021040658466517925,-0.16873785853385925,24.9375,25.6875,24.8125,27.4375,28.3125,28.875
1.0,-1.552479943048431,-1.6909196808272762,-0.8454495080810217,-0.053403797843756665,0.04301881619721302,-0.061414328225224205,-0.5388730467975932,-0.3243647826185492,0.24770978604136917,-3.078773538454245,0.6248756980086846,0.0003894298153832263,-0.00034418613616628703,-4.5034874164767695e-05,-0.04895931110319979,-0.0028808719282320612,0.008457362929224855,0.00044524689351187094,0.3263572156429291,-1.1374330681613465,1.6767328421222132,-2.1088115177550257,-1.5714057127581995,2.3013765811920166,-7.671872299397364e-05,0.05942362919449806,0.05722998082637787,-0.12558789551258087,-0.00015516928397119045,-0.0005598962306976318,0.019153613597154617,0.19153612852096558,-9.251194953918457,0.7374180555343628,47.702110290527344,-0.5805929899215698,-3.2450149059295654,-1.6078975200653076,-0.5583711266517639,-0.016938986256718636,-0.17880606651306152,24.9375,25.6875,24.8125,27.4375,28.3125,28.875
1.0,-1.1176759130305187,-1.7842845068245046,-1.0067415298720401,-0.054743741778191544,0.046813288571893874,-0.06632964642437912,-0.5388876128449962,-0.3243529890028152,0.24752975930870563,-3.0787852276458127,0.6249165101162382,0.0004773752489042034,0.00028964979204965465,0.0001683262627518455,-0.049977886883495734,-0.001520362840412482,0.004450899469535309,0.0004195778150866932,0.3263333737850189,-1.1372051698020478,1.676936451588766,-2.1093012295165003,-1.5714176336871546,2.3013765811920166,-7.358274888247252e-05,0.05969125032424927,0.05860883742570877,-0.12300322204828262,-0.00014995131641626358,-0.0005297832540236413,-0.13407529890537262,0.26815059781074524,-9.308656692504883,0.6881819367408752,47.730770111083984,-0.5588963031768799,-3.3074898719787598,-1.7209595441818237,-0.5194072723388672,-0.01158955693244934,-0.18415305018424988,24.9375,25.6875,24.8125,27.4375,28.3125,28.875
1.0,-1.3621613135103277,-2.0347645042224642,-1.1691788850372664,-0.0311382064150754,0.016734126402558037,-0.056223501449742634,-0.5388773670621505,-0.3243520251847042,0.2473259794801142,-3.078794525651832,0.6249377700475381,0.0004356864236325585,0.001269946845589862,0.0004999353694895681,-0.05305732525540592,0.0025859060284712364,-0.007626403634941426,0.0003782469002727632,0.3263333737850189,-1.136976347570755,1.6771872679339808,-2.109764715234274,-1.5713933149920862,2.3013885021209717,-7.069278944982216e-05,0.06241455674171448,0.05983326584100723,-0.11419466137886047,-0.00014395992911886424,-0.0004811256658285856,-0.07661445438861847,0.24899697303771973,-9.346963882446289,0.6568484306335449,47.7218132019043,-0.6451099514961243,-3.4101755619049072,-1.858224630355835,-0.6085351705551147,-0.018876025453209877,-0.18257658183574677,24.9375,25.6875,24.8125,27.4375,28.3125,28.875
1.0,-0.733530623703132,-0.9377636130767047,-1.0844355011179483,-0.03083226814328413,0.004092265125033991,-0.06584089151670622,-0.5388753114600852,-0.32435911730824146,0.2471131037174196,-3.078785929699654,0.6249742771689338,0.00043047143404954536,0.001970417843804786,0.0007361110252592329,-0.05289050008172815,0.004495613692902006,-0.013232556394076899,0.00037116764101786915,0.32634541392326355,-1.1367130142501374,1.6774161497699183,-2.110253473321432,-1.5713933149920862,2.301424264907837,-6.802138523198664e-05,0.06124144792556763,0.0593942366540432,-0.10666003823280334,-0.00013842456974089146,-0.0004683397419285029,0.09576806426048279,0.0,-9.308655738830566,0.7083203792572021,47.656429290771484,-0.646244466304779,-3.3760695457458496,-1.8013718128204346,-0.7153744697570801,-0.017932917922735214,-0.17937880754470825,24.9375,25.6875,24.8125,27.4375,28.3125,28.875
1.0,-0.7239805128157086,-1.1874984476030757,-1.0084499663801292,0.002580295620985081,-0.020045573036447974,-0.050983372495869976,-0.5388787121644174,-0.32434612853524725,0.24687868297599957,-3.078702175400231,0.6248810661605296,0.00034481829251308514,0.002348835307547428,0.0008683372848805382,-0.053769881212244366,0.006140904081047253,-0.017915702154214407,0.00037288940184545334,0.3263333737850189,-1.1364248257926484,1.677643124257223,-2.1106707058348597,-1.5714533964740198,2.3013646602630615,-6.55446492601186e-05,0.06195440888404846,0.05946383252739906,-0.1024790108203888,-0.00018560251919552684,-0.00046557403402402997,0.2298433631658554,-0.1149216815829277,-9.232041358947754,0.6590895652770996,47.71733474731445,-0.5769060850143433,-3.4951648712158203,-1.8195216655731201,-0.8051234483718872,-0.02139875292778015,-0.1801091730594635,24.9375,25.6875,24.8125,27.4375,28.3125,28.875
1.0,-0.28338780923131124,-0.8020312651778371,-1.1800791552641767,0.007775703770720504,-0.01937628871486805,-0.05991765141883043,-0.5388808330359942,-0.32436220148101624,0.24672945933058238,-3.0788041607654844,0.6249402063616446,0.00041939425242201993,0.001539484071901012,0.0005897776042984068,-0.053562273831909195,0.0047150138586274865,-0.013785495798599752,0.0003636191461324086,0.32634541392326355,-1.1362328392318268,1.6778219381915491,-2.111138959924215,-1.5713813940631312,2.3014004230499268,-6.324177957139909e-05,0.06312816590070724,0.05835725739598274,-0.10691555589437485,-0.000171905048773624,-0.0004559899971354753,0.363918662071228,-0.05746084079146385,-9.423578262329102,0.7329410910606384,47.70121383666992,-0.6304290294647217,-3.486203193664551,-1.7321574687957764,-0.8285735845565796,-0.008175093680620193,-0.17401732504367828,24.9375,25.6875,24.8125,27.4375,28.3125,28.875
1.0,-1.223413956405229,-1.4688378302124543,-1.2044766924994013,-0.03431003104632178,0.008493270610505976,-0.05858832297033954,-0.5388667207734381,-0.3243624683607778,0.24639289704896805,-3.0787342801925353,0.6248882065290481,0.0002800965629539152,0.00021340876152394107,0.0001659076921357015,-0.05288658733360041,0.00036794156027333233,-0.0011045440744998618,0.0003187615277415899,0.3263572156429291,-1.1358365577510376,1.6781819502459925,-2.111778875390524,-1.5714057127581995,2.3013885021209717,-0.00010889099212363362,0.06412676721811295,0.058820951730012894,-0.12178322672843933,-0.0001542292593512684,-0.00046321898116730154,0.26815059781074524,-0.019153613597154617,-9.500192642211914,0.6769921779632568,47.72987747192383,-0.6301709413528442,-3.5594379901885986,-1.8176543712615967,-0.6507516503334045,-0.022542228922247887,-0.17009766399860382,24.9375,25.6875,24.8125,27.4375,28.3125,28.875
1.0,-2.0332736397646585,-2.9537070602837012,-1.464075508940474,-0.04886653474138561,0.030091726610230653,-0.05810895231419412,-0.5388595514362268,-0.32433552852881115,0.24617365817372183,-3.0787116509155457,0.6249220417494298,0.0002738594799264893,0.0002819237079670336,0.00020240173528223134,-0.05321585385635212,-0.0010219573838654789,0.0030251172753040663,0.00034467259464430984,0.32632145285606384,-1.1356088382056733,1.6784823576556605,-2.112295766870016,-1.5714176336871546,2.3013765811920166,-0.00012620440975297242,0.06408153474330902,0.0611867681145668,-0.1284610480070114,-0.0001722086308291182,-0.0005091081256978214,0.07661445438861847,0.2298433631658554,-9.481039047241211,0.7239871025085449,47.702110290527344,-0.6137742400169373,-3.550227165222168,-1.9471826553344727,-0.5452645421028137,-0.0144517095759511,-0.1890081763267517,24.9375,25.6875,24.8125,27.4375,28.3125,28.875
1.0,-1.4841609691360336,-2.649470256905535,-1.5488834609308104,-0.057191073804661874,0.03254987932108304,-0.04776853978390182,-0.5388596910464357,-0.3243288475983233,0.24596115680877237,-3.0787162178888154,0.6249810887613381,0.000278351441920208,0.00035247389603725466,0.0005854355377518777,-0.05301432831982658,4.686657374384082e-05,-0.00013375618588936582,-0.0001865146160579355,0.3263092041015625,-1.1353572470000763,1.678732697163717,-2.1128083668150843,-1.5714057127581995,2.3014004230499268,-0.0006807675817981362,0.06362108886241913,0.060321636497974396,-0.12380069494247437,-0.00016275553207378834,-0.0005306648672558367,-0.1149216815829277,0.3064578175544739,-9.519346237182617,0.6837049722671509,47.71017074584961,-0.6130048036575317,-3.5579073429107666,-1.9246407747268677,-0.552345335483551,-0.02579677477478981,-0.1769265979528427,24.9375,25.6875,24.8125,27.4375,28.3125,28.875
1.0,-0.514792935668621,-1.794470896902152,-1.2804274533421593,-0.03321586860100941,0.01982357179422211,-0.07078776442690654,-0.5388483495433145,-0.3243328141575072,0.24572598545400512,-3.0787033458971624,0.6249210830915793,0.0002101818451459267,0.0007273938388966423,0.0006132510805279558,-0.05338988382456843,0.002116894150605953,-0.00615514619351349,0.00011024398918656024,0.3263213038444519,-1.1350813669017334,1.678995434437887,-2.1132971249022425,-1.5714057127581995,2.3013765811920166,-0.0005244510830380023,0.06395053118467331,0.059064190834760666,-0.11650543659925461,-0.0001786437933333218,-0.0006679955986328423,-0.07661445438861847,0.325611412525177,-9.442731857299805,0.7195101380348206,47.725399017333984,-0.6076078414916992,-3.523501396179199,-1.9155819416046143,-0.6061041355133057,-0.022214995697140694,-0.17469224333763123,24.9375,25.6875,24.8125,27.4375,28.3125,28.875
1.0,-1.0176741767883222,-1.6635194705973095,-1.2252962161270886,-0.03390311882906119,0.012933223229166815,-0.055440218057883066,-0.5388520688003954,-0.3243368159496385,0.24552323494507586,-3.0786648069006235,0.6248361042958275,0.00020962883067291384,0.000841184537422934,0.0005864865554701239,-0.052485591969348,0.003581070936717551,-0.010468065353822435,0.00016575343472175922,0.32633325457572937,-1.1348178547671814,1.6791871229754847,-2.1137243709959925,-1.5714533964740198,2.301340341567993,-0.0004252715443726629,0.06307884305715561,0.05636759474873543,-0.10838251560926437,-0.00016945268725976348,-0.0006212641019374132,0.0,0.2298433631658554,-9.385271072387695,0.7306999564170837,47.67882537841797,-0.5909512639045715,-3.4986605644226074,-1.7565884590148926,-0.6933209896087646,-0.034385159611701965,-0.1843980997800827,24.9375,25.6875,24.8125,27.4375,28.3125,28.875
1.0,-0.5076890419697538,-1.1855156010094587,-1.140589125682867,-0.011084243287531596,0.013894045075836097,-0.05826511872168716,-0.5388535370497042,-0.3243590943868015,0.24532779773781743,-3.0787195909229323,0.6248291821363676,0.00016113854948894744,0.0007561163534391369,0.000514935726731806,-0.05125353800444846,0.004253743011030973,-0.012385832264854103,0.00020277374751507415,0.3263571262359619,-1.134554461841919,1.6793654600726526,-2.1141659222044886,-1.5713933149920862,2.3013527393341064,-0.0003576467861421406,0.062003400176763535,0.053753770887851715,-0.10266094654798508,-0.0001836725859902799,-0.0005886565195396543,0.19153612852096558,-0.09576806426048279,-9.404424667358398,0.8179876208305359,47.71017074584961,-0.6254726052284241,-3.5386993885040283,-1.5768985748291016,-0.8029100894927979,-0.023541169241070747,-0.18783316016197205,24.9375,25.6875,24.8125,27.4375,28.3125,28.875
1.0,-0.047799120799028316,-0.4915451105306029,-1.0920491856577352,0.0035380799615519773,-0.005573871241664904,-0.06361414173219804,-0.5388702677690284,-0.3243415463836544,0.24512111786333118,-3.0787190234781403,0.6248667540129775,0.0001776640860305815,0.00032493242468315225,0.00033515995207845326,-0.050112553780395,0.002571898819017293,-0.00747758996074732,0.0002272995152686712,0.3263213634490967,-1.134290949707367,1.6795809904681605,-2.114657541314596,-1.5713933149920862,2.301340341567993,-0.0003085837233811617,0.061200499534606934,0.053140945732593536,-0.10643362253904343,-0.0001748510403558612,-0.0005660742172040045,0.24899697303771973,-0.13407529890537262,-9.385271072387695,0.6702793836593628,47.72808074951172,-0.6054664254188538,-3.3754801750183105,-1.578433871269226,-0.8022345304489136,-0.01926303654909134,-0.17363062500953674,24.9375,25.6875,24.8125,27.4375,28.3125,28.875
1.0,-0.3927526001186924,-0.7575350773091669,-1.4007468094589806,0.0011357036543649176,-0.00024879964163565093,-0.05073082108785043,-0.5388603864193195,-0.3243601000671784,0.2449301836202683,-3.0786928829702793,0.6248623142866268,0.00014315243401374052,-0.00035745782061308816,7.768008803951176e-05,-0.04917943982341945,-0.0004906265378764678,0.0014780282892474666,0.0002530326976587421,0.3263571560382843,-1.1340511602214356,1.679772679005758,-2.115056654016012,-1.5714057127581995,2.3013765811920166,-0.0002713616122491658,0.060839198529720306,0.053739845752716064,-0.11613602191209793,-0.00016675028018653393,-0.000558950996492058,0.2298433631658554,-0.17238253355026245,-9.481039047241211,0.7217512726783752,47.654640197753906,-0.5929282903671265,-3.420921802520752,-1.5520551204681396,-0.7544915676116943,-0.028742674738168716,-0.17273330688476562,24.9375,25.6875,24.8125,27.4375,28.3125,28.875
1.0,-1.478012499367156,-1.6659073131950217,-1.5369175859209279,-0.041264560313379314,0.02797153948536777,-0.06003801179201982,-0.5388560210932953,-0.3243547268979462,0.24472367917453933,-3.0787126108340357,0.6248664231390747,8.259391208256139e-05,-0.0009735743500202486,-0.00012163793472538276,-0.04997707711583532,-0.0019674773305223335,0.005769592316307134,0.00022341056328902854,0.3263453543186188,-1.133810655479767,1.6800125280963343,-2.115513940850729,-1.571369473134176,2.3013646602630615,-0.0002885936410166323,0.06281770020723343,0.05444731563329697,-0.1233605295419693,-0.00015936847194097936,-0.0005494392244145274,0.15322890877723694,-0.07661445438861847,-9.461885452270508,0.8179876208305359,47.74778747558594,-0.5969896912574768,-3.428358554840088,-1.676509141921997,-0.655302882194519,-0.009145869873464108,-0.1798628270626068,24.9375,25.6875,24.8125,27.4375,28.3125,28.875
1.0,-2.1308756053809788,-2.789837467305513,-1.689702353552978,-0.044177629119162336,0.037336588233053185,-0.051518685657524155,-0.5388415057447222,-0.32435893903862534,0.2445152799618937,-3.0786718937036044,0.6247810537221002,0.00011485106892600375,-0.00043150992822765967,4.505052345799687e-05,-0.04842880588190363,-0.0035011308478739914,0.01026790794273233,0.0004230970505144724,0.32636919617652893,-1.1335721474936982,1.6802647749530237,-2.115993639031881,-1.5714295546161097,2.301340341567993,-0.00026234477991238236,0.059453483670949936,0.056427016854286194,-0.12672866880893707,-0.0001526175474282354,-0.0007246984168887138,-0.019153613597154617,0.19153612852096558,-9.653421401977539,0.7284641265869141,47.685096740722656,-0.6216610670089722,-3.3343865871429443,-1.6965725421905518,-0.5860080122947693,-0.018841728568077087,-0.1695842146873474,24.9375,25.6875,24.8125,27.4375,28.3125,28.875
1.0,-1.1696216980646683,-2.0025066377778025,-1.8008677050132238,-0.05121805229730804,0.03855426431602899,-0.06063444801293431,-0.5388553439516863,-0.3243363913753172,0.24432606608840585,-3.07870266340014,0.6249032336512297,0.00014658270318283724,0.000349440037510001,0.00029774450962085025,-0.050528367848623267,-0.0006668837045952277,0.0019964152208853,0.00040594092884184115,0.32632139325141907,-1.1333438915065308,1.6804922262774866,-2.1164943180479945,-1.5713933149920862,2.3013646602630615,-0.00023911059543024749,0.06111685559153557,0.05755347013473511,-0.12077484279870987,-0.00016839457384776324,-0.0006812300416640937,-0.07661445438861847,0.26815059781074524,-9.691728591918945,0.7306999564170837,47.72808074951172,-0.6386655569076538,-3.358569622039795,-1.752441167831421,-0.6060777902603149,-0.03626972436904907,-0.16905879974365234,24.9375,25.6875,24.8125,27.4375,28.3125,28.875
1.0,-0.8975263687815667,-2.209567327495533,-1.4861076383795482,-0.011249978423216634,0.005204679767577984,-0.05427374694850819,-0.5388468785285105,-0.32434649169467716,0.24411112771450452,-3.0786804076978123,0.6248413618498349,0.0001285191371794618,0.0006994167595215045,0.00040301054825483794,-0.05012171739543837,0.0003484980111989017,-0.0010087844975232689,0.0003104180389002652,0.3263453543186188,-1.1330802005580445,1.680720631276266,-2.1169592342772425,-1.5714176336871546,2.3013527393341064,-0.00021965656196698546,0.06018286570906639,0.05684761330485344,-0.1159629225730896,-0.00015686533879488707,-0.0005643918993882835,0.0,0.24899697303771973,-9.59596061706543,0.7508436441421509,47.72718811035156,-0.6249583959579468,-3.330814838409424,-1.7549972534179688,-0.6427018046379089,-0.03113722614943981,-0.17107301950454712,24.9375,25.6875,24.8125,27.4375,28.3125,28.875
1.0,-0.2923832360077765,-1.0176296145310506,-1.201624400094322,-0.01616875331308622,0.004198317852163107,-0.06686394034771614,-0.5388428359455153,-0.3243553067725513,0.24392492909354724,-3.0787251125717003,0.6248119463103925,0.00015303485346707856,0.0010366863791522534,0.0005311592065215243,-0.05121634490410992,0.0029618172081745738,-0.008619599726296914,0.00027539727052535063,0.3263571560382843,-1.1328520339778443,1.6809356848346155,-2.1174351177611292,-1.5713933149920862,2.301340341567993,-0.00023696736025158316,0.06147272139787674,0.055753596127033234,-0.10811174660921097,-0.00017584489251021296,-0.0005431052995845675,0.019153613597154617,-0.019153613597154617,-9.576807022094727,0.7508436441421509,47.702110290527344,-0.6580546498298645,-3.4646036624908447,-1.6665709018707275,-0.7469499111175537,-0.03338475152850151,-0.1719100922346115,24.9375,25.6875,24.8125,27.4375,28.3125,28.875
1.0,0.007996877953068415,-0.2548905496413822,-1.1170303746719168,-0.004570975178431624,-0.0036241871832910252,-0.0644294005564893,-0.5388568793623087,-0.3243343148315268,0.24372557357247798,-3.0786823410084265,0.6248606777587754,0.00014016591260823135,0.0012104845389878623,0.000565539110645077,-0.05012982711103359,0.003029958709028224,-0.0088409149985043,0.00029742347788681085,0.32632142305374146,-1.1326007407954712,1.6811378637896937,-2.1178652248778285,-1.5714176336871546,2.301340341567993,-0.00020077740191482008,0.05985267087817192,0.05494474619626999,-0.10545141249895096,-0.00016520950885023922,-0.0005281617632135749,0.3064578175544739,-0.019153613597154617,-9.423578262329102,0.7642692923545837,47.7164421081543,-0.6662010550498962,-3.310803174972534,-1.581360101699829,-0.8127070665359497,-0.031840622425079346,-0.17405569553375244,24.9375,25.6875,24.8125,27.4375,28.3125,28.875
