Tylouw/Master_Thesis_Code/training_data/batch_1/small_rod_t0.1/sample_47_session_1.csv
timestamp[s],tcp_force_x[N],tcp_force_y[N],tcp_force_z[N],tcp_force_rx[Nm?],tcp_force_ry[Nm?],tcp_force_rz[Nm?],tcp_pose_x[m],tcp_pose_y[m],tcp_pose_z[m],tcp_pose_rx[rot_vec_x],tcp_pose_ry[rot_vec_y],tcp_pose_rz[rot_vec_z],tcp_velo_x[m/s],tcp_velo_y[m/s],tcp_velo_z[m/s],tcp_velo_rx[rot_vec_x/s],tcp_velo_ry[rot_vec_y/s],tcp_velo_rz[rot_vec_z/s],q1[rad],q2[rad],q3[rad],q4[rad],q5[rad],q6[rad],qd1[rad/s],qd2[rad/s],qd3[rad/s],qd4[rad/s],qd5[rad/s],qd6[rad/s],tool_acc_x,tool_acc_y,tool_acc_z,current_of_whole_robot[A],voltage_of_whole_robot[V],current_J1[A],current_J2[A],current_J3[A],current_J4[A],current_J5[A],current_J6[A],temp_J1[C],temp_J2[C],temp_J3[C],temp_J4[C],temp_J5[C],temp_J6[C]
7.180206e-07,-0.14187011,0.1338716,1.3350846,-0.0140989525,0.0060184794,-0.019044813,-0.38108468,-0.34851217,0.05997756,-3.0785136,0.62493414,-0.00010830659,0.002240401,0.0011139824,-0.0019024212,0.0022694715,-0.004675403,0.00013618029,0.4777621,-1.425946,1.9577154,-2.1008565,-1.5707816,2.452752,-4.2217704e-10,-3.6120557e-06,0.004101424,0.0010970124,0.00014568637,-0.00013872421,0.019153614,0.19153613,-8.772355,0.7732232,47.691364,-0.0042819274,-2.7033496,-2.440795,-0.4495158,0.081589274,0.05860269,25.6875,26.375,25.5625,28.3125,29.0625,29.4375
0.002052476,-0.20671146,0.031721927,1.2581106,-0.010008566,0.0054948987,-0.009230677,-0.38106957,-0.34853092,0.059981756,-3.0785346,0.6249779,-0.00014044263,-0.00045277816,-0.0002889547,-0.0033638857,-0.0009740704,0.0015376311,0.00013470332,0.47778618,-1.4259562,1.9577159,-2.1008494,-1.5707458,2.4528008,-5.664044e-12,0.0044490006,0.00523276,-0.011495649,0.00014271443,-0.00013457568,0.076614454,0.19153613,-8.714894,0.7038487,47.698532,-0.011344733,-2.8158836,-2.3525567,-0.405944,0.08906872,0.058717206,25.6875,26.375,25.5625,28.3125,29.0625,29.4375
0.004052179,-0.21805343,-0.0049418337,1.2583747,-0.007751126,0.0006243462,-0.018536573,-0.3810575,-0.34854296,0.05997869,-3.0785463,0.62486345,-0.00010290647,-0.0010561922,-0.0006022959,-0.003348342,-0.0017907307,0.0031102102,0.00013132984,0.47783422,-1.4259562,1.9577283,-2.1008732,-1.5707697,2.452776,-7.599039e-14,0.004886566,0.0051923865,-0.013664831,0.00013957394,-0.00013066949,0.0,0.21068975,-8.63828,0.7642693,47.690468,-0.013556238,-3.1416516,-2.7606902,-0.30028108,0.083651304,0.049207415,25.6875,26.375,25.5625,28.3125,29.0625,29.4375
0.0060524372,0.10894348,0.4360454,1.189539,0.005571803,-0.0069643212,-0.010994955,-0.38105416,-0.3485364,0.05994784,-3.0785356,0.6248617,-0.00018398622,-0.0005560743,-0.0003399173,-0.0017124097,-0.0013083447,0.0022049344,0.00012702281,0.47781014,-1.4259092,1.9577502,-2.1008952,-1.5707458,2.452752,-1.019508e-15,0.0021397893,0.0032936868,-0.007993619,0.00013654983,-0.0001269803,0.095768064,0.19153613,-8.695741,0.7597976,47.681515,0.06020546,-2.9958992,-2.667894,-0.33532783,0.0747304,0.05034384,25.6875,26.375,25.5625,28.3125,29.0625,29.4375
0.008051746,1.2340568,1.4785092,0.81675,0.030032214,-0.012525889,-0.025131632,-0.38106665,-0.3485409,0.059953764,-3.0785317,0.6248608,-0.00013209744,-0.0010404927,-0.00059057144,0.00039602266,-0.0021337203,0.0038097543,0.0001468369,0.47782207,-1.4258981,1.9577264,-2.1009057,-1.5707697,2.452764,-1.3678001e-17,-0.00043258883,0.0006252805,-0.004557453,0.00013365313,-0.00014653624,0.019153614,0.095768064,-8.829816,0.70608455,47.679718,0.059381247,-2.9225519,-2.471425,-0.37219685,0.07452279,0.048215203,25.6875,26.375,25.5625,28.3125,29.0625,29.4375
0.010051723,0.8749225,1.6963464,0.2835036,0.027913176,-0.024034282,-0.019336605,-0.3810772,-0.34853074,0.059953827,-3.0785372,0.6248813,-0.00014468977,-0.00080089783,-0.00046470578,0.0005939278,-0.0016603776,0.0029085625,0.00014431005,0.47778618,-1.4258983,1.9577264,-2.1009052,-1.5707573,2.4527402,-1.8350786e-19,-0.00068766467,4.1041872e-05,-0.002700196,0.0001308764,-0.0001441227,0.038307227,0.11492168,-9.021352,0.7105615,47.691364,-0.16560441,-2.0624375,-3.2723708,-0.36439162,0.06170273,0.031096067,25.6875,26.375,25.5625,28.3125,29.0625,29.4375
0.012052585,0.5446401,0.27907982,0.018261438,0.008050454,-0.01013528,-0.01589722,-0.3810657,-0.3485267,0.059937693,-3.0785174,0.6248775,-0.00024343509,-0.002243102,-0.0011991588,-0.0015204893,0.0006774697,-0.001502333,0.00016224282,0.47777414,-1.4258716,1.9577245,-2.1008685,-1.5707334,2.4527283,-2.461992e-21,0.008486352,-0.0060073873,-0.0008336672,7.4277574e-05,-0.00015782093,0.095768064,0.11492168,-9.308657,0.70608455,47.683304,-0.24102734,-1.9248612,-3.4650793,-0.37143975,0.057702217,0.015689362,25.6875,26.375,25.5625,28.3125,29.0625,29.4375
0.014051726,-0.5162861,-1.0054591,0.0061300304,-0.024232866,0.00792082,-0.014143395,-0.38104042,-0.34852508,0.05991371,-3.0784466,0.6248624,-0.0003248634,-0.003766971,-0.0019200162,-0.0050275964,0.003863235,-0.007637354,0.00019563729,0.4778101,-1.425831,1.9577221,-2.1008208,-1.5707573,2.4527638,-0.00012639887,0.020681405,-0.012068798,-5.443251e-05,5.5143035e-05,-0.00031273864,0.019153614,0.22984336,-9.461885,0.6948948,47.694946,-0.30033606,-2.916143,-3.191122,-0.36381757,0.03752394,-0.008334487,25.6875,26.375,25.5625,28.3125,29.0625,29.4375
0.016052108,-1.4853715,-1.7230935,-0.20448986,-0.053242125,0.026464637,-0.014134686,-0.3810378,-0.34850675,0.059869416,-3.0784075,0.62483567,-0.0004383834,-0.0049633835,-4.4029817e-05,-0.00387945,0.0043573976,-0.008523486,-2.2616966e-06,0.47777247,-1.4257598,1.9577445,-2.1008308,-1.5707458,2.4527144,-0.00455018,0.018929446,-0.013695894,0.004338239,2.8017124e-05,-0.004538912,-0.22984336,0.49799395,-9.595961,0.67475104,47.66539,-0.15877274,-2.5574198,-3.3797622,-0.3821982,0.024247117,-0.012760159,25.6875,26.375,25.5625,28.3125,29.0625,29.4375
0.018051965,-1.4099382,-1.9169084,-0.34408525,-0.07167273,0.051891807,-0.017860988,-0.3810544,-0.34851515,0.05989412,-3.0784225,0.6248756,-0.00039442634,-0.0053142235,0.0005909959,-0.003413442,0.0047266255,-0.009186894,0.0025427977,0.4777721,-1.425772,1.9576963,-2.1008065,-1.5707458,2.452737,-0.0059896354,0.018389625,-0.014660666,0.006601223,6.713154e-06,-0.008523437,-0.19153613,0.57460845,-9.730036,0.7463667,47.689575,-0.12811059,-2.3482714,-3.494598,-0.39950353,0.024805829,0.027502019,25.6875,26.375,25.5625,28.3125,29.0625,29.4375
0.020052092,-1.8270732,-1.9457494,-0.41413108,-0.06993741,0.053004783,-0.013995981,-0.38104293,-0.34850317,0.05985348,-3.078336,0.62481844,-0.00049187464,-0.0059826775,-0.0004787564,-0.0036632156,0.0045506954,-0.008851478,0.004575521,0.47778457,-1.4256871,1.9576844,-2.1007707,-1.5707816,2.452725,-0.004705453,0.021245508,-0.017183743,0.005889242,4.3832102e-07,-0.009270097,-0.36391866,0.63206923,-9.883265,0.7418897,47.661808,-0.2327517,-2.312888,-3.5106466,-0.3902582,0.026109088,0.039593175,25.6875,26.375,25.5625,28.3125,29.0625,29.4375
0.02205194,-1.6039463,-2.0186212,-0.48981044,-0.06785986,0.07195634,-0.024186505,-0.38106063,-0.34851462,0.059869524,-3.078381,0.6248084,-0.00047109165,-0.006545308,-0.0011262448,-0.0035927994,0.004185321,-0.008154945,0.0053512636,0.47777274,-1.4256866,1.9576472,-2.1007707,-1.5707573,2.452701,-0.004076002,0.022627555,-0.018793304,0.0053304187,2.861923e-08,-0.009415243,-0.5746084,0.7852981,-9.710882,0.679228,47.687782,-0.3588882,-2.3225837,-3.5570588,-0.37347722,0.016730618,0.014595106,25.6875,26.375,25.5625,28.3125,29.125,29.4375
0.024052123,-1.8682599,-1.552499,-0.69244015,-0.06543904,0.06514457,-0.039331604,-0.3810833,-0.34852648,0.059850425,-3.0783637,0.6247463,-0.0005286776,-0.007917837,-0.001812241,-0.0026953833,0.0031330301,-0.0061391112,0.0059886,0.4777727,-1.4255786,1.9575623,-2.1007469,-1.5707573,2.4526646,-0.0041281777,0.023490647,-0.021801075,0.0052010342,1.8686312e-09,-0.010103077,-0.4213795,0.7469909,-9.730036,0.7933669,47.699425,-0.39517596,-2.2912204,-3.492137,-0.36194262,0.0043227095,0.030201066,25.6875,26.375,25.5625,28.3125,29.125,29.4375
0.026051573,-0.8620823,-0.72403806,-0.6913396,-0.074182905,0.062521406,-0.055387624,-0.38109717,-0.34850895,0.059829626,-3.0782857,0.6247889,-0.0005405383,-0.009162188,-0.001215162,-0.0027623929,0.0034590403,-0.0067743156,0.0039052654,0.47776002,-1.425518,1.957538,-2.1007345,-1.5708054,2.4526885,-0.0063426234,0.025159622,-0.02378577,0.006230215,1.2200826e-10,-0.010233128,-0.4213795,0.51714754,-9.902418,0.7418897,47.696735,-0.39329505,-2.2712975,-3.5712066,-0.35716486,-0.019021977,0.014256713,25.6875,26.375,25.5625,28.3125,29.125,29.4375
0.028052418,-1.5543926,-1.0269603,-0.473881,-0.05298233,0.028250176,-0.04890597,-0.38113883,-0.3485277,0.05985667,-3.0783706,0.62478757,-0.00049896666,-0.01091833,-0.001388888,-0.0015295367,0.0033033497,-0.0043407944,0.003681258,0.47772372,-1.425506,1.957465,-2.1007464,-1.5707577,2.4526405,-0.0070183678,0.025661638,-0.027370814,0.0070845927,-0.0009861004,-0.010681169,-0.45968673,0.4405331,-9.864111,0.7486078,47.70659,-0.37653804,-2.2420537,-3.5131454,-0.34999216,-0.032969058,0.02361929,25.6875,26.375,25.5625,28.3125,29.125,29.4375
0.030052325,-1.2710605,-0.5825881,-0.42665088,-0.026493922,0.026668007,-0.07249799,-0.38113564,-0.34852812,0.059826933,-3.078317,0.6247384,-0.0005891236,-0.012135355,-0.0011460893,-0.0017077909,0.003915798,-0.004168769,0.0034751424,0.4777354,-1.4254212,1.9574283,-2.1007106,-1.5707701,2.4526284,-0.008169888,0.027748555,-0.029349474,0.007107157,-0.0016146972,-0.011623856,-0.4213795,0.3256114,-9.768343,0.71279734,47.683304,-0.42598674,-2.2380018,-3.6001635,-0.33603603,-0.027726557,-0.0005143096,25.6875,26.375,25.5625,28.3125,29.125,29.4375
0.032052252,-0.7550044,0.28985658,-0.37677768,-0.009098821,0.04065022,-0.08857698,-0.38117436,-0.3485409,0.059837338,-3.0783508,0.62486166,-0.0005667947,-0.013407003,-0.0010109332,-0.0017365498,0.004975698,-0.003512484,0.0018610114,0.47769904,-1.4253846,1.9573683,-2.1007345,-1.5707344,2.4526646,-0.008777255,0.029887326,-0.031765684,0.007294083,-0.0028615189,-0.010613102,-0.36391866,0.21068975,-9.749189,0.7217513,47.68599,-0.39777687,-2.2847354,-3.5736756,-0.32266244,-0.021453798,-0.022094317,25.6875,26.375,25.5625,28.3125,29.125,29.4375
0.034051917,-0.9590383,0.34753555,-0.29705536,0.0119158225,0.035918664,-0.09368345,-0.3812058,-0.34852406,0.05980726,-3.0782676,0.62476826,-0.0005821341,-0.015317472,-0.0015703752,-0.00072073017,0.0035423886,-0.0019624003,0.0007833379,0.47768673,-1.4252644,1.9572943,-2.1007102,-1.5708064,2.4526048,-0.009910738,0.031336743,-0.035888173,0.00792883,-0.0023095226,-0.010667699,-0.21068975,0.019153614,-9.672575,0.7463667,47.683304,-0.4819892,-2.3003821,-3.5137434,-0.3078441,-0.048101716,-0.03173565,25.6875,26.375,25.5625,28.3125,29.125,29.4375
0.036052532,-0.77574974,0.44998,-0.1750774,0.018972643,0.032719776,-0.099577636,-0.38126105,-0.34854105,0.059842907,-3.078346,0.6248801,-0.00053996773,-0.015832549,-0.0018937094,-0.0009021204,0.003671715,-0.0028660928,0.0017633318,0.4776267,-1.4252518,1.9571985,-2.1007102,-1.5707463,2.4526045,-0.010005523,0.033371776,-0.038010444,0.008877339,-0.002011269,-0.011742072,-0.22984336,-0.038307227,-9.557653,0.7351769,47.677036,-0.4925662,-2.2656503,-3.4183211,-0.31779128,-0.0498633,-0.042805046,25.6875,26.375,25.5625,28.3125,29.125,29.4375
0.038052574,-0.8969264,0.12643023,-0.36431545,0.033912737,0.02032889,-0.10813811,-0.38127193,-0.3485378,0.05979717,-3.0782766,0.6248276,-0.0006333487,-0.01727813,-0.0020273572,-0.00046848663,0.0032193009,-0.0023216465,0.0006155814,0.47762626,-1.4251195,1.9571494,-2.1006978,-1.5707701,2.4525802,-0.011201436,0.035002057,-0.041021697,0.00956601,-0.0018658013,-0.01178872,-0.17238252,-0.095768064,-9.557653,0.7911258,47.698532,-0.4682365,-2.234134,-3.4588597,-0.29188642,-0.06499724,-0.04707553,25.6875,26.375,25.5625,28.3125,29.125,29.4375
0.040051725,-0.6923586,0.6098031,-0.134689,0.015326454,0.020664988,-0.122312956,-0.38131386,-0.34855962,0.059819885,-3.0782948,0.6248119,-0.0006051095,-0.01800415,-0.0019405046,-0.00053377176,0.0037599187,-0.0031129052,0.00044860633,0.47762617,-1.4250588,1.9570173,-2.1006496,-1.5707701,2.452568,-0.011951257,0.036742955,-0.043168504,0.010923464,-0.0019837865,-0.012370277,-0.095768064,-0.019153614,-9.500193,0.79560274,47.696735,-0.49944347,-2.2880912,-3.393355,-0.29798746,-0.07947002,-0.060703803,25.6875,26.375,25.5625,28.3125,29.125,29.4375
0.042052686,-0.7986371,0.08748382,-0.13976626,0.018492004,0.010608634,-0.12011774,-0.38136625,-0.34856194,0.059836518,-3.0783195,0.6248368,-0.0005178171,-0.019654993,-0.0021135497,0.00047569734,0.0038952662,-0.00092019315,0.00028861465,0.47758985,-1.4250226,1.9569434,-2.1006734,-1.5707825,2.4525442,-0.012433506,0.03758687,-0.046600003,0.01162974,-0.0031171984,-0.012688624,-0.095768064,-0.019153614,-9.595961,0.67475104,47.704796,-0.47704956,-2.1980882,-3.4142787,-0.28912407,-0.0781856,-0.07982445,25.6875,26.375,25.5625,28.3125,29.125,29.4375
0.044052612,-0.3508565,0.055012085,-0.17187901,0.010851499,0.02568804,-0.14069413,-0.3814013,-0.3485775,0.059835657,-3.078324,0.624779,-0.00056067744,-0.02058163,-0.0014807435,0.00037614006,0.005717188,-0.0010261426,4.908875e-05,0.47757757,-1.4249264,1.9568247,-2.1006253,-1.5707711,2.4524953,-0.013394219,0.03913808,-0.04841859,0.012834328,-0.0046885093,-0.013405569,-0.13407528,0.019153614,-9.557653,0.800085,47.694946,-0.48791254,-2.176488,-3.3705409,-0.3152783,-0.06699342,-0.07421711,25.6875,26.375,25.5625,28.3125,29.125,29.4375
0.04605204,-0.62421554,-0.1759734,-0.13622797,-0.0020806845,0.017887061,-0.14558645,-0.38143831,-0.34856766,0.059843335,-3.0782938,0.6247925,-0.0005523309,-0.021241758,-0.0015854591,-0.00030873352,0.0068670446,-0.0018161164,-0.00046841483,0.47754163,-1.4248774,1.9567403,-2.100577,-1.5707954,2.4524717,-0.013389062,0.042126387,-0.05028919,0.012948707,-0.005350406,-0.012880082,-0.11492168,0.13407528,-9.557653,0.7217513,47.660015,-0.5320095,-2.2406693,-3.4396853,-0.32608122,-0.073925585,-0.07296867,25.6875,26.375,25.5625,28.3125,29.125,29.4375
0.04805224,-0.42201534,-0.888222,-0.36722308,-0.0055067143,0.03199107,-0.15321305,-0.3814899,-0.3485833,0.059850823,-3.078273,0.6248862,-0.00052761857,-0.022475332,-0.0016178513,0.00026021313,0.006199433,-0.0016520038,-0.0023769918,0.47752905,-1.4247812,1.9566077,-2.1005518,-1.5708069,2.4525204,-0.014805856,0.043143697,-0.0530463,0.014233941,-0.004835495,-0.012388137,-0.15322891,0.2681506,-9.5385,0.779936,47.693153,-0.49521118,-2.182291,-3.4220312,-0.31839848,-0.07720596,-0.082698554,25.6875,26.375,25.5625,28.3125,29.125,29.4375
0.05005166,-0.97839665,-1.1237721,-0.25544137,-0.02145678,0.017185591,-0.16044697,-0.38149455,-0.3485698,0.059835173,-3.078226,0.62476134,-0.00060368935,-0.02369263,-0.0018647279,0.0014158615,0.0052179266,0.0005789861,-0.003737228,0.4775168,-1.4247214,1.9565591,-2.1004808,-1.5708317,2.4524362,-0.015389721,0.042682245,-0.055206746,0.014423718,-0.004993847,-0.011610057,-0.21068975,0.3256114,-9.576807,0.7239871,47.716442,-0.52315545,-2.0296059,-3.4618087,-0.34095216,-0.08933443,-0.0921062,25.6875,26.375,25.5625,28.3125,29.125,29.4375
0.05205187,-0.82516134,-1.278615,-0.25934196,-0.03567331,0.02850196,-0.16585398,-0.3815452,-0.34857562,0.05981544,-3.0782094,0.62487376,-0.0006832997,-0.024448179,-0.0018432384,0.0005296145,0.006416533,-0.00053532055,-0.004478631,0.4774567,-1.4245886,1.9564499,-2.1004689,-1.5707954,2.4524484,-0.015763523,0.04605557,-0.057034522,0.014420868,-0.0055505745,-0.011239617,-0.21068975,0.38307226,-9.5385,0.7217513,47.709274,-0.43437842,-2.1184502,-3.5199583,-0.33569938,-0.10205142,-0.11487885,25.6875,26.375,25.5625,28.3125,29.125,29.4375
0.054052085,-0.9047081,-1.3925813,-0.20177953,-0.041049726,0.039504413,-0.16936602,-0.38159007,-0.3485988,0.059850883,-3.0782506,0.62482363,-0.0006231562,-0.027203135,-0.0027280792,0.002252479,0.0053801998,0.0036598037,-0.004511888,0.47745663,-1.4245521,1.9563164,-2.1004207,-1.5707959,2.452412,-0.016077107,0.047544725,-0.06265791,0.014356551,-0.0065697827,-0.0115149645,-0.13407528,0.36391866,-9.557653,0.784413,47.69763,-0.4986189,-2.0920331,-3.3751092,-0.3298189,-0.094953984,-0.12092973,25.6875,26.375,25.5625,28.3125,29.125,29.4375
0.056052465,-1.1524228,-1.3885115,-0.10129176,-0.04578508,0.040752135,-0.16080597,-0.38165364,-0.34858316,0.059841197,-3.078165,0.6248249,-0.00054466276,-0.026186962,-0.0021023669,-0.00046054015,0.008736463,-0.00074614806,-0.0037107372,0.47743285,-1.4244308,1.9561976,-2.1004093,-1.5708927,2.4524,-0.015629523,0.051738173,-0.061203144,0.014165921,-0.0075239004,-0.011866427,-0.11492168,0.47884035,-9.5385,0.73069996,47.682407,-0.5147356,-2.2333348,-3.4882069,-0.3344425,-0.088028535,-0.12472775,25.6875,26.375,25.5625,28.3125,29.125,29.4375
0.058052476,-0.80337363,-1.1038097,-0.09109431,-0.04979879,0.046647213,-0.15678331,-0.38171035,-0.3486029,0.059839357,-3.0781872,0.62483025,-0.000620033,-0.02849725,-0.0022326002,0.0013005527,0.007921472,0.0037504516,-0.00409302,0.4773844,-1.4242994,1.9560407,-2.100361,-1.570845,2.452352,-0.016651992,0.051247597,-0.06455686,0.013646846,-0.0088754,-0.012501809,-0.076614454,0.47884035,-9.595961,0.7530795,47.675243,-0.4757257,-2.140452,-3.4918203,-0.33696347,-0.077070445,-0.139513,25.6875,26.375,25.5625,28.3125,29.125,29.4375
0.060052488,-0.98819983,-1.1041815,-0.15276526,-0.04341191,0.032695495,-0.1523794,-0.3817657,-0.34862307,0.05986827,-3.0782142,0.62483495,-0.00050754374,-0.030996528,-0.003510301,0.0031926886,0.006149301,0.008081411,-0.003241221,0.4773845,-1.4242511,1.9559196,-2.100361,-1.5708688,2.4523518,-0.01641454,0.052312158,-0.07004409,0.01340961,-0.009303085,-0.013112939,-0.15322891,0.53630114,-9.5385,0.7486078,47.64837,-0.5729288,-1.9667928,-3.3791504,-0.31532288,-0.08014639,-0.13492975,25.6875,26.375,25.5625,28.3125,29.125,29.4375
0.062052526,-0.681824,-1.1827214,-0.08563311,-0.034895122,0.03253513,-0.14526336,-0.3818399,-0.3486189,0.05988294,-3.078195,0.624869,-0.00047099474,-0.03128328,-0.0029700198,0.0014444623,0.008249166,0.0054999813,-0.0033906184,0.47732425,-1.4241538,1.9557642,-2.1003134,-1.5708932,2.4523153,-0.017194195,0.056242973,-0.07048686,0.013180571,-0.009983801,-0.01374099,-0.15322891,0.57460845,-9.442732,0.7777002,47.690468,-0.55722344,-2.16121,-3.3238173,-0.30194816,-0.0707739,-0.13129728,25.6875,26.375,25.5625,28.3125,29.125,29.4375
0.06405262,-0.77091086,-1.3698664,0.0124443425,-0.026574621,0.020140978,-0.14516394,-0.38191554,-0.34864017,0.05989724,-3.078243,0.62487906,-0.0004371387,-0.03244732,-0.0036157365,0.0019204536,0.007824048,0.00647079,-0.003160077,0.4772763,-1.4240454,1.9556078,-2.100313,-1.5708688,2.4522676,-0.01707154,0.057961795,-0.073624395,0.013541781,-0.010057423,-0.013847439,-0.21068975,0.4405331,-9.3661175,0.82022345,47.69763,-0.52907413,-2.0747898,-3.4312208,-0.3073712,-0.07776615,-0.1481192,25.6875,26.375,25.5625,28.3125,29.125,29.4375
0.06605245,-0.6698493,-1.0999659,0.29586253,-0.030679584,0.016112844,-0.14218594,-0.38200712,-0.34865,0.059910234,-3.0782065,0.62502426,-0.00033065997,-0.03371896,-0.0045039356,0.0025582511,0.0063974624,0.007020949,-0.0027749103,0.47724026,-1.4239131,1.955427,-2.100313,-1.570917,2.452327,-0.017320367,0.059765957,-0.07731657,0.014280936,-0.009048762,-0.014481955,-0.17238252,0.4213795,-9.289502,0.7016076,47.651955,-0.51882637,-2.1532009,-3.2443926,-0.3156178,-0.10198646,-0.16545008,25.6875,26.375,25.5625,28.3125,29.125,29.4375
0.06805255,-0.42317882,-1.0770062,0.32246765,-0.02410277,0.023068175,-0.1498477,-0.38206035,-0.3486751,0.05991373,-3.0782552,0.62493825,-0.00039344982,-0.03493605,-0.0050864066,0.002861906,0.0053542694,0.00795112,-0.0028007794,0.47720402,-1.4237927,1.9552706,-2.1002653,-1.5708684,2.452231,-0.017727038,0.061445426,-0.07982679,0.013804779,-0.008556096,-0.014862037,-0.19153613,0.3256114,-9.251195,0.7978386,47.68062,-0.5912925,-2.0968633,-3.1740417,-0.2934709,-0.08133463,-0.17073455,25.6875,26.375,25.5625,28.3125,29.125,29.4375
0.07005233,-0.5543622,-0.7022837,0.4170198,-0.02451388,0.019580089,-0.14491473,-0.3821435,-0.34868544,0.059933208,-3.078234,0.624952,-0.00024935981,-0.03561623,-0.0055533173,0.0027637705,0.005455127,0.007885653,-0.0018931447,0.47719225,-1.4236842,1.9551023,-2.1002653,-1.5709404,2.4522307,-0.017483538,0.063494384,-0.08199866,0.014031012,-0.008619144,-0.015525208,-0.21068975,0.3256114,-9.136273,0.73069996,47.67614,-0.5400722,-2.0513124,-3.1760964,-0.27942783,-0.11672978,-0.17215934,25.6875,26.375,25.5625,28.3125,29.125,29.4375
0.07205246,-0.8228474,-0.3401809,0.45627648,-0.01920881,0.014398398,-0.14568447,-0.3822024,-0.34870234,0.059924204,-3.0782163,0.6249295,-0.00029275884,-0.036944076,-0.0055046827,0.0027874077,0.005614905,0.008093019,-0.0026283036,0.47716773,-1.4235278,1.9549335,-2.1002176,-1.5709404,2.4521945,-0.018636074,0.06558937,-0.08452817,0.014355249,-0.0088616675,-0.015940288,-0.038307227,0.3256114,-9.174581,0.73069996,47.689575,-0.49683487,-2.0585744,-3.184541,-0.2634078,-0.12016424,-0.17633659,25.6875,26.375,25.5625,28.3125,29.125,29.4375
0.07405265,-0.8356949,-0.27619824,0.63090956,-0.0064529125,0.011606971,-0.14348336,-0.38228625,-0.34870526,0.059936814,-3.07823,0.6249707,-0.0002502669,-0.037943915,-0.0055662454,0.0030350643,0.0067663467,0.008690147,-0.0017410022,0.47709575,-1.4234195,1.9547781,-2.1002052,-1.5709409,2.4521465,-0.018600244,0.06728477,-0.087275766,0.015409554,-0.010161752,-0.016788114,-0.05746084,0.17238252,-9.136273,0.7732232,47.6636,-0.5640868,-2.032058,-3.1441517,-0.25047946,-0.10143669,-0.18937065,25.6875,26.375,25.5625,28.3125,29.125,29.4375
0.07605194,-0.36430934,0.16301064,0.5282792,-0.0075259176,0.023718817,-0.14317913,-0.38236076,-0.34874576,0.059953317,-3.0782695,0.6250163,-0.0002152226,-0.038787868,-0.0057185213,0.0022138185,0.008597581,0.007899923,-0.0010017972,0.47708392,-1.4232862,1.9545854,-2.1001933,-1.570918,2.4521582,-0.018285345,0.07112121,-0.08985464,0.015699618,-0.011429873,-0.017208671,-0.15322891,0.21068975,-9.078813,0.7597976,47.677036,-0.54207605,-2.0456414,-3.0968423,-0.24138293,-0.11467891,-0.2010282,25.6875,26.375,25.5625,28.3125,29.125,29.4375
0.07805177,-0.16712889,0.058406148,0.46323106,3.474721e-05,0.027954869,-0.15083215,-0.38246304,-0.3487412,0.059970796,-3.078235,0.6249317,-0.00010472807,-0.040224023,-0.005661284,0.0032001925,0.008785105,0.009859479,-0.00041336974,0.47703576,-1.4231421,1.9543699,-2.1001446,-1.5710019,2.452062,-0.019011471,0.07140959,-0.09263679,0.016540084,-0.012500242,-0.018520229,-0.076614454,0.24899697,-9.11712,0.7217513,47.619713,-0.58581555,-2.2060153,-3.0608954,-0.22353625,-0.1073152,-0.21878657,25.6875,26.375,25.5625,28.3125,29.125,29.4375
0.08005179,-0.59651524,0.007853693,0.4133742,0.00071200053,0.014967182,-0.14719194,-0.38250902,-0.34876063,0.059949774,-3.0782042,0.6249249,-0.00013598084,-0.04102705,-0.005700097,0.0036927545,0.009631801,0.010466489,0.00045814566,0.47703573,-1.4229856,1.9542364,-2.1001322,-1.5710143,2.4520617,-0.019012028,0.07228293,-0.095098026,0.01798068,-0.013534153,-0.019388821,-0.095768064,0.3256114,-9.174581,0.8291774,47.677036,-0.5917603,-2.0121367,-3.075384,-0.23401779,-0.07589372,-0.20592296,25.6875,26.375,25.5625,28.3125,29.125,29.4375
0.08205245,-0.47911254,-0.18813208,0.31974164,-0.0039913943,0.0213689,-0.14739467,-0.38258952,-0.34879082,0.059977192,-3.0782318,0.62498814,-0.00011884097,-0.040977053,-0.005618296,0.0022372247,0.011185615,0.006723299,0.0010479484,0.4769995,-1.4228642,1.9540213,-2.1000721,-1.5709904,2.4520614,-0.019327747,0.07622991,-0.09666737,0.019640196,-0.013195066,-0.020294365,-0.15322891,0.15322891,-9.212888,0.7396539,47.68599,-0.5934786,-2.0272746,-3.1263447,-0.21974747,-0.06909944,-0.22512539,25.6875,26.375,25.5625,28.3125,29.125,29.4375
0.08405265,-0.47843918,0.054800358,0.37208998,-0.016738148,0.02252645,-0.14568411,-0.38267532,-0.34877303,0.05997141,-3.0781636,0.62497336,-0.000106306776,-0.041151617,-0.0054806904,0.0017426378,0.011575589,0.0049163923,0.0010940527,0.47692737,-1.4227073,1.9538416,-2.1000116,-1.57105,2.451989,-0.020038657,0.07789333,-0.09771358,0.02080304,-0.012712671,-0.021051273,-0.19153613,0.19153613,-9.232041,0.7777002,47.650166,-0.6031691,-2.1761122,-3.1502624,-0.23232493,-0.09384353,-0.2208018,25.6875,26.375,25.5625,28.3125,29.125,29.4375
0.08605204,-0.50309837,-0.5332243,0.1998825,-0.009113722,0.02482301,-0.13989495,-0.38275793,-0.34877825,0.059961993,-3.0781097,0.6249814,-8.812267e-05,-0.04297157,-0.0065039154,0.0027445396,0.0101071065,0.0067719556,0.001642586,0.47689122,-1.4225266,1.9536484,-2.0999758,-1.5710977,2.4519649,-0.020184893,0.07977155,-0.10223438,0.021119613,-0.012269631,-0.021744145,-0.15322891,0.22984336,-9.193734,0.7709874,47.71823,-0.6453557,-2.04913,-3.0932822,-0.22797845,-0.08810286,-0.2357823,25.6875,26.375,25.5625,28.3125,29.125,29.4375
0.08805201,-0.6906262,-0.3451426,0.46885055,-0.006811129,0.024470994,-0.13729413,-0.3828416,-0.3488063,0.05997973,-3.0781345,0.62486947,-2.3819062e-05,-0.041488346,-0.0060617235,0.00045461315,0.012197675,0.002359442,0.0028857356,0.47687945,-1.4223815,1.9534339,-2.0999396,-1.571122,2.4518802,-0.019711506,0.08236139,-0.09998126,0.021154776,-0.01209624,-0.022515388,-0.1340753,0.2681506,-9.251195,0.8247004,47.704796,-0.6437275,-2.0848095,-3.2546415,-0.19687414,-0.09844895,-0.2326352,25.6875,26.375,25.5625,28.3125,29.125,29.4375
0.09005193,-1.1113759,-0.5686925,0.49015388,-0.0042407443,0.030305032,-0.13522795,-0.3829202,-0.3488108,0.059962247,-3.0780966,0.624919,-0.00010786833,-0.044346724,-0.006529243,0.0018005793,0.012142077,0.005713892,0.0031613463,0.47680715,-1.4221888,1.9532398,-2.0998795,-1.5711101,2.4518437,-0.020535832,0.08466029,-0.10582158,0.021694694,-0.013599825,-0.023608526,-0.21068975,0.24899697,-9.270349,0.78888994,47.683304,-0.6407434,-2.1329975,-3.2051036,-0.1871737,-0.08124841,-0.22974956,25.6875,26.375,25.5625,28.3125,29.125,29.4375
0.092051886,-0.66261,-0.087460466,0.028597819,-0.011667189,0.03557552,-0.1487266,-0.38300988,-0.34881032,0.059955224,-3.0780413,0.62496483,-0.00010590222,-0.04382898,-0.0060599954,0.00055798574,0.0132549545,0.003063384,0.003697843,0.47674704,-1.4220078,1.9530381,-2.0998313,-1.5711464,2.4518194,-0.021031965,0.086296104,-0.10494737,0.022047281,-0.013370835,-0.024641516,-0.076614454,0.22984336,-9.32781,0.74413085,47.705692,-0.6766899,-2.1368067,-3.331363,-0.1969465,-0.09945057,-0.23637164,25.6875,26.375,25.5625,28.3125,29.125,29.4375
0.09405194,-0.71282136,-0.3318545,0.21232824,-0.011815635,0.03293225,-0.142556,-0.38309988,-0.34885034,0.05996332,-3.0780787,0.62489486,-6.289991e-05,-0.04464755,-0.0061685685,0.000680828,0.013574483,0.0034929842,0.0040243035,0.47673497,-1.4218273,1.9528106,-2.09982,-1.5711464,2.451759,-0.021275971,0.08762392,-0.106834896,0.022373224,-0.013854638,-0.025210457,-0.15322891,0.2681506,-9.461885,0.8179876,47.70211,-0.6856091,-2.0923347,-3.3376331,-0.19211271,-0.08809829,-0.23417377,25.6875,26.375,25.5625,28.3125,29.125,29.4375
0.096052535,-0.34155992,-0.563183,0.14869623,-0.015287352,0.032855768,-0.13968681,-0.38317004,-0.34886009,0.059949048,-3.0780249,0.6248262,-0.000102423204,-0.04480608,-0.0064552305,0.00031881774,0.013631785,0.0025963464,0.004885896,0.47671098,-1.4216344,1.9526061,-2.099747,-1.5711826,2.4516993,-0.021141531,0.08919648,-0.10789131,0.022677083,-0.013497719,-0.025936801,-0.095768064,0.22984336,-9.404425,0.7933669,47.678825,-0.67626894,-2.0633883,-3.4784813,-0.16113624,-0.08919972,-0.24771479,25.6875,26.375,25.5625,28.3125,29.125,29.4375
0.098051935,-0.73109996,-0.48198974,0.23435698,-0.025502313,0.016539723,-0.13690996,-0.38327032,-0.34885874,0.05995959,-3.077985,0.62485605,1.2370572e-05,-0.045485895,-0.0061723534,-3.1085106e-05,0.014699397,0.002242871,0.004687558,0.47666273,-1.4214897,1.9524139,-2.0997355,-1.5712546,2.451675,-0.021751957,0.09096797,-0.109208666,0.023026971,-0.014285647,-0.026346972,-0.22984336,0.2681506,-9.385271,0.7732232,47.65464,-0.70715,-2.0785966,-3.5238056,-0.14480776,-0.09663513,-0.25319514,25.6875,26.375,25.5625,28.3125,29.125,29.4375
0.100051984,-0.6846129,-0.84956104,0.006768404,-0.019916214,0.015309606,-0.13656068,-0.38338262,-0.34887856,0.05997565,-3.0779886,0.6249341,-1.2570063e-05,-0.047409806,-0.007265481,0.0010438575,0.0129258,0.0040891133,0.0043911063,0.47657862,-1.4212967,1.9521374,-2.0996516,-1.5712303,2.4516392,-0.022041496,0.09290659,-0.11398576,0.023408154,-0.013566456,-0.026338913,-0.17238252,0.3256114,-9.442732,0.8157518,47.690468,-0.74751693,-2.0306215,-3.4717474,-0.13133238,-0.080097854,-0.28051585,25.6875,26.375,25.5625,28.3125,29.125,29.4375
0.102051824,-0.3129218,-0.53342205,0.27570486,-0.02503057,0.020342585,-0.14482558,-0.38346338,-0.34889832,0.05996616,-3.0779622,0.62485,-3.717391e-05,-0.046314046,-0.006625011,-0.00043879985,0.014593806,0.000651525,0.0055036014,0.4765546,-1.4210923,1.9519113,-2.099591,-1.5712541,2.4515662,-0.02222674,0.09419849,-0.11228128,0.024229364,-0.01346796,-0.027637158,-0.15322891,0.36391866,-9.442732,0.7486078,47.67166,-0.7450268,-1.9953696,-3.648286,-0.12174034,-0.07371356,-0.27820063,25.6875,26.375,25.5625,28.3125,29.125,29.4375
0.10405192,-0.68168616,-0.9809294,0.056162365,-0.013796073,0.01147076,-0.12867935,-0.38356987,-0.34890917,0.059974562,-3.0779266,0.62484294,1.0511507e-05,-0.048253912,-0.00787553,0.0014268853,0.012220212,0.003288005,0.0053446125,0.4765066,-1.4209,1.9516586,-2.0995314,-1.5713018,2.4515185,-0.022365432,0.094786085,-0.11750572,0.02542953,-0.0125768185,-0.02761626,-0.15322891,0.28730422,-9.423578,0.7866488,47.677036,-0.7511395,-1.8763602,-3.5275412,-0.10524883,-0.07680775,-0.29748583,25.6875,26.375,25.5625,28.3125,29.125,29.4375
0.10605239,0.36671057,-0.19197567,0.071660765,-0.023593383,0.031093128,-0.14798145,-0.38366178,-0.34892082,0.059970696,-3.077915,0.6248019,3.197521e-05,-0.04848909,-0.0077396445,-7.953833e-05,0.013834116,-0.0003118425,0.0056132376,0.4764583,-1.4207181,1.9514536,-2.0995066,-1.5713261,2.4514463,-0.022956721,0.09915086,-0.11941254,0.026908025,-0.012361311,-0.02847527,-0.17238252,0.2681506,-9.385271,0.7665104,47.683304,-0.740607,-2.1244044,-3.5674324,-0.11455738,-0.09355867,-0.31028545,25.6875,26.375,25.5625,28.3125,29.125,29.4375
0.10805242,-0.51302564,-0.67876595,-0.122077,-0.0124080125,0.010911833,-0.13376817,-0.3837572,-0.3489462,0.05997495,-3.0778682,0.624772,4.9323582e-05,-0.050380215,-0.008528155,0.0020680015,0.011386487,0.003456437,0.006315075,0.4764462,-1.4205024,1.951178,-2.0994227,-1.5713738,2.4514217,-0.023576606,0.09807121,-0.12318877,0.027288651,-0.011923281,-0.029796015,-0.05746084,0.30645782,-9.404425,0.779936,47.68599,-0.75690067,-1.8886501,-3.484589,-0.09064211,-0.090840936,-0.31063417,25.6875,26.375,25.5625,28.3125,29.125,29.4375
0.11005241,-0.2915089,-0.6839494,-0.055767775,-0.014297956,0.015567262,-0.14124331,-0.38387987,-0.3489743,0.05999817,-3.0779014,0.6247402,0.00015763809,-0.050662227,-0.008959829,0.0008821171,0.012099188,0.0008152706,0.0069909105,0.4763981,-1.4203207,1.9509143,-2.0994108,-1.5713972,2.4513497,-0.023437483,0.10216343,-0.12534983,0.02802764,-0.011346673,-0.030333163,-0.038307227,0.36391866,-9.500193,0.8314132,47.677036,-0.7971673,-1.9918201,-3.5025454,-0.07761933,-0.10101327,-0.2952354,25.6875,26.375,25.5625,28.3125,29.125,29.4375
0.11205229,-0.6377558,-0.9858576,-0.30249605,-0.019417325,0.0069116103,-0.13560018,-0.3839624,-0.34899437,0.05997758,-3.0778732,0.6247333,7.1569964e-05,-0.05130579,-0.009181709,0.0017772564,0.012261406,0.0019222442,0.0066009057,0.4763503,-1.4200927,1.9506863,-2.0993502,-1.5713857,2.4513013,-0.023204586,0.10201988,-0.12758707,0.029501755,-0.012001585,-0.029707484,-0.05746084,0.34476504,-9.519346,0.77545905,47.67345,-0.81772816,-1.803616,-3.5045898,-0.07566585,-0.10656099,-0.33724296,25.6875,26.375,25.5625,28.3125,29.125,29.4375
0.11405208,-0.39294523,-0.80195636,-0.108348526,-0.038283993,0.022943392,-0.14540158,-0.38406703,-0.34901053,0.0599942,-3.0778565,0.62476856,8.213535e-05,-0.05207915,-0.009538762,0.001824299,0.012505656,0.0015425946,0.0064457124,0.4762903,-1.4199117,1.9504222,-2.0992663,-1.5713977,2.4512656,-0.023244467,0.10406516,-0.13030955,0.030627558,-0.012048055,-0.029590653,-0.095768064,0.34476504,-9.595961,0.8403672,47.684196,-0.9105744,-1.8395221,-3.5053382,-0.08521355,-0.08457783,-0.3626907,25.6875,26.375,25.5625,28.3125,29.125,29.4375
0.11605247,-0.7839081,-1.0304143,-0.17069535,-0.040471934,0.018246362,-0.13986835,-0.38417706,-0.34904268,0.05999178,-3.0778549,0.62465256,6.345228e-05,-0.052848678,-0.009292066,0.0019219628,0.013443544,0.001296429,0.0072610723,0.476254,-1.4196591,1.9501218,-2.0991938,-1.5714101,2.4511573,-0.023912137,0.10535988,-0.13235888,0.032031585,-0.01277168,-0.031070998,-0.1340753,0.38307226,-9.672575,0.7463667,47.66271,-0.8268068,-1.7922332,-3.5121279,-0.08164355,-0.0951296,-0.36461365,25.6875,26.375,25.5625,28.3125,29.125,29.4375
0.11805238,-0.4501556,-0.9970348,-0.31562984,-0.040865153,0.02934745,-0.14070772,-0.3842998,-0.34903455,0.060007226,-3.077825,0.624684,0.00013821297,-0.054239325,-0.009674412,0.0020465637,0.013732042,0.0015136618,0.008105859,0.4761579,-1.4194901,1.9498819,-2.0991457,-1.5714582,2.4510849,-0.024265941,0.10814145,-0.13603495,0.032862872,-0.0131341275,-0.032267082,-0.095768064,0.4405331,-9.615114,0.86498255,47.67614,-0.9088337,-1.8123941,-3.4510045,-0.07472218,-0.09967774,-0.35228154,25.6875,26.375,25.5625,28.3125,29.125,29.4375
0.120052315,-0.70675904,-1.0473595,-0.18412896,-0.033759758,0.020259934,-0.13859284,-0.38440892,-0.34906232,0.060009096,-3.0778034,0.62462056,0.00012965451,-0.054964576,-0.010088599,0.0017486073,0.013531384,0.0007020341,0.008920538,0.47612184,-1.4192487,1.949582,-2.0990617,-1.5714816,2.4510121,-0.024543839,0.11062233,-0.13831928,0.033291575,-0.012589376,-0.03335907,-0.076614454,0.30645782,-9.710882,0.8023209,47.694946,-0.88490593,-1.812264,-3.4376655,-0.06574993,-0.099749245,-0.3542856,25.6875,26.375,25.5625,28.3125,29.125,29.4375
0.12205223,-0.5406343,-1.0015419,-0.3410889,-0.022429084,0.016048657,-0.14019592,-0.38453272,-0.34908876,0.06002314,-3.0777931,0.6245977,0.00022043486,-0.056722965,-0.010891932,0.0017661885,0.014006521,0.00061659346,0.011163494,0.4760859,-1.4190313,1.9492925,-2.0990255,-1.5715297,2.4509635,-0.02447711,0.11500061,-0.14369124,0.034576345,-0.012981358,-0.03553191,-0.076614454,0.30645782,-9.595961,0.7284641,47.70838,-0.9771976,-1.8038653,-3.2351925,-0.05895009,-0.085629664,-0.34304518,25.6875,26.375,25.5625,28.3125,29.125,29.4375
0.12405236,-0.5536311,-0.7140529,-0.35588285,-0.016540907,0.008406598,-0.13665763,-0.38461295,-0.34909222,0.060007013,-3.0777364,0.62460476,0.00014344396,-0.05821565,-0.012112003,0.0032941573,0.011628234,0.0026524886,0.011851892,0.47602597,-1.4188269,1.949076,-2.098941,-1.5715417,2.4509153,-0.024435854,0.11548264,-0.1479562,0.03545383,-0.011810929,-0.03617862,-0.076614454,0.40222588,-9.5385,0.8605109,47.704796,-0.9679266,-1.9309924,-3.3253274,-0.06718824,-0.11477136,-0.3352818,25.6875,26.375,25.5625,28.3125,29.125,29.4375
0.12605178,-0.6469139,-0.8570561,-0.11559261,-0.013707858,0.010366547,-0.13646781,-0.3847473,-0.34914154,0.060032427,-3.0777762,0.6244791,0.0001692179,-0.058572944,-0.011962202,0.0007717678,0.013977835,-0.0004222531,0.011096628,0.4759898,-1.4185725,1.9487046,-2.0988457,-1.5715417,2.450796,-0.024580058,0.12142047,-0.14872019,0.034092225,-0.012494212,-0.035564885,-0.076614454,0.38307226,-9.576807,0.77545905,47.693153,-1.0163643,-1.9966948,-3.3655305,-0.023356715,-0.1174567,-0.34784192,25.6875,26.375,25.5625,28.3125,29.125,29.4375
0.12805179,-0.8441938,-0.9983462,-0.37530854,-0.020099953,0.015537231,-0.13859119,-0.38486922,-0.34917316,0.060054217,-3.0778003,0.62450105,0.00025369364,-0.059707392,-0.012535845,0.002057467,0.012599186,0.0021247661,0.012902094,0.4759418,-1.4183807,1.9484295,-2.0988219,-1.5715541,2.4507587,-0.024629591,0.12084709,-0.15101308,0.03405993,-0.012440018,-0.037419748,-0.17238252,0.40222588,-9.557653,0.784413,47.684196,-1.0399132,-1.9345236,-3.2706945,0.0007760639,-0.112908006,-0.3445744,25.6875,26.375,25.5625,28.3125,29.125,29.4375
0.1300522,-0.6134617,-1.0094362,-0.029942213,-0.040874857,0.036103442,-0.14017907,-0.38499287,-0.34919256,0.060050245,-3.0777633,0.6244148,0.00026860842,-0.060007244,-0.01225838,0.001235381,0.014619138,-0.00045589215,0.015275951,0.47589362,-1.4181151,1.9481176,-2.0987494,-1.5716022,2.4506617,-0.024988601,0.123957925,-0.15326975,0.036422268,-0.013055394,-0.04014994,-0.21068975,0.38307226,-9.595961,0.800085,47.675243,-1.131856,-1.968688,-3.3052368,-0.0069001094,-0.11539269,-0.32936072,25.6875,26.375,25.5625,28.3125,29.125,29.4375
0.13205206,-0.75200105,-1.3278888,-0.10121103,-0.03989825,0.04184096,-0.14150432,-0.38509104,-0.34919822,0.06003788,-3.0777094,0.6243652,0.00017493652,-0.0604309,-0.011728085,0.00091357995,0.015033623,-0.0017545952,0.014740858,0.47582123,-1.4178746,1.9478425,-2.0986292,-1.5716141,2.4505653,-0.026445258,0.12500764,-0.15399876,0.03744274,-0.012832736,-0.041070588,-0.19153613,0.38307226,-9.576807,0.7553206,47.685097,-1.0440176,-1.9933989,-3.3875399,-0.0024855118,-0.11113525,-0.3098548,25.6875,26.375,25.5625,28.3125,29.125,29.4375
0.13405223,-0.92331547,-1.3030488,0.13766974,-0.043414775,0.04202252,-0.14717942,-0.38524073,-0.3492464,0.06007286,-3.0777528,0.624355,0.0003137762,-0.061394963,-0.011484044,0.0013254025,0.01571929,-0.0017640237,0.0153324,0.47578475,-1.417646,1.9474949,-2.0986044,-1.5716385,2.4505172,-0.027358169,0.12602031,-0.15654936,0.039302353,-0.013436431,-0.042574015,-0.28730422,0.45968673,-9.557653,0.8314132,47.690468,-1.0826516,-1.8527286,-3.290966,-0.005702276,-0.14075077,-0.28810984,25.6875,26.375,25.5625,28.3125,29.125,29.4375
0.1360521,-0.87749946,-1.4467999,0.11428899,-0.03236106,0.044816535,-0.13558541,-0.38536662,-0.34928295,0.060064264,-3.077746,0.62425506,0.000319717,-0.061729223,-0.011936545,0.00049775286,0.016840871,-0.0033252677,0.017723264,0.4757492,-1.4173567,1.9471716,-2.0985568,-1.5716623,2.4504204,-0.026671588,0.12947226,-0.15881798,0.040018387,-0.013723545,-0.044276077,-0.28730422,0.40222588,-9.442732,0.8090337,47.63852,-1.1482948,-1.9860902,-3.434737,-0.0041209976,-0.12659574,-0.2869501,25.6875,26.375,25.5625,28.3125,29.125,29.4375
0.138052,-1.3605362,-0.7268806,0.4191583,-0.021378433,0.024724493,-0.138582,-0.38546845,-0.34930417,0.060071126,-3.077731,0.62417346,0.00028778135,-0.06251922,-0.01209677,0.00048537212,0.016144065,-0.0026141678,0.019018814,0.475701,-1.4171402,1.9468831,-2.0984495,-1.5716742,2.4503233,-0.027285911,0.13044038,-0.15968741,0.038964216,-0.013437328,-0.046185352,-0.34476504,0.3256114,-9.308656,0.8224646,47.67166,-1.1537088,-1.8199399,-3.446519,0.012600886,-0.1276874,-0.24274462,25.6875,26.375,25.5625,28.3125,29.125,29.4375
0.14005202,-1.0888352,-0.14998558,0.5278029,-0.01819174,0.031540014,-0.1422619,-0.38563606,-0.34933534,0.060096912,-3.0777473,0.6240796,0.00043203722,-0.06350695,-0.012787991,0.00033885657,0.016645085,-0.0024007815,0.021102736,0.47564122,-1.4168751,1.9465116,-2.0984132,-1.5717343,2.4502032,-0.026603028,0.13344789,-0.16288984,0.03919576,-0.0139849335,-0.047584306,-0.21068975,0.2873042,-9.136273,0.80679786,47.709274,-1.2385378,-1.7229514,-3.5347023,0.029971164,-0.13720097,-0.21933702,25.6875,26.375,25.5625,28.3125,29.125,29.4375
0.1420522,-0.30719724,0.28346822,0.55763113,0.0048831487,0.026976286,-0.14382555,-0.38579586,-0.34937277,0.060122658,-3.077777,0.6241034,0.0005263615,-0.063790925,-0.011970503,-0.00068731804,0.018395731,-0.0058720065,0.021014918,0.47556865,-1.4166212,1.946153,-2.0983765,-1.5717462,2.450142,-0.02831419,0.13624148,-0.16437112,0.04176751,-0.013947546,-0.049208045,-0.17238252,0.24899697,-9.097966,0.80456203,47.694946,-1.2428026,-1.8633559,-3.546874,0.025096666,-0.14785539,-0.18582982,25.6875,26.375,25.5625,28.3125,29.125,29.4375
0.14405207,-0.06407896,0.49347642,0.64743274,0.022432748,0.01227562,-0.14365621,-0.3859187,-0.34941345,0.060128402,-3.0778122,0.6239384,0.0004982997,-0.06504678,-0.011930181,-0.0010246426,0.018979235,-0.007136363,0.021279143,0.47552025,-1.4163563,1.9458164,-2.098292,-1.5717343,2.4499862,-0.029557548,0.13950196,-0.1677145,0.043239705,-0.013893343,-0.050713755,-0.11492168,0.17238252,-8.963891,0.85155696,47.690468,-1.1795123,-1.8415858,-3.4569292,0.01642023,-0.14133358,-0.15796304,25.6875,26.375,25.5625,28.3125,29.125,29.4375
0.14605166,-0.3533679,0.6820367,0.86686724,0.029731562,-0.008724049,-0.13907997,-0.38602895,-0.34942824,0.060106575,-3.0777376,0.6238454,0.0004684068,-0.065728076,-0.01214847,0.00014873128,0.018679865,-0.0061081885,0.022351004,0.4754841,-1.4160684,1.9455165,-2.0982077,-1.5717944,2.4499018,-0.029649239,0.13889165,-0.17019036,0.045270596,-0.014103373,-0.051875222,-0.076614454,0.1340753,-8.848969,0.8157518,47.67614,-1.2383679,-1.6196191,-3.4438744,0.021958042,-0.17158276,-0.11966244,25.6875,26.375,25.5625,28.3125,29.125,29.4375
0.14805265,-0.036561966,0.602658,0.9554689,0.033288684,0.00817866,-0.13926163,-0.3861719,-0.3494414,0.060109533,-3.0776978,0.623818,0.0004706984,-0.06722825,-0.012009114,0.0004482571,0.019856147,-0.0068683927,0.02091483,0.47539982,-1.4157909,1.9451689,-2.098111,-1.5718306,2.4498057,-0.030796641,0.14164093,-0.17475694,0.04830208,-0.014806542,-0.0515826,-0.095768064,0.05746084,-8.810662,0.8806493,47.68062,-1.2695947,-1.8177897,-3.4296002,-0.00044691283,-0.16580619,-0.09753689,25.6875,26.375,25.5625,28.3125,29.125,29.4375
0.15005168,-0.6519892,0.7660158,1.0043961,0.016303932,0.0039965375,-0.13418323,-0.3863269,-0.3494738,0.06014325,-3.0777147,0.62380344,0.0004958838,-0.0676347,-0.011082828,-0.00026502664,0.021940492,-0.010378961,0.017989408,0.47531524,-1.415538,1.9447736,-2.0979898,-1.5718306,2.4497101,-0.03262683,0.1442415,-0.17699318,0.05201402,-0.015049174,-0.050486423,-0.15322891,0.0,-8.829816,0.83589023,47.691364,-1.1349938,-1.7387533,-3.5245516,-0.019223625,-0.16068277,-0.08466312,25.6875,26.375,25.5625,28.3125,29.125,29.4375
0.15205166,-0.87865996,0.03435825,0.8142933,0.023984194,0.007957854,-0.13435633,-0.3864419,-0.34949294,0.06012898,-3.077657,0.62371475,0.00044150391,-0.06743338,-0.011042564,-0.00038829664,0.023875648,-0.012479419,0.017911255,0.4752674,-1.415249,1.9444493,-2.097881,-1.5718673,2.4496145,-0.032013077,0.14573482,-0.17926906,0.05555084,-0.015809689,-0.049791183,-0.11492168,0.038307227,-8.925584,0.7597976,47.70032,-1.1737008,-1.7656386,-3.3749077,-0.07267376,-0.18522525,-0.088005565,25.6875,26.375,25.5625,28.3125,29.125,29.4375
0.15405272,-1.2509875,-0.24216995,0.8628055,0.02295145,0.00349413,-0.13579622,-0.38658687,-0.349528,0.06012662,-3.077633,0.6236507,0.00045740054,-0.067114644,-0.011069927,-0.0020076914,0.026387936,-0.017696552,0.018989103,0.4752194,-1.4149352,1.9440774,-2.0978081,-1.5719026,2.44953,-0.031761438,0.15063064,-0.18208647,0.059256837,-0.015656447,-0.050616093,-0.21068975,0.076614454,-8.944737,0.9388393,47.688675,-1.2475243,-1.7625272,-3.282497,-0.110285275,-0.19751239,-0.058393046,25.6875,26.375,25.5625,28.3125,29.125,29.4375
0.15605174,-1.0948683,-0.12621115,0.5586363,0.016336076,0.008582339,-0.13441323,-0.3866901,-0.3495409,0.060112208,-3.0775464,0.6235582,0.0003451756,-0.06801985,-0.010948481,0.00012497499,0.0250328,-0.015514327,0.015364308,0.475171,-1.414648,1.9437417,-2.0976393,-1.5719389,2.449435,-0.032917406,0.14771086,-0.18419543,0.061725106,-0.015454179,-0.048145805,-0.24899697,0.21068975,-8.944737,0.83589023,47.674347,-1.2478576,-1.6670109,-3.2490456,-0.16542426,-0.17138627,-0.058071867,25.6875,26.375,25.5625,28.3125,29.125,29.4375
0.15805194,-0.36874926,-0.6839675,0.46888316,0.005524528,0.031604037,-0.13859151,-0.3868469,-0.3495585,0.06013171,-3.077522,0.6235351,0.00034856316,-0.06884856,-0.010211,-0.0009809919,0.027462073,-0.01848631,0.01162016,0.47507453,-1.4143701,1.9433473,-2.0975068,-1.5719632,2.4493275,-0.034437332,0.15172301,-0.18687256,0.06414741,-0.016256694,-0.045918092,-0.28730422,0.38307226,-9.097966,0.83589023,47.690468,-1.1714697,-1.8012304,-3.2615519,-0.20596209,-0.18367288,-0.09009848,25.6875,26.375,25.5625,28.3125,29.125,29.4375
0.16005187,-0.77645093,-0.96693575,0.21272536,-0.012372429,0.024979718,-0.13384609,-0.386972,-0.3495442,0.06009631,-3.0773864,0.6235659,0.00021985482,-0.07031182,-0.0100660985,-0.00067148544,0.027449876,-0.018768145,0.009511149,0.47496602,-1.4140452,1.9430217,-2.0973628,-1.5720114,2.4492557,-0.03608877,0.15367015,-0.19024135,0.06581038,-0.016129706,-0.045456953,-0.3256114,0.38307226,-9.136273,0.8224646,47.677036,-1.1162037,-1.6588486,-3.3256187,-0.26023903,-0.19498274,-0.08618375,25.6875,26.375,25.5625,28.3125,29.125,29.4375
0.16205187,-1.2526098,-1.4023713,0.18411219,-0.029024892,0.029964434,-0.14220577,-0.3871332,-0.34957862,0.060118385,-3.0773478,0.6234807,0.00026138852,-0.07073304,-0.01019495,-0.000792974,0.028500646,-0.019184634,0.009475781,0.47491813,-1.4137324,1.9425787,-2.0972188,-1.5720714,2.4491599,-0.035749156,0.15535262,-0.19219808,0.06693533,-0.016877055,-0.045079023,-0.47884035,0.28730422,-9.212888,0.7486078,47.681515,-1.2130154,-1.6641461,-3.2805254,-0.30919755,-0.18747692,-0.100413546,25.6875,26.375,25.5625,28.3125,29.125,29.4375
0.164052,-1.5291455,-1.4604783,0.018077286,-0.04242374,0.045471173,-0.13879253,-0.3872411,-0.3496165,0.06010137,-3.0773053,0.6232991,0.00013787142,-0.07167507,-0.010533965,-0.0012141828,0.028410148,-0.019391486,0.008717285,0.474894,-1.4134071,1.9422077,-2.0970633,-1.5720834,2.449028,-0.03610655,0.15801755,-0.19424155,0.06645553,-0.016712788,-0.04467509,-0.40222588,0.28730422,-9.3661175,0.8537928,47.70211,-1.1711557,-1.700491,-3.3606586,-0.33352518,-0.19486275,-0.08467175,25.6875,26.375,25.5625,28.3125,29.125,29.4375
0.1660521,-1.6589442,-1.4266992,-0.05778208,-0.045967616,0.053651813,-0.13381256,-0.38739437,-0.3496104,0.060100496,-3.0771897,0.6232768,0.000117624375,-0.073882885,-0.010831324,-0.0002635831,0.027019367,-0.015973892,0.0040022647,0.4747977,-1.4130945,1.9418119,-2.0968964,-1.5721678,2.448933,-0.0373543,0.1588778,-0.19705555,0.06473515,-0.017051006,-0.04120385,-0.36391866,0.40222588,-9.3661175,0.81351066,47.707485,-1.136287,-1.5811497,-3.3419542,-0.35745838,-0.21194218,-0.148592,25.6875,26.375,25.5625,28.3125,29.125,29.4375
0.16805227,-1.4973576,-1.5005422,-0.0285378,-0.043596778,0.060991723,-0.13779303,-0.3875428,-0.34965304,0.060088694,-3.0771744,0.6232358,7.0246126e-05,-0.074826404,-0.010705599,-0.002003534,0.028031815,-0.01678121,0.0024112544,0.4747374,-1.4127448,1.9414171,-2.0968134,-1.5721678,2.4488492,-0.03807011,0.1632581,-0.19757283,0.06205531,-0.017591942,-0.040325258,-0.36391866,0.38307226,-9.500193,0.7486078,47.68599,-1.1704557,-1.5210071,-3.4637094,-0.36338505,-0.21788059,-0.17182447,25.6875,26.375,25.5625,28.3125,29.125,29.4375
0.17005242,-1.306584,-0.9107697,-0.092439994,-0.055102926,0.062495496,-0.14476322,-0.38770986,-0.34966713,0.06010662,-3.077105,0.62331814,8.837024e-05,-0.07773084,-0.011677025,-0.00029383294,0.024700599,-0.010923336,0.0018567769,0.47464094,-1.4124444,1.940998,-2.0966713,-1.5722159,2.4488132,-0.039149072,0.16344412,-0.20092577,0.05848408,-0.01732589,-0.040847898,-0.3256114,0.36391866,-9.461885,0.91198283,47.70838,-1.1006056,-1.6546838,-3.5553164,-0.34295934,-0.21158335,-0.17957062,25.6875,26.375,25.5625,28.3125,29.125,29.4375
0.17205216,-1.2938563,-1.2210974,-0.21298248,-0.030728003,0.04432564,-0.13278465,-0.38787133,-0.34967694,0.060098354,-3.0770242,0.62328243,9.570038e-05,-0.07847983,-0.011783216,-0.0018396985,0.024945086,-0.012268027,0.0011902563,0.4745567,-1.4121065,1.9406031,-2.096564,-1.572287,2.4487174,-0.03987097,0.16750336,-0.20166998,0.05647105,-0.016939087,-0.040902223,-0.24899697,0.3256114,-9.557653,0.80456203,47.693153,-1.0840685,-1.8214719,-3.6107697,-0.3183277,-0.2070336,-0.19164513,25.6875,26.375,25.5625,28.3125,29.125,29.4375
0.17405225,-1.2449932,-0.99925494,-0.2808712,-0.029486157,0.028408881,-0.12616298,-0.38801196,-0.34972435,0.06007944,-3.077017,0.6232225,-3.2545709e-06,-0.07969764,-0.012348641,-0.0029211729,0.024229778,-0.012100967,0.00082074787,0.47449672,-1.4117447,1.9402078,-2.0964696,-1.5722631,2.448621,-0.040316373,0.17137697,-0.203052,0.05350192,-0.016392946,-0.040976945,-0.2681506,0.30645782,-9.576807,0.8537928,47.695843,-1.0944374,-1.8600819,-3.6146336,-0.30505484,-0.2482506,-0.2106017,25.6875,26.375,25.5625,28.3125,29.125,29.4375
0.17605248,-1.0172856,-1.1913996,-0.2897236,-0.026999157,0.026721492,-0.13735402,-0.38820207,-0.34975013,0.060100123,-3.0769844,0.6232735,7.397494e-05,-0.082717195,-0.013034635,-0.002711774,0.022974176,-0.0070362035,-0.0002036143,0.4744003,-1.4114195,1.9397644,-2.0963762,-1.5723118,2.448561,-0.041046537,0.17447032,-0.20595366,0.048232637,-0.017608816,-0.040677138,-0.19153613,0.21068975,-9.576807,0.8560339,47.66808,-1.0682404,-1.9690766,-3.6904864,-0.24122259,-0.23921159,-0.23784912,25.6875,26.375,25.5625,28.3125,29.125,29.4375
0.17805181,-0.61777264,-0.64361423,-0.03822473,-0.029617574,0.03783407,-0.13639846,-0.38836586,-0.3497719,0.060100906,-3.0769386,0.6232254,0.00011583403,-0.08473201,-0.013387679,-0.0023163196,0.022120025,-0.004650102,-0.00056917657,0.4743281,-1.4110948,1.9393691,-2.0962923,-1.5723718,2.4484649,-0.042013574,0.1764664,-0.20884372,0.046610355,-0.017951349,-0.041275583,-0.095768064,0.21068975,-9.576807,0.7665104,47.67166,-1.0623993,-1.9707241,-3.7727766,-0.21270256,-0.22233176,-0.25664034,25.6875,26.375,25.5625,28.3125,29.125,29.4375
0.18005182,-1.0403277,-0.70261216,-0.108557135,-0.015261129,0.017336955,-0.13667837,-0.38851714,-0.34980223,0.06006636,-3.0768933,0.62321556,2.321395e-05,-0.08555751,-0.013756034,-0.0038220768,0.022753626,-0.007080296,-0.0005165702,0.47424382,-1.4107087,1.9389862,-2.0962207,-1.5723718,2.4483805,-0.04243723,0.18162401,-0.2113851,0.04644123,-0.017416097,-0.041750118,-0.13407528,0.21068975,-9.5385,0.8605109,47.69763,-1.0918669,-1.98408,-3.6579351,-0.17790332,-0.25207525,-0.26563606,25.6875,26.375,25.5625,28.3125,29.125,29.4375
0.18205188,-0.67166114,-0.5214258,-0.24127781,-0.010706172,0.025068186,-0.13054977,-0.3887057,-0.34982744,0.060081474,-3.0768645,0.6232093,8.404391e-05,-0.08802543,-0.014338068,-0.0016068119,0.021006,-0.0029244712,-0.0007492825,0.47414768,-1.4103724,1.9385418,-2.0961244,-1.57242,2.4482844,-0.04339695,0.18126425,-0.21624765,0.047164615,-0.017769696,-0.042474337,-0.15322891,0.26815057,-9.481039,0.7217513,47.685097,-1.0528054,-1.9512634,-3.475051,-0.15814942,-0.2758897,-0.28168216,25.6875,26.375,25.5625,28.3125,29.125,29.4375
0.18405204,-0.82021534,-0.6112035,-0.104201674,-0.0055665104,0.022986203,-0.13479619,-0.3889228,-0.34987438,0.060136136,-3.0768797,0.62321144,0.0002317875,-0.089165054,-0.015055213,-0.0016867919,0.02010925,-0.0017509682,3.0137258e-05,0.47406355,-1.4100473,1.9380149,-2.0960057,-1.5724677,2.4482,-0.043304376,0.18345743,-0.21828553,0.045550205,-0.017514082,-0.043161906,-0.17238252,0.3256114,-9.3661175,0.88289046,47.68062,-1.0751171,-1.9436493,-3.4716523,-0.12161213,-0.26163653,-0.30386817,25.6875,26.375,25.5625,28.3125,29.125,29.4375
0.18605247,-0.18030049,-0.3683966,-0.0027308487,-0.016502228,0.032101348,-0.150444,-0.38907486,-0.34989163,0.060071003,-3.0767932,0.6231553,0.00013194873,-0.0913354,-0.014660462,-0.0012995425,0.020041827,-0.00019320432,-0.0017767015,0.47397897,-1.409614,1.9376549,-2.0959694,-1.5725039,2.4480917,-0.045513842,0.18528411,-0.22130328,0.045323174,-0.0181784,-0.043559134,-0.22984336,0.30645782,-9.442732,0.8179876,47.689575,-1.0730814,-2.0115678,-3.4490595,-0.069667876,-0.27391216,-0.3218159,25.6875,26.375,25.5625,28.3125,29.125,29.4375
0.1880524,-1.0525007,-1.2734935,-0.13667792,-0.031371746,0.02770447,-0.13780305,-0.38926128,-0.34991497,0.06009341,-3.0767565,0.6232051,0.000109835666,-0.09157594,-0.01463435,-0.0011242764,0.021019451,-0.0014922393,-0.0014235144,0.47385874,-1.4092773,1.9371766,-2.0958006,-1.5725163,2.4480076,-0.04556486,0.18640426,-0.22370763,0.048207004,-0.018456955,-0.043961342,-0.38307226,0.36391866,-9.5385,0.8627467,47.694946,-0.9818045,-1.9334228,-3.5011213,-0.08525281,-0.2825596,-0.3241297,25.6875,26.375,25.5625,28.3125,29.125,29.4375
0.19005246,-1.0190563,-1.585748,-0.103185594,-0.045070022,0.03530252,-0.13742115,-0.3894546,-0.34995666,0.0600967,-3.07672,0.6232347,0.00017032657,-0.091619655,-0.015322147,-0.0006942324,0.021288075,-0.0014922031,-0.00026761743,0.47378743,-1.4088931,1.9367088,-2.0957286,-1.5725645,2.4479597,-0.044216003,0.1870703,-0.22589806,0.049851812,-0.018696968,-0.04376719,-0.36391866,0.38307226,-9.442732,0.8537928,47.689575,-1.1067955,-1.804818,-3.3722787,-0.073407724,-0.29183275,-0.35680673,25.6875,26.375,25.5625,28.3125,29.125,29.4375
0.19205257,-1.8870589,-2.0204766,-0.0013696133,-0.038944904,0.033005256,-0.12398789,-0.38962665,-0.34999803,0.060086563,-3.0766873,0.62317055,0.00016976382,-0.0925613,-0.01478473,-0.0016214814,0.022740325,-0.0034549339,-0.0015352622,0.47372687,-1.4085072,1.9362668,-2.0956442,-1.5726002,2.4478636,-0.04573126,0.19047233,-0.22804175,0.051000927,-0.019098153,-0.044011906,-0.40222588,0.40222588,-9.519346,0.7396539,47.651955,-1.1018591,-1.9406841,-3.4977975,-0.06672551,-0.27293557,-0.37290263,25.6875,26.375,25.5625,28.3125,29.125,29.4375
0.1940527,-1.3134667,-1.2569973,-0.053804494,-0.045055002,0.04400488,-0.13589424,-0.3897968,-0.35000247,0.060057122,-3.0765822,0.62314856,0.00010685177,-0.09332214,-0.015169875,-0.001355402,0.02212579,-0.00436533,-0.0016848467,0.47361863,-1.4081105,1.9358481,-2.095524,-1.5726599,2.4477553,-0.04632374,0.19210412,-0.23103444,0.05288273,-0.018144622,-0.044454604,-0.24899697,0.34476504,-9.481039,0.88960326,47.64837,-1.0578717,-1.8723109,-3.4753008,-0.06677395,-0.31325358,-0.41044083,25.6875,26.375,25.5625,28.3125,29.125,29.4375
0.19605194,-1.5069975,-1.2677087,0.16354944,-0.014826818,0.031769693,-0.12760526,-0.389992,-0.350053,0.06006487,-3.076578,0.62314826,0.00015595839,-0.094941214,-0.014454253,-0.00056401535,0.02145719,-0.0033104979,-0.0042336835,0.47354573,-1.407726,1.9353694,-2.0954516,-1.5726837,2.447683,-0.049082626,0.19198065,-0.23294589,0.053670835,-0.018033355,-0.04466479,-0.21068975,0.3256114,-9.461885,0.84484416,47.67345,-0.95796216,-1.8099577,-3.3950458,-0.036533497,-0.33985394,-0.419565,25.6875,26.375,25.5625,28.3125,29.125,29.4375
0.19805185,-0.85828793,-0.5919785,0.24950755,6.39711e-05,0.03428536,-0.13304383,-0.39022052,-0.35007372,0.060090482,-3.0765493,0.6231607,0.00025532345,-0.09577878,-0.015124127,-2.9180299e-05,0.021702817,-0.00186827,-0.0023081559,0.473414,-1.4073534,1.9348553,-2.0953438,-1.5727443,2.4475632,-0.048059266,0.19319257,-0.23572107,0.054058813,-0.018916164,-0.045563687,-0.22984336,0.24899697,-9.270349,0.8627467,47.670765,-0.9760535,-1.752389,-3.4714613,-0.028295191,-0.3324198,-0.4609108,25.6875,26.375,25.5625,28.3125,29.125,29.4375
0.20005223,-0.4774471,0.2813766,0.19439821,0.0073988694,0.03415749,-0.13939142,-0.39041126,-0.35012236,0.0601,-3.0765314,0.6231543,0.00027729684,-0.096433826,-0.01564286,-8.059276e-05,0.021835407,-0.001830277,-5.5705186e-05,0.47334227,-1.4069684,1.9343637,-2.0952365,-1.5727686,2.44749,-0.047621563,0.19516139,-0.2380342,0.054424025,-0.019059228,-0.04737683,-0.22984336,0.21068975,-9.251195,0.84484416,47.681515,-1.0934856,-1.7833002,-3.5557022,0.019984575,-0.3508041,-0.47787136,25.6875,26.375,25.5625,28.3125,29.125,29.4375
0.20205222,-0.3978296,0.18590409,0.019621579,0.019177184,0.026071977,-0.13559933,-0.39063692,-0.35014552,0.060109433,-3.0764961,0.6232051,0.00034615974,-0.09810554,-0.015029969,-0.0013299611,0.023014974,-0.004376991,-0.0013181362,0.47320932,-1.4065701,1.9338621,-2.0951521,-1.5728163,2.4473937,-0.050230145,0.20022243,-0.24135454,0.055479757,-0.018955886,-0.048721638,-0.1340753,0.19153613,-9.270349,0.84484416,47.65643,-0.9341651,-1.923884,-3.53553,0.013619671,-0.36588612,-0.46835953,25.6875,26.375,25.5625,28.3125,29.125,29.4375
0.20405222,-0.6880703,-0.011856516,0.20389566,0.01796352,0.012101547,-0.14056206,-0.39080685,-0.35017118,0.060069624,-3.0764136,0.6232246,0.00019371994,-0.09846216,-0.014316783,-0.0016052754,0.025216084,-0.0070609003,0.0015732332,0.47310096,-1.406125,1.9334072,-2.0950186,-1.5728167,2.4473083,-0.051290527,0.20218396,-0.24400236,0.059550233,-0.019702485,-0.052668072,-0.17238252,0.076614454,-9.193734,0.947788,47.658226,-0.91099566,-1.8205142,-3.491232,0.038691606,-0.3629123,-0.47323042,25.6875,26.375,25.5625,28.3125,29.125,29.4375
0.20605221,-0.1387326,0.5318449,0.39269337,-0.004756629,0.019476028,-0.15078944,-0.39098978,-0.35022062,0.060066447,-3.0763953,0.623045,0.00020713154,-0.098422036,-0.014085634,-0.0014149082,0.026688736,-0.00841127,0.004743732,0.47305304,-1.4057164,1.9329165,-2.09491,-1.5728649,2.447151,-0.05118603,0.20272563,-0.24585988,0.06273144,-0.02040204,-0.055731133,-0.15322891,0.095768064,-9.174581,0.8247004,47.668976,-0.89631677,-1.8495858,-3.4581394,-0.019873982,-0.3540289,-0.43654156,25.6875,26.375,25.5625,28.3125,29.125,29.4375
0.20805222,-0.4344988,0.42743096,0.40734065,0.0037047013,0.017804962,-0.13614461,-0.39119977,-0.3502178,0.060064334,-3.0763004,0.62308353,0.00018694357,-0.099297084,-0.013616148,-0.001760692,0.028467473,-0.010437905,0.004144883,0.4728966,-1.4053191,1.9324254,-2.094753,-1.5729245,2.447031,-0.052326135,0.20556137,-0.2491156,0.06576062,-0.021070054,-0.056267697,-0.1340753,0.076614454,-9.251195,0.7866488,47.684196,-0.8663975,-1.8948822,-3.5451107,-0.008816668,-0.3836634,-0.44991633,25.6875,26.375,25.5625,28.3125,29.125,29.4375
0.21005198,-0.20001204,0.84110576,0.40715984,0.0125610605,0.01688406,-0.1378283,-0.39140055,-0.35026115,0.06007089,-3.0763025,0.62311983,0.00014386066,-0.099027626,-0.013053768,-0.0023485983,0.031072054,-0.015052339,0.0073665283,0.47277647,-1.4049218,1.9319223,-2.094632,-1.5729011,2.4469335,-0.05288758,0.20811114,-0.25210068,0.07148138,-0.02129086,-0.060049053,-0.05746084,0.019153614,-9.212888,0.8940802,47.67345,-0.85447484,-2.002079,-3.4359078,-0.056561023,-0.38333482,-0.41858268,25.6875,26.375,25.5625,28.3125,29.125,29.4375
0.2120521,-0.04523421,0.4851161,0.36956495,0.021872848,0.01162196,-0.14240392,-0.39161617,-0.35027114,0.060052034,-3.0761938,0.6230352,0.00016934185,-0.09887494,-0.012307155,-0.0023002105,0.033599697,-0.018551953,0.0134736225,0.4726683,-1.404465,1.9314083,-2.0945103,-1.5730089,2.4467869,-0.053591993,0.20925279,-0.2549728,0.077456154,-0.021959258,-0.06685669,-0.076614454,0.05746084,-9.136273,0.7933669,47.670765,-0.88270676,-1.9484124,-3.511734,-0.13173501,-0.38821882,-0.352488,25.6875,26.375,25.5625,28.3125,29.125,29.4375
0.21405248,-0.20649059,0.07727761,0.28175387,0.027181724,0.009233056,-0.13486283,-0.39180726,-0.35031676,0.060064718,-3.0761726,0.62297285,0.00013436357,-0.099690795,-0.012101803,-0.0020851379,0.034347653,-0.018706998,0.013436591,0.47258404,-1.4040686,1.9308814,-2.094342,-1.5730218,2.4466667,-0.054266702,0.21041836,-0.25724992,0.07904431,-0.022562293,-0.06749075,-0.076614454,0.15322891,-9.136273,1.0171678,47.661808,-0.8364767,-1.8875675,-3.5579553,-0.14741477,-0.40398443,-0.30825922,25.6875,26.375,25.5625,28.3125,29.125,29.4375
0.21605253,-0.30597064,0.5318449,0.28542233,0.006640445,0.0063382797,-0.14350308,-0.39199844,-0.35031343,0.060028348,-3.0760357,0.62298167,5.2356423e-05,-0.10048063,-0.012114749,-0.0026894629,0.035915565,-0.020762194,0.01594757,0.47245193,-1.4036229,1.9304146,-2.0941975,-1.5730938,2.446558,-0.05460951,0.21407227,-0.26072907,0.08140018,-0.023043333,-0.070338525,-0.17238252,0.21068975,-9.155427,0.8537928,47.661808,-0.782679,-1.9882691,-3.4409637,-0.20694494,-0.40415812,-0.2860578,25.6875,26.375,25.5625,28.3125,29.125,29.4375
0.21805172,-0.5923159,-0.7272159,0.12641236,0.00940218,0.008918916,-0.13624695,-0.39221746,-0.3503224,0.060026463,-3.0759184,0.6228789,2.4147288e-05,-0.101423405,-0.01195695,-0.0024182675,0.036742825,-0.021358285,0.018411549,0.47233155,-1.4031659,1.9298395,-2.093981,-1.5731896,2.446389,-0.05538275,0.2156742,-0.26383626,0.08379678,-0.023527622,-0.073570706,-0.15322891,0.2681506,-9.174581,0.82694155,47.647476,-0.8129723,-1.9526956,-3.443563,-0.23572531,-0.402287,-0.23364979,25.6875,26.375,25.5625,28.3125,29.125,29.4375
0.22005169,-0.8799423,-0.8049176,0.39590707,-0.021627659,0.025640305,-0.13824268,-0.39237523,-0.35035524,0.06001077,-3.0758772,0.6227351,-0.000112655034,-0.10226668,-0.011544604,-0.002607788,0.037489027,-0.022144698,0.018283151,0.47224724,-1.4027685,1.9293731,-2.0938013,-1.5731901,2.4462204,-0.056625053,0.21735775,-0.26571447,0.085027635,-0.023849204,-0.07468009,-0.17238252,0.2873042,-9.212888,0.84708,47.675243,-0.7277281,-2.015631,-3.4852636,-0.29084358,-0.4119658,-0.20175987,25.6875,26.375,25.5625,28.3125,29.125,29.4375
0.22205159,-1.2667216,-1.5855107,0.20754586,-0.023191756,0.030141737,-0.13372006,-0.39260736,-0.35037267,0.06000706,-3.0757923,0.62267864,-0.000120102144,-0.10319374,-0.011127552,-0.002150119,0.037924293,-0.02063597,0.017879106,0.4721148,-1.4023,1.9287995,-2.093634,-1.5732621,2.446064,-0.057446368,0.217236,-0.26669714,0.08498082,-0.024935689,-0.075091675,-0.17238252,0.3256114,-9.251195,0.76874626,47.698532,-0.7144599,-1.9892054,-3.5854218,-0.31823033,-0.40666243,-0.1580778,25.6875,26.375,25.5625,28.3125,29.125,29.4375
0.22405185,-1.4231095,-1.1616149,0.28278342,-0.041844014,0.048661903,-0.1328173,-0.3928103,-0.3504156,0.060002465,-3.075739,0.6226481,-0.00014565932,-0.105734065,-0.011680508,-0.0013513857,0.037426353,-0.01690154,0.016722232,0.47203076,-1.4018551,1.9282607,-2.0934908,-1.5732988,2.4459682,-0.057913378,0.21946879,-0.27082884,0.08332902,-0.026208198,-0.07439358,-0.19153613,0.22984336,-9.289502,0.8224646,47.71286,-0.65770066,-1.9419425,-3.536183,-0.34547627,-0.40947336,-0.1469551,25.6875,26.375,25.5625,28.3125,29.125,29.4375
0.22605184,-1.6047835,-1.3963709,0.035265043,-0.016963184,0.042797428,-0.12907833,-0.39299574,-0.3504203,0.059966937,-3.0756235,0.62252915,-0.00026610564,-0.10756811,-0.012162471,-0.0015297766,0.036422268,-0.014294052,0.014306084,0.4719106,-1.401398,1.92777,-2.0933125,-1.5733589,2.4457889,-0.05847747,0.22191973,-0.27257508,0.07984405,-0.026521338,-0.07253503,-0.28730422,0.30645782,-9.270349,0.8717007,47.687782,-0.66307646,-1.8353305,-3.529868,-0.30784202,-0.38956589,-0.14111559,25.6875,26.375,25.5625,28.3125,29.125,29.4375
0.2280518,-1.5665902,-0.7952957,-0.105025284,-0.007834264,0.03765206,-0.12520608,-0.3932179,-0.35045016,0.0599702,-3.0755646,0.62257487,-0.00030365234,-0.10975548,-0.013381635,-0.0006857737,0.03399396,-0.009542844,0.0125256935,0.4717788,-1.4009528,1.9272074,-2.093146,-1.5733832,2.4456935,-0.058252826,0.22324054,-0.2752242,0.075836994,-0.026535213,-0.07052684,-0.21068975,0.3256114,-9.404425,0.8851263,47.678825,-0.7001887,-1.860483,-3.5508661,-0.2962588,-0.40723294,-0.1340626,25.6875,26.375,25.5625,28.3125,29.125,29.4375
0.23005167,-0.83859885,-0.5195348,-0.086087696,-0.014140966,0.05828083,-0.13481772,-0.39343584,-0.35047123,0.059967995,-3.075501,0.6224695,-0.00032200347,-0.11235825,-0.013206963,-0.0007437503,0.032410014,-0.0064012986,0.0067328108,0.4716577,-1.4005077,1.9266571,-2.0929801,-1.5734423,2.4455152,-0.06082427,0.22537187,-0.27672717,0.07169225,-0.02656372,-0.06730224,-0.36391866,0.34476504,-9.461885,0.8403672,47.682407,-0.44501537,-1.776861,-3.5975184,-0.2316786,-0.40244132,-0.16010238,25.6875,26.375,25.5625,28.3125,29.125,29.4375
0.23205212,-1.5629321,-0.98648804,-0.30675614,-0.010622734,0.046494406,-0.12616935,-0.39363176,-0.35049033,0.059916887,-3.0754137,0.62233526,-0.0004529559,-0.11232625,-0.014336311,-0.0022574146,0.03392433,-0.0063483804,0.0057427245,0.47153896,-1.4000018,1.9261554,-2.0928495,-1.5734795,2.4453242,-0.057905495,0.22952323,-0.27761972,0.0690848,-0.027946146,-0.063382916,-0.36391866,0.2681506,-9.461885,0.7978386,47.667187,-0.6096959,-1.9336538,-3.7100773,-0.1979639,-0.3983641,-0.209683,25.6875,26.375,25.5625,28.3125,29.125,29.4375
0.23405202,-1.4420053,-1.2953999,-0.24087827,-0.021710744,0.056126356,-0.13146351,-0.39390987,-0.3505153,0.059951615,-3.0753503,0.6223792,-0.00031776697,-0.114512615,-0.01458968,-0.0013892084,0.034172103,-0.001824931,0.004664932,0.47139493,-1.399545,1.9255093,-2.0926945,-1.5735763,2.4452162,-0.057910614,0.23061708,-0.28048038,0.06693555,-0.03023045,-0.06230036,-0.2681506,0.22984336,-9.481039,0.96569055,47.677036,-0.702389,-1.9986033,-3.7151566,-0.16980651,-0.38085985,-0.22002247,25.6875,26.375,25.5625,28.3125,29.125,29.4375
0.23605199,-1.5438342,-1.6222771,-0.29813942,-0.02208257,0.05490956,-0.11993901,-0.39413312,-0.3505529,0.059945185,-3.0752997,0.6223524,-0.00027725517,-0.11679303,-0.014930743,-0.00056467025,0.034045924,0.0015497245,6.0586866e-05,0.4712987,-1.3990883,1.9249705,-2.0925987,-1.5736364,2.44511,-0.058408294,0.23238318,-0.28428593,0.0659219,-0.031652763,-0.058185548,-0.30645782,0.34476504,-9.519346,0.88960326,47.694946,-0.6655827,-1.9200237,-3.6391997,-0.12715526,-0.36629927,-0.25778183,25.6875,26.375,25.5625,28.3125,29.125,29.4375
0.23805189,-1.536438,-1.5970389,-0.73824877,-0.016431345,0.03274903,-0.12405593,-0.39433593,-0.3505751,0.05991934,-3.075186,0.6222909,-0.0003404274,-0.11824814,-0.014223458,-0.0011539649,0.035808858,0.0019122176,-0.0016325813,0.47120216,-1.3986069,1.9244312,-2.0924323,-1.5737094,2.4449902,-0.059791192,0.23509032,-0.28610134,0.065507665,-0.03339992,-0.05786349,-0.22984336,0.3256114,-9.519346,0.8403672,47.668976,-0.56204623,-2.0110424,-3.5194035,-0.10051456,-0.35323185,-0.29905114,25.6875,26.375,25.5625,28.3125,29.125,29.4375
0.24005182,-1.1135266,-1.5391225,-0.54229176,-0.013082342,0.018402154,-0.12484415,-0.39458963,-0.35058123,0.05991681,-3.0750918,0.62236273,-0.00025395871,-0.11841705,-0.015760409,-0.0006729071,0.03699827,0.0021005387,0.0032955443,0.4710475,-1.398149,1.9238814,-2.092335,-1.5738062,2.444893,-0.056475412,0.23747477,-0.29064372,0.06802612,-0.034556232,-0.059469014,-0.17238252,0.40222588,-9.615114,0.9030289,47.694946,-0.7809206,-2.0632212,-3.7522876,-0.08295218,-0.29853216,-0.2968449,25.6875,26.375,25.5625,28.3125,29.125,29.4375
0.24205184,-0.4383511,-1.0887513,-0.35167632,-0.03477256,0.022178786,-0.14161287,-0.39485285,-0.35061678,0.059928216,-3.0750391,0.6223701,-0.00014602205,-0.12108073,-0.01663357,-1.6582972e-05,0.035462536,0.005287194,0.004529162,0.4709272,-1.3976678,1.9232701,-2.0922277,-1.5738896,2.4447844,-0.057218503,0.2403613,-0.2951857,0.06612997,-0.034653533,-0.061443623,-0.22984336,0.40222588,-9.595961,0.7709874,47.667187,-0.76945245,-2.2265854,-3.6402364,-0.038567696,-0.295134,-0.27876043,25.6875,26.375,25.5625,28.3125,29.125,29.4375
0.24405201,-0.6098959,-1.3390353,-0.75168586,-0.02539117,0.00470621,-0.12528636,-0.39508286,-0.35065082,0.059906695,-3.0749595,0.6222979,-0.00018016809,-0.1228452,-0.017561946,0.0007644144,0.0337882,0.00651493,0.0014893307,0.4708191,-1.3971511,1.9226841,-2.0920842,-1.5739497,2.4446418,-0.057717852,0.2424539,-0.2996428,0.06663849,-0.033725616,-0.058902524,-0.15322891,0.4405331,-9.672575,0.86945957,47.677036,-0.79619026,-2.0943227,-3.4665048,-0.008907239,-0.29839012,-0.32095194,25.6875,26.375,25.5625,28.3125,29.125,29.4375
0.24605204,-0.6277148,-1.6319585,-1.0784895,-0.028412579,0.002595433,-0.120728455,-0.3953129,-0.35069367,0.059910145,-3.074901,0.62228304,-0.00021067452,-0.12168386,-0.016824424,-0.0006834144,0.03850432,0.0014386576,0.003615358,0.4707113,-1.3966695,1.9220732,-2.0919025,-1.5739859,2.4445326,-0.056716513,0.24542886,-0.3010646,0.07174602,-0.0356252,-0.060017165,-0.11492168,0.45968673,-9.749189,0.8851263,47.691364,-0.78669,-2.1888037,-3.535357,-0.018204298,-0.2538283,-0.3327634,25.6875,26.375,25.5625,28.3125,29.125,29.4375
0.24805214,-0.8174133,-2.2184157,-0.702437,-0.042875387,0.016092118,-0.1212886,-0.39556554,-0.35071912,0.05989353,-3.0748084,0.62220603,-0.0001810506,-0.12235544,-0.016638905,-0.0007060647,0.038936384,0.002671812,0.003995603,0.47059128,-1.3961407,1.9214643,-2.0917714,-1.5740823,2.444377,-0.056980804,0.24593933,-0.30150396,0.07076309,-0.03657957,-0.060655624,-0.05746084,0.4213795,-9.749189,0.900793,47.664497,-0.92594755,-2.1389186,-3.632929,-0.029816091,-0.20419359,-0.3536964,25.6875,26.375,25.5625,28.3125,29.125,29.4375
0.25005227,-0.5767138,-1.6996112,-0.602941,-0.058996607,0.0266947,-0.13126409,-0.39579523,-0.35075033,0.059875973,-3.074715,0.6222435,-0.00022922477,-0.1225708,-0.01665312,-0.0011237644,0.039451897,0.0008590672,0.0031451753,0.47047126,-1.3956349,1.9208783,-2.091615,-1.5741304,2.4442928,-0.057325374,0.24783559,-0.30326736,0.072473004,-0.03622223,-0.060147986,0.0,0.40222588,-9.730036,0.8806493,47.64837,-0.84133506,-2.2256732,-3.7860503,0.015366978,-0.22352804,-0.36848375,25.6875,26.375,25.5625,28.3125,29.125,29.4375
0.25205207,-0.8963066,-1.4389279,-0.5614494,-0.0592537,0.016361298,-0.12533073,-0.39606163,-0.35079926,0.059893735,-3.0746622,0.6221545,-9.8039316e-05,-0.12283312,-0.01697586,0.00047791385,0.038847536,0.0015264035,0.004082034,0.47038728,-1.3951318,1.9202203,-2.0914824,-1.5742382,2.4441605,-0.057099536,0.24617915,-0.3058593,0.07583981,-0.035985965,-0.06086072,0.095768064,0.36391866,-9.672575,0.8627467,47.634937,-0.9028303,-1.9742527,-3.8042057,6.147963e-05,-0.1907024,-0.3800091,25.6875,26.375,25.5625,28.3125,29.125,29.4375
0.25405213,-0.46502224,-0.8589742,-0.4204299,-0.041616123,0.0031447543,-0.13141988,-0.39630803,-0.350838,0.059899338,-3.0746372,0.6221482,-0.00012110625,-0.12392345,-0.016834514,0.001016424,0.03964562,0.0011778886,0.0046272106,0.47024316,-1.3946508,1.9196099,-2.091326,-1.5742506,2.444016,-0.057901528,0.24760124,-0.30951098,0.07873316,-0.036548723,-0.06220325,0.076614454,0.32561144,-9.653421,0.9186956,47.66091,-0.86941564,-1.9660444,-3.7241116,-0.006244565,-0.16651896,-0.3973762,25.6875,26.375,25.5625,28.3125,29.125,29.4375
0.25605205,-0.2980014,-0.76777035,-0.63026726,-0.0003600528,-0.015304499,-0.1336204,-0.39656085,-0.35085273,0.059886836,-3.0745065,0.6220621,-4.815276e-05,-0.12401993,-0.016691785,-0.00021936606,0.041480474,-0.0035130242,0.005799985,0.47013488,-1.3941327,1.919,-2.0911806,-1.5743946,2.4438713,-0.05849272,0.2518973,-0.31271103,0.082629226,-0.036067873,-0.06396617,0.095768064,0.30645782,-9.519346,0.81351066,47.68062,-0.9223647,-1.8521144,-3.6613317,-0.0231638,-0.15456389,-0.3967948,25.6875,26.375,25.5625,28.3125,29.125,29.4375
0.25805184,0.1929017,0.03792134,-0.67411333,0.021591326,-0.02578873,-0.13374598,-0.39683458,-0.35090908,0.05990003,-3.0744905,0.6220181,4.897987e-05,-0.12471234,-0.017226018,0.0011527502,0.04059956,-0.003447671,0.008585553,0.47002682,-1.3936161,1.918341,-2.0910718,-1.5744537,2.4437382,-0.058598053,0.25170508,-0.3165369,0.086168855,-0.03532099,-0.066860735,0.11492168,0.2681506,-9.500193,0.94331104,47.67793,-0.8536041,-1.8969547,-3.7234073,-0.039578825,-0.1339305,-0.38779205,25.6875,26.375,25.5625,28.3125,29.125,29.4375
0.26005188,0.75457305,0.087937206,-0.4278808,0.023331324,-0.011945094,-0.12947877,-0.3970661,-0.35093594,0.05988819,-3.0744085,0.6220182,-5.3199437e-05,-0.124719165,-0.017249051,0.0015236809,0.042021114,-0.0075719,0.010916523,0.4698828,-1.3931112,1.9177307,-2.0908659,-1.5744776,2.4436052,-0.05888157,0.25366393,-0.32142353,0.093398914,-0.034732778,-0.06947317,0.13407528,0.24899697,-9.500193,0.9097417,47.661808,-0.88929373,-1.8796916,-3.5299957,-0.12075235,-0.12746887,-0.3687301,25.6875,26.375,25.5625,28.3125,29.125,29.4375
0.26205188,0.23531985,-0.016307943,-0.4877505,0.02520517,-0.021817926,-0.1342764,-0.39732817,-0.3509684,0.05989745,-3.07431,0.62195736,1.7691065e-06,-0.12524568,-0.017688543,0.00033137706,0.04330324,-0.010826461,0.014490254,0.4697748,-1.3925931,1.9170598,-2.0906732,-1.5745858,2.4434724,-0.05873375,0.25862893,-0.32513204,0.09559913,-0.034421865,-0.07289735,0.15322891,0.17238252,-9.346964,0.85826975,47.690468,-0.9840046,-2.1175115,-3.4259214,-0.14713232,-0.13180286,-0.31235203,25.6875,26.375,25.5625,28.3125,29.125,29.4375
0.26405224,0.432402,0.26323006,-0.64940304,0.024531348,-0.017645853,-0.13696462,-0.39756703,-0.35102177,0.059905954,-3.0742776,0.6218145,-3.066705e-05,-0.12505595,-0.016290668,-0.00057967193,0.046421673,-0.017007906,0.015573194,0.469678,-1.3920875,1.9164017,-2.0904677,-1.5746216,2.443291,-0.060949534,0.26137003,-0.32795677,0.10258738,-0.034411944,-0.076193854,0.076614454,0.19153613,-9.481039,0.92093146,47.67614,-0.8406975,-2.168727,-3.4073844,-0.20983064,-0.11261164,-0.28462136,25.6875,26.375,25.5625,28.3125,29.125,29.4375
0.26605242,-0.49782124,-0.50312924,-0.50495213,6.142298e-05,-0.010490399,-0.1308994,-0.39779824,-0.35103843,0.059889883,-3.0741596,0.62172776,-0.000116338575,-0.12297626,-0.016933205,-0.0027266762,0.047840636,-0.022513565,0.021408468,0.469547,-1.3915702,1.9157809,-2.0902393,-1.5746931,2.4431214,-0.058704797,0.264496,-0.3272196,0.10424744,-0.03320674,-0.079786226,0.038307227,0.19153613,-9.481039,0.8605109,47.68062,-0.935408,-2.193366,-3.4153166,-0.28083247,-0.10848311,-0.24862984,25.6875,26.375,25.5625,28.3125,29.125,29.4375
0.26805222,-1.1087707,-1.0794201,-0.46323678,-0.01151127,-0.0036152457,-0.12337418,-0.39807838,-0.35106787,0.0599148,-3.0740921,0.62169236,-5.3018462e-05,-0.123430826,-0.017317604,-0.002594854,0.047060113,-0.022289133,0.025074033,0.46940282,-1.3910656,1.9150871,-2.0900366,-1.574777,2.4429643,-0.0587414,0.2652187,-0.32847953,0.10420282,-0.032634307,-0.08349035,0.05746084,0.05746084,-9.461885,0.8627467,47.683304,-1.0754932,-2.1633897,-3.676858,-0.31367707,-0.10315293,-0.16000298,25.6875,26.375,25.5625,28.3125,29.125,29.4375
0.27005234,-0.92558783,-1.4631981,-0.32530308,-0.028773932,0.015186426,-0.12892942,-0.39831287,-0.35111216,0.05990262,-3.074033,0.62158346,-0.00012415578,-0.12636398,-0.018362597,-0.0006550663,0.043236144,-0.01714937,0.02358629,0.46929446,-1.3905367,1.9144515,-2.0898454,-1.5748128,2.442796,-0.060142413,0.2653807,-0.3327233,0.10196117,-0.03157397,-0.08340418,0.05746084,0.17238252,-9.461885,0.8985519,47.66987,-1.0033695,-2.0383673,-3.6464622,-0.3071537,-0.09935287,-0.16957028,25.6875,26.375,25.5625,28.3125,29.125,29.4375
0.2720524,-0.61902505,-1.201937,0.059881393,-0.044791695,0.029249491,-0.13174836,-0.39857838,-0.3511703,0.05992882,-3.0740008,0.6214605,-8.695723e-05,-0.12833259,-0.018973928,-0.000913276,0.04120938,-0.014050434,0.025861304,0.4691981,-1.3900188,1.9137362,-2.0896323,-1.5748729,2.4426274,-0.061009247,0.26768136,-0.3338657,0.09709997,-0.031196656,-0.08654625,-0.13407528,0.21068975,-9.346964,0.8627467,47.68062,-0.8922541,-2.02042,-3.655945,-0.29805207,-0.103295304,-0.11020756,25.6875,26.375,25.5625,28.3125,29.125,29.4375
0.27405256,-0.95413893,-1.6272353,-0.26712692,-0.017435184,0.019112857,-0.13249193,-0.39881334,-0.35120708,0.059921835,-3.0739322,0.6213106,-0.000133222,-0.13110442,-0.022467157,0.002842793,0.034557745,-0.0032771085,0.025769228,0.46909124,-1.3895036,1.913102,-2.0894306,-1.574932,2.4424362,-0.05801295,0.26528144,-0.33848998,0.09150858,-0.030156773,-0.08345844,-0.11492168,0.17238252,-9.3661175,0.83813137,47.661808,-1.1499205,-1.9275309,-3.601213,-0.22536777,-0.11396234,-0.101913795,25.6875,26.375,25.5625,28.3125,29.125,29.4375
0.27605167,-1.3496181,-1.4314306,-0.21902265,-0.01449065,0.008619515,-0.121815324,-0.39912954,-0.3512362,0.059944734,-3.07387,0.6213574,1.9244826e-06,-0.13455576,-0.023608124,0.0040028286,0.030528631,0.0021545377,0.021796608,0.46892262,-1.3889629,1.912383,-2.089288,-1.5750278,2.4423053,-0.05972089,0.26723197,-0.34253109,0.08692583,-0.029029123,-0.08119808,-0.1340753,0.2873042,-9.404425,0.8918391,47.65912,-1.1890192,-1.7957959,-3.5416498,-0.16295996,-0.10839775,-0.10106608,25.6875,26.375,25.5625,28.3125,29.125,29.4375
0.2780516,-1.5606391,-1.3753599,-0.5634552,-0.010783328,0.001946256,-0.12644759,-0.3993776,-0.35131496,0.059958592,-3.0738683,0.621185,1.7412609e-05,-0.13632852,-0.024080876,0.004617815,0.02838874,0.0054235836,0.01824202,0.4688623,-1.3884338,1.9116896,-2.0891097,-1.5750636,2.442138,-0.06069121,0.2677905,-0.34406886,0.08402711,-0.028600449,-0.078614704,-0.19153613,0.34476504,-9.481039,0.9164598,47.664497,-1.0541654,-1.6389316,-3.4969873,-0.103540905,-0.11642119,-0.120698676,25.6875,26.375,25.5625,28.3125,29.125,29.4375
0.28005257,-1.1411384,-1.7285144,-0.74776804,-0.018559488,0.026863074,-0.121853925,-0.39962885,-0.35135886,0.05996468,-3.0738285,0.621062,4.0019742e-05,-0.13738133,-0.024708226,0.004788389,0.027358266,0.006467723,0.015422271,0.46875432,-1.3879291,1.911045,-2.0889423,-1.5751237,2.4419587,-0.060761686,0.26936904,-0.34626344,0.083249055,-0.028152937,-0.075865865,-0.4405331,0.47884035,-9.615114,0.9365982,47.67793,-1.1379406,-1.5848812,-3.5512776,-0.07449914,-0.12511683,-0.13668863,25.6875,26.375,25.5625,28.3125,29.125,29.4375
0.28205252,-1.5693572,-2.111634,-0.6708279,-0.03811832,0.042922705,-0.13183524,-0.3998946,-0.35139444,0.05994759,-3.0737104,0.6210771,2.500046e-05,-0.13725491,-0.024486817,0.002395587,0.030017212,0.0016522935,0.012803393,0.46863425,-1.3873503,1.9103631,-2.088762,-1.5752076,2.4418638,-0.06085491,0.27501744,-0.34793258,0.08476964,-0.028348045,-0.073335975,-0.51714754,0.4405331,-9.691729,0.91198283,47.65464,-1.142812,-1.8021059,-3.6427727,-0.06572822,-0.12543246,-0.17247787,25.6875,26.375,25.5625,28.3125,29.125,29.4375
0.28405255,-2.3029647,-2.7439246,-0.6354899,-0.04231904,0.055199098,-0.120179474,-0.40017107,-0.3514374,0.05994436,-3.0736384,0.62100446,2.7201802e-06,-0.13699864,-0.02414611,0.000939404,0.03154644,-0.001953165,0.0101905605,0.46850222,-1.3867724,1.909645,-2.0885584,-1.5752672,2.4416962,-0.06132425,0.27810258,-0.34875765,0.08641801,-0.028080955,-0.071191736,-0.49799395,0.45968673,-9.691729,0.97464454,47.66987,-1.1603236,-1.9291601,-3.608832,-0.05633726,-0.13205916,-0.20523366,25.6875,26.375,25.5625,28.3125,29.125,29.4375
0.2860518,-2.1202278,-2.1652622,-0.58104783,-0.05584361,0.07687542,-0.13456209,-0.40046152,-0.35150445,0.059990354,-3.073661,0.62099147,6.759548e-05,-0.1374875,-0.024306629,0.0010517108,0.030711336,-0.002836083,0.00719877,0.46836984,-1.3862683,1.9089035,-2.0883663,-1.5752791,2.441553,-0.06213411,0.27904767,-0.3505374,0.08766492,-0.026929336,-0.0690164,-0.5746084,0.49799395,-9.691729,0.97464454,47.67614,-1.1730764,-1.923665,-3.813466,-0.049553517,-0.15484728,-0.24503867,25.6875,26.375,25.5625,28.3125,29.125,29.4375
0.28805172,-2.2775195,-2.2174585,-0.46731064,-0.044484958,0.06732265,-0.122135825,-0.40076262,-0.35155934,0.060010087,-3.0736272,0.62102324,0.00016214792,-0.13789782,-0.023906317,0.000117366915,0.032080982,-0.0055842097,0.005069751,0.46823746,-1.3857148,1.9081744,-2.0882218,-1.5753392,2.4414454,-0.06313357,0.2820731,-0.352579,0.08974923,-0.026906962,-0.067887,-0.5363012,0.4405331,-9.576807,0.9030289,47.668976,-1.1336552,-1.8089302,-3.8512459,-0.0160525,-0.15992409,-0.2644649,25.6875,26.375,25.5625,28.3125,29.125,29.4375
0.29005173,-1.8092793,-1.3078251,-0.3804101,-0.03636053,0.054279953,-0.13334821,-0.40104544,-0.351619,0.060011137,-3.0735996,0.6209596,0.00023119939,-0.13961607,-0.024386624,0.001138282,0.03164879,-0.0036882255,0.0040758667,0.46812946,-1.3851496,1.9074796,-2.0881026,-1.5753993,2.4413016,-0.06345487,0.28336394,-0.35681006,0.090800576,-0.027382605,-0.067210786,-0.34476504,0.30645782,-9.5385,0.9388393,47.657326,-1.1046075,-1.8189085,-3.7414134,-0.043114565,-0.16268173,-0.29840755,25.6875,26.375,25.5625,28.3125,29.125,29.4375
0.29205176,-1.0729344,-0.8590799,-0.22017145,0.0054568043,0.026290013,-0.123564705,-0.4013447,-0.35165983,0.060011715,-3.0735023,0.6209395,0.00027187704,-0.14152771,-0.024548415,0.0016795691,0.031637125,-0.0031115946,0.002229638,0.46799707,-1.384548,1.9067262,-2.08791,-1.5754951,2.4411697,-0.064623624,0.28586298,-0.36152476,0.092490695,-0.027641352,-0.066529095,-0.38307226,0.2681506,-9.404425,0.89631605,47.66091,-1.0763308,-1.8497169,-3.607107,0.0003523822,-0.17767671,-0.33619595,25.6875,26.375,25.5625,28.3125,29.125,29.4375
0.29405186,-0.23180936,0.39899057,-0.034486383,0.021260856,0.0020009596,-0.12679973,-0.40160605,-0.3517213,0.060003784,-3.0734758,0.62085587,0.00024488714,-0.14166781,-0.023878735,0.0016022727,0.0342353,-0.0069324337,0.0034993975,0.46788883,-1.3839828,1.9060425,-2.087752,-1.5755194,2.441013,-0.06546539,0.28794447,-0.36537406,0.09882806,-0.028242834,-0.068635635,-0.38307226,0.21068975,-9.212888,0.9097417,47.66987,-1.0611802,-1.8847224,-3.5552707,-0.05033794,-0.16145602,-0.33471802,25.6875,26.375,25.5625,28.3125,29.125,29.4375
0.29605195,0.46126434,0.6977747,-0.32179895,0.03638982,-0.0069176336,-0.12969583,-0.40191093,-0.35176843,0.060026366,-3.073424,0.6209038,0.00028088776,-0.1416634,-0.023760378,0.0020605258,0.035632744,-0.0087867165,0.0005137598,0.46773285,-1.383418,1.9052786,-2.087546,-1.5755676,2.4408941,-0.065339856,0.28859133,-0.3683713,0.10347282,-0.028642504,-0.06552169,-0.30645782,0.11492168,-9.289502,0.91198283,47.66271,-1.049409,-1.7953391,-3.5019126,-0.07856543,-0.17401725,-0.40304118,25.6875,26.375,25.5625,28.3125,29.125,29.4375
0.29805246,-0.13487966,0.78211737,0.018671822,0.033149824,-0.02272284,-0.13342509,-0.4021865,-0.3518009,0.06001505,-3.0732963,0.6209354,0.00025245256,-0.14230917,-0.022104023,0.0009585974,0.03839449,-0.014131168,-0.0033908398,0.46759972,-1.3828286,1.9045604,-2.0873296,-1.5756515,2.4407978,-0.06865704,0.29208893,-0.37138155,0.10899507,-0.02869929,-0.06493065,-0.34476504,0.019153614,-9.212888,0.9545008,47.67166,-0.9775473,-1.759958,-3.5393543,-0.13862893,-0.19102903,-0.45492858,25.6875,26.375,25.5625,28.3125,29.125,29.4375
0.30005267,-0.2963313,0.5700269,0.31543356,0.016301638,-0.0011075119,-0.13441798,-0.40247583,-0.35185137,0.060011666,-3.0732355,0.62086177,0.00019374969,-0.1423804,-0.022705214,0.0018862174,0.039453205,-0.014228915,0.0015286977,0.4674562,-1.3822157,1.9037932,-2.0871007,-1.5756882,2.4406166,-0.06703581,0.29240704,-0.37486488,0.11270524,-0.029620992,-0.06822132,-0.17238252,-0.11492168,-9.193734,0.9164598,47.658226,-1.0209161,-1.765583,-3.4765568,-0.18694985,-0.186764,-0.45346236,25.6875,26.375,25.5625,28.3125,29.125,29.4375
0.30205202,-0.73869556,0.3718948,0.4684328,0.016522659,0.00938998,-0.13016333,-0.40277532,-0.35191184,0.060039714,-3.0731828,0.6208329,0.000227318,-0.14222391,-0.021650057,0.0009530414,0.0424882,-0.018292144,-0.00079561217,0.4673358,-1.3816386,1.9029936,-2.08686,-1.5757483,2.4404855,-0.06810171,0.29479787,-0.37670845,0.11715494,-0.03049386,-0.06695743,-0.1340753,-0.076614454,-9.136273,0.8940802,47.661808,-1.0050352,-1.7712955,-3.4974084,-0.23216541,-0.18150973,-0.48038074,25.6875,26.375,25.5625,28.3125,29.125,29.4375
0.30405214,-0.7553478,0.3724962,0.57576466,0.016309934,0.033877023,-0.1384564,-0.40309018,-0.35195202,0.06005773,-3.0731144,0.6209331,0.00028011514,-0.14491504,-0.021404289,0.0023956539,0.03924412,-0.014273119,-0.001995711,0.46716687,-1.3810623,1.9022287,-2.0866692,-1.5758079,2.4403884,-0.071454555,0.29403678,-0.37874502,0.114879355,-0.029431526,-0.06911517,-0.22984336,-0.11492168,-9.155427,0.9030289,47.658226,-0.99135804,-1.4812442,-3.526946,-0.24949561,-0.19136931,-0.51143,25.6875,26.375,25.5625,28.3125,29.125,29.4375
0.3060523,-1.0102797,0.33061764,0.46235472,0.02257129,0.030733276,-0.12985374,-0.40335435,-0.35200354,0.060038414,-3.0730221,0.62083423,0.00014730095,-0.14652444,-0.023153655,0.0022527273,0.037640125,-0.013712717,0.002332943,0.46704692,-1.3804361,1.9014734,-2.086406,-1.5758437,2.4402192,-0.070501834,0.298527,-0.38373253,0.11412662,-0.028290538,-0.072491005,-0.15322891,-0.1340753,-9.078813,0.9030289,47.65912,-0.79105973,-1.7493013,-3.464261,-0.2459338,-0.21928427,-0.50216585,25.6875,26.375,25.5625,28.3125,29.125,29.4375
0.30805236,-1.0269003,0.46627545,0.50782365,0.013569402,0.024550721,-0.13653548,-0.40364906,-0.3520407,0.060046617,-3.0729582,0.6207602,0.00014097923,-0.14824758,-0.023670636,0.0011021058,0.036516007,-0.011619612,0.0061076833,0.46689105,-1.379858,1.9007205,-2.086181,-1.5759038,2.4400258,-0.07105297,0.30219632,-0.38439134,0.108709864,-0.028268445,-0.076814644,-0.1340753,-0.095768064,-9.059659,0.8873621,47.64389,-0.9476871,-1.8260033,-3.4960198,-0.19517511,-0.23911488,-0.4774392,25.6875,26.375,25.5625,28.3125,29.125,29.4375
0.31005237,-1.3089178,-0.24405861,0.49886563,0.011555773,0.027039958,-0.12898563,-0.40395328,-0.35208172,0.060052443,-3.0728898,0.6207819,0.00016512697,-0.15095685,-0.02307907,0.0011623868,0.03553569,-0.0077137914,0.008164581,0.46673396,-1.3792692,1.899968,-2.0859911,-1.5759643,2.4398916,-0.07377295,0.30366695,-0.3854463,0.104334384,-0.029188445,-0.08158512,-0.34476504,0.0,-9.002198,0.94331104,47.639416,-0.7885475,-1.891535,-3.5853956,-0.14047495,-0.24740775,-0.44096485,25.6875,26.375,25.5625,28.3125,29.125,29.4375
0.31205237,-0.6196595,-0.27596167,0.29354614,0.013463936,0.04002162,-0.13967979,-0.4042493,-0.35214013,0.0600406,-3.0728192,0.620669,0.00013003891,-0.15404664,-0.023845833,0.0015355063,0.033919815,-0.0035387126,0.011941361,0.46661365,-1.3786196,1.8991779,-2.085777,-1.5760244,2.4397104,-0.074773625,0.30697703,-0.38957286,0.10066329,-0.029669454,-0.08635574,-0.24899697,0.15322891,-9.097966,0.86498255,47.64927,-0.7470805,-1.8172438,-3.5119047,-0.08016816,-0.2536573,-0.39991462,25.6875,26.375,25.5625,28.3125,29.125,29.4375
0.31405222,-1.2020965,-0.9120491,0.31384748,-0.011582181,0.038477145,-0.13877581,-0.40451285,-0.3521594,0.060001984,-3.0726714,0.62057704,1.34128895e-05,-0.155496,-0.02399277,0.0028565556,0.032924566,-0.00032799828,0.01604486,0.4664695,-1.377995,1.8984727,-2.0855377,-1.5761083,2.4395285,-0.075334944,0.30614164,-0.39167604,0.10025225,-0.03026628,-0.09101228,-0.17238252,0.2873042,-9.174581,0.84484416,47.651955,-0.68700075,-1.8741484,-3.5365472,-0.036795326,-0.2526009,-0.34928453,25.6875,26.375,25.5625,28.3125,29.125,29.4375
0.31605232,-1.5939155,-2.091311,0.3864225,-0.033786394,0.050414022,-0.12885313,-0.40484202,-0.35220915,0.060023934,-3.0726295,0.6204881,7.5068616e-05,-0.15586692,-0.023821061,0.0023035612,0.035039715,-0.0013120575,0.02038382,0.4663136,-1.377382,1.8976477,-2.0853212,-1.5761808,2.439323,-0.074950665,0.30849975,-0.39370388,0.10172465,-0.03173378,-0.09495788,-0.57460845,0.47884035,-9.193734,0.9298854,47.652847,-0.6698618,-1.7473713,-3.6142502,-0.035815418,-0.264265,-0.29437566,25.6875,26.375,25.5625,28.3125,29.125,29.4375
0.31805247,-1.9434491,-2.1943345,0.2553937,-0.0541553,0.053360477,-0.11984273,-0.40513223,-0.35223907,0.060000192,-3.072511,0.6204429,3.2954395e-06,-0.15616584,-0.02349225,0.0017711755,0.03598415,-0.0034134777,0.021892942,0.46615738,-1.3767444,1.8968948,-2.0850933,-1.5762528,2.4391544,-0.075742416,0.31047052,-0.39547306,0.10380018,-0.031655412,-0.097255364,-0.5554548,0.47884035,-9.136273,0.9701675,47.651955,-0.6622306,-1.6942201,-3.7145367,-0.033955853,-0.25562122,-0.24794608,25.6875,26.375,25.5625,28.3125,29.125,29.4375
0.32005176,-2.0138013,-2.3691206,-0.031684052,-0.04638085,0.055982485,-0.13472639,-0.40545037,-0.3522949,0.059999637,-3.0724657,0.62031776,1.00178295e-05,-0.15707216,-0.024531739,0.002947064,0.033650696,-0.0017393762,0.022313144,0.46601346,-1.376096,1.8960813,-2.0848897,-1.576312,2.4389386,-0.075485274,0.31032836,-0.39825627,0.10416565,-0.030335533,-0.097424395,-0.4213795,0.38307226,-9.289502,1.0149267,47.65464,-0.703544,-1.6323689,-3.721471,-0.03168236,-0.29478282,-0.2378414,25.6875,26.375,25.5625,28.3125,29.125,29.4375
0.3220519,-1.8908288,-2.1743007,0.1267341,-0.044482607,0.046896186,-0.12620813,-0.40575746,-0.35234976,0.06001035,-3.072407,0.6201886,5.363211e-05,-0.15750983,-0.024674663,0.0025408268,0.03411731,-0.0025381779,0.022981437,0.4658934,-1.3754827,1.8952807,-2.0846736,-1.5763963,2.438746,-0.07550256,0.3123005,-0.39999413,0.1048394,-0.030403694,-0.09810823,-0.51714754,0.63206923,-9.270349,0.9186956,47.64927,-0.7130853,-1.5486993,-3.652375,-0.008672978,-0.31589645,-0.17901628,25.6875,26.375,25.5625,28.3125,29.125,29.4375
0.32405207,-1.7790749,-1.7926878,0.26013818,-0.046780437,0.04762282,-0.12138601,-0.40605336,-0.3523814,0.059972756,-3.072301,0.62014914,-8.182885e-05,-0.15726411,-0.024495866,0.000995091,0.03736621,-0.0059444956,0.019371832,0.46571374,-1.3748085,1.8945149,-2.0844457,-1.5764331,2.438556,-0.07465844,0.31637794,-0.4020666,0.10735881,-0.031771872,-0.093641244,-0.49799395,0.61291564,-9.289502,1.0015011,47.668976,-0.779039,-1.5732405,-3.8601828,0.004474231,-0.30227572,-0.20719652,25.6875,26.375,25.5625,28.3125,29.125,29.4375
0.3260522,-1.3751309,-1.2691369,0.17423326,-0.020561447,0.0313799,-0.11829936,-0.40640408,-0.35245264,0.059995774,-3.072289,0.6201096,2.6543701e-05,-0.15859163,-0.02362554,0.001244526,0.038991343,-0.00743415,0.01599996,0.46556905,-1.3741593,1.8936533,-2.0842764,-1.5764931,2.4383886,-0.07672572,0.31835383,-0.40608612,0.11146364,-0.032547787,-0.09233224,-0.30645782,0.4405331,-9.232041,0.9455522,47.652847,-0.69087195,-1.7664868,-3.7031088,-0.026123773,-0.31753647,-0.20377114,25.6875,26.375,25.5625,28.3125,29.125,29.4375
0.32805222,-1.0044315,-0.9296287,0.057718027,0.004126382,0.007879196,-0.1162872,-0.40676212,-0.3525004,0.060012173,-3.0722513,0.6201227,0.00010470595,-0.15780866,-0.02469925,0.0010747071,0.041012723,-0.01179606,0.011063539,0.46537817,-1.3735098,1.8928031,-2.0840948,-1.5765532,2.4382112,-0.07422946,0.32157627,-0.41123396,0.1182256,-0.032361656,-0.0848996,-0.3256114,0.30645782,-9.155427,0.947788,47.63315,-0.80859315,-1.8034177,-3.665998,-0.06655371,-0.31612456,-0.265817,25.6875,26.375,25.5625,28.3125,29.125,29.4375
0.33005223,-0.059829563,-0.016834836,0.22310859,0.024243154,-0.012994158,-0.1327171,-0.40706035,-0.35253212,0.05995932,-3.0720773,0.62010586,-4.4046724e-06,-0.15846252,-0.024871035,0.0007103739,0.042176396,-0.013891699,0.00850915,0.46523383,-1.3727878,1.8920139,-2.083866,-1.5766491,2.4380796,-0.07435638,0.32475165,-0.4150808,0.121294335,-0.032469373,-0.082465,-0.095768064,0.22984336,-9.040505,0.93436235,47.667187,-0.8597909,-1.9056706,-3.5764556,-0.11815338,-0.32393873,-0.34216517,25.6875,26.375,25.5625,28.3125,29.125,29.4375
0.3320523,0.6831088,0.5847527,0.09921332,0.038288813,-0.026352275,-0.12621933,-0.40738598,-0.35258296,0.059976906,-3.0720255,0.6200396,1.5154039e-05,-0.15942577,-0.02303854,-7.485654e-05,0.045609,-0.019549694,0.0046333196,0.4650766,-1.3721621,1.8911752,-2.0836241,-1.5767092,2.4378881,-0.07790436,0.3285748,-0.41966856,0.12864965,-0.032998472,-0.082131624,0.0,0.076614454,-9.078813,0.91198283,47.64837,-0.6726654,-1.9828011,-3.410814,-0.17868763,-0.3583023,-0.35210812,25.6875,26.375,25.5625,28.3125,29.125,29.4375
0.3340525,0.21566853,0.21770552,-0.16967238,0.053742167,-0.0513578,-0.116385944,-0.40771848,-0.35264122,0.05996937,-3.071936,0.61995924,-1.3395217e-05,-0.15840879,-0.023882765,-0.00083248765,0.04776394,-0.021115787,0.008358679,0.46493387,-1.3714528,1.8902916,-2.0833724,-1.5767816,2.4377074,-0.07473326,0.33059126,-0.42090017,0.13022171,-0.034236003,-0.08267545,-0.019153614,0.17238252,-9.078813,0.9365982,47.65912,-0.88536775,-2.0700884,-3.4351056,-0.23346947,-0.3431942,-0.35803413,25.6875,26.375,25.5625,28.3125,29.125,29.4375
0.33605176,0.25029004,-0.21928874,-0.057918224,0.03630402,-0.022971539,-0.12775968,-0.4080402,-0.35268328,0.059974864,-3.07184,0.6199585,-5.3157277e-05,-0.1583495,-0.022518761,-0.0018202224,0.050387338,-0.022923043,0.006683702,0.46476564,-1.3708032,1.8894438,-2.0830967,-1.5768422,2.4375517,-0.07596501,0.3316074,-0.4203093,0.13140409,-0.03577813,-0.082220435,0.038307227,0.15322891,-9.078813,0.8784135,47.640312,-0.8324958,-2.0287778,-3.6860569,-0.23659405,-0.32873797,-0.3668645,25.6875,26.375,25.5625,28.3125,29.125,29.4375
0.33805177,-0.2128612,-0.31699002,-0.17056522,0.010268737,-0.002062851,-0.12561251,-0.40831286,-0.35270578,0.05993121,-3.071666,0.61980796,-0.00024452212,-0.15977153,-0.022326896,-0.0019811147,0.050942544,-0.021476254,0.005623673,0.4646212,-1.3701181,1.8886546,-2.082774,-1.5769266,2.4373364,-0.076713495,0.333495,-0.42214423,0.13030127,-0.036952075,-0.081892826,0.0,0.11492168,-9.174581,0.95226496,47.637623,-0.76646733,-2.0322552,-3.74341,-0.24437079,-0.34720212,-0.38697147,25.6875,26.375,25.5625,28.3125,29.125,29.4375
0.34005195,-1.1473932,-1.3467181,-0.18735467,-0.0031579281,0.017238025,-0.12438832,-0.40865406,-0.3527631,0.05995012,-3.0715847,0.61980903,-0.00019430285,-0.16352165,-0.02412839,0.00054883934,0.046594467,-0.011778987,0.0057453923,0.4644773,-1.3694574,1.8877681,-2.082525,-1.577011,2.4372044,-0.076475166,0.3332276,-0.42643,0.124227345,-0.037439592,-0.08177054,0.0,0.038307227,-9.193734,1.0328293,47.62867,-0.7991506,-1.8964186,-3.7228246,-0.21418032,-0.3214479,-0.4124712,25.6875,26.375,25.5625,28.3125,29.125,29.4375
0.34205234,-1.3427598,-1.4643654,-0.4955249,-0.015246177,0.029695507,-0.12359016,-0.40900254,-0.35281387,0.05995663,-3.0715034,0.619811,-0.00017444043,-0.16648014,-0.024514988,0.0006909842,0.046459276,-0.008274207,0.005565998,0.46430883,-1.3687723,1.8868827,-2.0822866,-1.5770835,2.4370482,-0.077349626,0.3369788,-0.43086818,0.12170921,-0.0389158,-0.08245245,0.019153614,0.095768064,-9.251195,1.0104496,47.67614,-0.74645996,-1.9003398,-3.6421847,-0.17133698,-0.33238915,-0.42317563,25.6875,26.375,25.5625,28.3125,29.125,29.4375
0.34405267,-0.9786529,-1.2651371,-0.73919433,-0.02638265,0.04696883,-0.12773544,-0.40931082,-0.35285893,0.05995104,-3.0713754,0.6197798,-0.000259098,-0.16947952,-0.026112398,0.0021772115,0.043659028,-0.0005258683,0.01053704,0.46416536,-1.3680989,1.8860224,-2.0819767,-1.577156,2.4369025,-0.076486014,0.3379206,-0.43430012,0.11598326,-0.039937314,-0.086547,-0.038307227,0.19153613,-9.557653,0.97464454,47.691364,-0.80055976,-1.9675122,-3.4917417,-0.093954906,-0.3255962,-0.38819563,25.6875,26.375,25.5625,28.3125,29.125,29.4375
0.34605193,-0.966192,-1.6061575,-0.8758133,-0.02952375,0.053679,-0.13376072,-0.40965196,-0.352902,0.05994141,-3.071278,0.6197393,-0.00025839068,-0.17040478,-0.026176186,0.0010705622,0.044883817,-0.0008917037,0.01161519,0.46399748,-1.3674014,1.8851608,-2.0817502,-1.5772399,2.4367225,-0.076487705,0.3415755,-0.43614113,0.115027525,-0.040889725,-0.08761712,0.0,0.30645782,-9.634268,0.88960326,47.668976,-0.8566301,-2.041161,-3.6115708,-0.067765534,-0.2975025,-0.41413903,25.6875,26.375,25.5625,28.3125,29.125,29.4375
0.3480519,-1.2328181,-1.6261774,-1.0885807,-0.027959576,0.032007225,-0.12764093,-0.40995917,-0.35294697,0.059902325,-3.0711281,0.619587,-0.0003421538,-0.16961327,-0.025533242,-0.0012251724,0.04799635,-0.0044368203,0.019217541,0.46387744,-1.3666667,1.8843135,-2.081487,-1.5773486,2.4365275,-0.07605536,0.34492674,-0.43518078,0.11522198,-0.042139545,-0.09477305,-0.11492168,0.40222588,-9.672575,0.9612189,47.63046,-0.88304234,-2.166054,-3.8854969,-0.069458485,-0.2817857,-0.3698172,25.6875,26.375,25.5625,28.3125,29.125,29.4375
0.35005203,-1.1456856,-1.7787057,-1.057267,-0.029155476,0.026803395,-0.12758432,-0.41028994,-0.35299587,0.05990838,-3.0710459,0.61954844,-0.0003405155,-0.16961229,-0.024867518,-0.003182499,0.05125012,-0.0070731184,0.022303956,0.46372172,-1.3660051,1.8834523,-2.0812347,-1.5774211,2.436359,-0.0760129,0.34884846,-0.43569186,0.11559762,-0.043896575,-0.09780233,-0.2681506,0.5554548,-9.921572,0.9365982,47.650166,-0.95422626,-2.2099953,-3.9485044,-0.03771166,-0.25644892,-0.3049219,25.6875,26.375,25.5625,28.3125,29.125,29.4375
0.35205206,-0.9818741,-2.1104922,-1.1089063,-0.039914344,0.02559847,-0.123307064,-0.41062748,-0.3530462,0.05990599,-3.0709488,0.6194486,-0.00033043427,-0.16994885,-0.02459743,-0.0029228323,0.053547654,-0.006725981,0.027049271,0.46357778,-1.3653084,1.8825682,-2.0809824,-1.5775179,2.4361658,-0.07528739,0.34948114,-0.43770954,0.11766505,-0.04613944,-0.10180347,-0.11492168,0.4213795,-9.921572,1.005978,47.64927,-0.9668033,-2.2786727,-4.1000123,-0.021417785,-0.24297829,-0.24493942,25.6875,26.375,25.5625,28.3125,29.125,29.4375
0.3540522,-0.94523823,-1.9337952,-0.93373823,-0.046803795,0.012593498,-0.12243387,-0.41099036,-0.3530934,0.059927195,-3.0708957,0.6192992,-0.00019483609,-0.17134681,-0.024303336,-0.0023260396,0.054904442,-0.008282823,0.030910015,0.46342146,-1.3646469,1.8816828,-2.0807774,-1.577638,2.4359236,-0.07654952,0.35189492,-0.44330955,0.122797936,-0.046688676,-0.10692198,-0.1340753,0.4213795,-10.01734,1.0596858,47.66987,-1.0157461,-2.2358494,-4.033968,-0.04760887,-0.22057769,-0.17645323,25.6875,26.375,25.5625,28.3125,29.125,29.4375
0.3560523,-0.5106741,-1.5584732,-0.96740484,-0.033825498,0.013930709,-0.122085,-0.41132626,-0.35313758,0.059931584,-3.0708065,0.6192594,-0.00020746079,-0.17115523,-0.024740105,-0.00012176278,0.05559973,-0.00912064,0.033927012,0.4632539,-1.3639749,1.8808087,-2.0805113,-1.5777105,2.4357433,-0.07538568,0.35015118,-0.44815332,0.13041851,-0.04695172,-0.108769916,-0.24899697,0.53630114,-9.768343,0.9298854,47.677036,-0.94111675,-2.1023664,-3.794584,-0.114592865,-0.2108472,-0.12429058,25.6875,26.375,25.5625,28.3125,29.125,29.4375
0.35805228,-0.591485,-1.0823712,-1.0870972,-0.0070307236,0.00018213184,-0.123570174,-0.41166675,-0.35319227,0.059899226,-3.070679,0.6190798,-0.00026159067,-0.1705723,-0.024395151,0.00021487895,0.058221392,-0.012227405,0.033130996,0.4631221,-1.3631938,1.8798875,-2.0802462,-1.5778183,2.4355166,-0.074798055,0.35069045,-0.45126083,0.13693336,-0.047910906,-0.107373305,-0.17238252,0.38307226,-9.710882,1.0261165,47.63315,-1.1428504,-1.9080126,-3.771875,-0.21424177,-0.1718413,-0.099275924,25.6875,26.375,25.5625,28.3125,29.125,29.4375
0.36005244,-0.23146515,-0.20977046,-1.0414804,-0.0069794715,0.00573272,-0.13370286,-0.4119939,-0.3532264,0.05989853,-3.0705676,0.6189826,-0.00030902354,-0.17157415,-0.02221747,-0.000685281,0.061634492,-0.015228111,0.026451366,0.46295294,-1.3625208,1.8790153,-2.0799453,-1.5779032,2.4353018,-0.07820393,0.3530737,-0.45308477,0.14059624,-0.049618136,-0.10408179,-0.114921674,0.36391866,-9.902418,0.9925471,47.64479,-0.96352243,-1.8762155,-3.759972,-0.26750654,-0.14643238,-0.1124382,25.6875,26.375,25.5625,28.3125,29.125,29.4375
0.36205238,-0.6801644,-0.7980079,-0.8882599,-0.0069934013,0.013813753,-0.12179556,-0.41238037,-0.3532901,0.05992198,-3.070501,0.6188726,-0.00021590127,-0.17146263,-0.023406733,-0.00094780576,0.062110648,-0.016983183,0.024989773,0.46279764,-1.3617866,1.8780226,-2.0796812,-1.5780109,2.435087,-0.07622039,0.35588482,-0.4566626,0.14315116,-0.049249366,-0.100637935,-0.095768064,0.28730422,-9.730036,1.0238806,47.677036,-1.006698,-1.9734957,-3.879322,-0.31221515,-0.115994506,-0.14773768,25.6875,26.375,25.5625,28.3125,29.125,29.4375
0.36405125,-0.8239202,-0.8208618,-0.73898226,-0.02548068,0.029229196,-0.12246463,-0.4127452,-0.35333976,0.059965145,-3.070427,0.6188594,-0.00013123342,-0.17267181,-0.02401892,-0.0023205893,0.059515715,-0.016512789,0.018965881,0.4626293,-1.3611368,1.8770784,-2.079384,-1.5781058,2.4349205,-0.077417634,0.35919943,-0.45663652,0.13824162,-0.047127932,-0.09582623,-0.21068975,0.19153614,-9.634268,0.9634547,47.647476,-1.0073596,-2.0484529,-3.9236422,-0.27610368,-0.11997244,-0.17904827,25.6875,26.375,25.5625,28.3125,29.125,29.4375
0.3660524,-1.1125919,-0.56710416,-0.91903377,-0.024885567,0.036991045,-0.12353133,-0.413046,-0.35337344,0.059919156,-3.0702655,0.61867356,-0.00025227823,-0.17620616,-0.02524508,-0.0018261052,0.05740335,-0.011223182,0.015444317,0.46249694,-1.3604043,1.8762401,-2.0790985,-1.5782145,2.4346938,-0.07796057,0.36308143,-0.46165112,0.13370569,-0.047624074,-0.09283323,-0.13407528,0.038307227,-9.691729,0.9567419,47.647476,-1.0044234,-2.1690595,-3.9914434,-0.24759218,-0.11982067,-0.21766496,25.6875,26.375,25.5625,28.3125,29.125,29.4375
0.3680526,-0.89629805,-1.0221013,-0.675677,-0.03247587,0.06815878,-0.13420211,-0.4134484,-0.35343438,0.059946388,-3.0701892,0.61875546,-0.00013228133,-0.18076584,-0.026979553,0.00034748795,0.052409954,-0.0022175298,0.010408058,0.46231675,-1.3596718,1.8752455,-2.0788615,-1.5783104,2.4345753,-0.07905735,0.36456895,-0.46726227,0.127553,-0.047178827,-0.08889606,-0.019153614,0.076614454,-9.825804,1.0104496,47.655537,-0.9886838,-2.1675062,-3.745661,-0.16330127,-0.095498435,-0.25190046,25.6875,26.375,25.5625,28.3125,29.125,29.4375
0.3700518,-1.1430198,-0.9884957,-0.58952963,-0.033699606,0.058074072,-0.12397128,-0.41381127,-0.35350654,0.059973884,-3.0701523,0.61859506,-1.4065711e-06,-0.1840002,-0.0287188,0.001788188,0.047371563,0.004231233,0.0073775086,0.46219638,-1.358988,1.8743109,-2.078636,-1.5784177,2.43436,-0.07976528,0.36582026,-0.47106186,0.1220793,-0.04555286,-0.08658537,-0.15322891,0.057460837,-9.710882,0.9567419,47.67345,-0.97222346,-2.2111213,-3.6736064,-0.08188379,-0.078589424,-0.30527645,25.6875,26.375,25.5625,28.3125,29.125,29.4375
0.37205186,-0.65726256,-0.6644339,-0.9138957,-0.014285883,0.04659359,-0.13350879,-0.41414675,-0.3535841,0.0599634,-3.0700781,0.6185581,-7.8378725e-05,-0.18487841,-0.02929921,0.0020299377,0.04560659,0.004512655,0.008600265,0.46206427,-1.358244,1.8733782,-2.0783603,-1.578453,2.434215,-0.08031258,0.36694857,-0.47321704,0.12203968,-0.04412395,-0.088362046,-0.34476504,0.15322891,-9.710882,0.96569055,47.64479,-0.9584353,-2.0318718,-3.7016816,-0.046046842,-0.10282518,-0.30811447,25.6875,26.375,25.5625,28.3125,29.125,29.4375
