Tylouw/Master_Thesis_Code/training_data/batch_1/small_rod_t0.1/sample_68_session_2.csv
timestamp[s],tcp_force_x[N],tcp_force_y[N],tcp_force_z[N],tcp_force_rx[Nm?],tcp_force_ry[Nm?],tcp_force_rz[Nm?],tcp_pose_x[m],tcp_pose_y[m],tcp_pose_z[m],tcp_pose_rx[rot_vec_x],tcp_pose_ry[rot_vec_y],tcp_pose_rz[rot_vec_z],tcp_velo_x[m/s],tcp_velo_y[m/s],tcp_velo_z[m/s],tcp_velo_rx[rot_vec_x/s],tcp_velo_ry[rot_vec_y/s],tcp_velo_rz[rot_vec_z/s],q1[rad],q2[rad],q3[rad],q4[rad],q5[rad],q6[rad],qd1[rad/s],qd2[rad/s],qd3[rad/s],qd4[rad/s],qd5[rad/s],qd6[rad/s],tool_acc_x,tool_acc_y,tool_acc_z,current_of_whole_robot[A],voltage_of_whole_robot[V],current_J1[A],current_J2[A],current_J3[A],current_J4[A],current_J5[A],current_J6[A],temp_J1[C],temp_J2[C],temp_J3[C],temp_J4[C],temp_J5[C],temp_J6[C]
8.450006e-07,-0.2785796,-0.40553582,1.2763189,-0.008036516,0.004927163,-0.00187832,-0.38104883,-0.3485294,0.059961244,-3.0784883,0.6249301,-0.0002187863,0.0013448681,0.0006947491,-0.0013251373,0.0015502238,-0.0032041732,4.3126907e-05,0.4778101,-1.4259219,1.9577144,-2.1008089,-1.5707573,2.4528008,-5.6945202e-05,0.00044685882,0.0023444209,0.00076650217,0.000103567036,-0.0001015244,0.038307227,0.05746084,-8.695741,0.7732232,47.694946,0.09250789,-2.742666,-2.3444333,-0.45901632,0.084763885,0.031008732,26.0625,26.9375,26.0,29.0625,30.0625,30.5
0.002055152,-0.73366255,-0.7274622,1.0853715,0.002161094,-0.0071335984,0.0009455402,-0.3810626,-0.34849632,0.059929714,-3.0784698,0.62484884,-0.00019514063,-0.0005959806,-0.00028794105,-0.0032339923,-0.00088204653,0.0014174995,-1.6949685e-05,0.47776207,-1.4258963,1.9577745,-2.1008847,-1.5707935,2.4527044,-0.00011744244,0.0046122367,0.004612002,-0.010889035,0.000116335505,-0.00010011284,0.038307227,0.1340753,-8.580819,0.72622824,47.684196,0.0642216,-2.8201013,-2.529482,-0.39791596,0.07166219,0.037206255,26.0625,26.9375,26.0,29.0625,30.0625,30.5
0.004054284,-0.244068,0.15123785,1.231469,-0.011016932,0.00084658765,-0.00077584217,-0.38105932,-0.34850785,0.059925865,-3.0784678,0.624925,-0.00025971656,-0.001692351,-0.00085215113,-0.0028336104,-0.00221001,0.003965895,-2.9735249e-05,0.47776204,-1.4258723,1.9577507,-2.1008613,-1.5707573,2.452752,-0.00012989734,0.0051199044,0.003674353,-0.013332688,0.00011621975,-9.873985e-05,0.038307227,0.19153613,-8.734048,0.7217513,47.687782,0.11085428,-3.1881065,-2.7085657,-0.31039965,0.09457728,0.025504338,26.0625,26.9375,26.0,29.0625,30.0625,30.5
0.006054526,-0.48357022,0.2766476,1.0335026,0.009358187,-0.023538515,0.0021188874,-0.3810554,-0.34851485,0.059928674,-3.0784843,0.6249477,-0.00018894472,-0.0013815854,-0.00075907394,-0.0010153465,-0.002178475,0.0039248364,9.337538e-05,0.47778618,-1.4258972,1.957786,-2.1009195,-1.5707697,2.4527884,-4.9539112e-06,0.002145807,0.0017922246,-0.00842549,0.000114244845,-9.7404096e-05,0.076614454,0.21068975,-8.6574335,0.7172743,47.685097,0.09348002,-3.0154753,-2.5851643,-0.3363278,0.08438236,0.03675347,26.0625,26.9375,26.0,29.0625,30.0625,30.5
0.008054851,0.22139059,0.760755,0.4847462,0.041300047,-0.02952847,-0.007770145,-0.38105407,-0.3485189,0.0599316,-3.0784705,0.6248866,-0.00017911987,-0.0013755427,-0.00075730047,0.00075285294,-0.0023910077,0.0043505933,9.676454e-05,0.47781014,-1.425886,1.9577607,-2.1008942,-1.5707935,2.452776,-6.646304e-08,-0.00042151965,-0.00026736606,-0.0042743683,0.00011221847,-9.610398e-05,0.038307227,0.22984336,-8.772355,0.7172743,47.668976,0.014020637,-2.9379497,-2.520698,-0.37064174,0.079931915,0.023387378,26.0625,26.9375,26.0,29.0625,30.0625,30.5
0.010054514,0.15535098,0.8059906,0.18466324,0.032444756,-0.029542014,-0.016464569,-0.38106632,-0.34852055,0.059932023,-3.07848,0.62496674,-0.00018966137,-0.00085458794,-0.0004852375,0.00084895495,-0.0014750467,0.002597571,9.3289804e-05,0.47778618,-1.4258744,1.9577488,-2.1009047,-1.5707697,2.4528008,-8.9168645e-10,-0.00068091427,-0.0008280602,-0.0014763782,0.00011025515,-9.287848e-05,-0.019153614,0.22984336,-9.174581,0.7732232,47.667187,-0.050001293,-2.0928884,-3.2466214,-0.3941394,0.06254835,0.01736619,26.0625,26.9375,26.0,29.0625,30.0625,30.5
0.012054095,-0.15887481,-0.05756261,0.10178758,-0.0012148526,-0.013683166,-0.011565141,-0.38103685,-0.3484984,0.059900336,-3.078431,0.62489814,-0.00030976976,-0.0003793701,-0.00024073113,-0.0033497077,0.0027612222,-0.005581189,9.184871e-05,0.47777414,-1.4258595,1.957796,-2.1008685,-1.5707697,2.452752,-1.1963111e-11,0.008920834,-0.0024574639,-0.00023795587,0.00010835873,-8.934156e-05,0.076614454,0.15322891,-9.289503,0.6725152,47.70659,-0.19928108,-2.0092442,-3.483213,-0.3869534,0.08432436,0.001722001,26.0625,26.9375,26.0,29.0625,30.0625,30.5
0.014054513,-0.4290595,-1.1173038,-0.13699993,-0.02610504,0.013593909,-0.010198918,-0.3810373,-0.34852052,0.059902366,-3.0784485,0.6249025,-0.0003342294,-0.0043885144,-0.0011739486,-0.004316271,0.003201119,-0.006468304,-0.0019259708,0.4777975,-1.4258316,1.9577569,-2.1008565,-1.5707458,2.452776,-0.002060078,0.018872395,-0.011641422,-1.5536818e-05,0.00010652638,-0.00012541686,-0.05746084,0.28730422,-9.385271,0.65684843,47.70659,-0.30629167,-2.8887308,-3.338795,-0.38309395,0.05282704,-0.04037752,26.0625,26.9375,26.0,29.0625,30.0625,30.5
0.016054949,-1.0149597,-1.9083232,-0.38600922,-0.038816467,0.032067575,-0.00966689,-0.38101354,-0.34851885,0.05988282,-3.0784254,0.62476456,-0.00046247942,-0.006002471,-0.00053826027,-0.003568831,0.0024321547,-0.0049881483,-0.0026663535,0.47780842,-1.4257958,1.9577445,-2.100785,-1.5707334,2.4527037,-0.004683655,0.018665135,-0.013116915,-1.0144431e-06,0.00010475516,-0.0020079094,-0.2681506,0.38307226,-9.5385,0.80679786,47.71823,-0.1514291,-2.6553001,-3.397162,-0.3700884,0.07802377,-0.025045656,26.0625,26.9375,26.0,29.0625,30.0625,30.5
0.018054582,-1.764609,-1.8771032,-0.5582025,-0.04890063,0.033300154,-0.009514486,-0.38105085,-0.34851825,0.059883334,-3.0783975,0.6248702,-0.00038476652,-0.005827198,-0.00023400574,-0.0030794975,0.0030411093,-0.006155536,0.0022313495,0.47779635,-1.4257481,1.9576968,-2.1008193,-1.5707697,2.4527612,-0.005060522,0.018042292,-0.0142178405,0.0030384618,0.000103041784,-0.007282626,-0.30645782,0.45968673,-9.653421,0.73069996,47.689575,-0.18512729,-2.3948922,-3.5217104,-0.38413894,0.054303706,0.0040611676,26.0625,26.9375,26.0,29.0625,30.0625,30.5
0.020055052,-1.6119324,-1.7570127,-0.5329077,-0.053674128,0.044269416,-0.012130592,-0.38103136,-0.34850144,0.059849277,-3.0783384,0.62481946,-0.00051703706,-0.006031857,-0.00037525813,-0.0033664017,0.0038109692,-0.007585706,0.0038701682,0.47778448,-1.4256995,1.9577082,-2.1007712,-1.5707697,2.4527252,-0.004982406,0.019920887,-0.016065983,0.004631852,7.495474e-05,-0.008842371,-0.30645782,0.51714754,-9.80665,0.7620334,47.70211,-0.2514022,-2.3771825,-3.5814455,-0.40897655,0.04406864,0.017118229,26.0625,26.9375,26.0,29.0625,30.0625,30.5
0.022054657,-1.7827722,-2.0069895,-0.48946634,-0.05052465,0.040628724,-0.018108878,-0.3810417,-0.34851554,0.05985629,-3.0783496,0.62486047,-0.00053936424,-0.0072326907,-0.0009942824,-0.0031165592,0.003308153,-0.006614988,0.0033754553,0.47778443,-1.4256748,1.9576586,-2.1007473,-1.5707458,2.4527493,-0.0049914047,0.021917786,-0.018842628,0.0043186815,6.8699504e-05,-0.008354862,-0.53630114,0.61291564,-9.80665,0.7866488,47.698532,-0.33511147,-2.4317403,-3.545155,-0.3807529,0.035159368,-0.00052170607,26.0625,26.9375,26.0,29.0625,30.0625,30.5
0.024053998,-1.5721219,-1.6058508,-0.6015767,-0.06134844,0.058658473,-0.034467775,-0.3810475,-0.34850743,0.059823386,-3.0783112,0.6247754,-0.00061695237,-0.008376192,-0.00090988,-0.0029422382,0.0028566746,-0.0057142084,0.0030900072,0.47777206,-1.4255908,1.9576353,-2.1007354,-1.5707573,2.4526887,-0.0061885426,0.022892741,-0.020215096,0.0037085179,4.9809212e-05,-0.00926555,-0.47884035,0.5554548,-9.883265,0.73069996,47.698532,-0.39859533,-2.3353953,-3.620757,-0.38082507,0.050713673,0.0071912846,26.0625,26.9375,26.0,29.0625,30.0625,30.5
0.026054116,-1.7346139,-2.008525,-0.5712939,-0.055900406,0.053754214,-0.028481392,-0.3810897,-0.34850696,0.059839636,-3.0783162,0.6248146,-0.0005317631,-0.010144992,-0.0016070639,-0.0018789015,0.0015693578,-0.00320938,0.0034378488,0.4777479,-1.4255664,1.9575733,-2.1007478,-1.5707816,2.4526885,-0.0065762177,0.023909576,-0.023734258,0.0033942903,3.2905693e-05,-0.009999029,-0.51714754,0.49799395,-9.9790325,0.67475104,47.70032,-0.4181977,-2.285859,-3.5293348,-0.36502168,0.02675863,0.00022139074,26.0625,26.9375,26.0,29.0625,30.0625,30.5
0.028054487,-2.04094,-1.6416364,-0.52620554,-0.050800137,0.043505285,-0.039502755,-0.38111266,-0.34852755,0.059843905,-3.0783343,0.6248191,-0.000556683,-0.011417824,-0.0013500989,-0.0015624933,0.0013896801,-0.0028155546,0.0020916879,0.47774738,-1.4255062,1.9574894,-2.1007235,-1.5707573,2.4526885,-0.0081956955,0.024989605,-0.02582084,0.0039687897,8.057925e-06,-0.010271188,-0.49799395,0.40222588,-9.864111,0.73069996,47.683304,-0.40861595,-2.2408857,-3.5665936,-0.35968918,0.025152162,0.001549189,26.0625,26.9375,26.0,29.0625,30.0625,30.5
0.030054154,-1.6012921,-0.6565045,-0.3829925,-0.039456174,0.043235008,-0.051364943,-0.3811399,-0.34852546,0.059828043,-3.0783467,0.62480354,-0.00056832045,-0.012660617,-0.0015210764,-0.0012983009,0.0013558675,-0.0027435578,0.0014633765,0.47771096,-1.4254456,1.9574646,-2.1007593,-1.5707458,2.4526408,-0.009037964,0.02694342,-0.028889243,0.0050040088,5.2612495e-07,-0.01048348,-0.47884035,0.36391866,-9.672575,0.6926589,47.672558,-0.3924911,-2.270918,-3.5144014,-0.3556022,0.009252364,-0.028629031,26.0625,26.9375,26.0,29.0625,30.0625,30.5
0.032054175,-0.9209915,0.12529734,-0.39241597,-0.017813843,0.04926432,-0.08295227,-0.38115114,-0.3485311,0.059814826,-3.0783246,0.62476146,-0.0006271727,-0.013667741,-0.00132342,-0.0015201869,0.0014785603,-0.0029878768,0.00020675658,0.47771055,-1.4253732,1.957404,-2.100723,-1.5707458,2.452617,-0.010322312,0.028769324,-0.030472744,0.0050349757,3.4352198e-08,-0.010510128,-0.34476504,0.24899697,-9.634268,0.7418897,47.682407,-0.4118067,-2.288758,-3.5624137,-0.3449121,0.017440455,-0.013450155,26.0625,26.9375,26.0,29.0625,30.0625,30.5
0.03405462,-1.0533583,0.10037761,-0.28204677,0.014566193,0.03207799,-0.076266214,-0.38121173,-0.34853786,0.05981952,-3.0783472,0.6249003,-0.0005912792,-0.014784143,-0.0020134686,-0.0010053798,0.0007811435,-0.0016530262,0.00013603612,0.4776506,-1.4253008,1.9573191,-2.1007597,-1.5707215,2.4526408,-0.010127843,0.03015125,-0.033188224,0.0048627676,2.2429532e-09,-0.010243319,-0.19153613,0.05746084,-9.634268,0.779936,47.681515,-0.42097422,-2.2511106,-3.5539322,-0.3345456,0.021568911,-0.036413226,26.0625,26.9375,26.0,29.0625,30.0625,30.5
0.03605466,-0.9901543,0.4341282,-0.19637613,0.019323384,0.026736671,-0.09358394,-0.3812081,-0.34853357,0.059802707,-3.0783105,0.6247971,-0.0006405767,-0.0168835,-0.0024159888,-0.00014842392,-0.00014724687,0.00012157842,-0.0013491351,0.47766215,-1.4252523,1.9572939,-2.100723,-1.5707458,2.4525926,-0.011357525,0.032005668,-0.037327223,0.0051443647,1.464488e-10,-0.0099855075,-0.21068975,0.019153614,-9.5385,0.8023209,47.713753,-0.40257627,-2.2619538,-3.4677765,-0.31512508,-0.0027269595,-0.046804518,26.0625,26.9375,26.0,29.0625,30.0625,30.5
0.038054906,-0.9596581,0.6176628,-0.112377465,0.014404703,0.020160008,-0.100595325,-0.3812929,-0.34856424,0.059838556,-3.0783846,0.624812,-0.00049408246,-0.017791785,-0.0025811638,1.9040695e-05,-0.00014376055,0.00010965529,-0.0011811492,0.47763807,-1.4251797,1.9571375,-2.1007593,-1.5707458,2.4525685,-0.01190306,0.03356851,-0.039675664,0.0059420555,9.56206e-12,-0.010697759,-0.36391866,0.038307227,-9.519346,0.7083204,47.670765,-0.51387024,-2.2726817,-3.454173,-0.30675647,-0.013279617,-0.03846585,26.0625,26.9375,26.0,29.0625,30.0625,30.5
0.040054455,-0.7108113,0.3854054,-0.20558403,0.011421657,0.02253491,-0.113294765,-0.3813054,-0.34854802,0.05981171,-3.0783198,0.6248765,-0.0006241188,-0.018941326,-0.0024867554,0.00019734757,-2.1144671e-05,-0.0001357089,-0.0024808226,0.47758958,-1.4250954,1.9570888,-2.1006987,-1.5707334,2.4525685,-0.0131342765,0.035275638,-0.042305157,0.007138829,6.2433424e-13,-0.010627951,-0.21068975,-0.019153614,-9.557653,0.7217513,47.66808,-0.46306586,-2.2240615,-3.4518533,-0.30624285,-0.018505787,-0.062927194,26.0625,26.9375,26.0,29.0625,30.0625,30.5
0.0420546,-0.44946465,0.58746773,-0.050269924,0.0017108815,0.026251273,-0.12329339,-0.38136104,-0.34857485,0.059829444,-3.0783603,0.6248846,-0.0004845843,-0.019904247,-0.0022923406,0.0005845634,0.0004126176,-0.00031890062,-0.0025796501,0.47760123,-1.425035,1.956993,-2.1007583,-1.5707573,2.4525802,-0.014174324,0.03635737,-0.04483847,0.008953182,-0.00030177404,-0.011567486,-0.21068975,0.0,-9.634268,0.75755644,47.67614,-0.45808756,-2.1779082,-3.407765,-0.30916008,-0.047802057,-0.07062188,26.0625,26.9375,26.0,29.0625,30.0625,30.5
0.04405423,-1.1299837,-0.36594918,-0.1716993,0.016704354,0.008823003,-0.11367709,-0.3813723,-0.3485622,0.059809566,-3.0783112,0.62487537,-0.00064073416,-0.020845024,-0.0021991737,0.001262944,0.0010473605,0.0005126089,-0.0027603814,0.4775531,-1.424951,1.9569205,-2.100661,-1.5707339,2.4525325,-0.014592554,0.036834788,-0.04728293,0.010477155,-0.0012508613,-0.011801961,-0.22984336,0.038307227,-9.519346,0.72622824,47.705692,-0.48107573,-2.1896129,-3.4127104,-0.3002448,-0.03687195,-0.06755346,26.0625,26.9375,26.0,29.0625,30.0625,30.5
0.04605432,-0.654265,-0.19150645,-0.04519745,0.009051898,0.022852367,-0.13498132,-0.38142857,-0.3485688,0.059812985,-3.0782964,0.62489164,-0.00060100626,-0.02180726,-0.0014432947,8.044092e-05,0.0040553706,-0.0011311673,-0.0029818113,0.47752878,-1.4248539,1.9567994,-2.1006496,-1.5707587,2.4525204,-0.015579719,0.040831037,-0.04935039,0.011397239,-0.0031695892,-0.012562217,-0.19153613,0.15322891,-9.500193,0.7597976,47.686886,-0.43979967,-2.1640873,-3.4236526,-0.31218225,-0.036252495,-0.07728699,26.0625,26.9375,26.0,29.0625,30.0625,30.5
0.048054136,-0.81374896,-0.44200122,-0.27833587,-0.0020699534,0.026505828,-0.13877504,-0.3814647,-0.3485716,0.05981908,-3.078301,0.6249506,-0.0005997421,-0.022990916,-0.0016424167,0.00072404003,0.0035979638,0.00012932115,-0.003696024,0.47749257,-1.4248056,1.9567274,-2.1006367,-1.5707468,2.4525204,-0.016203856,0.041545987,-0.051710874,0.011713762,-0.0033468723,-0.012470572,-0.24899697,0.30645782,-9.576807,0.77545905,47.684196,-0.46887064,-2.3084254,-3.476736,-0.29198593,-0.008181099,-0.089215405,26.0625,26.9375,26.0,29.0625,30.0625,30.5
0.050054166,-0.51839024,-0.8622164,-0.23972654,-0.016842732,0.032457773,-0.15132044,-0.38152614,-0.34857273,0.05983482,-3.0783029,0.6248729,-0.0005073321,-0.023618652,-0.0022750867,0.0018162916,0.002202098,0.0011804296,-0.003969232,0.47746864,-1.4247341,1.9566072,-2.1006253,-1.5707945,2.452448,-0.016148118,0.04109598,-0.053949285,0.012823825,-0.0025917757,-0.012142464,-0.17238252,0.4405331,-9.5385,0.75755644,47.66808,-0.48187882,-2.0878828,-3.41711,-0.31951696,-0.036983892,-0.08314341,26.0625,26.9375,26.0,29.0625,30.0625,30.5
0.05205472,-0.92595154,-1.2666306,-0.1085004,-0.032402065,0.012860257,-0.15087566,-0.38159078,-0.34856588,0.05984513,-3.0782683,0.6250394,-0.0005104127,-0.024273723,-0.0024046479,0.0013584881,0.002094096,-8.372927e-05,-0.005340405,0.47739634,-1.4246486,1.9564751,-2.1005766,-1.570794,2.452484,-0.01695857,0.04347642,-0.05572888,0.013293649,-0.0019174534,-0.011581942,-0.2681506,0.40222588,-9.615114,0.784413,47.67614,-0.45284873,-2.0464454,-3.4273787,-0.33589894,-0.03994303,-0.11519583,26.0625,26.9375,26.0,29.0625,30.0625,30.5
0.054054108,-0.91012526,-1.7607517,-0.14459233,-0.033333745,0.016989514,-0.16325082,-0.38160565,-0.3485937,0.059846845,-3.0782893,0.62500554,-0.0005746904,-0.025434965,-0.0032686696,0.0018538757,0.0014494406,0.00060055294,-0.005702113,0.4774084,-1.4245769,1.9563783,-2.1005285,-1.5707577,2.4524722,-0.016662467,0.045524597,-0.059353914,0.013966152,-0.0016654084,-0.0109226,-0.21068975,0.45968673,-9.5385,0.7284641,47.686886,-0.54098547,-2.0497932,-3.392036,-0.33717543,-0.062343262,-0.12648027,26.0625,26.9375,26.0,29.0625,30.0625,30.5
0.056054775,-0.67655295,-1.4438369,-0.13917522,-0.041291095,0.027664814,-0.17502205,-0.3816834,-0.3485914,0.059865806,-3.0782824,0.6250619,-0.0005057645,-0.026861385,-0.0036329678,0.0014537412,0.001450481,0.0004796294,-0.005695836,0.47734815,-1.4244918,1.9562324,-2.1005046,-1.5707821,2.4524481,-0.017362136,0.04903661,-0.06235917,0.013566614,-0.0016181652,-0.011626563,-0.11492168,0.53630114,-9.5385,0.77545905,47.71286,-0.43584037,-2.1574545,-3.2823586,-0.34305406,-0.07787451,-0.11069953,26.0625,26.9375,26.0,29.0625,30.0625,30.5
0.05805499,-0.7096775,-1.4268827,-0.17559119,-0.03910256,0.029786142,-0.19170697,-0.38174078,-0.34859654,0.059860565,-3.0782728,0.62502164,-0.0005102035,-0.027143154,-0.0033781908,0.0007443587,0.0019305627,-0.00030562948,-0.006176315,0.47731194,-1.4243714,1.9561018,-2.1004813,-1.570794,2.452388,-0.018028628,0.050578244,-0.06236134,0.01294521,-0.0016855542,-0.011812061,-0.11492168,0.57460845,-9.595961,0.7620334,47.696735,-0.52811,-2.2519522,-3.4574976,-0.34860122,-0.07190058,-0.13543999,26.0625,26.9375,26.0,29.0625,30.0625,30.5
0.06005439,-1.1443815,-1.5223413,0.10672023,-0.03398462,0.024458297,-0.18249892,-0.38178742,-0.34862503,0.05987165,-3.0783048,0.62502795,-0.00047634894,-0.029144555,-0.004027873,0.002731749,0.0009214284,0.00448504,-0.006231846,0.47731197,-1.4242879,1.9559811,-2.1004813,-1.5707825,2.452388,-0.017870128,0.049862653,-0.06601093,0.012596515,-0.0029981271,-0.011593682,-0.15322891,0.53630114,-9.557653,0.7777002,47.716442,-0.49476027,-1.98669,-3.4446063,-0.33198902,-0.058998793,-0.1579777,26.0625,26.9375,26.0,29.0625,30.0625,30.5
0.06205448,-1.1240993,-1.3618592,0.12864135,-0.033810567,0.023619084,-0.18821253,-0.38185027,-0.34860146,0.059872724,-3.0782537,0.6251142,-0.00047980834,-0.031855207,-0.0046602977,0.00317757,0.0005728093,0.0066163605,-0.0070701265,0.47722775,-1.4242026,1.9558705,-2.1004336,-1.5708069,2.4523642,-0.018805532,0.05372437,-0.07129867,0.011971142,-0.0036802557,-0.011685973,-0.17238252,0.49799395,-9.423578,0.76874626,47.68599,-0.47018617,-2.0842612,-3.2379792,-0.33502135,-0.04484654,-0.15162978,26.0625,26.9375,26.0,29.0625,30.0625,30.5
0.06405465,-0.8847906,-1.6211208,0.04662546,-0.027511412,0.018499482,-0.1829225,-0.381934,-0.34862265,0.059899483,-3.0782564,0.6251913,-0.00038461754,-0.031145448,-0.004431107,0.0016496631,0.0018848242,0.0037956913,-0.0070581725,0.4772037,-1.4240941,1.9556803,-2.1004102,-1.5708312,2.452388,-0.01864003,0.055937663,-0.0703183,0.011884825,-0.0035473672,-0.011533039,-0.11492168,0.47884035,-9.3661175,0.80679786,47.68599,-0.5153548,-2.1512828,-3.3520315,-0.29719484,-0.07299133,-0.17781132,26.0625,26.9375,26.0,29.0625,30.0625,30.5
0.06605442,-0.98704267,-1.7179476,0.17486797,-0.025813522,0.007152245,-0.1725536,-0.382004,-0.3486435,0.05991281,-3.0782964,0.62516034,-0.00035340572,-0.033306736,-0.00570627,0.0029048845,-0.00043677544,0.007124258,-0.0062096016,0.47716767,-1.4239858,1.9555234,-2.1003978,-1.5708183,2.4523277,-0.018707199,0.057443827,-0.07463543,0.010670722,-0.003025792,-0.0124472855,-0.15322891,0.4213795,-9.385271,0.7620334,47.675243,-0.49597767,-2.1154718,-3.2860334,-0.30411744,-0.075870365,-0.1865762,26.0625,26.9375,26.0,29.0625,30.0625,30.5
0.06805488,-1.0338297,-1.5147922,0.33692363,-0.024311246,0.0023216081,-0.16091949,-0.38206166,-0.34866884,0.059924636,-3.0783052,0.62514305,-0.00031256158,-0.034353215,-0.0056660986,0.002994189,-0.0003948547,0.0066743838,-0.006795901,0.4771673,-1.4238774,1.955367,-2.1003735,-1.5708307,2.4523156,-0.019851873,0.059228644,-0.077141725,0.011810187,-0.0028591391,-0.013004748,-0.15322891,0.36391866,-9.270349,0.7083204,47.650166,-0.5437627,-2.1014192,-3.1748748,-0.2846,-0.08717209,-0.18005598,26.0625,26.9375,26.0,29.0625,30.0625,30.5
0.07005425,-0.9288898,-0.9356171,0.49596527,-0.02159502,0.009816184,-0.16881151,-0.3821324,-0.34868076,0.059915334,-3.0783162,0.6251833,-0.00033793636,-0.035114918,-0.0060480544,0.002917099,-0.00049026415,0.006655314,-0.0058431765,0.4771073,-1.423733,1.9552234,-2.1003735,-1.5708064,2.4522793,-0.019930055,0.061151087,-0.07919155,0.011910317,-0.0027699121,-0.014034531,-0.17238252,0.34476504,-9.232041,0.7553206,47.70211,-0.50365746,-2.0840883,-3.1688793,-0.3069428,-0.0853412,-0.19869548,26.0625,26.9375,26.0,29.0625,30.0625,30.5
0.07205455,-1.1404768,-1.263531,0.44101638,0.0056279195,0.0100107435,-0.15982948,-0.38220224,-0.34871024,0.059925217,-3.0783465,0.6251889,-0.0002775706,-0.03614286,-0.006320556,0.0030713852,0.00024136042,0.007682602,-0.004839942,0.4770954,-1.4236125,1.9550661,-2.100386,-1.5708069,2.4522672,-0.019662319,0.06296533,-0.081634596,0.011966419,-0.0038962357,-0.014766586,-0.19153613,0.34476504,-9.232041,0.8157518,47.709274,-0.52354336,-2.0405977,-3.0967817,-0.28511634,-0.10743414,-0.19798464,26.0625,26.9375,26.0,29.0625,30.0625,30.5
0.07405469,-0.73607963,-0.46346566,0.40838736,0.0041403146,0.019741902,-0.16269039,-0.38228342,-0.34872776,0.059947483,-3.078367,0.62519234,-0.00020803427,-0.03709297,-0.0063643586,0.0028975867,0.00083079876,0.007103724,-0.004900531,0.47705922,-1.423504,1.9548858,-2.1003616,-1.5708188,2.4522307,-0.020288762,0.06535162,-0.08418381,0.012914764,-0.004156618,-0.015330699,0.0,0.30645782,-9.136273,0.7239871,47.689575,-0.5268628,-2.074554,-3.1181645,-0.2796403,-0.106357366,-0.20440057,26.0625,26.9375,26.0,29.0625,30.0625,30.5
0.07605488,-0.6126204,0.028651044,0.4042922,-0.002084981,0.024715139,-0.1715045,-0.38236296,-0.3487394,0.05995084,-3.078361,0.6252686,-0.00021907245,-0.038842984,-0.0065907706,0.0038396379,0.00022808854,0.009846866,-0.0053475094,0.4769989,-1.42336,1.9547056,-2.1003258,-1.5708073,2.4522188,-0.021020895,0.06597338,-0.086918734,0.012316805,-0.004887614,-0.015612969,-0.095768064,0.21068975,-9.040505,0.800085,47.70211,-0.54949903,-2.0133324,-3.0848525,-0.28903735,-0.10457302,-0.21604362,26.0625,26.9375,26.0,29.0625,30.0625,30.5
0.07805423,-0.5714584,-0.3884061,0.33194774,0.0124901235,0.015616559,-0.166709,-0.38244137,-0.34874886,0.059944045,-3.0783584,0.6252288,-0.0002108758,-0.039397787,-0.0065111103,0.0020511667,0.0027498144,0.0068227244,-0.0045489706,0.476951,-1.4232019,1.9545377,-2.1003134,-1.5708193,2.4521465,-0.021116786,0.07147585,-0.089289956,0.01303237,-0.0057430165,-0.016503938,-0.114921674,0.22984336,-9.11712,0.7217513,47.698532,-0.58599126,-2.1751444,-3.0468946,-0.2497254,-0.095853105,-0.22000098,26.0625,26.9375,26.0,29.0625,30.0625,30.5
0.08005461,-0.6543634,-0.22711045,0.37386912,0.004163182,0.015053767,-0.17281362,-0.3824948,-0.34874773,0.059930902,-3.0782876,0.6251942,-0.00020857783,-0.040583786,-0.006765885,0.004034083,0.0017453844,0.010470301,-0.004093706,0.47693887,-1.4230587,1.9543933,-2.1002653,-1.5708798,2.452122,-0.021244781,0.06929291,-0.09149213,0.013717502,-0.0065292553,-0.017084869,-0.22984336,0.21068975,-9.251195,0.73069996,47.691364,-0.585828,-1.9791362,-2.9976711,-0.25573263,-0.08768348,-0.22787717,26.0625,26.9375,26.0,29.0625,30.0625,30.5
0.082054675,-0.3586965,-0.43989262,0.31200683,0.0008764032,0.021566182,-0.16406296,-0.3825752,-0.34875748,0.059944473,-3.0783012,0.6252544,-0.00021847733,-0.041204665,-0.0065483605,0.0034676245,0.0032857344,0.009140453,-0.0035507437,0.47686675,-1.4229378,1.954213,-2.100217,-1.5708565,2.4520857,-0.021704447,0.07197195,-0.09355609,0.014993382,-0.0072884583,-0.018084975,-0.21068975,0.24899697,-9.193734,0.7418897,47.687782,-0.5931698,-2.042434,-3.0550747,-0.26755098,-0.09159382,-0.23015417,26.0625,26.9375,26.0,29.0625,30.0625,30.5
0.084054194,-1.1743823,-0.65290093,0.23781803,0.0014068793,0.010247473,-0.15529777,-0.38266274,-0.34877843,0.059961274,-3.0782948,0.6253104,-0.00017969671,-0.04164967,-0.0066811857,0.0016942046,0.00503174,0.0062181796,-0.0032338256,0.47683084,-1.4227917,1.953997,-2.1001694,-1.5708684,2.4520857,-0.021737963,0.07721371,-0.09553321,0.015126619,-0.007501922,-0.018433413,-0.30645782,0.24899697,-9.251195,0.70608455,47.717335,-0.6301336,-2.111996,-3.1236482,-0.24832654,-0.07521736,-0.24077614,26.0625,26.9375,26.0,29.0625,30.0625,30.5
0.08605413,-0.9053638,-0.53170127,0.11565073,0.0010054962,0.02957904,-0.1602042,-0.38275275,-0.3488073,0.05998133,-3.07833,0.62524027,-0.000110637266,-0.041569326,-0.0064663207,0.0024141069,0.004912,0.0069560623,-0.0027320988,0.47680673,-1.4226482,1.9537815,-2.1001446,-1.5708803,2.4520135,-0.021889443,0.0754567,-0.09538397,0.016024128,-0.0077310577,-0.019087117,-0.15322891,0.21068975,-9.212888,0.7083204,47.65643,-0.61838174,-2.10178,-3.1835723,-0.24816364,-0.07365633,-0.25074154,26.0625,26.9375,26.0,29.0625,30.0625,30.5
0.08805423,-0.8973206,-0.21878234,0.1313003,-0.007602767,0.03483212,-0.16740307,-0.38280776,-0.3488039,0.059938844,-3.0782664,0.6253426,-0.0002532393,-0.04306206,-0.0066769556,0.0021846509,0.0055340417,0.0066470113,-0.0026272233,0.47673446,-1.4224547,1.9536494,-2.1001089,-1.5708565,2.4520133,-0.022614984,0.07897036,-0.099053554,0.016741313,-0.008150096,-0.019913781,-0.21068975,0.24899697,-9.308656,0.7329411,47.686886,-0.615881,-2.1069133,-3.0511832,-0.2543655,-0.089459985,-0.2594342,26.0625,26.9375,26.0,29.0625,30.0625,30.5
0.090054356,-1.116421,-0.7451502,0.15996617,0.0020296276,0.028451888,-0.1617068,-0.38291135,-0.34883067,0.059958898,-3.0782833,0.6253649,-0.000213108,-0.041874316,-0.0059683756,-4.1692114e-05,0.007857747,0.0022303243,-0.0018514796,0.47668633,-1.4222858,1.9533995,-2.1000612,-1.5708565,2.451977,-0.022749236,0.0816716,-0.09715611,0.017132664,-0.008182753,-0.020824607,-0.17238252,0.2681506,-9.251195,0.7642693,47.701214,-0.64482075,-2.1173232,-3.3461413,-0.25335276,-0.07339592,-0.2557993,26.0625,26.9375,26.0,29.0625,30.0625,30.5
0.09205476,-1.2644963,-0.76782006,0.14032874,-0.003087854,0.021903068,-0.15598913,-0.38298172,-0.34884745,0.059945375,-3.0782533,0.6253002,-0.00020720004,-0.044539064,-0.0074779433,0.001533483,0.0053633526,0.004854302,-0.0013053124,0.4766743,-1.4221046,1.9532179,-2.1000369,-1.5708922,2.4519286,-0.023172516,0.08418969,-0.10379307,0.017770812,-0.007184093,-0.02179218,-0.21068975,0.28730422,-9.289503,0.7732232,47.677036,-0.6792592,-2.1126142,-3.1386976,-0.24976596,-0.09654391,-0.26728255,26.0625,26.9375,26.0,29.0625,30.0625,30.5
0.09405453,-1.1191137,-0.82008016,-0.07870723,-0.0027650546,0.013739466,-0.16032436,-0.38308254,-0.3488573,0.05997165,-3.0782716,0.62530243,-0.0001124774,-0.043232366,-0.006700849,-0.0003056575,0.007409417,0.0012952598,-0.0007126813,0.4766143,-1.4219843,1.9530147,-2.1000125,-1.570916,2.4518678,-0.023222871,0.085602194,-0.101247974,0.017913818,-0.007362363,-0.022436354,-0.19153613,0.22984336,-9.404425,0.7597976,47.719128,-0.7413121,-2.1357636,-3.4286795,-0.22241807,-0.10217957,-0.27114442,26.0625,26.9375,26.0,29.0625,30.0625,30.5
0.09605441,-0.98749584,-1.3150728,-0.24873044,-0.0019792102,0.01585259,-0.15884979,-0.38314703,-0.34886372,0.0599421,-3.07822,0.6252921,-0.00021626036,-0.044372886,-0.0072143837,0.00019046581,0.0064977785,0.0017816887,-0.00044242147,0.47656614,-1.4217795,1.9528345,-2.0999525,-1.570916,2.45182,-0.023732748,0.08704588,-0.10419802,0.018567063,-0.006782635,-0.023215435,-0.21068975,0.28730422,-9.442732,0.79560274,47.731667,-0.70384157,-2.039238,-3.3614507,-0.22173387,-0.0907308,-0.27007344,26.0625,26.9375,26.0,29.0625,30.0625,30.5
0.098054945,-0.8776991,-0.8375744,-0.021437824,-0.01927364,0.014094206,-0.15740018,-0.38327545,-0.34890574,0.059981737,-3.0782757,0.62530345,-7.6261276e-05,-0.044523682,-0.007109994,-0.0004651242,0.0073388615,0.00044617674,-0.00017963714,0.47653,-1.4216106,1.9525479,-2.09994,-1.570928,2.451784,-0.023962397,0.08891964,-0.10496193,0.019029565,-0.0069157686,-0.023707787,-0.11492168,0.2681506,-9.346964,0.76874626,47.72002,-0.69686335,-2.1252592,-3.4505954,-0.21506241,-0.101944186,-0.26631257,26.0625,26.9375,26.0,29.0625,30.0625,30.5
0.10005409,-0.77035093,-1.1273885,-0.12596032,-0.008050228,0.01596367,-0.15026973,-0.38337094,-0.34890833,0.06000015,-3.0782602,0.6253189,-1.1565472e-05,-0.045243423,-0.007137287,-0.00043004486,0.007276896,0.00053221185,-0.00010670569,0.47646978,-1.421478,1.9523433,-2.0998924,-1.5709637,2.4517355,-0.024576603,0.090057164,-0.106397465,0.019221162,-0.0069026244,-0.024394283,-0.15322891,0.22984336,-9.404425,0.7239871,47.734352,-0.6927282,-2.1090426,-3.452602,-0.21061873,-0.12290956,-0.277504,26.0625,26.9375,26.0,29.0625,30.0625,30.5
0.10205415,-0.8443005,-0.5005131,-0.056825127,-0.014430015,0.012019705,-0.15924121,-0.38346827,-0.34892234,0.059993148,-3.0782547,0.6253181,-5.1928768e-05,-0.04760855,-0.0076493043,0.0008848416,0.006808574,0.0036666829,-0.00020341107,0.47639748,-1.4212735,1.9521145,-2.0998447,-1.5709523,2.4516635,-0.025167957,0.09155468,-0.11120165,0.019530999,-0.007934447,-0.024884403,-0.095768064,0.24899697,-9.404425,0.8179876,47.705692,-0.7253721,-2.0417714,-3.4050136,-0.21731116,-0.097339526,-0.2882221,26.0625,26.9375,26.0,29.0625,30.0625,30.5
0.10405434,-0.90949714,-0.81154996,-0.029611344,-0.005028974,0.015588662,-0.1564635,-0.38354674,-0.34894264,0.059990592,-3.0782385,0.62531495,-8.389537e-05,-0.046886165,-0.0066695996,-0.00045518493,0.009280558,0.0016038398,-0.00044661312,0.47636148,-1.4210927,1.9518999,-2.0997846,-1.5709528,2.4516277,-0.025425242,0.092532806,-0.1092945,0.01961669,-0.0091816755,-0.024896855,-0.1340753,0.3256114,-9.404425,0.80679786,47.703007,-0.76014113,-2.0561817,-3.5998242,-0.17486556,-0.08276914,-0.2982632,26.0625,26.9375,26.0,29.0625,30.0625,30.5
0.106054984,-1.1217846,-0.75669485,-0.06865471,-0.011225752,0.006673629,-0.15182596,-0.38364443,-0.34895316,0.059964046,-3.0781825,0.6253407,-9.157322e-05,-0.049385186,-0.0076576476,0.0008981595,0.008222783,0.004765018,-0.00010156858,0.47631353,-1.4208521,1.9516824,-2.0997727,-1.570989,2.4516032,-0.025628079,0.09465846,-0.11487654,0.019779136,-0.009703946,-0.025440425,-0.076614454,0.34476504,-9.404425,0.7978386,47.6636,-0.79537636,-1.9290174,-3.4875603,-0.17823419,-0.08732176,-0.30407244,26.0625,26.9375,26.0,29.0625,30.0625,30.5
0.10805438,-0.95727825,-0.9227006,0.13670902,-0.014923222,0.0076352675,-0.16095133,-0.38374507,-0.34898293,0.059973646,-3.0781853,0.62530226,-4.1280324e-05,-0.05001073,-0.0073606046,0.0004034842,0.009846608,0.0041788975,-4.5623063e-05,0.47628933,-1.4206588,1.9514312,-2.0997365,-1.5710133,2.4515548,-0.025962435,0.09684236,-0.11640127,0.020388637,-0.010879786,-0.025827842,-0.038307227,0.38307226,-9.404425,0.7284641,47.71554,-0.84038174,-2.0589702,-3.5364215,-0.16315304,-0.06723516,-0.31049824,26.0625,26.9375,26.0,29.0625,30.0625,30.5
0.1100547,-0.60530597,-0.4817018,-0.020864185,-0.025299072,0.0062876726,-0.15097761,-0.38382655,-0.3489958,0.059973244,-3.0781844,0.6252821,-8.167409e-05,-0.05181618,-0.00797446,0.0025832732,0.008138379,0.008436715,0.0001255134,0.47622943,-1.4204913,1.9512266,-2.0996764,-1.5710014,2.4514825,-0.026239008,0.09542802,-0.11984203,0.02067769,-0.0113211265,-0.026273098,-0.038307227,0.30645782,-9.385271,0.7463667,47.64837,-0.85827935,-1.8489025,-3.466852,-0.14031759,-0.057810448,-0.31819218,26.0625,26.9375,26.0,29.0625,30.0625,30.5
0.11205492,-0.2089172,-0.8214416,-0.38600853,-0.01904054,0.013808395,-0.15927842,-0.38397864,-0.34899846,0.059995156,-3.078187,0.6253979,2.5701762e-05,-0.05181546,-0.008378348,0.00048962666,0.009017965,0.0039892327,0.0012176089,0.4761094,-1.4202969,1.9509515,-2.099665,-1.5710248,2.4514346,-0.02632128,0.10102212,-0.12159869,0.02118925,-0.010065192,-0.027448872,-0.076614454,0.40222588,-9.5385,0.8627467,47.670765,-0.8490597,-2.0389314,-3.459796,-0.13821977,-0.07446125,-0.31790972,26.0625,26.9375,26.0,29.0625,30.0625,30.5
0.11405451,-0.74546194,-1.2940468,-0.40603992,-0.01813993,-0.0009694426,-0.15194196,-0.384058,-0.34903082,0.060008395,-3.078199,0.62532246,7.919953e-05,-0.053190164,-0.009297137,0.0026280754,0.0066575673,0.0077108117,0.0021882756,0.47610942,-1.4201416,1.950735,-2.0996282,-1.5710491,2.4513862,-0.026202273,0.09934931,-0.124659285,0.021530693,-0.009678385,-0.028300311,-0.05746084,0.36391866,-9.615114,0.7709874,47.703007,-0.86295974,-1.7464414,-3.4607182,-0.13786782,-0.07930507,-0.3339271,26.0625,26.9375,26.0,29.0625,30.0625,30.5
0.11605447,-1.2141017,-1.6518251,-0.4993354,-0.02278143,-0.0011046919,-0.14988722,-0.38416338,-0.3490294,0.059985112,-3.078106,0.6253807,-1.7555762e-05,-0.053629313,-0.00945711,0.0017368569,0.0074920394,0.0060252566,0.0019200337,0.4760253,-1.4198763,1.9504598,-2.0995204,-1.5710729,2.4513505,-0.02632814,0.10255312,-0.12641703,0.021963695,-0.00965288,-0.028155804,-0.038307227,0.30645782,-9.653421,0.8112748,47.705692,-0.93541706,-1.9086338,-3.4700043,-0.11729184,-0.0796376,-0.33532697,26.0625,26.9375,26.0,29.0625,30.0625,30.5
0.118054636,-1.0321447,-1.4369423,-0.5028407,-0.027021218,0.013191627,-0.15296169,-0.3842749,-0.34905386,0.05999462,-3.0781124,0.62528604,4.5457757e-05,-0.054465245,-0.009801462,0.0022546418,0.006662544,0.005856003,0.00051667617,0.47598892,-1.4196718,1.9501957,-2.0994842,-1.5711082,2.4512544,-0.02700327,0.103521034,-0.12905462,0.0233998,-0.008839418,-0.027428156,-0.038307227,0.4213795,-9.615114,0.7239871,47.694946,-0.90159386,-1.7811975,-3.505293,-0.10190566,-0.07183984,-0.35106373,26.0625,26.9375,26.0,29.0625,30.0625,30.5
0.120054856,-0.5319382,-1.3856072,-0.3939047,-0.026710484,0.033776633,-0.16363949,-0.38436702,-0.34908992,0.059994034,-3.0781348,0.62527084,2.2570497e-05,-0.055423353,-0.010096031,0.0023410101,0.0072927987,0.0053367275,0.00050657976,0.47595298,-1.4194669,1.9499539,-2.099448,-1.5710849,2.4512062,-0.027143948,0.10595399,-0.13244891,0.025112936,-0.0091650365,-0.027556457,-0.076614454,0.45968673,-9.576807,0.779936,47.651955,-0.98219514,-1.8292434,-3.4153066,-0.1206771,-0.075458646,-0.36940655,26.0625,26.9375,26.0,29.0625,30.0625,30.5
0.122054175,-1.4204808,-1.3977271,-0.59199226,-0.019967465,0.016967796,-0.15355185,-0.3844962,-0.34911177,0.06000938,-3.078143,0.62532955,9.077557e-05,-0.05662833,-0.010253084,0.0022666818,0.008164824,0.0058467677,0.001441984,0.47588095,-1.4192617,1.9496783,-2.0994236,-1.5710973,2.45117,-0.02730455,0.108462945,-0.1352219,0.025325283,-0.010178309,-0.028649403,-0.095768064,0.38307226,-9.595961,0.78217715,47.684196,-0.99942446,-1.7911289,-3.441429,-0.111580364,-0.07507433,-0.37510905,26.0625,26.9375,26.0,29.0625,30.0625,30.5
0.124054395,-0.35220417,-0.8205176,-0.45889667,-0.02467171,0.028451303,-0.16568723,-0.3846214,-0.349132,0.060019694,-3.0781212,0.6252861,0.00015035148,-0.059010208,-0.010790375,0.0024317747,0.007804853,0.0063271006,0.0015973074,0.47583258,-1.419032,1.9493779,-2.0993636,-1.5711449,2.4510975,-0.028587569,0.11268757,-0.14058805,0.025872003,-0.010088734,-0.030084863,-0.076614454,0.38307226,-9.519346,0.79560274,47.651955,-1.0229644,-1.846141,-3.2746139,-0.08004249,-0.0814084,-0.3618614,26.0625,26.9375,26.0,29.0625,30.0625,30.5
0.1260545,-1.0009562,-1.0861653,-0.45135978,-0.01328635,0.007649293,-0.15472744,-0.38473865,-0.3491408,0.060034063,-3.0781224,0.62530476,0.00018898537,-0.05911291,-0.010401404,0.0021342633,0.008214502,0.005329592,0.0015044169,0.47574824,-1.4188517,1.9491276,-2.099316,-1.5711569,2.4510248,-0.029415525,0.11325695,-0.1407256,0.026512615,-0.009994219,-0.030820327,-0.17238252,0.3256114,-9.576807,0.82022345,47.675243,-0.98466206,-1.9278351,-3.298895,-0.086563334,-0.06064815,-0.36947876,26.0625,26.9375,26.0,29.0625,30.0625,30.5
0.12805511,-1.5329695,-1.5280728,-0.70094234,-0.005373241,-0.0028721695,-0.14092225,-0.38483512,-0.34918416,0.060037863,-3.0781407,0.62517256,0.00017139979,-0.059620544,-0.01092434,0.0002769614,0.009766337,0.0017597072,0.0034464672,0.47573632,-1.4186213,1.9488381,-2.099243,-1.5711569,2.4509282,-0.029114487,0.1194797,-0.1438135,0.027260073,-0.009744599,-0.032459334,-0.19153613,0.2873042,-9.5385,0.78888994,47.687782,-1.0458276,-1.9971892,-3.2362928,-0.08063156,-0.075620055,-0.36020094,26.0625,26.9375,26.0,29.0625,30.0625,30.5
0.13005517,-1.2432097,-1.72535,-0.61085457,-0.010935093,0.0075854636,-0.14607438,-0.3849374,-0.34920123,0.06003769,-3.0781004,0.6252024,0.00016552988,-0.06056623,-0.011658331,0.001774967,0.007970981,0.0037921136,0.004853159,0.47568828,-1.4184055,1.9485749,-2.0991714,-1.5711812,2.4509041,-0.029098513,0.11860186,-0.14645287,0.028143907,-0.009084331,-0.033850066,-0.22984336,0.28730422,-9.557653,0.800085,47.67614,-1.0654901,-1.92966,-3.333833,-0.06922472,-0.093899086,-0.34337294,26.0625,26.9375,26.0,29.0625,30.0625,30.5
0.13205469,-1.2942853,-1.7206007,-0.44505838,-0.019949688,0.026182596,-0.14609198,-0.38511226,-0.34924448,0.06008088,-3.0781548,0.62527,0.00029422322,-0.060801595,-0.011983751,0.0011449049,0.008567573,0.0022675842,0.005104855,0.47560441,-1.4181641,1.948191,-2.0991347,-1.5711812,2.4508557,-0.028830808,0.12121021,-0.14820777,0.028917624,-0.00891512,-0.033834234,-0.36391866,0.34476504,-9.500193,0.8537928,47.668976,-1.1773609,-1.9902921,-3.2658572,-0.06259789,-0.07458708,-0.36165974,26.0625,26.9375,26.0,29.0625,30.0625,30.5
0.13405412,-1.2811015,-1.8141371,-0.39073244,-0.019424858,0.043564707,-0.15336554,-0.38522655,-0.3492495,0.060060635,-3.078105,0.62526166,0.00028403272,-0.062263824,-0.011281222,0.0011698192,0.009295705,0.0022558547,0.0033917914,0.47553158,-1.4179114,1.9479393,-2.099099,-1.571217,2.4507842,-0.030980187,0.12287499,-0.1504018,0.02979092,-0.009561321,-0.034268,-0.30645782,0.34476504,-9.557653,0.74413085,47.67614,-1.1126882,-1.9301974,-3.2547908,-0.07364206,-0.0886018,-0.37804502,26.0625,26.9375,26.0,29.0625,30.0625,30.5
0.13605487,-1.7832524,-1.8855488,-0.2728238,-0.024644218,0.044831812,-0.15248236,-0.3853277,-0.3492841,0.06006788,-3.078112,0.6251058,0.00026567266,-0.06373287,-0.01190194,0.0019574491,0.008803268,0.0033120937,0.0060866177,0.47550768,-1.4176826,1.9476384,-2.0990026,-1.5712289,2.4506624,-0.031185873,0.12459371,-0.1544662,0.030969901,-0.009614786,-0.037166208,-0.30645782,0.34476504,-9.5385,0.83365434,47.687782,-1.1257974,-1.9827628,-3.3798695,-0.066807434,-0.09084151,-0.33967358,26.0625,26.9375,26.0,29.0625,30.0625,30.5
0.1380542,-1.6757852,-1.758834,0.109026544,-0.021626838,0.04807637,-0.14928961,-0.3855002,-0.34933025,0.06011059,-3.0781674,0.6252127,0.00038181798,-0.0635093,-0.0113512855,0.0008967974,0.010215611,0.0010433097,0.0070417374,0.47542349,-1.417442,1.9472564,-2.0989664,-1.571217,2.450638,-0.031797767,0.12632813,-0.1542167,0.031649143,-0.009826408,-0.03873392,-0.38307226,0.36391866,-9.346964,0.78217715,47.696735,-1.181572,-1.9256289,-3.3723464,-0.06052854,-0.07351805,-0.3116338,26.0625,26.9375,26.0,29.0625,30.0625,30.5
0.14005451,-1.9535966,-1.2691532,0.08356995,-0.008348937,0.029049363,-0.14426194,-0.3856272,-0.3493373,0.060101647,-3.0781162,0.62516433,0.00038437545,-0.0654605,-0.010961902,0.0011497372,0.009754538,0.0023735964,0.006093806,0.47535062,-1.4171773,1.946957,-2.0988953,-1.5712651,2.4505417,-0.034120485,0.12790346,-0.15647012,0.030930728,-0.010033753,-0.040106595,-0.3256114,0.24899697,-9.212888,0.6971306,47.698532,-1.1360492,-1.6921608,-3.3759792,-0.039839827,-0.07623501,-0.3051323,26.0625,26.9375,26.0,29.0625,30.0625,30.5
0.14205486,-1.2503864,-0.50868756,0.32148355,-0.0022698315,0.028507052,-0.15489376,-0.38574627,-0.34937197,0.0601087,-3.0781384,0.62512904,0.0004117261,-0.065960556,-0.011585943,0.0004137945,0.00906587,0.0017057079,0.0072022965,0.47530282,-1.4169478,1.9466695,-2.09886,-1.5712651,2.4504693,-0.034052536,0.1306112,-0.1576394,0.029666537,-0.009120631,-0.04114771,-0.3256114,0.22984336,-9.270349,0.8224646,47.684196,-1.1452363,-1.8535459,-3.441961,0.001044753,-0.09910428,-0.2869591,26.0625,26.9375,26.0,29.0625,30.0625,30.5
0.14405403,-0.8656129,-0.4834947,0.4853829,0.00822012,0.027447667,-0.15724434,-0.38589504,-0.34939796,0.060112115,-3.0781393,0.6250887,0.00051487016,-0.066489115,-0.012269086,-0.0004171538,0.0094989445,3.2008604e-05,0.009337241,0.475243,-1.4166824,1.9463567,-2.0988595,-1.5713123,2.4503844,-0.033559322,0.13449405,-0.16035001,0.03017571,-0.008743042,-0.042788707,-0.28730422,0.17238252,-9.078813,0.7777002,47.682407,-1.2101579,-2.0236986,-3.4248996,0.03847797,-0.10381253,-0.26478624,26.0625,26.9375,26.0,29.0625,30.0625,30.5
0.14605425,-1.1451054,-0.3654714,0.5158275,0.031015644,0.0053729075,-0.15622212,-0.38604432,-0.34943163,0.060128964,-3.0781653,0.6250748,0.00052912533,-0.06745388,-0.011840362,-0.0004654305,0.010373617,-0.00025604523,0.009600959,0.47515845,-1.4164176,1.9459976,-2.0987866,-1.5713009,2.450288,-0.034760702,0.13602029,-0.16226308,0.031219997,-0.009390399,-0.044252057,-0.30645782,0.15322891,-8.963891,0.7396539,47.689575,-1.1921732,-1.6447033,-3.4723933,0.036341876,-0.100326195,-0.23657557,26.0625,26.9375,26.0,29.0625,30.0625,30.5
0.14805424,-0.6896351,0.17940973,0.6738739,0.037832588,0.006099926,-0.15215722,-0.38617697,-0.34945974,0.060129054,-3.0781605,0.6249966,0.0005787389,-0.06914612,-0.011774771,0.0007494844,0.009406729,0.0019287308,0.009516662,0.47511008,-1.4161533,1.9456857,-2.0987508,-1.5713371,2.4501917,-0.036313344,0.13583623,-0.1649735,0.03172684,-0.009534557,-0.04571917,-0.22984336,0.076614454,-8.925584,0.8403672,47.67614,-1.1482801,-1.8068461,-3.4406798,0.057824947,-0.09976193,-0.2254486,26.0625,26.9375,26.0,29.0625,30.0625,30.5
0.15005451,-0.48589718,0.36139518,0.7159921,0.039663807,0.005832115,-0.15375745,-0.38632467,-0.34947026,0.060131807,-3.078124,0.6250462,0.00055658875,-0.06975658,-0.0109781865,-0.0004072468,0.010935503,-0.0014599786,0.008660708,0.47500134,-1.4158759,1.9453386,-2.098654,-1.571349,2.4501188,-0.038376175,0.13924609,-0.16676168,0.03381479,-0.009345027,-0.04692514,-0.11492168,0.076614454,-8.887277,0.85155696,47.67614,-1.0467544,-1.7389208,-3.451847,0.061481014,-0.09964093,-0.20413917,26.0625,26.9375,26.0,29.0625,30.0625,30.5
0.15205497,-0.72481024,0.6982318,0.8197239,0.02277371,0.009366585,-0.16070586,-0.3864501,-0.3495016,0.06011384,-3.0781121,0.6248899,0.0005625166,-0.07053481,-0.011186629,-0.00014842713,0.01188273,-0.0016894834,0.009825014,0.47496527,-1.415575,1.9450258,-2.0986183,-1.5713853,2.449987,-0.03822904,0.14103183,-0.16989551,0.03580009,-0.010086149,-0.047939528,-0.24899697,0.095768064,-8.868123,0.83589023,47.705692,-1.0660907,-1.773949,-3.3307347,0.04944771,-0.10385929,-0.18515895,26.0625,26.9375,26.0,29.0625,30.0625,30.5
0.15405414,-0.9739414,-0.17142238,0.7486954,0.031225495,0.0031092132,-0.15162282,-0.38660303,-0.34954205,0.060152914,-3.0781596,0.6249368,0.0006092244,-0.07208191,-0.011712451,0.00051101664,0.011166067,-0.000776921,0.010306845,0.4748813,-1.4153461,1.9446543,-2.0985339,-1.571361,2.4499264,-0.03883101,0.14287332,-0.17374432,0.036666922,-0.009870258,-0.049022324,-0.2873042,0.11492168,-8.848969,0.7933669,47.698532,-1.1374966,-1.8164499,-3.2797537,0.06278984,-0.10086024,-0.13781643,26.0625,26.9375,26.0,29.0625,30.0625,30.5
0.15605475,-0.8614816,0.011921059,0.5400946,0.0133871855,0.012740184,-0.15899801,-0.3867567,-0.34953123,0.0601336,-3.0780795,0.62490225,0.0005911782,-0.07347384,-0.011474773,0.00072281493,0.011459459,-0.0008868309,0.00864663,0.47476056,-1.4150333,1.9443196,-2.0984495,-1.571421,2.4497945,-0.040354073,0.14474462,-0.1767256,0.038005594,-0.010088061,-0.048882797,-0.17238252,0.15322891,-8.810662,0.8314132,47.709274,-1.0760317,-1.7509563,-3.3407845,0.06888263,-0.10661789,-0.112244844,26.0625,26.9375,26.0,29.0625,30.0625,30.5
0.15805545,-0.279858,-0.18477465,0.4381135,0.01737752,0.023662917,-0.1606723,-0.3868839,-0.3495654,0.06013707,-3.0780697,0.6248236,0.0005717725,-0.07443087,-0.011863911,0.0016488581,0.011880723,-0.0013643231,0.0074237017,0.47471258,-1.4147563,1.943971,-2.0983527,-1.5714334,2.449699,-0.04042316,0.14613557,-0.18135206,0.041858826,-0.010246911,-0.047726754,-0.19153613,0.22984336,-9.002198,0.8537928,47.703007,-1.0802808,-1.8099272,-3.247927,0.04176535,-0.1020889,-0.09196454,26.0625,26.9375,26.0,29.0625,30.0625,30.5
0.16005494,-1.0962085,-0.6028945,0.046102986,0.008090549,0.01349438,-0.1412843,-0.38703865,-0.34959763,0.060135897,-3.0780523,0.6248212,0.0005356833,-0.07311945,-0.010415197,-0.0014379624,0.01615349,-0.009081285,0.0051487596,0.4746282,-1.4144304,1.9435767,-2.0982554,-1.5714334,2.4496155,-0.04158959,0.150849,-0.18051739,0.04512843,-0.010513041,-0.04661783,-0.22984336,0.2681506,-9.212888,0.83365434,47.683304,-1.128514,-1.8195252,-3.370766,0.018407632,-0.10673497,-0.103685744,26.0625,26.9375,26.0,29.0625,30.0625,30.5
0.16205435,-1.0233932,-1.2858196,-0.046103194,0.0025206103,0.020400532,-0.1468597,-0.3871729,-0.34960815,0.060126405,-3.0780182,0.6248324,0.0005029314,-0.07389054,-0.01054623,-0.00024827846,0.01549451,-0.00808784,0.0050242534,0.474532,-1.4141548,1.9432648,-2.0981834,-1.5714453,2.4495308,-0.042120416,0.1501051,-0.18284354,0.04701138,-0.010384748,-0.047023404,-0.28730422,0.30645782,-9.289502,0.83589023,47.679718,-1.1016266,-1.7083192,-3.3772984,-0.015458669,-0.09834306,-0.091184705,26.0625,26.9375,26.0,29.0625,30.0625,30.5
0.1640548,-1.2734842,-1.3530282,-0.25795963,-0.024773166,0.027008854,-0.14924902,-0.38734043,-0.34963405,0.060146708,-3.07799,0.6248277,0.000535219,-0.07447912,-0.0102397995,-0.0005589456,0.017454825,-0.009739003,0.0031453886,0.4744479,-1.4138534,1.9428443,-2.0980623,-1.5714811,2.4494476,-0.042536777,0.15257925,-0.1856323,0.04969272,-0.011374978,-0.045558006,-0.38307226,0.38307226,-9.3661175,0.7933669,47.683304,-1.0865903,-1.8076601,-3.4011002,-0.04143569,-0.10757542,-0.0882546,26.0625,26.9375,26.0,29.0625,30.0625,30.5
0.16605496,-1.6768117,-2.1229596,-0.14748903,-0.038330667,0.032935083,-0.14807102,-0.38745818,-0.34963635,0.060113065,-3.0778785,0.6247295,0.0004022773,-0.07486134,-0.009921601,-0.0013439422,0.018234314,-0.01295207,-0.0012268792,0.4743755,-1.413516,1.9424971,-2.0979059,-1.5715293,2.4493284,-0.04392228,0.15545204,-0.18775517,0.05215404,-0.010606341,-0.042570066,-0.40222588,0.36391866,-9.500193,0.83813137,47.688675,-1.0647423,-1.7161877,-3.3577704,-0.08189554,-0.11104354,-0.1118227,26.0625,26.9375,26.0,29.0625,30.0625,30.5
0.1680542,-1.7838947,-2.1462722,-0.17440689,-0.04592512,0.03403764,-0.15008916,-0.38762155,-0.34968853,0.060130548,-3.077907,0.6247544,0.00040506068,-0.075289324,-0.009738132,-0.0012383629,0.018808136,-0.013727542,-0.0017035087,0.47430328,-1.4132034,1.942078,-2.0978215,-1.5715054,2.4492683,-0.044510446,0.15633295,-0.18945964,0.05393032,-0.010762786,-0.042680994,-0.34476504,0.51714754,-9.519346,0.83589023,47.670765,-1.0317647,-1.7145818,-3.3664417,-0.13002571,-0.09920229,-0.10101949,26.0625,26.9375,26.0,29.0625,30.0625,30.5
0.17005448,-1.5040876,-1.9352455,-0.2623934,-0.043731976,0.039623518,-0.15113777,-0.3877781,-0.34967867,0.060129464,-3.07784,0.6247993,0.0003537789,-0.07624034,-0.0095981015,-0.0006516976,0.01940628,-0.013181101,-0.0033240318,0.47415903,-1.4129151,1.9417185,-2.0976894,-1.5715297,2.4491608,-0.04508471,0.15699293,-0.19197181,0.055570766,-0.01155124,-0.041631643,-0.36391866,0.4213795,-9.557653,0.81351066,47.682407,-1.0554663,-1.6937864,-3.345921,-0.16901696,-0.105817795,-0.10669507,26.0625,26.9375,26.0,29.0625,30.0625,30.5
0.17205463,-1.5055538,-1.9226577,-0.49060383,-0.025290737,0.03229018,-0.14319536,-0.38795188,-0.34969166,0.060122393,-3.0778096,0.62485045,0.00037171616,-0.07626198,-0.009596368,-0.0020507523,0.019701716,-0.016432023,-0.0036391462,0.47403878,-1.4125893,1.9413484,-2.0976417,-1.5715531,2.4490767,-0.0458613,0.16033234,-0.19278884,0.056068532,-0.010333557,-0.042094667,-0.34476507,0.38307226,-9.519346,0.8247004,47.689575,-1.018997,-1.7772582,-3.4959428,-0.2082841,-0.12716536,-0.10825424,26.0625,26.9375,26.0,29.0625,30.0625,30.5
0.17405458,-1.7782148,-1.7584313,-0.42975652,-0.0021017485,0.007932555,-0.14004457,-0.38809383,-0.34970823,0.06010139,-3.0777206,0.6248915,0.000276411,-0.07809909,-0.009654683,-0.0027368732,0.020573243,-0.017430242,-0.006968884,0.4739544,-1.4122394,1.9409631,-2.0975096,-1.5715774,2.4490294,-0.047193244,0.16516976,-0.19699946,0.056728948,-0.010666018,-0.04009265,-0.21068975,0.30645782,-9.576807,0.79560274,47.67793,-1.0274972,-1.8288462,-3.4880242,-0.24268463,-0.11064025,-0.12353033,26.0625,26.9375,26.0,29.0625,30.0625,30.5
0.17605485,-1.5612787,-0.9859296,-0.33135712,0.0006343381,0.003583339,-0.14760892,-0.38824096,-0.34974307,0.060101874,-3.0777168,0.62483424,0.00024473373,-0.078968436,-0.009255342,-0.003182377,0.02087546,-0.018528625,-0.010916732,0.4738819,-1.4119266,1.9405798,-2.0974138,-1.5715774,2.448922,-0.048809137,0.16718815,-0.19849181,0.057318818,-0.010437088,-0.037760057,-0.21068975,0.30645782,-9.5385,0.8627467,47.689575,-0.901587,-1.873399,-3.5747488,-0.27144155,-0.11867702,-0.17009446,26.0625,26.9375,26.0,29.0625,30.0625,30.5
0.17805503,-0.71032476,-0.3154564,-0.33282715,0.0070370743,0.006884784,-0.15514843,-0.3884343,-0.34977147,0.06011217,-3.077672,0.6249393,0.00031649426,-0.078432195,-0.010023197,-0.0048327344,0.021670893,-0.020903016,-0.009156417,0.47378647,-1.411577,1.9401368,-2.0973418,-1.5716246,2.448898,-0.047182668,0.1709087,-0.19887424,0.056452252,-0.0100661665,-0.03789406,-0.15322891,0.17238252,-9.423578,0.86945957,47.674347,-1.0226592,-1.995925,-3.557351,-0.2823055,-0.14659499,-0.18156865,26.0625,26.9375,26.0,29.0625,30.0625,30.5
0.18005446,-0.44483978,-0.13973995,-0.1951918,0.00974777,0.010415703,-0.15819794,-0.3885961,-0.34978664,0.06011012,-3.0776136,0.62496614,0.00030509706,-0.08043071,-0.009981814,-0.004553373,0.021540755,-0.01947526,-0.010599172,0.47368976,-1.4112518,1.939742,-2.097234,-1.5716614,2.4488258,-0.04869035,0.17316155,-0.20207429,0.056069165,-0.010613727,-0.03795564,-0.095768064,0.11492168,-9.442732,0.85155696,47.70211,-1.0477637,-2.042522,-3.6338997,-0.28466773,-0.1008165,-0.18532191,26.0625,26.9375,26.0,29.0625,30.0625,30.5
0.18205462,-0.6444717,-0.1836708,0.0042985505,0.009329393,0.008017779,-0.16149567,-0.3887642,-0.34982565,0.060101174,-3.077607,0.62488675,0.00025944263,-0.08254382,-0.010583774,-0.0034493867,0.019977126,-0.016360989,-0.01112328,0.47360566,-1.4108791,1.9393109,-2.0971391,-1.5716614,2.4486933,-0.049492966,0.1741776,-0.20560633,0.055099525,-0.010656369,-0.038231798,-0.038307227,0.1340753,-9.32781,0.8918391,47.677036,-0.9857147,-2.0433562,-3.6284916,-0.29794422,-0.13239183,-0.19485131,26.0625,26.9375,26.0,29.0625,30.0625,30.5
0.18405469,-0.9491771,-0.4827217,-0.0026391626,0.010947699,-0.0044367295,-0.14667577,-0.38891885,-0.3498318,0.06009899,-3.07757,0.62497646,0.00016173172,-0.08480966,-0.010417829,-0.0030518086,0.018604655,-0.014648362,-0.013587978,0.47346088,-1.4105779,1.9389385,-2.097008,-1.5716375,2.4486094,-0.05207639,0.17588833,-0.20826311,0.053893305,-0.01023014,-0.038349167,0.0,0.1340753,-9.308657,0.800085,47.674347,-0.91314423,-2.1308398,-3.4795918,-0.29824787,-0.12947765,-0.22393134,26.0625,26.9375,26.0,29.0625,30.0625,30.5
0.18605447,-0.6843492,-0.32588157,0.04938738,0.001808367,0.006242292,-0.1555448,-0.38906953,-0.3498756,0.06008339,-3.0775409,0.6249318,8.6180844e-05,-0.0864151,-0.011759705,-0.0026931302,0.017724123,-0.012452834,-0.0122700455,0.4734011,-1.4102046,1.9385189,-2.0969007,-1.5716375,2.4485257,-0.05100134,0.17880382,-0.21220772,0.052566938,-0.010462858,-0.038588494,-0.05746084,0.21068975,-9.346964,0.7777002,47.67614,-0.91859615,-2.11588,-3.4081984,-0.30508474,-0.11816572,-0.23962016,26.0625,26.9375,26.0,29.0625,30.0625,30.5
0.18805476,-0.31942883,-0.51831317,0.2584575,0.0013080213,0.025131073,-0.15860896,-0.38926008,-0.34987944,0.06009213,-3.0774524,0.62497073,0.00011058475,-0.08738031,-0.012434748,-0.0024748484,0.016840564,-0.011023879,-0.011583276,0.4732813,-1.4098562,1.938064,-2.0967572,-1.5717095,2.4484417,-0.050734658,0.18016113,-0.21406226,0.051384673,-0.010338575,-0.03900731,-0.17238253,0.2873042,-9.308657,0.8627467,47.67614,-1.0378537,-1.9345465,-3.3964832,-0.30291128,-0.13212341,-0.2540952,26.0625,26.9375,26.0,29.0625,30.0625,30.5
0.1900541,-0.79794747,-0.93488085,-0.11838683,-0.01065166,0.028906945,-0.15737125,-0.38941136,-0.34991172,0.060071226,-3.0773993,0.62496,3.2118915e-05,-0.089804105,-0.0122400215,-0.0022060233,0.01601831,-0.008690201,-0.013925912,0.47320846,-1.4094833,1.9376568,-2.09665,-1.5717214,2.4483693,-0.053022247,0.18221419,-0.21668234,0.049499888,-0.010684375,-0.03894897,-0.2681506,0.34476504,-9.3661175,0.89631605,47.684196,-0.89788723,-1.9760273,-3.4249883,-0.28165907,-0.13131566,-0.26512015,26.0625,26.9375,26.0,29.0625,30.0625,30.5
0.19205439,-1.6500642,-1.7503763,0.017927201,-0.026447123,0.031023378,-0.15052915,-0.3896032,-0.34990665,0.060073532,-3.0773048,0.6251127,5.9112903e-05,-0.090845026,-0.012486348,-0.0011598071,0.014946418,-0.0069785393,-0.013813111,0.47306433,-1.409147,1.9372386,-2.0965426,-1.5717815,2.4483328,-0.053597614,0.18180077,-0.21875577,0.049969476,-0.010517239,-0.039636556,-0.30645782,0.36391866,-9.404425,0.92764956,47.71017,-0.89554465,-1.9092978,-3.4165485,-0.29639867,-0.12207212,-0.27093512,26.0625,26.9375,26.0,29.0625,30.0625,30.5
0.19405457,-1.9198105,-1.8316885,0.0016282997,-0.06761508,0.045662962,-0.1548905,-0.38979328,-0.34995008,0.060060885,-3.0772908,0.6250713,1.213341e-05,-0.0926912,-0.013094541,-0.00082024216,0.013514443,-0.00473919,-0.01392754,0.47296816,-1.4087261,1.9367594,-2.0964472,-1.571781,2.4482129,-0.054318674,0.18378323,-0.22145686,0.04803977,-0.010276178,-0.04024163,-0.49799395,0.53630114,-9.404425,0.8157518,47.70211,-0.92172515,-1.7841725,-3.396902,-0.29809323,-0.15663216,-0.29370135,26.0625,26.9375,26.0,29.0625,30.0625,30.5
0.19605488,-2.5688634,-2.1914523,0.073927276,-0.07016955,0.05168375,-0.1566232,-0.38997552,-0.34996668,0.060064677,-3.0772505,0.6251391,2.0632644e-05,-0.09436101,-0.013469177,-0.00040495748,0.012337073,-0.0014601494,-0.013406197,0.472848,-1.4083896,1.9363402,-2.0963528,-1.5718054,2.4481404,-0.054839164,0.18469325,-0.22283626,0.045052018,-0.010733961,-0.041281097,-0.53630114,0.5363012,-9.442732,0.842603,47.683304,-0.89409065,-1.9066403,-3.382085,-0.2503058,-0.13342953,-0.30121166,26.0625,26.9375,26.0,29.0625,30.0625,30.5
0.19805491,-2.5683184,-2.2807992,-0.1250966,-0.058234047,0.05984879,-0.14683306,-0.39017442,-0.35000122,0.06008326,-3.0772357,0.6251744,9.471453e-05,-0.0956078,-0.013842591,-0.000487441,0.011937143,-0.00039214524,-0.013573851,0.47275198,-1.4080402,1.9358748,-2.096269,-1.5718416,2.4480686,-0.05518663,0.186811,-0.22488342,0.04384629,-0.010870948,-0.041459575,-0.36391866,0.49799395,-9.5385,0.84708,47.66091,-0.9264746,-1.9257141,-3.4950967,-0.23340711,-0.15519662,-0.31796706,26.0625,26.9375,26.0,29.0625,30.0625,30.5
0.20005405,-2.022828,-1.8560942,0.039777044,-0.042203583,0.06256756,-0.15977435,-0.39034265,-0.35001707,0.060040552,-3.0771475,0.6252526,-7.912427e-05,-0.09739258,-0.014407162,0.00016829115,0.010021316,0.0013991876,-0.014509597,0.47261944,-1.4076073,1.9354419,-2.0961382,-1.5718287,2.4479964,-0.05632807,0.18820965,-0.22787753,0.04297038,-0.009995528,-0.041664444,-0.4213795,0.38307226,-9.442732,0.85826975,47.698532,-0.86324906,-1.7321103,-3.3625116,-0.19228661,-0.15497893,-0.33989626,26.0625,26.9375,26.0,29.0625,30.0625,30.5
0.20205414,-1.638915,-1.1205734,0.06935268,-0.020151291,0.050755158,-0.15198484,-0.39058062,-0.35006636,0.060055695,-3.0771801,0.6252983,3.044438e-05,-0.09866436,-0.014348743,0.0001961838,0.0096060075,0.0022815547,-0.015680866,0.47249895,-1.4071984,1.9349288,-2.0961144,-1.5718411,2.4479005,-0.057509314,0.18965285,-0.22950344,0.042176884,-0.010029757,-0.04167419,-0.5746084,0.36391866,-9.251195,0.83365434,47.66091,-0.801319,-1.7277911,-3.4470968,-0.19856182,-0.16941431,-0.36444932,26.0625,26.9375,26.0,29.0625,30.0625,30.5
0.20405464,-1.4468083,-0.619193,-0.17492197,0.0032786909,0.03557148,-0.15178373,-0.39077127,-0.35011664,0.06006604,-3.0772064,0.6252831,7.2557785e-05,-0.1003308,-0.015024548,0.00045050305,0.008432965,0.0047412245,-0.015521168,0.47241497,-1.4068373,1.9344739,-2.0960557,-1.5718411,2.447804,-0.057737634,0.19156383,-0.23183806,0.03987554,-0.010113942,-0.042060748,-0.40222588,0.36391866,-9.385271,0.8940802,47.689575,-0.7874422,-1.7972792,-3.4985814,-0.14671254,-0.15240523,-0.39387578,26.0625,26.9375,26.0,29.0625,30.0625,30.5
0.20605424,-1.1066841,-0.6141968,-0.079374544,0.012149034,0.02791886,-0.15255731,-0.39097586,-0.3501247,0.0600571,-3.0771334,0.62536436,0.000111424604,-0.101872794,-0.015213822,-8.553672e-05,0.008190737,0.004980882,-0.016287342,0.47228262,-1.4064516,1.9340314,-2.0959837,-1.5719007,2.447732,-0.05881469,0.19489908,-0.23426683,0.038640935,-0.010016281,-0.04237002,-0.34476504,0.22984336,-9.404425,0.9186956,47.689575,-0.78848994,-1.9170533,-3.5726385,-0.091785304,-0.17754862,-0.39987317,26.0625,26.9375,26.0,29.0625,30.0625,30.5
0.2080546,-1.0612956,-0.115848705,0.021397293,-0.0017442186,0.018688159,-0.15311295,-0.39118165,-0.35016418,0.06006497,-3.077119,0.62538075,0.00011907914,-0.10264216,-0.014456831,-0.00110114,0.0105034,0.00248135,-0.017081553,0.47217417,-1.4060539,1.9335283,-2.0958755,-1.5719131,2.447636,-0.06020288,0.19840446,-0.23654734,0.04069505,-0.0109398635,-0.042960647,-0.38307226,0.21068975,-9.232041,0.8112748,47.691364,-0.7609718,-1.9765799,-3.5326753,-0.057675622,-0.19417417,-0.4230392,26.0625,26.9375,26.0,29.0625,30.0625,30.5
0.21005557,-0.9607614,-0.33918166,0.044297475,0.0021422103,0.01876056,-0.1626719,-0.39140403,-0.3501899,0.060053114,-3.0770934,0.62543166,0.00017821624,-0.10322646,-0.014342952,-0.0014352432,0.011552862,0.0004293684,-0.016358139,0.472042,-1.405633,1.933062,-2.0958502,-1.5719494,2.447539,-0.06087972,0.20096388,-0.2394233,0.04331165,-0.010942444,-0.04435997,-0.36391866,0.095768064,-9.346964,0.8247004,47.686886,-0.70564175,-1.8710389,-3.5033588,-0.04285048,-0.1767034,-0.43509302,26.0625,26.875,26.0,29.0625,30.0625,30.5
0.21205488,-1.3547074,-0.46125245,-0.038520236,0.015425162,0.014521111,-0.15302634,-0.39161566,-0.35024312,0.06006842,-3.077109,0.62549186,0.00013944083,-0.10400094,-0.014183116,-0.0020237644,0.01283495,-0.00068743783,-0.015532729,0.47192177,-1.4052237,1.9325227,-2.0957181,-1.5719136,2.4474547,-0.061403077,0.20379278,-0.24165952,0.04429753,-0.0115812,-0.04570605,-0.28730422,0.095768064,-9.385271,0.85826975,47.679718,-0.7206776,-2.02139,-3.4414203,-0.05582402,-0.16789998,-0.44625944,26.0625,26.875,26.0,29.0625,30.0625,30.5
0.21405406,-1.0403441,-0.17262731,-0.04443775,0.014040015,0.017351339,-0.15728009,-0.3918103,-0.35023913,0.06002173,-3.0770109,0.6255084,0.00010556942,-0.10459679,-0.014403535,-0.002086543,0.013541571,-0.0014850711,-0.014135222,0.47177795,-1.4047904,1.9321159,-2.09567,-1.5719737,2.447334,-0.0613327,0.20583808,-0.24435122,0.0459705,-0.01185576,-0.04703053,-0.24899697,0.05746084,-9.404425,0.7777002,47.68062,-0.678604,-2.048412,-3.4314113,-0.026322104,-0.18657288,-0.45642337,26.0625,26.875,26.0,29.0625,30.0625,30.5
0.2160546,-0.7996128,-0.24971539,-0.009178251,0.014228026,0.022184914,-0.15726703,-0.39204025,-0.35028183,0.060053237,-3.0769858,0.6255987,0.00018025275,-0.10627603,-0.013810185,-0.0019051754,0.012851987,-0.0022309583,-0.01310171,0.4716687,-1.4043939,1.9315542,-2.095538,-1.5720094,2.4472847,-0.06443595,0.20755419,-0.24715558,0.047397867,-0.010908503,-0.051168814,-0.22984336,0.095768064,-9.385271,0.83365434,47.690468,-0.55997956,-1.9058359,-3.4914231,-0.02608478,-0.19883724,-0.42245492,26.0625,26.875,26.0,29.0625,30.0625,30.5
0.21805492,-0.87842906,-0.22602582,0.011142519,0.013607899,0.015105646,-0.15266952,-0.39223465,-0.3503066,0.060022075,-3.0769453,0.6255679,8.877207e-05,-0.1058072,-0.014337024,-0.0022413796,0.014324809,-0.003311128,-0.009347111,0.47153753,-1.4039489,1.9310874,-2.095442,-1.5720099,2.4471397,-0.062520884,0.20906888,-0.24858248,0.048940584,-0.011736172,-0.05300502,-0.2681506,0.11492168,-9.289503,0.78888994,47.66987,-0.648893,-1.9663353,-3.4790926,-0.014850257,-0.1659909,-0.41573334,26.0625,26.875,26.0,29.0625,30.0625,30.5
0.22005416,-0.61541593,-0.16258112,-0.058267407,0.0071412465,0.025244432,-0.15535493,-0.39242283,-0.35032594,0.06000247,-3.076882,0.62559247,3.3751185e-05,-0.10707088,-0.01504732,-0.001954465,0.014374258,-0.0032719716,-0.0076584728,0.4714175,-1.4035393,1.930632,-2.0953333,-1.5720338,2.4470434,-0.062323883,0.21188073,-0.25292468,0.05045413,-0.011810032,-0.054493714,-0.19153613,0.22984336,-9.251195,0.7866488,47.688675,-0.76329684,-2.0364952,-3.5083404,-0.009343556,-0.19866952,-0.4330546,26.0625,26.875,26.0,29.0625,30.0625,30.5
0.2220543,-0.61741906,-0.41107315,0.1153755,0.005620499,0.02044958,-0.15878531,-0.3926927,-0.3503376,0.060017522,-3.0768425,0.62563956,0.00018483245,-0.10838331,-0.014790323,-0.0015373742,0.014809873,-0.0029156765,-0.005148752,0.47124913,-1.4031067,1.9300817,-2.0952728,-1.5721177,2.44691,-0.063535154,0.21319892,-0.25581944,0.051901147,-0.0123651475,-0.058212884,-0.15322891,0.15322891,-9.289502,0.8672237,47.67166,-0.73732084,-2.0646987,-3.422073,-0.010114819,-0.19272667,-0.39316994,26.0625,26.875,26.0,29.0625,30.0625,30.5
0.22405471,-0.49580026,-0.70110947,-0.15631127,-0.0030287316,0.021319667,-0.15563837,-0.39290196,-0.3503674,0.060022037,-3.076802,0.6256662,0.00017579658,-0.10923686,-0.014868453,-0.00074571726,0.014697306,-0.002108805,0.0004145613,0.471129,-1.4026979,1.9295667,-2.0951407,-1.572142,2.446812,-0.06393974,0.2133397,-0.2582003,0.053360447,-0.0126417605,-0.06417908,-0.17238252,0.19153613,-9.251195,0.8023209,47.694054,-0.43953323,-2.0321662,-3.4364843,-0.0045423647,-0.1944575,-0.32205206,26.0625,26.875,26.0,29.0625,30.0625,30.5
0.22605419,-0.81053126,-0.8926944,-0.13957918,-0.021451825,0.020124022,-0.1512439,-0.3931079,-0.35040346,0.06000366,-3.0767682,0.62557966,0.00013390041,-0.107504554,-0.016198747,-0.0008826134,0.015855545,-0.004608359,0.00419979,0.47102246,-1.4022413,1.9290537,-2.095032,-1.5721658,2.446656,-0.060087774,0.2141599,-0.25971267,0.05680256,-0.012539107,-0.06411185,-0.15322891,0.34476504,-9.270349,0.92764956,47.691364,-0.858559,-2.0605612,-3.5021682,-0.0047178688,-0.19035372,-0.29360875,26.0625,26.875,26.0,29.0625,30.0625,30.5
0.2280545,-0.78862464,-1.3246368,-0.05022027,-0.029810792,0.027424477,-0.15758736,-0.3933154,-0.3504295,0.059991837,-3.0767214,0.6256073,8.294248e-05,-0.10777682,-0.015518196,-0.000975968,0.017588845,-0.0069918158,0.0055881008,0.47088993,-1.4018085,1.9285501,-2.0949109,-1.5721782,2.446547,-0.061175648,0.21547967,-0.26199684,0.060672972,-0.013006034,-0.06658571,-0.13407528,0.3256114,-9.289502,0.8940802,47.689575,-0.8044167,-1.9951439,-3.4679394,-0.06812709,-0.18905437,-0.29356033,26.0625,26.875,26.0,29.0625,30.0625,30.5
0.23005486,-0.4124876,-1.2862449,-0.13793267,-0.018383158,0.024091031,-0.15777372,-0.39353177,-0.35046762,0.059992287,-3.076682,0.6255588,1.4407993e-05,-0.10836069,-0.015830664,-0.002027261,0.017832184,-0.009234351,0.008103193,0.4707699,-1.4013507,1.927976,-2.0947306,-1.5721897,2.446402,-0.061607577,0.21931458,-0.26427275,0.061213322,-0.012219006,-0.06953267,-0.038307227,0.3256114,-9.3661175,0.8851263,47.677036,-0.7620319,-1.9534324,-3.4985409,-0.037218012,-0.20075634,-0.21404853,26.0625,26.875,26.0,29.0625,30.0625,30.5
0.23205486,-0.64233845,-1.2103,-0.28200427,-0.012288698,-0.0022383858,-0.13784517,-0.3937513,-0.35048965,0.059976634,-3.076643,0.625511,6.860157e-05,-0.10865431,-0.01609015,-0.0014575113,0.018810749,-0.010074318,0.00941951,0.4706501,-1.4009179,1.9274973,-2.094682,-1.5722498,2.4462578,-0.06105732,0.22024444,-0.26754165,0.064739816,-0.012712299,-0.07029647,0.019153614,0.28730422,-9.442732,0.8493211,47.68062,-0.89114034,-1.9623435,-3.536615,-0.070689976,-0.19494656,-0.18875441,26.0625,26.875,26.0,29.0625,30.0625,30.5
0.2340541,-0.15962574,-0.892168,-0.22967115,-0.008320305,-0.0043572327,-0.14357251,-0.39399162,-0.35054392,0.06000776,-3.0766594,0.6254949,9.148741e-05,-0.10735967,-0.015166537,-0.0023028997,0.021382514,-0.01607856,0.008711008,0.47052988,-1.400485,1.9268869,-2.0945241,-1.5722498,2.4461257,-0.061743155,0.22145306,-0.2685347,0.07103896,-0.012270783,-0.0702757,-0.038307227,0.40222588,-9.346964,0.79560274,47.691364,-0.86287284,-1.8651407,-3.4842591,-0.14040983,-0.21653494,-0.15962684,26.0625,26.875,26.0,29.0625,30.0625,30.5
0.2360546,0.27125123,-0.61049837,-0.36200455,-0.002523026,-0.014886124,-0.15663795,-0.39420658,-0.3505584,0.059977453,-3.0765905,0.6254605,3.3371976e-05,-0.10824346,-0.015507839,-0.0035257717,0.02285021,-0.01719425,0.008572415,0.47038603,-1.4000151,1.9263848,-2.0944169,-1.572286,2.4459696,-0.061369933,0.2260846,-0.27115303,0.070685126,-0.013088047,-0.06975897,0.019153614,0.3256114,-9.3661175,0.85155696,47.69763,-0.90807617,-1.9766493,-3.5983415,-0.15310192,-0.21820062,-0.141596,26.0625,26.875,26.0,29.0625,30.0625,30.5
0.23805495,0.31127778,-1.1392213,-0.36831298,0.00037586957,-0.019249907,-0.15319356,-0.39443022,-0.35056555,0.05996758,-3.0765007,0.6254438,-2.7053358e-05,-0.10910817,-0.015132912,-0.0030038077,0.023412222,-0.01759307,0.0062080366,0.4702296,-1.3995582,1.9258345,-2.0942366,-1.5723346,2.4458146,-0.06253285,0.22672608,-0.27377003,0.07326875,-0.013416528,-0.068554744,0.19153613,0.3256114,-9.32781,0.9321212,47.687782,-0.8595381,-2.0243256,-3.6383247,-0.19356918,-0.19617614,-0.13009384,26.0625,26.875,26.0,29.0625,30.0625,30.5
0.24005425,-0.088132486,-1.6338104,-0.04613584,-0.007855896,-0.028849604,-0.14117402,-0.39461353,-0.35060942,0.059947815,-3.0764568,0.62533855,-9.582773e-05,-0.110326335,-0.015579285,-0.0023044588,0.022726906,-0.01686327,0.003771712,0.4701575,-1.3991137,1.925332,-2.0941045,-1.5723585,2.4456828,-0.0629778,0.22792767,-0.27713025,0.074466184,-0.013144864,-0.06656184,0.21068975,0.30645782,-9.289502,0.9321212,47.690468,-0.85269713,-1.9912658,-3.5701082,-0.2453205,-0.21421024,-0.11031448,26.0625,26.875,26.0,29.0625,30.0625,30.5
0.24205431,0.18672429,-0.83824474,-0.11457697,-0.030768482,-0.020655537,-0.15612613,-0.3948574,-0.35063654,0.059948735,-3.076391,0.62530774,-8.6813685e-05,-0.1115199,-0.015785389,-0.0023013793,0.022947047,-0.017495042,0.0001951663,0.4700253,-1.3986322,1.9247335,-2.0939481,-1.5724186,2.4455402,-0.06368333,0.23059225,-0.28069833,0.076031804,-0.013060892,-0.06368898,0.2873042,0.34476504,-9.289502,0.92093146,47.689575,-0.89115834,-2.0482178,-3.4738216,-0.26478738,-0.22079927,-0.13867284,26.0625,26.875,26.0,29.0625,30.0625,30.5
0.24405462,0.065870464,-1.2233931,-0.22554511,-0.021052679,-0.02110936,-0.14713722,-0.39508608,-0.35067564,0.05994329,-3.076356,0.6253398,-0.00017709567,-0.11296029,-0.016824104,-0.0015727975,0.021515725,-0.016240846,-0.0031983294,0.46988133,-1.3981506,1.9241465,-2.0937808,-1.5724057,2.445421,-0.06354501,0.23247641,-0.2847531,0.07643878,-0.01236276,-0.060156614,0.15322891,0.47884035,-9.346964,0.87393653,47.689575,-0.89410555,-2.1067958,-3.5027213,-0.28191778,-0.22026,-0.17294882,26.0625,26.875,26.0,29.0625,30.0625,30.5
0.24605413,-0.66232693,-1.7290633,-0.25577202,-0.017645687,-0.020084457,-0.14391091,-0.39529532,-0.35069105,0.059921864,-3.076248,0.6254341,-0.0002893509,-0.11407559,-0.017324645,-0.0016205624,0.021700867,-0.0151906535,-0.0051229987,0.46973744,-1.3976818,1.9236082,-2.093601,-1.5724305,2.4453502,-0.06320027,0.23476896,-0.28727803,0.07582178,-0.013016569,-0.05788245,0.13407528,0.4213795,-9.289502,0.8851263,47.677036,-0.94368863,-2.140823,-3.481216,-0.31096697,-0.23119883,-0.19323727,26.0625,26.875,26.0,29.0625,30.0625,30.5
0.24805443,-0.9451966,-1.8397346,-0.47915187,-0.0145944925,-0.019078428,-0.13913792,-0.39548194,-0.3507424,0.059893195,-3.0761988,0.6253478,-0.00045260842,-0.11678076,-0.017654475,-0.0012041753,0.0196207,-0.013378718,-0.0090973815,0.46965265,-1.3971884,1.9230574,-2.0934217,-1.5724181,2.445218,-0.06563634,0.23758067,-0.29131687,0.074490406,-0.011999909,-0.05634365,0.095768064,0.38307226,-9.251195,0.8493211,47.70032,-0.8557557,-2.1006432,-3.4214785,-0.31862515,-0.24732769,-0.21473132,26.0625,26.875,26.0,29.0625,30.0625,30.5
0.25005436,-0.87749493,-2.036024,-0.51829034,-0.016094767,-0.003964008,-0.13979219,-0.39571083,-0.350772,0.059877913,-3.0761259,0.6253136,-0.00042968756,-0.11781391,-0.019826522,-0.0006275511,0.018072134,-0.009800719,-0.009432791,0.46954575,-1.3967073,1.9225067,-2.093315,-1.5724896,2.4450996,-0.062568806,0.23959461,-0.29446694,0.07173702,-0.01224939,-0.052937575,-0.076614454,0.40222588,-9.461885,0.83813137,47.699425,-1.0357612,-2.1104915,-3.2814615,-0.30869043,-0.24573041,-0.25384927,26.0625,26.875,26.0,29.0625,30.0625,30.5
0.25205457,-1.4926705,-2.0044007,-0.39883646,-0.04046791,0.015718529,-0.15314147,-0.3959777,-0.35081163,0.05991483,-3.076129,0.62544817,-0.00037370063,-0.11830739,-0.019728422,-0.0009868089,0.017390678,-0.0087049715,-0.009299266,0.46937743,-1.3962748,1.9218854,-2.0931728,-1.5724896,2.4450152,-0.06317862,0.2399656,-0.29360563,0.06921556,-0.0121429935,-0.053682014,-0.19153613,0.47884035,-9.461885,0.9768804,47.690468,-1.0349114,-2.0682287,-3.50778,-0.30308563,-0.2627167,-0.26653826,26.0625,26.875,26.0,29.0625,30.0625,30.5
0.25405526,-1.2511266,-2.1699061,-0.63222986,-0.044459958,0.042700633,-0.14800893,-0.39618027,-0.35086885,0.05990123,-3.0760865,0.62534195,-0.00046920715,-0.119662575,-0.019121012,-0.002293141,0.017401805,-0.009354703,-0.00959902,0.46930468,-1.3957812,1.9212993,-2.092994,-1.572502,2.444882,-0.06556771,0.24324232,-0.29405555,0.06696699,-0.011874954,-0.05577042,-0.21068975,0.49799395,-9.423578,0.86945957,47.67614,-1.0230458,-2.0939212,-3.8155732,-0.2705316,-0.26425734,-0.27137393,26.0625,26.875,26.0,29.0625,30.0625,30.5
0.25605473,-2.0959861,-2.334262,-0.43508634,-0.051834866,0.046512656,-0.14373906,-0.39644286,-0.35089636,0.059909508,-3.0760276,0.6254427,-0.00042622568,-0.12088942,-0.02087649,-0.0003111554,0.014910005,-0.0034062685,-0.0058338717,0.46914947,-1.3953011,1.92069,-2.0928628,-1.5725497,2.4447975,-0.06323352,0.24177158,-0.29636455,0.0643091,-0.012358335,-0.057198856,-0.30645782,0.49799395,-9.653421,0.9567419,47.696735,-1.0136966,-2.058568,-3.8005004,-0.23312312,-0.28138366,-0.25714433,26.0625,26.875,26.0,29.0625,30.0625,30.5
0.2580542,-2.1420817,-2.312258,-0.58434916,-0.038292516,0.058350462,-0.14965945,-0.39666376,-0.35095397,0.05988289,-3.076011,0.62538356,-0.00048544546,-0.12380318,-0.022240384,0.0020563547,0.011665714,0.002963597,-0.008715909,0.46905345,-1.3947849,1.9201258,-2.092768,-1.5725497,2.444667,-0.063397475,0.24154735,-0.3011349,0.062159292,-0.012357799,-0.05447811,-0.4213795,0.40222588,-9.672575,0.9679317,47.670765,-1.1900513,-1.7712561,-3.789441,-0.20133841,-0.27149272,-0.2897481,26.0625,26.875,26.0,29.0625,30.0625,30.5
0.2600546,-1.8413901,-1.8766063,-0.7531424,-0.0075545427,0.06277224,-0.14908479,-0.39691928,-0.3509839,0.059880212,-3.0759661,0.6253722,-0.00045824968,-0.12504281,-0.022144226,0.001227096,0.011656421,0.003545202,-0.008480378,0.46890923,-1.3942918,1.9195284,-2.0926487,-1.5725979,2.444522,-0.06443409,0.24425896,-0.30198488,0.059768867,-0.01262342,-0.055748317,-0.40222588,0.30645782,-9.653421,0.92093146,47.66987,-1.1440984,-1.7540431,-3.7665033,-0.16486073,-0.29444638,-0.3046077,26.0625,26.875,26.0,29.0625,30.0625,30.5
0.2620548,-1.4354805,-0.8831471,-0.9599085,-0.0056770653,0.06335975,-0.15971234,-0.3971721,-0.35104626,0.059886716,-3.0759516,0.62542707,-0.0004377295,-0.12684645,-0.02298055,0.0015189198,0.010138806,0.004989797,-0.008286003,0.468801,-1.3937865,1.9188956,-2.0925295,-1.5726098,2.4444501,-0.064959675,0.24687052,-0.30560157,0.058793735,-0.011933539,-0.05646886,-0.4213795,0.34476507,-9.691729,0.9634547,47.66539,-1.1721535,-1.731204,-3.8082678,-0.12355605,-0.31868282,-0.31607097,26.0625,26.875,26.0,29.0625,30.0625,30.5
0.26405436,-2.1316864,-1.286163,-0.88967025,0.0061264625,0.04249194,-0.14648253,-0.39745474,-0.3510919,0.059889127,-3.0759404,0.6254622,-0.00038920954,-0.12783153,-0.023435388,0.0016574718,0.010120005,0.0053230743,-0.008546042,0.46864492,-1.3932568,1.9182485,-2.0924342,-1.5726336,2.4443178,-0.06488667,0.24886046,-0.30850536,0.059399858,-0.012070426,-0.0561344,-0.4405331,0.34476504,-9.730036,0.87393653,47.66091,-1.223848,-1.862496,-3.7898288,-0.10692775,-0.31950647,-0.3324021,26.0625,26.875,26.0,29.0625,30.0625,30.5
0.2660548,-1.9191318,-0.9494342,-0.9374011,-0.013271913,0.050577547,-0.14248163,-0.39770067,-0.3511255,0.059889745,-3.0758977,0.6254918,-0.00040199157,-0.12945773,-0.023504721,0.001264303,0.0117542865,0.0036925613,-0.009437558,0.46850094,-1.3927748,1.9176501,-2.0922892,-1.572658,2.4441981,-0.06568432,0.25357506,-0.31388557,0.06225816,-0.012798849,-0.056035284,-0.49799395,0.22984336,-9.710882,0.9298854,47.690468,-1.1955248,-1.9736137,-3.6542006,-0.10033264,-0.32328358,-0.34624887,26.0625,26.875,26.0,29.0625,30.0625,30.5
0.26805425,-1.2076724,-0.43541548,-1.0006067,-0.012758924,0.056337144,-0.1610872,-0.39794275,-0.35118878,0.059878264,-3.0758991,0.6254343,-0.00039413347,-0.13153131,-0.02373372,0.0013742688,0.011305839,0.005425765,-0.009730576,0.46840432,-1.3922576,1.9170517,-2.0922058,-1.5726703,2.4440658,-0.06681732,0.25629056,-0.31717372,0.06107979,-0.013193054,-0.05687219,-0.49799395,0.17238252,-9.80665,0.900793,47.684196,-1.23366,-2.1309707,-3.4883137,-0.07040155,-0.3508594,-0.36724776,26.0625,26.875,26.0,29.0625,30.0625,30.5
0.2700545,-1.7379515,-1.3135587,-1.1100668,0.0051961397,0.04656953,-0.13851817,-0.39822176,-0.35123914,0.05988745,-3.0758767,0.62548554,-0.00036067335,-0.1327777,-0.023627892,0.0017098607,0.011877456,0.00627799,-0.0084984675,0.4682601,-1.3917284,1.9163808,-2.0920737,-1.5726942,2.4439569,-0.067463614,0.25766543,-0.31985512,0.061880235,-0.014094868,-0.058746707,-0.51714754,0.21068975,-9.825804,0.87617236,47.66808,-1.2300813,-2.0778844,-3.5234842,-0.03808539,-0.33090413,-0.36295807,26.0625,26.875,26.0,29.0625,30.0625,30.5
0.27205482,-1.4963427,-0.6710564,-0.8028257,-0.015858386,0.05802644,-0.15354794,-0.39848655,-0.35128707,0.05990332,-3.0758588,0.62544256,-0.00029250362,-0.1307723,-0.022125633,-0.0011598135,0.01603969,-0.0016737285,-0.007395235,0.46814,-1.3912354,1.9157366,-2.0919406,-1.5727428,2.4438126,-0.068166085,0.2608767,-0.3180957,0.065876156,-0.01421049,-0.06055332,-0.36391866,0.19153613,-9.730036,0.97464454,47.689575,-1.1732535,-2.1616163,-3.5977998,-0.036246516,-0.32428503,-0.36061794,26.0625,26.875,26.0,29.0625,30.0625,30.5
0.27405426,-1.5089704,-0.63794035,-0.8785999,-0.014641729,0.034241404,-0.14970039,-0.39875665,-0.35133243,0.059905857,-3.0758142,0.62552756,-0.00028751604,-0.13232645,-0.021970082,-0.0007227278,0.015834814,-9.8764816e-05,-0.005914099,0.4679955,-1.3907063,1.915078,-2.091797,-1.5727671,2.4437273,-0.069396734,0.26192304,-0.32038832,0.0656173,-0.014750996,-0.06326221,-0.4213795,0.15322891,-9.844957,0.9164598,47.698532,-1.1581599,-2.0994353,-3.731761,-0.029460164,-0.34938365,-0.34688514,26.0625,26.875,26.0,29.0625,30.0625,30.5
0.2760549,-1.7518568,-1.3451886,-0.45728818,-0.015538558,0.0324391,-0.14378868,-0.3990661,-0.3513503,0.059904326,-3.0757525,0.6256283,-0.00022083457,-0.1346611,-0.022334483,0.0006127918,0.01476645,0.0027907384,-0.0044462946,0.4677912,-1.3901535,1.9144086,-2.0916889,-1.5728267,2.4435942,-0.07050638,0.26299408,-0.32490963,0.06599597,-0.015115139,-0.065836824,-0.3256114,0.11492168,-9.672575,0.9455522,47.66987,-1.1507571,-2.057368,-3.792327,0.01732129,-0.356408,-0.33496717,26.0625,26.875,26.0,29.0625,30.0625,30.5
0.2780544,-1.4258211,-0.86106175,-0.69294864,0.00711013,0.018147523,-0.1480834,-0.39930442,-0.35141605,0.059903078,-3.075785,0.62549746,-0.000211796,-0.13470428,-0.02205186,-6.474648e-05,0.016441645,0.0006350007,-0.0010792215,0.46769527,-1.3896602,1.9138106,-2.0915926,-1.5728272,2.4434128,-0.070646614,0.26512104,-0.32645386,0.06808575,-0.01564355,-0.06934204,-0.24899697,0.095768064,-9.481039,0.8940802,47.684196,-1.2020056,-1.9963791,-3.7276144,0.013556707,-0.34072602,-0.28320166,26.0625,26.875,26.0,29.0625,30.0625,30.5
0.28005454,-0.07995674,0.30988544,-0.49495614,0.015620165,0.02858435,-0.15136345,-0.39961368,-0.35146493,0.059941124,-3.0757983,0.62550026,-6.6248234e-05,-0.13705526,-0.02120913,0.0017997837,0.0155795105,0.0024191728,-0.001554731,0.46753794,-1.3891556,1.9131044,-2.0914724,-1.5728754,2.443256,-0.0740684,0.2643479,-0.3305729,0.07098472,-0.01568101,-0.07228848,-0.2681506,0.0,-9.500193,0.91198283,47.6636,-1.012793,-1.957943,-3.6913223,0.022159092,-0.355785,-0.2569275,26.0625,26.875,26.0,29.0625,30.0625,30.5
0.2820549,-0.9889293,0.029673506,-0.47932094,0.049077027,-0.009331763,-0.14494458,-0.39988837,-0.35152897,0.059948716,-3.0758018,0.6255158,-5.810048e-05,-0.13791816,-0.02278091,0.003588357,0.014563004,0.003696868,0.0038290743,0.46740672,-1.3886153,1.9124221,-2.0913389,-1.5728749,2.4431343,-0.07224084,0.26487988,-0.33619335,0.074463695,-0.015359794,-0.075844176,-0.21068975,-0.11492168,-9.385271,0.9321212,47.67614,-1.1232789,-1.9015989,-3.5439873,0.0047583203,-0.3749441,-0.22243163,26.0625,26.875,26.0,29.0625,30.0625,30.5
0.28405422,0.0254975,0.8321176,-0.23024823,0.053057436,0.0032467253,-0.15555926,-0.4001643,-0.35154733,0.059946563,-3.0757532,0.62548697,-4.585603e-05,-0.138367,-0.022082351,0.0042398036,0.01572405,0.0021423914,0.0044253063,0.46722615,-1.3880987,1.9117874,-2.091194,-1.5729231,2.4429424,-0.073550954,0.2649515,-0.33891612,0.07901642,-0.015697693,-0.0777487,-0.21068975,0.019153614,-9.270349,0.8605109,47.690468,-1.1038089,-1.6939738,-3.462555,-0.020203397,-0.36691248,-0.1598828,26.0625,26.875,26.0,29.0625,30.0625,30.5
0.28605476,-0.8222979,0.29855487,-0.32148048,0.05319399,-0.0037379174,-0.14147188,-0.4004425,-0.35159135,0.059966758,-3.075697,0.6255341,-4.823274e-05,-0.13879149,-0.019560214,0.002570432,0.019178988,-0.0045185178,0.00011655588,0.46708062,-1.3875692,1.9110698,-2.0909765,-1.5729593,2.442834,-0.078159764,0.2683803,-0.34056038,0.084729694,-0.015777197,-0.07804779,-0.3256114,0.17238252,-9.346964,0.9030289,47.67345,-0.78573024,-1.7451179,-3.5152445,-0.062299065,-0.37639397,-0.1302644,26.0625,26.875,26.0,29.0625,30.0625,30.5
0.288055,-1.0225751,-0.4693656,-0.2691352,0.025792014,0.013706399,-0.14874159,-0.40070775,-0.35162845,0.059951037,-3.0756495,0.6254058,-4.2846525e-05,-0.13702783,-0.019666469,0.0006215309,0.023714548,-0.011150848,0.0048693093,0.46694964,-1.3870153,1.9104241,-2.090843,-1.5730194,2.4426293,-0.07569646,0.27278888,-0.34273186,0.09044866,-0.016842252,-0.0803324,-0.3256114,0.17238252,-9.423578,0.91421866,47.690468,-1.0032274,-1.8262781,-3.546616,-0.14451933,-0.38492745,-0.10768002,26.0625,26.875,26.0,29.0625,30.0625,30.5
0.29005417,-1.3339533,-1.1482489,-0.038639855,0.0002421355,0.02813775,-0.14220399,-0.40101945,-0.35169145,0.060001917,-3.075655,0.62546694,1.8661141e-05,-0.13762544,-0.018215895,-0.00050593365,0.025776446,-0.015056664,-0.0007746192,0.46679258,-1.3864856,1.9096359,-2.0906265,-1.5730313,2.4425101,-0.07859674,0.27563474,-0.34436613,0.09365628,-0.016916825,-0.07758872,-0.28730422,0.21068975,-9.32781,0.95897776,47.674347,-0.9203068,-1.9831986,-3.4978302,-0.19669479,-0.37568155,-0.07090076,26.0625,26.875,26.0,29.0625,30.0625,30.5
0.29205447,-1.4077052,-1.2196068,-0.049834084,-0.017095502,0.039736208,-0.1457855,-0.40126628,-0.35172677,0.059993338,-3.075581,0.62537634,-7.282699e-05,-0.13664314,-0.016606968,-0.0015370816,0.029130004,-0.021360608,-0.004271699,0.4666599,-1.3859439,1.908966,-2.0903966,-1.5730675,2.4423308,-0.08035205,0.27705112,-0.34532854,0.100340836,-0.017070036,-0.07584517,-0.28730422,0.26815057,-9.289502,0.90750587,47.66808,-0.77484304,-1.9730645,-3.6922293,-0.2814001,-0.3852276,-0.08575001,26.0625,26.875,26.0,29.0625,30.0625,30.5
0.29405493,-1.7151341,-1.6547544,-0.012929552,-0.01655522,0.03643426,-0.14230037,-0.4015335,-0.35172662,0.059959237,-3.0754495,0.62542576,-0.00019130399,-0.13833307,-0.016826369,-0.00035662003,0.02773135,-0.01800205,-0.006753228,0.4664558,-1.3853681,1.9083198,-2.0901935,-1.5731157,2.442175,-0.081189446,0.27668938,-0.34748787,0.09923125,-0.017351814,-0.07419712,-0.22984336,0.22984336,-9.385271,0.87393653,47.66987,-0.70475745,-1.8892975,-3.68333,-0.32976347,-0.39078385,-0.091142975,26.0625,26.875,26.0,29.0625,30.0625,30.5
0.29605448,-1.9491057,-1.6442395,0.09442633,-0.010195133,0.012697175,-0.13594013,-0.40183842,-0.3517907,0.059999023,-3.0754707,0.6254706,-0.00013587401,-0.14122471,-0.017790185,0.0008941956,0.025852397,-0.013785433,-0.010017593,0.46629953,-1.384839,1.9075655,-2.0900147,-1.5731157,2.4420443,-0.08182742,0.2787807,-0.35257128,0.09761686,-0.01757977,-0.07156837,-0.13407528,0.24899697,-9.270349,0.947788,47.67614,-0.66902906,-1.792176,-3.6108668,-0.33972374,-0.3898378,-0.116105184,26.0625,26.875,26.0,29.0625,30.0625,30.5
0.29805508,-0.7713029,-1.30396,0.22848006,-0.014208648,0.032957867,-0.15522774,-0.40213305,-0.35180077,0.060012832,-3.0753782,0.6255094,-6.157304e-05,-0.14400001,-0.018543944,0.0016383168,0.023726588,-0.00821702,-0.013468814,0.4661194,-1.384322,1.9068846,-2.0898368,-1.5732116,2.4419007,-0.08247652,0.28031224,-0.3550853,0.09266912,-0.018199977,-0.06876227,-0.2681506,0.28730422,-9.174581,0.8672237,47.668976,-0.6475967,-1.7643198,-3.4832656,-0.32161546,-0.37822878,-0.14899445,26.0625,26.875,26.0,29.0625,30.0625,30.5
0.30005455,-0.9679496,-1.0291849,0.14829682,0.003719782,0.011430207,-0.14664584,-0.40240967,-0.35188234,0.060022254,-3.0753834,0.6254922,-8.9739384e-05,-0.14732687,-0.020316254,0.0029630426,0.020492533,-0.0013120235,-0.015253829,0.46601143,-1.3837447,1.9061421,-2.089659,-1.5732006,2.4417818,-0.08210683,0.2824741,-0.35961825,0.08742356,-0.018433962,-0.066604026,-0.24899697,0.40222588,-9.021352,0.9097417,47.67345,-0.67608064,-1.7106104,-3.4490905,-0.2650858,-0.39294302,-0.15403062,26.0625,26.875,26.0,29.0625,30.0625,30.5
0.30205485,-0.7275136,-0.620092,0.051452868,-0.005574205,0.018427437,-0.15170579,-0.4026871,-0.3518985,0.060013138,-3.0752935,0.6256084,-0.00013161646,-0.14887656,-0.020985598,0.0026300608,0.019330181,0.001937846,-0.017250875,0.46581948,-1.3832028,1.9054836,-2.0894816,-1.5732363,2.4416742,-0.08194394,0.28457186,-0.36040732,0.08269059,-0.018869461,-0.06444055,-0.19153613,0.34476504,-9.193734,0.91198283,47.660015,-0.698336,-1.7456675,-3.4107418,-0.21043253,-0.3974583,-0.19528073,26.0625,26.875,26.0,29.0625,30.0625,30.5
0.3040544,-1.2263091,-1.634059,0.07724009,-0.017665856,0.022490162,-0.1499378,-0.40297678,-0.3519303,0.059994914,-3.0752232,0.6255738,-0.000163539,-0.15018962,-0.022021856,0.0035323992,0.018183153,0.0062940395,-0.01701897,0.465652,-1.3826027,1.9047793,-2.0893147,-1.573285,2.4414947,-0.08062638,0.2847891,-0.362248,0.07990683,-0.019813946,-0.063349545,-0.21068975,0.36391866,-9.270349,0.8940802,47.655537,-0.8318889,-1.7755207,-3.5206347,-0.15587033,-0.37683833,-0.22335455,26.0625,26.875,26.0,29.0625,30.0625,30.5
0.30605647,-1.5188277,-2.383786,-0.12686272,-0.044683617,0.034413792,-0.14752887,-0.4032884,-0.35198405,0.060005125,-3.07518,0.6256807,-0.00011848371,-0.15247098,-0.022106951,0.0033791675,0.017539257,0.008022023,-0.019469177,0.46549538,-1.3820131,1.904025,-2.0891597,-1.5733207,2.4414108,-0.08224755,0.28790626,-0.36530688,0.07801317,-0.020023337,-0.06251834,-0.22984336,0.51714754,-9.251195,0.88960326,47.683304,-0.6927035,-1.647677,-3.5649056,-0.12437157,-0.39978057,-0.250338,26.0625,26.875,26.0,29.0625,30.0625,30.5
0.30805516,-2.0366647,-2.990576,-0.10103191,-0.041598152,0.039736066,-0.14325759,-0.40361363,-0.35204205,0.06003988,-3.0751402,0.62569016,1.6496471e-05,-0.15219177,-0.022971263,0.003647208,0.017500222,0.00928809,-0.018056838,0.4653644,-1.3814365,1.9032243,-2.0889804,-1.5734047,2.4412913,-0.08010192,0.28780225,-0.36582214,0.07747974,-0.02055478,-0.061784156,-0.30645782,0.47884035,-9.289502,0.9186956,47.655537,-0.93130136,-1.6438621,-3.6078334,-0.10885821,-0.38700595,-0.2801442,26.0625,26.875,26.0,29.0625,30.0625,30.5
0.3100546,-1.8915262,-2.2585995,-0.21946351,-0.044777915,0.03650595,-0.14105988,-0.4039239,-0.35208267,0.06002767,-3.075089,0.6258141,-8.192834e-06,-0.15397432,-0.022747526,0.003494588,0.017290935,0.009471469,-0.019923178,0.4651718,-1.3808231,1.9024948,-2.0888364,-1.5734166,2.441183,-0.08200012,0.29048225,-0.36881906,0.077533975,-0.020458184,-0.061814543,-0.28730422,0.4213795,-9.32781,0.9858343,47.66091,-0.9173149,-1.5945115,-3.5851855,-0.077636905,-0.3644687,-0.3008251,26.0625,26.875,26.0,29.0625,30.0625,30.5
0.3120555,-1.4134715,-1.4078988,-0.45055616,-0.023876572,0.025571303,-0.14713162,-0.40423742,-0.35213107,0.06003408,-3.075047,0.62580365,8.5275045e-05,-0.15449104,-0.023534995,0.0023004895,0.017912386,0.0074161557,-0.017554002,0.46502772,-1.380233,1.9017528,-2.0887048,-1.5734891,2.4410384,-0.08123651,0.29512712,-0.37186402,0.07803677,-0.020099541,-0.06342029,-0.17238252,0.38307226,-9.481039,0.92093146,47.661808,-0.7888497,-1.691525,-3.6387873,-0.034907997,-0.37295598,-0.30973843,26.0625,26.875,26.0,29.0625,30.0625,30.5
0.31405482,-1.5355798,-1.4014958,-0.23595062,-0.01564118,0.010613585,-0.13965881,-0.40454233,-0.3521765,0.060041275,-3.0750256,0.6258966,0.00010569145,-0.15517214,-0.023851842,0.0011798308,0.019054417,0.0061419257,-0.020030973,0.4648481,-1.3796672,1.9010347,-2.0885618,-1.5735005,2.4409199,-0.080911875,0.29915732,-0.3742318,0.07803071,-0.02054817,-0.060615994,-0.30645782,0.4213795,-9.32781,0.8851263,47.694946,-0.936226,-1.8411849,-3.6584044,-0.0050758906,-0.37040502,-0.34979254,26.0625,26.875,26.0,29.0625,30.0625,30.5
0.31605464,-0.80021584,-1.0719916,-0.032023303,-0.004204622,0.017497247,-0.1438465,-0.40486148,-0.35221067,0.060031224,-3.0749514,0.6259377,0.00012676268,-0.15672934,-0.023499403,0.00068620674,0.020332418,0.006382674,-0.021048762,0.4646677,-1.3790417,1.9002823,-2.0884058,-1.5735611,2.4407752,-0.08198742,0.3022912,-0.37698087,0.0780007,-0.021807138,-0.060667396,-0.30645782,0.40222588,-9.155427,0.90750587,47.66091,-0.9033321,-1.8521562,-3.5869932,0.016665168,-0.3668511,-0.4009785,26.0625,26.875,26.0,29.0625,30.0625,30.5
0.31805477,-0.9053202,-0.5961277,-0.22964138,0.018150166,0.011932723,-0.14841226,-0.40517804,-0.35226363,0.060015317,-3.0748973,0.6260213,0.00011270052,-0.15680088,-0.022992538,0.0002213956,0.022695696,0.0037823503,-0.019296676,0.4644996,-1.378392,1.8995165,-2.0882604,-1.5735859,2.4406667,-0.08223423,0.3043525,-0.37938163,0.08171646,-0.022758495,-0.0626617,-0.1340753,0.34476504,-9.136273,0.9231726,47.67345,-0.89229816,-2.0113852,-3.586794,0.035522386,-0.3572969,-0.4270821,26.0625,26.875,26.0,29.0625,30.0625,30.5
0.32005408,-0.95174503,-0.5398939,0.044808052,0.011508239,0.0036247654,-0.14393336,-0.40548128,-0.35233372,0.060023203,-3.074895,0.62600064,0.00018646721,-0.15830284,-0.023402492,0.0014348207,0.021830281,0.004794634,-0.020273551,0.46437943,-1.3778034,1.898774,-2.0881398,-1.5736216,2.4405344,-0.082948156,0.3051532,-0.38377675,0.08401302,-0.022440571,-0.062399372,-0.1340753,0.3256114,-9.11712,1.0305934,47.66539,-0.9405887,-1.8784664,-3.5592933,0.033685416,-0.3471322,-0.44013506,26.0625,26.875,26.0,29.0625,30.0625,30.5
0.3220547,-1.1796033,-0.73957634,0.2295863,0.006681475,-0.011750376,-0.14068183,-0.40578878,-0.35235795,0.06000597,-3.0747755,0.62603253,0.00014451705,-0.15812007,-0.0233766,0.0015886686,0.023336098,0.0031473169,-0.018714903,0.46419966,-1.3771665,1.8980097,-2.0879233,-1.5736936,2.4403903,-0.08235882,0.30595666,-0.38607585,0.08764688,-0.02305485,-0.06336416,-0.095768064,0.30645782,-9.002198,0.9186956,47.655537,-0.9270443,-1.8366904,-3.5533323,0.03689552,-0.35064697,-0.46493304,26.0625,26.875,26.0,29.0625,30.0625,30.5
0.32405445,-0.6157931,-0.76571536,0.042067617,0.014989,-0.01288214,-0.13743822,-0.4061433,-0.35239148,0.060027324,-3.0747135,0.6261504,0.00025000877,-0.15710321,-0.0225735,0.001468545,0.027237447,-0.0024051596,-0.015368071,0.46399575,-1.3765534,1.8971957,-2.0877526,-1.5737661,2.4402685,-0.08213085,0.3072791,-0.38952735,0.09647239,-0.02405234,-0.066479735,-0.21068975,0.34476504,-8.944737,0.8560339,47.684196,-0.9819616,-1.9245937,-3.5303707,-0.047777846,-0.31658775,-0.4597527,26.0625,26.875,26.0,29.0625,30.0625,30.5
0.32605493,-0.91387475,-0.8483456,0.18447989,0.01779241,-0.016819436,-0.14630519,-0.4064144,-0.3524635,0.06000064,-3.0746613,0.6260419,0.0001608855,-0.15677446,-0.02226094,0.0017660628,0.028817367,-0.0044325506,-0.011660018,0.46389967,-1.3759047,1.8964432,-2.0875595,-1.57379,2.4401119,-0.08199341,0.30741632,-0.39153728,0.1008523,-0.024567902,-0.070046306,0.019153614,0.17238252,-9.021352,0.91421866,47.67793,-1.0351415,-1.7763811,-3.476637,-0.098027006,-0.3003473,-0.4602836,26.0625,26.875,26.0,29.0625,30.0625,30.5
0.32805413,-0.4011897,-0.21108763,0.2149012,0.020444032,-0.02267419,-0.15217268,-0.4067631,-0.3524938,0.06001994,-3.0745862,0.6261577,0.00024009681,-0.15694898,-0.022130404,0.0014254326,0.030590754,-0.007923426,-0.00792658,0.46369562,-1.3752913,1.8956279,-2.0873663,-1.5738624,2.4399903,-0.08224282,0.31020197,-0.3953475,0.105770014,-0.024601504,-0.07402819,0.076614454,0.1340753,-8.983045,0.9567419,47.667187,-1.0546314,-1.7123626,-3.5127792,-0.16371663,-0.29091257,-0.43122503,26.0625,26.875,26.0,29.0625,30.0625,30.5
0.3300543,-0.61340094,-0.12881187,0.1938777,0.022580188,-0.026373208,-0.13885441,-0.4070444,-0.35253373,0.059975706,-3.074484,0.62615126,6.249808e-05,-0.15493104,-0.022321608,-0.0005433186,0.032625932,-0.014044,-0.0019056718,0.4635284,-1.3746171,1.8948764,-2.087138,-1.5738739,2.4398327,-0.08065184,0.3130142,-0.39515817,0.109131046,-0.023702648,-0.07845835,-0.038307227,0.038307227,-8.983045,0.9567419,47.692257,-1.153478,-1.9037026,-3.6262763,-0.20232166,-0.26819864,-0.40273505,26.0625,26.875,26.0,29.0625,30.0625,30.5
0.33205444,-0.17930268,-0.38544792,0.0015141101,0.032159396,-0.009383335,-0.14608988,-0.40735832,-0.35259476,0.059995763,-3.074439,0.6260446,0.0001104795,-0.15734242,-0.021386186,-0.0004981827,0.0328209,-0.014889612,-0.0013033104,0.463407,-1.3740041,1.894051,-2.0869095,-1.5739459,2.439651,-0.08436224,0.3160819,-0.39956748,0.111293264,-0.023518812,-0.08276986,0.095768064,-0.038307227,-9.059659,0.95002913,47.681515,-1.059301,-1.9200904,-3.6232862,-0.23121142,-0.28931177,-0.35136563,26.0625,26.875,26.0,29.0625,30.0625,30.5
0.33405474,-0.7585748,-0.43318424,0.0014690822,0.033979863,-0.012269372,-0.13495456,-0.4076584,-0.3526413,0.05997235,-3.0743768,0.62608397,1.230609e-06,-0.15769377,-0.023363136,-0.0008207689,0.032780875,-0.013583646,0.0061511514,0.46322852,-1.3733535,1.8932852,-2.0867074,-1.5739464,2.4395056,-0.08083193,0.3193391,-0.40256584,0.10983365,-0.024098769,-0.08668828,0.038307227,0.05746084,-9.002198,0.85826975,47.692257,-1.1922412,-1.9290824,-3.579956,-0.2650696,-0.27360332,-0.29429245,26.0625,26.875,26.0,29.0,30.0625,30.5
0.33605412,-0.732386,-0.42724097,-0.032571647,0.030691175,0.00054161355,-0.14789097,-0.40799043,-0.35266942,0.05995853,-3.0742679,0.62604123,-5.126732e-05,-0.16078486,-0.023284556,0.00064003974,0.031081766,-0.009221904,0.006907316,0.46303552,-1.3726693,1.8924464,-2.0864556,-1.5740184,2.4393005,-0.0832338,0.3199926,-0.40656665,0.108500205,-0.024560656,-0.08984081,-0.038307227,0.11492168,-8.983045,0.9455522,47.64658,-1.2136369,-2.0160573,-3.3925905,-0.25508007,-0.24028231,-0.24146417,26.0625,26.875,26.0,29.0,30.0625,30.5
0.33805442,-0.7061216,-0.24813253,-0.09151067,0.005038785,0.010735742,-0.15236229,-0.40831706,-0.3527157,0.059961632,-3.074216,0.6260116,1.3825526e-05,-0.16359675,-0.023249675,0.00013707994,0.029914893,-0.006738967,0.006397066,0.46287853,-1.3720437,1.8916577,-2.0862906,-1.5740904,2.4391322,-0.08556002,0.32370278,-0.4091456,0.10461038,-0.024648506,-0.09165488,0.0,0.15322891,-9.078813,0.947788,47.66987,-1.0157025,-1.9879924,-3.4255986,-0.23958096,-0.23263943,-0.19582513,26.0625,26.875,26.0,29.0,30.0625,30.5
0.3400549,-1.5776359,-1.4919752,-0.10620324,0.0022403058,0.0034008063,-0.14136003,-0.40862915,-0.35277995,0.059969746,-3.0741653,0.62590253,-7.1650626e-05,-0.16605635,-0.025090909,0.0016156157,0.027117252,-0.00013716915,0.008379574,0.46273527,-1.3713822,1.8907846,-2.0859926,-1.5741147,2.438928,-0.08414054,0.3246271,-0.41281024,0.10018864,-0.02512278,-0.09221233,-0.19153613,0.2681506,-9.097966,0.9186956,47.713753,-1.1799189,-2.0654962,-3.3255143,-0.18029068,-0.20714432,-0.19773221,26.0625,26.875,26.0,29.0,30.0625,30.5
0.34205428,-1.6854851,-1.6865089,-0.4035442,-0.030070707,0.024073465,-0.14882925,-0.4089835,-0.3528122,0.05996281,-3.0741012,0.62588924,-2.5007768e-05,-0.166236,-0.02441506,-0.0001500479,0.02772448,-0.0011556656,0.006210372,0.4625309,-1.3707095,1.8899616,-2.0858257,-1.5741867,2.438724,-0.08527985,0.3268143,-0.4109513,0.097317405,-0.025215691,-0.09118224,-0.3256114,0.34476504,-9.270349,1.0082139,47.66091,-1.0793864,-1.9453562,-3.63172,-0.15424204,-0.2143604,-0.14438397,26.0625,26.875,26.0,29.0,30.0625,30.5
0.3440546,-1.8930491,-2.1293721,-0.6862183,-0.050179694,0.038421385,-0.14711517,-0.40926546,-0.35284215,0.05992914,-3.0739706,0.62594193,-0.0001734098,-0.16666777,-0.023750227,-0.0006379124,0.028136719,-0.0005317821,0.00086213794,0.46236238,-1.3700604,1.8892082,-2.0855749,-1.5742224,2.4386058,-0.0862887,0.3270681,-0.40997934,0.09572757,-0.02586775,-0.086836964,-0.2681506,0.4213795,-9.481039,0.93436235,47.675243,-1.0766485,-1.9629759,-3.863483,-0.12322551,-0.18254212,-0.17682222,26.0625,26.875,26.0,29.0,30.0625,30.5
0.34605423,-2.4704506,-2.852666,-0.67569304,-0.05775647,0.04335737,-0.14237837,-0.40960035,-0.3529127,0.0599258,-3.0739455,0.6258792,-0.00016009444,-0.16816297,-0.024080077,0.0011826634,0.026244795,0.0024393632,-0.00094834337,0.46221828,-1.3693763,1.8883594,-2.0853946,-1.5742587,2.4384263,-0.08713276,0.32571962,-0.41289043,0.09647956,-0.025504423,-0.08587137,-0.4405331,0.40222588,-9.595961,0.9768804,47.688675,-1.0572838,-1.8524249,-3.9191923,-0.11494537,-0.19316223,-0.17793775,26.0625,26.875,26.0,29.0,30.0625,30.5
0.34805468,-2.3369663,-2.2312138,-0.9387982,-0.06157437,0.04403081,-0.13741446,-0.40993544,-0.35294902,0.059926447,-3.0738661,0.6258667,-0.00014235807,-0.16964567,-0.024320802,1.5387988e-05,0.026877822,0.0010645015,-0.009059421,0.46203795,-1.3687259,1.8875335,-2.085179,-1.5743307,2.4382489,-0.087921634,0.33086413,-0.41658404,0.09655733,-0.025449818,-0.07854657,-0.59376204,0.53630114,-9.768343,1.0015011,47.666286,-0.9999929,-1.8376994,-3.9018953,-0.08484155,-0.16354436,-0.23534682,26.0625,26.875,26.0,29.0,30.0625,30.5
0.3500548,-2.2426429,-2.3538363,-1.2064304,-0.030898316,0.042068217,-0.1367347,-0.41027123,-0.35298163,0.05990359,-3.0737467,0.62589943,-0.00015654537,-0.1712749,-0.025238095,0.0012401064,0.024897948,0.0029326964,-0.011905006,0.46185797,-1.3680286,1.8867077,-2.0849755,-1.5744141,2.4381053,-0.088220984,0.33177647,-0.42085552,0.09735687,-0.024517627,-0.07600141,-0.63206923,0.63206923,-9.902418,0.9567419,47.684196,-1.0859356,-1.901309,-3.7842243,-0.092810564,-0.14018601,-0.2756433,26.0625,26.875,26.0,29.0,30.0625,30.5
0.3520548,-2.4431603,-2.0400956,-1.0896496,-0.039931387,0.04533276,-0.14530396,-0.4106221,-0.35304132,0.05992218,-3.0737267,0.6258765,-8.741262e-05,-0.17313188,-0.02573103,0.0007993154,0.024404105,0.0032212222,-0.013233765,0.4616897,-1.3673791,1.8858465,-2.0847843,-1.5744623,2.4379258,-0.089049175,0.3358163,-0.4247291,0.096705556,-0.024212481,-0.07550102,-0.38307226,0.53630114,-10.055647,0.9992599,47.67166,-1.0544982,-1.9936502,-3.6710625,-0.07561575,-0.14688794,-0.29110253,26.0625,26.875,26.0,29.0,30.0625,30.5
0.35405496,-2.4594185,-2.091823,-1.0931001,-0.037398674,0.045313377,-0.14251423,-0.410982,-0.35309708,0.059935737,-3.0736969,0.6259671,-8.540728e-05,-0.17420594,-0.024438767,-0.00041107388,0.025213478,0.00067847775,-0.016159663,0.4614846,-1.3667054,1.884962,-2.0845683,-1.5744737,2.4377816,-0.09229449,0.33868665,-0.4257991,0.097534135,-0.023808451,-0.07582182,-0.36391866,0.4405331,-9.959879,0.93436235,47.647476,-0.95481086,-2.1483445,-3.6971793,-0.053301714,-0.14291884,-0.31482434,26.0625,26.875,26.0,29.0,30.0625,30.5
0.3560549,-1.980442,-1.8140609,-1.0974659,-0.0380479,0.041908327,-0.14500616,-0.41130972,-0.3531466,0.059916418,-3.0735977,0.62592506,-8.731776e-05,-0.17280424,-0.025280239,-0.0023499231,0.027782835,-0.0042831074,-0.013626689,0.4613415,-1.3660069,1.8841251,-2.0843642,-1.5745581,2.4376256,-0.08951759,0.3431392,-0.42758247,0.10044332,-0.023903484,-0.07557527,-0.53630114,0.49799395,-9.902418,1.0350704,47.6421,-0.99804044,-2.2554407,-3.9095192,-0.060527764,-0.12653004,-0.32198662,26.0625,26.875,26.0,29.0,30.0625,30.5
0.35805425,-1.5227184,-1.5760819,-0.83702224,-0.04054933,0.05481218,-0.14616713,-0.41169026,-0.35321692,0.05995038,-3.073624,0.62600803,-7.394437e-06,-0.17225118,-0.023818942,-0.0032946868,0.030329606,-0.008742811,-0.01527035,0.46113703,-1.3653462,1.8832167,-2.0841835,-1.5745581,2.43747,-0.09123321,0.34426808,-0.42797428,0.104829565,-0.024188971,-0.075647995,-0.63206923,0.36391866,-9.80665,0.9679317,47.684196,-1.0133728,-2.3350787,-3.9496667,-0.08844417,-0.11766161,-0.34479785,26.0625,26.875,26.0,29.0,30.0625,30.5
0.36005446,-1.6040645,-0.8252982,-0.7306195,-0.019130861,0.029405553,-0.14751674,-0.4120258,-0.35326293,0.059924368,-3.0735588,0.62607247,-5.3966614e-05,-0.17260751,-0.02324901,-0.0032398535,0.03195795,-0.013120878,-0.017273499,0.46094438,-1.3646487,1.8824028,-2.0840127,-1.574582,2.4373264,-0.09269532,0.34655693,-0.43263826,0.111844234,-0.023700459,-0.075106755,-0.19153613,0.21068975,-9.710882,0.95002913,47.66987,-0.7734056,-2.3039908,-3.8950582,-0.13432351,-0.10385361,-0.3469262,26.0625,26.875,26.0,29.0,30.0625,30.5
0.36205462,-0.72428465,0.09317071,-0.29724717,-0.0034953207,0.013489352,-0.15202485,-0.41240627,-0.35331625,0.05992429,-3.0734975,0.6261538,-2.7256723e-05,-0.17443788,-0.024711438,-0.0004210059,0.028655332,-0.009520232,-0.016955769,0.46074066,-1.3639166,1.8814806,-2.0838096,-1.5746292,2.437182,-0.09246734,0.34534246,-0.43832585,0.114039354,-0.022357058,-0.07520107,-0.30645782,0.05746084,-9.557653,1.0305934,47.679718,-0.9843898,-2.1478987,-3.7285228,-0.18090656,-0.12081334,-0.36987936,26.0625,26.875,26.0,29.0,30.0625,30.5
0.36405408,0.08701314,1.0727162,-0.2044243,0.024265612,0.009679345,-0.15087284,-0.41278216,-0.3533703,0.059934605,-3.0734384,0.6261598,9.922912e-05,-0.1750462,-0.024956234,0.00096609147,0.028462717,-0.010509814,-0.015511168,0.46057257,-1.3632195,1.8805836,-2.083639,-1.5747255,2.4370258,-0.09282881,0.345366,-0.44293523,0.11940586,-0.021749133,-0.07700974,-0.36391866,0.019153614,-9.346964,0.9388393,47.690468,-0.9099026,-1.9524491,-3.6635363,-0.2102204,-0.11614765,-0.38857242,26.0625,26.875,26.0,29.0,30.0625,30.5
0.36605453,0.6454861,1.749456,-0.6363451,0.07694119,-0.012343597,-0.15759395,-0.41312143,-0.35344264,0.0599453,-3.0734274,0.62623173,3.973652e-05,-0.17642446,-0.025260082,0.0016353675,0.02818693,-0.009526901,-0.012902804,0.46039253,-1.3625469,1.8796991,-2.0834,-1.5747012,2.4368925,-0.09323947,0.34675157,-0.4466169,0.12068587,-0.021959228,-0.08002625,-0.095768064,-0.15322891,-9.385271,0.8918391,47.660015,-0.945138,-1.9123712,-3.5328827,-0.2556954,-0.121564254,-0.35688508,26.0625,26.875,26.0,29.0,30.0625,30.5
0.3680548,-0.13241492,1.2591803,-0.6771606,0.08734136,-0.02722533,-0.1460099,-0.4134545,-0.35348114,0.05994195,-3.073328,0.6262486,-7.4315574e-07,-0.17623219,-0.025411444,-0.00014480864,0.0293963,-0.013150031,-0.011832054,0.46021244,-1.3618722,1.8788384,-2.0831363,-1.5747613,2.4367363,-0.0930281,0.35090238,-0.4479815,0.12166914,-0.021447074,-0.08088572,-0.038307227,-0.2681506,-9.519346,0.95897776,47.65912,-0.9404143,-1.9722683,-3.6375418,-0.2593758,-0.11649671,-0.37178203,26.0625,26.875,26.0,29.0,30.0625,30.5
0.37005502,-0.491519,0.50522953,-0.30950722,0.052768525,-0.001455658,-0.1568216,-0.41384605,-0.35353458,0.059953604,-3.0732787,0.62625307,5.0214785e-05,-0.17729019,-0.025415665,-0.0009198431,0.028333157,-0.012744554,-0.006695893,0.46000817,-1.3611393,1.8778814,-2.0829093,-1.5748209,2.4365418,-0.09424362,0.35300386,-0.44840428,0.11911753,-0.020706723,-0.087240756,-0.095768064,-0.21068975,-9.3661175,0.94331104,47.684196,-0.91405404,-2.125103,-3.608017,-0.24477741,-0.12500426,-0.3125709,26.0625,26.875,26.0,29.0,30.0625,30.5
0.37205452,-1.0568767,-0.009702332,-0.67985046,0.026691707,0.023359934,-0.15961716,-0.41417387,-0.35355476,0.059935093,-3.0731533,0.62636155,-9.770603e-05,-0.17823736,-0.025039757,-0.002093333,0.028238306,-0.01326936,-0.0059447344,0.45977968,-1.360454,1.8770336,-2.0826108,-1.5748447,2.4363978,-0.09573565,0.35567796,-0.44873402,0.11718461,-0.0204189,-0.089482404,-0.1340753,-0.21068975,-9.500193,1.0082139,47.695843,-0.8058073,-2.2571638,-3.8495998,-0.2491385,-0.124789044,-0.25152057,26.0625,26.875,26.0,29.0,30.0625,30.5
0.37405467,-1.5256462,-1.1219382,-0.60078007,-0.014073498,0.05082367,-0.15349983,-0.41451433,-0.35361773,0.059935287,-3.073091,0.62624955,-0.00011721544,-0.1818431,-0.02644527,-0.0012624076,0.025731076,-0.007948892,-0.0029499067,0.45963547,-1.359746,1.8761238,-2.0823486,-1.5749048,2.4361923,-0.09619981,0.35936177,-0.45440006,0.113264404,-0.020574331,-0.09293715,-0.019153614,-0.114921674,-9.710882,0.92093146,47.688675,-0.7264024,-2.1971917,-3.834989,-0.18455154,-0.13654624,-0.21267825,26.0625,26.875,26.0,29.0,30.0625,30.5
