Tylouw/Master_Thesis_Code/training_data/batch_1/small_rod_t0.1/sample_64_session_2.csv
timestamp[s],tcp_force_x[N],tcp_force_y[N],tcp_force_z[N],tcp_force_rx[Nm?],tcp_force_ry[Nm?],tcp_force_rz[Nm?],tcp_pose_x[m],tcp_pose_y[m],tcp_pose_z[m],tcp_pose_rx[rot_vec_x],tcp_pose_ry[rot_vec_y],tcp_pose_rz[rot_vec_z],tcp_velo_x[m/s],tcp_velo_y[m/s],tcp_velo_z[m/s],tcp_velo_rx[rot_vec_x/s],tcp_velo_ry[rot_vec_y/s],tcp_velo_rz[rot_vec_z/s],q1[rad],q2[rad],q3[rad],q4[rad],q5[rad],q6[rad],qd1[rad/s],qd2[rad/s],qd3[rad/s],qd4[rad/s],qd5[rad/s],qd6[rad/s],tool_acc_x,tool_acc_y,tool_acc_z,current_of_whole_robot[A],voltage_of_whole_robot[V],current_J1[A],current_J2[A],current_J3[A],current_J4[A],current_J5[A],current_J6[A],temp_J1[C],temp_J2[C],temp_J3[C],temp_J4[C],temp_J5[C],temp_J6[C]
8.0201426e-07,0.230496,-0.43205455,1.0231935,-0.0016083474,0.019005705,-0.0236821,-0.38107577,-0.34850973,0.059973534,-3.0785217,0.624955,-0.00014516174,0.001006508,0.0004635011,-0.001005519,0.0007210244,-0.0017465051,7.860213e-05,0.47775018,-1.4259579,1.9577383,-2.100857,-1.5707573,2.452752,-5.638092e-10,-3.29041e-05,0.0024589384,-0.000544183,0.00016673839,-8.002834e-05,0.076614454,0.19153613,-8.734048,0.71279734,47.678825,0.052760474,-2.7337694,-2.3413863,-0.46170563,0.08403999,0.0521608,26.0625,26.8125,25.9375,28.9375,30.0,30.375
0.002052782,-0.28372318,-0.27169612,1.1087825,0.0027399769,0.00021843016,-0.01691442,-0.38106194,-0.34852695,0.059965108,-3.0785172,0.62495446,-0.00018303395,-0.0012216916,-0.0006954197,-0.0017471297,-0.0025035462,0.004446617,7.903851e-05,0.47778618,-1.4259334,1.9577278,-2.1008494,-1.5707458,2.4527884,-7.56422e-12,0.0023579004,0.0038872368,-0.011345584,0.00016078007,-7.862998e-05,0.15322891,0.15322891,-8.695741,0.7777002,47.66091,-0.0022294726,-2.6064677,-2.4384046,-0.3895716,0.08445747,0.04042674,26.0625,26.8125,25.9375,28.9375,30.0,30.375
0.004052282,-0.008701569,-0.10591932,1.1077455,0.0049667293,0.003974709,-0.023694452,-0.38106996,-0.34853116,0.05995623,-3.078539,0.6248817,-0.00016989307,-0.0017571732,-0.00097316445,-0.0025319033,-0.0025137006,0.004466699,7.866298e-05,0.47778618,-1.4259083,1.9577278,-2.1008852,-1.5707458,2.4527402,-1.0148366e-13,0.0046769693,0.0034772912,-0.013277195,0.00015523305,-7.727961e-05,0.1340753,0.076614454,-8.619126,0.7418897,47.677036,0.01475577,-3.1385317,-2.6888437,-0.30900878,0.07744768,0.03942912,26.0625,26.8125,25.9375,28.9375,30.0,30.375
0.006052485,0.1981056,0.3283653,1.0177327,0.013276134,-0.006539821,-0.022767726,-0.38105243,-0.34853327,0.059932057,-3.0785155,0.62493503,-0.00022501578,-0.0012386861,-0.000700577,-0.0012728609,-0.0020412467,0.0035824922,7.671503e-05,0.4777981,-1.4258852,1.9577616,-2.100907,-1.5707334,2.4527884,-1.3615327e-15,0.0023559174,0.0021977841,-0.008674179,0.00015005589,-7.5974815e-05,0.095768064,0.11492168,-8.599973,0.7933669,47.695843,0.043855533,-3.065818,-2.6133008,-0.3364315,0.074927956,0.04689104,26.0625,26.8125,25.9375,28.9375,30.0,30.375
0.008052523,0.6948252,0.6468607,0.46111143,0.03630846,-0.018337706,-0.01993455,-0.38106886,-0.3485264,0.059955668,-3.0785267,0.6249365,-0.00014308523,-0.0008038104,-0.00047158453,0.00014771378,-0.0016961256,0.002943195,7.488239e-05,0.47778618,-1.4259219,1.9577492,-2.1009057,-1.5707573,2.452776,-1.8266699e-17,-0.00012768543,0.0007138155,-0.0039801835,0.00014521315,-7.471341e-05,0.019153614,0.19153613,-8.829816,0.71279734,47.689575,0.08105703,-2.9145553,-2.5100286,-0.37208933,0.071831904,0.029478775,26.0625,26.8125,25.9375,28.9375,30.0,30.375
0.01005167,0.46792898,0.6442641,0.092774145,0.031745106,-0.015490472,-0.024673576,-0.38104787,-0.34854203,0.059928432,-3.0785203,0.62487775,-0.00026779322,-0.0006062857,-0.0003669641,0.0004923053,-0.0013566421,0.0023036906,7.352133e-05,0.47781014,-1.4258623,1.9577378,-2.1008809,-1.5707215,2.452764,-2.450711e-19,-0.00063977006,8.553924e-05,-0.0021158145,0.00014067334,-7.349328e-05,0.076614454,0.15322891,-9.155427,0.6478998,47.684196,-0.08374022,-2.1068769,-3.322106,-0.37607113,0.057618644,0.013066063,26.0625,26.8125,25.9375,28.9375,30.0,30.375
0.012052584,0.3426767,0.055902813,0.0048029115,-0.00010089713,0.0007311471,-0.022590954,-0.38101256,-0.3485212,0.059888843,-3.0784616,0.6249044,-0.0003988307,-0.0004301573,-0.0002400421,-0.0032968721,0.0024344218,-0.0050123353,2.1033013e-05,0.47779807,-1.4258476,1.9578089,-2.100869,-1.5707096,2.452776,-6.615577e-05,0.008550029,-0.0019827415,-0.0009973914,0.00013640866,-8.488378e-05,0.095768064,0.1340753,-9.32781,0.71279734,47.679718,-0.13377789,-2.0125098,-3.6263385,-0.35923654,0.03768079,0.0073311557,26.0625,26.8125,25.9375,28.9375,30.0,30.375
0.01405242,-0.36365724,-0.89358664,-0.18635288,-0.020766512,0.017138792,-0.024419218,-0.381035,-0.34850878,0.059886135,-3.0784142,0.6248373,-0.00039629574,-0.0041360958,-0.0021461567,-0.004003024,0.0031421974,-0.0063320934,2.7464232e-05,0.47778615,-1.4257954,1.9577445,-2.1008203,-1.5707573,2.4527283,-9.1106216e-05,0.019449774,-0.013206789,0.00082444545,9.470237e-05,-0.00010915014,0.0,0.26815057,-9.442732,0.7105615,47.655537,-0.28174925,-2.7938228,-3.264731,-0.35378653,0.036899537,0.00624734,26.0625,26.8125,25.9375,28.9375,30.0,30.375
0.01605216,-0.51133275,-1.2859766,-0.3584412,-0.042928405,0.047022723,-0.024346096,-0.38102618,-0.34852347,0.059884027,-3.0784254,0.6248789,-0.00044818365,-0.0039876397,-0.00065795035,-0.003930059,0.0046471637,-0.009182641,-0.0022293788,0.47779718,-1.4257838,1.957733,-2.100807,-1.5707215,2.4527638,-0.0025881003,0.018710876,-0.013499438,0.005079371,7.8163175e-05,-0.0003500935,-0.076614454,0.49799395,-9.557653,0.679228,47.72002,-0.22029865,-2.6581736,-3.3952432,-0.38612413,0.042993456,-0.0282753,26.0625,26.8125,25.9375,28.9375,30.0,30.375
0.018052272,-1.0998495,-1.8743526,-0.7366626,-0.05248497,0.053372104,-0.025109852,-0.38104668,-0.34852076,0.05987253,-3.0783772,0.624868,-0.00045525463,-0.0056893397,-0.0004100452,-0.0029616158,0.0038712022,-0.0072469506,-0.0009133054,0.47779658,-1.425712,1.957672,-2.100783,-1.5707573,2.4527626,-0.004469996,0.018759942,-0.015812768,0.005268149,-0.00012901003,-0.0035465201,-0.21068975,0.5554548,-9.80665,0.7172743,47.695843,-0.20324478,-2.3459737,-3.4603157,-0.3910141,0.02076497,-0.005443318,26.0625,26.8125,25.9375,28.9375,30.0,30.375
0.020052277,-1.4115912,-2.3290062,-0.68892574,-0.05917231,0.057586998,-0.01830906,-0.38104567,-0.34848446,0.059849374,-3.0783179,0.6248733,-0.00050541625,-0.0063071065,-0.0009186722,-0.0029911732,0.0037390667,-0.006850299,0.0025439623,0.47774878,-1.4256994,1.9577078,-2.1007707,-1.5707816,2.4527256,-0.004092177,0.020382239,-0.017519347,0.0049390434,-0.0002008041,-0.00662463,-0.2873042,0.7086837,-9.883265,0.7396539,47.682407,-0.24265994,-2.3467808,-3.5763578,-0.37576985,0.012332306,0.010208418,26.0625,26.8125,25.9375,28.9375,30.0,30.375
0.022052014,-1.376442,-2.095167,-0.71108276,-0.06957207,0.06659148,-0.031173281,-0.381041,-0.34850448,0.059828352,-3.0783188,0.6248162,-0.00058670447,-0.007088599,-0.0014593748,-0.0027128772,0.0035983915,-0.006462239,0.0032740408,0.47777286,-1.4256269,1.9576706,-2.1007593,-1.5707573,2.452714,-0.003818542,0.021929221,-0.020051012,0.005514737,-0.00025883346,-0.0070795366,-0.51714754,0.8236054,-9.921572,0.78888994,47.678825,-0.27595013,-2.31919,-3.4702392,-0.3721427,0.013195034,0.015212072,26.0625,26.8125,25.9375,28.9375,30.0,30.375
0.024052138,-1.4289511,-1.5642772,-0.8213174,-0.075854614,0.07240478,-0.033019807,-0.38105583,-0.3484985,0.05982359,-3.0783033,0.6248123,-0.00061678106,-0.008130237,-0.001442524,-0.0023778751,0.0042684986,-0.0062991036,0.00271333,0.47774872,-1.4255905,1.9576343,-2.1007345,-1.5707577,2.4526894,-0.004376497,0.023436565,-0.022872001,0.0069940547,-0.00093193736,-0.0070739924,-0.4405331,0.63206923,-9.959879,0.7933669,47.657326,-0.37296423,-2.3575788,-3.5611854,-0.3619546,-0.009426418,0.008801447,26.0625,26.8125,25.9375,28.9375,30.0,30.375
0.026051646,-1.1054146,-1.2114774,-0.7749417,-0.061819337,0.06506177,-0.04252696,-0.3810735,-0.34852058,0.059820395,-3.0783346,0.6248002,-0.00065136224,-0.009083813,-0.0013881965,-0.0021753844,0.004476285,-0.0061037266,0.0025396848,0.47774836,-1.4255302,1.9575728,-2.100734,-1.570722,2.4526775,-0.00517645,0.024693718,-0.024935266,0.007723386,-0.001209444,-0.007698624,-0.34476504,0.4405331,-9.940725,0.6948948,47.677036,-0.3597564,-2.2807415,-3.5805316,-0.3785632,-0.00725196,0.0105811,26.0625,26.8125,25.9375,28.9375,30.0,30.375
0.02805176,-0.93485695,-0.94970244,-0.5993235,-0.04697463,0.058503557,-0.051103137,-0.38112605,-0.34852117,0.059833076,-3.0782995,0.62487024,-0.0006020894,-0.010905871,-0.0016164433,-0.0016333065,0.0037559778,-0.004719973,0.0020923114,0.47772393,-1.4254578,1.9574531,-2.1006982,-1.5707577,2.4527013,-0.00645532,0.026482752,-0.028195577,0.007634236,-0.0012138016,-0.00852818,-0.38307226,0.40222588,-9.844957,0.6971306,47.709274,-0.367557,-2.2072163,-3.5562427,-0.3577091,-0.032239616,0.015956804,26.0625,26.8125,25.9375,28.9375,30.0,30.375
0.030052572,-1.3475592,-0.516191,-0.44512767,-0.029322932,0.036282662,-0.057525914,-0.38113114,-0.3485508,0.059831485,-3.0783224,0.62479806,-0.00058703846,-0.01179207,-0.0017559255,-0.0016489138,0.0038994732,-0.0045273593,0.001742283,0.47777182,-1.4254092,1.957404,-2.1007102,-1.5707577,2.4527013,-0.0068872375,0.02817712,-0.03012207,0.0077621336,-0.0014333058,-0.008608415,-0.4405331,0.2873042,-9.730036,0.7486078,47.71286,-0.43123823,-2.241712,-3.5684848,-0.33466607,-0.030197762,0.025501333,26.0625,26.8125,25.9375,28.9375,30.0,30.375
0.032052517,-0.81407213,-0.024545344,-0.34307626,-0.011374706,0.04920949,-0.069631994,-0.38117734,-0.34854287,0.059835233,-3.0783203,0.62483627,-0.00054444675,-0.01353036,-0.001588101,-0.0013072303,0.004189287,-0.003117709,0.00055739767,0.47772333,-1.4253608,1.957343,-2.100722,-1.5707706,2.452677,-0.008201957,0.029909424,-0.032852765,0.007645051,-0.0023450698,-0.0087347375,-0.3256114,0.24899697,-9.672575,0.71279734,47.637623,-0.43984866,-2.2543154,-3.6039522,-0.32533592,-0.04626832,0.019067245,26.0625,26.8125,25.9375,28.9375,30.0,30.375
0.034051817,-0.46036246,-0.01813582,-0.39121395,0.0129450215,0.053242136,-0.08099495,-0.38121423,-0.34853718,0.05982521,-3.0783079,0.62489223,-0.00051578664,-0.015423508,-0.0018661321,-0.0003574149,0.004297813,-0.00090479135,-0.00022691488,0.47768703,-1.4253004,1.9573053,-2.1007583,-1.570783,2.4526772,-0.008731895,0.031374685,-0.03683347,0.00824911,-0.0034658741,-0.008475992,-0.22984336,0.19153614,-9.691729,0.7105615,47.637623,-0.4084472,-2.2791378,-3.4088626,-0.31678483,-0.05361184,-0.009564318,26.0625,26.8125,25.9375,28.9375,30.0,30.375
0.036052246,-0.9937108,0.26800492,-0.2551789,0.022267668,0.030901872,-0.077502385,-0.3812411,-0.34855744,0.05981714,-3.078323,0.6248002,-0.00061245664,-0.016452082,-0.0016384778,-0.00042490038,0.0050320323,-0.001517498,-0.0013796528,0.47767484,-1.4251918,1.9571861,-2.1006978,-1.5707473,2.4526057,-0.009846699,0.033416413,-0.03931052,0.009567712,-0.003838971,-0.008435802,-0.15322891,0.11492168,-9.557653,0.75084364,47.709274,-0.41154766,-2.2472832,-3.4304886,-0.31729892,-0.055126112,-0.02211523,26.0625,26.8125,25.9375,28.9375,30.0,30.375
0.038052224,-0.86368376,0.8212983,-0.24951465,0.013488119,0.027645933,-0.09308945,-0.38125443,-0.34856027,0.059812315,-3.078278,0.6249063,-0.0006298015,-0.01740475,-0.0021875792,0.00013122695,0.0043604807,-0.0013526143,-0.0022948305,0.47767463,-1.4251435,1.9571365,-2.1006734,-1.5707582,2.4526775,-0.010089617,0.03476794,-0.04242067,0.010869313,-0.0033218423,-0.007763026,-0.22984336,-0.038307227,-9.5385,0.75755644,47.68599,-0.37910652,-2.2255583,-3.471862,-0.30107808,-0.06408823,-0.039368607,26.0625,26.8125,25.9375,28.9375,30.0,30.375
0.04005218,-0.56045055,0.5739446,-0.2822017,0.0150111485,0.025081268,-0.09416528,-0.381323,-0.34856474,0.059844293,-3.0782773,0.62494445,-0.00049641164,-0.01822618,-0.0022346633,6.104815e-05,0.004309289,-0.0017402831,-0.0026697305,0.47765037,-1.425095,1.9570054,-2.100661,-1.5708064,2.4526772,-0.010908912,0.036448866,-0.044295467,0.011382583,-0.0031008061,-0.008206999,-0.21068975,-0.076614454,-9.519346,0.7284641,47.689575,-0.4027346,-2.288898,-3.4671528,-0.29582855,-0.08262806,-0.055646397,26.0625,26.8125,25.9375,28.9375,30.0,30.375
0.04205214,-0.4666489,-0.1139776,-0.25759655,0.01945262,0.023304334,-0.10714203,-0.38134512,-0.34858915,0.059833672,-3.078306,0.62479603,-0.0005880864,-0.019619057,-0.0026131542,0.00095455925,0.004200744,-0.00039042934,-0.0015155862,0.47765028,-1.4249867,1.9568952,-2.1006129,-1.5707711,2.452581,-0.011181239,0.037577853,-0.04791106,0.012622489,-0.0036311215,-0.009630473,-0.1340753,-0.019153614,-9.634268,0.7933669,47.67614,-0.41542855,-2.1605012,-3.3460732,-0.3237147,-0.07355944,-0.054436628,26.0625,26.8125,25.9375,28.9375,30.0,30.375
0.04405217,-0.524576,0.003900949,-0.2692855,0.0010784506,0.01994406,-0.11025265,-0.38138798,-0.34856203,0.059837915,-3.078246,0.62495744,-0.00058019266,-0.02120615,-0.0022362524,0.0011313076,0.0048776036,0.0008605776,-0.0025134652,0.4775779,-1.4249501,1.9568356,-2.100577,-1.5707949,2.452617,-0.012549536,0.039188974,-0.05010493,0.01240905,-0.0048129903,-0.009996961,-0.15322891,0.15322891,-9.481039,0.7418897,47.677036,-0.45929134,-2.1402812,-3.3711512,-0.3282941,-0.087135755,-0.045476146,26.0625,26.8125,25.9375,28.9375,30.0,30.375
0.04605261,-0.7154883,-0.22260468,-0.28890276,-0.005260319,0.02334988,-0.12015976,-0.38143048,-0.34857723,0.05981919,-3.078242,0.62489873,-0.0006099416,-0.021797433,-0.002211098,0.0004422512,0.00636897,-0.00043413832,-0.0025213335,0.4775658,-1.4248174,1.9567269,-2.1005766,-1.5707954,2.4525688,-0.012666306,0.04223218,-0.05221099,0.013309806,-0.0055452213,-0.010102834,-0.2681506,0.17238252,-9.5385,0.78888994,47.7254,-0.4767957,-2.2571962,-3.3304448,-0.30710354,-0.08276768,-0.041259333,26.0625,26.8125,25.9375,28.9375,30.0,30.375
0.04805255,-0.31403187,-0.6180671,-0.36407766,-0.013763066,0.04043844,-0.12967047,-0.38148263,-0.34859103,0.05984166,-3.0782223,0.62493306,-0.00054457784,-0.022958348,-0.0022637409,0.0010758676,0.0061281263,0.00084362726,-0.002864424,0.47756556,-1.4247453,1.9565824,-2.1005285,-1.5708317,2.4525926,-0.013400762,0.04278466,-0.05437546,0.013677204,-0.005922425,-0.010492443,-0.1340753,0.28730422,-9.576807,0.7418897,47.675243,-0.50193816,-2.1303601,-3.4681964,-0.31938162,-0.098495364,-0.062826276,26.0625,26.8125,25.9375,28.9375,30.0,30.375
0.050051965,-0.79649955,-1.0399073,-0.38488427,-0.021405805,0.030481616,-0.13213526,-0.38150406,-0.3485816,0.059833452,-3.0781963,0.6249095,-0.0006019073,-0.024219958,-0.0023353219,0.0021128925,0.0054637115,0.0029008056,-0.0036623725,0.47752926,-1.4246857,1.9565223,-2.1004808,-1.5708321,2.452545,-0.014204816,0.042495776,-0.056477636,0.013936951,-0.0062822914,-0.010496541,-0.17238253,0.36391866,-9.576807,0.7463667,47.70211,-0.51944757,-1.97278,-3.4368458,-0.31725603,-0.11411904,-0.069499,26.0625,26.8125,25.9375,28.9375,30.0,30.375
0.05205175,-1.0828047,-1.760494,-0.3198833,-0.021697564,0.027557837,-0.13516039,-0.38155174,-0.34859943,0.059845246,-3.0782108,0.6248735,-0.000588696,-0.025242336,-0.001886672,0.0011033203,0.0072911973,0.00091110764,-0.0041707684,0.47751677,-1.4246004,1.9563898,-2.1004446,-1.5708321,2.4525082,-0.01548582,0.0464719,-0.05896397,0.01505649,-0.0069941147,-0.011266043,-0.21068975,0.40222588,-9.595961,0.8023209,47.683304,-0.38912818,-2.1077113,-3.4952893,-0.34613705,-0.11040272,-0.082608424,26.0625,26.8125,25.9375,28.9375,30.0,30.375
0.054051675,-1.279124,-1.522461,-0.2846034,-0.03842093,0.021712705,-0.14080632,-0.3816046,-0.3485862,0.05984146,-3.078189,0.62498367,-0.0005860474,-0.027454581,-0.002338654,0.0022704846,0.0077610253,0.004359569,-0.003235648,0.47744495,-1.424528,1.9563159,-2.1004446,-1.5708331,2.452508,-0.015418925,0.048086047,-0.063493036,0.015131086,-0.009006345,-0.012127469,-0.19153613,0.4213795,-9.5385,0.78888994,47.704796,-0.45974708,-2.0914247,-3.2509608,-0.3270043,-0.08993167,-0.076452315,26.0625,26.8125,25.9375,28.9375,30.0,30.375
0.056052167,-1.0246031,-1.5748583,-0.32407105,-0.03528429,0.034950208,-0.1564293,-0.38167,-0.34860903,0.059868295,-3.078212,0.62496924,-0.0005181992,-0.027382014,-0.0015753198,0.00032132718,0.010314974,0.0018975459,-0.003979666,0.4774327,-1.424443,1.9561495,-2.1004093,-1.570845,2.452484,-0.015968984,0.051480114,-0.06273458,0.014342754,-0.010142915,-0.011931242,-0.19153613,0.4405331,-9.576807,0.7396539,47.71286,-0.46186894,-2.1679058,-3.547008,-0.3358158,-0.103973866,-0.082559966,26.0625,26.8125,25.9375,28.9375,30.0,30.375
0.058052,-1.1022506,-1.3016618,-0.26068914,-0.03496013,0.03404103,-0.1587611,-0.3817397,-0.34863177,0.059887126,-3.0782125,0.6250074,-0.0005019691,-0.028944777,-0.002545829,0.0023973268,0.008724541,0.006122707,-0.0034402923,0.47740886,-1.4243236,1.9559563,-2.1003487,-1.5708455,2.452484,-0.015338315,0.050396476,-0.06628191,0.014491933,-0.0106788445,-0.0118374,-0.19153613,0.47884035,-9.423578,0.7486078,47.66091,-0.45972013,-2.0791771,-3.494821,-0.33541888,-0.077421755,-0.08530727,26.0625,26.8125,25.9375,28.9375,30.0,30.375
0.06005186,-0.83098316,-1.0699993,0.055605635,-0.036428373,0.040312454,-0.17715979,-0.38179728,-0.3486303,0.059886474,-3.0781832,0.62500226,-0.00043919473,-0.031946123,-0.0032995085,0.0033916072,0.008189329,0.009071134,-0.0049289297,0.47738457,-1.4242265,1.9558471,-2.1003487,-1.5708941,2.4524603,-0.01619447,0.053788997,-0.07239859,0.014353983,-0.011571082,-0.011199579,-0.2681506,0.4213795,-9.404425,0.7642693,47.675243,-0.44368744,-2.0085735,-3.327116,-0.3215076,-0.07046459,-0.08468359,26.0625,26.8125,25.9375,28.9375,30.0,30.375
0.062051725,-0.77057236,-1.429066,-0.03916951,-0.019094158,0.040653925,-0.1787634,-0.38185686,-0.34864393,0.059883263,-3.0781772,0.62502044,-0.00041671735,-0.030644778,-0.0029145489,0.0011726225,0.01008802,0.004270187,-0.005504562,0.4773607,-1.4241056,1.9557165,-2.1003487,-1.5709051,2.4524486,-0.016014751,0.056768388,-0.07087858,0.014989097,-0.011046402,-0.010445847,-0.19153613,0.49799395,-9.423578,0.7642693,47.688675,-0.51291615,-2.1155603,-3.3927574,-0.30286413,-0.07345297,-0.12263002,26.0625,26.8125,25.9375,28.9375,30.0,30.375
0.0640517,-0.7970554,-1.3238626,0.043372154,-0.024769269,0.029274015,-0.17558874,-0.38192886,-0.34863004,0.059905082,-3.0781496,0.6250145,-0.00035310004,-0.03277018,-0.004110584,0.0025309862,0.0077830115,0.0069054323,-0.0056654117,0.47730044,-1.4240334,1.9555706,-2.1002886,-1.5709528,2.4523883,-0.016387325,0.058267593,-0.07567288,0.014880336,-0.010220185,-0.010656754,-0.11492168,0.49799395,-9.3661175,0.7777002,47.675243,-0.47517487,-2.1106145,-3.2685773,-0.30827445,-0.10552325,-0.12508547,26.0625,26.8125,25.9375,28.9375,30.0,30.375
0.066052556,-0.33577818,-0.7666413,0.13407685,-0.03492429,0.033148255,-0.17810439,-0.3820013,-0.3486561,0.059909236,-3.0781596,0.62509316,-0.00036245794,-0.033698842,-0.004178034,0.0024950206,0.008151218,0.0073655467,-0.00577167,0.47726446,-1.423889,1.9553908,-2.1002648,-1.5709294,2.4524002,-0.016769934,0.059932414,-0.07747644,0.014781286,-0.010762661,-0.010930952,-0.05746084,0.40222588,-9.289502,0.75755644,47.71286,-0.505037,-2.0709667,-3.2463899,-0.28592107,-0.08925045,-0.13328928,26.0625,26.8125,25.9375,28.9375,30.0,30.375
0.068052575,-0.47484705,-0.9411779,0.24571304,-0.023932086,0.020713834,-0.17539464,-0.3820895,-0.34867108,0.059937075,-3.078161,0.6250929,-0.00024163407,-0.034804236,-0.004917059,0.0029036663,0.007217717,0.0080327,-0.0053692157,0.4772405,-1.4237807,1.9551982,-2.100241,-1.5709771,2.4523761,-0.016811768,0.061691407,-0.08047204,0.014993668,-0.010245356,-0.011375185,-0.095768064,0.38307226,-9.270349,0.7351769,47.698532,-0.51560843,-2.0288193,-3.2425957,-0.2956772,-0.12140152,-0.13950323,26.0625,26.8125,25.9375,28.9375,30.0,30.375
0.07005253,-0.16803612,-0.92134285,0.1674794,-0.0098096635,0.029467987,-0.16195178,-0.3821523,-0.34868747,0.059940994,-3.0781772,0.62513536,-0.00022344867,-0.036282934,-0.004749599,0.002961908,0.00839663,0.00886806,-0.005983972,0.4772041,-1.4236721,1.9550651,-2.100241,-1.5709656,2.4523642,-0.017540034,0.06398976,-0.08331411,0.015341777,-0.011681211,-0.011484446,-0.095768064,0.34476504,-9.308656,0.7172743,47.689575,-0.48248455,-2.0399113,-3.1998043,-0.27783546,-0.09196858,-0.1510798,26.0625,26.8125,25.9375,28.9375,30.0,30.375
0.07205244,-0.20393558,-0.516243,0.34953415,-0.0019779904,0.02906294,-0.16332817,-0.38222292,-0.34870437,0.05994093,-3.078157,0.6251305,-0.00017436269,-0.037478328,-0.0052187354,0.0032732284,0.0085603,0.010062198,-0.0051588193,0.47719228,-1.4235277,1.9548978,-2.100229,-1.5710019,2.452352,-0.017355192,0.06586205,-0.08617184,0.015343388,-0.012381329,-0.012121826,-0.1340753,0.34476504,-9.212888,0.7777002,47.66808,-0.49626285,-2.0127392,-3.1557727,-0.24493615,-0.10007349,-0.15121396,26.0625,26.8125,25.9375,28.9375,30.0,30.375
0.07405249,-0.39532074,-0.19080451,0.2873661,0.006524367,0.023143506,-0.16789871,-0.38229728,-0.34872445,0.05995783,-3.078204,0.62510186,-0.00015474157,-0.038738843,-0.0052247634,0.003795681,0.009133262,0.011202801,-0.0054386766,0.47714403,-1.4234194,1.9547299,-2.1002047,-1.5709785,2.45228,-0.017830944,0.067069076,-0.088933736,0.016151572,-0.013417623,-0.012314789,-0.095768064,0.2681506,-9.136273,0.77545905,47.670765,-0.5372141,-2.0255394,-3.141814,-0.24508603,-0.08932437,-0.15789224,26.0625,26.8125,25.9375,28.9375,30.0,30.375
0.076052025,-0.6840492,-0.5537872,0.31743142,0.023425343,0.018153092,-0.16136739,-0.38238478,-0.34873226,0.059961893,-3.0781374,0.6252028,-0.00012430023,-0.03933405,-0.0050385115,0.0019026259,0.011856714,0.0077590444,-0.0056096753,0.47710794,-1.4232496,1.954513,-2.1001441,-1.5710262,2.4523156,-0.018163966,0.07287929,-0.09149641,0.017215783,-0.014258631,-0.012473054,-0.11492168,0.30645782,-9.11712,0.76874626,47.704796,-0.48774004,-2.0923817,-3.1272678,-0.23258919,-0.07642649,-0.18145174,26.0625,26.8125,25.9375,28.9375,30.0,30.375
0.07805188,-0.3513354,-0.1263885,0.3219186,0.0067041595,0.02193776,-0.16157424,-0.38248262,-0.34875864,0.059975617,-3.0781622,0.62515044,-6.8499925e-05,-0.040150635,-0.0058437944,0.0040563536,0.009827237,0.010609829,-0.004874993,0.47707206,-1.4230824,1.954285,-2.1001198,-1.5710381,2.452244,-0.0178005,0.0705956,-0.09415517,0.018691264,-0.013766752,-0.012845062,-0.05746084,0.21068975,-9.136273,0.784413,47.661808,-0.56048816,-2.0346212,-3.0879803,-0.23460239,-0.08849642,-0.1806235,26.0625,26.8125,25.9375,28.9375,30.0,30.375
0.0800519,-0.304604,-0.5154466,0.16411707,0.0026732464,0.015181388,-0.15751235,-0.38253477,-0.34874132,0.05996304,-3.0780606,0.6251679,-4.4827415e-05,-0.040494986,-0.0057760742,0.0032645764,0.010707476,0.007980208,-0.005185105,0.47704786,-1.4229611,1.9541644,-2.1000717,-1.5711225,2.4522438,-0.018512499,0.073597275,-0.09618451,0.020455968,-0.013342293,-0.013245967,-0.15322891,0.24899697,-9.11712,0.71951014,47.664497,-0.5606266,-1.9745724,-3.0919273,-0.2155208,-0.10690805,-0.19937569,26.0625,26.8125,25.9375,28.9375,30.0,30.375
0.08205203,-0.22724786,-0.4239717,0.23064071,-0.008080001,0.016604701,-0.16267699,-0.3826038,-0.34877276,0.059964586,-3.0780787,0.625171,-7.208505e-05,-0.04059189,-0.0058834325,0.0015747988,0.012095671,0.0044054706,-0.0047120573,0.4770238,-1.4228033,1.9539722,-2.1000354,-1.5710977,2.4522195,-0.018673455,0.07823189,-0.09781388,0.021261994,-0.01293614,-0.013879361,-0.21068975,0.17238252,-9.11712,0.77545905,47.660015,-0.47288156,-2.095742,-3.1152782,-0.23371316,-0.104685366,-0.1931598,26.0625,26.8125,25.9375,28.9375,30.0,30.375
0.08405225,-0.7820174,-0.81495345,0.073718295,-0.0032814161,0.02162838,-0.15549867,-0.38269746,-0.34877422,0.059968803,-3.078032,0.6252182,-5.1883635e-05,-0.04196667,-0.005830998,0.0029810162,0.012480294,0.007888923,-0.004482062,0.4769637,-1.4226354,1.9537572,-2.0999753,-1.5711344,2.452195,-0.018765042,0.077316545,-0.1000445,0.021495499,-0.014881748,-0.014196109,-0.2681506,0.24899697,-9.212888,0.7911258,47.672558,-0.614928,-2.0359921,-3.2003307,-0.20503145,-0.10053115,-0.20811264,26.0625,26.8125,25.9375,28.9375,30.0,30.375
0.086052485,-0.7722361,-0.7653826,0.034231268,-0.007267754,0.032934245,-0.15495561,-0.38278216,-0.34879342,0.059993092,-3.0780447,0.6252207,3.572907e-06,-0.042167705,-0.005537449,0.0014520572,0.014047601,0.0047764215,-0.004569885,0.4769276,-1.4225141,1.9535521,-2.0999272,-1.5711468,2.452159,-0.019490846,0.08118932,-0.10114794,0.022209644,-0.014845816,-0.014833681,-0.21068975,0.2681506,-9.289502,0.800085,47.701214,-0.55706584,-2.0884247,-3.1335778,-0.20227629,-0.0737326,-0.21352878,26.0625,26.8125,25.9375,28.9375,30.0,30.375
0.08805231,-0.96569437,-0.64120245,0.018381523,-0.0061978363,0.032559298,-0.15755132,-0.38284305,-0.3488185,0.05996691,-3.077999,0.6252112,-8.920302e-05,-0.04210348,-0.0055726455,0.0003557773,0.014906904,0.0022388478,-0.004134297,0.47691548,-1.4222969,1.95335,-2.099867,-1.5711464,2.4521468,-0.019626776,0.08400174,-0.10204063,0.022936858,-0.01444607,-0.015404161,-0.2681506,0.24899697,-9.32781,0.76874626,47.691364,-0.6410567,-2.0689347,-3.363391,-0.20292938,-0.070305675,-0.23117986,26.0625,26.875,25.9375,28.9375,30.0,30.375
0.09005217,-0.6649762,-0.6779908,0.14019881,-0.0076589556,0.036519736,-0.15941277,-0.3829334,-0.34879434,0.059952926,-3.0779026,0.6252479,-5.04175e-05,-0.043058593,-0.006516567,0.00061666104,0.013847811,0.0022972743,-0.0030472104,0.4768436,-1.422128,1.9531807,-2.0998309,-1.5712303,2.4521103,-0.019414805,0.08621579,-0.105293564,0.02343157,-0.013539176,-0.016278742,-0.1340753,0.24899697,-9.308657,0.78217715,47.688675,-0.566026,-2.1498015,-3.0830579,-0.18435353,-0.092856646,-0.21844691,26.0625,26.875,25.9375,28.9375,30.0,30.375
0.092052124,-0.5972045,-0.54778147,0.056118827,-0.0123746665,0.028475527,-0.15547858,-0.38303033,-0.3488267,0.05996794,-3.0779195,0.62519336,-1.0537971e-05,-0.043620832,-0.006226465,0.00023169028,0.01435161,0.0016377125,-0.0035755415,0.47681928,-1.4219472,1.9529289,-2.0997832,-1.5712422,2.45205,-0.020347241,0.08770864,-0.10618398,0.023646118,-0.013685439,-0.016682265,-0.11492168,0.24899697,-9.346964,0.7239871,47.691364,-0.5758686,-2.0229478,-3.454183,-0.18010429,-0.08677131,-0.23239893,26.0625,26.875,25.9375,28.9375,30.0,30.375
0.094052106,-0.53003585,-0.5887888,-0.016454488,-0.016014896,0.024610827,-0.15555535,-0.38310915,-0.34885606,0.05996601,-3.0779366,0.62523514,-2.2003167e-05,-0.04432722,-0.0067092404,0.00040694978,0.013809692,0.0018268902,-0.0028188794,0.47678316,-1.4217787,1.9527377,-2.0997708,-1.5712184,2.4520378,-0.020389982,0.08908026,-0.1082243,0.02389604,-0.013295023,-0.017481428,-0.17238252,0.2873042,-9.461885,0.78217715,47.68599,-0.6401033,-2.0756788,-3.4142942,-0.16812262,-0.080370665,-0.23843682,26.0625,26.875,25.9375,28.9375,30.0,30.375
0.09605164,-0.25619748,-0.5366227,0.018246492,-0.02328595,0.03030384,-0.159527,-0.38317236,-0.34885994,0.059961986,-3.0778813,0.62522376,-7.304278e-05,-0.044927135,-0.0064831884,0.00022429874,0.014689079,0.001584585,-0.0029241927,0.4767471,-1.421622,1.952546,-2.099675,-1.5712422,2.4520018,-0.020902758,0.09045901,-0.10951771,0.024430832,-0.013968189,-0.01788598,-0.21068975,0.28730422,-9.404425,0.7709874,47.690468,-0.59321827,-2.0608015,-3.4922645,-0.15289503,-0.07655704,-0.24978602,26.0625,26.875,25.9375,28.9375,30.0,30.375
0.098052025,-0.7483819,-0.9934159,-0.071666874,-0.011336536,0.019877667,-0.15227735,-0.3832743,-0.34887087,0.05997235,-3.0778205,0.62524956,-3.1035106e-05,-0.045105178,-0.0068761604,-9.453341e-05,0.014417172,0.00059658993,-0.0020809367,0.4767111,-1.4214293,1.9522828,-2.099591,-1.5713018,2.45199,-0.020812968,0.092068225,-0.11072478,0.024777163,-0.013275922,-0.018639928,-0.1340753,0.24899697,-9.461885,0.7530795,47.655537,-0.6164195,-2.048472,-3.6043282,-0.13867837,-0.1053472,-0.25033566,26.0625,26.875,25.9375,28.9375,30.0,30.375
0.10005209,-0.6162611,-0.82008374,-0.25107214,-0.019702015,0.024365174,-0.15318091,-0.38339266,-0.34888282,0.05998185,-3.0778317,0.62525034,5.0408813e-05,-0.046049297,-0.0072025564,-7.419257e-05,0.014153164,0.00031893156,-0.0016577325,0.4766389,-1.4212483,1.9520539,-2.0995905,-1.5713261,2.451917,-0.02132634,0.09412162,-0.11327766,0.025398869,-0.012918079,-0.019576414,-0.19153613,0.30645782,-9.500193,0.7777002,47.689575,-0.619137,-2.0142002,-3.4867792,-0.11450881,-0.09134221,-0.25484222,26.0625,26.875,25.9375,28.9375,30.0,30.375
0.10205209,-0.47177204,-1.1606203,-0.044889595,-0.0031665654,0.027536713,-0.15242805,-0.3834985,-0.34891757,0.059991118,-3.0778425,0.62527126,7.766755e-05,-0.04645072,-0.00757299,-9.7466764e-05,0.014284386,-0.0005933401,-0.0008428138,0.47660297,-1.4210435,1.9517902,-2.0995543,-1.5713261,2.4518929,-0.021227634,0.095831975,-0.11551786,0.02679747,-0.012617916,-0.020292439,-0.11492168,0.30645782,-9.500193,0.8224646,47.666286,-0.6659677,-1.9984028,-3.692998,-0.09011388,-0.088638514,-0.26501933,26.0625,26.875,25.9375,28.9375,30.0,30.375
0.104052044,-0.0546076,-0.18914337,0.041610066,-0.020204574,0.032164343,-0.15927173,-0.38356733,-0.34891567,0.05996003,-3.0777402,0.6252888,7.705326e-06,-0.047517087,-0.00796283,0.00033754704,0.014305021,-0.00020936326,-0.00084043766,0.47656694,-1.4208269,1.9515971,-2.0994823,-1.5713738,2.451881,-0.021383999,0.09749011,-0.118699044,0.02798799,-0.012818801,-0.02044799,-0.114921674,0.3256114,-9.461885,0.8023209,47.679718,-0.6340023,-1.9238077,-3.5595894,-0.10049452,-0.10667336,-0.26361775,26.0625,26.875,25.9375,28.9375,30.0,30.375
0.10605253,-0.58980465,-0.5336695,-0.12815501,-0.0052241147,0.011635449,-0.15113606,-0.38368848,-0.34894687,0.05999286,-3.0777717,0.62531376,0.00010719193,-0.049062856,-0.008114396,0.0012089277,0.014091929,0.0012486377,-0.0011455821,0.4765187,-1.4206583,1.951321,-2.0994465,-1.5713862,2.4518445,-0.022215683,0.09846925,-0.12204679,0.028963778,-0.013302331,-0.020972885,-0.05746084,0.3256114,-9.404425,0.800085,47.72719,-0.6310115,-2.0793684,-3.5537434,-0.07971996,-0.09504095,-0.26056552,26.0625,26.875,25.9375,28.9375,30.0,30.375
0.10805248,-0.70912796,-0.64920735,-0.09909438,-0.0038548745,0.0046421397,-0.14600736,-0.38379493,-0.34895068,0.060008395,-3.0777383,0.6252494,0.00013813972,-0.04988936,-0.0083656125,0.0013524739,0.014557251,0.0010874639,-0.00080669095,0.47645858,-1.4204777,1.9510568,-2.0993497,-1.5714344,2.4517486,-0.022300515,0.10032143,-0.12479499,0.030215548,-0.013645782,-0.02139436,-0.05746084,0.34476504,-9.3661175,0.75755644,47.684196,-0.6948558,-1.8391745,-3.489376,-0.07444607,-0.10115167,-0.27229482,26.0625,26.875,25.9375,28.9375,30.0,30.375
0.1100523,-0.3265705,-0.9295072,-0.29238358,-0.004039924,0.015586314,-0.1489969,-0.38387406,-0.34895608,0.059972074,-3.0776608,0.6252711,5.695773e-05,-0.05103282,-0.008758725,0.0017720958,0.014596179,0.001631591,-0.0001728403,0.47641066,-1.4202366,1.9508528,-2.0993016,-1.5714582,2.4517243,-0.022461036,0.10207099,-0.12800583,0.031210387,-0.01393715,-0.022185331,-0.05746084,0.4405331,-9.500193,0.784413,47.687782,-0.7104291,-1.9482962,-3.5300078,-0.06175094,-0.076693326,-0.27258015,26.0625,26.875,25.9375,28.9375,30.0,30.375
0.11205222,-0.4810128,-0.92037517,-0.41411856,-0.017946577,0.014802732,-0.14399794,-0.38401312,-0.3489925,0.060020417,-3.0777087,0.6252801,0.00021062787,-0.0511451,-0.008918391,0.0016668603,0.014731542,0.00057413476,0.0005129549,0.4763626,-1.4200683,1.9505414,-2.0992653,-1.5714821,2.451676,-0.022508664,0.10315,-0.12929006,0.03241425,-0.013570808,-0.022920433,-0.11492168,0.34476504,-9.500193,0.784413,47.66091,-0.743739,-1.7972631,-3.499975,-0.06381566,-0.10782939,-0.27248722,26.0625,26.875,25.9375,28.9375,30.0,30.375
0.11405207,-0.56312114,-1.6055506,-0.4410726,-0.016528435,0.02450479,-0.1490608,-0.38407314,-0.34901494,0.059973028,-3.0776162,0.62522256,7.127565e-05,-0.052239038,-0.009477791,0.001766847,0.015308538,0.00060934515,0.000999395,0.47636268,-1.4197911,1.950313,-2.099181,-1.5715064,2.451652,-0.022175768,0.10592761,-0.13298967,0.033570822,-0.014108193,-0.023069037,-0.05746084,0.34476504,-9.634268,0.83589023,47.668976,-0.7699468,-1.8190359,-3.507628,-0.067436464,-0.092850864,-0.2842803,26.0625,26.875,25.9375,28.9375,30.0,30.375
0.11605236,-0.9625041,-1.706416,-0.60114396,-0.026479132,0.020683015,-0.13071895,-0.38417715,-0.34903947,0.05999151,-3.0776143,0.6252413,4.2662115e-05,-0.053012844,-0.009770572,0.0019818349,0.014533119,1.8532557e-05,0.0003420289,0.47630242,-1.4195983,1.9500254,-2.0990732,-1.571494,2.451604,-0.022977518,0.107307546,-0.1353388,0.034705378,-0.013151433,-0.02321417,-0.038307227,0.38307226,-9.576807,0.84484416,47.690468,-0.76126516,-1.7998697,-3.5369735,-0.06679756,-0.10420254,-0.2903735,26.0625,26.875,25.9375,28.9375,30.0,30.375
0.11805228,-0.6118758,-1.4631871,-0.4635339,-0.026302757,0.030316455,-0.1510479,-0.3843105,-0.34905252,0.06001424,-3.0775824,0.6252722,0.0001451439,-0.053811405,-0.009569254,0.0019337679,0.016088562,-0.0005445122,0.00042278518,0.47624233,-1.4193934,1.949725,-2.0990126,-1.571555,2.4515674,-0.023329427,0.10931612,-0.13796553,0.036538526,-0.014276979,-0.023643697,-0.076614454,0.40222588,-9.595961,0.80679786,47.684196,-0.8202348,-1.8367689,-3.5234103,-0.07822828,-0.12805237,-0.3021105,26.0625,26.875,25.9375,28.9375,30.0,30.375
0.12005219,-0.52457416,-1.2039338,-0.47207448,-0.027448367,0.030838387,-0.14083809,-0.38441557,-0.3491005,0.06003246,-3.077615,0.62522155,0.00018575075,-0.05573263,-0.010570732,0.0026390406,0.01529188,0.000617442,0.0004633418,0.47623026,-1.419188,1.949437,-2.098964,-1.5715545,2.4515197,-0.023425227,0.11229876,-0.14321199,0.037403572,-0.014110317,-0.02377804,-0.019153614,0.38307226,-9.615114,0.8403672,47.69763,-0.8247546,-1.830399,-3.432158,-0.06459646,-0.11512387,-0.31921738,26.0625,26.875,25.9375,28.9375,30.0,30.375
0.12205204,-0.7251505,-1.1853012,-0.6606938,-0.015632642,0.016521467,-0.14327262,-0.3845244,-0.34908327,0.06002591,-3.077527,0.62522197,0.0001968131,-0.05639064,-0.0107432315,0.00069958647,0.016943127,-0.0010003864,0.0011901519,0.4761463,-1.418982,1.9491972,-2.0988815,-1.5716265,2.4514475,-0.023239896,0.11755702,-0.14440396,0.03553128,-0.014845308,-0.024315549,-0.038307227,0.36391866,-9.615114,0.81351066,47.675243,-0.849279,-2.0125873,-3.353817,-0.038384564,-0.09503628,-0.31216887,26.0625,26.875,25.9375,28.9375,30.0,30.375
0.1240521,-0.51220423,-0.6211097,-0.4463297,-0.022321966,0.02344833,-0.14931639,-0.3846498,-0.3491351,0.06005501,-3.0775692,0.62521017,0.00027016352,-0.0580607,-0.011938557,0.00278137,0.014245589,0.0028534762,0.0020449434,0.4761224,-1.4187663,1.9488724,-2.0988333,-1.5716261,2.451411,-0.0230525,0.116668835,-0.14815946,0.035510067,-0.0142214345,-0.024983484,-0.095768064,0.34476504,-9.595961,0.8314132,47.679718,-0.86340535,-1.835484,-3.180142,-0.011825022,-0.12471166,-0.33289373,26.0625,26.875,25.9375,28.9375,30.0,30.375
0.12605226,-0.61985344,-1.3465382,-0.459942,-0.012872077,0.024696017,-0.14376871,-0.3847497,-0.3491464,0.06004532,-3.0774915,0.6251752,0.00019903017,-0.05836196,-0.011706071,0.0008908335,0.017210469,-0.0012514802,0.0025223037,0.47607428,-1.418512,1.948573,-2.0987008,-1.5716628,2.4513512,-0.02324493,0.12228603,-0.15076177,0.03750294,-0.014979209,-0.025648667,-0.17238252,0.45968673,-9.595961,0.81351066,47.688675,-0.9257475,-2.2017825,-3.3406126,-0.011361629,-0.1362758,-0.3264742,26.0625,26.875,25.9375,28.9375,30.0,30.375
0.12805213,-0.9702669,-1.3134979,-0.42400092,-0.02067598,0.015148262,-0.13718103,-0.38488352,-0.34917328,0.06004759,-3.0774775,0.6252287,0.0002510086,-0.0593597,-0.012177032,0.0016346723,0.01632613,-0.00034122926,0.0019275552,0.47601432,-1.4182597,1.9482731,-2.098677,-1.5716866,2.4513266,-0.0235511,0.1229378,-0.15341584,0.038288448,-0.01461396,-0.025360027,-0.15322891,0.47884035,-9.595961,0.7709874,47.693153,-0.98375905,-1.9014716,-3.2275412,0.0046687275,-0.12606487,-0.32329267,26.0625,26.875,25.9375,28.9375,30.0,30.375
0.13005242,-0.5470829,-0.9076654,-0.4199325,-0.046323378,0.031694185,-0.1525546,-0.38499713,-0.3491941,0.060056534,-3.07744,0.62510616,0.0002526544,-0.05962934,-0.011888208,0.0011583096,0.018385608,-0.001893202,0.0012662987,0.47597826,-1.4180187,1.9479488,-2.0985563,-1.5717353,2.451219,-0.023578469,0.12511677,-0.15531853,0.040338356,-0.015733572,-0.024722328,-0.19153613,0.59376204,-9.595961,0.83365434,47.689575,-0.9660802,-1.975664,-3.2124107,-0.010426928,-0.13241276,-0.34539267,26.0625,26.875,25.9375,28.9375,30.0,30.375
0.1320524,-1.0751456,-1.7691171,-0.38553017,-0.03633035,0.03398668,-0.14466332,-0.38511574,-0.34922883,0.060064897,-3.0774252,0.6251795,0.00025032263,-0.060707558,-0.012629163,0.0016638957,0.018053897,-0.0014773152,0.0015014021,0.4759304,-1.4177778,1.947637,-2.0984843,-1.5717348,2.451219,-0.023311753,0.12707049,-0.15902147,0.041564886,-0.015634928,-0.02468908,-0.22984336,0.51714754,-9.5385,0.8314132,47.674347,-1.02506,-1.8987114,-3.4165616,-0.017282419,-0.14760475,-0.37310714,26.0625,26.875,25.9375,28.9375,30.0,30.375
0.1340524,-0.9570471,-1.5797607,0.07665782,-0.050218932,0.047155853,-0.14968453,-0.385243,-0.3492522,0.060070906,-3.0773957,0.6251919,0.0002567191,-0.060745433,-0.012694158,0.0007964977,0.01846241,-0.0023759697,0.002946668,0.47587028,-1.4175249,1.9473141,-2.0984008,-1.5717586,2.4511707,-0.023249086,0.12889983,-0.1589641,0.040660888,-0.015590236,-0.026071204,-0.21068975,0.4405331,-9.461885,0.77545905,47.661808,-1.0305436,-1.9171109,-3.4238553,-0.0004994073,-0.14829393,-0.36724508,26.0625,26.875,25.9375,28.9375,30.0,30.375
0.13605262,-0.95654684,-1.2984862,0.27626863,-0.03633689,0.040531468,-0.14911683,-0.3853688,-0.34929278,0.060078837,-3.077377,0.62513,0.00031632054,-0.061948393,-0.012215615,0.0008210253,0.018754428,-0.003244091,0.0025067688,0.47585765,-1.4172602,1.9469784,-2.0983403,-1.5718068,2.451122,-0.02527634,0.13064592,-0.16142236,0.04227469,-0.01545468,-0.027657906,-0.17238252,0.36391866,-9.32781,0.8090337,47.694946,-1.0560739,-1.9146409,-3.42524,0.0073204245,-0.14851457,-0.3556819,26.0625,26.875,25.9375,28.9375,30.0,30.375
0.13805257,-0.9651487,-0.66905475,0.33723396,-0.015976915,0.028289786,-0.15348954,-0.3855055,-0.3493182,0.060087252,-3.0773814,0.62509227,0.00033947115,-0.062381163,-0.011797496,0.00021050232,0.020295637,-0.005317997,0.0020121417,0.47578523,-1.4170069,1.9466547,-2.0982792,-1.5718192,2.4510257,-0.026126212,0.13307205,-0.16329774,0.044273123,-0.015875049,-0.02801152,-0.17238252,0.3256114,-9.289502,0.75084364,47.695843,-1.0337914,-1.7387288,-3.4477766,0.008595527,-0.16247436,-0.35862896,26.0625,26.875,25.9375,28.9375,30.0,30.375
0.14005266,-0.331827,-0.14800847,0.6844048,0.0040428406,0.027681218,-0.14646976,-0.3856564,-0.3493543,0.06011962,-3.0773854,0.625092,0.0004960037,-0.06249288,-0.011668483,-0.0021543507,0.023244314,-0.009854597,0.00331616,0.4757494,-1.4167764,1.946308,-2.098243,-1.5718793,2.4509895,-0.026097804,0.13930881,-0.16536157,0.04548166,-0.016419198,-0.029285554,-0.1340753,0.19153613,-9.078813,0.77545905,47.694946,-1.1081593,-1.9349496,-3.463859,0.006728962,-0.1646836,-0.3531834,26.0625,26.875,25.9375,28.9375,30.0,30.375
0.14205259,-0.44676444,0.42618552,0.79925656,0.025820477,0.0074800244,-0.15016422,-0.38579455,-0.3493808,0.060119484,-3.0773518,0.6251412,0.00047939765,-0.06374656,-0.012227409,0.00056455994,0.020886635,-0.005879921,0.0048453365,0.47567725,-1.4164897,1.9459599,-2.098159,-1.5718912,2.4509525,-0.026414791,0.1360413,-0.16818976,0.04695944,-0.016149359,-0.031131405,-0.095768064,0.21068975,-8.983045,0.98807013,47.67614,-1.126032,-1.7114623,-3.4582026,0.024489395,-0.15664786,-0.3443773,26.0625,26.875,25.9375,28.9375,30.0,30.375
0.14405249,0.013853289,0.74178034,0.834912,0.041148517,0.004769098,-0.15100306,-0.38591713,-0.34940657,0.060125574,-3.0773144,0.62509495,0.0005090922,-0.0637103,-0.012357965,-6.4103224e-05,0.022650909,-0.008174549,0.0052804463,0.47564152,-1.4162363,1.9456357,-2.0980742,-1.5719393,2.450893,-0.025809405,0.13872626,-0.17041112,0.049343705,-0.016667226,-0.0309588,-0.1340753,0.17238252,-8.90643,0.7866488,47.66987,-1.2065976,-1.9137516,-3.476157,0.016254136,-0.1785302,-0.35190272,26.0625,26.875,25.9375,28.9375,30.0,30.375
0.14605226,-0.22758092,0.8483038,0.90040874,0.036936026,-0.0041097035,-0.15654977,-0.38604805,-0.3494359,0.060128786,-3.0773082,0.624998,0.00048753488,-0.064023696,-0.011973777,-0.0005400911,0.023777135,-0.0111839725,0.0035777555,0.47558105,-1.4159592,1.9452881,-2.097977,-1.5719513,2.450773,-0.027004478,0.14105262,-0.17276339,0.052558687,-0.016289806,-0.03045069,-0.1340753,0.15322891,-8.734048,0.7665104,47.71465,-1.1703627,-1.6937325,-3.498685,-0.026735242,-0.18768528,-0.36996174,26.0625,26.875,25.9375,28.9375,30.0,30.375
0.14805222,-0.32637727,0.25684234,0.8996951,0.041901935,-0.005925591,-0.14557678,-0.38616607,-0.34946096,0.06013628,-3.0772555,0.6250447,0.00046342204,-0.06425527,-0.010963617,-0.0009271059,0.025960088,-0.014055484,0.0033256141,0.47553256,-1.4157068,1.9449533,-2.0978563,-1.5719751,2.4507606,-0.028584408,0.14257899,-0.17452528,0.056345496,-0.01691414,-0.03177614,-0.11492168,0.05746084,-8.734048,0.7329411,47.691364,-1.1075335,-1.738534,-3.481565,-0.05507616,-0.20307146,-0.35617173,26.0625,26.875,25.9375,28.9375,30.0,30.375
0.15005223,-0.50232947,0.2667217,0.98338264,0.02936749,-0.0048516775,-0.1457981,-0.38631204,-0.34948945,0.060142227,-3.0772204,0.6249969,0.0004667993,-0.064971216,-0.011290374,-0.0008803777,0.026825802,-0.01601697,0.0053480067,0.47547257,-1.4154053,1.9445685,-2.097747,-1.5720114,2.4506755,-0.028728947,0.1454225,-0.17873494,0.05984626,-0.016790826,-0.03394113,-0.1340753,0.05746084,-8.848969,0.8179876,47.694054,-1.1381834,-1.7492385,-3.355867,-0.10442805,-0.20674992,-0.33816755,26.0625,26.875,25.9375,28.9375,30.0,30.375
0.15205212,-0.06340002,0.009194863,0.8224909,0.02390734,0.016623136,-0.1513518,-0.386444,-0.34950367,0.060143117,-3.0771663,0.62496644,0.0004408674,-0.06650063,-0.011425114,6.3627034e-05,0.02718752,-0.015752515,0.005485332,0.47540027,-1.4151285,1.9442209,-2.0976264,-1.5720476,2.4505913,-0.029583784,0.14701885,-0.18345399,0.06289721,-0.017241012,-0.03492953,-0.24899697,0.11492168,-8.829816,0.92093146,47.661808,-1.206606,-1.7309822,-3.349684,-0.14983697,-0.20764257,-0.32025433,26.0625,26.875,25.9375,28.9375,30.0,30.375
0.15405193,-0.33571684,0.24842097,0.69154,0.017983437,0.023202805,-0.1550269,-0.38655016,-0.34953147,0.060130216,-3.0770717,0.62490916,0.00032652673,-0.0676883,-0.010496942,-0.0007477316,0.029683068,-0.018359631,0.004294792,0.47537547,-1.4148147,1.9438485,-2.0974457,-1.5720838,2.4505432,-0.031632748,0.15082923,-0.18667477,0.06576865,-0.018272692,-0.03578183,-0.19153613,0.17238252,-8.963891,0.842603,47.64658,-1.0504547,-1.879994,-3.21214,-0.18209144,-0.2203593,-0.31011343,26.0625,26.875,25.9375,28.9375,30.0,30.375
0.15605173,-0.76710266,-0.1379994,0.30791062,0.009838273,0.029534338,-0.14270575,-0.38666645,-0.3495292,0.060103938,-3.0769334,0.6249365,0.00022170287,-0.06808851,-0.010951447,-0.0012967063,0.030823193,-0.020215712,0.0061501707,0.47530377,-1.4145014,1.9435128,-2.0972898,-1.5721439,2.4505064,-0.031072112,0.15417154,-0.18973517,0.06765406,-0.018447617,-0.037072115,-0.21068975,0.21068975,-9.078813,0.78217715,47.67793,-1.1170634,-1.7474787,-3.3622205,-0.23427305,-0.20773715,-0.28855553,26.0625,26.875,25.9375,28.9375,30.0,30.375
0.15805258,-1.2920879,-0.6413973,0.39815894,-0.013904471,0.039264087,-0.15255535,-0.38679603,-0.3495673,0.060105506,-3.0769012,0.62481296,0.0001700343,-0.067911826,-0.010880924,-0.00087991386,0.031049764,-0.020346455,0.0075940676,0.4752678,-1.4141893,1.9431175,-2.0971458,-1.5721678,2.4503977,-0.030929532,0.15338245,-0.1901422,0.069067106,-0.018591724,-0.038372207,-0.2681506,0.30645782,-9.212888,0.7418897,47.668976,-1.1374555,-1.6438992,-3.3467445,-0.2924874,-0.2130919,-0.27516624,26.0625,26.875,25.9375,28.9375,30.0,30.375
0.16005255,-1.5479804,-1.386875,0.1262244,-0.03143333,0.044223413,-0.1431883,-0.38695368,-0.34955427,0.06011466,-3.0767858,0.62486553,0.00014945447,-0.06937175,-0.011129771,-0.0009821432,0.030981366,-0.019850286,0.0084481,0.47514746,-1.4139001,1.9427232,-2.096966,-1.5722402,2.4503253,-0.031684246,0.15608843,-0.19298321,0.06872274,-0.018773463,-0.03997732,-0.36391866,0.36391866,-9.251195,0.7777002,47.696735,-1.2160343,-1.7072682,-3.325008,-0.33584642,-0.2459684,-0.2588702,26.0625,26.875,25.9375,28.9375,30.0,30.375
0.16205245,-1.7485273,-1.6915429,0.016786728,-0.05578324,0.045895476,-0.1426166,-0.38708472,-0.34959477,0.060099006,-3.0767572,0.62474424,4.5756722e-05,-0.07142798,-0.011381249,-0.00064891996,0.029912066,-0.017434726,0.008551901,0.4750991,-1.4135511,1.9423274,-2.0968354,-1.5722402,2.450205,-0.03299197,0.15797015,-0.19550727,0.066725396,-0.018944303,-0.041385047,-0.38307226,0.45968673,-9.404425,0.85826975,47.684196,-1.08594,-1.6891932,-3.3927927,-0.3478179,-0.24219646,-0.21620381,26.0625,26.875,25.9375,28.9375,30.0,30.375
0.16405238,-1.2691557,-2.3090332,-0.09259977,-0.06247915,0.06919821,-0.14712322,-0.38722086,-0.3496022,0.06009303,-3.0766537,0.624722,-1.2069086e-05,-0.07375855,-0.0112924725,-0.00030526402,0.029304534,-0.014296864,0.007993702,0.47502652,-1.4132382,1.941943,-2.096669,-1.5723003,2.4501321,-0.034667745,0.15967801,-0.19771945,0.06415905,-0.01985747,-0.042496562,-0.4213795,0.4213795,-9.653421,0.8291774,47.68599,-1.0711038,-1.6244564,-3.3926759,-0.3503645,-0.22952712,-0.18923637,26.0625,26.875,25.9375,28.9375,30.0,30.375
0.16605231,-1.6918247,-2.006394,-0.31332892,-0.062385958,0.056451835,-0.14527784,-0.38738233,-0.34962532,0.06011114,-3.0766065,0.624712,7.3283176e-05,-0.075212136,-0.0119442195,0.0002950167,0.02777897,-0.010561789,0.008932979,0.47496653,-1.4129498,1.9415482,-2.0965745,-1.5723728,2.4500723,-0.03459221,0.16005605,-0.19881815,0.060856003,-0.020221092,-0.043358453,-0.4405331,0.38307226,-9.576807,0.8314132,47.701214,-1.1462748,-1.6085339,-3.4084044,-0.3434825,-0.22528198,-0.17089151,26.0625,26.875,25.9375,28.9375,30.0,30.375
0.16805218,-1.3040253,-1.6189562,-0.28308624,-0.04913164,0.06676261,-0.15105388,-0.38754195,-0.34964243,0.060087454,-3.0765555,0.6247209,5.71832e-06,-0.075690605,-0.0122177815,-0.0015213849,0.027496254,-0.012534469,0.008331162,0.4748584,-1.4125878,1.9411663,-2.096491,-1.5723842,2.4499764,-0.03525773,0.16430126,-0.19908227,0.058493175,-0.019079015,-0.043423064,-0.51714754,0.40222588,-9.481039,0.78888994,47.70659,-1.1509948,-1.708561,-3.5438185,-0.32635254,-0.258251,-0.15598187,26.0625,26.875,25.9375,28.9375,30.0,30.375
0.17005219,-1.4207606,-1.2537527,-0.35804713,-0.035620548,0.05900044,-0.14217663,-0.38769266,-0.34968862,0.06011013,-3.0765474,0.6246807,2.708954e-06,-0.07808249,-0.012875032,-0.002712909,0.026228225,-0.010039071,0.008046024,0.47480994,-1.4122859,1.9407347,-2.09635,-1.5723962,2.4499042,-0.036241587,0.16918176,-0.20064537,0.052374188,-0.01911226,-0.044118993,-0.38307226,0.38307226,-9.595961,0.7777002,47.696735,-1.0516376,-1.7433661,-3.5504375,-0.2773688,-0.26357776,-0.11599223,26.0625,26.875,25.9375,28.9375,30.0,30.375
0.17205203,-1.4007044,-1.309946,-0.37314233,-0.018260723,0.052174393,-0.14233959,-0.38784122,-0.3497144,0.06007497,-3.0764549,0.62454605,-1.8847002e-05,-0.08031788,-0.013504797,-0.0021379113,0.025120001,-0.006636954,0.0068381988,0.47477376,-1.4118893,1.940339,-2.0962665,-1.5724801,2.4497962,-0.03677708,0.17117967,-0.20378022,0.049977724,-0.019697657,-0.043441225,-0.34476507,0.3256114,-9.691729,0.7418897,47.691364,-1.0475537,-1.8927552,-3.6184306,-0.22963777,-0.26637217,-0.10836105,26.0625,26.875,25.9375,28.9375,30.0,30.375
0.17405243,-1.0701905,-0.64094836,-0.4366724,-0.027242275,0.049658228,-0.14986677,-0.38802123,-0.34972414,0.060076594,-3.076401,0.6245738,3.7523077e-05,-0.08107997,-0.013537559,-0.0034834177,0.025491044,-0.007971483,0.005108596,0.47466558,-1.4115635,1.9399437,-2.0961955,-1.5725402,2.4497125,-0.037562806,0.17494616,-0.20478415,0.048567876,-0.019423721,-0.04249693,-0.3256114,0.3256114,-9.5385,0.86945957,47.67614,-1.1306883,-1.9142336,-3.7016554,-0.1828162,-0.2952117,-0.09556697,26.0625,26.875,25.9375,28.9375,30.0,30.375
0.17605248,-1.1620655,-1.1950474,-0.35424066,-0.0151724955,0.03653012,-0.14532693,-0.38818508,-0.3497723,0.060071368,-3.076391,0.6245534,-2.1760516e-05,-0.08186599,-0.013475547,-0.0038000452,0.025748296,-0.008768198,0.0034992197,0.47459337,-1.4111904,1.9395007,-2.0960877,-1.5725282,2.449629,-0.038448323,0.17701307,-0.20664838,0.049191475,-0.019292938,-0.041771747,-0.24899697,0.28730422,-9.557653,0.89631605,47.694946,-1.0646874,-2.0105567,-3.7666163,-0.19316009,-0.29046604,-0.09266348,26.0625,26.875,25.9375,28.9375,30.0,30.375
0.17805254,-0.3568514,-0.8103761,-0.37533185,-0.018606529,0.041058622,-0.15158291,-0.3883487,-0.3498323,0.060077775,-3.0763998,0.6244765,8.48042e-05,-0.08489272,-0.014535784,-0.0022270512,0.024021074,-0.0034305404,0.003957776,0.47458112,-1.4108537,1.9390925,-2.0960648,-1.5725769,2.449568,-0.038731843,0.1786139,-0.2116608,0.047065694,-0.02021082,-0.042509172,-0.13407528,0.24899697,-9.519346,0.7553206,47.647476,-1.0403653,-1.9965571,-3.6699283,-0.13823676,-0.30270827,-0.087201945,26.0625,26.875,25.9375,28.9375,30.0,30.375
0.1800524,-0.6063654,-0.7164171,-0.3730821,-0.017101416,0.022189846,-0.14818823,-0.38850993,-0.34983185,0.06005852,-3.0763001,0.624534,-2.6160185e-05,-0.08761321,-0.015656145,-0.0009307284,0.022013428,0.00021386727,0.0020864066,0.47444898,-1.4104925,1.9386843,-2.0959089,-1.5726007,2.4494848,-0.039269626,0.18076503,-0.21692747,0.04602082,-0.020108057,-0.041170828,-0.22984336,0.24899697,-9.557653,0.7709874,47.664497,-1.0806205,-2.093641,-3.500452,-0.081973374,-0.3262003,-0.07038646,26.0625,26.875,25.9375,28.9375,30.0,30.375
0.18205237,-1.1021585,-1.0762099,-0.14713794,-0.0040396065,0.011861028,-0.1402663,-0.38873938,-0.34986067,0.060100745,-3.076295,0.6244775,0.00018009469,-0.088380404,-0.015217835,-0.0013446028,0.023638692,-0.0018034298,-0.0019517145,0.47435257,-1.4101548,1.9381818,-2.0958364,-1.5726966,2.4493542,-0.040373888,0.18348403,-0.21978189,0.04869532,-0.020625176,-0.03823607,-0.28730422,0.24899697,-9.519346,0.81351066,47.66987,-1.0235841,-2.1019945,-3.4538393,-0.0862387,-0.31892866,-0.10584061,26.0625,26.875,25.9375,28.9375,30.0,30.375
0.18405232,-0.545239,-0.7296729,-0.16106945,-0.008547658,0.027053727,-0.14829575,-0.38890707,-0.34988642,0.06008656,-3.0762267,0.62452036,0.00015443841,-0.089336276,-0.015451383,-0.0013017801,0.02442992,-0.0021761914,-0.0024448645,0.47426862,-1.4097822,1.9377621,-2.09574,-1.5727328,2.449306,-0.040460724,0.1858717,-0.2230584,0.050276898,-0.02116459,-0.037825588,-0.2873042,0.36391866,-9.557653,0.8560339,47.66271,-1.0142798,-1.9894334,-3.4188447,-0.06836956,-0.31926686,-0.10680583,26.0625,26.875,25.9375,28.9375,30.0,30.375
0.18605234,-0.4663622,-0.42816597,0.037266336,-0.028715229,0.041938603,-0.15115765,-0.38907498,-0.34993902,0.060101546,-3.0762262,0.62448144,0.0001365368,-0.09002536,-0.015402442,-0.0013167486,0.024786014,-0.0028379099,-0.0034311302,0.47420844,-1.4094332,1.9372948,-2.095608,-1.5727328,2.4492218,-0.041137956,0.18739872,-0.2251452,0.051587492,-0.021181567,-0.037515335,-0.2681506,0.47884035,-9.461885,0.88289046,47.69763,-1.0779259,-2.0016623,-3.4445004,-0.03825941,-0.34961933,-0.10558364,26.0625,26.875,25.9375,28.9375,30.0,30.375
0.18805213,-0.56049985,-0.83916205,0.058610927,-0.035974447,0.04680676,-0.15969566,-0.38925818,-0.34996632,0.060081597,-3.0761406,0.6245031,0.00015912735,-0.091642186,-0.015964074,0.00019437069,0.023638193,-0.0011639575,-0.004726804,0.47413617,-1.4090246,1.9368519,-2.095535,-1.5728048,2.4491744,-0.041752502,0.18780038,-0.22959019,0.05361386,-0.020930946,-0.036832508,-0.28730422,0.4213795,-9.423578,0.78888994,47.687782,-1.0536363,-1.9288867,-3.402226,-0.03794508,-0.37060726,-0.13201171,26.0625,26.875,25.9375,28.9375,30.0,30.375
0.19005193,-1.0358051,-1.5336661,0.09592721,-0.038288467,0.043874428,-0.14124206,-0.3894413,-0.3499885,0.060079936,-3.076077,0.624509,0.00015896348,-0.0916222,-0.015559775,-0.001004938,0.025884751,-0.00419545,-0.00516505,0.47404006,-1.4086516,1.9363974,-2.0954154,-1.5728534,2.4490905,-0.042021625,0.1909475,-0.23100364,0.05560182,-0.02154671,-0.03665997,-0.3256114,0.38307226,-9.3661175,0.82022345,47.675243,-1.1018057,-1.8318214,-3.4480448,-0.028168976,-0.35057008,-0.12464341,26.0625,26.875,25.9375,28.9375,30.0,30.375
0.19205184,-1.0978234,-1.0807798,0.100193374,-0.03896039,0.04332922,-0.15181884,-0.38964802,-0.35002708,0.060101658,-3.076041,0.624542,0.0001902879,-0.093147896,-0.014735418,0.0001963651,0.02605161,-0.002477885,-0.008978341,0.47394323,-1.4082674,1.935871,-2.0952709,-1.5728892,2.4490192,-0.044218272,0.19006348,-0.23314679,0.057180636,-0.022479014,-0.035039905,-0.30645782,0.4213795,-9.308656,0.82022345,47.66091,-0.962641,-1.8195393,-3.4603977,-0.030907465,-0.3556432,-0.12887439,26.0625,26.875,25.9375,28.9375,30.0,30.375
0.19405182,-1.1592168,-0.9878923,0.20184255,-0.0051740003,0.031500533,-0.14654024,-0.38984412,-0.3500717,0.060099203,-3.0760255,0.62455785,0.00022490179,-0.09458008,-0.015282465,0.0007401691,0.026094222,-0.0011493602,-0.011210726,0.47385928,-1.4078703,1.9354037,-2.0952103,-1.5729135,2.4489474,-0.044110972,0.19202894,-0.23686641,0.057777137,-0.023126885,-0.032696612,-0.19153613,0.2681506,-9.270349,0.8560339,47.65464,-0.976683,-1.7970098,-3.3261175,-0.016663741,-0.39006975,-0.17498726,26.0625,26.875,25.9375,28.9375,30.0,30.375
0.19605176,-0.48758498,-0.2643344,0.32545447,0.0069928425,0.036401432,-0.15231682,-0.39003795,-0.35008684,0.06007639,-3.0759199,0.6245924,0.00024377304,-0.09412366,-0.016105272,0.00025256144,0.025988782,-0.002488906,-0.009136027,0.4737639,-1.4074492,1.9349498,-2.0951264,-1.5729975,2.4488876,-0.042673517,0.19363815,-0.2377943,0.05823077,-0.022426873,-0.033334453,-0.19153613,0.2681506,-9.232041,0.8851263,47.694946,-1.0861553,-1.7575226,-3.326941,0.01637479,-0.38185543,-0.19560018,26.0625,26.875,25.9375,28.9375,30.0,30.375
0.19805175,-0.61515266,-0.010818995,0.33589366,0.023243502,0.027881498,-0.14518432,-0.39023533,-0.35012308,0.060102217,-3.0758924,0.6246063,0.00031419742,-0.09462629,-0.014955781,-7.246032e-05,0.028042905,-0.0056952722,-0.010743665,0.4736792,-1.4071003,1.9344596,-2.0950053,-1.5730451,2.4488153,-0.04488131,0.19542567,-0.2401729,0.06260865,-0.022788761,-0.033933375,-0.15322891,0.17238252,-9.212888,0.8717007,47.691364,-1.0910301,-1.7084827,-3.492587,-0.011675955,-0.39731884,-0.17794183,26.0625,26.875,25.9375,28.9375,30.0,30.375
0.2000519,-0.38430408,0.29878667,0.21202421,0.02906174,0.01740316,-0.14416158,-0.3904021,-0.35013664,0.060059384,-3.0757852,0.62456423,0.000211204,-0.09509728,-0.014749447,-0.0011073193,0.029738247,-0.007928234,-0.011138612,0.4735831,-1.4066668,1.9340285,-2.0948856,-1.5730938,2.448707,-0.045322724,0.1988928,-0.24220143,0.06392842,-0.023286432,-0.033974327,-0.076614454,0.11492168,-9.193734,0.80456203,47.684196,-0.9921372,-1.6344097,-3.522822,-0.010901249,-0.41014147,-0.20721468,26.0625,26.875,25.9375,28.9375,30.0,30.375
0.20205176,-0.12207598,0.3006873,0.117771745,0.023683576,0.015419919,-0.15055914,-0.39062732,-0.35019308,0.060109675,-3.0757954,0.6246821,0.00030576866,-0.09595574,-0.013414501,-0.0010850675,0.03198307,-0.010146887,-0.013846021,0.4734862,-1.4063063,1.9334658,-2.0947516,-1.5731062,2.4486828,-0.047772907,0.20021778,-0.24482259,0.068224415,-0.024267597,-0.033714943,-0.15322891,0.11492168,-9.155427,0.8493211,47.67345,-0.9391827,-1.822623,-3.4720898,-0.021478869,-0.42086762,-0.23152353,26.0625,26.875,25.9375,28.9375,30.0,30.375
0.2040517,-0.7737965,-0.25000653,0.095754884,0.020664375,0.0011990077,-0.13983415,-0.39080307,-0.35019222,0.060100276,-3.0756497,0.62461287,0.00029841732,-0.09443906,-0.013018081,-0.0023087603,0.036310423,-0.01687231,-0.012384634,0.4734026,-1.4059205,1.9329995,-2.0945694,-1.5732263,2.448575,-0.04657475,0.20338851,-0.24744514,0.0756311,-0.025047222,-0.033972755,-0.15322891,0.0,-9.136273,0.8537928,47.674347,-0.8818165,-1.757223,-3.4710717,-0.07633354,-0.41569185,-0.23796082,26.0625,26.875,25.9375,28.9375,30.0,30.375
0.20605172,-0.5797153,0.110098,0.2845598,0.018124703,0.0040463833,-0.1465928,-0.39100817,-0.35022077,0.060079765,-3.0755787,0.6247129,0.00025946775,-0.09465748,-0.012702492,-0.0029309157,0.039142795,-0.019149318,-0.011664487,0.47328278,-1.405475,1.9325083,-2.0944736,-1.5732507,2.448527,-0.046338547,0.20625567,-0.250141,0.078777984,-0.026535355,-0.03444942,-0.15322891,0.0,-9.193734,0.88960326,47.699425,-1.0155734,-1.8711197,-3.4192934,-0.15023111,-0.40078974,-0.26674214,26.0625,26.875,25.9375,28.9375,30.0,30.375
0.20805205,-0.076915905,0.40853295,0.19260144,0.022042321,0.013163198,-0.149171,-0.39118022,-0.35026821,0.06006265,-3.0755017,0.6246405,0.00017279375,-0.09626293,-0.011577823,-0.0029960466,0.04104556,-0.020357238,-0.013922745,0.4732338,-1.40503,1.9319934,-2.0943043,-1.5732874,2.4484432,-0.04899722,0.20866027,-0.2535212,0.08169663,-0.027684996,-0.03484193,-0.095768064,0.05746084,-9.270349,0.83365434,47.694946,-0.88438284,-1.9272592,-3.4903555,-0.14652205,-0.41895455,-0.27051252,26.0625,26.875,25.9375,28.9375,30.0,30.375
0.21005219,0.0283716,0.29816633,0.38023564,0.016970085,0.013523027,-0.14816086,-0.39137247,-0.35026738,0.060059767,-3.0753682,0.6247653,8.3604275e-05,-0.09667832,-0.010911395,-0.0032313247,0.042854164,-0.021861875,-0.01429902,0.47308952,-1.404633,1.9314908,-2.0940883,-1.5733355,2.4483943,-0.049902674,0.21007961,-0.25526252,0.08417848,-0.028617699,-0.03536425,-0.076614454,0.019153614,-9.232041,0.8627467,47.675243,-0.81446373,-1.9534063,-3.5221682,-0.2200353,-0.41554162,-0.27303335,26.0625,26.875,25.9375,28.9375,30.0,30.375
0.21205209,-0.3312317,-0.25601098,0.29379627,0.016109895,0.008201642,-0.14426492,-0.39158347,-0.35030198,0.06005584,-3.075286,0.62476647,0.00010418201,-0.09740612,-0.010997957,-0.0034732653,0.044183012,-0.022561692,-0.0134092,0.47300556,-1.4041868,1.9309524,-2.0939562,-1.5734075,2.448322,-0.04981769,0.21259257,-0.25804755,0.085675,-0.029490825,-0.036163535,-0.21068975,0.19153613,-9.078813,0.78888994,47.67166,-0.9141083,-2.0665505,-3.534974,-0.27102047,-0.3918507,-0.29497385,26.0625,26.875,25.9375,29.0,30.0,30.375
0.21405199,-0.10113972,-0.22344317,0.38674158,0.0062377406,0.0179897,-0.15166034,-0.3917591,-0.35032728,0.060038712,-3.0751593,0.62472177,5.2773248e-05,-0.099411614,-0.0115860505,-0.0023278298,0.042892914,-0.020095063,-0.014052957,0.47294524,-1.4037548,1.9304498,-2.093777,-1.5734919,2.4482505,-0.05057503,0.21374887,-0.2621138,0.08579631,-0.029481083,-0.0362721,-0.21068975,0.24899697,-9.078813,0.8784135,47.675243,-0.8723121,-1.978518,-3.442282,-0.27946234,-0.40282935,-0.3120908,26.0625,26.875,25.9375,29.0,30.0,30.375
0.21605198,-0.650455,-0.27524653,0.11064632,-0.0063969363,0.023836197,-0.1500526,-0.39194185,-0.3503458,0.06002314,-3.0750551,0.6247376,-0.00014274287,-0.10083667,-0.01152204,-0.0025404384,0.04384369,-0.019270454,-0.014077769,0.47281313,-1.4033095,1.9299115,-2.0935252,-1.5734924,2.448142,-0.051140152,0.21635224,-0.26464987,0.08542703,-0.03072147,-0.03680149,-0.11492168,0.28730422,-9.232041,0.9321212,47.70211,-0.834005,-2.0347872,-3.4980376,-0.30189607,-0.39060628,-0.31804612,26.0625,26.875,25.9375,29.0,30.0,30.375
0.21805228,-1.1150585,-1.082273,0.11099905,-0.0128225405,0.041958194,-0.1495428,-0.39214802,-0.35034367,0.06001009,-3.074902,0.6248394,-0.00012653237,-0.10238663,-0.01146568,-0.002305718,0.044401836,-0.01696802,-0.0140939215,0.472693,-1.4028889,1.9294208,-2.0933821,-1.5736011,2.4481056,-0.05159922,0.21780424,-0.2666726,0.08419874,-0.03228218,-0.037234858,-0.28730422,0.3256114,-9.251195,0.8851263,47.685097,-0.8014325,-1.9570935,-3.47943,-0.31347573,-0.37805784,-0.33095166,26.0625,26.875,25.9375,29.0,30.0,30.375
0.22005208,-1.7617706,-1.2204,0.116950214,-0.04427285,0.055372864,-0.14509548,-0.3923575,-0.35037905,0.060011845,-3.0748205,0.6248606,-0.00015698462,-0.10334381,-0.011244623,-0.0038948376,0.045855675,-0.017106006,-0.014145852,0.47259688,-1.4024427,1.9288582,-2.0932033,-1.5736493,2.4480336,-0.052016754,0.22175497,-0.26710153,0.08146024,-0.033527818,-0.037592415,-0.38307226,0.34476504,-9.404425,0.87617236,47.703007,-0.8112433,-1.9904711,-3.509338,-0.3016701,-0.3540761,-0.35658592,26.0625,26.875,25.9375,29.0,30.0,30.375
0.22205189,-2.1557267,-1.7843223,0.06311649,-0.05817023,0.07362412,-0.14833204,-0.39256704,-0.35040784,0.06002422,-3.0747373,0.6248628,-0.000106431326,-0.10676477,-0.011743504,-0.0017675472,0.043955088,-0.009951665,-0.015242606,0.4725124,-1.4020345,1.9283208,-2.0930488,-1.5737337,2.4479616,-0.0531735,0.2216272,-0.27121073,0.07846147,-0.035111655,-0.037643056,-0.4213795,0.40222588,-9.404425,0.8605109,47.677036,-0.74469507,-1.9006755,-3.5932684,-0.29889414,-0.35123634,-0.362648,26.0625,26.875,25.9375,29.0,30.0,30.375
0.22405185,-1.6806449,-1.5285664,-0.06056576,-0.050522164,0.08087195,-0.14913958,-0.39277428,-0.35042143,0.059992123,-3.0746138,0.6248754,-0.00022135803,-0.10926874,-0.012501218,-0.00059965294,0.042017516,-0.0043978747,-0.015584103,0.4723804,-1.4015421,1.9277815,-2.092871,-1.5737818,2.4478538,-0.05352891,0.2222342,-0.27381614,0.07462933,-0.035936657,-0.03764731,-0.4405331,0.36391866,-9.404425,0.8940802,47.661808,-0.74687684,-1.8141418,-3.5510914,-0.24078637,-0.31315702,-0.3853295,26.0625,26.875,25.9375,29.0,30.0,30.375
0.22605224,-1.8301132,-1.4197044,-0.46030548,-0.027870508,0.060252238,-0.13591754,-0.3929804,-0.35045308,0.059974764,-3.0745075,0.6248912,-0.00024266713,-0.11141094,-0.013037005,-0.00094262685,0.040400375,-0.00231885,-0.016934453,0.47229588,-1.4010721,1.9272426,-2.0927284,-1.5738534,2.4477932,-0.054783713,0.2254458,-0.27606276,0.07107014,-0.03545999,-0.037549306,-0.4213795,0.38307226,-9.519346,0.900793,47.72002,-0.6928765,-1.9025693,-3.6345186,-0.19876927,-0.3097654,-0.39704955,26.0625,26.875,25.9375,29.0,30.0,30.375
0.22805218,-1.4539065,-0.8255285,-0.35983104,-0.028529415,0.05434701,-0.14932661,-0.39320138,-0.35046452,0.05994456,-3.0743856,0.62498105,-0.0002619409,-0.11349261,-0.013656945,-5.30811e-05,0.038260832,0.0019066957,-0.017084008,0.4721638,-1.4005916,1.9267286,-2.092622,-1.5739263,2.4477334,-0.05549869,0.22597758,-0.27807698,0.06780724,-0.035495408,-0.03811075,-0.4213795,0.36391866,-9.576807,0.8224646,47.67614,-0.7046576,-1.8308346,-3.6478703,-0.153837,-0.31105852,-0.43128532,26.0625,26.875,25.9375,29.0,30.0,30.375
0.23005208,-1.1580114,-0.7676795,-0.51740843,-0.01807177,0.054840263,-0.14735454,-0.3934318,-0.35047853,0.05994036,-3.074302,0.6250403,-0.0002515951,-0.11471056,-0.013351838,-0.0006313185,0.039821584,0.0032887661,-0.016763113,0.47201958,-1.4001466,1.9261907,-2.092491,-1.5739864,2.4476373,-0.055780977,0.22835517,-0.27921352,0.066043064,-0.037525967,-0.038702823,-0.34476504,0.38307226,-9.500193,0.9567419,47.69763,-0.6936327,-1.7847921,-3.7459013,-0.08748871,-0.28418657,-0.4345894,26.0625,26.875,25.9375,29.0,30.0,30.375
0.23205203,-1.5659714,-1.1175767,-0.51249313,-0.0030016596,0.039418995,-0.14427365,-0.3936702,-0.35051328,0.05994856,-3.0742064,0.62503844,-0.00016625614,-0.115204126,-0.012593852,-0.001744382,0.042933434,0.00031040038,-0.016519072,0.47193545,-1.3996769,1.9255928,-2.0923464,-1.5740951,2.4475648,-0.056601968,0.23206091,-0.2817278,0.06891337,-0.03894747,-0.03975999,-0.40222588,0.38307226,-9.5385,0.90527004,47.65464,-0.62377983,-1.9098198,-3.780654,-0.08707144,-0.2506318,-0.45111853,26.0625,26.875,25.9375,29.0,30.0,30.375
0.23405208,-1.3161345,-0.914824,-0.45944527,-0.013003524,0.046554603,-0.14335462,-0.3939006,-0.35053414,0.05992872,-3.0741167,0.62509465,-0.0001693236,-0.117155366,-0.013552232,-0.0007546735,0.04170391,0.0032062274,-0.015050224,0.47180346,-1.3991957,1.9250535,-2.0922391,-1.5741552,2.44748,-0.05647641,0.2337169,-0.28587025,0.068250336,-0.039187405,-0.04109834,-0.47884035,0.34476504,-9.519346,0.900793,47.664497,-0.60006964,-2.0109158,-3.6673405,-0.056254733,-0.22512217,-0.45645705,26.0625,26.875,25.9375,29.0,30.0,30.375
0.23605208,-1.3075907,-1.0526007,-0.65623385,-0.011245051,0.046003286,-0.14581735,-0.3941363,-0.35057113,0.05993817,-3.074048,0.62515724,-0.00013019722,-0.11885604,-0.013042167,-0.0010040862,0.041699953,0.0030717433,-0.016126757,0.4716946,-1.3987386,1.924467,-2.0920951,-1.5742148,2.4474194,-0.058873843,0.23616385,-0.28826183,0.06830146,-0.039134126,-0.042417698,-0.34476507,0.2681506,-9.576807,0.8493211,47.67614,-0.6147189,-2.0320215,-3.5992322,-0.014351977,-0.19083767,-0.46119195,26.0625,26.875,25.9375,29.0,30.0,30.375
0.23805198,-1.05438,-0.8158018,-0.5395251,-0.014755195,0.03751162,-0.1490566,-0.39438355,-0.35058117,0.05991987,-3.073916,0.6251272,-6.623985e-05,-0.11891553,-0.013339329,-0.0019076195,0.0442381,-0.0010119481,-0.012319202,0.4715749,-1.3982322,1.9238914,-2.0919735,-1.5743474,2.4472985,-0.058097493,0.2406782,-0.29260716,0.07290363,-0.039552085,-0.04544328,-0.21068975,0.3256114,-9.615114,0.8157518,47.667187,-0.4684059,-2.1145818,-3.7447886,-0.026073944,-0.17664272,-0.4599797,26.0625,26.875,25.9375,29.0,30.0,30.375
0.24005193,-0.900077,-0.8203238,-0.1495004,-0.03401472,0.035721123,-0.14365442,-0.39463228,-0.35062572,0.0599347,-3.073874,0.6251336,3.3640438e-06,-0.12040152,-0.015794255,-0.00043114685,0.04253611,0.0024405294,-0.0065961094,0.47146806,-1.3977631,1.9232811,-2.0918424,-1.5744075,2.4472015,-0.0550561,0.24272537,-0.29845446,0.072838284,-0.03962654,-0.048122376,-0.2681506,0.3256114,-9.5385,0.87617236,47.67614,-0.67554545,-2.2325587,-3.6132362,-0.020076577,-0.16357113,-0.43929824,26.0625,26.875,25.9375,29.0,30.0,30.375
0.24205202,-0.16542657,-0.6432892,-0.52331775,-0.015868308,0.036364496,-0.14807107,-0.39485884,-0.35064256,0.059920356,-3.0737581,0.62514806,-7.73582e-06,-0.12243155,-0.016379377,0.001074477,0.041039232,0.0048564975,-0.0073672608,0.47134772,-1.3972825,1.9227179,-2.0916855,-1.5744909,2.4471056,-0.055943757,0.2434037,-0.30302787,0.07389121,-0.03940347,-0.048235223,-0.19153614,0.30645782,-9.442732,0.8717007,47.65912,-0.713639,-2.1473985,-3.4202917,0.0223684,-0.15559348,-0.42576265,26.0625,26.875,25.9375,29.0,30.0,30.375
0.24405184,0.0070864633,-0.14720748,-0.6681897,-0.009773835,0.02025855,-0.14755766,-0.39510787,-0.35067484,0.059895314,-3.0736537,0.6251446,-3.2733977e-05,-0.12223558,-0.0148895625,-0.00090586435,0.043951165,-0.0007769786,-0.0067887316,0.47122696,-1.3967289,1.9220966,-2.0915415,-1.5745629,2.4469967,-0.05828273,0.24700883,-0.30357435,0.07715471,-0.039448775,-0.05114948,-0.15322891,0.30645782,-9.634268,0.8940802,47.67166,-0.6250683,-2.239954,-3.483884,0.03238513,-0.12940304,-0.40995455,26.0625,26.875,25.9375,29.0,30.0,30.375
0.24605185,0.23387319,-0.6025617,-0.43133613,-0.020782137,0.018047849,-0.16057073,-0.39535704,-0.3507034,0.059907544,-3.0735738,0.62516266,2.903107e-05,-0.12073581,-0.015471969,-0.0011606727,0.045163773,-0.0039656647,-0.0017694168,0.4711076,-1.3962601,1.9214863,-2.0913842,-1.5746473,2.4468994,-0.056110978,0.24756736,-0.3046191,0.081011064,-0.039087612,-0.05399837,-0.13407528,0.3256114,-9.595961,0.9298854,47.686886,-0.6291427,-2.1349819,-3.623797,0.00126395,-0.09047742,-0.376892,26.0625,26.875,25.9375,29.0,30.0,30.375
0.24805185,-0.14049675,-1.1379721,-0.24088094,-0.030048069,0.009865394,-0.15267515,-0.39560893,-0.35074303,0.059923343,-3.0735068,0.62510544,0.00011425402,-0.11887111,-0.015643552,-0.0026164143,0.047389522,-0.010575384,0.0048388876,0.47101218,-1.395779,1.920853,-2.0912268,-1.5747427,2.4467773,-0.05474518,0.25031716,-0.30581537,0.08632367,-0.038080987,-0.05924543,-0.038307227,0.38307226,-9.519346,0.8717007,47.690468,-0.808499,-2.111881,-3.7623909,-0.007400032,-0.10014422,-0.31811213,26.0625,26.875,25.9375,29.0,30.0,30.375
0.25005203,-0.19427618,-1.1255695,-0.34985057,-0.023580382,-0.0009504179,-0.14391287,-0.39587164,-0.35078424,0.059938703,-3.073465,0.62511647,0.0001541311,-0.11889564,-0.015266602,-0.0016831064,0.047316838,-0.012487207,0.0027562527,0.47087976,-1.3952863,1.9202069,-2.0910695,-1.5747904,2.4466577,-0.05596038,0.24941505,-0.30809945,0.091173075,-0.0371442,-0.05838223,-0.1340753,0.40222588,-9.500193,0.8314132,47.682407,-0.6818125,-2.1095495,-3.8075404,-0.05370996,-0.09217092,-0.30288175,26.0625,26.875,25.9375,29.0,30.0,30.375
0.25205216,0.39602846,-0.7189816,-0.3353866,-0.020643566,0.0061833076,-0.1557783,-0.3960775,-0.35079986,0.059891183,-3.0732844,0.6250579,1.9263725e-05,-0.11838486,-0.015396629,-0.00026422355,0.047190156,-0.015663639,0.0048673507,0.47078368,-1.3947345,1.9196213,-2.090851,-1.5748857,2.446549,-0.056214966,0.2482673,-0.3118461,0.09881626,-0.035602756,-0.06074842,0.038307227,0.3256114,-9.557653,0.9164598,47.658226,-0.6668684,-1.8270144,-3.7397702,-0.1594602,-0.09877612,-0.271277,26.0625,26.875,25.9375,29.0,30.0,30.375
0.25405213,0.20428689,-0.458367,-0.2914727,-0.004857586,-0.016734894,-0.15195449,-0.39634064,-0.35083526,0.05989212,-3.0732133,0.62496394,5.253066e-05,-0.11896636,-0.016590009,-0.00020194503,0.045946103,-0.016628783,0.008105192,0.47066388,-1.3942053,1.9189628,-2.0906837,-1.5749696,2.4463801,-0.05557504,0.25080213,-0.31535843,0.10006378,-0.034076396,-0.06335095,0.076614454,0.34476504,-9.423578,0.9612189,47.67614,-0.7820519,-1.781822,-3.6790423,-0.17110822,-0.09384307,-0.21781963,26.0625,26.875,25.9375,29.0,30.0,30.375
0.25605208,0.5161688,-0.13691232,-0.36469087,0.0049623423,-0.020740733,-0.1447077,-0.3965904,-0.3508526,0.05991401,-3.073105,0.6249982,9.286586e-05,-0.118986495,-0.016666241,-0.0006546269,0.046943422,-0.021546477,0.007742936,0.47053167,-1.3937477,1.9183286,-2.0904658,-1.5750645,2.4462838,-0.056255847,0.25406867,-0.319545,0.10580256,-0.032740045,-0.063673325,0.038307227,0.30645782,-9.461885,0.84708,47.716442,-0.77887154,-1.7966962,-3.6955185,-0.24019226,-0.105776794,-0.17983475,26.0625,26.875,25.9375,29.0,30.0,30.375
0.25805193,0.63404727,0.034206513,-0.41561523,0.0034012618,-0.014895931,-0.15091476,-0.39682183,-0.35088655,0.05990489,-3.0730135,0.6250175,-1.9566827e-05,-0.12084791,-0.018016256,0.0010247267,0.044388052,-0.018258596,0.0076146647,0.4703998,-1.3932309,1.9176935,-2.0902383,-1.5750884,2.4461763,-0.055999134,0.2545581,-0.32405627,0.10572864,-0.031973377,-0.06328683,0.17238253,0.3256114,-9.385271,0.78217715,47.683304,-0.76348054,-1.8213204,-3.5082462,-0.27666277,-0.1164404,-0.15564492,26.0625,26.875,25.9375,29.0,30.0,30.375
0.2600519,0.5055124,-0.29982808,-0.47630978,-0.008827149,-0.008028106,-0.14711283,-0.39705133,-0.35094503,0.05993013,-3.0729806,0.6248759,-2.1032254e-05,-0.12248038,-0.0187628,0.0005349812,0.04405171,-0.018815247,0.006171176,0.47032762,-1.3927609,1.9170345,-2.0900114,-1.5751365,2.4460204,-0.056457214,0.25910005,-0.32839787,0.10586925,-0.03143195,-0.06230059,0.28730422,0.26815057,-9.404425,0.75084364,47.677036,-0.8046298,-1.9598421,-3.337751,-0.30269492,-0.112423,-0.14521566,26.0625,26.875,25.9375,29.0,30.0,30.375
0.26205182,0.029783938,-1.0343473,-0.66564256,-0.00081665156,-0.02069067,-0.14306162,-0.39729667,-0.35097954,0.059916962,-3.0728717,0.6248334,-0.000100835554,-0.1242358,-0.019453917,-0.00017508958,0.043147404,-0.017596751,0.0050543114,0.47020742,-1.3922071,1.916365,-2.0897844,-1.5751966,2.4458883,-0.056913123,0.2630248,-0.33083335,0.10287877,-0.031199066,-0.061635576,0.24899697,0.19153613,-9.481039,0.88960326,47.65912,-0.7957033,-2.017978,-3.383503,-0.29768682,-0.13377194,-0.12888853,26.0625,26.875,25.9375,29.0,30.0,30.375
0.2640516,-0.22852539,-1.264586,-0.47464576,-0.042383105,0.0032618453,-0.14400016,-0.39756218,-0.3510159,0.059927847,-3.0727777,0.62481403,-8.3098406e-05,-0.12439615,-0.019463137,-0.0017688824,0.04295392,-0.01771685,0.003365018,0.47008744,-1.391678,1.9156722,-2.0895703,-1.5752801,2.4457688,-0.057124507,0.26526192,-0.3290409,0.09886594,-0.030979482,-0.06015742,0.15322891,0.34476504,-9.481039,0.8873621,47.67345,-0.77685046,-2.0747542,-3.4507332,-0.27213505,-0.13499835,-0.11836586,26.0625,26.875,25.9375,29.0,30.0,30.375
0.26605263,-0.8306117,-2.3486967,-0.54963195,-0.06437062,0.019630397,-0.14136507,-0.3977909,-0.35105076,0.05990816,-3.072673,0.62485045,-0.00018467716,-0.12634057,-0.020589735,-0.0015034807,0.04056179,-0.013787889,0.0013641311,0.46996742,-1.3911487,1.9150513,-2.089369,-1.5753158,2.4456856,-0.05705639,0.26711792,-0.33093005,0.09431546,-0.030643607,-0.058085382,0.15322891,0.36391866,-9.576807,0.91198283,47.71823,-0.852672,-2.0226028,-3.6873014,-0.2440406,-0.120519616,-0.11706123,26.0625,26.875,25.9375,29.0,30.0,30.375
0.26805162,-0.423057,-2.4098995,-0.38734156,-0.08484684,0.03729298,-0.15088265,-0.39806733,-0.35107923,0.059927423,-3.0725746,0.624793,-9.861855e-05,-0.12856522,-0.021628303,0.00018342126,0.037607677,-0.0076971864,-0.0014462689,0.46984747,-1.3906323,1.9143566,-2.0891669,-1.575436,2.445543,-0.057086878,0.26636714,-0.33317655,0.09054781,-0.030775193,-0.05530297,0.17238252,0.38307226,-9.615114,0.8806493,47.661808,-0.79125565,-2.0768008,-3.7463725,-0.18279354,-0.13031605,-0.13704704,26.0625,26.875,25.9375,29.0,30.0,30.375
0.27005234,-1.112886,-2.7035735,-0.27723482,-0.07888692,0.014531175,-0.1316913,-0.39834124,-0.35116193,0.059959646,-3.0726066,0.6247615,7.885626e-06,-0.13076809,-0.022700692,0.0005354844,0.0354746,-0.0043352307,-0.00504179,0.46976337,-1.3901272,1.9136637,-2.0890481,-1.5754603,2.4454355,-0.05736881,0.26882684,-0.33623952,0.08719837,-0.030395182,-0.051991593,-0.019153614,0.36391866,-9.576807,0.8918391,47.645687,-0.919754,-1.9103756,-3.7440314,-0.13674879,-0.13194218,-0.15990119,26.0625,26.875,25.9375,29.0,30.0,30.375
0.27205214,-0.25847936,-1.8354151,-0.3264167,-0.053085312,0.015862124,-0.14977385,-0.39858544,-0.35118416,0.05993929,-3.0724857,0.62481475,-2.6925405e-05,-0.13389601,-0.023557086,0.0023370201,0.032374583,0.0010295458,-0.00812892,0.469631,-1.3895983,1.913052,-2.0888813,-1.5755323,2.4453526,-0.058797024,0.2694237,-0.3406512,0.0848256,-0.030074408,-0.05032986,-0.11492168,0.47884032,-9.5385,0.94331104,47.660015,-0.73431325,-1.9363219,-3.6544418,-0.080320776,-0.13807607,-0.20182607,26.0625,26.875,25.9375,29.0,30.0,30.375
0.2740521,-0.21081005,-0.944237,-0.6532538,-0.030951299,0.0022115216,-0.14831987,-0.39885056,-0.35123694,0.059946045,-3.072395,0.6247744,2.0042353e-05,-0.13449688,-0.025691617,0.004145887,0.030367207,0.0048866277,-0.0059993705,0.46954808,-1.3890462,1.9123458,-2.0886905,-1.5756282,2.4452567,-0.055609692,0.26877844,-0.344099,0.08456859,-0.030036539,-0.049270105,-0.076614454,0.49799395,-9.615114,0.8985519,47.653748,-0.937812,-1.8188792,-3.583417,-0.0368369,-0.16331989,-0.19975373,26.0625,26.875,25.9375,29.0,30.0,30.375
0.27605215,-0.049109712,-0.368712,-0.5466999,-0.023081275,0.005527258,-0.15515801,-0.39914086,-0.35128108,0.05996305,-3.072396,0.62491,7.0722475e-05,-0.13489309,-0.025631124,0.0038565907,0.030318059,0.004177209,-0.009255502,0.4693678,-1.3885412,1.9116892,-2.0885823,-1.5756282,2.4451613,-0.05622641,0.27000228,-0.34508938,0.0849521,-0.029662494,-0.046633653,-0.21068975,0.63206923,-9.557653,0.97464454,47.687782,-0.9773147,-1.6560775,-3.576138,0.005921591,-0.16981408,-0.22872463,26.0625,26.875,25.9375,29.0,30.0,30.375
0.2780523,-0.2576154,-0.8535716,-0.6794468,-0.015641674,0.03353594,-0.15121679,-0.399388,-0.3513689,0.05996311,-3.0723472,0.62476516,3.716153e-05,-0.13635051,-0.025646273,0.004270561,0.0303156,0.004713515,-0.01049004,0.46933153,-1.3879521,1.9109482,-2.0883663,-1.5756763,2.4450414,-0.057293538,0.271687,-0.34842122,0.08611832,-0.029910166,-0.046461813,-0.3256114,0.5363012,-9.653421,1.0104496,47.68062,-1.0331153,-1.6414604,-3.6144705,0.017686188,-0.17758888,-0.26031864,26.0625,26.875,25.9375,29.0,30.0,30.375
0.28005245,-1.3294715,-1.3530048,-0.66829634,-0.030431882,0.04857744,-0.14413401,-0.3996508,-0.35143238,0.059978645,-3.0722804,0.6247695,5.881219e-05,-0.13597243,-0.024501545,0.0019824284,0.0353186,-0.0027138663,-0.010038066,0.4692472,-1.3874099,1.9102291,-2.0881603,-1.5757369,2.444969,-0.05819827,0.27754664,-0.3516162,0.09233265,-0.031013677,-0.04781045,-0.4405331,0.47884035,-9.768343,0.9455522,47.66987,-0.9161134,-1.7095778,-3.661707,0.0026471678,-0.17255263,-0.26888588,26.0625,26.875,25.9375,29.0,30.0,30.375
0.2820524,-1.944687,-1.7022674,-0.50601524,-0.052326553,0.07522359,-0.1520081,-0.3999329,-0.35148525,0.059992537,-3.0722353,0.6248134,4.3446933e-05,-0.13422988,-0.025555579,0.00049478584,0.03692429,-0.0074598496,-0.004283316,0.46910432,-1.3868557,1.9094995,-2.0879557,-1.5757602,2.4448597,-0.05522211,0.2807566,-0.35279393,0.095237546,-0.030311296,-0.050591704,-0.45968673,0.3256114,-9.653421,0.9455522,47.655537,-1.2161928,-2.013461,-3.6206722,-0.017212717,-0.19838741,-0.26290426,26.0625,26.875,25.9375,29.0,30.0,30.375
0.28405187,-2.4751675,-1.6814771,-0.17148432,-0.047941353,0.07599719,-0.13868949,-0.400181,-0.35155004,0.059985675,-3.0721796,0.62474555,-6.094145e-06,-0.1336443,-0.024401627,7.7335615e-05,0.039059617,-0.013464862,-0.0066373646,0.46901953,-1.3862911,1.9088072,-2.0877612,-1.5757955,2.4447403,-0.057166297,0.28208604,-0.3552186,0.10264936,-0.029493466,-0.050184324,-0.51714754,0.30645782,-9.481039,0.96569055,47.666286,-1.1498643,-2.0084155,-3.7225418,-0.061984096,-0.22002776,-0.25459808,26.0625,26.875,25.9375,29.0,30.0,30.375
0.28605178,-1.8623179,-1.0191597,-0.17989527,-0.011582617,0.064544,-0.13947529,-0.40045914,-0.351583,0.060003422,-3.0720632,0.6247408,3.5766327e-05,-0.13377678,-0.023942633,-0.00027232702,0.04063451,-0.01676397,-0.0096465815,0.4688993,-1.3857503,1.9080762,-2.0875208,-1.5759038,2.4446328,-0.058076695,0.28416258,-0.35797632,0.1069871,-0.029400898,-0.04808385,-0.40222588,0.22984336,-9.423578,0.97464454,47.690468,-1.1264076,-1.9064167,-3.716033,-0.108319685,-0.24541497,-0.294891,26.0625,26.875,25.9375,29.0,30.0,30.375
0.28805166,-0.6883263,0.4457289,0.054939352,0.012709742,0.049961444,-0.14863376,-0.40075693,-0.35164762,0.060000896,-3.0720243,0.62476945,9.023234e-05,-0.13503252,-0.023806836,0.0005950877,0.04211806,-0.01674312,-0.008786584,0.4687791,-1.385149,1.9073466,-2.0874002,-1.5759524,2.444536,-0.05851097,0.28558204,-0.362657,0.11089243,-0.030743925,-0.049369473,-0.34476504,0.11492168,-9.308657,0.8851263,47.670765,-1.0688393,-1.8762215,-3.6390247,-0.17497078,-0.2525028,-0.30285206,26.0625,26.875,25.9375,29.0,30.0,30.375
0.2900517,-0.32421592,1.5883896,0.27960682,0.045188066,0.006340958,-0.15561649,-0.4010491,-0.351707,0.06002474,-3.0719912,0.62485856,0.00014821153,-0.13612495,-0.024158897,0.00084310584,0.042758614,-0.01678797,-0.008258187,0.46864718,-1.384607,1.9066156,-2.0872314,-1.5759887,2.4444644,-0.058449164,0.28790042,-0.36651188,0.11275218,-0.031304657,-0.049832113,-0.30645782,0.0,-9.251195,0.90750587,47.66987,-1.1690246,-1.8533982,-3.5292735,-0.20042345,-0.24621807,-0.30079603,26.0625,26.875,25.9375,29.0,30.0,30.375
0.29205254,0.18680908,1.8238153,0.23940705,0.06834038,-0.0032890905,-0.15165308,-0.40136343,-0.3517357,0.060022634,-3.0718489,0.62488526,0.0002120737,-0.13704827,-0.024242774,0.0007513665,0.043315466,-0.01698504,-0.008516617,0.46850318,-1.3839823,1.9058388,-2.0870283,-1.5761207,2.4443562,-0.058785334,0.28999016,-0.36914256,0.11371063,-0.03172387,-0.04990498,-0.3256114,-0.15322891,-9.078813,0.90750587,47.65464,-1.1554637,-1.8956635,-3.4567924,-0.1865598,-0.2809424,-0.30730385,26.0625,26.875,25.9375,29.0,30.0,30.375
0.29405254,0.39515924,1.5006589,0.18060584,0.057639346,0.0011784334,-0.15459815,-0.40159023,-0.35178474,0.06000766,-3.071738,0.6247849,7.638937e-05,-0.13843569,-0.023626411,0.0017661077,0.04456529,-0.015272562,-0.009630613,0.46841878,-1.3834177,1.905145,-2.0867517,-1.5761694,2.444224,-0.059826616,0.28991333,-0.3719331,0.11561672,-0.033623885,-0.049816057,-0.22984336,-0.038307227,-9.040505,0.9097417,47.64837,-1.149969,-1.8446888,-3.547309,-0.23295054,-0.27279258,-0.33673888,26.0625,26.875,25.9375,29.0,30.0,30.375
0.2960525,-0.5623035,0.05130811,0.04592989,0.037467383,-0.0013637461,-0.14433418,-0.40187865,-0.35182902,0.06003225,-3.0716417,0.62485987,9.566691e-05,-0.13972358,-0.023952601,0.0009586367,0.045023598,-0.01605201,-0.009317303,0.46828666,-1.3828644,1.9043797,-2.0865004,-1.5762409,2.4441519,-0.06028534,0.29407647,-0.37513137,0.11554238,-0.03369799,-0.050584707,-0.22984336,-0.076614454,-9.174581,0.96569055,47.694946,-1.1462482,-1.7442968,-3.451102,-0.22535393,-0.29067552,-0.34542787,26.0625,26.875,25.9375,29.0,30.0,30.375
0.29805166,-0.7054124,-0.5338311,0.31989062,-0.019811662,0.03420556,-0.14791182,-0.40215087,-0.35187674,0.06003122,-3.071506,0.6248495,6.779106e-05,-0.1416082,-0.024427464,0.0020668828,0.04247951,-0.012845388,-0.009399448,0.46819025,-1.3822633,1.9036139,-2.0862381,-1.5763372,2.4440672,-0.061564635,0.2940641,-0.3774191,0.11381517,-0.03289738,-0.051782597,-0.15322891,-0.076614454,-9.136273,0.90750587,47.655537,-1.1627119,-1.7584628,-3.366779,-0.23160157,-0.31150356,-0.35418355,26.0625,26.875,25.9375,29.0,30.0,30.375
0.3000518,-1.7804731,-1.7363054,0.46749148,-0.029452726,0.039879236,-0.14736551,-0.4024315,-0.3519237,0.06001245,-3.0713995,0.62482566,2.9217063e-05,-0.14362793,-0.024866309,0.0019414952,0.041519135,-0.009882705,-0.008657986,0.46807006,-1.3816379,1.9028729,-2.086036,-1.5764092,2.4439466,-0.06219877,0.29652718,-0.37941062,0.1102528,-0.033404037,-0.05315116,-0.19153613,-0.038307227,-9.155427,0.8940802,47.67614,-1.0895599,-1.775255,-3.5425038,-0.18855798,-0.31006825,-0.3438918,26.0625,26.875,25.9375,29.0,30.0,30.375
0.30205187,-1.7753887,-1.2277712,0.28598377,-0.03708336,0.05364862,-0.14609472,-0.4027283,-0.35195515,0.060027186,-3.0713174,0.6248459,2.5242303e-05,-0.14643474,-0.02550958,0.004099546,0.038857292,-0.0024757702,-0.0075823637,0.46790177,-1.3810738,1.9021195,-2.085798,-1.5764693,2.443802,-0.06284695,0.29514402,-0.3819751,0.106374204,-0.0343987,-0.054866508,-0.15322891,0.11492168,-9.251195,0.9545008,47.657326,-1.021121,-1.4760478,-3.6108866,-0.15558033,-0.31944686,-0.3494697,26.0625,26.875,25.9375,29.0,30.0,30.375
0.3040517,-1.8438438,-1.3450257,-0.0032837994,-0.011501742,0.050504602,-0.14202297,-0.4030406,-0.3520161,0.060049605,-3.071257,0.6248315,0.0001410337,-0.14797616,-0.025739115,0.0026164919,0.03892052,-0.0027517264,-0.006384181,0.46779343,-1.3804833,1.9013304,-2.0856192,-1.5765656,2.4436932,-0.0637659,0.30002767,-0.3839246,0.1036934,-0.03435191,-0.05698319,-0.24899697,0.15322891,-9.212888,0.947788,47.65643,-1.0631139,-1.6701486,-3.5106463,-0.10227494,-0.33662066,-0.3414943,26.0625,26.875,25.9375,29.0,30.0,30.375
0.3060518,-1.0829729,-0.48973417,-0.19036298,-0.009697837,0.04539908,-0.15331444,-0.40332496,-0.35206908,0.060035653,-3.0711663,0.62481135,0.000104255996,-0.14866039,-0.025581742,0.0012536388,0.040005848,-0.0043179044,-0.0048404867,0.46767324,-1.3798575,1.9005765,-2.0854156,-1.5766257,2.4435728,-0.06439297,0.30374274,-0.3852702,0.103192024,-0.034635533,-0.05914893,-0.2873042,0.2681506,-9.193734,0.9947882,47.647476,-1.0400798,-1.774532,-3.6155732,-0.052133404,-0.34472921,-0.32315016,26.0625,26.875,25.9375,29.0,30.0,30.375
0.30805174,-0.7829959,-0.71700424,0.05686649,0.002861894,0.039617278,-0.14391322,-0.40362495,-0.3521269,0.060044184,-3.0711176,0.6247798,0.000114100374,-0.15078218,-0.025116866,0.0016082533,0.039845433,-0.0028817733,-0.0042470745,0.46754044,-1.379256,1.8997997,-2.0852125,-1.5766739,2.443427,-0.06664122,0.30546516,-0.38825676,0.10307956,-0.035164155,-0.061985373,-0.47884035,0.30645782,-9.193734,0.93436235,47.64927,-0.89353335,-1.8660446,-3.8173294,-0.0059361067,-0.36178106,-0.2822944,26.0625,26.875,25.9375,29.0,30.0,30.375
0.31005254,-1.0034734,-0.34228984,-0.20355092,-0.0010560876,0.023213673,-0.14253744,-0.40392062,-0.35216913,0.060037315,-3.0710216,0.6247954,5.1824216e-05,-0.15087451,-0.025525406,0.00050461234,0.04200561,-0.0042594364,-6.735828e-05,0.46738508,-1.3786312,1.899022,-2.0849726,-1.5767225,2.4432945,-0.06511434,0.30907086,-0.39032212,0.10372311,-0.036496114,-0.06462605,-0.45968673,0.36391866,-9.232041,0.9164598,47.661808,-0.9903861,-1.8132169,-3.595861,0.005252927,-0.35244358,-0.2491029,26.0625,26.875,25.9375,29.0,30.0,30.375
0.3120516,-0.95363396,-1.5509423,-0.1492392,-0.012173745,0.033923604,-0.13787644,-0.40420493,-0.35219535,0.060001753,-3.070827,0.6248113,1.1034526e-05,-0.1522699,-0.025101442,0.0017225939,0.042463575,-0.0020046746,0.00040292676,0.46726465,-1.3779699,1.898269,-2.0847447,-1.5768551,2.4432101,-0.066089325,0.30846536,-0.39285603,0.10503946,-0.03794172,-0.06605693,-0.45968673,0.47884032,-9.212888,0.9254084,47.66271,-0.98339814,-1.8519107,-3.6390069,0.026724502,-0.36492378,-0.21666087,26.0625,26.875,25.9375,29.0,30.0,30.375
0.3140517,-1.8251375,-2.1493094,-0.023389727,-0.046089943,0.042500947,-0.1422847,-0.40451708,-0.35228664,0.06005244,-3.070841,0.624697,0.00011016676,-0.15536796,-0.023249885,0.0023413769,0.04455318,-0.0018680859,0.0008826177,0.46717915,-1.3773932,1.8974189,-2.0845158,-1.5769032,2.4430518,-0.07067959,0.3109869,-0.3982185,0.10866906,-0.039895415,-0.0711146,-0.61291564,0.51714754,-9.212888,0.947788,47.650166,-0.7509295,-1.695512,-3.677371,0.003357666,-0.3463867,-0.15575635,26.0625,26.875,25.9375,29.0,30.0,30.375
0.31605166,-1.8018962,-2.207739,0.17902662,-0.061946247,0.055649005,-0.14578535,-0.4048386,-0.35232195,0.060024098,-3.0707185,0.6247278,9.329764e-05,-0.1527987,-0.023415491,0.00089772296,0.049018845,-0.008264137,0.002882055,0.46701244,-1.3767073,1.8966297,-2.0843341,-1.5769881,2.442921,-0.06739394,0.3133538,-0.3993823,0.11518741,-0.04099356,-0.0698185,-0.57460845,0.51714754,-9.212888,0.98135734,47.704796,-0.8825199,-1.7466764,-3.713272,-0.029641975,-0.33855963,-0.129069,26.0625,26.875,25.9375,29.0,30.0,30.375
0.3180524,-1.0495275,-1.3787521,0.30274668,-0.05112742,0.067268044,-0.15163822,-0.40516847,-0.35234717,0.06003317,-3.0706058,0.6246849,0.00015517503,-0.15364666,-0.021760603,0.0017672564,0.05196917,-0.01037126,0.00147528,0.4668434,-1.3760829,1.8958172,-2.0841038,-1.5771083,2.4427404,-0.069827646,0.31343997,-0.403178,0.12209112,-0.04268501,-0.07083245,-0.4213795,0.38307226,-9.11712,0.90750587,47.682407,-0.8311173,-1.6691606,-3.613264,-0.081630096,-0.328812,-0.103743255,26.0625,26.875,25.9375,29.0,30.0,30.375
0.32005242,-0.92761874,-0.50862736,0.27529487,-0.009169594,0.042268198,-0.14975125,-0.40545133,-0.3523862,0.060006272,-3.0704854,0.62471646,2.0627187e-05,-0.15383562,-0.020423057,0.0011244778,0.054268446,-0.014307417,0.0005382807,0.46668676,-1.3754337,1.8950514,-2.0838516,-1.5771445,2.4426198,-0.07202054,0.3152632,-0.40509516,0.12671882,-0.042981964,-0.07208049,-0.28730422,0.34476504,-9.002198,0.9186956,47.675243,-0.6996002,-1.614591,-3.6851196,-0.15204705,-0.31285352,-0.053178698,26.0625,26.875,25.9375,29.0,30.0,30.375
0.3220523,-0.26325998,0.34114283,0.37269226,0.034504876,0.023827003,-0.14421259,-0.40577132,-0.35244614,0.06000453,-3.0703924,0.62466,8.5921034e-05,-0.15331553,-0.019275827,-0.00090451614,0.05854631,-0.020709738,-0.003936129,0.4665786,-1.374771,1.8942255,-2.083658,-1.5772527,2.4424891,-0.072891265,0.31980017,-0.40721315,0.13195701,-0.043902885,-0.068468705,-0.24899697,0.114921674,-8.963891,0.9947882,47.657326,-0.6437277,-1.7610056,-3.6483161,-0.20162833,-0.32051784,-0.061245736,26.0625,26.875,25.9375,29.0,30.0,30.375
0.32405213,0.0023383284,1.4765593,0.4584416,0.053317264,-0.011969982,-0.14751586,-0.406072,-0.3524881,0.059975717,-3.0702705,0.6245965,1.7325309e-06,-0.15576194,-0.0199634,0.00063740456,0.057888053,-0.017543705,-0.0059104287,0.46643436,-1.3740861,1.8934239,-2.0834181,-1.5773252,2.4423218,-0.073228434,0.32133135,-0.41299608,0.1330879,-0.044755135,-0.06681846,-0.22984336,-0.038307227,-8.90643,0.96569055,47.66808,-0.6402539,-1.8631451,-3.6292427,-0.23187536,-0.3042099,-0.081535,26.0625,26.875,25.9375,29.0,30.0,30.375
0.326052,0.45200324,1.4572659,0.5270278,0.05810718,-0.0038953137,-0.14722842,-0.40639004,-0.35253423,0.059989374,-3.0701451,0.6246086,-2.614205e-05,-0.15786529,-0.019687572,0.00046432193,0.060030222,-0.015786191,-0.00817078,0.46629032,-1.3734366,1.8925513,-2.0831072,-1.5774106,2.4422023,-0.07375489,0.32480207,-0.41685265,0.13287678,-0.047470387,-0.0650605,-0.28730422,-0.15322891,-8.810662,0.94331104,47.674347,-0.59970814,-1.8449888,-3.54314,-0.24433288,-0.27533868,-0.087486945,26.0625,26.875,25.9375,29.0,30.0,30.375
0.32805204,0.35062933,1.4648432,0.4990952,0.05171197,0.002938479,-0.14931278,-0.40670764,-0.35257334,0.059982598,-3.0700114,0.6246771,-5.1117477e-05,-0.16072151,-0.020371992,0.0018842658,0.059194162,-0.010187712,-0.010717936,0.46613425,-1.372775,1.891724,-2.082857,-1.577495,2.4421072,-0.0738649,0.32604188,-0.42125785,0.1306758,-0.049253304,-0.06260533,-0.114921674,-0.19153613,-8.944737,0.84484416,47.647476,-0.6535402,-2.0037594,-3.429871,-0.22568025,-0.25085676,-0.101757705,26.0625,26.875,25.9375,29.0,30.0,30.375
0.3300518,-0.38665527,0.5145649,0.1580424,0.04162819,0.019028114,-0.14782049,-0.40702733,-0.35260767,0.05997879,-3.0698683,0.6246467,-4.391138e-05,-0.16325524,-0.022026502,0.0011101608,0.056614567,-0.0070424266,-0.013069684,0.46599033,-1.3721131,1.8908871,-2.0825956,-1.5776147,2.4419637,-0.073692136,0.33118755,-0.42450562,0.1248088,-0.04837956,-0.06008048,-0.13407528,-0.15322891,-8.925584,0.9298854,47.677036,-0.5923238,-1.9569335,-3.3005695,-0.19171247,-0.24448389,-0.10572702,26.0625,26.875,25.9375,29.0,30.0,30.375
0.3320518,-1.1552485,-0.33529943,0.2596605,0.019359028,0.03403111,-0.14654578,-0.40734315,-0.35260662,0.059961982,-3.0696285,0.6246538,-2.7264436e-05,-0.16295946,-0.021594452,-0.00019933503,0.058481116,-0.007650148,-0.014130306,0.46583444,-1.3714517,1.8900746,-2.0823085,-1.5778068,2.4418445,-0.073223196,0.33271646,-0.4232003,0.123353206,-0.0497794,-0.05853503,-0.36391866,-0.038307227,-9.078813,0.91198283,47.690468,-0.6645124,-2.0242517,-3.4893725,-0.13802303,-0.21908256,-0.13575107,26.0625,26.875,25.9375,29.0,30.0,30.375
0.33405176,-0.9491825,-0.34103027,0.20786266,-0.019734329,0.074666046,-0.15393701,-0.4076633,-0.35264847,0.059947193,-3.0694897,0.6247206,-0.00012152459,-0.16436896,-0.022109121,-0.00043220713,0.058816683,-0.003914007,-0.014925124,0.46566686,-1.3707544,1.8892139,-2.082023,-1.5778679,2.4417374,-0.07223743,0.33461276,-0.4242237,0.1193012,-0.051771134,-0.056733377,-0.36391866,0.0,-9.097966,1.0104496,47.653748,-0.78467333,-2.0288086,-3.7221355,-0.08361974,-0.20162979,-0.15106064,26.0625,26.875,25.9375,29.0,30.0,30.375
0.33605167,-1.4068097,-1.0564587,-0.11115088,-0.020983102,0.067338675,-0.14325637,-0.4079888,-0.352696,0.059951484,-3.0693579,0.62471193,-0.000111848465,-0.16590223,-0.020841891,-0.00013188475,0.060803827,-0.0018527984,-0.018012173,0.46553412,-1.3700818,1.8883413,-2.0817473,-1.5779766,2.4416173,-0.073964596,0.33490014,-0.42543167,0.119279146,-0.0544752,-0.055349775,-0.21068975,0.2681506,-9.308657,1.0283576,47.70032,-0.5879152,-1.9566672,-3.7751982,-0.06334742,-0.13657074,-0.19124168,26.0,26.875,25.9375,29.0,29.9375,30.375
0.33805162,-1.3954027,-1.8059297,-0.61104214,-0.02058152,0.05847002,-0.14550553,-0.40829864,-0.35274172,0.059932776,-3.0691938,0.62477076,-0.00017305929,-0.1657929,-0.02347389,0.0015250792,0.056930088,7.521498e-05,-0.015735682,0.46540335,-1.3693852,1.8874921,-2.0814722,-1.5780715,2.4415455,-0.070904516,0.3340142,-0.42847872,0.11973472,-0.051890362,-0.054578234,-0.22984336,0.28730422,-9.481039,0.88289046,47.661808,-0.8479151,-1.8436636,-3.7917838,-0.054665677,-0.13799527,-0.20569319,26.0,26.8125,25.9375,29.0,29.9375,30.375
0.34005257,-1.2490984,-2.1141706,-0.9009577,-0.035661347,0.034499463,-0.13586727,-0.40864435,-0.35276556,0.059921794,-3.06903,0.62477374,-0.00013106852,-0.1673741,-0.024014758,0.0007482853,0.05781241,-0.00039930575,-0.01608183,0.46523526,-1.3686873,1.8866314,-2.0812323,-1.578216,2.4414015,-0.07088983,0.33896858,-0.43288526,0.11999542,-0.05248144,-0.054207057,-0.38307226,0.4213795,-9.672575,0.93436235,47.661808,-0.83707124,-1.9169594,-3.744718,-0.040299244,-0.10725127,-0.22594817,26.0,26.8125,25.9375,29.0,29.9375,30.375
0.34205166,-0.63980687,-1.8658931,-1.0946825,-0.0474026,0.033948403,-0.14790101,-0.40894708,-0.35282385,0.059923407,-3.0689125,0.6247891,-0.00014518839,-0.16932188,-0.022375299,0.0010097722,0.059113488,-0.0010001857,-0.020141063,0.46512592,-1.3680382,1.885794,-2.0809681,-1.5783004,2.4413178,-0.07473039,0.3403323,-0.4359238,0.122785814,-0.053380627,-0.05397692,-0.26815057,0.40222588,-9.768343,0.94331104,47.635834,-0.675943,-1.9628398,-3.7265882,-0.023484206,-0.08293803,-0.2592617,26.0,26.8125,25.9375,29.0,29.9375,30.375
0.34405258,-0.79526526,-2.040289,-1.15886,-0.043911032,0.017093228,-0.14645264,-0.40928286,-0.3528649,0.05991978,-3.068752,0.624772,-0.00010663333,-0.16670613,-0.023451004,-0.0007764518,0.06137952,-0.008488785,-0.01740829,0.46499535,-1.3673398,1.8849095,-2.0807025,-1.5784439,2.4411983,-0.07139818,0.34389633,-0.43762884,0.12862161,-0.052042358,-0.05338327,-0.30645782,0.5554548,-9.825804,0.9791215,47.64658,-0.8540199,-2.077011,-3.7605956,-0.08413773,-0.07170192,-0.2919352,26.0,26.8125,25.9375,29.0,29.9375,30.375
0.34605262,-0.8446819,-2.5142524,-1.3526143,-0.034394965,0.013009018,-0.1390567,-0.40961352,-0.3528825,0.05990632,-3.068563,0.62480617,-0.00016474952,-0.16485466,-0.022090262,-0.0037105922,0.06508713,-0.01900062,-0.016695414,0.46481484,-1.3666418,1.8840364,-2.0803888,-1.5785636,2.4410648,-0.07289035,0.34854552,-0.4382826,0.13564679,-0.05065732,-0.055592112,-0.40222588,0.61291564,-10.01734,1.0507371,47.677036,-0.861272,-2.0892754,-3.8737597,-0.15867645,-0.07994907,-0.29367715,26.0,26.8125,25.9375,29.0,29.9375,30.375
0.34805256,-0.13794631,-1.8208003,-1.1263902,-0.05797705,0.03520835,-0.14894694,-0.40995803,-0.3529365,0.059894037,-3.0684419,0.62489694,-0.00022300644,-0.16314246,-0.021743653,-0.005663211,0.06588565,-0.027935876,-0.019376649,0.46464643,-1.365908,1.883128,-2.0801237,-1.5786217,2.4409697,-0.07395795,0.3517901,-0.4393285,0.14178282,-0.047357775,-0.05399993,-0.22984336,0.57460845,-9.959879,0.9925471,47.664497,-0.75329405,-2.2962434,-4.0429716,-0.26046115,-0.09027325,-0.3104968,26.0,26.8125,25.9375,29.0,29.9375,30.375
0.35005248,-0.4455728,-2.2568634,-0.91412884,-0.055739745,0.028578263,-0.14979234,-0.4102895,-0.35299414,0.05989764,-3.0683131,0.62494606,-0.00018720636,-0.16402961,-0.022597132,-0.0043827896,0.0639074,-0.027433092,-0.020579275,0.46452636,-1.3652232,1.8822445,-2.0798714,-1.5787295,2.440898,-0.07413807,0.35188293,-0.4431046,0.1441215,-0.04582013,-0.052986298,-0.019153614,0.38307226,-9.844957,0.9254084,47.65464,-0.7652575,-2.247714,-4.0783987,-0.29837954,-0.107396334,-0.35658842,26.0,26.8125,25.9375,29.0,29.9375,30.375
0.35205242,-0.50106305,-1.9372343,-0.91394395,-0.03664428,0.00022152836,-0.13546237,-0.4106505,-0.35304698,0.05991476,-3.06822,0.6249646,-0.00015629406,-0.16757654,-0.023929631,-0.0028331594,0.0609092,-0.024006292,-0.021716973,0.46435788,-1.3645257,1.8813094,-2.0795963,-1.578813,2.440754,-0.07550627,0.3551039,-0.45071486,0.1440862,-0.044703353,-0.053221166,0.019153614,0.30645782,-9.787497,0.9410752,47.64837,-0.73057926,-2.2682505,-3.7585208,-0.35674375,-0.095386244,-0.39194548,26.0,26.8125,25.9375,29.0,29.9375,30.375
0.35405245,0.2269892,-1.0855005,-0.7130933,-0.02529888,-0.005491763,-0.14141797,-0.41098404,-0.3530804,0.059879314,-3.0680313,0.6249782,-0.0002215995,-0.17032257,-0.026423352,0.00042941235,0.05477486,-0.015255689,-0.017888673,0.4642024,-1.3637698,1.8804244,-2.0793226,-1.5789326,2.4406326,-0.07446329,0.35289907,-0.4548003,0.13976388,-0.043188803,-0.056011643,-0.038307227,0.2681506,-9.595961,0.95226496,47.64479,-0.76245165,-2.1228693,-3.7527163,-0.27091503,-0.11884308,-0.394019,26.0,26.8125,25.9375,29.0,29.9375,30.375
0.3560524,0.15282355,-0.5131685,-0.9892988,-0.006417044,-0.026078438,-0.14171903,-0.41133824,-0.35315713,0.059916176,-3.0679739,0.6251201,-0.00016295273,-0.17380834,-0.028562823,0.0020555886,0.049304232,-0.0066923294,-0.018326024,0.46405843,-1.3631089,1.8794903,-2.0790622,-1.5789798,2.4405854,-0.07435581,0.35381076,-0.4580971,0.1320347,-0.042156138,-0.05547431,0.0,0.30645782,-9.595961,0.9791215,47.704796,-0.7822655,-1.9755256,-3.6177716,-0.2122216,-0.13196148,-0.4022455,26.0,26.8125,25.9375,29.0,29.9375,30.375
0.35805237,0.14810836,-0.41124234,-0.95087945,-0.01925412,-0.014688938,-0.14726569,-0.41167283,-0.35321486,0.05990456,-3.0678642,0.6251135,-0.00020319757,-0.17510855,-0.029572526,0.001598433,0.04701576,-0.0040429076,-0.01768003,0.4639144,-1.3623872,1.8785933,-2.0788004,-1.5790519,2.4404523,-0.07417985,0.35586727,-0.45867,0.12714085,-0.041319866,-0.055947307,0.19153613,0.28730422,-9.825804,0.8985519,47.691364,-0.78647256,-1.9136071,-3.7138848,-0.12137042,-0.15473422,-0.45987326,26.0,26.8125,25.9375,29.0,29.9375,30.375
0.3600523,-1.1782274,-2.121067,-1.0713917,-0.01952651,-0.010283289,-0.1272136,-0.41202605,-0.3532892,0.059925187,-3.0677886,0.62515247,-0.0001597403,-0.1758789,-0.030170105,0.00087270583,0.045950867,-0.004172894,-0.01456805,0.46378246,-1.3616893,1.8776506,-2.0785372,-1.5791234,2.4403553,-0.07433753,0.35849157,-0.46002272,0.12546882,-0.040342547,-0.059223957,0.076614454,0.24899697,-9.825804,0.98807013,47.65912,-0.8426734,-2.084587,-3.8229115,-0.06216958,-0.17678344,-0.44611007,26.0,26.8125,25.9375,29.0,29.9375,30.375
0.36205223,-0.7911336,-1.8784055,-0.91283906,-0.06044349,0.031345624,-0.13956815,-0.41240174,-0.35333738,0.05995285,-3.0677102,0.625152,-7.5761905e-05,-0.17610873,-0.030632364,-0.00037422957,0.04612343,-0.0056848717,-0.011444731,0.4636025,-1.3610038,1.8767065,-2.0782745,-1.5792197,2.440186,-0.07395063,0.36178225,-0.46119285,0.12474005,-0.03984815,-0.061964,-0.019153614,0.24899697,-9.749189,1.0283576,47.62061,-0.8242272,-2.161021,-3.9662385,-0.035764243,-0.18312521,-0.44108188,26.0,26.8125,25.9375,29.0,29.9375,30.375
0.36405215,-0.98370653,-1.8726563,-1.0605462,-0.036721155,0.029380355,-0.14484161,-0.41273972,-0.3533768,0.059927985,-3.0675473,0.6251526,-0.00012673851,-0.17682251,-0.031761494,-0.0002341032,0.046627752,-0.00768437,-0.00711014,0.4634471,-1.3602593,1.8758076,-2.077997,-1.5793275,2.4400532,-0.07280581,0.3654863,-0.46714854,0.12896423,-0.039442115,-0.0651506,0.11492168,0.22984336,-10.01734,0.99031126,47.619713,-0.9430007,-2.2025125,-3.8300443,-0.012511243,-0.21250269,-0.4238032,26.0,26.8125,25.9375,29.0,29.9375,30.375
0.36605173,-0.75499535,-1.2323788,-0.64815986,-0.037415292,0.038424447,-0.14229123,-0.4131153,-0.35348135,0.059954733,-3.0675678,0.62509805,-2.3979293e-05,-0.1791952,-0.031025358,-0.00078145904,0.046266362,-0.007587132,-0.007007774,0.4633259,-1.3595387,1.8748382,-2.0778067,-1.5793632,2.4398956,-0.07613507,0.3688499,-0.4700115,0.12817764,-0.03919333,-0.06858572,-0.038307227,0.2681506,-9.80665,1.0507371,47.660015,-0.75162953,-2.3139257,-3.7237644,0.012570201,-0.23045382,-0.39763504,26.0,26.8125,25.9375,29.0,29.9375,30.375
0.36805177,0.023674643,-0.2806596,-0.86924845,-0.013240986,0.024168495,-0.15363364,-0.41347054,-0.3535455,0.059963185,-3.0674865,0.62509555,2.2737913e-05,-0.17880698,-0.033681866,0.0008314616,0.044792257,-0.0057485444,0.0012363258,0.4631833,-1.3588313,1.8739151,-2.077566,-1.5794472,2.4397628,-0.07150067,0.36860207,-0.47405997,0.1301262,-0.038730625,-0.072197795,-0.15322891,0.34476507,-9.634268,0.8873621,47.645687,-0.9763013,-2.1197395,-3.751875,0.0149664655,-0.2604192,-0.34740573,26.0,26.8125,25.9375,29.0,29.9375,30.375
0.3700517,-0.18306848,-0.36553934,-1.2135309,0.008496387,0.00061642675,-0.1451012,-0.41378853,-0.35360113,0.059942584,-3.067341,0.6250424,-0.000106322266,-0.17857137,-0.032148246,0.00078059785,0.046625502,-0.0096140355,0.0025172664,0.46305087,-1.3580883,1.8729934,-2.0772288,-1.5795192,2.4396172,-0.073845096,0.3684866,-0.47529095,0.13570786,-0.038673915,-0.075818315,-0.1340753,0.36391866,-9.672575,0.9768804,47.66091,-0.99435425,-2.119155,-3.8771815,0.019224115,-0.29155546,-0.29681647,26.0,26.8125,25.9375,29.0,29.9375,30.375
0.37205258,-0.3558941,-0.4326025,-0.7662525,-0.015826356,-0.0008299906,-0.147127,-0.414182,-0.35367996,0.059991453,-3.0673122,0.6250748,2.653977e-05,-0.17752488,-0.029979048,0.0006706259,0.05044637,-0.016235046,0.0027748826,0.46289378,-1.3573927,1.8719882,-2.0769737,-1.5795912,2.4394846,-0.07623637,0.36823228,-0.4771041,0.14537281,-0.0391363,-0.07846605,-0.1340753,0.36391866,-9.672575,0.9791215,47.651955,-0.8096472,-1.9630877,-4.004362,-0.056839906,-0.28929165,-0.26266173,26.0,26.8125,25.9375,29.0,29.9375,30.375
0.37405244,-0.25365996,-0.5690456,-0.39967638,-0.020647218,-0.0049535036,-0.14555953,-0.41452655,-0.35373536,0.05998264,-3.0672061,0.6250475,-1.44740525e-05,-0.17490818,-0.030116614,0.00010697418,0.054703694,-0.023471322,0.007950297,0.46273905,-1.3566611,1.8710655,-2.0766957,-1.5796636,2.4393275,-0.07332929,0.36963934,-0.47991785,0.15512583,-0.03972739,-0.080726035,-0.1340753,0.30645782,-9.404425,1.0015011,47.64121,-1.0563776,-1.8133559,-3.961616,-0.16618618,-0.31931394,-0.21253052,26.0,26.8125,25.9375,29.0,29.9375,30.375
