Tylouw/Master_Thesis_Code/training_data/batch_1/small_rod_t0.1/sample_22_session_1.csv
timestamp[s],tcp_force_x[N],tcp_force_y[N],tcp_force_z[N],tcp_force_rx[Nm?],tcp_force_ry[Nm?],tcp_force_rz[Nm?],tcp_pose_x[m],tcp_pose_y[m],tcp_pose_z[m],tcp_pose_rx[rot_vec_x],tcp_pose_ry[rot_vec_y],tcp_pose_rz[rot_vec_z],tcp_velo_x[m/s],tcp_velo_y[m/s],tcp_velo_z[m/s],tcp_velo_rx[rot_vec_x/s],tcp_velo_ry[rot_vec_y/s],tcp_velo_rz[rot_vec_z/s],q1[rad],q2[rad],q3[rad],q4[rad],q5[rad],q6[rad],qd1[rad/s],qd2[rad/s],qd3[rad/s],qd4[rad/s],qd5[rad/s],qd6[rad/s],tool_acc_x,tool_acc_y,tool_acc_z,current_of_whole_robot[A],voltage_of_whole_robot[V],current_J1[A],current_J2[A],current_J3[A],current_J4[A],current_J5[A],current_J6[A],temp_J1[C],temp_J2[C],temp_J3[C],temp_J4[C],temp_J5[C],temp_J6[C]
7.720082e-07,-0.35741085,-0.4652272,-0.19170414,-0.02730999,0.016127951,-0.002575502,-0.38107458,-0.34855637,0.060006235,-3.0785806,0.62481314,-8.8080225e-05,0.001898275,0.0009814205,-0.0016698213,0.0018986542,-0.003918716,1.7965292e-05,0.4778342,-1.4259579,1.9576553,-2.1008208,-1.5707573,2.4527402,-6.775292e-05,-1.5129745e-05,0.003674845,0.00069272687,0.00012554278,-8.792782e-05,0.05746084,0.15322891,-8.63828,0.80679786,47.752266,0.03427395,-2.6785002,-2.4161685,-0.4538354,0.15830547,0.061284382,25.25,25.875,25.125,27.625,28.1875,28.5
0.002052411,-0.48968843,-0.40078247,-0.028029349,-0.023869155,0.0143390605,-0.008189028,-0.38104492,-0.34854093,0.05996068,-3.0785418,0.6247862,-0.0001726241,-0.0010288693,-0.0005446816,-0.0031889726,-0.0013483461,0.0022957623,2.083509e-05,0.4778342,-1.425932,1.9577392,-2.1008613,-1.5707573,2.4527283,-6.674796e-05,0.00509013,0.004207416,-0.011956696,0.00012308978,-8.671372e-05,0.019153614,0.11492168,-8.7532015,0.7978386,47.71465,3.2344833e-05,-2.8542128,-2.4520903,-0.40300035,0.16643956,0.06597473,25.25,25.875,25.125,27.625,28.1875,28.5
0.004052212,-0.1464809,-0.5961989,-0.17763974,-0.021089764,0.0236358,-0.001654396,-0.38105178,-0.34853965,0.05996459,-3.0785298,0.62493855,-0.00019609992,-0.0018785662,-0.0009869037,-0.0026638357,-0.002592929,0.0046919086,2.1305947e-05,0.4778101,-1.4259322,1.9577278,-2.1008499,-1.5707334,2.4528008,-6.5772416e-05,0.004939662,0.0036270234,-0.013925919,0.000120730976,-8.553987e-05,0.0,0.17238252,-8.695741,0.7284641,47.70211,0.06340161,-3.1335518,-2.6664028,-0.30658254,0.16934204,0.07096397,25.25,25.875,25.125,27.625,28.1875,28.5
0.006052442,-0.12616573,-0.27545843,-0.047283262,-0.013215276,0.0072293626,-0.006859515,-0.38105765,-0.3485227,0.05994081,-3.0784953,0.62489194,-0.00018921576,-0.0015258007,-0.00080766575,-0.0012614959,-0.0022072806,0.0039360067,2.0688545e-05,0.47779807,-1.4258971,1.9577497,-2.1008832,-1.5707697,2.452764,-6.482095e-05,0.0027610855,0.0018006779,-0.0090724565,0.00013316661,-8.439417e-05,-0.05746084,0.22984336,-8.599973,0.7597976,47.682407,0.06928548,-3.0359545,-2.5854611,-0.34371945,0.16873613,0.057855066,25.25,25.875,25.125,27.625,28.1875,28.5
0.008052443,-0.0058178385,0.045076262,-0.72450703,0.019755838,-0.011535483,0.0026607409,-0.38106206,-0.3485385,0.059946366,-3.0785282,0.6248028,-0.00016149654,-0.0008890287,-0.0004755938,-3.2263873e-05,-0.0017283108,0.0030300317,1.9646459e-05,0.47782204,-1.4258859,1.9577268,-2.1008942,-1.5707697,2.4527283,-6.3903906e-05,0.00020159128,0.00088445476,-0.0045719743,0.00013274016,-8.327869e-05,0.019153614,0.1340753,-8.848969,0.75084364,47.675243,0.061861172,-2.8413467,-2.4749618,-0.39156133,0.1502445,0.06701194,25.25,25.875,25.125,27.625,28.1875,28.5
0.010052549,0.08157452,0.31539008,-1.1161743,0.011673868,-0.013665986,-0.004145084,-0.38102284,-0.34852946,0.0599075,-3.0784714,0.62482923,-0.00029032183,-0.00046791916,-0.0002558978,-2.1628079e-05,-0.0010476765,0.0017289735,1.914829e-05,0.4778342,-1.4258621,1.9577855,-2.1008813,-1.5707573,2.452764,-6.300964e-05,2.7046042e-06,0.00065505377,-0.0026753494,0.00013046738,-8.2191254e-05,0.095768064,0.1340753,-9.059659,0.8224646,47.703903,-0.1304195,-2.1824942,-3.2535386,-0.39331996,0.1603845,0.014298886,25.25,25.875,25.125,27.625,28.1875,28.5
0.012052376,0.1638402,-0.30783093,-1.2290857,-0.013470272,0.00759757,-0.005170237,-0.38105783,-0.3485161,0.059930418,-3.0784705,0.6248869,-0.0002388201,-0.0012621415,-0.0006563607,-0.003753118,0.0028467025,-0.005801111,1.7762984e-06,0.47778615,-1.4258698,1.9577364,-2.1008565,-1.5707697,2.452752,-9.355433e-05,0.011684169,-0.0045966133,-0.00062762166,0.00012815387,-9.1253714e-05,0.11492168,0.13407528,-9.212888,0.8179876,47.689575,-0.21568301,-2.3228993,-3.4314308,-0.3887776,0.14616743,0.012641979,25.25,25.875,25.125,27.625,28.1875,28.5
0.014052468,-0.25594023,-1.0897152,-1.4444617,-0.031480342,0.026470164,-0.00557716,-0.3810313,-0.34855127,0.059909996,-3.0785134,0.62483793,-0.0003263921,-0.0034625586,-0.0017042966,-0.0040230798,0.002958983,-0.0060380637,-0.00011624508,0.47783414,-1.4258322,1.9577454,-2.1008804,-1.5707096,2.452764,-0.0002718284,0.017466411,-0.010703465,-4.097921e-05,0.00012591317,-0.00014761709,-0.15322891,0.2681506,-9.385271,0.7665104,47.701214,-0.3831604,-2.792076,-3.182769,-0.39488268,0.15415716,-0.011748292,25.25,25.875,25.125,27.625,28.1875,28.5
0.016051644,-1.1504347,-1.841254,-1.5711434,-0.05525421,0.045881204,-0.0021559875,-0.38105658,-0.3484988,0.059887797,-3.0783904,0.6248902,-0.0003305246,-0.0061862706,0.0003939832,-0.0035960157,0.002506968,-0.005171262,-0.0016969352,0.47777197,-1.4257841,1.9577335,-2.100845,-1.5707935,2.4527502,-0.0065218126,0.01769291,-0.011946747,-2.6756497e-06,0.0001237492,-0.004816261,-0.21068975,0.38307226,-9.557653,0.7239871,47.683304,-0.18615246,-2.5683463,-3.362733,-0.3823131,0.16181979,-0.013659497,25.25,25.875,25.125,27.625,28.1875,28.5
0.018052338,-1.6950575,-2.0262556,-1.6962875,-0.07156828,0.0520764,-0.011279073,-0.38105348,-0.3485213,0.0598961,-3.0784302,0.62480146,-0.0004084652,-0.006132906,0.00069531583,-0.0036935818,0.0035440587,-0.0071656727,0.0011279396,0.4777838,-1.4257599,1.957673,-2.1007836,-1.5707458,2.4527016,-0.0070075784,0.018576585,-0.013364094,0.002778689,0.00012165822,-0.0081266025,-0.19153613,0.38307226,-9.749189,0.7597976,47.69763,-0.088970646,-2.349626,-3.526247,-0.39961064,0.13877845,0.015957082,25.25,25.875,25.125,27.625,28.1875,28.5
0.020052182,-2.0567658,-2.2896519,-1.8805962,-0.07759451,0.061694816,-0.0046849013,-0.3810491,-0.3484884,0.05985455,-3.07832,0.62485445,-0.00047869558,-0.006372751,-0.00034956879,-0.0035229146,0.0037513862,-0.007571712,0.0035617475,0.47776031,-1.4256992,1.9576958,-2.1007712,-1.5707935,2.4527252,-0.005372898,0.020621564,-0.016418766,0.004243747,0.0001196367,-0.008924165,-0.51714754,0.49799395,-9.710882,0.86498255,47.72719,-0.24785775,-2.4299808,-3.4723907,-0.41405696,0.14167562,0.029874407,25.25,25.875,25.125,27.625,28.1875,28.5
0.02205227,-1.6844215,-2.6523063,-1.8788003,-0.062038243,0.07568415,-0.014188825,-0.3810562,-0.3485077,0.059849422,-3.078357,0.62480444,-0.00048751303,-0.006663826,-0.0009578733,-0.003689074,0.0037078073,-0.0074902195,0.0039159884,0.4777726,-1.4256628,1.9576715,-2.1007955,-1.5707697,2.4527016,-0.004561038,0.022198671,-0.017763758,0.0039195195,0.00011768122,-0.008465546,-0.5746084,0.63206923,-9.691729,0.8224646,47.72002,-0.3331163,-2.369224,-3.483118,-0.40442228,0.15105577,0.012102541,25.25,25.875,25.125,27.625,28.1875,28.5
0.024052499,-2.2056773,-2.0692644,-1.9772012,-0.068719104,0.06833518,-0.022482397,-0.3810683,-0.34851828,0.059848607,-3.0783525,0.6248043,-0.0005272071,-0.00884151,-0.0011390126,-0.0025548262,0.0021564756,-0.004508932,0.0023464388,0.4777721,-1.4256146,1.9576105,-2.1007602,-1.5707573,2.4527016,-0.0062545766,0.02269888,-0.02072231,0.0030171936,0.00011578886,-0.008587781,-0.49799395,0.59376204,-9.921572,0.7709874,47.698532,-0.4400699,-2.2858996,-3.5283732,-0.38398615,0.15130134,-0.013534812,25.25,25.875,25.125,27.625,28.1875,28.5
0.026052302,-1.6476861,-1.877444,-2.0579422,-0.08051605,0.0730819,-0.032501813,-0.3811184,-0.34851497,0.059846573,-3.0783453,0.62482154,-0.00047420833,-0.010177648,-0.0011017708,-0.0021496243,0.0015335628,-0.0033130287,0.0017056238,0.47773555,-1.4255426,1.9575385,-2.100784,-1.5707816,2.4526768,-0.0075561646,0.023569012,-0.022554094,0.0026301215,0.00011395626,-0.00924741,-0.40222588,0.47884035,-9.959879,0.7172743,47.709274,-0.43458062,-2.1902738,-3.5716534,-0.38815337,0.1395237,-0.01991096,25.25,25.875,25.125,27.625,28.1875,28.5
0.028052239,-1.8325784,-2.435393,-1.7624445,-0.061457347,0.05307281,-0.033942617,-0.38109455,-0.34851128,0.059830625,-3.0783195,0.62481606,-0.0005861171,-0.011580717,-0.0013631235,-0.0014680485,0.0007840765,-0.0018767872,0.0023247097,0.47773525,-1.4255303,1.9575499,-2.100736,-1.5707573,2.4526763,-0.008390684,0.024493326,-0.025185797,0.0027174784,0.00011218064,-0.010699563,-0.61291564,0.40222588,-9.825804,0.7866488,47.693153,-0.37701416,-2.2912424,-3.571001,-0.37088424,0.1189896,-0.021337545,25.25,25.875,25.125,27.625,28.1875,28.5
0.030056713,-1.1997048,-1.2940589,-1.6368345,-0.05192222,0.06451367,-0.053755544,-0.38117117,-0.3485329,0.05985397,-3.0783727,0.6247705,-0.00047193826,-0.012435986,-0.0010499991,-0.0018538255,0.0013060368,-0.0028841626,0.0013397037,0.47771072,-1.4254456,1.9574054,-2.1007597,-1.5707697,2.4526167,-0.00973752,0.026601896,-0.026872134,0.0034296324,0.000110459725,-0.011060339,-0.57460845,0.3256114,-9.768343,0.7978386,47.690468,-0.4350711,-2.237023,-3.4783432,-0.35869554,0.12027399,-0.029938504,25.25,25.875,25.125,27.625,28.1875,28.5
0.032052483,-1.1850498,-0.7003855,-1.5637187,-0.026010461,0.061079632,-0.06718958,-0.38118368,-0.3485434,0.059831925,-3.078361,0.62486434,-0.0005785414,-0.0133815305,-0.0011052587,-0.0018318373,0.0012996276,-0.0028767663,0.0003403727,0.4776865,-1.4253612,1.9573568,-2.1007473,-1.5707215,2.4526525,-0.010513893,0.028233211,-0.028864566,0.0037818009,0.00010879061,-0.010836194,-0.38307226,0.28730422,-9.576807,0.85155696,47.703007,-0.45454866,-2.2967932,-3.5545073,-0.34959227,0.13152993,-0.034071796,25.25,25.875,25.125,27.625,28.1875,28.5
0.03405196,-1.0567237,-0.29091275,-1.4779896,-0.009132679,0.056889612,-0.07613736,-0.38121885,-0.34855536,0.05982376,-3.0783687,0.6248082,-0.00049706525,-0.01532759,-0.0017802835,-0.00066571287,1.0458289e-05,-0.00040145993,0.0005703594,0.47769833,-1.4252889,1.9573067,-2.1008074,-1.5707573,2.4526284,-0.0111150965,0.029391265,-0.032863963,0.0038317372,0.00010717129,-0.01166519,-0.30645782,0.1340753,-9.615114,0.7620334,47.711964,-0.47767445,-2.2915077,-3.5075169,-0.35217708,0.1262463,-0.05083338,25.25,25.875,25.125,27.625,28.1875,28.5
0.036052544,-1.0645372,0.25857195,-1.3100345,-0.00987648,0.050398063,-0.09188507,-0.3812466,-0.34854674,0.05983083,-3.0783617,0.62480724,-0.0005391707,-0.017241335,-0.001904064,-0.00020300965,-0.00060911634,0.000782207,-0.0007005204,0.47764987,-1.4252523,1.9572352,-2.1007473,-1.5707458,2.4525802,-0.012665052,0.031407367,-0.036223184,0.0038389522,0.000105599436,-0.011942254,-0.2681506,0.05746084,-9.576807,0.7530795,47.70211,-0.46138847,-2.280713,-3.4851713,-0.32205987,0.09463014,-0.052132927,25.25,25.875,25.125,27.625,28.1875,28.5
0.038051657,-0.2661436,0.19180608,-1.4275634,-0.011063743,0.06393959,-0.11379526,-0.38128477,-0.34855974,0.059837863,-3.0783732,0.6248287,-0.0005093352,-0.018222453,-0.002108743,6.6696426e-05,-0.0009364477,0.0014087949,-0.00045518667,0.47763765,-1.425192,1.9571503,-2.1007473,-1.5707458,2.45258,-0.013207847,0.032601792,-0.038226686,0.0039409897,0.000104073115,-0.012729202,-0.21068975,-0.019153614,-9.595961,0.77545905,47.71823,-0.5109266,-2.2958307,-3.3904738,-0.3053117,0.105321184,-0.070226714,25.25,25.875,25.125,27.625,28.1875,28.5
0.040051777,-1.1571794,-0.68219477,-1.6063464,0.002825548,0.030244362,-0.102644324,-0.38130808,-0.34854263,0.059799764,-3.078296,0.6248898,-0.0005741756,-0.01934646,-0.0017193933,-1.5695108e-05,-0.00042595537,0.0004188697,-0.0013199033,0.47760108,-1.4250835,1.9571136,-2.1007469,-1.5707697,2.4525914,-0.014938908,0.034639448,-0.040723547,0.0055135572,0.00010259022,-0.01359429,-0.15322891,-0.019153614,-9.653421,0.86498255,47.71465,-0.49228048,-2.2695994,-3.4447417,-0.31370476,0.114268534,-0.0739896,25.25,25.875,25.125,27.625,28.1875,28.5
0.04205185,-0.8333039,-0.16106457,-1.5439905,-0.011263349,0.028519599,-0.119421974,-0.3813709,-0.34857062,0.05984723,-3.0784104,0.62479657,-0.00045194267,-0.019826483,-0.0020600446,-5.27964e-06,7.849011e-05,-0.00052958424,-0.0002980707,0.47757718,-1.425071,1.9569935,-2.1007588,-1.5707458,2.4524949,-0.014768537,0.036578108,-0.043361984,0.0072877775,9.015573e-05,-0.014444431,-0.17238252,-0.019153614,-9.557653,0.8023209,47.677036,-0.52593756,-2.229104,-3.3880153,-0.30048487,0.09483752,-0.05662548,25.25,25.875,25.125,27.625,28.1875,28.5
0.044052012,-0.7394495,-0.9709348,-1.5594962,-0.00061699277,0.032287028,-0.12709956,-0.38140035,-0.34855458,0.059826154,-3.0783381,0.6248796,-0.00052904716,-0.020971952,-0.0021382426,0.00090145454,-0.00055384176,0.0006903454,-0.0018075852,0.4775288,-1.4249749,1.956921,-2.1007102,-1.5707573,2.4525075,-0.015685493,0.036645733,-0.0457245,0.00820854,8.738697e-05,-0.013850864,-0.2681506,0.076614454,-9.557653,0.7105615,47.72002,-0.43627232,-2.195855,-3.3685045,-0.32015544,0.09608881,-0.04367073,25.25,25.875,25.125,27.625,28.1875,28.5
0.046052434,-0.4826006,-0.93664557,-1.4528679,-0.006509005,0.04481178,-0.13831866,-0.3814613,-0.3485774,0.059852246,-3.078361,0.6248651,-0.00043113442,-0.021728009,-0.002322538,0.0005299467,-0.000223322,4.978276e-05,-0.0035563428,0.4775287,-1.4249024,1.956776,-2.1006982,-1.5707816,2.4524956,-0.016056309,0.03908982,-0.047729474,0.008490149,8.609356e-05,-0.012471577,-0.19153613,0.17238252,-9.500193,0.7642693,47.690468,-0.46538872,-2.1466696,-3.3592498,-0.32209125,0.09075688,-0.06904286,25.25,25.875,25.125,27.625,28.1875,28.5
0.048052534,-0.83775187,-1.2802352,-1.6155639,-0.0033550423,0.03947807,-0.15110698,-0.38147753,-0.34858522,0.05983259,-3.0783644,0.6249054,-0.0004986565,-0.022567851,-0.0022344936,0.00016718124,0.00054461404,-0.001341814,-0.004949639,0.47750425,-1.4248295,1.9567403,-2.1007092,-1.5707458,2.4524958,-0.016961016,0.04175882,-0.050283015,0.009964229,4.141301e-05,-0.01198149,-0.05746084,0.2681506,-9.519346,0.7866488,47.690468,-0.44795382,-2.1731234,-3.4162383,-0.30301082,0.088363126,-0.10214485,25.25,25.875,25.125,27.625,28.1875,28.5
0.050051697,-0.9661599,-1.0728053,-1.5394356,-0.02751724,0.039397284,-0.15951337,-0.38152975,-0.34856993,0.059853565,-3.0783513,0.6248451,-0.00048771352,-0.023025839,-0.0022909867,0.0013825938,2.4209983e-05,-0.00031963584,-0.0055698575,0.4774443,-1.4247822,1.9566191,-2.1006253,-1.5707697,2.4524,-0.017275508,0.040381964,-0.051915377,0.011826246,3.465085e-05,-0.011675523,-0.114921674,0.24899697,-9.576807,0.84708,47.70211,-0.48049793,-2.0567503,-3.3785644,-0.33868563,0.08322136,-0.11625403,25.25,25.875,25.125,27.625,28.1875,28.5
0.052051637,-0.83314717,-1.6242826,-1.4787138,-0.043453515,0.04482658,-0.16260561,-0.38159788,-0.34857163,0.05985815,-3.0783324,0.62501454,-0.00045851394,-0.02361676,-0.002690866,0.000996111,0.0002973103,-0.0008264066,-0.0053206906,0.47738427,-1.4246856,1.9564985,-2.1006253,-1.5707697,2.4524481,-0.01710012,0.042816903,-0.053825006,0.01187657,2.1152373e-05,-0.011747944,-0.1340753,0.28730422,-9.557653,0.86498255,47.686886,-0.51576835,-2.0447395,-3.389719,-0.32923353,0.0773242,-0.12723295,25.25,25.875,25.125,27.625,28.1875,28.5
0.05405186,-0.65063775,-2.1336825,-1.6840006,-0.04681448,0.051896483,-0.15811689,-0.38163114,-0.34858686,0.059863266,-3.0783174,0.6249539,-0.0004517195,-0.02494136,-0.0027706085,0.0011675275,0.00015922291,-0.0005347301,-0.0057888106,0.47739595,-1.4246008,1.9563793,-2.100577,-1.5707935,2.452424,-0.018172884,0.044747267,-0.056523804,0.012322152,4.5360252e-06,-0.012350988,-0.19153613,0.40222588,-9.576807,0.7553206,47.703903,-0.49685952,-2.1511912,-3.3827646,-0.33906844,0.07035197,-0.13681248,25.25,25.875,25.125,27.625,28.1875,28.5
0.056052417,-0.72031903,-2.3557343,-1.4888443,-0.048728064,0.043169815,-0.1329701,-0.3816755,-0.348603,0.05986453,-3.0783348,0.6249757,-0.00050131493,-0.026439121,-0.003581938,0.0011476891,-1.8361425e-05,-0.00020160808,-0.0051156785,0.47736,-1.424504,1.9562577,-2.1005414,-1.5707573,2.4523995,-0.018113062,0.048297174,-0.060557157,0.012428491,2.9617001e-07,-0.012961728,-0.076614454,0.40222588,-9.557653,0.6971306,47.694946,-0.4945227,-2.0929363,-3.2308924,-0.327413,0.066589765,-0.14831695,25.25,25.875,25.125,27.625,28.1875,28.5
0.058052577,-0.8394378,-2.061973,-1.3713754,-0.053148538,0.040597875,-0.13943611,-0.38173726,-0.34859473,0.059873905,-3.078313,0.62500954,-0.0004391093,-0.025777237,-0.0029570037,-0.00033534423,0.0017060103,-0.0035274534,-0.0044450825,0.47731173,-1.4244313,1.9561504,-2.1005285,-1.5707935,2.4523752,-0.018608326,0.050325856,-0.059675943,0.013264207,1.9337786e-08,-0.01412788,0.019153614,0.53630114,-9.442732,0.77545905,47.701214,-0.531832,-2.1784117,-3.4293342,-0.34211928,0.051277496,-0.13686062,25.25,25.875,25.125,27.625,28.1875,28.5
0.06005254,-0.79620165,-2.1308208,-1.271827,-0.041972615,0.033593155,-0.13356832,-0.3817933,-0.3486103,0.059862375,-3.078322,0.6249728,-0.00043726893,-0.027724978,-0.0035147085,0.0018410727,-0.00044351144,0.00061305164,-0.0048050825,0.47728753,-1.4243001,1.9560298,-2.1005409,-1.5707935,2.452327,-0.01941375,0.04891745,-0.063083336,0.013414711,1.2626192e-09,-0.01457186,-0.17238252,0.4213795,-9.423578,0.7978386,47.71465,-0.45659858,-2.038119,-3.4219265,-0.3294319,0.05954983,-0.14728503,25.25,25.875,25.125,27.625,28.1875,28.5
0.062052824,-0.5584558,-1.5440559,-1.3761442,-0.04838875,0.040194336,-0.134191,-0.3818687,-0.3486291,0.05989277,-3.0783725,0.62505996,-0.00039832277,-0.03059651,-0.0049789106,0.0027651943,-0.0022004824,0.0039775963,-0.004920908,0.4772276,-1.4242269,1.9558715,-2.100517,-1.5707573,2.452315,-0.019463563,0.052559607,-0.06901138,0.011905493,8.244002e-11,-0.014502003,-0.1340753,0.4405331,-9.442732,0.8224646,47.719128,-0.58919096,-2.1099582,-3.205634,-0.35120496,0.031528533,-0.15140687,25.25,25.875,25.125,27.625,28.1875,28.5
0.064051725,-0.7468103,-1.4946928,-1.2776576,-0.041748695,0.032904103,-0.13813654,-0.38192898,-0.34864008,0.059894715,-3.0783794,0.625062,-0.00038517802,-0.03013414,-0.004523387,0.001055224,-0.0007360962,0.0011486863,-0.0052429,0.47719136,-1.4241182,1.9557403,-2.1005056,-1.5707573,2.4522793,-0.01984261,0.0551444,-0.06795576,0.011450541,5.382744e-12,-0.014559099,-0.095768064,0.4405331,-9.442732,0.7329411,47.677036,-0.5017839,-2.131243,-3.3182416,-0.33013248,0.05794625,-0.17278498,25.25,25.875,25.125,27.625,28.1875,28.5
0.066051774,-0.87444013,-1.6680435,-0.9986807,-0.0480559,0.03628267,-0.13549334,-0.38198626,-0.34863585,0.059895147,-3.0783637,0.62509745,-0.0004008264,-0.031696297,-0.004646968,0.0013418079,-0.0005809725,0.0025655208,-0.0051132343,0.47713116,-1.4240217,1.9556211,-2.1004698,-1.5707577,2.4522433,-0.02054574,0.057038125,-0.07070134,0.011117797,-0.0007956254,-0.015388633,-0.1340753,0.49799395,-9.3661175,0.7105615,47.67793,-0.5098198,-2.1084938,-3.2680466,-0.34154403,0.045072965,-0.17608255,25.25,25.875,25.125,27.625,28.1875,28.5
0.06805158,-0.6697706,-1.6964428,-0.89435226,-0.045030825,0.04254657,-0.13829195,-0.38205644,-0.34865433,0.05991522,-3.078358,0.6251533,-0.00035952113,-0.033005472,-0.005271926,0.0021381525,-0.0014411844,0.0044552158,-0.004436436,0.47710717,-1.4239136,1.9554409,-2.1004217,-1.5707701,2.452255,-0.020570295,0.057971727,-0.073557936,0.01096718,-0.0009056157,-0.0160882,-0.05746084,0.38307226,-9.270349,0.75084364,47.675243,-0.5128054,-2.08721,-3.2642894,-0.31729493,0.03941302,-0.16293669,25.25,25.875,25.125,27.625,28.1875,28.5
0.07005253,-0.24522652,-1.0681527,-0.8030808,-0.04263333,0.048432544,-0.13928089,-0.38211975,-0.3486738,0.059898198,-3.078371,0.6250968,-0.0003574073,-0.03433812,-0.006025588,0.002614959,-0.0022556141,0.0058122617,-0.0041177617,0.47708318,-1.4237573,1.9553069,-2.100446,-1.5707701,2.4521942,-0.020520467,0.05979812,-0.07667601,0.010678964,-0.00081262185,-0.016355338,-0.076614454,0.38307226,-9.212888,0.8493211,47.70838,-0.5429135,-2.002175,-3.1798751,-0.30940422,0.040306684,-0.1785718,25.25,25.875,25.125,27.625,28.1875,28.5
0.0720524,-0.8073866,-1.1535677,-0.88662094,-0.029400954,0.029963423,-0.12607011,-0.38218975,-0.3486923,0.059917852,-3.078388,0.6250421,-0.00031719691,-0.035572354,-0.006446234,0.0026838633,-0.002785777,0.0065978053,-0.004020843,0.47705904,-1.4236487,1.9551271,-2.1003983,-1.5707821,2.452134,-0.020977622,0.061848395,-0.07903633,0.01004705,-0.0007085791,-0.016908009,-0.05746084,0.36391866,-9.11712,0.83813137,47.709274,-0.5489532,-2.0744996,-3.172008,-0.30828422,0.026452396,-0.19604722,25.25,25.875,25.125,27.625,28.1875,28.5
0.07405243,-0.47554934,-0.82984686,-0.71450245,-0.025038851,0.035719987,-0.13349497,-0.38224635,-0.34870574,0.0599162,-3.0784004,0.6250643,-0.0003155074,-0.036535956,-0.0065933485,0.0026506505,-0.0026881734,0.0063878433,-0.003941368,0.47702283,-1.4235402,1.955007,-2.1003978,-1.5707701,2.45211,-0.021606563,0.06385989,-0.081395365,0.010625969,-0.000702464,-0.017615072,-0.076614454,0.3256114,-9.059659,0.784413,47.703007,-0.5845214,-2.0469506,-3.1251926,-0.2903055,0.017132374,-0.21096288,25.25,25.875,25.125,27.625,28.1875,28.5
0.07605178,-0.29467496,-0.48119333,-0.6579103,-0.02447026,0.036541913,-0.13976139,-0.38236487,-0.34873822,0.059955288,-3.0784695,0.6251161,-0.00019648246,-0.037604332,-0.007015353,0.0031948413,-0.003250246,0.007361463,-0.0027404802,0.4769627,-1.423408,1.9547666,-2.1003978,-1.5707573,2.4520736,-0.02186733,0.06493094,-0.083950676,0.0109870285,-0.000652864,-0.019075532,-0.11492168,0.36391866,-9.11712,0.8090337,47.688675,-0.58128536,-2.0152276,-3.171525,-0.28769737,-0.00027999337,-0.22150171,25.25,25.875,25.125,27.625,28.1875,28.5
0.078052126,-0.63025826,-0.4613424,-0.6763944,-0.025550619,0.033867564,-0.13109429,-0.38240618,-0.3487327,0.05993146,-3.0784104,0.6251805,-0.00028514268,-0.038305484,-0.007298361,0.0021595974,-0.0022575269,0.0054683494,-0.0018516695,0.4769147,-1.4232746,1.9546579,-2.1003501,-1.5707573,2.4520733,-0.021998143,0.069110736,-0.08647876,0.011472773,-0.00067148264,-0.020093262,-0.1340753,0.2681506,-9.155427,0.7553206,47.719128,-0.59704673,-2.114297,-3.08943,-0.27920872,0.006912788,-0.21246141,25.25,25.875,25.125,27.625,28.1875,28.5
0.080052145,-0.50421536,-0.5596305,-0.7466985,-0.027706634,0.042106442,-0.13754961,-0.38250545,-0.34875077,0.059957687,-3.0784237,0.6251633,-0.0001764556,-0.039091416,-0.0075245043,0.0030083286,-0.0027945107,0.0063563487,-0.0012865874,0.47687855,-1.4231429,1.9544419,-2.1003258,-1.5707935,2.452025,-0.022359664,0.0690648,-0.08863933,0.012642698,-0.00060282357,-0.021019204,-0.1340753,0.22984336,-9.11712,0.7732232,47.70838,-0.6237365,-2.167585,-3.0931933,-0.2800784,0.003927657,-0.23596314,25.25,25.875,25.125,27.625,28.1875,28.5
0.0820525,-0.80858165,-0.7930611,-0.76371884,-0.023063228,0.04167215,-0.13560855,-0.38258487,-0.3487694,0.059950676,-3.078432,0.625165,-0.0001905165,-0.03978559,-0.0077283815,0.003035096,-0.0028502601,0.006518353,-0.00083149836,0.47683054,-1.422974,1.9542621,-2.1003134,-1.5707816,2.451977,-0.022613946,0.07040745,-0.09027321,0.012764625,-0.000630804,-0.021727547,-0.21068975,0.34476504,-9.212888,0.8806493,47.71286,-0.704667,-1.9403732,-3.1162007,-0.28933018,-0.00084078446,-0.2384516,25.25,25.875,25.125,27.625,28.1875,28.5
0.08405244,-1.0611843,-1.2648016,-1.1049054,-0.017520761,0.04074208,-0.12225428,-0.38264287,-0.34880167,0.05995796,-3.0784652,0.62509316,-0.00021678252,-0.039872453,-0.0075549865,0.0016220215,-0.001208219,0.003399408,-0.0002774592,0.47681844,-1.4228407,1.9540824,-2.1002653,-1.5707573,2.451916,-0.022982175,0.07415738,-0.09158545,0.013852107,-0.0006587881,-0.022648746,-0.21068975,0.2681506,-9.232041,0.7933669,47.716442,-0.6803721,-2.0166457,-3.1571498,-0.2817414,-0.011438657,-0.2329188,25.25,25.875,25.125,27.625,28.1875,28.5
0.08605176,-0.72453254,-1.0170605,-0.97848886,-0.027138535,0.053298417,-0.13666606,-0.38274074,-0.34880292,0.0599582,-3.0784383,0.62520295,-0.00016555983,-0.04077846,-0.0075884257,0.0018869942,-0.0014246254,0.0038263835,-0.00026268896,0.47674614,-1.422684,1.9539026,-2.1002648,-1.5707816,2.4519157,-0.023745283,0.075106226,-0.09336613,0.014204577,-0.00066492154,-0.023425685,-0.15322891,0.24899697,-9.308657,0.7463667,47.66987,-0.6397292,-2.1540513,-3.0503726,-0.29006523,-0.03711594,-0.22852625,25.25,25.875,25.125,27.625,28.1875,28.5
0.088051714,-0.3064519,-0.31892163,-0.8148484,-0.041991267,0.06439624,-0.14568487,-0.3828245,-0.34881467,0.059965156,-3.0784492,0.6252428,-0.00018978458,-0.042075086,-0.008267054,0.00228808,-0.0014904484,0.0045737294,0.00074828777,0.4766742,-1.4225392,1.9537104,-2.100217,-1.5707577,2.4518673,-0.02354098,0.07744609,-0.09713363,0.014939436,-0.0009557067,-0.024229767,-0.15322891,0.24899697,-9.308656,0.80456203,47.674347,-0.6979747,-2.0655022,-3.195737,-0.27425438,-0.023262117,-0.2587782,25.25,25.875,25.125,27.625,28.1875,28.5
0.09005162,-1.2648717,-1.0706642,-1.1233847,-0.025500545,0.040703848,-0.12310691,-0.38288882,-0.34881213,0.059941914,-3.0783894,0.6252113,-0.00025616048,-0.04147565,-0.007618652,0.000436976,0.00029630875,0.0015584879,0.0018149054,0.47662607,-1.4223583,1.9535431,-2.100157,-1.5707821,2.4518073,-0.0240013,0.0799035,-0.09561977,0.014466944,-0.0011599109,-0.025756568,-0.15322891,0.21068975,-9.289502,0.8627467,47.711063,-0.6719432,-2.081832,-3.2595065,-0.27270827,-0.02897963,-0.22666988,25.25,25.875,25.125,27.625,28.1875,28.5
0.09205168,-0.92988914,-1.116735,-1.1608741,-0.022892788,0.04803757,-0.12824799,-0.38298365,-0.34885216,0.05995413,-3.0784283,0.6251802,-0.00022507533,-0.04264268,-0.0077698273,0.00032195996,0.000917514,0.0015846461,0.0016505824,0.47660187,-1.4221772,1.9533027,-2.1001332,-1.5707701,2.4517589,-0.024435194,0.08249096,-0.09844163,0.014965405,-0.0017279746,-0.026023477,-0.17238252,0.24899697,-9.346964,0.80679786,47.65912,-0.739563,-2.1495695,-3.414867,-0.27326536,-0.041186295,-0.25073677,25.25,25.875,25.125,27.625,28.1875,28.5
0.09405208,-0.7785717,-0.91993135,-1.1874686,-0.024942959,0.042015195,-0.13436614,-0.38308594,-0.34886914,0.05997553,-3.078474,0.6251896,-0.00016587107,-0.04340478,-0.007816701,6.906145e-05,0.0011525946,0.0014570288,0.0016632354,0.4765297,-1.4220443,1.9530991,-2.1001213,-1.5707577,2.4516869,-0.024945905,0.08432084,-0.09994137,0.014857188,-0.0018803511,-0.026545646,-0.11492168,0.15322891,-9.423578,0.80679786,47.74241,-0.7930279,-2.220951,-3.266693,-0.26855555,-0.04336864,-0.2512697,25.25,25.875,25.125,27.625,28.1875,28.5
0.09605235,-0.49214226,-0.7128828,-1.2577122,-0.035776746,0.042753812,-0.12954402,-0.38317344,-0.3488743,0.059966505,-3.0784383,0.62518275,-0.0001470133,-0.043884598,-0.0080261985,0.00014086477,0.0010000624,0.0013118343,0.0014595723,0.4764816,-1.4218638,1.9529079,-2.100097,-1.570794,2.4516392,-0.025138695,0.08534432,-0.10140299,0.015352627,-0.0016805453,-0.026534334,-0.15322891,0.19153613,-9.442732,0.78888994,47.70211,-0.7813809,-2.1579466,-3.4466763,-0.25362498,-0.06558944,-0.27460268,25.25,25.875,25.125,27.625,28.1875,28.5
0.098052464,-0.84658235,-1.0227801,-1.2670195,-0.036416255,0.03243667,-0.12758018,-0.38325626,-0.34890148,0.059977822,-3.0784547,0.6251846,-0.00014551292,-0.044298004,-0.008158839,-0.00011836083,0.0012891744,0.00065872516,0.0024273905,0.4764457,-1.4217072,1.9526919,-2.1000488,-1.5707821,2.4516025,-0.025304478,0.08697569,-0.10279719,0.015828345,-0.0016398149,-0.027667193,-0.1340753,0.24899697,-9.423578,0.7642693,47.71465,-0.8208958,-2.1641335,-3.4598105,-0.24831241,-0.06355198,-0.28674328,25.25,25.875,25.125,27.625,28.1875,28.5
0.10005242,-0.26966867,-0.5543111,-1.1796317,-0.04634379,0.04418206,-0.13709919,-0.38334855,-0.34889558,0.059945215,-3.0783799,0.6252266,-0.00018404877,-0.045002364,-0.008168274,-0.00019534052,0.001425143,0.00029902093,0.0024072316,0.4763733,-1.4214783,1.9524993,-2.100025,-1.5708178,2.451566,-0.025952851,0.0884777,-0.10448837,0.016398165,-0.0015998989,-0.028294455,-0.1340753,0.17238252,-9.404425,0.7978386,47.695843,-0.80640835,-2.0648203,-3.4498115,-0.2505312,-0.06679924,-0.27789503,25.25,25.875,25.125,27.625,28.1875,28.5
0.102052435,-0.37040147,-1.1341981,-1.3300921,-0.03284799,0.0465895,-0.121382564,-0.38345164,-0.34891957,0.05998844,-3.0784469,0.6252396,-8.0435464e-05,-0.0451832,-0.008248749,-0.0007856754,0.002259052,-0.0004131576,0.0026062704,0.47631353,-1.4213818,1.9522847,-2.100001,-1.5708064,2.451506,-0.025700007,0.09033185,-0.105251394,0.016324062,-0.002013618,-0.028239429,0.0,0.22984336,-9.442732,0.80456203,47.6636,-0.82206845,-2.059957,-3.5863156,-0.2453596,-0.073305316,-0.29410362,25.25,25.875,25.125,27.625,28.1875,28.5
0.10405233,-0.6385491,-1.0383813,-1.2806505,-0.03184605,0.03774103,-0.12785225,-0.38351595,-0.34894806,0.059969947,-3.0784364,0.625199,-0.00017676807,-0.046945017,-0.008612146,0.00013489519,0.001896079,0.0017201598,0.0032678877,0.47628927,-1.4211771,1.9520792,-2.099941,-1.5707825,2.4514577,-0.02624152,0.09157248,-0.10886164,0.016634224,-0.0026782642,-0.029439388,0.019153614,0.24899697,-9.423578,0.8403672,47.71465,-0.82824636,-1.9968541,-3.4174676,-0.22013268,-0.07127511,-0.3122715,25.25,25.875,25.125,27.625,28.1875,28.5
0.106052056,-0.27147153,-0.7877178,-1.3384802,-0.038547467,0.04192944,-0.1355624,-0.38364893,-0.348956,0.059989996,-3.0784647,0.6252811,-9.196508e-05,-0.047111265,-0.008189343,-2.5142755e-05,0.0025520243,0.0010183355,0.0040247883,0.47618097,-1.421009,1.9518408,-2.0999405,-1.5707825,2.4513972,-0.026960762,0.09200138,-0.10918815,0.017456692,-0.0029365385,-0.030915242,-0.019153614,0.2681506,-9.385271,0.8224646,47.72002,-0.8314364,-1.9637153,-3.6674287,-0.22813922,-0.078372754,-0.31004748,25.25,25.875,25.125,27.625,28.1875,28.5
0.108052,-0.42564023,-1.3935226,-1.3057293,-0.027672922,0.028015038,-0.1262741,-0.38370863,-0.3489914,0.059957795,-3.0784407,0.62518096,-0.00020775203,-0.048574235,-0.008627087,-0.00077159575,0.0034529914,0.00023245775,0.003449898,0.4761809,-1.420767,1.9516238,-2.099881,-1.5707706,2.4513378,-0.027237939,0.096794866,-0.11302693,0.017615493,-0.0033874912,-0.0306139,-0.095768064,0.3256114,-9.481039,0.77545905,47.664497,-0.81190795,-2.0573344,-3.5151267,-0.19424893,-0.063877,-0.30857047,25.25,25.875,25.125,27.625,28.1875,28.5
0.11005213,-0.05601968,-0.60640496,-1.2908651,-0.044493355,0.029954825,-0.1322079,-0.38381812,-0.3489766,0.05996294,-3.0783877,0.6251884,-9.414012e-05,-0.050043605,-0.008852309,0.0011988697,0.0028267882,0.004190001,0.0024115655,0.47610897,-1.4206113,1.9514312,-2.0998685,-1.5708555,2.4512775,-0.027361387,0.095096104,-0.11573393,0.018218841,-0.004648315,-0.029695978,-0.038307227,0.34476504,-9.461885,0.85155696,47.711063,-0.9127136,-1.9156947,-3.570546,-0.20551938,-0.07574384,-0.34719765,25.25,25.875,25.125,27.625,28.1875,28.5
0.11205215,-0.14213966,-1.0903171,-1.434027,-0.03554856,0.031106196,-0.12792484,-0.38391978,-0.34901333,0.059977762,-3.0784116,0.6251159,-0.00010790203,-0.051301103,-0.008946012,0.00076251983,0.0038451361,0.0039671604,0.0034191972,0.4760727,-1.420406,1.9511431,-2.0997846,-1.5708436,2.451193,-0.02782043,0.09843841,-0.11863238,0.018442558,-0.0054574,-0.031159358,-0.019153614,0.34476504,-9.423578,0.8985519,47.704796,-0.92624444,-1.928717,-3.4718914,-0.17528509,-0.06990619,-0.34240088,25.25,25.875,25.125,27.625,28.1875,28.5
0.11405218,-0.49526507,-1.0399787,-1.5067968,-0.04019469,0.033447597,-0.13101085,-0.38400927,-0.3490276,0.059964176,-3.0784185,0.6251353,-0.00014663326,-0.053008117,-0.008652892,0.0022953665,0.0043035974,0.007853325,0.004474487,0.47600058,-1.4202143,1.9509519,-2.0997727,-1.5708202,2.4511323,-0.028476024,0.09741065,-0.12101338,0.018615235,-0.007651162,-0.03286538,-0.076614454,0.36391866,-9.461885,0.7620334,47.71017,-0.9156689,-1.8986601,-3.5136056,-0.18306279,-0.053127207,-0.34104824,25.25,25.875,25.125,27.625,28.1875,28.5
0.11605232,-0.5007068,-1.4268161,-1.5328788,-0.040635016,0.048609108,-0.13079776,-0.3841378,-0.34906495,0.059993215,-3.078447,0.6250839,-5.1049607e-05,-0.0539606,-0.008722162,0.00199983,0.0059410078,0.0076095215,0.0051343855,0.47596452,-1.420009,1.9506396,-2.099724,-1.570845,2.4510608,-0.028349092,0.10030363,-0.12388462,0.019564167,-0.008996903,-0.033394855,-0.05746084,0.34476504,-9.595961,0.8873621,47.692257,-0.99381316,-1.8390567,-3.4671433,-0.17870218,-0.027406849,-0.34435928,25.25,25.875,25.125,27.625,28.1875,28.5
0.11805253,-1.5876493,-2.101495,-1.6540651,-0.03486352,0.0321855,-0.1160135,-0.38423392,-0.34905636,0.059981585,-3.0783854,0.625088,-4.6826135e-05,-0.054644614,-0.008354724,0.002173763,0.0074936403,0.008252656,0.006909558,0.47589245,-1.4198167,1.950435,-2.0996764,-1.5708936,2.4509993,-0.028531846,0.10106317,-0.1253661,0.02042907,-0.010674281,-0.035348907,-0.05746084,0.40222588,-9.557653,0.80456203,47.70211,-1.0604199,-1.7825582,-3.4900954,-0.17779025,-0.011626526,-0.33958954,25.25,25.875,25.125,27.625,28.1875,28.5
0.12005251,-0.5780432,-1.3562143,-1.5416133,-0.057142526,0.05956372,-0.134183,-0.3843675,-0.34909374,0.060018145,-3.0784473,0.6251383,2.9283845e-05,-0.055863857,-0.008309178,0.0019318999,0.0076174233,0.007975392,0.007692766,0.47582015,-1.4196358,1.9501361,-2.0996406,-1.5708693,2.4509506,-0.029727412,0.1035187,-0.12767953,0.020589681,-0.010659109,-0.037327126,-0.095768064,0.40222588,-9.615114,0.83365434,47.689575,-1.0788544,-1.8224307,-3.540996,-0.1720036,0.020828702,-0.3254411,25.25,25.875,25.125,27.625,28.1875,28.5
0.122052535,-1.1057439,-2.098412,-1.6686565,-0.044506017,0.042961765,-0.12088965,-0.38447207,-0.34912425,0.06001511,-3.0784104,0.6249977,0.00011080819,-0.057334527,-0.009198184,0.0024901065,0.0047550187,0.007929305,0.0057092286,0.47583166,-1.419395,1.949859,-2.0996044,-1.5709523,2.4508793,-0.031152938,0.10538462,-0.13120109,0.02096299,-0.008100223,-0.036771443,-0.076614454,0.34476504,-9.691729,0.82022345,47.694946,-0.9877018,-1.7719116,-3.5212736,-0.15307103,0.0039801034,-0.33825964,25.25,25.875,25.125,27.625,28.1875,28.5
0.12405236,-0.89605623,-1.6726677,-1.5942739,-0.051035423,0.033825062,-0.126716,-0.38457745,-0.3491179,0.05999716,-3.0784113,0.6250162,2.6362806e-05,-0.05730999,-0.010187492,0.0021247133,0.0035467378,0.0063468423,0.006521708,0.47569996,-1.4191896,1.9496564,-2.0995681,-1.5709156,2.4507592,-0.030523187,0.10747139,-0.1328799,0.021402175,-0.0063048336,-0.036955867,-0.21068975,0.3256114,-9.653421,0.81351066,47.661808,-1.0911686,-1.8542378,-3.443583,-0.14968258,-0.022601007,-0.36528966,25.25,25.875,25.125,27.625,28.1875,28.5
0.1260516,-0.82568336,-1.5789108,-1.5078484,-0.04792461,0.026190087,-0.12073366,-0.38471606,-0.3491629,0.060024604,-3.0784605,0.6249652,9.814968e-05,-0.058906343,-0.011731423,0.0013268954,0.0023927593,0.0050398144,0.009889004,0.475652,-1.4189591,1.9493188,-2.0995204,-1.5709151,2.4506733,-0.030289471,0.11356849,-0.13798697,0.021038575,-0.004690407,-0.04008897,-0.19153613,0.30645782,-9.595961,0.7866488,47.67166,-1.0908082,-1.9743207,-3.2387247,-0.1470931,-0.035712276,-0.35139644,25.25,25.875,25.125,27.625,28.1875,28.5
0.12805162,-1.1121607,-1.5677532,-1.7417648,-0.03385336,0.02992882,-0.1214357,-0.38480002,-0.3491794,0.06000648,-3.0784287,0.6249769,4.1027197e-05,-0.060196765,-0.012916311,0.0031129615,-0.0005254152,0.008371716,0.0123218335,0.4756041,-1.4187436,1.9491023,-2.0994732,-1.5709151,2.4506369,-0.030050376,0.11253636,-0.14080268,0.020583412,-0.0036309774,-0.04228302,-0.11492168,0.2681506,-9.730036,0.8112748,47.688675,-1.1988516,-1.8677795,-3.3557408,-0.1362883,-0.056460947,-0.3071364,25.25,25.875,25.125,27.625,28.1875,28.5
0.13005209,-0.32716456,-1.2218595,-1.5921615,-0.037562322,0.06166385,-0.13220449,-0.38492197,-0.34922877,0.060030185,-3.0784788,0.6248345,7.897366e-05,-0.061213944,-0.012364345,0.0013280252,0.000540096,0.0049408292,0.0112523185,0.47557917,-1.4185137,1.948768,-2.0994008,-1.5709146,2.450517,-0.032351315,0.117618956,-0.14264579,0.020879254,-0.0030093857,-0.043513987,-0.19153613,0.30645782,-9.557653,0.8314132,47.68599,-1.1256627,-2.0707307,-3.3212905,-0.08378999,-0.06466015,-0.29545775,25.25,25.875,25.125,27.625,28.1875,28.5
0.13205214,-1.4797455,-1.7727463,-1.5020801,-0.029562267,0.04316343,-0.12021114,-0.38506407,-0.34924594,0.060030397,-3.0784996,0.62489486,0.00010953053,-0.062097646,-0.012669,0.0018819085,0.00038409335,0.005051031,0.011844189,0.47547123,-1.418273,1.9484915,-2.0994003,-1.5709022,2.4504442,-0.03265884,0.11873523,-0.14559592,0.022543412,-0.002921809,-0.044412382,-0.2681506,0.34476504,-9.595961,0.83365434,47.689575,-1.1844325,-1.9941542,-3.2851558,-0.085843235,-0.07452122,-0.28497717,25.25,25.875,25.125,27.625,28.1875,28.5
0.1340522,-1.5344822,-1.5726074,-1.5149916,-0.035765003,0.05140209,-0.118384734,-0.38519725,-0.34927148,0.060055956,-3.0785484,0.6248849,0.00016956836,-0.06240271,-0.012056672,0.0014080758,0.0017921703,0.0032606013,0.012275226,0.47538695,-1.4180803,1.9482039,-2.099364,-1.5708908,2.4503477,-0.033726864,0.12030411,-0.14674859,0.024365012,-0.0033497564,-0.045910522,-0.36391866,0.3256114,-9.481039,0.81351066,47.690468,-1.1869245,-1.9430859,-3.2013211,-0.093813315,-0.069714844,-0.2516987,25.25,25.875,25.125,27.625,28.1875,28.5
0.13605244,-1.1932542,-1.2497395,-1.2431171,-0.044689417,0.061087944,-0.12810104,-0.3853164,-0.349306,0.06005741,-3.078543,0.6247295,0.00018791365,-0.063809015,-0.011415723,0.0015331726,0.0022268828,0.0034010834,0.012360476,0.4753621,-1.4178158,1.9478806,-2.0992916,-1.570927,2.4502268,-0.035842273,0.121645994,-0.14877589,0.025123728,-0.0038039912,-0.04810943,-0.36391866,0.34476504,-9.385271,0.82022345,47.677036,-1.0984182,-1.9528283,-3.282211,-0.09835775,-0.07573728,-0.22197783,25.25,25.875,25.125,27.625,28.1875,28.5
0.13805245,-1.6286255,-1.7017529,-1.089516,-0.037276845,0.05619019,-0.12226614,-0.38545033,-0.34931445,0.06005406,-3.07854,0.62474585,0.00018766939,-0.06528964,-0.01250961,0.0025347916,0.0014759263,0.0054048784,0.015242754,0.47525436,-1.4175748,1.9476036,-2.0992558,-1.570927,2.4501297,-0.035078928,0.12331446,-0.15313278,0.025686732,-0.0040612146,-0.05022574,-0.34476504,0.34476504,-9.442732,0.8537928,47.713753,-1.1476704,-1.8737991,-3.258927,-0.091344446,-0.079746306,-0.18912789,25.25,25.875,25.125,27.625,28.1875,28.5
0.14005242,-0.9866299,-1.4100639,-0.9453134,-0.047056817,0.071396135,-0.12869167,-0.3856237,-0.3493592,0.060111023,-3.0786183,0.6247612,0.00037214646,-0.06510112,-0.012281855,0.0012758131,0.0034200607,0.003281401,0.016901035,0.47518244,-1.4173696,1.9472326,-2.0992315,-1.570939,2.4500577,-0.03480674,0.12602109,-0.15348282,0.026109265,-0.004810793,-0.051610872,-0.38307226,0.34476504,-9.404425,0.8806493,47.719128,-1.2288148,-1.7147281,-3.3791618,-0.07486464,-0.07657257,-0.16471525,25.25,25.875,25.125,27.625,28.1875,28.5
0.14205231,-1.2057525,-1.0195873,-0.863125,-0.029637275,0.061240397,-0.12335794,-0.3857543,-0.34939215,0.06010908,-3.0786595,0.62469256,0.0003333819,-0.06582234,-0.011512874,-0.00012901054,0.0052709766,0.001108067,0.016049672,0.47509804,-1.417104,1.9469212,-2.0991833,-1.5709032,2.4499254,-0.03638514,0.1295915,-0.15444633,0.026285322,-0.0054642586,-0.052336033,-0.38307226,0.19153613,-9.136273,0.83365434,47.653748,-1.2205397,-1.9033456,-3.3501635,-0.059132256,-0.07229508,-0.13820072,25.25,25.875,25.125,27.625,28.1875,28.5
0.14405237,-1.6028904,-1.4170244,-0.8638321,-0.0003967049,0.04681865,-0.11334709,-0.38588485,-0.3494101,0.060111586,-3.078639,0.6246305,0.00042017055,-0.067547,-0.010807517,-0.0002994136,0.0062883864,0.0012792912,0.014447761,0.47504926,-1.4168633,1.9466337,-2.099159,-1.5709637,2.4498408,-0.03855628,0.13198875,-0.15692931,0.026684133,-0.0064506284,-0.052902553,-0.28730422,0.19153613,-9.040505,0.842603,47.711063,-1.1740198,-1.6786225,-3.4385376,-0.04337815,-0.06451527,-0.11514044,25.25,25.875,25.125,27.625,28.1875,28.5
0.14605263,-0.73595214,-0.13118936,-0.4376414,-0.007205893,0.058528528,-0.12543218,-0.38600373,-0.34943074,0.060104914,-3.078636,0.6245731,0.00039086593,-0.068305805,-0.010772315,0.00034139346,0.0062704436,0.0025262218,0.013583083,0.474977,-1.416611,1.9463457,-2.0990999,-1.5709637,2.4497333,-0.038934406,0.13183902,-0.15835619,0.02714541,-0.0070083435,-0.052414536,-0.38307226,0.15322891,-8.944737,0.8090337,47.63404,-1.0894283,-1.8990414,-3.3884482,-0.028911363,-0.04512637,-0.108255,25.25,25.875,25.125,27.625,28.1875,28.5
0.14805163,-1.3265156,0.29115793,-0.35051987,0.010817161,0.029481396,-0.113629155,-0.38614196,-0.34945253,0.06010475,-3.0786157,0.6245311,0.00039620622,-0.06917116,-0.010551563,-0.001045279,0.008561645,0.00022882163,0.012140436,0.47490504,-1.4163332,1.9460105,-2.0990274,-1.5709885,2.449638,-0.03945932,0.13670066,-0.16101116,0.02803176,-0.0080000665,-0.051493447,-0.38307226,0.019153614,-8.829816,0.86945957,47.694946,-1.1628234,-1.8962965,-3.4788728,0.0045529837,-0.044733368,-0.10550386,25.25,25.875,25.125,27.625,28.1875,28.5
0.15005165,-1.1112349,0.119673,-0.36166087,0.028185103,0.028301693,-0.121312045,-0.38630188,-0.34948537,0.060121212,-3.078653,0.62451893,0.0005227539,-0.07091103,-0.010216868,0.00043078687,0.008604,0.0037045586,0.011597502,0.4748325,-1.4160812,1.9456862,-2.0990393,-1.5710129,2.4495533,-0.040567312,0.13574119,-0.16336483,0.028276986,-0.009627214,-0.052056096,-0.3256114,0.019153614,-8.714894,0.8806493,47.67614,-1.1322418,-1.7143852,-3.4815025,-0.0049509937,-0.03065708,-0.08127524,25.25,25.875,25.125,27.625,28.1875,28.5
0.15205537,-0.5329962,0.6055936,-0.23263891,0.014930047,0.03776273,-0.12775633,-0.3864535,-0.34950936,0.060128562,-3.0786593,0.6244447,0.0005047064,-0.071814835,-0.0101721585,0.00015131642,0.008882155,0.003879083,0.008236259,0.47473633,-1.4157923,1.9453157,-2.0989435,-1.5710129,2.4494102,-0.041233823,0.13758765,-0.16478145,0.027820462,-0.009959592,-0.049359795,-0.2681506,0.076614454,-8.7532015,0.8851263,47.704796,-1.1143302,-1.8081324,-3.451538,0.016869426,-0.015265056,-0.08322291,25.25,25.875,25.125,27.625,28.1875,28.5
0.15405205,-0.6057084,0.02032294,-0.38509288,0.006735006,0.033906028,-0.12312166,-0.38659686,-0.349534,0.0601273,-3.0786557,0.6244068,0.0005399466,-0.072695196,-0.01031987,-0.00022809864,0.008657579,0.0020911172,0.0054728054,0.47466394,-1.4155153,1.944992,-2.0989072,-1.5710362,2.4493148,-0.042410303,0.14043693,-0.1675448,0.02921732,-0.008945121,-0.04777285,-0.24899697,0.1340753,-8.791509,0.8157518,47.709274,-1.1206421,-1.7652444,-3.3545163,0.041310955,-0.023995722,-0.10044046,25.25,25.875,25.125,27.625,28.1875,28.5
0.15605202,-0.051413782,-0.36446562,-0.43410245,-0.013831737,0.036616854,-0.12262634,-0.38674754,-0.34954858,0.06014634,-3.0786667,0.62433237,0.0005916823,-0.07354002,-0.010892029,0.0001448888,0.008033416,0.0007922987,0.0045138965,0.4745678,-1.4152743,1.9446548,-2.0988343,-1.5710605,2.449171,-0.04288746,0.14253022,-0.17144112,0.03188449,-0.007797849,-0.04729118,-0.1340753,0.15322891,-8.791509,0.8247004,47.68599,-1.0775414,-1.8115857,-3.2904248,0.043613456,-0.042495407,-0.07502037,25.25,25.875,25.125,27.625,28.1875,28.5
0.15805204,-0.5479183,-1.144268,-0.51545495,-0.0121346,0.025555229,-0.11559507,-0.38687277,-0.34956342,0.0601201,-3.0786006,0.6244341,0.00047191186,-0.07412557,-0.0109796,-0.0010308601,0.008710855,-0.0022084995,0.0029179156,0.4744717,-1.4149605,1.944332,-2.098738,-1.5710481,2.449147,-0.04373676,0.14672187,-0.17390533,0.033133283,-0.007036388,-0.046543363,-0.17238252,0.19153613,-9.002198,0.82022345,47.703903,-1.1027968,-1.7681019,-3.3570032,0.030191671,-0.047054518,-0.07703947,25.25,25.875,25.125,27.625,28.1875,28.5
0.16005206,-0.33388203,-0.9134686,-0.8291748,-0.021863295,0.031913385,-0.12463062,-0.38703072,-0.34957507,0.06012454,-3.078583,0.62439346,0.00047967702,-0.07610837,-0.011736087,0.0020187593,0.0055769864,0.0022552633,0.0012714741,0.4743632,-1.414673,1.943972,-2.0986536,-1.5710715,2.4490156,-0.04465778,0.1440187,-0.1781444,0.034668993,-0.006294313,-0.045817677,-0.30645782,0.22984336,-9.11712,0.87617236,47.71823,-1.0730921,-1.7659671,-3.3144202,0.020844702,-0.03258143,-0.101123706,25.25,25.875,25.125,27.625,28.1875,28.5
0.16205233,-0.730204,-1.0820522,-0.9577147,-0.037916757,0.032374926,-0.119930275,-0.38715786,-0.34961784,0.060125973,-3.0785828,0.6243566,0.000433486,-0.07515574,-0.010722486,-0.0002126041,0.008153929,-0.003582299,-0.0034320399,0.47431493,-1.4143835,1.9436139,-2.0985572,-1.5710596,2.4489446,-0.045804307,0.14735708,-0.17746839,0.037025154,-0.0059150234,-0.04226137,-0.24899697,0.38307226,-9.212888,0.9612189,47.71823,-1.0525738,-1.8899301,-3.387517,0.014728617,-0.049339104,-0.14399429,25.25,25.875,25.125,27.625,28.1875,28.5
0.16405213,-1.2237461,-1.848599,-1.1819562,-0.041629028,0.044505842,-0.12389001,-0.38729626,-0.3496371,0.06010856,-3.0785482,0.62433064,0.0003863927,-0.07623524,-0.010603883,-0.00034034392,0.0093051465,-0.003558383,-0.004546569,0.4742307,-1.4140706,1.9432772,-2.0984857,-1.571072,2.4488487,-0.04630441,0.14962965,-0.18001239,0.037804108,-0.0069564236,-0.04164373,-0.34476504,0.4213795,-9.308656,0.8717007,47.704796,-1.1260719,-1.7337339,-3.4318175,0.0027791823,-0.034301437,-0.1821051,25.25,25.875,25.125,27.625,28.1875,28.5
0.16605222,-1.3814939,-2.1586707,-1.1022531,-0.057234913,0.06106924,-0.1288109,-0.38746777,-0.34966597,0.060119707,-3.0785506,0.6244079,0.00036057562,-0.07798229,-0.010622219,-0.00033753927,0.009610083,-0.00259991,-0.0052295984,0.47411036,-1.4137576,1.9428695,-2.0983894,-1.5710486,2.4487765,-0.04737018,0.15229775,-0.18305743,0.037470162,-0.007673678,-0.04202353,-0.30645782,0.59376204,-9.481039,0.8314132,47.66091,-1.0533684,-1.7358546,-3.418451,0.0026148763,-0.04533585,-0.19841525,25.25,25.875,25.125,27.625,28.1875,28.5
0.16805215,-1.8900497,-2.520584,-1.2350972,-0.0715389,0.057640776,-0.1186061,-0.38762537,-0.34967732,0.06013095,-3.0785315,0.62444127,0.00039542333,-0.078407876,-0.010180895,-0.0008621684,0.011632669,-0.004453791,-0.0052205794,0.47400224,-1.4134922,1.9425219,-2.098317,-1.5710725,2.4486918,-0.04789522,0.15468417,-0.18516752,0.039768003,-0.008626669,-0.04255532,-0.24899697,0.57460845,-9.461885,0.8314132,47.682407,-1.0913808,-1.8338478,-3.389124,-0.002744654,-0.022213142,-0.19862342,25.25,25.875,25.125,27.625,28.1875,28.5
0.17005213,-0.94498295,-2.4624662,-1.2354666,-0.07522051,0.08018837,-0.12671378,-0.3877816,-0.34967682,0.060110077,-3.0784311,0.6244613,0.00038975832,-0.07950381,-0.009592687,-0.0006498021,0.011404184,-0.005197622,-0.008293912,0.47390544,-1.4131556,1.9421629,-2.0982325,-1.5711445,2.4486206,-0.050246287,0.15557711,-0.18708892,0.041348614,-0.008087879,-0.04183269,-0.19153613,0.63206923,-9.481039,0.8493211,47.693153,-0.98632586,-1.7606969,-3.3681986,-0.049508147,-0.01289266,-0.20591235,25.25,25.875,25.125,27.625,28.1875,28.5
0.1720521,-1.261082,-1.7661486,-1.2450916,-0.06674017,0.05318949,-0.12833184,-0.38795134,-0.34971893,0.060115684,-3.078457,0.6244269,0.00036437434,-0.079862654,-0.010633129,-0.0006709219,0.011311669,-0.005443975,-0.0068567153,0.4738098,-1.412819,1.9417433,-2.0981486,-1.5711206,2.4485004,-0.04883482,0.15783745,-0.18984723,0.04202316,-0.007898562,-0.041857254,-0.22984336,0.51714754,-9.461885,0.87393653,47.703903,-1.0480193,-1.6120353,-3.3939185,-0.047908634,-0.013904452,-0.2321192,25.25,25.875,25.125,27.625,28.1875,28.5
0.17405227,-0.9337864,-1.5217406,-1.4405009,-0.049219325,0.053104226,-0.120583616,-0.38810045,-0.34974205,0.060104776,-3.0784183,0.6244384,0.0003811187,-0.080042906,-0.010702282,-0.0011647573,0.011087585,-0.0066017723,-0.0065630875,0.4737376,-1.4125059,1.9413966,-2.098101,-1.5711559,2.4484406,-0.049319305,0.15926754,-0.19043317,0.042102013,-0.007173452,-0.04263601,-0.21068975,0.40222588,-9.500193,0.8112748,47.71554,-1.1158488,-1.8165748,-3.4678512,-0.05064294,-0.00940374,-0.22564365,25.25,25.875,25.125,27.625,28.1875,28.5
0.17605229,-0.8769021,-0.72028923,-1.4544761,-0.030900115,0.042099826,-0.12757114,-0.38824466,-0.34976378,0.060096513,-3.0784178,0.6244185,0.00030990818,-0.08175632,-0.010920051,-0.0017530761,0.011087607,-0.008233802,-0.0076062153,0.47362915,-1.4122038,1.941048,-2.0980165,-1.5711316,2.44832,-0.050936736,0.16391402,-0.19474545,0.043217536,-0.006438725,-0.04320873,-0.15322891,0.2681506,-9.519346,0.8224646,47.688675,-1.0190108,-1.916305,-3.5294142,-0.069680914,-0.0349989,-0.24678677,25.25,25.875,25.125,27.625,28.1875,28.5
0.17805244,-0.25442925,-1.0016677,-1.4522799,-0.009909532,0.04722418,-0.12932986,-0.38843593,-0.34979197,0.06011397,-3.0784094,0.6244757,0.00037411216,-0.08227665,-0.010043429,-0.0031116577,0.011780959,-0.011617626,-0.009765866,0.47352034,-1.4118786,1.940617,-2.0979445,-1.5711554,2.4482481,-0.053512525,0.16694702,-0.19540937,0.04417088,-0.0055118687,-0.04362603,-0.1340753,0.21068975,-9.404425,0.89631605,47.657326,-0.9745577,-1.9468578,-3.5887947,-0.070022985,-0.043824848,-0.2740338,25.25,25.875,25.125,27.625,28.1875,28.5
0.18005235,-1.0357395,-0.59046334,-1.1110488,-0.0043674083,0.025156092,-0.123939626,-0.3886326,-0.34981453,0.060118206,-3.0783827,0.6244491,0.0004316547,-0.08204309,-0.009990347,-0.004366031,0.013736585,-0.014448759,-0.008913927,0.47341242,-1.411517,1.940174,-2.097872,-1.5712036,2.4481273,-0.05307299,0.17013012,-0.19659609,0.04558466,-0.005962294,-0.044037063,-0.076614454,0.15322891,-9.3661175,0.8873621,47.69763,-0.89887226,-2.0745506,-3.5426743,-0.09472099,-0.04992427,-0.3079348,25.25,25.875,25.125,27.625,28.1875,28.5
0.18205251,-0.61090374,-0.19000469,-1.1993722,-0.0041595227,0.033762854,-0.12254787,-0.38877618,-0.34983587,0.060092762,-3.078344,0.62453717,0.00033101384,-0.08227626,-0.010118096,-0.0045660497,0.014895669,-0.015668133,-0.008261677,0.47330466,-1.4111801,1.9398268,-2.097799,-1.5711802,2.4480796,-0.052723352,0.17198619,-0.19877519,0.047523394,-0.0064432668,-0.044337623,-0.05746084,0.11492168,-9.461885,0.79560274,47.688675,-1.029772,-2.078521,-3.63638,-0.11579013,-0.023468176,-0.3412219,25.25,25.875,25.125,27.625,28.1875,28.5
0.18405233,-0.6960521,-0.7635214,-1.265235,0.008012403,0.02222199,-0.12019606,-0.3889546,-0.34984365,0.06009653,-3.0782957,0.62460494,0.0003228589,-0.08341726,-0.009164275,-0.0048733223,0.016105477,-0.016904531,-0.00975136,0.47317183,-1.4108554,1.9394192,-2.0976908,-1.5712041,2.4479954,-0.05506595,0.1739045,-0.20072077,0.049202118,-0.006961094,-0.045188677,-0.095768064,0.095768064,-9.346964,0.8784135,47.692257,-0.8917763,-2.0478818,-3.6949825,-0.15244313,-0.035368323,-0.3572329,25.25,25.875,25.125,27.625,28.1875,28.5
0.18605165,-0.68642,-0.29438427,-1.0599465,-0.007011614,0.015080057,-0.13038576,-0.3891352,-0.34988657,0.060117245,-3.0783274,0.6245727,0.0003383873,-0.08514244,-0.009681443,-0.003601393,0.014918658,-0.015357333,-0.010957272,0.47307557,-1.4105306,1.9389752,-2.097595,-1.5711917,2.4478753,-0.055906713,0.17477424,-0.20502394,0.05071642,-0.0066164327,-0.044822447,-0.038307227,0.11492168,-9.251195,0.83365434,47.698532,-0.86098176,-2.0481052,-3.5236707,-0.17879096,-0.02573999,-0.37683475,25.25,25.875,25.125,27.625,28.1875,28.5
0.18805166,-0.44678083,-0.5178215,-0.94269633,-0.0057291994,0.015488239,-0.12244395,-0.38930348,-0.3499072,0.06010366,-3.078281,0.62460065,0.00028881003,-0.08658159,-0.009925151,-0.0033481834,0.014925709,-0.015394277,-0.010865797,0.47296733,-1.4101695,1.9385675,-2.0974987,-1.5712041,2.4477906,-0.056749254,0.17724311,-0.20882048,0.052078437,-0.0066156173,-0.045754302,-0.076614454,0.13407528,-9.232041,0.8851263,47.679718,-0.8717902,-2.1439517,-3.4074652,-0.21121357,-0.04992833,-0.37533772,25.25,25.875,25.125,27.625,28.1875,28.5
0.19005166,-0.6501902,-0.46701106,-1.2815032,-0.009222286,0.0183348,-0.118564606,-0.38946804,-0.34992367,0.060084414,-3.0782356,0.6246296,0.00021134471,-0.08770984,-0.009894287,-0.0033417728,0.015730483,-0.015360408,-0.010892571,0.4728472,-1.4098085,1.9381727,-2.0974023,-1.5712041,2.4476945,-0.057315223,0.17940557,-0.21161143,0.05304497,-0.0073568253,-0.04629041,-0.21068975,0.22984336,-9.251195,0.88289046,47.719128,-0.8887191,-2.003573,-3.4261837,-0.24118863,-0.034245417,-0.39713925,25.25,25.875,25.125,27.625,28.1875,28.5
0.19205166,-0.8408403,-0.6616067,-1.1859574,-0.017687531,0.028308187,-0.12597086,-0.3896562,-0.3499278,0.060074795,-3.078132,0.6247242,0.00016760157,-0.088068925,-0.009840017,-0.0034326157,0.016542105,-0.016188834,-0.010748081,0.47271508,-1.4094236,1.9377173,-2.0972583,-1.5712522,2.447635,-0.057471845,0.18074502,-0.21335873,0.054557905,-0.0077088275,-0.046589687,-0.22984336,0.30645782,-9.346964,0.85826975,47.70211,-0.88164425,-2.0263083,-3.394737,-0.2743817,-0.022120759,-0.4267186,25.25,25.875,25.125,27.625,28.1875,28.5
0.19405258,-1.3754498,-1.7562318,-1.132966,-0.034350507,0.05230144,-0.12492254,-0.3898484,-0.3499497,0.06008839,-3.0781202,0.6247199,0.0002015002,-0.089409605,-0.010326068,-0.002314632,0.014978261,-0.014346618,-0.009857577,0.4725949,-1.4090871,1.9372758,-2.0971625,-1.5712761,2.4475138,-0.05814021,0.1808339,-0.2161469,0.054900084,-0.0071629793,-0.04814847,-0.30645782,0.30645782,-9.404425,0.83589023,47.717335,-0.8993631,-1.9290723,-3.428616,-0.3157867,-0.01844652,-0.4414695,25.25,25.875,25.125,27.625,28.1875,28.5
0.19605201,-1.6051146,-2.4122186,-1.2487273,-0.048067838,0.07259646,-0.117994264,-0.39001516,-0.3499833,0.06009547,-3.078105,0.62467825,0.00018261991,-0.09108813,-0.010865994,-0.0019601586,0.0134415785,-0.013482963,-0.009672971,0.47251043,-1.4087504,1.9368433,-2.0970428,-1.5712875,2.4474056,-0.059294123,0.18296915,-0.21939972,0.05454376,-0.0061989273,-0.049486794,-0.40222588,0.40222588,-9.308657,0.86945957,47.69763,-0.8149802,-1.8469311,-3.4467826,-0.33213922,-0.019145153,-0.45254257,25.25,25.875,25.125,27.625,28.1875,28.5
0.19805215,-1.9554621,-2.7736936,-1.3839704,-0.055199903,0.07531943,-0.11730134,-0.390187,-0.34999636,0.06007103,-3.0780165,0.6247351,3.374777e-05,-0.09230179,-0.011160596,-0.0013623539,0.012558236,-0.011442444,-0.0072517614,0.47237834,-1.4083419,1.9363889,-2.096876,-1.571288,2.4473205,-0.059732363,0.18342166,-0.22114523,0.053615723,-0.0063565215,-0.052344292,-0.4405331,0.4405331,-9.32781,0.8403672,47.704796,-0.8653624,-1.8978586,-3.4065862,-0.34468278,-0.03399867,-0.45693123,25.25,25.875,25.125,27.625,28.1875,28.5
0.20005234,-1.9513901,-2.2828789,-1.3462903,-0.06810364,0.07950875,-0.11581306,-0.39034054,-0.35002428,0.06004331,-3.0780165,0.6247331,-9.009039e-05,-0.093657896,-0.010890174,-0.0016976602,0.012336851,-0.010327119,-0.0045713796,0.47225785,-1.4079807,1.9360183,-2.0968049,-1.5712398,2.4471989,-0.061186194,0.18513016,-0.22196987,0.051638428,-0.006680571,-0.05647661,-0.4213795,0.40222588,-9.308656,0.89631605,47.703903,-0.7646651,-1.8717656,-3.4284658,-0.3531527,-0.03343948,-0.42081022,25.25,25.875,25.125,27.625,28.1875,28.5
0.20205234,-1.7939613,-2.3209991,-1.190938,-0.053760752,0.07774569,-0.117166914,-0.39056644,-0.35006553,0.0600689,-3.0780368,0.62471855,3.2277887e-05,-0.09699562,-0.011903272,-0.00031988052,0.009624087,-0.004993422,-0.0051668775,0.4721495,-1.4076078,1.9355153,-2.0967462,-1.5712761,2.4470792,-0.062358096,0.1870271,-0.22664344,0.048428178,-0.0067057963,-0.057050582,-0.47884035,0.34476504,-9.289503,0.9097417,47.694946,-0.7379321,-1.7816436,-3.4678998,-0.33219054,-0.028561894,-0.44475913,25.25,25.875,25.125,27.625,28.1875,28.5
0.20405228,-1.7780097,-1.4300766,-0.9618243,-0.044103634,0.06624385,-0.11509149,-0.3907495,-0.35006443,0.060048677,-3.0779696,0.62472045,-8.749655e-06,-0.098688595,-0.012467143,0.00022051603,0.0075335656,-0.0016523739,-0.0020061464,0.47200525,-1.4072351,1.9351085,-2.0966508,-1.5713118,2.446945,-0.063058406,0.18768369,-0.22795866,0.045153864,-0.006380269,-0.060910773,-0.5363012,0.34476504,-9.3661175,0.8784135,47.686886,-0.73867065,-1.7447243,-3.4981449,-0.3135947,-0.027468493,-0.41397163,25.25,25.875,25.125,27.625,28.1875,28.5
0.20605437,-1.0911038,-0.97815216,-0.9765514,-0.025617205,0.07494016,-0.13430108,-0.39095765,-0.35009837,0.060035475,-3.077953,0.6246758,-2.9097919e-05,-0.099447645,-0.012486718,-0.0005851919,0.0073977234,-0.00156498,0.0034273094,0.47188503,-1.4068018,1.9346184,-2.0965683,-1.5713242,2.4467993,-0.063708015,0.18990213,-0.22830828,0.0431396,-0.0063100746,-0.066993155,-0.47884035,0.34476504,-9.385271,0.85155696,47.687782,-0.70654845,-1.7702484,-3.56424,-0.29537165,-0.044790484,-0.35845494,25.25,25.875,25.125,27.625,28.1875,28.5
0.20805226,-1.384584,-0.7199922,-1.1461004,-0.022180635,0.06218256,-0.12441498,-0.3911538,-0.35014442,0.06005806,-3.0779932,0.6245861,1.0930432e-05,-0.101420544,-0.0131832305,-0.0004249988,0.0062865415,0.0015115209,0.00537362,0.47178897,-1.4064523,1.9341406,-2.0964735,-1.5713242,2.4466424,-0.063954234,0.19224235,-0.23072562,0.039970804,-0.0067305006,-0.06918319,-0.2873042,0.28730422,-9.308656,0.8851263,47.668976,-0.7472969,-1.9108875,-3.55066,-0.2647175,-0.06223978,-0.29372904,25.25,25.875,25.125,27.625,28.1875,28.5
0.21005233,-1.5240753,-1.18074,-1.1827182,-0.02364487,0.056367893,-0.12144245,-0.39136267,-0.35013744,0.06000549,-3.0779,0.62473977,-8.131755e-05,-0.10422052,-0.013328201,9.949178e-05,0.0046798447,0.0046360837,0.0047995723,0.4715963,-1.4059956,1.933721,-2.0964267,-1.5713362,2.4465578,-0.06615634,0.19444506,-0.23400475,0.037530705,-0.006738599,-0.07080861,-0.38307226,0.2681506,-9.385271,0.8851263,47.703903,-0.58398235,-2.0259955,-3.4948092,-0.20942536,-0.03661909,-0.27621529,25.25,25.875,25.125,27.625,28.1875,28.5
0.21205224,-1.0454038,-1.3138225,-1.0902158,-0.031174505,0.07100594,-0.12690875,-0.39159316,-0.35017732,0.060039405,-3.077915,0.62462384,1.9981733e-05,-0.103454374,-0.014438111,-0.0011710691,0.006082304,0.0020260583,0.011128084,0.47148922,-1.4056102,1.9331697,-2.096306,-1.5713838,2.4463768,-0.063438885,0.19815984,-0.23568979,0.0384568,-0.006802718,-0.07441878,-0.45968673,0.22984336,-9.289502,0.9030289,47.70211,-0.7770655,-1.878913,-3.5498896,-0.19486822,-0.034215815,-0.22499262,25.25,25.875,25.125,27.625,28.1875,28.5
0.2140522,-1.2921766,-1.658537,-1.2650099,-0.023904385,0.056071192,-0.117478445,-0.3918147,-0.35020885,0.060061876,-3.0779552,0.62465,0.000104398954,-0.10542878,-0.0151124075,-0.00052346446,0.004739156,0.0035099026,0.01141631,0.47134495,-1.405261,1.9327029,-2.0962584,-1.5713834,2.446244,-0.06431091,0.2004441,-0.2398706,0.038417827,-0.0062845154,-0.075578384,-0.19153613,0.19153613,-9.346964,0.92093146,47.687782,-0.76262164,-2.001415,-3.52076,-0.17582263,-0.051573943,-0.18271703,25.25,25.875,25.125,27.625,28.1875,28.5
0.21605238,-1.1335963,-1.3382167,-1.6000413,-0.019570429,0.037787654,-0.10912134,-0.3920187,-0.35022607,0.06003145,-3.0778997,0.6246789,3.7264286e-05,-0.10666056,-0.013590554,-0.0013510145,0.006355987,0.0015549217,0.008652077,0.47119963,-1.4048158,1.932237,-2.096174,-1.5713958,2.446124,-0.06767411,0.20280662,-0.24111523,0.039775718,-0.006842293,-0.07617527,-0.15322891,0.19153613,-9.461885,0.88289046,47.67614,-0.5252025,-1.9916966,-3.503738,-0.16339794,-0.05253956,-0.14884366,25.25,25.875,25.125,27.625,28.1875,28.5
0.21805194,-0.6094596,-1.0907665,-1.3609102,-0.02130282,0.033001833,-0.11894893,-0.3922284,-0.35026348,0.060023323,-3.0779424,0.62455094,3.718331e-05,-0.1061344,-0.015493424,-0.0018595667,0.0066509955,0.0014565638,0.011734195,0.47106916,-1.4044065,1.9317702,-2.0961268,-1.5713838,2.4459085,-0.063683294,0.2055804,-0.24312928,0.039239157,-0.007065091,-0.07526492,-0.038307227,0.095768064,-9.404425,0.8112748,47.67614,-0.70246756,-1.9539397,-3.5195124,-0.15836053,-0.048842993,-0.12999433,25.25,25.875,25.125,27.625,28.1875,28.5
0.22005183,-0.6991251,-1.396696,-1.5023992,-0.0099474,0.016640088,-0.107447304,-0.39245814,-0.35029694,0.060019664,-3.0779197,0.6245641,5.8456368e-05,-0.10801075,-0.016315121,-0.0013836918,0.005997775,0.0042617507,0.010878527,0.4709373,-1.4039615,1.9312433,-2.0960433,-1.5714086,2.4457881,-0.06343012,0.20785466,-0.24656941,0.03760956,-0.0077667595,-0.074152656,-0.095768064,0.21068975,-9.404425,0.8784135,47.67614,-0.85242105,-2.0474856,-3.5181541,-0.09901316,-0.021276176,-0.13928014,25.25,25.875,25.125,27.625,28.1875,28.5
0.22205174,-0.33774427,-1.4711902,-1.5363529,-0.006285456,0.017860781,-0.11436113,-0.39266977,-0.35033065,0.060021073,-3.0779169,0.6245079,0.00011733165,-0.109124735,-0.016357783,-0.0016033413,0.0059380783,0.0037801599,0.007723154,0.4708289,-1.403564,1.930765,-2.0959833,-1.5714439,2.4456453,-0.0644809,0.21023892,-0.24901918,0.038074523,-0.007496587,-0.07204752,-0.019153614,0.19153613,-9.404425,0.83589023,47.675243,-0.7446079,-2.0792742,-3.511581,-0.07050374,-0.01891122,-0.12158869,25.25,25.875,25.125,27.625,28.1875,28.5
0.22405164,0.08665519,-0.89545596,-1.5701996,-0.029132176,0.014376468,-0.120579764,-0.3928723,-0.3503479,0.05999371,-3.077855,0.62453586,3.647023e-05,-0.10883045,-0.01672366,-0.0016952482,0.0066004912,0.0016403964,0.005321482,0.47068503,-1.403119,1.9302863,-2.095875,-1.5714558,2.445527,-0.06376965,0.21160904,-0.25116685,0.04105889,-0.0071177366,-0.06893429,0.038307227,0.30645782,-9.3661175,0.8717007,47.687782,-0.8434267,-2.136376,-3.504088,-0.08221244,-0.05260627,-0.14252362,25.25,25.875,25.125,27.625,28.1875,28.5
0.22605176,-0.2801078,-1.751425,-1.6742858,-0.021373713,0.006033099,-0.104571365,-0.3930934,-0.3503813,0.059978705,-3.0778308,0.62453157,1.5303147e-05,-0.109833814,-0.016800564,-0.0006998198,0.006320108,0.0027633433,0.001096198,0.47055292,-1.4026626,1.9297713,-2.0957906,-1.5714678,2.4453957,-0.06431505,0.2115342,-0.25380048,0.04264167,-0.0073786727,-0.06525293,-0.019153614,0.34476504,-9.3661175,0.8627467,47.674347,-0.86687374,-2.0708802,-3.4258342,-0.063484006,-0.054763615,-0.18470192,25.25,25.875,25.125,27.625,28.1875,28.5
0.22805175,-0.32423472,-1.9578794,-1.6566868,-0.036460895,0.01411516,-0.11394241,-0.39329755,-0.35041714,0.059975524,-3.077829,0.6244921,-4.8582147e-06,-0.110246584,-0.01681345,-0.00075804535,0.0072865468,0.0023457306,0.0002929376,0.47043303,-1.4022537,1.9292816,-2.0956938,-1.5714682,2.4452517,-0.06418603,0.21290605,-0.25563082,0.0439129,-0.008052388,-0.064318426,-0.038307227,0.47884035,-9.442732,0.8672237,47.690468,-0.8775991,-2.123281,-3.517128,-0.060993403,-0.019056734,-0.20949006,25.25,25.875,25.125,27.625,28.1875,28.5
0.23005174,-0.5787563,-1.8861108,-1.6670008,-0.056588147,0.023624606,-0.11424824,-0.39352244,-0.35045254,0.05996812,-3.077804,0.6244893,-2.7823187e-05,-0.110687785,-0.016994476,-0.00019211145,0.0067932317,0.0019236694,-0.004373979,0.47030088,-1.4017973,1.9287432,-2.095585,-1.5714797,2.4451213,-0.06461379,0.21316576,-0.25777793,0.045952518,-0.007420348,-0.060079914,0.038307227,0.45968673,-9.519346,0.9186956,47.709274,-0.93497324,-2.0525475,-3.6501622,-0.056757234,-0.02423703,-0.23561531,25.25,25.875,25.125,27.625,28.1875,28.5
0.23205194,-0.47452977,-2.2297559,-1.6556873,-0.054580837,0.03364625,-0.11413826,-0.39376068,-0.3504736,0.059985958,-3.07779,0.62458265,1.0321949e-05,-0.11220844,-0.017148305,-0.0006347466,0.0074265455,0.00053837174,-0.0056828577,0.47013256,-1.4013996,1.9282159,-2.0954773,-1.5714921,2.4450133,-0.06568221,0.2173755,-0.26211601,0.047600888,-0.0073617757,-0.05983754,0.076614454,0.36391866,-9.500193,0.92764956,47.689575,-0.84458584,-2.025591,-3.5086713,-0.058712855,-0.029374797,-0.27672428,25.25,25.875,25.125,27.625,28.1875,28.5
0.2340516,-0.96256465,-2.2111115,-1.4840419,-0.04167342,0.018866872,-0.10988061,-0.39397043,-0.35049954,0.059951805,-3.0777156,0.62454635,3.259272e-05,-0.11278391,-0.016920745,-0.00040518877,0.0076759546,0.00086546794,-0.0043442613,0.47003642,-1.4009308,1.9277376,-2.0954292,-1.5715646,2.4449043,-0.06630992,0.21765901,-0.2632073,0.048224628,-0.0077372175,-0.061802525,0.11492168,0.34476504,-9.404425,0.9388393,47.689575,-0.8435534,-1.9845935,-3.4634075,-0.05313599,-0.026895145,-0.27753884,25.25,25.875,25.125,27.625,28.1875,28.5
0.23605168,-0.35302904,-1.2343457,-1.7206379,-0.023896815,0.022933548,-0.11519702,-0.3942057,-0.3505533,0.05997088,-3.0777564,0.6245155,3.39256e-05,-0.11404079,-0.017529365,-0.00011617051,0.006928843,0.0013579214,-0.0033316342,0.4699044,-1.4004977,1.927163,-2.0953095,-1.5715398,2.4447482,-0.066591546,0.21977279,-0.2665058,0.04862989,-0.0073002162,-0.06309632,0.095768064,0.4213795,-9.481039,0.88289046,47.677036,-0.8680799,-1.9132426,-3.6008873,-0.03883262,-0.02420091,-0.25774175,25.25,25.875,25.125,27.625,28.1875,28.5
0.23805165,-0.19257313,-1.2010525,-1.9452498,-0.013102216,0.013898731,-0.11224281,-0.39440626,-0.35056022,0.059920177,-3.0776463,0.6245708,-6.8480935e-05,-0.11405366,-0.018185254,-0.0011917007,0.007086641,-0.0009535192,-0.0048865885,0.46976042,-1.4000164,1.9266967,-2.0952132,-1.571576,2.444653,-0.06597921,0.22318332,-0.26822385,0.049065392,-0.0064029517,-0.06092923,0.114921674,0.40222588,-9.5385,0.87617236,47.70211,-0.9601302,-1.990741,-3.585033,-0.030628305,-0.04329254,-0.31056643,25.25,25.875,25.125,27.625,28.1875,28.5
0.2400525,-0.3612808,-1.3154652,-1.6699231,-0.028412977,0.014965414,-0.11392708,-0.3946613,-0.3506121,0.059935443,-3.0776842,0.62457824,-2.6482185e-05,-0.115124375,-0.017166682,-0.0015840591,0.007296978,-0.0020637093,-0.006845016,0.46961555,-1.3995594,1.9261106,-2.0951293,-1.5715636,2.4445083,-0.06884793,0.22452071,-0.26912966,0.049716987,-0.006087136,-0.061840203,0.19153613,0.30645782,-9.576807,0.97464454,47.704796,-0.83756924,-1.9752951,-3.6317573,-0.007683736,-0.063826256,-0.32316488,25.25,25.875,25.125,27.625,28.1875,28.5
0.24205253,-0.19352189,-1.8045899,-1.7713739,-0.03224791,0.02087324,-0.11451763,-0.39486465,-0.35065028,0.0599276,-3.0776665,0.62449515,-6.446753e-05,-0.1143205,-0.018344233,-0.0013408214,0.008489083,-0.0029969467,-0.0030840726,0.4695087,-1.3991266,1.9255971,-2.0950086,-1.571576,2.4443521,-0.06562587,0.22552088,-0.27157992,0.052539248,-0.0067302566,-0.06237675,-0.019153614,0.3256114,-9.481039,0.94331104,47.690468,-0.98747647,-2.007041,-3.6698842,-0.011922432,-0.053823706,-0.32010338,25.25,25.875,25.125,27.625,28.1875,28.5
0.2440516,-0.56565666,-1.6985346,-1.6187422,-0.037853025,0.02146485,-0.11119331,-0.39509058,-0.3506924,0.059927143,-3.0776567,0.6244929,-5.6827015e-05,-0.11543576,-0.0182499,-0.0011486586,0.00979487,-0.0044386503,-0.0039393604,0.4693884,-1.3986813,1.9250573,-2.0949118,-1.5715879,2.444232,-0.06640538,0.22817853,-0.27604398,0.056222618,-0.007244731,-0.062298115,-0.019153614,0.30645782,-9.481039,0.88289046,47.70032,-1.0696957,-2.0577419,-3.5701642,-0.04556293,-0.040989913,-0.34757015,25.25,25.875,25.125,27.625,28.1875,28.5
0.24605261,-0.736424,-1.4861552,-1.7066188,-0.037696067,0.021959646,-0.116366774,-0.39531568,-0.350729,0.059916075,-3.0776262,0.6245073,-5.1724863e-05,-0.11752782,-0.017424481,-0.0013859931,0.009760658,-0.0049564997,-0.0067826253,0.46926716,-1.398223,1.9245294,-2.094828,-1.5716122,2.444124,-0.06981401,0.2309556,-0.2789738,0.056817997,-0.0069874087,-0.06286252,0.0,0.38307226,-9.500193,0.8493211,47.66271,-0.8766997,-2.1477134,-3.4786215,-0.028081387,-0.043387927,-0.3686306,25.25,25.875,25.125,27.625,28.1875,28.5
0.24805161,-0.997513,-1.3521589,-1.4243333,-0.040824015,0.019543666,-0.10775072,-0.39553115,-0.3507886,0.059913006,-3.0776467,0.6244686,-0.00015119514,-0.11581603,-0.018900983,-0.0018779285,0.011322736,-0.008523986,-0.0013020529,0.46914873,-1.3977543,1.9239568,-2.0946825,-1.5715641,2.443979,-0.065810636,0.2330974,-0.28139642,0.0609873,-0.0067682937,-0.06433933,-0.076614454,0.2681506,-9.442732,0.9030289,47.70211,-1.0973774,-2.2004225,-3.5561652,-0.07057751,-0.059272144,-0.37979692,25.25,25.875,25.125,27.625,28.1875,28.5
0.25005192,-0.89759594,-1.4074548,-1.4147475,-0.024394156,0.017518934,-0.10867337,-0.3957711,-0.35079503,0.059901867,-3.0775464,0.6245245,-0.00014477561,-0.11707154,-0.018771473,-0.0005294268,0.012179991,-0.009685338,-0.00059350126,0.46899223,-1.3972859,1.9234055,-2.0945485,-1.5716361,2.4438705,-0.06693678,0.2341724,-0.28722572,0.06715859,-0.0070133368,-0.066171445,-0.076614454,0.34476504,-9.404425,0.8873621,47.723602,-1.1283578,-2.097874,-3.5062568,-0.13215522,-0.07112084,-0.36927304,25.25,25.875,25.125,27.625,28.1875,28.5
0.25205198,-1.0994844,-1.0660853,-1.7296972,-0.014918353,0.015583506,-0.10436468,-0.3960002,-0.35084918,0.059904873,-3.0775707,0.62446976,-0.00021366883,-0.11897857,-0.018709568,8.134296e-05,0.012153637,-0.008379852,0.0009034882,0.4688599,-1.3968168,1.9228185,-2.0944045,-1.5715998,2.4437013,-0.06831331,0.23592448,-0.2909441,0.06794939,-0.0075922734,-0.0690418,-0.076614454,0.30645782,-9.385271,0.8672237,47.684196,-1.1003458,-2.1019166,-3.312369,-0.17792454,-0.053548954,-0.35201192,25.25,25.875,25.125,27.625,28.1875,28.5
0.25405195,-1.0343686,-0.93323576,-1.6970773,-0.014209995,0.02571916,-0.11889537,-0.396239,-0.35090446,0.059900854,-3.077557,0.62440807,-0.00023577327,-0.11901107,-0.018806363,-0.0002384298,0.01228501,-0.009826876,0.0037171368,0.46875185,-1.3963118,1.9222082,-2.0942724,-1.5716122,2.4435568,-0.06845659,0.23719235,-0.29208174,0.06916316,-0.0070614954,-0.07199953,-0.1340753,0.30645782,-9.442732,0.90750587,47.707485,-1.0840154,-2.0695014,-3.3816204,-0.20068553,-0.06311428,-0.3296903,25.25,25.875,25.125,27.625,28.1875,28.5
0.2560519,-1.0656625,-1.1893018,-1.4554062,-0.029055046,0.038651526,-0.115567476,-0.3964618,-0.35091546,0.059879083,-3.0774748,0.62436855,-0.00032359854,-0.11853367,-0.018823344,-0.0011020506,0.013310929,-0.013162189,0.0073689953,0.46859592,-1.395831,1.9216584,-2.0941045,-1.571648,2.443387,-0.06831424,0.23937495,-0.29333496,0.071663775,-0.0064804424,-0.07550949,-0.22984336,0.2681506,-9.442732,0.8493211,47.675243,-1.1716142,-1.9627209,-3.5311394,-0.24539378,-0.077641815,-0.29524502,25.25,25.875,25.125,27.625,28.1875,28.5
0.25805256,-1.75105,-1.904266,-1.1673123,-0.034925763,0.051994365,-0.11165831,-0.39671537,-0.35096434,0.059902556,-3.0775049,0.624316,-0.00025879007,-0.118423924,-0.01820923,-0.0010869299,0.014000765,-0.01393269,0.009207244,0.46846366,-1.3953866,1.9210609,-2.0939958,-1.5716599,2.4432185,-0.069055736,0.2388825,-0.29319832,0.07301535,-0.0067462614,-0.0780894,-0.38307226,0.30645782,-9.346964,0.86945957,47.70211,-1.2014287,-1.8801,-3.660448,-0.2723852,-0.06095421,-0.25228044,25.25,25.875,25.125,27.625,28.1875,28.5
0.26005173,-1.5940233,-1.4020488,-1.2766447,-0.040532645,0.07466116,-0.12003639,-0.39694887,-0.3509987,0.059880693,-3.0774322,0.6243542,-0.0003274352,-0.12013407,-0.018572224,0.0004263523,0.013086512,-0.010775929,0.014843087,0.4683315,-1.3948698,1.9204744,-2.0938523,-1.5716838,2.4431198,-0.069481716,0.23861736,-0.29653627,0.07338241,-0.0073765917,-0.08414801,-0.3256114,0.2681506,-9.385271,0.8784135,47.683304,-1.181927,-1.8370515,-3.7139757,-0.30950817,-0.056302775,-0.19808769,25.25,25.875,25.125,27.625,28.1875,28.5
0.26205206,-2.0494418,-1.2181089,-1.5886252,-0.02231206,0.071418576,-0.11260662,-0.39720002,-0.35103574,0.059888143,-3.0774665,0.6242853,-0.0003815014,-0.12136036,-0.018292699,0.0009839651,0.012192324,-0.009114339,0.013902862,0.4681509,-1.3944016,1.9198774,-2.0937092,-1.571648,2.442892,-0.07100553,0.23846155,-0.29757157,0.072688356,-0.0073369625,-0.0847313,-0.28730422,0.17238252,-9.500193,0.94331104,47.690468,-1.169881,-1.7812119,-3.6943448,-0.33599645,-0.076364554,-0.15506157,25.25,25.875,25.125,27.625,28.1875,28.5
0.26405206,-1.6278971,-0.92417794,-1.6887319,-0.012562792,0.07750389,-0.114152215,-0.39743724,-0.35108832,0.05988689,-3.0774474,0.6241256,-0.0003939369,-0.12350794,-0.019311529,0.0012228861,0.010429775,-0.0069083623,0.015059575,0.46805486,-1.3938963,1.9192542,-2.0935538,-1.5716838,2.4426992,-0.07143521,0.24155547,-0.30138272,0.07063443,-0.006778571,-0.086316705,-0.34476504,0.076614454,-9.500193,0.94331104,47.689575,-1.1059204,-1.7477968,-3.69269,-0.33346865,-0.101624615,-0.13493216,25.25,25.875,25.125,27.625,28.1875,28.5
0.2660521,-1.8922466,-0.52888954,-1.6360918,-0.012222686,0.060148507,-0.10705209,-0.3976791,-0.3511232,0.059894256,-3.077444,0.62416303,-0.00044907146,-0.12628831,-0.019727234,0.0014057172,0.009418867,-0.004002069,0.014444137,0.46788654,-1.3934386,1.9186667,-2.0933993,-1.5716599,2.442555,-0.072831124,0.24491796,-0.30526382,0.06810506,-0.0072062993,-0.08709356,-0.53630114,0.19153613,-9.481039,0.88960326,47.674347,-1.0965642,-1.8050432,-3.573791,-0.31141746,-0.09117794,-0.05999724,25.25,25.875,25.125,27.625,28.1875,28.5
0.268052,-0.969248,-0.9948032,-1.7475573,-0.012205489,0.083485365,-0.11204276,-0.3979182,-0.35115308,0.059866533,-3.0773726,0.62411183,-0.00054968713,-0.1282717,-0.020410465,0.0012009476,0.00903391,-0.0017414159,0.011283337,0.46774238,-1.3928967,1.9180578,-2.0932324,-1.5716842,2.4423883,-0.07289508,0.24835928,-0.30838117,0.065592386,-0.007900606,-0.08399217,-0.49799395,0.17238252,-9.557653,0.8940802,47.677036,-1.1306455,-1.8340421,-3.5484102,-0.30261427,-0.09395848,-0.08937661,25.25,25.875,25.125,27.625,28.1875,28.5
0.27005208,-1.5822307,-0.71126974,-1.9542186,-0.020348424,0.06264492,-0.11673313,-0.39818695,-0.3511999,0.0598859,-3.0773742,0.62407506,-0.0004724801,-0.13189852,-0.02019407,0.0014518119,0.007991158,0.0011916184,0.006613619,0.46760923,-1.3924149,1.9174227,-2.0931141,-1.5717205,2.4422324,-0.07614799,0.25209078,-0.3129162,0.06330674,-0.00830318,-0.08257195,-0.38307226,0.15322891,-9.634268,0.8985519,47.70211,-1.0079612,-2.089677,-3.3705506,-0.2709925,-0.09430008,-0.097669706,25.25,25.875,25.125,27.625,28.1875,28.5
0.27205208,-1.3132507,-1.5065192,-1.7775276,-0.028761722,0.0734012,-0.11261889,-0.3984624,-0.3512617,0.059905883,-3.0774333,0.6240107,-0.00041610718,-0.13261229,-0.021444496,0.0011301112,0.0073465668,0.0023957575,0.005855332,0.46746588,-1.3919215,1.9167775,-2.0930188,-1.5717086,2.4420416,-0.0745567,0.25474262,-0.31495845,0.061334047,-0.008272448,-0.08022163,-0.5363012,0.24899697,-9.672575,0.84484416,47.675243,-1.0391185,-2.0725856,-3.413943,-0.24871299,-0.10648002,-0.09970304,25.25,25.875,25.125,27.625,28.1875,28.5
0.274052,-1.6216971,-1.9871831,-1.7733105,-0.041196316,0.07484282,-0.09956803,-0.39874583,-0.35125205,0.05990113,-3.0773413,0.62414664,-0.00039178855,-0.13363054,-0.021093205,0.0011906939,0.006986419,0.0041286442,0.0020066628,0.4672375,-1.3914281,1.9161805,-2.092888,-1.5717691,2.4419103,-0.07568106,0.25495994,-0.3150523,0.05949937,-0.008735181,-0.077495836,-0.59376204,0.30645782,-9.595961,0.9298854,47.695843,-1.0469356,-2.1396458,-3.5336452,-0.22273001,-0.09959638,-0.12738472,25.25,25.875,25.125,27.625,28.1875,28.5
0.27605206,-1.2574611,-1.7911304,-2.0224864,-0.04426916,0.08208582,-0.11530842,-0.39902076,-0.35133544,0.05991922,-3.0773954,0.62406534,-0.00032162305,-0.13557918,-0.018834967,8.228549e-05,0.008413941,0.0033951388,-0.0053703017,0.4671398,-1.3909001,1.9154986,-2.0927923,-1.5717691,2.4417553,-0.08065108,0.2571911,-0.3150569,0.05857598,-0.009674411,-0.07508677,-0.49799395,0.4405331,-9.80665,0.8851263,47.67345,-0.8922553,-2.071941,-3.6982315,-0.19835678,-0.08725483,-0.15505221,25.25,25.875,25.125,27.625,28.1875,28.5
0.278052,-1.3044865,-2.3094616,-1.7620615,-0.07523856,0.08989315,-0.11456047,-0.3992814,-0.35137495,0.059937265,-3.0773764,0.6240406,-0.00025076309,-0.13542104,-0.020390844,1.9727628e-05,0.0078097656,0.004187929,-0.0052442965,0.46700892,-1.3904308,1.9148773,-2.0926611,-1.5718168,2.4416118,-0.07786383,0.2587007,-0.31657627,0.057603538,-0.009493077,-0.07242544,-0.3256114,0.38307226,-9.787497,0.9254084,47.68599,-0.90235615,-1.9836996,-3.81874,-0.15720439,-0.07080997,-0.19376832,25.25,25.875,25.125,27.625,28.1875,28.5
0.28005207,-1.3616133,-2.2454574,-1.5688251,-0.07920425,0.07377261,-0.110813744,-0.39957464,-0.35139263,0.059913132,-3.0773075,0.6241252,-0.0002643683,-0.13790604,-0.020323481,0.0013757313,0.0059834234,0.0077309487,-0.009175504,0.46680412,-1.3898544,1.9142317,-2.0925539,-1.5718526,2.441469,-0.08008985,0.25876132,-0.31965917,0.056637533,-0.009466406,-0.07071885,-0.40222588,0.38307226,-9.576807,0.92764956,47.666286,-0.94800025,-2.012836,-3.7912016,-0.14349431,-0.06968607,-0.2294178,25.25,25.875,25.125,27.625,28.1875,28.5
0.28205204,-0.96069884,-1.5087645,-1.6205785,-0.052580785,0.057491142,-0.11191504,-0.39988843,-0.351449,0.059939552,-3.0773695,0.6242155,-0.00017188562,-0.14077385,-0.019987507,0.0021311836,0.004641327,0.010333786,-0.013431784,0.4666111,-1.3893373,1.9135484,-2.0924828,-1.5718287,2.4413247,-0.083110325,0.2604425,-0.32324633,0.05561656,-0.009440118,-0.06948237,-0.38307226,0.28730422,-9.595961,0.947788,47.651955,-0.7480745,-1.8598629,-3.7541628,-0.10477495,-0.09818496,-0.25531405,25.25,25.875,25.125,27.625,28.1875,28.5
0.28405195,-0.91720307,-0.98481274,-1.7165449,-0.02289752,0.03697217,-0.10996891,-0.40015766,-0.35148686,0.059926815,-3.0773432,0.6242497,-0.00015356285,-0.14272122,-0.020684807,0.003384897,0.0032592732,0.0117212385,-0.015372036,0.4664549,-1.3888085,1.912937,-2.092398,-1.5718521,2.4411936,-0.08391359,0.26197904,-0.32844397,0.057413083,-0.008834731,-0.06834496,-0.2873042,0.22984336,-9.519346,0.9567419,47.688675,-0.7189907,-1.8567822,-3.6206422,-0.08210411,-0.0954978,-0.2926646,25.25,25.875,25.125,27.625,28.1875,28.5
0.28605208,-0.64788204,-0.19918568,-1.5206213,-0.00400206,0.018849526,-0.120262876,-0.4004251,-0.3515259,0.059938062,-3.077327,0.62422454,-0.00010651164,-0.14519954,-0.021808885,0.00538003,-0.00010947287,0.01672627,-0.013741697,0.46631056,-1.388316,1.9123033,-2.0922673,-1.5718883,2.441036,-0.08453172,0.26170614,-0.33238518,0.05563291,-0.0080889715,-0.07059385,-0.1340753,0.17238252,-9.481039,0.8672237,47.66091,-0.6950127,-1.7124883,-3.470635,-0.033334475,-0.109653085,-0.31156173,25.25,25.875,25.125,27.625,28.1875,28.5
0.28805208,-0.68047297,0.10035397,-1.4925524,-0.0036748599,0.028628208,-0.1141844,-0.40075046,-0.3515823,0.059971534,-3.0773585,0.6243487,3.1061736e-05,-0.14539586,-0.021327201,0.0044123824,0.0013625732,0.014593327,-0.01719404,0.46613038,-1.3877867,1.9115857,-2.0921824,-1.5719002,2.4409297,-0.08522522,0.2640906,-0.33337435,0.05680715,-0.008432273,-0.06783467,-0.34476504,0.19153613,-9.404425,0.8493211,47.687782,-0.6431578,-1.7310913,-3.4840117,-0.0156066995,-0.10807839,-0.35207212,25.25,25.875,25.125,27.625,28.1875,28.5
0.29005188,-1.0773617,-0.4012311,-1.5068297,-0.0042089587,0.04699589,-0.113454476,-0.40102425,-0.351624,0.059971932,-3.0773413,0.62438226,7.496372e-06,-0.14493388,-0.021189922,0.0032488317,0.00372265,0.010031314,-0.017649746,0.46596265,-1.3872561,1.9109281,-2.0920374,-1.5719002,2.4407854,-0.08494276,0.26753944,-0.33585262,0.06097245,-0.008485305,-0.06709544,-0.40222588,0.19153613,-9.423578,0.93436235,47.71286,-0.661875,-1.9259667,-3.5443125,0.022989217,-0.10353175,-0.40195036,25.25,25.875,25.125,27.625,28.1875,28.5
0.2920559,-1.3790382,-1.0332292,-1.6304482,-0.026528502,0.06830293,-0.12040081,-0.4013209,-0.35167697,0.059994232,-3.0773585,0.62440324,4.4968518e-05,-0.14517187,-0.021249674,0.0020556857,0.005046122,0.005588198,-0.016007071,0.46579427,-1.386727,1.9102219,-2.0918925,-1.5718998,2.4406283,-0.08547296,0.27200255,-0.3393235,0.064537555,-0.007670178,-0.069269106,-0.19153613,0.17238252,-9.481039,0.95002913,47.688675,-0.70808864,-2.0074158,-3.5953498,-0.03592142,-0.12252585,-0.4227957,25.25,25.875,25.125,27.625,28.1875,28.5
0.29405195,-1.4903197,-1.6735781,-1.461312,-0.03641375,0.083258756,-0.11144529,-0.40156907,-0.35171655,0.059960477,-3.0773036,0.62444955,-7.606492e-05,-0.14523157,-0.021049831,0.0010066173,0.006128327,0.0043109916,-0.016644018,0.46563837,-1.3861617,1.9096011,-2.091749,-1.5718883,2.4405086,-0.08554233,0.27411535,-0.3394949,0.06422523,-0.0080699995,-0.06869976,-0.19153613,0.30645782,-9.481039,0.9254084,47.711063,-0.7164488,-1.9356766,-3.5707803,0.018695211,-0.13847667,-0.4379661,25.25,25.875,25.125,27.625,28.1875,28.5
0.2960519,-1.2986021,-2.0706244,-1.3148127,-0.051166672,0.08657748,-0.11036036,-0.4019028,-0.35176352,0.059995484,-3.0773044,0.62454444,8.269302e-05,-0.14527705,-0.020797824,0.00047459107,0.008117233,0.002322469,-0.0149193425,0.4654584,-1.3856205,1.9088596,-2.0916402,-1.571937,2.4403882,-0.085370526,0.27619016,-0.34143332,0.06675518,-0.008948136,-0.07025075,-0.28730422,0.36391866,-9.442732,0.90527004,47.684196,-0.6362262,-1.8725185,-3.6664898,0.005473718,-0.1212679,-0.4793109,25.25,25.875,25.125,27.625,28.1875,28.5
0.29805225,-0.91620183,-1.4539263,-1.2560002,-0.045534275,0.064811215,-0.10866452,-0.40219942,-0.35181752,0.060009424,-3.0773277,0.62442946,0.00016995115,-0.14470209,-0.021538284,0.00095480715,0.008618073,0.0016880964,-0.009222469,0.46531504,-1.3850797,1.9081663,-2.0915315,-1.5719727,2.4401705,-0.08340882,0.2761931,-0.34325725,0.069359995,-0.009109462,-0.07398579,-0.05746084,0.2681506,-9.32781,0.9164598,47.67614,-0.83819973,-1.9295576,-3.7228208,0.013345717,-0.11225255,-0.47718236,25.25,25.875,25.125,27.625,28.1875,28.5
0.30005214,0.06525022,-1.1190356,-1.2736969,-0.02468658,0.03909906,-0.11962753,-0.40250513,-0.35186252,0.06001824,-3.0772986,0.624557,0.0001917199,-0.14698955,-0.020733692,0.0010959877,0.008804113,0.0012145077,-0.008214756,0.46513382,-1.3845147,1.9074477,-2.091387,-1.5719851,2.440073,-0.08672026,0.278957,-0.34740674,0.07124421,-0.00907152,-0.07830351,0.038307227,0.24899697,-9.3661175,0.9321212,47.675243,-0.7248421,-1.8881148,-3.5895796,-0.0019457341,-0.11573185,-0.4566027,25.25,25.875,25.125,27.625,28.1875,28.5
0.30205244,0.7102365,-0.5832222,-1.4699515,-0.010051447,-0.00066180114,-0.12149274,-0.40281284,-0.3518804,0.060011074,-3.07727,0.62458473,0.00023447347,-0.14696114,-0.021682218,0.0014779712,0.010439446,0.0007529924,-0.0009345073,0.4649189,-1.3839612,1.9067897,-2.0912902,-1.5720209,2.4398794,-0.084173374,0.2807138,-0.35121146,0.07443167,-0.010331348,-0.08303285,0.019153614,0.24899697,-9.251195,0.97464454,47.692257,-0.81771815,-1.8857031,-3.474252,-0.01746038,-0.10448973,-0.4207108,25.25,25.875,25.125,27.625,28.1875,28.5
0.3040526,0.99602515,-0.33303916,-1.579913,0.008578092,-0.028139275,-0.11760929,-0.403101,-0.35194662,0.060031436,-3.077298,0.6245681,0.00024891115,-0.14792757,-0.021843463,0.0025222322,0.00989745,0.00086324255,0.003363319,0.46477467,-1.3834208,1.9060706,-2.0911338,-1.572009,2.4397216,-0.08492266,0.28099146,-0.35470414,0.07729665,-0.009900198,-0.08808034,0.076614454,0.3256114,-9.097966,0.947788,47.704796,-0.84825724,-1.8719243,-3.4895813,-0.030579364,-0.1113139,-0.37827146,25.25,25.875,25.125,27.625,28.1875,28.5
0.3060519,0.5917668,-0.7538274,-1.4697931,0.009052075,-0.031543683,-0.11018075,-0.4034008,-0.35198545,0.060035173,-3.0772526,0.6244981,0.00028145197,-0.14669454,-0.020725574,0.0009399592,0.013603262,-0.0067499178,0.007568845,0.46461827,-1.3828433,1.905342,-2.0909631,-1.572069,2.4395278,-0.08575814,0.2841059,-0.35655326,0.084484,-0.009795789,-0.09312129,0.05746084,0.28730422,-9.193734,0.95897776,47.696735,-0.77326345,-1.7971802,-3.503428,-0.09032859,-0.116288185,-0.32436293,25.25,25.875,25.125,27.625,28.1875,28.5
0.30805203,0.17503737,-1.3976362,-1.4908866,-0.005893521,-0.011492999,-0.10547516,-0.40368235,-0.35203025,0.06003739,-3.0772386,0.6244148,0.00021738982,-0.14659865,-0.02092106,0.0014104204,0.013966521,-0.0073546595,0.012147391,0.46445066,-1.3822787,1.9046243,-2.0907595,-1.572069,2.4393103,-0.08521309,0.28405702,-0.35827088,0.08694715,-0.009858154,-0.09715405,0.076614454,0.21068975,-9.289502,0.92764956,47.670765,-0.8242043,-1.7089819,-3.5580487,-0.12807275,-0.09652935,-0.27669442,25.25,25.875,25.125,27.625,28.1875,28.5
0.31005213,-0.40536964,-1.8004171,-1.2157589,-0.03775032,0.013647922,-0.107555136,-0.40397897,-0.35206917,0.060043458,-3.0771914,0.6243846,0.00020023012,-0.14734986,-0.020830862,0.002025521,0.014589001,-0.0092539005,0.013924625,0.46428233,-1.3817015,1.9038824,-2.090554,-1.5721048,2.4391296,-0.086111665,0.28550577,-0.36263773,0.09183244,-0.009571128,-0.09982901,0.11492168,0.2873042,-9.193734,0.9634547,47.678825,-0.8087888,-1.7880502,-3.4384825,-0.18130594,-0.12184241,-0.22716874,25.25,25.875,25.125,27.625,28.1875,28.5
0.31205204,-0.64892966,-2.31327,-0.9087677,-0.048786044,0.033228714,-0.108337,-0.40426043,-0.3520936,0.060021177,-3.077108,0.6243469,0.000109317545,-0.1458649,-0.020646024,0.0013923551,0.015708944,-0.013681879,0.0153350625,0.4641024,-1.3811013,1.9031776,-2.090349,-1.5721406,2.4389372,-0.08566492,0.28591633,-0.3627886,0.09602362,-0.008594871,-0.10079489,-0.019153614,0.34476504,-9.021352,0.9298854,47.682407,-0.8784003,-1.4692879,-3.4387028,-0.28717723,-0.14428477,-0.19127616,25.25,25.875,25.125,27.625,28.1875,28.5
0.31405205,-0.26124913,-1.1293353,-1.0263538,-0.04482187,0.05503452,-0.11518181,-0.40457386,-0.35215133,0.06005406,-3.0771563,0.62429833,0.00015089741,-0.14743337,-0.02129736,0.0009021846,0.015470271,-0.013224427,0.014264478,0.4639225,-1.3805592,1.9024242,-2.090182,-1.5721287,2.4387212,-0.0858107,0.28981906,-0.36620075,0.095018364,-0.008594039,-0.09986866,-0.019153614,0.36391866,-9.040505,0.8873621,47.705692,-0.87194955,-1.7409809,-3.5113082,-0.3070965,-0.13826321,-0.14720555,25.25,25.875,25.125,27.625,28.1875,28.5
0.316052,-1.1277226,-1.7320744,-1.3778803,0.006540314,0.019839702,-0.10089388,-0.40487123,-0.35220614,0.060042106,-3.0771165,0.62429285,9.745542e-05,-0.14904663,-0.02211765,0.00043144805,0.014523896,-0.0122969495,0.010213312,0.46376643,-1.3799334,1.9016708,-2.0900033,-1.5721406,2.4385672,-0.08597121,0.293503,-0.36922234,0.09310497,-0.0081776,-0.09597698,0.095768064,0.2681506,-9.174581,0.9612189,47.67614,-0.9308132,-1.7510844,-3.5952485,-0.3191803,-0.13274418,-0.19191158,25.25,25.875,25.125,27.625,28.1875,28.5
0.31805208,-0.38679925,-1.13022,-0.88976574,-0.021530783,0.04147519,-0.109476015,-0.4051763,-0.35225374,0.06004428,-3.077113,0.62425417,0.00013078185,-0.15062684,-0.02346619,0.00027076536,0.0124221435,-0.009223777,0.008754173,0.46359873,-1.3793558,1.9009532,-2.089873,-1.5721639,2.4383762,-0.08523712,0.29610538,-0.37109375,0.08868337,-0.0076860874,-0.0937838,0.019153614,0.19153613,-9.11712,0.92093146,47.677036,-0.9522601,-1.8584222,-3.4959397,-0.29451013,-0.1388886,-0.19528666,25.25,25.875,25.125,27.625,28.1875,28.5
0.32005206,-0.8520903,-1.0569913,-1.0420257,-0.015733028,0.019471465,-0.10555268,-0.40545917,-0.3523023,0.060040195,-3.0770996,0.6242162,5.6648198e-05,-0.15326396,-0.023836564,0.0006956118,0.010233757,-0.0044541503,0.0005112506,0.46343035,-1.3787783,1.900236,-2.0896838,-1.5721525,2.4381862,-0.086671524,0.29755765,-0.37281483,0.08371797,-0.0078756325,-0.08697334,-0.038307227,0.26815057,-8.963891,0.9768804,47.67614,-1.0843022,-1.9895945,-3.5982325,-0.25756168,-0.15697873,-0.26624796,25.25,25.875,25.125,27.625,28.1875,28.5
0.32205203,-1.0947101,-1.6160804,-1.1409221,-0.015963461,0.026393434,-0.09464222,-0.40577164,-0.35234907,0.060046904,-3.077054,0.6241873,4.3240838e-05,-0.15444571,-0.025289143,0.00046714486,0.00930497,-0.0009293435,0.0006669494,0.46326286,-1.3781657,1.8994468,-2.0894697,-1.5721883,2.4380069,-0.08463212,0.3000192,-0.37436438,0.07923901,-0.008636372,-0.08508629,-0.05746084,0.36391866,-8.925584,0.92093146,47.675243,-0.9665468,-1.8226674,-3.635734,-0.20670167,-0.16472639,-0.299836,25.25,25.875,25.125,27.625,28.1875,28.5
0.3240521,-1.3275948,-1.661236,-0.9356063,-0.05034079,0.045081586,-0.111418925,-0.40607455,-0.3523994,0.06001702,-3.0770316,0.62410444,-7.697033e-06,-0.15705085,-0.026606591,0.002471328,0.0066138986,0.0049421308,0.0008974169,0.46309504,-1.3775163,1.8987159,-2.089339,-1.5722002,2.4377906,-0.084378846,0.30013844,-0.37875465,0.07705349,-0.00887141,-0.08506087,-0.11492168,0.4405331,-8.963891,0.98135734,47.677036,-1.2144092,-1.9038994,-3.553753,-0.15087691,-0.15560064,-0.31228733,25.25,25.875,25.125,27.625,28.1875,28.5
0.32605213,-1.8511707,-2.640522,-1.1930221,-0.049141288,0.040336616,-0.09602146,-0.4063757,-0.35243884,0.060023505,-3.0769918,0.6240789,-5.824687e-06,-0.1600615,-0.025791883,0.0026273665,0.005843015,0.0070076655,-0.0030265055,0.4629257,-1.3769395,1.8979744,-2.0891483,-1.5722369,2.4376109,-0.08812392,0.30259252,-0.3818197,0.075468846,-0.009116279,-0.084879756,-0.21068975,0.51714754,-9.136273,0.89631605,47.666286,-0.9469238,-1.7447486,-3.530497,-0.1278967,-0.15310687,-0.31935352,25.25,25.875,25.125,27.625,28.1875,28.5
0.32805234,-1.5816329,-2.7184682,-1.1464862,-0.07048301,0.055515513,-0.10568449,-0.40670413,-0.3524926,0.060033817,-3.0769677,0.62422633,1.8016901e-06,-0.16006161,-0.02699828,0.0029585536,0.0055608666,0.008601017,-0.0011939196,0.46273485,-1.3763268,1.8971862,-2.0889804,-1.5722369,2.4375155,-0.08566426,0.30312884,-0.38322473,0.07478699,-0.009577743,-0.08425122,-0.38307226,0.6703765,-9.193734,0.97464454,47.684196,-1.1531043,-1.6978483,-3.562413,-0.09362231,-0.15208012,-0.34154963,25.25,25.875,25.125,27.625,28.1875,28.5
0.3300525,-1.5744014,-2.7251685,-1.0237119,-0.08098515,0.06389446,-0.10091863,-0.4070262,-0.35254577,0.060031183,-3.0769522,0.6241468,5.697453e-05,-0.1611607,-0.026754418,0.0030515369,0.005070131,0.008794859,-0.0027743701,0.4625782,-1.3757018,1.8964208,-2.0888488,-1.5722846,2.4373116,-0.08715063,0.3042061,-0.384945,0.07503112,-0.009226692,-0.08415776,-0.22984336,0.49799395,-9.193734,0.9947882,47.70211,-1.0917441,-1.6431421,-3.6690292,-0.07971721,-0.15835048,-0.3654807,25.3125,25.875,25.125,27.625,28.1875,28.5
0.3320523,-1.2975694,-2.4407978,-1.1716906,-0.06296171,0.066917926,-0.10452126,-0.4073342,-0.35260645,0.05999842,-3.0769281,0.62416023,-1.8280834e-05,-0.16294643,-0.027131448,0.0039016414,0.0039798543,0.010775613,-0.0037795654,0.46240997,-1.3750286,1.8956665,-2.0887172,-1.5722731,2.4371552,-0.087992586,0.3053695,-0.38847736,0.075140566,-0.009145207,-0.08399316,-0.34476507,0.47884035,-9.251195,0.9410752,47.67614,-1.1242769,-1.7070546,-3.6707048,-0.055499654,-0.18148148,-0.3851664,25.3125,25.875,25.125,27.625,28.1875,28.5
0.3340523,-1.4316087,-1.6812639,-1.2330512,-0.04642833,0.055311684,-0.101864696,-0.40766352,-0.3526508,0.05999763,-3.076901,0.6241913,-2.7999765e-06,-0.16251737,-0.026353803,0.0013885569,0.006240302,0.006173926,-0.0013467987,0.46221763,-1.3744031,1.8948902,-2.0885618,-1.572297,2.4369862,-0.0888681,0.30956364,-0.38802493,0.075611964,-0.009117404,-0.08730146,-0.47884035,0.34476504,-9.251195,0.9634547,47.679718,-1.0722619,-1.6894587,-3.7547514,-0.022472803,-0.19099866,-0.39237112,25.3125,25.875,25.125,27.625,28.1875,28.5
0.33605224,-1.1372019,-1.4903381,-1.2225451,-0.029472236,0.054643136,-0.09896811,-0.40795732,-0.35271847,0.059981883,-3.0768898,0.6242087,-5.322454e-05,-0.16387203,-0.026375633,0.0009672005,0.006558728,0.0058180345,-0.0013277058,0.46207336,-1.3737769,1.8941492,-2.0884173,-1.5722846,2.4368546,-0.08981962,0.3126632,-0.39100814,0.0759551,-0.009253027,-0.08827023,-0.34476504,0.36391866,-9.308656,0.9186956,47.65464,-1.0354748,-1.7681177,-3.7746873,0.009197602,-0.1953513,-0.3721665,25.3125,25.875,25.125,27.625,28.1875,28.5
0.33805215,-1.3420264,-0.58675337,-1.0653011,-0.024565026,0.046041824,-0.11546071,-0.40831378,-0.35279465,0.05998162,-3.0769284,0.6241168,1.2170629e-05,-0.16576469,-0.027206302,0.0010632081,0.0059428713,0.0055252295,0.0022507352,0.46190515,-1.3730911,1.89331,-2.088309,-1.5722965,2.4366245,-0.09033205,0.31678724,-0.39667284,0.07747212,-0.008580785,-0.092361085,-0.36391866,0.28730422,-9.270349,0.95002913,47.642998,-1.0484608,-1.8890557,-3.7000859,0.013984354,-0.20170502,-0.37126487,25.3125,25.875,25.125,27.625,28.1875,28.5
0.34005204,-1.0816503,-0.4600403,-1.3050054,-0.0064445715,0.052174553,-0.10722725,-0.40862194,-0.3528324,0.059961144,-3.0768852,0.62408566,-5.8885616e-05,-0.16665053,-0.02700202,0.0012945831,0.00652933,0.0044575143,0.007430304,0.4617129,-1.3724537,1.8925575,-2.0881288,-1.5723084,2.4364188,-0.09129567,0.31839213,-0.39994487,0.08034438,-0.00864424,-0.09850272,-0.30645782,0.1340753,-9.289502,1.0194036,47.689575,-1.0387459,-1.9764092,-3.568001,0.013746061,-0.20832326,-0.29201517,25.3125,25.875,25.125,27.625,28.1875,28.5
0.3420521,-0.5959189,-0.014060093,-1.3072305,-0.0023513092,0.051680904,-0.11415723,-0.40897793,-0.35287052,0.059969813,-3.0768554,0.6241561,-1.1160532e-06,-0.16868149,-0.025758065,0.0007899496,0.0078306785,0.0027034585,0.007190624,0.46149564,-1.371816,1.8917435,-2.0879724,-1.5723447,2.4362497,-0.09479686,0.32193097,-0.40373585,0.08273752,-0.009033121,-0.10176196,-0.30645782,0.019153614,-9.308657,0.9634547,47.694946,-0.93394196,-1.9893317,-3.5374184,0.00916695,-0.21138743,-0.25647563,25.3125,25.875,25.125,27.625,28.1875,28.5
0.34405217,-1.4135268,-0.60601234,-1.1581712,0.016525894,0.028641162,-0.0975641,-0.40929747,-0.35292327,0.05994938,-3.0768592,0.6240551,-6.858279e-05,-0.16646968,-0.026483666,0.0004408939,0.010703674,-0.003667521,0.015043578,0.46130487,-1.3711545,1.8909663,-2.0878131,-1.5723327,2.4359958,-0.09172481,0.32365578,-0.40715072,0.09140252,-0.008768198,-0.106542826,-0.36391866,0.019153614,-9.155427,0.9567419,47.689575,-0.96957165,-2.0546,-3.4598637,-0.025631629,-0.22252378,-0.1941661,25.3125,25.875,25.125,27.625,28.1875,28.5
0.34605247,-1.1148216,-0.08166603,-1.381016,0.020321215,0.033525195,-0.10723927,-0.40964398,-0.3529621,0.059929714,-3.0767817,0.6240765,-6.390237e-05,-0.1657037,-0.024295071,-0.00094092713,0.014289357,-0.008094513,0.016586902,0.4611121,-1.3704572,1.8901423,-2.0876448,-1.5723928,2.4358268,-0.093926206,0.32430708,-0.4057894,0.09494049,-0.0100095365,-0.11028488,-0.45968673,-0.019153614,-9.174581,0.97240865,47.685097,-1.0010632,-2.0519109,-3.5302103,-0.06728592,-0.23383752,-0.12414843,25.3125,25.875,25.125,27.625,28.1875,28.5
0.3480524,-1.3092958,0.3033719,-1.4637917,0.022008924,0.036859337,-0.108467005,-0.40995812,-0.35301954,0.059933122,-3.0767891,0.62405986,-0.00015122663,-0.1645628,-0.023053948,-0.0017951046,0.01720591,-0.01394448,0.015177103,0.4609197,-1.369833,1.8893412,-2.087427,-1.572357,2.4356234,-0.09496026,0.32540762,-0.40679973,0.10138993,-0.0100136725,-0.109909095,-0.3256114,-0.076614454,-9.308656,0.9791215,47.683304,-0.8114099,-1.9837675,-3.8029208,-0.13762343,-0.22834513,-0.09067057,25.3125,25.875,25.125,27.625,28.1875,28.5
0.3500525,-1.1664543,0.20733353,-1.4607859,0.014958156,0.046652652,-0.10445767,-0.41029146,-0.35308358,0.059933424,-3.0767713,0.6239405,-0.0002082033,-0.16401401,-0.02319648,-0.0021289021,0.018114172,-0.017444152,0.014057656,0.46075183,-1.3691475,1.8884686,-2.087186,-1.572369,2.4353838,-0.094602965,0.32699892,-0.40910196,0.10563643,-0.009273515,-0.10843366,-0.4405331,-0.11492168,-9.404425,0.9768804,47.67614,-0.987993,-1.921716,-3.8925877,-0.19848639,-0.23022766,-0.06539659,25.3125,25.875,25.125,27.625,28.1875,28.5
0.35205176,-0.9943801,0.16499236,-1.3890663,-0.0051853755,0.05833968,-0.11308216,-0.41064766,-0.35312888,0.05995653,-3.0767493,0.6239386,-0.00016518614,-0.1658139,-0.023524536,-0.0010667171,0.0171889,-0.015935782,0.009161455,0.46054757,-1.3685104,1.887607,-2.08697,-1.5724047,2.4351816,-0.095553406,0.32816088,-0.41340494,0.10701563,-0.009119513,-0.10448713,-0.36391866,-0.11492168,-9.346964,0.9231726,47.66091,-0.9285033,-2.05346,-3.7865167,-0.24911019,-0.23186001,-0.088456616,25.3125,25.875,25.125,27.625,28.1875,28.5
0.35405177,-1.463321,-0.4506777,-2.0149617,0.0066879783,0.047857113,-0.09699261,-0.41095588,-0.35317704,0.059933472,-3.076709,0.6238369,-0.00028957296,-0.16757056,-0.023059182,-0.0011497947,0.018563706,-0.01607705,0.003376975,0.4603671,-1.3678374,1.8868045,-2.0867417,-1.5724047,2.4349432,-0.09700726,0.33117133,-0.41740385,0.108751714,-0.010300821,-0.10015063,-0.30645782,0.0,-9.519346,0.98135734,47.70211,-0.90892875,-1.9632906,-3.6923096,-0.29631302,-0.24392472,-0.12716375,25.3125,25.875,25.125,27.625,28.1875,28.5
0.356053,-1.4990342,-0.9921332,-1.9432713,-0.01967373,0.0627017,-0.101850286,-0.41131994,-0.3532034,0.059948597,-3.0766401,0.62390155,-0.0002507256,-0.17019778,-0.024692424,-0.00023542062,0.015917886,-0.010856046,-0.00043245478,0.46013933,-1.3671874,1.8859428,-2.0865161,-1.5724648,2.434765,-0.09635325,0.33346292,-0.42150426,0.104707226,-0.010266824,-0.09568537,-0.24899697,0.019153614,-9.653421,0.9388393,47.691364,-0.93931794,-2.0592895,-3.5718675,-0.28737706,-0.2516781,-0.16379133,25.3125,25.875,25.125,27.625,28.1875,28.5
0.35805196,-1.2826242,-1.7063708,-1.9085909,-0.05139504,0.08054758,-0.10518669,-0.41164964,-0.35324785,0.05991144,-3.0765727,0.6239271,-0.00037729,-0.17138213,-0.024395855,-0.0017878516,0.017054172,-0.011986612,-0.003612414,0.45993504,-1.3664652,1.8851184,-2.086313,-1.5724653,2.4345858,-0.097420305,0.33788678,-0.42321664,0.10351701,-0.01079942,-0.09356884,-0.1340753,0.15322891,-9.672575,0.9365982,47.661808,-0.9266852,-2.1278265,-3.5609746,-0.31335065,-0.24988446,-0.18559211,25.3125,25.875,25.125,27.625,28.1875,28.5
0.3600521,-1.44933,-2.3494222,-2.130713,-0.049385224,0.06694719,-0.09704439,-0.41196007,-0.35329518,0.059906002,-3.0765247,0.62388116,-0.00043342,-0.17338829,-0.024168655,-0.0021161702,0.01586577,-0.008331699,-0.009804329,0.45976666,-1.3658283,1.8843182,-2.0860875,-1.5724891,2.4343953,-0.09905184,0.33924437,-0.42310217,0.098248586,-0.011369529,-0.08900586,-0.4213795,0.32561144,-9.653421,1.0283576,47.703007,-0.7937983,-2.347939,-3.7386992,-0.2562948,-0.24785814,-0.24840839,25.3125,25.875,25.125,27.625,28.1875,28.5
0.3620522,-1.3238003,-2.5039604,-2.3983111,-0.07383544,0.07663465,-0.09805428,-0.41232562,-0.35335305,0.059917983,-3.0765038,0.6240087,-0.00039660966,-0.1747814,-0.024656745,-0.0020382376,0.013872566,-0.0049188673,-0.008161385,0.4595626,-1.3651552,1.8834456,-2.0859096,-1.5725015,2.434274,-0.09943405,0.33987892,-0.42324728,0.093808636,-0.011112205,-0.09103209,-0.28730422,0.4405331,-9.825804,0.9545008,47.655537,-0.79037267,-2.2076511,-3.945809,-0.1973923,-0.25828466,-0.2668437,25.3125,25.875,25.125,27.625,28.1875,28.5
0.36405215,-1.5092193,-3.0072532,-2.3610077,-0.08808316,0.06460445,-0.100442834,-0.41268435,-0.3533913,0.05991787,-3.0764635,0.6240237,-0.00038230783,-0.17687704,-0.024829613,-0.0022607648,0.013221997,-0.002079085,-0.013086244,0.45934594,-1.3644817,1.8825969,-2.0857193,-1.5725378,2.4340723,-0.100364745,0.34242097,-0.4252302,0.090420015,-0.011797324,-0.08703468,0.019153614,0.5363012,-9.921572,1.048496,47.66987,-0.6920837,-2.168639,-3.997263,-0.14813419,-0.24237183,-0.30386582,25.3125,25.875,25.125,27.625,28.1875,28.5
0.36605224,-1.6100123,-3.206964,-1.9651943,-0.09710047,0.057309415,-0.09177136,-0.4130464,-0.35343933,0.05992337,-3.076405,0.62403166,-0.0003150211,-0.18127532,-0.025463348,0.0015892808,0.008852839,0.0072978516,-0.016572358,0.45916533,-1.3637978,1.8817223,-2.0855286,-1.5726098,2.4339046,-0.102725305,0.34011206,-0.4308955,0.08804705,-0.012054106,-0.08590692,-0.2681506,0.53630114,-9.672575,0.94331104,47.658226,-0.68638206,-1.9617231,-3.9516664,-0.1197857,-0.23817313,-0.36911798,25.3125,25.875,25.125,27.625,28.1875,28.5
0.3680523,-0.98849547,-2.5430787,-2.032524,-0.070497185,0.04854719,-0.095728606,-0.41343883,-0.35352555,0.05994418,-3.0764885,0.6241043,-0.00024874613,-0.18213058,-0.027508754,0.0028500021,0.0069527123,0.010176996,-0.014766849,0.45895028,-1.363101,1.880813,-2.085409,-1.5725616,2.4337246,-0.10009814,0.3409139,-0.4348864,0.087814935,-0.011625629,-0.0850866,-0.22984336,0.5746084,-9.653421,0.9835985,47.657326,-0.767804,-1.8955568,-3.6960247,-0.06665453,-0.2370922,-0.40493023,25.3125,25.875,25.125,27.625,28.1875,28.5
0.37005162,0.23593913,-0.64905804,-2.4226296,-0.044006348,0.046837874,-0.116391435,-0.41379648,-0.35353678,0.059933096,-3.0763671,0.62415713,-0.00019626998,-0.18373376,-0.027104488,0.0024944579,0.0064913332,0.009718594,-0.017132137,0.45873344,-1.3624278,1.8799881,-2.0852172,-1.5726694,2.4335568,-0.10238298,0.34347972,-0.43739766,0.0879536,-0.0110161705,-0.08500681,-0.076614454,0.61291564,-9.940725,1.0305934,47.67614,-0.7691444,-1.8487945,-3.7480881,-0.040416393,-0.2509781,-0.43731076,25.3125,25.875,25.125,27.625,28.1875,28.5
0.37205166,-0.4216811,-1.1922071,-2.4745176,-0.023239216,0.028277261,-0.101569586,-0.4141884,-0.3536193,0.059965733,-3.0764124,0.6242208,-8.6962296e-05,-0.1826927,-0.028496156,0.0016373652,0.0062989215,0.0069095595,-0.012541204,0.4585424,-1.3617419,1.8790559,-2.0850613,-1.5726689,2.4334002,-0.09988671,0.34592843,-0.43894544,0.08947532,-0.00959466,-0.08710646,-0.095768064,0.59376204,-9.921572,0.99702406,47.687782,-0.8201659,-1.9638131,-3.8897867,-0.032130133,-0.26814106,-0.47361377,25.3125,25.875,25.125,27.625,28.1875,28.5
0.37405175,-0.77243906,-1.7890198,-2.3654292,-0.034897655,0.038912363,-0.0910216,-0.41453987,-0.3536524,0.059966628,-3.0763702,0.6243049,-0.00014122015,-0.18305786,-0.028305648,6.806679e-05,0.0071899937,0.004212855,-0.009115406,0.4583022,-1.3610799,1.878208,-2.0848334,-1.5726689,2.4332182,-0.10061698,0.34974018,-0.44022566,0.08974502,-0.009212503,-0.09126277,-0.11492168,0.5554548,-9.864111,1.044019,47.67614,-0.8066457,-2.0327654,-3.95654,-0.014603534,-0.28399965,-0.45629627,25.3125,25.875,25.125,27.625,28.1875,28.5
