Tylouw/Master_Thesis_Code/training_data/batch_1/small_rod_t0.1/sample_82_session_3.csv
timestamp[s],tcp_force_x[N],tcp_force_y[N],tcp_force_z[N],tcp_force_rx[Nm?],tcp_force_ry[Nm?],tcp_force_rz[Nm?],tcp_pose_x[m],tcp_pose_y[m],tcp_pose_z[m],tcp_pose_rx[rot_vec_x],tcp_pose_ry[rot_vec_y],tcp_pose_rz[rot_vec_z],tcp_velo_x[m/s],tcp_velo_y[m/s],tcp_velo_z[m/s],tcp_velo_rx[rot_vec_x/s],tcp_velo_ry[rot_vec_y/s],tcp_velo_rz[rot_vec_z/s],q1[rad],q2[rad],q3[rad],q4[rad],q5[rad],q6[rad],qd1[rad/s],qd2[rad/s],qd3[rad/s],qd4[rad/s],qd5[rad/s],qd6[rad/s],tool_acc_x,tool_acc_y,tool_acc_z,current_of_whole_robot[A],voltage_of_whole_robot[V],current_J1[A],current_J2[A],current_J3[A],current_J4[A],current_J5[A],current_J6[A],temp_J1[C],temp_J2[C],temp_J3[C],temp_J4[C],temp_J5[C],temp_J6[C]
1.0690128e-06,-0.263066,-0.0852385,1.2236565,-0.011777343,0.005338865,-0.0061786617,-0.38105133,-0.34850633,0.059962627,-3.0784705,0.6248295,-0.00017129237,0.00092167297,0.00048577678,-0.0012810397,0.0011038008,-0.002320721,4.0336858e-05,0.47779807,-1.4259456,1.9577383,-2.1008089,-1.5708054,2.4527283,-6.9185815e-05,0.00084363174,0.002037076,-0.00031267837,9.056898e-05,-0.00011051675,0.0,0.24899697,-8.6574335,0.8157518,47.70838,0.0007080685,-2.7713974,-2.3718405,-0.46074793,0.080981076,0.050470464,26.5625,27.375,26.5625,29.8125,31.125,31.625
0.002055664,-0.30327824,0.03627121,1.1762087,-0.008650088,0.0034776048,-0.009194333,-0.38106444,-0.34853756,0.059954565,-3.0785341,0.6248232,-0.00017292495,-0.00080402876,-0.00041366895,-0.0027014923,-0.0014140125,0.0025027988,4.0083945e-05,0.4778101,-1.4258966,1.9577154,-2.1008728,-1.5707573,2.4527283,-6.8222995e-05,0.0037679558,0.0043893564,-0.01103038,8.878202e-05,-0.000107866814,0.095768064,0.21068975,-8.714894,0.73741806,47.69763,-0.03541327,-2.829389,-2.386144,-0.4248759,0.078418806,0.036032394,26.5625,27.375,26.5625,29.8125,31.125,31.625
0.004054677,-0.7868242,-0.15591957,1.1110761,-0.004821497,-0.011778472,0.0038225127,-0.38105643,-0.3485199,0.059955932,-3.0785089,0.6249138,-0.00018596281,-0.0015064934,-0.00077942474,-0.0023392343,-0.0025073187,0.004606893,3.908807e-05,0.47778615,-1.4259326,1.9577507,-2.1008613,-1.5707573,2.452764,-6.720535e-05,0.0036555864,0.0041490905,-0.013048926,8.70643e-05,-0.00010534172,0.15322891,0.1340753,-8.772355,0.7239871,47.689575,-0.013729576,-3.1496916,-2.7113285,-0.3179804,0.075302206,0.051800244,26.5625,27.375,26.5625,29.8125,31.125,31.625
0.006055067,-0.11475817,0.07404401,1.1359142,0.010037619,-0.0119439,0.000990584,-0.3810333,-0.3485233,0.059904236,-3.078482,0.62490845,-0.00029906665,-0.0011511554,-0.0005988792,-0.0011638574,-0.0019156531,0.0034829467,4.6117835e-05,0.47779807,-1.4258614,1.9577979,-2.1009066,-1.5707334,2.452776,-5.749684e-05,0.0020110868,0.0022392345,-0.008224417,8.541176e-05,-0.00010293216,0.1340753,0.22984336,-8.6574335,0.74413085,47.694946,0.018869948,-3.05554,-2.6855378,-0.34535906,0.07816615,0.056179293,26.5625,27.375,26.5625,29.8125,31.125,31.625
0.008054523,0.2743347,1.2576519,0.7755508,0.029621854,-0.032220233,-0.011420323,-0.38105226,-0.34851056,0.059929367,-3.0784945,0.6249687,-0.00028150383,-0.0006603133,-0.00034531433,-0.00046490473,-0.0011176623,0.0019601565,4.869441e-05,0.47775015,-1.4258977,1.9577736,-2.10087,-1.5707215,2.452764,-5.2265656e-05,0.00090291904,0.000973487,-0.0041312943,8.382071e-05,-0.0001006301,0.038307227,0.17238252,-8.772355,0.7083204,47.71823,0.027311563,-2.9569657,-2.5369651,-0.36922646,0.059888028,0.049057808,26.5625,27.375,26.5625,29.8125,31.125,31.625
0.010055044,0.38534018,0.951783,0.23035876,0.03697054,-0.02987446,-0.0019911001,-0.381047,-0.3484882,0.059896432,-3.0784104,0.6249132,-0.00028332442,-0.0007533187,-0.00039368577,-1.2159397e-05,-0.00096229056,0.0016662208,4.744097e-05,0.47776207,-1.4258499,1.9577969,-2.1008813,-1.5707935,2.452752,-5.157193e-05,0.0007428555,-0.00027503006,-0.0023902531,8.228793e-05,-9.842915e-05,0.076614454,0.11492168,-9.078813,0.7463667,47.689575,-0.11044671,-2.1847122,-3.3580043,-0.39118418,0.05661828,0.015969727,26.5625,27.375,26.5625,29.8125,31.125,31.625
0.012055263,-0.19679996,0.39449167,0.008554557,-0.0030028461,-0.017469892,-0.0050595044,-0.38100985,-0.34851104,0.05987739,-3.078436,0.624861,-0.00040496048,-0.0018886708,-0.0008835044,-0.0030333342,0.0019465648,-0.0039488855,-0.000105321546,0.477798,-1.4258343,1.9578198,-2.100869,-1.5707334,2.452752,-0.00023362448,0.010965031,-0.0052700955,-0.0012935059,7.285477e-05,-0.0001237749,0.19153613,0.11492168,-9.32781,0.75084364,47.711063,-0.1905011,-2.2853765,-3.3778253,-0.36987072,0.044950034,-0.025479421,26.5625,27.375,26.5625,29.8125,31.125,31.625
0.014054247,-0.829318,-0.95627904,-0.3433471,-0.024602186,0.001537086,0.0023967621,-0.38102525,-0.34852108,0.05989446,-3.078438,0.62484235,-0.00037730046,-0.0044742404,-0.0013774716,-0.0034689982,0.0026076336,-0.0052126655,-0.0011822744,0.47780964,-1.4258202,1.9577564,-2.1008322,-1.5707458,2.4527519,-0.0017442742,0.017437216,-0.012044592,0.0004350134,5.622786e-05,-0.0005533328,0.0,0.2873042,-9.423578,0.80679786,47.694946,-0.27820194,-2.7978888,-3.2164106,-0.3668103,0.036008365,-0.047952943,26.5625,27.375,26.5625,29.8125,31.125,31.625
0.01605474,-1.2593582,-1.7703032,-0.38946652,-0.044553757,0.027370054,-0.009948495,-0.38102376,-0.34852886,0.059887808,-3.078437,0.62481916,-0.00044893168,-0.004423918,-0.00026836086,-0.003607562,0.004256139,-0.008223625,0.004798373,0.47780898,-1.4257841,1.9577221,-2.100795,-1.5707215,2.4527369,-0.0036204278,0.017846664,-0.013129068,0.004541166,-1.9666308e-05,-0.008410201,-0.1340753,0.40222588,-9.442732,0.7083204,47.677036,-0.2160784,-2.4795566,-3.512733,-0.38776708,0.017172955,-0.009917367,26.5625,27.375,26.5625,29.8125,31.125,31.625
0.01805506,-1.3000598,-1.5714911,-0.5712023,-0.07025741,0.045053568,-0.023308929,-0.38103414,-0.34851417,0.05987149,-3.078407,0.6247542,-0.00044219883,-0.0054888953,-0.00030175495,-0.0029281506,0.004203573,-0.007916243,0.0074404967,0.47779652,-1.4257479,1.9577206,-2.1008065,-1.5707573,2.4526877,-0.0044838805,0.018648421,-0.01599891,0.0063116257,-0.00011844919,-0.011914362,-0.19153613,0.51714754,-9.672575,0.71279734,47.704796,-0.14157335,-2.3592165,-3.48451,-0.39445204,0.017213773,0.03353668,26.5625,27.375,26.5625,29.8125,31.125,31.625
0.020055177,-2.0721912,-2.055704,-0.74641126,-0.06803477,0.039358433,-0.010239595,-0.38103077,-0.3485256,0.059859432,-3.078397,0.6247906,-0.0005367231,-0.005923839,-0.0007172664,-0.0034986672,0.004467236,-0.008302611,0.009198306,0.47779667,-1.425699,1.9576844,-2.1007707,-1.5707215,2.4527118,-0.004109423,0.021028062,-0.017258953,0.0056568445,-0.00018046232,-0.013296439,-0.34476504,0.63206923,-9.768343,0.7105615,47.72092,-0.20908113,-2.4287245,-3.6207983,-0.37979734,0.001289834,0.04298786,26.5625,27.375,26.5625,29.8125,31.125,31.625
0.022054795,-1.7169147,-2.096891,-0.6226732,-0.06676898,0.0532482,-0.03038388,-0.38104665,-0.34848046,0.059836686,-3.0782878,0.6247865,-0.0005653635,-0.0072283717,-0.0012555965,-0.0028376568,0.004138611,-0.0064188098,0.009600952,0.47774878,-1.4256508,1.9576706,-2.100723,-1.570794,2.4526753,-0.003982441,0.022230025,-0.020098023,0.005471067,-0.00076301966,-0.013569211,-0.51714754,0.6703765,-9.730036,0.784413,47.719128,-0.3102123,-2.3216746,-3.527505,-0.38662136,0.018519187,0.03760295,26.5625,27.375,26.5625,29.8125,31.125,31.625
0.024054682,-1.9734854,-2.0376902,-0.7729749,-0.060843267,0.048096806,-0.046139,-0.38106188,-0.3485286,0.05985412,-3.0783498,0.6247415,-0.0005556765,-0.00842915,-0.0016089631,-0.0020355415,0.0038616904,-0.0048333863,0.009479759,0.47779664,-1.4256028,1.9575733,-2.100711,-1.5707577,2.4526873,-0.004150845,0.022942793,-0.02286337,0.0059907283,-0.0012500413,-0.013614045,-0.40222588,0.59376204,-9.864111,0.7530795,47.723602,-0.39267898,-2.2730434,-3.6316514,-0.3608908,-0.016236123,0.01979918,26.5625,27.375,26.5625,29.8125,31.125,31.625
0.02605429,-1.7083665,-1.8882936,-0.8460754,-0.058586728,0.042771522,-0.05870739,-0.38108313,-0.348506,0.05983026,-3.0783138,0.6246589,-0.00056591,-0.009280003,-0.0015373604,-0.0018297504,0.004186166,-0.0053393804,0.008259608,0.47776031,-1.4255424,1.9575614,-2.100722,-1.570794,2.452604,-0.0050291945,0.02434973,-0.025311736,0.0076304227,-0.0013075436,-0.013270948,-0.34476504,0.59376204,-9.921572,0.80679786,47.704796,-0.33295816,-2.2446685,-3.6231334,-0.3598461,-0.023686677,0.015073719,26.5625,27.375,26.5625,29.8125,31.125,31.625
0.0280546,-1.5512995,-1.2068785,-0.42511827,-0.0519834,0.038449258,-0.082869634,-0.3811193,-0.34854692,0.059865467,-3.0783873,0.6246553,-0.00048710982,-0.010890584,-0.0015279199,-0.0010362231,0.003950199,-0.0040304926,0.0066196,0.477784,-1.4255179,1.9574531,-2.100722,-1.5707701,2.4526162,-0.006280946,0.025340887,-0.028457802,0.008516368,-0.0017030971,-0.012880439,-0.3256114,0.5554548,-9.864111,0.7530795,47.683304,-0.33367145,-2.23977,-3.5665438,-0.3584793,-0.043069355,-0.02678694,26.5625,27.375,26.5625,29.8125,31.125,31.625
0.030054381,-1.4398404,-0.6901902,-0.48343194,-0.027929474,0.036616087,-0.08558445,-0.38111886,-0.34852841,0.059814516,-3.0782964,0.62467474,-0.0006207026,-0.011842521,-0.00137348,-0.0014342543,0.0053246734,-0.0036275163,0.0069549317,0.47775987,-1.4254093,1.9574403,-2.1006982,-1.570783,2.4526157,-0.0065202867,0.02763698,-0.030077266,0.00811868,-0.0031154123,-0.013450649,-0.4213795,0.4213795,-9.825804,0.7665104,47.71465,-0.38512233,-2.242566,-3.5566125,-0.35059476,-0.03865526,-0.030721474,26.5625,27.375,26.5625,29.8125,31.125,31.625
0.032055195,-1.4667737,-0.59201074,-0.40632525,0.0025533666,0.03212368,-0.097537875,-0.38117495,-0.3485417,0.059840128,-3.0783472,0.6247043,-0.00054412504,-0.0136435395,-0.0014923983,-0.0009653079,0.0047905147,-0.0021287405,0.006007044,0.47772348,-1.425373,1.957343,-2.1007102,-1.5707706,2.4525914,-0.00783218,0.02935035,-0.033026654,0.007778931,-0.0033367,-0.0138126,-0.36391866,0.21068975,-9.768343,0.74413085,47.70211,-0.44963753,-2.2713766,-3.6250153,-0.32690248,-0.04533112,-0.052068803,26.5625,27.375,26.5625,29.8125,31.125,31.625
0.034055326,-0.9054308,0.42822978,-0.24128252,-0.0014399813,0.034523793,-0.113887385,-0.38118365,-0.3485263,0.0598185,-3.0782866,0.624673,-0.00058227085,-0.015190402,-0.0020519968,-0.00015162778,0.0042879046,-0.0014438443,0.0061696456,0.4777112,-1.4253124,1.9573177,-2.1006854,-1.5708064,2.4525673,-0.008351944,0.031230574,-0.037410308,0.00944193,-0.003212155,-0.0144928545,-0.21068975,0.076614454,-9.634268,0.7620334,47.694946,-0.43693393,-2.2564926,-3.4801989,-0.3214568,-0.052757233,-0.04973112,26.5625,27.375,26.5625,29.8125,31.125,31.625
0.036054358,-1.2192885,0.46363714,-0.08799733,0.020108238,0.017578285,-0.11726369,-0.38122317,-0.34856182,0.059819553,-3.0783315,0.62468266,-0.0006428924,-0.016343502,-0.002141395,4.177919e-05,0.0040893056,-0.001359226,0.005048708,0.47769895,-1.4252039,1.9571861,-2.100661,-1.5707468,2.4525554,-0.009347306,0.03292267,-0.039937515,0.010110949,-0.0030785666,-0.014366154,-0.21068975,0.019153614,-9.595961,0.7217513,47.682407,-0.36638016,-2.2013018,-3.4526818,-0.30208188,-0.07307583,-0.05772681,26.5625,27.375,26.5625,29.8125,31.125,31.625
0.03805474,-1.0297992,0.53929174,-0.06949633,0.027031261,0.013039545,-0.13437566,-0.38129863,-0.3485678,0.059836708,-3.078342,0.6246853,-0.00053322245,-0.017476173,-0.002753773,0.00022102646,0.0038384497,-0.00075786695,0.004851255,0.47766295,-1.4251195,1.9570535,-2.100674,-1.5707825,2.45252,-0.0092685195,0.03515472,-0.042917673,0.010209329,-0.0031374958,-0.014088149,-0.22984336,0.0,-9.557653,0.7217513,47.71286,-0.44142,-2.1992598,-3.4884014,-0.28683203,-0.07704088,-0.059709497,26.5625,27.375,26.5625,29.8125,31.125,31.625
0.040054537,-0.6744504,0.45358402,-0.075797394,0.019115856,0.016808467,-0.14804001,-0.38129973,-0.3485724,0.059833266,-3.0783477,0.6246286,-0.00057294045,-0.0184964,-0.0024355717,0.00023998202,0.0047442904,-0.0009927468,0.0027920431,0.4776626,-1.4250948,1.9570278,-2.1006496,-1.5707711,2.4524834,-0.010325642,0.036846202,-0.045158338,0.011386392,-0.0038358092,-0.013083375,-0.15322891,0.0,-9.519346,0.7866488,47.73256,-0.4838159,-2.2282465,-3.4186327,-0.30489105,-0.085800454,-0.06563173,26.5625,27.375,26.5625,29.8125,31.125,31.625
0.04205388,-0.586475,0.41301838,-0.12648201,0.007886316,0.018693577,-0.15788664,-0.3813576,-0.348569,0.05984438,-3.0783198,0.62462366,-0.00053770177,-0.020204145,-0.0024538399,0.00122964,0.0052525364,0.0013219889,0.0018077554,0.4776265,-1.4250106,1.9568952,-2.100601,-1.5708073,2.452448,-0.010884007,0.037684433,-0.048544988,0.012117758,-0.005356668,-0.012652605,-0.095768064,0.095768064,-9.595961,0.7642693,47.677036,-0.42064244,-2.1792777,-3.4759376,-0.30729157,-0.10058939,-0.06703863,26.5625,27.375,26.5625,29.8125,31.125,31.625
0.044054445,-0.7175757,-0.22501677,-0.30852687,0.009110131,0.019614734,-0.15623976,-0.38141078,-0.3485829,0.059853695,-3.0783193,0.62470055,-0.00050818425,-0.021372836,-0.0022979758,0.0012776626,0.00611662,0.0019049797,0.000979286,0.4776022,-1.4249263,1.9567751,-2.100589,-1.5708078,2.4524717,-0.011566517,0.0394661,-0.050761897,0.012436099,-0.0063957213,-0.01250331,-0.17238252,0.1340753,-9.557653,0.7553206,47.701214,-0.51149905,-2.159727,-3.3508048,-0.30326486,-0.084501535,-0.10024147,26.5625,27.375,26.5625,29.8125,31.125,31.625
0.046054155,-1.0502195,-0.26848468,-0.09702134,-0.010280285,0.023620026,-0.16133012,-0.3814138,-0.34856853,0.05981431,-3.0782297,0.62466383,-0.0006326948,-0.022181178,-0.0018171254,0.000425551,0.007452171,-0.00024229508,-8.319103e-05,0.47758964,-1.4248172,1.9567269,-2.1005285,-1.5708321,2.4524477,-0.013039169,0.04268366,-0.05279172,0.013769497,-0.0065979804,-0.01291101,-0.21068975,0.17238252,-9.595961,0.80679786,47.716442,-0.48993835,-2.2673123,-3.4215648,-0.32778674,-0.08603513,-0.0991648,26.5625,27.375,26.5625,29.8125,31.125,31.625
0.048054963,-0.8395148,-0.6913893,-0.19087575,-0.016581208,0.029995915,-0.15666501,-0.38147226,-0.34858808,0.059850093,-3.0782697,0.62461334,-0.00054660393,-0.02307167,-0.0024072046,0.0010096536,0.007471421,0.0010785696,0.0009633188,0.47757795,-1.4247689,1.956582,-2.1004927,-1.570844,2.4523995,-0.012405458,0.04376482,-0.05545766,0.01419201,-0.007226473,-0.0133214565,-0.17238252,0.2873042,-9.5385,0.75755644,47.707485,-0.540498,-2.1809204,-3.4362712,-0.32645106,-0.09609373,-0.11660887,26.5625,27.375,26.5625,29.8125,31.125,31.625
0.050054107,-0.99844503,-0.7822359,-0.20334283,-0.032572754,0.03170665,-0.1598871,-0.3814971,-0.34859174,0.059849497,-3.078255,0.62455314,-0.00053660566,-0.024453543,-0.0017543844,0.002065716,0.008391507,0.0034698776,0.00040833963,0.47757754,-1.4247094,1.95651,-2.1004684,-1.5708688,2.4523635,-0.0135960765,0.043093257,-0.057291325,0.015002872,-0.009145393,-0.013952283,-0.1340753,0.30645782,-9.634268,0.78888994,47.71286,-0.58746344,-2.0184574,-3.5008714,-0.3423946,-0.102670014,-0.12666279,26.5625,27.375,26.5625,29.8125,31.125,31.625
0.05205456,-1.0912256,-1.4305646,-0.28768104,-0.03024061,0.028467534,-0.14833994,-0.38156977,-0.34859744,0.059869375,-3.0782826,0.6246551,-0.0005030844,-0.02594783,-0.0018330317,0.0017231776,0.009328736,0.0038467501,0.00038824131,0.47750524,-1.4246364,1.9563783,-2.1004565,-1.5708455,2.4523513,-0.014178375,0.046403177,-0.06022391,0.014724755,-0.010157695,-0.0145107545,-0.15322891,0.45968673,-9.576807,0.7597976,47.677036,-0.4864114,-2.090282,-3.504746,-0.3368184,-0.07780309,-0.15251203,26.5625,27.375,26.5625,29.8125,31.125,31.625
0.05405417,-0.37058136,-1.1461524,-0.29864517,-0.048147023,0.050416302,-0.15277538,-0.38161865,-0.34860727,0.05987356,-3.0782514,0.6246488,-0.0005060986,-0.027978374,-0.001969136,0.0024987804,0.009233337,0.005970348,6.838725e-05,0.47749293,-1.424528,1.9562315,-2.1003964,-1.5708693,2.4523392,-0.015229355,0.04805522,-0.06390991,0.014831402,-0.011057354,-0.015237688,-0.17238252,0.49799395,-9.519346,0.7239871,47.73525,-0.48369542,-2.0630314,-3.2385826,-0.32481122,-0.07580775,-0.15216494,26.5625,27.375,26.5625,29.8125,31.125,31.625
0.056054115,-1.5367284,-1.691086,-0.14085907,-0.03791324,0.025583789,-0.13665047,-0.3816554,-0.34860393,0.059879687,-3.0782316,0.62460536,-0.0004990522,-0.027488256,-0.0014562242,0.0001679804,0.012331878,0.0020811418,0.0005966372,0.47746903,-1.4244666,1.9561366,-2.1003487,-1.5708941,2.4522908,-0.015062043,0.052474882,-0.06368045,0.015063168,-0.012021542,-0.015595896,-0.17238252,0.47884035,-9.653421,0.81351066,47.71286,-0.49016878,-2.1063123,-3.556534,-0.33830586,-0.06858987,-0.16406071,26.5625,27.375,26.5625,29.8125,31.125,31.625
0.05805484,-1.0077095,-1.6144446,-0.11488265,-0.039097816,0.042738397,-0.14177035,-0.3817306,-0.3486004,0.059866615,-3.0781932,0.62473214,-0.0005560125,-0.029312845,-0.0023339204,0.0020099236,0.00995567,0.005031114,0.0008995101,0.47738478,-1.4243109,1.9559807,-2.1003125,-1.5708812,2.4522905,-0.015668575,0.05219297,-0.06771304,0.01566196,-0.011275182,-0.016504629,-0.19153613,0.51714754,-9.576807,0.7463667,47.678825,-0.47209728,-2.1496985,-3.4224937,-0.33312047,-0.08437829,-0.18414271,26.5625,27.375,26.5625,29.8125,31.125,31.625
0.060055014,-0.6007569,-1.0912724,0.1418575,-0.042816356,0.043664347,-0.15213573,-0.38177773,-0.34863,0.0598877,-3.0782325,0.6246046,-0.000472524,-0.03139771,-0.003994583,0.0033530204,0.007615647,0.007584948,0.0022844542,0.47740892,-1.4242384,1.9558471,-2.100301,-1.5709046,2.4522302,-0.01522795,0.054369625,-0.07328003,0.015705159,-0.010381883,-0.01744826,-0.15322891,0.47884035,-9.461885,0.73069996,47.70838,-0.5016227,-1.991719,-3.2494984,-0.3181396,-0.08141916,-0.17574632,26.5625,27.375,26.5625,29.8125,31.125,31.625
0.06205525,-0.9101975,-0.97303736,0.13648702,-0.03941965,0.026469938,-0.14833878,-0.3818449,-0.34863576,0.05989192,-3.0782099,0.624618,-0.00045029886,-0.030859997,-0.0035530631,0.0014359986,0.0090147415,0.0037414124,0.0027195443,0.47737277,-1.4241176,1.9556912,-2.1002648,-1.5709289,2.4522054,-0.015853584,0.057523105,-0.07254068,0.015865942,-0.0098572755,-0.01850999,-0.19153613,0.45968673,-9.442732,0.7866488,47.693153,-0.55151683,-2.1148868,-3.4413815,-0.31891888,-0.12212188,-0.17861149,26.5625,27.375,26.5625,29.8125,31.125,31.625
0.06405471,-0.50380933,-1.2432803,0.12516142,-0.035868507,0.036100574,-0.145891,-0.38193378,-0.34868014,0.059934318,-3.078281,0.62455523,-0.00028026287,-0.032760575,-0.0047074934,0.0026086594,0.007278631,0.0066492674,0.003755468,0.47738478,-1.4240211,1.9554871,-2.1002772,-1.5709528,2.4521694,-0.015687017,0.058950197,-0.07670805,0.0152244475,-0.009659957,-0.019378489,-0.21068975,0.40222588,-9.461885,0.7418897,47.66271,-0.53104115,-2.1342883,-3.2778642,-0.30042642,-0.12160898,-0.19624391,26.5625,27.375,26.5625,29.8125,31.125,31.625
0.06605399,-0.74744505,-0.7529846,0.10117596,-0.04293223,0.026923398,-0.14677949,-0.3819746,-0.3486606,0.059895556,-3.0781991,0.6246538,-0.00039757407,-0.03393891,-0.004618732,0.0026650422,0.008368551,0.0075773345,0.0039205663,0.4773126,-1.4238768,1.9554027,-2.100241,-1.5709532,2.4521692,-0.016020183,0.06078874,-0.07896698,0.015325431,-0.011061036,-0.019871527,-0.17238252,0.34476504,-9.270349,0.8224646,47.681515,-0.5156625,-2.0559635,-3.2478461,-0.29377723,-0.11257288,-0.21080616,26.5625,27.375,26.5625,29.8125,31.125,31.625
0.06805526,-0.64159334,-0.68822086,0.26474595,-0.025343303,0.028418414,-0.13683124,-0.38205448,-0.34868175,0.059935905,-3.0782566,0.6244913,-0.00025884574,-0.035547968,-0.004413011,0.0032094992,0.00984976,0.009442941,0.0047280868,0.47730047,-1.4238045,1.9552225,-2.1002166,-1.5709904,2.4520485,-0.016456913,0.062312514,-0.082097344,0.015961934,-0.01323797,-0.021110686,-0.19153613,0.36391866,-9.212888,0.7777002,47.704796,-0.54457563,-2.0344443,-3.2212338,-0.27474284,-0.1151262,-0.23216522,26.5625,27.375,26.5625,29.8125,31.125,31.625
0.070055015,-0.40194967,-0.03080079,0.37909558,-0.024014357,0.03186566,-0.14486025,-0.38213685,-0.34870666,0.059933268,-3.0782335,0.624563,-0.00024510882,-0.037036832,-0.00445066,0.0032878544,0.011423413,0.010951776,0.006105558,0.4772765,-1.4236239,1.955017,-2.1001933,-1.5710028,2.4520724,-0.016401399,0.06479603,-0.085101016,0.015871285,-0.015336129,-0.02242659,-0.1340753,0.2681506,-9.212888,0.7665104,47.719128,-0.5429481,-2.091403,-3.178057,-0.2555238,-0.08261819,-0.2373824,26.5625,27.375,26.5625,29.8125,31.125,31.625
0.07205484,-0.6451605,-0.15582214,0.44864413,-0.00055721623,0.024021043,-0.14352468,-0.3821998,-0.34870297,0.059919186,-3.078212,0.6245581,-0.0003170104,-0.038307864,-0.004536578,0.0035934243,0.01179399,0.01163047,0.00680944,0.4772043,-1.4234797,1.9548734,-2.1001446,-1.5709914,2.452,-0.016997484,0.066529885,-0.08794184,0.016546603,-0.015983125,-0.023722937,-0.095768064,0.2681506,-9.232041,0.75755644,47.719128,-0.53331196,-1.9829868,-3.1331747,-0.24496868,-0.06871267,-0.23841557,26.5625,27.375,26.5625,29.8125,31.125,31.625
0.07405436,-1.3200527,-0.37999284,0.26382974,0.0063676084,0.0001771685,-0.1334042,-0.38229597,-0.3487224,0.059964515,-3.07824,0.62454385,-0.00015187345,-0.03924842,-0.005631062,0.004311808,0.01021051,0.0125042265,0.008107058,0.47718054,-1.4233952,1.9546679,-2.1001208,-1.5710386,2.451964,-0.016569525,0.06778628,-0.091114596,0.016954044,-0.014981697,-0.024594402,-0.076614454,0.30645782,-9.212888,0.8023209,47.72719,-0.57378757,-2.06818,-3.1276484,-0.22285013,-0.09855576,-0.2504599,26.5625,27.375,26.5625,29.8125,31.125,31.625
0.076054476,-0.3030076,-0.24430951,0.22102068,-0.002877822,0.012828431,-0.14324214,-0.382369,-0.348738,0.059946872,-3.0782132,0.6245379,-0.0001468597,-0.03957372,-0.0055977604,0.0022284002,0.011557663,0.0077151796,0.008024371,0.47715616,-1.4232134,1.9545006,-2.1001203,-1.5710624,2.4519393,-0.017577277,0.07359758,-0.09328274,0.018178696,-0.013981491,-0.025519466,-0.095768064,0.24899697,-9.11712,0.7284641,47.733456,-0.5310755,-2.0905533,-3.0830348,-0.2223105,-0.09841862,-0.24488261,26.5625,27.375,26.5625,29.8125,31.125,31.625
0.07805524,-0.3166844,0.008664708,0.29877198,-0.008691162,0.010592784,-0.13933223,-0.38245296,-0.34875065,0.05996644,-3.0782032,0.6244,-9.9717174e-05,-0.040474996,-0.005706031,0.0041127345,0.011183111,0.010531345,0.008854093,0.47713223,-1.4230698,1.9542726,-2.100036,-1.5711106,2.4518309,-0.017587503,0.07147519,-0.095566265,0.019912489,-0.014943354,-0.026357086,-0.095768064,0.22984336,-9.193734,0.76874626,47.72002,-0.6334437,-2.0602508,-3.0372353,-0.21596074,-0.06526164,-0.24505869,26.5625,27.375,26.5625,29.8125,31.125,31.625
0.08005504,-0.9439943,-0.30574948,0.1330039,-0.0026204034,0.0102345245,-0.13270524,-0.38252527,-0.34875444,0.05996203,-3.0781953,0.6244365,-0.000100960315,-0.04071466,-0.005763725,0.0033629187,0.012523545,0.0086226715,0.01027881,0.47707218,-1.4229369,1.9541281,-2.1000235,-1.5711106,2.4517946,-0.017497066,0.07433083,-0.09742257,0.021223813,-0.015259095,-0.027689632,-0.21068975,0.34476504,-9.193734,0.80679786,47.723602,-0.58161473,-1.9584196,-3.1192622,-0.20343073,-0.09119171,-0.24622978,26.5625,27.375,26.5625,29.8125,31.125,31.625
0.0820543,-0.99647987,-0.26334164,0.53183883,-0.015064938,0.016563414,-0.13393241,-0.38261226,-0.34876812,0.059962377,-3.0781846,0.6244332,-9.2772825e-05,-0.040899955,-0.0056966287,0.0015986974,0.014034738,0.0051349904,0.01079056,0.47702408,-1.422767,1.953925,-2.0999873,-1.571123,2.451746,-0.01795003,0.078960046,-0.09881981,0.02178152,-0.015002455,-0.028653508,-0.19153613,0.21068975,-9.097966,0.7665104,47.71286,-0.5952096,-2.0457404,-3.180388,-0.19845116,-0.07926822,-0.2549152,26.5625,27.375,26.5625,29.8125,31.125,31.625
0.084055044,-0.8597326,-0.51176035,0.21528116,-0.018878708,0.024835495,-0.14131041,-0.38268104,-0.34879786,0.05997625,-3.0781512,0.6244255,-7.199737e-05,-0.04237168,-0.0069200723,0.0036934996,0.01117101,0.008041248,0.012029297,0.47703618,-1.4226114,1.9536961,-2.0999029,-1.5711583,2.4517577,-0.017914925,0.078096814,-0.102857985,0.022780381,-0.013800131,-0.02985769,-0.1340753,0.21068975,-9.193734,0.7777002,47.66271,-0.67743295,-2.082288,-3.1540337,-0.19742978,-0.074933894,-0.25699264,26.5625,27.375,26.5625,29.8125,31.125,31.625
0.086055055,-0.7149045,-0.5454077,0.13850865,-0.015769878,0.026263932,-0.13886997,-0.38279042,-0.34880507,0.059993114,-3.078161,0.62438965,-7.6227393e-06,-0.041383613,-0.0060209227,0.0012252684,0.013749191,0.0028400717,0.011468771,0.47696373,-1.4224539,1.9534696,-2.099867,-1.5711826,2.4516618,-0.018658314,0.08160098,-0.101433426,0.023653772,-0.013696658,-0.030041562,-0.076614454,0.2681506,-9.270349,0.7777002,47.705692,-0.6169394,-2.0726464,-3.2374673,-0.19210932,-0.09621286,-0.28922462,26.5625,27.375,26.5625,29.8125,31.125,31.625
0.0880556,-0.51986253,-0.2933751,0.22451025,-0.023980204,0.024743494,-0.13884367,-0.38282955,-0.3488148,0.05995534,-3.078085,0.6242769,-7.764459e-05,-0.04265464,-0.006583323,0.001135204,0.013559082,0.0026713996,0.012182902,0.47697568,-1.4222606,1.9533242,-2.0998194,-1.5712303,2.4516132,-0.018987782,0.08468289,-0.104856886,0.024055108,-0.0134601975,-0.031082254,-0.15322891,0.2681506,-9.289502,0.7642693,47.704796,-0.5845612,-2.0998363,-3.3522754,-0.1762493,-0.08794971,-0.3060742,26.5625,27.375,26.5625,29.8125,31.125,31.625
0.09005492,-0.7754654,-0.54190195,0.16164795,-0.018827533,0.012959997,-0.13563612,-0.38294807,-0.348818,0.059991438,-3.0780966,0.624317,-1.112986e-05,-0.042700347,-0.0064535015,0.00027328075,0.014635003,0.0011627077,0.012932084,0.47687972,-1.4221278,1.9530734,-2.0997465,-1.5712422,2.451541,-0.019079445,0.086787745,-0.1053551,0.024281487,-0.013723538,-0.031922664,-0.15322891,0.21068975,-9.308656,0.800085,47.72629,-0.62738514,-2.0660272,-3.2856514,-0.1730108,-0.078422874,-0.30678013,26.5625,27.375,26.5625,29.8125,31.125,31.625
0.09205478,-0.8089278,-0.61211556,0.099495,-0.014279307,0.011563112,-0.12895615,-0.3830512,-0.34884483,0.060001854,-3.0781069,0.62420344,5.4098757e-05,-0.0439021,-0.0068457,0.00080957176,0.014188277,0.002552173,0.013353892,0.4768556,-1.4219354,1.9528216,-2.0997117,-1.5712785,2.4514449,-0.019327093,0.087912284,-0.10786975,0.024231074,-0.013969622,-0.032590568,-0.17238252,0.24899697,-9.3661175,0.7709874,47.677036,-0.6141109,-2.1074278,-3.418042,-0.16435783,-0.09578338,-0.3054974,26.5625,27.375,26.5625,29.8125,31.125,31.625
0.09405426,-0.8120405,-0.71438754,0.009927656,-0.013606508,0.01526616,-0.13573511,-0.3831419,-0.34887213,0.060010623,-3.07812,0.6241084,0.0001309239,-0.04455716,-0.00709953,0.00064946734,0.01388814,0.002211542,0.014978963,0.47684348,-1.4217665,1.9526056,-2.0996988,-1.5713142,2.451372,-0.019749107,0.08961161,-0.10947669,0.02429927,-0.013549806,-0.03463792,-0.11492168,0.22984336,-9.423578,0.7284641,47.713753,-0.6779542,-2.0836422,-3.4211693,-0.12780772,-0.07731692,-0.29937273,26.5625,27.375,26.5625,29.8125,31.125,31.625
0.096054815,-0.6408452,-0.9270115,0.1676596,-0.010002753,0.02360224,-0.13820624,-0.38320205,-0.34888318,0.05998086,-3.0780683,0.6240979,2.703521e-05,-0.044793706,-0.0073226206,0.00050285144,0.014156397,0.0014906583,0.015648754,0.47680753,-1.4215617,1.9524258,-2.0996392,-1.5713142,2.4513361,-0.019624528,0.09095681,-0.11088584,0.025125645,-0.013461825,-0.035181448,-0.05746084,0.24899697,-9.404425,0.8023209,47.72271,-0.6902032,-2.0567617,-3.4518743,-0.10241988,-0.08226238,-0.29328176,26.5625,27.375,26.5625,29.8125,31.125,31.625
0.09805437,-0.8343215,-0.79187846,0.15068758,-0.0141490325,0.016029702,-0.1331378,-0.38327497,-0.34887624,0.05996539,-3.0780165,0.6240111,1.4212751e-05,-0.045846485,-0.0074648242,0.0007382473,0.014281014,0.00076492823,0.01355237,0.47675914,-1.421393,1.952257,-2.09959,-1.5713624,2.4512403,-0.020478573,0.092995964,-0.11422517,0.027125617,-0.013243328,-0.033937335,-0.095768064,0.2681506,-9.346964,0.8023209,47.698532,-0.6661146,-2.009946,-3.5575612,-0.10047793,-0.100484364,-0.34761065,26.5625,27.375,26.5625,29.8125,31.125,31.625
0.1000543,-0.27403423,-0.46220186,0.0034003602,-0.020957582,0.02472224,-0.14136906,-0.3833966,-0.3489056,0.059983637,-3.0780342,0.62403315,5.5243938e-05,-0.045350075,-0.006709774,-0.0005835634,0.016703527,-0.002381255,0.013493345,0.47669902,-1.4211881,1.95197,-2.099542,-1.5713624,2.451192,-0.020894816,0.095115796,-0.11400438,0.028693529,-0.013947468,-0.03429368,-0.11492168,0.2681506,-9.3661175,0.8023209,47.719128,-0.61948335,-1.963556,-3.6232104,-0.10589237,-0.100614786,-0.36716527,26.5625,27.375,26.5625,29.8125,31.125,31.625
0.102054514,-1.1027988,-0.9032665,-0.1986629,-0.0075790426,0.005267132,-0.13414508,-0.3834888,-0.34891567,0.059996516,-3.0780025,0.6239671,8.874929e-05,-0.047258824,-0.007667309,0.0009189034,0.015417879,0.0002838112,0.015968937,0.47666305,-1.4210196,1.9517287,-2.099458,-1.5714105,2.451119,-0.020890944,0.09613193,-0.11879935,0.029510707,-0.014038501,-0.036762714,-0.095768064,0.2681506,-9.385271,0.7105615,47.653748,-0.7296561,-1.9384763,-3.600564,-0.09530702,-0.09480125,-0.3641643,26.5625,27.375,26.5625,29.8125,31.125,31.625
0.10405493,-0.6921474,-0.6184606,-0.06637196,-0.0114180045,0.014363634,-0.1394158,-0.38361865,-0.3489386,0.060027394,-3.0780048,0.6239861,0.00021987135,-0.04735013,-0.0076389085,-0.00040577952,0.017512511,-0.0021851226,0.017584613,0.47661528,-1.420838,1.9514421,-2.0994217,-1.5714587,2.451083,-0.020547522,0.09991039,-0.120315336,0.030402131,-0.014766665,-0.038033348,-0.076614454,0.28730422,-9.308656,0.74413085,47.70211,-0.6842962,-1.9525048,-3.5697613,-0.07383158,-0.09859661,-0.3770413,26.5625,27.375,26.5625,29.8125,31.125,31.625
0.106054656,-0.90142196,-0.55103266,-0.053990815,-0.013869238,0.013689635,-0.13220264,-0.38368103,-0.3489551,0.05999176,-3.0779827,0.6238453,9.106292e-05,-0.049110744,-0.008301889,0.0016559055,0.01547362,0.000850384,0.019681152,0.4765789,-1.4206101,1.951249,-2.0993617,-1.5714463,2.4509616,-0.021250656,0.09902244,-0.124315016,0.031653304,-0.014358871,-0.040830914,0.0,0.3256114,-9.3661175,0.800085,47.71017,-0.71421933,-1.8548893,-3.4963286,-0.08558218,-0.116632454,-0.34160638,26.5625,27.375,26.5625,29.8125,31.125,31.625
0.108054675,-0.94286186,-0.6846723,-0.25068837,-0.012631962,0.008350981,-0.12882769,-0.38377124,-0.34899503,0.05999933,-3.0779896,0.62373054,5.9572387e-05,-0.049780976,-0.008163667,0.0011196391,0.016644223,-0.0002964631,0.02080405,0.4765668,-1.4203931,1.9509615,-2.0992653,-1.5714468,2.4508772,-0.021772873,0.101617664,-0.1262942,0.032593653,-0.0148772085,-0.042473406,-0.11492168,0.28730422,-9.385271,0.79560274,47.705692,-0.7101252,-1.8848591,-3.4604244,-0.07933164,-0.09051114,-0.3292582,26.5625,27.375,26.5625,29.8125,31.125,31.625
0.11005435,-0.4370203,-0.785474,-0.35364053,-0.017854707,0.024208492,-0.14203586,-0.3838706,-0.34900627,0.06001475,-3.0779898,0.62376916,7.316189e-05,-0.05031931,-0.008924608,0.0016163586,0.015608633,-0.00024087551,0.02018139,0.47649494,-1.4202367,1.9507335,-2.0992057,-1.5714463,2.4508295,-0.021488322,0.102565214,-0.12875244,0.033576448,-0.013985013,-0.041567083,-0.11492168,0.24899697,-9.557653,0.82694155,47.74062,-0.7475887,-1.8950968,-3.506907,-0.056309737,-0.12954642,-0.3459243,26.5625,27.375,26.5625,29.8125,31.125,31.625
0.1120548,-1.0117882,-1.1676983,-0.40225226,-0.020845197,0.014369326,-0.13318665,-0.38399723,-0.3490098,0.060037173,-3.07795,0.6236625,0.00019560884,-0.05108085,-0.008773449,0.0013499169,0.01743349,-0.00077327725,0.022676587,0.47644696,-1.4200435,1.9504446,-2.0991328,-1.5715426,2.4507203,-0.021555547,0.1049701,-0.13122684,0.034953997,-0.015365535,-0.04412568,-0.15322891,0.28730422,-9.5385,0.7866488,47.723602,-0.7400346,-1.880344,-3.51063,-0.05725774,-0.12606448,-0.35089898,26.5625,27.375,26.5625,29.8125,31.125,31.625
0.114054374,-0.93638426,-1.0887296,-0.3435379,-0.03278032,0.020225035,-0.1363754,-0.38408342,-0.34901407,0.060006987,-3.0778782,0.62357,0.00011199869,-0.052316796,-0.0089184875,0.001960181,0.017501984,-0.000110747045,0.024726646,0.47639853,-1.4197909,1.9502052,-2.0990489,-1.5715789,2.4506235,-0.022185113,0.10621412,-0.13437542,0.036297668,-0.015740467,-0.046801567,-0.11492168,0.3256114,-9.519346,0.80456203,47.734352,-0.7774778,-1.781807,-3.5115592,-0.063928515,-0.11610851,-0.3386792,26.5625,27.375,26.5625,29.8125,31.125,31.625
0.11605468,-0.9441993,-1.2232975,-0.49634114,-0.027006349,0.021576151,-0.13990189,-0.38420427,-0.34906337,0.060027197,-3.077945,0.6234277,0.00018304068,-0.05268248,-0.009099116,0.0017194008,0.018287385,-0.0017170162,0.027075907,0.47637457,-1.4195739,1.9499048,-2.099024,-1.5715789,2.4505024,-0.022220442,0.10843475,-0.1368555,0.03834191,-0.015701437,-0.049186017,-0.11492168,0.28730422,-9.710882,0.8090337,47.721813,-0.7551482,-1.7968464,-3.4777493,-0.0638203,-0.12077796,-0.31493503,26.5625,27.375,26.5625,29.8125,31.125,31.625
0.11805531,-0.8857424,-1.1080623,-0.43170545,-0.027706772,0.021472264,-0.1371839,-0.38429907,-0.34907237,0.06002113,-3.077892,0.6233187,0.00012940164,-0.05389828,-0.009873469,0.0018426173,0.01764067,-0.0011969513,0.029243447,0.4763267,-1.4193448,1.9496292,-2.0989048,-1.5716151,2.4503934,-0.022169666,0.11097848,-0.14004812,0.038226288,-0.015377852,-0.051300403,-0.076614454,0.36391866,-9.595961,0.8023209,47.721813,-0.80084234,-1.790009,-3.4493055,-0.05271344,-0.15810454,-0.28774372,26.5625,27.375,26.5625,29.8125,31.125,31.625
0.120054156,-0.5871746,-0.7950662,-0.3972833,-0.03023599,0.023640594,-0.13847147,-0.38439983,-0.3490957,0.060025387,-3.0778637,0.6232931,0.00012363718,-0.05676817,-0.011200662,0.0035215938,0.0156662,0.0034702332,0.031193798,0.4762907,-1.4191282,1.9493521,-2.098821,-1.571639,2.4503453,-0.022190094,0.11277737,-0.1456914,0.037015364,-0.015780905,-0.053266704,-0.038307227,0.36391866,-9.576807,0.800085,47.696735,-0.88484466,-1.8222713,-3.2924857,-0.006871077,-0.12738276,-0.24752663,26.5625,27.375,26.5625,29.8125,31.125,31.625
0.12205464,-0.91334486,-0.9197399,-0.46399894,-0.022062806,0.01044677,-0.14229795,-0.3844978,-0.34911054,0.060008243,-3.077841,0.62315214,8.51319e-05,-0.05713586,-0.010863195,0.0018394057,0.018320417,0.00019206596,0.03307033,0.47624257,-1.418886,1.9490999,-2.0987604,-1.5716633,2.4502122,-0.022561584,0.11758899,-0.14768769,0.038328994,-0.016642837,-0.05551055,-0.019153614,0.34476504,-9.653421,0.8112748,47.694054,-0.8209752,-2.0136464,-3.3541336,-0.013910162,-0.1505751,-0.21973652,26.5625,27.375,26.5625,29.8125,31.125,31.625
0.124054946,-0.48869345,-0.8555923,-0.34536353,-0.021640368,0.019857343,-0.1373127,-0.38461316,-0.34912995,0.060027458,-3.0778327,0.62305295,0.00012042043,-0.057915416,-0.010875638,0.0017826279,0.01871208,-1.8444463e-05,0.034645364,0.47619426,-1.4186815,1.9488,-2.098665,-1.5716995,2.4501033,-0.023080302,0.11924169,-0.14961973,0.038970843,-0.016899128,-0.057602692,-0.05746084,0.38307226,-9.5385,0.800085,47.70659,-0.88016295,-1.8460505,-3.2708206,-0.012153228,-0.1530083,-0.1897608,26.5625,27.375,26.5625,29.8125,31.125,31.625
0.12605397,-0.28798208,-0.8897647,-0.34057075,-0.028176256,0.029983345,-0.14184597,-0.38478562,-0.34914374,0.060054034,-3.0778172,0.6229717,0.00029910784,-0.058490854,-0.011149038,0.0014184237,0.019897252,-0.0013291725,0.036638234,0.4761225,-1.4184282,1.9484404,-2.0986278,-1.5717958,2.4499831,-0.022819787,0.12215833,-0.15254788,0.040683415,-0.017351948,-0.05933371,-0.13407528,0.4213795,-9.519346,0.7642693,47.72271,-0.973071,-2.0573833,-3.3275928,0.014137541,-0.14068198,-0.1570194,26.5625,27.375,26.5625,29.8125,31.125,31.625
0.12805547,-0.8933702,-1.2687091,-0.2802386,-0.030992243,0.022349222,-0.1430895,-0.3848429,-0.34917578,0.060037903,-3.0777988,0.6228515,0.00015540939,-0.058431964,-0.011423064,0.0008589765,0.02061402,-0.0036472026,0.038453616,0.4761107,-1.418211,1.9482011,-2.0985081,-1.5717715,2.4498987,-0.022549428,0.12449222,-0.15440606,0.04259439,-0.01693334,-0.060877126,-0.095768064,0.4405331,-9.576807,0.784413,47.72002,-0.94574,-1.973913,-3.3738575,-0.009743974,-0.15835622,-0.13081926,26.5625,27.375,26.5625,29.8125,31.125,31.625
0.13005462,-1.3500509,-1.504147,-0.34289312,-0.042919658,0.025652792,-0.1376824,-0.3849829,-0.34920388,0.060057633,-3.0778325,0.6226083,0.0002432169,-0.05870516,-0.011484249,0.00027270155,0.021301659,-0.00440347,0.038079724,0.47606263,-1.4179703,1.9478663,-2.098448,-1.5718192,2.4496949,-0.022510761,0.12641044,-0.15528141,0.04253663,-0.017198186,-0.060463868,-0.2681506,0.49799395,-9.557653,0.9097417,47.749577,-1.0768772,-1.9204938,-3.3645358,0.007768416,-0.17372406,-0.09442592,26.5625,27.375,26.5625,29.8125,31.125,31.625
0.13205457,-1.5353575,-1.9518842,-0.231421,-0.046234407,0.03456553,-0.13573799,-0.3851313,-0.34923592,0.060096163,-3.0778437,0.62251425,0.0003487549,-0.06029528,-0.011753588,0.0007608986,0.021399831,-0.0034970301,0.0364826,0.47601447,-1.4177413,1.9474939,-2.0983522,-1.5718678,2.4495869,-0.023155354,0.12850487,-0.1590267,0.04342612,-0.01770394,-0.059509102,-0.21068975,0.47884035,-9.423578,0.8314132,47.73256,-1.0661112,-1.9480858,-3.3538175,0.005949652,-0.16113502,-0.12120063,26.5625,27.375,26.5625,29.8125,31.125,31.625
0.1340551,-0.9996233,-1.1792415,0.24737765,-0.05892449,0.044138897,-0.141806,-0.38524094,-0.34927425,0.06008229,-3.077854,0.62243885,0.0002780418,-0.06018948,-0.01135241,9.948387e-05,0.022878082,-0.0066671767,0.036542926,0.47596613,-1.4174645,1.947194,-2.0982912,-1.571844,2.4494903,-0.023847254,0.13056104,-0.16059192,0.046429474,-0.01756525,-0.060260497,-0.2681506,0.4405331,-9.346964,0.842603,47.719128,-1.0906441,-1.880196,-3.46059,-0.01824556,-0.16447568,-0.08267319,26.5625,27.375,26.5625,29.8125,31.125,31.625
0.13605484,-0.91133547,-0.61795306,0.18513195,-0.036765352,0.02619924,-0.14041486,-0.38539675,-0.34928623,0.060101144,-3.0778275,0.6223012,0.00041282343,-0.060454324,-0.011171469,-0.00028359392,0.02438756,-0.008017039,0.03237165,0.47590625,-1.4172114,1.9468468,-2.0982306,-1.5719398,2.4493482,-0.023933493,0.13245101,-0.16230504,0.048145305,-0.018284302,-0.056173712,-0.28730422,0.45968673,-9.289502,0.84484416,47.728977,-1.1222563,-1.8118364,-3.4683437,-0.028003454,-0.17369801,-0.089366585,26.5625,27.375,26.5625,29.8125,31.125,31.625
0.13805456,-0.49069935,-0.34053147,0.42236596,-0.010490477,0.022713507,-0.13743189,-0.38550878,-0.3492996,0.060095288,-3.077768,0.6222501,0.0003984276,-0.061211124,-0.011650223,-0.0003053389,0.024185754,-0.00895672,0.031127702,0.47585815,-1.4169582,1.9465479,-2.0981348,-1.571988,2.449276,-0.02416181,0.13478144,-0.16527487,0.049523193,-0.017680582,-0.055157024,-0.2681506,0.3256114,-9.232042,0.8247004,47.72719,-1.1563761,-1.8181314,-3.492772,-0.028529435,-0.20737436,-0.10634502,26.5625,27.375,26.5625,29.8125,31.125,31.625
0.14005439,-0.55573785,0.27074015,0.71136296,-0.00094338064,0.0022272565,-0.13872275,-0.38563937,-0.3493536,0.060104366,-3.077786,0.62215847,0.0003957806,-0.061428722,-0.011074216,-0.0019384826,0.025954597,-0.012948604,0.029211445,0.4758337,-1.4166687,1.9461755,-2.0980504,-1.571988,2.4491923,-0.025536174,0.13883357,-0.1666077,0.051162,-0.017423565,-0.05461476,-0.15322891,0.15322891,-9.040505,0.8672237,47.73256,-1.0956867,-1.9843669,-3.5309286,-0.020223416,-0.18008018,-0.10656477,26.5625,27.375,26.5625,29.8125,31.125,31.625
0.14205486,-0.5116843,0.21889898,0.8025336,0.025274023,-0.007185397,-0.13604024,-0.3857745,-0.3493655,0.06010183,-3.077764,0.6220387,0.00042508522,-0.062459543,-0.011537998,-0.0008797552,0.02597976,-0.012019487,0.029278165,0.47576165,-1.4164046,1.9458641,-2.0979893,-1.5720357,2.4490485,-0.025355164,0.13951375,-0.17034963,0.053407356,-0.017876731,-0.054497756,-0.1340753,0.17238252,-8.90643,0.8291774,47.695843,-1.099693,-1.7783308,-3.4973772,-0.0406472,-0.21012908,-0.10060192,26.5625,27.375,26.5625,29.8125,31.125,31.625
0.14405413,-0.104799226,0.51417756,0.76396626,0.033763897,-0.0007177191,-0.13975152,-0.38590696,-0.34942293,0.060127415,-3.0777988,0.6218936,0.00046516073,-0.06297296,-0.011632888,-0.00021455591,0.026545264,-0.012494609,0.025036607,0.4757496,-1.4161398,1.9454798,-2.097893,-1.5720481,2.4489417,-0.025468802,0.14011079,-0.17327219,0.05642031,-0.018157035,-0.05036872,-0.17238252,0.17238252,-8.734048,0.79560274,47.683304,-1.1425968,-1.6811152,-3.4684997,-0.043107167,-0.23148999,-0.14031684,26.5625,27.375,26.5625,29.8125,31.125,31.625
0.14605449,-0.43962345,0.57192373,0.84843963,0.03702233,-0.008453407,-0.14035629,-0.38604313,-0.34941962,0.0601403,-3.0777326,0.6218227,0.00048987573,-0.06398072,-0.011739373,-0.00034696964,0.028117739,-0.01416502,0.024058204,0.47566548,-1.4158986,1.9451431,-2.0977604,-1.5721201,2.448822,-0.025777929,0.14352575,-0.17763893,0.059575383,-0.01879545,-0.04969529,-0.1340753,0.076614454,-8.734048,0.9030289,47.698532,-1.1428983,-1.8175516,-3.3828688,-0.09358603,-0.21431822,-0.17531931,26.5625,27.375,26.5625,29.8125,31.125,31.625
0.14805526,-0.38563022,0.43377063,0.96877265,0.035649925,-0.0007963484,-0.13870396,-0.38619396,-0.34943962,0.06015465,-3.077687,0.6217745,0.000503056,-0.064460605,-0.0117404135,-0.00022889083,0.029792147,-0.015432349,0.024286965,0.4755937,-1.4156095,1.9447478,-2.097627,-1.5721682,2.4487262,-0.025613844,0.14544523,-0.18088031,0.062790155,-0.019706592,-0.049756136,-0.019153614,-0.076614454,-8.714894,0.8627467,47.7254,-1.2215865,-1.6854725,-3.4486928,-0.14851397,-0.22824377,-0.20453978,26.5625,27.375,26.5625,29.8125,31.125,31.625
0.15005447,-0.37977722,0.20198654,0.79232603,0.034687012,-0.005489226,-0.13510227,-0.3862926,-0.3494791,0.060139965,-3.0776663,0.62159747,0.00042301166,-0.06491707,-0.010702674,-0.0009522056,0.031232592,-0.018503796,0.021865463,0.4755807,-1.4153205,1.9444245,-2.0975182,-1.5721802,2.4486055,-0.027934907,0.14749545,-0.18223545,0.06548408,-0.019581595,-0.049654108,-0.15322891,0.0,-8.791509,0.86498255,47.733456,-1.1155052,-1.8246291,-3.3823626,-0.1773069,-0.24382469,-0.22804792,26.5625,27.375,26.5625,29.8125,31.125,31.625
0.15205479,-0.72319806,0.29882455,0.6338951,0.01950064,-0.014261604,-0.12990518,-0.386436,-0.34950632,0.06014261,-3.0776126,0.62156755,0.000397635,-0.06588008,-0.011089373,-0.0007697451,0.031498007,-0.019207211,0.021578912,0.47552076,-1.4150076,1.9440287,-2.0973861,-1.5722164,2.448534,-0.02817043,0.14986965,-0.1858811,0.06749927,-0.019503005,-0.049600612,-0.11492168,0.17238252,-8.848969,0.8314132,47.709274,-1.180903,-1.7328975,-3.2790713,-0.22438148,-0.22790763,-0.25812507,26.5625,27.375,26.5625,29.8125,31.125,31.625
0.15405497,-0.6711255,-0.2818489,0.40980268,0.01686699,-0.0032926314,-0.13280919,-0.38653684,-0.34950697,0.06012696,-3.0775015,0.62150645,0.00028071337,-0.06612345,-0.010684398,-0.00058632094,0.032610483,-0.019483905,0.021418722,0.47546062,-1.4147314,1.9437059,-2.0972059,-1.5722646,2.44845,-0.028534569,0.15002616,-0.18687502,0.069091246,-0.020372665,-0.049799588,-0.22984336,0.19153613,-9.021352,0.8157518,47.719128,-1.2175261,-1.7919161,-3.2931123,-0.26668882,-0.2466912,-0.26389644,26.5625,27.375,26.5625,29.8125,31.125,31.625
0.15605412,-1.3612418,-1.1590433,0.27967256,0.0039540012,0.008827715,-0.12755069,-0.3866925,-0.34950456,0.0601239,-3.0773835,0.6215199,0.0002993244,-0.06739423,-0.010439707,-0.0018685788,0.033911295,-0.021481957,0.020471781,0.47537607,-1.414417,1.9433216,-2.0970743,-1.5723609,2.4483893,-0.029947266,0.15483452,-0.18957937,0.06935274,-0.020626357,-0.050261497,-0.22984336,0.28730422,-9.078813,0.82694155,47.705692,-1.179586,-1.8889656,-3.3109875,-0.29823083,-0.25835833,-0.2755993,26.5625,27.375,26.5625,29.8125,31.125,31.625
0.15805514,-1.5995699,-1.3327506,0.21749802,-0.021348225,0.030643716,-0.13510603,-0.38679284,-0.349543,0.06011224,-3.0773406,0.6212805,0.00012120736,-0.069442526,-0.011114801,-0.000550897,0.031837903,-0.01843712,0.019978054,0.47535172,-1.4140924,1.9429258,-2.0968587,-1.5723604,2.4482212,-0.030895634,0.15538546,-0.19311357,0.06867702,-0.020194214,-0.05071255,-0.2681506,0.47884035,-9.193734,0.80679786,47.73883,-1.0915754,-1.6978245,-3.3457513,-0.31980136,-0.27112368,-0.29966146,26.5625,27.375,26.5625,29.8125,31.125,31.625
0.16005471,-1.4041334,-1.8307594,-0.03381898,-0.045088183,0.0610484,-0.13789414,-0.38695428,-0.34956837,0.06013103,-3.0773003,0.62125254,0.00015211973,-0.0705727,-0.011834677,-0.0009220272,0.031350773,-0.017192563,0.021042936,0.47527987,-1.4137917,1.9425071,-2.096728,-1.5724086,2.4481373,-0.030545782,0.15808538,-0.1949081,0.06643755,-0.020343436,-0.05142531,-0.34476504,0.57460845,-9.2703495,0.85826975,47.71554,-1.1238871,-1.7537373,-3.3039007,-0.3485577,-0.27142245,-0.3092324,26.5625,27.375,26.5625,29.8125,31.125,31.625
0.16205397,-2.3033566,-2.3310487,-0.15617357,-0.06678094,0.064339176,-0.14115411,-0.3870638,-0.3495984,0.06012831,-3.0772371,0.62108463,5.5007957e-05,-0.07184953,-0.012534359,-0.0008932277,0.030448891,-0.015325445,0.021705665,0.47525597,-1.4134903,1.9421233,-2.0965378,-1.5724448,2.448017,-0.030425258,0.16003919,-0.19677483,0.06427454,-0.020411903,-0.051963642,-0.36391866,0.61291564,-9.3661175,0.84484416,47.701214,-1.24161,-1.7115754,-3.3671582,-0.33499086,-0.30353492,-0.32774162,26.5625,27.375,26.5625,29.8125,31.125,31.625
0.16405448,-2.053754,-2.3801084,-0.42939502,-0.07357951,0.073295385,-0.13740867,-0.38721833,-0.3496175,0.06011704,-3.0771804,0.6210735,2.9828367e-05,-0.073863745,-0.01279151,-0.00042776405,0.029384395,-0.012646793,0.020633642,0.47517154,-1.4131538,1.9417399,-2.0964425,-1.5724806,2.447933,-0.03160012,0.16158234,-0.19921732,0.062302355,-0.020705653,-0.052062977,-0.30645782,0.5363012,-9.481039,0.86498255,47.698532,-1.2415531,-1.6517508,-3.4270656,-0.34965813,-0.31332895,-0.35097715,26.5625,27.375,26.5625,29.8125,31.125,31.625
0.16605492,-1.9418168,-2.2334752,-0.3599528,-0.07137558,0.068651855,-0.13608807,-0.3873799,-0.3496155,0.060097966,-3.0770872,0.6209765,2.3905084e-05,-0.07619867,-0.012946227,-0.0011275103,0.028435253,-0.00902969,0.019640995,0.47507513,-1.4128046,1.9413575,-2.096337,-1.5725654,2.4477882,-0.032899003,0.1646369,-0.1998004,0.056176286,-0.021538153,-0.052363507,-0.45968673,0.49799395,-9.615114,0.842603,47.698532,-1.1952469,-1.5472524,-3.5256987,-0.28920957,-0.30348927,-0.39324784,26.5625,27.375,26.5625,29.8125,31.125,31.625
0.16805479,-2.0038884,-1.9456283,-0.4211925,-0.061932925,0.057538114,-0.13574962,-0.38754675,-0.34965885,0.060116723,-3.0770657,0.62099236,4.7001602e-05,-0.079621285,-0.013334981,0.00034860277,0.026440363,-0.002888976,0.018221285,0.47501454,-1.4124798,1.9409136,-2.0962183,-1.5725893,2.4477406,-0.034635767,0.16555609,-0.20345405,0.052538242,-0.022590661,-0.052674994,-0.47884035,0.51714754,-9.653421,0.85826975,47.705692,-1.0351666,-1.7217185,-3.511887,-0.24449909,-0.31062844,-0.42917562,26.5625,27.375,26.5625,29.8125,31.125,31.625
0.17005414,-1.0995849,-1.1569234,-0.45082536,-0.053897582,0.057455525,-0.14636017,-0.38770396,-0.34969765,0.06011001,-3.0770583,0.6208548,3.686667e-05,-0.07998806,-0.013868797,-0.0010085654,0.02667373,-0.0049267416,0.0192856,0.47495472,-1.41213,1.9405068,-2.096135,-1.5726131,2.447596,-0.03447365,0.16966861,-0.20500295,0.051886596,-0.021874888,-0.053577386,-0.4405331,0.38307226,-9.519346,0.8985519,47.71465,-1.1681823,-1.8876396,-3.6788845,-0.21632478,-0.33003426,-0.45620733,26.5625,27.375,26.5625,29.8125,31.125,31.625
0.17205477,-1.7493556,-1.067296,-0.5738538,-0.021608233,0.02980987,-0.13266538,-0.3878399,-0.3497322,0.060081955,-3.0770152,0.62074864,-3.0503534e-05,-0.080325305,-0.013869782,-0.0028292467,0.027283262,-0.0070479764,0.020725792,0.4749065,-1.4117681,1.9401349,-2.096052,-1.5726365,2.4474874,-0.035031606,0.173711,-0.2051769,0.05017558,-0.021459348,-0.055574346,-0.4213795,0.28730422,-9.595961,0.92093146,47.69763,-1.1428659,-1.9588163,-3.6407955,-0.17441612,-0.33814186,-0.47263575,26.5625,27.375,26.5625,29.8125,31.125,31.625
0.17405404,-1.1601703,-0.62039834,-0.33180848,-0.014314879,0.033992734,-0.14416052,-0.38803142,-0.3497412,0.060088303,-3.0769527,0.62071604,7.7603974e-05,-0.083168775,-0.014542516,-0.0025105262,0.025918059,-0.0032491249,0.021227665,0.47481006,-1.411431,1.9397157,-2.0959814,-1.5727333,2.4473789,-0.036062073,0.17684206,-0.2087639,0.04662014,-0.022001525,-0.057102576,-0.30645782,0.30645782,-9.634268,0.8806493,47.716442,-1.0977085,-2.025217,-3.6100254,-0.12961528,-0.33872214,-0.47243553,26.5625,27.375,26.5625,29.8125,31.125,31.625
0.17605463,-1.6780448,-0.8059758,-0.38531473,-0.0045696003,0.015762351,-0.13709567,-0.38820198,-0.34977984,0.060089663,-3.076935,0.62063265,6.901712e-05,-0.08459333,-0.014901028,-0.0020819362,0.026044993,-0.0024978807,0.026253788,0.474738,-1.41107,1.9392718,-2.095873,-1.5727571,2.4472573,-0.036401615,0.17893599,-0.21243274,0.047572352,-0.022474898,-0.06246445,-0.21068975,0.28730422,-9.615114,0.88960326,47.70211,-1.0927789,-2.0336986,-3.6428967,-0.084928155,-0.36430037,-0.4495163,26.5625,27.375,26.5625,29.8125,31.125,31.625
0.17805502,-0.63130987,-0.43147382,-0.33161816,0.004644768,0.03153831,-0.14511833,-0.38836938,-0.3498236,0.06009529,-3.076949,0.62049925,0.00010167455,-0.08533179,-0.014574152,-0.0036495344,0.028160447,-0.006128024,0.026669959,0.47467783,-1.4107318,1.9388522,-2.0958002,-1.572781,2.4471123,-0.03748333,0.18413574,-0.21533985,0.04947023,-0.022701994,-0.06396007,-0.22984336,0.15322891,-9.519346,0.88960326,47.698532,-1.1028769,-2.04667,-3.6385083,-0.06689013,-0.36948904,-0.42844287,26.5625,27.375,26.5625,29.8125,31.125,31.625
0.18005489,-0.89417696,-0.05466583,-0.2110789,0.006889015,0.017005451,-0.14190789,-0.3885618,-0.3498262,0.060075913,-3.0768652,0.62038374,0.00013641441,-0.087930806,-0.015438126,-0.0013864147,0.026243007,-0.001753259,0.029606164,0.4745694,-1.4103354,1.9384202,-2.0957162,-1.5728778,2.4469428,-0.03809441,0.18418187,-0.22076224,0.05006361,-0.023016928,-0.06750297,-0.28730422,0.21068975,-9.519346,0.88289046,47.698532,-1.0502532,-1.9839101,-3.459836,-0.057565536,-0.37734568,-0.41559976,26.5625,27.375,26.5625,29.8125,31.125,31.625
0.1820545,-1.0298201,-0.08028097,-0.19166398,0.0038217013,0.009319098,-0.13347666,-0.38871908,-0.34986663,0.060052775,-3.0768318,0.620315,4.3141343e-05,-0.08813648,-0.015122821,-0.0018234341,0.027788838,-0.0033549874,0.036079686,0.4744974,-1.4099385,1.9379901,-2.095608,-1.5728778,2.4468324,-0.038389564,0.185942,-0.22229132,0.051949255,-0.023677103,-0.074267276,-0.17238252,0.17238252,-9.500193,0.8314132,47.705692,-1.0593193,-2.0545702,-3.4377408,-0.016913477,-0.3936867,-0.37385464,26.5625,27.375,26.5625,29.8125,31.125,31.625
0.18405478,-0.96223176,-0.5903338,-0.20391914,-6.376376e-05,0.012685715,-0.13851494,-0.3889164,-0.34991455,0.060084574,-3.0768404,0.6202392,0.00011797325,-0.08918476,-0.01512937,-0.0013954996,0.028451039,-0.0037414152,0.0385588,0.47442514,-1.4095894,1.937487,-2.0954874,-1.5729135,2.446712,-0.03903575,0.18760245,-0.22580999,0.054443866,-0.02409554,-0.07739066,-0.15322891,0.26815057,-9.442732,0.83589023,47.690468,-1.1355237,-2.096434,-3.508336,-0.017836142,-0.38707817,-0.306025,26.5625,27.375,26.5625,29.8125,31.125,31.625
0.18605481,-1.3831595,-0.9493943,-0.07872723,-0.023363436,0.016384592,-0.13368767,-0.38908792,-0.34994754,0.060078256,-3.0768,0.6199397,0.00016404664,-0.089323856,-0.014484119,-0.001647413,0.03031174,-0.005310314,0.041252106,0.47438896,-1.4092046,1.9370326,-2.095379,-1.5730098,2.4464943,-0.03967098,0.18864158,-0.22705042,0.056878075,-0.025040612,-0.080715045,-0.28730422,0.3256114,-9.423578,0.8403672,47.693153,-1.1010053,-2.0185766,-3.4703338,-0.022594314,-0.4040711,-0.285385,26.5625,27.375,26.5625,29.8125,31.125,31.625
0.18805526,-0.9077043,-1.1285878,-0.14514832,-0.030264227,0.04564436,-0.13798966,-0.3892476,-0.3499664,0.06006657,-3.0767365,0.61984706,6.5435226e-05,-0.090094805,-0.014373598,-0.0012878603,0.03136516,-0.005188032,0.044926167,0.47429293,-1.4088321,1.9365906,-2.0952103,-1.5730346,2.446349,-0.03988978,0.18969738,-0.22956674,0.058700956,-0.026051909,-0.084601164,-0.3256114,0.38307226,-9.481039,0.75084364,47.703007,-1.0646759,-1.9306414,-3.4629204,-0.019563237,-0.41530192,-0.21638156,26.5625,27.375,26.5625,29.8125,31.125,31.625
0.19005467,-1.2571497,-1.1028248,-0.14112128,-0.04044685,0.04480951,-0.13818003,-0.38943002,-0.34997958,0.060057737,-3.0766776,0.61966115,5.832802e-05,-0.0912184,-0.014176645,-0.0012564033,0.032348108,-0.005795159,0.045844957,0.47419658,-1.4084464,1.9361352,-2.0950782,-1.5731066,2.4461443,-0.040835217,0.19191396,-0.23269434,0.060590096,-0.026662262,-0.08646036,-0.28730422,0.3256114,-9.442732,0.8717007,47.70211,-1.0400603,-2.0076818,-3.4995582,-0.0068042777,-0.4140428,-0.16401035,26.5625,27.375,26.5625,29.8125,31.125,31.625
0.19205417,-1.0448028,-1.1012316,-0.1035092,-0.037154578,0.048718363,-0.13915594,-0.38963816,-0.35002658,0.06007789,-3.0766807,0.61954623,0.00019814952,-0.09179215,-0.014109401,-0.0014896137,0.03329704,-0.007943942,0.045271933,0.4741363,-1.4080733,1.935644,-2.0950177,-1.5731786,2.4460123,-0.04153796,0.19438984,-0.23575188,0.063508205,-0.02652179,-0.08659088,-0.30645782,0.30645782,-9.404425,0.8717007,47.69763,-1.025077,-1.9671403,-3.4850566,-0.00608489,-0.4173454,-0.15144187,26.5625,27.375,26.5625,29.8125,31.125,31.625
0.19405471,-0.8345172,-0.75106794,-0.007064548,-0.019602245,0.035456557,-0.13313721,-0.38983822,-0.35004148,0.060080815,-3.0766344,0.6194412,0.00015668878,-0.09259967,-0.013837727,-0.00046515622,0.034003943,-0.0072584506,0.044073287,0.4740042,-1.4076774,1.9351414,-2.0948493,-1.5732149,2.4458208,-0.04210152,0.19403799,-0.23835523,0.06617477,-0.027470188,-0.08595037,-0.28730422,0.30645782,-9.32781,0.8940802,47.693153,-1.0450463,-1.8299015,-3.5212326,-0.05140982,-0.4127751,-0.12069358,26.5625,27.375,26.5625,29.8125,31.125,31.625
0.19605458,-0.9237846,-0.34225538,0.044463616,0.0050991806,0.022163557,-0.13838552,-0.39001432,-0.3500938,0.060075827,-3.0766332,0.6192118,0.00018542254,-0.0935355,-0.012685708,-0.00050689024,0.035879564,-0.0076047448,0.040208776,0.47396746,-1.4072806,1.9346746,-2.094765,-1.5732635,2.4456413,-0.04398184,0.19486776,-0.23966038,0.06781998,-0.028978234,-0.083960295,-0.2873042,0.3256114,-9.289502,0.8537928,47.692257,-0.93850744,-1.8247099,-3.604836,-0.022408873,-0.43965828,-0.111918986,26.5625,27.375,26.5625,29.8125,31.125,31.625
0.19805445,-0.6876723,0.24164996,0.042565823,0.017423227,0.010563305,-0.13169321,-0.39022428,-0.3501186,0.060088962,-3.0766,0.6191292,0.00023904747,-0.09330303,-0.012406284,-0.0010016167,0.038662434,-0.011021983,0.03687301,0.47385952,-1.4068956,1.9341716,-2.0946434,-1.5733241,2.4454863,-0.043648157,0.1973551,-0.2425419,0.07252986,-0.029886108,-0.08028679,-0.076614454,0.22984336,-9.289502,0.84484416,47.689575,-0.9683268,-1.770055,-3.5444264,-0.043584958,-0.417132,-0.1326755,26.5625,27.375,26.5625,29.8125,31.125,31.625
0.20005421,-0.6062162,0.22952166,0.10911522,0.03111061,0.00034398018,-0.12922175,-0.39041916,-0.3501587,0.06008866,-3.0765772,0.61900973,0.00023590504,-0.09241574,-0.0124069825,-0.001936993,0.04217925,-0.016149396,0.034885645,0.47377613,-1.4064851,1.9336694,-2.0945218,-1.5733598,2.4453316,-0.042318888,0.20077308,-0.24579655,0.078540385,-0.03066747,-0.076965615,-0.19153613,0.21068975,-9.232041,0.93436235,47.684196,-1.0750189,-1.9893789,-3.5047212,-0.1438168,-0.40181774,-0.18736959,26.5625,27.375,26.5625,29.8125,31.125,31.625
0.20205401,-0.88227516,0.21718322,0.156252,0.021531641,-0.007862845,-0.12452157,-0.39062512,-0.35015842,0.060079582,-3.076465,0.61896944,0.00021343007,-0.09355846,-0.011465778,-0.0022182155,0.043239824,-0.017476954,0.030031707,0.47364327,-1.4060647,1.9331654,-2.0943534,-1.5734442,2.4451883,-0.044742957,0.20265438,-0.24781543,0.08034079,-0.03101194,-0.07453115,-0.17238252,0.15322891,-9.155427,0.8940802,47.698532,-1.0438929,-1.9600389,-3.568094,-0.15981892,-0.42984498,-0.189251,26.5625,27.375,26.5625,29.8125,31.125,31.625
0.2040545,-0.05655581,0.38587254,0.22011362,0.014275094,0.013380528,-0.14349784,-0.39080694,-0.35017836,0.060071293,-3.076358,0.618834,0.000225938,-0.09484241,-0.011226282,-0.0015039812,0.045189235,-0.017048405,0.025779394,0.47358316,-1.4056562,1.9326757,-2.0941966,-1.573553,2.4450576,-0.045064148,0.20418483,-0.25200683,0.0835181,-0.032943353,-0.07058918,0.0,0.019153614,-9.212888,0.89631605,47.67614,-0.99239564,-1.8845539,-3.448926,-0.19202232,-0.41690797,-0.2650565,26.5625,27.375,26.5625,29.8125,31.125,31.625
0.2060543,-0.60224795,0.08364975,0.13477613,0.007982815,0.008018618,-0.13808139,-0.3909726,-0.35019958,0.060065277,-3.076298,0.61868685,0.00011288861,-0.09587114,-0.00977206,-0.002379164,0.048270654,-0.019537019,0.02420173,0.47348636,-1.4052707,1.9321965,-2.093992,-1.5735778,2.444877,-0.047475483,0.20722537,-0.25423306,0.08632238,-0.0345625,-0.071412265,-0.038307227,0.038307227,-9.2703495,0.842603,47.698532,-0.8484372,-1.9092501,-3.3943052,-0.24605344,-0.37655202,-0.29030806,26.5625,27.375,26.5625,29.8125,31.125,31.625
0.20805505,-0.099746875,0.33453,0.28351057,-0.006401068,0.026628526,-0.14700192,-0.39114946,-0.35022122,0.06003742,-3.0762007,0.61855024,2.0373385e-05,-0.09593518,-0.010050977,-0.003164561,0.05028936,-0.020747088,0.027379047,0.47340274,-1.4048252,1.9317058,-2.0938246,-1.5736378,2.4447207,-0.04621171,0.21011786,-0.25608864,0.08727465,-0.0358259,-0.07331576,-0.038307227,0.21068975,-9.155427,0.85826975,47.69763,-0.90046835,-2.0214882,-3.4924245,-0.27254125,-0.3612247,-0.25479108,26.5625,27.375,26.5625,29.8125,31.125,31.625
0.21005566,-0.6929222,-0.22359176,0.12601803,-0.0018518332,0.024903974,-0.13043372,-0.39139253,-0.35023165,0.0600741,-3.0761137,0.61855084,0.0001236691,-0.09727065,-0.010183568,-0.0030637186,0.05157526,-0.019400362,0.025792917,0.47327092,-1.4044285,1.9311188,-2.093633,-1.5737466,2.4446008,-0.046016335,0.21239619,-0.25904548,0.08734003,-0.0375919,-0.07152586,-0.1340753,0.17238252,-9.251195,0.8940802,47.711063,-1.0216393,-1.822459,-3.4079714,-0.30692288,-0.34889954,-0.31174627,26.5625,27.375,26.5625,29.8125,31.125,31.625
0.21205486,-0.7237788,-0.47073132,0.15459612,0.005796628,0.02490626,-0.13812883,-0.39152583,-0.3502505,0.060019728,-3.0759647,0.6183677,-8.507834e-05,-0.0997737,-0.009938911,-0.002553548,0.05122295,-0.016421601,0.02452915,0.47322214,-1.4039712,1.930664,-2.093418,-1.5738071,2.444457,-0.04799537,0.2141165,-0.26191244,0.08567029,-0.038665418,-0.072226964,-0.05746084,0.19153613,-9.212888,0.89631605,47.719128,-0.8937598,-1.9097679,-3.4025958,-0.29843497,-0.31291628,-0.32368094,26.5625,27.375,26.5625,29.8125,31.125,31.625
0.2140545,-0.97377205,-0.77272815,0.05265052,-0.0076409243,0.017310377,-0.1390643,-0.39172855,-0.3502765,0.060012594,-3.0758753,0.6182519,-9.5340714e-05,-0.101841435,-0.010924507,-0.0023654066,0.04856088,-0.014089703,0.023595229,0.4731379,-1.403526,1.9301261,-2.0932515,-1.5738906,2.4443123,-0.04892262,0.21665046,-0.2646796,0.08260087,-0.037380036,-0.07222083,-0.15322891,0.2873042,-9.270349,0.9254084,47.704796,-0.8867204,-1.9806144,-3.4216924,-0.28368944,-0.31132182,-0.32775906,26.5625,27.375,26.5625,29.8125,31.125,31.625
0.21605444,-1.0942084,-1.3661271,-0.074358635,-0.02321419,0.030289883,-0.13544248,-0.3919399,-0.3503042,0.06000201,-3.075802,0.6181407,-0.00010049409,-0.103847355,-0.011406853,-0.0017308161,0.04838333,-0.009617038,0.023852954,0.47304192,-1.403069,1.9295877,-2.0931094,-1.573963,2.4441566,-0.048638735,0.21790563,-0.26699305,0.0795951,-0.03927937,-0.072182916,-0.38307226,0.38307226,-9.232041,0.8873621,47.679718,-0.9380181,-1.9757261,-3.4259398,-0.27005053,-0.29941165,-0.3551014,26.5625,27.375,26.5625,29.8125,31.125,31.625
0.21805435,-1.2080202,-1.6906867,-0.14211921,-0.038265962,0.052196443,-0.14005269,-0.3921688,-0.3503044,0.060004964,-3.075695,0.61809814,-8.3059196e-05,-0.10586523,-0.011333402,-0.0012741105,0.048271086,-0.0057159504,0.024564251,0.47289774,-1.4026359,1.9290379,-2.092931,-1.5740598,2.444,-0.04945341,0.21885629,-0.26856142,0.07667726,-0.040979564,-0.07369814,-0.40222588,0.51714754,-9.270349,0.8627467,47.675243,-0.8727093,-1.9240893,-3.525851,-0.24482737,-0.24547422,-0.3825547,26.5625,27.375,26.5625,29.8125,31.125,31.625
0.2200543,-2.272517,-2.1503954,-0.29002395,-0.04722747,0.05135916,-0.12721296,-0.39237747,-0.35033312,0.060011767,-3.0756242,0.6180053,-4.775189e-05,-0.10772133,-0.011805641,-0.00063580065,0.046887536,-0.002570075,0.02636447,0.4728135,-1.4022156,1.9284991,-2.0927756,-1.5741438,2.4438672,-0.05012076,0.21989514,-0.2708013,0.07443016,-0.04120246,-0.07616194,-0.28730422,0.49799395,-9.442732,0.9030289,47.70032,-0.83706856,-1.9248288,-3.4560118,-0.20451003,-0.22736268,-0.38022286,26.5625,27.375,26.5625,29.8125,31.125,31.625
0.22205482,-2.5853298,-2.2015893,-0.051003218,-0.056337524,0.056142565,-0.12714863,-0.39258552,-0.35035664,0.05999569,-3.0755424,0.61794704,-8.028005e-05,-0.10954265,-0.012590807,-0.0001280964,0.04555546,0.00057892216,0.02975338,0.4727055,-1.4017587,1.9279727,-2.092633,-1.5742038,2.4437337,-0.050171167,0.22152543,-0.2733896,0.0719579,-0.04147963,-0.0795955,-0.34476504,0.38307226,-9.385271,0.9164598,47.687782,-0.88732624,-1.8029592,-3.5710187,-0.15166798,-0.20909858,-0.36628073,26.5625,27.375,26.5625,29.8125,31.125,31.625
0.22405416,-1.910633,-1.7523464,-0.09427499,-0.038832437,0.06675126,-0.13852704,-0.3927715,-0.35038748,0.059963755,-3.0754642,0.61769795,-0.000119958,-0.11119122,-0.013320606,-0.00041597724,0.0443173,0.0016387742,0.03296286,0.4726454,-1.4012889,1.9274701,-2.0925024,-1.5742878,2.4435284,-0.050725423,0.22472106,-0.2760883,0.06992872,-0.04089054,-0.083356075,-0.5363012,0.36391866,-9.442732,0.92093146,47.677036,-0.86009204,-1.9150755,-3.5786204,-0.12045838,-0.20823523,-0.3296193,26.5625,27.375,26.5625,29.8125,31.125,31.625
0.2260547,-1.4255193,-1.1957289,-0.53612703,-0.024382524,0.060480386,-0.13342103,-0.39300585,-0.3503998,0.059964817,-3.0753915,0.61754566,-5.0238523e-05,-0.11173632,-0.0129815275,-0.00079998124,0.045163486,0.0004251376,0.03702467,0.47252506,-1.4008439,1.9269203,-2.0923698,-1.574396,2.4433227,-0.05162207,0.22648092,-0.27762,0.07113478,-0.0411117,-0.0883119,-0.49799395,0.34476504,-9.519346,0.88289046,47.689575,-0.8246768,-1.9422328,-3.61002,-0.09774217,-0.19711342,-0.2863658,26.5625,27.375,26.5625,29.8125,31.125,31.625
0.2280544,-1.1702217,-0.97996765,-0.49868855,-0.013252428,0.052996628,-0.13998018,-0.39326862,-0.35043073,0.059986178,-3.0753758,0.6174626,3.3208515e-05,-0.113244556,-0.013532017,-0.0005426653,0.044108957,0.002057436,0.040482078,0.47238094,-1.4003869,1.9263104,-2.0922391,-1.5744556,2.443129,-0.0520739,0.22833209,-0.28017357,0.06987731,-0.04093649,-0.092221476,-0.3256114,0.30645782,-9.519346,0.83365434,47.686886,-0.8029891,-1.8203225,-3.7193089,-0.067339875,-0.17239633,-0.23044664,26.5625,27.375,26.5625,29.8125,31.125,31.625
0.23005414,-1.263155,-0.8833479,-0.47264937,-0.0074126977,0.032860853,-0.12922479,-0.39349434,-0.3504704,0.059976652,-3.0753276,0.61723953,9.3063885e-05,-0.114709795,-0.013703463,-0.0005536246,0.043959774,0.0030298342,0.043950576,0.47230867,-1.3999051,1.9257473,-2.0921314,-1.5745519,2.442924,-0.052841175,0.23054229,-0.2826692,0.069201924,-0.04126957,-0.09645341,-0.2681506,0.2681506,-9.500193,0.9254084,47.68599,-0.76007897,-1.9913404,-3.7362304,-0.010795301,-0.16188434,-0.15919217,26.5625,27.375,26.5625,29.8125,31.125,31.625
0.2320548,-1.4031507,-1.0329479,-0.44275075,-0.00662971,0.016997464,-0.12897956,-0.39370194,-0.35047767,0.059933584,-3.0751965,0.6172114,3.6254667e-05,-0.11574114,-0.01367875,-8.938819e-05,0.044356048,0.0016568938,0.044621576,0.47218835,-1.3994125,1.9252447,-2.0920098,-1.5746359,2.4428034,-0.05392672,0.23238978,-0.28681666,0.07288406,-0.041016847,-0.09820521,-0.40222588,0.24899697,-9.423578,0.8940802,47.705692,-0.71822906,-1.9795341,-3.6939735,-0.00760037,-0.12648848,-0.13875133,26.5625,27.375,26.5625,29.8125,31.125,31.625
0.23405525,-1.05786,-0.7025636,-0.40894333,-0.008102006,0.021561652,-0.13280608,-0.39393535,-0.35050455,0.059945934,-3.0751753,0.61701316,3.473579e-05,-0.11749646,-0.014511374,0.00016530066,0.04306678,0.0020226773,0.046085395,0.47205615,-1.398967,1.9246572,-2.0918305,-1.5746835,2.4425504,-0.05460945,0.23552804,-0.2912288,0.07322382,-0.04005665,-0.10035254,-0.30645782,0.30645782,-9.346964,0.95002913,47.68062,-0.7044909,-1.9587979,-3.6564126,0.011789035,-0.12638201,-0.08212941,26.5625,27.375,26.5625,29.8125,31.125,31.625
0.23605445,-0.25005066,0.13780205,-0.68173724,-0.014211835,0.023601029,-0.14154302,-0.39416903,-0.35055536,0.059942976,-3.0751197,0.61675304,6.283723e-05,-0.118202426,-0.014685556,-0.00046384224,0.04323243,5.332106e-05,0.043035325,0.47199577,-1.3984493,1.924023,-2.0916626,-1.5747789,2.4423351,-0.055376545,0.23866539,-0.29385924,0.07454112,-0.039310344,-0.0980698,-0.15322891,0.24899697,-9.404425,0.9791215,47.67614,-0.6421895,-2.049901,-3.565314,0.044859692,-0.11719405,-0.07815559,26.5625,27.375,26.5625,29.8125,31.125,31.625
0.23805572,-0.8819676,-0.7600323,-0.43444866,-0.011483535,0.010958043,-0.13065346,-0.3943884,-0.35056624,0.059912533,-3.0750263,0.6166197,7.006135e-06,-0.11838835,-0.014864896,-0.0006184195,0.043443277,-0.0032313133,0.040289823,0.4718636,-1.3979564,1.9234852,-2.0915172,-1.5748504,2.442132,-0.056009907,0.24093853,-0.29718554,0.0786079,-0.038008377,-0.09595896,-0.30645782,0.21068975,-9.519346,0.8605109,47.689575,-0.6086997,-1.9911792,-3.4765573,0.040057823,-0.118018195,-0.089585066,26.5625,27.375,26.5625,29.8125,31.125,31.625
0.24005449,-0.67628783,-0.6479073,-0.43035853,-0.015350221,0.01505774,-0.13465764,-0.3946405,-0.3505983,0.059914302,-3.074969,0.6165893,3.088669e-05,-0.119919464,-0.015890524,0.00011351116,0.042392965,-0.0044692555,0.0365538,0.47173157,-1.3974628,1.9228729,-2.0913723,-1.57491,2.4419887,-0.056492604,0.24418832,-0.30362007,0.0824159,-0.036509987,-0.09270926,-0.22984336,0.21068975,-9.481039,0.8851263,47.71286,-0.54842484,-2.1315906,-3.5541356,0.033340182,-0.11759904,-0.09100632,26.5625,27.375,26.5625,29.8125,31.125,31.625
0.24205418,-0.5172017,-0.08109577,-0.6114876,-0.0047446745,0.0034784973,-0.1328287,-0.39487734,-0.35064378,0.059927724,-3.0749228,0.61635166,8.556728e-05,-0.11886761,-0.015535857,-0.0009336356,0.044163983,-0.010344691,0.03301084,0.4716593,-1.3969811,1.9222397,-2.091191,-1.5750054,2.4417744,-0.05683382,0.24650566,-0.30524653,0.08776219,-0.0354028,-0.0895117,-0.2681506,0.21068975,-9.461885,0.87617236,47.684196,-0.53562456,-2.159199,-3.4141235,-0.0054121306,-0.1456048,-0.13813439,26.5625,27.375,26.5625,29.8125,31.125,31.625
0.24405481,-0.35025644,-0.034090467,-0.49000558,-0.00464207,0.006248242,-0.13481708,-0.39511567,-0.35064897,0.05990607,-3.074781,0.6163214,3.8481117e-05,-0.117114894,-0.01638398,-0.0015742201,0.045962904,-0.015114333,0.032234885,0.4715163,-1.3964641,1.9216422,-2.0909975,-1.5751017,2.441631,-0.05410433,0.24846418,-0.30736342,0.09298691,-0.034833457,-0.086004816,-0.19153613,0.24899697,-9.595961,0.92764956,47.686886,-0.6421994,-2.164692,-3.5854235,-0.04549382,-0.14148226,-0.17216945,26.5625,27.375,26.5625,29.8125,31.125,31.625
0.2460543,-0.6710639,-0.9696559,-0.4897061,0.004632981,0.0016607532,-0.1242079,-0.39536956,-0.35066956,0.05991994,-3.074737,0.61627555,2.148125e-05,-0.11531534,-0.015138195,-0.0017290941,0.04818161,-0.020963747,0.028659703,0.47134796,-1.3959961,1.9210204,-2.0908034,-1.5751375,2.44144,-0.055047534,0.24727742,-0.3074074,0.100437246,-0.03413687,-0.083376326,-0.11492168,0.2681506,-9.442732,0.9186956,47.694946,-0.6589606,-2.0748885,-3.7489343,-0.14571026,-0.15085727,-0.2207339,26.5625,27.375,26.5625,29.8125,31.125,31.625
0.24805489,-0.5708975,-0.7695472,-0.3281291,-0.0045916466,0.0046816175,-0.13249354,-0.3956043,-0.3507225,0.059917018,-3.0746675,0.6161847,2.8202838e-05,-0.115965754,-0.015096748,-0.002074594,0.048510592,-0.02248534,0.02621175,0.47127566,-1.395479,1.9203852,-2.0906355,-1.575209,2.4413204,-0.055911224,0.24952057,-0.3097083,0.10199756,-0.03374198,-0.08179145,-0.076614454,0.28730422,-9.500193,0.8784135,47.703007,-0.6748148,-2.036075,-3.7296612,-0.19684038,-0.14257586,-0.24335682,26.5625,27.375,26.5625,29.8125,31.125,31.625
0.25005406,-0.39918283,-0.56884223,-0.24885644,-0.0105317915,0.0017026091,-0.13086285,-0.3957878,-0.35073256,0.05986154,-3.0744946,0.61599517,-0.0002327621,-0.11565913,-0.01434868,-0.0017928018,0.05000167,-0.026611025,0.024393102,0.47116736,-1.3949264,1.9198011,-2.0903456,-1.5752691,2.4411163,-0.057234064,0.24995033,-0.31248152,0.10868596,-0.03321214,-0.08128971,-0.076614454,0.24899697,-9.519346,0.90527004,47.68062,-0.4526078,-1.8872589,-3.7008088,-0.2463521,-0.1408085,-0.3094094,26.5625,27.375,26.5625,29.8125,31.125,31.625
0.25205433,-0.29347873,-0.6926305,-0.28894222,-0.0074521154,0.0006353175,-0.13420922,-0.3960707,-0.35078314,0.059902847,-3.074484,0.6159906,-7.681567e-05,-0.11646469,-0.01681396,0.000439736,0.04746314,-0.02205445,0.027638264,0.47104856,-1.3944582,1.9191297,-2.090214,-1.5753411,2.4409964,-0.053732384,0.24909067,-0.31663516,0.10847779,-0.033026207,-0.08103504,0.0,0.28730422,-9.442732,0.88960326,47.67614,-0.766482,-1.8095322,-3.7070718,-0.29697603,-0.15147185,-0.3100775,26.5625,27.375,26.5625,29.8125,31.125,31.625
0.2540549,-0.43579355,-0.47649336,-0.4499371,-0.012766121,-0.0010101404,-0.13121885,-0.39629593,-0.3508258,0.05990323,-3.0744212,0.6158055,-0.00015324583,-0.11777447,-0.017171996,0.00065367954,0.046473537,-0.020602452,0.024833003,0.47095233,-1.3939524,1.9184836,-2.089975,-1.5753893,2.440793,-0.054368217,0.25048655,-0.31860864,0.107315004,-0.03281376,-0.078862496,-0.019153614,0.30645782,-9.481039,0.91421866,47.690468,-0.745545,-1.9487329,-3.6123862,-0.31521735,-0.17475745,-0.38606894,26.5625,27.375,26.5625,29.8125,31.125,31.625
0.25605428,-0.6152851,-1.2502319,-0.5108792,-0.017135827,0.011116971,-0.12776428,-0.39653668,-0.3508495,0.05989301,-3.0743065,0.61570376,-0.00020724774,-0.1213491,-0.01838555,0.0013405269,0.044338807,-0.016078103,0.025844458,0.47083217,-1.3934231,1.917837,-2.089749,-1.5754732,2.4406245,-0.055272434,0.25452238,-0.32425278,0.10390399,-0.03300482,-0.08077036,0.038307227,0.30645782,-9.5385,0.88289046,47.68062,-0.7319414,-1.8274474,-3.5222082,-0.29393005,-0.16936675,-0.42991167,26.5625,27.375,26.5625,29.8125,31.125,31.625
0.2580549,-0.34902936,-1.01928,-0.39995795,-0.04663988,0.032799847,-0.1420854,-0.39676598,-0.35086313,0.059893545,-3.0741787,0.6156965,-0.00021951932,-0.124171704,-0.020307833,0.001838405,0.041945625,-0.011527847,0.02568849,0.4707123,-1.3929534,1.9172381,-2.0895355,-1.575569,2.440517,-0.054425433,0.25847387,-0.3291883,0.09974049,-0.03296286,-0.07976179,0.1340753,0.30645782,-9.461885,0.88289046,47.677036,-0.7433336,-1.8995714,-3.3241591,-0.27501565,-0.17581609,-0.45226318,26.5625,27.375,26.5625,29.8125,31.125,31.625
0.26005423,-1.1514976,-1.2491304,-0.65166706,-0.042345665,0.014396625,-0.13258117,-0.39700985,-0.35091043,0.05988184,-3.0741138,0.6156225,-0.0003185625,-0.12588139,-0.02128553,0.00067759166,0.040727705,-0.009764848,0.028211588,0.4705924,-1.3923995,1.9165682,-2.0893219,-1.5755929,2.4403596,-0.054355945,0.26293212,-0.33076382,0.094715506,-0.032713346,-0.08221192,0.05746084,0.38307226,-9.672575,0.8314132,47.692257,-0.7848363,-1.984755,-3.4710917,-0.21512163,-0.17543319,-0.47462037,26.5625,27.375,26.5625,29.8125,31.125,31.625
0.26205537,-0.99807197,-1.6120061,-0.9405279,-0.054865107,0.017214518,-0.12806563,-0.39728707,-0.3509601,0.059911445,-3.0740762,0.6153629,-0.00019352733,-0.12734082,-0.021484023,1.13272245e-05,0.040352058,-0.0075480714,0.032033045,0.47050804,-1.3918821,1.915852,-2.0891316,-1.575713,2.4401183,-0.05481819,0.2653569,-0.3312871,0.09063628,-0.03341346,-0.08649123,0.095768064,0.40222588,-9.864111,0.9186956,47.692257,-0.7332434,-2.1811705,-3.568364,-0.16245085,-0.19517004,-0.4852779,26.5625,27.375,26.5625,29.8125,31.125,31.625
0.26405442,-0.50109464,-1.9100968,-0.7050253,-0.08316073,0.044466432,-0.13850178,-0.39750996,-0.35099298,0.059887886,-3.0739806,0.6152036,-0.0002619168,-0.12719898,-0.02161207,-5.2370964e-05,0.040921766,-0.0054854047,0.038991936,0.4704127,-1.3913532,1.915243,-2.0889404,-1.5757855,2.4399362,-0.05349054,0.26470137,-0.32998854,0.088380225,-0.034894638,-0.092111096,0.095768064,0.47884035,-9.749189,0.91421866,47.691364,-0.8826109,-2.2143807,-3.834009,-0.122592606,-0.19469124,-0.43214452,26.5625,27.375,26.5625,29.8125,31.125,31.625
0.266054,-0.8862223,-2.6962094,-0.9095528,-0.07724363,0.012856115,-0.12485308,-0.39777613,-0.3510449,0.059915833,-3.073968,0.6150636,-0.00019355492,-0.12860338,-0.021825533,-0.0002834845,0.040482752,-0.0050055287,0.044008527,0.4703043,-1.3908607,1.9145616,-2.0887616,-1.5758456,2.4397423,-0.05440327,0.26723704,-0.33236915,0.0875581,-0.034754645,-0.09804046,0.17238252,0.59376204,-9.883265,0.9679317,47.717335,-0.85618746,-2.04474,-3.9140987,-0.08750801,-0.18702385,-0.40072984,26.5625,27.375,26.5625,29.8125,31.125,31.625
0.2680546,-0.9749635,-2.8052554,-0.6698786,-0.08370656,-0.0024713855,-0.115928985,-0.39805013,-0.35110098,0.059919942,-3.0739555,0.61492234,-0.00012514344,-0.12958726,-0.022354912,-0.00010580718,0.039392065,-0.004786818,0.049918555,0.4701963,-1.3903192,1.9138902,-2.088642,-1.5759057,2.439548,-0.054835174,0.26885045,-0.3348302,0.08767086,-0.03391485,-0.10438672,0.095768064,0.5746084,-9.787497,0.84484416,47.681515,-0.8671216,-2.0237458,-3.8530173,-0.044607785,-0.20825607,-0.3295874,26.5625,27.375,26.5625,29.8125,31.125,31.625
0.2700541,-0.34632567,-2.2518852,-0.6400565,-0.06764777,-0.0067978017,-0.13445686,-0.3983213,-0.35116082,0.059934918,-3.0739286,0.6147199,-4.8912472e-05,-0.13194035,-0.023303011,0.001488158,0.037960295,-0.0012034856,0.055244036,0.47011238,-1.389779,1.9131845,-2.088474,-1.5759896,2.4393415,-0.054987747,0.2700028,-0.3399781,0.08778409,-0.034297865,-0.10986059,-0.05746084,0.61291564,-9.634268,0.87393653,47.687782,-0.8301552,-1.9597443,-3.7774668,-0.014173934,-0.20584998,-0.26442346,26.5625,27.375,26.5625,29.8125,31.125,31.625
0.27205458,-0.08900608,-1.1146903,-0.75373703,-0.047458544,-0.014178559,-0.12766106,-0.39858273,-0.3511923,0.059910577,-3.0738525,0.61454904,-8.729808e-05,-0.13397,-0.024464402,0.0032066663,0.0358065,0.0019670476,0.058716893,0.4699803,-1.3892019,1.912525,-2.0883062,-1.5760611,2.439113,-0.05499833,0.2706492,-0.34490675,0.08823164,-0.033849996,-0.11334204,0.05746084,0.5554548,-9.615114,0.86945957,47.668976,-0.897851,-1.8945283,-3.55907,0.01793327,-0.2078921,-0.19841483,26.5625,27.375,26.5625,29.8125,31.125,31.625
0.27405474,-0.25265378,-1.1353761,-0.7197916,-0.022009972,-0.011440507,-0.1302583,-0.39886013,-0.35124075,0.059925374,-3.0738401,0.6144087,-5.0139653e-05,-0.13385403,-0.025286488,0.003930767,0.035540283,4.708048e-06,0.06250563,0.46984857,-1.3886727,1.9118317,-2.088137,-1.5761088,2.4388955,-0.054115813,0.27148294,-0.34869665,0.09278745,-0.032736916,-0.11625377,-0.019153614,0.53630114,-9.595961,0.8851263,47.678825,-0.94502497,-1.8113186,-3.5803895,-0.0027668914,-0.24057174,-0.18782914,26.5625,27.375,26.5625,29.8125,31.125,31.625
0.27605444,-0.97564846,-0.99582505,-0.6390239,-0.007060736,-0.0136354985,-0.122125626,-0.39913327,-0.3513141,0.059966274,-3.073864,0.61420405,3.416984e-05,-0.13460502,-0.02475561,0.0044542057,0.03601976,0.00015891729,0.059149116,0.46976408,-1.3881685,1.9111027,-2.0879447,-1.576157,2.4386804,-0.055341627,0.27143392,-0.3503565,0.09458121,-0.033222165,-0.114121094,-0.17238252,0.45968673,-9.500193,0.9679317,47.678825,-0.98929465,-1.7027519,-3.6620069,0.025637459,-0.274536,-0.13709225,26.5625,27.375,26.5625,29.8125,31.125,31.625
0.27805436,-0.81692344,-0.3178596,-0.66461253,-0.009622839,0.006237233,-0.12675582,-0.3994103,-0.35136288,0.059974473,-3.073826,0.6139283,5.9268554e-05,-0.1333075,-0.023767108,0.0032703842,0.03962519,-0.008542028,0.05677253,0.46965596,-1.3876028,1.9103726,-2.0877373,-1.5762404,2.4384053,-0.05631627,0.27457342,-0.35362098,0.10408903,-0.03248492,-0.11272163,-0.15322891,0.3256114,-9.595961,0.83365434,47.701214,-0.8999671,-1.6819578,-3.623578,-0.021647718,-0.28751817,-0.15197818,26.5625,27.375,26.5625,29.8125,31.125,31.625
0.28005403,-1.3612119,-0.7235874,-0.6206313,0.0032803821,0.007394921,-0.12193878,-0.39968613,-0.35140878,0.05997439,-3.0737576,0.6138588,7.656932e-05,-0.13052274,-0.024420798,-8.257573e-05,0.043557018,-0.018682085,0.052180193,0.46953684,-1.3870366,1.9096664,-2.0875566,-1.5763124,2.438252,-0.053382155,0.28112048,-0.35511762,0.109886944,-0.031367637,-0.1051996,-0.1340753,0.21068975,-9.595961,0.87393653,47.68062,-1.0423915,-1.8041782,-3.6034093,-0.09128423,-0.3131677,-0.20103797,26.5625,27.375,26.5625,29.8125,31.125,31.625
0.2820546,-1.0861536,-0.69682914,-0.2716297,0.002591786,0.030337777,-0.12483028,-0.3999521,-0.35146454,0.05998558,-3.0737247,0.61366177,5.2934858e-05,-0.12961467,-0.023060383,-0.0015899277,0.047658715,-0.025204172,0.04764897,0.46942857,-1.3864824,1.9089373,-2.0873268,-1.5763606,2.4380252,-0.054446258,0.2840373,-0.35666436,0.11620302,-0.032058254,-0.101726554,-0.22984336,0.095768064,-9.461885,0.8918391,47.68062,-1.1053343,-2.02847,-3.723328,-0.1634253,-0.35123113,-0.26775214,26.5625,27.375,26.5625,29.8125,31.125,31.625
0.28405413,-1.0849293,0.29869077,-0.09798074,0.006849007,0.028197702,-0.14036655,-0.40022153,-0.351526,0.059995174,-3.0737162,0.6134678,4.984466e-05,-0.13072307,-0.022396857,-0.0013657226,0.04979756,-0.025930088,0.045331385,0.46932033,-1.3859289,1.9082206,-2.0871341,-1.5763978,2.4377973,-0.055521775,0.2858454,-0.36018994,0.11954123,-0.03363969,-0.10047305,-0.19153613,0.076614454,-9.404425,0.8672237,47.686886,-1.0688252,-2.0346262,-3.7544713,-0.23619005,-0.3430959,-0.2953829,26.5625,27.375,26.5625,29.8125,31.125,31.625
0.28605485,-1.5240135,-0.32867286,-0.03508702,0.03726903,0.028544687,-0.12157212,-0.40048853,-0.35158294,0.060001582,-3.0736299,0.6132968,2.3415841e-05,-0.13219966,-0.022264985,0.00023213233,0.049843665,-0.024233518,0.04415891,0.46923587,-1.385341,1.9074548,-2.0868704,-1.5764817,2.4376175,-0.0564844,0.28539884,-0.36409605,0.12239475,-0.034461413,-0.10025451,-0.1340753,-0.15322891,-9.251195,0.9925471,47.699425,-1.0083303,-1.9668274,-3.6496677,-0.2557404,-0.36594683,-0.3046802,26.5625,27.375,26.5625,29.8125,31.125,31.625
0.28805462,-0.9547242,0.5917964,0.17590661,0.039362032,0.02649921,-0.1312194,-0.40073782,-0.35162646,0.05998778,-3.0735593,0.6131086,-4.0335748e-05,-0.13418306,-0.024618177,0.0010202845,0.048023622,-0.019273143,0.04606043,0.4691289,-1.3847754,1.906772,-2.0866563,-1.5765418,2.4374025,-0.053715106,0.28825602,-0.36859772,0.11878992,-0.035109293,-0.09937704,-0.19153613,-0.076614454,-9.212888,0.900793,47.67614,-1.1730736,-1.885382,-3.4457965,-0.2575674,-0.35966647,-0.33366618,26.5625,27.375,26.5625,29.8125,31.125,31.625
0.29005432,-1.0763009,0.6669018,0.07697175,0.052588042,0.009892537,-0.12763537,-0.4010583,-0.35167372,0.060035806,-3.0735054,0.6130207,8.99644e-05,-0.13684568,-0.024389159,0.0017612581,0.047510702,-0.015645498,0.043953877,0.46899623,-1.3842226,1.9059576,-2.0864174,-1.57665,2.4372222,-0.055636298,0.28965786,-0.37167272,0.11698568,-0.036304384,-0.09918383,-0.17238252,-0.095768064,-9.078813,0.8985519,47.68599,-1.1902198,-1.877183,-3.4013762,-0.2469547,-0.39250857,-0.36727867,26.5625,27.375,26.5625,29.8125,31.125,31.625
0.2920548,-0.89983624,0.70242,0.12582268,0.035499856,0.01153488,-0.12744766,-0.40130925,-0.35171688,0.06000852,-3.0734081,0.6128072,-3.345452e-05,-0.13964902,-0.024858365,0.0021237293,0.046302207,-0.009846096,0.04477317,0.468888,-1.3836094,1.9052409,-2.086168,-1.576711,2.4369936,-0.056243613,0.2915315,-0.37358958,0.111296825,-0.037889645,-0.100593984,-0.22984336,0.019153614,-9.174581,0.99702406,47.716442,-1.1188166,-1.8001512,-3.5421677,-0.18204747,-0.38778436,-0.39399964,26.5625,27.375,26.5625,29.8125,31.125,31.625
0.29405406,-0.9447771,-0.13375327,-0.08067708,0.011568585,0.020846225,-0.1388237,-0.40156427,-0.35174924,0.06001855,-3.0733237,0.6125779,-4.847439e-05,-0.14195509,-0.025209295,0.0034341572,0.045227602,-0.0041349214,0.046733074,0.4687799,-1.3830802,1.9045352,-2.0859058,-1.5768074,2.4367535,-0.05657079,0.29132587,-0.3757389,0.10804979,-0.03954648,-0.102866575,-0.19153613,0.095768064,-9.193734,0.9254084,47.67614,-1.1520329,-1.7630842,-3.5088081,-0.13069889,-0.38315892,-0.36006278,26.5625,27.375,26.5625,29.8125,31.125,31.625
0.29605475,-1.8086627,-1.0969244,0.19745626,-0.038158547,0.033381775,-0.12978429,-0.40186715,-0.35179892,0.060029496,-3.0732284,0.61251503,-1.8507617e-05,-0.14350952,-0.025195995,0.0030156637,0.046701588,-0.0018020852,0.052165367,0.46866003,-1.3824674,1.9037336,-2.0856674,-1.5769042,2.4366071,-0.0563851,0.29400626,-0.37758535,0.10576222,-0.041958362,-0.10809497,-0.3256114,0.17238252,-9.174581,0.9254084,47.703903,-1.1474787,-1.7683893,-3.4888115,-0.086747035,-0.36640155,-0.3610075,26.5625,27.375,26.5625,29.8125,31.125,31.625
0.29805478,-2.000534,-2.046996,-0.09726082,-0.049219895,0.0483512,-0.1276757,-0.40211785,-0.35184985,0.060009673,-3.073146,0.61218756,-6.783627e-05,-0.14435342,-0.024924876,0.0021807123,0.04844066,-0.0026019884,0.057694253,0.4685878,-1.3818651,1.9030169,-2.0854394,-1.5770005,2.4363413,-0.056772873,0.29709494,-0.37955874,0.10610002,-0.04319583,-0.11399823,-0.45968673,0.2681506,-9.212888,0.9925471,47.67614,-1.2042967,-1.7248468,-3.6396117,-0.06920289,-0.35564196,-0.27719772,26.5625,27.375,26.5625,29.8125,31.125,31.625
0.30005446,-1.8502382,-1.297103,0.013433393,-0.062304363,0.077596284,-0.14099617,-0.4024192,-0.35190445,0.060029175,-3.0731103,0.6120436,-4.395866e-05,-0.14637373,-0.024530357,0.004871824,0.048178487,0.0029077146,0.06164771,0.46845555,-1.3812784,1.9022282,-2.0852115,-1.5770615,2.436124,-0.057719808,0.29403132,-0.38241333,0.10694861,-0.045484714,-0.11888253,-0.36391866,0.30645782,-9.289502,0.97464454,47.682407,-1.1582749,-1.5339711,-3.6501453,-0.065572366,-0.35301095,-0.2226437,26.5625,27.375,26.5625,29.8125,31.125,31.625
0.3020547,-1.8366936,-1.1730922,-0.14585802,-0.04801396,0.06934489,-0.13381249,-0.40273204,-0.35197312,0.060051218,-3.073088,0.61184245,7.122251e-05,-0.14735699,-0.024452446,0.0033922936,0.05018266,0.00055369205,0.06751018,0.46835932,-1.3806758,1.9014257,-2.0850322,-1.5771574,2.4359055,-0.058181547,0.2992296,-0.3855356,0.107824266,-0.046246313,-0.12520134,-0.40222588,0.40222588,-9.385271,0.94331104,47.661808,-1.21092,-1.6300316,-3.7064962,-0.061303437,-0.3428821,-0.14314121,26.5625,27.375,26.5625,29.8125,31.125,31.625
0.30405405,-1.4567122,-0.655297,-0.15420097,-0.028709138,0.05774554,-0.14174998,-0.40301704,-0.35198775,0.060026366,-3.0729556,0.6117185,3.5900877e-05,-0.14837718,-0.023800403,0.0018699234,0.05225552,-0.0004982843,0.06858283,0.46820304,-1.3800619,1.9007086,-2.0848172,-1.5772666,2.4356892,-0.05924574,0.30317643,-0.38667536,0.10686204,-0.047654547,-0.1273231,-0.2873042,0.36391866,-9.32781,0.9455522,47.67345,-1.1822454,-1.6811979,-3.7347822,-0.026370551,-0.3200453,-0.08159261,26.5625,27.375,26.5625,29.8125,31.125,31.625
0.30605435,-1.4372194,-0.5617494,0.07198949,-0.023457622,0.045382686,-0.13429125,-0.40332642,-0.35205022,0.060040873,-3.0729375,0.61136883,0.00013161481,-0.14943601,-0.023589857,0.0011128689,0.05372649,-0.0011959842,0.06740531,0.46810693,-1.3794484,1.899907,-2.084625,-1.5773743,2.4353774,-0.059848312,0.3064811,-0.38911295,0.10727089,-0.04865674,-0.1267403,-0.47884035,0.4213795,-9.270349,0.9388393,47.668976,-1.1155764,-1.8474305,-3.7154152,0.010324764,-0.30464292,-0.07443918,26.5625,27.375,26.5625,29.8125,31.125,31.625
0.3080547,-1.0600553,-0.45150915,0.06573721,-0.01785286,0.033100747,-0.13254742,-0.40363643,-0.3521088,0.060056217,-3.0729024,0.6112112,0.00015084793,-0.15092742,-0.022688182,0.0012462967,0.057163626,-0.0017175241,0.06274948,0.46797448,-1.3788342,1.899094,-2.0843966,-1.5774354,2.4351513,-0.06086814,0.30916935,-0.39361784,0.111124605,-0.051478263,-0.12308255,-0.5746084,0.30645782,-9.212888,0.98135734,47.674347,-1.1337444,-1.8737832,-3.641124,0.026141144,-0.28795087,-0.07891168,26.5625,27.375,26.5625,29.8125,31.125,31.625
0.31005472,-0.9609612,-0.61993605,0.04921286,-0.012387468,0.023859669,-0.12814423,-0.4039101,-0.3521527,0.060027897,-3.0727925,0.61094105,9.97967e-05,-0.15100816,-0.021691954,0.0010347392,0.060204722,-0.0051647476,0.0568712,0.46787813,-1.3781855,1.8983392,-2.0841668,-1.5775436,2.4349008,-0.061878204,0.31087828,-0.3966233,0.11688908,-0.052623127,-0.11819968,-0.30645782,0.30645782,-9.232041,1.044019,47.672558,-1.0625595,-1.8713077,-3.621077,-0.020820236,-0.2671728,-0.10750634,26.5625,27.375,26.5625,29.8125,31.125,31.625
0.31205428,-0.97174615,-0.1857176,0.45749187,-0.01834904,0.016436532,-0.12038732,-0.40422153,-0.35217923,0.060026266,-3.072669,0.6108205,0.00014176052,-0.14989436,-0.020839075,0.0014922649,0.063954756,-0.009902329,0.053770572,0.4677344,-1.3775603,1.897551,-2.0839365,-1.5776762,2.434698,-0.061555486,0.31083986,-0.3998386,0.12606776,-0.053814176,-0.114764646,-0.5363012,0.34476504,-9.136273,0.9321212,47.687782,-1.1549354,-1.8874168,-3.6178942,-0.11912842,-0.24882743,-0.15009385,26.5625,27.375,26.5625,29.8125,31.125,31.625
0.3140539,-0.72778046,-0.1291515,0.4126228,-0.00963807,0.026929032,-0.1302049,-0.40454456,-0.35222653,0.06002166,-3.072576,0.61065257,0.00016434226,-0.15116042,-0.01918333,0.00095432735,0.06692108,-0.012867022,0.04458737,0.46760133,-1.3768877,1.8967131,-2.083707,-1.5777849,2.4344726,-0.06462369,0.313749,-0.4032506,0.13058303,-0.05510194,-0.10863619,-0.5554548,0.4213795,-9.021352,0.9634547,47.668976,-1.0057101,-1.8081975,-3.5875528,-0.14492765,-0.20326978,-0.21820652,26.5625,27.375,26.5625,29.8125,31.125,31.625
0.31605458,-1.2020755,0.06781492,0.38844436,0.0062843715,0.012066506,-0.12456512,-0.40485808,-0.35226107,0.060026746,-3.0724516,0.61050963,0.00019583138,-0.15085207,-0.018955942,0.0013322595,0.070353106,-0.014229621,0.045892887,0.4674698,-1.3762506,1.8958873,-2.0834424,-1.5779175,2.4342682,-0.06314392,0.31445992,-0.40624228,0.13561586,-0.05755926,-0.10844029,-0.30645782,0.15322891,-8.944737,0.9545008,47.692257,-1.0243518,-1.7393017,-3.5467038,-0.22772136,-0.15935895,-0.2684203,26.5625,27.375,26.5625,29.8125,31.125,31.625
0.3180543,-0.6738777,0.69117564,0.5879887,0.0077451053,0.022442684,-0.12578458,-0.40514362,-0.35230145,0.06000876,-3.0723217,0.61038905,0.00013095631,-0.15152393,-0.019461438,0.0015584854,0.068680726,-0.015296202,0.041441903,0.46734953,-1.3756016,1.8950995,-2.0831788,-1.5780128,2.43409,-0.06402728,0.3157949,-0.40886828,0.13710749,-0.05558687,-0.104878776,-0.2681506,0.114921674,-8.791509,0.9545008,47.687782,-1.061416,-1.6054288,-3.526491,-0.25484446,-0.14146999,-0.2907498,26.5625,27.375,26.5625,29.8125,31.125,31.625
0.32005447,-0.7337755,0.7722102,0.808336,0.00660109,0.017512396,-0.134522,-0.4054437,-0.35232136,0.060003284,-3.0721843,0.6102087,0.00012083647,-0.15426405,-0.019429028,0.0014744409,0.06662249,-0.012636097,0.037197746,0.46720466,-1.3749765,1.8943089,-2.0829046,-1.5781449,2.4338505,-0.06677655,0.31841037,-0.41114414,0.1334531,-0.054970175,-0.10338112,-0.11492168,-0.095768064,-8.791509,1.0037369,47.70211,-0.9795981,-1.7692611,-3.6309507,-0.25509238,-0.14045003,-0.3544714,26.5625,27.375,26.5625,29.8125,31.125,31.625
0.3220547,0.012264811,0.39265594,0.47940925,0.01685401,0.024491725,-0.13360931,-0.40576437,-0.35237208,0.059982803,-3.0720813,0.6100348,8.853025e-05,-0.15748607,-0.02024179,0.0013263555,0.06497126,-0.008806562,0.03452204,0.4670721,-1.374266,1.8934587,-2.0826666,-1.5782408,2.433623,-0.06793891,0.32279253,-0.4152185,0.12897804,-0.055246387,-0.10185814,-0.095768064,-0.13407528,-8.848969,0.8247004,47.687782,-0.7244266,-1.8441046,-3.5248518,-0.23326422,-0.13569121,-0.42027372,26.5625,27.375,26.5625,29.8125,31.125,31.625
0.32405418,-0.51867193,0.6024072,0.68784696,0.0055911485,0.009367361,-0.12541138,-0.40606382,-0.35240662,0.059992123,-3.071952,0.6098909,0.00010758837,-0.16041322,-0.022949062,0.0028845433,0.060315922,-0.0021293547,0.036700547,0.4669527,-1.3736526,1.8926452,-2.0823815,-1.5783724,2.433431,-0.06647106,0.32483461,-0.4202428,0.12387289,-0.05413553,-0.10257015,-0.1340753,-0.095768064,-8.944737,0.99031126,47.684196,-0.9595543,-1.8787508,-3.4213104,-0.13872766,-0.110889785,-0.45065618,26.5625,27.375,26.5625,29.8125,31.125,31.625
0.32605487,-0.5697263,-0.27920052,0.46427095,0.004280288,0.014245616,-0.120070204,-0.4063955,-0.35244253,0.059986603,-3.0718412,0.6097312,0.00015578675,-0.16374107,-0.02332914,0.0028342064,0.057260744,0.0017768765,0.037881244,0.46680787,-1.372979,1.891807,-2.082156,-1.578504,2.433201,-0.06919745,0.32800686,-0.42288917,0.11842887,-0.05321751,-0.10647954,-0.019153614,-0.095768064,-8.90643,0.92093146,47.703903,-0.82544196,-1.8850634,-3.3452475,-0.07025295,-0.10631513,-0.4524505,26.5625,27.375,26.5625,29.8125,31.125,31.625
0.32805428,-1.2217953,-0.16403957,0.16002364,0.00022307655,-0.0036490855,-0.1276877,-0.4066635,-0.3524865,0.059951637,-3.0717075,0.6095854,-1.7411478e-05,-0.16523534,-0.024139741,0.0028444456,0.054329157,0.001882303,0.042818192,0.46668735,-1.3723055,1.8910187,-2.081857,-1.5785636,2.4330072,-0.07059261,0.33035162,-0.42568985,0.11740009,-0.05071697,-0.11282035,-0.17238252,0.11492168,-9.11712,0.9634547,47.696735,-0.764838,-1.9809874,-3.329828,-0.03495657,-0.118603475,-0.42595434,26.5625,27.375,26.5625,29.8125,31.125,31.625
0.33005422,-0.056399,-0.10074138,-0.074831925,-0.012838727,0.027505523,-0.13405004,-0.407028,-0.35253942,0.059979707,-3.0716374,0.609432,0.00011191232,-0.16347304,-0.023580706,0.00026390646,0.05604806,-0.004696082,0.051077377,0.4665432,-1.371632,1.8900999,-2.081617,-1.5786947,2.4327767,-0.070790544,0.3333066,-0.42393973,0.11924902,-0.04933975,-0.12128964,-0.24899697,0.15322891,-9.32781,0.89631605,47.693153,-0.75385165,-1.9920923,-3.5521963,-0.01744311,-0.14034069,-0.34327245,26.5625,27.375,26.5625,29.8125,31.125,31.625
0.33205515,-1.0589471,-0.8995084,-0.1290624,-0.045686834,0.028433293,-0.1372369,-0.4073324,-0.35257223,0.059944224,-3.071508,0.6092457,-9.897744e-06,-0.16319826,-0.023632746,-0.00030297978,0.055965763,-0.007307043,0.059375394,0.4663872,-1.3709227,1.8892745,-2.0813406,-1.5787781,2.4325216,-0.07110879,0.33466867,-0.42489,0.12104101,-0.04816854,-0.12990782,-0.2681506,0.26815057,-9.385271,0.9455522,47.65464,-0.7233324,-1.9948573,-3.8285441,0.002594971,-0.1462803,-0.2963335,26.5625,27.375,26.5625,29.8125,31.125,31.625
0.33405462,-1.5158241,-1.5624017,-0.53559643,-0.056140855,0.023465283,-0.123296954,-0.40765223,-0.35261953,0.059951387,-3.071453,0.6089825,-1.3554752e-05,-0.16277346,-0.023728177,-0.00052906974,0.05585513,-0.010110159,0.064222865,0.46624315,-1.3702742,1.8884267,-2.0810764,-1.5788621,2.4322205,-0.07131424,0.33551702,-0.42622986,0.12392312,-0.04685105,-0.13496841,-0.4405331,0.47884035,-9.519346,0.947788,47.68599,-0.6977399,-1.8524158,-3.936049,-0.018958066,-0.14463188,-0.18963435,26.5625,27.375,26.5625,29.8125,31.125,31.625
0.3360545,-1.5150543,-1.7904915,-0.59896964,-0.06477687,0.04060279,-0.12319061,-0.40795606,-0.35265875,0.0599328,-3.0713441,0.6086887,-0.00013719831,-0.16255581,-0.023483083,-0.00040806868,0.05699062,-0.014473412,0.06656555,0.4660989,-1.3695767,1.887565,-2.0807507,-1.5789455,2.4319072,-0.072027855,0.3370012,-0.4299632,0.13053425,-0.045943998,-0.13802417,-0.45968673,0.49799395,-9.615114,1.0082139,47.705692,-0.70283586,-1.8768244,-3.8593235,-0.05618826,-0.1658538,-0.13674867,26.5625,27.375,26.5625,29.8125,31.125,31.625
0.33805633,-1.1119702,-2.0279655,-0.7891671,-0.059377544,0.056788404,-0.12267705,-0.40831238,-0.35268873,0.05992461,-3.0711987,0.6086009,-9.818667e-05,-0.16206689,-0.024094937,0.00025031404,0.05822382,-0.018514547,0.06656866,0.4659313,-1.3688555,1.8866671,-2.0804965,-1.5790895,2.431704,-0.070912726,0.33852977,-0.43527576,0.13846223,-0.04523315,-0.13691334,-0.47884035,0.51714754,-9.787497,0.9321212,47.68599,-0.73345006,-1.9676613,-3.7501988,-0.13378549,-0.1867244,-0.11915297,26.5625,27.375,26.5625,29.8125,31.125,31.625
0.34005445,-1.032879,-1.1680617,-0.72882587,-0.06724098,0.05405419,-0.13016401,-0.40861624,-0.35276464,0.059939653,-3.0711687,0.6083096,-0.00012557782,-0.16202047,-0.023996778,8.833505e-05,0.059429538,-0.023398079,0.060704358,0.46583515,-1.368206,1.8857931,-2.0802066,-1.5791491,2.43143,-0.0716814,0.34114906,-0.43974668,0.1452452,-0.044089876,-0.13182278,-0.4213795,0.3256114,-9.787497,0.9835985,47.686886,-0.7364737,-1.8936772,-3.608244,-0.23207581,-0.20760256,-0.13545792,26.5625,27.375,26.5625,29.8125,31.125,31.625
0.3420549,-0.8942252,-0.8244204,-0.73893815,-0.043972548,0.036780648,-0.12767914,-0.40895057,-0.3527895,0.059922114,-3.0710435,0.6081138,-0.00018262846,-0.16111301,-0.024186485,-0.0018158634,0.06111743,-0.028705193,0.054762505,0.46565545,-1.3674959,1.8849214,-2.079919,-1.5792564,2.4311447,-0.071042776,0.34527147,-0.44118348,0.14809084,-0.04319208,-0.12524351,-0.40222588,0.40222588,-9.691729,0.92764956,47.658226,-0.77128685,-1.9717582,-3.690423,-0.3050695,-0.22009733,-0.20569378,26.5625,27.375,26.5625,29.8125,31.125,31.625
0.34405425,-1.0206293,-1.1414372,-0.75402373,-0.024352824,0.029546674,-0.11400289,-0.40925893,-0.3528416,0.059905667,-3.0709388,0.6079596,-0.00027186077,-0.1610298,-0.02327915,-0.0036460953,0.06259176,-0.032608543,0.048845094,0.46552277,-1.3667982,1.8840612,-2.0796316,-1.5793284,2.4309297,-0.07271425,0.34837803,-0.44117543,0.14914662,-0.04274827,-0.12099587,-0.36391866,0.38307226,-9.634268,0.9858343,47.698532,-0.6810336,-2.1061735,-3.8362036,-0.33168605,-0.24864815,-0.25563717,26.5625,27.375,26.5625,29.8125,31.125,31.625
0.3460539,-0.5877287,-0.7246479,-0.6947353,-0.032342695,0.033929992,-0.12904136,-0.40960145,-0.35290068,0.059907556,-3.0708497,0.6078058,-0.00030202811,-0.16176055,-0.025626725,-0.0045454376,0.060739405,-0.030258683,0.05004678,0.4653799,-1.366076,1.8831276,-2.079334,-1.5794119,2.4307027,-0.06962381,0.3522798,-0.4428805,0.14401716,-0.042168602,-0.119107254,-0.17238252,0.30645782,-9.691729,0.9925471,47.70211,-0.86573815,-2.263421,-3.9259987,-0.29625347,-0.25902247,-0.2873636,26.5625,27.375,26.5625,29.8125,31.125,31.625
0.34805456,-0.20844077,-0.79755056,-0.559897,-0.060522687,0.040594988,-0.12838444,-0.40994778,-0.35292768,0.059891604,-3.0707188,0.6076628,-0.00037730287,-0.16587202,-0.027008079,-0.002934933,0.056557894,-0.021663075,0.049454927,0.46518758,-1.365343,1.8822187,-2.079026,-1.5795087,2.4304385,-0.070602566,0.35367396,-0.44691056,0.13707314,-0.04234145,-0.11948557,0.0,0.21068975,-9.749189,0.9298854,47.68062,-0.82655704,-2.2354379,-3.9678226,-0.24474025,-0.28630483,-0.32704395,26.5625,27.375,26.5625,29.8125,31.125,31.625
0.350054,0.33715624,-0.7091138,-0.2886629,-0.07656695,0.05556492,-0.1412998,-0.4102796,-0.3530165,0.059909955,-3.0707054,0.6074908,-0.00032407374,-0.17235817,-0.028188467,-0.0001201607,0.05125877,-0.010203702,0.04324916,0.46509036,-1.3646696,1.8813208,-2.078801,-1.5795687,2.4302359,-0.07383012,0.35557342,-0.45422265,0.12988392,-0.04276081,-0.11650051,0.05746084,0.22984336,-9.710882,0.97464454,47.687782,-0.6191878,-2.4429655,-3.7036796,-0.14137125,-0.30795836,-0.37074998,26.5625,27.375,26.5625,29.8125,31.125,31.625
0.35205415,-0.5648076,-1.5532683,-0.7264891,-0.045936722,0.0159549,-0.11526166,-0.41062593,-0.3530728,0.05991412,-3.0706358,0.60733664,-0.0002844195,-0.17400098,-0.030930422,0.0022323807,0.047449607,-0.0030022329,0.05074462,0.46494764,-1.363973,1.8804244,-2.078562,-1.5796646,2.4300063,-0.07056492,0.35463133,-0.45788485,0.12628809,-0.04264098,-0.120729595,0.095768064,0.2681506,-9.595961,0.9567419,47.65912,-0.8484193,-2.1836462,-3.5991492,-0.051003695,-0.32819653,-0.3787272,26.5625,27.375,26.5625,29.8125,31.125,31.625
0.3540545,-0.13715321,-0.6966227,-0.83442044,-0.040262423,0.011507985,-0.11994304,-0.4109909,-0.3531178,0.059908547,-3.0705698,0.60718715,-0.0002975276,-0.17622194,-0.031237958,0.0035902276,0.04582998,0.0013836264,0.051651828,0.46475527,-1.3632404,1.8795036,-2.0783117,-1.5797366,2.4297295,-0.07149794,0.35452437,-0.4606938,0.12452652,-0.04319471,-0.12256198,0.076614454,0.2873042,-9.653421,1.0037369,47.68599,-0.7881135,-1.8896637,-3.6252012,-0.008269261,-0.340477,-0.3916031,26.5625,27.375,26.5625,29.8125,31.125,31.625
0.35605437,0.2545642,-0.016270516,-0.994305,-0.033518285,0.009633072,-0.12696429,-0.411351,-0.35318798,0.059944887,-3.0705214,0.60696214,-0.00015095179,-0.17529976,-0.030192325,0.0017805445,0.048688635,-0.0037369337,0.057933237,0.46464708,-1.3625673,1.878558,-2.0780585,-1.5798687,2.4294872,-0.072215796,0.3570689,-0.46050164,0.1275651,-0.043498494,-0.1295604,0.13407528,0.24899697,-9.691729,0.9701675,47.686886,-0.75823236,-1.9322903,-3.696004,0.034870394,-0.36293894,-0.33231777,26.5625,27.375,26.5625,29.8125,31.125,31.625
0.35805464,0.52716506,-0.24477476,-0.9609465,-0.017452473,0.018950364,-0.13021499,-0.41168952,-0.35325232,0.059899583,-3.0704458,0.60667217,-0.00026865586,-0.17515747,-0.03024037,0.0006583958,0.049839932,-0.005880335,0.06658322,0.46450314,-1.3617613,1.8776387,-2.0778077,-1.5799288,2.4291723,-0.07183122,0.35961604,-0.4614217,0.12828097,-0.04365031,-0.13781914,0.095768064,0.2681506,-9.844957,1.0373062,47.705692,-0.753123,-1.9568576,-3.8913958,0.039823197,-0.38902548,-0.24148966,26.5625,27.375,26.5625,29.8125,31.125,31.625
0.36005393,-0.12522475,-0.6711748,-0.9640883,-0.030289413,0.02133008,-0.11461552,-0.4120449,-0.35332736,0.059941415,-3.0704412,0.606496,-0.00016853672,-0.17444207,-0.028545229,-0.0018811491,0.054852463,-0.012047391,0.07106137,0.46437085,-1.3611116,1.8767074,-2.0775545,-1.5800012,2.4289308,-0.072929,0.3638286,-0.46172634,0.13207148,-0.04540246,-0.14338122,0.019153614,0.24899697,-9.959879,0.9567419,47.709274,-0.77114105,-2.0988915,-4.022334,0.049865052,-0.39514405,-0.14728996,26.5625,27.375,26.5625,29.8125,31.125,31.625
0.3620545,-0.30419815,-0.2995425,-0.9969898,-0.046588633,0.027703544,-0.12872419,-0.4123817,-0.35335794,0.059929214,-3.0703394,0.60626197,-0.00028449777,-0.17498045,-0.028929295,-0.0011693127,0.057232387,-0.014476298,0.07420244,0.46417922,-1.3603907,1.8757948,-2.0772173,-1.5800737,2.4286065,-0.07197287,0.36645702,-0.46832672,0.13924597,-0.046484783,-0.14554839,0.11492168,0.19153613,-9.844957,0.9835985,47.71465,-0.8178493,-2.1794534,-3.9273305,0.008354411,-0.42232794,-0.07162295,26.5625,27.375,26.5625,29.8125,31.125,31.625
0.3640541,-0.2419388,-0.7517283,-0.7943629,-0.03342567,0.021405406,-0.119833305,-0.41274062,-0.353422,0.059933454,-3.07028,0.6059985,-0.00023793516,-0.17351328,-0.028609728,-0.0018640112,0.06007742,-0.022649664,0.0746829,0.4640473,-1.3596584,1.8748487,-2.0769618,-1.5801815,2.428318,-0.07186244,0.36912483,-0.47240904,0.14921385,-0.045370378,-0.14592597,-0.038307227,0.30645782,-9.787497,1.0328293,47.716442,-0.8520425,-2.2160354,-3.7678018,-0.07799628,-0.43172944,-0.068731666,26.5625,27.375,26.5625,29.8125,31.125,31.625
0.3660548,-0.20606107,-0.35475847,-0.65793043,-0.009621432,-0.0057363473,-0.1138641,-0.41310892,-0.35349575,0.059958696,-3.0702188,0.60575914,-0.00012032979,-0.17242885,-0.027407903,-0.0019081514,0.065590814,-0.027298283,0.0694625,0.46393952,-1.358939,1.8738679,-2.0766957,-1.5803145,2.4280689,-0.07117295,0.36996925,-0.47552025,0.15814836,-0.04816796,-0.13999015,-0.15322891,0.24899697,-9.615114,1.0261165,47.71823,-0.8952395,-2.232936,-3.7625365,-0.17040864,-0.43670768,-0.10123405,26.5625,27.375,26.5625,29.8125,31.125,31.625
0.3680546,0.3195995,0.5375402,-0.69784033,0.007677876,-0.023035731,-0.12079949,-0.4134606,-0.35355702,0.059972443,-3.0701406,0.60557306,-0.00013698694,-0.17229308,-0.02591689,-0.0019225935,0.07071937,-0.029373087,0.06343231,0.46379563,-1.3582186,1.872898,-2.0763705,-1.5803999,2.4278193,-0.07126624,0.37067565,-0.4778341,0.1639584,-0.051791247,-0.13401626,0.11492168,0.24899697,-9.634268,0.9097417,47.693153,-0.8957461,-2.1118217,-3.8357308,-0.2578735,-0.4229403,-0.15890296,26.5625,27.375,26.5625,29.8125,31.125,31.625
0.370054,0.59671545,0.23703657,-0.7641439,0.017905002,-0.013397408,-0.122285716,-0.4138001,-0.35359895,0.059984077,-3.0700164,0.6053388,-0.00017290338,-0.17342912,-0.025508052,-0.00080289046,0.072732925,-0.025972607,0.05863783,0.46365157,-1.3575127,1.87194,-2.0759995,-1.580521,2.4275453,-0.070806764,0.36999542,-0.47991642,0.16462071,-0.055099715,-0.1287254,0.019153614,0.17238252,-9.595961,1.0283576,47.711964,-0.99035555,-1.9493341,-3.8844552,-0.29477257,-0.40130895,-0.23025444,26.5625,27.375,26.5625,29.8125,31.125,31.625
0.3720555,-0.011593819,-0.12761295,-0.11665095,-0.008905908,0.015902847,-0.12535644,-0.41413626,-0.3536575,0.059986427,-3.0699234,0.60518426,-0.00024196725,-0.17572762,-0.027357647,0.00074029685,0.07014874,-0.019963576,0.05678917,0.4635082,-1.3567924,1.8709935,-2.0756657,-1.5805925,2.4273179,-0.06931119,0.37092152,-0.48405063,0.16131626,-0.05548732,-0.12537026,-0.095768064,0.095768064,-9.404425,0.9567419,47.67166,-1.0111527,-1.8231418,-3.8228645,-0.25966543,-0.3960665,-0.2906108,26.5625,27.375,26.5625,29.8125,31.125,31.625
