Tylouw/Master_Thesis_Code/training_data/batch_1/small_rod_t0.1/sample_37_session_1.csv
timestamp[s],tcp_force_x[N],tcp_force_y[N],tcp_force_z[N],tcp_force_rx[Nm?],tcp_force_ry[Nm?],tcp_force_rz[Nm?],tcp_pose_x[m],tcp_pose_y[m],tcp_pose_z[m],tcp_pose_rx[rot_vec_x],tcp_pose_ry[rot_vec_y],tcp_pose_rz[rot_vec_z],tcp_velo_x[m/s],tcp_velo_y[m/s],tcp_velo_z[m/s],tcp_velo_rx[rot_vec_x/s],tcp_velo_ry[rot_vec_y/s],tcp_velo_rz[rot_vec_z/s],q1[rad],q2[rad],q3[rad],q4[rad],q5[rad],q6[rad],qd1[rad/s],qd2[rad/s],qd3[rad/s],qd4[rad/s],qd5[rad/s],qd6[rad/s],tool_acc_x,tool_acc_y,tool_acc_z,current_of_whole_robot[A],voltage_of_whole_robot[V],current_J1[A],current_J2[A],current_J3[A],current_J4[A],current_J5[A],current_J6[A],temp_J1[C],temp_J2[C],temp_J3[C],temp_J4[C],temp_J5[C],temp_J6[C]
6.7800283e-07,-0.50799894,0.38729662,1.2986826,-0.013936625,0.00394528,-0.011138978,-0.38108677,-0.3485466,0.059994396,-3.0785663,0.62496513,-8.546072e-05,0.002045114,0.0010290088,-0.0019662646,0.0018424826,-0.0038414549,0.000101953745,0.4777981,-1.425946,1.9576796,-2.1008685,-1.5707458,2.4528008,-2.5350775e-05,-9.180714e-06,0.004572643,-0.0003055098,0.00013936551,-0.00012978804,0.019153614,0.17238252,-8.561666,0.800085,47.691364,-0.022144485,-2.7492182,-2.5675228,-0.4611423,0.070408575,0.035892233,25.5,26.1875,25.375,28.0,28.6875,29.0625
0.002052262,-0.22809789,0.19441648,1.2393633,-0.006029061,0.009388246,-0.008190271,-0.38108027,-0.34852344,0.059979208,-3.0785115,0.6249142,-0.00011989591,-0.00016970614,-0.00012483471,-0.0031706158,-0.0009884102,0.0015829294,0.00010073078,0.47778618,-1.4259326,1.957692,-2.100837,-1.5707816,2.452764,-2.4998708e-05,0.0034496181,0.0058546597,-0.011164964,0.00013671961,-0.00012613343,0.076614454,0.11492168,-8.63828,0.73069996,47.696735,-0.013451406,-2.7465649,-2.5030081,-0.41225457,0.07510832,0.02444942,25.5,26.1875,25.375,28.0,28.6875,29.0625
0.004052058,-0.22306363,0.23799562,1.3776572,-0.00481994,0.005081815,-0.01641746,-0.38105854,-0.34852973,0.05996897,-3.078553,0.6249037,-0.00016546327,-0.0019408342,-0.0010471109,-0.0026385454,-0.0030224647,0.005489571,9.941557e-05,0.47778618,-1.4259562,1.9577507,-2.1008737,-1.5707334,2.452752,-2.465631e-05,0.004573689,0.004251512,-0.01509033,0.00013417193,-0.00012269296,0.038307227,0.1340753,-8.542512,0.7597976,47.690468,-0.03014956,-3.1047704,-2.6747134,-0.29466647,0.06626467,0.047973,25.5,26.1875,25.375,28.0,28.6875,29.0625
0.006052391,0.15945803,1.111242,1.2118047,-0.0042013014,-0.005578223,-0.020267287,-0.3810571,-0.34854248,0.059938204,-3.078545,0.6248637,-0.00019614806,-0.0011062672,-0.0006113411,-0.0017258916,-0.0018165305,0.0031878822,9.578507e-05,0.47781014,-1.4258851,1.9577502,-2.1009195,-1.5707334,2.452752,-2.4323112e-05,0.0028492105,0.00282193,-0.009337812,0.00013171729,-0.000119436394,-0.038307227,0.17238252,-8.695741,0.800085,47.677036,-0.050097633,-3.0408063,-2.5824184,-0.32694048,0.063524276,0.051932864,25.5,26.1875,25.375,28.0,28.6875,29.0625
0.008052506,0.64741397,1.5387197,0.83107936,0.02928425,-0.019665897,-0.022719692,-0.38103488,-0.34851286,0.059922244,-3.0784953,0.62487286,-0.00025644538,-0.0009765607,-0.00054235227,0.00013950779,-0.0018312619,0.0032359478,9.272325e-05,0.47778618,-1.42591,1.9578093,-2.1008942,-1.5707458,2.4527402,-2.3998837e-05,9.536936e-05,0.0005693513,-0.0043808296,0.00012935081,-0.00011634788,-0.019153614,0.17238252,-8.868123,0.7016076,47.691364,-0.07768545,-2.897738,-2.449159,-0.36884195,0.08155359,0.04625185,25.5,26.1875,25.375,28.0,28.6875,29.0625
0.010051795,0.66632754,1.3090969,0.44223768,0.029786734,-0.022496955,-0.0125717,-0.38106748,-0.34852567,0.059949584,-3.0785189,0.6249349,-0.00015894037,-0.00049711263,-0.00029200013,0.00010226392,-0.0010021345,0.0016492216,8.981977e-05,0.47778618,-1.42591,1.9577492,-2.1009047,-1.5707573,2.452776,-2.3683091e-05,1.2795015e-06,0.00026334685,-0.0021904414,0.0001270681,-0.000113415575,0.11492168,0.19153613,-9.11712,0.7732232,47.690468,-0.29220548,-2.1426256,-3.1723468,-0.4003064,0.060524367,0.012387877,25.5,26.1875,25.375,28.0,28.6875,29.0625
0.012051843,0.16450866,0.68980235,0.067907676,-0.005680063,-0.011236219,-0.017756484,-0.38104698,-0.34852192,0.05992667,-3.0784605,0.62484634,-0.00021406462,-0.00043653778,-0.0002474011,-0.0041162744,0.0031274636,-0.006302333,8.4597465e-05,0.47782204,-1.4258703,1.9577483,-2.100869,-1.5707935,2.452764,-4.527927e-05,0.010483309,-0.002273316,-0.0011758229,0.00011327931,-0.00012702834,0.095768064,0.19153613,-9.193734,0.7239871,47.66808,-0.37320012,-2.2695336,-3.4017956,-0.37529266,0.06450303,-0.0069397762,25.5,26.1875,25.375,28.0,28.6875,29.0625
0.014052252,-0.8176578,-0.68413806,-0.105950244,-0.027625099,-0.0011561861,-0.0070403703,-0.38105315,-0.34852192,0.059910588,-3.078474,0.6248126,-0.00032019266,-0.0045984387,-0.0006430803,-0.003837845,0.002798266,-0.0056896475,-0.0030236514,0.47778532,-1.4258202,1.9577225,-2.100845,-1.5707458,2.4527044,-0.0031974665,0.017284555,-0.010923999,-2.1822934e-05,0.000107656626,-0.00016573956,0.0,0.21068975,-9.308657,0.7396539,47.634937,-0.42550343,-2.7684333,-3.2461119,-0.37727886,0.05099024,-0.05326651,25.5,26.1875,25.375,28.0,28.6875,29.0625
0.01605226,-1.291767,-1.2277668,-0.26080543,-0.059341453,0.025819143,-0.020132206,-0.38105085,-0.34851575,0.05991278,-3.0784326,0.6248981,-0.00033782827,-0.0059209014,0.0003733487,-0.0031855565,0.0029346577,-0.005950694,-0.0012031808,0.4777839,-1.4258204,1.9577092,-2.100808,-1.5707573,2.4527617,-0.0062276856,0.017272403,-0.012925875,0.0022859757,0.000105611114,-0.0050158817,-0.22984336,0.38307226,-9.519346,0.81351066,47.68599,-0.1326117,-2.5496595,-3.3278017,-0.39804724,0.05496025,-0.028739717,25.5,26.1875,25.375,28.0,28.6875,29.0625
0.018052071,-1.5158024,-1.5237781,-0.47939807,-0.07230109,0.050526295,-0.024551833,-0.38105512,-0.34851816,0.059887152,-3.0784178,0.6248163,-0.00039763693,-0.0054563596,0.0003966683,-0.003473661,0.0037512467,-0.007522792,0.0036452424,0.47778416,-1.4257481,1.9576854,-2.1008074,-1.5707573,2.4527128,-0.005838344,0.017862145,-0.013292568,0.00383376,0.00010385429,-0.009474998,-0.24899697,0.51714754,-9.634268,0.779936,47.733456,-0.22113797,-2.3314486,-3.4361286,-0.411164,0.0557354,0.021194505,25.5,26.1875,25.375,28.0,28.6875,29.0625
0.02005204,-1.9214141,-1.9056551,-0.5355378,-0.0656528,0.05720427,-0.028598024,-0.38104722,-0.34850746,0.059854817,-3.0783665,0.6248052,-0.0005000936,-0.0060939677,-0.00042012415,-0.0038492929,0.0038640886,-0.007753024,0.0056577516,0.4777724,-1.4256872,1.9576844,-2.1007836,-1.5707573,2.4527006,-0.0049780547,0.020810755,-0.015739644,0.003588381,0.00010216899,-0.010625471,-0.2873042,0.6703765,-9.787497,0.7620334,47.661808,-0.36193883,-2.3934739,-3.5184922,-0.4021049,0.05463779,0.020114437,25.5,26.1875,25.375,28.0,28.6875,29.0625
0.022052074,-1.9381267,-1.4790585,-0.593945,-0.07209063,0.059722338,-0.032950744,-0.3810495,-0.34851927,0.05985451,-3.0784073,0.6247944,-0.0005455971,-0.007437137,-0.0009089295,-0.003260564,0.0030390776,-0.0061702165,0.005178775,0.4777603,-1.4256748,1.957671,-2.100784,-1.5707096,2.4526765,-0.0053526536,0.022006739,-0.018369056,0.0032374198,0.000100538506,-0.010519502,-0.5554548,0.7278373,-9.883265,0.7418897,47.684196,-0.47836518,-2.35121,-3.480305,-0.387252,0.039493565,0.007538529,25.5,26.1875,25.375,28.0,28.6875,29.0625
0.024052205,-2.0249622,-1.5430831,-0.55366266,-0.06218887,0.052964974,-0.03830209,-0.38109162,-0.3485235,0.059876584,-3.0783863,0.624829,-0.0004532387,-0.008992002,-0.0011109655,-0.0023334287,0.0018836253,-0.003948539,0.005154184,0.47775978,-1.4256389,1.9575742,-2.1007602,-1.5707573,2.4527004,-0.00643203,0.022262802,-0.020678354,0.0027858107,9.89592e-05,-0.011572984,-0.47884035,0.59376204,-9.940725,0.7486078,47.684196,-0.39318722,-2.304622,-3.4855096,-0.38280848,0.035231177,-0.015082058,25.5,26.1875,25.375,28.0,28.6875,29.0625
0.026052501,-1.1782067,-0.99105155,-0.570375,-0.07003483,0.057226304,-0.05576561,-0.38110134,-0.34852812,0.059846137,-3.0783799,0.6248469,-0.0005485935,-0.009789512,-0.0011368576,-0.002161186,0.0017617664,-0.0037168474,0.0041398085,0.47773567,-1.4255546,1.9575504,-2.1007717,-1.5707215,2.4526882,-0.0071237246,0.023261547,-0.022292858,0.0031402516,9.749463e-05,-0.011249405,-0.45968673,0.45968673,-9.902418,0.7329411,47.678825,-0.46644175,-2.2623203,-3.5274591,-0.38823563,0.02067966,-0.0021294435,25.5,26.1875,25.375,28.0,28.6875,29.0625
0.02805272,-1.0596374,-0.7705489,-0.4374781,-0.056945354,0.045535166,-0.06652538,-0.38111514,-0.34850383,0.059835326,-3.0783248,0.6247792,-0.00055914675,-0.011354737,-0.0009575295,-0.001935604,0.0015713951,-0.0032482583,0.002447505,0.477711,-1.425518,1.9575251,-2.1007354,-1.5707697,2.4526284,-0.0088587785,0.025030319,-0.024902206,0.0034768125,4.56213e-05,-0.011290524,-0.51714754,0.36391866,-9.787497,0.7329411,47.704796,-0.53131926,-2.3339376,-3.5310726,-0.3774897,0.032160036,-0.009965202,25.5,26.1875,25.375,28.0,28.6875,29.0625
0.03005199,-1.078321,-0.069255605,-0.30131653,-0.041768122,0.047022846,-0.07934652,-0.3811348,-0.3485294,0.05982197,-3.0783434,0.6247837,-0.0005823512,-0.012457046,-0.0010355255,-0.0018934357,0.0014135549,-0.002943342,0.0013906726,0.47772267,-1.4254336,1.957465,-2.1007602,-1.5707458,2.4526405,-0.009738833,0.026738133,-0.026946219,0.00346997,4.1339397e-05,-0.011112437,-0.4405331,0.28730422,-9.787497,0.784413,47.703007,-0.5005144,-2.3218288,-3.5580344,-0.35253412,0.03250661,-0.017489048,25.5,26.1875,25.375,28.0,28.6875,29.0625
0.032051995,-1.1905998,0.47629255,-0.11236692,-0.021172892,0.04529061,-0.091363184,-0.38117823,-0.34852952,0.05982385,-3.0783532,0.6248245,-0.000579147,-0.013618888,-0.0012600729,-0.0019415832,0.0012384496,-0.0026143836,0.0006700934,0.4776746,-1.425373,1.9573916,-2.1007602,-1.5707334,2.4526167,-0.010414283,0.02886945,-0.029214248,0.0032341955,4.0204606e-05,-0.011065777,-0.34476504,0.22984336,-9.672575,0.73741806,47.691364,-0.46532345,-2.2953448,-3.5306988,-0.33936346,0.016866436,-0.04811449,25.5,26.1875,25.375,28.0,28.6875,29.0625
0.03405215,-1.0097907,0.5123942,-0.0025629806,0.006587895,0.043222312,-0.09746371,-0.38123497,-0.3485565,0.05985302,-3.0784245,0.62478083,-0.00049057644,-0.015583,-0.0016888982,-0.0010030266,0.00012620902,-0.00048060005,0.00072453596,0.4776622,-1.4253247,1.9572724,-2.1007717,-1.5707215,2.452568,-0.011468981,0.030199291,-0.032855757,0.003139604,3.9312712e-05,-0.012172849,-0.2681506,0.019153614,-9.634268,0.79560274,47.67614,-0.5827118,-2.2798266,-3.5020785,-0.33512503,0.0186185,-0.043804154,25.5,26.1875,25.375,28.0,28.6875,29.0625
0.03605164,-0.955522,0.84673476,0.0037588673,0.021025931,0.039228246,-0.115238,-0.38125739,-0.34854552,0.05983563,-3.0783777,0.6248482,-0.0004931528,-0.017482664,-0.002042017,-4.3994525e-05,-0.00088430446,0.0014564912,0.00011468998,0.47763777,-1.4252642,1.9572462,-2.100784,-1.5707458,2.4525917,-0.012599036,0.031408012,-0.03648038,0.0033703186,3.847157e-05,-0.012691087,-0.22984336,-0.05746084,-9.691729,0.7665104,47.66808,-0.503785,-2.2730865,-3.371994,-0.31447244,0.01667254,-0.06767427,25.5,26.1875,25.375,28.0,28.6875,29.0625
0.038052686,-0.5393961,0.61442876,-0.045144364,0.02653345,0.041385666,-0.12678047,-0.38126594,-0.34853902,0.05979075,-3.0783026,0.6248718,-0.0005989313,-0.018222889,-0.0020199742,0.00019767604,-0.0008221387,0.0013610853,0.00031381098,0.47762564,-1.4251443,1.957209,-2.1007712,-1.5707573,2.4526038,-0.013313987,0.03236736,-0.038367525,0.0044111875,2.3696426e-05,-0.013604245,-0.22984336,-0.076614454,-9.634268,0.67475104,47.68599,-0.5027805,-2.2531083,-3.4043803,-0.29472703,0.0046588834,-0.06919572,25.5,26.1875,25.375,28.0,28.6875,29.0625
0.040051956,-0.6759249,0.78399515,-0.2017646,0.01952982,0.03157134,-0.13800883,-0.38133115,-0.3485655,0.0598302,-3.0784032,0.6248163,-0.0005184798,-0.019273143,-0.0018591402,0.00016381718,-0.00049596856,0.0007387786,-0.00073848997,0.47758907,-1.4251076,1.9570769,-2.1007707,-1.5707215,2.45252,-0.014566828,0.034332316,-0.04079751,0.0055792956,1.87647e-05,-0.01380347,-0.19153613,-0.095768064,-9.576807,0.79560274,47.694054,-0.55018854,-2.2153778,-3.3538835,-0.29778814,0.0031692209,-0.067240626,25.5,26.1875,25.375,28.0,28.6875,29.0625
0.04205212,-0.74382657,0.33999926,-0.22387232,0.021035656,0.021398885,-0.13829015,-0.38135913,-0.34855098,0.059822656,-3.0783432,0.6248998,-0.0005398711,-0.019624613,-0.0021329615,0.00010216992,0.000120572135,-0.00041723976,-0.0006984984,0.47755313,-1.4250472,1.9570168,-2.100734,-1.5707458,2.4525437,-0.014393986,0.036183637,-0.043191332,0.0074316016,1.2252007e-06,-0.013669458,-0.19153613,-0.019153614,-9.557653,0.7620334,47.687782,-0.58524084,-2.242971,-3.3811417,-0.31456807,0.0010034505,-0.06541976,25.5,26.1875,25.375,28.0,28.6875,29.0625
0.044052362,-1.0292091,-0.13268793,-0.18804337,0.018069038,0.014326448,-0.14030626,-0.38141215,-0.34856293,0.059832525,-3.078344,0.6248823,-0.00048575416,-0.020933341,-0.0020855286,0.00095062394,-0.0004369129,0.00065780955,-0.0031669047,0.47754073,-1.4249631,1.9568957,-2.100722,-1.5707697,2.4525204,-0.015686613,0.03650197,-0.0457249,0.008435712,7.999685e-08,-0.012492555,-0.1340753,0.05746084,-9.595961,0.7553206,47.70032,-0.56170774,-2.1970758,-3.2968996,-0.32179278,-0.0009665102,-0.09767426,25.5,26.1875,25.375,28.0,28.6875,29.0625
0.046051983,-0.6546871,0.13515937,-0.26461697,0.0005581639,0.03478254,-0.15364131,-0.38146847,-0.34858316,0.059862312,-3.0784082,0.6248751,-0.0003978904,-0.021582445,-0.0021588486,0.00057484664,3.111452e-05,-0.00024956683,-0.003979024,0.47751653,-1.4249264,1.9567884,-2.1007335,-1.5707573,2.4524837,-0.016155647,0.038778517,-0.047605995,0.009061443,5.2232223e-09,-0.012148288,-0.21068975,0.095768064,-9.500193,0.78217715,47.690468,-0.5609981,-2.1853144,-3.4027634,-0.31574994,-0.0075018806,-0.10653444,25.5,26.1875,25.375,28.0,28.6875,29.0625
0.0480523,-0.66708136,0.17421241,-0.19477934,-0.0067693866,0.03546026,-0.15668608,-0.3814859,-0.34857875,0.059846126,-3.0783718,0.62482977,-0.00048538056,-0.02202814,-0.0022706096,-9.905755e-05,0.0011588786,-0.0024338511,-0.0042981305,0.4774925,-1.4248416,1.956715,-2.1006734,-1.5707573,2.452436,-0.016370492,0.04199192,-0.050138723,0.010839026,3.410391e-10,-0.012042601,-0.17238252,0.17238253,-9.5385,0.683705,47.689575,-0.54777837,-2.1431103,-3.3848743,-0.29771793,-0.03500683,-0.11665419,25.5,26.1875,25.375,28.0,28.6875,29.0625
0.050051857,-1.0404497,-0.5012787,-0.25514558,-0.012511824,0.033153493,-0.14808103,-0.38154522,-0.34857994,0.05985757,-3.0783548,0.62496096,-0.00049599435,-0.02309467,-0.0024160906,0.0013069238,5.385662e-05,-0.00030389908,-0.004765863,0.47743228,-1.424758,1.9565824,-2.1006253,-1.5707458,2.4524598,-0.017093621,0.04079208,-0.052177466,0.01167818,2.2267417e-11,-0.012297336,-0.15322891,0.28730422,-9.442732,0.7284641,47.67166,-0.57610023,-2.0857584,-3.4215674,-0.32423306,-0.016999777,-0.13356188,25.5,26.1875,25.375,28.0,28.6875,29.0625
0.052051734,-0.94844645,-0.7762216,-0.07518498,-0.023288298,0.036747146,-0.1445559,-0.38156113,-0.3485835,0.059826452,-3.0783467,0.6249401,-0.00057935313,-0.02390099,-0.002401269,0.0013918553,0.0012604903,0.00059836276,-0.0038011454,0.4774083,-1.424662,1.9565467,-2.1006367,-1.570722,2.4524238,-0.016896999,0.042146917,-0.053964313,0.0118688615,-0.0014907543,-0.01306132,-0.22984336,0.36391866,-9.519346,0.7665104,47.666286,-0.58347464,-1.9447939,-3.3754907,-0.31875685,-0.014964075,-0.11887608,25.5,26.1875,25.375,28.0,28.6875,29.0625
0.05405193,-0.72097075,-1.0950063,-0.14450665,-0.03080956,0.033810318,-0.13594848,-0.3816618,-0.34859544,0.059867162,-3.078371,0.6249833,-0.00042624935,-0.02527079,-0.0020331317,0.0012311946,0.0025488234,0.00053728686,-0.0048132404,0.47735992,-1.424577,1.956354,-2.1006253,-1.5707582,2.4523995,-0.018087184,0.04467332,-0.05667085,0.012698655,-0.0026097575,-0.013235787,-0.17238252,0.4405331,-9.615114,0.7933669,47.682407,-0.5405524,-2.1123648,-3.42723,-0.33456582,-0.017966852,-0.12698497,25.5,26.1875,25.375,28.0,28.6875,29.0625
0.05605236,-0.7351235,-1.2634861,-0.3291947,-0.041396514,0.02598959,-0.13494247,-0.38172087,-0.3485946,0.059886396,-3.078377,0.6249846,-0.0003841831,-0.026917806,-0.0027720104,0.0014773912,0.0021802713,0.0014396511,-0.0046399627,0.47731185,-1.4245161,1.9562324,-2.100589,-1.5707706,2.4523516,-0.018233415,0.047693886,-0.06068802,0.012724442,-0.0027053775,-0.013552687,-0.15322891,0.49799395,-9.5385,0.779936,47.655537,-0.5994817,-2.0910187,-3.2287555,-0.32199228,-0.0057685915,-0.15016085,25.5,26.1875,25.375,28.0,28.6875,29.0625
0.058052473,-0.8777858,-1.4618374,-0.39582577,-0.039847143,0.013181012,-0.12232709,-0.38173562,-0.3486028,0.05987356,-3.0783226,0.6249157,-0.0004253114,-0.025956305,-0.002460478,-0.00035254218,0.0037971335,-0.0027078912,-0.004483041,0.47733593,-1.4244193,1.9561375,-2.1005285,-1.5708064,2.4523396,-0.01820689,0.05044902,-0.059841402,0.013547276,-0.0022332692,-0.013684012,-0.095768064,0.4213795,-9.5385,0.71279734,47.70659,-0.5848796,-2.1899805,-3.4340343,-0.33417538,-0.020779386,-0.16212252,25.5,26.1875,25.375,28.0,28.6875,29.0625
0.060051806,-1.0584224,-1.4451568,-0.28304136,-0.03388122,0.003732929,-0.12454429,-0.38183042,-0.348627,0.059916936,-3.0783937,0.62500674,-0.0003161347,-0.028023513,-0.0030295395,0.0016936299,0.001294559,0.0012708252,-0.0052788616,0.47727543,-1.4243479,1.9559568,-2.1005285,-1.5707821,2.452327,-0.01935187,0.049344998,-0.06321323,0.013338172,-0.0018446596,-0.01403259,-0.13407528,0.47884035,-9.442732,0.7732232,47.683304,-0.5907371,-2.0299623,-3.4397407,-0.34406763,-0.02228103,-0.15599763,25.5,26.1875,25.375,28.0,28.6875,29.0625
0.062052082,-0.68168235,-1.0852175,0.056445014,-0.032581944,0.015970308,-0.12868135,-0.3818645,-0.34861344,0.059889704,-3.0783458,0.6249403,-0.00040390616,-0.030865688,-0.0046468154,0.002810024,-0.00084694894,0.0048359088,-0.0051976996,0.47722754,-1.424227,1.9558705,-2.1004817,-1.570794,2.4522438,-0.019265667,0.05266734,-0.069231056,0.011882095,-0.0015973483,-0.014024059,-0.038307227,0.57460845,-9.346964,0.7463667,47.675243,-0.5798135,-2.051499,-3.2017508,-0.33987337,-0.0448322,-0.17075107,25.5,26.1875,25.375,28.0,28.6875,29.0625
0.06405204,-1.0767047,-1.2249981,-0.030816201,-0.019821184,0.015636869,-0.11718562,-0.38194427,-0.34862313,0.059909508,-3.0783696,0.6250976,-0.00035775217,-0.030213527,-0.0043252897,0.0009637084,0.00055144064,0.0016066713,-0.0039956635,0.4771555,-1.4241421,1.9557284,-2.1004817,-1.5707701,2.452267,-0.01938681,0.055460043,-0.06811167,0.0114799,-0.0013544477,-0.015347839,-0.1340753,0.5554548,-9.32781,0.800085,47.705692,-0.59694433,-2.097337,-3.3248572,-0.32499897,-0.032369807,-0.17483214,25.5,26.1875,25.375,28.0,28.6875,29.0625
0.06605178,-0.8858331,-1.0894092,0.08493104,-0.025365565,0.02495673,-0.12063322,-0.38200086,-0.34865013,0.05990998,-3.0783799,0.62510043,-0.00036864218,-0.032412905,-0.004899072,0.0019961516,-0.0012760548,0.0041920217,-0.0048781433,0.47714302,-1.4240099,1.955571,-2.100458,-1.5707577,2.452255,-0.02067359,0.05677854,-0.07181086,0.0107232835,-0.0009282135,-0.015750753,-0.11492168,0.5554548,-9.289502,0.76874626,47.71554,-0.5322157,-2.0782435,-3.2401917,-0.3170922,-0.068198346,-0.19343391,25.5,26.1875,25.375,28.0,28.6875,29.0625
0.06805172,-0.5683905,-0.862975,0.32685748,-0.028453635,0.027868187,-0.13148226,-0.38205832,-0.34865522,0.059904855,-3.0783553,0.62513316,-0.0003726475,-0.03333097,-0.0053254967,0.0021564863,-0.0014825289,0.004675846,-0.003665658,0.477107,-1.4238896,1.9554399,-2.100434,-1.5707701,2.4522426,-0.020732686,0.05846082,-0.07412959,0.0108348485,-0.0009723217,-0.017020846,-0.05746084,0.45968673,-9.270349,0.7418897,47.704796,-0.5771706,-2.054895,-3.2174277,-0.31096932,-0.044841975,-0.19992,25.5,26.1875,25.375,28.0,28.6875,29.0625
0.070051804,-1.0331136,-1.1034006,0.14072709,-0.012625789,0.00978196,-0.115877114,-0.38215032,-0.34867656,0.0599368,-3.0784025,0.62506425,-0.00022044915,-0.03444953,-0.005949967,0.0026147114,-0.0020521483,0.0058857203,-0.0030480768,0.4770831,-1.4237932,1.9552597,-2.100446,-1.5708059,2.45217,-0.020617789,0.0599294,-0.07683481,0.010734619,-0.001026351,-0.017521929,-0.038307227,0.38307226,-9.232041,0.71951014,47.672558,-0.58113396,-2.0400193,-3.1410303,-0.29827598,-0.06256877,-0.20904715,25.5,26.1875,25.375,28.0,28.6875,29.0625
0.07205188,-0.5235483,-0.5905573,0.3587135,-0.014597062,0.01755698,-0.12796514,-0.3822208,-0.3487038,0.059939384,-3.0784512,0.6250927,-0.00023817865,-0.0353961,-0.006109361,0.0024896907,-0.0015857004,0.0060341666,-0.0024621368,0.47703502,-1.4236606,1.9551023,-2.100446,-1.5707577,2.4521334,-0.020888459,0.06205651,-0.07901686,0.010874289,-0.001512814,-0.01837631,-0.1340753,0.3256114,-9.212888,0.7732232,47.6636,-0.58257914,-2.0792127,-3.1527936,-0.29197583,-0.048568163,-0.23189634,25.5,26.1875,25.375,28.0,28.6875,29.0625
0.07405183,-0.9819542,-0.43382236,0.45681208,-0.006949127,0.0038606436,-0.12691838,-0.38225973,-0.34870568,0.059931725,-3.0784154,0.6250662,-0.00028455912,-0.036494847,-0.0060174232,0.0024907938,-0.0008189333,0.006082479,-0.001843769,0.4770107,-1.4235524,1.9549826,-2.1003864,-1.5707706,2.4520972,-0.021604704,0.06406539,-0.08149784,0.011657604,-0.0022209408,-0.019708157,-0.15322891,0.26815057,-9.059659,0.77545905,47.661808,-0.6480359,-2.063776,-3.1701365,-0.29930997,-0.051156864,-0.23234084,25.5,26.1875,25.375,28.0,28.6875,29.0625
0.076052345,-0.3485043,0.5737455,0.6185713,-0.017366292,0.021453982,-0.13105002,-0.38234973,-0.3487211,0.059944388,-3.078447,0.6250146,-0.00021523118,-0.03773464,-0.0065460466,0.0029424587,-0.0013196123,0.0073168576,-0.0010575227,0.47696263,-1.42342,1.9548024,-2.100386,-1.5707825,2.452013,-0.021722373,0.06561775,-0.084290475,0.011571382,-0.002348117,-0.020610308,-0.1340753,0.30645782,-9.078813,0.7642693,47.64927,-0.6142408,-2.0467477,-3.1451545,-0.28637794,-0.055379376,-0.24373469,25.5,26.1875,25.375,28.0,28.6875,29.0625
0.07805243,-0.51522255,0.21858308,0.4310361,-0.006911346,0.020496065,-0.1340793,-0.38242748,-0.34874758,0.05995027,-3.0784624,0.62507504,-0.00025311828,-0.038478576,-0.006769682,0.0018372438,-0.00033278484,0.005129877,-0.00070525944,0.4769146,-1.4232627,1.9545983,-2.1003373,-1.5707468,2.4520009,-0.022087952,0.06999317,-0.086920425,0.012221938,-0.0022250158,-0.021326508,-0.15322891,0.30645782,-9.059659,0.7284641,47.70211,-0.6713064,-2.056888,-3.1026354,-0.2849992,-0.06427487,-0.24407764,25.5,26.1875,25.375,28.0,28.6875,29.0625
0.08005245,-0.7962893,-0.3206487,0.3423119,0.0049874927,0.018947558,-0.12618269,-0.38250387,-0.34873623,0.05995307,-3.0784197,0.6251425,-0.00019088705,-0.039167967,-0.007150421,0.0026541988,-0.0011207319,0.0062162117,0.00014463706,0.47685456,-1.4231545,1.9544657,-2.1003258,-1.570794,2.4519885,-0.022170587,0.069868125,-0.08880625,0.0129039725,-0.0020257994,-0.02225865,-0.17238252,0.19153613,-9.136273,0.7777002,47.70659,-0.6481645,-2.1862512,-3.0862331,-0.28290623,-0.072166726,-0.25952512,25.5,26.1875,25.375,28.0,28.6875,29.0625
0.08205438,-0.6224118,-0.090261884,0.21662876,-0.005652031,0.025270248,-0.13133572,-0.38257405,-0.34874803,0.05994011,-3.0783997,0.62511903,-0.00020932071,-0.0399877,-0.0073209526,0.0029853706,-0.0015061696,0.006590359,0.00013798688,0.47681835,-1.422986,1.9542974,-2.1003015,-1.5708059,2.4519403,-0.022727428,0.070743054,-0.090686455,0.0133988885,-0.0018584916,-0.02280814,-0.28730422,0.17238252,-9.193734,0.7642693,47.684196,-0.6983162,-1.9633062,-3.1091905,-0.2615773,-0.08080079,-0.25387272,25.5,26.1875,25.375,28.0,28.6875,29.0625
0.0840526,-0.8653199,-0.45283386,0.19350691,-0.0043541742,0.026422549,-0.119199686,-0.3826688,-0.3487881,0.059952203,-3.0784383,0.625087,-0.00017866331,-0.04032823,-0.007392568,0.0017672161,-0.00015753809,0.0040545943,0.0012934692,0.47679427,-1.4228047,1.9540571,-2.1002777,-1.570794,2.4518914,-0.022887355,0.074662186,-0.09258731,0.014252617,-0.0018945329,-0.024122175,-0.17238252,0.19153613,-9.251195,0.7978386,47.68062,-0.76201487,-2.0320954,-3.1597145,-0.28217107,-0.10009213,-0.25533432,25.5,26.1875,25.375,28.0,28.6875,29.0625
0.08605205,-0.770434,-0.06884821,0.226991,-0.015608608,0.03581552,-0.12840076,-0.3827266,-0.34877503,0.059931163,-3.0783832,0.62517095,-0.00028096564,-0.041069847,-0.007411457,0.0019541318,0.00018388152,0.004456372,0.0020373669,0.47671026,-1.4226599,1.953926,-2.100217,-1.5707825,2.4518669,-0.023210965,0.07566767,-0.09428655,0.014747795,-0.0023866538,-0.02518775,-0.17238252,0.24899697,-9.270349,0.8314132,47.688675,-0.7031206,-2.244018,-3.0985665,-0.2788006,-0.07167217,-0.2557412,25.5,26.1875,25.375,28.0,28.6875,29.0625
0.088052064,-0.8059853,-0.042314958,0.44581148,-0.01168816,0.032924358,-0.12655893,-0.38283652,-0.34880555,0.059960987,-3.0784154,0.62510085,-0.00015787376,-0.04243749,-0.007962324,0.002328906,0.00015523397,0.0054602646,0.0029480166,0.47668615,-1.4225031,1.9536732,-2.1001933,-1.5708183,2.451795,-0.02320377,0.07787009,-0.09775136,0.015105517,-0.0028268285,-0.026088616,-0.19153613,0.15322891,-9.289502,0.8985519,47.705692,-0.7020776,-2.0790522,-3.1866546,-0.27937913,-0.089018255,-0.2441291,25.5,26.1875,25.375,28.0,28.6875,29.0625
0.090052046,-0.9960454,-0.4781144,0.20322876,-0.0053484067,0.024814868,-0.123312585,-0.38289565,-0.34881353,0.05993671,-3.0783944,0.62509596,-0.00023080652,-0.04178966,-0.0073888833,0.0005318058,0.0017921432,0.0022967774,0.0029182946,0.47663805,-1.4223342,1.9535302,-2.1001694,-1.5708064,2.4517467,-0.023617698,0.0802898,-0.096370295,0.014866766,-0.0028286895,-0.026472965,-0.19153613,0.17238252,-9.308656,0.7709874,47.67614,-0.77721775,-2.14365,-3.234461,-0.2738751,-0.08506324,-0.27067947,25.5,26.1875,25.375,28.0,28.6875,29.0625
0.09205212,-0.2558511,0.15054768,0.33815378,-0.02309729,0.04290094,-0.13727394,-0.3830025,-0.34881955,0.059944447,-3.0783865,0.625113,-0.00017895667,-0.04304109,-0.007812892,0.00052652264,0.0018232722,0.0023241492,0.0035798894,0.47656593,-1.422165,1.9533137,-2.100145,-1.5708307,2.4516864,-0.02398081,0.08303834,-0.09962579,0.015362792,-0.0028744156,-0.027495723,-0.2681506,0.22984336,-9.32781,0.7933669,47.682407,-0.7934742,-2.1912937,-3.3283925,-0.25484172,-0.093154244,-0.26179594,25.5,26.1875,25.375,28.0,28.6875,29.0625
0.09405216,-0.91716564,-0.042409465,0.2106923,-0.016685199,0.021667687,-0.129313,-0.38308743,-0.3488411,0.05995158,-3.0784068,0.6250982,-0.00017836451,-0.04281781,-0.0072929547,-0.0007144624,0.0031141706,-0.00025411398,0.0033173375,0.47651777,-1.422008,1.9531096,-2.1001089,-1.5708183,2.4516265,-0.024714628,0.08513467,-0.09930613,0.015829945,-0.002836923,-0.027967032,-0.2681506,0.2873042,-9.423578,0.7777002,47.687782,-0.79157823,-2.2042727,-3.2370558,-0.26214242,-0.10610831,-0.27263814,25.5,26.1875,25.375,28.0,28.6875,29.0625
0.096052654,-0.60452896,-0.12116245,0.1353454,-0.015322097,0.026908522,-0.12634005,-0.38317278,-0.34885427,0.05995867,-3.0783734,0.6251096,-0.0001176862,-0.044188913,-0.0077885436,0.00020084978,0.0024493488,0.0015539675,0.0036351166,0.47649363,-1.4218516,1.9529065,-2.100073,-1.5708665,2.451614,-0.024934987,0.0859401,-0.10242063,0.01622675,-0.0030811576,-0.028503196,-0.21068975,0.2681506,-9.385271,0.7911258,47.675243,-0.845838,-2.130073,-3.4048262,-0.253441,-0.11395625,-0.29935867,25.5,26.1875,25.375,28.0,28.6875,29.0625
0.098051906,-0.94490856,-0.54914653,-0.019734249,-0.014459118,0.019358434,-0.11785564,-0.3832362,-0.34886876,0.059940197,-3.0783691,0.62510824,-0.00018607217,-0.044221483,-0.007476004,-0.0005898724,0.003928018,2.8767163e-05,0.0037334731,0.47644567,-1.4216828,1.9527501,-2.1000488,-1.5708431,2.4515657,-0.025114853,0.08782995,-0.10294116,0.016893642,-0.0036963855,-0.028779792,-0.19153613,0.22984336,-9.442732,0.7083204,47.70838,-0.8483663,-2.1627884,-3.445939,-0.25341094,-0.11686904,-0.30179578,25.5,26.1875,25.375,28.0,28.6875,29.0625
0.10005487,-0.91085887,-0.5203428,0.09209346,-0.014994198,0.01750328,-0.12013114,-0.38332525,-0.34888777,0.059943695,-3.0783694,0.6250699,-0.0002012916,-0.045487434,-0.00752049,-0.00025284736,0.004149112,0.0013055283,0.003928468,0.47639728,-1.4215024,1.9525222,-2.0999892,-1.5708431,2.4514935,-0.025683401,0.08912917,-0.1051943,0.016816873,-0.0044841096,-0.029540548,-0.19153613,0.24899697,-9.423578,0.75755644,47.705692,-0.8713417,-2.126623,-3.4677474,-0.2519386,-0.095137,-0.32048923,25.5,26.1875,25.375,28.0,28.6875,29.0625
0.102052175,-0.49681067,-0.46109244,0.15453525,-0.013303345,0.026049843,-0.13374811,-0.383441,-0.3489096,0.059960656,-3.0783846,0.6250915,-0.00013370108,-0.045812957,-0.007476392,-0.0006251168,0.005028217,0.00066776254,0.0052804346,0.4763374,-1.4213215,1.9522709,-2.0999644,-1.5708555,2.4514453,-0.025734775,0.09074007,-0.10630965,0.017292019,-0.004973367,-0.030942539,-0.095768064,0.28730422,-9.404425,0.84708,47.690468,-0.87961066,-2.0086634,-3.5190787,-0.23089465,-0.09290985,-0.3329852,25.5,26.1875,25.375,28.0,28.6875,29.0625
0.104052156,-0.75473666,-0.44996017,-0.03198612,-0.013584465,0.017455356,-0.1210346,-0.38352454,-0.34891888,0.059950914,-3.07837,0.62508774,-0.00016286182,-0.046820488,-0.0074508605,-0.00022658042,0.0054765455,0.0021158715,0.0062082536,0.47627723,-1.4211411,1.9520787,-2.0999286,-1.570856,2.4513848,-0.026007142,0.091446616,-0.10802873,0.017226452,-0.0060408334,-0.03213974,-0.076614454,0.2873042,-9.442732,0.83365434,47.647476,-0.90994996,-2.009153,-3.4881196,-0.2149685,-0.07970622,-0.3224396,25.5,26.1875,25.375,28.0,28.6875,29.0625
0.10605205,-0.5143363,-0.31713384,-0.11875412,-0.022995863,0.018283175,-0.12576738,-0.38363066,-0.3489246,0.059942257,-3.0783367,0.6250805,-0.00017083062,-0.047491282,-0.007240016,-0.0001285658,0.006068239,0.0023056788,0.0050298506,0.47620508,-1.4209247,1.9518398,-2.099881,-1.5708798,2.4513125,-0.026588751,0.09229615,-0.10938135,0.017833306,-0.006655883,-0.031541023,0.038307227,0.19153613,-9.5385,0.79560274,47.68062,-0.84604454,-1.9889275,-3.7483191,-0.2098459,-0.084551245,-0.34353083,25.5,26.1875,25.375,28.0,28.6875,29.0625
0.10805201,-0.3788942,-0.68781906,0.03359663,-0.017118346,0.012247871,-0.121136226,-0.38372242,-0.34895867,0.059948258,-3.0783849,0.62499434,-0.00011318866,-0.048831232,-0.0076632174,-0.0012071823,0.0070707737,0.0005895922,0.0042737843,0.4761809,-1.4207547,1.9516343,-2.0998929,-1.5708798,2.4512286,-0.026996093,0.097736284,-0.11325366,0.01825056,-0.0067660585,-0.03118975,0.019153614,0.17238252,-9.500193,0.784413,47.675243,-0.8946976,-2.1088758,-3.5051656,-0.21050929,-0.08276369,-0.37306947,25.5,26.1875,25.375,28.0,28.6875,29.0625
0.11005193,-0.20273149,-0.27032116,-0.13687329,-0.026180215,0.013975132,-0.13252246,-0.3838267,-0.34898964,0.059964627,-3.0784256,0.6249826,-0.0001604182,-0.05047574,-0.008373556,0.0011484933,0.0048432252,0.005244058,0.0053806007,0.47610894,-1.4205632,1.9513587,-2.099809,-1.5708321,2.4511442,-0.027132029,0.095578074,-0.11616054,0.018159224,-0.006926565,-0.032431148,-0.019153614,0.30645782,-9.442732,0.800085,47.683304,-0.9524888,-1.9534017,-3.5558295,-0.16727912,-0.063614175,-0.36535293,25.5,26.1875,25.375,28.0,28.6875,29.0625
0.112052254,-0.6213687,-0.45584077,-0.17178527,-0.018950483,0.003717922,-0.11739361,-0.383932,-0.3490019,0.059960335,-3.0783906,0.62495595,-8.845668e-05,-0.051503114,-0.008725425,0.0007684462,0.005173422,0.004496625,0.0069503714,0.4760727,-1.420358,1.9511307,-2.099797,-1.5708922,2.451096,-0.02747474,0.09878066,-0.11910323,0.018712094,-0.0068827067,-0.03434197,-0.05746084,0.3256114,-9.461885,0.7866488,47.694054,-1.0012946,-1.9155054,-3.500986,-0.17866367,-0.058378432,-0.34736922,25.5,26.1875,25.375,28.0,28.6875,29.0625
0.11405298,-0.66431725,-0.7856902,-0.319801,-0.021433314,0.006481362,-0.118886925,-0.3840406,-0.34902215,0.059995536,-3.078423,0.6249609,-5.6506877e-05,-0.052361686,-0.009077809,0.0017582297,0.0040736273,0.005723447,0.007512016,0.47600067,-1.420214,1.9508666,-2.099713,-1.5708798,2.451023,-0.027894348,0.09848122,-0.12122019,0.019532276,-0.0064689005,-0.035323378,-0.05746084,0.38307226,-9.557653,0.8493211,47.69763,-0.9939215,-1.9289224,-3.530152,-0.16971184,-0.06852326,-0.35049492,25.5,26.1875,25.375,28.0,28.6875,29.0625
0.11605635,-0.27243558,-0.75917304,-0.28409073,-0.03324764,0.02410901,-0.12705311,-0.38413328,-0.34903884,0.05997041,-3.0784106,0.6248994,-7.5235206e-05,-0.05298255,-0.009673661,0.0017338224,0.0033914424,0.0051403185,0.00974417,0.47595268,-1.419985,1.9506615,-2.0997126,-1.5708917,2.4509385,-0.027963186,0.10040609,-0.123522855,0.020111315,-0.005600358,-0.037624456,-0.076614454,0.36391866,-9.557653,0.784413,47.66987,-1.0108674,-1.8367925,-3.4939542,-0.16863355,-0.08206999,-0.3274936,25.5,26.1875,25.375,28.0,28.6875,29.0625
0.118052244,-0.51056755,-1.046643,-0.44160366,-0.033459228,0.023286503,-0.12174603,-0.38424096,-0.34905207,0.059966903,-3.0783846,0.6248947,-6.847598e-05,-0.053638127,-0.009964094,0.0016682015,0.0033007283,0.004686963,0.009790212,0.4758925,-1.4197681,1.9504102,-2.099665,-1.5709156,2.4508789,-0.028224925,0.1021814,-0.12557082,0.020743053,-0.005315404,-0.037931543,-0.038307227,0.40222588,-9.615114,0.7418897,47.694946,-1.1064538,-1.839293,-3.555179,-0.1591419,-0.083612785,-0.34245014,25.5,26.1875,25.375,28.0,28.6875,29.0625
0.120055795,-0.8492721,-0.96612346,-0.44202134,-0.041069057,0.019274436,-0.12838797,-0.38434377,-0.34908497,0.05997527,-3.0783956,0.6248779,-5.508134e-05,-0.05522489,-0.010294973,0.0023798037,0.002463605,0.005735967,0.008197816,0.47585627,-1.4195634,1.9501456,-2.0996163,-1.5709156,2.450831,-0.029253716,0.10361002,-0.12901002,0.021436747,-0.005056969,-0.03736671,-0.095768064,0.38307226,-9.653421,0.81351066,47.674347,-1.1066276,-1.8205354,-3.4228535,-0.16127697,-0.077709496,-0.34585422,25.5,26.1875,25.375,28.0,28.6875,29.0625
0.122052856,-0.44577616,-0.89400434,-0.41214865,-0.0432782,0.035940543,-0.12467238,-0.38444927,-0.34910128,0.059972424,-3.0783713,0.6248328,-9.023241e-05,-0.056192346,-0.010059188,0.0018167805,0.0032623045,0.004824938,0.00937436,0.47579584,-1.4193343,1.9498705,-2.0995324,-1.5709275,2.4507456,-0.030355385,0.10632754,-0.13095099,0.021835515,-0.005354862,-0.039642937,-0.095768064,0.28730422,-9.653421,0.8314132,47.682407,-1.0879258,-1.803597,-3.5813136,-0.15424003,-0.0846293,-0.34883997,25.5,26.1875,25.375,28.0,28.6875,29.0625
0.12408905,-0.5020517,-0.58598185,-0.33293313,-0.04104371,0.036649458,-0.12620907,-0.38457435,-0.34910563,0.059987534,-3.0783849,0.62481433,1.6965356e-05,-0.057283476,-0.010764272,0.002105654,0.0025743889,0.00577989,0.012262713,0.47571188,-1.4191655,1.9496425,-2.0995324,-1.5709633,2.4506485,-0.03020429,0.10814641,-0.1336451,0.021543391,-0.0051853056,-0.04237918,-0.1340753,0.2681506,-9.634268,0.7665104,47.698532,-1.149329,-1.8485901,-3.4339075,-0.1473169,-0.08904267,-0.3210413,25.5,26.1875,25.375,28.0,28.6875,29.0625
0.12605779,-0.38673696,-0.40735152,-0.06243708,-0.03256129,0.040206447,-0.13730028,-0.3847001,-0.34915012,0.05999888,-3.0784395,0.6247676,1.1039111e-05,-0.059413258,-0.011774699,0.0018389156,0.0021270365,0.005786414,0.0133618945,0.4756517,-1.4189233,1.9493283,-2.0994852,-1.570927,2.4505525,-0.030606888,0.113387294,-0.13905923,0.021505365,-0.0048014503,-0.04387831,-0.19153613,0.30645782,-9.5385,0.8179876,47.67166,-1.1167278,-2.0229864,-3.2163289,-0.1365354,-0.102773845,-0.3030129,25.5,26.1875,25.375,28.0,28.6875,29.0625
0.12805362,-0.881949,-0.47953427,-0.31765592,-0.015766628,0.025675492,-0.12207701,-0.38484535,-0.34919223,0.06004559,-3.0784936,0.62469935,0.00017642745,-0.06083282,-0.013001401,0.0035218329,0.00021901588,0.009077228,0.016226968,0.47561604,-1.4187315,1.9489936,-2.099449,-1.5709628,2.4504676,-0.029846374,0.11322756,-0.142748,0.02155152,-0.0046153227,-0.045981955,-0.22984336,0.3256114,-9.595961,0.75755644,47.66271,-1.2918134,-1.8665465,-3.3433962,-0.10127126,-0.10206151,-0.2935196,25.5,26.1875,25.375,28.0,28.6875,29.0625
0.13005207,-0.7100076,-0.331142,-0.21404958,-0.014627504,0.034074347,-0.12714486,-0.38493356,-0.34921697,0.06003219,-3.078496,0.6246037,0.00014377318,-0.061608497,-0.0119532505,0.0018297504,0.0025933008,0.0058368603,0.015715143,0.47557908,-1.4185135,1.9487661,-2.0994127,-1.5709633,2.4503708,-0.03199651,0.11751772,-0.1440504,0.02253318,-0.0052442756,-0.047618035,-0.19153613,0.30645782,-9.576807,0.83813137,47.67614,-1.2070727,-2.1534119,-3.2866545,-0.10830362,-0.12120583,-0.27249986,25.5,26.1875,25.375,28.0,28.6875,29.0625
0.1320523,-0.6782238,-0.23680697,-0.043016735,-0.017117383,0.041670386,-0.13420582,-0.38505614,-0.34921506,0.06002098,-3.0784528,0.6246509,0.00010963889,-0.06211628,-0.012148615,0.001959641,0.0032468468,0.005381771,0.017616862,0.47547132,-1.418273,1.948502,-2.0993516,-1.5709757,2.450298,-0.03185596,0.11897533,-0.14641073,0.024139306,-0.0056201112,-0.049377352,-0.2681506,0.36391866,-9.461885,0.7866488,47.677036,-1.2100484,-1.9127257,-3.2556107,-0.086412415,-0.10241078,-0.24731526,25.5,26.1875,25.375,28.0,28.6875,29.0625
0.13405247,-1.4220405,-0.75428957,-0.09856168,-0.020255027,0.031479336,-0.11681758,-0.38518685,-0.34925538,0.060048312,-3.0785127,0.6245085,0.000168614,-0.06285739,-0.01177258,0.0016354088,0.004670197,0.00481574,0.018911619,0.47542307,-1.4180561,1.9481772,-2.099292,-1.5709761,2.4501536,-0.03253702,0.12091828,-0.14813569,0.025078757,-0.0066258614,-0.051350888,-0.34476504,0.3256114,-9.461885,0.8112748,47.679718,-1.2149935,-2.000708,-3.278256,-0.093736336,-0.08990809,-0.23454788,25.5,26.1875,25.375,28.0,28.6875,29.0625
0.13605218,-1.3385116,-0.69111276,-0.0069065355,-0.032278426,0.048400976,-0.12389688,-0.38532943,-0.3492725,0.0600555,-3.078526,0.6244529,0.00023246028,-0.063800104,-0.010727981,0.0012570993,0.005964925,0.0040728403,0.018532518,0.4753384,-1.4178154,1.9478792,-2.0992677,-1.5710005,2.4500327,-0.03470468,0.12227372,-0.14903519,0.02587638,-0.0074355234,-0.053137936,-0.3256114,0.34476504,-9.404425,0.84708,47.695843,-1.216747,-1.910259,-3.2959168,-0.08693817,-0.090848334,-0.19326013,25.5,26.1875,25.375,28.0,28.6875,29.0625
0.13805242,-1.0296811,-0.6715112,0.44627064,-0.039306037,0.0718463,-0.13309568,-0.38549304,-0.34933224,0.060099266,-3.0786152,0.62445104,0.00033989703,-0.064900555,-0.011307699,0.0013898831,0.0060116164,0.004088671,0.019504746,0.4752784,-1.4175743,1.9474944,-2.099232,-1.5709761,2.4499605,-0.034639247,0.124837235,-0.15251733,0.026803054,-0.0074839015,-0.054043587,-0.4405331,0.3256114,-9.308656,0.7418897,47.684196,-1.2006965,-1.9167194,-3.2361808,-0.07252528,-0.08214304,-0.17465007,25.5,26.1875,25.375,28.0,28.6875,29.0625
0.1400525,-1.2585515,-0.6027042,0.37521774,-0.031614445,0.06757051,-0.12677199,-0.3856225,-0.34934983,0.060091313,-3.0786104,0.6244101,0.0003745439,-0.06498811,-0.011490532,0.0012849375,0.006381692,0.0038256354,0.020648561,0.47520658,-1.4173217,1.9472197,-2.099219,-1.5710005,2.449864,-0.034245584,0.12566409,-0.15334907,0.027209824,-0.00769294,-0.05479311,-0.40222588,0.38307226,-9.232041,0.8403672,47.657326,-1.2835908,-1.9094818,-3.4009504,-0.09063225,-0.077240065,-0.12740354,25.5,26.1875,25.375,28.0,28.6875,29.0625
0.142056,-1.905354,-0.3611658,0.40645316,-0.013868796,0.03461461,-0.11517722,-0.38572037,-0.34937984,0.060084704,-3.0785992,0.62427485,0.0002994304,-0.066108406,-0.01117923,0.00076945423,0.0070485217,0.0031660544,0.018823216,0.47516996,-1.4170686,1.9469198,-2.0991113,-1.5710005,2.4497445,-0.035617128,0.12829284,-0.15525958,0.027384158,-0.007991178,-0.054337133,-0.38307226,0.2873042,-9.270349,0.8023209,47.64927,-1.2843289,-1.7231786,-3.3668122,-0.067364536,-0.0704723,-0.12465803,25.5,26.1875,25.375,28.0,28.6875,29.0625
0.14405216,-0.6882089,0.22118321,0.6876281,-0.011544074,0.04583415,-0.12801553,-0.3858778,-0.34941626,0.060118176,-3.0786605,0.6241927,0.0004119552,-0.06677658,-0.011007787,-0.0009166291,0.00786312,-0.00035326526,0.015973477,0.4750976,-1.4168389,1.9465717,-2.099076,-1.5710119,2.4496133,-0.03708515,0.13317174,-0.15715803,0.027902046,-0.0071041826,-0.052955825,-0.28730422,0.22984336,-9.155427,0.84484416,47.65464,-1.2614272,-1.7974114,-3.391293,-0.03540983,-0.08236421,-0.09737888,25.5,26.1875,25.375,28.0,28.6875,29.0625
0.14605214,-0.77487093,0.4899999,0.69911295,0.015988285,0.017720079,-0.12125159,-0.38601506,-0.34943718,0.060109682,-3.0786767,0.6241954,0.00041160683,-0.06830624,-0.010987007,0.0006837606,0.0054893577,0.0020519195,0.015033657,0.47500104,-1.416575,1.9462851,-2.0990636,-1.5709995,2.4495165,-0.03914522,0.13158998,-0.15909408,0.028191252,-0.0060965265,-0.054077037,-0.2681506,0.15322891,-9.059659,0.83589023,47.668976,-1.1473768,-1.8312261,-3.4482179,-0.020943828,-0.075645804,-0.08657874,25.5,26.1875,25.375,28.0,28.6875,29.0625
0.14805277,-0.27363226,0.83794427,0.7606871,0.019284546,0.014424431,-0.127252,-0.38616592,-0.34945258,0.06012131,-3.0786414,0.62417024,0.00048340127,-0.06903814,-0.011648357,-0.00017639322,0.005972804,0.0008930469,0.013285955,0.47492898,-1.4163091,1.945937,-2.098992,-1.5710596,2.4494336,-0.038690556,0.13562113,-0.16176935,0.028084029,-0.006002137,-0.05187299,-0.2681506,0.13407528,-8.963891,0.78217715,47.67166,-1.1653013,-1.9166566,-3.4526548,-0.016724043,-0.101347566,-0.06803341,25.5,26.1875,25.375,28.0,28.6875,29.0625
0.15005255,-0.10931023,1.0602279,0.8753267,0.019915951,0.020627787,-0.13352686,-0.3863362,-0.3494934,0.060151763,-3.078702,0.62406814,0.00064960384,-0.070330486,-0.011861082,0.00023495144,0.0052478234,0.0023912012,0.00991926,0.47486877,-1.4160566,1.9455775,-2.098992,-1.5710958,2.4493022,-0.03944806,0.13662095,-0.16372754,0.02737773,-0.0060431887,-0.049263228,-0.28730422,0.15322891,-8.90643,0.784413,47.687782,-1.2270734,-1.7356445,-3.4469209,0.023008138,-0.10162068,-0.10483469,25.5,26.1875,25.375,28.0,28.6875,29.0625
0.15205278,-0.30800456,0.85869426,0.690788,0.020672092,0.020496415,-0.127429,-0.38644084,-0.34950593,0.0601298,-3.0786812,0.6240454,0.00050963915,-0.07153309,-0.01145054,0.00016602525,0.005917947,0.0018557112,0.0077260206,0.4747722,-1.4157917,1.9453014,-2.0988958,-1.5710601,2.4491942,-0.041019835,0.13861768,-0.1661822,0.028621074,-0.0064011165,-0.04863954,-0.19153613,0.05746084,-8.925584,0.7217513,47.678825,-1.1497803,-1.8024323,-3.4742374,0.040142193,-0.0932169,-0.093633756,25.5,26.1875,25.375,28.0,28.6875,29.0625
0.15405189,-0.82695967,0.41087055,0.9113696,0.019546121,0.015803356,-0.12874214,-0.38657802,-0.34953383,0.060112976,-3.0786636,0.62406087,0.00044928884,-0.07121002,-0.011077911,-0.0010594043,0.007644057,-0.0022514833,0.0068885344,0.4746881,-1.4154783,1.9449657,-2.0988348,-1.5710477,2.4491222,-0.041584037,0.14158423,-0.16746417,0.03137749,-0.006057547,-0.048366,-0.21068975,0.095768064,-8.925584,0.8291774,47.666286,-1.1343235,-1.7890375,-3.427743,0.0076839407,-0.09207672,-0.092441425,25.5,26.1875,25.375,28.0,28.6875,29.0625
0.15605244,-0.74954945,0.044253718,0.7712958,0.013625563,0.019809492,-0.120900586,-0.38672072,-0.3495467,0.060117524,-3.078643,0.62405807,0.00049738743,-0.073064536,-0.011259419,-0.00027591738,0.006999293,-0.001025813,0.0045141177,0.4746036,-1.4152256,1.9446539,-2.0987866,-1.5710834,2.4490387,-0.04293813,0.14315525,-0.17128924,0.032244943,-0.006050399,-0.047343887,-0.30645782,0.21068975,-8.925584,0.80679786,47.67345,-1.1761404,-1.8087974,-3.2856255,0.02223462,-0.09821289,-0.103600144,25.5,26.1875,25.375,28.0,28.6875,29.0625
0.15805249,-0.2821881,0.4663529,0.7998047,-0.004929672,0.031134756,-0.13236769,-0.38687566,-0.3495968,0.060149,-3.0786912,0.6240119,0.0005428901,-0.07461286,-0.011327853,-0.0010349529,0.009202225,-0.0022850411,0.0004811141,0.47454345,-1.4149598,1.9442571,-2.0987022,-1.5710725,2.4489439,-0.043316804,0.14831161,-0.17587711,0.03381003,-0.0074392036,-0.043685235,-0.28730422,0.2681506,-9.002198,0.7239871,47.69763,-1.1098006,-1.8106799,-3.386176,0.03369306,-0.098997094,-0.15281455,25.5,26.1875,25.375,28.0,28.6875,29.0625
0.16005316,-0.7582856,-0.3028158,0.43018967,0.016258473,0.021258874,-0.12462325,-0.38701266,-0.3495887,0.06011244,-3.0785892,0.6239911,0.00045783859,-0.076541126,-0.011437316,0.0022088734,0.00790668,0.002665032,-0.0005382089,0.4744352,-1.4146248,1.9439334,-2.0986059,-1.5711206,2.4488358,-0.044134688,0.14487138,-0.17993972,0.036318995,-0.008556495,-0.043480463,-0.21068975,0.2681506,-8.963891,0.7486078,47.682407,-1.1774521,-1.6592636,-3.2758617,0.01934171,-0.08664994,-0.17837152,25.5,26.1875,25.375,28.0,28.6875,29.0625
0.16205212,-0.58568585,-0.0063156714,0.34619007,-0.008856838,0.031889684,-0.1303713,-0.38716543,-0.34960207,0.06013701,-3.0785747,0.62404644,0.000479308,-0.076185234,-0.010660867,0.00037610118,0.010033596,-0.0013729554,-0.0014770797,0.47432688,-1.4143832,1.9435748,-2.0984976,-1.5711321,2.448764,-0.04512512,0.1480992,-0.17976685,0.037480727,-0.008601007,-0.043531884,-0.21068975,0.24899697,-9.174581,0.81351066,47.69763,-1.0657202,-1.8107995,-3.4222727,0.009801555,-0.08024284,-0.20018288,25.5,26.1875,25.375,28.0,28.6875,29.0625
0.16405267,-1.2371346,-0.65025747,0.13734268,-0.023106087,0.025278563,-0.12390396,-0.38730323,-0.34964103,0.06011686,-3.0785935,0.62397283,0.00042491057,-0.07730293,-0.0110284425,0.0003421978,0.009211233,-0.0011183936,-0.002124686,0.47425458,-1.4140582,1.9432386,-2.0984619,-1.5711082,2.4486437,-0.04586453,0.1500961,-0.18193565,0.037048806,-0.007992863,-0.04362306,-0.22984336,0.38307226,-9.212888,0.85155696,47.677036,-1.1274137,-1.7213104,-3.3891797,0.025488002,-0.090051815,-0.20764688,25.5,26.1875,25.375,28.0,28.6875,29.0625
0.16605176,-0.8417107,-1.21363,-0.15949887,-0.03827908,0.047062553,-0.13210785,-0.38746166,-0.34964642,0.06011312,-3.0784988,0.6240114,0.0004075344,-0.0778018,-0.010720996,4.32712e-05,0.010490674,-0.002847804,-0.002983758,0.47415838,-1.4137331,1.9428428,-2.0983293,-1.5711683,2.4485838,-0.046609297,0.15214162,-0.18418077,0.039369214,-0.008344216,-0.043506816,-0.3256114,0.45968673,-9.346964,0.8314132,47.661808,-1.1512377,-1.7848519,-3.3418503,0.0067405803,-0.0854584,-0.24215001,25.5,26.1875,25.375,28.0,28.6875,29.0625
0.16805182,-1.3745192,-1.8563833,-0.15322462,-0.049970888,0.04109512,-0.1168762,-0.38760048,-0.34965682,0.060096245,-3.0784495,0.6240204,0.000314753,-0.077959016,-0.010587604,-0.00058931037,0.01199524,-0.0056088264,-0.0029006123,0.47405025,-1.41342,1.9424962,-2.0982206,-1.5711683,2.4484878,-0.046910673,0.1548442,-0.18652721,0.0421557,-0.008425264,-0.04388961,-0.30645782,0.6512228,-9.442732,0.779936,47.677036,-1.1450146,-1.7501154,-3.4140487,-0.039598253,-0.0679369,-0.25577763,25.5,26.1875,25.375,28.0,28.6875,29.0625
0.17005187,-1.5391406,-1.6860298,-0.16194469,-0.053582106,0.03615764,-0.12136402,-0.38779357,-0.34969014,0.060114186,-3.0784678,0.62410176,0.00041098887,-0.07889904,-0.009638436,-0.0007750768,0.01208919,-0.0070327725,-0.005234406,0.47394124,-1.4131073,1.9420894,-2.0981958,-1.5711807,2.4484274,-0.049768806,0.15587327,-0.18765345,0.04355899,-0.007856343,-0.044415068,-0.24899697,0.49799395,-9.442732,0.8537928,47.68062,-1.0911183,-1.754797,-3.376146,-0.05186964,-0.08877306,-0.2789588,25.5,26.1875,25.375,28.0,28.6875,29.0625
0.17205197,-0.5862251,-0.57413733,-0.053847168,-0.061733082,0.054215938,-0.130594,-0.38791588,-0.34971273,0.060107734,-3.0784395,0.62401783,0.00032099537,-0.079600714,-0.010331558,-0.00111158,0.011696671,-0.008290492,-0.004545845,0.47386938,-1.4128182,1.9417413,-2.0980642,-1.5711802,2.448307,-0.049754366,0.15889053,-0.19060044,0.04442451,-0.006941709,-0.045088485,-0.28730422,0.49799395,-9.461885,0.7866488,47.69763,-1.0435959,-1.6155949,-3.4404063,-0.08283028,-0.100524075,-0.28997752,25.5,26.1875,25.375,28.0,28.6875,29.0625
0.17405201,-1.4826444,-0.99323475,-0.1950221,-0.027434608,0.02652783,-0.120707534,-0.38810453,-0.3497317,0.06011094,-3.0784094,0.62404865,0.00039326862,-0.0787193,-0.010744037,-0.0014738938,0.012400198,-0.009503254,-0.0023298427,0.4737619,-1.4124814,1.9413351,-2.098016,-1.5712279,2.4482229,-0.04815174,0.15932092,-0.19052175,0.045312658,-0.0070127426,-0.045702122,-0.24899697,0.4213795,-9.576807,0.85826975,47.717335,-1.1747878,-1.7079804,-3.5327902,-0.08439917,-0.07218675,-0.3026302,25.5,26.1875,25.375,28.0,28.6875,29.0625
0.17605215,-0.83062166,-0.32952917,-0.2270317,-0.020635245,0.034019534,-0.13062829,-0.38825825,-0.34974682,0.06007986,-3.0783596,0.6240388,0.00026156538,-0.0808724,-0.010616675,-0.0018006099,0.0125795,-0.010021405,-0.0039525023,0.47364107,-1.4121077,1.9409508,-2.0979083,-1.571216,2.4481025,-0.050341718,0.16344456,-0.19472723,0.045936584,-0.0069499323,-0.046266437,-0.17238252,0.36391866,-9.557653,0.8672237,47.699425,-1.1240323,-1.9260542,-3.504829,-0.096475676,-0.08131417,-0.32061562,25.5,26.1875,25.375,28.0,28.6875,29.0625
0.17805213,-0.59873086,0.1334424,-0.11549511,-0.01453189,0.022821572,-0.13265707,-0.38843408,-0.34978956,0.060104076,-3.0783768,0.6241002,0.00031685887,-0.08180664,-0.0101661,-0.0028735725,0.013368936,-0.012592755,-0.005516729,0.47355655,-1.4118062,1.9405316,-2.0978363,-1.571216,2.4480543,-0.05225485,0.16713983,-0.19682378,0.04698383,-0.006481146,-0.04661514,-0.1340753,0.2873042,-9.653421,0.81351066,47.695843,-1.0330589,-1.9649132,-3.5953221,-0.11643359,-0.09227179,-0.34992445,25.5,26.1875,25.375,28.0,28.6875,29.0625
0.18005219,-0.6223213,0.20225348,-0.0595867,-0.009538049,0.011637369,-0.12926263,-0.38861012,-0.34979418,0.060094558,-3.0783207,0.6241088,0.0003319322,-0.082035206,-0.009234952,-0.004269031,0.014912343,-0.015839938,-0.0070626857,0.47343582,-1.4114686,1.9401478,-2.0977643,-1.5712641,2.4479463,-0.05413495,0.169956,-0.19720235,0.048136417,-0.006375785,-0.046948977,-0.1340753,0.24899697,-9.442732,0.87617236,47.689575,-0.9637289,-2.0045428,-3.5032272,-0.13088216,-0.07526931,-0.36107248,25.5,26.1875,25.375,28.0,28.6875,29.0625
0.18205209,-0.41180688,0.35474044,0.0010776481,-0.0065197838,0.00978087,-0.12769593,-0.38876992,-0.3498157,0.060092717,-3.0782907,0.6241396,0.0002840823,-0.08215652,-0.010369565,-0.0040678587,0.015399911,-0.015874814,-0.004849051,0.47332862,-1.4111441,1.9397529,-2.0976555,-1.5712641,2.4478624,-0.051948536,0.17183515,-0.20018992,0.04949904,-0.0068012383,-0.046973832,-0.076614454,0.095768064,-9.346964,0.8247004,47.70032,-1.0179577,-2.0736792,-3.6001096,-0.1603001,-0.08825232,-0.38066304,25.5,26.1875,25.375,28.0,28.6875,29.0625
0.18405208,-0.21352199,0.73807126,-0.015955793,-0.0019937132,0.0050871363,-0.12947729,-0.38898632,-0.3498592,0.060129803,-3.0783253,0.6241661,0.00044916532,-0.083920136,-0.009937465,-0.0045512356,0.01602559,-0.017107675,-0.006812332,0.4732318,-1.4108188,1.9392847,-2.0976193,-1.5712999,2.447778,-0.054273095,0.17554961,-0.2036917,0.050666384,-0.0067982473,-0.047333896,-0.05746084,0.11492168,-9.442732,0.85826975,47.704796,-0.9912271,-1.940098,-3.6474478,-0.18352808,-0.089768544,-0.39646614,25.5,26.1875,25.375,28.0,28.6875,29.0625
0.18605246,0.016139086,0.6145027,0.1524853,0.011748044,0.0076098675,-0.13507853,-0.3891122,-0.34987545,0.060081083,-3.078283,0.62413895,0.00026544608,-0.08536365,-0.009778651,-0.0033053104,0.01518295,-0.015375469,-0.008035093,0.47312325,-1.4104584,1.9389609,-2.0975354,-1.5712641,2.447658,-0.055797342,0.17502628,-0.20625326,0.051826388,-0.0068486137,-0.047633663,-0.038307227,-0.019153614,-9.461885,0.8784135,47.657326,-0.9257262,-2.019649,-3.4997447,-0.20284408,-0.08591265,-0.42061493,25.5,26.1875,25.375,28.0,28.6875,29.0625
0.18805231,-0.46580842,0.7370153,0.22577508,0.00986925,0.0026866554,-0.12910716,-0.3892721,-0.34988773,0.060079608,-3.0782056,0.6241225,0.00016797925,-0.08693614,-0.010651813,-0.0026562475,0.0142835425,-0.014360586,-0.0064553097,0.4730152,-1.4101092,1.9385175,-2.0973432,-1.571288,2.4475498,-0.055862747,0.1773221,-0.21060967,0.05256971,-0.006525566,-0.049276605,-0.13407528,0.095768064,-9.289503,0.83813137,47.70032,-0.9617239,-2.0421686,-3.407645,-0.22582549,-0.0901885,-0.4462212,25.5,26.1875,25.375,28.0,28.6875,29.0625
0.1900523,-0.32933486,0.5571254,0.21655677,0.011578765,0.014018036,-0.13673984,-0.38945943,-0.34993142,0.06008865,-3.0782447,0.62416744,0.00019912029,-0.08751721,-0.0104272,-0.0032487363,0.014995106,-0.015718456,-0.005853114,0.47290704,-1.4097719,1.9380993,-2.0973074,-1.5712641,2.447465,-0.056736484,0.17959714,-0.21211548,0.053333104,-0.0065424414,-0.050751973,-0.1340753,0.19153613,-9.136273,0.8403672,47.66987,-0.9299513,-2.0377016,-3.410582,-0.27103844,-0.09548531,-0.44708616,25.5,26.1875,25.375,28.0,28.6875,29.0625
0.19205225,-0.4983405,0.37254083,0.12016965,-0.0033641523,0.030029899,-0.13683736,-0.38963607,-0.34992984,0.060069446,-3.0781274,0.624181,9.641061e-05,-0.08877708,-0.01055894,-0.0029859105,0.015342982,-0.014747558,-0.0043830993,0.4727749,-1.4093751,1.9376439,-2.0971277,-1.5713118,2.4473565,-0.057116576,0.18129957,-0.21481176,0.053619295,-0.007309227,-0.052598454,-0.26815057,0.28730422,-9.232041,0.83813137,47.666286,-0.87222385,-1.9793074,-3.3518,-0.28781456,-0.09229137,-0.45589018,25.5,26.1875,25.375,28.0,28.6875,29.0625
0.19405219,-1.2626549,-0.55612534,0.18722846,-0.020973435,0.041829094,-0.12890823,-0.3897935,-0.3499628,0.060066428,-3.078147,0.6240468,8.1112936e-05,-0.09003347,-0.010613519,-0.0020772489,0.014804178,-0.012714726,-0.0001703034,0.47269064,-1.4090511,1.93726,-2.0970557,-1.5713123,2.4471862,-0.05783401,0.1812164,-0.21686079,0.053694,-0.007763982,-0.05752689,-0.22984336,0.28730422,-9.270349,0.842603,47.67614,-0.9370723,-1.8779542,-3.4026742,-0.31989735,-0.08413374,-0.42167884,25.5,26.1875,25.375,28.0,28.6875,29.0625
0.19605249,-2.328175,-1.4841615,0.19452438,-0.033390068,0.042449813,-0.1167233,-0.39000502,-0.34998974,0.060084112,-3.0781238,0.6241571,7.6315024e-05,-0.09150769,-0.011055817,-0.0026045018,0.014096417,-0.013257174,1.8765699e-05,0.4725464,-1.4086773,1.9367579,-2.0969245,-1.5713118,2.447114,-0.05889987,0.18495046,-0.21991953,0.053174544,-0.006898096,-0.058781505,-0.34476504,0.4213795,-9.308657,0.87617236,47.69763,-0.91183555,-1.7726305,-3.381322,-0.34665015,-0.10078307,-0.41543078,25.5,26.1875,25.375,28.0,28.6875,29.0625
0.19805236,-1.3814512,-1.0571702,0.15550062,-0.06607485,0.07541189,-0.13750201,-0.39017746,-0.349985,0.060062956,-3.078075,0.62408715,-1.625578e-05,-0.092462584,-0.011237565,-0.0015927856,0.012745968,-0.010608446,0.0024880394,0.47239017,-1.4083176,1.9363631,-2.0968049,-1.5713242,2.4469206,-0.059389126,0.18381605,-0.220748,0.052160613,-0.0069144117,-0.06173918,-0.4213795,0.5363012,-9.385271,0.8672237,47.696735,-0.83345425,-1.8270189,-3.376848,-0.3485753,-0.104359075,-0.40349227,25.5,26.1875,25.375,28.0,28.6875,29.0625
0.20005243,-2.0203605,-1.2869278,0.07761841,-0.06104041,0.06799494,-0.12390325,-0.3903368,-0.35001528,0.060051706,-3.0779798,0.62410337,-7.486861e-05,-0.09441117,-0.011581658,-0.0013267631,0.0118484525,-0.007840179,0.007445422,0.4723298,-1.4079328,1.9359087,-2.09665,-1.5713719,2.4468827,-0.060208246,0.18566805,-0.22299927,0.049680572,-0.007395185,-0.067512475,-0.36391866,0.51714754,-9.461885,0.8717007,47.68062,-0.8768684,-1.8470321,-3.5279317,-0.33977026,-0.09525854,-0.35991067,25.5,26.1875,25.375,28.0,28.6875,29.0625
0.2020525,-1.4369283,-0.9262354,0.07442681,-0.054754466,0.06869428,-0.12977612,-0.39055204,-0.35002995,0.060049247,-3.077977,0.62412053,-7.50899e-05,-0.09714209,-0.012112014,-0.00039263917,0.0101952255,-0.0038367566,0.00974456,0.47216156,-1.4075474,1.9354523,-2.0965793,-1.5713724,2.4467258,-0.061455023,0.18741775,-0.22668003,0.047291894,-0.007761536,-0.07105538,-0.38307226,0.40222588,-9.423578,0.8314132,47.6636,-0.83273447,-1.7923667,-3.3419023,-0.3223894,-0.1022634,-0.29048675,25.5,26.1875,25.375,28.0,28.6875,29.0625
0.20405185,-1.8205602,-0.90034324,0.043455664,-0.033006422,0.045954872,-0.11775528,-0.39075068,-0.3500842,0.060042858,-3.0780146,0.6240112,-4.8655747e-05,-0.09852502,-0.0124204615,-0.00026313565,0.008642737,-0.0018704515,0.010686506,0.47207716,-1.4071386,1.934986,-2.0965445,-1.5713719,2.4465687,-0.06242851,0.18850744,-0.22774546,0.044806734,-0.007281359,-0.07297109,-0.47884035,0.38307226,-9.270349,0.8179876,47.655537,-0.77787375,-1.6790161,-3.4580796,-0.30479535,-0.110982776,-0.28052947,25.5,26.1875,25.375,28.0,28.6875,29.0625
0.20605196,-0.9058648,-0.14207111,-0.0008616665,-0.024688438,0.058431733,-0.12857433,-0.39096206,-0.35010195,0.060051527,-3.078011,0.62400836,9.321715e-07,-0.10031,-0.013096297,-0.0005580601,0.006978065,0.0009541228,0.01365088,0.471933,-1.4067774,1.934532,-2.096474,-1.5713958,2.4464235,-0.06292113,0.19095336,-0.22893977,0.04027656,-0.007097106,-0.0764271,-0.34476507,0.3256114,-9.385271,0.9030289,47.668976,-0.70418525,-1.7239828,-3.5844631,-0.28195727,-0.08618714,-0.22440405,25.5,26.1875,25.375,28.0,28.6875,29.0625
0.20805196,-1.1255397,-0.23861985,-0.027478177,-0.013508932,0.04125107,-0.1316299,-0.39116785,-0.35012335,0.060031533,-3.0779967,0.6239079,-5.9274516e-06,-0.102177344,-0.013847655,0.00011177478,0.005540862,0.004700351,0.015205722,0.4718009,-1.4063566,1.9340771,-2.0964153,-1.5714206,2.446231,-0.062959164,0.19212016,-0.23124808,0.037425548,-0.0075343656,-0.078017354,-0.24899697,0.2681506,-9.461885,0.80456203,47.684196,-0.75216204,-1.7910364,-3.5646715,-0.21971582,-0.09772882,-0.18650573,25.5,26.1875,25.375,28.0,28.6875,29.0625
0.21005191,-0.8597396,-0.065560974,0.09349116,-0.025028648,0.04958216,-0.13140553,-0.3913712,-0.3501408,0.06002721,-3.0779598,0.6239209,-4.414202e-05,-0.10425255,-0.01311095,-0.0003649834,0.006093124,0.0040023485,0.012848231,0.471656,-1.4059591,1.9335994,-2.096295,-1.5714325,2.446099,-0.065950565,0.19563355,-0.23442312,0.037958194,-0.0077181533,-0.0786488,-0.36391866,0.22984336,-9.442732,0.90527004,47.686886,-0.6971653,-1.9504211,-3.4744105,-0.2033633,-0.11073521,-0.14934418,25.5,26.1875,25.375,28.0,28.6875,29.0625
0.2120519,-0.79893196,-0.15681258,0.065941215,-0.025657305,0.047612146,-0.1294412,-0.3915629,-0.35018253,0.060021173,-3.0779722,0.623864,-7.6344295e-05,-0.104228795,-0.014184429,-0.0011833415,0.0064608976,0.0026329968,0.01386324,0.4715486,-1.4055612,1.933133,-2.0962112,-1.5714201,2.4459548,-0.064193346,0.19898148,-0.23654643,0.038120326,-0.007428636,-0.077905774,-0.4213795,0.30645782,-9.404425,0.8605109,47.640312,-0.6582829,-1.8244861,-3.5814877,-0.16697371,-0.10874814,-0.14005516,25.5,26.1875,25.375,28.0,28.6875,29.0625
0.21405207,-1.0601957,-0.33485734,-0.09613016,-0.008668126,0.033816755,-0.123652585,-0.39183244,-0.35022122,0.06005294,-3.078012,0.62385374,0.00011552131,-0.10513029,-0.014701945,-0.0011038447,0.007270262,0.002308179,0.01306237,0.4714047,-1.4051521,1.9325808,-2.0961869,-1.5714682,2.4457998,-0.06367857,0.2016538,-0.24029315,0.03985018,-0.007996447,-0.07658815,-0.34476504,0.2681506,-9.423578,0.85826975,47.650166,-0.7199656,-2.0261488,-3.436494,-0.17024916,-0.10168822,-0.11598034,25.5,26.1875,25.375,28.0,28.6875,29.0625
0.21605231,-0.9745007,0.1438855,-0.06619635,-0.010232734,0.030143948,-0.12905271,-0.39202562,-0.35023803,0.060016394,-3.0779636,0.6238255,8.213778e-06,-0.10575971,-0.014357489,-0.0018318573,0.008083061,0.0014488474,0.009951218,0.47126046,-1.4047071,1.9321264,-2.096091,-1.5714682,2.4456444,-0.06458076,0.20382641,-0.24121045,0.039731584,-0.008338194,-0.07437718,-0.1340753,0.15322891,-9.519346,0.8672237,47.677036,-0.7225547,-2.008476,-3.4826527,-0.14396954,-0.1149115,-0.1289781,25.5,26.1875,25.375,28.0,28.6875,29.0625
0.2180522,-0.1776373,0.005888884,0.01680566,-0.010262286,0.03606664,-0.12654583,-0.3922323,-0.3502573,0.060023915,-3.077969,0.6237895,3.2563774e-05,-0.10728259,-0.014918791,-0.0023743121,0.0074708224,0.002192839,0.0059220926,0.47111621,-1.4043458,1.9316715,-2.0960085,-1.5714802,2.4454772,-0.06504366,0.20732348,-0.24364407,0.037727598,-0.008137533,-0.07080964,-0.15322891,0.17238252,-9.423578,0.82022345,47.70659,-0.6021209,-2.0749116,-3.6062388,-0.0940538,-0.11247673,-0.153446,25.5,26.1875,25.375,28.0,28.6875,29.0625
0.22005206,-0.2111133,0.018001527,-0.026494257,-0.013311829,0.021282904,-0.12103676,-0.39242965,-0.35027325,0.059975456,-3.077873,0.62377006,-4.2984186e-05,-0.10709508,-0.016539346,-0.0024554417,0.0070975,0.0013713544,0.005223955,0.47099727,-1.4038641,1.9312042,-2.0959241,-1.5715278,2.4453588,-0.062442496,0.209717,-0.24658321,0.03883197,-0.0074406685,-0.06750974,-0.15322891,0.21068975,-9.385271,0.88289046,47.695843,-0.891809,-2.015669,-3.444554,-0.07895831,-0.11195533,-0.1797998,25.5,26.1875,25.375,28.0,28.6875,29.0625
0.22205207,-0.3027045,-0.23077694,0.10357669,-0.01230239,0.009648135,-0.12473233,-0.39266595,-0.35035217,0.060028616,-3.0779862,0.6237165,6.340236e-05,-0.10838808,-0.01627696,-0.0016920259,0.0077690217,0.0016215226,0.0025979744,0.47090083,-1.403491,1.9306306,-2.0958393,-1.5714926,2.4452147,-0.06356266,0.21070234,-0.2501437,0.04149449,-0.008145648,-0.06600209,0.0,0.2681506,-9.32781,0.86498255,47.68599,-0.80685925,-2.1385846,-3.4550045,-0.06581774,-0.105560526,-0.20318198,25.5,26.1875,25.375,28.0,28.6875,29.0625
0.22405203,0.11806224,-0.36821952,-0.05385169,-0.00799209,0.015167656,-0.12529907,-0.3928757,-0.35034874,0.059984237,-3.0778913,0.62371826,2.9537068e-05,-0.109186955,-0.016603535,-0.0013032828,0.007965524,0.002186791,-0.0017358048,0.470745,-1.4030346,1.9301881,-2.0957787,-1.5715526,2.4450724,-0.06337724,0.21187039,-0.25269908,0.04246774,-0.008582589,-0.061480343,0.038307227,0.3256114,-9.346964,0.83813137,47.661808,-0.8609707,-2.1199942,-3.4687757,-0.0689048,-0.11132039,-0.25850308,25.5,26.1875,25.375,28.0,28.6875,29.0625
0.22605243,0.18509309,-0.37675828,-0.08752417,-0.020772014,0.011753438,-0.12873714,-0.39310285,-0.35038787,0.06000164,-3.07788,0.62375367,7.885951e-05,-0.11004733,-0.016971326,-0.0006240929,0.007528034,0.0028220178,-0.0015511619,0.47062504,-1.4026259,1.9296492,-2.0956705,-1.5715765,2.4449763,-0.0635182,0.21253736,-0.2553879,0.043721996,-0.008482727,-0.061805394,-0.05746084,0.36391866,-9.423578,0.90750587,47.66271,-0.8631864,-2.1182773,-3.414225,-0.046707317,-0.10588193,-0.27313775,25.5,26.1875,25.375,28.0,28.6875,29.0625
0.2280525,-0.14326389,-0.6356098,0.0043367255,-0.03702553,0.017199568,-0.12466816,-0.3933138,-0.35042712,0.059978314,-3.0778654,0.62374824,4.6022844e-05,-0.11029861,-0.017015481,-0.00030871577,0.0074369777,0.0020278746,0.0014128914,0.4705047,-1.4021696,1.9291586,-2.0956104,-1.5715765,2.4448547,-0.06389608,0.2129164,-0.25709027,0.045706294,-0.008044725,-0.06514774,-0.038307227,0.40222588,-9.423578,0.8291774,47.684196,-0.92019945,-1.9787333,-3.4692497,-0.048932575,-0.1052194,-0.25855982,25.5,26.1875,25.375,28.0,28.6875,29.0625
0.23005253,0.30743855,-0.4609635,-0.07801405,-0.05351124,0.029367192,-0.13084494,-0.3935443,-0.35043603,0.05997513,-3.0778103,0.6237567,3.1802196e-05,-0.111224085,-0.017474484,0.00019342851,0.0076608504,0.00224327,0.00021011932,0.4703371,-1.4017367,1.9286326,-2.0954778,-1.5716127,2.4446998,-0.06367198,0.2145206,-0.26059696,0.047517143,-0.008347133,-0.063718505,0.038307227,0.36391866,-9.442732,0.92093146,47.704796,-0.9897825,-1.97288,-3.538508,-0.033195317,-0.112646036,-0.2660094,25.5,26.1875,25.375,28.0,28.6875,29.0625
0.23205242,-0.5282118,-0.99978876,-0.21575774,-0.037902564,0.010068348,-0.11494219,-0.3937827,-0.35050926,0.05998396,-3.07787,0.62378776,6.526745e-05,-0.11183764,-0.017223181,-0.00061615935,0.008991542,0.00024394316,-0.0010153977,0.4702287,-1.4012787,1.928069,-2.0954292,-1.5715765,2.4446034,-0.06443197,0.21761797,-0.26277837,0.048989415,-0.008625107,-0.06325181,0.095768064,0.38307226,-9.461885,0.9612189,47.681515,-0.9509953,-1.9997199,-3.4497194,-0.043410484,-0.09877527,-0.3073725,25.5,26.1875,25.375,28.0,28.6875,29.0625
0.23405239,0.008385999,-0.7129327,-0.23948027,-0.030712467,0.0073673693,-0.12167095,-0.3939728,-0.3505204,0.059949484,-3.0777853,0.6237128,-1.0460667e-05,-0.11241086,-0.017394835,-0.00027767278,0.008188145,0.0002755601,-0.0007193871,0.47010848,-1.4008343,1.9276036,-2.0953095,-1.5716242,2.4444475,-0.065039,0.2180389,-0.26428857,0.04967922,-0.00793231,-0.064155124,0.05746084,0.40222588,-9.385271,0.87617236,47.681515,-0.9224161,-1.931711,-3.5111818,-0.040269606,-0.10718565,-0.31368566,25.5,26.1875,25.375,28.0,28.6875,29.0625
0.23605205,-0.041422408,-0.11043625,-0.15209408,-0.024712496,0.001927573,-0.12288672,-0.3941875,-0.35055262,0.05993608,-3.077738,0.6237018,-4.725575e-05,-0.11429459,-0.018018302,0.00055311166,0.007425789,0.0023009863,-0.00084360834,0.46998835,-1.4003774,1.9270753,-2.0951898,-1.5716485,2.4443269,-0.06542373,0.21986653,-0.2684432,0.0498534,-0.00818227,-0.06441275,0.095768064,0.36391866,-9.32781,0.8627467,47.65912,-0.94101584,-1.8999046,-3.4479516,-0.0040227426,-0.11153232,-0.3248573,25.5,26.1875,25.375,28.0,28.6875,29.0625
0.23805219,-0.07765959,-0.21339867,-0.25180268,-0.008043803,-0.0021957888,-0.1258522,-0.39445254,-0.35058323,0.059962917,-3.0777605,0.62370604,5.5420027e-05,-0.11362385,-0.017569155,-0.0017021232,0.009879913,-0.0019444946,-0.00096381624,0.46982038,-1.3999552,1.9265035,-2.095106,-1.5716723,2.444159,-0.06538152,0.22380285,-0.26810968,0.050478455,-0.0084422,-0.064250104,0.22984336,0.3256114,-9.595961,0.7933669,47.677036,-0.9870158,-1.9999008,-3.5421953,-0.014051686,-0.11112639,-0.35758752,25.5,26.1875,25.375,28.0,28.6875,29.0625
0.24005236,-0.5734116,-0.60886157,-0.20873933,-0.022227628,-0.0078121205,-0.111213915,-0.3946409,-0.35062417,0.059925944,-3.0777047,0.6236753,-6.74144e-05,-0.11433502,-0.016809665,-0.0013039757,0.010601082,-0.0038032539,-0.0021176173,0.4697237,-1.3994746,1.926001,-2.0949848,-1.5716723,2.4440506,-0.06741948,0.22445408,-0.27078667,0.05448578,-0.008248195,-0.065133385,0.19153613,0.30645782,-9.557653,0.90750587,47.684196,-0.92774636,-2.0447855,-3.600348,-0.010019297,-0.09302196,-0.36588335,25.5,26.1875,25.375,28.0,28.6875,29.0625
0.24205163,-0.061099224,-0.40771708,-0.1059217,-0.032929357,0.0017758204,-0.122134596,-0.3948754,-0.35067117,0.05994941,-3.0777252,0.62367773,-3.1902067e-07,-0.11487148,-0.017468616,-0.00086827565,0.010310161,-0.004320197,0.00015089716,0.46960384,-1.3990661,1.9254497,-2.0948884,-1.5716838,2.44393,-0.0670078,0.2258801,-0.27400726,0.056604356,-0.007756415,-0.06699056,0.038307227,0.3256114,-9.404425,0.90750587,47.661808,-0.8296263,-2.068814,-3.5964255,-0.049845945,-0.109907806,-0.3700993,25.5,26.1875,25.375,28.0,28.6875,29.0625
0.2440526,-0.1883119,-0.5763058,-0.24731286,-0.013782999,-0.004313124,-0.11834802,-0.39510825,-0.35068333,0.059928596,-3.0776327,0.6236754,-6.082604e-05,-0.11514698,-0.01825477,-0.0012394638,0.011070216,-0.005475223,0.0040399553,0.46944842,-1.3985726,1.9248866,-2.094732,-1.5717324,2.4437852,-0.0657202,0.22879426,-0.27698588,0.058036227,-0.007924393,-0.0695896,0.076614454,0.2681506,-9.423578,0.8314132,47.66091,-1.0949355,-2.04884,-3.5388107,-0.024277661,-0.14086783,-0.35141385,25.5,26.1875,25.375,28.0,28.6875,29.0625
0.24605165,-0.19266535,-0.39440033,-0.21209703,-0.018542036,0.0008992535,-0.12203459,-0.39531565,-0.35073328,0.059907872,-3.0776553,0.62362105,-0.00013128463,-0.115219966,-0.017837532,-0.0015700719,0.012660406,-0.008640461,0.0062771724,0.4693281,-1.398115,1.924384,-2.094659,-1.5716966,2.4436283,-0.066469826,0.23074427,-0.2795451,0.062186167,-0.007912924,-0.07257561,0.019153614,0.28730422,-9.3661175,0.947788,47.668976,-1.0640557,-2.1753752,-3.444931,-0.08477287,-0.11550899,-0.32670382,25.5,26.1875,25.375,28.0,28.6875,29.0625
0.24805176,-0.03306868,0.11150411,-0.037290007,-0.01784618,0.0036442056,-0.13386165,-0.39554474,-0.35075426,0.059890144,-3.0775979,0.62356865,-0.00017698524,-0.11565112,-0.016859882,-0.0019612284,0.014634619,-0.013347523,0.008029855,0.46918312,-1.3976341,1.9238333,-2.094525,-1.5717319,2.4434583,-0.06873027,0.23337187,-0.28320804,0.068303384,-0.0075498396,-0.076588176,-0.019153614,0.24899697,-9.32781,0.8403672,47.67345,-0.8682767,-2.1969094,-3.5691824,-0.14275496,-0.10816568,-0.30268985,25.5,26.1875,25.375,28.0,28.6875,29.0625
0.25005174,0.19212098,0.55617505,-0.06849237,-0.006135002,0.014651511,-0.13257115,-0.39577878,-0.3508151,0.059911665,-3.077626,0.6234543,-0.00013974312,-0.11576441,-0.018894657,-0.0015345593,0.013676172,-0.012074093,0.015117746,0.4690885,-1.3971891,1.9232353,-2.094394,-1.5717438,2.443289,-0.065410644,0.23507886,-0.28620407,0.068016686,-0.0072815632,-0.08035583,-0.038307227,0.30645782,-9.289503,0.91421866,47.694054,-1.2122254,-2.1408274,-3.537952,-0.17291477,-0.14835432,-0.26027137,25.5,26.1875,25.375,28.0,28.6875,29.0625
0.25205198,-0.589853,0.26514632,-0.06362084,-0.00469827,0.016234258,-0.117630675,-0.39600533,-0.3508364,0.059892602,-3.077576,0.62342215,-0.00022150012,-0.117942594,-0.019010378,-0.00032019685,0.01375557,-0.010549054,0.01842722,0.46893206,-1.3967081,1.9226846,-2.094249,-1.5717562,2.4431193,-0.0665902,0.23673883,-0.29154953,0.070373595,-0.008061186,-0.08484028,-0.17238252,0.40222588,-9.251195,0.8851263,47.67166,-1.1283027,-2.096212,-3.4061213,-0.1910514,-0.13424721,-0.21910745,25.5,26.1875,25.375,28.0,28.6875,29.0625
0.25405195,-0.5490088,-0.014539431,-0.14313573,-0.014049092,0.037981536,-0.126194,-0.39622352,-0.35089475,0.05988124,-3.0775516,0.62330145,-0.00028733944,-0.11834241,-0.018468695,-0.00044352346,0.014289122,-0.012045311,0.019390296,0.4688476,-1.3962033,1.9220856,-2.0940926,-1.5717686,2.442963,-0.0679631,0.23761573,-0.29285684,0.07237499,-0.007868508,-0.08717607,-0.21068975,0.34476507,-9.32781,0.9298854,47.67614,-1.1568098,-2.0291803,-3.524301,-0.23852156,-0.12739868,-0.14786935,25.5,26.1875,25.375,28.0,28.6875,29.0625
0.25605276,-0.54365647,-0.33576903,-0.22873285,-0.030314751,0.05160103,-0.1221926,-0.39648372,-0.35094315,0.05991836,-3.0775836,0.6232295,-0.00019779938,-0.11756704,-0.018285904,-0.0019488792,0.01600578,-0.016141228,0.020338431,0.4687157,-1.3957698,1.9214648,-2.0939605,-1.571792,2.4427824,-0.067740574,0.24043775,-0.2932729,0.074393794,-0.0075442,-0.087902784,-0.2681506,0.2681506,-9.385271,0.9164598,47.692257,-1.2190613,-2.068705,-3.5439126,-0.29254428,-0.13748764,-0.12733492,25.5,26.1875,25.375,28.0,28.6875,29.0625
0.2580523,-1.4030691,-1.34825,-0.006370988,-0.037348352,0.058794584,-0.117519006,-0.39671773,-0.35094523,0.05990686,-3.0775146,0.6231937,-0.00034854744,-0.11830109,-0.018689286,-0.0005404613,0.014657657,-0.013435745,0.023237921,0.4685118,-1.3952899,1.9208788,-2.093733,-1.571792,2.4425652,-0.06759355,0.23875476,-0.29462513,0.074401975,-0.0075843204,-0.09065415,-0.4405331,0.28730422,-9.404425,0.88289046,47.704796,-1.221003,-2.00962,-3.6533098,-0.31756234,-0.15787077,-0.075674355,25.5,26.1875,25.375,28.0,28.6875,29.0625
0.2600524,-1.875901,-0.82664245,-0.071424,-0.03893299,0.058154214,-0.11520571,-0.3969638,-0.35101068,0.059912324,-3.077541,0.6230861,-0.00031097245,-0.11995276,-0.018319698,0.00027245015,0.014227265,-0.010500905,0.018964821,0.4684153,-1.3947977,1.9202694,-2.0936377,-1.5718044,2.4423985,-0.06904711,0.2384888,-0.29601538,0.07325014,-0.008527618,-0.0878318,-0.4213795,0.24899697,-9.385271,0.9186956,47.675243,-1.1915585,-1.7493615,-3.6431108,-0.34017062,-0.13259709,-0.073669225,25.5,26.1875,25.375,28.0,28.6875,29.0625
0.26205182,-1.74093,-0.44091994,-0.25045353,-0.02119427,0.06826422,-0.11566721,-0.39718118,-0.35102537,0.059869055,-3.0774515,0.62301016,-0.0004264233,-0.12245398,-0.019170562,0.0008532649,0.012477231,-0.0072950623,0.016359732,0.46827117,-1.3942804,1.919731,-2.0934951,-1.5718406,2.4422188,-0.069781914,0.24107133,-0.29995668,0.0709559,-0.00843742,-0.085958555,-0.4405331,0.22984336,-9.442732,0.8537928,47.657326,-1.1826377,-1.6570996,-3.7648807,-0.35531962,-0.1467365,-0.075930595,25.5,26.1875,25.375,28.0,28.6875,29.0625
0.2640518,-1.7266095,-0.3845595,-0.31285307,0.00027315778,0.05751047,-0.1230897,-0.3974585,-0.35108817,0.0599052,-3.0775046,0.62302315,-0.00035385636,-0.12445535,-0.019922182,0.000777146,0.0106474515,-0.0052746567,0.012744132,0.46812668,-1.393811,1.9190725,-2.0933764,-1.5718278,2.442076,-0.07063071,0.2439855,-0.30265304,0.06811008,-0.007721045,-0.08319247,-0.4213795,0.15322891,-9.595961,0.9097417,47.677036,-1.1257553,-1.7720395,-3.660504,-0.33338696,-0.16301571,-0.081822574,25.5,26.1875,25.375,28.0,28.6875,29.0625
0.26605222,-1.104597,0.66443485,-0.43325838,-0.01830601,0.060029883,-0.12888515,-0.3976841,-0.3511288,0.059885927,-3.0775054,0.6229282,-0.00045326987,-0.12652096,-0.02052311,0.0011164588,0.008692597,-0.001780944,0.009001648,0.4679826,-1.3933178,1.9185098,-2.0932462,-1.5718039,2.4418728,-0.07144708,0.24556306,-0.30455503,0.06443842,-0.007567805,-0.080265,-0.51714754,0.22984336,-9.653421,0.93436235,47.705692,-1.1858752,-1.7910389,-3.6649249,-0.298259,-0.18886,-0.11570077,25.5,26.1875,25.375,28.0,28.6875,29.0625
0.26805267,-1.7020148,-0.44219115,-0.61455715,-0.004221843,0.05436811,-0.11284344,-0.39793152,-0.35117725,0.059895135,-3.0774617,0.6228637,-0.000413387,-0.12930018,-0.021117037,0.00072832656,0.00852304,0.0002255608,0.005372169,0.46788624,-1.3928236,1.9178752,-2.0930912,-1.5718645,2.4417422,-0.0723322,0.25063816,-0.3092052,0.06214681,-0.008335083,-0.07751556,-0.63206923,0.24899697,-9.634268,0.9030289,47.67614,-1.1523128,-2.0066009,-3.6057057,-0.24894089,-0.17551386,-0.14107913,25.5,26.1875,25.375,28.0,28.6875,29.0625
0.27005205,-1.5498915,-0.6132937,-0.71651036,-0.014836759,0.056242336,-0.1181181,-0.39820233,-0.35121807,0.05988946,-3.077446,0.6228992,-0.0004322194,-0.13165148,-0.021788947,0.0009169154,0.008265902,0.0029522597,0.0025979388,0.4677182,-1.3922937,1.9172405,-2.092972,-1.571865,2.4415987,-0.07252912,0.25404313,-0.3133351,0.060327474,-0.009346579,-0.074933045,-0.38307226,0.15322891,-9.672575,0.8985519,47.668976,-1.1816761,-2.1210759,-3.430593,-0.23692653,-0.16735968,-0.1951233,25.5,26.1875,25.375,28.0,28.6875,29.0625
0.27205178,-1.4956052,-0.58451694,-0.43290994,-0.03403854,0.067253485,-0.12686892,-0.39845714,-0.35125095,0.0598842,-3.077402,0.6228936,-0.0004322616,-0.13408431,-0.021049727,0.0014776994,0.0070433537,0.005087842,-0.00281946,0.46757293,-1.3917891,1.9166316,-2.0928404,-1.5719007,2.4414558,-0.07596274,0.25487712,-0.3154418,0.059140917,-0.0092247855,-0.07294843,-0.5363012,0.19153613,-9.730036,0.88289046,47.67166,-0.96962607,-2.0334113,-3.4618948,-0.20458734,-0.16273135,-0.22836322,25.5,26.1875,25.375,28.0,28.6875,29.0625
0.2740522,-1.8467455,-1.0762187,-0.7047217,-0.039642915,0.065702684,-0.11775517,-0.39875102,-0.35129267,0.05991783,-3.0774145,0.6229707,-0.00035069653,-0.13404386,-0.02192039,0.0008745438,0.0076044253,0.0050979573,-0.0018250487,0.4673937,-1.3913082,1.9159616,-2.0927093,-1.5719126,2.4413235,-0.07401914,0.25709072,-0.31658667,0.058316674,-0.00972904,-0.07199772,-0.61291564,0.2681506,-9.787497,0.91421866,47.655537,-1.1806574,-2.1225438,-3.587008,-0.1852797,-0.17696017,-0.25768453,25.5,26.1875,25.375,28.0,28.6875,29.0625
0.27605256,-1.4510614,-0.8103139,-0.7053802,-0.0558459,0.07007201,-0.12175519,-0.39899826,-0.35132352,0.059905365,-3.077386,0.62298524,-0.00037244067,-0.13447006,-0.021182423,-9.801751e-05,0.007995907,0.0040048817,-0.0047950135,0.46723711,-1.3908151,1.9153875,-2.092602,-1.571925,2.44118,-0.075692095,0.2585665,-0.31601724,0.05742257,-0.009587178,-0.07070102,-0.45968673,0.2681506,-9.921572,0.9164598,47.684196,-1.1021204,-2.0018573,-3.7476768,-0.16237625,-0.1757775,-0.29489157,25.5,26.1875,25.375,28.0,28.6875,29.0625
0.27805218,-1.5169986,-1.2054895,-0.34286365,-0.06739617,0.06690839,-0.12880374,-0.399321,-0.35137048,0.05993821,-3.0773957,0.6229487,-0.00019030472,-0.1369762,-0.020090919,0.00043368005,0.006471742,0.00570264,-0.0069659883,0.4670795,-1.3902863,1.9146708,-2.0925066,-1.5719966,2.4409988,-0.08007558,0.2591106,-0.31776443,0.05641197,-0.008993048,-0.07291534,-0.40222588,0.24899697,-9.787497,0.86498255,47.698532,-0.8118744,-2.0349088,-3.8172781,-0.11997989,-0.18705015,-0.2972699,25.5,26.1875,25.375,28.0,28.6875,29.0625
0.28005236,-1.2490163,-1.2690297,-0.38794646,-0.03075324,0.04153834,-0.11174508,-0.39958975,-0.3514355,0.059931118,-3.0774074,0.6230089,-0.00017582592,-0.1376961,-0.02159138,0.0012027086,0.006470819,0.0072307982,-0.0073486846,0.46694845,-1.3897456,1.9140362,-2.0924346,-1.5719851,2.4409041,-0.077606425,0.26089606,-0.32198712,0.057490315,-0.009681666,-0.07006021,-0.4213795,0.24899697,-9.576807,0.9858343,47.67614,-1.0059583,-1.8919005,-3.7308798,-0.092372015,-0.16064182,-0.35892966,25.5,26.1875,25.375,28.0,28.6875,29.0625
0.28205174,-1.2279072,-0.2520015,-0.3511178,-0.0075848997,0.01631131,-0.11664297,-0.39985734,-0.3514643,0.059920765,-3.077394,0.6230463,-0.00022215962,-0.14038894,-0.020813152,0.0022457086,0.0054906774,0.009667456,-0.011052045,0.46675524,-1.3892285,1.9134253,-2.0923145,-1.5719727,2.4407363,-0.08108715,0.26148954,-0.32518375,0.05747671,-0.009910813,-0.06983554,-0.30645782,0.19153613,-9.519346,0.88289046,47.642998,-0.852733,-1.8468001,-3.6883814,-0.08218245,-0.17757484,-0.4019112,25.5,26.1875,25.375,28.0,28.6875,29.0625
0.28405166,-0.6253033,0.4117653,-0.26505345,0.0074930834,0.019213604,-0.12136021,-0.40016896,-0.35150748,0.05995468,-3.0773935,0.62312114,-7.4791664e-05,-0.1436267,-0.021587085,0.0039990586,0.0025253783,0.014412939,-0.010082802,0.46658668,-1.3887236,1.912731,-2.0922077,-1.5720209,2.440615,-0.082815625,0.2625646,-0.3301878,0.05582324,-0.009408177,-0.07253318,-0.22984336,0.21068975,-9.500193,0.8918391,47.65643,-0.74911344,-1.8563533,-3.572874,-0.023957023,-0.19219752,-0.42004097,25.5,26.1875,25.375,28.0,28.6875,29.0625
0.28605175,-0.21127798,0.97768027,-0.44052753,0.017431783,0.007119466,-0.12230513,-0.40047374,-0.35158736,0.059977643,-3.0774796,0.6231593,4.436502e-05,-0.14461486,-0.021592487,0.004832747,0.0020068365,0.015529255,-0.012723716,0.46644238,-1.3881953,1.9120497,-2.0921714,-1.571997,2.4404838,-0.08356819,0.26248446,-0.33234912,0.05683761,-0.00943742,-0.070645384,-0.076614454,0.095768064,-9.519346,0.9254084,47.66271,-0.67061824,-1.6761681,-3.4516938,0.027394459,-0.17296779,-0.4624569,25.5,26.1875,25.375,28.0,28.6875,29.0625
0.28805175,-0.21187507,0.70403725,-0.2648408,0.01283566,0.021834977,-0.121722296,-0.4007484,-0.35159808,0.059958473,-3.0773857,0.623195,-5.782469e-06,-0.14474677,-0.021332003,0.004632259,0.0038347666,0.012509247,-0.009577866,0.4662504,-1.3876414,1.911404,-2.0920022,-1.5720452,2.4403265,-0.08387265,0.26465073,-0.33561942,0.06145232,-0.009715768,-0.074093424,-0.2873042,0.076614454,-9.442732,0.9164598,47.689575,-0.67966425,-1.7593353,-3.5257864,0.0066956724,-0.18907365,-0.47921658,25.5,26.1875,25.375,28.0,28.6875,29.0625
0.29005215,-0.7790816,-0.078409635,-0.47537342,0.0065136915,0.037482366,-0.12049524,-0.40104243,-0.35165063,0.05998094,-3.0773945,0.6231171,6.774058e-05,-0.14552556,-0.021487774,0.0031027247,0.0052607115,0.009093024,-0.0060529625,0.4661061,-1.3871114,1.9106969,-2.0918577,-1.572081,2.4401329,-0.08436749,0.2701766,-0.33914307,0.06313231,-0.009458549,-0.07811229,-0.4213795,0.15322891,-9.404425,0.9186956,47.661808,-0.6980822,-1.9152801,-3.4536543,0.01581379,-0.19793805,-0.4663636,25.5,26.1875,25.375,28.0,28.6875,29.0625
0.2920523,-0.9218341,-0.4981345,-0.38993067,-0.008484553,0.05981329,-0.121049695,-0.40133494,-0.35169312,0.05998457,-3.07739,0.6231114,0.00011367464,-0.14462928,-0.021396829,0.001308289,0.0074231313,0.0045646,-0.00037276943,0.46593842,-1.3865699,1.9100269,-2.091749,-1.5721048,2.4399626,-0.08372144,0.27364823,-0.33976412,0.06528813,-0.009355071,-0.08314665,-0.1340753,0.22984336,-9.557653,0.89631605,47.67614,-0.6539043,-1.964093,-3.519457,0.04203313,-0.21789497,-0.43979582,25.5,26.1875,25.375,28.0,28.6875,29.0625
0.29405236,-1.5384895,-0.9938796,-0.10053892,-0.011445651,0.058448434,-0.115440436,-0.40161568,-0.35173288,0.059980717,-3.07737,0.62318087,3.833014e-05,-0.14362845,-0.020869419,8.691298e-06,0.010344987,0.00012770342,0.0050253044,0.46574655,-1.3860164,1.909346,-2.0915806,-1.572081,2.439817,-0.08328029,0.2759665,-0.34051034,0.06898833,-0.0099747935,-0.0881017,-0.26815057,0.21068975,-9.519346,0.9634547,47.65643,-0.7176672,-1.9721485,-3.6372652,0.0071394346,-0.1893486,-0.39360926,25.5,26.1875,25.375,28.0,28.6875,29.0625
0.29605266,-1.327075,-0.6807115,0.05720495,-0.025374085,0.05726534,-0.12037599,-0.40192586,-0.35179067,0.060013257,-3.0774157,0.62314856,0.00017207282,-0.14406633,-0.020454118,0.00044252723,0.010627786,-0.0011639405,0.009032835,0.46559024,-1.3854997,1.9086417,-2.0914838,-1.5721048,2.439635,-0.08449981,0.2762271,-0.34264803,0.07213447,-0.00964279,-0.09333021,-0.38307226,0.30645782,-9.346964,0.9030289,47.666286,-0.78066725,-1.9734597,-3.6743226,-0.0027378432,-0.19165733,-0.35228553,25.5,26.1875,25.375,28.0,28.6875,29.0625
0.2980523,-0.3286218,-0.06984354,-0.018882891,-0.02718005,0.04689348,-0.13507298,-0.40223068,-0.35183114,0.060034603,-3.077387,0.623062,0.0002928269,-0.14302357,-0.020638732,-0.00012912187,0.012578662,-0.0036153202,0.015383528,0.4654468,-1.3849591,1.9079236,-2.0913389,-1.5721892,2.4394417,-0.08278996,0.2773385,-0.34340107,0.07482863,-0.010283483,-0.097969964,-0.095768064,0.3256114,-9.346964,0.95002913,47.678825,-0.7489203,-1.8427398,-3.74581,-0.015502262,-0.21153888,-0.28419352,25.5,26.1875,25.375,28.0,28.6875,29.0625
0.30005246,0.2894506,0.11954412,0.051278885,-0.015091374,0.018683754,-0.12355757,-0.4025021,-0.35185722,0.06001651,-3.0773537,0.6230326,0.00021238376,-0.14460063,-0.021489017,0.001478559,0.0125546185,-0.0021746266,0.019844925,0.46525502,-1.3844061,1.9072775,-2.091182,-1.5721892,2.4392362,-0.082209475,0.278591,-0.34947672,0.07834822,-0.010925336,-0.101846635,-0.095768064,0.28730422,-9.251196,0.88960326,47.667187,-0.89687943,-1.8581971,-3.6131234,-0.042761542,-0.19629258,-0.21441118,25.5,26.1875,25.375,28.0,28.6875,29.0625
0.3020525,0.37557155,-0.09416583,-0.12374866,-0.0017751902,-0.019885777,-0.11774869,-0.4028231,-0.35190317,0.06003556,-3.077362,0.62305474,0.00026271422,-0.14671277,-0.020393198,0.001795869,0.012524653,-0.0034802232,0.016381998,0.46506163,-1.3838408,1.906535,-2.091038,-1.5722007,2.439056,-0.086222306,0.2806914,-0.3535206,0.08143912,-0.010313316,-0.10239707,-0.019153614,0.24899697,-9.097966,0.91198283,47.657326,-0.7528672,-1.827828,-3.4840016,-0.06476152,-0.19616413,-0.19092676,25.5,26.1875,25.375,28.0,28.6875,29.0625
0.30405167,1.0461153,0.23412074,-0.13003936,0.0026110196,-0.037270885,-0.12699533,-0.40308917,-0.35195708,0.060028628,-3.077377,0.62284166,0.000237338,-0.14524564,-0.021189155,0.0010618524,0.015110937,-0.0074596647,0.02262943,0.4649308,-1.3832874,1.9058651,-2.090892,-1.5722135,2.4387906,-0.08317135,0.2831109,-0.35590467,0.08611493,-0.010842566,-0.10559142,0.019153614,0.2681506,-9.193734,0.9164598,47.690468,-0.890182,-1.7877684,-3.5256019,-0.127507,-0.17189291,-0.13192338,25.5,26.1875,25.375,28.0,28.6875,29.0625
0.3060518,0.37503013,0.18038279,0.082628876,-0.005801638,-0.047824938,-0.114723876,-0.4034059,-0.35198653,0.060047943,-3.0773246,0.62281525,0.00030100645,-0.14614996,-0.021004286,0.0010410799,0.0152186025,-0.008393983,0.016527273,0.46475035,-1.3827221,1.9051107,-2.0907,-1.5722846,2.4386008,-0.08438581,0.2848408,-0.3584227,0.087783925,-0.010519525,-0.100703694,0.05746084,0.34476504,-9.11712,0.9186956,47.63404,-0.91549057,-1.7939646,-3.4790847,-0.13898402,-0.19547856,-0.15123023,25.5,26.1875,25.375,28.0,28.6875,29.0625
0.30805176,0.20976575,-0.4157379,-0.011536241,-0.0019055211,-0.024741847,-0.115673766,-0.40367067,-0.35203195,0.060036823,-3.0772994,0.6226962,0.00023228196,-0.14571466,-0.020329298,0.0014819264,0.016626926,-0.012135559,0.014262012,0.46460602,-1.3821584,1.9044293,-2.0905182,-1.572297,2.4383857,-0.08535471,0.2847827,-0.36100146,0.09439476,-0.01009948,-0.099407725,0.1340753,0.34476504,-9.212888,0.9030289,47.668976,-0.8524927,-1.7380327,-3.4780607,-0.21755263,-0.20138691,-0.1814973,25.5,26.1875,25.375,28.0,28.6875,29.0625
0.3100521,-0.13145538,-0.63194394,0.32389402,-0.022337247,-0.0051885867,-0.11288463,-0.40397757,-0.3520762,0.060045935,-3.0772727,0.6226748,0.0002601836,-0.14578861,-0.02055302,0.0006733643,0.017092088,-0.013796668,0.006991875,0.46443817,-1.3815807,1.9036883,-2.0903504,-1.5723332,2.4382083,-0.085152626,0.28715914,-0.36224818,0.094964534,-0.009768277,-0.091935806,0.038307227,0.3256114,-9.174581,0.91198283,47.678825,-0.88165116,-1.6691251,-3.3633516,-0.27310148,-0.19454946,-0.21905279,25.5,26.1875,25.375,28.0,28.6875,29.0625
0.31205225,-0.5232655,-1.0510981,0.42987734,-0.022775352,0.019746996,-0.11472175,-0.40426683,-0.35211256,0.06003404,-3.0772147,0.6227219,9.865668e-05,-0.14655806,-0.021045744,0.0015254483,0.015760709,-0.012628178,0.0036981907,0.4642341,-1.3809682,1.9029349,-2.0900996,-1.5723084,2.4380414,-0.08528446,0.28705037,-0.3643511,0.09553852,-0.009114756,-0.0887742,-0.05746084,0.4405331,-9.059659,0.87617236,47.683304,-0.8703451,-1.529258,-3.5403478,-0.2761673,-0.19959444,-0.27585384,25.5,26.1875,25.375,28.0,28.6875,29.0625
0.31405243,-0.12378649,-0.22964284,0.35384545,-0.029306648,0.04626313,-0.1221502,-0.40457016,-0.35216793,0.060041267,-3.077218,0.6226651,7.8977e-05,-0.14802167,-0.02237069,0.00095427776,0.014100718,-0.011908178,0.0030639626,0.46406624,-1.3803786,1.902181,-2.0899208,-1.5723084,2.437838,-0.08490188,0.2911424,-0.3675245,0.09322916,-0.00796812,-0.08775849,0.038307227,0.3256114,-9.11712,0.9388393,47.65912,-0.9256246,-1.6993356,-3.571961,-0.31780896,-0.22916728,-0.30721807,25.5,26.1875,25.375,28.0,28.6875,29.0625
0.31605166,-0.7236093,-0.43081447,0.21133107,-0.031425256,0.033780098,-0.11880199,-0.4048766,-0.35219595,0.060043685,-3.0771532,0.6226697,0.000102461636,-0.15044732,-0.023661554,0.0008313047,0.012220059,-0.008605804,0.0032610695,0.46388632,-1.3798001,1.901451,-2.0897424,-1.5723685,2.4376698,-0.08480517,0.29502934,-0.3710587,0.089074254,-0.0077867755,-0.087857045,-0.038307227,0.24899697,-9.11712,0.91421866,47.67614,-0.9215142,-1.7389835,-3.5052786,-0.29305896,-0.23013547,-0.30355746,25.5,26.1875,25.375,28.0,28.6875,29.0625
0.3180523,-1.4930857,-0.8946522,0.3232798,-0.036665667,0.026107866,-0.10871057,-0.40515515,-0.35225955,0.060034197,-3.0771284,0.62264484,4.0535564e-05,-0.15269281,-0.024609715,0.0013467175,0.01008674,-0.003291129,0.0030008242,0.46375433,-1.3791996,1.9007219,-2.089565,-1.5723685,2.4375257,-0.084732436,0.296327,-0.3727246,0.08373642,-0.008277873,-0.08752129,-0.095768064,0.22984336,-9.11712,0.8873621,47.66987,-1.0078311,-1.9060028,-3.517249,-0.23716456,-0.23544657,-0.3178522,25.5,26.1875,25.375,28.0,28.6875,29.0625
0.32005236,-0.7952544,-0.70264214,0.08949354,-0.027157443,0.033373967,-0.12135269,-0.40546843,-0.3522952,0.060042925,-3.0770943,0.62261844,8.2013656e-05,-0.15380548,-0.025295313,-4.5610952e-05,0.01000943,-0.0019575476,0.00305,0.46357456,-1.3786222,1.8999809,-2.0893986,-1.5724167,2.4373343,-0.084086694,0.30030805,-0.37340134,0.07920225,-0.008817998,-0.08692223,-0.095768064,0.30645782,-9.078813,0.98807013,47.675243,-1.0975997,-1.8478107,-3.5795915,-0.18567853,-0.22925313,-0.3473869,25.5,26.1875,25.375,28.0,28.6875,29.0625
0.3220525,-0.940403,-0.9713003,0.21362866,-0.032870255,0.030516233,-0.11049664,-0.40579188,-0.3523713,0.060054388,-3.0771253,0.6225859,9.557907e-05,-0.15742472,-0.026250266,0.002671179,0.0061695296,0.005930807,0.0015307764,0.4634182,-1.377997,1.8991793,-2.0892441,-1.5724047,2.437154,-0.08540871,0.29936785,-0.37788707,0.075855955,-0.008925779,-0.086723335,-0.28730422,0.4213795,-9.040505,0.9545008,47.655537,-1.0914202,-1.8987608,-3.5767236,-0.14258295,-0.225766,-0.35697943,25.5,26.1875,25.375,28.0,28.6875,29.0625
0.3240525,-0.6725035,-1.1477773,0.4210652,-0.04241063,0.04477022,-0.12225408,-0.40606692,-0.35241047,0.060016435,-3.0770671,0.6225513,2.5819296e-05,-0.15791701,-0.02757934,0.0024122098,0.006166946,0.0075606112,0.0069498885,0.46326292,-1.3773841,1.8985099,-2.0891135,-1.5724291,2.436985,-0.083006606,0.30172282,-0.37983826,0.07398723,-0.009670539,-0.08973668,-0.19153613,0.51714754,-9.11712,0.9567419,47.677036,-1.0474371,-1.7021732,-3.546218,-0.08070521,-0.24472591,-0.38998008,25.5,26.1875,25.375,28.0,28.6875,29.0625
0.32605255,-0.7024817,-0.7535677,0.046501663,-0.042317025,0.033406474,-0.12241607,-0.40638113,-0.35246098,0.06000511,-3.0770323,0.6225814,-6.531003e-05,-0.15896274,-0.027933002,0.0026240917,0.005499193,0.00854149,0.00858857,0.46307096,-1.3767347,1.8977197,-2.0889099,-1.5724171,2.4368167,-0.08329165,0.3030169,-0.38195643,0.0736311,-0.009524375,-0.091659576,-0.22984336,0.63206923,-9.136273,1.0126908,47.653748,-1.234115,-1.7508823,-3.5420208,-0.055281043,-0.23941101,-0.35915792,25.5,26.1875,25.375,28.0,28.6875,29.0625
0.32805163,-1.466679,-1.4623209,-0.12371513,-0.043983005,0.030697718,-0.10524846,-0.40669572,-0.35251004,0.06001099,-3.0770133,0.62255716,5.209222e-06,-0.1612816,-0.026687322,0.0031071135,0.00499021,0.009008185,0.008324008,0.46291348,-1.376146,1.8969783,-2.0887783,-1.5724648,2.436647,-0.087479144,0.30407512,-0.38470927,0.07466743,-0.009283654,-0.09558264,-0.4213795,0.51714754,-9.289502,0.89631605,47.686886,-0.98413885,-1.7084522,-3.6129694,-0.030818267,-0.24232668,-0.36192212,25.5,26.1875,25.375,28.0,28.6875,29.0625
0.3300519,-1.2195935,-1.6809182,-0.025162045,-0.04082813,0.04152183,-0.12070155,-0.40702495,-0.35255554,0.06000193,-3.0770056,0.6224928,2.0987554e-05,-0.16093297,-0.027834818,0.0032978782,0.0056855907,0.009053718,0.016831758,0.46272266,-1.3755089,1.8962129,-2.0886457,-1.5724887,2.4364173,-0.08470486,0.3051837,-0.38695192,0.076059565,-0.009935153,-0.101313725,-0.24899697,0.40222588,-9.289502,0.97240865,47.696735,-1.2629061,-1.6389052,-3.6269765,-0.036792364,-0.25479478,-0.27529448,25.5,26.1875,25.375,28.0,28.6875,29.0625
0.3320518,-1.9982328,-1.7510928,-0.0451133,-0.025733497,0.023607118,-0.09447432,-0.40735528,-0.35263866,0.06001846,-3.0770662,0.62242764,4.9670594e-05,-0.1621794,-0.0274013,0.0022439188,0.0067573558,0.007281325,0.018632306,0.4625659,-1.3748829,1.8953995,-2.0885017,-1.5724648,2.4362125,-0.086315535,0.30915833,-0.38961846,0.07681165,-0.010106799,-0.10472371,-0.4405331,0.36391866,-9.251195,0.97464454,47.664497,-1.1946712,-1.6324992,-3.6573331,-0.006238667,-0.24746913,-0.22756478,25.5,26.1875,25.375,28.0,28.6875,29.0625
0.334052,-1.1809703,-0.7137397,-0.045303892,-0.026995527,0.046941314,-0.114696495,-0.4076637,-0.35269886,0.059989586,-3.0770361,0.6222634,4.3567296e-05,-0.16227333,-0.026961496,0.0007736674,0.0073438655,0.0042723627,0.023173494,0.4624336,-1.3742095,1.8946356,-2.08837,-1.572513,2.435982,-0.08756329,0.31201807,-0.38996112,0.07722962,-0.009300968,-0.11051447,-0.45968673,0.2681506,-9.212888,0.9254084,47.66987,-1.1396391,-1.8116689,-3.751578,0.036925495,-0.26982704,-0.16391392,25.5,26.1875,25.375,28.0,28.6875,29.0625
0.33605233,-0.64771634,0.089049764,-0.08750417,-0.022341656,0.051905587,-0.12605196,-0.40799287,-0.35273173,0.05997892,-3.076979,0.6222506,1.2752333e-05,-0.16340332,-0.027060343,0.001077001,0.008144304,0.002317464,0.025763387,0.46222925,-1.3735598,1.893844,-2.088177,-1.5725487,2.4357774,-0.08834565,0.31486437,-0.39524612,0.081762746,-0.009157017,-0.11388501,-0.19153614,0.21068975,-9.32781,0.98135734,47.677036,-1.112674,-1.8391914,-3.6721418,-0.004060543,-0.27004167,-0.093745336,25.5,26.1875,25.375,28.0,28.6875,29.0625
0.33805248,-0.9548179,0.2877244,0.1454002,0.00046898468,0.023983847,-0.114145786,-0.40831053,-0.35280427,0.059970956,-3.0770116,0.62212324,-9.418938e-06,-0.16454513,-0.027118737,8.213338e-05,0.008405932,0.0005341045,0.024220817,0.4620729,-1.3729095,1.8930563,-2.088033,-1.5725363,2.4355378,-0.089473225,0.31896713,-0.39817467,0.08230049,-0.008601819,-0.113470264,-0.38307226,0.11492168,-9.308656,0.92093146,47.678825,-1.0849421,-2.003694,-3.6245723,0.01306789,-0.27900502,-0.05717188,25.5,26.1875,25.375,28.0,28.6875,29.0625
0.34005168,-0.43241766,1.2314343,0.25572097,0.0066666137,0.02329034,-0.12276632,-0.40865675,-0.35285676,0.05998013,-3.07701,0.62218094,6.818499e-05,-0.16477904,-0.027015096,0.00030866486,0.009533457,-0.0020056567,0.021724079,0.46188083,-1.3722849,1.8922647,-2.0879114,-1.5725607,2.4353824,-0.08982313,0.3205059,-0.40180272,0.08716528,-0.008468552,-0.11132339,-0.30645782,0.019153614,-9.251196,0.9388393,47.65464,-1.0997462,-2.0346863,-3.5134914,0.0088885175,-0.3096758,-0.035992883,25.5,26.1875,25.375,28.0,28.6875,29.0625
0.34205192,-0.31328785,1.7391305,0.23028204,0.029854178,0.010470577,-0.119215995,-0.40898108,-0.35290927,0.059976675,-3.0770123,0.62206954,5.597708e-05,-0.1659184,-0.026497133,0.0006702927,0.011625364,-0.0041377153,0.01660131,0.46170038,-1.3716471,1.8914751,-2.0877416,-1.5725731,2.4351325,-0.09100966,0.32302094,-0.4070713,0.09276762,-0.009387726,-0.10738282,-0.34476504,0.076614454,-9.270349,0.98135734,47.63852,-1.0190599,-2.1248276,-3.5480282,-0.054188706,-0.30309263,-0.078229375,25.5,26.1875,25.375,28.0,28.6875,29.0625
0.3440521,-0.53233427,1.6882619,0.06340659,0.039338462,0.01131837,-0.11277135,-0.40930027,-0.35296866,0.05996952,-3.076963,0.62202466,-2.9470255e-06,-0.16556133,-0.024409994,-0.00015306001,0.014239767,-0.0089408,0.008946495,0.46154332,-1.3709744,1.8906387,-2.0875132,-1.5725969,2.4349542,-0.094049625,0.3235831,-0.4072049,0.0978095,-0.009579785,-0.10276754,-0.45968673,0.095768064,-9.174581,0.8784135,47.65464,-1.0314193,-1.9860349,-3.450709,-0.068688825,-0.30062768,-0.12198901,25.5,26.1875,25.375,28.0,28.6875,29.0625
0.3460526,-0.41130438,1.3438,-0.034644533,0.037548482,0.01838374,-0.12176957,-0.40962937,-0.3529806,0.059946883,-3.0768826,0.6220454,-6.591834e-05,-0.16290553,-0.024622401,-0.0015073345,0.01706984,-0.015058491,0.008259394,0.4613044,-1.3703256,1.8898734,-2.0873196,-1.5726327,2.4347389,-0.091422245,0.32494423,-0.4071388,0.103120215,-0.009384709,-0.099453606,-0.34476504,-0.019153614,-9.193734,0.97464454,47.691364,-1.0022577,-2.0584536,-3.6592155,-0.14959112,-0.32356927,-0.15392584,25.5,26.1875,25.375,28.0,28.6875,29.0625
0.34805235,-0.42300236,1.1611881,0.05642508,0.0056038294,0.046157002,-0.12294774,-0.40995592,-0.3530567,0.059953257,-3.0768852,0.6219535,-0.00013213161,-0.16285022,-0.023365667,-0.0021121998,0.0189922,-0.018311871,0.0020294362,0.46114781,-1.3696523,1.8890017,-2.0870788,-1.5726207,2.434525,-0.093252935,0.32598817,-0.4080234,0.106739156,-0.009652709,-0.095053345,-0.34476504,-0.05746084,-9.270349,0.90750587,47.723602,-1.017769,-1.9350698,-3.807525,-0.22483683,-0.33679336,-0.21197355,25.5,26.1875,25.375,28.0,28.6875,29.0625
0.35005188,-1.5562657,0.38526872,-0.12508431,0.0024387045,0.04224047,-0.10922465,-0.41029248,-0.35310057,0.05994929,-3.0768373,0.6219452,-0.00020302102,-0.1642715,-0.022699999,-0.00079287356,0.019625576,-0.017352337,-0.001909046,0.46094304,-1.3689786,1.888153,-2.0868385,-1.5726331,2.4343216,-0.094865866,0.32563835,-0.41155097,0.11004417,-0.010654302,-0.09272345,-0.4405331,-0.095768064,-9.251195,0.94331104,47.695843,-0.79799783,-1.933625,-3.827625,-0.2587976,-0.32638282,-0.2771308,25.5,26.1875,25.375,28.0,28.6875,29.0625
0.35205206,-1.3834282,0.31058595,-0.36636102,-0.0051398906,0.06559807,-0.116814755,-0.41060668,-0.35314092,0.05993485,-3.07677,0.6220071,-0.00028449617,-0.1658724,-0.023630938,-0.0013909237,0.018713713,-0.016443642,-0.0015033145,0.4607512,-1.36833,1.8873633,-2.086624,-1.5726451,2.4341774,-0.094777666,0.32963192,-0.41468176,0.10795709,-0.0102654025,-0.0930399,-0.34476504,0.019153614,-9.461885,0.9388393,47.67793,-0.9818088,-1.9513359,-3.7424307,-0.2898445,-0.3256486,-0.26678744,25.5,26.1875,25.375,28.0,28.6875,29.0625
0.35405225,-1.8658711,-0.45835388,-0.47148362,-0.009494657,0.06379668,-0.111257225,-0.41093832,-0.35318795,0.059933927,-3.076702,0.6220517,-0.00031282392,-0.16921598,-0.02475386,0.0002147185,0.017096773,-0.011504708,-0.0044078697,0.46057114,-1.3676686,1.8865246,-2.086397,-1.5726813,2.4340343,-0.09512809,0.33207598,-0.42121312,0.106904306,-0.011033176,-0.09048027,-0.36391866,0.17238252,-9.519346,0.92093146,47.677036,-0.93269855,-1.9950862,-3.5904415,-0.28373018,-0.3449364,-0.334733,25.5,26.1875,25.375,28.0,28.6875,29.0625
0.3560524,-1.6338439,-0.34901285,-0.43266374,-0.040098734,0.076792,-0.11605043,-0.41127667,-0.35321268,0.05992391,-3.0766149,0.6220349,-0.00037306873,-0.17191927,-0.025385985,-0.00033971007,0.015545011,-0.007372283,-0.0065461053,0.46035498,-1.3669949,1.8856863,-2.086148,-1.5727295,2.4338193,-0.09593933,0.33576941,-0.4231931,0.100797184,-0.011506633,-0.08914945,-0.34476504,0.21068975,-9.634268,0.9254084,47.67345,-0.94288254,-2.0431902,-3.4759483,-0.26479384,-0.34115872,-0.37141734,25.5,26.1875,25.375,28.0,28.6875,29.0625
0.35805166,-1.2200487,-0.8581864,-0.9260612,-0.035696354,0.0692187,-0.11159284,-0.41162503,-0.35327217,0.05992793,-3.0765975,0.62201107,-0.0003597776,-0.1734865,-0.025875196,-0.0002914998,0.0139767695,-0.0035009198,-0.007348615,0.460175,-1.3663203,1.884828,-2.0859578,-1.5727538,2.4336271,-0.09612073,0.33670595,-0.42356253,0.09606347,-0.011834675,-0.08852702,-0.34476507,0.2873042,-9.691729,0.96569055,47.693153,-0.9153689,-2.203226,-3.6856325,-0.21322754,-0.3484706,-0.42158544,25.5,26.1875,25.375,28.0,28.6875,29.0625
0.36005202,-1.392603,-1.4126948,-0.5386765,-0.06416344,0.0694072,-0.112573646,-0.41198465,-0.3533327,0.059934467,-3.0765808,0.6219881,-0.00031369337,-0.17466022,-0.025878398,-0.0015633617,0.0143962735,-0.0024770836,-0.006686593,0.45999482,-1.3656362,1.8839549,-2.0857794,-1.57279,2.4334352,-0.096476264,0.33996385,-0.42396885,0.092476666,-0.012677121,-0.089541465,-0.24899697,0.53630114,-9.80665,0.9030289,47.661808,-0.98382735,-2.1984375,-3.7773457,-0.15306748,-0.3393985,-0.44980055,25.5,26.1875,25.375,28.0,28.6875,29.0625
0.3620524,-1.5962965,-1.8336574,-0.9244735,-0.072809726,0.053247105,-0.10992519,-0.41234738,-0.35336635,0.059924703,-3.0765262,0.6220711,-0.00030202445,-0.17586336,-0.025607068,-0.002542478,0.014004044,-0.0021480161,-0.004307591,0.4597663,-1.3649502,1.8831185,-2.0856125,-1.5728258,2.433266,-0.09794339,0.34248632,-0.42439592,0.08989778,-0.012489377,-0.09338779,-0.36391866,0.51714754,-9.921572,0.8717007,47.66987,-0.8461454,-2.161444,-3.8998766,-0.11115329,-0.33177203,-0.4500713,25.5,26.1875,25.375,28.0,28.6875,29.0625
0.36405164,-0.68000513,-1.4565336,-0.68181086,-0.084253915,0.054643493,-0.12863612,-0.41272697,-0.3533993,0.05993991,-3.0764832,0.6220788,-0.00023389667,-0.17780349,-0.025533818,-0.0009817306,0.012832782,0.0016173034,-0.00077619404,0.45953786,-1.364278,1.8822335,-2.0854094,-1.5728863,2.4330482,-0.09918266,0.3416064,-0.4270042,0.089475654,-0.013126293,-0.09815612,-0.095768064,0.5746084,-9.921572,0.9925471,47.672558,-0.81733,-2.216405,-4.0380445,-0.08509359,-0.33946615,-0.42867452,25.5,26.1875,25.375,28.0,28.6875,29.0625
0.3660517,-0.6686148,-1.7822372,-0.5211291,-0.06939754,0.04249398,-0.114860944,-0.41308004,-0.35347098,0.05993253,-3.07651,0.62207806,-0.0002479264,-0.18085894,-0.026838014,0.0019612564,0.009414621,0.0075287684,0.008068739,0.4593456,-1.3635818,1.8813838,-2.0852654,-1.572862,2.4328525,-0.099680275,0.34100893,-0.4331868,0.089420296,-0.012714329,-0.10749851,-0.30645782,0.59376204,-9.672575,1.0015011,47.664497,-0.70631754,-1.9112036,-3.7805738,-0.060847256,-0.33914065,-0.36221066,25.5,26.1875,25.375,28.0,28.6875,29.0625
0.36805177,-0.64078283,-0.5100478,-0.9010001,-0.03700838,0.015029243,-0.11549048,-0.41342548,-0.3535281,0.059912264,-3.0764847,0.62195665,-0.00029055792,-0.18313134,-0.026530495,0.0027246499,0.008664158,0.00921642,0.009667317,0.45916498,-1.3628603,1.8805221,-2.0850742,-1.5728859,2.4325998,-0.10194471,0.34239337,-0.4369192,0.089910306,-0.012809069,-0.11135957,-0.15322891,0.53630114,-9.749189,0.9679317,47.705692,-0.7428154,-1.8938689,-3.7613072,-0.021221373,-0.33878314,-0.30969447,25.5,26.1875,25.375,28.0,28.6875,29.0625
0.37005213,0.25537363,0.6011399,-1.012046,-0.02091234,0.024653256,-0.124871366,-0.41382492,-0.35359463,0.059968714,-3.076541,0.6219033,-0.0001150431,-0.18341985,-0.028564898,0.0034501017,0.006914752,0.010819353,0.020661388,0.45896205,-1.3622224,1.8795885,-2.0848944,-1.5729212,2.4323568,-0.09912311,0.34350398,-0.4400447,0.08968593,-0.011959063,-0.11953547,-0.038307227,0.5363012,-9.883265,1.0350704,47.684196,-0.74527013,-1.913699,-3.7304435,-0.003377831,-0.34061497,-0.20720813,25.5,26.1875,25.375,28.0,28.6875,29.0625
0.37205198,-0.29812577,-0.37893447,-0.66170084,-0.021865306,0.030532768,-0.11350972,-0.4141791,-0.35364312,0.059946653,-3.0765245,0.6219005,-0.00015372441,-0.18411668,-0.027589658,0.0012420102,0.008562023,0.0060129883,0.02003245,0.45874527,-1.3615133,1.8787526,-2.0847385,-1.5729212,2.4321408,-0.10163198,0.34874967,-0.44192207,0.0913478,-0.011313455,-0.121416315,-0.05746084,0.4405331,-9.691729,0.9701675,47.685097,-0.8494977,-2.0001044,-3.8226004,0.023875946,-0.3658129,-0.17412496,25.5,26.1875,25.375,28.0,28.6875,29.0625
0.37405223,-0.6764949,-0.10283669,-0.65658635,-0.036204632,0.02643652,-0.112009704,-0.4145609,-0.35367975,0.059965193,-3.0764852,0.62187,-6.308465e-05,-0.18246312,-0.02785622,-0.0014406326,0.012000861,-0.0005541424,0.023504665,0.4585299,-1.360839,1.8778552,-2.084534,-1.5729936,2.431912,-0.09955132,0.35392454,-0.44299316,0.09464158,-0.011484857,-0.122807056,0.038307227,0.36391866,-9.749189,0.92764956,47.66808,-0.7765109,-2.0503533,-3.821017,0.011452623,-0.3640068,-0.14302242,25.5,26.1875,25.375,28.0,28.6875,29.0625
