Tylouw/Master_Thesis_Code/training_data/batch_1/small_rod_t0.1/sample_80_session_3.csv
timestamp[s],tcp_force_x[N],tcp_force_y[N],tcp_force_z[N],tcp_force_rx[Nm?],tcp_force_ry[Nm?],tcp_force_rz[Nm?],tcp_pose_x[m],tcp_pose_y[m],tcp_pose_z[m],tcp_pose_rx[rot_vec_x],tcp_pose_ry[rot_vec_y],tcp_pose_rz[rot_vec_z],tcp_velo_x[m/s],tcp_velo_y[m/s],tcp_velo_z[m/s],tcp_velo_rx[rot_vec_x/s],tcp_velo_ry[rot_vec_y/s],tcp_velo_rz[rot_vec_z/s],q1[rad],q2[rad],q3[rad],q4[rad],q5[rad],q6[rad],qd1[rad/s],qd2[rad/s],qd3[rad/s],qd4[rad/s],qd5[rad/s],qd6[rad/s],tool_acc_x,tool_acc_y,tool_acc_z,current_of_whole_robot[A],voltage_of_whole_robot[V],current_J1[A],current_J2[A],current_J3[A],current_J4[A],current_J5[A],current_J6[A],temp_J1[C],temp_J2[C],temp_J3[C],temp_J4[C],temp_J5[C],temp_J6[C]
7.7902223e-07,-0.47933266,-0.48740348,1.0896794,-0.0025757554,0.005990989,0.001019014,-0.38103616,-0.34851605,0.05994525,-3.0784698,0.6249059,-0.0002633726,0.0021406722,0.0011101568,-0.0021813894,0.0024712507,-0.005089846,9.780338e-05,0.47779807,-1.4259217,1.9577507,-2.1008089,-1.5707573,2.452776,-9.294279e-05,0.00079512136,0.0038485602,0.0010119055,0.00015648942,-0.00019305263,0.095768064,0.05746084,-8.772355,0.7978386,47.737934,0.08008722,-2.776156,-2.517777,-0.47532666,0.16994557,-0.0445427,26.5,27.375,26.5625,29.8125,31.0,31.5625
0.002052861,0.45382628,-0.07550874,1.0237722,-0.00087327394,0.025510903,-0.010044138,-0.38104284,-0.34850827,0.05993835,-3.078474,0.62488765,-0.00023152454,-0.0011632242,-0.00061145157,-0.0025807277,-0.0018216845,0.0031440123,0.000121402925,0.47778615,-1.4259206,1.9577745,-2.1008499,-1.5707697,2.452752,-9.1591704e-05,0.004062777,0.003907097,-0.011600058,0.00015364132,-0.00021227084,0.076614454,0.076614454,-8.810662,0.7463667,47.704796,0.119760446,-2.8680413,-2.454542,-0.41157323,0.1639828,-0.053658858,26.5,27.375,26.5625,29.8125,31.0,31.5625
0.004051856,0.23697932,0.18597868,1.0096202,-0.0031551123,0.014851197,-0.005850686,-0.3810652,-0.34852907,0.059944645,-3.0784976,0.62487304,-0.00016237573,-0.0023885737,-0.0012490111,-0.0019743834,-0.0035679808,0.0065062703,0.000119225726,0.4778101,-1.4258846,1.9577273,-2.1008856,-1.5707816,2.452764,-9.027928e-05,0.0041012806,0.0031840086,-0.014704182,0.00014949226,-0.00020777255,0.11492168,0.19153613,-8.714894,0.7933669,47.70838,0.08280436,-3.0848212,-2.6896725,-0.3075161,0.16001427,-0.04753393,26.5,27.375,26.5625,29.8125,31.0,31.5625
0.006051972,0.11999557,0.09723031,0.875076,0.018467348,-0.0016266594,0.0013190291,-0.381056,-0.34853315,0.059947826,-3.0785234,0.62487835,-0.00017223875,-0.0013304844,-0.0006967271,-0.0012987287,-0.0020589284,0.003625454,0.00011388952,0.4778101,-1.425909,1.9577502,-2.1008956,-1.5707573,2.452764,-8.9003726e-05,0.002510678,0.00210528,-0.008782724,0.0001454715,-0.00020204793,0.038307227,0.19153613,-8.6574335,0.7396539,47.690468,0.08475788,-3.0498471,-2.5867236,-0.32444543,0.15735951,-0.053163327,26.5,27.375,26.5625,29.8125,31.0,31.5625
0.008051932,0.40651572,0.69813424,0.5992788,0.043867752,-0.01881311,-0.006062838,-0.38107005,-0.34852698,0.05995274,-3.078534,0.624938,-0.0001292059,-0.0005468791,-0.00028722672,-0.00036082132,-0.0012188081,0.0020313035,0.00010876963,0.47778615,-1.4259219,1.9577612,-2.100929,-1.5707573,2.452776,-8.776397e-05,0.00041553561,0.0012736089,-0.004053952,0.00014165587,-0.00019653875,0.076614454,0.17238252,-8.829816,0.7105615,47.68062,0.06313977,-2.937635,-2.5395863,-0.37379277,0.1649272,-0.052295607,26.5,27.375,26.5625,29.8125,31.0,31.5625
0.010051984,0.4175577,0.67643625,0.018122926,0.041366987,-0.0185823,-0.007100722,-0.3810636,-0.34852389,0.05994989,-3.0784907,0.6248525,-0.00015395175,-0.00019119585,-9.667383e-05,-0.0001659086,-0.0006380609,0.00092599605,9.675995e-05,0.4778101,-1.4258981,1.9577268,-2.100869,-1.5707935,2.452752,-9.4700576e-05,5.5749406e-06,0.0008130559,-0.0019348649,0.00013803455,-0.00019172428,0.1340753,0.11492168,-9.040505,0.7732232,47.678825,-0.12507448,-2.2203288,-3.1583235,-0.42563683,0.16899946,-0.086207464,26.5,27.375,26.5625,29.8125,31.0,31.5625
0.012051721,0.6773363,0.4359745,0.063854,0.00038269043,0.008804475,-0.020968862,-0.38103315,-0.34851673,0.059907403,-3.0784385,0.6248611,-0.00030948786,7.60739e-05,3.31347e-05,-0.00415889,0.0032156766,-0.006558589,0.00022867668,0.4778101,-1.4258468,1.9577602,-2.1008456,-1.5707697,2.452764,-9.5823576e-05,0.0094006015,-0.0009473739,-0.0011511173,0.0001555239,-0.00032258473,0.17238252,0.17238252,-9.308657,0.7239871,47.71286,-0.32524198,-2.3134372,-3.42302,-0.40783727,0.1716556,-0.11392373,26.5,27.375,26.5625,29.8125,31.0,31.5625
0.014051922,-0.63988394,-0.7032689,-0.19502601,-0.019684318,0.01286557,-0.008315808,-0.38103116,-0.34852606,0.059919458,-3.0784743,0.6248105,-0.00029169736,-0.004982994,-0.00037452596,-0.0038811779,0.0024969229,-0.0052360757,0.001104682,0.4778205,-1.425868,1.9577569,-2.1008456,-1.5707573,2.4527383,-0.00406771,0.017246371,-0.010590089,-0.00085989246,0.00016386384,-0.0051644244,0.05746084,0.22984336,-9.385271,0.7553206,47.7245,-0.25143966,-2.8723154,-3.087017,-0.41916096,0.19160655,-0.098156944,26.5,27.375,26.5625,29.8125,31.0,31.5625
0.016052123,-1.0154101,-1.931249,-0.3476335,-0.033926524,0.039909348,-0.0036171095,-0.3810361,-0.34850806,0.059876204,-3.0783925,0.62483007,-0.00044023318,-0.00624674,0.00061210524,-0.0030102036,0.0017380227,-0.0038672301,0.0035768668,0.47778383,-1.4257609,1.9577225,-2.100797,-1.5707573,2.4527242,-0.0070169903,0.015809873,-0.011010897,-0.00056809105,0.00020465428,-0.010586067,-0.17238253,0.34476504,-9.5385,0.784413,47.7254,-0.1871545,-2.5942473,-3.2582784,-0.42904285,0.21397081,-0.03511566,26.5,27.375,26.5625,29.8125,31.0,31.5625
0.018051717,-1.186094,-1.8120408,-0.3643809,-0.064809255,0.06128109,-0.029869098,-0.38104513,-0.34849036,0.05986623,-3.0783672,0.62482256,-0.00043069245,-0.006044141,0.0005888397,-0.0032879885,0.0021702333,-0.0049170344,0.008818029,0.47775978,-1.4257486,1.957734,-2.1008089,-1.5707816,2.4526987,-0.0068515437,0.01650409,-0.011341625,0.00019787284,0.00030182573,-0.015661854,-0.22984336,0.4405331,-9.730036,0.73069996,47.709274,-0.23195955,-2.4758382,-3.4801705,-0.4474076,0.19736636,0.009381814,26.5,27.375,26.5625,29.8125,31.0,31.5625
0.020051746,-1.9154682,-1.9350251,-0.5515147,-0.061194975,0.053152665,-0.033325348,-0.38103008,-0.3485056,0.059858136,-3.0783672,0.62470335,-0.00044950066,-0.006473208,-0.00052366353,-0.0034047198,0.00068472076,-0.005977499,0.015163139,0.4778079,-1.4257238,1.9577216,-2.100797,-1.5707926,2.4526725,-0.0064430274,0.01887905,-0.013876067,0.0006080773,0.002100886,-0.021600468,-0.40222588,0.51714754,-9.80665,0.7665104,47.70211,-0.3279013,-2.42121,-3.4872808,-0.43985146,0.20862158,0.08547236,26.5,27.375,26.5625,29.8125,31.0,31.5625
0.022051759,-1.5292915,-1.7875401,-0.7163842,-0.045010485,0.06410584,-0.059065826,-0.38106084,-0.34849456,0.059856366,-3.0783606,0.6247417,-0.0004488392,-0.0077558667,-0.0012028927,-0.0026139158,-0.0015531664,-0.0049868408,0.014432154,0.4777595,-1.4256877,1.9576844,-2.100797,-1.5707921,2.4526489,-0.007414885,0.019641446,-0.01655417,0.0006096032,0.003626573,-0.021842906,-0.49799395,0.49799395,-9.864111,0.7530795,47.709274,-0.38294995,-2.3968415,-3.528492,-0.45139286,0.18184654,0.11625776,26.5,27.375,26.5625,29.8125,31.0625,31.5625
0.024052063,-1.3230845,-1.1181973,-0.7063933,-0.044014875,0.06966267,-0.07885289,-0.38106832,-0.3485244,0.05984551,-3.0784032,0.62473583,-0.0005489103,-0.008942438,-0.0009928228,-0.0025623878,-0.0016263643,-0.004565301,0.006373582,0.4777591,-1.4256152,1.9576238,-2.100785,-1.5707206,2.4526393,-0.008803444,0.02102551,-0.018223522,0.0004897359,0.0034969992,-0.015171633,-0.49799395,0.49799395,-9.883265,0.83365434,47.73077,-0.43690586,-2.4351597,-3.4589272,-0.4627064,0.19847691,0.09223792,26.5,27.375,26.5625,29.8125,31.0625,31.5625
0.026053485,-1.4444633,-1.093476,-0.5626679,-0.03881319,0.061422955,-0.09220356,-0.3810729,-0.34851298,0.059821844,-3.078377,0.62471646,-0.0006068367,-0.010804694,-0.00069377135,-0.0020611517,-0.0019435858,-0.003153948,-0.0021182953,0.47773448,-1.4255669,1.9576229,-2.100785,-1.5707206,2.452606,-0.010819506,0.022292467,-0.020792829,0.00039511095,0.0031271027,-0.008693703,-0.63206923,0.47884032,-9.883265,0.73069996,47.677036,-0.44026768,-2.3800693,-3.46636,-0.45475596,0.18503875,0.0066849403,26.5,27.375,26.5625,29.8125,31.0625,31.5625
0.028052228,-1.4890282,-1.2391162,-0.42705405,-0.03198061,0.06804328,-0.09383822,-0.38110256,-0.34851906,0.0598265,-3.0783937,0.6247597,-0.0005882999,-0.011626925,-0.00068752695,-0.0019674466,-0.0020645354,-0.002757035,-0.005011509,0.47771007,-1.4255308,1.9575738,-2.100797,-1.5707086,2.4526064,-0.011541672,0.023314238,-0.022158137,0.0003312571,0.0030503508,-0.006521558,-0.6512228,0.34476504,-9.844957,0.8112748,47.70032,-0.44816732,-2.3345609,-3.5193944,-0.46960172,0.20253399,-0.055088125,26.5,27.375,26.5625,29.8125,31.0625,31.5625
0.030052224,-1.1662736,-0.9485743,-0.4125168,-0.01797235,0.07365942,-0.10203461,-0.3811293,-0.3485176,0.059821554,-3.078369,0.62475306,-0.0005800683,-0.013132619,-0.0011530443,-0.0011873124,-0.0033413887,-0.0012076605,-0.0048502437,0.47769788,-1.4254705,1.9575137,-2.100785,-1.570732,2.4525933,-0.012377686,0.024316266,-0.025073707,0.00028009136,0.0034649007,-0.0075180866,-0.5554548,0.19153613,-9.844957,0.7709874,47.675243,-0.5119842,-2.2595282,-3.5193362,-0.45917267,0.20292863,-0.050266873,26.5,27.375,26.5625,29.8125,31.0625,31.5625
0.03205225,-1.4226575,-0.109204754,-0.24220578,-0.016293777,0.05928612,-0.10820438,-0.38117382,-0.348527,0.05982348,-3.078376,0.624793,-0.0005511939,-0.014132159,-0.0012009458,-0.001340727,-0.0044415696,-0.0018668734,-0.0046087247,0.47767335,-1.425398,1.9574293,-2.100797,-1.570732,2.4525928,-0.014046271,0.026061244,-0.026706044,0.00024229546,0.0047405204,-0.009429591,-0.47884035,0.17238252,-9.749189,0.7105615,47.694946,-0.5102705,-2.3434336,-3.4607532,-0.471581,0.18751386,-0.047988553,26.5,27.375,26.5625,29.8125,31.0625,31.5625
0.034052484,-1.0902818,0.25176132,-0.24713382,0.0098358635,0.050772976,-0.12044981,-0.38117963,-0.34854317,0.05980856,-3.078414,0.6247814,-0.00066611456,-0.014846653,-0.001976739,-0.0008742004,-0.0067239874,-0.0016337525,-0.0035460228,0.4776492,-1.4253378,1.9573921,-2.100785,-1.570659,2.4525566,-0.01457241,0.026744138,-0.028523797,0.00011465298,0.006654868,-0.011021498,-0.34476504,0.0,-9.672575,0.7665104,47.705692,-0.53500676,-2.3138375,-3.5221114,-0.4526061,0.17565016,-0.021971993,26.5,27.375,26.5625,29.8125,31.0625,31.5625
0.036052387,-0.99877256,0.24595821,-0.16147442,0.0343808,0.038965352,-0.12710206,-0.38124815,-0.34852293,0.059813675,-3.0783868,0.6248347,-0.0005489401,-0.016540287,-0.0024502266,-0.00034286958,-0.008745354,-0.0009599158,-0.0054010022,0.47758853,-1.4252774,1.9573196,-2.1008208,-1.5707186,2.4525328,-0.016257646,0.028445147,-0.031657215,1.3907172e-05,0.00813409,-0.010852549,-0.24899697,-0.019153614,-9.576807,0.76874626,47.698532,-0.48199654,-2.3282537,-3.4197695,-0.43591297,0.15701255,-0.06147547,26.5,27.375,26.5625,29.8125,31.0625,31.5625
0.038052436,-0.8597043,0.7131005,-0.03708932,0.038496945,0.03456699,-0.13035747,-0.38128006,-0.3485595,0.059828587,-3.0784583,0.62481064,-0.00051153917,-0.017740931,-0.003204062,0.00020826345,-0.009286395,0.0004462556,-0.0047665616,0.4776007,-1.4252288,1.9572357,-2.100845,-1.5706829,2.4525208,-0.015917512,0.030055705,-0.0347514,9.08039e-07,0.007962018,-0.011144218,-0.22984336,-0.095768064,-9.576807,0.78217715,47.703903,-0.52733505,-2.3443322,-3.4001172,-0.44680452,0.1365558,-0.0944233,26.5,27.375,26.5625,29.8125,31.0625,31.5625
0.04005254,-1.0480301,0.14638072,-0.12095258,0.042315915,0.027979022,-0.13778797,-0.38131988,-0.34854826,0.059818152,-3.0784476,0.62488425,-0.00056378805,-0.01904527,-0.003020756,0.00070348673,-0.009020875,0.0019799226,-0.004984057,0.47752836,-1.4251568,1.9571747,-2.1008327,-1.570659,2.4524958,-0.016833384,0.030777955,-0.03670863,5.9288457e-08,0.00701685,-0.0118398145,-0.19153613,-0.17238252,-9.519346,0.8112748,47.687782,-0.5007595,-2.3256364,-3.3402271,-0.45918086,0.14953941,-0.09491881,26.5,27.375,26.5625,29.8125,31.0625,31.5625
0.04205226,-0.8744489,0.029294368,-0.068159334,0.026211873,0.031183252,-0.15090515,-0.38137558,-0.3485656,0.059839286,-3.0784912,0.6249126,-0.0005294516,-0.02005043,-0.0028768461,0.00085046235,-0.0087733595,0.0026624748,-0.0053036786,0.4774921,-1.4250966,1.957055,-2.1008208,-1.5706352,2.4524717,-0.017668158,0.031866238,-0.038286846,3.8711123e-09,0.006480486,-0.012352634,-0.1340753,-0.076614454,-9.595961,0.7978386,47.698532,-0.53272676,-2.219908,-3.330646,-0.44079882,0.14813022,-0.08675824,26.5,27.375,26.5625,29.8125,31.0625,31.5625
0.044052847,-0.2832309,-0.047538888,-0.16484924,0.0017295148,0.03980349,-0.16025269,-0.38138643,-0.34856874,0.059832055,-3.078478,0.62498766,-0.0005552039,-0.020956783,-0.003232137,0.00084201235,-0.009272697,0.0026743338,-0.0056210933,0.47747988,-1.42506,1.9570297,-2.1008208,-1.5706233,2.452508,-0.018157326,0.03371295,-0.040374912,2.5275598e-10,0.006913892,-0.01252396,-0.26815057,0.05746084,-9.557653,0.78888994,47.696735,-0.5062739,-2.192613,-3.3488774,-0.42658317,0.13760206,-0.07612484,26.5,27.375,26.5625,29.8125,31.0625,31.5625
0.046052348,-0.40770096,-0.36669266,-0.080241464,-0.00086676236,0.030508015,-0.17458813,-0.38146988,-0.348587,0.059864447,-3.0785558,0.6249658,-0.00047617307,-0.022556318,-0.003298615,0.001567394,-0.009862349,0.004375049,-0.007522224,0.4774196,-1.4249878,1.9568733,-2.1008208,-1.5705994,2.4524243,-0.019343967,0.034570698,-0.043012477,1.650316e-11,0.0066522015,-0.011806943,-0.22984336,0.1340753,-9.5385,0.76874626,47.70032,-0.49360687,-2.159712,-3.347309,-0.42786127,0.14508815,-0.07460679,26.5,27.375,26.5625,29.8125,31.0625,31.5625
0.0480523,-0.73639894,-0.97167903,-0.28024065,0.00324237,0.023333574,-0.17046176,-0.38149992,-0.34859565,0.059853844,-3.0785365,0.62501985,-0.0004909838,-0.023278851,-0.003369198,0.0015769253,-0.009218358,0.0049511297,-0.008338453,0.47740746,-1.4249034,1.9568013,-2.1008208,-1.5705999,2.4524484,-0.01934068,0.035908163,-0.044562582,1.0775383e-12,0.0058124587,-0.010984954,-0.11492168,0.24899697,-9.519346,0.7665104,47.698532,-0.53145355,-2.1529136,-3.3306851,-0.42958876,0.16153918,-0.08811724,26.5,27.375,26.5625,29.8125,31.0625,31.5625
0.050051656,-0.78916955,-0.89786,-0.1840392,-0.003115785,0.016577132,-0.18310033,-0.38154897,-0.34859222,0.05984573,-3.078526,0.6250177,-0.00045276035,-0.024091968,-0.003217544,0.0010720403,-0.008273579,0.0045228447,-0.009758807,0.4773714,-1.4248188,1.9567288,-2.100845,-1.5706238,2.4524124,-0.019941615,0.038283393,-0.046121016,7.0355546e-14,0.005167476,-0.010163112,-0.076614454,0.21068975,-9.595961,0.8179876,47.709274,-0.41768134,-2.178346,-3.3960977,-0.430537,0.1595448,-0.123617664,26.5,27.375,26.5625,29.8125,31.0625,31.5625
0.052012593,-0.38768995,-0.9770308,-0.067209095,-0.022860317,0.025797596,-0.18809588,-0.38160387,-0.34858197,0.059854522,-3.0785182,0.62515146,-0.00047581267,-0.025373196,-0.0033501612,0.0017132028,-0.0090805255,0.005795549,-0.010689905,0.47728693,-1.4247588,1.956632,-2.1008089,-1.5705999,2.4524124,-0.02096888,0.038907498,-0.048316225,7.0160386e-05,0.0052956627,-0.010258331,-0.095768064,0.45968673,-9.576807,0.7463667,47.684196,-0.4803933,-2.1214106,-3.333159,-0.4252776,0.18438146,-0.14097528,26.5,27.375,26.5625,29.8125,31.0625,31.5625
0.054052737,-0.30494446,-1.4595973,-0.21295607,-0.029688353,0.028955385,-0.19216265,-0.38165584,-0.34860232,0.0598727,-3.078555,0.62515897,-0.00040410497,-0.02618551,-0.0037032985,0.0023777713,-0.010540379,0.0065653003,-0.010521087,0.4772747,-1.4246987,1.9565247,-2.1008208,-1.5705994,2.4524002,-0.021700317,0.038983483,-0.049974497,0.00029476616,0.006236165,-0.011159168,-0.11492168,0.51714754,-9.5385,0.81351066,47.66987,-0.48430026,-2.0426455,-3.3847003,-0.41789472,0.16565135,-0.1409589,26.5,27.375,26.5625,29.8125,31.0625,31.5625
0.056052405,-0.36219603,-1.2120146,0.021605251,-0.04930237,0.020846384,-0.20645607,-0.38171893,-0.34861276,0.059883114,-3.0785794,0.625202,-0.00037289422,-0.026612712,-0.003919194,0.0014786508,-0.009859167,0.0050627277,-0.010087354,0.4772268,-1.4246138,1.9564041,-2.1008208,-1.570587,2.4523761,-0.021762718,0.042129375,-0.05152316,0.00034527123,0.006318766,-0.0116539635,-0.05746084,0.5363012,-9.691729,0.75084364,47.684196,-0.526438,-2.1109476,-3.4024892,-0.40862608,0.15385506,-0.13754714,26.5,27.375,26.5625,29.8125,31.0625,31.5625
0.05800721,-0.55265534,-2.1577475,0.0031650988,-0.03599553,0.015414107,-0.19949904,-0.38176417,-0.3486177,0.05987842,-3.0786018,0.6251871,-0.00039479806,-0.028579008,-0.0046945964,0.0027560962,-0.01112044,0.007863169,-0.009795912,0.47717857,-1.4245297,1.9563187,-2.1008208,-1.5705637,2.4523158,-0.022085965,0.04320704,-0.05567764,0.00035643505,0.0061443252,-0.01226609,-0.095768064,0.5363012,-9.557653,0.7597976,47.704796,-0.4998364,-2.0606575,-3.3300507,-0.42063558,0.17477962,-0.14300749,26.5,27.375,26.5625,29.8125,31.0625,31.5625
0.060053043,-0.589362,-1.5628512,-0.050237093,-0.03882223,0.010428318,-0.20737657,-0.38180435,-0.34861138,0.05988123,-3.0785716,0.6252974,-0.00041028895,-0.028968286,-0.004187855,0.0011402444,-0.009631551,0.005045196,-0.011191983,0.47713017,-1.4244684,1.9562343,-2.100785,-1.5705637,2.4523401,-0.023325114,0.04702495,-0.05635466,0.00040294297,0.0061149485,-0.012108263,-0.11492168,0.53630114,-9.500193,0.784413,47.677036,-0.49039966,-2.1705956,-3.2660675,-0.41127568,0.18084407,-0.14667434,26.5,27.375,26.5625,29.8125,31.0625,31.5625
0.062052652,0.29514998,-0.8063333,0.15542796,-0.03687909,0.034574103,-0.21975455,-0.3818791,-0.3486412,0.05989963,-3.0786362,0.62529117,-0.0003211002,-0.02983536,-0.0045108655,0.0015763355,-0.010651269,0.00576645,-0.011482272,0.47710595,-1.4243723,1.9560908,-2.1008208,-1.5705513,2.452304,-0.023919178,0.04765395,-0.058065996,0.00037453705,0.006686992,-0.012411542,0.0,0.51714754,-9.500193,0.7597976,47.675243,-0.52712685,-2.2369382,-3.4410665,-0.3860339,0.18716314,-0.17913215,26.5,27.375,26.5625,29.8125,31.0625,31.5625
0.06405253,-0.07306356,-1.1940494,0.17542268,-0.018632894,0.022153296,-0.20059723,-0.38195762,-0.34864607,0.05992824,-3.078664,0.62535393,-0.00027502456,-0.031081282,-0.0055465517,0.002807252,-0.013176181,0.007676331,-0.010371862,0.47703403,-1.4243006,1.9559354,-2.100785,-1.5705389,2.4522676,-0.024106909,0.047818296,-0.06106205,0.00034604812,0.0080476925,-0.013710071,0.05746084,0.47884035,-9.3661175,0.8314132,47.687782,-0.54559547,-2.070351,-3.3261862,-0.38011,0.15837207,-0.18178438,26.5,27.375,26.5625,29.8125,31.0625,31.5625
0.06605219,-0.034625337,-0.83377016,0.34111395,-0.013375784,0.020994881,-0.19186445,-0.38198832,-0.3486485,0.059893046,-3.0786421,0.6253496,-0.00031889137,-0.032919265,-0.0065412987,0.0031548887,-0.014162965,0.008614291,-0.009639396,0.47700986,-1.4241796,1.9558858,-2.1008208,-1.5705389,2.4522436,-0.024320258,0.051129818,-0.065636516,0.00032134124,0.008483402,-0.014654093,0.038307227,0.4213795,-9.270349,0.7597976,47.651955,-0.5758368,-2.08955,-3.0658064,-0.39923728,0.17112681,-0.19371563,26.5,27.375,26.5625,29.8125,31.0625,31.5625
0.06805229,-0.060009114,-0.6508577,0.3000284,-0.0106189,0.023005094,-0.18778145,-0.3820586,-0.3486557,0.059905455,-3.0786552,0.6254088,-0.000302539,-0.03179633,-0.005713627,0.0009902739,-0.012312366,0.0043872334,-0.009370549,0.4769497,-1.4240829,1.9557418,-2.100797,-1.5705265,2.4522188,-0.024944033,0.05339663,-0.06327735,0.00029991174,0.00878591,-0.015547849,-0.019153614,0.30645782,-9.270349,0.7463667,47.70211,-0.56406325,-2.1938796,-3.222249,-0.37985426,0.16210282,-0.19370589,26.5,27.375,26.5625,29.8125,31.0625,31.5625
0.07005255,-0.37880552,-0.9137678,0.3928493,-0.008111247,0.021618605,-0.1786849,-0.3821578,-0.3486849,0.059925035,3.0786808,-0.62545156,0.00018386135,-0.033251002,-0.0070167654,0.0020427618,-0.014959651,0.005813621,-0.008794167,0.47690156,-1.4239627,1.9555734,-2.1008565,-1.5705136,2.4521942,-0.025063736,0.054700766,-0.06720711,0.00043766148,0.010477007,-0.016243469,-0.05746084,0.28730422,-9.232041,0.81351066,47.704796,-0.63179713,-2.183805,-3.1873198,-0.37543046,0.14863373,-0.22184166,26.5,27.375,26.5625,29.8125,31.0625,31.5625
0.07205267,-0.5987785,-0.78203475,0.39575952,0.0034975263,0.010236439,-0.18151471,-0.38219815,-0.34869194,0.059908666,3.0786788,-0.62547094,0.00027808687,-0.03446031,-0.007310748,0.0023905104,-0.015189365,0.006776991,-0.008640673,0.4768535,-1.4238423,1.9554652,-2.1008208,-1.5704778,2.4521585,-0.025495956,0.05621116,-0.06974877,0.00050963566,0.010233333,-0.016827814,-0.05746084,0.22984336,-9.212888,0.7418897,47.711063,-0.60358816,-2.1119673,-3.1600995,-0.37012732,0.13822949,-0.21615407,26.5,27.375,26.5625,29.8125,31.0625,31.5625
0.07405188,-0.46974295,-0.44535017,0.6411781,0.015742827,0.01568876,-0.16931325,-0.3822972,-0.34874052,0.05995912,3.0785763,-0.62541085,0.00017915516,-0.03554277,-0.0075017367,0.0025406417,-0.01493756,0.007538284,-0.007928479,0.47681737,-1.423746,1.9552373,-2.1008089,-1.5704302,2.452098,-0.025775637,0.057906985,-0.072039075,0.0005467523,0.009657836,-0.01781622,-0.15322891,0.17238252,-9.174581,0.69937176,47.704796,-0.645569,-2.1308317,-3.1205468,-0.34779832,0.14190087,-0.20684904,26.5,27.375,26.5625,29.8125,31.0625,31.5625
0.07605206,-0.47973728,-0.30069557,0.48858702,0.021041363,0.024373993,-0.17759998,-0.3823609,-0.34874216,0.05995968,3.0785553,-0.62548375,0.00013805342,-0.036560103,-0.007878999,0.002586574,-0.015618249,0.0075761797,-0.008097265,0.47676915,-1.4236495,1.9551286,-2.1008208,-1.5704421,2.452098,-0.026418215,0.05981401,-0.07433613,0.00058894523,0.010241469,-0.018289195,-0.17238252,0.17238252,-9.193734,0.71951014,47.713753,-0.64433825,-2.0921197,-3.1192846,-0.34477717,0.14907299,-0.20465595,26.5,27.375,26.5625,29.8125,31.0625,31.5625
0.07805204,-0.7179322,0.029899199,0.48217788,0.01638747,0.025322061,-0.18160279,-0.38243788,-0.34876153,0.05995105,3.0785131,-0.62551343,0.00016043584,-0.03739867,-0.008093068,0.0027827658,-0.016074117,0.0074969577,-0.007977832,0.47670895,-1.4234934,1.9549726,-2.1008322,-1.5704058,2.4520617,-0.027089443,0.061126783,-0.076440565,0.0012416703,0.010680897,-0.019079264,-0.19153613,0.17238252,-9.136273,0.78217715,47.691364,-0.6849356,-2.0968292,-3.1529684,-0.33957863,0.14564054,-0.22223018,26.5,27.375,26.5625,29.8125,31.0625,31.5625
0.0800521,-1.1571947,-0.031878833,0.568747,0.013629423,0.022645466,-0.18343224,-0.3825021,-0.34877467,0.059954956,3.0785055,-0.6254728,0.00013096933,-0.037787355,-0.008508544,0.002848367,-0.016394874,0.0070918095,-0.0069855736,0.47667298,-1.4233851,1.9548401,-2.1008322,-1.5704058,2.4520013,-0.027010411,0.062361274,-0.07816621,0.0019445017,0.011150709,-0.019991992,-0.2681506,0.1340753,-9.078813,0.7597976,47.68599,-0.6984938,-2.1310048,-3.032948,-0.33932096,0.11575584,-0.22022276,26.5,27.375,26.5625,29.8125,31.0625,31.5625
0.08205174,-1.2465525,-0.51578814,0.2600453,0.015946003,0.02722766,-0.16884337,-0.3825775,-0.34880206,0.059966736,3.0784347,-0.62547684,0.00014834749,-0.038512263,-0.0087144645,0.001836468,-0.015034586,0.005439795,-0.006154127,0.47661304,-1.4232638,1.9546717,-2.1008198,-1.5703458,2.451953,-0.027013807,0.06649294,-0.080691256,0.0024335985,0.010697188,-0.020824019,-0.38307226,0.076614454,-9.097966,0.78888994,47.704796,-0.78815603,-2.0978117,-3.081293,-0.33794248,0.10616358,-0.22520185,26.5,27.375,26.5625,29.8125,31.0625,31.5625
0.084052294,-0.788198,-0.48611364,0.18525898,0.006878716,0.048610106,-0.1774354,-0.38265228,-0.34880236,0.0599674,3.0783935,-0.6255839,0.00017241486,-0.03945972,-0.008742642,0.0027280885,-0.015461376,0.006842807,-0.0061988854,0.4765288,-1.4231437,1.9545277,-2.100796,-1.5703214,2.4519408,-0.027655043,0.06618879,-0.082553014,0.0031595915,0.010431571,-0.021419408,-0.34476504,0.17238252,-9.212888,0.80679786,47.717335,-0.8228755,-2.232988,-3.0760717,-0.32667476,0.10641016,-0.23660564,26.5,27.375,26.5625,29.8125,31.0625,31.5625
0.08605223,-1.1204001,-0.96939015,0.061977476,0.0091282325,0.04357979,-0.1659563,-0.3827152,-0.3488368,0.05995638,3.078384,-0.6255427,0.00019776654,-0.040235125,-0.00880277,0.0030317346,-0.015330189,0.007445875,-0.005745486,0.47651672,-1.4229753,1.9543604,-2.1007955,-1.5702981,2.4519043,-0.028002065,0.06698305,-0.08426587,0.003604797,0.010035898,-0.022218432,-0.34476504,0.22984336,-9.346964,0.779936,47.704796,-0.872445,-2.0032396,-3.0553734,-0.35158294,0.123613715,-0.23988649,26.5,27.375,26.5625,29.8125,31.0625,31.5625
0.08805222,-0.6253835,-0.6224538,0.20064348,-0.0071850345,0.054159515,-0.18194588,-0.38281962,-0.34885272,0.05998119,3.078338,-0.62555224,8.464836e-05,-0.040838603,-0.008776267,0.0023528251,-0.014955105,0.0061457884,-0.0057493243,0.4764564,-1.4228543,1.9541682,-2.1008074,-1.57031,2.451856,-0.028767074,0.06954948,-0.08569776,0.0037972,0.010299006,-0.022978047,-0.3256114,0.2681506,-9.270349,0.81351066,47.677036,-0.8745884,-2.080974,-3.0821655,-0.340473,0.10785973,-0.2624021,26.5,27.375,26.5625,29.8125,31.0625,31.5625
0.09005216,-0.86692077,-0.7077951,0.050376352,-0.0033353749,0.045184083,-0.1762862,-0.3828956,-0.34886655,0.059984528,3.078278,-0.6256177,0.00014543446,-0.041340522,-0.00875371,0.0011847055,-0.01382832,0.0039807726,-0.00634038,0.4763722,-1.4227209,1.9539999,-2.1007712,-1.5702504,2.4518201,-0.029254701,0.07327821,-0.08739169,0.004205317,0.0102887275,-0.022873284,-0.3256114,0.2681506,-9.308657,0.8314132,47.694054,-0.873974,-2.2321975,-3.1032443,-0.345114,0.11168355,-0.28114524,26.5,27.375,26.5625,29.8125,31.0625,31.5625
0.09205209,-0.8890495,-1.0578829,0.106767334,0.003034301,0.040606488,-0.17104642,-0.3829542,-0.34886554,0.059952676,3.0783207,-0.6256063,0.00019359276,-0.041540023,-0.008559732,0.0012937606,-0.013934012,0.0042381547,-0.005990975,0.47632408,-1.422553,1.9538807,-2.1007712,-1.5702623,2.4517596,-0.029759476,0.07301743,-0.08733995,0.0041377856,0.010264049,-0.023728017,-0.22984336,0.2681506,-9.385271,0.8179876,47.704796,-0.94588494,-2.075619,-3.1867046,-0.33200532,0.13681246,-0.28345376,26.5,27.375,26.5625,29.8125,31.0625,31.5625
0.09405234,-0.8737544,-0.8207639,0.05056801,-0.007832529,0.03452336,-0.17959048,-0.38305965,-0.34890416,0.059974212,3.0782282,-0.62564445,0.0001544573,-0.043638196,-0.009305082,0.0020381974,-0.014985359,0.0058801565,-0.0043383916,0.4762639,-1.4223962,1.9536523,-2.1007712,-1.5702137,2.451735,-0.030472811,0.07554741,-0.0919802,0.0043088556,0.01043875,-0.026090773,-0.21068975,0.24899697,-9.481039,0.81351066,47.698532,-0.88543427,-2.1326578,-3.1270728,-0.3268258,0.12270008,-0.28302824,26.5,27.375,26.5625,29.8125,31.0625,31.5625
0.09605223,-0.4783633,-0.7419275,0.012183058,-0.009356245,0.028512364,-0.1728907,-0.3831478,-0.34890255,0.05998034,3.0782614,-0.62563133,0.00012137181,-0.042659935,-0.008176798,-0.00036117135,-0.011988712,0.00144245,-0.0036937795,0.47620365,-1.4222506,1.953461,-2.100723,-1.5702504,2.4516625,-0.031161861,0.07848387,-0.089947924,0.0046602273,0.009815882,-0.027424302,-0.19153613,0.22984336,-9.404425,0.78888994,47.685097,-0.9468982,-2.1375198,-3.2786918,-0.3200336,0.1171562,-0.27115667,26.5,27.375,26.5625,29.8125,31.0625,31.5625
0.09805227,-0.2529012,-0.2612262,0.017444389,-0.015407208,0.029805532,-0.17620695,-0.3832502,-0.3489196,0.059986733,3.0782075,-0.62561965,4.5687408e-05,-0.04447843,-0.009003932,0.0005288373,-0.013230148,0.0032142275,-0.0041030026,0.4761315,-1.4221059,1.9532918,-2.1007707,-1.570238,2.45159,-0.031542815,0.080344625,-0.094166614,0.0048744613,0.010101014,-0.027393343,-0.1340753,0.24899697,-9.3661175,0.78888994,47.690468,-0.9545607,-2.1678636,-3.3000393,-0.33840948,0.1244051,-0.25544393,26.5,27.375,26.5625,29.8125,31.0625,31.5625
0.10005228,-0.34355664,-0.84904325,-0.28941807,-0.0014865261,0.01947471,-0.16927002,-0.38332242,-0.34892532,0.059956785,3.0782003,-0.62571454,0.00013082012,-0.043948215,-0.0087606255,-0.00012621492,-0.012974063,0.0016269832,-0.003974889,0.4760594,-1.4219136,1.9531378,-2.1007593,-1.5702137,2.4515781,-0.03180157,0.08071941,-0.09314411,0.0050050304,0.010602664,-0.027781855,-0.076614454,0.2681506,-9.442732,0.8224646,47.705692,-0.99310935,-2.1833053,-3.2011771,-0.31396642,0.13432047,-0.28741705,26.5,27.375,26.5625,29.8125,31.0625,31.5625
0.10205231,-0.44783413,-0.8311555,-0.0680279,-0.0011449856,0.014395798,-0.17288105,-0.3834041,-0.34895563,0.059949674,3.0781503,-0.6257246,0.00019040017,-0.04558276,-0.009038773,0.00039447306,-0.013791534,0.0029240435,-0.0054686074,0.47599903,-1.421733,1.9529446,-2.1007469,-1.5701536,2.4515305,-0.032883506,0.08229627,-0.09612125,0.0048795296,0.010728558,-0.027368512,-0.038307227,0.28730422,-9.442732,0.8493211,47.705692,-1.037844,-2.1086504,-3.3118582,-0.32744128,0.12234165,-0.29186988,26.5,27.375,26.5625,29.8125,31.0625,31.5625
0.10405171,-0.10265087,-0.85425204,-0.02138561,-0.0025552204,0.01798083,-0.16882846,-0.3835019,-0.34899473,0.059975352,3.0781076,-0.62561935,0.00012834111,-0.04559106,-0.00900835,-0.00036377768,-0.013364838,0.0013082428,-0.004685044,0.47596285,-1.4215882,1.9527177,-2.100735,-1.5701298,2.4514341,-0.033171553,0.084117435,-0.09653373,0.005102808,0.011091801,-0.028439378,-0.019153614,0.24899697,-9.3661175,0.8493211,47.71823,-1.0421495,-2.1853786,-3.384585,-0.3207376,0.11969085,-0.3025496,26.5,27.375,26.5625,29.8125,31.0625,31.5625
0.106052026,0.18721738,-0.88934416,0.08358466,0.0004579127,0.019692793,-0.17760113,-0.38360554,-0.34897894,0.059965454,3.0781255,-0.6256986,0.00013474346,-0.046237912,-0.0091579,-0.00038899638,-0.013019586,0.0013141253,-0.0032730983,0.475855,-1.4214075,1.9525255,-2.1006992,-1.5701536,2.4513736,-0.03328583,0.08560982,-0.09829469,0.0055266866,0.010779873,-0.029964497,-0.019153614,0.24899697,-9.461885,0.7418897,47.696735,-1.0715005,-2.0767956,-3.384841,-0.30520833,0.10281183,-0.3043907,26.5,27.375,26.5625,29.8125,31.0625,31.5625
0.108052,-0.47737712,-0.9498932,-0.003966931,0.007972873,0.004172345,-0.16725579,-0.38370022,-0.3490023,0.05995808,3.0780928,-0.62573236,0.00014484898,-0.04736743,-0.007925896,-0.0008797279,-0.011709057,0.0009918422,-0.0058421153,0.47579417,-1.4212148,1.9523219,-2.1006992,-1.5701302,2.451338,-0.035836253,0.08696161,-0.09873093,0.0055029793,0.009762264,-0.029944167,0.019153614,0.22984336,-9.442732,0.81351066,47.694054,-1.009718,-2.0651484,-3.5587654,-0.31841114,0.11692849,-0.3142652,26.5,27.375,26.5625,29.8125,31.0625,31.5625
0.11005208,-0.16815993,-0.7395846,0.06333295,0.009298939,0.019357935,-0.1711121,-0.3838124,-0.34903333,0.059969783,3.0780501,-0.62568486,0.00013785045,-0.048670158,-0.009001518,0.0003219091,-0.013543822,0.0025083844,-0.0066278535,0.4757222,-1.4210225,1.9520696,-2.1006749,-1.5700935,2.451242,-0.035716586,0.08778819,-0.10263843,0.0063934303,0.010693621,-0.029037641,0.019153614,0.17238252,-9.442732,0.80456203,47.67166,-1.0351651,-1.9798653,-3.337855,-0.3147142,0.1293989,-0.3372038,26.5,27.375,26.5625,29.8125,31.0625,31.5625
0.11205204,0.27029663,-0.31742433,0.14877075,-0.0013007543,0.03717697,-0.17869776,-0.38392594,-0.34905827,0.059996027,3.0779846,-0.62567097,7.7080695e-06,-0.047918394,-0.008801377,-0.00040222032,-0.012878234,0.0008752693,-0.005983962,0.47566205,-1.4208902,1.9518665,-2.1007106,-1.5700935,2.4511817,-0.03547354,0.08814761,-0.10145529,0.0066077695,0.01085657,-0.029438118,0.0,0.21068975,-9.481039,0.82022345,47.705692,-1.080168,-1.9673764,-3.6212125,-0.32608703,0.10154584,-0.36590913,26.5,27.375,26.5625,29.8125,31.0625,31.5625
0.114052735,-0.23630951,-0.38020363,0.02310477,-0.0016324064,0.023578215,-0.17673297,-0.38400272,-0.3490637,0.059981536,3.0779686,-0.62572396,8.708959e-05,-0.050217472,-0.010051054,0.00023166549,-0.013540581,0.0032213742,-0.003887403,0.47557828,-1.4207206,1.9516972,-2.1006749,-1.5700582,2.451133,-0.035038836,0.09178929,-0.10696779,0.006094268,0.010358277,-0.031096453,0.038307227,0.22984336,-9.385271,0.8157518,47.70211,-1.2115388,-2.1538844,-3.360006,-0.3031092,0.10952052,-0.35679471,26.5,27.375,26.5625,29.8125,31.0625,31.5625
0.11605173,-0.11999229,-0.3876552,0.23880817,0.0005421304,0.028675592,-0.17794049,-0.38411075,-0.34908086,0.05999765,3.0779305,-0.625737,8.2255756e-05,-0.05159527,-0.009154403,0.0013342877,-0.014795425,0.0047824266,-0.0061662667,0.47549343,-1.4205531,1.9514579,-2.1006272,-1.5700334,2.4510612,-0.038133617,0.09010374,-0.10766566,0.006516052,0.010760607,-0.03191259,0.05746084,0.30645782,-9.3661175,0.8314132,47.703007,-1.0877023,-1.9038684,-3.4913516,-0.31538692,0.11890617,-0.35408467,26.5,27.375,26.5625,29.8125,31.0625,31.5625
0.11805166,-0.7325113,-0.5794838,0.07621953,0.0045227376,0.011126719,-0.16495624,-0.38422078,-0.34911487,0.06000268,3.0778863,-0.6257264,2.3515584e-05,-0.052544843,-0.009352618,0.0003562668,-0.01351954,0.0028341848,-0.0053454665,0.47544518,-1.4203593,1.9512299,-2.1006505,-1.570022,2.4510121,-0.038485803,0.09463938,-0.11086542,0.0074988343,0.0105162645,-0.033082638,-0.05746084,0.24899697,-9.442732,0.84708,47.64837,-1.1456845,-1.9688568,-3.4295712,-0.3204707,0.116749465,-0.35324496,26.5,27.375,26.5625,29.8125,31.0625,31.5625
0.12005272,-0.26133004,-0.56248134,-0.07775476,-0.0033054121,0.025847081,-0.16907388,-0.38432276,-0.34912482,0.060005084,3.0778852,-0.62578326,-1.5707614e-05,-0.054027557,-0.009166355,0.0017109071,-0.015234036,0.0051278397,-0.004516591,0.4753846,-1.4201797,1.9510134,-2.1006267,-1.5700458,2.4509873,-0.04046666,0.09337179,-0.11255211,0.007628829,0.010989826,-0.03589214,-0.095768064,0.28730422,-9.500193,0.784413,47.691364,-1.1045277,-1.8325181,-3.4317942,-0.3348148,0.11343345,-0.3413924,26.5,27.375,26.5625,29.8125,31.0625,31.5625
0.122051656,-0.63733953,-0.6801368,-0.16089422,-0.010863032,0.03292111,-0.17289037,-0.38443127,-0.34914878,0.060015418,3.0778255,-0.62577087,1.7152539e-05,-0.05499346,-0.009477524,0.0018034744,-0.015332429,0.005544383,-0.0045004035,0.47528863,-1.4199989,1.9507746,-2.1005905,-1.5699857,2.4508913,-0.040716384,0.0951247,-0.11480624,0.007718453,0.010884051,-0.03615638,-0.17238252,0.3256114,-9.5385,0.7709874,47.65643,-1.1160882,-1.7894776,-3.389288,-0.34002122,0.11452664,-0.3280596,26.5,27.375,26.5625,29.8125,31.0625,31.5625
0.12405207,-0.78436035,-0.63001907,-0.15993837,-0.018144825,0.044086054,-0.1723448,-0.38450152,-0.34917313,0.059964392,3.077839,-0.6257738,0.00019441007,-0.05497781,-0.00978762,0.0015561163,-0.014708839,0.0050968425,-0.0039685,0.47522864,-1.4197341,1.9505824,-2.1005666,-1.5699261,2.4508314,-0.039914213,0.096343875,-0.11575924,0.008139473,0.010530344,-0.035886258,-0.24899697,0.3256114,-9.634268,0.7978386,47.677036,-1.2113391,-1.8125851,-3.4621844,-0.32949972,0.12713674,-0.34903878,26.5,27.375,26.5625,29.8125,31.0625,31.5625
0.12605205,-1.0456766,-1.0519679,-0.13694292,-0.020128021,0.055893846,-0.17357184,-0.3846586,-0.34919143,0.06002648,3.0777543,-0.6258328,-2.5031977e-06,-0.056017946,-0.009487105,0.0011358242,-0.01441412,0.0034424835,-0.0032996866,0.47513217,-1.4196013,1.9502829,-2.1005423,-1.5699495,2.4507828,-0.041701987,0.09901445,-0.118177265,0.009492878,0.011030481,-0.038340487,-0.28730422,0.3256114,-9.768343,0.77545905,47.681515,-1.1955603,-1.7439669,-3.4681256,-0.35440007,0.115849435,-0.35581878,26.5,27.375,26.5625,29.8125,31.0625,31.5625
0.12805198,-1.1704782,-0.90927994,-0.17746721,-0.022882532,0.052760206,-0.16713594,-0.3847562,-0.34920952,0.060031142,3.0777586,-0.6257177,2.1575204e-05,-0.057962038,-0.009156726,0.0017316735,-0.015242259,0.004758476,-0.0032903906,0.47505924,-1.4194208,1.9500545,-2.1004941,-1.5699257,2.4506376,-0.044135854,0.10008066,-0.12077115,0.009474451,0.011161344,-0.04078237,-0.30645782,0.3256114,-9.730036,0.8314132,47.68062,-1.1580051,-1.764214,-3.4144495,-0.35602427,0.10841184,-0.34099028,26.5,27.375,26.5625,29.8125,31.0625,31.5625
0.13005227,-1.1667048,-1.083211,-0.38956296,-0.009490659,0.05075075,-0.17011644,-0.38486752,-0.34923914,0.060008045,3.077682,-0.62577814,8.0258345e-05,-0.059267394,-0.009625515,0.0015227165,-0.015588513,0.005366516,-0.0023503248,0.47496313,-1.4191794,1.949839,-2.1005304,-1.5698537,2.450589,-0.04449944,0.10283467,-0.12325245,0.00850761,0.011185814,-0.04208415,-0.36391866,0.3256114,-9.691729,0.8179876,47.668976,-1.0703509,-1.7713646,-3.443841,-0.3472501,0.13625652,-0.31428882,26.5,27.375,26.5625,29.8125,31.0625,31.5625
0.13205232,-1.0446984,-0.51094925,-0.25137025,-0.02287088,0.05249134,-0.17714393,-0.3849815,-0.34924442,0.060037233,3.077677,-0.62575686,-2.6531112e-05,-0.05962318,-0.0098243,-0.0006826509,-0.014375436,0.0020943657,-0.0013663609,0.47489116,-1.4190454,1.9496106,-2.1004946,-1.5698894,2.4505045,-0.044729467,0.108494826,-0.12450197,0.0075603994,0.011602308,-0.04329619,-0.3256114,0.34476504,-9.710882,0.7866488,47.685097,-1.2127805,-2.015193,-3.4275327,-0.35558486,0.13230158,-0.30157205,26.5,27.375,26.5625,29.8125,31.0625,31.5625
0.1340526,-1.2565364,-0.67211217,-0.022157827,-0.009209787,0.04220483,-0.17055494,-0.38510737,-0.3492607,0.060023688,3.077624,-0.6258034,7.054454e-05,-0.063164696,-0.0105084125,0.002627424,-0.017318659,0.009009425,-0.0014955726,0.4747585,-1.4187937,1.949345,-2.1004593,-1.5698179,2.4504077,-0.04637439,0.10697821,-0.13030595,0.0073932004,0.011047122,-0.04480909,-0.59376204,0.17238252,-9.634268,0.8112748,47.687782,-1.127754,-1.7962165,-3.1352627,-0.32995373,0.13016061,-0.27015463,26.5,27.375,26.5625,29.8125,31.0625,31.5625
0.13605252,-1.0126994,-0.34241092,-0.17675608,-0.0048990007,0.05194389,-0.17925556,-0.3852457,-0.34929177,0.060056746,3.0775666,-0.62579095,-4.200583e-05,-0.063518256,-0.01080497,0.00026571428,-0.015877124,0.004734277,0.00026944134,0.47468656,-1.4186112,1.9490575,-2.100447,-1.5698174,2.4503355,-0.0465922,0.11351161,-0.13243602,0.0074511957,0.011721129,-0.046789404,-0.47884035,0.22984336,-9.500193,0.7866488,47.690468,-1.1883311,-2.082828,-3.351419,-0.32754368,0.13222335,-0.24870887,26.5,27.375,26.5625,29.8125,31.0625,31.5625
0.13805236,-0.9955285,-0.71204215,-0.13394164,-0.0004300696,0.06016637,-0.17259651,-0.3853842,-0.34931076,0.06003605,3.0775485,-0.6257485,-3.2312717e-05,-0.06493556,-0.010864026,0.001445034,-0.017328877,0.006885969,0.0007382927,0.47457802,-1.4183352,1.9487938,-2.1004708,-1.5697936,2.450203,-0.047955845,0.11291061,-0.13448508,0.007526779,0.012027974,-0.04862119,-0.38307226,0.22984336,-9.442732,0.8493211,47.734352,-1.1472603,-1.8137207,-3.1943965,-0.33731383,0.1407798,-0.2176583,26.5,27.375,26.5625,29.8125,31.0625,31.5625
0.14005263,-1.4496669,-0.81666195,0.020315658,-0.008814067,0.055625997,-0.1655257,-0.38551885,-0.34934407,0.060066584,3.0774956,-0.6257363,-0.00010647506,-0.06618263,-0.011026474,0.0008163573,-0.017062392,0.0063672126,0.0011960135,0.47450578,-1.418142,1.9484943,-2.1004355,-1.5697812,2.45013,-0.048788317,0.11639209,-0.13696842,0.007114428,0.012027058,-0.049908742,-0.53630114,0.2681506,-9.557653,0.82694155,47.723602,-1.1875055,-1.9804094,-3.2773757,-0.32782012,0.15273169,-0.18209368,26.5,27.375,26.5625,29.8125,31.0625,31.5625
0.14205237,-1.2398238,-0.685265,0.08936949,-0.015626654,0.05814021,-0.17927606,-0.38565266,-0.349374,0.060060337,3.077443,-0.62568724,-7.452049e-05,-0.06659042,-0.010940776,0.00021091169,-0.016773894,0.00508674,0.0015422934,0.47439754,-1.4178889,1.9482182,-2.100435,-1.5697211,2.449998,-0.049500853,0.11839691,-0.13797745,0.0073935967,0.012357187,-0.05096683,-0.57460845,0.30645782,-9.461885,0.7709874,47.67614,-1.2093742,-1.9675281,-3.2119865,-0.32637638,0.12590957,-0.17844534,26.5,27.375,26.5625,29.8125,31.0625,31.5625
0.14405185,-1.579733,-1.2386308,0.24228595,-0.01815303,0.060029358,-0.16787593,-0.3857827,-0.34939328,0.060072143,3.0774064,-0.62571806,-0.00013275846,-0.06791865,-0.010673652,0.0006514466,-0.016729183,0.0063322103,0.00080926146,0.47431314,-1.4176846,1.947954,-2.1004226,-1.5697216,2.4499376,-0.05077062,0.11913854,-0.1398717,0.0074624177,0.011748512,-0.05150162,-0.5554548,0.3256114,-9.346964,0.78217715,47.734352,-1.1545352,-1.9248912,-3.099513,-0.32637805,0.15905121,-0.15032488,26.5,27.375,26.5625,29.8125,31.0625,31.5625
0.1460522,-1.3631831,-1.0029,0.27876917,-0.025768807,0.05852159,-0.17376512,-0.3859446,-0.34941098,0.06008632,3.0773587,-0.62566984,-0.00018080224,-0.0692972,-0.010943764,0.00069978944,-0.017179003,0.0065059876,-0.0004962822,0.47418085,-1.4174436,1.9476427,-2.1004112,-1.5696973,2.4497814,-0.051727492,0.12153106,-0.14279196,0.007631529,0.012067906,-0.05115074,-0.4405331,0.24899697,-9.346964,0.800085,47.695843,-1.1745292,-1.9183961,-3.3200216,-0.33634704,0.16086884,-0.13355659,26.5,27.375,26.5,29.8125,31.0625,31.5625
0.14805229,-1.1169882,-0.83482915,0.3984091,-0.015083993,0.04756962,-0.17319772,-0.38606423,-0.34942704,0.06006755,3.0773528,-0.6256499,-0.00013894326,-0.06978855,-0.0106849,0.0005416898,-0.017105512,0.0066207205,-0.0015987289,0.47408462,-1.4171909,1.9473928,-2.1003993,-1.5696734,2.4496737,-0.052532885,0.122145794,-0.14307576,0.007234655,0.011948884,-0.050853558,-0.34476504,0.30645782,-9.289502,0.83589023,47.689575,-1.1932232,-1.8952174,-3.2626362,-0.3231876,0.17191625,-0.12062286,26.5,27.375,26.5,29.8125,31.0625,31.5625
0.15005241,-1.5267714,-0.67193305,0.5160948,-0.0020386935,0.023902195,-0.16561264,-0.3862593,-0.34946144,0.06012372,3.0772195,-0.625681,-0.0003204228,-0.07134068,-0.010142847,0.00046432973,-0.01739468,0.0066716964,-0.0039637997,0.47395176,-1.416986,1.9470323,-2.1004117,-1.5696491,2.4495773,-0.05502378,0.123886645,-0.14489639,0.0071392264,0.012189235,-0.050976366,-0.36391866,0.30645782,-9.232041,0.8403672,47.705692,-1.0885179,-1.8849726,-3.2849803,-0.3064144,0.16880226,-0.09763205,26.5,27.375,26.5,29.8125,31.0625,31.5625
0.152053,-0.6334692,-0.5693368,0.57725084,0.016783537,0.032580953,-0.16766545,-0.38639078,-0.3494747,0.06010626,3.077235,-0.62568533,-0.00028743639,-0.0718682,-0.00997894,-0.0015271867,-0.016391646,0.0036128878,-0.0052307397,0.47385523,-1.4167081,1.9467448,-2.1003754,-1.5696491,2.4494817,-0.056092884,0.12881626,-0.1458692,0.0063611055,0.012688377,-0.050777767,-0.34476504,0.30645782,-9.136273,0.7911258,47.63315,-1.0186697,-2.0371668,-3.3628592,-0.3078057,0.1678687,-0.06972932,26.5,27.375,26.5,29.8125,31.0625,31.5625
0.15405218,-0.6896141,-0.034372333,0.90335697,0.023109052,0.016241284,-0.16641903,-0.38652104,-0.3495211,0.060103115,3.0771496,-0.62566864,-0.00027583874,-0.07294163,-0.011460111,0.0012701063,-0.019562364,0.00901788,-0.0071168626,0.47377196,-1.4164574,1.9464697,-2.1003997,-1.5695771,2.449399,-0.054653823,0.12558554,-0.14847264,0.005938994,0.013037056,-0.04745136,-0.24899697,0.19153613,-9.040505,0.82022345,47.703903,-1.1868093,-1.7037952,-3.328745,-0.29484442,0.1801936,-0.08065157,26.5,27.375,26.5,29.8125,31.0625,31.5625
0.15605219,0.04488799,0.40068713,0.9576628,0.022822615,0.026180007,-0.17149012,-0.38667956,-0.34952098,0.060107347,3.077131,-0.6257241,-0.00028803074,-0.074043475,-0.01114231,0.0004549769,-0.020107554,0.0074080965,-0.011138538,0.47362703,-1.4162037,1.9461578,-2.100352,-1.5695766,2.4492912,-0.056968395,0.12845422,-0.14987145,0.0056487815,0.014253903,-0.045743488,-0.19153613,0.11492168,-8.868123,0.8672237,47.687782,-1.0802894,-1.8879144,-3.3610377,-0.26593032,0.1869714,-0.10767098,26.5,27.375,26.5,29.8125,31.0625,31.5625
0.15805238,-0.47805026,0.64512336,0.9479821,0.026227197,0.004104,-0.16881329,-0.38684553,-0.34955782,0.060126256,3.0770226,-0.6257803,-0.00038298516,-0.07623237,-0.010186387,0.00038907156,-0.019700041,0.007186294,-0.014512446,0.4735179,-1.4159627,1.945846,-2.1003878,-1.5695409,2.4492311,-0.060446974,0.13103424,-0.1529047,0.0064895498,0.013994455,-0.04584492,-0.076614454,0.11492168,-8.810662,0.8537928,47.698532,-0.99208117,-1.8190219,-3.397873,-0.25057542,0.1887306,-0.10329576,26.5,27.375,26.5,29.8125,31.0625,31.5625
0.16005258,-0.41353688,0.24750039,0.7088435,0.036245905,-0.004725718,-0.16907477,-0.3870032,-0.34957567,0.060133826,3.0769744,-0.6258268,-0.00042608823,-0.0757282,-0.010425776,-0.0004596038,-0.018620936,0.0045975926,-0.01287054,0.47339815,-1.4157097,1.9455351,-2.100375,-1.5695289,2.4491467,-0.059680853,0.13322027,-0.15387233,0.008069542,0.014220762,-0.04671968,-0.095768064,0.019153614,-8.848969,0.83589023,47.705692,-0.9422009,-1.8756473,-3.3600903,-0.2780804,0.17718586,-0.09578242,26.5,27.375,26.5,29.8125,31.0625,31.5625
0.162052,-0.16044377,0.3315202,0.7374413,0.031093346,0.0072603347,-0.1621987,-0.38714498,-0.349594,0.060136702,3.0769353,-0.6258011,-0.00041927802,-0.07687661,-0.01066621,-3.404163e-05,-0.018245887,0.00555031,-0.014593398,0.4732782,-1.4154688,1.9452461,-2.1003506,-1.5694927,2.4490159,-0.05977366,0.13472013,-0.15676011,0.008784838,0.013448654,-0.045087695,-0.11492168,0.11492168,-8.810662,0.7709874,47.651955,-1.0880486,-1.8746941,-3.4752975,-0.26664466,0.20427406,-0.10485632,26.5,27.375,26.5,29.8125,31.0625,31.5625
0.16405214,-0.1810897,0.43339846,0.6416749,0.016321508,0.008164048,-0.17032424,-0.3873279,-0.34959736,0.060137466,3.0769024,-0.62591255,-0.00049745047,-0.077305496,-0.009412257,-0.001301362,-0.017425077,0.0027103047,-0.021386057,0.47313315,-1.41518,1.9449123,-2.1003506,-1.5695165,2.4489448,-0.06269893,0.13674067,-0.1563315,0.00923232,0.014013033,-0.041219853,-0.038307227,0.17238252,-8.925584,0.8560339,47.686886,-0.9908012,-1.8465462,-3.3854933,-0.2720335,0.21610574,-0.16478026,26.5,27.375,26.5,29.8125,31.0625,31.5625
0.166052,-0.7132041,-0.34189537,0.5357595,0.014361139,0.0017926448,-0.16281186,-0.38744813,-0.34961516,0.06012309,3.0768883,-0.62594813,-0.00039123758,-0.07857648,-0.009218793,-0.002592501,-0.015348649,0.00052030594,-0.022376178,0.47302485,-1.414914,1.9446229,-2.1002786,-1.5694693,2.4488606,-0.06361811,0.14206427,-0.15977767,0.010256942,0.013156251,-0.041147158,-0.076614454,0.19153614,-9.040505,0.8291774,47.677036,-0.9005684,-1.9167997,-3.3234906,-0.27859646,0.23836313,-0.20062271,26.5,27.375,26.5,29.8125,31.0625,31.5625
0.16805205,-0.5702937,-0.55675054,0.22997184,-9.7266726e-05,0.018173147,-0.1668541,-0.38759878,-0.34963363,0.060110297,3.0768652,-0.6260015,-0.00035100424,-0.08037268,-0.009978862,0.00027847322,-0.01890346,0.004805251,-0.023022018,0.47290456,-1.4146148,1.9442996,-2.100242,-1.5694445,2.4487767,-0.06464937,0.13918258,-0.16326207,0.011187938,0.014364693,-0.041532077,-0.095768064,0.17238252,-9.174581,0.83589023,47.667187,-0.91090685,-1.7687807,-3.3320692,-0.26436615,0.23402381,-0.19269362,26.5,27.375,26.5,29.8125,31.0625,31.5625
0.1700522,-0.66043025,-0.9740857,0.10660334,-0.012297282,0.034375034,-0.16406628,-0.38776854,-0.34964573,0.060105205,3.076797,-0.626122,-0.00034277112,-0.08191048,-0.010619475,0.0005055054,-0.019623628,0.005117883,-0.023537558,0.47274846,-1.4143255,1.9439758,-2.10023,-1.5694083,2.4487047,-0.06519376,0.14199913,-0.16716796,0.011673063,0.014859164,-0.04155856,-0.21068975,0.28730422,-9.308657,0.842603,47.690468,-0.87997425,-1.9142191,-3.338779,-0.29705685,0.23238207,-0.21972844,26.5,27.375,26.5,29.8125,31.0625,31.5625
0.17205238,-0.8970603,-1.243841,-0.13337976,-0.021209741,0.04940037,-0.16740656,-0.38794595,-0.34966153,0.060123637,3.076723,-0.6262029,-0.00036127772,-0.08098089,-0.009925977,-0.0012963753,-0.01827426,0.0006962395,-0.024372017,0.47259206,-1.4140605,1.9436177,-2.1001813,-1.569372,2.4486084,-0.06605865,0.14418674,-0.16584885,0.012718513,0.015679644,-0.041589037,-0.34476504,0.4213795,-9.385271,0.8090337,47.687782,-0.86497766,-1.7827644,-3.4341033,-0.29907206,0.2476924,-0.23335585,26.5,27.375,26.5,29.8125,31.0625,31.5625
0.17405254,-0.7457747,-1.4543046,-0.28707242,-0.036323924,0.070844404,-0.1688366,-0.38808608,-0.34966493,0.060096487,3.0766947,-0.6263133,-0.0002803136,-0.08225736,-0.009820463,-0.0013385831,-0.018446095,0.0006009496,-0.02513826,0.47244763,-1.4137714,1.9433416,-2.1001575,-1.5693358,2.4485366,-0.06748959,0.1461909,-0.16817491,0.013051045,0.015872331,-0.042253066,-0.34476504,0.47884035,-9.500193,0.81351066,47.678825,-0.860707,-1.8014429,-3.4017255,-0.30042684,0.25029993,-0.24551252,26.5,27.375,26.5,29.8125,31.0625,31.5625
0.17605239,-2.1765754,-2.0612319,-0.4199448,-0.036231685,0.04589457,-0.15883026,-0.3882342,-0.3496954,0.06008937,3.0766943,-0.6262937,-0.000226387,-0.08370902,-0.01041672,-0.000829425,-0.019776268,0.0014908507,-0.025792047,0.4723514,-1.4134587,1.9429816,-2.100086,-1.5693115,2.4484284,-0.068218544,0.14791736,-0.17138582,0.013137712,0.016645128,-0.042327106,-0.49799395,0.51714754,-9.672575,0.8403672,47.688675,-0.8777169,-1.8771477,-3.370902,-0.32390636,0.25140652,-0.24276707,26.5,27.375,26.5,29.8125,31.0625,31.5625
0.1780525,-1.6274681,-2.0865366,-0.44192728,-0.044913005,0.06634222,-0.16331884,-0.38838673,-0.34972724,0.060087163,3.076638,-0.6263009,-0.0001810528,-0.08518469,-0.010541476,-0.0003091919,-0.020822138,0.0028655692,-0.026301075,0.4722309,-1.4131699,1.9426459,-2.1000502,-1.5692519,2.4483197,-0.06949196,0.14887647,-0.1736198,0.012717105,0.016948039,-0.043090187,-0.47884035,0.47884035,-9.691729,0.85826975,47.694946,-0.76300216,-1.8080819,-3.3587956,-0.3245964,0.2635191,-0.26422444,26.5,27.375,26.5,29.8125,31.0625,31.5625
0.1800525,-1.770493,-2.100699,-0.41503114,-0.03454892,0.059876453,-0.15382077,-0.38855904,-0.34975135,0.060073886,3.0765557,-0.62640077,-0.0001772597,-0.086866364,-0.010561557,0.00065360585,-0.022154126,0.0052282955,-0.027587187,0.4720864,-1.4128577,1.9423221,-2.1000745,-1.5692037,2.4482481,-0.07100428,0.14891177,-0.17576253,0.0121190315,0.017057417,-0.04331479,-0.40222588,0.5363012,-9.730036,0.84484416,47.691364,-0.76708066,-1.6302742,-3.343328,-0.3256253,0.26523814,-0.27118677,26.5,27.375,26.5,29.8125,31.0625,31.5625
0.18205199,-1.0261253,-1.4779019,-0.35758272,-0.028031448,0.06643009,-0.16656739,-0.388732,-0.34977162,0.060070474,3.0765245,-0.6264513,-0.00012519995,-0.088341035,-0.011075904,4.0132818e-05,-0.022885066,0.005558482,-0.027707761,0.47194222,-1.4125321,1.9419388,-2.1000035,-1.5691675,2.4481397,-0.07170725,0.15249032,-0.1781081,0.010262795,0.01755124,-0.043895617,-0.4213795,0.45968673,-9.672575,0.8560339,47.684196,-0.7454517,-1.8709,-3.364326,-0.32266134,0.2738296,-0.31154376,26.5,27.375,26.5,29.8125,31.0625,31.5625
0.18405205,-0.7115725,-0.54053897,-0.3454757,-0.015010759,0.059341304,-0.17308584,-0.38893142,-0.34976712,0.06005814,3.0764437,-0.626684,-0.00012736922,-0.08883664,-0.01114533,-0.0019014467,-0.021646312,0.0033425007,-0.027972143,0.4717383,-1.412206,1.9415911,-2.1000035,-1.5691432,2.4480915,-0.071918346,0.157399,-0.17906304,0.008850946,0.01745344,-0.04384058,-0.34476504,0.32561144,-9.672575,0.8873621,47.67614,-0.79871166,-1.9023671,-3.3696914,-0.30664718,0.26694572,-0.31474647,26.5,27.375,26.5,29.8125,31.0625,31.5625
0.1860521,-0.83299685,-0.5499861,-0.26629514,0.0034114902,0.04983954,-0.1648836,-0.38913277,-0.34982586,0.060090628,3.076331,-0.626643,-0.00023892439,-0.09025976,-0.010324614,-0.002089945,-0.022189343,0.003399144,-0.030757666,0.47162908,-1.4119054,1.9411734,-2.1000159,-1.5690955,2.4479713,-0.0748974,0.15853493,-0.17983404,0.008191507,0.017915571,-0.044031337,-0.36391866,0.17238252,-9.672575,0.84484416,47.67793,-0.5917363,-1.9029036,-3.4412227,-0.28376606,0.271726,-0.34518224,26.5,27.375,26.5,29.8125,31.0625,31.5625
0.18805209,-1.0508446,-0.2889772,-0.20743395,0.008683228,0.048254665,-0.16490768,-0.38930303,-0.3498429,0.060072433,3.07626,-0.6268003,-0.0001896386,-0.090076685,-0.011879689,-0.0032162897,-0.022302374,0.0018311603,-0.028476937,0.47147405,-1.4115797,1.9408368,-2.100004,-1.5690469,2.4479237,-0.07247245,0.16263674,-0.18188262,0.007485659,0.018724134,-0.04388555,-0.28730422,0.05746084,-9.672575,0.82022345,47.67345,-0.72327995,-2.0790145,-3.406931,-0.26750314,0.27603275,-0.37800056,26.5,27.375,26.5,29.8125,31.0625,31.5625
0.19000563,-1.2749155,0.052503463,-0.19332528,0.010875021,0.039599065,-0.16042624,-0.38950935,-0.3498866,0.060109403,3.0761557,-0.6267976,-0.00030094013,-0.0913966,-0.012055703,-0.0029897916,-0.022778496,0.0026090653,-0.028584316,0.4713417,-1.4112911,1.9404172,-2.0999925,-1.5690111,2.4478033,-0.07335197,0.16429493,-0.18432625,0.0073669157,0.018797502,-0.044654123,-0.22984336,0.15322891,-9.500193,0.8851263,47.703903,-0.82423097,-2.1190763,-3.4064615,-0.24687904,0.2753119,-0.4114017,26.5,27.375,26.5,29.8125,31.0625,31.5625
0.19205251,-0.66640186,0.07649632,-0.05630281,0.011186797,0.04441385,-0.1700759,-0.38970953,-0.3498996,0.06009924,3.0760844,-0.62693787,-0.0002906001,-0.09279521,-0.011205756,-0.0031063012,-0.022989335,0.0024105778,-0.030780064,0.4711607,-1.410942,1.9400347,-2.09998,-1.5689749,2.447719,-0.07623115,0.16551137,-0.1855357,0.007446302,0.019077277,-0.045336526,-0.17238252,0.15322891,-9.500193,0.8224646,47.698532,-0.62618184,-2.0329661,-3.4842086,-0.25122353,0.28598538,-0.42507446,26.5,27.375,26.5,29.8125,31.0625,31.5625
0.19405364,-0.89543504,-0.21664165,-0.023067337,0.010291253,0.023438148,-0.16389695,-0.389875,-0.34991893,0.060062785,3.0760596,-0.62696826,-0.00026467882,-0.09231812,-0.013090651,-0.0036363471,-0.022735676,0.0012513673,-0.02674072,0.47103018,-1.4105926,1.9397229,-2.1000159,-1.568951,2.4476109,-0.07263951,0.16883007,-0.18836288,0.008106175,0.019374928,-0.04578262,-0.1340753,0.15322891,-9.308657,0.9097417,47.67166,-0.9123238,-2.2504568,-3.50874,-0.23794398,0.2800363,-0.44507742,26.5,27.375,26.5,29.8125,31.0625,31.5625
0.19605227,-0.20541912,-0.12252903,0.16609804,0.0032092594,0.030516358,-0.16669713,-0.39007077,-0.34995028,0.060088914,3.0759726,-0.6270651,-0.00030224415,-0.09416091,-0.013275938,-0.0030262093,-0.023061598,0.002988428,-0.026170488,0.47088563,-1.4102919,1.9393028,-2.0999563,-1.5689148,2.4475381,-0.07360514,0.17054246,-0.19178122,0.008125233,0.018876797,-0.047315646,-0.15322891,0.15322891,-9.289502,0.9097417,47.67614,-0.86553884,-2.0778158,-3.5710588,-0.23265234,0.2935856,-0.45304856,26.5,27.375,26.5,29.8125,31.0625,31.5625
0.19805253,-0.021186609,-0.16299552,0.18456444,0.011145662,0.020800602,-0.16008581,-0.39027157,-0.34997088,0.06008673,3.0759008,-0.6271258,-0.00032403826,-0.095281415,-0.013902377,-0.0021550057,-0.024595961,0.004881708,-0.024814289,0.47071773,-1.4099554,1.9389194,-2.0999563,-1.5688785,2.4474175,-0.073785245,0.17078924,-0.19401528,0.0077350694,0.019386837,-0.048849948,-0.11492168,0.095768064,-9.308657,0.8806493,47.698532,-0.7976283,-2.0517774,-3.4087322,-0.21694034,0.30488995,-0.46213806,26.5,27.375,26.5,29.8125,31.0625,31.5625
0.20005262,0.18650809,-0.26519182,0.24538112,0.006999981,0.017782835,-0.1758161,-0.3904614,-0.3499999,0.06008466,3.075864,-0.6271552,-0.0003818667,-0.09613383,-0.014810111,-0.0016560293,-0.025434183,0.0056361766,-0.021954382,0.47059786,-1.4096185,1.9385351,-2.0999563,-1.5688785,2.447321,-0.07317374,0.17226678,-0.19702221,0.008216801,0.019794445,-0.051095907,-0.076614454,0.19153613,-9.270349,0.8179876,47.679718,-0.8929046,-2.0995276,-3.3105135,-0.19143707,0.323438,-0.4679007,26.5,27.375,26.5,29.8125,31.0625,31.5625
0.20205167,-0.13581976,-0.80001146,-0.04903985,0.004087184,0.0067764632,-0.16823448,-0.39068833,-0.3500242,0.060090702,3.0757437,-0.6273399,-0.00041969263,-0.09682895,-0.0150945,-0.0011435624,-0.025686283,0.005991211,-0.01808088,0.4704059,-1.4092581,1.938105,-2.0999558,-1.5688308,2.44726,-0.0732856,0.17295939,-0.19931774,0.009402252,0.019869776,-0.055079054,0.038307227,0.28730422,-9.289502,0.85826975,47.70211,-1.0131766,-2.011967,-3.2999883,-0.19305462,0.3045646,-0.4267397,26.5,27.375,26.5,29.8125,31.0625,31.5625
0.20405199,-0.65545607,-1.4539022,-0.21798195,-0.0013544662,-0.006386697,-0.1533165,-0.39084777,-0.35005996,0.06008976,3.075727,-0.6272966,-0.00040644812,-0.09750223,-0.01522317,-0.0008485927,-0.026027359,0.005923016,-0.017547691,0.4703097,-1.4089456,1.937735,-2.0999072,-1.5688065,2.447139,-0.073841624,0.17378949,-0.2012246,0.010389315,0.020206913,-0.056167252,0.0,0.5363012,-9.32781,0.8851263,47.70032,-0.9430435,-1.9360359,-3.378158,-0.1937311,0.32114235,-0.4384017,26.5,27.375,26.5,29.8125,31.0625,31.5625
0.20605198,-0.36797962,-1.8732685,-0.007852377,-0.023575043,0.009396025,-0.1558863,-0.39105242,-0.35008383,0.060089935,3.0756557,-0.6273763,-0.00035995705,-0.09828492,-0.014999343,-0.0020086837,-0.025008218,0.003300028,-0.015036529,0.47012934,-1.4085839,1.937303,-2.099847,-1.5687464,2.4470177,-0.0750649,0.17781712,-0.2035477,0.0114980135,0.020494416,-0.05990001,0.038307227,0.5554548,-9.212888,0.779936,47.661808,-0.9317719,-1.9946157,-3.311463,-0.21826051,0.33595133,-0.42163995,26.5,27.375,26.5,29.8125,31.0625,31.5625
0.20805198,-0.6374045,-2.3443437,-0.07194025,-0.038091306,0.010752953,-0.15579149,-0.39123428,-0.35011902,0.060072057,3.075627,-0.627329,-0.0003111289,-0.09992956,-0.015423496,-0.00041508512,-0.026592877,0.0059171724,-0.0106489295,0.46999696,-1.4082117,1.9369081,-2.0998232,-1.5686983,2.4468596,-0.075895816,0.17738408,-0.20691425,0.012261535,0.020727616,-0.06511727,0.076614454,0.59376204,-9.308657,0.85155696,47.679718,-0.8936602,-1.8269057,-3.3214102,-0.2111651,0.34136784,-0.38658798,26.5,27.375,26.5,29.8125,31.0625,31.5625
0.21005204,-0.39502323,-2.1312792,0.036723915,-0.048592597,0.013659113,-0.15750827,-0.39145398,-0.3501309,0.06005861,3.075562,-0.627409,-0.000343984,-0.09993226,-0.015934713,-0.00021702022,-0.027153552,0.0062037334,-0.0061636977,0.4698054,-1.4078394,1.9365138,-2.099847,-1.5686744,2.4467266,-0.07518342,0.17755178,-0.207633,0.012314919,0.021109596,-0.068888836,0.1340753,0.59376204,-9.308656,0.83365434,47.698532,-0.9767179,-1.8883045,-3.434214,-0.22742349,0.33364654,-0.3105018,26.5,27.375,26.5,29.8125,31.0625,31.5625
0.21205206,-0.34664038,-1.8780961,-0.017705131,-0.04660807,0.020758335,-0.16134186,-0.3916751,-0.35015652,0.060068212,3.075514,-0.62743795,-0.00036117792,-0.10163398,-0.015080838,3.6015637e-05,-0.02800441,0.0063003777,-0.008479463,0.4696362,-1.4074667,1.936047,-2.099787,-1.5686496,2.4465818,-0.07860374,0.17840737,-0.20934966,0.012709688,0.021829171,-0.06999167,0.038307227,0.57460845,-9.32781,0.8784135,47.703903,-0.9147122,-1.8335211,-3.3994322,-0.20272917,0.34459955,-0.29291055,26.5,27.375,26.5,29.8125,31.0625,31.5625
0.21405238,-0.16831824,-1.4240054,0.11311735,-0.030281367,0.017826242,-0.16882561,-0.39184844,-0.35020146,0.060058072,3.0754788,-0.6273506,-0.00034134666,-0.10173715,-0.016703708,0.00019978108,-0.029541494,0.006946748,-0.0027898378,0.46952888,-1.4071176,1.9356636,-2.099775,-1.5686015,2.4464247,-0.07649834,0.17987165,-0.21129507,0.011928071,0.022911724,-0.07357384,0.05746084,0.51714754,-9.270349,0.8851263,47.689575,-0.9768074,-1.7110808,-3.3761582,-0.21181086,0.34131658,-0.24026352,26.5,27.375,26.5,29.8125,31.0625,31.5625
0.21605234,-0.18559292,-0.90537924,-0.07192319,-0.014847445,0.007408128,-0.15346374,-0.39206,-0.35025793,0.060074776,3.0753536,-0.627343,-0.0003733536,-0.10253645,-0.017181013,7.933654e-05,-0.030304579,0.007327928,-0.0013788682,0.46938482,-1.4067688,1.935222,-2.0997756,-1.5685176,2.4462922,-0.07664952,0.18159832,-0.2128904,0.011122616,0.023427255,-0.07513262,0.076614454,0.49799395,-9.270349,0.81351066,47.71554,-1.0239894,-1.7651092,-3.4338267,-0.19086802,0.35371172,-0.20800056,26.5,27.375,26.5,29.8125,31.0625,31.5625
0.21805257,-0.49754944,-0.9473963,0.05884025,0.006543462,-0.0020668916,-0.15394506,-0.39227724,-0.3502786,0.06006358,3.0753038,-0.6274121,-0.0003493802,-0.10474883,-0.015912486,-0.00026058673,-0.030419374,0.007123364,-0.005232256,0.46920347,-1.4063716,1.9347795,-2.0997398,-1.5684813,2.4461606,-0.08091166,0.18388657,-0.21477126,0.010853013,0.02362259,-0.075539954,-0.038307227,0.40222588,-9.251195,0.842603,47.67793,-0.9323745,-1.9211621,-3.4938068,-0.17166263,0.35265642,-0.16807663,26.5,27.375,26.5,29.8125,31.0625,31.5625
0.22005261,-0.37235108,-0.7914937,0.030441688,0.0032000474,0.009366604,-0.1612086,-0.39247364,-0.350317,0.060049545,3.0752459,-0.6273779,-0.00029114715,-0.103836864,-0.017753312,-0.0007757245,-0.030525351,0.005898038,-0.0018448764,0.46904886,-1.4059862,1.9343599,-2.099716,-1.5684088,2.4459922,-0.07723147,0.18625273,-0.21649727,0.011264156,0.024271473,-0.07524561,0.0,0.36391866,-9.251195,0.91198283,47.695843,-1.0744698,-1.9889443,-3.4594152,-0.15333398,0.33414304,-0.15587024,26.5,27.375,26.5,29.8125,31.0625,31.5625
0.22205175,-0.17851247,-1.133646,0.00055875594,0.010653369,0.021384919,-0.15613401,-0.3926994,-0.35036522,0.060055625,3.0751812,-0.6273084,-0.00038164464,-0.10471119,-0.017610697,-0.0015095667,-0.029944597,0.0040377784,-0.004048058,0.4689163,-1.4056013,1.9339055,-2.0997393,-1.568385,2.4458249,-0.07841466,0.18948713,-0.2188847,0.01234071,0.024598725,-0.0742219,-0.019153614,0.28730422,-9.346964,0.7777002,47.699425,-1.1379052,-1.9248645,-3.4654646,-0.15396616,0.35569423,-0.11641593,26.5,27.375,26.5,29.8125,31.0625,31.5625
0.2240519,-0.41732815,-0.47639775,0.0021255135,-0.0016521807,0.017723605,-0.16509117,-0.39287713,-0.35039973,0.060038403,3.0751417,-0.6273009,-0.000278682,-0.10569682,-0.017738169,-0.0018979711,-0.030261056,0.0032653995,-0.007038355,0.468772,-1.4052278,1.9334983,-2.0996792,-1.568313,2.445681,-0.07941671,0.19202094,-0.22104082,0.012511149,0.025222046,-0.07223271,-0.05746084,0.21068975,-9.32781,0.87617236,47.705692,-1.0548196,-2.0307634,-3.4307024,-0.12937076,0.33678615,-0.12296953,26.5,27.375,26.5,29.8125,31.0625,31.5625
0.2260522,-0.662594,-0.95533717,-0.13355877,0.0123250615,0.015031546,-0.15199184,-0.3930871,-0.35043043,0.06002075,3.0750682,-0.6273839,-0.00020369266,-0.106238805,-0.01803633,-0.0019180963,-0.030375604,0.0027588166,-0.010660197,0.4685921,-1.4048188,1.9330562,-2.099643,-1.5682405,2.4455626,-0.07952175,0.19357167,-0.22306532,0.013385379,0.025546065,-0.06871493,-0.05746084,0.17238252,-9.308657,0.86498255,47.679718,-1.1895454,-2.063098,-3.4372149,-0.13296622,0.3304528,-0.14401762,26.5,27.375,26.5,29.8125,31.0625,31.5625
0.22805202,-0.31860083,-0.5692514,0.18367392,0.003842675,0.027668955,-0.1589407,-0.39331773,-0.35046536,0.060035225,3.0750206,-0.6273566,-0.00030630679,-0.107163884,-0.017835245,-0.0019519322,-0.030175973,0.0028755164,-0.015619317,0.46844777,-1.4044461,1.9325885,-2.099631,-1.568241,2.4454076,-0.08048835,0.19490151,-0.22465175,0.013622967,0.025311751,-0.0647197,-0.15322891,0.17238252,-9.289502,0.8224646,47.684196,-1.1501176,-2.0199513,-3.3790536,-0.124377236,0.34704423,-0.16917257,26.5,27.375,26.5,29.8125,31.0625,31.5625
0.23005198,-0.6267107,-0.7226207,0.05203637,0.023200458,0.02081351,-0.1507505,-0.3935211,-0.35051292,0.059996463,3.0749512,-0.62745816,-0.00021613609,-0.10807918,-0.018128559,-0.001880522,-0.030760368,0.002887764,-0.017484572,0.46830347,-1.4039892,1.9321469,-2.099631,-1.5681685,2.4453359,-0.08105758,0.1965236,-0.22684875,0.013926512,0.025822138,-0.06342271,-0.24899697,0.19153613,-9.270349,0.85826975,47.705692,-1.1554422,-2.0458527,-3.4282823,-0.12357939,0.3450521,-0.17900777,26.5,27.375,26.5,29.8125,31.0625,31.5625
0.23205185,0.016042141,0.23264056,0.091135286,0.012810219,0.04119862,-0.16408582,-0.39374116,-0.350544,0.060013585,3.0748684,-0.6274431,-0.00022841698,-0.10909848,-0.018591294,-0.0022203415,-0.03175743,0.0020511858,-0.02166071,0.46812323,-1.40364,1.931692,-2.0995834,-1.568108,2.445157,-0.081892565,0.19929937,-0.22936313,0.013957295,0.027083274,-0.0600777,-0.15322891,0.22984336,-9.3661175,0.7866488,47.716442,-1.1300838,-2.0587387,-3.4800417,-0.11276558,0.33349723,-0.20171383,26.5,27.375,26.5,29.8125,31.0625,31.5625
0.23405223,-0.48206264,-0.3206514,0.13223158,0.012229993,0.039902285,-0.16042264,-0.393945,-0.35058728,0.060012,3.0748088,-0.6274321,-0.00019503036,-0.10974551,-0.018777624,-0.0025135907,-0.031388707,0.0011693224,-0.023815887,0.4679792,-1.4032545,1.9312371,-2.0995347,-1.5680479,2.445014,-0.082126014,0.20157135,-0.23161815,0.0148960585,0.02714852,-0.058154296,-0.28730422,0.19153613,-9.3661175,0.8873621,47.728977,-1.2039808,-2.088383,-3.4219682,-0.10025338,0.31627738,-0.26805058,26.5,27.375,26.5,29.8125,31.0625,31.5625
0.23605217,-0.5236571,-0.26498485,0.09021625,0.0012099585,0.055517066,-0.16617818,-0.39417076,-0.3506164,0.059988033,3.0747426,-0.6275722,-0.00014596121,-0.11101557,-0.018572295,-0.0022585264,-0.031458683,0.0015879632,-0.024359766,0.46779886,-1.4028097,1.9307698,-2.0995104,-1.5680002,2.4449298,-0.08346558,0.20286496,-0.23392755,0.015516967,0.02702297,-0.058949187,-0.4405331,0.15322891,-9.289502,0.8717007,47.711063,-1.132685,-2.067636,-3.507489,-0.10803366,0.32374817,-0.2841729,26.5,27.375,26.5,29.8125,31.0625,31.5625
0.23805207,-1.7452055,-0.72190976,-0.022946373,0.0063826283,0.04458262,-0.1590891,-0.39440918,-0.35065174,0.060003042,3.0746415,-0.6276644,-0.0001837071,-0.112333134,-0.018127311,-0.0025068847,-0.030572811,0.0012098908,-0.022616334,0.46761835,-1.4024245,1.9302801,-2.0994747,-1.5679525,2.4448202,-0.08495499,0.20527917,-0.2364323,0.016363066,0.026413344,-0.0621795,-0.49799395,0.2681506,-9.404425,0.7911258,47.707485,-1.2534269,-2.0918274,-3.3965235,-0.113384575,0.33636844,-0.26399338,26.5,27.375,26.5,29.8125,31.0625,31.5625
0.24005237,-1.89273,-0.7142192,-0.11517569,-0.001910712,0.06258025,-0.1516906,-0.3946058,-0.3507138,0.06000124,3.0745735,-0.6275944,-0.00012858915,-0.1132816,-0.01900623,-0.0014224754,-0.03238714,0.0027597689,-0.025127375,0.4674984,-1.4020281,1.9298128,-2.099426,-1.5678681,2.4446654,-0.084785044,0.20536415,-0.23917712,0.016819376,0.027326556,-0.059496142,-0.49799395,0.28730422,-9.5385,0.87393653,47.689575,-1.1201146,-1.9628108,-3.4871275,-0.11462547,0.32124656,-0.2914027,26.5,27.375,26.5,29.8125,31.0625,31.5625
0.24205245,-2.0218935,-1.007513,-0.2798495,-0.0013384311,0.06861038,-0.1586545,-0.3948386,-0.35073105,0.059968468,3.07454,-0.62774056,-7.187228e-05,-0.11355275,-0.019309204,-0.0010977222,-0.034114096,0.0019430763,-0.025349617,0.46730605,-1.4015598,1.929335,-2.0993903,-1.5678433,2.4445689,-0.08563799,0.20548116,-0.24037707,0.01785511,0.029239163,-0.060125813,-0.4405331,0.22984336,-9.519346,0.8493211,47.691364,-1.1798902,-1.9017546,-3.521081,-0.11086674,0.30122223,-0.31428242,26.5,27.375,26.5,29.8125,31.0625,31.5625
0.24405353,-1.8542907,-1.2291486,-0.19721568,-0.0045767156,0.07983264,-0.1600667,-0.39507395,-0.3507856,0.05999774,3.0743997,-0.62775224,-6.555514e-05,-0.11576919,-0.017503206,-0.0014763105,-0.03410329,0.0009029706,-0.029864583,0.4671241,-1.4011867,1.928821,-2.0993297,-1.5677356,2.4444125,-0.09097491,0.20745525,-0.2420172,0.018467285,0.029705567,-0.06094425,-0.59376204,0.2681506,-9.442732,0.92093146,47.686886,-1.0327258,-2.0978637,-3.5405633,-0.1154823,0.27453548,-0.3201412,26.5,27.375,26.5,29.8125,31.0625,31.5625
0.2460518,-1.1277963,-0.37028772,-0.007231295,-0.020219563,0.086558364,-0.1636264,-0.3953185,-0.35079122,0.059970386,3.074357,-0.62787604,-6.6495915e-05,-0.11597621,-0.0191982,-0.00084151846,-0.03546137,0.002433786,-0.027547266,0.46690923,-1.4007418,1.9283661,-2.0993302,-1.5677232,2.4442806,-0.088451445,0.20829694,-0.24443725,0.018072112,0.030226622,-0.060736246,-0.5554548,0.1340753,-9.461885,0.8314132,47.687782,-1.076251,-1.959811,-3.550613,-0.11866692,0.28184175,-0.33765358,26.5,27.375,26.5,29.8125,31.0625,31.5625
0.24805169,-1.1353852,-0.35265413,-0.27925193,0.004942222,0.06930217,-0.1588671,-0.39553973,-0.35084173,0.059966262,3.0742493,-0.62795204,5.465608e-07,-0.118554994,-0.019074487,-0.00011988691,-0.03781724,0.0038598874,-0.030859783,0.46673998,-1.4003208,1.9278749,-2.0992825,-1.5676264,2.4441729,-0.09180158,0.20991904,-0.24794255,0.01762753,0.031684607,-0.060770147,-0.51714754,0.076614454,-9.461885,0.8873621,47.71465,-0.942976,-1.9051427,-3.468874,-0.114459366,0.25645992,-0.3575254,26.5,27.375,26.5,29.8125,31.0625,31.5625
0.25005254,-1.2361767,-0.49144384,-0.38976556,0.02942318,0.05070299,-0.15009665,-0.39578477,-0.3508867,0.05997765,3.0741541,-0.62804705,-2.461357e-05,-0.1196842,-0.018247109,-0.0008956296,-0.037400108,0.003301361,-0.0316512,0.4665713,-1.3998995,1.927348,-2.0992353,-1.5675787,2.444076,-0.09409422,0.21199194,-0.24847911,0.016791046,0.031570803,-0.06226918,-0.45968673,0.21068975,-9.481039,0.8940802,47.694054,-0.78386474,-2.1089222,-3.5358644,-0.09527087,0.23657858,-0.36215672,26.5,27.375,26.5,29.8125,31.0625,31.5625
0.2520524,-0.99856573,-0.23832723,-0.3900707,0.019379258,0.054821867,-0.16038054,-0.39602616,-0.3509274,0.059957083,3.0740995,-0.628015,8.650096e-06,-0.12046547,-0.017731026,-0.0016333334,-0.036077727,0.0022478017,-0.030720953,0.46639094,-1.3994304,1.9268459,-2.0992224,-1.5675191,2.443883,-0.09516272,0.21448906,-0.24991432,0.017283158,0.030871112,-0.0642673,-0.5554548,0.17238252,-9.5385,0.8314132,47.68599,-0.79256976,-2.1169024,-3.5318081,-0.07610102,0.2424573,-0.35755563,26.5,27.375,26.5,29.8125,31.0625,31.5625
0.25405198,-1.5922514,-0.8653382,-0.31361988,0.014176674,0.03806532,-0.14179292,-0.3962482,-0.3509611,0.059955314,3.074026,-0.6280767,1.5182075e-05,-0.12164695,-0.017983776,-0.0013951146,-0.03651168,0.0023944974,-0.029455585,0.46622258,-1.3990335,1.9263796,-2.0991862,-1.5674704,2.4437628,-0.09589987,0.21631086,-0.2528363,0.018070836,0.03119845,-0.0662672,-0.4213795,0.19153613,-9.461885,0.8985519,47.68599,-0.73563117,-2.0534418,-3.6533365,-0.06529957,0.2294648,-0.3576988,26.5,27.375,26.5,29.8125,31.0625,31.5625
0.25605184,-1.1861608,-1.0493541,-0.2222844,-0.0022547692,0.04479972,-0.15362754,-0.3965016,-0.35098243,0.05993848,3.073914,-0.62826276,8.585244e-05,-0.12226627,-0.0183984,-0.0018779297,-0.037279967,0.00086418056,-0.027291741,0.46598256,-1.3985761,1.925877,-2.0991504,-1.567386,2.4436536,-0.09650779,0.21893005,-0.25501454,0.018669095,0.032581024,-0.06903618,-0.36391866,0.2681506,-9.385271,0.89631605,47.67345,-0.7311505,-2.1827078,-3.6493292,-0.07948007,0.21674782,-0.3414443,26.5,27.375,26.5,29.8125,31.0625,31.5625
0.2580522,-1.0358496,-1.0676876,-0.1929148,-0.009714953,0.044342,-0.15940537,-0.39672884,-0.35101607,0.059932064,3.073847,-0.62824667,0.000102174694,-0.12355993,-0.019125475,-0.0008520248,-0.03848069,0.0023954285,-0.023856087,0.46580255,-1.3981673,1.9254097,-2.099126,-1.567326,2.4434724,-0.096553214,0.21973158,-0.25856113,0.019527052,0.032974686,-0.07251439,-0.3256114,0.24899697,-9.481039,0.8717007,47.70211,-0.82193124,-2.1169758,-3.7145019,-0.079009086,0.1832779,-0.30734617,26.5,27.375,26.5,29.8125,31.0625,31.5625
0.26005247,-1.2777128,-1.2910042,-0.2701591,-0.00043034763,0.026594931,-0.15351261,-0.3969987,-0.35105094,0.0599321,3.0737891,-0.62832797,8.422405e-05,-0.12536605,-0.019503975,-0.0006004336,-0.038956013,0.00318861,-0.021007847,0.46561027,-1.3976861,1.9248351,-2.099066,-1.5673021,2.4433386,-0.097446084,0.22247963,-0.26250237,0.01981859,0.03305116,-0.07625246,-0.2681506,0.2681506,-9.442732,0.8537928,47.704796,-0.8177373,-2.2031217,-3.467822,-0.070089996,0.17667237,-0.26208752,26.5,27.375,26.5,29.8125,31.0625,31.5625
0.26205245,-0.50200045,-0.8664359,-0.25429997,0.0027271537,0.03056363,-0.16362338,-0.39723426,-0.35109,0.05989902,3.0736902,-0.6283815,0.00021826958,-0.12613618,-0.020620154,-0.00048767572,-0.039322685,0.0037234481,-0.016799996,0.46539468,-1.3972049,1.924344,-2.0990422,-1.567182,2.4431694,-0.09615208,0.22491258,-0.2657385,0.020005474,0.03314292,-0.07916518,-0.15322891,0.30645782,-9.404425,0.7777002,47.672558,-0.85492635,-2.1421506,-3.5374002,-0.05236437,0.16902366,-0.21959773,26.5,27.375,26.5,29.8125,31.0625,31.5625
0.26405165,-0.15472503,-1.060264,-0.46866587,0.0018986223,0.03355924,-0.1634343,-0.39755014,-0.3511389,0.059951443,3.073532,-0.6284226,2.0186353e-05,-0.12714152,-0.021477485,-0.00013310616,-0.04072226,0.004357244,-0.011826181,0.46517888,-1.396784,1.9237336,-2.0990422,-1.5671457,2.443,-0.09606996,0.22659151,-0.2685837,0.020001218,0.034136202,-0.08404811,-0.17238252,0.34476504,-9.423578,0.8806493,47.667187,-0.985294,-2.2286446,-3.4806724,-0.056934774,0.15015233,-0.1544789,26.5,27.375,26.5,29.8125,31.0625,31.5625
0.26605245,-0.3891174,-0.9867838,-0.3345772,-0.016222883,0.020136466,-0.15096034,-0.39774695,-0.35116836,0.05990487,3.0735486,-0.6284266,0.00014660294,-0.12903923,-0.02119384,0.00046816972,-0.04156103,0.005429007,-0.0144391,0.46503407,-1.396315,1.9232787,-2.098982,-1.5671095,2.4428558,-0.09832772,0.22777605,-0.271536,0.020440767,0.034395833,-0.083693966,-0.076614454,0.34476504,-9.32781,0.8672237,47.65643,-0.762931,-2.0762775,-3.3811173,-0.07183002,0.1413933,-0.13918915,26.5,27.375,26.5,29.8125,31.0625,31.5625
0.26805237,-0.3593571,-1.5069758,-0.41043496,-0.01759214,0.01494375,-0.14815259,-0.39802036,-0.35121286,0.059920583,3.0734415,-0.62844133,0.00015781198,-0.12990442,-0.02189871,0.00033284543,-0.04161106,0.005795023,-0.011028107,0.46481818,-1.3958579,1.9226931,-2.0989106,-1.5670255,2.4426632,-0.09769716,0.23028636,-0.2742183,0.020288259,0.03428766,-0.0864713,-0.038307227,0.40222588,-9.385271,0.8851263,47.705692,-0.9808583,-2.0436687,-3.2743468,-0.043494835,0.103934586,-0.089332744,26.5,27.375,26.5,29.8125,31.0625,31.5625
0.27005243,-0.4271736,-1.3737346,-0.29971883,-0.033230867,0.020838888,-0.15170322,-0.398287,-0.35125542,0.059918266,3.0733078,-0.6285306,0.0002072639,-0.13091166,-0.021638364,0.0010466435,-0.041934337,0.0070733996,-0.014706077,0.46458998,-1.3953897,1.9221433,-2.0988739,-1.5669178,2.4425082,-0.09875394,0.23001535,-0.27574152,0.020803263,0.03400368,-0.08384866,-0.1340753,0.47884035,-9.461885,0.91198283,47.717335,-0.89253175,-1.9716892,-3.3947015,-0.042512022,0.105115086,-0.07389594,26.5,27.375,26.5,29.8125,31.0625,31.5625
0.27205238,-0.6845192,-1.6322696,-0.5507123,-0.026323032,0.026267696,-0.14804445,-0.3985197,-0.3513031,0.0598984,3.0732796,-0.6285259,0.0002439537,-0.13128789,-0.021453599,0.0017413456,-0.042618956,0.0076424605,-0.01710161,0.46444574,-1.3949093,1.9216164,-2.0988262,-1.5668815,2.442365,-0.099552974,0.22895953,-0.27639502,0.021697856,0.03436054,-0.082251996,-0.05746084,0.38307226,-9.557653,0.8112748,47.68062,-0.8750632,-1.9130888,-3.488833,-0.04280014,0.10036902,-0.09412855,26.5,27.375,26.5,29.8125,31.0,31.5625
0.2740522,-0.7278277,-1.3806679,-0.60265446,-0.020459635,0.030318538,-0.14728352,-0.39877537,-0.35132682,0.05988551,3.0731971,-0.6285862,0.00028933235,-0.13130064,-0.021070527,0.001367921,-0.041622777,0.006915856,-0.019358851,0.4642177,-1.3944526,1.9211038,-2.0987895,-1.56681,2.4421854,-0.09977834,0.22962953,-0.27656454,0.022301171,0.033797845,-0.08022037,-0.019153614,0.38307226,-9.615114,0.8627467,47.689575,-0.87478185,-1.8671026,-3.5999794,-0.04325033,0.08682974,-0.09126633,26.5,27.375,26.5,29.8125,31.0,31.5625
0.27605206,-0.64251965,-0.49814925,-0.38855067,-0.022454442,0.031372253,-0.15402876,-0.3990513,-0.35138163,0.059902124,3.0730934,-0.6285853,0.00027151543,-0.1325478,-0.021476107,0.0018230496,-0.04236222,0.007887679,-0.022737958,0.46402547,-1.3939832,1.920504,-2.0987303,-1.5667375,2.4420063,-0.100210905,0.2310286,-0.2793818,0.022519391,0.034020483,-0.07726994,0.019153614,0.2681506,-9.481039,0.93436235,47.66271,-0.88639116,-1.963015,-3.6800444,-0.03016567,0.056248967,-0.115040064,26.5,27.375,26.5,29.8125,31.0,31.5625
0.27805197,-0.26747072,-0.37230334,-0.40037426,-0.004813141,0.02962228,-0.15530364,-0.3993273,-0.35143125,0.05990721,3.0729585,-0.6286921,0.00029535766,-0.13311891,-0.02180576,0.0008250275,-0.041842893,0.007328435,-0.025124172,0.4638097,-1.3935025,1.9199194,-2.0986826,-1.5666417,2.441875,-0.09990198,0.23420149,-0.28065968,0.021361658,0.033802684,-0.07457228,0.038307227,0.24899697,-9.442732,0.85826975,47.705692,-0.9567413,-1.9889451,-3.5989053,-0.032644566,0.052580193,-0.13287854,26.5,27.375,26.5,29.8125,31.0,31.5625
0.28005213,0.22836837,-0.19268088,-0.36739808,0.010014265,0.029994583,-0.16230561,-0.39959535,-0.35146168,0.0598977,3.0728989,-0.62873816,0.00028947354,-0.13430245,-0.021912865,0.00028612805,-0.040682342,0.007039123,-0.027980397,0.46360555,-1.3930206,1.9193691,-2.0986469,-1.5666059,2.4417076,-0.10008047,0.23764467,-0.28364447,0.02168316,0.032887843,-0.07189327,0.0,0.2681506,-9.461885,0.9768804,47.733456,-0.9456535,-1.9464242,-3.6247354,-0.017068138,0.050696738,-0.15903628,26.5,27.375,26.5,29.8125,31.0,31.5625
0.28205246,-0.41955477,-0.5560036,-0.874369,0.030463649,0.0006140533,-0.14736101,-0.39987895,-0.35151294,0.059904877,3.0727642,-0.6287887,0.00022962723,-0.13579004,-0.021882607,-0.0005383668,-0.038648374,0.0063188355,-0.030580947,0.46340173,-1.3925507,1.9188055,-2.0986578,-1.5665344,2.441553,-0.10039014,0.2423112,-0.28751284,0.022446476,0.031389106,-0.06959932,0.1340753,0.30645782,-9.576807,0.8627467,47.737934,-1.0738461,-2.1790724,-3.6375308,0.0021725618,0.055218607,-0.19635585,26.5,27.375,26.5,29.8125,31.0,31.5625
0.2840519,-0.54709464,-0.7065567,-0.72670424,0.006728867,0.0017058674,-0.1472111,-0.4001502,-0.3515612,0.059907924,3.0727072,-0.62883335,0.00019692666,-0.13630553,-0.022271289,-0.000383399,-0.037417356,0.0065022693,-0.030753229,0.46323383,-1.3920578,1.9182075,-2.0985978,-1.566511,2.4414208,-0.09933277,0.24399665,-0.29029328,0.023933657,0.03020633,-0.068369225,0.038307227,0.30645782,-9.595961,0.93436235,47.699425,-0.9472799,-2.1554608,-3.5483365,-0.008557177,0.055273093,-0.2303455,26.5,27.375,26.5,29.8125,31.0,31.5625
0.28605178,-0.9549382,-1.8425692,-0.46242282,-0.008227481,0.0069164466,-0.14166074,-0.4004255,-0.35160533,0.05991294,3.072591,-0.6290018,0.00025084606,-0.13854557,-0.022272175,5.3275387e-05,-0.0366966,0.008292807,-0.032516595,0.46301776,-1.3915641,1.9175962,-2.098502,-1.5664276,2.4413252,-0.10027067,0.24675262,-0.29472247,0.024340957,0.028756713,-0.06754354,-0.095768064,0.36391866,-9.481039,0.8717007,47.679718,-1.1730008,-2.1133552,-3.4498496,-0.032007072,0.07004477,-0.26098233,26.5,27.375,26.5,29.8125,31.0,31.5625
0.28805184,-0.6275245,-1.4686433,-0.8540996,-0.013033623,0.016950445,-0.15157394,-0.40068746,-0.35165444,0.05992642,3.0724983,-0.62900287,0.00022227642,-0.13988842,-0.021869045,0.0004592875,-0.036307197,0.009400129,-0.034503844,0.46283713,-1.3911194,1.9170336,-2.0984538,-1.566368,2.4411576,-0.1015178,0.24759865,-0.2968465,0.024811244,0.027916903,-0.06680217,0.05746084,0.30645782,-9.615114,0.7933669,47.699425,-0.9000447,-2.2467597,-3.4091086,-0.008707997,0.088979766,-0.29482463,26.5,27.375,26.5,29.8125,31.0,31.5625
0.29005185,-0.5300325,-0.95660675,-0.6552932,-0.021004297,0.022283833,-0.15672134,-0.40095928,-0.35170645,0.0599142,3.0723999,-0.6290953,0.0002512161,-0.14077215,-0.02211572,0.0011106171,-0.03673899,0.010681334,-0.032482293,0.46264526,-1.3906027,1.9164475,-2.0984175,-1.566296,2.4410365,-0.10165139,0.24790321,-0.29890147,0.0252428,0.02774182,-0.06895619,-0.038307227,0.4405331,-9.787497,0.91421866,47.70659,-1.1271411,-2.166429,-3.4432023,-0.010541475,0.09463734,-0.29870564,26.5,27.375,26.5,29.8125,31.0,31.5625
0.29205182,-1.0706404,-1.7507101,-0.65946203,-0.017841887,0.025478726,-0.14532973,-0.40126184,-0.35174388,0.05992771,3.0722837,-0.6292279,0.00020067701,-0.14024258,-0.020588927,-0.00040329396,-0.034400016,0.007492088,-0.03760788,0.46241665,-1.39011,1.9158281,-2.0983694,-1.5662478,2.440906,-0.103307135,0.24903427,-0.29712656,0.026231455,0.027077174,-0.06548638,-0.19153613,0.4213795,-9.653421,0.8672237,47.701214,-1.0565667,-2.0728412,-3.4967895,-0.0099991355,0.09210896,-0.3452608,26.5,27.375,26.5,29.8125,31.0,31.5625
0.2940522,-0.8226144,-1.345169,-0.52929026,-0.019004393,0.04232522,-0.14918664,-0.40153676,-0.35178375,0.059920043,3.0722246,-0.62927306,0.00019402905,-0.14041339,-0.020053474,-0.0006507552,-0.033053227,0.0062270034,-0.038586967,0.4622245,-1.3896049,1.9152421,-2.0983212,-1.5662125,2.4407501,-0.103886776,0.24996096,-0.2982032,0.028122514,0.026442887,-0.06508718,-0.19153613,0.34476504,-9.557653,0.92764956,47.71286,-1.096594,-2.000502,-3.6865878,-0.034652594,0.11146754,-0.3984716,26.5,27.375,26.5,29.8125,31.0,31.5625
0.2960522,-1.2620304,-1.2450229,-0.40641868,-0.014844345,0.042165738,-0.1454563,-0.40183264,-0.3518309,0.059931394,3.0720904,-0.6294156,0.00020449668,-0.14175975,-0.020060299,0.00044554973,-0.034353122,0.00804743,-0.03686454,0.46199623,-1.3891009,1.9146084,-2.0982492,-1.5661281,2.4406285,-0.10516107,0.24954988,-0.3004285,0.028573895,0.026809769,-0.068081215,-0.17238252,0.22984336,-9.595961,0.91198283,47.691364,-0.9988902,-1.873805,-3.7456522,-0.04419506,0.1292544,-0.40904462,26.5,27.375,26.5,29.8125,31.0,31.5625
0.2980523,-1.4069648,-0.8411286,-0.053848516,-0.0053294087,0.047686547,-0.1479814,-0.4021034,-0.35188952,0.05995042,3.0720005,-0.6294175,0.00012257238,-0.1438071,-0.020932749,0.002089414,-0.03601684,0.011307033,-0.038379878,0.46183994,-1.3886443,1.9140209,-2.098213,-1.5660919,2.4404855,-0.10535544,0.25011486,-0.3050124,0.028933922,0.026842844,-0.06675593,-0.2681506,0.13407528,-9.423578,0.9679317,47.695843,-1.045914,-1.8757763,-3.6423357,-0.045585983,0.12352777,-0.44487166,26.5,27.375,26.5,29.8125,31.0,31.5625
0.3000523,-1.5139229,-0.2806773,-0.22928257,0.0321827,0.030036341,-0.14198962,-0.40240595,-0.35191876,0.059940126,3.071856,-0.62961584,0.0001326381,-0.14522251,-0.021053595,0.003045382,-0.03675628,0.013368644,-0.037491567,0.46157593,-1.3881277,1.9134349,-2.0982006,-1.5660084,2.4403644,-0.10609684,0.25029656,-0.30756706,0.029153029,0.026598094,-0.06838392,-0.36391866,0.15322891,-9.423578,0.9835985,47.711063,-1.0662931,-1.7500669,-3.5777633,-0.0468786,0.13058765,-0.47355884,26.5,27.375,26.5,29.8125,31.0,31.5625
0.30205244,-0.9479276,0.5651292,-0.23048092,0.04501695,0.03824245,-0.15722188,-0.40269673,-0.3519704,0.059946373,3.071779,-0.62969494,0.00013855877,-0.14727297,-0.020922842,0.0033999109,-0.03788558,0.013711308,-0.03629268,0.4613829,-1.3875986,1.9127773,-2.0981052,-1.5659598,2.440231,-0.1085388,0.25250602,-0.31124285,0.029832378,0.027471041,-0.072020605,-0.3256114,0.05746084,-9.385271,0.94331104,47.693153,-0.85297215,-1.661719,-3.488245,-0.05533789,0.14411533,-0.4664803,26.5,27.375,26.5,29.8125,31.0,31.5625
0.30405253,-0.4142894,0.9106539,-0.11769529,0.055516344,0.04941712,-0.16248758,-0.40300187,-0.35201302,0.059970394,3.0716622,-0.62974447,8.1686754e-05,-0.14672755,-0.021192841,0.0011933955,-0.036183488,0.009414593,-0.031479202,0.4611552,-1.3871168,1.9121426,-2.0980446,-1.5659002,2.44005,-0.10774782,0.2573508,-0.31220642,0.030584881,0.027886348,-0.07603897,-0.2873042,0.076614454,-9.32781,0.89631605,47.668976,-1.0340073,-1.8507326,-3.4087884,-0.055954024,0.15716983,-0.43370706,26.5,27.375,26.5,29.8125,31.0,31.5625
0.30605215,-1.2249029,0.59263647,-0.21223967,0.044558987,0.049767207,-0.16038045,-0.40327844,-0.35205737,0.059980452,3.0715685,-0.6297989,4.364846e-05,-0.14840989,-0.020729898,0.00092536374,-0.035483014,0.0084691,-0.028673789,0.46096256,-1.3866471,1.9115566,-2.0979965,-1.565852,2.4399037,-0.1097838,0.26056173,-0.3158588,0.032217994,0.027703362,-0.08087744,-0.5554548,0.095768064,-9.3661175,0.8940802,47.687782,-0.85997623,-1.9739513,-3.4641929,-0.06300995,0.16072726,-0.41297412,26.5,27.375,26.5,29.8125,31.0,31.5625
0.30805233,-1.5068269,0.01305248,-0.14225398,0.018128598,0.07345756,-0.16300236,-0.4035931,-0.35210457,0.05997417,3.071473,-0.62992984,6.199581e-05,-0.14853731,-0.020857967,0.0006088355,-0.033991877,0.0071109654,-0.023656484,0.460735,-1.3860698,1.9108752,-2.097924,-1.5657924,2.4397707,-0.10911147,0.26259166,-0.3181735,0.034417428,0.026995802,-0.085222624,-0.51714754,0.11492168,-9.461885,0.96569055,47.661808,-1.0332404,-1.8889978,-3.4715388,-0.09482298,0.16383012,-0.37488624,26.5,27.375,26.5,29.8125,31.0,31.5625
0.31005248,-1.9671617,-1.1081314,-0.2477979,-0.0062701176,0.09198549,-0.1471677,-0.40387553,-0.35215336,0.059999615,3.0713797,-0.62992656,6.0356204e-05,-0.14944641,-0.020108074,0.00080175686,-0.031725734,0.006970543,-0.019647215,0.46053076,-1.3856006,1.9102405,-2.0978153,-1.5657209,2.4395769,-0.10986806,0.26381522,-0.32074818,0.036944058,0.025055839,-0.08999102,-0.59376204,0.21068975,-9.385271,0.9567419,47.707485,-1.0601948,-1.8276007,-3.4951296,-0.12876922,0.2038248,-0.3203878,26.5,27.375,26.5,29.8125,31.0,31.5625
0.31205252,-2.4011817,-1.3572562,-0.22926487,-0.01226534,0.071044646,-0.1438777,-0.4041597,-0.35219005,0.059971277,3.07136,-0.6299588,0.00012847054,-0.14935501,-0.019434283,0.0006769559,-0.031132497,0.005489406,-0.0161245,0.46032634,-1.3850243,1.9096073,-2.0977309,-1.5656847,2.4393954,-0.11093705,0.26373267,-0.32094517,0.038845114,0.025205415,-0.09458366,-0.5554548,0.21068975,-9.346964,0.8717007,47.71286,-0.98532677,-1.8969681,-3.4414077,-0.16705236,0.21435636,-0.25381696,26.5,27.375,26.5,29.8125,31.0,31.5625
0.31405258,-1.9443922,-1.5336725,-0.21786435,-0.020773007,0.07028905,-0.14348389,-0.40449718,-0.35221958,0.060002796,3.0712903,-0.6299413,-1.4087447e-05,-0.14985652,-0.019928887,0.00042170897,-0.031617012,0.004460981,-0.013243062,0.4600864,-1.3845189,1.9089264,-2.0976703,-1.5656842,2.4391541,-0.110961884,0.26589686,-0.323225,0.03968455,0.026119856,-0.09748399,-0.59376204,0.3256114,-9.442732,0.9298854,47.71286,-0.95765096,-1.8232125,-3.5363529,-0.22498429,0.23066312,-0.2021581,26.5,27.375,26.5,29.8125,31.0,31.5625
0.3160524,-1.3691107,-0.8537376,-0.059188277,-0.031570267,0.0609573,-0.1495419,-0.40481022,-0.35223943,0.059999965,3.0711756,-0.63012993,-4.0936306e-05,-0.151226,-0.01931996,0.00012533565,-0.03163267,0.004657171,-0.015402411,0.4598215,-1.3840017,1.9083155,-2.097635,-1.5656365,2.4390223,-0.11301898,0.26761213,-0.32457802,0.039150998,0.026052592,-0.097379856,-0.4213795,0.28730422,-9.289502,0.88289046,47.6636,-0.9848986,-1.9122597,-3.6691458,-0.22245933,0.23911597,-0.17327791,26.5,27.375,26.5,29.8125,31.0,31.5625
0.3180524,-1.1425543,-0.86656296,-0.19208346,0.002136173,0.023865484,-0.14610411,-0.40513515,-0.3523135,0.060026586,3.071072,-0.63001066,-7.770647e-05,-0.15347801,-0.020081772,0.0016274737,-0.03403146,0.008337802,-0.014907193,0.45961744,-1.3834493,1.907585,-2.0975516,-1.5655526,2.4387577,-0.11384533,0.26806834,-0.32844177,0.03821426,0.02657728,-0.09869626,-0.21068975,0.24899697,-9.346964,0.9634547,47.65643,-0.86691225,-1.8083625,-3.6136389,-0.2324825,0.26017246,-0.12963106,26.5,27.375,26.5,29.8125,31.0,31.5625
0.32005224,-0.3614186,-0.8204265,-0.09414199,0.01687618,0.008938579,-0.14638694,-0.4054436,-0.3523342,0.06001791,3.0709875,-0.6302069,-6.929327e-05,-0.15517382,-0.020777691,0.0019163985,-0.03628767,0.00889141,-0.020752493,0.45936507,-1.3829083,1.9069504,-2.0974796,-1.5655154,2.4386392,-0.1150717,0.27041242,-0.33189726,0.0378092,0.02833448,-0.09407053,-0.21068975,0.21068975,-9.308657,0.9701675,47.695843,-0.7937027,-1.7847617,-3.4391603,-0.24289642,0.2605385,-0.16042104,26.5,27.375,26.5,29.8125,31.0,31.5625
0.3220524,-0.33743384,-0.2737979,-0.07026002,0.02306119,-0.0013136218,-0.14834066,-0.40574363,-0.3523707,0.06001574,3.0709352,-0.63017935,-8.9942456e-05,-0.15734783,-0.020074846,0.0024252767,-0.037157696,0.010242595,-0.025004627,0.4591479,-1.3823793,1.9063176,-2.09742,-1.5654792,2.438412,-0.11813687,0.27147615,-0.33440328,0.037657503,0.028514117,-0.092880964,-0.34476504,0.2681506,-9.193734,0.8672237,47.698532,-0.75609463,-1.774462,-3.5236692,-0.24724439,0.28121698,-0.17003998,26.5,27.375,26.5,29.8125,31.0,31.5625
0.32405254,-0.22017373,0.108997725,-0.04769069,0.016624574,0.012949998,-0.15344016,-0.40607935,-0.35241377,0.060017057,3.070842,-0.630258,-8.872869e-05,-0.15691139,-0.021906722,0.0022439393,-0.037724182,0.009974744,-0.029096078,0.45889717,-1.3817894,1.9055995,-2.0973365,-1.5654196,2.438223,-0.114851095,0.27352962,-0.33657902,0.037740637,0.029115696,-0.08549987,-0.36391866,0.28730422,-9.232041,0.98807013,47.71286,-0.88690627,-1.8366909,-3.436367,-0.25726354,0.29825974,-0.22784,26.5,27.375,26.5,29.8125,31.0,31.5625
0.32605177,-1.3699653,-1.0578237,0.012952949,0.0056964727,0.025300765,-0.13818114,-0.40640643,-0.3524584,0.060046107,3.0707114,-0.63036734,-0.00014658157,-0.15817179,-0.021146657,0.0038274087,-0.039344136,0.011548987,-0.034635436,0.45865622,-1.3812745,1.9049062,-2.0972517,-1.565359,2.4380677,-0.1175742,0.27123612,-0.33793268,0.03925352,0.02987383,-0.082679056,-0.2681506,0.38307226,-9.232041,0.9097417,47.690468,-0.7556219,-1.5941513,-3.482548,-0.26833436,0.30289894,-0.27376646,26.5,27.375,26.5,29.8125,31.0,31.5625
0.32805207,-1.4559815,-1.356101,0.1549053,-0.030801106,0.055240195,-0.14309569,-0.40671644,-0.35248804,0.060023226,3.0706377,-0.63046646,-9.7724806e-05,-0.15803966,-0.02190995,0.001915483,-0.038143937,0.0073128226,-0.03416199,0.45840466,-1.3806955,1.9042605,-2.0971916,-1.5652989,2.437888,-0.11652039,0.27685916,-0.34072703,0.040761314,0.030674467,-0.082094744,-0.30645782,0.30645782,-9.193734,0.96569055,47.687782,-0.9207456,-1.6253122,-3.4034088,-0.3241419,0.31574446,-0.29528773,26.5,27.375,26.5,29.8125,31.0,31.5625
0.33005267,-1.5125812,-1.1933941,0.18342687,-0.03560836,0.049615685,-0.15121065,-0.40701023,-0.3525191,0.060004074,3.0705893,-0.6306285,-2.0533132e-06,-0.15886195,-0.022680348,0.0009452478,-0.038770605,0.0062293895,-0.03418842,0.45817673,-1.3801177,1.903591,-2.09706,-1.5652503,2.4377677,-0.116423115,0.2807971,-0.34313557,0.03993306,0.031709954,-0.08196806,-0.17238252,0.3256114,-9.251195,0.95897776,47.71554,-0.8872887,-1.750694,-3.5067427,-0.33231354,0.31752425,-0.30959743,26.5,27.375,26.5,29.8125,31.0,31.5625
0.3320526,-1.2000544,-1.3798264,0.23476203,-0.023950785,0.0527908,-0.14507101,-0.40736064,-0.35257953,0.06002913,3.0704374,-0.63065356,-0.00010667008,-0.15978858,-0.02301786,-0.00012694953,-0.03943539,0.005503341,-0.035029814,0.4579367,-1.3795638,1.9028744,-2.097037,-1.5651783,2.4375637,-0.117071584,0.28424668,-0.34453103,0.038245454,0.032636203,-0.08176714,-0.19153613,0.36391866,-9.232041,0.91421866,47.705692,-0.94044423,-1.8372469,-3.4917326,-0.32720137,0.31040132,-0.3295204,26.5,27.375,26.5,29.8125,31.0,31.5625
0.33405176,-0.5444612,-0.58020127,0.11207331,-0.016352843,0.04227337,-0.15502715,-0.40767056,-0.3526312,0.060035933,3.0703397,-0.6306911,-6.808405e-05,-0.16105485,-0.023748634,-0.0012000995,-0.040037166,0.0054649194,-0.035352003,0.45770872,-1.3790097,1.9021791,-2.0969298,-1.5650939,2.4373722,-0.11711319,0.2885623,-0.3468304,0.036008615,0.033189274,-0.08148239,-0.038307227,0.36391866,-9.174581,0.92764956,47.7245,-0.9949583,-1.9937246,-3.5615165,-0.3222025,0.34591895,-0.34512332,26.5,27.375,26.5,29.8125,31.0,31.5625
0.33605164,-0.08500619,-0.89451766,-0.07997809,0.0015806718,0.022237599,-0.15910935,-0.40800425,-0.3526675,0.060001813,3.0702477,-0.6308825,-4.895442e-05,-0.16240668,-0.025106,-8.4906365e-05,-0.04227582,0.00905154,-0.034540754,0.45745713,-1.3783733,1.9014982,-2.0969064,-1.5650462,2.4372525,-0.116056345,0.28895497,-0.34956983,0.034158245,0.033609543,-0.08123394,-0.019153614,0.45968673,-9.193734,0.92093146,47.690468,-1.0477135,-1.9910991,-3.550994,-0.30866304,0.34143516,-0.36691362,26.5,27.375,26.5,29.8125,31.0,31.5625
0.3380519,-0.3393943,-1.0949223,0.4621789,-0.01089175,0.0075533343,-0.14103833,-0.40834635,-0.3527074,0.06005331,3.070098,-0.630986,-0.00017779841,-0.16409616,-0.024881667,0.00016091045,-0.04339997,0.010811282,-0.036519963,0.4572043,-1.3778926,1.9007934,-2.0968235,-1.5649976,2.4370844,-0.117886424,0.2899765,-0.35110065,0.032603133,0.033851884,-0.08107878,-0.1340753,0.49799395,-8.963891,0.9186956,47.703007,-0.81970024,-1.8939295,-3.4807773,-0.3041097,0.3572959,-0.37591213,26.5,27.375,26.5,29.8125,31.0,31.5625
0.3400517,-0.029352034,-0.88399774,0.23825197,-0.011911039,5.2384843e-05,-0.1553197,-0.40864182,-0.35276136,0.059998535,3.070075,-0.6310343,-1.8313973e-05,-0.16468689,-0.026150197,0.00052342913,-0.044966664,0.012450636,-0.030301008,0.45700097,-1.3772193,1.9000987,-2.0967286,-1.5649256,2.4369144,-0.116524935,0.29101166,-0.35305363,0.031396948,0.034549005,-0.085936144,-0.038307227,0.47884035,-8.963891,0.9388393,47.694946,-1.1434002,-1.8050848,-3.5399072,-0.28027016,0.3589424,-0.35564438,26.5,27.375,26.5,29.8125,31.0,31.5625
0.34205258,0.1207624,-1.0572631,0.06547203,-0.012914224,-0.00089905644,-0.15430515,-0.40901646,-0.35280567,0.060010474,3.069931,-0.63119704,-0.00014382844,-0.16635855,-0.026331034,0.0012740997,-0.046243344,0.014639937,-0.0307754,0.45673665,-1.3766189,1.8993572,-2.0967162,-1.5648898,2.4367712,-0.11760121,0.29170755,-0.35558125,0.030715914,0.03474409,-0.08653229,0.095768064,0.5363012,-9.136273,0.9030289,47.668976,-0.92542017,-1.8400794,-3.5908117,-0.2574339,0.36025098,-0.36835158,26.5,27.375,26.5,29.8125,31.0,31.5625
0.34405187,-0.24434614,-1.4320815,0.14084122,-0.035974607,-0.0024120747,-0.14674519,-0.40933895,-0.35284862,0.059997853,3.0698411,-0.63127035,-7.417834e-05,-0.16832966,-0.026695218,0.002556737,-0.047872376,0.016459972,-0.025910117,0.45648405,-1.3760177,1.8986515,-2.0966203,-1.5648049,2.4365764,-0.11893568,0.29253572,-0.3599028,0.031907927,0.035435285,-0.09272844,0.05746084,0.53630114,-9.097966,0.97464454,47.677036,-1.050452,-1.8445745,-3.4068458,-0.27226725,0.38301438,-0.32490236,26.5,27.375,26.5,29.8125,31.0,31.5625
0.34605223,-0.2014837,-1.6256983,0.1315265,-0.027467277,0.009659467,-0.15131953,-0.40966102,-0.35288927,0.059975866,3.0697737,-0.63133204,-2.8175346e-05,-0.1692545,-0.02656601,0.0021912197,-0.048739918,0.0154459765,-0.02438146,0.4562435,-1.3754046,1.8979577,-2.0965483,-1.5647448,2.4363835,-0.120575234,0.2944634,-0.36159512,0.03222923,0.036681917,-0.095891975,0.019153614,0.63206923,-9.136273,0.8851263,47.658226,-0.89178336,-1.7318003,-3.459876,-0.27078736,0.38159543,-0.26274645,26.5,27.375,26.5,29.8125,31.0,31.5625
0.34805226,-0.73042434,-1.5476954,-0.1859705,-0.022853067,0.013436167,-0.14206466,-0.40999818,-0.3529672,0.059981022,3.0696592,-0.6313066,-4.65217e-05,-0.17053771,-0.02659135,0.0011434563,-0.049719628,0.014319768,-0.022306027,0.45603895,-1.3747908,1.8972043,-2.0964887,-1.56466,2.4361784,-0.122350775,0.29806846,-0.36337832,0.031020967,0.038083732,-0.099734664,-0.076614454,0.38307226,-9.174581,0.94331104,47.666286,-0.86913013,-1.8160701,-3.4773922,-0.24581687,0.37248933,-0.2226042,26.5,27.375,26.5,29.8125,31.0,31.5625
0.35005224,-0.39540738,-0.9460059,-0.16969928,-0.02416867,0.031986445,-0.15872726,-0.41033724,-0.3530179,0.059976287,3.0695336,-0.63133454,-6.73292e-05,-0.17150006,-0.0270694,0.0008493813,-0.051129576,0.014796489,-0.017873257,0.45578673,-1.3742017,1.8965105,-2.0964653,-1.5645756,2.4359605,-0.12287289,0.29999426,-0.36480835,0.029521154,0.039173838,-0.10468245,0.019153614,0.34476504,-9.174581,1.0104496,47.678825,-0.84054506,-1.9437013,-3.5568585,-0.22136804,0.36294836,-0.16301256,26.5,27.375,26.5,29.8125,31.0,31.5625
0.35205227,-0.8385851,-0.7792278,-0.05139334,-0.004720464,0.015568233,-0.14834878,-0.41067472,-0.35308957,0.05996974,3.0693917,-0.6313609,3.258323e-05,-0.17123045,-0.02764738,-0.0003625592,-0.05209664,0.012074767,-0.015777152,0.45553488,-1.3735641,1.8957466,-2.0963695,-1.5644311,2.435744,-0.12279854,0.30268604,-0.36541393,0.029483872,0.04126009,-0.106695905,-0.114921674,0.28730422,-9.308656,0.900793,47.68599,-0.87155545,-1.9456068,-3.5160723,-0.21536398,0.36623448,-0.102007784,26.5,27.375,26.5,29.8125,31.0,31.5625
0.35405198,-0.33483022,-0.4914977,-0.056793515,-0.0013743312,0.03114229,-0.15419763,-0.4110446,-0.3531309,0.059982,3.0692697,-0.6314892,-6.303302e-05,-0.17206198,-0.028571522,-0.0007024517,-0.05305661,0.0115321325,-0.015983643,0.4552711,-1.3729622,1.8949927,-2.0963218,-1.5643948,2.435577,-0.122450784,0.30571297,-0.3684109,0.029526444,0.042371586,-0.10613232,-0.24899697,0.28730422,-9.193734,0.91198283,47.689575,-0.91008735,-2.0736287,-3.6208115,-0.2071184,0.34394497,-0.07047929,26.5,27.375,26.5,29.8125,31.0,31.5625
0.35605204,-0.5801554,-0.50906336,-0.17824326,0.008881457,0.034566965,-0.14959799,-0.4113347,-0.3531919,0.059947193,3.0691884,-0.6314144,5.5620796e-05,-0.17183524,-0.030370964,-0.0006698216,-0.055589058,0.011263096,-0.016865617,0.4550559,-1.3723617,1.8943471,-2.0962737,-1.5642737,2.4353259,-0.12052787,0.30696738,-0.37001294,0.028997935,0.044752724,-0.1033188,-0.19153613,0.3256114,-9.212888,0.947788,47.67614,-0.9919373,-2.0981874,-3.6521473,-0.16089022,0.32467353,-0.05767245,26.5,27.375,26.5,29.8125,31.0,31.5625
0.35805184,-0.32110402,-0.67039645,-0.27619636,0.009519589,0.036840476,-0.13773327,-0.41171655,-0.3532399,0.059926357,3.0690868,-0.6315694,7.339557e-05,-0.1736653,-0.030566894,-0.0005228683,-0.05669558,0.010608348,-0.022689894,0.4547789,-1.3716519,1.8935336,-2.0962017,-1.5642132,2.4351594,-0.12235264,0.30998752,-0.37448895,0.03054404,0.046021,-0.09931177,-0.076614454,0.28730422,-9.385271,0.9455522,47.66808,-0.91860867,-2.1251094,-3.666356,-0.15062547,0.2715201,-0.09976062,26.5,27.375,26.5,29.8125,31.0,31.5625
0.3600517,-1.0421423,-0.815569,-0.15280172,-0.01653158,0.02500896,-0.14327337,-0.41204476,-0.35330582,0.059934262,3.0689602,-0.6316018,5.2897638e-05,-0.1743414,-0.031221826,-0.00041743004,-0.058075465,0.009601634,-0.027041873,0.45456332,-1.3710744,1.892815,-2.0961416,-1.5641288,2.434981,-0.122697756,0.31181902,-0.37736577,0.031873785,0.047694672,-0.09529424,-0.22984336,0.2681506,-9.308657,0.9298854,47.67345,-1.1204814,-2.1794274,-3.5965528,-0.15678293,0.26257178,-0.13512611,26.5,27.375,26.5,29.8125,31.0,31.5625
0.3620527,-0.9005467,-0.96273875,-0.24669619,-0.015738057,0.022521283,-0.14255072,-0.41239622,-0.35336122,0.059925746,3.0688381,-0.6316931,6.347761e-05,-0.17607488,-0.03140557,0.0014247049,-0.059915263,0.013095113,-0.031686638,0.4543108,-1.370438,1.892063,-2.0960815,-1.5640448,2.434802,-0.12375154,0.31046325,-0.3801463,0.032059375,0.047804512,-0.09169981,-0.24899697,0.2681506,-9.3661175,0.9612189,47.65106,-0.95038056,-2.2032952,-3.482427,-0.14951783,0.25548714,-0.17720646,26.5,27.375,26.5,29.8125,31.0,31.5625
0.36405224,-1.3391536,-0.7558734,-0.5604606,-0.0077627213,0.013037945,-0.12763722,-0.41274774,-0.3534369,0.059918746,3.0686967,-0.63168424,9.034237e-05,-0.17825882,-0.032513674,0.00250118,-0.0634315,0.0149465185,-0.03512831,0.4540702,-1.3697894,1.8912958,-2.0960338,-1.5639237,2.4345748,-0.124981515,0.3121772,-0.38471544,0.03170747,0.050145578,-0.08947444,-0.22984336,0.30645782,-9.3661175,0.9231726,47.67614,-0.9708909,-2.0294707,-3.4114676,-0.11481969,0.2153795,-0.19051215,26.5,27.375,26.5,29.8125,31.0,31.5625
0.36605224,-1.2080855,-0.84383404,-0.80059683,0.0032290346,0.012890645,-0.13565437,-0.41309524,-0.35348448,0.05990317,3.068555,-0.63184977,0.00015395095,-0.17836249,-0.03117249,0.0010327867,-0.06202065,0.011826036,-0.041373223,0.45379362,-1.3691523,1.8905557,-2.0959618,-1.563816,2.4344206,-0.1272534,0.31417546,-0.38414592,0.03255871,0.050242033,-0.08549988,-0.28730422,0.3256114,-9.385271,0.92093146,47.66808,-0.9077661,-1.9506879,-3.5142555,-0.12080379,0.17753801,-0.24590409,26.5,27.375,26.5,29.8125,31.0,31.5625
0.36805248,-0.74847215,-0.46639535,-0.6889499,-0.0031456554,0.04358964,-0.14004548,-0.4134609,-0.3535526,0.059906222,3.0683846,-0.6319267,0.00015410785,-0.1771913,-0.030627303,-0.000547922,-0.059752394,0.0077269194,-0.039231848,0.4535298,-1.3685145,1.8897775,-2.0959127,-1.5636963,2.4342277,-0.1269108,0.31610656,-0.38355067,0.03474801,0.050032657,-0.08729565,-0.2681506,0.30645782,-9.519346,0.9298854,47.684196,-0.9188704,-2.0920823,-3.6989317,-0.099699706,0.17220446,-0.26991957,26.5,27.375,26.5,29.8125,31.0,31.5625
0.37005222,-0.9405711,-0.5221509,-0.69009453,-0.007426516,0.05429477,-0.14682761,-0.41380063,-0.35360423,0.059897415,3.0682967,-0.6320841,0.00022941049,-0.17734085,-0.029641712,-0.0015405753,-0.05874214,0.0051921033,-0.04463047,0.45328924,-1.3678658,1.8889908,-2.0957687,-1.5636243,2.4340973,-0.1286838,0.31768304,-0.38365456,0.035988662,0.05022527,-0.08366978,-0.24899697,0.30645782,-9.615114,0.9634547,47.703903,-0.96236664,-1.9864241,-3.9293373,-0.11736438,0.15394965,-0.3141343,26.5,27.375,26.5,29.8125,31.0,31.5625
0.37205228,-1.2523104,-1.3078674,-0.91239387,-0.0019365937,0.06239582,-0.13374618,-0.41416392,-0.35367832,0.059912454,3.0681071,-0.63217777,0.00020083756,-0.17799807,-0.030981267,-0.0015914318,-0.059806127,0.004881432,-0.04443517,0.45303765,-1.367252,1.8882135,-2.0957205,-1.5635036,2.4339297,-0.12746653,0.32050544,-0.38720205,0.03653878,0.05132302,-0.08263647,-0.36391866,0.30645782,-9.519346,0.90527004,47.687782,-0.903687,-2.134485,-3.8375623,-0.09808494,0.09889865,-0.36948967,26.5,27.375,26.5,29.8125,31.0,31.5625
0.3740524,-1.8893929,-1.2448597,-0.9225064,-0.009335266,0.05220832,-0.13361262,-0.41449663,-0.35373345,0.059879344,3.0679898,-0.63230807,0.00036033473,-0.1798619,-0.029877612,-0.002728312,-0.058770142,0.00324743,-0.04885126,0.45277253,-1.3665781,1.8874596,-2.0956128,-1.5633715,2.4337616,-0.13060638,0.32460433,-0.38982946,0.03700597,0.051100355,-0.08136146,-0.38307226,0.40222588,-9.5385,0.96569055,47.667187,-0.85350835,-2.1516304,-3.8001025,-0.09973645,0.0898763,-0.4054816,26.5,27.375,26.5,29.8125,31.0,31.5625
0.37605244,-1.7763693,-1.2316387,-1.0291257,-0.015194816,0.052576523,-0.12704757,-0.4148517,-0.35380805,0.059876032,3.0678673,-0.632357,0.0003800563,-0.1817075,-0.030902278,-0.0017410446,-0.056694258,0.006559409,-0.04615448,0.4525454,-1.3659164,1.8866576,-2.0955284,-1.5632771,2.4335816,-0.12821262,0.3273958,-0.395897,0.038245127,0.04778744,-0.08167282,-0.4213795,0.40222588,-9.730036,0.97464454,47.67614,-0.98133993,-2.4289975,-3.6938477,-0.089939825,0.10950413,-0.44219673,26.5,27.375,26.5,29.8125,31.0,31.5625
